Afshin1997/kuka_rl_ros2/src/catch_and_throw/input_files/idealpd/recorded_trajectories/env_284_data.csv
torque0,torque1,torque2,torque3,torque4,torque5,torque6,action0,action1,action2,action3,action4,action5,action6,set_target_0,set_target_1,set_target_2,set_target_3,set_target_4,set_target_5,set_target_6,joint_pos_0,joint_pos_1,joint_pos_2,joint_pos_3,joint_pos_4,joint_pos_5,joint_pos_6,joint_vel_0,joint_vel_1,joint_vel_2,joint_vel_3,joint_vel_4,joint_vel_5,joint_vel_6,tennisball_pos_0,tennisball_pos_1,tennisball_pos_2,tennisball_lin_vel_0,tennisball_lin_vel_1,tennisball_lin_vel_2,end_effector_pos_0,end_effector_pos_1,end_effector_pos_2,end_effector_rot_0,end_effector_rot_1,end_effector_rot_2,end_effector_rot_3,end_effector_lin_vel_0,end_effector_lin_vel_1,end_effector_lin_vel_2,obs_task_0,obs_task_1,obs_task_2,obs_task_3,obs_task_4,obs_task_5,obs_task_6,to_final_target_0,to_final_target_1,to_final_target_2,joint_acc_0,joint_acc_1,joint_acc_2,joint_acc_3,joint_acc_4,joint_acc_5,joint_acc_6
0.0,0.0,0.0,0.0,0.0,0.0,0.0,0.0,0.0,0.0,0.0,0.0,0.0,0.0,1.7802359,-1.0646509,-1.8151424,-1.1170107,1.9373155,1.1170107,-0.91629785,1.7802359,-1.0646509,-1.8151424,-1.1170107,1.9373155,1.1170107,-0.91629785,0.0,0.0,0.0,0.0,0.0,0.0,0.0,3.097828,-0.55174255,0.31743786,-3.4560132,-0.021623457,5.079199,0.530416,-0.45448303,0.693097,0.5745483,0.17512383,0.15255436,0.7848268,0.0,0.0,0.0,1.0,0.0,0.0,0.0,0.0,0.0,0.0,-3.747828,0.15174255,0.23256215,0.0,0.0,0.0,0.0,0.0,0.0,0.0
0.0,0.0,0.0,0.0,0.0,0.0,0.0,0.0,0.0,0.0,0.0,0.0,0.0,0.0,1.7802359,-1.0646509,-1.8151424,-1.1170107,1.9373155,1.1170107,-0.91629785,1.7802359,-1.0646509,-1.8151424,-1.1170107,1.9373155,1.1170107,-0.91629785,0.0,0.0,0.0,0.0,0.0,0.0,0.0,3.097828,-0.55174255,0.31743786,-3.4560132,-0.021623457,5.079199,0.530416,-0.45448303,0.693097,0.5745483,0.17512383,0.15255436,0.7848268,0.0,0.0,0.0,1.0,0.0,0.0,0.0,0.0,0.0,0.0,-3.747828,0.15174255,0.23256215,0.0,0.0,0.0,0.0,0.0,0.0,0.0
0.0,0.0,0.0,0.0,0.0,0.0,0.0,0.0,0.0,0.0,0.0,0.0,0.0,0.0,1.7802359,-1.0646509,-1.8151424,-1.1170107,1.9373155,1.1170107,-0.91629785,1.7802359,-1.0646509,-1.8151424,-1.1170107,1.9373155,1.1170107,-0.91629785,0.0,0.0,0.0,0.0,0.0,0.0,0.0,3.097828,-0.55174255,0.31743786,-3.4560132,-0.021623457,5.079199,0.530416,-0.45448303,0.693097,0.5745483,0.17512383,0.15255436,0.7848268,0.0,0.0,0.0,1.0,0.0,0.0,0.0,0.0,0.0,0.0,-3.747828,0.15174255,0.23256215,0.0,0.0,0.0,0.0,0.0,0.0,0.0
-176.0,57.054707,-10.447561,110.0,11.057841,4.411211,-3.7553797,-0.80950046,0.28570005,-0.5365985,0.73793143,0.25828984,0.66481966,-0.60289025,1.6992859,-1.0360808,-1.8688022,-1.0432175,1.9631444,1.1834927,-0.9765869,1.7789236,-1.0624822,-1.8211887,-1.1123396,1.9424062,1.1221892,-0.9182176,-0.17486133,0.2885046,-0.8054828,0.62316537,0.67787147,0.68870115,-0.25544563,3.0632937,-0.5519562,0.3674553,-3.452558,-0.021601837,4.9759345,0.5283499,-0.45772552,0.6937344,0.578447,0.17376864,0.15116142,0.78253037,-0.27531102,-0.43087515,0.08483221,1.0,0.0,0.0,0.0,0.0,0.0,0.0,-3.7132936,0.15195617,0.18254471,-17.405777,28.642883,-80.37738,62.41681,67.52874,68.32306,-25.387053
-176.0,-26.7332,-44.03077,110.0,12.676666,1.6862113,-3.054923,-0.80474454,-0.13383637,-0.5492642,0.7011375,0.41921437,0.6515139,-0.59152335,1.6984491,-1.0758659,-1.8761151,-1.0422258,1.9843276,1.1873405,-0.9773699,1.7772928,-1.0596308,-1.8362339,-1.0989271,1.9532952,1.1353709,-0.920206,-0.16190548,0.27245247,-1.7104232,1.5811099,1.2109472,1.496661,-0.18593732,3.028794,-0.5521698,0.41644087,-3.4491062,-0.02158024,4.8727736,0.52370787,-0.4660492,0.6944019,0.58697224,0.17052062,0.14732178,0.7776133,-0.52797383,-0.964905,0.06373065,1.0,0.0,0.0,0.0,0.0,0.0,0.0,-3.678794,0.1521698,0.13355914,0.4881382,-5.068016,-82.37691,95.957756,48.773838,71.38905,5.1727085
-154.03305,125.58638,37.902245,96.77219,8.499037,8.559185,-1.8001457,-0.7619816,0.3327897,0.104108624,0.6486995,0.44287395,0.68704754,-0.5324432,1.7010946,-1.0263518,-1.825823,-1.0340571,1.9975827,1.2040756,-0.9734503,1.7724425,-1.0559725,-1.8511512,-1.0812842,1.9655843,1.1501967,-0.922286,-0.5932163,0.39342624,-1.4114395,1.8263334,1.2293915,1.4706227,-0.21736664,2.994329,-0.5523834,0.4643956,-3.4456577,-0.021558665,4.769716,0.5161257,-0.47714233,0.69691473,0.5983668,0.1655477,0.14203256,0.77095896,-0.84252745,-1.149737,0.3178834,1.0,0.0,0.0,0.0,0.0,0.0,0.0,-3.644329,0.15238342,0.0856044,-43.22787,10.990209,32.11205,24.855019,0.24459362,-4.8013926,-3.7506938
-99.4768,121.98769,46.63015,61.40402,5.218228,8.331235,-0.39707586,-0.77466327,0.17174272,0.15805696,0.63856477,0.4712974,0.65324205,-0.5732185,1.6949761,-1.0387982,-1.8353455,-1.0174277,2.012714,1.2155209,-0.9796078,1.7632891,-1.0520223,-1.8604534,-1.063542,1.9769216,1.163941,-0.92470735,-1.0238477,0.39307272,-0.7617152,1.7574502,1.0963051,1.3381782,-0.25272334,2.9598985,-0.55259705,0.51132053,-3.4422128,-0.021537112,4.666761,0.50590086,-0.48889923,0.7016283,0.6107492,0.15904436,0.13564898,0.7637339,-1.0940287,-1.1743845,0.5271748,1.0,0.0,0.0,0.0,0.0,0.0,0.0,-3.6098986,0.15259704,0.03867948,-43.414425,-0.8206785,67.394,-6.7370415,-14.962101,-14.536333,-4.252255
-44.54566,135.87119,54.630016,34.98089,2.0660274,7.4023676,0.22741872,-0.79021025,0.30335113,0.12933789,0.64065135,0.5440368,0.6597096,-0.57265294,1.6842681,-1.0216873,-1.8475196,-0.99947685,2.0313253,1.229912,-0.98197263,1.7505995,-1.0476583,-1.8634479,-1.0476023,1.986876,1.1762282,-0.92747396,-1.3520849,0.44886652,-0.13896894,1.5392728,0.9579839,1.1902483,-0.2871899,2.9255023,-0.55281067,0.55721664,-3.4387712,-0.021515578,4.563909,0.49379635,-0.5000305,0.7082252,0.6229776,0.15125777,0.12858672,0.7566276,-1.2616962,-1.0784228,0.70595306,1.0,0.0,0.0,0.0,0.0,0.0,0.0,-3.5755024,0.15281066,-0.0072166324,-33.23343,5.0051928,64.245804,-21.919727,-14.997328,-15.394878,-4.2170105
-6.9368157,125.05266,48.086594,16.418041,-0.19949645,5.1334906,0.28653798,-0.8058785,0.38453445,0.05793147,0.6327384,0.52821136,0.64851886,-0.5887053,1.6700116,-1.0092049,-1.8576548,-0.98432845,2.0396972,1.24108,-0.9863445,1.735686,-1.0424246,-1.8620632,-1.0339113,1.9956288,1.1871668,-0.9305534,-1.5387908,0.5471703,0.23514217,1.312021,0.84567845,1.0613693,-0.3168698,2.8911405,-0.5530243,0.60208505,-3.4353333,-0.021494066,4.46116,0.4806652,-0.5098953,0.7161093,0.6346525,0.14266811,0.12158189,0.7497198,-1.341653,-0.9416915,0.81576186,1.0,0.0,0.0,0.0,0.0,0.0,0.0,-3.5411406,0.15302429,-0.052085042,-19.009186,9.452987,38.639893,-22.893547,-11.826075,-12.985992,-3.5760343
15.824297,124.26172,44.17649,8.444676,-1.5808655,3.5400324,0.04993687,-0.8131913,0.5180432,-0.002163718,0.628693,0.52006143,0.6516144,-0.5881827,1.6543669,-0.99062026,-1.8622795,-0.97104204,2.047635,1.2523283,-0.98937166,1.7198015,-1.035684,-1.858897,-1.0220381,2.0035405,1.196982,-0.9338884,-1.6059446,0.71534914,0.3464887,1.1453072,0.772236,0.9552358,-0.34083888,2.856813,-0.5532379,0.6459268,-3.4318986,-0.021472577,4.3585134,0.46718454,-0.5182953,0.72486126,0.64583415,0.13366306,0.115398146,0.7427756,-1.3601754,-0.7923525,0.8933764,1.0,0.0,0.0,0.0,0.0,0.0,0.0,-3.506813,0.15323791,-0.09592676,-7.0191383,16.531647,11.922169,-16.842152,-7.601607,-10.50812,-2.9183328
22.885908,113.20484,36.929382,6.030137,-1.9463129,2.2053292,-0.18464783,-0.82023895,0.59165305,-0.060193397,0.62471896,0.5209621,0.6438233,-0.5712801,1.6377777,-0.9765187,-1.8649163,-0.95956624,2.0556366,1.2613643,-0.9910164,1.7037989,-1.027141,-1.8560531,-1.0112597,2.010983,1.2058722,-0.9374122,-1.5991772,0.8999177,0.26538077,1.0547931,0.73457813,0.8675424,-0.35770208,2.8225198,-0.55345154,0.6887428,-3.4284673,-0.02145111,4.2559695,0.45375824,-0.52536774,0.73415345,0.6567375,0.12456167,0.110481545,0.73550934,-1.3446413,-0.66324264,0.9391026,1.0,0.0,0.0,0.0,0.0,0.0,0.0,-3.4725199,0.15345153,-0.1387428,0.4215479,18.253279,-7.6143208,-9.224486,-3.8496017,-8.63043,-2.1012366
25.09506,105.37552,33.46591,6.162483,-1.7301695,1.6655022,-0.22692063,-0.81851965,0.6469905,-0.044411693,0.6141238,0.53617513,0.6453784,-0.555681,1.6219469,-0.9624419,-1.8604943,-0.9498473,2.0646005,1.2704101,-0.9929803,1.6881281,-1.0168871,-1.8544185,-1.00096,2.0182729,1.2140013,-0.9410638,-1.5569689,1.0667273,0.13087621,1.021086,0.726951,0.7950357,-0.36890844,2.788261,-0.55366516,0.73053414,-3.4250395,-0.021429662,4.153528,0.44055367,-0.5312805,0.743829,0.6674879,0.11549373,0.10682018,0.72781205,-1.3185583,-0.5530888,0.9752205,1.0,0.0,0.0,0.0,0.0,0.0,0.0,-3.438261,0.15366516,-0.18053412,4.0044785,16.51746,-13.046604,-3.5625458,-0.8123994,-7.182145,-1.4830589
23.959225,95.4239,30.2947,6.5090623,-1.2842286,1.3995376,-0.15530914,-0.8116266,0.6817332,-0.037910193,0.5977907,0.5584253,0.6475256,-0.5507824,1.6069654,-0.9487138,-1.8582095,-0.94118094,2.0741155,1.2787539,-0.996142,1.6729456,-1.0052732,-1.8540142,-0.99078715,2.0256543,1.221501,-0.9448032,-1.5060332,1.192447,0.011481726,1.0152028,0.74153453,0.7350276,-0.37674657,2.7540364,-0.5538788,0.7713018,-3.4216151,-0.021408236,4.0511894,0.42759275,-0.53624725,0.75379777,0.6780926,0.106487826,0.10412406,0.71972835,-1.2933334,-0.4613628,1.0024258,1.0,0.0,0.0,0.0,0.0,0.0,0.0,-3.4040365,0.15387878,-0.2213018,4.905534,12.437463,-11.561239,-0.80833435,1.4213562,-5.9994817,-1.1229575
20.841507,86.304634,27.933598,7.2040496,-0.7666731,1.3623638,-0.03717822,-0.80802506,0.7017493,-0.017165624,0.5834283,0.57590187,0.6536685,-0.56191033,1.592143,-0.9350983,-1.8557308,-0.93244433,2.0832446,1.2868679,-1.0009942,1.6582018,-0.992758,-1.854388,-0.9806162,2.0332646,1.2284838,-0.948615,-1.4643323,1.2709558,-0.052303042,1.0169809,0.76719975,0.68578255,-0.38380295,2.7198462,-0.5540924,0.81104684,-3.4181943,-0.021386832,3.948953,0.41481686,-0.5404053,0.76399034,0.6884964,0.09751755,0.102005914,0.7113774,-1.2760274,-0.38423985,1.0236145,1.0,0.0,0.0,0.0,0.0,0.0,0.0,-3.3698463,0.1540924,-0.26104683,3.9952755,7.7330112,-5.969894,-0.05364418,2.5083542,-4.974115,-1.0342658
18.404875,79.52793,26.27788,7.2575626,-0.41466528,1.380243,0.09250454,-0.8048971,0.72011995,0.0011342881,0.55966157,0.5966435,0.65832376,-0.5562493,1.577712,-0.92074597,-1.8542745,-0.9246501,2.092929,1.2943162,-1.0042399,1.6437613,-0.97972697,-1.8549888,-0.9705063,2.0411763,1.2350432,-0.9524841,-1.4377851,1.3134823,-0.06111709,1.0082767,0.7984293,0.6457054,-0.38906774,2.68569,-0.55430603,0.8497703,-3.4147768,-0.02136545,3.846819,0.40215826,-0.5438309,0.7743496,0.6986093,0.088545404,0.10013008,0.70290726,-1.2653584,-0.314752,1.0388124,1.0,0.0,0.0,0.0,0.0,0.0,0.0,-3.33569,0.15430602,-0.2997703,2.4781942,4.148507,-0.42641237,-1.108408,3.046453,-4.0684223,-0.8547187
15.953577,72.032166,23.71734,6.76612,-0.24296087,1.2582707,0.16545466,-0.80266964,0.72795993,-9.7417855e-05,0.53510374,0.6050107,0.6648163,-0.55888045,1.5634943,-0.906931,-1.8549986,-0.91699594,2.1016774,1.3015248,-1.0083721,1.6294829,-0.966469,-1.855479,-0.96059763,2.049374,1.2412611,-0.95639986,-1.4251907,1.3295586,-0.043403577,0.9842068,0.82666856,0.61383885,-0.3935096,2.6515675,-0.55451965,0.8874732,-3.4113626,-0.021344088,3.744787,0.38958216,-0.54663086,0.7847749,0.7083657,0.07958067,0.09831276,0.6944203,-1.257296,-0.25242853,1.0423644,1.0,0.0,0.0,0.0,0.0,0.0,0.0,-3.3015676,0.15451965,-0.3374732,1.0838985,1.5234947,2.2320926,-2.6533365,2.7542472,-3.2149315,-0.7635534
15.012533,69.5054,22.820803,6.8110685,-0.17220986,1.2283955,0.20198895,-0.79714304,0.74014467,0.014424516,0.52160734,0.6130335,0.6690661,-0.552963,1.5497686,-0.8924545,-1.8540366,-0.9084369,2.1106775,1.3081677,-1.0116961,1.615275,-0.95312804,-1.855664,-0.95097697,2.057816,1.2472101,-0.96035,-1.4197472,1.3352883,-0.008608737,0.9538859,0.84970164,0.5885001,-0.39652744,2.6174793,-0.5547333,0.92415655,-3.407952,-0.021322748,3.642857,0.3770752,-0.54883575,0.79521096,0.71773386,0.07061211,0.09646923,0.6859779,-1.2501804,-0.19216448,1.0424658,1.0,0.0,0.0,0.0,0.0,0.0,0.0,-3.2674794,0.15473327,-0.37415653,0.36973953,0.49774647,3.9463103,-3.2737374,2.2361875,-2.5448203,-0.6156266
14.60141,67.43867,21.75182,6.559126,-0.20674622,1.1238824,0.21133025,-0.7943923,0.7486388,0.017645618,0.49956995,0.6193709,0.66755515,-0.539069,1.5358357,-0.8782642,-1.8538995,-0.90102,2.1197531,1.3139657,-1.0142568,1.601092,-0.93974894,-1.8555171,-0.9417101,2.0664487,1.2529417,-0.9643144,-1.418233,1.3384888,0.024151424,0.9168503,0.86740553,0.56809753,-0.39741805,2.5834255,-0.5549469,0.95982134,-3.4045448,-0.02130143,3.5410292,0.36464834,-0.5504379,0.80561304,0.72670186,0.06164501,0.09460359,0.67760926,-1.240987,-0.1333166,1.0376284,1.0,0.0,0.0,0.0,0.0,0.0,0.0,-3.2334256,0.1549469,-0.40982133,-0.020551682,0.25544167,3.7254546,-3.943777,1.7184138,-2.0205498,-0.3917694
16.259502,65.91389,21.044098,5.013315,-0.36545497,0.9855863,0.26242727,-0.79576266,0.7534609,0.03376451,0.4497139,0.6385981,0.6699822,-0.53889555,1.5215157,-0.86440283,-1.8521407,-0.8967387,2.1303084,1.31994,-1.018204,1.5868994,-0.92633647,-1.855046,-0.9329716,2.0752606,1.2585016,-0.9682836,-1.4200921,1.3419299,0.056238867,0.85865617,0.88608736,0.55222136,-0.39776736,2.5494056,-0.5551605,0.9944686,-3.401141,-0.021280134,3.4393032,0.35235786,-0.5514221,0.81592005,0.7352335,0.05271491,0.09274163,0.66936666,-1.2253927,-0.07232972,1.0262132,1.0,0.0,0.0,0.0,0.0,0.0,0.0,-3.1994057,0.15516052,-0.44446862,-0.36261082,0.29246807,3.651736,-6.067717,1.8288851,-1.5161633,-0.33034086
14.621103,62.70073,19.050209,5.2801466,-0.40431172,0.76519567,0.19970964,-0.7947712,0.7595584,0.0044880444,0.4354542,0.6373933,0.6782509,-0.52116126,1.5074223,-0.85038066,-1.8545972,-0.8894262,2.139,1.3263267,-1.0203997,1.5726877,-0.91287154,-1.8544834,-0.9247891,2.0842214,1.2639338,-0.97224134,-1.4220746,1.3480047,0.057731856,0.8039428,0.89931667,0.5405073,-0.3958986,2.5154195,-0.55537415,1.0280994,-3.3977406,-0.021258857,3.337679,0.34024048,-0.551857,0.8260618,0.7433666,0.04387694,0.09097013,0.661215,-1.2069125,-0.01797668,1.0078207,1.0,0.0,0.0,0.0,0.0,0.0,0.0,-3.1654196,0.15537414,-0.4780994,-0.3625393,0.57160854,0.52434504,-5.7189226,1.3210058,-1.0710359,-0.080400705
13.503853,60.369812,17.646177,5.4647875,-0.4335652,0.59814435,0.16052875,-0.79746014,0.76349807,-0.0066072023,0.4067394,0.63790536,0.67637837,-0.5088587,1.4929417,-0.83652174,-1.8551441,-0.8841151,2.148012,1.3315716,-1.0231272,1.5584475,-0.89933413,-1.8540447,-0.91715014,2.0932775,1.2692667,-0.9761686,-1.4253404,1.3554945,0.04051698,0.74976283,0.9079652,0.5312081,-0.39256743,2.4814677,-0.55558777,1.0607147,-3.3943436,-0.021237602,3.2361562,0.3283205,-0.55176544,0.83598775,0.7511493,0.035175376,0.08937794,0.65310717,-1.1860752,0.031573903,0.98494846,1.0,0.0,0.0,0.0,0.0,0.0,0.0,-3.1314678,0.15558776,-0.5107147,-0.48453808,0.72529316,-1.3890594,-5.6669474,0.88624954,-0.8100152,0.085526705
17.083408,60.22545,17.797483,3.4287758,-0.65286034,0.47080317,0.23381114,-0.79525745,0.76705986,0.00997542,0.3427885,0.64908916,0.67196923,-0.51131994,1.4789218,-0.82262814,-1.8530471,-0.88287127,2.1581864,1.3364637,-1.0273006,1.5441881,-0.8857185,-1.8537223,-0.91020644,2.102425,1.2745196,-0.98006624,-1.4265904,1.3634908,0.030506628,0.6750014,0.9169429,0.5237393,-0.38966033,2.4475498,-0.5558014,1.0923156,-3.39095,-0.02121637,3.1347349,0.31667423,-0.5511551,0.84566003,0.75854635,0.026645998,0.08798744,0.6451012,-1.1557397,0.08512374,0.95856386,1.0,0.0,0.0,0.0,0.0,0.0,0.0,-3.09755,0.15580139,-0.54231554,-0.28584003,0.7876873,-0.6645847,-7.732463,0.9209275,-0.57919025,0.044083595
25.291698,64.30915,20.240005,-0.10738039,-1.033444,0.46368712,0.41645166,-0.7862847,0.7745309,0.06677263,0.25888485,0.6575094,0.6692575,-0.5052215,1.4655597,-0.80826545,-1.8470451,-0.88431793,2.168176,1.3414453,-1.0305884,1.529965,-0.87200755,-1.8531997,-0.90426123,2.1116643,1.2797076,-0.98393434,-1.4212737,1.3737215,0.060718965,0.5668791,0.92652744,0.5180531,-0.3867447,2.4136658,-0.556015,1.122903,-3.3875597,-0.021195158,3.033415,0.30544186,-0.54990387,0.85508376,0.7654188,0.01827739,0.08675904,0.63739526,-1.1100463,0.15274124,0.9341332,1.0,0.0,0.0,0.0,0.0,0.0,0.0,-3.0636659,0.15601501,-0.572903,0.36652088,1.0214806,3.3958278,-11.063504,0.97231865,-0.3349185,0.031286478
35.86408,63.267982,20.811096,-7.3798833,-1.7289261,0.14486918,0.6760264,-0.7848068,0.77718025,0.10288455,0.09818802,0.67296356,0.67065805,-0.5044338,1.4514843,-0.7942895,-1.8429112,-0.89444244,2.1789606,1.3467734,-1.0343777,1.5158068,-0.85820025,-1.8521755,-0.8999678,2.1210294,1.2848574,-0.98777574,-1.4143264,1.3831818,0.11752654,0.38261104,0.93979394,0.51523894,-0.38408178,2.3798156,-0.55622864,1.1524779,-3.3841727,-0.021173967,2.9321964,0.29486942,-0.5478668,0.8641498,0.77155465,0.01017302,0.08568479,0.63028413,-1.0363802,0.23283865,0.89433,1.0,0.0,0.0,0.0,0.0,0.0,0.0,-3.0298157,0.15622863,-0.60247785,0.5334139,0.9755373,6.050776,-18.68285,1.3470054,0.11284351,0.020325184
44.047466,61.83055,21.04541,-13.24144,-2.2792025,-0.17370012,0.88708144,-0.7835497,0.7805112,0.1540873,-0.058537927,0.6812992,0.663065,-0.4991379,1.4374518,-0.7801491,-1.8367667,-0.90582156,2.1891594,1.3511639,-1.0376896,1.5017172,-0.8443052,-1.8503997,-0.89798796,2.1305356,1.2899863,-0.9915876,-1.4075444,1.3917168,0.19861577,0.1356542,0.9542089,0.51392597,-0.38096818,2.3459992,-0.55644226,1.1810414,-3.3807893,-0.021152798,2.831079,0.28520584,-0.54496,0.87272286,0.7767691,0.0024741406,0.08478137,0.62404776,-0.93893707,0.3195695,0.84146386,1.0,0.0,0.0,0.0,0.0,0.0,0.0,-2.9959993,0.15644225,-0.63104135,0.5483866,0.91609955,8.4082575,-24.920794,1.5000343,0.39732456,0.10855198
44.816498,57.573135,19.382778,-14.707556,-2.393879,-0.51200527,0.90331453,-0.7772156,0.78234667,0.16458157,-0.16853562,0.68375754,0.65538836,-0.46978056,1.4239956,-0.76607054,-1.8339416,-0.91484153,2.1989114,1.3555251,-1.0385656,1.4877115,-0.83034056,-1.847903,-0.8985573,2.1401677,1.2951018,-0.9953479,-1.398481,1.3983221,0.26719713,-0.121735744,0.96673244,0.5128581,-0.37473637,2.3122168,-0.5566559,1.2085944,-3.3774092,-0.02113165,2.730063,0.27657747,-0.5412674,0.88070464,0.78103656,-0.004704754,0.08409386,0.6187794,-0.83258384,0.39720923,0.7798154,1.0,0.0,0.0,0.0,0.0,0.0,0.0,-2.9622169,0.15665588,-0.6585944,0.83539486,0.75256824,7.0072355,-25.914875,1.3767123,0.46832561,0.48846602
42.71251,61.233364,20.69663,-11.330137,-2.100658,-0.3962786,0.8480569,-0.7657809,0.794097,0.23414925,-0.23653503,0.6865822,0.6503363,-0.4367198,1.4111334,-0.75093085,-1.824488,-0.9222108,2.2088258,1.3601354,-1.03902,1.4738356,-0.8162777,-1.8445995,-0.90140784,2.1499104,1.3002039,-0.9990224,-1.3841479,1.4094182,0.3513973,-0.3399647,0.977451,0.51116794,-0.36527228,2.2784681,-0.5568695,1.235138,-3.3740325,-0.021110522,2.6291475,0.26894665,-0.5368118,0.88818365,0.78442067,-0.011441435,0.08358315,0.6144648,-0.73434305,0.47091833,0.73291373,1.0,0.0,0.0,0.0,0.0,0.0,0.0,-2.9284682,0.1568695,-0.68513805,1.4145851,1.2234926,8.413821,-21.931557,1.2986541,0.363338,0.85853934
34.0251,62.392365,20.744455,-4.1228547,-1.3719653,-0.1613612,0.6692992,-0.76356477,0.79271364,0.29131874,-0.25830632,0.67911613,0.64969057,-0.38973638,1.397479,-0.7370063,-1.8154676,-0.92723846,2.217822,1.365173,-1.037996,1.4600931,-0.80212706,-1.8403823,-0.90587294,2.1597142,1.3052851,-1.002572,-1.3711487,1.4173588,0.4448101,-0.4822888,0.98259723,0.5086601,-0.3517076,2.244753,-0.55708313,1.2606734,-3.370659,-0.021089416,2.5283332,0.26210785,-0.53167725,0.89533895,0.7870791,-0.017924616,0.08315327,0.6109588,-0.6608314,0.5321008,0.7050066,1.0,0.0,0.0,0.0,0.0,0.0,0.0,-2.894753,0.15708312,-0.7106734,1.3026714,0.92248917,9.207445,-14.313012,0.83596706,0.1863122,1.2928843
24.483929,66.079216,21.778793,4.8351707,-0.5017535,0.25111648,0.46514747,-0.75536287,0.79588753,0.36234507,-0.23334984,0.6756007,0.64724576,-0.3298105,1.3845569,-0.7225383,-1.8041478,-0.9292079,2.2272742,1.3700097,-1.035553,1.4464823,-0.7879068,-1.8351142,-0.9110447,2.169541,1.3103358,-1.0059499,-1.357585,1.4239874,0.55335546,-0.52911705,0.9842441,0.50504786,-0.3334585,2.2110715,-0.55729675,1.2852013,-3.367289,-0.02106833,2.4276195,0.25576591,-0.5260086,0.9024224,0.78920144,-0.024432974,0.08266402,0.60805476,-0.6186776,0.58419925,0.70412874,1.0,0.0,0.0,0.0,0.0,0.0,0.0,-2.8610716,0.15729675,-0.7352013,1.3566017,0.8054733,10.619497,-4.758477,0.5871892,-0.029432774,1.7600179
13.985774,64.91328,20.829575,12.384567,0.27741694,0.504919,0.26377448,-0.7621841,0.79234564,0.4107285,-0.20704873,0.67124045,0.6471137,-0.26439452,1.3702639,-0.7086723,-1.7940414,-0.9317496,2.236665,1.3750471,-1.0323893,1.4329401,-0.7736599,-1.8287742,-0.91613925,2.17936,1.3153483,-1.0091103,-1.3532258,1.4253654,0.65992475,-0.5032126,0.9827616,0.5007588,-0.31056213,2.177424,-0.5575104,1.3087229,-3.3639224,-0.021047266,2.3270066,0.24962759,-0.5199127,0.9096139,0.79097235,-0.03117623,0.08201214,0.6055285,-0.60531986,0.6236447,0.7185358,1.0,0.0,0.0,0.0,0.0,0.0,0.0,-2.827424,0.15751037,-0.75872284,0.40917397,0.2835989,10.398996,2.4929404,0.30725002,-0.19257069,2.2165954
8.748944,62.950577,19.812334,15.961993,0.6259998,0.5611159,0.14864948,-0.75891083,0.79256123,0.44890863,-0.18599978,0.66917807,0.6415656,-0.21740809,1.357049,-0.69440377,-1.7838833,-0.93473923,2.2462778,1.3795048,-1.0308511,1.4194208,-0.75941676,-1.8214653,-0.9206902,2.1891522,1.320315,-1.0120248,-1.3515457,1.4244376,0.75361264,-0.43952706,0.9797501,0.49583638,-0.28544462,2.1438098,-0.557724,1.331239,-3.3605592,-0.021026224,2.2264943,0.24352026,-0.5134659,0.9169908,0.7925129,-0.038249813,0.08116931,0.6032178,-0.60522693,0.6558334,0.7381948,1.0,0.0,0.0,0.0,0.0,0.0,0.0,-2.79381,0.157724,-0.781239,0.12948513,0.052309036,9.11572,6.260252,0.14858246,-0.30570626,2.4346232
2.8875437,59.244743,17.877413,19.294617,0.94273007,0.54696083,0.0029558726,-0.7605749,0.7924845,0.46051767,-0.12587507,0.6639824,0.6490862,-0.17214523,1.3433634,-0.68016833,-1.7754135,-0.93327767,2.2555504,1.3852236,-1.0292393,1.405892,-0.7451908,-1.8134468,-0.92434466,2.1988988,1.3252398,-1.0146779,-1.3535082,1.4224968,0.8172865,-0.34118143,0.9746045,0.49166125,-0.258896,2.1102295,-0.5579376,1.3527508,-3.3571994,-0.021005202,2.1260827,0.23731613,-0.50678253,0.9245757,0.79394305,-0.04568964,0.08016549,0.60094947,-0.6177576,0.678248,0.75923926,1.0,0.0,0.0,0.0,0.0,0.0,0.0,-2.7602296,0.15793762,-0.80275077,-0.2547264,-0.052261353,6.1398864,9.705001,-0.09123087,-0.28378367,2.5744915
-2.739067,51.917465,14.458696,20.76405,1.1411121,0.36186042,-0.13987106,-0.77582157,0.7872934,0.44802168,-0.081750214,0.6678356,0.64915043,-0.19504021,1.3283099,-0.66646147,-1.7686446,-0.9325197,2.2656825,1.3901548,-1.034182,1.3922659,-0.73100775,-1.8051002,-0.92695296,2.208611,1.3301245,-1.0171078,-1.3661244,1.4173505,0.8398081,-0.23463246,0.971231,0.48772967,-0.23806465,2.0766826,-0.55815125,1.3732592,-3.353843,-0.0209842,2.0257711,0.23092985,-0.49998474,0.9323091,0.7953914,-0.053432453,0.079067044,0.5985364,-0.63793474,0.6873351,0.77172357,1.0,0.0,0.0,0.0,0.0,0.0,0.0,-2.7266827,0.15815124,-0.8232592,-1.3522863,-0.38249493,2.0821214,10.490817,0.03424883,-0.29866695,2.0044506
-6.1467543,48.654236,12.865397,22.315203,1.2855717,0.3138607,-0.23642752,-0.78506905,0.78715605,0.45002216,-0.012070671,0.6659825,0.6573973,-0.18886589,1.313759,-0.65229213,-1.760098,-0.92816,2.2752092,1.3958642,-1.0359944,1.3784701,-0.71687335,-1.796704,-0.9284054,2.2182927,1.3349787,-1.0193528,-1.3843924,1.4126498,0.8390525,-0.11604912,0.9681625,0.48485664,-0.22023469,2.0431695,-0.55836487,1.3927653,-3.3504899,-0.020963222,1.9255598,0.22429132,-0.49312592,0.9401551,0.7969551,-0.061445672,0.077925205,0.5958309,-0.6645498,0.69070053,0.78256935,1.0,0.0,0.0,0.0,0.0,0.0,0.0,-2.6931696,0.15836486,-0.8427653,-1.9378424,-0.34492016,-0.21506548,11.680717,0.041007996,-0.22725463,1.7064393
-6.8435545,47.019978,12.227142,22.688679,1.2981119,0.27128327,-0.2776386,-0.7903871,0.7849244,0.4501668,0.054492354,0.66283613,0.658046,-0.19808464,1.2994313,-0.6383809,-1.7516874,-0.92295617,2.2845764,1.4007833,-1.0391612,1.364493,-0.7027847,-1.7884014,-0.92863524,2.22794,1.3398081,-1.021449,-1.4026158,1.4079689,0.8271149,0.0075313835,0.96464366,0.48240277,-0.20644192,2.0096898,-0.5585785,1.41127,-3.34714,-0.020942261,1.8254485,0.21737623,-0.48625183,0.94810134,0.7986751,-0.06972617,0.0767678,0.5927588,-0.6924454,0.6931863,0.7923518,1.0,0.0,0.0,0.0,0.0,0.0,0.0,-2.65969,0.15857849,-0.86127,-1.936841,-0.3516674,-1.3126254,12.182081,-0.01989603,-0.2050817,1.3005584
-7.699258,45.18615,11.530362,23.145267,1.3411669,0.23450789,-0.31474558,-0.8000093,0.7810742,0.43566364,0.1282217,0.66550237,0.6624616,-0.20170915,1.2844921,-0.6246773,-1.744835,-0.9158131,2.2944903,1.4060543,-1.0416199,1.3503329,-0.68874854,-1.780297,-0.9275862,2.2375646,1.3446184,-1.0234307,-1.4209423,1.4024967,0.8045522,0.13674086,0.9629207,0.48060307,-0.19558504,1.9762435,-0.5587921,1.4287744,-3.3437936,-0.020921323,1.7254374,0.21016598,-0.47935486,0.95613927,0.8005782,-0.07827622,0.07560269,0.5892636,-0.7224596,0.69437444,0.8011326,1.0,0.0,0.0,0.0,0.0,0.0,0.0,-2.6262436,0.15879211,-0.87877434,-1.9500732,-0.43945312,-2.3581028,12.745812,0.14657974,-0.16022325,1.0050654
-6.3678885,44.97634,11.693583,22.685745,1.2653155,0.20470062,-0.2956245,-0.80116963,0.77762127,0.42772746,0.19867496,0.66119653,0.6623903,-0.17586832,1.2702159,-0.6109864,-1.7375243,-0.9077187,2.3036842,1.4108574,-1.0410175,1.3360316,-0.67477244,-1.7724292,-0.9252354,2.2471662,1.3494135,-1.0252999,-1.4335288,1.3963577,0.78045344,0.26733205,0.9603038,0.47903675,-0.18426073,1.9428306,-0.55900574,1.4452794,-3.3404505,-0.020900408,1.6255263,0.202672,-0.47245026,0.9642627,0.8026477,-0.087106116,0.07442953,0.5853455,-0.7501828,0.69849205,0.8096077,1.0,0.0,0.0,0.0,0.0,0.0,0.0,-2.5928307,0.15900573,-0.89527935,-1.3634682,-0.51715374,-2.4970531,12.898504,0.04322529,-0.14660358,1.0443449
-1.5309992,45.18623,11.996955,18.930166,0.81685066,0.020706587,-0.202467,-0.80263835,0.7809293,0.4096279,0.21406305,0.6554145,0.66458225,-0.1856943,1.2557677,-0.5966795,-1.7314664,-0.9038291,2.3127077,1.4158717,-1.0438694,1.3216463,-0.66082877,-1.7648323,-0.92184126,2.2567258,1.3541971,-1.0270737,-1.4404949,1.3939587,0.7524503,0.36298338,0.95554477,0.4783528,-0.17549554,1.909451,-0.55921936,1.460786,-3.3371108,-0.02087951,1.5257151,0.19501877,-0.4654312,0.97240555,0.804813,-0.09614608,0.07330863,0.5810831,-0.76196545,0.7090189,0.809332,1.0,0.0,0.0,0.0,0.0,0.0,0.0,-2.559451,0.15921935,-0.910786,-0.78823566,-0.15940666,-2.8415918,9.425384,-0.21862984,-0.017750263,0.78718364
3.5479856,44.169598,11.832203,14.176674,0.32163417,-0.24531238,-0.0760987,-0.80751836,0.7806374,0.3924459,0.20872189,0.6535571,0.6604586,-0.17025489,1.2408946,-0.58276504,-1.7255877,-0.9009691,2.3220816,1.420243,-1.0440992,1.3072058,-0.6468956,-1.7575328,-0.9178568,2.2662358,1.358975,-1.0287598,-1.4455153,1.3933325,0.7225675,0.40982866,0.95015687,0.47809926,-0.16675161,1.8761048,-0.559433,1.4752953,-3.3337743,-0.020858636,1.4260037,0.18738937,-0.45830536,0.98045087,0.80697787,-0.10525747,0.072320454,0.5766084,-0.75468254,0.72323793,0.7964414,1.0,0.0,0.0,0.0,0.0,0.0,0.0,-2.526105,0.15943298,-0.9252953,-0.5879402,0.0032186508,-2.9720187,4.554611,-0.33490658,0.08891821,0.78365505
6.1402383,44.653828,12.159505,12.333633,0.090302944,-0.34735134,-0.0016153902,-0.80693555,0.7823816,0.38082725,0.24037288,0.64369494,0.66502,-0.10247983,1.2265122,-0.5686574,-1.7194501,-0.8938195,2.3306053,1.425477,-1.0390078,1.2927405,-0.6329519,-1.7505138,-0.91352904,2.2756696,1.3637568,-1.0303181,-1.4471761,1.3948576,0.69517154,0.4400474,0.9417802,0.47866818,-0.15259738,1.842792,-0.5596466,1.4888082,-3.3304412,-0.020837782,1.326392,0.17989731,-0.4509964,0.9883442,0.8090691,-0.11437639,0.07151783,0.5720231,-0.7387135,0.7407235,0.78047544,1.0,0.0,0.0,0.0,0.0,0.0,0.0,-2.4927921,0.1596466,-0.93880814,-0.24602413,0.21111965,-2.6970863,2.902931,-0.65630674,0.19202232,1.3208956
7.6924653,44.008453,12.084982,10.869425,-0.050610185,-0.448732,0.06916552,-0.81085724,0.7802985,0.37363914,0.24815461,0.63651174,0.66605103,-0.02412396,1.2116548,-0.55492204,-1.7131499,-0.8887136,2.3393207,1.4303619,-1.0327306,1.278256,-0.6190006,-1.7437217,-0.9090172,2.285008,1.3685461,-1.0316876,-1.4493412,1.3954107,0.6739196,0.4545103,0.9317836,0.4796098,-0.13186665,1.8095126,-0.5598602,1.5013256,-3.3271115,-0.020816948,1.22688,0.1726098,-0.44350433,0.9960523,0.8110292,-0.12346297,0.07092147,0.56741405,-0.71671855,0.7590185,0.76111984,1.0,0.0,0.0,0.0,0.0,0.0,0.0,-2.4595127,0.15986022,-0.9513256,-0.2953291,0.11031628,-2.0610213,1.3317168,-0.83254576,0.24837255,1.9760132
7.333408,42.895683,11.891795,11.331228,0.04045576,-0.46882793,0.10487475,-0.8091169,0.77396876,0.36907408,0.2797276,0.6305488,0.6654397,0.099844806,1.1973444,-0.54160374,-1.7068143,-0.88104445,2.3480628,1.4350901,-1.0217031,1.2637621,-0.605076,-1.7370918,-0.9043032,2.2942472,1.3733431,-1.0327691,-1.4494888,1.3916429,0.6595969,0.4767104,0.9215773,0.48031992,-0.10059476,1.7762666,-0.56007385,1.5128487,-3.323785,-0.020796137,1.1274673,0.16552353,-0.43582916,1.0035795,0.81281924,-0.132526,0.070509434,0.56284106,-0.6969472,0.77593017,0.7434617,1.0,0.0,0.0,0.0,0.0,0.0,0.0,-2.4262667,0.16007385,-0.9628487,-0.08735657,-0.3213644,-1.3717294,2.1075308,-0.8502841,0.21352768,3.02497
7.4129643,39.49362,10.557296,9.907748,-0.04385656,-0.6556766,0.11896989,-0.8152511,0.7705117,0.34117982,0.26279086,0.625972,0.66509223,0.13180234,1.182237,-0.52802485,-1.7029738,-0.8780241,2.3568444,1.4398524,-1.0195888,1.2492434,-0.5912067,-1.7306755,-0.89949477,2.3033872,1.3781477,-1.0335339,-1.4528385,1.3854545,0.635867,0.48179954,0.9120936,0.4811403,-0.0687123,1.7430534,-0.5602875,1.5233785,-3.320462,-0.020775344,1.028154,0.15866756,-0.42803955,1.0108804,0.81443524,-0.1415045,0.07030238,0.55832714,-0.672559,0.7875976,0.7191545,1.0,0.0,0.0,0.0,0.0,0.0,0.0,-2.3930535,0.16028747,-0.9733785,-0.411129,-0.56262016,-2.304542,0.38817525,-0.7903099,0.2497971,3.0938342
7.3221745,37.518715,9.809725,9.495822,-0.07868773,-0.7673949,0.12799662,-0.8132604,0.7662298,0.32201335,0.27101257,0.60641056,0.6624219,0.22388406,1.1679174,-0.51458377,-1.6984742,-0.8723935,2.3640282,1.4443899,-1.0111455,1.2347037,-0.5774128,-1.7245433,-0.89465106,2.3123937,1.38296,-1.0339402,-1.4545525,1.3775392,0.6057618,0.4849364,0.8975567,0.48166317,-0.03163972,1.7098737,-0.5605011,1.532916,-3.3171422,-0.020754574,0.92894006,0.15206957,-0.4201584,1.0179247,0.8158793,-0.15035294,0.07033758,0.553884,-0.64620554,0.7961665,0.6931626,1.0,0.0,0.0,0.0,0.0,0.0,0.0,-2.3598738,0.1605011,-0.98291594,-0.24175644,-0.7337332,-2.9496074,0.19150972,-1.2967587,0.2274692,3.616462
7.724576,31.342525,7.5070114,6.694557,-0.20052671,-1.0913577,0.15513943,-0.8187348,0.75165486,0.28481823,0.22727817,0.6076226,0.660728,0.26237446,1.1528301,-0.5022473,-1.6960615,-0.8719232,2.3731558,1.4490328,-1.0077027,1.2201277,-0.56375235,-1.7188308,-0.89000475,2.321278,1.3877779,-1.0339803,-1.4587362,1.3624954,0.5598557,0.45729998,0.88606256,0.48243573,0.0049750507,1.6767273,-0.5607147,1.5414618,-3.3138258,-0.020733822,0.8298253,0.14579582,-0.4122696,1.0246196,0.81716365,-0.1589356,0.07065324,0.5495371,-0.6116507,0.7934655,0.655376,1.0,0.0,0.0,0.0,0.0,0.0,0.0,-2.3267274,0.16071472,-0.9914618,-0.4802704,-1.4419317,-4.533386,-2.8992832,-1.0150671,0.3047347,3.585688
10.057053,31.53145,7.851267,4.958991,-0.37463987,-1.2065845,0.2282702,-0.81012166,0.7441197,0.28828144,0.2058245,0.58456665,0.6635798,0.32554057,1.1391156,-0.48934036,-1.6900027,-0.8694223,2.3797348,1.4541359,-1.0014262,1.2055575,-0.5502569,-1.7134864,-0.8857447,2.3300061,1.3926054,-1.0336446,-1.4565222,1.345371,0.52605236,0.41522366,0.86886895,0.48359564,0.042856652,1.6436138,-0.56092834,1.5490173,-3.3105128,-0.020713093,0.7308096,0.13992596,-0.40438843,1.0309248,0.8182535,-0.16719119,0.0712651,0.54537094,-0.56920654,0.7912697,0.6162116,1.0,0.0,0.0,0.0,0.0,0.0,0.0,-2.293614,0.16092834,-0.9990173,0.18730164,-1.6505957,-3.3246279,-4.3230176,-1.6072631,0.3635347,3.7122574
9.9029045,27.73603,6.448478,3.756906,-0.44691887,-1.4022373,0.2303552,-0.8103938,0.72897243,0.2507824,0.17660044,0.5516857,0.6645514,0.3906166,1.124518,-0.47735965,-1.6884081,-0.86808467,2.3851748,1.4590605,-0.9945829,1.1910197,-0.5369684,-1.7085464,-0.8819901,2.3384862,1.3974444,-1.0329198,-1.4530253,1.3235091,0.48325643,0.36178753,0.8418891,0.48499355,0.08219171,1.6105332,-0.56114197,1.5555835,-3.3072028,-0.020692384,0.6318929,0.13451385,-0.3965912,1.0368015,0.81915617,-0.1750567,0.07222195,0.54140764,-0.5226254,0.7818586,0.57237226,1.0,0.0,0.0,0.0,0.0,0.0,0.0,-2.2605333,0.16114196,-1.0055835,0.33397675,-2.118516,-4.248601,-5.4596066,-2.5916815,0.4085064,3.8686738
10.107788,25.276352,5.7330008,3.0229855,-0.49764124,-1.5316997,0.24111047,-0.80224746,0.7097139,0.23508109,0.14849606,0.5043809,0.66042626,0.442192,1.1107949,-0.465997,-1.6850383,-0.8671405,2.3889244,1.463487,-0.98870057,1.1765543,-0.523946,-1.7040145,-0.87880003,2.3465924,1.4022948,-1.031802,-1.4443538,1.2954271,0.44325978,0.30438635,0.8002991,0.48594138,0.12142484,1.577486,-0.5613556,1.5611613,-3.3038962,-0.020671695,0.53307515,0.12958908,-0.38890076,1.0422264,0.8198839,-0.18249379,0.073560305,0.53765714,-0.47307777,0.7681464,0.5271056,1.0,0.0,0.0,0.0,0.0,0.0,0.0,-2.2274861,0.16135558,-1.0111613,0.87955,-2.7361393,-3.9963067,-5.848175,-4.0602803,0.37189722,3.8625047
7.6210575,21.636547,4.3161526,4.3019133,-0.3301682,-1.6030753,0.16291824,-0.80093133,0.6929748,0.19134314,0.13956927,0.4724604,0.65921015,0.46926972,1.0964612,-0.4546485,-1.6848803,-0.86484313,2.3938384,1.4682158,-0.9848751,1.1621748,-0.5112278,-1.6999824,-0.8760935,2.354237,1.4071509,-1.0303124,-1.4359832,1.264179,0.38978362,0.25898692,0.75302,0.4864102,0.1579274,1.5444717,-0.5615692,1.5657516,-3.300593,-0.020651028,0.43435624,0.12511587,-0.38140106,1.0472088,0.8204978,-0.189497,0.0753061,0.5340441,-0.42961845,0.74755335,0.48349783,1.0,0.0,0.0,0.0,0.0,0.0,0.0,-2.1944718,0.16156921,-1.0157516,0.85036755,-3.0473232,-5.3742766,-4.6592054,-4.616499,0.3029883,3.5944076
6.163043,18.318316,2.9578154,4.44707,-0.23657161,-1.7395747,0.11418973,-0.7976077,0.67811203,0.13934731,0.1048238,0.46224016,0.6507193,0.49413332,1.082414,-0.4434166,-1.6860477,-0.86561114,2.4004612,1.4722228,-0.9808991,1.1478754,-0.49882227,-1.6966236,-0.8738562,2.3614545,1.4120032,-1.0284795,-1.428031,1.2329781,0.31793973,0.211574,0.7120987,0.48578468,0.19145596,1.5114903,-0.56178284,1.5693554,-3.297293,-0.02063038,0.33573604,0.12106466,-0.37416077,1.0517457,0.82106453,-0.196022,0.07746691,0.530497,-0.38823965,0.7193743,0.43899474,1.0,0.0,0.0,0.0,0.0,0.0,0.0,-2.1614904,0.16178283,-1.0193553,0.81243515,-3.0400038,-7.2273374,-4.866499,-3.9841413,0.1837492,3.3040702
4.4878473,17.594893,2.657031,5.947137,-0.05486864,-1.723646,0.06609554,-0.798797,0.66525406,0.10713241,0.09037168,0.45336837,0.6524153,0.5076859,1.0679958,-0.43229687,-1.6859103,-0.864819,2.4067912,1.4772447,-0.97771084,1.1336256,-0.4867087,-1.6940029,-0.8720337,2.3683362,1.4168497,-1.0263413,-1.4239831,1.2043881,0.2434838,0.1719988,0.68062174,0.48494056,0.22110754,1.4785423,-0.56199646,1.5719737,-3.2939963,-0.020609755,0.23721442,0.11737919,-0.36721802,1.0558671,0.82163167,-0.20207523,0.08000626,0.52695906,-0.35350633,0.6895201,0.39886406,1.0,0.0,0.0,0.0,0.0,0.0,0.0,-2.1285424,0.16199645,-1.0219736,0.40602684,-2.7787447,-7.4861317,-4.08819,-3.0339956,0.12960434,2.916226
2.3795652,13.77639,1.2190404,6.949556,0.083354,-1.7973491,-0.009802591,-0.79015136,0.64196694,0.041758537,0.08169546,0.40505877,0.65216607,0.5268641,1.0546105,-0.422512,-1.689827,-0.8638642,2.408842,1.4820664,-0.9736549,1.1194369,-0.4749084,-1.6922557,-0.87052596,2.374848,1.4216868,-1.0239285,-1.4172455,1.1722041,0.15149853,0.14332266,0.64183444,0.48397714,0.24784754,1.4456267,-0.56220245,1.5736076,-3.290703,-0.020589149,0.13879131,0.11400509,-0.3606186,1.0595919,0.82226306,-0.20765841,0.08293423,0.5233386,-0.32399204,0.6533377,0.35968056,1.0,0.0,0.0,0.0,0.0,0.0,0.0,-2.0956268,0.16220245,-1.0236075,0.68383217,-3.1362534,-9.263578,-3.0084848,-3.761065,0.101560354,2.6244164
-2.1280208,9.180084,-1.1400515,9.328051,0.41392267,-1.8805183,-0.17602758,-0.8028748,0.64047164,-0.08341961,0.07941517,0.44944486,0.6480067,0.52681774,1.0391494,-0.41086125,-1.7005976,-0.8625844,2.4197924,1.4864874,-0.9712467,1.1052405,-0.46336037,-1.6918209,-0.869208,2.3811765,1.4265085,-1.0212792,-1.4205642,1.1492673,0.0072437534,0.12740068,0.63024694,0.48225096,0.27032664,1.4127445,-0.5624008,1.574258,-3.2874131,-0.020568565,0.040466603,0.110835075,-0.3544464,1.0629381,0.82309526,-0.21272992,0.08625798,0.51944155,-0.30700707,0.60690194,0.32264805,1.0,0.0,0.0,0.0,0.0,0.0,0.0,-2.0627446,0.16240081,-1.0242579,-0.35886765,-2.214837,-14.478358,-1.7672241,-1.0378838,-0.018793344,2.2005558
-3.6011786,5.8127594,-2.1726682,10.124496,0.47976065,-1.9047489,-0.22271237,-0.79377306,0.60932124,-0.13566938,0.07713502,0.36074802,0.65141237,0.54805267,1.0258632,-0.40242824,-1.7053878,-0.8614945,2.4172513,1.4916497,-0.96647394,1.0910383,-0.45210558,-1.6928451,-0.8679768,2.3871999,1.4313189,-1.0184201,-1.4200857,1.1177965,-0.13931806,0.12107163,0.59353524,0.48092297,0.2910053,1.3798947,-0.5625992,1.5739259,-3.2841263,-0.020548,-0.057759803,0.10781002,-0.34875488,1.0659187,0.8241959,-0.21729468,0.09002224,0.5151504,-0.29387954,0.5574989,0.28669196,1.0,0.0,0.0,0.0,0.0,0.0,0.0,-2.0298948,0.16259918,-1.0239258,0.04518032,-3.0707598,-14.733299,-0.80762655,-3.5523891,0.011962652,2.0111203
-1.4735727,1.5689967,-3.173595,6.0730066,0.20943844,-2.1561818,-0.11291109,-0.79265994,0.571388,-0.17623252,-0.006974509,0.29485095,0.6516245,0.5563007,1.0117724,-0.39496678,-1.7104684,-0.8686742,2.4166849,1.4964813,-0.96279,1.0768515,-0.4412771,-1.6951816,-0.86715186,2.392693,1.4361178,-1.0153722,-1.4179022,1.0714926,-0.26561823,0.06923907,0.5351881,0.4802801,0.30925325,1.3470783,-0.56279755,1.5726123,-3.2808428,-0.020527456,-0.15588799,0.10501337,-0.34362793,1.0684532,0.8255349,-0.22123645,0.09426795,0.5105489,-0.26837745,0.49975786,0.2396287,1.0,0.0,0.0,0.0,0.0,0.0,0.0,-1.9970783,0.16279754,-1.0226123,0.28972626,-4.548955,-12.74043,-5.3156734,-5.7581306,0.12407303,1.7714858
2.0859435,2.3437781,-2.0632086,2.7012248,-0.09764853,-2.2394876,0.059314996,-0.7911986,0.53578705,-0.16828904,-0.07773451,0.20892137,0.65737134,0.5618239,0.9977316,-0.38769838,-1.7120105,-0.8749253,2.4135852,1.5018549,-0.9591898,1.062697,-0.43100077,-1.6983631,-0.8671509,2.3974118,1.4409186,-1.0121602,-1.4141043,1.0132443,-0.33595672,-0.023249693,0.4506774,0.48064205,0.3251183,1.3142943,-0.5629959,1.5703181,-3.2775626,-0.020506931,-0.25391808,0.10257244,-0.33905792,1.0704702,0.82700163,-0.22447275,0.09899057,0.5058468,-0.23005466,0.44338098,0.18679981,1.0,0.0,0.0,0.0,0.0,0.0,0.0,-1.9642943,0.1629959,-1.020318,0.5009651,-5.738759,-7.1529093,-9.328307,-8.410156,0.24957657,1.5327215
6.796027,7.6697226,0.99301684,0.44325018,-0.3857293,-2.1504452,0.27682814,-0.78153974,0.4959106,-0.10481192,-0.1442251,0.10006294,0.66672593,0.5668282,0.9845431,-0.3814097,-1.7088443,-0.88157344,2.407418,1.5075911,-0.95547736,1.0486246,-0.4213825,-1.7016056,-0.8682772,2.4010663,1.4457308,-1.0088052,-1.4045691,0.9450343,-0.32074142,-0.1425441,0.33741328,0.4821623,0.3388146,1.2815433,-0.5631943,1.5670444,-3.2742858,-0.02048643,-0.35185015,0.10060978,-0.33496094,1.0719585,0.8284182,-0.22703224,0.10413125,0.5013345,-0.17979477,0.3978704,0.1342124,1.0,0.0,0.0,0.0,0.0,0.0,0.0,-1.9315432,0.16319427,-1.0170443,1.097703,-6.730616,1.3970852,-11.956056,-11.292934,0.36936998,1.3147473
12.329913,10.54824,3.608377,-3.7278771,-0.8657214,-2.1383386,0.5542589,-0.7744256,0.42660692,0.027472422,-0.26073647,-0.11554956,0.67565465,0.56726503,0.97118205,-0.3787218,-1.6988583,-0.8943508,2.3895113,1.5132962,-0.95207864,1.0346743,-0.41262585,-1.7038562,-0.87092364,2.4031072,1.4505659,-1.00533,-1.3911346,0.85290927,-0.19390893,-0.30508754,0.15969636,0.4847402,0.3502817,1.2488251,-0.56339264,1.5627921,-3.271012,-0.020465946,-0.4496843,0.099298954,-0.33126068,1.072871,0.8295674,-0.22893736,0.10966911,0.4973714,-0.11049826,0.36017877,0.07514478,1.0,0.0,0.0,0.0,0.0,0.0,0.0,-1.898825,0.16339263,-1.0127921,1.5458822,-9.114849,12.495923,-16.208359,-17.72877,0.49206018,1.0982692
12.6336975,5.6821594,3.1753886,-4.9564986,-0.73082894,-2.169545,0.6640848,-0.764307,0.34276178,0.12450487,-0.34014314,-0.25623614,0.68056303,0.5460291,0.9582436,-0.37834966,-1.6914058,-0.904938,2.3774836,1.5186223,-0.95072705,1.020888,-0.40501124,-1.7043712,-0.87526953,2.403172,1.4554259,-1.0017728,-1.3736606,0.73127484,-0.0051408443,-0.4775616,-0.044268325,0.48714143,0.35745975,1.2161393,-0.563591,1.5575622,-3.2677417,-0.020445485,-0.5474206,0.09867048,-0.32798004,1.0731623,0.83032554,-0.23020455,0.11550159,0.49419093,-0.043096527,0.3165973,0.012013909,1.0,0.0,0.0,0.0,0.0,0.0,0.0,-1.8661393,0.163591,-1.0075622,2.0075798,-12.07999,18.607075,-17.17763,-20.332403,0.42125583,0.66064596
1.9167019,-21.444983,-5.352062,-1.5699348,0.43588138,-2.3863196,0.44426477,-0.72903854,0.18552247,0.13165356,-0.32823476,-0.44837824,0.68160146,0.5557344,0.9479841,-0.386459,-1.6912059,-0.90809304,2.3583343,1.523586,-0.9461993,1.0074126,-0.3991261,-1.7032287,-0.8808886,2.4009595,1.4603049,-0.99815357,-1.3376883,0.54098827,0.15289499,-0.5900207,-0.2800675,0.48828822,0.3630431,1.1834865,-0.56378937,1.5513556,-3.2644746,-0.020425042,-0.64505935,0.09841728,-0.3254242,1.072787,0.83080345,-0.23085293,0.121458575,0.4916505,-0.016274236,0.23466866,-0.05580259,1.0,0.0,0.0,0.0,0.0,0.0,0.0,-1.8334864,0.16378936,-1.0013556,3.929329,-18.999409,15.488275,-11.240303,-23.532837,0.18955469,0.4215598
-27.578358,-105.735596,-32.78198,1.2157003,3.8659065,-3.4967988,-0.0840777,-0.6977754,-0.18587823,0.04374942,-0.31652117,-0.4923303,0.6684686,0.5031138,0.937635,-0.41771394,-1.6988537,-0.9125407,2.3517265,1.5271517,-0.9478422,0.99440825,-0.39659315,-1.701369,-0.88713706,2.3966641,1.4651686,-0.99453723,-1.2862506,0.15701225,0.19650823,-0.63684225,-0.48015746,0.48524803,0.3599864,1.1508665,-0.56398773,1.5441734,-3.261211,-0.020404622,-0.7426004,0.09761047,-0.3246994,1.0714742,0.83144647,-0.23058876,0.1268277,0.48932636,-0.099935465,0.016576877,-0.15784024,1.0,0.0,0.0,0.0,0.0,0.0,0.0,-1.8008665,0.16398773,-0.99417335,5.6417704,-38.522686,4.1758595,-4.7935843,-20.166904,-0.48444867,-0.66007376
-34.657665,-140.88866,-42.798397,-2.8071015,5.340553,-4.079713,0.01184216,-0.62533134,-0.45012766,0.15300682,-0.4348896,-0.4791837,0.6472894,0.4656152,0.9318751,-0.44160593,-1.6860684,-0.93062603,2.3487458,1.5298976,-0.9479757,0.98217833,-0.3986898,-1.6989887,-0.89407027,2.3908772,1.4699656,-0.9909867,-1.2000116,-0.33264545,0.2516311,-0.7122818,-0.6124192,0.47599843,0.3521624,1.118279,-0.5641861,1.5360165,-3.2579503,-0.02038422,-0.8400439,0.09568119,-0.32660675,1.0689627,0.8323901,-0.22912224,0.13075656,0.4873728,-0.22339788,-0.26193145,-0.28285578,1.0,0.0,0.0,0.0,0.0,0.0,0.0,-1.768279,0.16418609,-0.98601645,9.161544,-49.197563,5.453491,-7.575822,-13.502669,-1.4923215,-1.1546731
-29.177145,-141.70468,-42.28392,-10.408973,5.0912223,-4.2914567,0.33696654,-0.5687787,-0.6639226,0.24446392,-0.615924,-0.48692995,0.64675695,0.4630486,0.9253005,-0.46508208,-1.6745423,-0.95566267,2.3421843,1.5346413,-0.9446818,0.9709431,-0.40580946,-1.6958015,-0.90243685,2.3841786,1.4746481,-0.9875134,-1.0969442,-0.83956057,0.34174076,-0.87793565,-0.69078004,0.4622017,0.34466454,1.0857239,-0.56438446,1.5268859,-3.254693,-0.020363841,-0.93739,0.092644215,-0.33138275,1.0650395,0.83350116,-0.22620524,0.13276075,0.48629367,-0.33213612,-0.54786104,-0.42920718,1.0,0.0,0.0,0.0,0.0,0.0,0.0,-1.7357239,0.16438445,-0.97688586,10.6405735,-51.020668,9.249067,-16.508175,-8.239961,-2.4234653,-1.0704398
-4.362539,-82.0229,-22.071178,-14.360428,2.7356012,-3.5480785,0.76936626,-0.37644902,-0.72322387,0.2863312,-0.6780612,-0.5626921,0.6236894,0.4368195,0.9332982,-0.47813186,-1.6671684,-0.970243,2.3279095,1.5370171,-0.94383144,0.96140826,-0.417059,-1.6916416,-0.9125763,2.3767858,1.4791838,-0.98412025,-0.90635574,-1.2210014,0.44251496,-1.0592489,-0.7564413,0.446932,0.3370907,1.0532012,-0.5645828,1.5167825,-3.251439,-0.02034348,-1.0346388,0.089141846,-0.3383484,1.0598097,0.8344068,-0.2220337,0.13301253,0.4865942,-0.3591348,-0.7400054,-0.5551084,1.0,0.0,0.0,0.0,0.0,0.0,0.0,-1.7032012,0.16458282,-0.9667825,18.833351,-38.424564,10.592932,-18.1548,-6.839156,-2.587533,-0.9140253
26.014692,-8.562255,3.2384963,-16.024109,0.026046582,-2.6048722,1.1347919,-0.08414964,-0.7581062,0.2885385,-0.66692317,-0.6301403,0.64150923,0.34906653,0.9529933,-0.49286962,-1.6627877,-0.9792686,2.3137717,1.5433347,-0.9492136,0.9548527,-0.43095976,-1.6866634,-0.924111,2.3687406,1.4836107,-0.980852,-0.57508606,-1.4468377,0.51878494,-1.1858473,-0.82037026,0.43918523,0.32356006,1.020711,-0.5647812,1.5057074,-3.2481883,-0.020323142,-1.1317903,0.08609581,-0.34636688,1.0536361,0.83463526,-0.21719095,0.13197131,0.488667,-0.28951144,-0.8176068,-0.64001995,1.0,0.0,0.0,0.0,0.0,0.0,0.0,-1.6707109,0.16478118,-0.9557074,32.1818,-22.705507,8.38294,-12.926245,-6.341064,-1.4264286,-1.3280272
38.66514,37.355934,17.083006,-11.353814,-1.4180853,-1.9659714,1.0068524,0.08539632,-0.771315,0.17211853,-0.63645375,-0.6287768,0.65046155,0.30314842,0.9633923,-0.5080913,-1.6694516,-0.9877564,2.305863,1.548657,-0.95053715,0.95194685,-0.44609076,-1.6817234,-0.9363085,2.3602147,1.4880053,-0.9777411,-0.19964187,-1.5352124,0.48844507,-1.2321005,-0.8631155,0.43851274,0.30729264,0.9882531,-0.56497955,1.4936615,-3.2449408,-0.020302823,-1.2288448,0.08407211,-0.35464478,1.0469029,0.83404624,-0.21216024,0.1302076,0.4923421,-0.17498009,-0.82508063,-0.68693155,1.0,0.0,0.0,0.0,0.0,0.0,0.0,-1.6382531,0.16497955,-0.9436615,36.372093,-8.843684,-2.254039,-4.9674034,-4.0970206,-0.30885935,-1.5145183
31.974527,44.34261,15.617565,-4.905198,-1.5553592,-1.9005177,0.52319616,0.14810547,-0.78627735,-0.030438688,-0.64794135,-0.6015002,0.6439449,0.29898137,0.9667574,-0.5247185,-1.6847672,-1.0011027,2.3000648,1.5523998,-0.94784296,0.95231974,-0.46147925,-1.6782539,-0.94864905,2.3514714,1.4924036,-0.97478664,0.11305479,-1.540077,0.3021575,-1.2354146,-0.8781764,0.43988994,0.29170275,0.9558277,-0.5651779,1.4806459,-3.2416966,-0.020282524,-1.3258022,0.083118916,-0.3629532,1.0397904,0.8329328,-0.20697366,0.12830372,0.49691334,-0.06829401,-0.8264149,-0.72242594,1.0,0.0,0.0,0.0,0.0,0.0,0.0,-1.6058277,0.16517791,-0.9306459,30.33197,-0.4867077,-17.917877,-0.54495335,-1.4738679,0.013953447,-1.4990926
20.273743,32.4101,7.6207275,-1.4593377,-1.2059407,-2.2133641,0.07091101,0.22274607,-0.79434085,-0.26691508,-0.68412805,-0.5474036,0.640238,0.30819672,0.97459435,-0.54091334,-1.7049454,-1.0170618,2.296731,1.5564275,-0.943967,0.95522463,-0.4766336,-1.6777465,-0.9610115,2.3428311,1.4968134,-0.97197044,0.34744647,-1.507381,-0.030747512,-1.2366412,-0.8600862,0.44048414,0.27805215,0.92343473,-0.5653763,1.4666613,-3.2384555,-0.020262245,-1.4226627,0.08305073,-0.37149048,1.0322481,0.83173436,-0.20131896,0.12668142,0.5016377,0.015964307,-0.8549197,-0.7683748,1.0,0.0,0.0,0.0,0.0,0.0,0.0,-1.5734347,0.16537628,-0.9166613,22.781113,3.2233715,-32.595676,-0.18532276,1.6479254,-0.15094876,-1.4160275
16.265007,28.173664,4.9894094,-0.8879533,-1.0614673,-2.2636437,-0.004492663,0.3185802,-0.79438907,-0.368641,-0.72152096,-0.5258081,0.639719,0.3759666,0.98708266,-0.55607253,-1.7146106,-1.0331637,2.2902503,1.5607853,-0.9343738,0.96007216,-0.4913941,-1.6806686,-0.9735199,2.334477,1.5012232,-0.9692248,0.52913,-1.4658016,-0.37748203,-1.255637,-0.8274659,0.4403969,0.2731487,0.8910742,-0.56557465,1.4517089,-3.2352178,-0.020241987,-1.5194265,0.08374834,-0.38036346,1.0241908,0.8306386,-0.19496092,0.1254945,0.50624174,0.09139675,-0.89155936,-0.8225779,1.0,0.0,0.0,0.0,0.0,0.0,0.0,-1.5410742,0.16557464,-0.9017089,17.726284,4.1024446,-34.15351,-1.9023895,3.0806303,-0.2776444,-0.56096315
11.96578,26.565933,4.6431007,2.0503502,-0.6936297,-1.9485667,-0.021097332,0.36356482,-0.7962379,-0.4296175,-0.72595406,-0.53657347,0.6450169,0.39233285,0.99642867,-0.57101786,-1.7236303,-1.0461153,2.2808197,1.5657248,-0.92999154,0.9662949,-0.5058089,-1.6865776,-0.9862305,2.3263974,1.5056349,-0.9665011,0.6526087,-1.4335576,-0.6611009,-1.2760795,-0.80184144,0.4407881,0.27206498,0.85874605,-0.565773,1.4357896,-3.2319832,-0.02022175,-1.6160934,0.085063934,-0.38955688,1.0156069,0.8296611,-0.18789874,0.124719314,0.5106874,0.14967261,-0.9221726,-0.87571675,1.0,0.0,0.0,0.0,0.0,0.0,0.0,-1.508746,0.165773,-0.8857896,12.136375,3.1711817,-28.089798,-1.9912243,2.399397,-0.22039413,-0.15282631
8.342629,27.263773,5.5343447,5.210499,-0.40228605,-1.5199039,-0.002001904,0.3823791,-0.7932116,-0.4858584,-0.7359145,-0.57337284,0.6510951,0.4147111,1.0045328,-0.58513004,-1.7351635,-1.059822,2.2690601,1.5707444,-0.92503,0.9733397,-0.51999,-1.6946952,-0.9991518,2.3184056,1.510058,-0.96376216,0.72165453,-1.413178,-0.86190057,-1.2972201,-0.79878074,0.44212922,0.27446228,0.82645035,-0.5659714,1.4189043,-3.228752,-0.020201532,-1.7126637,0.0868454,-0.39896393,1.0065287,0.8287568,-0.18024339,0.12431698,0.514995,0.19267297,-0.9403936,-0.92478895,1.0,0.0,0.0,0.0,0.0,0.0,0.0,-1.4764503,0.16597137,-0.8689043,6.8734884,1.9884586,-20.016336,-2.0188332,0.15865564,-0.0926733,0.22175908
4.842149,31.768738,8.116539,9.813351,-0.046255708,-0.9324627,0.01912266,0.3745521,-0.7853038,-0.49778944,-0.7296267,-0.60023063,0.65966314,0.43869203,1.0107949,-0.5985204,-1.7444742,-1.0721145,2.2583826,1.5760244,-0.91989297,0.9806839,-0.5340205,-1.7041023,-1.0122019,2.310307,1.514506,-0.9609765,0.73907346,-1.3998826,-0.96731883,-1.3071464,-0.81403553,0.4452221,0.27990475,0.79418707,-0.56616974,1.401054,-3.225524,-0.020181336,-1.8091373,0.08892441,-0.40839386,0.9970553,0.82785255,-0.17220725,0.12422512,0.51920396,0.21812727,-0.9386153,-0.96162444,1.0,0.0,0.0,0.0,0.0,0.0,0.0,-1.444187,0.16616973,-0.851054,1.8507361,1.2879133,-10.650528,-0.87656975,-1.6622305,0.1734376,0.5612552
0.726706,30.799412,8.332635,12.875901,0.41983443,-0.5990369,0.009011559,0.3628866,-0.79420805,-0.52976173,-0.7345771,-0.5843227,0.65162694,0.43031263,1.0169725,-0.6134413,-1.7570784,-1.0856596,2.2518747,1.5796686,-0.9179452,0.98793566,-0.54802233,-1.7141368,-1.0253168,2.3020825,1.5189806,-0.9581431,0.72125673,-1.4004536,-1.016098,-1.3123987,-0.8255959,0.44768846,0.28454402,0.7619562,-0.5663681,1.3822398,-3.222299,-0.020161157,-1.9055145,0.091119766,-0.41778564,0.98725593,0.82691354,-0.16394028,0.1243091,0.5233399,0.22538944,-0.9318084,-0.9930049,1.0,0.0,0.0,0.0,0.0,0.0,0.0,-1.4119562,0.1663681,-0.8322398,-1.58993,-0.11072159,-5.056095,-0.36990643,-1.3150454,0.14385581,0.5066991
-0.37877655,37.28391,11.551493,15.951797,0.5950203,-0.14495325,0.047404744,0.33794594,-0.7844648,-0.4966015,-0.7272589,-0.6109218,0.66867524,0.46039551,1.0217303,-0.6264688,-1.763797,-1.0980427,2.2409904,1.5858481,-0.91210353,0.9948164,-0.56202227,-1.7241695,-1.0384165,2.2936864,1.5234934,-0.9552449,0.6778263,-1.4000692,-0.99992764,-1.308684,-0.8446022,0.45242795,0.29187462,0.7297578,-0.56656647,1.3624625,-3.2190773,-0.020141,-2.0017953,0.09332657,-0.4269867,0.9772402,0.8258765,-0.15563127,0.12448295,0.52745706,0.22399464,-0.90743357,-1.0115697,1.0,0.0,0.0,0.0,0.0,0.0,0.0,-1.3797578,0.16656646,-0.8124625,-4.1057944,-0.0010251999,1.3478756,0.5154848,-2.039957,0.46224594,0.8100331
-5.2374563,36.754543,11.100809,18.546928,0.91318053,0.089496255,-0.010827199,0.27462175,-0.783563,-0.49636963,-0.7387394,-0.6134429,0.6622863,0.4583788,1.0222785,-0.6403786,-1.7738065,-1.1122904,2.232342,1.589722,-0.909407,1.0009943,-0.57602316,-1.7338779,-1.0515143,2.2851186,1.5280463,-0.9522799,0.59890133,-1.4002209,-0.96209615,-1.3094412,-0.8615255,0.4563755,0.2983361,0.6975908,-0.56676483,1.3417231,-3.215859,-0.020120863,-2.0979798,0.09541321,-0.43590546,0.9670637,0.82475615,-0.14735366,0.124708846,0.5315185,0.20827372,-0.8810088,-1.0265576,1.0,0.0,0.0,0.0,0.0,0.0,0.0,-1.3475908,0.16676483,-0.7917231,-7.5706124,-0.06437302,3.4690976,0.11162758,-1.875329,0.40521026,0.72391033
-4.979848,37.47434,11.461688,18.06177,0.93214357,0.10476607,0.016831137,0.25819665,-0.7832445,-0.4966732,-0.75131655,-0.6017238,0.65204126,0.4730441,1.026814,-0.6543476,-1.7835453,-1.1266459,2.2249463,1.5932504,-0.90497553,1.0064036,-0.59002405,-1.7432106,-1.0646807,2.2764516,1.5326258,-0.9492444,0.52259076,-1.4002067,-0.9245761,-1.3185472,-0.8688487,0.45868558,0.30550078,0.6654563,-0.5669632,1.3200226,-3.2126439,-0.020100746,-2.194068,0.09734821,-0.44457245,0.95673037,0.8235513,-0.13909586,0.12494132,0.5355419,0.19280696,-0.8552682,-1.0421586,1.0,0.0,0.0,0.0,0.0,0.0,0.0,-1.3154563,0.16696319,-0.7700226,-7.319665,-0.044441223,3.432393,-0.71861744,-0.90521574,0.23363829,0.8085847
-4.768666,36.398815,10.982476,17.300407,0.94837016,0.037893653,0.016213745,0.23825923,-0.7868888,-0.5066922,-0.7539641,-0.5969985,0.64829516,0.47081134,1.0302294,-0.6687129,-1.7938797,-1.1400771,2.2167518,1.5974553,-0.90216327,1.0111395,-0.6040421,-1.7522972,-1.077952,2.2677617,1.5372206,-0.94614685,0.4581356,-1.4024701,-0.90436816,-1.3292916,-0.86944014,0.45983467,0.31153536,0.6333542,-0.56716156,1.297362,-3.209432,-0.02008065,-2.29006,0.09913969,-0.45302582,0.94621664,0.82226604,-0.13081357,0.12514114,0.5395424,0.1782066,-0.83424205,-1.0606908,1.0,0.0,0.0,0.0,0.0,0.0,0.0,-1.2833542,0.16716155,-0.74736196,-6.16253,-0.2755165,1.7309904,-0.8741617,-0.22867918,0.09495616,0.6985605
-9.493069,35.755936,10.289733,19.75863,1.2158728,0.23513842,-0.057951674,0.15935484,-0.78694016,-0.4771726,-0.7485793,-0.6195546,0.6619469,0.48599085,1.027075,-0.68273616,-1.8000144,-1.15281,2.2058063,1.6034153,-0.8975478,1.0150629,-0.618084,-1.7611434,-1.0912863,2.2590184,1.5418364,-0.9429854,0.37170276,-1.4048765,-0.8789282,-1.3339453,-0.8766246,0.4621717,0.31802627,0.60128355,-0.5673599,1.2737421,-3.206223,-0.020060573,-2.3859563,0.10069227,-0.46126556,0.9355389,0.8209465,-0.12252039,0.12531732,0.5434436,0.15112793,-0.8125675,-1.0760185,1.0,0.0,0.0,0.0,0.0,0.0,0.0,-1.2512835,0.16735992,-0.72374207,-8.316952,-0.30081272,2.247429,-0.23293495,-0.9226918,0.23325086,0.73705316
-12.770462,33.972168,8.988994,20.895672,1.4008329,0.2639458,-0.13002282,0.11442525,-0.7871543,-0.49381015,-0.7446824,-0.6194406,0.65709186,0.4817377,1.0265055,-0.69679946,-1.8105245,-1.1657546,2.1970744,1.6075456,-0.89481163,1.0180899,-0.6321469,-1.7698753,-1.1046187,2.2502065,1.5464712,-0.9397687,0.2808298,-1.4069602,-0.8721567,-1.3322307,-0.883404,0.46369976,0.32309932,0.56924534,-0.5675583,1.249164,-3.2030175,-0.020040516,-2.4817567,0.10192108,-0.4693222,0.92470115,0.8196575,-0.11420179,0.12548828,0.547149,0.11639837,-0.79573387,-1.0920773,1.0,0.0,0.0,0.0,0.0,0.0,0.0,-1.2192453,0.16755828,-0.699164,-8.753437,-0.28295517,0.41463375,0.42996407,-0.91058016,0.1412332,0.58196783
-16.820948,32.346886,7.452444,21.701735,1.4976482,0.313811,-0.18815163,0.04186407,-0.78211826,-0.50517637,-0.760625,-0.64296514,0.64699435,0.5053404,1.0222763,-0.71035874,-1.820393,-1.1806812,2.18591,1.6111706,-0.88923466,1.020085,-0.6462012,-1.7786548,-1.1179911,2.2412648,1.551108,-0.93649185,0.17340297,-1.4052274,-0.8807875,-1.3378906,-0.8985398,0.46365792,0.32942572,0.53723955,-0.56775665,1.2236285,-3.199815,-0.02002048,-2.5774612,0.1027565,-0.47725677,0.91367495,0.81846255,-0.10578441,0.12571971,0.55056614,0.07490143,-0.7821231,-1.111593,1.0,0.0,0.0,0.0,0.0,0.0,0.0,-1.1872395,0.16775665,-0.6736285,-10.37302,0.08227825,-1.114583,-0.26876926,-1.7907739,-0.042629242,0.6842613
-24.657545,26.64926,3.7574115,23.493212,1.8971181,0.35389203,-0.3155951,-0.05175489,-0.78669655,-0.53787607,-0.769539,-0.6332472,0.63277555,0.4753632,1.0149095,-0.72487086,-1.8324424,-1.194945,2.1779401,1.6143856,-0.88895553,1.0208021,-0.66025645,-1.7877033,-1.1314589,2.2322125,1.5557295,-0.9331807,0.039422203,-1.4060173,-0.91351724,-1.348435,-0.908663,0.46138403,0.33177266,0.50526524,-0.567955,1.1971368,-3.196616,-0.020000463,-2.67307,0.103048325,-0.4850998,0.9024014,0.81747603,-0.09715527,0.12603073,0.55354303,0.015768735,-0.77898324,-1.1377864,1.0,0.0,0.0,0.0,0.0,0.0,0.0,-1.1552652,0.16795501,-0.64713675,-12.970299,-0.2093792,-3.4906864,-0.68182945,-1.3700724,-0.32067895,0.26305914
-28.794992,26.685226,3.3855133,25.040464,2.2033014,0.54914856,-0.34313706,-0.13803838,-0.7877514,-0.5212016,-0.7765321,-0.6096011,0.61910653,0.4738534,1.0069983,-0.73903155,-1.8398235,-1.209112,2.1712525,1.6176401,-0.88579535,1.0200487,-0.6743279,-1.7969882,-1.1450506,2.2231526,1.5603186,-0.92985237,-0.11209763,-1.4079556,-0.93421316,-1.3616062,-0.9059926,0.45762503,0.33334452,0.47332335,-0.5681534,1.1696897,-3.19342,-0.019980468,-2.7685833,0.10266304,-0.49292755,0.89088035,0.8167488,-0.0882956,0.12634443,0.5560236,-0.055619508,-0.7753308,-1.1620717,1.0,0.0,0.0,0.0,0.0,0.0,0.0,-1.1233233,0.16815338,-0.61968964,-14.697078,-0.34279823,-2.2937298,-0.910306,-0.121343136,-0.47932863,0.2029419
-35.052197,27.821358,3.4505265,28.123236,2.6210065,0.9144752,-0.38942534,-0.25936702,-0.7913509,-0.48659116,-0.77773255,-0.61029345,0.6162375,0.48535553,0.994112,-0.75346303,-1.8456473,-1.2228239,2.1621232,1.6219423,-0.88131684,1.0175501,-0.68843657,-1.8062484,-1.158755,2.2141423,1.5648695,-0.9265021,-0.29428217,-1.4123133,-0.9241592,-1.3717635,-0.90079606,0.45394856,0.3359104,0.44141293,-0.56835175,1.1412882,-3.1902273,-0.019960491,-2.864001,0.10143328,-0.5007019,0.8791686,0.8163108,-0.07927463,0.1265669,0.55797213,-0.14499079,-0.76687706,-1.1791395,1.0,0.0,0.0,0.0,0.0,0.0,0.0,-1.0914129,0.16835174,-0.59128815,-17.719852,-0.6047487,0.7511139,-0.56626797,0.101315975,-0.4565537,0.3299594
-32.41716,31.24838,4.931528,26.902544,2.3676655,0.93361986,-0.35059425,-0.3067836,-0.783703,-0.5176079,-0.77998817,-0.6457604,0.6234251,0.4950011,0.9868718,-0.76680684,-1.8580092,-1.2367537,2.1495662,1.627212,-0.877002,1.0133902,-0.7025481,-1.8154914,-1.1725374,2.2050786,1.5693918,-0.9231194,-0.45511827,-1.4112356,-0.9250587,-1.3791442,-0.90932655,0.45138037,0.33928668,0.40953445,-0.5685501,1.1119332,-3.1870377,-0.019940535,-2.9593232,0.09938097,-0.5083313,0.86728954,0.8161411,-0.070121385,0.12673567,0.55940574,-0.22580539,-0.7537693,-1.1955487,1.0,0.0,0.0,0.0,0.0,0.0,0.0,-1.0595344,0.1685501,-0.5619332,-15.633858,-0.052261353,-0.3291726,-0.30391216,-1.2471557,-0.35312772,0.4139483
-29.489105,30.090046,4.4389567,24.500427,2.163839,0.74751186,-0.31556565,-0.35136533,-0.7920829,-0.5688648,-0.7802167,-0.65285265,0.6114942,0.5048807,0.97825366,-0.7817564,-1.8723779,-1.2505591,2.1397934,1.6305413,-0.8726314,1.0078684,-0.7166777,-1.8249862,-1.1863676,2.1959004,1.5738798,-0.91969764,-0.5833187,-1.4141133,-0.95835626,-1.3827126,-0.921938,0.44764778,0.34335715,0.37768793,-0.5687485,1.0816257,-3.1838512,-0.019920599,-3.0545504,0.09659386,-0.51587677,0.8551888,0.8162108,-0.060770564,0.12687913,0.5603646,-0.29772443,-0.7455922,-1.219413,1.0,0.0,0.0,0.0,0.0,0.0,0.0,-1.0276879,0.16874847,-0.5316257,-12.428784,-0.44953823,-3.518951,0.07903576,-1.6414404,-0.5209267,0.47968626
-26.622284,28.74282,3.9110665,21.962543,2.0292187,0.5679499,-0.27649826,-0.39880833,-0.79838866,-0.6137371,-0.78724945,-0.6271648,0.58865774,0.4923207,0.9679876,-0.7965166,-1.8863599,-1.2650926,2.133184,1.6327456,-0.8704656,1.0012747,-0.7308646,-1.8350265,-1.2002436,2.186688,1.5783144,-0.91624725,-0.6834839,-1.4208696,-1.0198563,-1.3879038,-0.92267203,0.44147474,0.34579337,0.34587336,-0.56894684,1.0503666,-3.180668,-0.019900681,-3.1496823,0.093141556,-0.52337646,0.8427876,0.8164992,-0.05112565,0.12694994,0.56089115,-0.36253405,-0.7425864,-1.2516077,1.0,0.0,0.0,0.0,0.0,0.0,0.0,-0.99587333,0.16894683,-0.5003666,-9.671187,-0.84097385,-6.295407,-0.07956028,-0.4436016,-0.8217275,0.3193915
-37.04377,22.510656,-0.8800435,24.414967,2.5618334,0.65194726,-0.44965225,-0.52175885,-0.80494606,-0.679255,-0.78392756,-0.6160809,0.5605636,0.4358046,0.9490988,-0.81135917,-1.902952,-1.2786363,2.1250799,1.6343708,-0.8726668,0.9934641,-0.7451497,-1.8459213,-1.2141386,2.1775174,1.5826651,-0.91281974,-0.8121602,-1.431754,-1.1129398,-1.3882,-0.9168853,0.43196106,0.34189403,0.31409073,-0.5691452,1.018157,-3.177488,-0.019880785,-3.244719,0.08886576,-0.5309448,0.8300009,0.81712055,-0.04105669,0.12691176,0.56082225,-0.451388,-0.75005317,-1.2920521,1.0,0.0,0.0,0.0,0.0,0.0,0.0,-0.9640907,0.1691452,-0.468157,-12.4555,-1.3199329,-9.399056,0.5249262,0.09651184,-1.2583077,-0.33171773
-46.136593,20.42022,-3.4960406,27.124214,3.0981712,0.90107334,-0.5839796,-0.6290076,-0.8070165,-0.7239763,-0.7808826,-0.57032853,0.54761976,0.3704573,0.93056333,-0.8258513,-1.9183189,-1.2922269,2.1204846,1.6374271,-0.875774,0.9841486,-0.7595406,-1.8578117,-1.228005,2.1685452,1.5869128,-0.90948284,-0.96977913,-1.4425366,-1.2144932,-1.3840191,-0.89277655,0.42109257,0.3312075,0.28233957,-0.56934357,0.9849977,-3.1743112,-0.019860908,-3.3396606,0.08352709,-0.53860474,0.81680095,0.81820375,-0.030503549,0.1266757,0.559969,-0.5639617,-0.7597315,-1.3337775,1.0,0.0,0.0,0.0,0.0,0.0,0.0,-0.93233955,0.16934356,-0.43499768,-15.292799,-1.3700724,-10.208082,1.0698557,1.8343687,-1.4764667,-1.0019779
-49.91133,23.822918,-2.6963649,28.702974,3.3546386,1.2380995,-0.63864297,-0.7180208,-0.8044136,-0.7509138,-0.77497965,-0.52881724,0.55792713,0.2825029,0.91234654,-0.839982,-1.932903,-1.305503,2.1156635,1.6427054,-0.88123256,0.97315943,-0.7740031,-1.8706176,-1.2417952,2.1599278,1.591067,-0.9063138,-1.1403111,-1.4485699,-1.302775,-1.3750662,-0.8536255,0.41209123,0.3124248,0.25062037,-0.56954193,0.9508897,-3.1711376,-0.01984105,-3.4345074,0.07697821,-0.5463104,0.80323106,0.8198044,-0.019517146,0.12613338,0.5582384,-0.688487,-0.7612798,-1.3693389,1.0,0.0,0.0,0.0,0.0,0.0,0.0,-0.90062034,0.16954193,-0.4008897,-16.571308,-0.92630386,-8.861876,1.5885592,3.2999277,-1.3257265,-1.7820835
-46.013996,32.58725,1.9910598,28.706543,3.2741294,1.5630484,-0.58811617,-0.7757834,-0.7982116,-0.7587525,-0.75245214,-0.4810273,0.57528645,0.22047144,0.89558107,-0.85382426,-1.9464929,-1.3170404,2.1118252,1.6485956,-0.8842666,0.9605862,-0.7884684,-1.8840816,-1.2554003,2.1518064,1.5951563,-0.9033669,-1.2949245,-1.4468391,-1.3609673,-1.3536212,-0.8003592,0.40667102,0.2891925,0.21893263,-0.5697403,0.9158339,-3.167967,-0.019821214,-3.5292594,0.06922722,-0.55391693,0.7894162,0.82188195,-0.008268794,0.12517752,0.5556728,-0.80800354,-0.7472344,-1.3901916,1.0,0.0,0.0,0.0,0.0,0.0,0.0,-0.8689326,0.16974029,-0.36583388,-15.044689,-0.13122559,-5.8395624,2.77915,4.767227,-0.9292841,-2.1878362
-34.617733,42.236507,8.337908,25.455929,2.7456803,1.6607896,-0.46465898,-0.7999606,-0.7919744,-0.7663236,-0.7441383,-0.43359217,0.5550037,0.0530918,0.88059014,-0.8676659,-1.960714,-1.3298141,2.108447,1.6506567,-0.89805776,0.9467875,-0.8028651,-1.8979232,-1.2687784,2.1442876,1.5991904,-0.9007586,-1.4072064,-1.4380549,-1.3919023,-1.3309437,-0.7367466,0.4013634,0.25199267,0.18727684,-0.56993866,0.8798313,-3.1647997,-0.019801397,-3.6239166,0.060471535,-0.56129456,0.77547634,0.82432765,0.0030670338,0.12372696,0.55241835,-0.90268344,-0.71773654,-1.3998158,1.0,0.0,0.0,0.0,0.0,0.0,0.0,-0.8372768,0.16993865,-0.3298313,-10.925341,0.639534,-3.1197786,2.7730227,5.9335947,-0.8361459,-3.5512447
-23.803497,48.339085,13.336631,22.114311,2.3824232,1.6490775,-0.35723102,-0.8197512,-0.796707,-0.76536536,-0.7289703,-0.33431724,0.52301043,-0.13509054,0.8648124,-0.8825358,-1.9744598,-1.3416755,2.1108558,1.6514914,-0.91426766,0.93218386,-0.81719214,-1.9118965,-1.2819144,2.137608,1.6031576,-0.89863765,-1.4774545,-1.4314806,-1.3992938,-1.3064467,-0.6459444,0.39453137,0.19956656,0.15565252,-0.570137,0.8428829,-3.1616356,-0.019781599,-3.7184794,0.05093193,-0.56829834,0.76149756,0.8270451,0.014342181,0.12162429,0.5486331,-0.97586155,-0.6805514,-1.4016333,1.0,0.0,0.0,0.0,0.0,0.0,0.0,-0.8056525,0.17013702,-0.29288286,-6.825876,0.4834175,-0.7741928,2.8364897,8.790708,-0.9126663,-5.032879
-16.644148,53.873497,17.15868,20.867561,2.2035563,1.6614683,-0.34562626,-0.8351616,-0.7866041,-0.7750941,-0.6900095,-0.23669106,0.5114437,-0.3231027,0.8486677,-0.89585257,-1.9894059,-1.3509153,2.113939,1.654302,-0.9309479,0.91712344,-0.8314219,-1.9258888,-1.294686,2.132008,1.6070582,-0.8971442,-1.5152386,-1.420528,-1.3993151,-1.2665821,-0.53195477,0.38796034,0.13324754,0.12405968,-0.5703354,0.8049895,-3.1584747,-0.019761821,-3.8129473,0.040760994,-0.57492065,0.7475746,0.8300051,0.025416153,0.11876259,0.544372,-1.0352685,-0.6394341,-1.3933156,1.0,0.0,0.0,0.0,0.0,0.0,0.0,-0.77405965,0.17033538,-0.2549895,-3.6590338,0.9679079,-0.013709068,4.2691708,11.213422,-0.822556,-6.411061
-12.1244545,58.576977,20.194857,21.008871,2.2028637,1.7165375,-0.3452532,-0.8418852,-0.7760714,-0.77342814,-0.63915104,-0.118085355,0.52228093,-0.39632615,0.8329349,-0.90902907,-2.0032315,-1.3586011,2.1201994,1.6592863,-0.9367768,0.90186083,-0.8455096,-1.9398391,-1.3068892,2.1277318,1.6109091,-0.89631736,-1.5296546,-1.4051173,-1.393319,-1.2042581,-0.39324948,0.38390705,0.066481896,0.09249878,-0.57053375,0.76615214,-3.1553168,-0.019742064,-3.9073207,0.030043602,-0.5811386,0.7338213,0.8332068,0.036142647,0.115067214,0.53964776,-1.0878625,-0.59699446,-1.3731345,0.0,1.0,0.0,0.0,0.0,0.0,0.0,-0.74249876,0.17053375,-0.21615213,-1.3822556,1.4448166,0.6253481,6.430125,13.765537,-0.52066445,-6.456068
-7.304354,56.06129,19.934372,17.566086,1.7862695,1.5260725,-0.25560397,-0.83820164,-0.7889395,-0.78486216,-0.6369518,-0.09130303,0.51218307,-0.4189187,0.81804067,-0.92440355,-2.0183253,-1.3705844,2.1186016,1.6621274,-0.93820924,0.88659555,-0.85949075,-1.9541781,-1.3186874,2.1244032,1.6151894,-0.89592034,-1.5237844,-1.3895204,-1.5207963,-1.1954664,-0.38504183,0.49900562,0.05119901,0.0662899,-0.570961,0.7404114,-1.6775494,0.025719276,0.50623363,0.018897057,-0.5868912,0.72004586,0.83653176,0.046521492,0.110789225,0.53458023,-1.1231982,-0.5492977,-1.4103123,0.0,1.0,0.0,0.0,0.0,0.0,0.0,-0.7162899,0.170961,-0.19041139,0.84605217,2.626586,-25.421,-3.138876,-10.378784,23.317904,3.1821795
56.60648,176.0,110.0,110.0,1.4932445,12.405079,-1.3239236,-0.795308,0.5719455,0.6818066,0.7075262,-0.21804428,0.6691997,-0.4347575,0.8070648,-0.8022962,-1.8859974,-1.2479348,2.102599,1.6821094,-0.9393961,0.8762186,-0.8752626,-1.9647086,-1.3164902,2.1107237,1.6306046,-0.8944488,-0.8799186,-1.6386774,-0.8921635,0.6874675,-1.6900405,1.8994898,0.17676044,0.04952669,-0.5707016,0.7447255,-1.6758722,0.025693562,0.40647635,0.0076174736,-0.59041595,0.7101946,0.8397598,0.0462983,0.11187178,0.5292869,-1.1311613,-0.27010563,-0.84479946,0.0,1.0,0.0,0.0,0.0,0.0,0.0,-0.69952667,0.1707016,-0.19472551,63.114643,-24.599981,64.37249,187.08586,-128.8712,143.18602,11.863809
-27.143362,164.27385,70.38125,92.90187,5.937381,5.3432183,-1.736206,-0.82001054,-0.58385247,-0.12622835,0.7644739,-0.5442117,0.5261745,-0.15385604,0.7942176,-0.9336479,-1.9773314,-1.2400428,2.0563025,1.683222,-0.90983444,0.8675993,-0.89073884,-1.9704134,-1.3029175,2.0928404,1.6496247,-0.89281994,-0.85496706,-1.5187799,-0.46048334,1.5815833,-1.8243598,1.9081929,0.15930332,0.032780647,-0.5704422,0.7480428,-1.6741967,0.025667874,0.30681878,-0.0044903755,-0.5925751,0.7047815,0.8437862,0.039280184,0.11587967,0.52254546,-1.2352163,-0.18542874,-0.44546685,1.0,0.0,0.0,0.0,0.0,0.0,0.0,-0.6827806,0.1704422,-0.19804281,2.812457,11.534786,44.03513,89.75487,-14.435959,2.48456,-1.4591217
-51.157803,150.83525,47.134377,71.00604,4.8519773,3.4317362,-1.5101998,-0.8122341,-0.36650836,-0.44095764,0.72944427,-0.59461373,0.5640937,0.23478271,0.7863759,-0.9273897,-2.0145092,-1.2299731,2.033379,1.7060341,-0.8693417,0.8579939,-0.9035305,-1.9743178,-1.2842388,2.0756514,1.6675595,-0.8912044,-0.99384,-1.2009892,-0.3671494,1.9647557,-1.6863527,1.7586279,0.16193634,0.016051292,-0.5701828,0.75036424,-1.6725229,0.025642212,0.20726085,-0.017652035,-0.5939331,0.70229864,0.84874856,0.030464197,0.1211883,0.5138201,-1.3408842,-0.11099724,-0.19099961,1.0,0.0,0.0,0.0,0.0,0.0,0.0,-0.66605127,0.1701828,-0.20036423,-13.328516,31.260418,9.368664,38.744045,13.05573,-13.945913,0.15014112
-47.84187,114.100204,29.684885,43.70696,3.438013,1.9651082,-0.83024395,-0.7940702,-0.42695934,-0.30557632,0.786574,-0.5855855,0.53885525,0.1724618,0.77858686,-0.9462264,-2.0048754,-1.2055814,2.017093,1.7214451,-0.87395823,0.8466118,-0.9134983,-1.9779322,-1.2644577,2.0607626,1.6835717,-0.8896261,-1.1852753,-0.93011516,-0.3601409,1.9833395,-1.4250546,1.5503585,0.1561003,-0.00066137314,-0.5699234,0.75169086,-1.6708508,0.025616575,0.10780247,-0.03164339,-0.59465027,0.70135635,0.85428804,0.021970617,0.12687707,0.5035985,-1.4170226,-0.049946748,-0.07039561,1.0,0.0,0.0,0.0,0.0,0.0,0.0,-0.6493386,0.1699234,-0.20169085,-18.824268,26.690424,0.53108335,2.0718575,25.577236,-20.385002,-0.72244704
-31.74029,89.59211,21.346054,23.451725,1.6651582,0.98843145,-0.31226018,-0.7927268,-0.36724952,-0.31118777,0.78486925,-0.58046365,0.5561206,0.039439786,0.7673391,-0.9502232,-2.009051,-1.1859708,2.0027163,1.7391838,-0.8856821,0.8335665,-0.9211763,-1.9819701,-1.2458496,2.048361,1.6976174,-0.88820606,-1.3440913,-0.7147402,-0.41854528,1.819936,-1.1805604,1.3564485,0.13652743,-0.01735735,-0.569664,0.75202364,-1.6691803,0.025590964,0.008443534,-0.046028137,-0.594841,0.7009687,0.8600367,0.014769812,0.13246496,0.4925157,-1.4442301,0.0025954237,-0.034993436,1.0,0.0,0.0,0.0,0.0,0.0,0.0,-0.6326426,0.169664,-0.20202363,-15.835881,21.255516,-5.899799,-16.347958,23.955202,-19.208527,-2.170691
-16.7933,67.132065,15.789374,11.392175,0.683323,0.2777143,0.0019797496,-0.7993733,-0.3555051,-0.31328094,0.7825031,-0.5609833,0.55297726,-0.07187349,0.75362915,-0.95672685,-2.0132983,-1.1675993,1.9922627,1.7529151,-0.89539343,0.81936246,-0.9273828,-1.9866717,-1.2291813,2.0379775,1.709916,-0.88705975,-1.4461135,-0.5898552,-0.48705867,1.6157001,-0.99234176,1.187963,0.10681062,-0.034036636,-0.5694046,0.7513636,-1.6675115,0.025565378,-0.090816066,-0.060464382,-0.59464264,0.7005331,0.86576104,0.0091292,0.13773058,0.48104528,-1.4420414,0.03725181,-0.051120315,1.0,0.0,0.0,0.0,0.0,0.0,0.0,-0.61596334,0.1694046,-0.20136356,-10.280442,12.307798,-6.7771854,-20.508575,18.362354,-16.789364,-3.1431928
-8.781275,48.56186,10.6822195,6.7542725,0.4137619,-0.25406075,0.09307234,-0.7998168,-0.36090153,-0.3608796,0.7935061,-0.54142547,0.5447471,-0.0830919,0.7393808,-0.96347296,-2.0227597,-1.1498307,1.9838349,1.7643907,-0.89536893,0.8045729,-0.9329628,-1.9921687,-1.2141914,2.0290167,1.7207288,-0.88619953,-1.4901432,-0.54778826,-0.5702124,1.4597842,-0.86486274,1.0456866,0.0787955,-0.050699234,-0.5691452,0.7497117,-1.6658443,0.025539817,-0.18997642,-0.0748353,-0.59426117,0.6997063,0.87138116,0.004995084,0.14258246,0.4694039,-1.4338022,0.049488805,-0.09663649,1.0,0.0,0.0,0.0,0.0,0.0,0.0,-0.59930074,0.1691452,-0.19971168,-4.4757605,4.0963173,-8.213305,-15.638804,12.397814,-14.224005,-2.9125392
-0.9390681,44.85679,11.85339,6.3826413,0.34770796,-0.3657714,0.124360725,-0.78953046,-0.349707,-0.35900918,0.7937574,-0.5194442,0.5667067,-0.087539494,0.72561985,-0.9679335,-2.0280695,-1.1348157,1.9770724,1.7773994,-0.8949535,0.78969556,-0.93845594,-1.9983103,-1.2002506,2.0209754,1.7303189,-0.88559204,-1.4871905,-0.5500483,-0.6282734,1.3721255,-0.78484315,0.9299502,0.054455552,-0.06734514,-0.5688858,0.74706894,-1.6641788,0.025514282,-0.28903764,-0.089074135,-0.59381866,0.6984439,0.87686086,0.0020690006,0.14703919,0.45770082,-1.4190437,0.054624226,-0.13854632,1.0,0.0,0.0,0.0,0.0,0.0,0.0,-0.58265483,0.1688858,-0.19706893,0.22206306,-0.31791925,-5.6355834,-8.793163,7.6785445,-11.586941,-2.5151126
1.0611043,37.55388,10.630699,6.7813373,0.61124086,-0.4142654,0.10439665,-0.7841377,-0.39472935,-0.3574593,0.78798515,-0.47811517,0.5827966,-0.11201798,0.7112818,-0.9779289,-2.0340562,-1.1214521,1.9731638,1.7885985,-0.89679384,0.77502805,-0.94434583,-2.0048182,-1.1867695,2.0135634,1.7389191,-0.88521343,-1.4600855,-0.6021973,-0.6574163,1.3401934,-0.7275345,0.83638316,0.032275926,-0.08397436,-0.5686264,0.7434363,-1.662515,0.025488773,-0.38799983,-0.10322523,-0.5933838,0.6967438,0.8822091,2.2742552e-05,0.15103412,0.4459773,-1.4122939,0.05195166,-0.18243042,1.0,0.0,0.0,0.0,0.0,0.0,0.0,-0.5660256,0.1686264,-0.19343626,2.6658773,-5.288601,-2.7329326,-3.162384,5.4686427,-9.398127,-2.2372456
-0.84942746,37.619244,10.177121,8.746172,0.7047444,-0.33345807,0.049260095,-0.78032506,-0.39697102,-0.40378132,0.78574497,-0.49243465,0.59664446,-0.081945546,0.69699556,-0.98404294,-2.0451963,-1.108195,1.96432,1.7985836,-0.893408,0.76067334,-0.9507917,-2.0116618,-1.1733418,2.006491,1.7467221,-0.88500744,-1.4272931,-0.6588946,-0.69296026,1.344038,-0.70133823,0.76128495,0.016611593,-0.10058689,-0.568367,0.7388148,-1.6608529,0.02546329,-0.48686308,-0.11734676,-0.5929642,0.69462895,0.8874413,-0.0013193984,0.15467148,0.4341923,-1.4109114,0.0501896,-0.22303154,1.0,0.0,0.0,0.0,0.0,0.0,0.0,-0.5494131,0.168367,-0.18881476,3.2578707,-5.754411,-3.3742905,0.46081543,2.3948193,-7.5576067,-1.5874546
-1.916183,41.229156,11.181236,10.415023,0.74063325,-0.18970478,0.029143931,-0.7692584,-0.40643013,-0.42161006,0.78905576,-0.49482313,0.5938015,-0.04279567,0.68374753,-0.99143475,-2.0538228,-1.0944362,1.9570086,1.8061023,-0.889287,0.74664384,-0.95774496,-2.0188487,-1.1597385,1.9995402,1.7538747,-0.8849054,-1.3949077,-0.7078096,-0.7265596,1.3662024,-0.6937981,0.6997279,0.0079358,-0.11718321,-0.5681076,0.7332053,-1.6591924,0.025437832,-0.5856275,-0.131464,-0.59252167,0.6921653,0.89255315,-0.0020671764,0.15810631,0.4223114,-1.4104849,0.05350994,-0.2559882,0.0,1.0,0.0,0.0,0.0,0.0,0.0,-0.53281677,0.1681076,-0.1832053,3.2190323,-4.995334,-3.1527638,2.3087502,0.52239895,-6.2093973,-0.901163
-8.124993,34.288544,6.831409,10.822544,0.8405487,-0.21276641,-0.0035215467,-0.7692596,-0.45795977,-0.4866007,0.7927739,-0.51430595,0.59580237,0.010109261,0.6697179,-1.003541,-2.0675087,-1.0804611,1.9481096,1.8134549,-0.88389444,0.7328585,-0.9652828,-2.0265925,-1.1458778,1.9925383,1.7604951,-0.88483196,-1.3729901,-0.7694523,-0.7896994,1.3933123,-0.7028294,0.6493394,0.007129771,-0.13376236,-0.5678482,0.726606,-1.6575336,0.0254124,-0.68468684,-0.14567327,-0.59207916,0.68926066,0.89755744,-0.0021591273,0.16142268,0.4102788,-1.4230429,0.05401559,-0.30382937,0.0,1.0,0.0,0.0,0.0,0.0,0.0,-0.5162376,0.1678482,-0.176606,2.2203684,-6.2662244,-6.1739445,2.878499,-1.0617137,-5.1138997,-0.097654015
-9.94562,28.627539,4.098201,9.468223,0.775374,-0.23985505,0.034613997,-0.7555636,-0.5058283,-0.5302102,0.79000705,-0.51659805,0.60419804,0.0696133,0.65730214,-1.0158657,-2.0796134,-1.0668771,1.9408785,1.8209149,-0.8778706,0.71927243,-0.97352827,-2.0350802,-1.1318016,1.9854163,1.7666863,-0.8847099,-1.3537071,-0.8431831,-0.8684608,1.4129549,-0.7157381,0.6087581,0.013879995,-0.1503253,-0.5675888,0.7190169,-1.6558764,0.025386993,-0.7836472,-0.16004038,-0.59160614,0.6857783,0.90244436,-0.0015108123,0.1646164,0.39811203,-1.4398499,0.053190514,-0.36516744,0.0,1.0,0.0,0.0,0.0,0.0,0.0,-0.49967468,0.1675888,-0.1690169,1.9756556,-7.4677944,-7.7746034,2.1720886,-1.4049649,-4.1493416,0.6728569
-5.003187,26.51143,4.642156,6.6284976,0.5486015,-0.23007512,0.12421563,-0.7255516,-0.5623952,-0.52821517,0.7876259,-0.52177936,0.6303068,0.043994844,0.64671725,-1.0297678,-2.0879016,-1.0530391,1.9332384,1.829717,-0.8803104,0.7059544,-0.9826225,-2.0442011,-1.117609,1.9781588,1.7725476,-0.8845354,-1.3244913,-0.93168575,-0.92617774,1.4219643,-0.72938496,0.57819504,0.018612571,-0.16687155,-0.5673294,0.7104389,-1.6542208,0.02536161,-0.8825086,-0.17451477,-0.5911789,0.6816411,0.90717393,-0.00016795234,0.16760553,0.3859324,-1.4482931,0.052962687,-0.43205252,0.0,1.0,0.0,0.0,0.0,0.0,0.0,-0.48312843,0.1673294,-0.1604389,2.9409885,-8.932805,-5.6402087,1.095438,-1.4887571,-3.1543374,0.48589444
-0.51038694,25.406797,5.6152105,4.130894,0.3366505,-0.16971624,0.22398175,-0.7078334,-0.62377113,-0.5182768,0.77952343,-0.5479174,0.647737,0.06322987,0.63517106,-1.0449996,-2.0960288,-1.0396566,1.9233671,1.8373213,-0.8782124,0.69298375,-0.9927014,-2.0538185,-1.1034685,1.9706004,1.7782068,-0.88442194,-1.2879965,-1.0335305,-0.97291774,1.412163,-0.7632179,0.5627608,0.01016022,-0.18340111,-0.56520844,0.70713764,-1.6402646,0.2632302,-0.1602413,-0.18898821,-0.590744,0.67675084,0.91170293,0.0018243596,0.1703712,0.3738557,-1.4454947,0.052778546,-0.5102369,0.0,1.0,0.0,0.0,0.0,0.0,0.0,-0.46659887,0.16520843,-0.15713763,3.302431,-10.277283,-2.372682,-0.1632452,-2.2256255,-2.3529649,0.59377736
-3.4899983,61.6891,17.87119,13.183573,0.7205004,0.65785366,0.12988712,-0.7499715,-0.51449925,-0.45913556,0.79683596,-0.55916786,0.6164199,0.09941364,0.6179866,-1.0441513,-2.099732,-1.023785,1.9146836,1.8398488,-0.8744806,0.6800796,-1.0030707,-2.0632827,-1.0893351,1.9627936,1.7836771,-0.8842598,-1.2914213,-1.0386734,-0.9362341,1.4139309,-0.7880711,0.5414438,0.017979126,-0.19979143,-0.5625839,0.70478904,-1.6386247,0.26296705,-0.259726,-0.20336676,-0.59002686,0.67165506,0.9159943,0.004090478,0.17313537,0.36188644,-1.4328476,0.0893172,-0.5120702,0.0,1.0,0.0,0.0,0.0,0.0,0.0,-0.45020854,0.16258392,-0.15478903,-0.42541027,-0.7018328,4.1022897,0.23269653,-2.9495716,-2.2334456,0.69504994
-8.16287,73.819214,20.622915,17.366928,1.0253321,0.92593634,0.054917995,-0.7608324,-0.508118,-0.486426,0.7965355,-0.55653995,0.60991836,0.11726142,0.60399634,-1.0538825,-2.1119254,-1.0096816,1.9071395,1.844669,-0.8725337,0.66699994,-1.0132064,-2.072377,-1.075173,1.9548056,1.7889509,-0.8840014,-1.3138382,-1.0057691,-0.8986184,1.4171263,-0.80430835,0.5221792,0.028052028,-0.21616554,-0.5599594,0.70144635,-1.6369864,0.26270413,-0.35911125,-0.21763945,-0.5888748,0.6667036,0.92005384,0.0064686676,0.17608021,0.34993544,-1.4227655,0.13693056,-0.49208283,0.0,1.0,0.0,0.0,0.0,0.0,0.0,-0.43383443,0.1599594,-0.15144634,-2.3290157,3.062296,4.2574167,0.354743,-2.1749616,-2.041304,0.8835662
-5.8688793,79.72224,22.532402,17.906971,1.0321997,0.94299823,0.059121925,-0.74483556,-0.49817932,-0.4869231,0.79892844,-0.5473523,0.622676,0.14302647,0.59251636,-1.0630243,-2.1210692,-0.99528015,1.9000704,1.8512185,-0.8696987,0.6537515,-1.02289,-2.0811317,-1.0609671,1.9467318,1.7940588,-0.88362944,-1.3288734,-0.956553,-0.8662007,1.4216208,-0.81029725,0.50677025,0.039764464,-0.23252296,-0.5573349,0.69711053,-1.6353498,0.2624415,-0.45839712,-0.23176622,-0.58722687,0.66202056,0.9238772,0.0089078825,0.17926627,0.33798698,-1.4064605,0.18545,-0.46301374,0.0,1.0,0.0,0.0,0.0,0.0,0.0,-0.417477,0.1573349,-0.14711052,-1.6198874,4.687059,3.784728,0.44054985,-1.1892796,-1.6623616,1.022572
-4.4513087,74.06481,20.296799,16.022907,0.9312054,0.7580757,0.08893673,-0.7383103,-0.5073514,-0.49934435,0.79681456,-0.54998475,0.62779045,0.17553668,0.5799205,-1.0736251,-2.131066,-0.98128563,1.8917333,1.8568379,-0.86607575,0.6404296,-1.0321826,-2.0897224,-1.0467325,1.9386313,1.799037,-0.8831259,-1.3336405,-0.9210198,-0.8549085,1.4238901,-0.8117002,0.4945567,0.053484574,-0.24886417,-0.5547104,0.6917826,-1.6337148,0.2621791,-0.5575837,-0.24573278,-0.58514404,0.6575315,0.92746097,0.011465381,0.18265532,0.3260699,-1.390197,0.22615413,-0.4465972,0.0,1.0,0.0,0.0,0.0,0.0,0.0,-0.4011358,0.15471038,-0.14178258,-0.58825016,3.3414364,1.6312003,0.22802353,-0.67534447,-1.3493359,1.234515
-7.788815,61.358696,14.6296835,13.967487,0.8609604,0.50357294,0.102149814,-0.74611783,-0.52455586,-0.54757905,0.79416686,-0.55809104,0.6162381,0.23907748,0.56581783,-1.0846381,-2.1444802,-0.96731585,1.8828222,1.8606608,-0.8592182,0.62707275,-1.0413194,-2.0985332,-1.0325012,1.9305208,1.8039021,-0.8824516,-1.3354585,-0.9119209,-0.895256,1.4215717,-0.80909777,0.4845204,0.07075818,-0.2651248,-0.5518799,0.6859712,-1.5841084,0.37547824,-0.3550481,-0.25961494,-0.5827408,0.6530028,0.9308194,0.01434446,0.18616697,0.3141834,-1.3847023,0.25598517,-0.4592391,0.0,1.0,0.0,0.0,0.0,0.0,0.0,-0.38487518,0.15187988,-0.13597119,-0.10123253,0.7119775,-4.4938445,-0.3702879,0.2086997,-1.030767,1.4698327
-11.396276,60.453705,13.036648,14.611614,0.9005164,0.50116074,0.08878345,-0.7620219,-0.49389678,-0.57393676,0.7930042,-0.5622805,0.583391,0.29481027,0.55087054,-1.0907091,-2.155927,-0.9532008,1.8742927,1.8622413,-0.85297054,0.6136431,-1.050324,-2.1079214,-1.0183067,1.9224778,1.8087156,-0.8815626,-1.3456758,-0.89721876,-0.9523845,1.4192529,-0.8038053,0.48003957,0.09466948,-0.28055477,-0.54828644,0.6822792,-1.528351,0.3516921,-0.3750613,-0.2734847,-0.58000946,0.6483234,0.9339612,0.01768377,0.18979669,0.30229267,-1.3844043,0.28902757,-0.47283337,0.0,1.0,0.0,0.0,0.0,0.0,0.0,-0.3694452,0.14828643,-0.13227922,-1.0722637,1.2826324,-5.3592324,-0.14357567,0.21858215,-0.506264,2.2921875
-9.396219,63.45539,14.2098055,14.546283,0.87312734,0.5349053,0.11675647,-0.7570484,-0.4793623,-0.57568026,0.794479,-0.5647916,0.58340776,0.34113422,0.53793824,-1.0982602,-2.1654894,-0.9388588,1.8659986,1.8670564,-0.8474492,0.6001429,-1.059155,-2.117832,-1.0041286,1.9144533,1.8134587,-0.8804285,-1.3516988,-0.8790158,-1.0022258,1.4175205,-0.80355585,0.47170034,0.119219415,-0.295619,-0.5446472,0.6784743,-1.4991217,0.3669954,-0.38243505,-0.28731155,-0.57696533,0.64354,0.9368686,0.021472096,0.19357057,0.2904249,-1.3782365,0.32198608,-0.48186326,0.0,1.0,0.0,0.0,0.0,0.0,0.0,-0.35438097,0.14464721,-0.1284743,-0.67772865,1.6256571,-4.563856,-0.1185894,-0.4093647,-1.0092974,2.317804
-6.1726747,67.562065,16.277603,14.551185,0.9198391,0.60568076,0.13310249,-0.75388974,-0.47106448,-0.5662115,0.796118,-0.5552283,0.5976829,0.3455753,0.5247539,-1.1062615,-2.174453,-0.9245168,1.8589305,1.873227,-0.845871,0.586615,-1.0677991,-2.12804,-0.98995316,1.9064463,1.8181353,-0.87906706,-1.353531,-0.8603128,-1.0253108,1.417612,-0.801411,0.4657173,0.14125,-0.310359,-0.54086304,0.6746496,-1.4654796,0.38215783,-0.38231173,-0.30103207,-0.573555,0.6387321,0.9395301,0.025597611,0.19746318,0.27863288,-1.3659286,0.3563337,-0.48212913,0.0,1.0,0.0,0.0,0.0,0.0,0.0,-0.33964097,0.14086303,-0.124649584,-0.2947569,1.6710043,-1.800561,0.0207901,-0.29315948,-0.78935623,2.0589352
-6.1280684,64.71894,15.248008,13.873325,0.94470406,0.5506966,0.15519646,-0.7585474,-0.48589495,-0.58472466,0.79374486,-0.56101,0.5827694,0.39172783,0.5107603,-1.1163886,-2.1865125,-0.91057867,1.8503454,1.8764122,-0.8398943,0.57306534,-1.0763707,-2.1384275,-0.97578245,1.8984389,1.8227463,-0.87747633,-1.3557836,-0.85685945,-1.0415386,1.4169891,-0.8021185,0.45892432,0.1645773,-0.32477808,-0.5369415,0.6707629,-1.4337385,0.39526716,-0.3902258,-0.31464577,-0.5698471,0.6338706,0.94194883,0.030026868,0.20140663,0.26695707,-1.3554095,0.38812327,-0.48906392,0.0,1.0,0.0,0.0,0.0,0.0,0.0,-0.3252219,0.13694152,-0.120762885,-0.33147335,0.15586615,-1.1190414,-0.03399849,-0.5711198,-0.87934136,2.206555
-5.5619764,57.46274,12.853087,11.914,0.86285585,0.4089853,0.18467301,-0.7529082,-0.50804883,-0.61402214,0.79113525,-0.5510561,0.55575985,0.43093315,0.4977745,-1.1271756,-2.1998298,-0.8966689,1.8433334,1.8783222,-0.834383,0.559527,-1.0850606,-2.149036,-0.96162707,1.8904507,1.8272719,-0.8756464,-1.3534328,-0.87356776,-1.0658096,1.4151847,-0.7992138,0.44987282,0.18878996,-0.33891582,-0.5329132,0.666689,-1.4066743,0.40520325,-0.41227317,-0.32817698,-0.56585693,0.6288365,0.94413763,0.034811497,0.20529446,0.2554337,-1.347752,0.4142159,-0.5095886,0.0,1.0,0.0,0.0,0.0,0.0,0.0,-0.31108415,0.1329132,-0.11668897,0.14662743,-1.8378615,-1.9803286,-0.12564659,-0.14884472,-1.1092365,2.3205786
-4.9360504,50.145298,10.848112,9.9942875,0.8392198,0.32742018,0.20979458,-0.75140953,-0.5445357,-0.60836846,0.7906763,-0.54439306,0.5473622,0.4582589,0.48438603,-1.1395142,-2.2098727,-0.8825594,1.8360114,1.8820082,-0.8298205,0.54602575,-1.0941072,-2.159812,-0.9474888,1.8825084,1.8317038,-0.87357694,-1.3492662,-0.91539574,-1.0803163,1.4136903,-0.7936809,0.440364,0.2128097,-0.35282135,-0.5288086,0.6622916,-1.3845092,0.4127836,-0.44757363,-0.34165907,-0.561615,0.6235077,0.9461182,0.03995583,0.20898704,0.24410686,-1.3435298,0.43670627,-0.5419075,0.0,1.0,0.0,0.0,0.0,0.0,0.0,-0.29717863,0.12880859,-0.112291574,0.34594536,-4.3280363,-1.0489941,-0.060248375,0.16559362,-1.1589348,2.341777
-5.410395,48.25482,9.945263,9.433117,0.7738659,0.32266492,0.22911721,-0.7540359,-0.55901235,-0.62329304,0.7859799,-0.56372535,0.5322971,0.5026976,0.47062215,-1.1500084,-2.2221413,-0.86889076,1.8261359,1.8849335,-0.82330716,0.53255033,-1.1036077,-2.1707444,-0.93338287,1.8745595,1.8360367,-0.8712589,-1.3470846,-0.96208996,-1.0964189,1.4100015,-0.7964471,0.43028802,0.237965,-0.3665166,-0.5246277,0.65749866,-1.3636497,0.4193165,-0.4880521,-0.3550992,-0.5571747,0.6178204,0.947896,0.045484174,0.21244788,0.23300236,-1.3390384,0.45887974,-0.57902765,0.0,1.0,0.0,0.0,0.0,0.0,0.0,-0.2834834,0.12462768,-0.107498646,0.1552105,-4.810357,-1.2238026,-0.262928,-0.6529927,-1.2164533,2.4617286
-4.609889,48.759094,10.120127,9.125974,0.76670504,0.35429227,0.24128154,-0.7514144,-0.580221,-0.62301,0.7832862,-0.5607784,0.5315407,0.53475463,0.4574089,-1.1616298,-2.2330453,-0.85505426,1.8184817,1.8891908,-0.8177835,0.51909965,-1.1135793,-2.1817913,-0.9193218,1.8665805,1.8402761,-0.86868984,-1.3446374,-1.0095527,-1.1062919,1.4052007,-0.7994048,0.42128357,0.26301974,-0.37999868,-0.52038574,0.6522968,-1.3421971,0.4251784,-0.5291402,-0.3684783,-0.55249786,0.6117672,0.94947344,0.05138254,0.21566322,0.22214691,-1.3323685,0.4815627,-0.6157019,0.0,1.0,0.0,0.0,0.0,0.0,0.0,-0.2700013,0.120385736,-0.10229677,0.17499924,-4.886639,-0.5823374,-0.37727356,-0.69122314,-1.1182785,2.4549723
-7.9898176,48.48346,8.903931,9.73757,0.7392012,0.37128705,0.2380104,-0.76353467,-0.5988374,-0.6554842,0.7770677,-0.5935104,0.47876966,0.5768656,0.4427462,-1.173463,-2.2473397,-0.841615,1.8072294,1.8881531,-0.81100327,0.5056099,-1.1239953,-2.1930506,-0.90532744,1.8584744,1.8443948,-0.86586547,-1.3505237,-1.0528376,-1.1310593,1.3979694,-0.8154482,0.40806,0.28868297,-0.39327908,-0.5160904,0.6466538,-1.3222728,0.4307647,-0.57390654,-0.3818102,-0.5475693,0.60532135,0.9508455,0.057736464,0.21867271,0.21152192,-1.3276746,0.5060609,-0.6557144,0.0,1.0,0.0,0.0,0.0,0.0,0.0,-0.2567209,0.11609039,-0.09665376,-0.64201355,-4.4763803,-2.0903826,-0.5906582,-1.9958615,-1.5463352,2.509272
0.76542807,56.434566,12.981521,8.998709,0.7133801,0.44514725,0.27640042,-0.73528826,-0.6092284,-0.6067415,0.77721965,-0.57498336,0.49349236,0.596833,0.4320811,-1.1849182,-2.2537248,-0.8276055,1.800976,1.893744,-0.80618215,0.49218428,-1.1347699,-2.2042956,-0.89139885,1.8502735,1.8484069,-0.86279565,-1.3402705,-1.0861288,-1.120466,1.3912723,-0.82314414,0.3981549,0.31284764,-0.40629053,-0.51174927,0.64066994,-1.292835,0.4345857,-0.6040126,-0.39498425,-0.5424118,0.5985922,0.95200807,0.064399324,0.22147366,0.20120323,-1.3077441,0.5282712,-0.68008566,0.0,1.0,0.0,0.0,0.0,0.0,0.0,-0.24370944,0.11174926,-0.09066993,0.90169907,-3.475523,1.5886545,-0.6402731,-1.2873888,-1.2227058,2.3346722
0.97603345,56.23267,12.868507,8.885609,0.7992266,0.45190722,0.26285043,-0.73940027,-0.63856417,-0.60702556,0.77250785,-0.56211734,0.4678999,0.6030545,0.41824424,-1.1986263,-2.2649982,-0.81414807,1.7940618,1.8951969,-0.8024902,0.47885233,-1.1458993,-2.2153769,-0.8775417,1.8420591,1.852311,-0.85950583,-1.3312296,-1.1221677,-1.1025112,1.3840249,-0.8223313,0.3871223,0.334157,-0.4190154,-0.5073776,0.63436794,-1.2642214,0.4374746,-0.6359908,-0.4079666,-0.53704834,0.59162366,0.95298356,0.071269654,0.2240095,0.19121361,-1.2886269,0.55017847,-0.7039915,0.0,1.0,0.0,0.0,0.0,0.0,0.0,-0.23098457,0.10737762,-0.08436793,0.7810116,-3.747058,2.3303032,-0.6907463,-0.44353008,-1.3464689,2.067852
8.701415,63.044178,15.884893,8.103652,0.69620275,0.44448605,0.29949072,-0.71038353,-0.6339646,-0.5895318,0.7618487,-0.55214524,0.43551943,0.6211229,0.40781397,-1.2092957,-2.2743301,-0.80135685,1.7868446,1.8958629,-0.79739356,0.46572733,-1.1572728,-2.2261987,-0.8637944,1.8339072,1.8560963,-0.85601556,-1.3068329,-1.1427664,-1.0735124,1.3713697,-0.8146722,0.37486532,0.3536762,-0.43139124,-0.50299835,0.62783414,-1.2271032,0.43724957,-0.6561917,-0.42065525,-0.531517,0.58450115,0.95377725,0.078255095,0.22627881,0.18161215,-1.2557493,0.56649405,-0.7166344,0.0,1.0,0.0,0.0,0.0,0.0,0.0,-0.21860874,0.102998346,-0.07783413,2.259016,-2.2001505,3.5429716,-1.3287783,0.13719797,-1.4671326,1.8487394
13.049773,59.427017,15.868719,5.7334585,0.7442899,0.36450982,0.32674995,-0.6985871,-0.67355996,-0.54772437,0.73267794,-0.4672634,0.3728206,0.624537,0.3958686,-1.2246288,-2.280971,-0.79052657,1.7871809,1.8933784,-0.7935619,0.4528769,-1.168942,-2.2365777,-0.8502921,1.8260875,1.8597198,-0.852349,-1.2784224,-1.1754572,-1.024091,1.3428825,-0.77283406,0.3575975,0.37078452,-0.44341135,-0.49864197,0.6210546,-1.1919833,0.43484965,-0.6821344,-0.433012,-0.52583313,0.5772269,0.9544446,0.08521958,0.22809306,0.17247212,-1.2222284,0.5777576,-0.73273736,0.0,1.0,0.0,0.0,0.0,0.0,0.0,-0.20658863,0.09864196,-0.07105458,2.6555061,-3.386116,5.5723906,-2.9266357,3.5638213,-1.9775271,1.6499579
11.442738,64.72528,16.491987,7.2511306,0.8932969,0.37442482,0.29865882,-0.69993967,-0.6558253,-0.5450473,0.7074485,-0.4394226,0.23806418,0.6319197,0.38288292,-1.2345245,-2.2910824,-0.7795472,1.7821453,1.8835262,-0.78915703,0.44024968,-1.1807923,-2.246518,-0.8371647,1.8187577,1.8630832,-0.8485278,-1.2581201,-1.1886103,-0.982052,1.3022772,-0.72179425,0.32850796,0.38565415,-0.45506334,-0.4943161,0.61405843,-1.1545906,0.43144152,-0.70221996,-0.44503498,-0.5200424,0.5698509,0.9550221,0.09215027,0.22939087,0.16377045,-1.188787,0.5899535,-0.7408674,0.0,1.0,0.0,0.0,0.0,0.0,0.0,-0.19493663,0.094316095,-0.06405842,1.841402,-1.4408588,4.8579335,-4.153681,4.439497,-3.1624138,1.4143884
17.566017,68.01423,18.979784,6.280809,1.2243896,0.34394616,0.28969735,-0.6792168,-0.67255783,-0.44453928,0.66731113,-0.2849576,0.06663437,0.634011,0.37232798,-1.2480481,-2.2909718,-0.7704336,1.7902619,1.8697467,-0.7851267,0.4278494,-1.1927743,-2.2556832,-0.8245712,1.81233,1.8660445,-0.84457326,-1.2347522,-1.2017332,-0.89226085,1.2445577,-0.6185955,0.28463185,0.39860755,-0.46632004,-0.49004364,0.6069148,-1.1143456,0.42564246,-0.7152264,-0.45670605,-0.51413727,0.56248724,0.95560217,0.09881917,0.22993527,0.15552768,-1.1529382,0.59876114,-0.7364355,0.0,1.0,0.0,0.0,0.0,0.0,0.0,-0.18367994,0.090043634,-0.056914806,2.1190166,-1.423049,9.7031355,-5.9204817,9.583211,-4.6509266,1.26369
27.289083,83.98033,26.505323,7.9411783,2.3225021,0.49689245,0.18788093,-0.66702783,-0.65838814,-0.22359936,0.617603,0.023221277,-0.18174934,0.6366885,0.36114663,-1.2586131,-2.278043,-0.7628109,1.8146521,1.8478696,-0.7809044,0.41567856,-1.2047734,-2.2630258,-0.8126968,1.8077562,1.8684127,-0.840501,-1.2121503,-1.1996547,-0.6785502,1.1674883,-0.40658915,0.22004634,0.41024363,-0.4770937,-0.48583984,0.59986997,-1.0632676,0.41735417,-0.6977134,-0.46799326,-0.5081253,0.55550945,0.9563973,0.10450558,0.22923593,0.14776173,-1.1139239,0.61031955,-0.6864306,0.0,1.0,0.0,0.0,0.0,0.0,0.0,-0.17290628,0.08583984,-0.049869955,1.9767523,0.10032654,22.316778,-7.972884,20.254982,-6.7366123,1.1980891
42.67848,81.75268,30.112564,1.377223,2.6562872,0.4853511,0.29087314,-0.6557346,-0.68267256,-0.009380556,0.44131613,0.3883921,-0.38193166,0.6141423,0.3501051,-1.2730407,-2.2639637,-0.7685652,1.8465954,1.8302195,-0.77908677,0.40372613,-1.2168297,-2.2674346,-0.8022826,1.8062105,1.8700294,-0.83634037,-1.1905329,-1.2077149,-0.35834175,0.998237,-0.07343611,0.1416306,0.4183077,-0.4873371,-0.4817505,0.5930216,-1.0098104,0.40541735,-0.67755836,-0.4788189,-0.50205994,0.54909027,0.9576676,0.10844651,0.22654137,0.14068118,-1.0655144,0.6141195,-0.6284808,0.0,1.0,0.0,0.0,0.0,0.0,0.0,-0.16266286,0.08175048,-0.04302156,1.8684864,-0.8705139,32.958294,-17.260529,32.37142,-8.068088,0.89244246
40.995308,85.1327,30.8849,2.562933,2.9604363,0.58206785,0.23964971,-0.67262465,-0.67370534,0.1644859,0.36537376,0.50836915,-0.51758915,0.6096129,0.33646366,-1.2842002,-2.250986,-0.7657452,1.8570474,1.8182706,-0.77537906,0.3918552,-1.2289201,-2.2683153,-0.7937241,1.8079758,1.8708268,-0.8321165,-1.1866829,-1.2096308,0.0048406795,0.8074956,0.25746664,0.05883195,0.4240279,-0.4970336,-0.4777832,0.5864348,-0.95515037,0.3930225,-0.6501717,-0.48917675,-0.49591064,0.5433167,0.9595219,0.11028541,0.22161269,0.13432246,-1.0201992,0.62175125,-0.5618997,0.0,1.0,0.0,0.0,0.0,0.0,0.0,-0.15296638,0.0777832,-0.03643477,0.17220974,-0.26230812,37.093704,-19.326519,32.320286,-8.396479,0.64238906
40.27348,94.48802,32.152733,6.686171,2.9327285,0.53681993,0.12346809,-0.6359673,-0.6473348,0.29051954,0.37116504,0.55625236,-0.56792367,0.6161537,0.32825848,-1.2936536,-2.2392633,-0.7566076,1.863601,1.8140345,-0.77050114,0.38014126,-1.2408906,-2.2657557,-0.7866592,1.8125775,1.8708456,-0.8278423,-1.1667163,-1.1932385,0.341723,0.67236674,0.5259132,-0.017016266,0.42855203,-0.5061264,-0.47397614,0.5802674,-0.89381313,0.37676907,-0.60488725,-0.49907207,-0.48971558,0.538304,0.9618828,0.11004646,0.2148242,0.12853721,-0.9745064,0.6257626,-0.48306602,0.0,1.0,0.0,0.0,0.0,0.0,0.0,-0.14387357,0.07397613,-0.030267417,1.8644571,1.5519857,34.294666,-13.666844,26.308441,-7.5793476,0.45770407
28.625782,100.479355,29.799995,12.835151,2.787627,0.4818949,-0.012093134,-0.6290948,-0.60967505,0.3363552,0.3645673,0.5853374,-0.57607734,0.6203177,0.31723177,-1.3018582,-2.23212,-0.7502025,1.8711113,1.8132378,-0.76581055,0.3686428,-1.2525121,-2.260553,-0.78048223,1.8192672,1.8701895,-0.8235287,-1.1443512,-1.152123,0.5811079,0.59945744,0.7157158,-0.08163508,0.43226358,-0.5146074,-0.47032928,0.5746135,-0.8336213,0.36031172,-0.55323946,-0.50857925,-0.4834671,0.53407264,0.9645663,0.10813879,0.20681855,0.12306019,-0.93919706,0.6334577,-0.4054946,0.0,1.0,0.0,0.0,0.0,0.0,0.0,-0.13539255,0.07032928,-0.0246135,2.1993399,4.022002,24.302029,-7.3031306,18.721104,-6.3792152,0.3600359
12.4060335,106.61385,26.33289,19.310534,2.5520346,0.49151915,-0.102483526,-0.6394693,-0.5408287,0.3241804,0.33616844,0.59819585,-0.56123513,0.63288003,0.30469587,-1.306595,-2.2281349,-0.7468654,1.8790867,1.814066,-0.7602407,0.35728168,-1.2634298,-2.253931,-0.7747693,1.827306,1.8689789,-0.8191737,-1.1332949,-1.072009,0.689913,0.56220746,0.83309436,-0.13380182,0.43657655,-0.5225053,-0.46684265,0.5695058,-0.77657765,0.34560707,-0.4990572,-0.5178046,-0.47704315,0.5305769,0.9673557,0.105216816,0.19828127,0.11762937,-0.91413325,0.6495806,-0.33343387,0.0,1.0,0.0,0.0,0.0,0.0,0.0,-0.1274947,0.066842645,-0.019505799,1.1359453,7.9372644,10.995377,-3.6236763,11.732149,-5.081348,0.43643117
12.6234045,104.27578,24.67409,16.967836,1.8255407,0.47428888,0.052371748,-0.6354817,-0.49614522,0.39366794,0.21659997,0.6313914,-0.56741434,0.63041127,0.2937335,-1.3130443,-2.2145643,-0.75310934,1.8904452,1.8122374,-0.75613254,0.3459931,-1.27343,-2.2465928,-0.7697551,1.8361863,1.8673142,-0.8147797,-1.1272846,-0.9760755,0.7485055,0.48156124,0.90642035,-0.17678909,0.44036084,-0.52982616,-0.46351624,0.5649211,-0.71906596,0.32896912,-0.44840157,-0.5266957,-0.47052002,0.527685,0.97010946,0.10172629,0.18953808,0.11231476,-0.87838787,0.65954757,-0.27684206,0.0,1.0,0.0,0.0,0.0,0.0,0.0,-0.12017381,0.06351623,-0.014921069,0.6337404,9.528744,5.8604717,-7.9453945,7.433152,-4.0964456,0.39395094
4.4793253,103.23248,22.061794,17.995806,1.5275526,0.5065476,0.09270401,-0.6571174,-0.43017402,0.37445793,0.15523447,0.65421975,-0.56118727,0.63194734,0.28028136,-1.3164474,-2.209147,-0.7542317,1.9016082,1.8111955,-0.75158495,0.33462775,-1.282343,-2.2391393,-0.7657116,1.8455856,1.8652796,-0.8103496,-1.1394465,-0.8633259,0.74407923,0.37918922,0.9516367,-0.21165608,0.4440158,-0.536602,-0.46035004,0.5608083,-0.6658671,0.31414437,-0.40324494,-0.53524256,-0.46389008,0.52527803,0.97273666,0.09803861,0.18079935,0.107160866,-0.84488064,0.6732009,-0.23112066,0.0,1.0,0.0,0.0,0.0,0.0,0.0,-0.113397956,0.06035003,-0.010808289,-1.1651754,11.230671,-0.5941391,-10.086125,4.757893,-3.258893,0.42093396
15.966194,97.903145,23.512932,14.377766,1.3326538,0.40437877,0.113776304,-0.6069544,-0.44111508,0.5138983,0.17510222,0.6788863,-0.5100587,0.61743,0.2739323,-1.3264545,-2.1877494,-0.7482014,1.9134742,1.8142737,-0.74860656,0.32335687,-1.2904226,-2.2312596,-0.7624158,1.855332,1.8629833,-0.80589867,-1.122814,-0.78950715,0.80238783,0.3135398,0.98279876,-0.2351591,0.4455501,-0.54284334,-0.45735168,0.5571694,-0.6122239,0.29581213,-0.35510072,-0.5434146,-0.4571762,0.5233145,0.97524476,0.09399788,0.17207475,0.1022365,-0.8058018,0.6747062,-0.18687874,0.0,1.0,0.0,0.0,0.0,0.0,0.0,-0.107156634,0.05735168,-0.007169366,1.7132998,7.338345,5.762863,-6.430846,3.3101916,-2.1394253,0.19738078
13.367512,98.96632,23.68398,16.03841,1.515629,0.46205473,0.04672903,-0.61327416,-0.39451948,0.54983944,0.16658938,0.6872041,-0.46351102,0.6092708,0.26202944,-1.3298745,-2.1762757,-0.74575686,1.9240525,1.8166323,-0.7449716,0.31224388,-1.2978288,-2.2226655,-0.75956064,1.8653034,1.8605217,-0.8014429,-1.1071789,-0.72450817,0.87850285,0.27677342,1.002586,-0.24923487,0.44575086,-0.54856634,-0.4545288,0.5540574,-0.5610755,0.2787609,-0.30138552,-0.5512366,-0.45041656,0.5218279,0.9776444,0.089442275,0.16341618,0.097501665,-0.7725761,0.68050057,-0.13798293,0.0,1.0,0.0,0.0,0.0,0.0,0.0,-0.101433635,0.054528803,-0.0040574074,1.6405344,6.4662457,7.496476,-3.518188,2.2301078,-1.2064189,0.081300735
37.706852,78.90291,22.223738,1.3108277,-0.040117577,0.14978203,0.45342326,-0.55580646,-0.3997297,0.57859224,-0.026468154,0.70852345,-0.38452244,0.5835944,0.25666323,-1.3378018,-2.1648064,-0.76220745,1.9361558,1.8220694,-0.7430835,0.30152893,-1.3048288,-2.2132785,-0.7577814,1.8754636,1.85801,-0.79700446,-1.0595477,-0.6921607,0.959155,0.14539771,1.0208088,-0.25090358,0.44336605,-0.5537696,-0.4519348,0.55129945,-0.50887465,0.2543733,-0.2726359,-0.5585022,-0.4438858,0.52051884,0.97992736,0.08437434,0.15460499,0.09338338,-0.70964426,0.6507913,-0.13066122,0.0,1.0,0.0,0.0,0.0,0.0,0.0,-0.09623039,0.05193481,-0.0012994409,4.7849894,3.176558,8.040953,-13.0182,1.9764185,0.12215376,-0.18022656
52.838535,70.93217,22.17606,-6.2828126,-0.9463188,-0.029221982,0.66315114,-0.50470597,-0.38124362,0.6044051,-0.11162901,0.7177778,-0.224244,0.57784814,0.25105834,-1.3429531,-2.152838,-0.76894426,1.9472414,1.8355856,-0.73921967,0.29148784,-1.311596,-2.203151,-0.7575975,1.8857901,1.8556225,-0.79259324,-0.9855779,-0.6719099,1.0309743,-0.023477837,1.0369955,-0.23360631,0.44068408,-0.5584388,-0.44961548,0.548761,-0.45499462,0.22516274,-0.2531474,-0.5650058,-0.4378128,0.51914686,0.9820718,0.07881129,0.14551815,0.09026668,-0.62925684,0.597964,-0.1412533,0.0,1.0,0.0,0.0,0.0,0.0,0.0,-0.0915612,0.049615473,0.0012390018,7.4142814,1.9569397,7.1460485,-16.752115,1.790905,2.0848155,-0.18234253
68.491196,49.861706,19.102045,-16.5302,-1.9634756,-0.43256873,0.86856097,-0.4293518,-0.43779314,0.63200533,-0.20459545,0.7299127,-0.1350479,0.58233047,0.24855267,-1.3553753,-2.1399505,-0.77805704,1.9587814,1.8421178,-0.7343602,0.28243417,-1.318535,-2.1923716,-0.7592524,1.8962697,1.8534793,-0.7882015,-0.8786353,-0.70145005,1.0938971,-0.21237321,1.0516933,-0.2067105,0.43900484,-0.56261396,-0.44761658,0.5461714,-0.40671408,0.19231914,-0.2658293,-0.5706353,-0.43245697,0.5173767,0.98406804,0.07280121,0.1359681,0.08844584,-0.53973675,0.51747435,-0.19060738,0.0,1.0,0.0,0.0,0.0,0.0,0.0,-0.08738601,0.04761657,0.0038285851,10.69969,-3.0471087,6.320405,-18.737682,1.5522242,3.0358553,-0.051110983
51.133232,64.83094,20.041555,-6.3131866,-1.1058594,-0.23192042,0.5969702,-0.42439404,-0.37882856,0.6280782,-0.18466595,0.72668165,-0.027335884,0.5940299,0.23999476,-1.3564178,-2.1295638,-0.777719,1.9689379,1.8507457,-0.7287985,0.2743003,-1.3255521,-2.1811914,-0.7622815,1.9068537,1.8516692,-0.7838155,-0.7913642,-0.7017776,1.1257002,-0.33230856,1.0614789,-0.17131437,0.43907925,-0.56633854,-0.44589996,0.5435878,-0.36251062,0.16557808,-0.26029944,-0.5755172,-0.42775726,0.5153174,0.9858916,0.06640556,0.12617286,0.087683156,-0.4702699,0.45911023,-0.2123531,0.0,1.0,0.0,0.0,0.0,0.0,0.0,-0.08366144,0.045899957,0.006412208,8.811426,-0.07596016,2.979064,-11.762344,1.2946367,3.875461,0.1907587
78.47412,59.66595,22.101215,-15.829659,-2.335657,-0.688002,0.8020089,-0.25721762,-0.41094482,0.6382193,-0.2748622,0.7295568,0.07531427,0.58452755,0.24857855,-1.3666465,-2.1173694,-0.7897677,1.9798094,1.8592006,-0.7253628,0.2675633,-1.332678,-2.169809,-0.76644754,1.9175168,1.8502705,-0.77943206,-0.6342415,-0.7164436,1.1421797,-0.44376403,1.0685941,-0.12816557,0.43876347,-0.56958485,-0.44452667,0.5410174,-0.3131574,0.12869754,-0.2594765,-0.5795164,-0.42391968,0.51295835,0.9875054,0.0596604,0.11623613,0.0881065,-0.3758955,0.35933912,-0.24494965,0.0,1.0,0.0,0.0,0.0,0.0,0.0,-0.08041513,0.044526666,0.008982599,15.791202,-1.5384674,1.5655994,-10.87594,0.9379864,4.690066,0.16028881
