Afshin1997/kuka_rl_ros2/src/catch_and_throw/input_files/idealpd/recorded_trajectories/env_343_data.csv
torque0,torque1,torque2,torque3,torque4,torque5,torque6,action0,action1,action2,action3,action4,action5,action6,set_target_0,set_target_1,set_target_2,set_target_3,set_target_4,set_target_5,set_target_6,joint_pos_0,joint_pos_1,joint_pos_2,joint_pos_3,joint_pos_4,joint_pos_5,joint_pos_6,joint_vel_0,joint_vel_1,joint_vel_2,joint_vel_3,joint_vel_4,joint_vel_5,joint_vel_6,tennisball_pos_0,tennisball_pos_1,tennisball_pos_2,tennisball_lin_vel_0,tennisball_lin_vel_1,tennisball_lin_vel_2,end_effector_pos_0,end_effector_pos_1,end_effector_pos_2,end_effector_rot_0,end_effector_rot_1,end_effector_rot_2,end_effector_rot_3,end_effector_lin_vel_0,end_effector_lin_vel_1,end_effector_lin_vel_2,obs_task_0,obs_task_1,obs_task_2,obs_task_3,obs_task_4,obs_task_5,obs_task_6,to_final_target_0,to_final_target_1,to_final_target_2,joint_acc_0,joint_acc_1,joint_acc_2,joint_acc_3,joint_acc_4,joint_acc_5,joint_acc_6
0.0,0.0,0.0,0.0,0.0,0.0,0.0,0.0,0.0,0.0,0.0,0.0,0.0,0.0,1.7802359,-1.0646509,-1.8151424,-1.1170107,1.9373155,1.1170107,-0.91629785,1.7802359,-1.0646509,-1.8151424,-1.1170107,1.9373155,1.1170107,-0.91629785,0.0,0.0,0.0,0.0,0.0,0.0,0.0,3.2800465,-0.2165432,0.4483121,-3.279436,-0.4770301,4.9134574,0.5304146,-0.45449638,0.693097,0.5745483,0.17512383,0.15255436,0.7848268,0.0,0.0,0.0,1.0,0.0,0.0,0.0,0.0,0.0,0.0,-3.9300466,-0.18345681,0.10168791,0.0,0.0,0.0,0.0,0.0,0.0,0.0
0.0,0.0,0.0,0.0,0.0,0.0,0.0,0.0,0.0,0.0,0.0,0.0,0.0,0.0,1.7802359,-1.0646509,-1.8151424,-1.1170107,1.9373155,1.1170107,-0.91629785,1.7802359,-1.0646509,-1.8151424,-1.1170107,1.9373155,1.1170107,-0.91629785,0.0,0.0,0.0,0.0,0.0,0.0,0.0,3.2800465,-0.2165432,0.4483121,-3.279436,-0.4770301,4.9134574,0.5304146,-0.45449638,0.693097,0.5745483,0.17512383,0.15255436,0.7848268,0.0,0.0,0.0,1.0,0.0,0.0,0.0,0.0,0.0,0.0,-3.9300466,-0.18345681,0.10168791,0.0,0.0,0.0,0.0,0.0,0.0,0.0
0.0,0.0,0.0,0.0,0.0,0.0,0.0,0.0,0.0,0.0,0.0,0.0,0.0,0.0,1.7802359,-1.0646509,-1.8151424,-1.1170107,1.9373155,1.1170107,-0.91629785,1.7802359,-1.0646509,-1.8151424,-1.1170107,1.9373155,1.1170107,-0.91629785,0.0,0.0,0.0,0.0,0.0,0.0,0.0,3.2800465,-0.2165432,0.4483121,-3.279436,-0.4770301,4.9134574,0.5304146,-0.45449638,0.693097,0.5745483,0.17512383,0.15255436,0.7848268,0.0,0.0,0.0,1.0,0.0,0.0,0.0,0.0,0.0,0.0,-3.9300466,-0.18345681,0.10168791,0.0,0.0,0.0,0.0,0.0,0.0,0.0
-176.0,79.74008,-0.6498375,110.0,10.432094,5.148999,-3.7916749,-0.79258496,0.39119357,-0.5148046,0.716517,0.21582487,0.6764478,-0.6105114,1.7009774,-1.0255315,-1.8666228,-1.045359,1.958898,1.1846555,-0.977349,1.7785784,-1.0624212,-1.8201053,-1.1123492,1.9406552,1.121184,-0.9168348,-0.22091213,0.29692695,-0.6611764,0.6216406,0.44472918,0.55521166,-0.071339056,3.2472763,-0.22130966,0.49667338,-3.2761574,-0.47655314,4.8103585,0.5283241,-0.4574871,0.694047,0.57798654,0.17373234,0.1516731,0.7827796,-0.2785983,-0.39878854,0.12656249,1.0,0.0,0.0,0.0,0.0,0.0,0.0,-3.8972764,-0.17869034,0.053326637,-22.039328,29.521019,-65.9684,62.233532,44.297066,55.08801,-7.07227
-176.0,27.33861,-22.906696,110.0,11.85451,3.3522997,-3.6445775,-0.80542153,0.1340961,-0.5684289,0.69319654,0.47543678,0.6282602,-0.6263089,1.6980362,-1.0490116,-1.8769482,-1.0430295,1.9881989,1.18401,-0.97946566,1.7757155,-1.0582212,-1.8332679,-1.1000582,1.9495149,1.1323096,-0.91754717,-0.30641356,0.45924503,-1.5353904,1.4335222,1.032758,1.2926393,-0.06907484,3.2145386,-0.22607231,0.54400444,-3.272882,-0.47607666,4.7073627,0.52347755,-0.46507263,0.69567466,0.5860129,0.17045784,0.14891644,0.77804685,-0.55477,-0.87738234,0.1752202,1.0,0.0,0.0,0.0,0.0,0.0,0.0,-3.8645387,-0.1739277,0.0059955716,-8.050018,15.734142,-87.66117,81.78806,58.692326,72.09921,0.8758992
-151.93265,113.06903,27.907768,88.281555,8.018484,7.153634,-2.0827885,-0.762041,0.37500203,-0.09578681,0.56332386,0.5019322,0.6354984,-0.5893961,1.6995114,-1.020721,-1.8428466,-1.0437258,1.999708,1.1958594,-0.9764868,1.769509,-1.0524992,-1.8476856,-1.084294,1.9605832,1.1451708,-0.91863245,-0.7255121,0.6068892,-1.4049047,1.624887,1.1273097,1.2771258,-0.12288489,3.1818352,-0.23082924,0.5903063,-3.2696097,-0.47560066,4.60447,0.5158043,-0.47535133,0.6988908,0.59698665,0.16588189,0.14504658,0.7713959,-0.8449129,-1.0723029,0.37430584,1.0,0.0,0.0,0.0,0.0,0.0,0.0,-3.8318353,-0.16917077,-0.04030627,-41.99034,13.899719,14.69748,19.386696,8.194041,-3.589511,-5.714877
-91.413185,132.09828,46.209465,57.250484,4.5914164,7.8019915,-0.71250105,-0.7747316,0.38943252,-0.013824597,0.5740264,0.4839241,0.6226435,-0.5960023,1.6920358,-1.0135559,-1.849068,-1.0268914,2.0089755,1.2074351,-0.9782327,1.7593523,-1.0457433,-1.858237,-1.0685812,1.9713826,1.1571699,-0.92025846,-1.1137637,0.6961652,-0.93160254,1.5533816,1.0595734,1.1695732,-0.17807782,3.1491623,-0.23558235,0.63557994,-3.2663407,-0.47512513,4.50168,0.5057144,-0.4862442,0.7041336,0.6091208,0.16005528,0.14051698,0.76394314,-1.073824,-1.0839256,0.5794875,1.0,0.0,0.0,0.0,0.0,0.0,0.0,-3.7991624,-0.16441765,-0.08557993,-39.246964,8.220005,49.439396,-7.1522713,-8.08661,-12.133455,-6.1991034
-30.260422,146.59639,58.32057,30.322447,1.6252092,7.4061575,0.2681249,-0.7908022,0.4740986,0.09315637,0.544929,0.5400867,0.6114574,-0.58831185,1.6802721,-0.9983335,-1.8489214,-1.0140883,2.0253913,1.2183157,-0.9790896,1.7461096,-1.0380872,-1.8632324,-1.0546423,1.9812226,1.1679388,-0.92239565,-1.3962768,0.7870551,-0.34903648,1.3400915,0.95567036,1.0437225,-0.22820257,3.1165237,-0.24032974,0.6798265,-3.263075,-0.47465008,4.398993,0.49396706,-0.49625778,0.7113559,0.62114114,0.152907,0.13550055,0.7565995,-1.2198741,-0.9612613,0.77351314,1.0,0.0,0.0,0.0,0.0,0.0,0.0,-3.7665238,-0.15967026,-0.12982649,-28.79803,8.577228,60.216694,-21.53411,-11.381984,-13.250113,-5.7955384
15.004573,150.00117,61.662563,12.856383,-0.3112011,6.225908,0.6932099,-0.7978247,0.5620497,0.1997659,0.52684134,0.5886891,0.6029666,-0.58860886,1.6663271,-0.9818823,-1.8432558,-1.0019581,2.0400915,1.2282355,-0.98125654,1.7310492,-1.0293726,-1.8629405,-1.0429083,1.9902482,1.1775576,-0.9249744,-1.5441288,0.898223,0.16007043,1.1171092,0.883009,0.93380654,-0.27016982,3.0839176,-0.24507332,0.72304696,-3.2598128,-0.4741755,4.2964087,0.48133087,-0.50458336,0.7203488,0.63238525,0.14452659,0.13019063,0.74983424,-1.2883581,-0.77562064,0.94232434,1.0,0.0,0.0,0.0,0.0,0.0,0.0,-3.7339177,-0.15492669,-0.17304695,-15.253043,10.752666,52.397984,-22.522879,-7.8306913,-11.183953,-4.9167542
36.345436,144.58311,58.04013,6.18176,-1.1558287,4.8564487,0.6231061,-0.79659706,0.6433662,0.25757626,0.5482592,0.60559934,0.6117084,-0.56370497,1.6513895,-0.965036,-1.8371829,-0.9880824,2.0508082,1.2387284,-0.9813449,1.7153345,-1.019399,-1.8587711,-1.0328318,1.9988141,1.1862208,-0.92789453,-1.5816637,1.0296674,0.5060176,0.9706798,0.8469609,0.8439995,-0.30122086,3.051344,-0.24981117,0.76524234,-3.2565536,-0.47370142,4.193927,0.46837234,-0.5110378,0.7308262,0.6427534,0.1351036,0.12485145,0.7436579,-1.3063282,-0.5866796,1.0820402,1.0,0.0,0.0,0.0,0.0,0.0,0.0,-3.701344,-0.15018883,-0.21524233,-4.068303,12.875485,35.60329,-14.760029,-3.8708925,-8.97032,-3.6908746
42.30069,127.876724,49.062046,3.030836,-1.4286877,3.4105093,0.44811463,-0.7920949,0.69163835,0.2941218,0.5333829,0.62532276,0.6231385,-0.549594,1.6361251,-0.9502352,-1.8293589,-0.9794935,2.0613463,1.2485346,-0.98285395,1.6997496,-1.0081571,-1.8523757,-1.0237089,2.0072565,1.194121,-0.93106264,-1.5515887,1.1550562,0.68622154,0.89279073,0.84319437,0.7724269,-0.32343626,3.0188026,-0.2545452,0.8064137,-3.2532978,-0.4732278,4.0915475,0.45544434,-0.5157871,0.7423855,0.652374,0.12493814,0.119713984,0.7378801,-1.2938513,-0.42287344,1.1780224,1.0,0.0,0.0,0.0,0.0,0.0,0.0,-3.6688027,-0.1454548,-0.2564137,2.8100967,12.35168,18.67826,-7.8397393,-0.48469305,-7.046175,-2.6755154
36.430336,105.91576,37.850357,3.3450627,-1.2266022,2.1701324,0.20769316,-0.7840235,0.72125673,0.2939159,0.5377248,0.6280795,0.6467007,-0.5247338,1.6213472,-0.93603146,-1.8229841,-0.9699365,2.0700645,1.2587911,-0.983536,1.6846777,-0.99585027,-1.8452117,-1.0149084,2.0157747,1.2014242,-0.9343919,-1.4928206,1.2555993,0.72798806,0.8756557,0.8543127,0.71684563,-0.33730316,2.9862938,-0.25927353,0.846562,-3.250045,-0.47275466,3.9892707,0.4427166,-0.5192261,0.75457454,0.6614695,0.11436603,0.114932545,0.73223555,-1.2704115,-0.30079803,1.2290684,1.0,0.0,0.0,0.0,0.0,0.0,0.0,-3.636294,-0.14072648,-0.29656202,5.7544947,9.937167,4.5764327,-1.7616272,1.0937333,-5.4199457,-1.7263055
26.371769,83.34016,27.020895,4.162698,-0.8610007,1.1862249,0.035876855,-0.778388,0.7369532,0.26943493,0.52831244,0.64596343,0.64924264,-0.514375,1.606839,-0.92215496,-1.8182683,-0.9620772,2.0803711,1.2663485,-0.9858294,1.6701876,-0.9827935,-1.8383358,-1.0060755,2.0244837,1.2082564,-0.9378223,-1.43477,1.3221432,0.67481124,0.88542503,0.8767099,0.6724232,-0.3458895,2.9538174,-0.26399803,0.88568836,-3.2467957,-0.472282,3.8870966,0.43021774,-0.5217438,0.76696193,0.67024046,0.10371405,0.11057269,0.7264948,-1.2459575,-0.2198908,1.2377079,1.0,0.0,0.0,0.0,0.0,0.0,0.0,-3.6038175,-0.13600197,-0.33568835,5.712843,6.5957785,-5.091572,0.86973906,2.2868276,-4.2809606,-1.117301
17.251541,67.79858,20.253195,5.2673254,-0.46754354,0.7243125,-0.012578309,-0.7800243,0.74275345,0.27639198,0.51214594,0.6542752,0.64299136,-0.50348383,1.5921851,-0.9085182,-1.8106966,-0.9548609,2.0899112,1.2725555,-0.9881707,1.6561342,-0.9693219,-1.8321636,-0.9971389,2.0334291,1.2147032,-0.9413118,-1.3956654,1.3553666,0.59841895,0.8957971,0.90069026,0.6357632,-0.35077032,2.9213734,-0.2687168,0.92379373,-3.2435496,-0.4718098,3.7850246,0.41791344,-0.52365685,0.7792519,0.6787891,0.09319655,0.106579624,0.72055566,-1.2276899,-0.16612445,1.221648,1.0,0.0,0.0,0.0,0.0,0.0,0.0,-3.5713735,-0.1312832,-0.37379372,3.8218975,3.2968283,-7.4800253,0.87269545,2.4818897,-3.5017252,-0.70905685
13.264957,61.0038,17.552208,5.808946,-0.29561335,0.5760103,-0.009692863,-0.7662312,0.75519437,0.26663062,0.50805163,0.6495767,0.6520363,-0.49352956,1.5795112,-0.89380246,-1.8055005,-0.94633377,2.0983868,1.2799069,-0.9906647,1.6423842,-0.9556567,-1.8267257,-0.9881286,2.0425615,1.2208372,-0.94483274,-1.3683197,1.3702328,0.52594507,0.9021936,0.91758627,0.6065697,-0.35316885,2.8889618,-0.27343178,0.96087915,-3.2403066,-0.4713381,3.6830547,0.40576172,-0.52511406,0.7913129,0.68714297,0.08288141,0.10289227,0.71440774,-1.212834,-0.12274643,1.1966671,1.0,0.0,0.0,0.0,0.0,0.0,0.0,-3.538962,-0.12656823,-0.41087914,2.6442528,1.4727354,-7.0952535,0.4471302,1.7860055,-2.758944,-0.4528165
9.75874,57.990685,16.37366,6.6296577,-0.14586502,0.5797728,0.007285867,-0.7675729,0.76267004,0.2520963,0.49665126,0.6538661,0.64932853,-0.4901066,1.5656269,-0.8793897,-1.801516,-0.93846345,2.107948,1.28577,-0.9938434,1.6287867,-0.9419171,-1.8218963,-0.9791345,2.0518236,1.2267176,-0.948368,-1.357213,1.3752729,0.46923646,0.8977116,0.9295979,0.5823599,-0.35437414,2.8565826,-0.27814102,0.9969456,-3.237067,-0.47086686,3.5811868,0.3937149,-0.52617264,0.8031031,0.6953038,0.07277101,0.09945812,0.70807135,-1.2028779,-0.0842895,1.1690719,1.0,0.0,0.0,0.0,0.0,0.0,0.0,-3.5065827,-0.121858984,-0.4469456,1.0092258,0.4925251,-5.498016,-0.65318346,1.2989402,-2.2750974,-0.3304243
9.714259,57.167957,16.392809,6.2564187,-0.14065719,0.6071465,0.07793064,-0.76532,0.7622831,0.24954171,0.47469893,0.6582852,0.6490936,-0.48608404,1.5522547,-0.8656888,-1.7969421,-0.9316646,2.1176522,1.2916269,-0.99697644,1.6152312,-0.9281785,-1.8174503,-0.9703092,2.061181,1.23239,-0.951909,-1.3554199,1.3732837,0.43703058,0.8768597,0.93804306,0.562544,-0.35482782,2.824236,-0.28284645,1.0319941,-3.2338305,-0.4703961,3.4794204,0.38176537,-0.52682686,0.81461436,0.70322704,0.06284518,0.09621697,0.70161563,-1.1930946,-0.043858994,1.1410936,1.0,0.0,0.0,0.0,0.0,0.0,0.0,-3.474236,-0.117153555,-0.4819941,0.0672102,-0.21128654,-3.0086517,-2.29702,0.9315133,-1.832521,-0.26358366
10.7163515,58.34955,16.950853,5.9842744,-0.20139354,0.63399184,0.12187484,-0.76173913,0.7679728,0.23692094,0.45901194,0.6587284,0.6559329,-0.474405,1.5390573,-0.8513812,-1.7937582,-0.924408,2.127054,1.2979833,-0.9993495,1.6016699,-0.9144532,-1.8132255,-0.96176046,2.0705957,1.2378947,-0.95544523,-1.3567892,1.3722217,0.41850224,0.8468105,0.9429758,0.5469758,-0.3539814,2.7919216,-0.28754616,1.0660257,-3.2305973,-0.46992582,3.3777559,0.36992455,-0.5270462,0.8258614,0.7108732,0.05307104,0.093148865,0.69510144,-1.1815288,0.00033753397,1.1152732,1.0,0.0,0.0,0.0,0.0,0.0,0.0,-3.4419217,-0.11245385,-0.5160257,-0.2550125,-0.12097359,-1.6143918,-3.2128096,0.5740285,-1.407063,-0.13887882
14.896306,62.02924,18.64956,4.3662667,-0.4237371,0.6720976,0.22661361,-0.75828147,0.7778587,0.24779822,0.4158033,0.66987246,0.6513172,-0.47452015,1.5258417,-0.83666736,-1.7884457,-0.92018014,2.137583,1.3030263,-1.0028973,1.5880991,-0.90069264,-1.8090312,-0.95367044,2.0800753,1.2432638,-0.9589738,-1.3575616,1.3773175,0.42066574,0.795734,0.9495338,0.5340576,-0.35322434,2.7596397,-0.29224205,1.0990415,-3.2273674,-0.46945602,3.2761931,0.35824013,-0.526741,0.8368763,0.71816254,0.04341239,0.09023932,0.6886325,-1.1629416,0.05533528,1.0929285,1.0,0.0,0.0,0.0,0.0,0.0,0.0,-3.4096398,-0.107757956,-0.54904145,-0.2048254,0.48954487,0.50201416,-5.308628,0.7199526,-1.1224151,-0.16160011
20.101261,64.054794,19.741354,1.5878572,-0.75299275,0.6026962,0.35993698,-0.75651956,0.7824366,0.26418662,0.3511648,0.67150486,0.65407854,-0.46787372,1.5124471,-0.82244897,-1.7826126,-0.91855395,2.1472259,1.3086717,-1.0057611,1.5745302,-0.8868558,-1.8046806,-0.9463214,2.089612,1.2485243,-0.96249,-1.3570995,1.3857589,0.44116753,0.7139511,0.955038,0.52430236,-0.35198522,2.7273903,-0.29693222,1.1310424,-3.2241406,-0.46898663,3.1747317,0.34683037,-0.5258045,0.84765416,0.7249839,0.03386818,0.087499246,0.6823453,-1.1328163,0.12118053,1.0686538,1.0,0.0,0.0,0.0,0.0,0.0,0.0,-3.3773904,-0.103067786,-0.58104235,-0.088095665,0.8258581,2.3708105,-8.378172,0.60384274,-0.7527828,-0.12175441
22.80191,64.9845,20.292072,0.59851265,-0.8639742,0.5359067,0.42817068,-0.7508843,0.78454053,0.2832171,0.31492436,0.67507315,0.6567366,-0.44638813,1.4994419,-0.8084017,-1.7763588,-0.914829,2.1571193,1.314198,-1.0071288,1.5609957,-0.87293404,-1.8000267,-0.93983835,2.0992022,1.2537066,-0.9659795,-1.3526661,1.3943527,0.4745224,0.62573546,0.96022904,0.51695484,-0.34870365,2.6951733,-0.30161858,1.1620295,-3.2209172,-0.46851772,3.073372,0.33576202,-0.52417946,0.8581978,0.73127097,0.024423867,0.084913865,0.67634,-1.0965462,0.18996586,1.0452821,1.0,0.0,0.0,0.0,0.0,0.0,0.0,-3.3451734,-0.09838143,-0.6120295,0.3204584,0.8483887,3.6452234,-9.005535,0.5800009,-0.48778057,0.08740425
24.784746,65.979256,20.92744,0.40701056,-0.8720843,0.49667418,0.47022623,-0.74015456,0.78622425,0.31606308,0.28246638,0.68213993,0.6551797,-0.44431207,1.4869802,-0.79431164,-1.7684203,-0.9115917,2.167416,1.3192246,-1.0104107,1.5475565,-0.8589379,-1.7949283,-0.9341945,2.1088495,1.2588259,-0.96943563,-1.3413769,1.401408,0.5226531,0.5434262,0.96677065,0.5110669,-0.34537235,2.6629887,-0.30630112,1.1920036,-3.217697,-0.4680493,2.9721134,0.32506943,-0.5218544,0.8685356,0.73699397,0.015042278,0.082437746,0.6706844,-1.0570008,0.25942573,1.0254192,1.0,0.0,0.0,0.0,0.0,0.0,0.0,-3.3129888,-0.09369889,-0.6420036,1.0276556,0.702548,5.095071,-8.389557,0.7277012,-0.3328085,0.09958148
26.595428,66.06716,20.923468,-0.37922907,-0.9728598,0.3693201,0.5031351,-0.7311149,0.79384047,0.33481553,0.228445,0.6880545,0.6461729,-0.43508002,1.474445,-0.7795539,-1.7614467,-0.91135,2.177655,1.3234432,-1.0129436,1.5342642,-0.8448569,-1.7893417,-0.9293985,2.1185732,1.263888,-0.97285455,-1.3254632,1.4103487,0.57153875,0.45786098,0.9743173,0.50562835,-0.341389,2.6308346,-0.31097794,1.2209661,-3.21448,-0.46758133,2.8709562,0.31481743,-0.51883316,0.8786707,0.7421347,0.0057230294,0.080058984,0.66542757,-1.0116427,0.32912707,1.0046734,1.0,0.0,0.0,0.0,0.0,0.0,0.0,-3.2808347,-0.08902207,-0.6709661,1.5076637,0.9006262,5.1357985,-8.695597,0.84187984,-0.26248693,0.18105507
27.398594,66.586975,21.333061,-0.71402407,-0.9886294,0.34766936,0.5711353,-0.73139477,0.7954481,0.394003,0.16840845,0.69061565,0.6432285,-0.40492377,1.4611248,-0.7653121,-1.7499413,-0.9125576,2.1876347,1.3282108,-1.0133469,1.5211054,-0.83069867,-1.7831066,-0.925518,2.1283655,1.2689005,-0.9762134,-1.3129382,1.4177608,0.64165646,0.36439472,0.98144513,0.50093234,-0.33479992,2.5987148,-0.31565094,1.2489177,-3.211266,-0.46711385,2.7699,0.3050251,-0.51509476,0.8886095,0.74665296,-0.003543979,0.07774965,0.660645,-0.96430516,0.40015894,0.9850908,1.0,0.0,0.0,0.0,0.0,0.0,0.0,-3.248715,-0.084349066,-0.6989177,1.1810303,0.7547617,7.2388053,-9.461308,0.816226,-0.17282963,0.45377612
27.762192,64.25973,20.560747,-1.382709,-1.0106335,0.19626029,0.6134087,-0.7236931,0.792108,0.43117204,0.11205137,0.6933446,0.64292806,-0.3704414,1.4487361,-0.75148785,-1.7399894,-0.91431284,2.1977,1.3331933,-1.0132575,1.5080706,-0.8165032,-1.7761257,-0.9226131,2.1382265,1.2738749,-0.9794845,-1.300546,1.4202263,0.7174771,0.26553854,0.98771244,0.49728233,-0.3251601,2.5666256,-0.32031822,1.2758595,-3.2080555,-0.46664685,2.668945,0.2957306,-0.5106659,0.8983258,0.75051934,-0.012741081,0.07548522,0.65639955,-0.9134074,0.46779284,0.961585,1.0,0.0,0.0,0.0,0.0,0.0,0.0,-3.2166257,-0.079681784,-0.72585946,1.1870623,0.27115345,7.765937,-9.9848385,0.7490754,-0.040894747,0.7782936
22.600191,62.117004,19.193228,1.5092807,-0.7246658,0.15097551,0.4935966,-0.7269072,0.79933035,0.4429455,0.10005712,0.7003227,0.6392633,-0.34574175,1.4353799,-0.7365702,-1.7318311,-0.9126074,2.2082589,1.3378012,-1.0140587,1.4951102,-0.8022687,-1.7685039,-0.92051214,2.1481524,1.278813,-0.9826459,-1.2947832,1.4246429,0.777271,0.19134878,0.9952101,0.4936582,-0.31363675,2.5345688,-0.3249817,1.3017925,-3.204848,-0.46618032,2.568091,0.28686905,-0.50564003,0.90782726,0.7538185,-0.021866811,0.07327389,0.652618,-0.8715824,0.52418226,0.9404652,1.0,0.0,0.0,0.0,0.0,0.0,0.0,-3.184569,-0.07501832,-0.7517925,0.5292177,0.48024654,6.095159,-7.5068207,0.9088874,-0.06875992,0.99971294
23.280857,59.392982,17.906221,0.055336952,-0.89654875,-0.09454182,0.5096961,-0.7214027,0.8031795,0.46093744,0.021608524,0.699121,0.62991035,-0.3104279,1.4229699,-0.7219507,-1.7224102,-0.9183513,2.2180645,1.341804,-1.0136887,1.4822012,-0.78798074,-1.7603977,-0.91926473,2.1581392,1.283713,-0.98567384,-1.2898405,1.4302455,0.8219356,0.102320574,1.0003525,0.48998764,-0.2996363,2.5025444,-0.32963943,1.3267177,-3.201644,-0.46571422,2.4673376,0.27848053,-0.50006676,0.91706175,0.7565788,-0.030851455,0.07117952,0.6492843,-0.8221345,0.5777001,0.91157526,1.0,0.0,0.0,0.0,0.0,0.0,0.0,-3.1525445,-0.07036057,-0.7767177,0.45495033,0.60698986,4.555547,-8.986534,0.6785989,-0.03811121,1.2710333
20.749176,58.110565,17.375793,2.3901443,-0.6593651,-0.118553855,0.43174365,-0.7065127,0.80110216,0.48767656,0.03272284,0.6930684,0.6242693,-0.25303954,1.4115499,-0.70787054,-1.71163,-0.91599244,2.227446,1.3461399,-1.0109777,1.4693934,-0.77365655,-1.7518909,-0.9186439,2.168149,1.2885748,-0.9885301,-1.2779955,1.4333198,0.86023396,0.048477553,1.0015552,0.48597488,-0.2813723,2.4705505,-0.33429337,1.3506361,-3.198443,-0.46524858,2.366685,0.27053642,-0.49401474,0.92605144,0.7588582,-0.03971797,0.06920488,0.64634913,-0.7793313,0.6233798,0.8883523,1.0,0.0,0.0,0.0,0.0,0.0,0.0,-3.1205506,-0.06570664,-0.8006361,1.1650324,0.36804676,3.8544178,-5.458449,0.3145814,-0.10135174,1.7099738
11.005807,54.413826,15.465591,8.399164,-0.026293159,-0.006877143,0.20343593,-0.72435576,0.800645,0.48754907,0.06878617,0.69434524,0.6280116,-0.22023608,1.3969578,-0.6935921,-1.703136,-0.9117653,2.2375836,1.3513759,-1.0105537,1.4566046,-0.7593171,-1.7431304,-0.9181699,2.1781588,1.2934004,-0.99119276,-1.2793764,1.4343927,0.88101375,0.046819773,1.0019729,0.48206514,-0.26158288,2.438591,-0.33894157,1.3735489,-3.195245,-0.46478343,2.266133,0.26283836,-0.48762512,0.93487,0.7608305,-0.04854673,0.06731831,0.64362127,-0.7596677,0.6521607,0.87317973,1.0,0.0,0.0,0.0,0.0,0.0,0.0,-3.088591,-0.061058432,-0.82354885,-0.1847744,0.18324852,2.0545602,-0.2630502,0.27749538,-0.17182827,1.8795907
2.1475458,52.34097,14.433032,14.978949,0.6482708,0.20526421,-0.025209792,-0.7285597,0.7988743,0.49325123,0.13965382,0.6913678,0.63238555,-0.18445867,1.3837487,-0.67942965,-1.6938053,-0.90420455,2.2472956,1.3566389,-1.0096387,1.4437548,-0.7449843,-1.734246,-0.91721624,2.1881647,1.2981898,-0.9936494,-1.2871442,1.433222,0.89088196,0.11118947,1.0009933,0.4782001,-0.24061376,2.406662,-0.34358597,1.3954567,-3.1920505,-0.46431875,2.1656816,0.25514984,-0.48104668,0.9436362,0.76269287,-0.057472825,0.06544891,0.6408689,-0.7654446,0.6675502,0.8711661,1.0,0.0,0.0,0.0,0.0,0.0,0.0,-3.056662,-0.056414038,-0.84545666,-0.84564686,-0.027942657,0.9177804,6.3201933,0.18107891,-0.26003122,2.000916
-2.8614569,49.39475,13.234887,18.291016,1.0040824,0.26367527,-0.1502021,-0.73542225,0.7944183,0.49008882,0.18342206,0.6894351,0.62871134,-0.14685968,1.3702126,-0.6655425,-1.6852372,-0.89887404,2.2571082,1.3610609,-1.0083354,1.4307886,-0.7306878,-1.7253425,-0.91537565,2.1981554,1.3029372,-0.9958877,-1.3000325,1.4287622,0.8897894,0.20789638,0.99939036,0.47395563,-0.21858837,2.3747654,-0.34822655,1.4163607,-3.188859,-0.46385455,2.0653305,0.24729729,-0.4743786,0.95241505,0.7645697,-0.06657801,0.06355328,0.6379353,-0.7846578,0.6746939,0.8732704,1.0,0.0,0.0,0.0,0.0,0.0,0.0,-3.0247655,-0.05177346,-0.8663607,-1.3739586,-0.35386086,-0.18898249,9.53837,0.13346672,-0.34942627,2.107191
-7.411702,47.18345,12.392878,21.427586,1.3197597,0.37014455,-0.25479162,-0.75015545,0.78970635,0.4889147,0.25516948,0.68126816,0.63779604,-0.09740849,1.3557731,-0.6517172,-1.6764511,-0.8898587,2.2662823,1.3667167,-1.0056286,1.4176394,-0.7164561,-1.7164905,-0.9123582,2.208108,1.3076521,-0.9978904,-1.3201605,1.4215857,0.8835902,0.33256993,0.9947739,0.47057265,-0.1944824,2.3429012,-0.3528614,1.436262,-3.1856709,-0.46339077,1.9650798,0.239151,-0.46767616,0.9612485,0.7665464,-0.07593188,0.061603874,0.6347013,-0.81717587,0.6766234,0.8798787,1.0,0.0,0.0,0.0,0.0,0.0,0.0,-2.9929013,-0.0471386,-0.886262,-2.1145344,-0.62601566,-0.7033348,12.326855,-0.15368462,-0.31802058,2.3156285
-9.070931,45.5556,11.824268,22.62399,1.419946,0.39552188,-0.30204797,-0.75916153,0.78540295,0.47903895,0.3254994,0.67336106,0.6477729,-0.054587066,1.3417232,-0.63791585,-1.6685866,-0.8798083,2.275444,1.3724294,-1.0033491,1.4042765,-0.7023074,-1.707751,-0.9079971,2.2179918,1.3123423,-0.99964327,-1.3418692,1.4129318,0.87060565,0.47018707,0.987424,0.46844348,-0.1691245,2.3110676,-0.35749245,1.4551617,-3.1824858,-0.46292746,1.8649292,0.23064232,-0.46096992,0.970155,0.76866424,-0.08557908,0.059597358,0.631094,-0.8549699,0.6775185,0.88728356,1.0,0.0,0.0,0.0,0.0,0.0,0.0,-2.9610677,-0.04250756,-0.9051617,-2.2747755,-0.7793188,-1.3768435,13.624734,-0.4273057,-0.22482872,2.440697
-6.851961,43.002438,10.647305,19.426632,1.063857,0.16633636,-0.25712788,-0.7815487,0.7852426,0.4525203,0.32460594,0.67386496,0.65644604,-0.08183319,1.3261216,-0.6237831,-1.662499,-0.8755365,2.2853782,1.3779869,-1.0078266,1.390639,-0.68822926,-1.6992481,-0.9025726,2.2278109,1.3170229,-1.0011859,-1.3713181,1.4062965,0.84341085,0.56600946,0.9809753,0.46803576,-0.14967807,2.2792664,-0.36211777,1.4730605,-3.1793041,-0.46246463,1.7648787,0.22184944,-0.4542389,0.97904074,0.7709036,-0.095422216,0.057616282,0.62712246,-0.88044137,0.6809334,0.88190204,1.0,0.0,0.0,0.0,0.0,0.0,0.0,-2.9292665,-0.03788224,-0.9230605,-3.0641794,-0.59256554,-2.7422905,9.441209,-0.37466288,-0.011610985,1.8572658
1.3066378,45.047573,11.620056,13.618374,0.43475103,-0.09335579,-0.038564563,-0.77689844,0.7857617,0.45961168,0.31550595,0.67598104,0.64638585,-0.02476901,1.3129491,-0.6096531,-1.6532869,-0.871022,2.295409,1.3816615,-1.0036628,1.3767878,-0.674195,-1.6909492,-0.89658445,2.237584,1.3216978,-1.0025191,-1.3901657,1.4026777,0.82534766,0.60935026,0.9766413,0.46768963,-0.1281548,2.2474976,-0.36673927,1.4899596,-3.1761255,-0.46200228,1.6649282,0.21298027,-0.44738388,0.987797,0.7731204,-0.10533339,0.05573762,0.62296313,-0.8814598,0.69621736,0.8664248,1.0,0.0,0.0,0.0,0.0,0.0,0.0,-2.8974977,-0.033260733,-0.9399596,-1.9820929,-0.3119707,-1.7536759,4.217148,-0.22950172,0.06719828,2.0491095
5.445005,44.268257,11.31244,9.923139,0.048978627,-0.33705705,0.072194576,-0.78698426,0.78238153,0.44291595,0.317766,0.6700752,0.6488202,0.011459684,1.2980894,-0.59595686,-1.6466576,-0.86480784,2.3045917,1.3865799,-1.0013732,1.3627726,-0.66019505,-1.6828468,-0.89043134,2.2473078,1.3263766,-1.0036311,-1.4056392,1.3993229,0.8055516,0.61692166,0.9713685,0.46827713,-0.10597515,2.2157593,-0.37135696,1.50586,-3.17295,-0.46154037,1.5650777,0.20421982,-0.4403553,0.9963301,0.7752095,-0.11520004,0.05403375,0.6187565,-0.8666365,0.7145863,0.8419407,1.0,0.0,0.0,0.0,0.0,0.0,0.0,-2.8657594,-0.028643042,-0.95585996,-1.6381502,-0.2947569,-1.8851519,0.64394474,-0.36320686,0.21647811,2.1124601
11.424992,45.782787,12.066551,5.553466,-0.39304304,-0.55279696,0.24996498,-0.7864875,0.7804118,0.45628536,0.2848499,0.6714473,0.6500331,0.04822132,1.2841238,-0.58215386,-1.6372182,-0.86194634,2.3144524,1.3913798,-0.998809,1.348662,-0.6462266,-1.6748226,-0.8845033,2.2569895,1.3310648,-1.0045161,-1.4130974,1.3961643,0.80176705,0.58441085,0.9673945,0.46966034,-0.08316814,2.1840534,-0.37596893,1.5207626,-3.1697779,-0.4610789,1.4653269,0.19574356,-0.43309212,1.0045694,0.7770476,-0.12493182,0.052539032,0.6146777,-0.8331077,0.7398138,0.8108793,1.0,0.0,0.0,0.0,0.0,0.0,0.0,-2.8340535,-0.024031073,-0.97076255,-0.8137703,-0.2858162,-0.23325682,-3.3425093,-0.28705597,0.35538673,2.164942
14.374016,47.175163,12.514927,3.5342941,-0.634526,-0.691062,0.33748636,-0.7880571,0.7845602,0.45280576,0.26635942,0.6685432,0.6484148,0.11365235,1.2698563,-0.56777054,-1.629542,-0.85786736,2.3238437,1.3959063,-0.9931509,1.3345133,-0.632261,-1.6668022,-0.8790292,2.266633,1.3357664,-1.0051475,-1.415628,1.396772,0.8028024,0.5347824,0.9634332,0.47107488,-0.056930393,2.15238,-0.38057518,1.5346684,-3.1666088,-0.46061793,1.3656759,0.1876812,-0.42554665,1.0124856,0.77855533,-0.1344786,0.05128573,0.6108493,-0.7894712,0.76821846,0.7781838,1.0,0.0,0.0,0.0,0.0,0.0,0.0,-2.80238,-0.019424826,-0.98466843,-0.304389,0.088095665,0.26034117,-5.0330997,-0.3075242,0.382787,2.5101364
13.06077,46.632526,12.350017,4.9286733,-0.49425784,-0.6894036,0.31661373,-0.7898643,0.7824624,0.4498208,0.28326347,0.6616885,0.64808095,0.20808266,1.2555269,-0.55401474,-1.6218201,-0.8507029,2.3328018,1.4005746,-0.9843392,1.320355,-0.6182906,-1.6587646,-0.87391275,2.276227,1.3404795,-1.0054698,-1.415863,1.3972467,0.8043751,0.5036781,0.95811343,0.47208008,-0.024418775,2.120737,-0.3851776,1.5475785,-3.1634429,-0.46015742,1.2661246,0.18000793,-0.41773033,1.0201093,0.7797319,-0.14386986,0.05026549,0.6072833,-0.7506581,0.7940758,0.7500933,1.0,0.0,0.0,0.0,0.0,0.0,0.0,-2.7707372,-0.014822394,-0.99757844,-0.06625652,0.082588196,0.28048754,-3.1727672,-0.42278767,0.31710863,3.1430721
11.035785,44.980415,11.910206,6.7605553,-0.26508546,-0.6704564,0.27930245,-0.7891256,0.7770115,0.45254934,0.2940535,0.6610019,0.6471997,0.28565496,1.2414424,-0.54058945,-1.6135097,-0.8445074,2.342327,1.4051994,-0.9769043,1.3062102,-0.60434026,-1.6507003,-0.8689384,2.2857714,1.3452002,-1.0054374,-1.4142469,1.394499,0.8074401,0.49520922,0.9538141,0.47252208,0.012286381,2.0891266,-0.38977623,1.5594938,-3.16028,-0.45969734,1.1666727,0.17267036,-0.40968323,1.0274851,0.78060293,-0.15316136,0.049435288,0.603951,-0.719669,0.81585765,0.7265332,1.0,0.0,0.0,0.0,0.0,0.0,0.0,-2.7391267,-0.010223776,-1.0094938,0.124287605,-0.23114681,0.394845,-0.9090662,-0.2982974,0.23164153,3.5656624
8.352215,40.224976,10.308886,8.416002,-0.0144126415,-0.7421901,0.20147468,-0.78121257,0.76529014,0.43010747,0.31448433,0.6506527,0.6442232,0.361835,1.2280889,-0.5278112,-1.6076896,-0.83748996,2.3508368,1.4096226,-0.9692539,1.2921206,-0.5904729,-1.6427181,-0.8638591,2.2952547,1.349919,-1.005012,-1.4072483,1.3843703,0.7953633,0.5118747,0.9469995,0.47233456,0.052319467,2.0575485,-0.39436913,1.5704154,-3.1571202,-0.45923772,1.0673202,0.16557884,-0.40148735,1.034634,0.7812251,-0.16238257,0.048761953,0.6007841,-0.69622093,0.8283196,0.70403606,1.0,0.0,0.0,0.0,0.0,0.0,0.0,-2.7075486,-0.0056308806,-1.0204153,0.67281723,-0.9579897,-1.1709094,1.5890837,-0.526464,0.15135407,3.9059482
9.667251,38.089256,9.562695,6.5714126,-0.17002732,-0.92414576,0.25017822,-0.7765369,0.7584667,0.4302864,0.27797,0.6346957,0.63873756,0.41671428,1.2144669,-0.5146262,-1.5996895,-0.83606213,2.3587244,1.4137927,-0.9633406,1.2781206,-0.5767333,-1.6348617,-0.85874647,2.3046274,1.3546339,-1.0041804,-1.3976327,1.3706555,0.7825318,0.5107448,0.93494946,0.47177824,0.09288926,2.026001,-0.3989582,1.5803442,-3.1539638,-0.4587786,0.9680671,0.15878487,-0.39317703,1.0415195,0.7815975,-0.1714859,0.048272382,0.5978024,-0.66504186,0.8383618,0.6764548,1.0,0.0,0.0,0.0,0.0,0.0,0.0,-2.676001,-0.0010417998,-1.0303442,0.9506464,-1.3187647,-1.239872,-0.18513203,-1.0743618,0.14305115,3.9641454
11.752624,34.727158,8.320059,3.523962,-0.42748436,-1.2122369,0.30736536,-0.76514834,0.74432415,0.41711634,0.23840305,0.6070758,0.6306427,0.4489235,1.2016058,-0.50230086,-1.59315,-0.83490616,2.365335,1.4176981,-0.95928806,1.264258,-0.56317586,-1.6271732,-0.8538589,2.3138132,1.3593394,-1.0029616,-1.3825297,1.3509904,0.7643284,0.48127672,0.91320175,0.47094306,0.13123773,1.994484,-0.40354156,1.5892812,-3.1508105,-0.4583199,0.86891323,0.15239334,-0.38480377,1.048063,0.7817024,-0.18035825,0.04802771,0.5950676,-0.6208728,0.8433056,0.6402792,1.0,0.0,0.0,0.0,0.0,0.0,0.0,-2.644484,0.003541559,-1.0392811,1.5299797,-1.915288,-1.7784476,-3.0127466,-2.080214,0.16522408,3.7514462
13.546877,32.65611,7.5218487,0.7497058,-0.6371012,-1.4507482,0.37585297,-0.7626644,0.7328556,0.41461712,0.18553005,0.6021576,0.63481677,0.46593636,1.1879916,-0.48989028,-1.5857115,-0.83530587,2.374029,1.422821,-0.95636797,1.2505347,-0.5498349,-1.6196449,-0.8495216,2.3227854,1.3640429,-1.00139,-1.3688374,1.3286026,0.7490828,0.41770747,0.8922382,0.4709678,0.16565982,1.9629993,-0.4081211,1.5972273,-3.1476603,-0.45786166,0.7698585,0.14653206,-0.37640762,1.0541914,0.78151864,-0.18888335,0.048074666,0.5926553,-0.56546855,0.84421474,0.5971397,1.0,0.0,0.0,0.0,0.0,0.0,0.0,-2.6129994,0.008121103,-1.0472274,1.4062405,-2.190256,-1.4714837,-6.411779,-2.0367742,0.28939247,3.3691585
15.827415,32.875114,7.5415883,-1.5277772,-0.8491353,-1.6354349,0.45233566,-0.7466838,0.72382843,0.4144009,0.1358747,0.5871501,0.6276692,0.5050016,1.1758662,-0.47745207,-1.5782048,-0.8359341,2.3815005,1.4268098,-0.9508898,1.2369887,-0.53671235,-1.6122253,-0.845992,2.331544,1.3687426,-0.9994851,-1.3496057,1.3069316,0.73948914,0.3312556,0.87021124,0.47061175,0.19860283,1.9315472,-0.41269684,1.6041837,-3.1445134,-0.4574039,0.6709028,0.14130211,-0.36800003,1.0598658,0.781009,-0.19697787,0.048434623,0.59065944,-0.4995799,0.84438217,0.5512293,1.0,0.0,0.0,0.0,0.0,0.0,0.0,-2.5815473,0.012696832,-1.0541837,1.9957781,-2.1200895,-0.91519356,-8.672929,-2.1728516,0.27022958,3.2299309
15.584372,30.710268,6.8293347,-1.9499726,-0.8239588,-1.7613937,0.4491346,-0.7348032,0.7069717,0.40569732,0.09694521,0.57197213,0.6243102,0.5210923,1.1635083,-0.46601516,-1.5716555,-0.8362975,2.388741,1.4311736,-0.94737583,1.2236563,-0.52382916,-1.604903,-0.84336466,2.3400812,1.3734366,-0.9972754,-1.3276005,1.2823505,0.72973925,0.2398161,0.8480633,0.46992692,0.22826245,1.9001255,-0.41726685,1.6101512,-3.1413693,-0.4569466,0.57204604,0.13674355,-0.35962486,1.0650737,0.7801799,-0.20459855,0.049104027,0.5891074,-0.43226686,0.8393467,0.50468904,1.0,0.0,0.0,0.0,0.0,0.0,0.0,-2.5501256,0.01726684,-1.0601511,2.2949934,-2.4061918,-0.963223,-9.163797,-2.188146,0.23403168,2.912432
16.53836,30.408302,6.5529027,-3.3941479,-0.97549206,-1.9160612,0.47493958,-0.7224368,0.6984448,0.39811304,0.023800327,0.5501772,0.6250074,0.5370765,1.1514126,-0.45398468,-1.5650917,-0.84098464,2.395099,1.4359373,-0.94356775,1.2105547,-0.5111739,-1.5976875,-0.84178156,2.3483744,1.3781229,-0.9947911,-1.3038094,1.2600923,0.7188464,0.13114955,0.8230293,0.46939844,0.25492814,1.8687344,-0.42183304,1.6151309,-3.1382287,-0.45648974,0.47328812,0.13291359,-0.35130692,1.069799,0.77904034,-0.21168877,0.050112262,0.5880243,-0.3578033,0.83243454,0.45618913,1.0,0.0,0.0,0.0,0.0,0.0,0.0,-2.5187345,0.021833032,-1.065131,2.499771,-2.1730185,-1.098156,-10.865343,-2.491808,0.25150776,2.6263177
13.433695,26.82439,5.292493,-1.5830317,-0.72843266,-1.9418273,0.37536535,-0.722261,0.68353176,0.37701797,-0.009224036,0.54562753,0.6284177,0.53731084,1.1383287,-0.44282073,-1.5599856,-0.84270394,2.4029372,1.4409647,-0.94106,1.1976362,-0.49874836,-1.5906551,-0.8412046,2.35645,1.3828055,-0.9920731,-1.2876061,1.2369664,0.69795614,0.033235677,0.80261046,0.46899194,0.27738324,1.8373756,-0.4263935,1.6191238,-3.135091,-0.45603335,0.37462896,0.12976646,-0.34310532,1.074054,0.7776598,-0.21823782,0.051449366,0.5873418,-0.29195306,0.81812847,0.4099637,1.0,0.0,0.0,0.0,0.0,0.0,0.0,-2.4873757,0.026393503,-1.0691237,1.7184973,-2.2521973,-2.1196008,-9.809012,-2.006495,0.23209453,2.214861
16.288181,26.99563,5.0860696,-5.6677165,-1.0724745,-2.2169986,0.49856627,-0.721105,0.6745793,0.3882138,-0.15625983,0.54708076,0.6277129,0.53834045,1.1255257,-0.43129042,-1.5518337,-0.8568306,2.411158,1.4455768,-0.9382391,1.1848265,-0.4865361,-1.5837505,-0.842019,2.3643732,1.3874861,-0.98915774,-1.2783568,1.2161593,0.6878686,-0.119583525,0.7891029,0.4688186,0.29623997,1.8060493,-0.43095016,1.6221309,-3.1319566,-0.4555774,0.27606848,0.12740898,-0.33506393,1.0777798,0.77602047,-0.22411276,0.05313928,0.5871471,-0.20886874,0.80148387,0.3550443,1.0,0.0,0.0,0.0,0.0,0.0,0.0,-2.4560494,0.030950159,-1.0721309,1.0628462,-2.026534,-1.0326266,-15.255806,-1.3661385,0.2734363,1.8745184
17.029495,23.942226,4.3643546,-6.961049,-1.0277839,-2.3792107,0.5481457,-0.68798333,0.6458537,0.388539,-0.22357494,0.5304749,0.6266017,0.56112874,1.1160282,-0.4219507,-1.5448966,-0.86437654,2.4174206,1.4501463,-0.93304485,1.1722208,-0.4746061,-1.5769012,-0.8444118,2.372159,1.3921648,-0.98606116,-1.2540512,1.1854814,0.68364215,-0.27903318,0.7749262,0.46849418,0.31410348,1.7747536,-0.435503,1.624153,-3.1288254,-0.4551219,0.17760652,0.1259079,-0.32723427,1.080937,0.7740864,-0.22923665,0.055138145,0.58753777,-0.12244808,0.7776873,0.29780537,1.0,0.0,0.0,0.0,0.0,0.0,0.0,-2.4247537,0.035503,-1.074153,2.644205,-3.0092478,-0.52142143,-15.896999,-1.4445424,0.24673343,1.7816901
14.366147,13.762527,1.0766166,-7.244984,-0.78147125,-2.619771,0.47073886,-0.66964763,0.60425836,0.34637886,-0.30265668,0.49929896,0.63293916,0.56124914,1.1052561,-0.41418025,-1.5422633,-0.8746775,2.4220889,1.4554588,-0.92993623,1.1599184,-0.46312195,-1.5702598,-0.8484058,2.3797388,1.3968436,-0.9828082,-1.2216202,1.1362331,0.65711826,-0.4394214,0.7522656,0.46858752,0.32909018,1.7434883,-0.44005013,1.6251913,-3.1256971,-0.45466688,0.07924301,0.12524986,-0.31977654,1.0834724,0.771921,-0.23352522,0.057417087,0.5884786,-0.039396174,0.734628,0.23421015,1.0,0.0,0.0,0.0,0.0,0.0,0.0,-2.3934884,0.04005012,-1.0751913,3.5031796,-4.8700094,-2.7927637,-16.012932,-2.3212314,0.26183128,1.4885426
10.05669,4.700301,-1.6296234,-5.140053,-0.37536094,-2.6631005,0.34792653,-0.6565521,0.56082666,0.32599047,-0.3620134,0.45149088,0.63982373,0.56528986,1.0942632,-0.40703928,-1.5376607,-0.88460714,2.424888,1.4608259,-0.9262792,1.147946,-0.45226008,-1.5639637,-0.8538694,2.386979,1.4015261,-0.9794226,-1.1881942,1.0696528,0.6197339,-0.58209527,0.71425825,0.46888968,0.34166813,1.7122536,-0.44459343,1.6252466,-3.1225722,-0.4542123,-0.019022165,0.12532616,-0.31285477,1.0853676,0.7696288,-0.23695922,0.059946943,0.58985424,0.03068788,0.6772498,0.17031527,1.0,0.0,0.0,0.0,0.0,0.0,0.0,-2.3622537,0.044593424,-1.0752466,3.5974026,-6.609845,-3.8838148,-14.285315,-3.8625598,0.22934675,1.226145
6.6060038,-10.566799,-6.039987,-5.308821,-0.04436955,-2.8895726,0.28273952,-0.6082908,0.46974215,0.30469394,-0.44246942,0.31045827,0.6343529,0.58917844,1.087117,-0.40528587,-1.5334942,-0.89811635,2.418025,1.4649614,-0.9205048,1.136458,-0.44237524,-1.558089,-0.86071867,2.3934526,1.4062048,-0.97591215,-1.1344723,0.9615077,0.57597005,-0.71937805,0.62511337,0.46819028,0.35389003,1.6810513,-0.449131,1.6243201,-3.11945,-0.45375818,-0.11718909,0.12606812,-0.30668068,1.0865579,0.7672964,-0.23949026,0.062735744,0.5915783,0.0947544,0.5964422,0.09804215,1.0,0.0,0.0,0.0,0.0,0.0,0.0,-2.3310513,0.049131006,-1.0743201,5.7009935,-10.79042,-4.556048,-13.783609,-9.025658,0.08096099,1.1395812
-0.98566484,-45.834896,-16.006943,-6.258104,0.9284481,-3.3468523,0.20957714,-0.54510707,0.27351388,0.29813665,-0.5332604,0.107352614,0.63459647,0.59348744,1.0819473,-0.41502386,-1.5282754,-0.91404474,2.404188,1.4696645,-0.9165634,1.1257235,-0.43433195,-1.552594,-0.8689851,2.3984957,1.4108721,-0.9722968,-1.051674,0.751768,0.5403042,-0.8628122,0.46300524,0.46651113,0.36341664,1.6498814,-0.45366478,1.6224127,-3.1163313,-0.45330453,-0.21525787,0.12732315,-0.30173302,1.0868564,0.76501304,-0.24096377,0.06565232,0.593617,0.14115003,0.4592637,0.0037538793,1.0,0.0,0.0,0.0,0.0,0.0,0.0,-2.2998815,0.053664774,-1.0724127,8.721566,-21.023094,-3.734374,-14.483774,-16.445255,-0.1152277,0.74668527
-26.184788,-156.80582,-47.756786,-7.099038,4.7236257,-4.7006135,-0.07342966,-0.38323453,-0.27423713,0.25143224,-0.59288776,-0.19244061,0.6181802,0.5665849,1.0874001,-0.46175566,-1.5274507,-0.9282739,2.3792517,1.4726901,-0.91563827,1.1164557,-0.4307099,-1.547549,-0.87861437,2.4011583,1.4154936,-0.9686385,-0.88292307,0.23132002,0.49300548,-0.99766815,0.19847205,0.45958123,0.36475748,1.618742,-0.45819473,1.6195252,-3.1132157,-0.4528513,-0.3132286,0.1285038,-0.29956627,1.0857291,0.7630192,-0.24090722,0.0678956,0.5959493,0.11379587,0.1342463,-0.15383337,1.0,0.0,0.0,0.0,0.0,0.0,0.0,-2.268742,0.058194727,-1.0695252,17.490028,-52.35027,-4.6161594,-13.892031,-27.086031,-1.0105491,-0.44420362
-12.059472,-166.79137,-47.668774,-15.704453,4.7749386,-5.2150116,0.4571169,0.13661863,-0.5530361,0.21377285,-0.55755174,-0.53155315,0.6112451,0.5510949,1.1301175,-0.4860135,-1.5261717,-0.93436956,2.348003,1.4766182,-0.913529,1.1111017,-0.43311936,-1.5430439,-0.8890533,2.400464,1.4200197,-0.9649907,-0.41862446,-0.39962348,0.4373675,-1.060553,-0.16000861,0.44791177,0.3628006,1.5876331,-0.46272087,1.6156588,-3.1101031,-0.45239854,-0.41110137,0.12963104,-0.30077362,1.0829785,0.7609579,-0.23933822,0.06880554,0.5991044,0.113043115,-0.20661396,-0.31646943,1.0,0.0,0.0,0.0,0.0,0.0,0.0,-2.2376332,0.062720865,-1.0656588,46.74493,-63.47103,-5.2554607,-6.667471,-36.314537,-1.9117951,-0.8051872
-12.31741,-155.75444,-45.160282,-6.4648013,5.351282,-4.809924,0.025553484,0.45019037,-0.7238941,-0.13305713,-0.32559428,-0.5295124,0.6570195,0.3848896,1.1561208,-0.5055088,-1.5563495,-0.92161274,2.3475127,1.4857217,-0.9265017,1.1114184,-0.44147927,-1.540551,-0.89867395,2.396699,1.4244581,-0.96148306,0.17899814,-0.9827297,0.19123992,-0.93038887,-0.45026946,0.43891072,0.34531668,1.5565548,-0.4672413,1.6108143,-3.1069937,-0.45194623,-0.5088763,0.13058853,-0.30530548,1.0788422,0.75885576,-0.23669475,0.06808218,0.6028917,0.08945372,-0.53360957,-0.44631413,1.0,0.0,0.0,0.0,0.0,0.0,0.0,-2.206555,0.06724128,-1.0608144,58.94578,-58.701397,-23.24664,12.674534,-29.41327,-1.9061625,-2.1864474
-8.468389,-113.19396,-36.885204,-2.113328,3.7273011,-4.453246,-0.51541114,0.58871967,-0.7676702,-0.49524015,-0.2762618,-0.594979,0.68098205,0.23444867,1.1702904,-0.5182463,-1.590075,-0.9263001,2.337201,1.4925563,-0.9380382,1.1173006,-0.45428902,-1.5420463,-0.90653604,2.390542,1.4288355,-0.9582501,0.7197584,-1.3814455,-0.2566189,-0.73835164,-0.6723654,0.43420658,0.31521,1.525507,-0.4717579,1.6049929,-3.1038873,-0.45149437,-0.60655355,0.13152695,-0.3126545,1.0735856,0.7571626,-0.23319252,0.066326566,0.6065697,0.09493439,-0.7989707,-0.55339074,1.0,0.0,0.0,0.0,0.0,0.0,0.0,-2.175507,0.07175788,-1.0549929,52.615444,-40.199425,-42.84221,19.13234,-22.556639,-1.4240086,-3.2242477
5.107265,-57.070744,-23.33304,-8.427263,0.96721697,-4.2456126,-0.48021838,0.6665979,-0.7992558,-0.63200694,-0.41306245,-0.6201334,0.6549632,0.036652,1.1839604,-0.5342146,-1.605247,-0.9478423,2.3285286,1.4943318,-0.9545849,1.1274706,-0.46966654,-1.5481517,-0.9133281,2.382741,1.4331633,-0.95544535,1.1114855,-1.5905969,-0.72330457,-0.6593731,-0.81624407,0.42956978,0.26847908,1.4944897,-0.47626877,1.5981954,-3.100784,-0.45104298,-0.7041331,0.13300133,-0.32200432,1.0672975,0.7560854,-0.22868903,0.06442211,0.6098244,0.16886629,-0.97741437,-0.65774477,1.0,0.0,0.0,0.0,0.0,0.0,0.0,-2.1444898,0.07626876,-1.0481954,37.790012,-21.139694,-45.102943,7.9356194,-14.504313,-1.2761414,-4.77466
14.473559,-7.4563,-8.674756,-9.128475,-0.70854235,-3.4607253,-0.32678849,0.71944743,-0.8256631,-0.6798341,-0.44181198,-0.5773512,0.6440759,-0.17577393,1.1994153,-0.55223286,-1.6161351,-0.9575093,2.3250058,1.4975709,-0.97302276,1.1403681,-0.48608595,-1.5581386,-0.9199285,2.3741426,1.4374548,-0.95323664,1.3463246,-1.6594968,-1.0875691,-0.6603286,-0.8744416,0.42707485,0.20485671,1.4635067,-0.48077583,1.590423,-3.097684,-0.450592,-0.8016151,0.1353836,-0.3324833,1.060121,0.75555354,-0.22318494,0.0628481,0.6126804,0.26929444,-1.0674512,-0.74411786,1.0,0.0,0.0,0.0,0.0,0.0,0.0,-2.1135068,0.08077583,-1.0404229,22.589897,-7.0132017,-35.59067,-0.09870529,-5.777657,-0.82758665,-6.418285
24.102272,34.70739,5.666998,-10.177412,-1.951366,-2.6045825,0.05206626,0.75854516,-0.8220895,-0.6696521,-0.51890856,-0.53071636,0.62989855,-0.27803624,1.2162226,-0.5682949,-1.6251038,-0.97181934,2.321071,1.5004447,-0.98104024,1.1546942,-0.5024988,-1.5705421,-0.9271888,2.3654528,1.4417254,-0.95169264,1.459832,-1.635283,-1.2906572,-0.74852824,-0.8668687,0.42579696,0.13744104,1.4325542,-0.48527908,1.5816764,-3.0945868,-0.45014152,-0.8989997,0.13887024,-0.34326744,1.0522363,0.7552527,-0.21681607,0.06174998,0.61544377,0.38583294,-1.0767887,-0.8116695,1.0,0.0,0.0,0.0,0.0,0.0,0.0,-2.0825543,0.08527908,-1.0316763,10.887146,2.3995876,-20.129442,-8.983719,0.9059191,-0.514555,-6.7565084
28.227327,58.28565,14.811204,-8.852569,-2.4011898,-1.8452989,0.3311688,0.7808757,-0.81727004,-0.6647544,-0.5860032,-0.5122865,0.62637067,-0.32946554,1.2327818,-0.58422583,-1.6370175,-0.9857891,2.314224,1.5043625,-0.98463917,1.1695582,-0.51836985,-1.5839565,-0.93570036,2.3570604,1.4459921,-0.9507962,1.4947842,-1.5708915,-1.3590167,-0.88617074,-0.8292382,0.42597422,0.07376668,1.4016323,-0.4897766,1.5719566,-3.091493,-0.44969147,-0.99628687,0.14348793,-0.3537655,1.0438014,0.7548591,-0.20976743,0.061098043,0.6184274,0.49857733,-1.0354447,-0.86335534,1.0,0.0,0.0,0.0,0.0,0.0,0.0,-2.0516324,0.089776605,-1.0219567,3.326583,6.487894,-7.076597,-14.008343,3.9470792,-0.24117827,-6.326702
26.989864,67.09676,19.265873,-4.766754,-2.2494936,-1.1986253,0.43296683,0.7917292,-0.80961657,-0.6569406,-0.61941236,-0.5367023,0.61987567,-0.33267173,1.2487311,-0.5993315,-1.6496506,-0.99764156,2.3033903,1.5079796,-0.9840634,1.1844565,-0.5335619,-1.5973918,-0.9455709,2.3489923,1.4502627,-0.9504681,1.4882537,-1.5016458,-1.339906,-1.0213954,-0.7989343,0.4268252,0.019533837,1.3707409,-0.49427032,1.5612648,-3.088402,-0.44924188,-1.0934768,0.14909172,-0.36367226,1.03496,0.7541754,-0.20226651,0.060814664,0.6217791,0.5922448,-0.96889895,-0.900454,1.0,0.0,0.0,0.0,0.0,0.0,0.0,-2.020741,0.09427032,-1.0112648,-0.6485939,7.0037365,1.470232,-13.747239,3.2019734,-0.07249117,-5.3321686
20.459927,63.749783,19.494568,2.0487509,-1.491446,-0.6612829,0.34326863,0.79276234,-0.8106307,-0.6495,-0.60874724,-0.555466,0.63209236,-0.31940466,1.2637327,-0.614625,-1.6623418,-1.0064456,2.2934458,1.5134718,-0.9824086,1.1991583,-0.54820937,-1.6103351,-0.95641035,2.3411036,1.4545561,-0.9506026,1.4644179,-1.4521872,-1.2807698,-1.105279,-0.7852272,0.42985463,-0.024095561,1.33988,-0.49875832,1.5496018,-3.0853143,-0.44879273,-1.1905695,0.15538406,-0.37291336,1.0258478,0.7531668,-0.19457713,0.060775977,0.62544847,0.65205055,-0.9014877,-0.9237907,1.0,0.0,0.0,0.0,0.0,0.0,0.0,-1.98988,0.09875831,-0.9996018,-2.2919416,5.0062895,5.47204,-8.525538,1.4665365,0.23469925,-4.2450204
14.413224,56.709835,17.861599,7.057066,-0.81693673,-0.3935654,0.2285719,0.79294914,-0.80988026,-0.64431375,-0.6086829,-0.5782177,0.6322679,-0.2874043,1.2784532,-0.6291974,-1.6747665,-1.0172787,2.2832818,1.5177829,-0.979343,1.2136141,-0.5625383,-1.6226547,-0.9677276,2.333211,1.458882,-0.9510909,1.4396658,-1.4263309,-1.2168849,-1.1407659,-0.79041463,0.4332759,-0.05659191,1.3090496,-0.5032425,1.5369686,-3.0822296,-0.44834402,-1.2875652,0.16209221,-0.38156128,1.0165521,0.7518826,-0.18688498,0.060885288,0.62931675,0.6867107,-0.8439975,-0.94004333,1.0,0.0,0.0,0.0,0.0,0.0,0.0,-1.9590496,0.10324249,-0.9869686,-2.3669481,2.6155233,6.0245514,-3.6072016,-0.49419403,0.3163755,-3.1298802
6.4695005,48.778984,15.469427,13.236969,-0.02070254,-0.13344137,0.030296758,0.7771161,-0.8109204,-0.6392814,-0.56260425,-0.60139513,0.6495837,-0.24914153,1.2913257,-0.6436304,-1.6865828,-1.023988,2.2730715,1.5238403,-0.976005,1.227801,-0.57675856,-1.6344345,-0.97892565,2.3251543,1.4632536,-0.9518271,1.4120268,-1.4206171,-1.1657743,-1.1128199,-0.81094587,0.43869343,-0.07903241,1.2782497,-0.50772285,1.5233661,-3.079148,-0.44789577,-1.3844639,0.1689434,-0.3897457,1.0071565,0.75044495,-0.17935665,0.06107379,0.63319314,0.6923949,-0.8009968,-0.9474442,1.0,0.0,0.0,0.0,0.0,0.0,0.0,-1.9282497,0.10772285,-0.9733661,-2.642393,0.55794716,4.8776865,2.8079271,-2.1337628,0.57469606,-2.1460726
5.03888,44.945877,14.082253,13.831254,0.16789174,-0.19529986,-0.0073193014,0.78064454,-0.8072488,-0.63923484,-0.567652,-0.60721827,0.6477001,-0.2280815,1.3058654,-0.65748346,-1.6983579,-1.0356908,2.2644324,1.5280236,-0.97463524,1.2417914,-0.59098834,-1.6458633,-0.98974127,2.3168764,1.4676749,-0.952735,1.394971,-1.4239246,-1.1357913,-1.070996,-0.83398056,0.4432764,-0.09449683,1.2474804,-0.5121994,1.5087954,-3.0760694,-0.44744796,-1.4812658,0.17582512,-0.3975792,0.9976742,0.7489198,-0.17202297,0.061321683,0.63699836,0.6949029,-0.76777524,-0.9561309,1.0,0.0,0.0,0.0,0.0,0.0,0.0,-1.8974804,0.112199396,-0.95879537,-1.6073942,-0.3610134,2.8324366,4.22678,-2.4124265,0.4726827,-1.4565125
3.0322394,38.651474,11.583543,13.736797,0.38909537,-0.33934617,-0.04633777,0.7742107,-0.82031655,-0.6535481,-0.5559043,-0.6062184,0.6487936,-0.19234045,1.3192124,-0.67302,-1.7112181,-1.0453317,2.2562547,1.5325541,-0.97196907,1.2556502,-0.60534304,-1.6571968,-1.0001124,2.308404,1.4721342,-0.9537459,1.383215,-1.439409,-1.1330173,-1.0255258,-0.85235196,0.44686145,-0.10300947,1.2167416,-0.5166702,1.4932574,-3.072994,-0.4470006,-1.5779709,0.18272209,-0.4051876,0.9880538,0.7473592,-0.16480768,0.061616212,0.64069957,0.69521064,-0.7491848,-0.97137594,1.0,0.0,0.0,0.0,0.0,0.0,0.0,-1.8667415,0.11667022,-0.9432574,-1.086545,-1.5991926,0.17440319,4.639244,-1.9794345,0.3268957,-0.7707983
2.9174323,39.59933,11.929634,14.170258,0.4255656,-0.30488878,-0.039534777,0.76857346,-0.81946594,-0.640741,-0.52178067,-0.6227071,0.64749926,-0.14342156,1.3325075,-0.68728966,-1.7212708,-1.0522904,2.2461333,1.5368842,-0.96808803,1.2694174,-0.6198465,-1.668536,-1.0099696,2.2997408,1.4766241,-0.9547873,1.3747494,-1.4540724,-1.1343149,-0.9720675,-0.8712276,0.44967213,-0.104238436,1.1860332,-0.52113724,1.4767531,-3.0699215,-0.44655368,-1.6745791,0.18961143,-0.41261482,0.9782922,0.7457711,-0.15769808,0.061963446,0.64429593,0.694454,-0.73085856,-0.98482025,1.0,0.0,0.0,0.0,0.0,0.0,0.0,-1.8360332,0.12113723,-0.9267531,-0.7635832,-1.5214682,-0.2122879,5.4427266,-2.0404816,0.25475025,-0.044088066
0.2516346,38.607796,11.160847,15.713384,0.6059736,-0.26096138,-0.10742922,0.7521856,-0.8224017,-0.6644222,-0.47612098,-0.6298534,0.6589908,-0.089711204,1.344636,-0.7020867,-1.7349782,-1.0575817,2.2367554,1.5425233,-0.9637584,1.2830569,-0.6344778,-1.6800201,-1.0191916,2.290906,1.4811484,-0.9557906,1.3608333,-1.4663249,-1.1533695,-0.9054062,-0.88788456,0.45316643,-0.09883415,1.1553555,-0.5255985,1.4592835,-3.0668523,-0.4461072,-1.7710909,0.19644547,-0.419899,0.96840596,0.7442048,-0.15070009,0.062389385,0.64773154,0.68734616,-0.71789795,-0.99698955,1.0,0.0,0.0,0.0,0.0,0.0,0.0,-1.8053554,0.12559852,-0.90928346,-1.2899876,-1.2931108,-1.9500494,6.7854285,-1.8558979,0.33038855,0.60088784
-0.48272038,40.302315,11.56966,16.291296,0.63870966,-0.20541078,-0.10797505,0.7396761,-0.821665,-0.67081016,-0.44440457,-0.6343469,0.66044205,-0.02553738,1.3570244,-0.7166443,-1.7471011,-1.0636321,2.2274714,1.5471926,-0.95834434,1.2965246,-0.6491882,-1.6917236,-1.0277346,2.2819338,1.4857031,-0.95668894,1.3424351,-1.4729474,-1.1761311,-0.83687764,-0.9011423,0.456428,-0.08666378,1.1247082,-0.530056,1.4408494,-3.063786,-0.4456612,-1.8675061,0.2032013,-0.42705154,0.9584118,0.74267924,-0.14381085,0.06292042,0.65098923,0.678297,-0.7046839,-1.007215,1.0,0.0,0.0,0.0,0.0,0.0,0.0,-1.7747082,0.130056,-0.8908494,-1.7248392,-0.7337332,-2.3127794,6.9758534,-1.5310168,0.31252503,1.2685537
-5.875492,43.8646,13.029306,22.25476,1.1613175,0.19551261,-0.24199903,0.7185923,-0.8230471,-0.65368307,-0.3159442,-0.65843016,0.6785193,0.038962606,1.3683839,-0.73149294,-1.7570919,-1.059329,2.2160907,1.553555,-0.9527927,1.3097426,-0.66393965,-1.7035339,-1.035158,2.2727861,1.4903075,-0.95742136,1.315432,-1.4761521,-1.1824542,-0.71034837,-0.9198221,0.46211693,-0.06864078,1.0940914,-0.53450966,1.4214519,-3.0607228,-0.4452156,-1.9638251,0.2096901,-0.4340725,0.9484609,0.74126256,-0.1372246,0.06352715,0.65395993,0.64657706,-0.6910945,-0.9978995,1.0,0.0,0.0,0.0,0.0,0.0,0.0,-1.7440914,0.13450965,-0.8714519,-2.5752783,-0.41093826,-0.6034136,12.7704735,-2.1333575,0.6657481,1.8464267
-6.3707504,43.762417,12.719329,22.238697,1.214977,0.14528069,-0.2716127,0.7107721,-0.8258466,-0.6784793,-0.2789469,-0.65299135,0.6748013,0.017053843,1.3808198,-0.74652433,-1.7713819,-1.0630528,2.207487,1.5577875,-0.95571595,1.3226992,-0.6787159,-1.7154644,-1.0413207,2.2635012,1.4949633,-0.9580012,1.2895561,-1.4784312,-1.1963886,-0.58432853,-0.9325591,0.46682537,-0.05430051,1.063509,-0.5389595,1.4010919,-3.0576627,-0.4447705,-2.0600474,0.2158699,-0.4409809,0.93859875,0.74000514,-0.13098098,0.06418885,0.65659434,0.61546034,-0.68214625,-0.9889619,1.0,0.0,0.0,0.0,0.0,0.0,0.0,-1.713509,0.1389595,-0.8510919,-2.4616003,-0.32782555,-1.3441086,12.733436,-1.5478611,0.55084825,1.4730089
-2.7102833,46.612514,13.976355,20.11884,0.9865669,0.06340307,-0.2055483,0.7137312,-0.82461673,-0.67192703,-0.24201693,-0.65384924,0.6720563,-0.035275124,1.3940723,-0.76117754,-1.782657,-1.0655224,2.1981163,1.562169,-0.9615287,1.3354765,-0.6934988,-1.7274749,-1.0463427,2.2541208,1.4996573,-0.95849425,1.2740326,-1.4784863,-1.2025105,-0.4745608,-0.94053036,0.47021517,-0.04740589,1.0329571,-0.5434036,1.3797705,-3.0546057,-0.4443258,-2.1561737,0.2218132,-0.44777298,0.92881584,0.73888004,-0.12504499,0.06489538,0.6589451,0.5941591,-0.6690902,-0.98129505,1.0,0.0,0.0,0.0,0.0,0.0,0.0,-1.682957,0.14340362,-0.8297705,-1.4503956,-0.103354454,-0.56562424,11.094141,-1.05263,0.3851533,0.73629844
6.736518,44.390438,13.203981,10.779076,0.13585478,-0.44405398,0.059876285,0.71885157,-0.8328091,-0.691566,-0.32170954,-0.64835143,0.6612757,-0.058712628,1.4073616,-0.7767797,-1.7966316,-1.0785137,2.1892858,1.5657848,-0.9643655,1.348189,-0.7083122,-1.7396133,-1.0509719,2.2447138,1.5043608,-0.9589501,1.2706112,-1.4825702,-1.2174857,-0.4587044,-0.94166523,0.47013906,-0.044903867,1.0024357,-0.54784393,1.3574885,-3.0515518,-0.44388157,-2.2522037,0.22780609,-0.4543991,0.918903,0.7377304,-0.11913085,0.06569612,0.6612455,0.6077584,-0.65173936,-1.0011017,1.0,0.0,0.0,0.0,0.0,0.0,0.0,-1.6524357,0.14784393,-0.8074885,-0.26433468,-0.48379898,-1.5298128,1.7057776,-0.2904415,-0.1270473,0.30332655
10.387327,48.61278,15.174868,8.775002,-0.17552072,-0.3857754,0.1798757,0.71038365,-0.82641524,-0.6657718,-0.29421976,-0.6683323,0.676384,-0.014169841,1.4192274,-0.79095376,-1.8061905,-1.0803938,2.1778805,1.5719992,-0.9603671,1.3608748,-0.7231352,-1.7517593,-1.0556144,2.2352533,1.50907,-0.9593573,1.2681096,-1.4823043,-1.2138432,-0.46581304,-0.947987,0.47085202,-0.039132863,0.9719448,-0.5522785,1.3342469,-3.0485008,-0.44343778,-2.3481379,0.23399544,-0.46076584,0.9087873,0.7364231,-0.11314611,0.066628635,0.6636563,0.6288664,-0.6228965,-1.0214524,1.0,0.0,0.0,0.0,0.0,0.0,0.0,-1.6219448,0.15227851,-0.78424686,-0.17864704,-0.03671646,0.30081272,-0.6133199,-0.7957697,-0.0670135,0.6341651
11.679565,47.909588,14.729091,6.6382885,-0.3357795,-0.4617672,0.24074762,0.70096254,-0.826283,-0.6859295,-0.3184529,-0.64952344,0.67158085,0.0050740438,1.430971,-0.8057635,-1.8203522,-1.0874597,2.170301,1.5762281,-0.9588499,1.373509,-0.73794574,-1.763932,-1.0605448,2.225793,1.5137793,-0.9596968,1.262128,-1.4808165,-1.2186456,-0.50169057,-0.9458787,0.4705205,-0.031988174,0.94148445,-0.5567093,1.3100467,-3.045453,-0.44299445,-2.443976,0.24043655,-0.46684074,0.898405,0.73489636,-0.106999055,0.06771004,0.66625357,0.6556811,-0.5933749,-1.050074,1.0,0.0,0.0,0.0,0.0,0.0,0.0,-1.5914844,0.15670928,-0.76004666,-0.5127907,0.09269714,-0.57578087,-3.4773588,0.062954426,-0.21464825,0.77100545
8.163176,50.195614,15.547351,9.904265,-0.021769404,-0.20274098,0.16259523,0.69009453,-0.8243405,-0.67497486,-0.27104416,-0.6575331,0.6820736,0.044342674,1.4425185,-0.8203798,-1.8314295,-1.0876492,2.1600397,1.5819867,-0.95526254,1.3860403,-0.7527296,-1.776097,-1.065607,2.2163363,1.5184981,-0.95994,1.2503566,-1.4778392,-1.2160733,-0.5074711,-0.945754,0.4717162,-0.021630337,0.9110546,-0.56113625,1.2848887,-3.0424082,-0.44255152,-2.5397182,0.24704742,-0.47262764,0.88781416,0.73317754,-0.10076246,0.06891876,0.66899,0.6689638,-0.5641493,-1.0682764,1.0,0.0,0.0,0.0,0.0,0.0,0.0,-1.5610546,0.16113624,-0.73488873,-1.0850191,0.23591518,0.1875639,-0.46801567,-0.16298294,-0.0066041946,1.0923144
5.402753,50.790848,15.497262,11.970133,0.20444697,-0.08613928,0.088861525,0.68417335,-0.82187307,-0.68682784,-0.25396755,-0.65749884,0.67558336,0.07057658,1.4544576,-0.8349169,-1.8447798,-1.0910037,2.1505864,1.5860564,-0.95288235,1.39844,-0.76747626,-1.7882831,-1.0705718,2.2068834,1.5232245,-0.9600678,1.236701,-1.4738212,-1.2196898,-0.49243942,-0.94577736,0.47254628,-0.009680956,0.8806515,-0.5655594,1.2587742,-3.0393662,-0.44210908,-2.6353648,0.2537365,-0.4781494,0.87707895,0.73132515,-0.09450639,0.07024248,0.6717872,0.67412746,-0.53851867,-1.0814018,1.0,0.0,0.0,0.0,0.0,0.0,0.0,-1.5306515,0.16555938,-0.70877415,-1.271987,0.33333302,-0.4030943,1.6190112,-0.1940608,-0.014877319,1.2453364
6.460283,51.41053,15.819082,11.233071,0.15169805,-0.081045285,0.11271642,0.68412274,-0.82129693,-0.68611383,-0.2705516,-0.6515486,0.67837584,0.071476415,1.4668523,-0.849606,-1.8568945,-1.0976269,2.1417286,1.5910621,-0.95292014,1.4107271,-0.7821867,-1.8005035,-1.0754298,2.1974459,1.5279585,-0.9600859,1.2265494,-1.4703637,-1.2231257,-0.4831618,-0.9434667,0.473386,0.0010317207,0.85027885,-0.5699768,1.2317038,-3.0363276,-0.44166705,-2.7309158,0.26049614,-0.48340797,0.8662019,0.7293387,-0.08823236,0.07167331,0.67464286,0.681374,-0.51176584,-1.0957577,1.0,0.0,0.0,0.0,0.0,0.0,0.0,-1.5002788,0.1699768,-0.68170375,-0.92852116,0.2788067,-0.38523674,1.0441363,0.045108795,-0.027406216,1.1251816
5.1681514,49.139977,14.507828,10.471022,0.10633838,-0.124942616,0.07637541,0.66593885,-0.82233596,-0.70658064,-0.28895053,-0.66551876,0.6673064,0.004021029,1.477321,-0.8644203,-1.8711616,-1.1043248,2.130894,1.5946891,-0.95968384,1.4228636,-0.7968771,-1.8128498,-1.080305,2.1879892,1.5326906,-0.9600602,1.2097896,-1.4688735,-1.2386879,-0.48855478,-0.94681317,0.4726943,0.0032389709,0.81993675,-0.5743904,1.2036786,-3.0332918,-0.44122547,-2.8263712,0.26733208,-0.4884205,0.85512453,0.7272434,-0.08186958,0.07325269,0.6775311,0.68952864,-0.48784673,-1.1175144,1.0,0.0,0.0,0.0,0.0,0.0,0.0,-1.4699367,0.1743904,-0.6536786,-1.5742302,0.08056164,-1.6050339,-0.39958954,-0.51693916,-0.21224618,0.26181468
9.528029,50.8249,15.503018,7.5396986,-0.26260823,-0.1663653,0.17529373,0.6700544,-0.81699294,-0.7015974,-0.32706663,-0.677507,0.6706887,-0.021063084,1.489869,-0.8785764,-1.8830096,-1.1130116,2.1202385,1.5997595,-0.9621665,1.4348818,-0.81153697,-1.82532,-1.0854415,2.178464,1.5374151,-0.960043,1.1994851,-1.4651998,-1.2502434,-0.5215782,-0.9551681,0.4717895,0.0014182343,0.78962517,-0.5787983,1.1746997,-3.0302591,-0.44078434,-2.921731,0.27433395,-0.49312973,0.8437887,0.7249809,-0.0753538,0.07502432,0.6805114,0.70799404,-0.4548927,-1.144625,1.0,0.0,0.0,0.0,0.0,0.0,0.0,-1.4396251,0.17879829,-0.62469965,-0.9342432,0.31030178,-1.2357473,-3.1696439,-0.9968281,-0.27825832,-0.13820459
6.9017324,50.037086,14.997961,7.976314,-0.16561812,-0.04433173,0.15194157,0.6401342,-0.8205404,-0.6987628,-0.34282494,-0.6854282,0.67403245,-0.06291162,1.4988952,-0.893591,-1.8951963,-1.1197239,2.1099212,1.6048183,-0.96633416,1.4466978,-0.8261816,-1.8378608,-1.0909766,2.1688356,1.5421339,-0.96007925,1.1759574,-1.464441,-1.2557548,-0.5636658,-0.966235,0.47121173,-0.005231739,0.7593441,-0.58320236,1.1447678,-3.0272295,-0.44034365,-3.0169954,0.28147888,-0.49751472,0.83216643,0.72254205,-0.06866167,0.07699348,0.68358654,0.7204928,-0.4226767,-1.173719,1.0,0.0,0.0,0.0,0.0,0.0,0.0,-1.4093441,0.18320236,-0.59476775,-2.2362232,0.019311905,-0.6450653,-4.0578246,-1.2761474,-0.2493918,-0.62169677
7.421413,51.14332,15.725994,8.019875,-0.14209318,0.051058054,0.14983901,0.6394626,-0.82358015,-0.69173086,-0.35102794,-0.69225514,0.67572594,-0.1262637,1.5106441,-0.9085396,-1.9070339,-1.1260794,2.09961,1.6097065,-0.9727056,1.458306,-0.8408405,-1.8503921,-1.0969008,2.159089,1.5468489,-0.960228,1.1560673,-1.466617,-1.2525628,-0.6017355,-0.9780632,0.47096798,-0.017983189,0.72909355,-0.5876026,1.113884,-3.0242028,-0.4399034,-3.112165,0.28873634,-0.5015621,0.8202695,0.7199263,-0.06182238,0.07912521,0.6867483,0.73129106,-0.3882242,-1.2005299,1.0,0.0,0.0,0.0,0.0,0.0,0.0,-1.3790935,0.18760261,-0.56388396,-1.8806934,-0.27070045,0.22182465,-3.6562443,-1.3478994,-0.21069646,-1.2183723
2.2645998,49.323902,14.321512,9.360365,0.07458025,0.17551246,0.07471976,0.5989172,-0.82503575,-0.70367336,-0.38003802,-0.7032852,0.6696902,-0.178283,1.5181977,-0.9233441,-1.9207594,-1.1349046,2.0887606,1.6138179,-0.9780563,1.4695784,-0.8555328,-1.8629291,-1.103237,2.149209,1.5515581,-0.9605389,1.118181,-1.4702972,-1.2543594,-0.6437047,-0.9915963,0.470223,-0.035310376,0.6988735,-0.59199905,1.0820493,-3.0211792,-0.4394636,-3.2072392,0.29603767,-0.50531006,0.8080829,0.71718526,-0.054822877,0.08142097,0.689935,0.73240453,-0.35911208,-1.229931,1.0,0.0,0.0,0.0,0.0,0.0,0.0,-1.3488735,0.19199905,-0.53204924,-3.6534786,-0.42705536,-0.2767563,-4.0184855,-1.5363097,-0.25897622,-1.6861011
-4.039274,48.671127,12.997893,10.957794,0.28258562,0.3445177,-0.0007646233,0.5474535,-0.8172497,-0.71609753,-0.41963497,-0.7127038,0.66464984,-0.21925041,1.5243237,-0.93725777,-1.9345388,-1.1452005,2.0779386,1.6180232,-0.98246396,1.4802881,-0.8702223,-1.8755443,-1.1100749,2.1391916,1.5562578,-0.96104246,1.0557721,-1.4686773,-1.2642579,-0.69656795,-1.005865,0.46904612,-0.05538617,0.668684,-0.5963898,1.0492644,-3.0181587,-0.4390242,-3.3022184,0.30326653,-0.5087986,0.7955854,0.7143888,-0.04762203,0.08391718,0.69306463,0.72214574,-0.33422452,-1.2614655,1.0,0.0,0.0,0.0,0.0,0.0,0.0,-1.318684,0.19638976,-0.49926442,-6.069231,0.09641647,-1.0875702,-5.0845027,-1.6381145,-0.30083656,-1.9826636
-11.45624,43.652912,9.845406,10.899202,0.47023594,0.43041852,-0.023383975,0.4727835,-0.8240773,-0.72895634,-0.5064034,-0.7073629,0.645897,-0.27191308,1.5275666,-0.95263,-1.94844,-1.1607152,2.0684552,1.6208476,-0.98823375,1.4901148,-0.88491935,-1.8883178,-1.1177367,2.1290712,1.560929,-0.9617711,0.95899445,-1.4702828,-1.282198,-0.7886227,-1.0145589,0.46559116,-0.07857158,0.638525,-0.6007767,1.0155306,-3.015141,-0.43858528,-3.3971026,0.3103218,-0.5120983,0.78267026,0.7115799,-0.040077996,0.08663057,0.69609106,0.7012586,-0.3169189,-1.3065095,1.0,0.0,0.0,0.0,0.0,0.0,0.0,-1.288525,0.20077667,-0.46553057,-9.451139,-0.23856163,-1.9126654,-8.941877,-1.1112213,-0.5776763,-2.30484
-34.932953,41.96145,6.31028,19.01298,1.597039,1.1241145,-0.23049511,0.30043805,-0.8177933,-0.6993169,-0.5486662,-0.7008416,0.65807927,-0.20111096,1.5201586,-0.96669865,-1.9582496,-1.1726034,2.0589871,1.6267369,-0.98188215,1.4983183,-0.89960593,-1.9011104,-1.1263827,2.118909,1.565579,-0.96265894,0.7750793,-1.4684373,-1.2785696,-0.8888834,-1.018087,0.4641109,-0.092254356,0.60839653,-0.60515976,0.9808486,-3.0121264,-0.43814677,-3.4918919,0.31681252,-0.51537323,0.76934814,0.70891273,-0.032164194,0.08950301,0.69885427,0.63252664,-0.31945038,-1.3455282,1.0,0.0,0.0,0.0,0.0,0.0,0.0,-1.2583965,0.20515975,-0.4308486,-18.076527,0.06914139,0.27427673,-9.697676,-0.723958,-0.31927228,-1.3822466
-118.086685,23.734352,-12.357585,45.202145,5.425162,2.8310556,-1.1202544,-0.22571662,-0.8204116,-0.6889405,-0.6494543,-0.6656446,0.6383111,-0.12653403,1.4757466,-0.9816471,-1.9700044,-1.1913282,2.0523443,1.6294101,-0.97531235,1.502463,-0.91429347,-1.9137676,-1.1362723,2.1088152,1.5702044,-0.9636088,0.29629272,-1.4698752,-1.2611343,-1.019949,-1.0094389,0.46148038,-0.09634841,0.57829857,-0.6095371,0.9452194,-3.009115,-0.4377087,-3.5865865,0.32148743,-0.51935387,0.7555986,0.70710146,-0.023727907,0.09244529,0.7006413,0.41206944,-0.41292974,-1.3890324,1.0,0.0,0.0,0.0,0.0,0.0,0.0,-1.2282985,0.20953712,-0.3952194,-47.257256,-0.45030117,1.832509,-12.443614,0.014615059,-0.39323568,-0.5283654
-173.25578,17.567131,-23.221073,61.939163,8.001144,4.046913,-1.5738126,-0.6224987,-0.79293966,-0.68226975,-0.7661178,-0.56189054,0.5832993,0.12654641,1.4402131,-0.99358743,-1.9819945,-1.2128841,2.0526261,1.6285343,-0.95095414,1.5003954,-0.9288809,-1.9262073,-1.1477393,2.099103,1.5747515,-0.9643889,-0.37148976,-1.4567605,-1.2374249,-1.1853995,-0.96280414,0.4512294,-0.07200766,0.5482311,-0.6139107,0.908644,-3.0061064,-0.4372711,-3.6811864,0.32320023,-0.5246887,0.74143076,0.7067214,-0.014562913,0.095284544,0.70089483,0.08916288,-0.5632598,-1.4298962,1.0,0.0,0.0,0.0,0.0,0.0,0.0,-1.1982311,0.21391067,-0.358644,-65.93924,0.78036785,2.602744,-15.474057,3.3431292,-1.3996661,2.3902013
-146.62126,33.05699,-12.89878,54.861885,7.1724467,3.9387922,-1.1154135,-0.67343825,-0.7816988,-0.6188442,-0.7936708,-0.47126797,0.55717933,0.37978256,1.4330516,-1.0070508,-1.9880917,-1.2271063,2.0519762,1.6304694,-0.9264107,1.4924704,-0.9432842,-1.9381511,-1.1606616,2.0901194,1.5791708,-0.9647141,-0.9303028,-1.4366314,-1.1796011,-1.324031,-0.88110816,0.43698096,-0.018695254,0.5181942,-0.6182804,0.8711233,-3.0031009,-0.4368339,-3.7756917,0.32197,-0.5312538,0.72702855,0.70755,-0.0047644833,0.0976878,0.6998623,-0.19848177,-0.6780237,-1.4470441,1.0,0.0,0.0,0.0,0.0,0.0,0.0,-1.1681942,0.2182804,-0.3211233,-55.168438,1.4778614,5.934477,-12.740898,6.9221616,-1.9768298,5.5447936
-90.499466,45.159027,0.35809708,37.879135,5.0271883,2.9368808,-0.5118626,-0.65721995,-0.79505724,-0.62832224,-0.7871777,-0.38363653,0.56099606,0.42858914,1.4267484,-1.02279,-2.0009832,-1.2393794,2.0517557,1.6352705,-0.9218552,1.4806525,-0.95756644,-1.9496257,-1.1745394,2.082158,1.5834624,-0.96448046,-1.2641568,-1.4266776,-1.1367166,-1.4059494,-0.7708069,0.42487538,0.038621496,0.48818398,-0.62264633,0.83265823,-3.0000985,-0.43639714,-3.8701024,0.31858253,-0.5385647,0.7125169,0.70903176,0.005486489,0.099360645,0.6981199,-0.39205372,-0.7381758,-1.4553651,1.0,0.0,0.0,0.0,0.0,0.0,0.0,-1.138184,0.22264633,-0.28265822,-32.933926,0.6284237,4.299879,-7.32522,10.207308,-1.6992211,6.0802765
-35.957947,52.017113,10.514442,20.191801,2.6041284,1.6592872,-0.02623336,-0.6378638,-0.7907427,-0.7021503,-0.79699916,-0.33157215,0.5110709,0.41121647,1.4168661,-1.0366408,-2.0198407,-1.2542393,2.049001,1.6345694,-0.9233588,1.4671122,-0.9717676,-1.9611518,-1.188917,2.0753222,1.5876166,-0.9637347,-1.3832151,-1.4184177,-1.1582005,-1.44667,-0.6558359,0.41128367,0.08746616,0.45820427,-0.62700653,0.7932497,-2.997099,-0.43596083,-3.9644186,0.3140316,-0.5461159,0.69786024,0.7106584,0.016142618,0.100291,0.696165,-0.48416182,-0.7491747,-1.4714167,1.0,0.0,0.0,0.0,0.0,0.0,0.0,-1.1082042,0.22700652,-0.24324971,-11.6861105,0.6642103,-2.2234917,-3.5659075,11.101627,-1.6780138,5.1892376
-14.741771,50.947838,12.978023,13.5769,1.9873499,0.9949484,0.047961377,-0.69823426,-0.7987246,-0.7538765,-0.7892952,-0.14381291,0.45914873,0.3019136,1.3972888,-1.05164,-2.0365396,-1.2678466,2.0609407,1.6335315,-0.9335433,1.453116,-0.9859516,-1.9732578,-1.2034224,2.069993,1.5916125,-0.9626427,-1.4047443,-1.4186144,-1.2282684,-1.4506621,-0.4926173,0.39478296,0.1174357,0.42825508,-0.6313629,0.7528989,-2.9941022,-0.43552494,-4.058641,0.30885506,-0.55373955,0.6829812,0.71226764,0.027261348,0.10036522,0.6941602,-0.5378659,-0.7545662,-1.4953911,1.0,0.0,0.0,0.0,0.0,0.0,0.0,-1.078255,0.23136291,-0.20289886,-2.0324469,-0.10433197,-7.0649624,-0.04656315,16.10669,-1.9207478,3.288959
-11.662184,50.96575,13.81455,13.972216,2.6768816,0.88877934,-0.11182333,-0.750394,-0.8010012,-0.7722169,-0.7728037,0.25144884,0.3956354,0.0035080477,1.3780767,-1.0660517,-2.0504794,-1.2807028,2.0951378,1.631176,-0.9622919,1.4391104,-1.0001689,-1.9861343,-1.2177619,2.0672503,1.59541,-0.96152407,-1.3989867,-1.4229945,-1.3074291,-1.4273645,-0.20214917,0.37368867,0.1112029,0.3983364,-0.6357155,0.7116065,-2.991109,-0.4350895,-4.152769,0.30311584,-0.5615444,0.6679011,0.71400434,0.038901094,0.099072166,0.69200367,-0.5954674,-0.7759424,-1.514225,1.0,0.0,0.0,0.0,0.0,0.0,0.0,-1.0483364,0.23571548,-0.16160649,0.6567478,-0.51488876,-7.9176188,2.631116,28.901472,-2.397716,-0.25027096
-10.261385,61.2582,18.603146,16.793901,2.8522518,1.2757775,-0.3049588,-0.76692885,-0.7775314,-0.7534747,-0.72885555,0.383379,0.4202578,-0.28690886,1.3624175,-1.0779221,-2.0614817,-1.2906474,2.1055882,1.6374358,-0.99021494,1.4252001,-1.0143234,-1.9995601,-1.231634,2.0674944,1.5990359,-0.960723,-1.3880445,-1.4130841,-1.3542005,-1.3731526,0.09986128,0.35802367,0.07088625,0.36844826,-0.64006233,0.6693655,-2.9881184,-0.4346545,-4.2478676,0.29676056,-0.56951714,0.6528179,0.71605563,0.050852645,0.09619964,0.6895099,-0.65772885,-0.7906449,-1.5084466,0.0,1.0,0.0,0.0,0.0,0.0,0.0,-1.0184482,0.24006233,-0.11936551,1.1317492,0.9364605,-4.6404123,5.6190968,30.15916,-1.7806947,-3.6805243
-18.915417,63.313015,17.591484,20.494698,2.482046,1.6504309,-0.51764804,-0.8092852,-0.77933496,-0.78502136,-0.6619579,0.16508734,0.45401406,-0.28094116,1.3442715,-1.0922569,-2.0780623,-1.2978299,2.0840032,1.6444373,-0.9888171,1.4110333,-1.0282149,-2.0143778,-1.2455779,2.0712686,1.6006451,-0.9608173,-1.4219527,-1.3849734,-1.5049986,-1.3826002,0.43259233,0.114785515,-0.020360133,0.35263824,-0.6441593,0.6646563,-1.455271,-0.3755161,0.07803953,0.28985977,-0.5779896,0.6373793,0.71875435,0.064431936,0.09191979,0.6861423,-0.71046686,-0.84506005,-1.5506153,0.0,1.0,0.0,0.0,0.0,0.0,0.0,-1.0026382,0.24415931,-0.11465627,-1.1810541,0.6972313,-3.6742926,9.950471,13.405931,-2.4152591,-3.5933924
53.686092,176.0,110.0,110.0,2.0950754,13.046979,-1.7016916,-0.59529215,0.586354,0.7423361,0.66611934,-0.4037879,0.6646074,-0.29924887,1.3515041,-0.9695795,-1.9401442,-1.178966,2.0308897,1.6671058,-0.99074215,1.4013134,-1.0445952,-2.0230258,-1.2435905,2.0635362,1.6124268,-0.9589214,-0.81598896,-1.6762153,-0.7201181,0.7049706,-1.1085851,1.5684121,0.27611446,0.33809662,-0.6479111,0.6646916,-1.453816,-0.37514067,-0.021289654,0.28181267,-0.5852947,0.6265409,0.7222347,0.066120274,0.09006677,0.6825636,-0.8455699,-0.6777904,-0.93018454,1.0,0.0,0.0,0.0,0.0,0.0,0.0,-0.9880966,0.24791107,-0.114691615,62.44081,-15.301013,57.906734,202.48618,-134.16872,156.02267,34.627987
-28.11419,176.0,90.84967,95.00286,6.4042583,7.5719104,-1.9056507,-0.80845207,-0.64888805,0.42795736,0.7366806,-0.47772625,0.60887086,-0.37030637,1.3204682,-1.1094841,-1.98023,-1.1699224,2.0157635,1.6733139,-0.995952,1.3929745,-1.061357,-2.0233347,-1.2291976,2.0493684,1.6281471,-0.9566545,-0.8384343,-1.6762142,0.20086952,1.684723,-1.5225935,1.5793952,0.21229601,0.32357025,-0.651659,0.66373444,-1.4523625,-0.3747656,-0.12051953,0.27227592,-0.59199524,0.62109834,0.72722566,0.05909569,0.089229405,0.6780034,-0.992261,-0.6562196,-0.41923562,1.0,0.0,0.0,0.0,0.0,0.0,0.0,-0.9735702,0.251659,-0.113734424,-1.8446445,0.00019073486,92.666115,98.108864,-42.330887,2.9296398,-5.7655334
-58.21295,133.79202,38.940857,57.396294,4.6325274,3.7015572,-1.56045,-0.77313995,-0.6411145,-0.17111138,0.57067436,-0.49507564,0.6813275,-0.38820347,1.3156605,-1.1254685,-2.0404458,-1.1721302,1.9998608,1.6962799,-0.9954748,1.3835446,-1.0768371,-2.0198596,-1.2101699,2.0342584,1.6432533,-0.9550056,-0.97636473,-1.5061599,0.39602408,1.9770013,-1.5094438,1.4903146,0.14965051,0.30905914,-0.65540314,0.66178566,-1.4509104,-0.3743909,-0.21965018,0.26135445,-0.5987091,0.6184308,0.7336033,0.049448103,0.08876839,0.67193836,-1.1284178,-0.6688863,-0.22336796,1.0,0.0,0.0,0.0,0.0,0.0,0.0,-0.9590591,0.25540313,-0.11178565,-13.28454,16.743994,19.463427,29.753803,0.7672787,-8.108854,-6.068477
-43.256645,122.1788,36.92669,32.78776,3.0295503,3.1351788,-0.5018029,-0.8003422,-0.6502474,0.37766546,0.6304282,-0.5060492,0.61549264,-0.25853142,1.3035103,-1.1418618,-1.982093,-1.1471272,1.9836534,1.7048026,-0.98085874,1.3722321,-1.0905566,-2.0140574,-1.1912147,2.0205903,1.6569958,-0.953927,-1.1818867,-1.328067,0.640869,1.8689435,-1.3211008,1.3372424,0.0943771,0.29455948,-0.65914345,0.6588464,-1.4494598,-0.37401658,-0.31868172,0.24936676,-0.6051426,0.6172203,0.74058837,0.039402958,0.08798642,0.66500723,-1.2267838,-0.62748593,-0.09552583,0.0,1.0,0.0,0.0,0.0,0.0,0.0,-0.94455945,0.25914344,-0.10884637,-20.269466,17.586922,24.290514,-10.627151,18.221737,-14.7318125,-5.3921847
-32.473305,101.59372,27.464535,18.633682,1.7248269,2.0553763,-0.17973086,-0.8114675,-0.58703667,0.3512585,0.6712469,-0.4939625,0.6296814,-0.31855625,1.2910854,-1.1492603,-1.9789315,-1.12409,1.971194,1.7199639,-0.9857826,1.3590904,-1.102531,-2.0069315,-1.1743709,2.0090547,1.6692753,-0.95338625,-1.3579614,-1.1544955,0.73543054,1.6231658,-1.0982736,1.1932967,0.04067752,0.28007507,-0.66287994,0.6549175,-1.4480106,-0.37364265,-0.41761428,0.23668289,-0.61110115,0.6167198,0.74772674,0.02990905,0.08670005,0.6576421,-1.2884581,-0.5776305,-0.04256469,0.0,1.0,0.0,0.0,0.0,0.0,0.0,-0.93007505,0.26287994,-0.10491747,-17.503716,17.217754,9.130848,-24.500633,21.99924,-13.909316,-5.3497305
-15.413918,78.55522,21.105099,8.174257,0.9711396,1.0556207,0.051274367,-0.8090867,-0.5949397,0.38017267,0.6475861,-0.36637884,0.62307817,-0.40841228,1.2781818,-1.162025,-1.9689143,-1.1096122,1.9724168,1.7315831,-0.99422747,1.3446862,-1.1132674,-1.9993289,-1.1600791,1.9998308,1.6802464,-0.95339006,-1.4677885,-1.0470031,0.7676754,1.3646532,-0.8640691,1.0663084,-0.013908321,0.26560593,-0.66661453,0.65000004,-1.4465628,-0.37326908,-0.5164479,0.22364807,-0.6166191,0.6163488,0.7548111,0.021388162,0.08477823,0.65008867,-1.3144705,-0.53498805,-0.041438013,0.0,1.0,0.0,0.0,0.0,0.0,0.0,-0.9156059,0.26661453,-0.100000024,-10.992289,10.6577635,3.005445,-25.82357,23.211765,-12.364364,-5.42958
-1.6831603,60.079014,16.9456,2.0526862,1.1208224,0.30947432,0.16209874,-0.8106395,-0.6012791,0.40553948,0.57332015,0.017396696,0.62317526,-0.45089483,1.2636222,-1.1733953,-1.9587749,-1.1027471,2.0015705,1.7425638,-0.99847955,1.3296562,-1.1234105,-1.9916915,-1.1482122,1.9936079,1.6897799,-0.95381314,-1.515009,-1.0019752,0.74525005,1.1163487,-0.54447407,0.85372853,-0.034421578,0.24978447,-0.6698494,0.6468256,-1.843666,-0.20512702,0.41989547,0.21052742,-0.6219063,0.615712,0.7617358,0.01416909,0.08171056,0.6425583,-1.3077811,-0.5254582,-0.08345872,0.0,1.0,0.0,0.0,0.0,0.0,0.0,-0.89978445,0.2698494,-0.0968256,-4.776311,4.6696186,-4.880774,-26.531769,30.913961,-31.535553,1.0571599
2.892602,130.63458,42.8173,19.603214,1.4047961,1.3981643,-0.25721547,-0.8206657,-0.22504891,0.44856197,0.68536323,0.108874306,0.5980782,-0.4607462,1.2475897,-1.1459154,-1.9468353,-1.0796759,2.0044954,1.7495877,-0.99988776,1.3144394,-1.1316731,-1.9841326,-1.1375825,1.990415,1.6976324,-0.9544969,-1.5238316,-0.76816684,0.75951517,1.0454757,-0.24485561,0.7638439,-0.079997644,0.23136139,-0.6718979,0.65027696,-1.8418227,-0.20492193,0.3202245,0.19739914,-0.62680817,0.615786,0.7686559,0.0076771504,0.0780541,0.63483596,-1.3198462,-0.4697306,0.03396263,0.0,1.0,0.0,0.0,0.0,0.0,0.0,-0.88136137,0.27189788,-0.10027695,-0.889802,23.244274,1.4374495,-6.9823027,29.739975,-8.583462,-4.615488
1.311986,124.14773,38.91868,21.741545,0.86765087,1.1191477,-0.41515845,-0.8102506,-0.22843501,0.36028978,0.7028457,-0.1000016,0.64483976,-0.47569793,1.2334144,-1.1545166,-1.9481037,-1.0672979,1.9804149,1.7621164,-1.0020667,1.2993485,-1.1377671,-1.9768504,-1.1269414,1.9889673,1.7047697,-0.95560604,-1.5040923,-0.55712855,0.71777034,1.070951,-0.11193141,0.698188,-0.121473275,0.21295738,-0.6739464,0.6527324,-1.8399812,-0.20471705,0.22065318,0.18421936,-0.6311779,0.61693645,0.7757502,0.0010331288,0.07461193,0.6266128,-1.3230056,-0.4178389,0.13885286,0.0,1.0,0.0,0.0,0.0,0.0,0.0,-0.86295736,0.27394637,-0.10273236,1.9820929,20.979225,-4.1263223,2.7073145,13.161603,-6.2176228,-4.2360783
-3.8419127,132.47461,38.98794,25.69133,0.17823313,1.1908944,-0.550583,-0.8164375,-0.062834315,0.243856,0.72200984,-0.27727646,0.65976316,-0.44513914,1.2177048,-1.1440505,-1.9524648,-1.0547404,1.9612397,1.770746,-1.0001199,1.284475,-1.1414711,-1.9705123,-1.115629,1.9876817,1.7114359,-0.9570814,-1.4816983,-0.30865633,0.60608065,1.1521325,-0.13434425,0.6574253,-0.1565978,0.19457054,-0.67599106,0.6541898,-1.8381416,-0.20451239,0.12078768,0.17105484,-0.6349411,0.6191946,0.7830584,-0.00589193,0.07244993,0.61768585,-1.3191935,-0.35379156,0.2522158,0.0,1.0,0.0,0.0,0.0,0.0,0.0,-0.8445705,0.27599105,-0.10418981,2.2457838,24.697865,-11.114014,8.320832,-2.3320465,-3.7407875,-3.6415875
-7.9063025,113.05382,30.712618,23.408497,-0.1209155,0.8551332,-0.522286,-0.81336814,-0.02957822,0.17177476,0.74411666,-0.36209172,0.6733281,-0.43551663,1.2031381,-1.144429,-1.9533348,-1.0412173,1.9514725,1.7787688,-1.000633,1.2698056,-1.143098,-1.9656181,-1.1034316,1.9857125,1.7178013,-0.958886,-1.4622858,-0.11415808,0.44657132,1.240957,-0.20738648,0.63176435,-0.19095832,0.17718887,-0.67775154,0.6565302,-1.6406587,-0.1477046,0.3970022,0.15791893,-0.6381607,0.6222728,0.7905793,-0.012945241,0.07199799,0.6079745,-1.3161727,-0.30310982,0.32287773,0.0,1.0,0.0,0.0,0.0,0.0,0.0,-0.82718885,0.27775154,-0.10653019,1.9878626,19.229305,-15.105945,9.325981,-10.611767,-3.910756,-2.580896
-5.5929737,112.18564,32.19591,21.60001,-0.07308859,1.0184938,-0.36301708,-0.8204241,0.06163449,0.23036462,0.74295634,-0.33597767,0.6664064,-0.44854593,1.1877631,-1.1369345,-1.9425817,-1.029136,1.9521148,1.784442,-1.0037407,1.2552391,-1.1429836,-1.961765,-1.0905243,1.9829501,1.7238868,-0.96097183,-1.4548001,0.052685227,0.36531085,1.3078029,-0.29999098,0.60107493,-0.21483806,0.16090202,-0.6789875,0.66106623,-1.6252759,-0.114466645,0.4740093,0.14483452,-0.64081955,0.62608707,0.7982015,-0.020123534,0.07306136,0.5976047,-1.3092608,-0.24362202,0.3991015,0.0,1.0,0.0,0.0,0.0,0.0,0.0,-0.810902,0.2789875,-0.11106622,0.71709156,16.508091,-7.936043,6.802845,-9.480911,-2.9149532,-2.5047927
-2.4639628,93.63775,28.051786,16.626268,0.20526424,0.90287167,-0.17621665,-0.8186906,0.04500818,0.27379212,0.74198675,-0.29791942,0.6677595,-0.47534254,1.1733701,-1.1384827,-1.9343859,-1.0163256,1.9531581,1.7906628,-1.0085061,1.2407032,-1.1418239,-1.9581314,-1.0771842,1.9795072,1.7297022,-0.9632807,-1.4534911,0.13657609,0.36337203,1.3428675,-0.35993338,0.575065,-0.23650019,0.14474869,-0.6799145,0.66616046,-1.6128109,-0.084333695,0.5228837,0.13178444,-0.64294815,0.6304553,0.8057694,-0.027457392,0.07506802,0.58681035,-1.305515,-0.19275634,0.44784668,0.0,1.0,0.0,0.0,0.0,0.0,0.0,-0.79474866,0.27991447,-0.11616045,0.08568764,8.2353325,0.07978678,3.5608768,-6.2873898,-2.5219083,-2.2627382
-2.3886538,86.85131,25.994526,14.5887985,0.35281804,0.8474797,-0.091351405,-0.8259189,0.10333334,0.24350688,0.73973626,-0.27659693,0.66094285,-0.47048774,1.1581113,-1.1314906,-1.9337808,-1.0032105,1.9518476,1.7957965,-1.0103295,1.2261177,-1.1400081,-1.954383,-1.0636914,1.9756918,1.7352844,-0.9657719,-1.4603983,0.19605719,0.37949544,1.3516037,-0.3896702,0.55260265,-0.25359526,0.12870407,-0.6805458,0.6716419,-1.6021376,-0.054910477,0.5585271,0.11874962,-0.644598,0.6352125,0.8132032,-0.034897525,0.0775992,0.57572657,-1.3043693,-0.14510682,0.48358715,0.0,1.0,0.0,0.0,0.0,0.0,0.0,-0.77870405,0.2805458,-0.121641874,-0.74670315,5.8068485,1.9044936,0.8997679,-3.278178,-2.1910071,-1.8009543
2.2932715,91.98716,28.828506,13.5496435,0.34382853,0.90753204,-0.0030361074,-0.81854546,0.16822071,0.285928,0.74232113,-0.26977113,0.6597407,-0.48059916,1.1442631,-1.123186,-1.9257902,-0.9894593,1.9487147,1.8012586,-1.0138319,1.2114884,-1.1375686,-1.950217,-1.0502138,1.9717451,1.7406684,-0.96841776,-1.4639604,0.25938076,0.43013912,1.3464919,-0.39735258,0.53358614,-0.2685976,0.11278343,-0.6808491,0.6775749,-1.5892036,-0.020625247,0.6066224,0.10576439,-0.6457157,0.6404018,0.8204281,-0.04252047,0.080426715,0.56446546,-1.2978237,-0.0903501,0.5293899,0.0,1.0,0.0,0.0,0.0,0.0,0.0,-0.7627834,0.28084907,-0.12757486,-0.43308735,6.1763644,5.432624,-0.4991293,-1.1483908,-1.867497,-1.6002297
3.7374325,84.39217,26.128288,11.539506,0.28205243,0.7365811,0.04018452,-0.8145301,0.16937293,0.28418687,0.741108,-0.2984647,0.6695525,-0.48469132,1.1300354,-1.1206313,-1.9217983,-0.976103,1.9418987,1.8076236,-1.016887,1.1968552,-1.1346618,-1.9455799,-1.0368335,1.9677125,1.7458997,-0.9711981,-1.4632612,0.30062154,0.47595862,1.3353134,-0.4062175,0.51957613,-0.28146768,0.09698868,-0.68082047,0.68387413,-1.57647,0.0121196415,0.63929516,0.09286499,-0.64632034,0.64593226,0.8274013,-0.05030475,0.08343896,0.5530953,-1.2878764,-0.040227506,0.5594731,0.0,1.0,0.0,0.0,0.0,0.0,0.0,-0.74698865,0.28082046,-0.13387412,-0.0058174133,3.9882123,4.93654,-1.1250019,-1.2423456,-1.3521433,-1.3878763
-1.6945654,74.809395,20.925165,11.424519,0.52052474,0.49577087,-0.021774922,-0.8286586,0.19303893,0.20983645,0.7273475,-0.2040893,0.6463615,-0.4656951,1.1139894,-1.1153579,-1.9245962,-0.96409875,1.9473035,1.8105358,-1.0177675,1.1821743,-1.1313945,-1.9409429,-1.0236213,1.9638984,1.7509992,-0.9740756,-1.4697524,0.33509177,0.46035245,1.3163332,-0.37391493,0.5067728,-0.29014382,0.08128929,-0.68050766,0.6903124,-1.5680988,0.039033774,0.6467537,0.07999802,-0.64653206,0.6515963,0.8341694,-0.05803072,0.08656037,0.5415727,-1.2863525,-0.0038499862,0.567157,0.0,1.0,0.0,0.0,0.0,0.0,0.0,-0.73128927,0.28050765,-0.14031237,-0.71413517,3.343761,-1.3182521,-1.9136429,2.9935896,-1.2201428,-0.9590149
-0.09665835,84.35649,24.252382,12.899655,0.6030477,0.56088257,-0.034412935,-0.82293856,0.25632873,0.24883063,0.73743725,-0.17386734,0.64066666,-0.4718522,1.0998805,-1.1057616,-1.9160599,-0.9498776,1.9465117,1.8150659,-1.0212609,1.1674572,-1.1276103,-1.936405,-1.010529,1.9605231,1.7559798,-0.97702944,-1.472601,0.39255473,0.45246926,1.306932,-0.3263331,0.49497283,-0.29744866,0.065683365,-0.67988205,0.69697505,-1.5581838,0.07187363,0.6742371,0.06715584,-0.6463337,0.6574713,0.84074503,-0.06572789,0.08977171,0.52987593,-1.2832338,0.038883578,0.59286815,0.0,1.0,0.0,0.0,0.0,0.0,0.0,-0.71568334,0.27988204,-0.14697504,-0.35758018,5.618972,-0.4964292,-0.93762875,4.473871,-1.1557102,-0.82337856
-2.4820418,76.45942,20.939432,12.497696,0.79308224,0.4220277,-0.06930348,-0.8280771,0.25260115,0.2120624,0.73088497,-0.09385194,0.64324063,-0.4678193,1.0846496,-1.1023502,-1.9151987,-0.9374405,1.9511379,1.8203038,-1.0238113,1.1527001,-1.1233627,-1.9321169,-0.99751645,1.9578122,1.7608603,-0.98004305,-1.4769249,0.43523538,0.42164215,1.2993855,-0.25316373,0.4855597,-0.30292827,0.05015564,-0.678957,0.70379794,-1.5511116,0.10110647,0.68636465,0.05430031,-0.6457672,0.6635016,0.8471554,-0.07335284,0.092981264,0.51797837,-1.2860082,0.073023975,0.60498875,0.0,1.0,0.0,0.0,0.0,0.0,0.0,-0.7001556,0.27895698,-0.15379792,-0.4977703,4.161024,-2.8386354,-0.7666111,7.096857,-0.9354055,-0.6348789
-1.7951031,80.65581,22.520985,13.193195,0.9960612,0.45097017,-0.07793984,-0.8297833,0.29350412,0.22396706,0.72651416,0.015069829,0.6310512,-0.47174639,1.0697217,-1.0940123,-1.9097202,-0.924865,1.9593191,1.8239654,-1.0272177,1.137901,-1.1186324,-1.9280558,-0.9845691,1.9560717,1.7656472,-0.98310584,-1.4811144,0.48527214,0.40183434,1.2931544,-0.14838378,0.47607404,-0.3076368,0.03469658,-0.6777134,0.7108068,-1.5442113,0.13367707,0.7072448,0.041395187,-0.64484596,0.66971934,0.8534093,-0.08094503,0.09603823,0.50588256,-1.2912227,0.10959371,0.6260478,0.0,1.0,0.0,0.0,0.0,0.0,0.0,-0.68469656,0.2777134,-0.16080678,-0.49154758,4.883939,-1.6960144,-0.6342411,10.231191,-0.9832859,-0.5589843
-1.607335,82.98523,23.155735,13.671597,1.1032654,0.44739273,-0.089645594,-0.83159,0.32777053,0.20999241,0.7261425,0.10461258,0.6262262,-0.47501636,1.054742,-1.0858554,-1.9070566,-0.9119548,1.966533,1.8282698,-1.0306075,1.1230618,-1.1133624,-1.9241917,-0.9716656,1.9555109,1.7703445,-0.9862115,-1.4850848,0.540436,0.38211185,1.2893623,-0.026002483,0.46720278,-0.31177527,0.019306183,-0.6761265,0.7180538,-1.5373653,0.16880171,0.7322622,0.028425217,-0.64354515,0.67617977,0.8595071,-0.08856109,0.09885536,0.49359098,-1.2975051,0.14802457,0.65133065,0.0,1.0,0.0,0.0,0.0,0.0,0.0,-0.66930616,0.27612647,-0.1680538,-0.47516823,5.389726,-1.6645074,-0.39262772,11.990494,-0.953269,-0.50271153
-1.9254644,85.96027,23.41885,14.121476,1.0556986,0.4088315,-0.09577432,-0.83661044,0.37098178,0.16880994,0.71851724,0.17581086,0.6233517,-0.488371,1.0394007,-1.0762643,-1.9073107,-0.8998139,1.973092,1.8326796,-1.0350486,1.108171,-1.1074649,-1.9206607,-0.95881945,1.9561888,1.7749602,-0.98936355,-1.4908407,0.6056506,0.34459773,1.2829046,0.09828728,0.4592602,-0.31657398,0.0039901733,-0.67416763,0.72556126,-1.5296795,0.20662299,0.75861436,0.015403748,-0.6418457,0.68289727,0.86544764,-0.096194126,0.101474725,0.4810924,-1.3015869,0.18901707,0.677291,0.0,1.0,0.0,0.0,0.0,0.0,0.0,-0.65399015,0.27416763,-0.17556125,-0.6652355,6.3881636,-3.4300447,-0.6695986,12.1939335,-0.8708298,-0.5747318
-1.2060504,83.9481,22.724768,13.636953,0.9861498,0.36730644,-0.08281234,-0.83672935,0.38581932,0.16558078,0.72139543,0.22091691,0.61779577,-0.49692184,1.0244981,-1.068883,-1.9041027,-0.8866799,1.9782805,1.8367398,-1.0390557,1.0932307,-1.1009895,-1.9174653,-0.9460133,1.9579974,1.779502,-0.9925658,-1.495314,0.6612592,0.3122518,1.2796115,0.20777257,0.45204446,-0.32168502,-0.011247635,-0.6718273,0.73330545,-1.5213877,0.24539481,0.7819642,0.002357483,-0.63973427,0.68984646,0.87121814,-0.10385014,0.10393087,0.4683934,-1.3032187,0.23051168,0.6997152,0.0,1.0,0.0,0.0,0.0,0.0,0.0,-0.63875234,0.2718273,-0.18330544,-0.541687,5.430174,-2.8896272,-0.3735304,10.702989,-0.77211857,-0.62111616
-0.34820914,77.47549,20.01099,12.117109,0.57715476,0.22122717,-0.04485091,-0.8321582,0.39780265,0.11213623,0.724509,0.16866907,0.6224264,-0.49415195,1.0100149,-1.0612092,-1.9062517,-0.8735624,1.9748644,1.8417447,-1.041981,1.0782828,-1.094064,-1.9147544,-0.93321085,1.9604832,1.7839884,-0.99581265,-1.4951421,0.70251536,0.25830957,1.2801305,0.26179576,0.4472292,-0.32606128,-0.026388168,-0.66911316,0.74118865,-1.5110946,0.28222135,0.7927746,-0.010637283,-0.6372299,0.69691217,0.87679416,-0.11144629,0.10643714,0.45550272,-1.2957326,0.26916006,0.70757806,0.0,1.0,0.0,0.0,0.0,0.0,0.0,-0.6236118,0.26911315,-0.19118863,-0.07748604,4.009533,-5.0700607,-0.023007393,5.1947446,-0.4968226,-0.5540669
-4.540952,63.2681,13.719397,10.991631,0.20920706,-0.04014033,-0.0584321,-0.8400243,0.39514795,-0.01011955,0.7280428,0.10925535,0.5997002,-0.48337036,0.9942804,-1.0545492,-1.9157664,-0.8604066,1.9714087,1.8439584,-1.0441496,1.063312,-1.0868905,-1.9130676,-0.920375,1.963087,1.7884253,-0.99909157,-1.4980224,0.72219276,0.13938606,1.2843244,0.259912,0.44252464,-0.32879794,-0.041433334,-0.6660938,0.7489615,-1.5018651,0.3103671,0.77485794,-0.023546219,-0.63443947,0.70383584,0.88220096,-0.1187022,0.10933794,0.44235334,-1.2858399,0.29484424,0.68627506,0.0,1.0,0.0,0.0,0.0,0.0,0.0,-0.60856664,0.26609382,-0.1989615,-0.36678314,1.8875241,-11.69371,0.309968,-0.26187897,-0.44918656,-0.3743112
-3.7107942,56.51553,11.765532,9.901417,0.14770862,-0.15617245,-0.03499957,-0.83307785,0.38263336,-0.027525008,0.736348,0.11226108,0.5824134,-0.4653296,0.98000425,-1.0486271,-1.9158201,-0.8467402,1.974313,1.8466667,-1.0456245,1.048347,-1.0796959,-1.912523,-0.9074571,1.9655361,1.7928108,-1.0023801,-1.4962314,0.7183914,0.026881514,1.2937542,0.23976384,0.4372317,-0.32932183,-0.056386948,-0.6628151,0.75647724,-1.4926854,0.33524728,0.7467885,-0.036352158,-0.6314411,0.7104725,0.8874412,-0.12550284,0.11271066,0.42894447,-1.2748808,0.3141163,0.6553596,0.0,1.0,0.0,0.0,0.0,0.0,0.0,-0.593613,0.2628151,-0.20647722,0.10738373,-0.44864416,-11.05033,0.8104086,-2.099833,-0.4870236,-0.17021894
-7.4838724,37.826912,5.182145,8.221257,0.22829795,-0.42386228,-0.067649856,-0.836923,0.33171952,-0.14843085,0.73318404,0.14715192,0.5494341,-0.46236342,0.9646547,-1.046524,-1.9273661,-0.8341387,1.9802513,1.8477542,-1.0486165,1.0333896,-1.0728409,-1.9133978,-0.8944654,1.967848,1.7971313,-1.0056703,-1.4957234,0.6744964,-0.12555729,1.3003979,0.22867292,0.4305865,-0.32924455,-0.07128525,-0.6593895,0.7634407,-1.4884882,0.34622583,0.6830273,-0.049118042,-0.6283951,0.71656394,0.8925645,-0.13163225,0.11647582,0.4152528,-1.2731475,0.31341216,0.5931862,0.0,1.0,0.0,0.0,0.0,0.0,0.0,-0.5787147,0.2593895,-0.21344072,0.012373924,-4.410422,-15.188175,0.508976,-1.0866255,-0.5541265,-0.10687113
-9.814783,24.263845,0.8860173,7.135787,0.35092318,-0.5911563,-0.082307905,-0.835431,0.2767951,-0.23188889,0.74084944,0.15084814,0.52984786,-0.4361338,0.94984645,-1.0451614,-1.9365866,-0.82038045,1.9829328,1.8501161,-1.0492837,1.0184436,-1.0666859,-1.9158871,-0.8813896,1.9700816,1.8013809,-1.0089395,-1.4941304,0.5957944,-0.29027796,1.3094789,0.22198565,0.42352468,-0.32646617,-0.086172104,-0.65592957,0.76958746,-1.4892856,0.3463733,0.59596694,-0.061935425,-0.6254597,0.7218819,0.89761776,-0.13691759,0.12051453,0.4012633,-1.2802259,0.29867595,0.51106465,0.0,1.0,0.0,0.0,0.0,0.0,0.0,-0.5638279,0.25592956,-0.21958745,0.15714169,-7.861376,-16.510265,0.7639408,-0.60159266,-0.56637526,0.17431974
-13.717709,4.8365474,-5.3367696,5.5603666,0.47667867,-0.8070021,-0.1177099,-0.8350528,0.18342876,-0.35264567,0.7468475,0.1548131,0.5090098,-0.43438804,0.9349383,-1.0483431,-1.9511517,-0.8067049,1.9855629,1.8522818,-1.0523783,1.0035167,-1.0616639,-1.9202244,-0.86820984,1.972296,1.8055503,-1.0121782,-1.4919324,0.47103885,-0.48216867,1.3204899,0.22185144,0.4154022,-0.32307026,-0.10105324,-0.6524677,0.77479047,-1.4877965,0.346027,0.4950919,-0.074913025,-0.6228218,0.7261515,0.90266293,-0.14115384,0.12469031,0.38694644,-1.300392,0.2643012,0.3991343,0.0,1.0,0.0,0.0,0.0,0.0,0.0,-0.54894674,0.25246772,-0.22479045,0.28078556,-12.422294,-19.4053,1.0086298,0.22254288,-0.6506562,0.2744019
-12.0414915,9.422191,-3.384447,6.0002627,0.37038335,-0.7345724,-0.06924778,-0.8281085,0.14715217,-0.39531794,0.7618135,0.066813424,0.5123177,-0.4015239,0.9207058,-1.0469487,-1.9597563,-0.7920285,1.9789773,1.8567821,-1.0523306,0.98864126,-1.0578778,-1.9262536,-0.85486984,1.9742568,1.8096473,-1.0153596,-1.48575,0.34783664,-0.64344114,1.338457,0.18804143,0.40817866,-0.31666178,-0.11591911,-0.6490097,0.7789855,-1.486309,0.345681,0.39431766,-0.08806801,-0.6204777,0.7293745,0.9076759,-0.1443678,0.12904124,0.37233144,-1.3167725,0.23623341,0.2974129,0.0,1.0,0.0,0.0,0.0,0.0,0.0,-0.53408086,0.2490097,-0.22898549,0.68376064,-12.293929,-16.267765,1.7585754,-3.211966,-0.6065607,0.57596564
-12.035167,9.4751835,-2.6487522,6.1901836,0.5496074,-0.6712239,-0.04971474,-0.82972735,0.06699933,-0.43911192,0.76483727,0.07958421,0.48903325,-0.3828276,0.9056685,-1.0511779,-1.9701648,-0.7783861,1.9822152,1.8585507,-1.0536424,0.9738164,-1.055404,-1.9336102,-0.8413601,1.97592,1.8136604,-1.0184648,-1.48115,0.21406898,-0.7669243,1.3552451,0.15945713,0.399282,-0.30860853,-0.13076973,-0.6455555,0.7821736,-1.4848231,0.3453354,0.29364422,-0.10141754,-0.61839676,0.73160625,0.9126278,-0.146663,0.13346098,0.3574751,-1.3381073,0.21033245,0.19952263,0.0,1.0,0.0,0.0,0.0,0.0,0.0,-0.51923025,0.24555549,-0.23217356,0.53527355,-13.362556,-12.442565,1.6978741,-2.7323663,-0.8234203,0.75956583
-6.131646,37.998478,6.090806,8.746258,0.23719308,-0.40895522,0.059455708,-0.8200932,0.09991551,-0.46755296,0.77441514,-0.033680443,0.4890432,-0.3248896,0.8918071,-1.0454124,-1.9803655,-0.7639186,1.972552,1.8625647,-1.0509537,0.95906496,-1.0537941,-1.9418766,-0.82768154,1.9769957,1.8175895,-1.0214555,-1.4732635,0.14322484,-0.84552777,1.3718687,0.08978437,0.39049563,-0.29635093,-0.14560509,-0.6421051,0.78435564,-1.4833386,0.34499013,0.19307142,-0.11481476,-0.61636925,0.73319453,0.9174094,-0.1482844,0.13815996,0.34246665,-1.3373231,0.21232618,0.14664519,0.0,1.0,0.0,0.0,0.0,0.0,0.0,-0.5043949,0.2421051,-0.23435563,0.7707119,-7.1608186,-7.611811,1.6271114,-7.1301403,-0.90572834,1.1003733
-7.0753956,29.688349,4.0047956,7.585776,0.33973652,-0.44872415,0.094196066,-0.8228974,-0.016790042,-0.5083122,0.77272373,-0.050937176,0.45263082,-0.26581827,0.8767752,-1.0554732,-1.9927078,-0.7504092,1.971902,1.8628526,-1.0480374,0.94436693,-1.0530941,-1.9507725,-0.8138876,1.9773867,1.82141,-1.024286,-1.4686525,0.045566894,-0.9035704,1.3819599,0.021858698,0.37936717,-0.2789632,-0.160429,-0.6386585,0.7855328,-1.4818555,0.34464523,0.09259918,-0.12824821,-0.61437035,0.7341658,0.92198765,-0.14927188,0.14308591,0.32738805,-1.3427387,0.20786242,0.08203434,0.0,1.0,0.0,0.0,0.0,0.0,0.0,-0.48957098,0.23865852,-0.23553276,0.46787262,-9.822265,-5.5995584,1.0207415,-6.9253354,-1.1290789,1.6430438
-9.665215,25.123066,2.5854368,7.5172815,0.52634877,-0.4751582,0.10580503,-0.83165234,-0.08276106,-0.55178916,0.7675749,-0.04025943,0.3892723,-0.19043536,0.8612017,-1.0613703,-2.0059514,-0.7371301,1.9733608,1.8603371,-1.0433296,0.92965555,-1.0534508,-1.9602158,-0.80005836,1.9772551,1.8250797,-1.0268953,-1.4718596,-0.06303048,-0.9573237,1.3834103,-0.0251556,0.36289996,-0.25533777,-0.17523766,-0.63521385,0.7857059,-1.4803739,0.34430066,-0.007772603,-0.14179802,-0.6124382,0.7344443,0.9263788,-0.14957003,0.148076,0.31228924,-1.3568591,0.20007049,0.011045593,0.0,1.0,0.0,0.0,0.0,0.0,0.0,-0.47476232,0.23521385,-0.23570591,-0.29156208,-10.911104,-5.209446,0.20532608,-4.8161955,-1.682651,2.2980154
-4.368802,49.840935,9.634451,9.818799,0.4231037,-0.29854095,0.16708441,-0.82020116,-0.04102437,-0.54740727,0.77033305,-0.08628749,0.3646493,-0.15471293,0.84763545,-1.0575533,-2.0149565,-0.7230251,1.9686264,1.8615446,-1.0423666,0.9149466,-1.0544628,-1.9700029,-0.7862438,1.9766504,1.8285908,-1.0292702,-1.4708087,-0.11425614,-0.98686767,1.379121,-0.06736225,0.34610802,-0.23164323,-0.19008446,-0.6318035,0.78518105,-1.4733989,0.36718014,0.012610372,-0.15536118,-0.61042786,0.73429483,0.930525,-0.14934573,0.15320072,0.2972346,-1.3537897,0.21287195,-0.022946317,0.0,1.0,0.0,0.0,0.0,0.0,0.0,-0.45991552,0.2318035,-0.23518103,0.031232834,-5.2296176,-2.8451443,-0.7112026,-3.9312668,-1.6558409,2.1801562
-6.601516,38.501835,6.574632,8.623461,0.67053986,-0.41430986,0.15664992,-0.8276939,-0.14814967,-0.56794876,0.7630174,-0.049277827,0.2576373,-0.08937589,0.8321772,-1.0692778,-2.0267978,-0.70994204,1.9717226,1.8543545,-1.0382078,0.900219,-1.0562103,-1.9800453,-0.7725121,1.9758586,1.8318592,-1.0313759,-1.4734946,-0.19524881,-1.0089616,1.3711815,-0.08345461,0.31981727,-0.20367767,-0.20480728,-0.6280899,0.7848617,-1.4696822,0.37612623,-0.042037193,-0.16898727,-0.6083622,0.7336881,0.93445307,-0.14857607,0.15824927,0.28227615,-1.3629191,0.21584274,-0.07207665,0.0,1.0,0.0,0.0,0.0,0.0,0.0,-0.4451927,0.2280899,-0.23486167,-0.2912283,-8.192754,-1.8464446,-0.76179504,-1.8649771,-2.8042078,2.7313352
-8.459313,24.207994,2.375404,6.4464417,0.56253403,-0.6344599,0.19402277,-0.8286424,-0.2347668,-0.6172325,0.755559,-0.10041227,0.067748986,0.020911383,0.8173548,-1.079687,-2.0417686,-0.69695616,1.9658173,1.8386341,-1.0292847,0.88546187,-1.0590007,-1.9904517,-0.75888205,1.9748468,1.8347402,-1.0331402,-1.476248,-0.30710438,-1.0507913,1.3604916,-0.10709633,0.277076,-0.16746984,-0.2195034,-0.62433815,0.783778,-1.4678626,0.3776248,-0.12550913,-0.18275452,-0.60637474,0.7324204,0.93821263,-0.14704192,0.1631231,0.26744464,-1.3788426,0.20468876,-0.14389822,0.0,1.0,0.0,0.0,0.0,0.0,0.0,-0.43049657,0.22433814,-0.233778,-0.23813248,-11.24137,-4.0090322,-0.95763206,-2.4964676,-4.3981075,3.6033897
-9.116264,20.475193,0.7071948,5.616058,0.09442653,-0.7475269,0.27711844,-0.8285315,-0.28390825,-0.6640542,0.75863296,-0.2850878,-0.095670894,0.1450817,0.8026087,-1.0873916,-2.056857,-0.68301874,1.946338,1.825173,-1.018632,0.8706847,-1.0629451,-2.0014305,-0.7453192,1.9730849,1.8370962,-1.0344791,-1.4780425,-0.42391154,-1.1133767,1.3551998,-0.19931103,0.22211723,-0.12284855,-0.234169,-0.62057114,0.78180975,-1.4656999,0.37551075,-0.21368523,-0.19662857,-0.6045418,0.73037046,0.9418022,-0.14448181,0.16806626,0.2527595,-1.3878917,0.1883309,-0.22466522,0.0,1.0,0.0,0.0,0.0,0.0,0.0,-0.41583097,0.22057113,-0.23180974,-0.119137764,-11.73377,-6.1436653,-0.3746271,-9.351418,-5.5395007,4.421596
-10.149924,15.739185,-1.0379072,4.425181,-0.20452495,-0.86825395,0.36165968,-0.8369235,-0.35173625,-0.71091694,0.7371204,-0.38111842,-0.3102166,0.27162918,0.7869923,-1.0981188,-2.0725222,-0.67160714,1.9349731,1.8060745,-1.0073162,0.8558598,-1.0681026,-2.0131607,-0.73188,1.9701571,1.8387823,-1.0353088,-1.4837697,-0.5465699,-1.1928408,1.3407785,-0.32407624,0.15054366,-0.06995716,-0.24881363,-0.6168194,0.7789224,-1.4642345,0.37513533,-0.31375077,-0.21057701,-0.6029186,0.72743595,0.9452146,-0.14063413,0.17326155,0.23826796,-1.3949082,0.1655715,-0.315736,0.0,1.0,0.0,0.0,0.0,0.0,0.0,-0.40118635,0.21681938,-0.22892237,-0.48632622,-12.313313,-7.898879,-1.2359858,-12.578821,-7.1881742,5.2586975
-7.6366596,24.281116,1.1023273,4.6373386,-0.38097107,-0.82643914,0.42988843,-0.8352061,-0.3824242,-0.7333701,0.72156155,-0.47134113,-0.43088987,0.34397426,0.7723392,-1.106345,-2.0864978,-0.6597239,1.923023,1.7956933,-1.0009114,0.8409882,-1.0743282,-2.0256374,-0.7186444,1.9658706,1.839721,-1.0356072,-1.488144,-0.6482405,-1.2655624,1.3182532,-0.46353135,0.07539253,-0.016998818,-0.263422,-0.6130886,0.77510697,-1.4566007,0.37064093,-0.39412618,-0.22452354,-0.6014843,0.7236701,0.9484185,-0.1354249,0.1788071,0.22403236,-1.3924972,0.1481784,-0.39656284,0.0,1.0,0.0,0.0,0.0,0.0,0.0,-0.38657796,0.2130886,-0.22510695,-0.3932953,-10.236465,-7.15189,-2.1195173,-14.010387,-7.435739,5.1485586
-6.5231094,38.19198,4.489726,6.769809,-0.24771702,-0.670267,0.41779006,-0.83854884,-0.3987676,-0.7572189,0.71487063,-0.52468055,-0.46741068,0.3609993,0.75713336,-1.1142049,-2.1013594,-0.6471573,1.9134026,1.79298,-0.9995073,0.82606703,-1.0813301,-2.0387547,-0.7056404,1.9602854,1.8399544,-1.0354227,-1.493525,-0.7180524,-1.3256502,1.294759,-0.5912898,0.005160634,0.030010013,-0.2778759,-0.60938835,0.7707088,-1.4406612,0.373099,-0.45163047,-0.23840523,-0.6001339,0.71924794,0.9513754,-0.12897322,0.18472469,0.210065,-1.3848969,0.14220025,-0.4573545,0.0,1.0,0.0,0.0,0.0,0.0,0.0,-0.37212408,0.20938835,-0.22070879,-0.5483866,-7.0940495,-5.6134224,-2.2442818,-13.225687,-7.238633,4.6206036
-5.883142,39.897236,5.189601,6.8484116,-0.028289624,-0.57261235,0.37154645,-0.84184575,-0.45907694,-0.76532197,0.69756585,-0.55963457,-0.47980812,0.29693952,0.74188244,-1.1272378,-2.1152868,-0.6358838,1.9043219,1.7919736,-1.0057287,0.8110886,-1.0890338,-2.0523112,-0.6928988,1.9536015,1.8395429,-1.0348661,-1.4994302,-0.78820956,-1.3642123,1.2675366,-0.69550675,-0.057248894,0.06374603,-0.2921772,-0.60560036,0.7657395,-1.4253101,0.38185555,-0.5086858,-0.2522354,-0.59882164,0.714238,0.95408285,-0.121417716,0.19085583,0.1963612,-1.3804497,0.13971858,-0.5157231,0.0,1.0,0.0,0.0,0.0,0.0,0.0,-0.35782278,0.20560035,-0.21573949,-0.6139517,-7.13048,-3.4107447,-2.6212215,-10.90852,-6.4264536,3.24563
-5.5983047,47.490463,7.092294,8.492746,0.26045856,-0.42050225,0.298007,-0.84224164,-0.48097846,-0.77478766,0.6975191,-0.59501445,-0.46456453,0.2432824,0.72686446,-1.1371317,-2.1297898,-0.6231469,1.8941001,1.7930864,-1.0105379,0.7960606,-1.0973384,-2.0661273,-0.68037283,1.9460446,1.8385875,-1.0340629,-1.5041709,-0.84507823,-1.3855143,1.2478046,-0.77756584,-0.109128654,0.08537618,-0.3062973,-0.6016865,0.7602988,-1.4065274,0.39556292,-0.55326414,-0.26602745,-0.5974674,0.70873666,0.9565375,-0.11294855,0.19706595,0.18287581,-1.3771445,0.14563572,-0.56214744,0.0,1.0,0.0,0.0,0.0,0.0,0.0,-0.34370267,0.20168647,-0.21029878,-0.5304575,-5.821216,-1.5625238,-1.9062519,-8.801436,-5.434744,2.0206854
-4.8055706,39.9282,5.6590166,6.6882424,0.3819996,-0.3842597,0.27921432,-0.8411597,-0.55401653,-0.78075033,0.6764164,-0.6040932,-0.4268426,0.21802141,0.71194464,-1.1527401,-2.1442022,-0.6127312,1.8856353,1.7959032,-1.0122607,0.7810059,-1.1063697,-2.0800695,-0.66806924,1.9378662,1.8372091,-1.0330999,-1.5059555,-0.9228155,-1.3956425,1.22486,-0.83288234,-0.14822787,0.09953042,-0.32026482,-0.5976696,0.7543139,-1.3927609,0.4043599,-0.6116643,-0.27983665,-0.59607315,0.7026815,0.95875794,-0.10368404,0.2031361,0.16961287,-1.3802985,0.14920817,-0.6207805,0.0,1.0,0.0,0.0,0.0,0.0,0.0,-0.32973516,0.1976696,-0.20431387,-0.20711422,-7.8855276,-0.54564476,-2.175784,-6.0249686,-4.1768403,1.3144865
-2.0061831,28.70931,3.6285725,3.0504372,0.32141173,-0.40627927,0.32311466,-0.83657223,-0.63040894,-0.7819886,0.6373773,-0.5913374,-0.41772696,0.20953153,0.6973487,-1.1694106,-2.1582685,-0.6043315,1.8787324,1.7954364,-1.0121467,0.7659703,-1.1163776,-2.0940537,-0.65611655,1.9293486,1.8355061,-1.0320277,-1.5027858,-1.0269226,-1.3982469,1.1860522,-0.85899293,-0.17858137,0.10965897,-0.33414268,-0.5936184,0.7475923,-1.3855534,0.40599263,-0.6905565,-0.29370117,-0.5946846,0.69589823,0.9607773,-0.09366768,0.20878755,0.1566561,-1.3870894,0.14685676,-0.6985868,0.0,1.0,0.0,0.0,0.0,0.0,0.0,-0.3158573,0.19361839,-0.19759226,0.3235817,-10.486627,0.049448013,-3.7040472,-2.9503584,-3.3077419,0.96437335
-1.050241,27.657791,3.8594365,2.943497,0.5672788,-0.2585377,0.29313678,-0.8252302,-0.6864649,-0.7615418,0.6536017,-0.5641307,-0.27841872,0.2657825,0.68344724,-1.185024,-2.170208,-0.59075636,1.8729355,1.8076642,-1.0054494,0.7510262,-1.1274974,-2.1079352,-0.64441484,1.9207821,1.8336459,-1.0308261,-1.4915469,-1.1406428,-1.3837832,1.1655178,-0.85679585,-0.18964484,0.12349584,-0.34796143,-0.5895424,0.7400769,-1.3801466,0.40838152,-0.77084196,-0.3076725,-0.5932846,0.6883382,0.96261567,-0.0830868,0.21381964,0.14404437,-1.3985401,0.14996548,-0.77665085,0.0,1.0,0.0,0.0,0.0,0.0,0.0,-0.30203855,0.18954238,-0.19007689,1.1347294,-11.448956,1.7362356,-1.844883,-0.077450275,-1.4226854,1.3766646
3.3900661,32.609077,5.801223,2.8557334,0.80539495,0.048428178,0.2987004,-0.80083656,-0.7356767,-0.7260931,0.6580571,-0.48921236,0.09138589,0.3706786,0.67094254,-1.2010651,-2.1805446,-0.5786091,1.8718609,1.8427845,-0.9937582,0.7363015,-1.1397293,-2.1214926,-0.63280946,1.9125367,1.8319827,-1.0294185,-1.4661165,-1.250989,-1.3452145,1.1594716,-0.8146946,-0.15983932,0.14654428,-0.36169815,-0.585413,0.73182315,-1.3710529,0.41445693,-0.84290093,-0.32173538,-0.5917759,0.680064,0.96427226,-0.07231739,0.21808608,0.13186173,-1.4061599,0.16404587,-0.84622514,0.0,1.0,0.0,0.0,0.0,0.0,0.0,-0.28830183,0.18541297,-0.18182313,2.5143385,-11.116242,4.229021,-0.43911934,3.8792253,2.6303678,2.3071737
3.7494411,52.23646,9.955176,7.0092874,1.2921579,0.362332,0.23600748,-0.7967657,-0.7266242,-0.7056911,0.65460527,-0.386273,0.22689685,0.41505456,0.6566249,-1.2123917,-2.1920617,-0.56734896,1.8739095,1.8546724,-0.987913,0.7218228,-1.1527336,-2.1345885,-0.6212251,1.9050394,1.8307315,-1.0277611,-1.4421474,-1.317152,-1.2958413,1.1582233,-0.7299941,-0.115024276,0.17210048,-0.3752575,-0.5811558,0.72307855,-1.3508812,0.42922395,-0.88445336,-0.33582687,-0.5899868,0.67133653,0.9657498,-0.061727896,0.22155851,0.12012024,-1.4072723,0.19607161,-0.88367015,0.0,1.0,0.0,0.0,0.0,0.0,0.0,-0.27474248,0.18115577,-0.17307854,2.2868872,-6.7373276,5.594039,-0.08597374,7.8766108,4.104622,2.5071383
