Afshin1997/kuka_rl_ros2/src/catch_and_throw/input_files/idealpd/recorded_trajectories/env_104_data.csv
torque0,torque1,torque2,torque3,torque4,torque5,torque6,action0,action1,action2,action3,action4,action5,action6,set_target_0,set_target_1,set_target_2,set_target_3,set_target_4,set_target_5,set_target_6,joint_pos_0,joint_pos_1,joint_pos_2,joint_pos_3,joint_pos_4,joint_pos_5,joint_pos_6,joint_vel_0,joint_vel_1,joint_vel_2,joint_vel_3,joint_vel_4,joint_vel_5,joint_vel_6,tennisball_pos_0,tennisball_pos_1,tennisball_pos_2,tennisball_lin_vel_0,tennisball_lin_vel_1,tennisball_lin_vel_2,end_effector_pos_0,end_effector_pos_1,end_effector_pos_2,end_effector_rot_0,end_effector_rot_1,end_effector_rot_2,end_effector_rot_3,end_effector_lin_vel_0,end_effector_lin_vel_1,end_effector_lin_vel_2,obs_task_0,obs_task_1,obs_task_2,obs_task_3,obs_task_4,obs_task_5,obs_task_6,to_final_target_0,to_final_target_1,to_final_target_2,joint_acc_0,joint_acc_1,joint_acc_2,joint_acc_3,joint_acc_4,joint_acc_5,joint_acc_6
0.0,0.0,0.0,0.0,0.0,0.0,0.0,0.0,0.0,0.0,0.0,0.0,0.0,0.0,1.7802359,-1.0646509,-1.8151424,-1.1170107,1.9373155,1.1170107,-0.91629785,1.7802359,-1.0646509,-1.8151424,-1.1170107,1.9373155,1.1170107,-0.91629785,0.0,0.0,0.0,0.0,0.0,0.0,0.0,3.237877,-0.5265274,0.42204657,-3.4369924,0.060130674,5.400703,0.5304184,-0.45449448,0.693097,0.5745483,0.17512383,0.15255436,0.7848268,0.0,0.0,0.0,1.0,0.0,0.0,0.0,0.0,0.0,0.0,-3.887877,0.1265274,0.12795344,0.0,0.0,0.0,0.0,0.0,0.0,0.0
0.0,0.0,0.0,0.0,0.0,0.0,0.0,0.0,0.0,0.0,0.0,0.0,0.0,0.0,1.7802359,-1.0646509,-1.8151424,-1.1170107,1.9373155,1.1170107,-0.91629785,1.7802359,-1.0646509,-1.8151424,-1.1170107,1.9373155,1.1170107,-0.91629785,0.0,0.0,0.0,0.0,0.0,0.0,0.0,3.237877,-0.5265274,0.42204657,-3.4369924,0.060130674,5.400703,0.5304184,-0.45449448,0.693097,0.5745483,0.17512383,0.15255436,0.7848268,0.0,0.0,0.0,1.0,0.0,0.0,0.0,0.0,0.0,0.0,-3.887877,0.1265274,0.12795344,0.0,0.0,0.0,0.0,0.0,0.0,0.0
0.0,0.0,0.0,0.0,0.0,0.0,0.0,0.0,0.0,0.0,0.0,0.0,0.0,0.0,1.7802359,-1.0646509,-1.8151424,-1.1170107,1.9373155,1.1170107,-0.91629785,1.7802359,-1.0646509,-1.8151424,-1.1170107,1.9373155,1.1170107,-0.91629785,0.0,0.0,0.0,0.0,0.0,0.0,0.0,3.237877,-0.5265274,0.42204657,-3.4369924,0.060130674,5.400703,0.5304184,-0.45449448,0.693097,0.5745483,0.17512383,0.15255436,0.7848268,0.0,0.0,0.0,1.0,0.0,0.0,0.0,0.0,0.0,0.0,-3.887877,0.1265274,0.12795344,0.0,0.0,0.0,0.0,0.0,0.0,0.0
-176.0,78.44912,-1.6100464,110.0,11.152402,5.2341623,-3.7645297,-0.81894374,0.3888811,-0.5141336,0.734078,0.3861447,0.6460174,-0.59945345,1.6983415,-1.0257628,-1.8665557,-1.043603,1.97593,1.1816125,-0.9762432,1.7786661,-1.0623659,-1.8203685,-1.1125838,1.9423909,1.1217638,-0.91774267,-0.20919935,0.30404615,-0.69620675,0.5904305,0.6759197,0.6320886,-0.19227973,3.2035332,-0.5259247,0.47527665,-3.433556,0.060070556,5.297117,0.5282669,-0.457592,0.69401115,0.5781554,0.17375994,0.15101425,0.7827761,-0.2868718,-0.41372886,0.121676154,1.0,0.0,0.0,0.0,0.0,0.0,0.0,-3.8535333,0.12592468,0.07472336,-20.871109,30.226603,-69.446335,59.109695,67.36345,62.67678,-19.104082
-176.0,25.287054,-24.056158,110.0,12.115129,3.3876202,-3.577757,-0.80907124,0.11592121,-0.5518499,0.70258856,0.49837306,0.6350935,-0.591303,1.697759,-1.0507737,-1.8755535,-1.0423249,1.9922283,1.1852732,-0.976873,1.7759882,-1.0581163,-1.8339756,-1.1007162,1.9542012,1.1339346,-0.9199695,-0.2857292,0.46342367,-1.5825459,1.3875455,1.3486439,1.4056636,-0.2299977,3.1692238,-0.52532196,0.52747166,-3.4301233,0.060010497,5.193635,0.5233116,-0.4653511,0.6955527,0.5864448,0.1705077,0.14710875,0.77805436,-0.5656217,-0.8956958,0.16541049,1.0,0.0,0.0,0.0,0.0,0.0,0.0,-3.8192239,0.12532195,0.02252835,-7.161742,15.42536,-88.80734,80.3062,67.0146,75.44403,-2.933538
-163.28992,119.01685,28.444052,95.910965,8.258091,7.486799,-2.365391,-0.7721085,0.40510046,-0.13997766,0.6383946,0.4870496,0.67407066,-0.56088954,1.6987773,-1.0176063,-1.8479733,-1.0368768,2.002906,1.2013416,-0.9760585,1.769919,-1.0522302,-1.8489978,-1.0849978,1.96802,1.1478812,-0.92255396,-0.7140969,0.6271975,-1.4696779,1.6342862,1.38907,1.3832157,-0.26957017,3.1349487,-0.52471924,0.57863265,-3.426694,0.059950497,5.090256,0.5154381,-0.47592545,0.6987833,0.5979003,0.1658154,0.14217977,0.7712362,-0.86918616,-1.104997,0.3795307,1.0,0.0,0.0,0.0,0.0,0.0,0.0,-3.7849488,0.12471923,-0.02863264,-42.907684,15.438116,13.014603,24.947977,2.8318644,-4.548335,-4.4274597
-102.618484,128.42104,43.610832,62.733444,4.779008,7.824021,-0.9035385,-0.78337806,0.36269408,-0.046399068,0.626129,0.5082154,0.6431969,-0.5766783,1.6915812,-1.0159608,-1.8536377,-1.0223849,2.0188415,1.2122009,-0.9802218,1.7597891,-1.0454115,-1.8602321,-1.0688311,1.9808908,1.1608435,-0.9254779,-1.1139047,0.6976698,-1.0008973,1.6109076,1.2489551,1.26212,-0.30261588,3.100708,-0.52412033,0.6287606,-3.4232678,0.059890557,4.986981,0.5050316,-0.4872818,0.70406115,0.61070526,0.15978123,0.13680087,0.76340973,-1.1089879,-1.1347456,0.5825683,1.0,0.0,0.0,0.0,0.0,0.0,0.0,-3.750708,0.124120325,-0.078760564,-40.37006,6.3040614,49.01519,-2.2657633,-15.266299,-13.58192,-4.0899873
-41.422665,141.2854,54.40865,35.023617,1.6494083,7.2355404,0.017876081,-0.7998552,0.46156365,0.0049628075,0.6156624,0.5373954,0.6350592,-0.5752268,1.6798036,-0.9992551,-1.8597358,-1.0072649,2.0346303,1.2243494,-0.9830006,1.7464682,-1.0378431,-1.8661754,-1.0539709,1.9920411,1.1724383,-0.9286966,-1.4065335,0.77471083,-0.4522952,1.443897,1.0673008,1.1229634,-0.33118442,3.0665016,-0.52352524,0.67785656,-3.4198453,0.059830677,4.8838086,0.49287415,-0.4979515,0.7112348,0.6235715,0.15242237,0.13123423,0.7554492,-1.2636853,-1.031115,0.76629174,1.0,0.0,0.0,0.0,0.0,0.0,0.0,-3.7165017,0.12352523,-0.12785655,-29.774427,7.1650147,56.819363,-16.859245,-19.119215,-14.625621,-3.7225723
-1.3499157,130.85683,50.22255,16.584078,-0.29434788,5.2854576,0.29733205,-0.81338483,0.5297036,-0.03402894,0.62267554,0.5628895,0.6286373,-0.58720344,1.6651297,-0.98487276,-1.8695784,-0.9917034,2.04833,1.235302,-0.9874169,1.7312266,-1.0294203,-1.8678405,-1.0408694,2.001672,1.1827646,-0.93216604,-1.5646096,0.86360705,-0.066743664,1.2648817,0.92674625,1.0018874,-0.35451716,3.0323296,-0.52293015,0.7259215,-3.4164262,0.059770856,4.7807393,0.47977448,-0.5072937,0.7198162,0.6359328,0.14408863,0.12584685,0.7476567,-1.3359596,-0.8852358,0.8904027,1.0,0.0,0.0,0.0,0.0,0.0,0.0,-3.6823297,0.12293014,-0.1759215,-16.23156,8.5403805,39.90841,-18.129848,-14.57535,-12.322211,-3.0316472
21.085533,119.44319,44.181488,7.2337704,-1.2512736,3.6224093,0.29130346,-0.8214618,0.5904617,-0.022893071,0.6212295,0.573827,0.62770945,-0.57466286,1.6490804,-0.9703741,-1.8701298,-0.9787464,2.0590549,1.2455356,-0.9896323,1.7152106,-1.0200151,-1.8670089,-1.0292212,2.0103047,1.1920344,-0.9358224,-1.6150758,0.9654062,0.13603462,1.1306155,0.8414444,0.90218234,-0.3711101,2.998188,-0.52233505,0.7729566,-3.4130104,0.059711095,4.677773,0.466362,-0.515152,0.72931814,0.6476691,0.13517715,0.12094247,0.7400167,-1.3521161,-0.73722756,0.96988636,1.0,0.0,0.0,0.0,0.0,0.0,0.0,-3.648188,0.12233505,-0.2229566,-5.373764,9.946335,21.179018,-13.662791,-8.7821245,-9.953046,-2.2177637
29.281681,107.98863,37.93568,4.3162346,-1.4652636,2.4474082,0.16605805,-0.8217812,0.6389833,-0.0065431623,0.62214327,0.5762466,0.6332273,-0.5612817,1.6330324,-0.9561168,-1.8676633,-0.96700686,2.0679293,1.2553571,-0.9919506,1.6991965,-1.0095838,-1.8652103,-1.0184504,2.0184186,1.2004477,-0.9396028,-1.5976855,1.068351,0.19631858,1.0586237,0.8011595,0.8214644,-0.38184518,2.9640846,-0.52173996,0.8189628,-3.409598,0.059651393,4.5749097,0.45300293,-0.5216789,0.7393982,0.65887153,0.12597738,0.11667785,0.73239625,-1.3388036,-0.60834825,1.0194807,1.0,0.0,0.0,0.0,0.0,0.0,0.0,-3.6140847,0.121739954,-0.2689628,1.4948606,10.13329,6.633234,-7.4201584,-4.132724,-7.9865217,-1.5264452
30.232965,100.1886,34.217625,4.6929502,-1.2379377,1.9190915,0.10556258,-0.8182444,0.6736223,0.04560065,0.6177388,0.58250254,0.6367903,-0.54992557,1.617372,-0.9422216,-1.8606502,-0.9566765,2.0766687,1.2641267,-0.99459535,1.6835791,-0.99821794,-1.8632267,-1.0080363,2.0263608,1.2081667,-0.94345945,-1.5504348,1.158908,0.20049101,1.0349534,0.7918722,0.7556524,-0.388255,2.9300117,-0.52114487,0.86394113,-3.4061892,0.05959175,4.4721494,0.43981934,-0.52706146,0.74989086,0.6696449,0.11661308,0.113001406,0.72471213,-1.3173797,-0.49895298,1.0574638,1.0,0.0,0.0,0.0,0.0,0.0,0.0,-3.5800118,0.12114486,-0.31394112,4.535508,8.928847,0.8904636,-2.5674343,-0.9814024,-6.520438,-1.0330439
25.623232,90.25401,29.833216,5.9634776,-0.84856886,1.5663922,0.07080326,-0.81656885,0.69409317,0.06331101,0.6062523,0.591904,0.6390742,-0.5420268,1.6019222,-0.9288086,-1.8568956,-0.947411,2.0855513,1.2720741,-0.9976621,1.6684424,-0.9861187,-1.8613765,-0.99768126,2.0343487,1.2153193,-0.94736,-1.50186,1.2265979,0.18109792,1.0348835,0.80119234,0.70174503,-0.3916774,2.895977,-0.5205498,0.90789264,-3.4027836,0.05953217,4.369492,0.42681122,-0.53152084,0.76066375,0.6800683,0.10716166,0.1097722,0.7169194,-1.2985488,-0.41098335,1.0819285,1.0,0.0,0.0,0.0,0.0,0.0,0.0,-3.545977,0.12054977,-0.35789263,4.7024727,6.667733,-1.5453011,-0.20010471,0.9091258,-5.361283,-0.68540573
19.96781,81.01616,25.82131,7.0348687,-0.4795038,1.3174179,0.06471553,-0.8116182,0.71206105,0.0578289,0.59303015,0.62171865,0.6465739,-0.53769803,1.5872805,-0.9149126,-1.8555937,-0.9383782,2.0965207,1.2799766,-1.0011297,1.6537119,-0.9735025,-1.8597972,-0.9872967,2.042558,1.2220083,-0.9512815,-1.4639258,1.2730045,0.15135667,1.0389736,0.8274286,0.65812874,-0.39325818,2.8619728,-0.5199547,0.95081836,-3.3993816,0.059472647,4.2669373,0.4139557,-0.5352287,0.7715822,0.6901863,0.09770473,0.10683731,0.70900095,-1.2853659,-0.3409493,1.0930789,1.0,0.0,0.0,0.0,0.0,0.0,0.0,-3.511973,0.119954675,-0.40081835,3.6536217,4.559374,-2.625221,0.21009445,2.6176333,-4.350078,-0.4652202
14.744939,73.406525,22.626099,7.6916924,-0.2297076,1.1662035,0.07888976,-0.8127497,0.7224488,0.057873055,0.57456404,0.6306278,0.6422675,-0.5287551,1.5724369,-0.90125763,-1.85401,-0.9298403,2.1056206,1.2862351,-1.004157,1.6392294,-0.960565,-1.8584812,-0.9769436,2.0510457,1.2283198,-0.95520586,-1.4435222,1.3003856,0.12620011,1.0334611,0.85611254,0.6220489,-0.3931604,2.8280067,-0.5193596,0.99271923,-3.395983,0.059413183,4.164485,0.40118408,-0.53831863,0.7825258,0.700012,0.088303536,0.10408815,0.70096457,-1.2777824,-0.2826509,1.0927205,1.0,0.0,0.0,0.0,0.0,0.0,0.0,-3.4780068,0.11935958,-0.44271922,1.9006252,2.6720285,-2.1788597,-0.7630825,2.8783083,-3.5929084,-0.2788067
11.450545,69.379616,20.851831,8.525433,-0.09318745,1.1055393,0.06450276,-0.80637,0.73382246,0.050202318,0.5749717,0.6268566,0.64974785,-0.5251687,1.5585924,-0.8871827,-1.8534609,-0.91944647,2.1137314,1.2932945,-1.0077227,1.6248747,-0.9474367,-1.8573806,-0.96665156,2.059766,1.2343241,-0.9591245,-1.433346,1.3168539,0.105701916,1.02714,0.8771667,0.59318066,-0.3923194,2.7940712,-0.5187645,1.0335964,-3.3925877,0.05935378,4.062135,0.388443,-0.5408821,0.7934292,0.7095646,0.078968324,0.10147733,0.69280905,-1.2738994,-0.23069917,1.0873982,1.0,0.0,0.0,0.0,0.0,0.0,0.0,-3.4440713,0.11876449,-0.48359638,0.8783817,1.5878439,-1.7161727,-0.8467674,2.122271,-2.874577,-0.19389987
9.737097,64.90933,18.88584,8.208273,-0.090532124,0.95920765,0.06745713,-0.80485195,0.73834205,0.02902552,0.55653,0.63200307,0.6632069,-0.52098274,1.5443895,-0.8736025,-1.8544781,-0.9109986,2.1229663,1.3006448,-1.0112228,1.6105639,-0.9342054,-1.8565147,-0.95650065,2.0686543,1.24009,-0.96303076,-1.430936,1.3250036,0.0811081,1.0102563,0.8925594,0.57119334,-0.39092603,2.76017,-0.5181694,1.0734508,-3.3891957,0.059294436,3.959888,0.3757553,-0.5429497,0.80421585,0.71885014,0.0697247,0.09901258,0.68453586,-1.2693855,-0.18289088,1.073421,1.0,0.0,0.0,0.0,0.0,0.0,0.0,-3.41017,0.1181694,-0.5234508,0.098228455,0.7666588,-2.1333547,-1.9168139,1.5636325,-2.161944,-0.12802482
10.813876,65.02661,19.068714,7.4733086,-0.15980327,0.961071,0.13108766,-0.80725586,0.74604976,0.04302869,0.52597827,0.64609575,0.6601714,-0.52341294,1.5298383,-0.8596004,-1.8522118,-0.9039028,2.1332638,1.3061072,-1.015372,1.5962301,-0.9209064,-1.8557727,-0.94664633,2.0776875,1.2456671,-0.96692556,-1.4346352,1.3313093,0.07318771,0.976345,0.9069702,0.5533817,-0.3899432,2.726303,-0.5175743,1.1122835,-3.3858073,0.05923515,3.857743,0.36312485,-0.5445061,0.8148557,0.72782904,0.060572945,0.096676745,0.67620224,-1.2623489,-0.1312655,1.058545,1.0,0.0,0.0,0.0,0.0,0.0,0.0,-3.3763032,0.117574304,-0.56228346,-0.52609444,0.5837679,-0.42868108,-3.6264777,1.4547229,-1.7267227,-0.17650127
13.924177,66.53512,19.902063,6.232304,-0.32668573,0.95705533,0.2082841,-0.80414766,0.75263095,0.058182932,0.4949078,0.64615697,0.65508085,-0.51806694,1.5158154,-0.84564334,-1.8499545,-0.8971555,2.1423032,1.3111752,-1.0187323,1.5818621,-0.9075407,-1.8549755,-0.93724024,2.0868275,1.2510878,-0.9708089,-1.4380145,1.3381442,0.083287954,0.92793447,0.9166171,0.5386742,-0.38872355,2.6924706,-0.5169792,1.1500955,-3.3824222,0.059175927,3.7557,0.3506012,-0.54550934,0.825353,0.7364382,0.051488705,0.094456986,0.6678964,-1.2491238,-0.0728487,1.0444539,1.0,0.0,0.0,0.0,0.0,0.0,0.0,-3.3424706,0.11697921,-0.60009545,-0.50280094,0.63889027,1.4068975,-5.078554,0.9692788,-1.3890743,-0.1632154
14.7316265,65.16078,19.223864,5.7819366,-0.3899768,0.8292945,0.21793619,-0.80188984,0.75484,0.043104924,0.4755931,0.65051544,0.6650495,-0.49717164,1.5016731,-0.8320567,-1.850665,-0.8896809,2.151879,1.3175927,-1.020526,1.5674769,-0.8941139,-1.8541152,-0.928331,2.0960476,1.2563921,-0.9746646,-1.4391167,1.3440915,0.08806987,0.8778439,0.9240875,0.5278595,-0.38550153,2.6586723,-0.51638794,1.1868879,-3.3790405,0.059116762,3.6537592,0.33823776,-0.54592896,0.8356885,0.7446596,0.042471178,0.09236751,0.6596564,-1.2315867,-0.015888648,1.0272522,1.0,0.0,0.0,0.0,0.0,0.0,0.0,-3.3086724,0.11638793,-0.63688785,-0.26860237,0.5603552,0.85155517,-5.245638,0.765419,-0.9747863,0.04724264
16.184906,65.36372,19.254911,5.192827,-0.47294974,0.75688773,0.24729033,-0.8032301,0.7607645,0.052769687,0.43872744,0.65903354,0.6634753,-0.50375766,1.4871539,-0.81803745,-1.8488383,-0.8844583,2.161951,1.3227396,-1.0250404,1.5530859,-0.88061655,-1.8531768,-0.9199778,2.1053479,1.261603,-0.9784946,-1.4398504,1.3514739,0.096918784,0.82043236,0.9320222,0.51929474,-0.38307458,2.6249046,-0.5158005,1.2226616,-3.375662,0.059057657,3.5519204,0.32608795,-0.54576874,0.8458482,0.75247884,0.03352701,0.09041508,0.6515187,-1.2095648,0.042358197,1.0093836,1.0,0.0,0.0,0.0,0.0,0.0,0.0,-3.2749047,0.11580047,-0.6726616,-0.23133755,0.7107973,1.2543589,-5.974674,0.8163929,-0.7282734,-0.026768446
19.553589,66.83071,20.151628,3.8667946,-0.6198499,0.73215866,0.33713853,-0.80169266,0.76403064,0.09015883,0.38874552,0.6620427,0.66647434,-0.4993038,1.4729166,-0.80421346,-1.8441609,-0.8811032,2.1715522,1.3282504,-1.028425,1.5386988,-0.8670467,-1.8519905,-0.91230166,2.1147206,1.2667452,-0.9823007,-1.4390284,1.3588223,0.12709792,0.7492449,0.9388972,0.5129817,-0.38066477,2.591175,-0.515213,1.2574177,-3.372287,0.05899861,3.4501834,0.3141899,-0.5449791,0.8558377,0.75984114,0.02463755,0.088574655,0.64357513,-1.1806117,0.10610998,0.9924422,1.0,0.0,0.0,0.0,0.0,0.0,0.0,-3.2411752,0.11521301,-0.70741767,-0.07631779,0.7135391,3.4036608,-7.3452473,0.70830584,-0.47101974,-0.032556057
20.078608,68.82293,20.921616,4.447798,-0.59235656,0.7740494,0.36042204,-0.80422276,0.770753,0.12305689,0.36242265,0.66147727,0.6627383,-0.4893779,1.4582765,-0.7899714,-1.8396847,-0.8760594,2.1808684,1.333019,-1.0312384,1.5243078,-0.85338914,-1.8503692,-0.9053141,2.124139,1.2718321,-0.9860782,-1.4395312,1.3679348,0.17503291,0.68129265,0.9433703,0.5075723,-0.37758964,2.557476,-0.51462555,1.2911571,-3.3689153,0.058939625,3.3485482,0.3025856,-0.5435295,0.8656972,0.7667241,0.015754016,0.08681536,0.6358844,-1.1512322,0.17148098,0.98050404,1.0,0.0,0.0,0.0,0.0,0.0,0.0,-3.2074761,0.11462554,-0.7411571,-0.20327568,0.8931875,5.172527,-6.999314,0.47489405,-0.3839612,0.041741133
22.29652,67.55,20.644999,2.934578,-0.7179518,0.6320781,0.4320985,-0.8036208,0.77047646,0.15242872,0.3009059,0.6686887,0.6634288,-0.47846055,1.4439458,-0.7763415,-1.8351264,-0.8752235,2.1910079,1.3381749,-1.0339242,1.509915,-0.839661,-1.8481987,-0.89911616,2.1336148,1.2768732,-0.9898185,-1.4397,1.3744664,0.23242165,0.5986771,0.9488244,0.5036807,-0.3736714,2.5238152,-0.5140381,1.323881,-3.3655472,0.058880698,3.2470145,0.29132843,-0.54142,0.87540615,0.7730881,0.00689034,0.08511218,0.6285246,-1.1147097,0.23737386,0.9642145,1.0,0.0,0.0,0.0,0.0,0.0,0.0,-3.1738153,0.11403808,-0.773881,-0.16083717,0.6479502,6.0957313,-8.457375,0.58580637,-0.18342733,0.13923049
27.112614,66.657776,20.69601,-0.43222046,-1.0406346,0.4232208,0.5683225,-0.8032375,0.7744341,0.19879584,0.20563649,0.67727,0.65645623,-0.4775074,1.4295913,-0.7622176,-1.8283191,-0.8785525,2.2013419,1.3425188,-1.0375693,1.495524,-0.8258709,-1.845351,-0.8940102,2.1431592,1.2818819,-0.99352163,-1.4394108,1.380549,0.30341944,0.48070505,0.9564939,0.50070715,-0.36996388,2.4901848,-0.5134506,1.3555903,-3.3621824,0.05882183,3.1455824,0.28053665,-0.5386162,0.8848966,0.7788451,-0.0018890052,0.0834691,0.6216347,-1.0638224,0.30738562,0.94006896,1.0,0.0,0.0,0.0,0.0,0.0,0.0,-3.1401849,0.11345062,-0.80559033,-0.10666847,0.6177902,7.4420395,-11.984712,0.81408024,-0.0076293945,0.13310313
33.716938,61.360336,19.00725,-6.766261,-1.6562994,-0.09064832,0.73894566,-0.80282533,0.7763102,0.212786,0.05761216,0.6822835,0.65243924,-0.46589747,1.4152415,-0.7482399,-1.8240724,-0.888249,2.2113874,1.3471259,-1.0401114,1.4811388,-0.8120283,-1.8418739,-0.8905703,2.1527836,1.2868677,-0.9971809,-1.4386287,1.3855937,0.36344874,0.29782432,0.9646904,0.49948364,-0.36530522,2.4565887,-0.51286316,1.3862861,-3.358821,0.058763023,3.0442517,0.27043915,-0.53510284,0.8939839,0.7838794,-0.010381061,0.08197678,0.6153901,-0.98698515,0.37790158,0.8940348,1.0,0.0,0.0,0.0,0.0,0.0,0.0,-3.1065888,0.11286315,-0.8362861,-0.040650368,0.5399227,6.297141,-18.479275,0.87976456,0.3180802,0.26643276
37.050686,60.54035,18.903873,-8.98521,-1.8852844,-0.315843,0.8215611,-0.79752594,0.78137225,0.26050583,-0.03531465,0.6836828,0.651784,-0.4424203,1.4013863,-0.73389107,-1.8158233,-0.89410174,2.2211518,1.3520461,-1.041423,1.4667879,-0.79812753,-1.837754,-0.8891064,2.1624844,1.2918497,-1.000779,-1.4342319,1.3918262,0.4287704,0.09545114,0.9718954,0.49919197,-0.35851502,2.423027,-0.5122757,1.4159694,-3.3554628,0.058704276,2.9430223,0.26119614,-0.5308838,0.902579,0.78813004,-0.018482966,0.08068449,0.60991746,-0.89834785,0.44734395,0.8434971,1.0,0.0,0.0,0.0,0.0,0.0,0.0,-3.0730271,0.11227569,-0.86596936,0.35738945,0.6781101,6.743479,-20.39264,0.81830025,0.46458244,0.51949024
37.168404,60.688477,19.124315,-8.608452,-1.8190985,-0.38133416,0.8525389,-0.7967379,0.7828872,0.320751,-0.12159375,0.6899659,0.6524625,-0.39833927,1.3871142,-0.7198388,-1.805679,-0.90126574,2.231481,1.357096,-1.0406129,1.4524847,-0.78416955,-1.8328693,-0.88962996,2.1722577,1.2968298,-1.004279,-1.4291492,1.397341,0.5086933,-0.10205928,0.9799196,0.4993148,-0.34763995,2.3894958,-0.51168823,1.4446411,-3.352108,0.05864558,2.8418941,0.25283432,-0.5259819,0.91069466,0.7915879,-0.0261951,0.07956844,0.6052861,-0.80898726,0.51336604,0.7960341,1.0,0.0,0.0,0.0,0.0,0.0,0.0,-3.039496,0.11168823,-0.8946411,0.4650116,0.62351227,8.101982,-19.859926,0.9556055,0.5074203,0.9675741
31.989538,61.111927,19.032753,-4.066471,-1.3646228,-0.27900916,0.7246452,-0.79218125,0.78368586,0.3636251,-0.14901142,0.68434644,0.65459305,-0.35400096,1.3732666,-0.70580095,-1.7965068,-0.9045311,2.2406924,1.3622891,-1.0396792,1.4382464,-0.77016675,-1.8271606,-0.8917376,2.1820843,1.3018099,-1.0076436,-1.4221146,1.4014791,0.5917197,-0.24720953,0.98429394,0.49907157,-0.33299905,2.3560028,-0.51110077,1.4723022,-3.3487566,0.058586944,2.7408671,0.2452507,-0.5204811,0.9184329,0.79434544,-0.03362516,0.078567006,0.6014248,-0.7347102,0.57041276,0.7612696,1.0,0.0,0.0,0.0,0.0,0.0,0.0,-3.006003,0.11110076,-0.9223022,0.69043636,0.50184727,8.293462,-14.5913515,0.66474676,0.4064083,1.3737023
25.585266,60.463432,18.515768,0.9947767,-0.84317744,-0.15891339,0.56946737,-0.7899718,0.7816825,0.405631,-0.17035615,0.68075067,0.652711,-0.3131314,1.3592492,-0.6919985,-1.7865975,-0.9087732,2.2501595,1.367081,-1.0389568,1.4240767,-0.7561468,-1.8206298,-0.8948742,2.19193,1.3067824,-1.0108403,-1.4152495,1.4024955,0.67334914,-0.33603844,0.9857706,0.49799782,-0.31557304,2.3225403,-0.5105133,1.4989538,-3.3454084,0.058528367,2.6399412,0.23826218,-0.51447296,0.92591596,0.7965367,-0.040907335,0.07761551,0.5981904,-0.67879075,0.61760014,0.7385995,1.0,0.0,0.0,0.0,0.0,0.0,0.0,-2.9725404,0.1105133,-0.9489538,0.6850004,0.20291805,8.066452,-8.949953,0.43262243,0.25568008,1.6686022
20.261024,60.76571,18.313877,5.4315186,-0.4323668,-0.028540201,0.43330687,-0.78708977,0.78553575,0.4446048,-0.18233037,0.6775394,0.65159583,-0.26244083,1.3453677,-0.67759323,-1.7761693,-0.9131073,2.259684,1.3719419,-1.0370843,1.4099718,-0.7421106,-1.8133171,-0.8985392,2.201772,1.3117415,-1.0138386,-1.4088609,1.4044584,0.74994665,-0.37688786,0.9848817,0.49625555,-0.29496202,2.2891083,-0.50992584,1.5245969,-3.3420637,0.05846985,2.539116,0.23172379,-0.50803375,0.9332589,0.79828006,-0.04816806,0.07667142,0.5954412,-0.638546,0.6587021,0.72711796,1.0,0.0,0.0,0.0,0.0,0.0,0.0,-2.9391084,0.10992584,-0.9745969,0.6363869,0.30817986,7.50885,-4.150385,0.2380848,0.13276339,1.9954205
13.913856,57.185257,16.503521,9.104816,-0.056290865,-0.038092487,0.26751068,-0.7911364,0.78355086,0.45358568,-0.18064265,0.6747912,0.6475453,-0.23102763,1.3308582,-0.66375554,-1.7679585,-0.91660345,2.269251,1.376496,-1.0369414,1.3958937,-0.72806776,-1.805413,-0.90233576,2.2115948,1.3166777,-1.0166253,-1.4075898,1.4046295,0.8032836,-0.3808944,0.9823991,0.49369597,-0.2735733,2.2557144,-0.5093384,1.5492326,-3.3387222,0.058411393,2.4383917,0.22547913,-0.50126266,0.9405139,0.7997086,-0.055461165,0.075738154,0.59300417,-0.612549,0.68866134,0.7189222,1.0,0.0,0.0,0.0,0.0,0.0,0.0,-2.9057145,0.10933837,-0.9992326,0.10597706,0.13384819,5.173421,-0.48915148,0.08306503,-0.0008583069,2.0772576
2.582262,54.921345,14.915706,17.500864,0.77469647,0.22226657,-0.035836324,-0.7961616,0.78132397,0.45762736,-0.0704121,0.665333,0.6613309,-0.17078765,1.3162775,-0.64993536,-1.7596502,-0.909377,2.2781281,1.3828108,-1.033704,1.381785,-0.7140373,-1.7971637,-0.9055191,2.2213643,1.3215967,-1.0191754,-1.4121641,1.4029326,0.8316233,-0.29797575,0.97656876,0.49155176,-0.24910736,2.222351,-0.50875473,1.5728618,-3.3353841,0.058352996,2.337768,0.21923447,-0.49430466,0.9478127,0.8010346,-0.062946916,0.074785195,0.59058297,-0.6193528,0.7049359,0.7274311,1.0,0.0,0.0,0.0,0.0,0.0,0.0,-2.8723512,0.108754724,-1.0228617,-0.5220413,-0.04389286,2.6587486,8.157217,-0.21874905,-0.07420182,2.371496
-7.732684,53.49419,13.677818,25.558483,1.5416743,0.50808394,-0.34056664,-0.80332667,0.782595,0.45058408,0.054531842,0.6604817,0.6622562,-0.16507132,1.3014524,-0.63577783,-1.7521054,-0.90006596,2.2874124,1.3878224,-1.0356826,1.3675886,-0.70001924,-1.7888191,-0.90725577,2.2310688,1.3264891,-1.0214986,-1.4225775,1.4018364,0.834818,-0.13271911,0.969592,0.48861673,-0.2271528,2.189022,-0.5081749,1.5954854,-3.3320494,0.058294658,2.237245,0.21269226,-0.48724365,0.9553243,0.8024864,-0.07082593,0.07376188,0.58784217,-0.6575753,0.71124023,0.7528121,1.0,0.0,0.0,0.0,0.0,0.0,0.0,-2.8390222,0.10817489,-1.0454855,-1.1484861,0.020098686,0.13948679,16.35555,-0.30767918,-0.2728641,2.1082282
-10.939968,52.01152,13.057953,28.224606,1.7908527,0.58947736,-0.46051696,-0.8053592,0.77993745,0.45095545,0.13656895,0.6597945,0.65656275,-0.19778031,1.2870528,-0.6220255,-1.7437235,-0.89359885,2.2970483,1.3921454,-1.0412766,1.3532854,-0.68602216,-1.7805316,-0.9071156,2.2407124,1.3313471,-1.023652,-1.4332494,1.3994193,0.8262935,0.062364776,0.96375203,0.4847223,-0.21179964,2.1557274,-0.50759506,1.6171046,-3.328718,0.05823637,2.1368225,0.20569229,-0.48014832,0.96312577,0.80418015,-0.07920476,0.07263669,0.5845893,-0.7066325,0.71550953,0.7828779,1.0,0.0,0.0,0.0,0.0,0.0,0.0,-2.8057275,0.10759506,-1.0671046,-1.1796474,-0.12142658,-1.0196209,19.340675,-0.20304918,-0.43041706,1.4421254
-8.398057,50.29324,12.6262045,25.832773,1.5318515,0.4434373,-0.4132119,-0.807955,0.7797113,0.44243988,0.17970853,0.6603606,0.65584105,-0.21471697,1.2724899,-0.60805106,-1.7362877,-0.8891447,2.3067484,1.3969312,-1.0451237,1.3388869,-0.672048,-1.7723911,-0.9052006,2.2503102,1.336167,-1.025689,-1.4423493,1.3971094,0.80953586,0.2339844,0.95952916,0.48117203,-0.20125951,2.1224632,-0.5070152,1.6377203,-3.3253899,0.058178145,2.0365005,0.19825745,-0.47298813,0.97116715,0.8061002,-0.08804051,0.07143545,0.580817,-0.74668896,0.7228799,0.8046619,1.0,0.0,0.0,0.0,0.0,0.0,0.0,-2.7724633,0.10701522,-1.0877204,-1.0097027,-0.12927055,-1.800704,17.016047,-0.08455515,-0.39004683,0.9610981
-2.0354319,46.46821,11.44915,18.956062,0.83787715,0.015819132,-0.2567104,-0.81395316,0.7781193,0.41754758,0.16855304,0.6515516,0.650282,-0.24548408,1.2574916,-0.594236,-1.7306364,-0.8883453,2.3154655,1.4011952,-1.0502374,1.3243967,-0.6581005,-1.7645156,-0.9021145,2.2598507,1.3409563,-1.0276612,-1.4513617,1.3943369,0.7799656,0.33303368,0.9527186,0.47840643,-0.19605474,2.0892372,-0.5064354,1.6573336,-3.322065,0.05811998,1.9362783,0.19062424,-0.4657402,0.9792596,0.8081501,-0.09712142,0.070274055,0.57664746,-0.7599813,0.7325857,0.8042214,1.0,0.0,0.0,0.0,0.0,0.0,0.0,-2.7392373,0.10643539,-1.1073337,-0.99081993,-0.19571781,-3.0083537,9.768933,-0.42141676,-0.2241075,0.43444932
6.6712995,45.902424,11.586026,11.009493,0.00043910742,-0.39103162,-0.017644659,-0.8175236,0.7831707,0.41392916,0.13088739,0.64699465,0.65394425,-0.25139415,1.2426443,-0.57978344,-1.7231227,-0.88902575,2.3245502,1.4063507,-1.0528007,1.3098265,-0.6441511,-1.756911,-0.8986794,2.2693112,1.3457304,-1.0295972,-1.4591675,1.3953446,0.75411594,0.34660304,0.94462,0.4776926,-0.19301902,2.0560417,-0.50585556,1.6759454,-3.3187437,0.05806187,1.8361564,0.18310928,-0.45835114,0.98719597,0.81017566,-0.10619699,0.069293596,0.5723076,-0.74056256,0.74905574,0.78355175,1.0,0.0,0.0,0.0,0.0,0.0,0.0,-2.7060418,0.105855554,-1.1259453,-0.8598566,0.16462803,-2.5528073,1.239264,-0.6256819,0.09689927,0.21983385
11.519707,45.9696,11.869303,7.005394,-0.41948265,-0.621955,0.12051546,-0.8158553,0.7843907,0.40779108,0.13338087,0.6418237,0.6527259,-0.22926578,1.228241,-0.56571203,-1.7161319,-0.8853413,2.3334935,1.411003,-1.0525237,1.2952105,-0.63017976,-1.749522,-0.89540446,2.278684,1.3505045,-1.0314931,-1.4625703,1.3979906,0.7340266,0.32090035,0.9356846,0.47786108,-0.18866937,2.0228767,-0.5052757,1.6935568,-3.3154256,0.058003824,1.7361345,0.17591476,-0.45077515,0.9948627,0.81206375,-0.11512452,0.0685642,0.5679768,-0.70365906,0.76831216,0.75454867,1.0,0.0,0.0,0.0,0.0,0.0,0.0,-2.6728768,0.10527572,-1.1435568,-0.4039526,0.3227234,-1.9456625,-2.6719868,-0.7472038,0.24273396,0.3524542
11.737959,45.75722,11.971428,7.2254925,-0.3677109,-0.6553605,0.14990558,-0.8155514,0.7827408,0.4024631,0.1612805,0.64456075,0.6513477,-0.17398332,1.2136554,-0.5519057,-1.7092756,-0.8792764,2.34314,1.4156393,-1.0488914,1.280583,-0.61618936,-1.7422893,-0.892347,2.2879956,1.3552786,-1.033307,-1.4628836,1.3995695,0.719972,0.30049354,0.93014854,0.47802567,-0.17932849,1.9897499,-0.5046959,1.7101687,-3.312111,0.05794583,1.6362127,0.16907501,-0.4430046,1.0022566,0.8137766,-0.12389248,0.06806624,0.56372434,-0.6672403,0.7866374,0.7278823,1.0,0.0,0.0,0.0,0.0,0.0,0.0,-2.63975,0.10469589,-1.1601686,-0.0854969,0.21932125,-1.3542175,-2.1349907,-0.40180683,0.23396015,0.8507073
10.956821,44.900013,11.772522,8.070497,-0.2594915,-0.67059463,0.14317675,-0.81497097,0.78109485,0.3947186,0.17056398,0.6399537,0.6519516,-0.13625515,1.199086,-0.53807986,-1.7028174,-0.8752906,2.351991,1.4204738,-1.0469325,1.2659689,-0.6021961,-1.7351768,-0.88940775,2.2972577,1.3600546,-1.0350045,-1.4611824,1.3993866,0.7084721,0.2915158,0.92532253,0.47809178,-0.16679761,1.9566536,-0.50411606,1.7257822,-3.3087995,0.057887893,1.5363908,0.1625824,-0.4350624,1.0094059,0.81531245,-0.13253483,0.06776444,0.5595606,-0.6340487,0.8031698,0.7040993,1.0,0.0,0.0,0.0,0.0,0.0,0.0,-2.6066537,0.10411605,-1.1757822,0.12087822,0.0467062,-1.1140227,-0.9902656,-0.3216982,0.2078712,1.1698872
8.836417,43.726738,11.459812,9.964533,-0.033866704,-0.6227784,0.11792678,-0.8183594,0.7778523,0.3934278,0.18926543,0.63783467,0.6521063,-0.065188386,1.1841329,-0.52441084,-1.695834,-0.8704812,2.361041,1.4252652,-1.0415233,1.2513567,-0.58822477,-1.7281444,-0.8864132,2.3064778,1.3648306,-1.0365323,-1.4612678,1.3965452,0.70151585,0.3017905,0.92154646,0.47786427,-0.14835003,1.9235878,-0.5035362,1.740398,-3.3054914,0.057830017,1.4366688,0.156353,-0.4269638,1.0163531,0.8166838,-0.14110695,0.06761489,0.55546784,-0.60901934,0.8176915,0.6851257,1.0,0.0,0.0,0.0,0.0,0.0,0.0,-2.573588,0.10353622,-1.190398,-0.064730644,-0.21545887,-0.67236423,0.9302914,-0.19826889,0.14737844,1.7596424
6.738825,42.8467,11.148884,11.846739,0.14043283,-0.56890786,0.08638405,-0.82146513,0.7770527,0.38698956,0.21286674,0.6250043,0.6550576,0.02754562,1.1692102,-0.5105195,-1.6894455,-0.86512655,2.3689783,1.4303364,-1.0337777,1.2367274,-0.5742868,-1.7211807,-0.88317454,2.315633,1.3696047,-1.0378197,-1.4638865,1.3931175,0.6946936,0.330899,0.91419995,0.47759196,-0.12229325,1.8905602,-0.5029564,1.7540176,-3.3021867,0.0577722,1.3370464,0.15032959,-0.41872787,1.0231444,0.8179061,-0.14966999,0.06760048,0.5514151,-0.591366,0.83153486,0.67065686,1.0,0.0,0.0,0.0,0.0,0.0,0.0,-2.5405602,0.102956384,-1.2040176,-0.33054352,-0.2726078,-0.6640315,2.808082,-0.53833723,0.11152625,2.5188894
9.335578,40.314884,10.3914585,8.566359,-0.10548043,-0.82434046,0.19052464,-0.81749725,0.771784,0.3774108,0.1633252,0.6337274,0.65863883,0.09088259,1.1549777,-0.4971084,-1.6834396,-0.86684203,2.379006,1.4354686,-1.0287315,1.2220904,-0.5604013,-1.7143085,-0.8798901,2.3247464,1.3743788,-1.0388154,-1.4638844,1.3871342,0.6848323,0.32720727,0.9111995,0.47815993,-0.09223957,1.857563,-0.50237656,1.7666416,-3.298885,0.05771444,1.2375237,0.14457321,-0.4103775,1.0297203,0.8189414,-0.15814026,0.067741364,0.547483,-0.56142616,0.84158105,0.6467462,1.0,0.0,0.0,0.0,0.0,0.0,0.0,-2.507563,0.10237655,-1.2166417,-0.047659874,-0.53117275,-0.95391273,-0.46191216,-0.1360178,0.24387836,2.9240608
10.447581,39.58461,10.190383,7.2630343,-0.23431587,-0.9427132,0.24196318,-0.8183322,0.7705153,0.37707287,0.15413019,0.6251311,0.658889,0.15552396,1.1402571,-0.4833498,-1.6766012,-0.86447704,2.3872595,1.4402677,-1.023263,1.2074534,-0.546574,-1.7075183,-0.87674963,2.3338177,1.3791624,-1.0394868,-1.4637159,1.3815156,0.6772208,0.3093274,0.9064506,0.47895128,-0.059066728,1.8245964,-0.5017967,1.7782711,-3.2955868,0.057656735,1.1381004,0.13913727,-0.40193176,1.0360358,0.81975615,-0.16645165,0.0680641,0.54374707,-0.5257523,0.8505828,0.62006664,1.0,0.0,0.0,0.0,0.0,0.0,0.0,-2.4745965,0.10179672,-1.228271,-0.022292137,-0.49564838,-0.7234931,-1.8704414,-0.32365322,0.28311014,3.2407775
8.626629,35.287724,8.597078,7.6081495,-0.121237814,-1.0653918,0.1870175,-0.8206151,0.7607261,0.3497164,0.16326967,0.6222537,0.65986675,0.1848418,1.1253918,-0.4705014,-1.6725467,-0.8604227,2.396043,1.4451491,-1.0210025,1.1928087,-0.53283536,-1.7009094,-0.87375796,2.3428433,1.3839537,-1.0398358,-1.4647218,1.3716664,0.6555296,0.29541206,0.90177757,0.47982615,-0.026999697,1.7916679,-0.5012207,1.788907,-3.2922919,0.05759909,1.0387765,0.13405609,-0.39345932,1.0420693,0.820386,-0.17456648,0.068582445,0.5401757,-0.49313498,0.85172415,0.5914579,1.0,0.0,0.0,0.0,0.0,0.0,0.0,-2.441668,0.1012207,-1.2389071,-0.14123917,-0.9134054,-2.150309,-1.4886677,-0.31112432,0.28964877,3.13849
7.7169237,33.73752,7.905524,8.129356,-0.07773149,-1.1382594,0.13993633,-0.8157625,0.7602472,0.32172844,0.16794167,0.61914647,0.65722126,0.22480439,1.1112325,-0.45681065,-1.6687366,-0.8569638,2.404758,1.4496758,-1.0173553,1.1781794,-0.5191816,-1.6946266,-0.8708464,2.351823,1.3887507,-1.0398682,-1.4626651,1.3635838,0.61904454,0.28942367,0.8971034,0.4802003,0.0045497944,1.75877,-0.5006485,1.7985506,-3.2890003,0.057541505,0.93955195,0.12928009,-0.38498688,1.0478252,0.8208774,-0.18247457,0.0693164,0.5367109,-0.46208826,0.84972364,0.56409615,1.0,0.0,0.0,0.0,0.0,0.0,0.0,-2.40877,0.10064849,-1.2485507,0.16787052,-0.73366165,-3.6473036,-0.69939494,-0.30491352,0.22879839,3.0921645
6.8504353,31.24025,6.9261537,7.953974,-0.066598415,-1.2425072,0.11121284,-0.82213736,0.7548911,0.29739127,0.1507192,0.61676496,0.6593935,0.2501356,1.0959656,-0.4436925,-1.6648874,-0.85577446,2.4134996,1.45469,-1.0148547,1.1635405,-0.5056108,-1.6887767,-0.8680359,2.360757,1.3935515,-1.0395993,-1.4644027,1.355265,0.5737252,0.2778105,0.8927292,0.48069778,0.034159187,1.7259026,-0.5000763,1.8072026,-3.285712,0.057483975,0.84042656,0.12482071,-0.3765602,1.0532926,0.82127136,-0.1901424,0.07029314,0.53330845,-0.4309715,0.84331274,0.53495973,1.0,0.0,0.0,0.0,0.0,0.0,0.0,-2.3759027,0.10007629,-1.2572026,-0.21929741,-0.75638294,-4.5278907,-1.2687385,-0.278306,0.2419293,2.9044456
7.4365177,27.882284,5.650822,5.784935,-0.2078247,-1.4770992,0.12692517,-0.8255447,0.74789435,0.26190856,0.10403542,0.619274,0.65917194,0.25874472,1.080986,-0.4308214,-1.6625859,-0.8576324,2.4226844,1.4594686,-1.0137248,1.1488653,-0.49213302,-1.683461,-0.8655392,2.3696644,1.398358,-1.0390614,-1.4686794,1.345544,0.51767844,0.23985276,0.8903935,0.48138273,0.060294468,1.6930733,-0.4995041,1.8148642,-3.2824268,0.0574265,0.7414003,0.120723724,-0.36826324,1.0584147,0.8215929,-0.1974671,0.071549006,0.529974,-0.39238152,0.82955873,0.49879494,1.0,0.0,0.0,0.0,0.0,0.0,0.0,-2.3430734,0.09950408,-1.2648642,-0.46088696,-0.89638233,-5.5979967,-3.900373,-0.099647045,0.28903484,2.5688245
7.129107,26.609306,5.2310104,5.838822,-0.18723226,-1.5458201,0.114464544,-0.8227762,0.7430418,0.23159245,0.09972794,0.61408603,0.6600689,0.29665405,1.0665877,-0.41782883,-1.6603017,-0.8555664,2.431073,1.4643649,-1.0093961,1.1341616,-0.47875345,-1.6787326,-0.8634163,2.3785412,1.4031721,-1.0382661,-1.4707936,1.3357208,0.45769718,0.20276193,0.8872643,0.4820477,0.08601385,1.6602745,-0.49893188,1.8215361,-3.279145,0.057369087,0.6424731,0.117012024,-0.3601036,1.0631803,0.821862,-0.2044135,0.07309754,0.52670175,-0.3539825,0.81324846,0.463557,1.0,0.0,0.0,0.0,0.0,0.0,0.0,-2.3102746,0.09893188,-1.2715361,-0.23496151,-0.90367794,-6.0063243,-3.8118184,-0.17957687,0.28038025,2.5307372
10.577104,24.12844,4.2554593,0.46597004,-0.6231791,-1.9477137,0.23396054,-0.82432294,0.7383761,0.18998806,-0.014348014,0.62293196,0.65916646,0.3118733,1.0517293,-0.40491584,-1.6597338,-0.8648511,2.4408345,1.4690888,-1.0070788,1.1194426,-0.46546924,-1.6746604,-0.8621155,2.387418,1.4079958,-1.0372266,-1.4719956,1.32624,0.39031938,0.10572827,0.8878258,0.48319674,0.10970403,1.6275063,-0.49835968,1.8272195,-3.2758665,0.057311732,0.5436447,0.11384201,-0.35218048,1.0674888,0.8220631,-0.21079814,0.074994236,0.5235955,-0.29492947,0.7877948,0.41467336,1.0,0.0,0.0,0.0,0.0,0.0,0.0,-2.2775064,0.098359674,-1.2772195,-0.08292198,-0.86877346,-6.755394,-9.769011,0.12927055,0.39320588,2.351317
12.434193,24.25597,4.392459,-1.7445889,-0.822299,-2.1080973,0.3138201,-0.82485723,0.73482144,0.17378414,-0.07802925,0.6167614,0.65960306,0.34902766,1.0369569,-0.3919871,-1.657282,-0.8699184,2.449094,1.4739561,-1.0023237,1.1047198,-0.45227087,-1.6711853,-0.86198294,2.3962872,1.412829,-1.0359505,-1.472096,1.3180184,0.33315507,-0.01768976,0.88653505,0.48441985,0.13360715,1.5947723,-0.49778748,1.8319154,-3.2725914,0.05725443,0.44491524,0.111335754,-0.3445282,1.0712805,0.8221684,-0.21650095,0.077270366,0.52076447,-0.22654697,0.75988126,0.36239803,1.0,0.0,0.0,0.0,0.0,0.0,0.0,-2.2447724,0.09778747,-1.2819154,0.07021427,-0.7381916,-5.756873,-12.374772,-0.08022785,0.41256547,2.3865402
11.142479,23.098122,4.180251,-0.31976414,-0.63163024,-2.090147,0.28322047,-0.82088405,0.7268498,0.14450702,-0.09997362,0.6185135,0.65885365,0.38332984,1.0226314,-0.3795859,-1.6567346,-0.8719803,2.4581385,1.4787145,-0.99761754,1.0900198,-0.43916643,-1.6682479,-0.8629719,2.405145,1.4176718,-1.0344342,-1.4690682,1.30822,0.28032345,-0.1260647,0.88611376,0.48512053,0.15748699,1.5620728,-0.49721527,1.8356247,-3.2693195,0.057197187,0.34628448,0.10946655,-0.3371582,1.0745834,0.8221845,-0.22154303,0.079891495,0.51821667,-0.16479227,0.7300914,0.31486413,1.0,0.0,0.0,0.0,0.0,0.0,0.0,-2.2120728,0.097215265,-1.2856247,0.39360523,-0.8888006,-5.3575277,-10.872499,0.023138523,0.3268659,2.3853183
5.565597,22.429922,4.092411,6.973139,0.024052083,-1.7330827,0.07826912,-0.81906664,0.7229855,0.10530347,-0.04017927,0.60700756,0.6542468,0.41714475,1.0081131,-0.36686787,-1.6577176,-0.86698985,2.4658456,1.4830965,-0.9927197,1.0753542,-0.42615545,-1.6658657,-0.86446154,2.4139721,1.4225146,-1.0326813,-1.4656988,1.2990354,0.22404744,-0.15688513,0.88205814,0.48429623,0.18109535,1.5294037,-0.49664307,1.8383484,-3.2660508,0.057140004,0.24775231,0.10799408,-0.33002853,1.077551,0.8221869,-0.22614989,0.082774945,0.5157648,-0.13179664,0.70599693,0.2862755,1.0,0.0,0.0,0.0,0.0,0.0,0.0,-2.1794038,0.09664306,-1.2883484,0.3345251,-0.824666,-5.6862025,-3.1881928,-0.265193,0.07939339,2.3281753
-0.9993973,16.463596,2.0248046,13.298505,0.7193537,-1.524112,-0.17097022,-0.81718665,0.70865,0.027850939,0.0071479706,0.60480636,0.6597193,0.43526196,0.99363554,-0.35529044,-1.6630806,-0.86374676,2.4744527,1.4884865,-0.9891552,1.060721,-0.41327894,-1.6642654,-0.8657471,2.4227574,1.4273478,-1.0307053,-1.4628314,1.2841363,0.13850617,-0.11973423,0.87790924,0.48315433,0.20281978,1.4967651,-0.49607086,1.8400877,-3.2627854,0.057082873,0.14931867,0.10665512,-0.32317352,1.0803264,0.822305,-0.23053408,0.0858533,0.5131253,-0.12745938,0.6784357,0.27029645,1.0,0.0,0.0,0.0,0.0,0.0,0.0,-2.1467652,0.096070856,-1.2900877,0.1965046,-1.4001131,-8.581668,3.522596,-0.22841692,-0.026547909,2.1082191
-6.2644877,9.890947,-0.41245145,17.378925,1.1817217,-1.446735,-0.37213588,-0.8229052,0.6952538,-0.056803476,0.043994986,0.58982056,0.6563487,0.46417972,0.9784305,-0.34375355,-1.6699457,-0.8613476,2.4817395,1.4929826,-0.9842874,1.0460783,-0.4005903,-1.6637714,-0.8663603,2.4314625,1.4321619,-1.0285176,-1.4653825,1.2640393,0.019861544,-0.042650253,0.86882305,0.4811684,0.22392675,1.4641647,-0.49549866,1.8408432,-3.2595234,0.0570258,0.05098343,0.10520172,-0.31663895,1.082987,0.82267445,-0.23480366,0.08912563,0.51002985,-0.14273329,0.6452271,0.26060268,1.0,0.0,0.0,0.0,0.0,0.0,0.0,-2.1141648,0.09549865,-1.2908432,-0.40967464,-1.9292831,-11.8552265,7.454054,-0.7028103,-0.16207695,2.0251155
-4.974502,7.1623726,-1.1967435,14.561455,0.9995521,-1.6441303,-0.30435646,-0.8230281,0.6792465,-0.09746474,-0.0021326863,0.5816002,0.6555067,0.4709421,0.9637755,-0.33266565,-1.6735178,-0.8665736,2.4896226,1.4977126,-0.9814234,1.0314032,-0.38814247,-1.6644504,-0.86647,2.4400609,1.4369589,-1.0261353,-1.4685307,1.238619,-0.097099096,-0.0011648979,0.8572883,0.47951317,0.24277449,1.4315948,-0.49492645,1.8406162,-3.2562644,0.05696879,-0.047253493,0.10367203,-0.3104782,1.0854906,0.8233127,-0.23888145,0.09261274,0.5064727,-0.14895272,0.60607934,0.2431897,1.0,0.0,0.0,0.0,0.0,0.0,0.0,-2.081595,0.09492645,-1.2906163,-0.40781498,-2.463746,-11.715838,3.9319959,-0.9824872,-0.10100007,1.8141419
-5.359303,4.1597614,-2.1121235,13.940277,1.0007894,-1.730169,-0.30390888,-0.82310396,0.6607399,-0.16629918,0.018518126,0.562247,0.6546535,0.4922242,0.9490928,-0.32206848,-1.6810803,-0.8646182,2.4962854,1.5024242,-0.9769129,1.0167013,-0.37598646,-1.666331,-0.8662449,2.448499,1.4417406,-1.02357,-1.4710743,1.2081686,-0.21853475,0.029819287,0.84010714,0.47808552,0.26085052,1.3990555,-0.49435425,1.8394076,-3.2530088,0.05691183,-0.14539221,0.10208893,-0.30474472,1.087799,0.8242212,-0.24269788,0.096336775,0.50247025,-0.15485181,0.56258875,0.22344232,1.0,0.0,0.0,0.0,0.0,0.0,0.0,-2.0490556,0.09435424,-1.2894075,-0.31561852,-2.9702902,-12.182111,2.894484,-1.5631318,-0.07426143,1.7402768
1.6348765,9.415566,0.26748276,6.980171,0.29516882,-1.9877961,0.006021578,-0.81721354,0.64862573,-0.15049286,-0.08454672,0.54554373,0.6543638,0.49788585,0.93498,-0.31112388,-1.6813804,-0.8746996,2.5030534,1.507177,-0.97378135,1.0020148,-0.36412847,-1.6690471,-0.8663193,2.456735,1.4465147,-1.0208367,-1.4675694,1.1786923,-0.28957596,-0.02019471,0.8186371,0.47766432,0.27714357,1.3665466,-0.49378204,1.8372183,-3.2497566,0.05685493,-0.24343279,0.100673676,-0.29942322,1.0898108,0.82526886,-0.24608734,0.10030405,0.49830842,-0.1301685,0.5209307,0.19087793,1.0,0.0,0.0,0.0,0.0,0.0,0.0,-2.0165467,0.09378204,-1.2872183,0.41246414,-2.8607845,-7.198262,-5.101053,-2.053249,0.10513663,1.5963435
7.795575,13.357415,2.0704024,-0.05637145,-0.4070775,-2.286548,0.28990164,-0.81654197,0.6341992,-0.14391798,-0.19905879,0.51318365,0.66239077,0.5054705,0.92036057,-0.30070853,-1.6834389,-0.88622516,2.5080533,1.5127538,-0.97028965,0.9873804,-0.35255468,-1.6721294,-0.8675133,2.4646924,1.4512964,-1.0179528,-1.4613966,1.1505911,-0.31521395,-0.1524668,0.7881264,0.47899067,0.2920241,1.3340759,-0.49321747,1.8340493,-3.2465074,0.05679809,-0.34137535,0.09973526,-0.29454422,1.0913866,0.82630354,-0.2488244,0.104538836,0.49434862,-0.07560636,0.47666875,0.14383045,1.0,0.0,0.0,0.0,0.0,0.0,0.0,-1.9840759,0.09321746,-1.2840493,0.810194,-2.705264,-2.734971,-13.224395,-3.0163288,0.3515482,1.4949024
12.422389,17.762806,4.0039864,-4.6535206,-0.89127517,-2.4626284,0.5064815,-0.80993384,0.62403136,-0.12442674,-0.30330062,0.48807004,0.6660128,0.5164577,0.906387,-0.29015154,-1.6845721,-0.89784336,2.5134993,1.5178977,-0.96630704,0.97284067,-0.34123075,-1.6751621,-0.87043536,2.4723103,1.4560953,-1.0149297,-1.4505233,1.1267284,-0.3003898,-0.33857596,0.7530355,0.4810644,0.3059653,1.3016357,-0.4926529,1.8299017,-3.2432616,0.0567413,-0.43921998,0.09950256,-0.2901039,1.092428,0.8272053,-0.2507459,0.109044865,0.49088386,-0.00034563645,0.4324066,0.0884693,1.0,0.0,0.0,0.0,0.0,0.0,0.0,-1.9516357,0.09265289,-1.2799017,1.390028,-2.2650003,1.21544,-18.525494,-3.4942985,0.4518926,1.4361322
14.236921,20.480232,4.990372,-6.427341,-1.107919,-2.5512695,0.5809876,-0.80525386,0.6217327,-0.12187459,-0.40392467,0.4737676,0.6591629,0.5067489,0.89231527,-0.27905747,-1.6873496,-0.9108278,2.5196872,1.5220116,-0.96425474,0.95842206,-0.33008087,-1.6779449,-0.87539446,2.4795926,1.4609095,-1.0117882,-1.4378308,1.1114802,-0.272049,-0.54792035,0.72009367,0.4821491,0.3170268,1.2692261,-0.49208832,1.8247763,-3.2400188,0.056684572,-0.5369668,0.10009384,-0.28609848,1.0928925,0.8279253,-0.25176433,0.113816485,0.48805746,0.08374247,0.3878793,0.030034717,1.0,0.0,0.0,0.0,0.0,0.0,0.0,-1.919226,0.09208831,-1.2747762,1.643157,-1.3930559,2.4784029,-20.803183,-3.272283,0.3305316,1.174742
13.478128,22.200573,5.5995955,-4.5719647,-1.0082946,-2.4378297,0.5466673,-0.8032804,0.6196079,-0.10549652,-0.47545025,0.44580203,0.65550864,0.50946194,0.878094,-0.26812008,-1.6884946,-0.9229395,2.5241728,1.5264604,-0.9608421,0.94411314,-0.31902778,-1.6803806,-0.8823296,2.4865353,1.4657274,-1.0085496,-1.4273762,1.103664,-0.23545234,-0.7415375,0.68584,0.4821084,0.32636505,1.2368469,-0.49152374,1.8186742,-3.2367795,0.0566279,-0.63461596,0.10149765,-0.2824936,1.0928087,0.8284653,-0.25191346,0.1188376,0.48586252,0.16267988,0.34820047,-0.02371791,1.0,0.0,0.0,0.0,0.0,0.0,0.0,-1.8868469,0.09152374,-1.2686741,1.4024496,-0.64833164,3.2806902,-19.236708,-3.3666015,0.16309619,1.0053217
9.94035,17.84721,3.8346963,-1.9699829,-0.70139086,-2.3851533,0.39709282,-0.80441386,0.61150867,-0.12869161,-0.5484925,0.41550064,0.6584037,0.50001174,0.8636718,-0.2578769,-1.6932497,-0.93717885,2.5280855,1.5315678,-0.9585484,0.92987096,-0.30804622,-1.6826236,-0.891009,2.4931118,1.4705416,-1.0052403,-1.4221921,1.0967677,-0.22177431,-0.909882,0.64879864,0.48152578,0.33279493,1.2045059,-0.49095917,1.8115964,-3.2335434,0.056571282,-0.7321675,0.10359573,-0.2793045,1.0922126,0.82890415,-0.2512413,0.1241151,0.48413953,0.22799623,0.30473813,-0.0744084,1.0,0.0,0.0,0.0,0.0,0.0,0.0,-1.8545059,0.09095916,-1.2615964,0.84199905,-0.567317,1.0224432,-16.747702,-3.6521554,0.044375658,0.6906569
4.547842,11.039968,1.0043125,2.409194,-0.17677073,-2.2831142,0.15805727,-0.79963875,0.6048888,-0.18344514,-0.5823595,0.3895706,0.65655345,0.49376512,0.8499071,-0.24755734,-1.7009681,-0.9492449,2.532069,1.536197,-0.95586383,0.91566885,-0.29714,-1.6850727,-0.90101683,2.4993107,1.4753443,-1.0018834,-1.4188082,1.0888875,-0.2531829,-1.0310858,0.610555,0.4800003,0.33661038,1.1721954,-0.4903946,1.8035437,-3.2303104,0.056514725,-0.8296215,0.106170654,-0.2765808,1.0911617,0.8293763,-0.24982592,0.12966302,0.48260677,0.27074355,0.25653157,-0.11831482,1.0,0.0,0.0,0.0,0.0,0.0,0.0,-1.8221954,0.09039459,-1.2535436,0.5663872,-0.68900585,-3.356841,-12.11977,-3.8065314,-0.12295842,0.37163496
-1.4163402,2.822693,-2.565914,6.6123495,0.3368602,-2.2072318,-0.107518084,-0.80421716,0.59900576,-0.26100725,-0.61032736,0.34849614,0.665512,0.4818156,0.83524716,-0.23723942,-1.7111734,-0.96204954,2.5341604,1.5418955,-0.95370185,0.90145624,-0.28632343,-1.6882389,-0.91191447,2.5050786,1.4801356,-0.9985083,-1.4217967,1.0795071,-0.33786315,-1.1096548,0.5653951,0.47872755,0.33745652,1.1399155,-0.48983002,1.7945173,-3.2270808,0.05645822,-0.92697805,0.10901642,-0.27438736,1.0897148,0.8300455,-0.24774064,0.13552998,0.4809164,0.29043505,0.20158125,-0.156697,1.0,0.0,0.0,0.0,0.0,0.0,0.0,-1.7899154,0.08983001,-1.2445173,-0.18911362,-0.8714676,-8.489031,-7.950306,-4.573238,-0.16961694,-0.0015497208
-5.7417517,-3.9348679,-5.204868,9.884199,0.70345926,-2.114517,-0.27703795,-0.80148757,0.5813935,-0.31549963,-0.6277772,0.25422135,0.66289705,0.4873848,0.8213075,-0.22818407,-1.7197888,-0.97469217,2.5305007,1.5464252,-0.9497698,0.88721216,-0.2756647,-1.6924484,-0.92333376,2.5101902,1.4849116,-0.99513036,-1.4252405,1.0614642,-0.44809744,-1.1532762,0.4926609,0.47693726,0.3374707,1.107666,-0.48926544,1.784518,-3.2238543,0.056401774,-1.0242373,0.11193085,-0.27276993,1.0879188,0.83102375,-0.24505733,0.14179322,0.47879133,0.29300275,0.14331082,-0.19048625,1.0,0.0,0.0,0.0,0.0,0.0,0.0,-1.757666,0.089265436,-1.234518,-0.31125546,-1.7665386,-10.915631,-4.5201063,-7.376355,-0.26507974,-0.15760064
-9.597496,-14.653056,-8.634915,10.691769,0.8912755,-2.1326268,-0.35537565,-0.80070937,0.52859443,-0.34942612,-0.6576341,0.048086137,0.667222,0.48813963,0.80714124,-0.22280525,-1.727391,-0.9890972,2.514999,1.5516337,-0.9463164,0.8729423,-0.2654122,-1.6977298,-0.9350964,2.514047,1.4896742,-0.9917572,-1.4272802,1.0132253,-0.5544941,-1.1844174,0.34919176,0.4755949,0.33652067,1.0754547,-0.48870087,1.7735468,-3.2206311,0.056345385,-1.1213993,0.11480713,-0.271801,1.0857599,0.83236396,-0.24179211,0.14858826,0.47605485,0.28457972,0.07554169,-0.22756092,1.0,0.0,0.0,0.0,0.0,0.0,0.0,-1.7254547,0.08870086,-1.2235467,-0.116324425,-4.819107,-10.53871,-3.2722712,-14.487624,-0.23664236,-0.3352344
-14.794664,-30.250494,-13.727022,10.817736,0.9064397,-2.215364,-0.46193016,-0.7952509,0.443471,-0.40105927,-0.6650551,-0.3401172,0.669017,0.46689874,0.7934172,-0.2210651,-1.7378358,-1.0016019,2.4800353,1.5565759,-0.94506735,0.8586925,-0.25600183,-1.704047,-0.9470669,2.5154393,1.4944254,-0.98841554,-1.42339,0.91684645,-0.6574375,-1.201595,0.06842257,0.47465706,0.33212993,1.0432739,-0.4881363,1.7616048,-3.2174113,0.05628905,-1.2184641,0.11753464,-0.2716217,1.083169,0.8341205,-0.23791084,0.15623973,0.4724728,0.2669201,-0.0063015902,-0.272609,1.0,0.0,0.0,0.0,0.0,0.0,0.0,-1.6932739,0.088136286,-1.2116048,0.61786175,-9.678936,-10.273528,-1.8414259,-28.260513,-0.19703507,-0.810653
-24.053696,-65.36025,-23.083048,10.265476,2.3780437,-2.4051208,-0.37922168,-0.7789018,0.22266543,-0.33065006,-0.66886914,-0.5463083,0.678112,0.48010924,0.78080237,-0.2337353,-1.7371119,-1.0139538,2.4608085,1.5622367,-0.9404046,0.84458196,-0.24848793,-1.7107952,-0.9591309,2.5136693,1.4991747,-0.98511297,-1.4052101,0.6957713,-0.68147445,-1.2080313,-0.25955558,0.47468698,0.32809976,1.0111237,-0.48757172,1.7486929,-3.2141945,0.056232773,-1.315432,0.1197319,-0.2725792,1.0800573,0.8362464,-0.23339318,0.1644655,0.4681565,0.2012288,-0.13050587,-0.32686645,1.0,0.0,0.0,0.0,0.0,0.0,0.0,-1.6611236,0.08757171,-1.1986928,2.3632526,-22.239517,-2.6454806,-0.6561518,-32.975014,-0.11535287,-0.8820057
-26.77665,-73.039604,-24.294851,13.103514,3.3525617,-2.1721053,-0.27533892,-0.7802161,0.107837066,-0.28189626,-0.64590937,-0.6120825,0.6876537,0.44138297,0.7665604,-0.23770423,-1.7389848,-1.0237218,2.452461,1.5679401,-0.94097465,0.83064115,-0.24350427,-1.717284,-0.9710938,2.5089428,1.5039297,-0.9818743,-1.3886226,0.43197975,-0.63904464,-1.1922728,-0.54425097,0.47529885,0.3209859,0.9790039,-0.48700714,1.734812,-3.210981,0.05617655,-1.4123027,0.12105942,-0.27478027,1.0764623,0.8386259,-0.2283629,0.17275167,0.4633721,0.10623741,-0.25498337,-0.3727967,1.0,0.0,0.0,0.0,0.0,0.0,0.0,-1.6290039,0.087007135,-1.1848121,2.1962166,-26.553625,3.9768338,1.6203403,-28.592104,-0.11308193,-1.1602104
-26.63089,-81.81821,-23.681889,13.5906925,4.5859194,-1.9063976,0.12837787,-0.7744024,-0.1209371,-0.042407017,-0.6560371,-0.63085437,0.69017994,0.46975884,0.7532009,-0.25559798,-1.7215247,-1.0366975,2.4458575,1.5729477,-0.9348984,0.8168615,-0.24173425,-1.7221248,-0.9829174,2.5019848,1.5086886,-0.9786728,-1.3723547,0.09134094,-0.4342599,-1.1784936,-0.74640024,0.4754869,0.3189111,0.9469185,-0.48644257,1.7199632,-3.2077706,0.05612039,-1.5090767,0.121219635,-0.27824402,1.0724514,0.8409981,-0.22302954,0.18024743,0.45879287,-0.018293353,-0.38011038,-0.41266194,1.0,0.0,0.0,0.0,0.0,0.0,0.0,-1.5969185,0.08644256,-1.1699631,2.255416,-34.262997,19.973183,1.5303612,-20.189072,-0.2281487,-0.49510002
-21.930813,-80.5643,-18.795252,13.629346,5.5262856,-1.4698957,0.65512383,-0.76234853,-0.36581182,0.2952818,-0.66703,-0.5768554,0.68586993,0.46631244,0.74062663,-0.27831542,-1.6925967,-1.0496204,2.4442992,1.5772755,-0.9320416,0.8032602,-0.24385379,-1.7234199,-0.9946791,2.4937947,1.5134417,-0.9754742,-1.3537313,-0.31370255,-0.030692903,-1.1746457,-0.84235585,0.47425282,0.32008138,0.9148674,-0.4858818,1.7041473,-3.2045636,0.056064278,-1.6057539,0.120025635,-0.28284836,1.0681096,0.84301126,-0.217706,0.18592401,0.45537698,-0.1582356,-0.4887066,-0.44309354,1.0,0.0,0.0,0.0,0.0,0.0,0.0,-1.5648674,0.0858818,-1.1541474,2.5661945,-40.696415,39.53697,0.58453083,-9.385813,-0.46357512,0.09818673
-19.965353,-77.13776,-17.18381,12.2973175,5.6728897,-1.4139838,0.772831,-0.730312,-0.5435,0.3781676,-0.69501245,-0.5231937,0.66734415,0.46684763,0.730229,-0.2982038,-1.6856031,-1.0641804,2.4414754,1.5801761,-0.92878944,0.7899574,-0.25001335,-1.7207305,-1.0065714,2.4852765,1.5181624,-0.9722536,-1.3199396,-0.7173661,0.36585617,-1.1934435,-0.8547546,0.46963507,0.32301414,0.88284683,-0.48532486,1.6873654,-3.2013597,0.056008227,-1.7023345,0.1174202,-0.28852844,1.0634558,0.844569,-0.21249664,0.1892442,0.45358023,-0.29860482,-0.59222955,-0.47435373,1.0,0.0,0.0,0.0,0.0,0.0,0.0,-1.5328468,0.08532485,-1.1373653,4.160309,-40.564873,38.72898,-1.7093182,-1.0617137,-0.95119476,0.39734244
-14.02719,-61.01645,-11.974605,11.425028,5.1225376,-1.2856581,0.81910896,-0.62895083,-0.69053364,0.45431545,-0.70322603,-0.45836073,0.62577087,0.44198653,0.72706234,-0.3190667,-1.675299,-1.076894,2.4394405,1.5807395,-0.928055,0.7774118,-0.25987625,-1.7146423,-1.0187079,2.4770825,1.5228049,-0.9690178,-1.230775,-1.0765325,0.6870868,-1.21999,-0.80711263,0.4606468,0.32449907,0.8508568,-0.4847679,1.6696184,-3.198159,0.05595223,-1.7988185,0.11357498,-0.2951126,1.0585008,0.84566396,-0.20744304,0.19010334,0.4535201,-0.41700485,-0.67649555,-0.5039723,1.0,0.0,0.0,0.0,0.0,0.0,0.0,-1.5008568,0.08476791,-1.1196184,9.522843,-36.09153,31.324339,-2.529931,4.913008,-1.4191568,0.3577292
-3.5198672,-26.570997,-2.1797345,11.4248085,3.4091673,-1.052138,0.7156696,-0.49893877,-0.7300554,0.42411482,-0.70084125,-0.47697482,0.62711376,0.3933574,0.72751796,-0.3328818,-1.6722308,-1.088792,2.429385,1.5855162,-0.9296821,0.7662672,-0.27245188,-1.7065113,-1.0310675,2.469373,1.527371,-0.9658039,-1.0751462,-1.3182616,0.853827,-1.2407594,-0.75814533,0.45421654,0.3211373,0.81889725,-0.48421097,1.6509072,-3.1949615,0.05589629,-1.8952061,0.10897064,-0.30225754,1.0532787,0.84631264,-0.20258126,0.18900193,0.45496598,-0.47865853,-0.7207383,-0.52964556,1.0,0.0,0.0,0.0,0.0,0.0,0.0,-1.4688972,0.08421096,-1.1009071,15.734315,-24.276138,16.266287,-1.9820452,5.0147057,-0.96761584,-0.08844137
7.367078,7.3994308,7.7599525,11.123632,1.6270872,-0.8831677,0.6240614,-0.36240664,-0.7536341,0.39625913,-0.70018244,-0.49771672,0.6190386,0.34399992,0.73002654,-0.34781528,-1.6668854,-1.1010858,2.4196012,1.5892749,-0.93140393,0.7570976,-0.2865796,-1.6977146,-1.0435663,2.462022,1.5318877,-0.9626625,-0.8651716,-1.4443607,0.88828385,-1.2528762,-0.7267727,0.4506196,0.3125202,0.78696823,-0.48365402,1.6312329,-3.1917672,0.055840403,-1.9914972,0.10419083,-0.30958557,1.0478367,0.8465203,-0.19793183,0.18666165,0.4575848,-0.48054874,-0.72825205,-0.5505857,1.0,0.0,0.0,0.0,0.0,0.0,0.0,-1.4369682,0.083654016,-1.0812328,20.721376,-12.639737,3.4505963,-1.1477232,3.241527,-0.43007135,-0.61835647
9.17195,21.205288,9.421942,11.076887,0.7273529,-1.0269063,0.34455717,-0.28625306,-0.7719199,0.2852542,-0.711715,-0.4592454,0.6098872,0.30772522,0.7284723,-0.36377162,-1.6691891,-1.1147379,2.4160976,1.5928763,-0.93189,0.75000894,-0.30134106,-1.6896179,-1.0561816,2.4549954,1.5363756,-0.9596365,-0.65823716,-1.4867804,0.7844466,-1.2641932,-0.6946105,0.44814178,0.29975757,0.75507736,-0.48309708,1.6105964,-3.188576,0.055784576,-2.0876918,0.099559784,-0.31695938,1.042176,0.84643185,-0.19335973,0.18369743,0.4608909,-0.45770898,-0.73067874,-0.5729849,1.0,0.0,0.0,0.0,0.0,0.0,0.0,-1.4050773,0.08309707,-1.0605965,20.258749,-4.2565107,-10.119295,-1.0481834,3.2224178,-0.22116303,-1.1090815
10.221938,28.268103,9.835884,10.379244,0.1460439,-1.21517,0.17362347,-0.17344606,-0.7797635,0.1733689,-0.7157041,-0.4483699,0.60404706,0.30294672,0.73266435,-0.3793174,-1.672281,-1.127752,2.4101584,1.5967803,-0.92934185,0.7449945,-0.3161559,-1.6832473,-1.068894,2.4482434,1.5408388,-0.9567383,-0.4509882,-1.4797645,0.5892602,-1.2732006,-0.6688793,0.44596228,0.28679574,0.723217,-0.48254013,1.5889987,-3.185388,0.0557288,-2.1837904,0.09528351,-0.3243599,1.0362709,0.8461919,-0.18869397,0.18053925,0.46449915,-0.419181,-0.7348965,-0.5983782,1.0,0.0,0.0,0.0,0.0,0.0,0.0,-1.373217,0.082540125,-1.0389986,20.18562,0.68809986,-19.067001,-0.82416534,2.50808,-0.17228127,-1.1986613
2.5358784,12.294285,0.19483352,7.7147665,0.26187614,-1.9332193,-0.1899508,-0.044796113,-0.79551196,-0.15130296,-0.7327445,-0.42968753,0.5821357,0.3164628,0.74051493,-0.3957071,-1.6983776,-1.1421685,2.4052746,1.5990524,-0.925092,0.742102,-0.3308115,-1.6801498,-1.0817438,2.4417279,1.5452563,-0.9539555,-0.2375984,-1.4611001,0.2194837,-1.2885404,-0.6466273,0.43973464,0.2752323,0.6913872,-0.48198318,1.5664407,-3.1822033,0.055673085,-2.2797928,0.09127045,-0.3321228,1.0299654,0.84609866,-0.18353228,0.1774977,0.46789697,-0.39444467,-0.7827618,-0.64383847,1.0,0.0,0.0,0.0,0.0,0.0,0.0,-1.3413872,0.08198318,-1.0164406,20.658049,1.7841101,-36.144882,-1.4324427,1.9738436,-0.8028388,-1.213181
2.501766,7.037467,-3.006741,3.4934897,-0.014336854,-2.3787694,-0.1988253,0.10504063,-0.79560333,-0.35905552,-0.76603025,-0.43808615,0.564473,0.38721794,0.7526061,-0.41037184,-1.7160554,-1.1583469,2.3979192,1.6017035,-0.9152337,0.74149644,-0.34526825,-1.6812618,-1.0948778,2.4353497,1.5495917,-0.95122606,-0.0041628266,-1.4409163,-0.21813975,-1.321558,-0.635852,0.43047228,0.2718847,0.65958786,-0.48142624,1.5429235,-3.1790216,0.055617422,-2.3756993,0.08754349,-0.3405342,1.0230771,0.8462922,-0.177519,0.1747405,0.47089526,-0.36316,-0.8526374,-0.70744765,1.0,0.0,0.0,0.0,0.0,0.0,0.0,-1.3095878,0.08142623,-0.99292344,22.563639,1.9074678,-42.774647,-3.2277584,0.78270435,-1.2692511,-0.4576862
3.2612684,8.695925,-1.897594,3.7451096,-0.07515672,-2.2095675,-0.12774652,0.16564353,-0.79807276,-0.44041866,-0.7707922,-0.47437814,0.55931365,0.40295407,0.7580608,-0.42507553,-1.7253036,-1.171957,2.3879118,1.605523,-0.91093063,0.74296224,-0.3595767,-1.6862857,-1.1083285,2.4289258,1.5538355,-0.94850427,0.19502428,-1.4278115,-0.59472793,-1.3526391,-0.6457215,0.42128077,0.27194256,0.62781906,-0.4808693,1.5184478,-3.1758432,0.05556182,-2.47151,0.08413696,-0.3495636,1.0155504,0.8467348,-0.17060186,0.17231008,0.4735444,-0.3309851,-0.9150151,-0.7726845,1.0,0.0,0.0,0.0,0.0,0.0,0.0,-1.277819,0.08086929,-0.96844774,19.35414,1.2042999,-36.94172,-3.023243,-1.23384,-1.2698054,-0.09652972
3.3841612,12.591199,0.47969174,5.9536405,-0.0035064518,-1.8054838,-0.048249,0.19653319,-0.798197,-0.5122765,-0.77772486,-0.50739825,0.5494676,0.43146357,0.76261556,-0.4393964,-1.7375134,-1.186101,2.378186,1.6087823,-0.9053579,0.7459787,-0.373806,-1.6943252,-1.1220461,2.4222767,1.5579916,-0.9457529,0.33624947,-1.4216675,-0.8722312,-1.3778477,-0.6721791,0.41276935,0.27595884,0.5960846,-0.48031235,1.4930148,-3.172668,0.055506267,-2.5672247,0.08101654,-0.3590927,1.0074216,0.84733075,-0.16290057,0.17019258,0.47595,-0.30256635,-0.95969737,-0.8324311,1.0,0.0,0.0,0.0,0.0,0.0,0.0,-1.2460846,0.08031234,-0.9430148,13.836241,0.51665306,-27.370083,-2.4098873,-2.8477669,-1.1523247,0.3350377
2.7778845,18.996746,4.1813955,10.271864,0.20129997,-1.1680365,0.010654226,0.18723755,-0.798807,-0.5189578,-0.7746362,-0.5435388,0.5545401,0.42022285,0.76470244,-0.4536867,-1.746221,-1.1995097,2.3679228,1.6134456,-0.90373063,0.7498344,-0.38801527,-1.7041595,-1.1359164,2.4152615,1.562081,-0.94296724,0.40213314,-1.421002,-1.0204405,-1.3897724,-0.71147954,0.40718922,0.27940345,0.56438446,-0.4797554,1.4666253,-3.1694958,0.05545077,-2.662844,0.078113556,-0.36886215,0.9988065,0.8479676,-0.1546649,0.1683377,0.47821766,-0.28225282,-0.9768989,-0.87828755,1.0,0.0,0.0,0.0,0.0,0.0,0.0,-1.2143844,0.079755396,-0.9166253,6.5994024,-0.021314621,-14.787996,-1.0541677,-4.1003585,-0.74679255,0.32290816
-0.66860294,22.53812,6.107156,15.109158,0.6385342,-0.56190014,0.0019201934,0.1319901,-0.799462,-0.50754964,-0.77998394,-0.54241025,0.5588852,0.43167046,0.76303345,-0.4679615,-1.7549145,-1.2139148,2.3610206,1.6179695,-0.8998002,0.7536987,-0.40224218,-1.7146461,-1.1498591,2.4079068,1.5661341,-0.94014055,0.38230526,-1.4235594,-1.0590062,-1.3951666,-0.74422485,0.40426013,0.28390583,0.53271484,-0.47919846,1.4392804,-3.166327,0.05539533,-2.7583673,0.075294495,-0.3786316,0.9898401,0.8485828,-0.14614394,0.16664481,0.48039424,-0.27903426,-0.9724511,-0.9103771,1.0,0.0,0.0,0.0,0.0,0.0,0.0,-1.1827148,0.07919845,-0.8892804,-1.6622126,-0.3475666,-4.1279078,-0.3483057,-3.46601,-0.38402677,0.46219826
-5.5642004,22.046032,5.6219616,18.690313,1.1665331,-0.20284131,-0.07302211,0.07762279,-0.80159104,-0.521949,-0.787431,-0.5103839,0.5358407,0.42610046,0.76146096,-0.48240128,-1.766841,-1.2286022,2.3568683,1.6197182,-0.8975305,0.75690114,-0.41651058,-1.7251251,-1.1638476,2.4003918,1.5701491,-0.93727475,0.30127183,-1.4282981,-1.0454899,-1.3992466,-0.7543273,0.40041897,0.28755352,0.50107574,-0.4786415,1.4109809,-3.1631613,0.055339947,-2.8537953,0.07234192,-0.38830948,0.9806142,0.8491945,-0.13746978,0.16498275,0.4824431,-0.29605976,-0.9600152,-0.93434817,1.0,0.0,0.0,0.0,0.0,0.0,0.0,-1.1510757,0.078641504,-0.8609809,-7.5678825,-0.58050156,0.90596676,-0.15406609,-1.2446761,-0.43008327,0.39538145
-11.025749,20.522743,4.4689455,21.927668,1.6530374,0.11760306,-0.16237359,-0.005423749,-0.8076287,-0.500894,-0.78953457,-0.50394726,0.54252076,0.43304825,0.75635874,-0.49727345,-1.7752144,-1.2428011,2.349997,1.6244011,-0.89396995,0.7589096,-0.43085098,-1.7352035,-1.1778647,2.3928654,1.5741373,-0.9343708,0.1697169,-1.4363621,-0.99727637,-1.4014446,-0.75275815,0.3980835,0.2914481,0.46946716,-0.4780922,1.3817279,-3.1599987,0.05528462,-2.949128,0.06907654,-0.3978157,0.9711916,0.84985197,-0.1287282,0.16324727,0.48428404,-0.33295497,-0.9421409,-0.9523812,1.0,0.0,0.0,0.0,0.0,0.0,0.0,-1.1194671,0.07809219,-0.8317279,-12.451762,-0.9298563,4.2459846,0.10008812,-0.11880398,-0.24700761,0.43184757
-10.608345,22.026033,5.1969333,21.683401,1.6935855,0.16705498,-0.13587952,-0.019313471,-0.81118286,-0.5087805,-0.7935026,-0.4837632,0.53654283,0.43137202,0.7569782,-0.51196927,-1.7860816,-1.2572149,2.344489,1.6277916,-0.8912336,0.7597078,-0.4452777,-1.7448356,-1.1919104,2.3854496,1.5781008,-0.93143255,0.05199763,-1.4451581,-0.9538594,-1.4045681,-0.73842645,0.395684,0.2948841,0.4378891,-0.47754288,1.3515223,-3.1568394,0.055229343,-3.0443652,0.06544876,-0.40713882,0.9615921,0.85055673,-0.1199525,0.16135342,0.48593172,-0.37005162,-0.9235602,-0.96975064,1.0,0.0,0.0,0.0,0.0,0.0,0.0,-1.0878891,0.07754287,-0.8015223,-11.133131,-0.9991884,3.8061142,0.0026464462,1.177597,-0.2538979,0.4095316
-10.453422,20.363003,4.008999,20.079424,1.618068,-0.021934211,-0.16007459,-0.033131037,-0.81631196,-0.5661631,-0.79654443,-0.48681435,0.491591,0.41600764,0.7563947,-0.5269089,-1.8014519,-1.2715648,2.3367682,1.6272599,-0.8898318,0.7595724,-0.45979786,-1.7544029,-1.2059923,2.378175,1.582007,-0.9284752,-0.03364087,-1.454691,-0.9591857,-1.4085609,-0.724994,0.38863042,0.29615504,0.40634155,-0.47699356,1.3203651,-3.1536832,0.055174127,-3.139507,0.061473846,-0.41636276,0.95176697,0.85133326,-0.1110549,0.15928955,0.4873656,-0.4047209,-0.91432756,-0.99386466,1.0,0.0,0.0,0.0,0.0,0.0,0.0,-1.0563415,0.076993555,-0.77036506,-8.032465,-1.0779619,-0.95436573,-0.08125305,1.0881066,-0.7730007,0.1817286
-10.251049,21.890755,4.335207,19.557579,1.4988841,0.0040133595,-0.1674315,-0.085303724,-0.81479794,-0.56520176,-0.8011953,-0.49953225,0.4976165,0.40025717,0.751042,-0.54127765,-1.8109231,-1.2861118,2.3282218,1.6317687,-0.8884495,0.7586521,-0.47438335,-1.7641361,-1.2201296,2.3709729,1.5858485,-0.9255217,-0.10993058,-1.460257,-0.9791497,-1.4144747,-0.71974146,0.38238826,0.29531634,0.37482834,-0.47644424,1.2882571,-3.15053,0.055118963,-3.234554,0.057167053,-0.4254837,0.9416808,0.8521928,-0.10197877,0.1571013,0.48855594,-0.43649262,-0.9042942,-1.0203793,1.0,0.0,0.0,0.0,0.0,0.0,0.0,-1.0248283,0.07644424,-0.7382571,-7.137677,-0.68113804,-2.380228,-0.27503967,0.27080774,-0.7064402,-0.036662817
-12.776247,19.294945,2.26879,19.43728,1.5369673,-0.05323541,-0.25157735,-0.12834978,-0.8207681,-0.619003,-0.79795325,-0.52655697,0.4700099,0.37924036,0.7458171,-0.55646014,-1.8260363,-1.299925,2.3183172,1.6328495,-0.8875976,0.7570108,-0.48902893,-1.7743347,-1.2343012,2.3637097,1.5896116,-0.92259485,-0.18057838,-1.4664553,-1.0344888,-1.4167664,-0.7295499,0.37372926,0.29183668,0.34334946,-0.47589493,1.2551993,-3.1473804,0.055063855,-3.329506,0.052516937,-0.43455887,0.9312869,0.85318226,-0.09264314,0.15486576,0.4894016,-0.4730523,-0.9002254,-1.052445,1.0,0.0,0.0,0.0,0.0,0.0,0.0,-0.99334943,0.07589492,-0.7051993,-6.5866528,-0.76138973,-5.8662653,0.11994839,-1.2652516,-0.99466443,-0.33005476
-13.678653,20.675837,2.5750933,19.831291,1.5638449,0.07193965,-0.26274085,-0.17505637,-0.82200634,-0.62787586,-0.7968932,-0.52772963,0.47454357,0.37083495,0.7395052,-0.5712296,-1.8371222,-1.3139905,2.3109367,1.637066,-0.88551134,0.7546495,-0.5037253,-1.7850845,-1.2484747,2.356332,1.5932966,-0.919709,-0.25300986,-1.4712052,-1.0894345,-1.416369,-0.74191886,0.36639085,0.2875889,0.3119011,-0.4753456,1.2211928,-3.1442335,0.055008803,-3.424363,0.047473907,-0.4435768,0.92057633,0.85431653,-0.08303422,0.15260571,0.4898572,-0.5119176,-0.89281034,-1.0840912,1.0,0.0,0.0,0.0,0.0,0.0,0.0,-0.96190107,0.075345606,-0.6711928,-6.771198,-0.62265396,-5.8146954,0.3979206,-1.5280604,-0.8677423,-0.40795207
-21.28628,16.84749,-0.6451607,22.139467,2.0424483,0.27062342,-0.4156931,-0.28324705,-0.82847095,-0.6533696,-0.8012509,-0.5178067,0.44664875,0.3203838,0.7263248,-0.5865724,-1.8504214,-1.3285998,2.3045514,1.6379615,-0.88767064,0.75125253,-0.5184853,-1.7963817,-1.262652,2.3488667,1.5968939,-0.91690046,-0.3665771,-1.4782832,-1.1445681,-1.4166157,-0.74930197,0.35700962,0.27857694,0.28048325,-0.4747963,1.1862384,-3.14109,0.054953802,-3.519125,0.04189682,-0.45251846,0.90954125,0.8556758,-0.07312584,0.15029465,0.48977846,-0.57277966,-0.8863985,-1.1168386,1.0,0.0,0.0,0.0,0.0,0.0,0.0,-0.9304832,0.07479629,-0.6362384,-10.759783,-0.89423656,-5.8885813,0.4213333,-1.0993242,-1.1078775,-0.89682937
-29.80283,13.465519,-3.9038625,24.860418,2.7151375,0.49090114,-0.5639041,-0.39572152,-0.83061004,-0.6817702,-0.80546147,-0.44043794,0.36491364,0.30220443,0.71168035,-0.6015463,-1.8645587,-1.3431982,2.304823,1.6333853,-0.88668,0.7463888,-0.5333159,-1.8082225,-1.2768446,2.3415806,1.6003424,-0.91419107,-0.5239303,-1.4853996,-1.1986675,-1.418452,-0.7233238,0.34006795,0.26845583,0.24909592,-0.47424698,1.1503371,-3.1379495,0.05489886,-3.6137922,0.035499573,-0.46141434,0.8981854,0.8573771,-0.06287351,0.14778444,0.48898995,-0.66089267,-0.8809634,-1.1487995,1.0,0.0,0.0,0.0,0.0,0.0,0.0,-0.8990959,0.07424697,-0.6003371,-15.007364,-0.94566345,-5.8370113,0.36001205,2.1570802,-1.9134045,-0.9994209
-34.83803,14.892127,-4.3436275,26.979416,3.0670514,0.83196473,-0.626597,-0.50072527,-0.8277876,-0.6865173,-0.8058782,-0.4066098,0.36816007,0.29853645,0.69631624,-0.61609465,-1.8768742,-1.3574325,2.3009195,1.6371584,-0.8843374,0.739735,-0.5481894,-1.820483,-1.2910544,2.3346684,1.6036326,-0.9115761,-0.70998347,-1.488825,-1.2369128,-1.4198625,-0.68179417,0.3244845,0.2592978,0.2177391,-0.47369766,1.1134899,-3.134812,0.054843973,-3.708365,0.028118134,-0.47019958,0.88654125,0.8594719,-0.0523076,0.14496122,0.48739937,-0.76435554,-0.86704665,-1.1764935,1.0,0.0,0.0,0.0,0.0,0.0,0.0,-0.8677391,0.07369766,-0.56348985,-17.80964,-0.60625076,-4.2864323,0.45785904,3.6685705,-1.7987907,-0.88543296
-38.56968,16.617065,-4.5751553,28.485798,3.2091289,1.1091421,-0.71004486,-0.60212415,-0.8301701,-0.71127063,-0.7991951,-0.42374814,0.38622546,0.19149528,0.6795226,-0.6312064,-1.89161,-1.3709738,2.2922935,1.6422551,-0.89242655,0.73113096,-0.56309056,-1.8331001,-1.3052412,2.3280842,1.606793,-0.9091223,-0.9078662,-1.4915434,-1.2715936,-1.416075,-0.6523987,0.31249103,0.24091578,0.18641281,-0.47314835,1.0756897,-3.131678,0.05478914,-3.8039083,0.01964569,-0.4787941,0.874634,0.8619939,-0.041482076,0.14182226,0.48490435,-0.87644553,-0.84499615,-1.2023679,1.0,0.0,0.0,0.0,0.0,0.0,0.0,-0.8364128,0.07314834,-0.52568966,-18.971848,-0.5625725,-3.9299488,1.0262966,2.4295688,-1.4713585,-1.806736
-37.30264,21.053144,-2.5322878,27.96337,3.2032313,1.2913958,-0.70166206,-0.6781669,-0.8262917,-0.7278022,-0.80230445,-0.3357186,0.381852,0.042804834,0.6633143,-0.6457197,-1.9058803,-1.3854717,2.2945123,1.6449783,-0.9048418,0.72065866,-0.5779898,-1.84603,-1.3193995,2.3219807,1.6098467,-0.9069508,-1.0912746,-1.4903424,-1.3014961,-1.4137446,-0.5980138,0.30210498,0.20945491,0.15511703,-0.47259903,1.0369346,-3.128547,0.054734364,-3.8993564,0.010059357,-0.48712158,0.86248845,0.8649374,-0.030466894,0.13826807,0.4814943,-0.98660177,-0.81499404,-1.2254622,1.0,0.0,0.0,0.0,0.0,0.0,0.0,-0.805117,0.07259902,-0.4869346,-17.589592,-0.17089844,-3.4106493,0.8692026,4.953158,-1.3293445,-3.0769646
-31.168695,27.741007,1.9959817,26.252419,3.0766196,1.4224031,-0.6063462,-0.72584337,-0.82930523,-0.7172822,-0.7995342,-0.1973201,0.37148058,-0.15873513,0.6480743,-0.6609203,-1.9177582,-1.3993529,2.3022487,1.6469948,-0.92282426,0.7086328,-0.5928824,-1.8591106,-1.333531,2.3167698,1.6128031,-0.90522367,-1.2376766,-1.4897391,-1.3116398,-1.4112309,-0.49657783,0.29274353,0.16090089,0.123851776,-0.4720497,0.9972259,-3.1254191,0.05467964,-3.994709,-0.0005187988,-0.49509048,0.85015756,0.86824745,-0.019402422,0.13405387,0.47728336,-1.0847952,-0.7766504,-1.2423695,1.0,0.0,0.0,0.0,0.0,0.0,0.0,-0.77385175,0.07204971,-0.44722587,-14.034486,-0.19857883,-1.3654947,0.8128166,9.746891,-1.2036324,-4.715067
-24.542671,34.74645,6.850043,25.106998,3.1247444,1.5477775,-0.5115098,-0.762889,-0.82682306,-0.7100147,-0.7850518,0.031362087,0.3947966,-0.31107506,0.63234395,-0.6755647,-1.9301121,-1.4120362,2.319906,1.6522827,-0.93633115,0.6954521,-0.60775495,-1.872174,-1.3475825,2.313165,1.6156985,-0.9040621,-1.343391,-1.4872458,-1.3054136,-1.4016519,-0.3160543,0.28757697,0.10198844,0.09262085,-0.4715004,0.9565643,-3.1222942,0.05462497,-4.089966,-0.012020111,-0.5026474,0.8377319,0.8718666,-0.008501494,0.12881358,0.4724229,-1.173824,-0.73222864,-1.2491641,1.0,0.0,0.0,0.0,0.0,0.0,0.0,-0.7426208,0.07150039,-0.4065643,-10.120487,0.031137466,0.35920143,1.4207125,17.765457,-0.7483125,-5.6668653
-16.281326,41.25024,11.642721,22.886702,2.7568643,1.563036,-0.37376532,-0.77282935,-0.82459176,-0.7091926,-0.7721545,0.15298724,0.41272515,-0.3642273,0.6181692,-0.6902141,-1.9430933,-1.4247979,2.3284636,1.656971,-0.9404848,0.68156755,-0.6225922,-1.8851268,-1.3614908,2.3115475,1.6185671,-0.9034813,-1.4025255,-1.4830618,-1.2925272,-1.3860635,-0.11071749,0.28615636,0.044342317,0.061424255,-0.47095108,0.91495085,-3.1191726,0.05457036,-4.1851273,-0.02425766,-0.5097275,0.8252767,0.8757042,0.0020706707,0.12236756,0.46708015,-1.2427413,-0.6832088,-1.2506243,1.0,0.0,0.0,0.0,0.0,0.0,0.0,-0.71142423,0.070951074,-0.36495084,-5.620599,0.25315285,1.1127234,1.9096375,20.367273,-0.31496882,-5.5116878
-10.149086,44.654068,14.089033,19.939981,1.9378924,1.4824663,-0.29163706,-0.7827661,-0.82234895,-0.7282791,-0.768085,0.0930046,0.4290657,-0.42952877,0.6032909,-0.70482713,-1.9579548,-1.4382993,2.320848,1.6614736,-0.9464342,0.6673435,-0.6373799,-1.8980434,-1.3752486,2.3114674,1.6214434,-0.90346795,-1.4284133,-1.4778026,-1.2916819,-1.371386,0.026301727,0.28771102,-0.012399456,0.030258179,-0.4704094,0.8723865,-3.116054,0.054515798,-4.2801933,-0.036987305,-0.516304,0.81276715,0.87965685,0.012311514,0.114959046,0.46134213,-1.2854348,-0.63124096,-1.2572248,1.0,0.0,0.0,0.0,0.0,0.0,0.0,-0.68025815,0.07040939,-0.3223865,-2.3921967,0.39801598,-0.04196167,1.753068,13.605351,0.031381845,-5.4752893
-4.7064466,49.37919,16.678413,17.772308,0.47668588,1.5079648,-0.22955337,-0.78292364,-0.8140155,-0.7429299,-0.73754066,-0.26391506,0.51046646,-0.44293582,0.5890511,-0.7187814,-1.9723364,-1.4490026,2.285076,1.67249,-0.94776154,0.6530403,-0.65208364,-1.9110458,-1.3887564,2.3112767,1.6244036,-0.9039791,-1.4304861,-1.4682012,-1.3036244,-1.3432838,-0.03463529,0.29887953,-0.06386304,-0.0008773804,-0.4698677,0.82887226,-3.1129386,0.054461293,-4.375165,-0.049850464,-0.5222893,0.80016065,0.88358295,0.022316713,0.107444316,0.45523494,-1.2882854,-0.56927377,-1.2677807,0.0,1.0,0.0,0.0,0.0,0.0,0.0,-0.6491226,0.0698677,-0.27887225,-0.08251667,0.86898804,-1.2962818,3.0295134,-6.140219,1.1030555,-5.103101
-3.0843542,49.357216,16.577044,16.14841,-0.3367744,1.4345222,-0.19598514,-0.7856818,-0.81722075,-0.7673989,-0.7191317,-0.4680947,0.5206561,-0.4656711,0.5744721,-0.7338057,-1.9877857,-1.4606695,2.2644672,1.6764692,-0.9505462,0.638892,-0.6666834,-1.9249476,-1.4021571,2.308984,1.6293334,-0.90452105,-1.3946356,-1.452822,-1.5096723,-1.3692826,-0.39029616,0.7888807,-0.013920744,-0.025184631,-0.46984482,0.80445194,-1.4314888,0.024750808,1.0189792,-0.062641144,-0.52744675,0.78717285,0.8872563,0.031711556,0.1010134,0.44896185,-1.2772824,-0.45388922,-1.3476484,0.0,1.0,0.0,0.0,0.0,0.0,0.0,-0.62481534,0.06984481,-0.25445193,6.4864874,2.3983955,-38.461327,-8.413625,-52.614166,96.77904,14.608007
76.1988,176.0,110.0,110.0,-3.2434144,12.25778,-0.743007,-0.7976098,0.53093845,0.66410035,0.74286896,-0.29082417,0.6229781,-0.4539096,0.559131,-0.6135895,-1.8585376,-1.3278701,2.2799015,1.6916312,-0.949912,0.63075715,-0.6822173,-1.9377431,-1.4024801,2.2940762,1.6474897,-0.90451,-0.6282837,-1.5861264,-1.1851064,0.41225335,-1.8415077,2.1469717,0.0011694966,-0.03899765,-0.4694748,0.8162364,-1.4300575,0.024726037,0.9187095,-0.07400894,-0.5295372,0.77780217,0.8900868,0.030655766,0.10279038,0.44298953,-1.0892305,-0.11352428,-0.7995572,1.0,0.0,0.0,0.0,0.0,0.0,0.0,-0.6110023,0.06947479,-0.26623636,74.62667,-12.974381,34.805775,176.81522,-143.78297,139.45303,0.36335033
-21.419096,151.34874,60.905636,100.72772,4.4794564,5.5600257,-1.6756331,-0.81022465,-0.553728,-0.2648019,0.77013385,-0.65040773,0.54865056,-0.058144823,0.5497347,-0.7375901,-1.9642233,-1.3254668,2.2290354,1.7023547,-0.9103245,0.6244114,-0.69686383,-1.9471558,-1.3912153,2.2741444,1.668955,-0.9044776,-0.63524336,-1.4254662,-0.8580489,1.3657371,-2.0469468,2.1533878,0.004192319,-0.053287506,-0.46923065,0.8246721,-1.4286278,0.024701316,0.81853986,-0.085289,-0.52970886,0.7729097,0.8931446,0.023281453,0.109007426,0.43573856,-1.1373383,0.025555016,-0.39221656,1.0,0.0,0.0,0.0,0.0,0.0,0.0,-0.59671247,0.069230646,-0.2746721,-0.2706647,15.640998,33.29635,95.66599,-21.515417,2.7175426,0.36425525
-41.427315,153.31987,46.926907,81.737335,4.549022,3.940808,-1.598965,-0.79942447,-0.30058727,-0.43652183,0.7420513,-0.6364041,0.5587892,0.3114911,0.54446894,-0.7269226,-1.990808,-1.3170102,2.210504,1.7248338,-0.8733285,0.61648923,-0.7084767,-1.9544381,-1.3739767,2.2548535,1.6890718,-0.90420103,-0.8417213,-1.0750388,-0.6857716,1.8442352,-1.8926393,1.968988,0.035211988,-0.06756592,-0.4689865,0.83210695,-1.4271996,0.02467662,0.71847034,-0.09719849,-0.52854156,0.77132255,0.89676905,0.013827033,0.11703189,0.4265179,-1.2047623,0.15372224,-0.09022503,1.0,0.0,0.0,0.0,0.0,0.0,0.0,-0.58243406,0.068986505,-0.28210694,-19.801176,34.502457,16.945887,48.200535,14.540768,-17.015076,3.0180552
-41.400517,141.64534,36.99511,58.01461,3.2334867,2.6681266,-1.1698055,-0.7978075,-0.16721706,-0.42321163,0.79137844,-0.6484417,0.5491972,0.2308866,0.5367085,-0.72519845,-1.9967593,-1.2948389,2.1900094,1.7439915,-0.8811124,0.6060236,-0.71619195,-1.9608258,-1.3547773,2.2381337,1.7069551,-0.90368605,-1.1130403,-0.67206633,-0.62450993,1.9455575,-1.6007764,1.7309077,0.055953365,-0.08182907,-0.46874237,0.8385389,-1.4257728,0.024651948,0.61810714,-0.109573364,-0.5261841,0.77192557,0.90081584,0.004347657,0.1259023,0.41552418,-1.2428033,0.2698062,0.101246834,1.0,0.0,0.0,0.0,0.0,0.0,0.0,-0.5681709,0.068742365,-0.28853887,-26.608288,39.782047,5.7493925,10.242724,28.460526,-23.018217,1.7767452
-35.62834,96.530655,18.865,33.471153,2.084008,1.0145704,-0.66247934,-0.7991206,-0.18705603,-0.51852083,0.7873643,-0.65544707,0.5754147,0.18638742,0.52611154,-0.73489755,-2.012678,-1.2760409,2.172589,1.7644966,-0.8850473,0.5932339,-0.7207591,-1.9675988,-1.3361578,2.224191,1.7225953,-0.90302134,-1.3337315,-0.38597322,-0.6955984,1.8339221,-1.3267151,1.5092937,0.06896321,-0.096076965,-0.46849823,0.8439679,-1.4243474,0.024627302,0.5178443,-0.122219086,-0.52305603,0.7734289,0.9050867,-0.0038291232,0.13492312,0.40323582,-1.2692,0.33558345,0.15961821,1.0,0.0,0.0,0.0,0.0,0.0,0.0,-0.553923,0.068498224,-0.2939679,-21.918129,28.264904,-7.3089004,-11.188507,26.97196,-21.87679,1.0016606
-26.770966,52.65976,4.865189,16.18653,1.3446113,-0.26174647,-0.23299658,-0.80323267,-0.22574171,-0.57534987,0.78517234,-0.6586058,0.5870504,0.16703293,0.5129106,-0.7433333,-2.0251338,-1.2576406,2.1583304,1.7813004,-0.886318,0.57888013,-0.7236611,-1.9755791,-1.3191805,2.2124493,1.736252,-0.90226126,-1.4692914,-0.25878978,-0.8322258,1.6520221,-1.1241785,1.317859,0.077720955,-0.1103096,-0.4682541,0.8483951,-1.4229234,0.02460268,0.41768166,-0.13513565,-0.51965714,0.7747886,0.9094245,-0.010065489,0.14356658,0.39017224,-1.2938255,0.35115424,0.12324885,1.0,0.0,0.0,0.0,0.0,0.0,0.0,-0.5396904,0.06825408,-0.2983951,-13.537121,12.54388,-13.736069,-18.241905,19.991636,-19.090033,0.66982806
-17.606806,25.26772,-1.567794,7.595051,0.93973774,-0.94575,0.053008102,-0.8014105,-0.2508886,-0.6136153,0.78757364,-0.6633078,0.5988317,0.20525885,0.49873906,-0.74875,-2.0369406,-1.2404231,2.1461186,1.7961351,-0.8817354,0.5637892,-0.7262303,-1.9849995,-1.3038568,2.202142,1.7482358,-0.9013963,-1.5222697,-0.25645804,-0.9788653,1.4924321,-1.0003881,1.1584369,0.089117706,-0.12452698,-0.46800995,0.8518214,-1.4215009,0.024578081,0.31761914,-0.14829254,-0.516346,0.775442,0.913717,-0.014300741,0.15155478,0.37675983,-1.3179867,0.33496532,0.042798243,1.0,0.0,0.0,0.0,0.0,0.0,0.0,-0.525473,0.06800994,-0.3018214,-5.269313,0.16446114,-14.697302,-15.960264,12.20715,-15.95304,1.0218098
-14.354533,7.9168205,-5.428137,5.1965876,1.0103467,-1.1874862,0.14245139,-0.81060314,-0.3019345,-0.6568909,0.7836237,-0.6619248,0.6041344,0.20317684,0.48272887,-0.7564238,-2.0506887,-1.2254945,2.1359496,1.8086493,-0.8810786,0.54853994,-0.7294499,-1.9957741,-1.289712,2.1926167,1.7588369,-0.9004245,-1.5255653,-0.34381908,-1.1105835,1.3890146,-0.9367945,1.027134,0.09983967,-0.1387291,-0.4677658,0.8542478,-1.4200797,0.024553508,0.2176567,-0.16176605,-0.5133133,0.775158,0.9179234,-0.016756171,0.15876618,0.36322045,-1.35288,0.30347985,-0.05429788,1.0,0.0,0.0,0.0,0.0,0.0,0.0,-0.5112709,0.0677658,-0.3042478,-0.23257732,-8.755165,-13.235164,-10.227656,6.2770844,-13.1665945,1.0416806
-12.73215,4.947204,-4.727622,6.6101713,1.122092,-1.0454926,0.15769535,-0.8153537,-0.3425722,-0.6857544,0.78158176,-0.6667579,0.6190681,0.22940367,0.46700457,-0.76370716,-2.0643497,-1.2115538,2.1259408,1.8207437,-0.8774841,0.53342897,-0.7338206,-2.007624,-1.2761717,2.1834157,1.7683126,-0.89933443,-1.505764,-0.4682836,-1.20975,1.3431184,-0.91507363,0.92069215,0.112152606,-0.15291595,-0.46752167,0.85567534,-1.4186598,0.02452896,0.11779419,-0.17562103,-0.51057816,0.7739546,0.92202604,-0.017772827,0.16523065,0.34964383,-1.3916798,0.2748273,-0.14410111,1.0,0.0,0.0,0.0,0.0,0.0,0.0,-0.49708402,0.06752166,-0.30567533,2.1032572,-12.470799,-9.961677,-4.3845177,2.113974,-10.692013,1.2460575
-5.273238,26.318386,5.4095197,10.676024,0.8130405,-0.5215691,0.19504172,-0.80305266,-0.308039,-0.6753777,0.78023726,-0.664468,0.6356674,0.23736314,0.4531237,-0.76462454,-2.0751617,-1.198148,2.1169689,1.8318793,-0.87559813,0.5186108,-0.73910683,-2.0200484,-1.2627897,2.1742642,1.7768804,-0.898129,-1.4738305,-0.5489787,-1.2531148,1.3369137,-0.91578513,0.83556354,0.12314848,-0.16709518,-0.46727753,0.856105,-1.4172413,0.024504436,0.01803152,-0.18964767,-0.5079727,0.7721567,0.92595327,-0.017784394,0.17122494,0.33611915,-1.4021219,0.26866472,-0.19358814,1.0,0.0,0.0,0.0,0.0,0.0,0.0,-0.4829048,0.06727752,-0.30610502,3.2066584,-8.151603,-4.1899443,-0.48847198,-0.27276278,-8.536553,1.054369
-5.6591454,31.956306,7.719386,13.073793,0.95204586,-0.24913532,0.16075374,-0.8051664,-0.36202332,-0.6907265,0.78124785,-0.6565437,0.6374548,0.23894775,0.43809414,-0.77530915,-2.089121,-1.184665,2.10861,1.8406259,-0.8742342,0.5040644,-0.7451512,-2.032694,-1.2493067,2.1650631,1.7847177,-0.8968253,-1.4481847,-0.623391,-1.2679155,1.352642,-0.92276543,0.76632434,0.13265039,-0.18125916,-0.4670334,0.8555378,-1.4158243,0.024479937,-0.081631415,-0.20376587,-0.5053444,0.7699719,0.9296813,-0.01709114,0.17689274,0.32266003,-1.4112916,0.2727179,-0.22883546,1.0,0.0,0.0,0.0,0.0,0.0,0.0,-0.46874082,0.06703338,-0.30553776,2.565074,-7.5499177,-1.2807846,1.7184258,-0.9349108,-6.9553256,0.90750456
-1.3196044,47.82886,14.186573,15.267224,0.7113209,0.105376005,0.1981368,-0.7909763,-0.34646362,-0.6771126,0.77963084,-0.6694229,0.6647626,0.2699772,0.42496675,-0.77979755,-2.1004055,-1.1713436,2.098121,1.8511939,-0.86982757,0.48976022,-0.7516286,-2.0452673,-1.2356348,2.1557324,1.791979,-0.89541864,-1.4247465,-0.65640515,-1.2527335,1.372026,-0.9374547,0.71275234,0.14299704,-0.19540787,-0.46678925,0.85397464,-1.4144087,0.024455462,-0.18119471,-0.21781921,-0.5025673,0.767616,0.93316096,-0.015917458,0.18243177,0.3093152,-1.3987908,0.2915985,-0.24006307,1.0,0.0,0.0,0.0,0.0,0.0,0.0,-0.4545921,0.06678924,-0.30397463,2.2613287,-3.4472823,1.8536329,1.9963026,-1.8221617,-5.368471,0.92945397
-1.3656738,47.805676,14.238056,14.93972,0.76317734,0.19251895,0.19682378,-0.78525424,-0.39337566,-0.6652056,0.77685547,-0.66182446,0.67498994,0.23554222,0.4112348,-0.79096615,-2.1117878,-1.1579492,2.08955,1.859478,-0.87186444,0.47564632,-0.7584569,-2.0575736,-1.2218103,2.146291,1.7987882,-0.89394426,-1.4072777,-0.692182,-1.2222757,1.3861673,-0.94778425,0.670372,0.14864048,-0.20954132,-0.4665451,0.8514251,-1.4129945,0.02443101,-0.27953526,-0.23173904,-0.49957657,0.76515234,0.9363834,-0.014397015,0.18786064,0.2961202,-1.3862702,0.31284416,-0.2508256,1.0,0.0,0.0,0.0,0.0,0.0,0.0,-0.44045866,0.0665451,-0.3014251,1.6610861,-3.721559,3.390336,1.4750719,-1.393187,-4.2565227,0.4729092
-0.030195236,43.340992,12.906311,12.851019,0.6925574,0.0902164,0.25078365,-0.76054555,-0.4416475,-0.6642579,0.77310646,-0.6690041,0.6777638,0.27264825,0.39959174,-0.80262166,-2.1239994,-1.1444997,2.0793905,1.8665645,-0.86667943,0.4617589,-0.7657544,-2.0695937,-1.2079096,2.1367543,1.8052369,-0.8923955,-1.3828243,-0.7427612,-1.1939903,1.3914557,-0.95702296,0.6363156,0.15674259,-0.22365952,-0.46630096,0.8478929,-1.4115818,0.024406586,-0.37777746,-0.24554825,-0.49641418,0.76250416,0.9393531,-0.012556292,0.19310263,0.2831418,-1.3745368,0.32880393,-0.27185315,1.0,0.0,0.0,0.0,0.0,0.0,0.0,-0.42634046,0.06630096,-0.29789287,2.3615122,-5.180645,3.150773,0.5996704,-1.2508154,-3.4270167,0.73999465
1.2547874,37.00476,11.158549,10.717363,0.67472893,-0.040879607,0.28860262,-0.73465043,-0.49846452,-0.64727604,0.7796362,-0.67426306,0.6879109,0.28042626,0.38829386,-0.8156009,-2.1343212,-1.129946,2.069328,1.874028,-0.8643529,0.44818813,-0.77373093,-2.0813239,-1.193965,2.1271298,1.8113996,-0.89076567,-1.3487458,-0.81632847,-1.1647675,1.3957516,-0.96479774,0.60955006,0.16502175,-0.23776245,-0.46605682,0.84337896,-1.4101704,0.024382183,-0.47592145,-0.25926208,-0.49314117,0.75956094,0.94208395,-0.010417766,0.19804832,0.27045518,-1.3664479,0.33818525,-0.3041657,1.0,0.0,0.0,0.0,0.0,0.0,0.0,-0.41223752,0.06605682,-0.29337895,3.3339262,-7.455766,3.211975,0.5270481,-1.0570168,-2.7043223,0.79541206
10.175781,32.55994,12.312511,6.693551,0.3897049,-0.283589,0.42675063,-0.6661444,-0.57306653,-0.6007549,0.7837037,-0.6720115,0.6980346,0.2770585,0.38157368,-0.8310376,-2.1413994,-1.1155946,2.0599287,1.881203,-0.8630598,0.4352172,-0.7826678,-2.0926154,-1.1799803,2.1174557,1.817341,-0.88906145,-1.2803465,-0.91972005,-1.1160704,1.3996273,-0.96889806,0.5888882,0.17227387,-0.25185013,-0.46581268,0.8378712,-1.4087605,0.024357807,-0.57572484,-0.27282715,-0.48987198,0.75621855,0.94457376,-0.00809072,0.2025368,0.25825107,-1.3488213,0.33432502,-0.3468737,1.0,0.0,0.0,0.0,0.0,0.0,0.0,-0.39814985,0.06581268,-0.28787118,6.709099,-10.400545,5.201292,0.4556656,-0.67818165,-2.0907283,0.7313907
10.958625,20.616846,7.856084,2.8691702,0.20000058,-0.64931273,0.4715097,-0.6174152,-0.6491589,-0.6572178,0.7775573,-0.67916936,0.6690811,0.3578151,0.37347567,-0.8475837,-2.158337,-1.1022246,2.0495389,1.8842491,-0.85327995,0.42307645,-0.79281586,-2.1037657,-1.1659956,2.1077435,1.8230821,-0.88723135,-1.1923454,-1.04663,-1.1136932,1.3986484,-0.97237396,0.5690459,0.1867465,-0.26593018,-0.46556854,0.8313661,-1.4073521,0.024333453,-0.6754284,-0.2862816,-0.48675156,0.7522642,0.9468525,-0.005460043,0.20644978,0.24661484,-1.340107,0.3150726,-0.41449773,1.0,0.0,0.0,0.0,0.0,0.0,0.0,-0.3840698,0.06556854,-0.2813661,8.691931,-12.725412,0.481987,0.022053719,-0.5107045,-2.038765,1.4868915
16.150356,24.28644,9.66474,1.6748433,-0.105832726,-0.74404925,0.52114004,-0.5526969,-0.67775345,-0.6616816,0.78179246,-0.6830431,0.65634054,0.40188375,0.36780676,-0.86059123,-2.1699338,-1.0878164,2.0394392,1.8887161,-0.847043,0.41195852,-0.80411595,-2.1150267,-1.1520128,2.0979931,1.8286382,-0.88523245,-1.0854454,-1.1578723,-1.1289322,1.3985145,-0.97628367,0.5509014,0.20425747,-0.27999496,-0.4653244,0.82386476,-1.4059451,0.024309125,-0.7750323,-0.29956436,-0.48386383,0.7476437,0.9489246,-0.002454534,0.20982768,0.23560233,-1.3199533,0.29030594,-0.4811726,1.0,0.0,0.0,0.0,0.0,0.0,0.0,-0.370005,0.065324396,-0.27386475,10.526228,-11.166263,-1.2261391,0.06606579,-0.57919025,-1.8831491,1.7642498
17.970108,22.952814,8.9526615,-0.19033957,-0.31262606,-0.8766025,0.5587151,-0.49776605,-0.73383915,-0.6934249,0.7587468,-0.66593856,0.61404693,0.44619912,0.3621819,-0.8774999,-2.184369,-1.0761381,2.0313993,1.8900429,-0.84061253,0.40194875,-0.8164727,-2.1266234,-1.1381388,2.0882657,1.8339998,-0.88303995,-0.97342867,-1.2618032,-1.1690452,1.383971,-0.97217405,0.5310249,0.22430195,-0.2940445,-0.46508026,0.8153681,-1.4045395,0.024284821,-0.8745366,-0.3126335,-0.4812622,0.742301,0.95080405,0.001019545,0.21267585,0.2252541,-1.297774,0.25942868,-0.55586433,1.0,0.0,0.0,0.0,0.0,0.0,0.0,-0.35595548,0.065080255,-0.2653681,11.022032,-10.437942,-3.7225246,-1.3759613,0.23556948,-2.0884156,2.0109863
23.03021,30.584614,11.937559,-0.6052513,-0.60979277,-0.86202085,0.5968988,-0.42730683,-0.75480735,-0.71111083,0.7455713,-0.6710042,0.5962625,0.4424517,0.35921806,-0.89195347,-2.1977344,-1.0635816,2.0211651,1.893626,-0.83879477,0.3931182,-0.82966584,-2.1386702,-1.1244745,2.0785687,1.8391687,-0.8806701,-0.8537396,-1.3386844,-1.2156126,1.3606167,-0.96967626,0.511841,0.24103844,-0.30807877,-0.46483612,0.80587715,-1.4031353,0.024260541,-0.97394145,-0.32536316,-0.47898483,0.7362669,0.9524842,0.0050012628,0.21507981,0.21561418,-1.2604227,0.22632805,-0.62361693,1.0,0.0,0.0,0.0,0.0,0.0,0.0,-0.3419212,0.064836115,-0.25587714,11.732662,-7.749748,-4.295063,-2.3218155,0.010919571,-2.0327687,1.6307324
46.719555,43.745342,21.797804,-5.54554,-1.5451063,-1.0021269,0.8663345,-0.26986742,-0.7785584,-0.6702805,0.716245,-0.6654329,0.6072757,0.43189222,0.36613145,-0.90752167,-2.2056983,-1.05285,2.0120254,1.8998963,-0.83748084,0.38592035,-0.84346074,-2.1508925,-1.111165,2.0688984,1.8441736,-0.8781657,-0.67659235,-1.3932886,-1.2222587,1.320407,-0.9674062,0.49644035,0.25316492,-0.32209778,-0.46459198,0.79539293,-1.4017324,0.024236286,-1.0732468,-0.3373642,-0.47717285,0.7296625,0.95389813,0.009317782,0.21711148,0.20701234,-1.1750205,0.17398892,-0.67722523,1.0,0.0,0.0,0.0,0.0,0.0,0.0,-0.3279022,0.064591974,-0.24539292,17.263031,-5.5083513,-0.037527084,-4.240966,-0.19198656,-1.6600966,1.0933936
41.24801,47.92737,21.351566,-2.7922993,-1.2227144,-0.86798656,0.7643304,-0.25853392,-0.7949268,-0.68505543,0.6904232,-0.6447518,0.54887265,0.41184282,0.36006695,-0.9229534,-2.219398,-1.0421227,2.0044231,1.8990608,-0.8369814,0.38024122,-0.85766095,-2.1631339,-1.098321,2.0593045,1.849001,-0.8755746,-0.53297913,-1.4291472,-1.2228391,1.2718576,-0.95796627,0.47763148,0.2607116,-0.33610153,-0.46434784,0.78391635,-1.4003309,0.024212055,-1.172453,-0.34856796,-0.47583008,0.7225864,0.95506424,0.013899426,0.21880855,0.19945374,-1.0972221,0.12871878,-0.72242314,1.0,0.0,0.0,0.0,0.0,0.0,0.0,-0.31389844,0.06434783,-0.23391634,13.975239,-3.6636353,0.52399635,-5.0299406,0.50212145,-2.0277798,0.6379187
30.88839,51.285107,19.653038,1.4329009,-0.64990443,-0.6244404,0.60964894,-0.24402606,-0.8042732,-0.6782736,0.66350734,-0.6195421,0.5233378,0.4002288,0.3558386,-0.9380883,-2.2309613,-1.0319703,1.9973502,1.9013349,-0.83555174,0.3756426,-0.8721072,-2.1753066,-1.0859919,2.0498784,1.8536378,-0.872931,-0.4364333,-1.4500728,-1.2138441,1.2196751,-0.93919784,0.4584724,0.26529145,-0.35009766,-0.4641037,0.7714485,-1.3989308,0.024187848,-1.2715601,-0.3591156,-0.47481155,0.71512866,0.956042,0.01871644,0.220187,0.1927463,-1.035054,0.0984412,-0.75833136,1.0,0.0,0.0,0.0,0.0,0.0,0.0,-0.29990232,0.06410369,-0.22144848,9.369528,-2.1991491,1.4014482,-5.3165197,1.4359117,-2.072525,0.3592372
16.393686,53.086067,16.623934,6.60122,0.10275257,-0.31876075,0.4092595,-0.2497134,-0.811303,-0.66397756,0.6377407,-0.59050316,0.5102901,0.37808418,0.35067126,-0.95323753,-2.2417042,-1.0222178,1.990828,1.9046668,-0.8351226,0.37158996,-0.88668984,-2.1873229,-1.0741777,2.0407078,1.8580915,-0.87026644,-0.39537016,-1.4614547,-1.196338,1.168712,-0.910685,0.44054484,0.2666739,-0.36407852,-0.46385956,0.75799024,-1.3975321,0.024163665,-1.3705679,-0.3692093,-0.473938,0.70737255,0.9568968,0.023732549,0.22125244,0.18663499,-0.9956555,0.08841104,-0.7861345,1.0,0.0,0.0,0.0,0.0,0.0,0.0,-0.28592145,0.06385955,-0.20799023,3.9440334,-1.269722,2.1435022,-5.0916195,2.4384022,-1.944536,0.070887804
-8.466812,53.444225,10.763332,14.875662,1.3051283,0.12016016,0.08600277,-0.31934583,-0.81320757,-0.6578095,0.63008606,-0.55073386,0.48306754,0.372366,0.33965537,-0.9680106,-2.2531037,-1.0111692,1.9856344,1.9063982,-0.83302987,0.36734754,-0.90133256,-2.1991599,-1.0627661,2.0319111,1.8623658,-0.8675952,-0.4338438,-1.465763,-1.1790851,1.1327058,-0.870251,0.42277983,0.2672313,-0.37804413,-0.46361542,0.7435427,-1.3961349,0.024139507,-1.4694768,-0.3792038,-0.47291946,0.69940513,0.95771587,0.028935088,0.22200564,0.18071143,-0.9958771,0.111154065,-0.8049505,0.0,1.0,0.0,0.0,0.0,0.0,0.0,-0.27195585,0.06361541,-0.19354266,-3.829521,-0.5971432,1.9479275,-3.4246445,3.7032366,-1.9074976,0.04197955
-20.97124,51.264126,7.011901,17.213795,1.8239174,0.31903476,-0.02926173,-0.35712448,-0.81854147,-0.6550422,0.5722726,-0.4826715,0.42767733,0.36025077,0.3316351,-0.9831867,-2.2646642,-1.0055388,1.983644,1.9051336,-0.83157015,0.3624037,-0.9160077,-2.2108595,-1.0518446,2.0236714,1.8664418,-0.86492777,-0.5141739,-1.468722,-1.166606,1.0794559,-0.80926895,0.4019546,0.26667997,-0.39199448,-0.46337128,0.7281068,-1.394739,0.024115372,-1.5682869,-0.3893547,-0.4715538,0.6912243,0.95856667,0.03435774,0.2223499,0.17472848,-1.0157048,0.1501385,-0.8269818,0.0,1.0,0.0,0.0,0.0,0.0,0.0,-0.2580055,0.06337127,-0.17810678,-7.9288187,-0.47123432,1.3677359,-5.0628424,5.8070183,-2.2230685,-0.028133392
-16.402876,58.226032,10.355669,18.579943,1.9913057,0.3970764,-0.060700066,-0.3346358,-0.81715316,-0.61689365,0.6002392,-0.41675672,0.45304993,0.38338867,0.32894012,-0.997723,-2.272549,-0.9918207,1.9819957,1.9117469,-0.8265889,0.35685453,-0.9306916,-2.2226245,-1.0413744,2.0162086,1.8703924,-0.8623321,-0.56870943,-1.4689281,-1.1771,1.0387354,-0.7172882,0.3949572,0.26105377,-0.40353775,-0.46097946,0.72293764,-1.0433261,0.25518262,-0.27641773,-0.39966583,-0.46982193,0.6828226,0.9594673,0.03995366,0.22224255,0.16862519,-1.0317882,0.18691678,-0.84733737,0.0,1.0,0.0,0.0,0.0,0.0,0.0,-0.24646223,0.060979456,-0.17293763,-5.9407473,-0.20623207,3.2450914,-1.9107342,7.34967,-1.8476129,0.19488335
-41.411247,70.75585,8.7655945,31.328796,3.47939,1.0781794,-0.45413595,-0.49160174,-0.79415494,-0.5392294,0.6758435,-0.4124169,0.45908993,0.40944108,0.30769435,-1.010107,-2.2765474,-0.9737901,1.974967,1.9163015,-0.821388,0.35016927,-0.9452628,-2.2338398,-1.0306685,2.0095139,1.8742548,-0.85968757,-0.7012553,-1.4540054,-1.1026353,1.0823519,-0.6549364,0.38295692,0.26588577,-0.41396332,-0.45843124,0.7194234,-1.042283,0.25492752,-0.37642053,-0.4103508,-0.46738052,0.6746084,0.9604473,0.045331888,0.22186406,0.16205597,-1.0753818,0.26916564,-0.81700486,0.0,1.0,0.0,0.0,0.0,0.0,0.0,-0.23603666,0.058431238,-0.1694234,-13.086557,1.2573242,7.6341867,4.712224,5.880356,-1.303786,0.5595565
-33.69764,82.027565,14.311878,32.58579,3.4542491,1.2516675,-0.4191085,-0.49343812,-0.78579926,-0.45704472,0.69487864,-0.41215876,0.50049406,0.4378939,0.30082545,-1.0238427,-2.279544,-0.9611806,1.968298,1.9243042,-0.8158982,0.3423048,-0.95964324,-2.2439067,-1.0193236,2.0032768,1.8780428,-0.8569658,-0.8145026,-1.433503,-0.97317654,1.1528108,-0.6150446,0.37716714,0.2744561,-0.42437744,-0.45588303,0.71490985,-1.0412409,0.25467265,-0.47632343,-0.42133713,-0.46411514,0.666866,0.9614706,0.050208464,0.22143589,0.15498248,-1.0997125,0.35105327,-0.76377904,0.0,1.0,0.0,0.0,0.0,0.0,0.0,-0.22562253,0.05588302,-0.16490984,-11.230862,1.820159,13.268339,7.3115587,3.5543084,-0.6515503,0.9160757
-14.749804,86.01148,19.78012,27.160164,2.6331267,1.0920134,-0.1890735,-0.47921488,-0.7814578,-0.37839836,0.6821381,-0.4221236,0.5027734,0.43366927,0.29438332,-1.037789,-2.2817466,-0.95110977,1.9610645,1.9283202,-0.8135989,0.33366737,-0.9738263,-2.252444,-1.0074027,1.9972402,1.881785,-0.85416865,-0.88023686,-1.4138752,-0.8125089,1.2056288,-0.6014537,0.37311846,0.2815123,-0.43478012,-0.45333862,0.70939803,-1.0402,0.25441802,-0.57612634,-0.4323082,-0.4602089,0.659664,0.96247727,0.05442893,0.22104234,0.1476993,-1.0904986,0.41039822,-0.70933604,0.0,1.0,0.0,0.0,0.0,0.0,0.0,-0.21521986,0.053338617,-0.15939802,-6.5938115,1.767993,16.520357,5.405426,0.84331036,-0.4487276,0.71825385
-6.8786507,80.68133,18.972284,22.348991,1.8869691,0.8046821,-0.041443482,-0.49522308,-0.77668184,-0.38390133,0.6870788,-0.45952725,0.5017174,0.45507804,0.28414506,-1.0514945,-2.2908342,-0.9386948,1.9512875,1.9319568,-0.80866086,0.32460555,-0.9878396,-2.2597034,-0.9950991,1.9911329,1.8854948,-0.8512943,-0.91499835,-1.3976974,-0.69567984,1.238862,-0.6152439,0.37008652,0.28930125,-0.44517517,-0.45079803,0.7028889,-1.03916,0.25416365,-0.6758295,-0.44309998,-0.4558525,0.652861,0.96341515,0.058175385,0.22075537,0.14040595,-1.0694755,0.45099783,-0.6740459,0.0,1.0,0.0,0.0,0.0,0.0,0.0,-0.2048248,0.05079803,-0.1528889,-3.5262585,1.4465809,12.117041,3.4164429,-1.8546104,-0.33745766,0.7563114
9.831238,77.5289,21.19089,15.551441,0.9941217,0.4593018,0.19061793,-0.46283644,-0.77204204,-0.32429904,0.67376566,-0.46478868,0.47734243,0.47773525,0.27832192,-1.0650438,-2.2921333,-0.9277226,1.944654,1.9332291,-0.80352074,0.3155466,-1.0017201,-2.2659137,-0.9826823,1.9848291,1.8891608,-0.848335,-0.9033172,-1.3852426,-0.5943792,1.2426155,-0.6372313,0.36532483,0.29783878,-0.45555878,-0.44825745,0.69538355,-1.038121,0.25390956,-0.77543306,-0.45350647,-0.45129013,0.64630586,0.964247,0.06159744,0.22055909,0.13336878,-1.025778,0.4645777,-0.6526466,0.0,1.0,0.0,0.0,0.0,0.0,0.0,-0.1944412,0.04825744,-0.14538354,1.032567,1.1025906,10.641408,0.36895275,-2.7226925,-0.50264,0.78427196
8.901942,69.66623,17.910368,13.082361,0.7545468,0.2473602,0.22293526,-0.4784417,-0.77471817,-0.3261242,0.6703386,-0.46301985,0.46571207,0.49170256,0.26770243,-1.0791919,-2.298526,-0.91564846,1.9385271,1.935732,-0.7991648,0.30664405,-1.0155312,-2.2714603,-0.9703427,1.9783288,1.8927733,-0.845289,-0.8862954,-1.3802762,-0.5398539,1.2312012,-0.6556888,0.35969967,0.30676872,-0.46593094,-0.44572067,0.68688285,-1.0370831,0.2536557,-0.87493694,-0.46351624,-0.4466362,0.6398213,0.9649724,0.06489584,0.22039613,0.12665845,-0.98851097,0.4710346,-0.65026927,0.0,1.0,0.0,0.0,0.0,0.0,0.0,-0.18406904,0.045720667,-0.13688284,1.5905738,0.36599636,5.874157,-1.1111498,-2.285421,-0.60337186,0.8337438
-6.3311653,60.167305,10.33832,14.25711,0.89829147,0.0741176,0.12203922,-0.51415455,-0.763848,-0.4260188,0.6656998,-0.45037124,0.3530336,0.54608166,0.2552286,-1.091916,-2.314062,-0.9037727,1.9332917,1.9280766,-0.7906808,0.2977477,-1.0292774,-2.2772167,-0.9581633,1.9717332,1.8962466,-0.8421209,-0.8907819,-1.3731762,-0.5866504,1.2141151,-0.66167367,0.34309164,0.32011423,-0.47629547,-0.4431877,0.6773879,-1.0360463,0.25340208,-0.97434133,-0.4733734,-0.44186783,0.6331829,0.9656035,0.068513855,0.2202193,0.12007937,-0.9777129,0.48537076,-0.671339,0.0,1.0,0.0,0.0,0.0,0.0,0.0,-0.1737045,0.043187708,-0.12738788,-0.46910048,0.5779505,-4.4745326,-1.5590191,-0.8469343,-1.7341852,1.2948334
2.0721872,59.95594,12.085401,11.458233,0.71561337,-0.071400344,0.19799101,-0.47220343,-0.76490366,-0.38136,0.6442008,-0.38995343,0.28066266,0.5519613,0.25052735,-1.1057678,-2.3153527,-0.8937432,1.9327378,1.9243128,-0.7869248,0.28896007,-1.042976,-2.2834003,-0.94623667,1.9652978,1.8995043,-0.83882403,-0.8749865,-1.3690748,-0.6280811,1.1857272,-0.63851196,0.31974465,0.33272463,-0.48664856,-0.44065475,0.6668996,-1.0350103,0.25314873,-1.0736464,-0.4830551,-0.43701935,0.6263269,0.9661637,0.07250981,0.21989094,0.11365738,-0.9591943,0.48923895,-0.693309,0.0,1.0,0.0,0.0,0.0,0.0,0.0,-0.16335142,0.04065475,-0.11689961,1.5128255,0.28719902,-3.8699985,-2.7460575,2.0148396,-2.4341285,1.211983
-7.605831,55.16131,8.690934,12.44042,1.2714125,-0.09810877,0.09046364,-0.5146522,-0.77056307,-0.41396174,0.60838425,-0.23481502,0.084812395,0.5575891,0.23749486,-1.1200323,-2.3247964,-0.88539827,1.9418163,1.9079856,-0.78306514,0.28013393,-1.056677,-2.2901168,-0.93472385,1.9595661,1.902385,-0.8354099,-0.88408494,-1.3708732,-0.6955986,1.1355233,-0.5585954,0.27172133,0.34225056,-0.4969597,-0.43798447,0.65594023,-0.9823301,0.34683082,-0.73668164,-0.49270248,-0.43206024,0.61920035,0.9667341,0.07687013,0.21909809,0.10729496,-0.9614041,0.5019998,-0.7260294,0.0,1.0,0.0,0.0,0.0,0.0,0.0,-0.15304029,0.03798446,-0.10594022,-0.7911086,-0.31194687,-7.7846766,-5.431652,6.8935037,-5.6068897,0.71234703
-5.476901,66.219444,12.464327,14.809414,1.7220199,-0.02982086,0.032888528,-0.5151568,-0.7391814,-0.37205788,0.59388924,-0.12263069,-0.17839739,0.57146615,0.22861825,-1.1305951,-2.3273225,-0.8753349,1.947303,1.8845452,-0.7782633,0.27118418,-1.0702611,-2.2972002,-0.9237146,1.9550155,1.9046334,-0.83188826,-0.8987392,-1.3546997,-0.7117379,1.0897045,-0.42165858,0.20859481,0.35548332,-0.5063591,-0.43475723,0.6482152,-0.9247852,0.31353715,-0.7832642,-0.5023613,-0.42692947,0.6119333,0.96737903,0.081465006,0.21761468,0.100920476,-0.96166027,0.5220259,-0.7297307,0.0,1.0,0.0,0.0,0.0,0.0,0.0,-0.14364088,0.034757227,-0.09821516,-1.5097976,1.4874697,-1.3385773,-4.4845343,13.361216,-6.478649,1.3359606
-5.569085,64.98306,12.482498,13.713021,1.9921556,-0.019996762,0.023835663,-0.53472155,-0.74475276,-0.3654087,0.5228852,0.060629852,-0.35729247,0.5674504,0.21771201,-1.1447364,-2.3337412,-0.87142605,1.9610785,1.8689041,-0.7751432,0.26200646,-1.0837079,-2.3042722,-0.913389,1.9522184,1.9061522,-0.8282521,-0.9242518,-1.341813,-0.7049071,1.0138097,-0.23417656,0.13217914,0.36631855,-0.51527023,-0.43181992,0.6400409,-0.88272023,0.28993902,-0.82555926,-0.5120506,-0.42158127,0.6046287,0.96818495,0.08598612,0.2151478,0.094528735,-0.9659057,0.54521763,-0.7334065,0.0,1.0,0.0,0.0,0.0,0.0,0.0,-0.13472974,0.03181991,-0.09004086,-2.591467,1.1697531,0.96325874,-7.513213,18.171188,-7.892108,1.082772
31.389288,79.79632,26.09075,7.7639527,1.5845054,0.012593567,0.26768583,-0.4423477,-0.7430764,-0.12352984,0.47386658,0.19600627,-0.38042614,0.5682173,0.2177717,-1.1580156,-2.316625,-0.8660024,1.971819,1.8681096,-0.7714304,0.25303188,-1.0970479,-2.3100433,-0.90393895,1.951429,1.9069496,-0.82452613,-0.8892138,-1.3315262,-0.53264755,0.9215011,-0.028990256,0.0619697,0.37465516,-0.523716,-0.4290352,0.6319139,-0.8312384,0.27438855,-0.80686814,-0.5214348,-0.41624832,0.59755164,0.969219,0.089682914,0.21150395,0.088529855,-0.9224476,0.5345889,-0.70147395,0.0,1.0,0.0,0.0,0.0,0.0,0.0,-0.126284,0.02903518,-0.08191389,3.2952666,0.95534325,17.814648,-9.410393,19.951296,-7.14769,0.81237555
76.31976,101.38395,43.85257,2.9077191,1.2846386,0.10594356,0.49033076,-0.34001422,-0.748176,0.26175246,0.45890462,0.29336932,-0.34835196,0.54321927,0.21903045,-1.1718655,-2.283868,-0.8580485,1.9807659,1.8721144,-0.7702042,0.24494183,-1.110344,-2.312297,-0.89531857,1.9526399,1.9071555,-0.82074744,-0.7834388,-1.3290415,-0.119412936,0.8408299,0.16844621,0.0068334066,0.37859493,-0.53133774,-0.42656326,0.6245064,-0.7386844,0.23763755,-0.7169833,-0.5299568,-0.41132736,0.59121114,0.97055846,0.091333665,0.20664178,0.08350713,-0.82427406,0.48267427,-0.6137966,0.0,1.0,0.0,0.0,0.0,0.0,0.0,-0.11866224,0.026563257,-0.0745064,10.228181,0.19369125,42.276596,-8.4746,18.935621,-5.5038433,0.28464794
67.76773,90.4398,38.396744,2.6124969,1.3994498,-0.10827592,0.38838896,-0.34703422,-0.76338774,0.24945009,0.40336198,0.47847378,-0.45383984,0.50800747,0.21023841,-1.1866828,-2.287352,-0.8549824,2.0004873,1.8617716,-0.7699467,0.23782931,-1.1237146,-2.3108182,-0.8875224,1.9559548,1.9068066,-0.8169658,-0.6879173,-1.3401551,0.23918428,0.75848037,0.38364962,-0.048733752,0.3777654,-0.53813934,-0.4244423,0.6178562,-0.66105443,0.20363802,-0.6476143,-0.53767395,-0.4069023,0.58558995,0.9722428,0.090746835,0.20048892,0.07945506,-0.7494771,0.43402663,-0.5475102,0.0,1.0,0.0,0.0,0.0,0.0,0.0,-0.11186063,0.024442285,-0.06785619,9.334779,-1.2032509,36.59293,-8.429384,20.907902,-5.539996,-0.14903545
67.69917,92.524445,37.39235,4.15569,1.1750824,-0.28389308,0.34261954,-0.26319036,-0.74059397,0.33767542,0.4135262,0.5504342,-0.44017395,0.5560933,0.21151027,-1.1977739,-2.2770507,-0.84616977,2.0109982,1.8627892,-0.7613565,0.2318361,-1.1371042,-2.3062713,-0.88027847,1.9612212,1.9059767,-0.8131642,-0.5703213,-1.3388616,0.5287918,0.71283454,0.57247555,-0.0942728,0.38074294,-0.5441704,-0.4226799,0.61193514,-0.5850721,0.1674999,-0.57554185,-0.5446663,-0.40299988,0.5806127,0.9741984,0.0881804,0.19326045,0.07623682,-0.67892474,0.3791564,-0.4835854,0.0,1.0,0.0,0.0,0.0,0.0,0.0,-0.1058296,0.022679895,-0.061935127,11.605608,0.00538826,29.611206,-4.630792,18.391651,-4.4947014,0.2202928
