Afshin1997/kuka_rl_ros2/src/catch_and_throw/input_files/idealpd/recorded_trajectories/env_244_data.csv
torque0,torque1,torque2,torque3,torque4,torque5,torque6,action0,action1,action2,action3,action4,action5,action6,set_target_0,set_target_1,set_target_2,set_target_3,set_target_4,set_target_5,set_target_6,joint_pos_0,joint_pos_1,joint_pos_2,joint_pos_3,joint_pos_4,joint_pos_5,joint_pos_6,joint_vel_0,joint_vel_1,joint_vel_2,joint_vel_3,joint_vel_4,joint_vel_5,joint_vel_6,tennisball_pos_0,tennisball_pos_1,tennisball_pos_2,tennisball_lin_vel_0,tennisball_lin_vel_1,tennisball_lin_vel_2,end_effector_pos_0,end_effector_pos_1,end_effector_pos_2,end_effector_rot_0,end_effector_rot_1,end_effector_rot_2,end_effector_rot_3,end_effector_lin_vel_0,end_effector_lin_vel_1,end_effector_lin_vel_2,obs_task_0,obs_task_1,obs_task_2,obs_task_3,obs_task_4,obs_task_5,obs_task_6,to_final_target_0,to_final_target_1,to_final_target_2,joint_acc_0,joint_acc_1,joint_acc_2,joint_acc_3,joint_acc_4,joint_acc_5,joint_acc_6
0.0,0.0,0.0,0.0,0.0,0.0,0.0,0.0,0.0,0.0,0.0,0.0,0.0,0.0,1.7802359,-1.0646509,-1.8151424,-1.1170107,1.9373155,1.1170107,-0.91629785,1.7802359,-1.0646509,-1.8151424,-1.1170107,1.9373155,1.1170107,-0.91629785,0.0,0.0,0.0,0.0,0.0,0.0,0.0,2.902945,-0.5071831,0.052890673,-3.467671,-0.22184686,4.973909,0.5304168,-0.45449448,0.693097,0.5745483,0.17512383,0.15255436,0.7848268,0.0,0.0,0.0,1.0,0.0,0.0,0.0,0.0,0.0,0.0,-3.5529451,0.10718307,0.49710935,0.0,0.0,0.0,0.0,0.0,0.0,0.0
0.0,0.0,0.0,0.0,0.0,0.0,0.0,0.0,0.0,0.0,0.0,0.0,0.0,0.0,1.7802359,-1.0646509,-1.8151424,-1.1170107,1.9373155,1.1170107,-0.91629785,1.7802359,-1.0646509,-1.8151424,-1.1170107,1.9373155,1.1170107,-0.91629785,0.0,0.0,0.0,0.0,0.0,0.0,0.0,2.902945,-0.5071831,0.052890673,-3.467671,-0.22184686,4.973909,0.5304168,-0.45449448,0.693097,0.5745483,0.17512383,0.15255436,0.7848268,0.0,0.0,0.0,1.0,0.0,0.0,0.0,0.0,0.0,0.0,-3.5529451,0.10718307,0.49710935,0.0,0.0,0.0,0.0,0.0,0.0,0.0
0.0,0.0,0.0,0.0,0.0,0.0,0.0,0.0,0.0,0.0,0.0,0.0,0.0,0.0,1.7802359,-1.0646509,-1.8151424,-1.1170107,1.9373155,1.1170107,-0.91629785,1.7802359,-1.0646509,-1.8151424,-1.1170107,1.9373155,1.1170107,-0.91629785,0.0,0.0,0.0,0.0,0.0,0.0,0.0,2.902945,-0.5071831,0.052890673,-3.467671,-0.22184686,4.973909,0.5304168,-0.45449448,0.693097,0.5745483,0.17512383,0.15255436,0.7848268,0.0,0.0,0.0,1.0,0.0,0.0,0.0,0.0,0.0,0.0,-3.5529451,0.10718307,0.49710935,0.0,0.0,0.0,0.0,0.0,0.0,0.0
-176.0,45.533646,-15.82659,110.0,10.23428,3.8357003,-3.93077,-0.7929383,0.23771454,-0.57944244,0.74303603,-0.094980404,0.6838481,-0.56543297,1.700942,-1.0408795,-1.8730867,-1.0427071,1.9278175,1.1853955,-0.97284114,1.7791525,-1.0629896,-1.821286,-1.1108729,1.9394555,1.1220728,-0.9158601,-0.1440374,0.22093587,-0.81912297,0.81886554,0.28498948,0.67378557,0.058699433,2.8682942,-0.5093994,0.10185601,-3.4642038,-0.22162506,4.87075,0.5283886,-0.4579239,0.69369024,0.5781567,0.17348331,0.15196715,0.782652,-0.2701139,-0.4568778,0.078836046,1.0,0.0,0.0,0.0,0.0,0.0,0.0,-3.5182943,0.10939941,0.44814402,-14.274123,21.909775,-81.88328,82.053085,28.393005,67.02606,5.974639
-176.0,-69.01932,-59.28058,101.948784,11.447077,-0.12578145,-3.3231523,-0.79647356,-0.37283018,-0.5741592,0.7082005,-0.025817126,0.65258646,-0.5702542,1.6995052,-1.1002727,-1.8787019,-1.0400528,1.9368738,1.1873314,-0.97288555,1.777865,-1.0621256,-1.836333,-1.0946966,1.9434075,1.1346232,-0.91353697,-0.12527508,0.03200444,-1.7104232,1.8856133,0.42101136,1.4216086,0.28436306,2.8336782,-0.51161194,0.14979053,-3.4607403,-0.22140348,4.767694,0.52396566,-0.46678543,0.6936908,0.586143,0.17001276,0.15001196,0.77783567,-0.5006313,-1.0280335,-0.023124965,1.0,0.0,0.0,0.0,0.0,0.0,0.0,-3.4836783,0.11161193,0.4002095,1.3935983,-21.774204,-82.2787,107.22177,10.334295,66.64789,20.837915
-149.25578,64.635445,14.204758,79.11441,8.057174,6.063805,-1.5471377,-0.7445204,0.002742857,0.13403712,0.6541252,0.1856908,0.6876406,-0.46984598,1.703413,-1.0618513,-1.8229294,-1.0292841,1.9619766,1.2033873,-0.9605216,1.7734152,-1.0622648,-1.8511226,-1.074351,1.9476476,1.1487585,-0.91107744,-0.550723,-0.031651054,-1.3968815,2.0866284,0.419937,1.4064475,0.23368217,2.7990968,-0.51382446,0.19669527,-3.4572804,-0.22118212,4.664741,0.51683587,-0.47879028,0.69447523,0.5967002,0.16539443,0.14660674,0.7714272,-0.79092246,-1.2496023,0.11567995,1.0,0.0,0.0,0.0,0.0,0.0,0.0,-3.4490967,0.11382446,0.35330474,-42.345367,-7.084081,32.81219,20.811272,-1.6503513,-2.7962446,-4.915652
-97.348915,58.67625,24.18925,45.50954,5.745983,6.1057577,0.21659277,-0.7582163,-0.26841536,0.30343315,0.6756591,0.26943102,0.67382866,-0.5382087,1.6975936,-1.0891063,-1.8207793,-1.006785,1.9745907,1.2161413,-0.9648983,1.7646891,-1.0640882,-1.8596294,-1.0545431,1.9517312,1.1619745,-0.9093694,-0.980127,-0.23390868,-0.66242695,1.946946,0.39818388,1.290921,0.15056431,2.76455,-0.516037,0.24257123,-3.4538238,-0.22096099,4.561891,0.5072305,-0.49192047,0.696382,0.60784626,0.1599819,0.14111601,0.7648627,-1.0279901,-1.3233477,0.21858063,1.0,0.0,0.0,0.0,0.0,0.0,0.0,-3.4145498,0.11603698,0.30742878,-42.995296,-20.64878,75.24786,-13.539147,-4.0588913,-12.246537,-8.104092
-45.104492,107.52821,44.86653,26.970543,2.8964555,6.660159,0.6992143,-0.78791577,-0.06595542,0.32628423,0.6857256,0.32830685,0.6875175,-0.5292502,1.6858975,-1.0706837,-1.827001,-0.98597056,1.9845619,1.2307262,-0.96229446,1.7523524,-1.0667223,-1.8607605,-1.0372015,1.955729,1.1738955,-0.90851873,-1.3186061,-0.27449334,0.07537094,1.6630882,0.395276,1.1580215,0.062550366,2.7300375,-0.5182419,0.28741947,-3.4503706,-0.22074006,4.459144,0.49573696,-0.5047226,0.6996621,0.6185646,0.1536717,0.13379526,0.7588554,-1.201772,-1.2531743,0.3642733,1.0,0.0,0.0,0.0,0.0,0.0,0.0,-3.3800373,0.11824188,0.26258054,-34.02374,-4.482019,75.397064,-28.41158,-1.8304765,-13.639998,-8.98674
-12.869381,107.0478,41.19924,13.660376,1.0121053,4.812842,0.6064842,-0.80575913,-0.03650187,0.25323337,0.67371714,0.4086353,0.6680747,-0.568869,1.6717764,-1.0703725,-1.835437,-0.9698298,1.9965925,1.240703,-0.96540564,1.7376734,-1.0691751,-1.8565414,-1.022616,1.9600072,1.1845862,-0.9085025,-1.5181352,-0.23650792,0.54049826,1.3899457,0.43609497,1.0396644,-0.01941149,2.6955597,-0.5204468,0.331241,-3.4469209,-0.22051938,4.3564997,0.48308733,-0.516552,0.7040497,0.62862104,0.14674757,0.1254205,0.7533727,-1.2981964,-1.1485754,0.46077016,1.0,0.0,0.0,0.0,0.0,0.0,0.0,-3.3455596,0.12044677,0.218759,-20.086647,3.4944057,47.425293,-27.402138,3.2697618,-11.824012,-8.428886
7.2322116,137.72559,45.56303,11.62119,-0.74446917,4.0213447,-0.037358504,-0.8245518,0.23166259,0.09481826,0.65020126,0.4556958,0.65909606,-0.56122065,1.6552182,-1.0460088,-1.8470596,-0.9575959,2.0055768,1.2504958,-0.9646246,1.7218558,-1.0697778,-1.8503692,-1.0102221,1.9648786,1.1942354,-0.9092178,-1.6035407,-0.0024979177,0.6445425,1.1889575,0.5033204,0.9407527,-0.09017808,2.6611164,-0.5226517,0.37403688,-3.4434748,-0.2202989,4.2539577,0.46987724,-0.52706146,0.7095019,0.6383198,0.13941912,0.11729631,0.7478982,-1.3401498,-1.0085963,0.56973994,1.0,0.0,0.0,0.0,0.0,0.0,0.0,-3.3111162,0.12265167,0.17596313,-8.725333,23.10068,10.929049,-20.134663,6.431693,-9.658718,-7.461992
14.897306,134.45549,38.68305,9.743528,-1.8304312,2.553506,-0.5916474,-0.82381094,0.3506448,-0.08047944,0.63696426,0.4101897,0.66096175,-0.56898403,1.6394746,-1.0347134,-1.8584172,-0.94652563,2.0058975,1.2603316,-0.9661162,1.7058016,-1.0675272,-1.8453948,-0.99917835,1.970242,1.2030283,-0.91055864,-1.6068302,0.30021006,0.44928554,1.0762712,0.5472747,0.85969913,-0.1498955,2.6267073,-0.52485275,0.41580808,-3.440032,-0.22007865,4.1515183,0.45658198,-0.5362396,0.7157843,0.64808404,0.13198698,0.11061907,0.7418422,-1.3361948,-0.8764951,0.6446562,1.0,0.0,0.0,0.0,0.0,0.0,0.0,-3.2767072,0.12485275,0.13419193,-0.54636,30.03843,-19.249588,-11.293745,4.3807745,-7.8279614,-6.342231
21.886799,138.80458,38.864265,9.309891,-2.2247717,2.1817248,-0.7343952,-0.8194474,0.4990423,-0.122613035,0.60339034,0.44749105,0.65365916,-0.55876637,1.6238569,-1.017623,-1.8576561,-0.9388393,2.014991,1.2683942,-0.96643525,1.6900316,-1.0620397,-1.8430831,-0.98884624,1.9760327,1.2111079,-0.9124126,-1.567792,0.6310012,0.15964176,1.0184937,0.58981496,0.7911336,-0.19848695,2.5923326,-0.52705,0.45655566,-3.4365926,-0.21985862,4.0491815,0.4434676,-0.54408264,0.7228429,0.6581101,0.12455412,0.10589733,0.73495793,-1.3114309,-0.7419965,0.7241147,1.0,0.0,0.0,0.0,0.0,0.0,0.0,-3.2423325,0.12705001,0.09344435,3.661275,32.85703,-28.66089,-5.8835745,4.2607903,-6.715548,-5.2469044
23.642181,130.82756,37.443333,9.29264,-1.8473325,2.0417247,-0.59260345,-0.8128418,0.57718086,-0.11695802,0.5872082,0.49744666,0.63799715,-0.56218094,1.6087475,-1.0043217,-1.854779,-0.9301254,2.0257773,1.2749076,-0.9686307,1.6747462,-1.0536245,-1.8433197,-0.9788174,1.9822946,1.2185694,-0.91468805,-1.5162767,0.9109094,-0.08368687,0.9969782,0.63808125,0.7310769,-0.23849255,2.5579922,-0.5292473,0.49628067,-3.4331567,-0.2196388,3.946947,0.43059808,-0.5506859,0.7306819,0.6683658,0.11708184,0.102912754,0.7273156,-1.2851511,-0.620038,0.8024221,1.0,0.0,0.0,0.0,0.0,0.0,0.0,-3.207992,0.12924728,0.05371934,4.916477,27.785313,-23.947823,-2.3446918,4.7783494,-6.0560107,-4.3761044
22.6077,118.07891,34.98559,9.052414,-1.331456,1.9961272,-0.37526947,-0.8056144,0.6388821,-0.12008939,0.57036453,0.50621414,0.64888746,-0.56615037,1.5941848,-0.9897363,-1.8553286,-0.92178094,2.032916,1.2834581,-0.9713031,1.6599356,-1.0429701,-1.8453033,-0.9688992,1.9889741,1.2255083,-0.91731256,-1.4701136,1.1163102,-0.23497558,0.9893109,0.67755944,0.6809567,-0.27160507,2.5236862,-0.53144455,0.53498405,-3.4297242,-0.2194192,3.844815,0.4179355,-0.55617905,0.7392362,0.6787179,0.109492026,0.10118062,0.7191077,-1.2648838,-0.5119207,0.8726086,1.0,0.0,0.0,0.0,0.0,0.0,0.0,-3.173686,0.13144454,0.01501596,4.389429,20.357536,-14.667162,-1.0122299,3.8605452,-5.1758647,-3.6798894
21.987873,102.4741,31.53368,7.420906,-0.87301004,1.8429768,-0.10630509,-0.79423046,0.6775906,-0.11519206,0.53996015,0.5386551,0.65179086,-0.57273906,1.5805125,-0.975211,-1.8568225,-0.91490316,2.0428395,1.2906874,-0.9745865,1.6455141,-1.030847,-1.8481033,-0.9591221,1.9960465,1.2320124,-0.92022794,-1.433722,1.2437828,-0.29349643,0.9729762,0.7166831,0.6397132,-0.29940218,2.4894145,-0.5336342,0.57266694,-3.4262953,-0.21919982,3.7427852,0.40543842,-0.56069183,0.74835867,0.6889733,0.10175002,0.10016474,0.7105841,-1.2486056,-0.4168719,0.9253088,1.0,0.0,0.0,0.0,0.0,0.0,0.0,-3.1394143,0.13363418,-0.022666931,3.4196615,12.600708,-5.3408804,-1.9062996,3.8073063,-4.294157,-3.1433284
19.140522,88.617645,27.91291,7.0851974,-0.46647233,1.6911691,0.043725323,-0.7850783,0.70205855,-0.10602466,0.537162,0.5289575,0.66419446,-0.5641515,1.5670063,-0.9606411,-1.8587058,-0.90540594,2.0489423,1.2984319,-0.9766431,1.631375,-1.0179209,-1.8509872,-0.9494919,2.003392,1.2381693,-0.92337793,-1.4080443,1.308488,-0.2850675,0.958832,0.7402975,0.60729474,-0.3213412,2.455177,-0.5358238,0.60933024,-3.4228697,-0.21898067,3.6408572,0.39305478,-0.5643654,0.75788563,0.699003,0.093833104,0.09946455,0.7019237,-1.2380391,-0.33633706,0.9617998,1.0,0.0,0.0,0.0,0.0,0.0,0.0,-3.105177,0.13582382,-0.059330225,2.367258,6.3557386,1.3599157,-1.6802311,2.261138,-3.384304,-2.5463402
15.307102,76.85224,23.998165,6.9318004,-0.20523375,1.4553168,0.10664027,-0.7837469,0.72017187,-0.112228334,0.5218515,0.5317564,0.6661407,-0.56566477,1.5530002,-0.94590366,-1.86221,-0.8973068,2.0565677,1.3047833,-0.9799444,1.617396,-1.0046476,-1.8536041,-0.9400372,2.0109031,1.2440535,-0.92671674,-1.3949738,1.3333914,-0.25224906,0.9401177,0.7542464,0.5816491,-0.33916584,2.420974,-0.53801346,0.644975,-3.4194474,-0.21876174,3.5390313,0.38074088,-0.56734467,0.76764154,0.708751,0.08577461,0.09886191,0.6932106,-1.2312802,-0.2695673,0.98004776,1.0,0.0,0.0,0.0,0.0,0.0,0.0,-3.0709739,0.13801345,-0.094974995,1.1246443,2.4036646,3.7680686,-2.1312833,1.3156533,-2.6575685,-2.114576
16.917881,72.35775,23.28988,5.182125,-0.13753611,1.4114604,0.28804013,-0.78135514,0.7274172,-0.04202764,0.47165045,0.56860083,0.6664506,-0.5627229,1.5392605,-0.93190587,-1.8578068,-0.89287215,2.067763,1.3106985,-0.982989,1.6034857,-0.99130064,-1.85554,-0.9309668,2.018605,1.2497202,-0.9302072,-1.3903289,1.3349012,-0.17228976,0.8951606,0.7752007,0.5614638,-0.3534526,2.3868053,-0.5401993,0.6796023,-3.4160287,-0.21854302,3.4373074,0.36850458,-0.56964874,0.7775269,0.7180938,0.07758601,0.09814882,0.6846082,-1.2226213,-0.20175704,0.99087554,1.0,0.0,0.0,0.0,0.0,0.0,0.0,-3.0368052,0.14019927,-0.12960231,0.2780199,0.08254051,8.515024,-4.756367,2.007413,-2.0543814,-1.7634392
17.056126,71.182274,22.873596,5.177962,-0.10071516,1.370446,0.3270765,-0.7758902,0.73904896,-0.00818904,0.45889276,0.57577956,0.66938525,-0.552992,1.5258967,-0.9173958,-1.8563589,-0.88507754,2.0761828,1.3166587,-0.9855064,1.5896059,-0.977974,-1.8565891,-0.92235893,2.0265014,1.2552153,-0.93381304,-1.3877735,1.3316249,-0.08071571,0.84854686,0.79451394,0.54566175,-0.36404273,2.3526707,-0.5423813,0.7132132,-3.4126134,-0.21832453,3.335685,0.35635728,-0.57127,0.7875095,0.7269752,0.06924932,0.09723613,0.6762076,-1.2129972,-0.13485381,0.9997687,1.0,0.0,0.0,0.0,0.0,0.0,0.0,-3.0026708,0.14238128,-0.1632132,0.07929802,-0.386858,9.658287,-4.9047947,1.8570185,-1.5886903,-1.3825178
14.28326,69.33779,21.216278,6.664482,-0.030840933,1.2101614,0.21890365,-0.76971334,0.75240165,-0.025830036,0.46755302,0.5840988,0.6778449,-0.5499422,1.5126346,-0.9027338,-1.8591721,-0.8756036,2.0849113,1.3229997,-0.98880726,1.5757643,-0.96463686,-1.8569877,-0.9140753,2.034581,1.2605826,-0.93750566,-1.3835387,1.3341947,-0.02479138,0.82099915,0.81219065,0.533792,-0.37193576,2.3185701,-0.5445633,0.74580854,-3.4092014,-0.21810625,3.2341642,0.34429199,-0.5722923,0.79755646,0.7354639,0.06077952,0.096185364,0.66794235,-1.2046185,-0.076140545,1.0048547,1.0,0.0,0.0,0.0,0.0,0.0,0.0,-2.9685702,0.14456329,-0.19580853,0.26934147,0.20558834,6.0150394,-2.9783607,1.7320871,-1.1909723,-1.0822296
11.508969,64.61779,18.693542,6.910879,-0.030771911,0.9696087,0.15840125,-0.77710414,0.74975336,-0.025641015,0.43793574,0.5924741,0.67935985,-0.549829,1.4980539,-0.88966155,-1.8595518,-0.87028176,2.0938284,1.3285185,-0.99248856,1.5619227,-0.95128065,-1.8570621,-0.9060835,2.0428207,1.2658526,-0.9412641,-1.3849007,1.3359618,-0.00039655322,0.79110974,0.82807934,0.5248224,-0.37795317,2.2845037,-0.5467453,0.77738947,-3.405793,-0.21788819,3.132745,0.33231127,-0.572773,0.80757433,0.74362725,0.052257657,0.09509516,0.6597306,-1.1954728,-0.02554847,0.9989282,1.0,0.0,0.0,0.0,0.0,0.0,0.0,-2.9345036,0.1467453,-0.22738945,-0.28128624,0.13935566,2.8019445,-3.2146573,1.5848637,-0.86613894,-0.86722374
11.6607895,64.19089,18.157963,6.8126698,-0.111524284,0.8769467,0.14699408,-0.77531326,0.75632113,-0.0067754956,0.4159708,0.5935377,0.6818188,-0.54003954,1.4843913,-0.87564856,-1.8577397,-0.86448646,2.1021745,1.3340344,-0.99526805,1.5480639,-0.93787867,-1.8569744,-0.89840835,2.0511863,1.2710482,-0.94506544,-1.3864619,1.341524,0.012840539,0.75885916,0.8394014,0.51807255,-0.3817057,2.2504714,-0.5489197,0.807957,-3.4023879,-0.21767035,3.0314271,0.3204407,-0.5727577,0.8175183,0.75148445,0.043722566,0.094038576,0.65154904,-1.1831323,0.02483157,0.99066824,1.0,0.0,0.0,0.0,0.0,0.0,0.0,-2.9004712,0.14891967,-0.25795698,-0.29952526,0.5245447,1.6678389,-3.4491181,1.1420369,-0.62565804,-0.6316066
14.898876,64.33163,18.293953,5.016006,-0.3304973,0.7790551,0.22416054,-0.7732983,0.760466,0.019338798,0.36702797,0.6015792,0.6792582,-0.5378299,1.470734,-0.8618321,-1.8550404,-0.86170554,2.1113443,1.338974,-0.99884844,1.5342013,-0.9244061,-1.8567169,-0.89120907,2.059655,1.2761885,-0.9488954,-1.3868098,1.349095,0.031126129,0.7061732,0.8494803,0.512912,-0.3843487,2.2164729,-0.55109406,0.8375121,-3.398986,-0.21745273,2.9302106,0.3087591,-0.5722084,0.8273543,0.758986,0.035200853,0.093053706,0.643461,-1.1616695,0.08028365,0.978847,1.0,0.0,0.0,0.0,0.0,0.0,0.0,-2.8664727,0.15109405,-0.28751206,-0.18279552,0.7340193,2.180145,-5.4988027,1.0203719,-0.41835308,-0.5218804
17.022943,64.94037,18.366413,4.221896,-0.48310196,0.6842231,0.24667244,-0.7674597,0.7704215,0.02060569,0.3408487,0.60292417,0.6810385,-0.52741677,1.4574553,-0.84736395,-1.8546563,-0.8571242,2.1199474,1.3442924,-1.0016371,1.5203673,-0.910822,-1.8563144,-0.88457626,2.0682037,1.2812868,-0.95273966,-1.382861,1.3613727,0.04433554,0.6482439,0.85671234,0.50926334,-0.38530982,2.1825085,-0.55326843,0.8660558,-3.3955877,-0.21723533,2.8290954,0.2973398,-0.5710678,0.83706665,0.76610285,0.026708975,0.092183806,0.6355117,-1.1332923,0.13774224,0.9659943,1.0,0.0,0.0,0.0,0.0,0.0,0.0,-2.8325086,0.15326843,-0.31605577,0.25150776,1.2133837,1.6531751,-6.01964,0.74979067,-0.23795366,-0.34664273
23.47127,62.756645,18.11488,-0.5701475,-0.9227431,0.4394667,0.45166573,-0.77112156,0.77002555,0.054695584,0.22129518,0.6252281,0.6757868,-0.5203746,1.4432551,-0.8338194,-1.8508449,-0.8624467,2.1307266,1.3488655,-1.0047771,1.5065542,-0.89713484,-1.8556659,-0.87895817,2.0768669,1.2863566,-0.9565849,-1.3811433,1.3711472,0.073028535,0.5320674,0.8700066,0.5070412,-0.3851807,2.1485782,-0.555439,0.8935891,-3.3921928,-0.21701813,2.7280812,0.28634316,-0.5693016,0.8465513,0.7727048,0.018348321,0.09143974,0.62787694,-1.0856087,0.20232424,0.9398633,1.0,0.0,0.0,0.0,0.0,0.0,0.0,-2.7985783,0.15543899,-0.34358907,0.0207901,0.9845257,3.2132492,-11.86285,1.3584375,0.022411346,-0.23561716
43.9435,59.30446,18.416388,-14.972469,-2.3733566,-0.18835169,0.99310505,-0.75925434,0.77638847,0.104213305,-0.063998096,0.6486985,0.6708862,-0.5216068,1.4306288,-0.819496,-1.8452446,-0.885358,2.1417367,1.3534452,-1.0087456,1.492808,-0.8833476,-1.8545349,-0.8756928,2.0857208,1.2914206,-0.96042913,-1.3730049,1.3814752,0.12775224,0.25708106,0.8904503,0.508132,-0.38495117,2.1146817,-0.55760574,0.92011297,-3.3888013,-0.21680115,2.627168,0.27626207,-0.5667,0.85551,0.7784049,0.010424705,0.09089266,0.62106,-0.9787525,0.29111597,0.8781475,1.0,0.0,0.0,0.0,0.0,0.0,0.0,-2.7646818,0.15760574,-0.37011296,0.6632328,1.0881662,5.8320136,-27.777248,2.0741463,0.67481995,-0.21722913
59.362053,57.239227,18.772888,-25.346737,-3.4406738,-0.7381229,1.3760705,-0.74237067,0.7864526,0.14803204,-0.29468164,0.6616906,0.6598433,-0.51505244,1.4185709,-0.8047023,-1.8397317,-0.90516096,2.1518898,1.357405,-1.0119344,1.47922,-0.86943346,-1.852721,-0.87599033,2.094796,1.2965018,-0.96426386,-1.3543608,1.394967,0.19996914,-0.12598495,0.913497,0.5106906,-0.3835029,2.0808191,-0.5597725,0.94562846,-3.3854132,-0.2165844,2.5263555,0.2675913,-0.56311035,0.86367375,0.7828711,0.0032286146,0.09064061,0.6155377,-0.82547265,0.39226562,0.79227763,1.0,0.0,0.0,0.0,0.0,0.0,0.0,-2.7308192,0.15977249,-0.39562845,1.7822027,1.4525414,7.4534087,-38.528305,2.396524,1.0373473,-0.02732277
63.22959,62.36633,21.017551,-24.746307,-3.4458716,-0.75578094,1.4017723,-0.7035264,0.8028686,0.21014944,-0.37878916,0.6621508,0.6473864,-0.47503313,1.4088674,-0.7891466,-1.831706,-0.91386926,2.161011,1.3612404,-1.0117671,1.4659888,-0.85533243,-1.8500335,-0.879888,2.1040695,1.3015982,-0.96804994,-1.3126048,1.415591,0.29139706,-0.47795975,0.9329373,0.51200384,-0.37736633,2.0469904,-0.56193924,0.97013664,-3.3820283,-0.21636786,2.425644,0.26048866,-0.5584831,0.8710868,0.7860447,-0.0032646216,0.09066894,0.6114753,-0.6665924,0.49338588,0.72021455,1.0,0.0,0.0,0.0,0.0,0.0,0.0,-2.6969905,0.16193923,-0.42013663,4.209852,2.2036552,9.102884,-35.28985,2.1922112,0.90254545,0.52939653
50.750214,64.62365,21.521746,-14.54454,-2.3305166,-0.40460846,1.1080629,-0.6938068,0.7985921,0.28693736,-0.38870636,0.6604082,0.6433547,-0.43581575,1.3966081,-0.77547324,-1.8213398,-0.91875863,2.1701102,1.3659337,-1.0116315,1.4531809,-0.84107786,-1.8462627,-0.8864121,2.1134918,1.3066965,-0.9717464,-1.2697729,1.4292984,0.40460303,-0.7107395,0.9470673,0.51113987,-0.36712927,2.0131955,-0.56409836,0.99363846,-3.378647,-0.21615154,2.325033,0.2546733,-0.55298233,0.8780084,0.7881444,-0.009331108,0.09081252,0.6086824,-0.54722154,0.57533914,0.6780782,1.0,0.0,0.0,0.0,0.0,0.0,0.0,-2.6631956,0.16409835,-0.44363844,4.3710947,1.5316486,11.049997,-23.30308,1.8207669,0.52962303,0.9889364
38.03858,66.77701,22.04235,-4.9015827,-1.2719104,0.01416491,0.8615271,-0.6908122,0.7991992,0.38206908,-0.43347564,0.66643625,0.63862884,-0.372544,1.3840997,-0.76115793,-1.8080558,-0.9297596,2.1801355,1.3705595,-1.0090008,1.4407221,-0.82673174,-1.841151,-0.8945288,2.12304,1.3117758,-0.97529787,-1.2375576,1.4369628,0.54537857,-0.8453252,0.95923036,0.50839573,-0.35122967,1.9794344,-0.5662575,1.0161349,-3.3752692,-0.21593542,2.2245226,0.24975011,-0.54675674,0.8847165,0.78940785,-0.015273999,0.090870045,0.60691386,-0.46777588,0.64356846,0.66304517,1.0,0.0,0.0,0.0,0.0,0.0,0.0,-2.6294343,0.16625747,-0.46613485,3.3086061,0.93927383,13.676768,-13.467932,1.7430425,0.22125244,1.5709877
30.964302,67.1652,22.197073,0.6468582,-0.68482584,0.22021326,0.7196935,-0.67042726,0.79904145,0.4625421,-0.4793241,0.66521734,0.6260327,-0.29894188,1.3736794,-0.7468276,-1.7948968,-0.9424612,2.1895616,1.374379,-1.005192,1.4285704,-0.8123494,-1.834542,-0.9035172,2.1326797,1.316815,-0.97864527,-1.2073847,1.4392552,0.6977273,-0.9166059,0.9673882,0.5038244,-0.32929954,1.9457071,-0.5684166,1.037627,-3.3718946,-0.21571954,2.1241128,0.24545181,-0.5398865,0.89138967,0.7899837,-0.021295378,0.090719484,0.6060051,-0.41064295,0.70382285,0.66295254,1.0,0.0,0.0,0.0,0.0,0.0,0.0,-2.595707,0.16841659,-0.48762697,3.1078339,0.41184425,14.755238,-7.1347117,1.4088869,-0.015747547,2.1772683
25.804222,67.197266,22.174858,4.97934,-0.3020567,0.34706908,0.61378187,-0.6442094,0.7994929,0.5316993,-0.47572446,0.6398958,0.61172485,-0.11746065,1.3641495,-0.73240006,-1.7813721,-0.9510896,2.1966693,1.3779875,-0.9903913,1.4167525,-0.79796606,-1.8264415,-0.9127831,2.1422966,1.321797,-0.9816541,-1.1729944,1.4387197,0.84587306,-0.9299447,0.96223545,0.4976988,-0.29139775,1.9120134,-0.5705719,1.0581157,-3.3685234,-0.21550386,2.0238032,0.24160667,-0.5324707,0.89814925,0.7899638,-0.027536482,0.09034717,0.60583514,-0.36918232,0.7582851,0.6741329,1.0,0.0,0.0,0.0,0.0,0.0,0.0,-2.5620134,0.1705719,-0.5081157,3.5341978,0.13811588,14.286936,-1.3460755,0.11352301,-0.20993948,3.7684977
8.138655,58.862404,17.602491,13.484574,0.6115876,0.41346312,0.2580161,-0.6788788,0.7943765,0.531668,-0.4183625,0.6350493,0.6238116,0.0250815,1.3488646,-0.7185284,-1.7732748,-0.95461935,2.2058015,1.3841782,-0.97914594,1.4050299,-0.78362185,-1.8172443,-0.92168945,2.1518257,1.3267256,-0.98419946,-1.1720526,1.4336283,0.9428518,-0.8778644,0.95173955,0.4919771,-0.24236262,1.8783535,-0.5727234,1.077602,-3.3651555,-0.2152884,1.9235938,0.23788334,-0.5247154,0.9050418,0.78959364,-0.03404279,0.089808375,0.60606706,-0.36652195,0.7855065,0.6877294,1.0,0.0,0.0,0.0,0.0,0.0,0.0,-2.5283535,0.17272338,-0.527602,0.08606911,-0.32684803,9.297609,5.101609,-0.50383806,-0.30543804,4.863012
-8.955505,52.79642,13.921473,23.531723,1.6211625,0.60067284,-0.14502299,-0.69381356,0.78997403,0.53056276,-0.27674875,0.6015972,0.63833785,0.22303148,1.3356485,-0.7046244,-1.764188,-0.9493643,2.2119853,1.3905594,-0.9618963,1.3931528,-0.76934916,-1.8074691,-0.92934364,2.1611526,1.3316065,-0.98614305,-1.1931851,1.4257859,0.9878694,-0.7286233,0.928081,0.4871421,-0.17859922,1.8447272,-0.5748749,1.096087,-3.361791,-0.21507315,1.8234847,0.23386766,-0.5168686,0.91216326,0.78919935,-0.040915813,0.089176446,0.6062489,-0.40615416,0.787532,0.7136124,1.0,0.0,0.0,0.0,0.0,0.0,0.0,-2.4947271,0.17487487,-0.54608697,-2.227068,-0.59883595,4.195702,14.711761,-1.8620849,-0.35271645,6.3064547
-33.542767,43.668106,8.501834,38.219868,3.1698964,0.92338556,-0.7832273,-0.74256575,0.777983,0.48030585,-0.03367181,0.57349813,0.66609484,0.3023508,1.3188963,-0.69155085,-1.7594385,-0.9327108,2.2185025,1.398216,-0.955908,1.3808047,-0.75520045,-1.7977645,-0.9344668,2.1701782,1.336455,-0.98744005,-1.2495613,1.4118617,0.96403015,-0.44142422,0.89537394,0.48378432,-0.11364854,1.8111345,-0.57702637,1.1135718,-3.3584297,-0.21485813,1.7234755,0.22897616,-0.5092888,0.91968524,0.78926307,-0.048352517,0.088482134,0.60572,-0.50949347,0.75294423,0.7583679,1.0,0.0,0.0,0.0,0.0,0.0,0.0,-2.4611344,0.17702636,-0.56357175,-5.8948755,-1.2027502,-2.595985,28.370148,-2.7943015,-0.40838718,6.3980803
-54.70736,39.509495,5.3881164,53.676266,4.724605,1.4246827,-1.4221255,-0.77815676,0.7717957,0.4203955,0.30037636,0.5438829,0.67477024,0.35622585,1.302989,-0.6780209,-1.755725,-0.90442914,2.2245665,1.403932,-0.95181745,1.3677641,-0.74120146,-1.7887332,-0.9354834,2.17883,1.3412691,-0.9881086,-1.3232825,1.39662,0.8819118,0.010369007,0.85710233,0.47957927,-0.051521324,1.7775754,-0.5791702,1.1300571,-3.355072,-0.21464331,1.6235664,0.22256954,-0.5022583,0.9278905,0.79029995,-0.056680776,0.08769036,0.60375786,-0.67697,0.69212055,0.83461845,1.0,0.0,0.0,0.0,0.0,0.0,0.0,-2.4275753,0.17917022,-0.5800571,-7.6797247,-1.3298512,-8.485472,44.795017,-3.290546,-0.72948337,6.1276345
-47.60617,37.222137,5.277831,48.941532,4.2142687,1.2088016,-1.2968659,-0.78165567,0.7586665,0.39606348,0.38415757,0.5233732,0.67378366,0.39803803,1.2895986,-0.6653348,-1.7491269,-0.89706767,2.2311673,1.4086475,-0.9483048,1.354098,-0.7273856,-1.7806213,-0.9322466,2.1871002,1.3460413,-0.9881887,-1.3815258,1.3770624,0.78658044,0.42718798,0.81878155,0.47537094,0.0063106106,1.7440498,-0.5813141,1.1455442,-3.3517177,-0.21442871,1.5237571,0.21462703,-0.49576187,0.9367554,0.79233944,-0.065908775,0.086828,0.6002626,-0.82573974,0.64185995,0.8972519,1.0,0.0,0.0,0.0,0.0,0.0,0.0,-2.3940496,0.18131408,-0.59554416,-6.013608,-1.8063307,-9.856045,41.424896,-3.3266544,-0.76264143,5.7381806
-28.694038,38.40585,7.329913,35.37526,2.8153317,0.75894827,-0.8084427,-0.7893481,0.7490581,0.3975328,0.39234915,0.53215355,0.66490966,0.37568167,1.2751632,-0.65247977,-1.740868,-0.8930117,2.2403154,1.4125323,-0.95062053,1.3400007,-0.7137738,-1.7732742,-0.9258761,2.1950881,1.3507754,-0.9877729,-1.419448,1.3561823,0.716749,0.70638824,0.7932851,0.47194737,0.05323023,1.7105577,-0.58345795,1.1600338,-3.3483667,-0.21421432,1.4240477,0.20560792,-0.48958588,0.94601,0.79502773,-0.075771965,0.085948505,0.59565276,-0.919851,0.6191158,0.92840016,1.0,0.0,0.0,0.0,0.0,0.0,0.0,-2.3605576,0.18345794,-0.6100338,-3.8912296,-1.994276,-7.2060823,27.764093,-2.1624565,-0.56230426,4.6432095
-8.467295,38.037045,8.329373,18.81636,1.1216763,0.075134516,-0.26079667,-0.8049765,0.7446673,0.3650509,0.33854014,0.55109644,0.6635454,0.32646313,1.2595031,-0.6393071,-1.7367691,-0.8920221,2.250198,1.4171299,-0.9551266,1.3256155,-0.7003451,-1.766526,-0.91808265,2.2029502,1.3554903,-0.98698705,-1.4451883,1.3385552,0.66083515,0.80312073,0.7844994,0.47138867,0.08675142,1.6770992,-0.585598,1.1735271,-3.345019,-0.21400015,1.324438,0.19615795,-0.48347092,0.9552491,0.79792833,-0.08582032,0.085172735,0.59050053,-0.94610286,0.6187107,0.91602635,1.0,0.0,0.0,0.0,0.0,0.0,0.0,-2.3270993,0.18559799,-0.6235271,-2.6671886,-1.7100096,-5.6114197,9.521925,-0.6480217,-0.0326097,3.2697349
12.059428,40.564934,10.451303,3.191124,-0.5420648,-0.5486525,0.3061296,-0.79940677,0.7394496,0.37181205,0.25005412,0.5367787,0.6606299,0.34602278,1.2456748,-0.6264001,-1.7293447,-0.89307725,2.256628,1.4215534,-0.95238477,1.311112,-0.68706614,-1.7600925,-0.9105601,2.2107284,1.3602148,-0.9859056,-1.452371,1.3245256,0.6380624,0.73478866,0.7762777,0.47365728,0.11482519,1.6436741,-0.5877342,1.1860251,-3.3416748,-0.2137862,1.2249278,0.18695827,-0.47720718,0.96410406,0.800603,-0.0956308,0.084649,0.58542633,-0.9039576,0.63975406,0.8691504,1.0,0.0,0.0,0.0,0.0,0.0,0.0,-2.293674,0.18773422,-0.63602513,-0.81226826,-1.3785601,-2.0837069,-6.991887,-0.7539034,0.5089283,2.6761756
23.157806,44.242786,12.453135,-4.4000125,-1.3969538,-0.84544426,0.6209045,-0.79738027,0.73625135,0.39108664,0.20251305,0.5160748,0.65766084,0.39317104,1.231374,-0.613441,-1.7209839,-0.89030874,2.2623358,1.4259809,-0.94658846,1.2966219,-0.67389494,-1.7536342,-0.9043154,2.2183883,1.364968,-0.98454756,-1.4480088,1.3148094,0.64917,0.5872114,0.7624955,0.47707638,0.14223291,1.6102824,-0.58987045,1.1975288,-3.3383338,-0.21357246,1.1255171,0.17844892,-0.47063828,0.97240263,0.80276936,-0.10499191,0.08445981,0.5808653,-0.8255344,0.6723667,0.8107125,1.0,0.0,0.0,0.0,0.0,0.0,0.0,-2.2602825,0.18987045,-0.6475288,0.36187172,-0.9566784,1.3911724,-14.889849,-1.3907313,0.7411361,2.594039
28.439842,41.749756,11.784537,-9.474103,-1.8524354,-1.2282718,0.78240955,-0.79557735,0.7214166,0.38521796,0.10233262,0.50557244,0.6613142,0.41495633,1.2170641,-0.6017533,-1.7151124,-0.8940821,2.2689455,1.4310994,-0.94305193,1.2822176,-0.66084963,-1.7470119,-0.8999447,2.2258956,1.3697592,-0.9829301,-1.4380045,1.3011514,0.6674272,0.3867102,0.74659973,0.48154804,0.16778235,1.5769241,-0.5920067,1.208039,-3.3349962,-0.21335892,1.0262058,0.1708907,-0.46377563,0.9800163,0.8043038,-0.113731265,0.08465548,0.5770562,-0.72462726,0.70044386,0.7391491,1.0,0.0,0.0,0.0,0.0,0.0,0.0,-2.226924,0.19200668,-0.65803903,0.9634733,-1.3417959,2.086389,-20.16201,-1.6283989,0.92713237,2.42697
26.597706,40.96854,11.3918495,-7.78566,-1.7093639,-1.2809086,0.7193831,-0.79012066,0.7134725,0.39017022,0.06741414,0.4630987,0.6583135,0.46726838,1.2032056,-0.5895024,-1.7079949,-0.8932033,2.2722056,1.4355905,-0.9362033,1.2679373,-0.6479493,-1.740195,-0.8974051,2.2331398,1.3745886,-0.9810466,-1.4246638,1.2864486,0.6869473,0.20944545,0.71741015,0.48491395,0.19487685,1.5435991,-0.5941391,1.217557,-3.331662,-0.21314561,0.9269938,0.16430496,-0.45664597,0.98696107,0.8052373,-0.12184742,0.08526352,0.5740002,-0.6283252,0.72267336,0.673971,1.0,0.0,0.0,0.0,0.0,0.0,0.0,-2.1935992,0.1941391,-0.66755694,1.3359785,-1.4312983,2.1164536,-17.806065,-2.9192567,0.7741511,2.6106358
22.915363,38.54223,10.336488,-4.9695964,-1.4073861,-1.3170546,0.593374,-0.7795873,0.7015299,0.38387084,0.02133392,0.4305486,0.6565806,0.49669248,1.1899786,-0.5777963,-1.701808,-0.8952717,2.2761946,1.4402467,-0.93137735,1.2538172,-0.6352187,-1.7332599,-0.89636177,2.240029,1.3794447,-0.97889704,-1.407477,1.2688451,0.6958416,0.06908245,0.6798998,0.4870384,0.22139674,1.5103076,-0.5962677,1.2260835,-3.328331,-0.21293251,0.827881,0.1585983,-0.44937134,0.9933051,0.8056729,-0.12940218,0.08628383,0.5715779,-0.5429456,0.736091,0.6157673,1.0,0.0,0.0,0.0,0.0,0.0,0.0,-2.1603074,0.1962677,-0.6760835,1.7469168,-1.7055273,0.959301,-14.105455,-3.7087321,0.5948305,2.574429
14.736122,34.334282,8.482872,1.2042046,-0.7595552,-1.2144988,0.3288817,-0.77561134,0.6846603,0.36190283,0.032836813,0.38031662,0.6587067,0.5178131,1.1762561,-0.5667527,-1.6970696,-0.8930781,2.2780607,1.4453154,-0.92711574,1.2398554,-0.62270457,-1.7263954,-0.8961882,2.246453,1.3843142,-0.9764947,-1.3922347,1.2459371,0.6833625,-0.0002523434,0.6302671,0.48797375,0.24632758,1.4770491,-0.5983963,1.2336197,-3.3250034,-0.21271962,0.72886723,0.1535464,-0.44203568,0.9991622,0.8057974,-0.13652278,0.08770441,0.5695261,-0.48410547,0.73759127,0.57040745,1.0,0.0,0.0,0.0,0.0,0.0,0.0,-2.127049,0.1983963,-0.6836197,1.5431166,-2.2193193,-1.2613654,-7.0281386,-4.861355,0.38757324,2.4261265
10.456263,32.46025,7.7539415,4.878967,-0.36780804,-1.1425937,0.18543313,-0.7637954,0.6710356,0.35599768,0.017510867,0.34548625,0.6572145,0.5293942,1.1634759,-0.555601,-1.6907957,-0.89443713,2.2810016,1.4500356,-0.9235553,1.2260596,-0.61043745,-1.7197158,-0.8963875,2.2523506,1.3891875,-0.97386163,-1.3752763,1.2205379,0.66264784,-0.02693192,0.5769382,0.48788372,0.26866058,1.443824,-0.6005249,1.2401664,-3.321679,-0.21250695,0.62995255,0.14896707,-0.43470764,1.004635,0.8057454,-0.14332776,0.0894943,0.56764627,-0.44086418,0.7338723,0.5343872,1.0,0.0,0.0,0.0,0.0,0.0,0.0,-2.093824,0.2005249,-0.6901664,1.7084122,-2.4600744,-2.1256685,-2.7766056,-5.2016854,0.23368001,2.168113
14.193111,29.082146,6.564691,-0.41765642,-0.80556333,-1.5083247,0.33734116,-0.7651829,0.6564371,0.35020235,-0.144936,0.33265337,0.6557213,0.52483547,1.1495413,-0.5447937,-1.6846956,-0.9108811,2.285616,1.4547596,-0.9213781,1.2123858,-0.59843737,-1.7132499,-0.89738697,2.257775,1.3940588,-0.9710359,-1.3645587,1.1935084,0.6411645,-0.12453471,0.5309368,0.4879261,0.28704304,1.4106321,-0.6026459,1.2457247,-3.3183582,-0.21229449,0.5311367,0.14497636,-0.42747498,1.0096152,0.8054886,-0.14964741,0.09167467,0.5660295,-0.37691745,0.72424674,0.4810073,1.0,0.0,0.0,0.0,0.0,0.0,0.0,-2.0606322,0.20264587,-0.69572467,1.1009693,-2.6313543,-2.1645546,-9.852555,-4.5271635,0.29298067,1.7803848
14.126127,28.692097,6.4850664,-0.6463947,-0.7461145,-1.5748352,0.3628693,-0.76149946,0.64579177,0.34864122,-0.18401378,0.33435312,0.6487208,0.5350615,1.1362358,-0.5338582,-1.6783859,-0.91578835,2.2912104,1.4589309,-0.91752976,1.198794,-0.5866919,-1.7069576,-0.8994469,2.2628524,1.3989245,-0.9680423,-1.3573049,1.1684896,0.6250973,-0.23339623,0.5003317,0.487046,0.3032508,1.3774735,-0.60476685,1.2502956,-3.3150406,-0.21208224,0.43241972,0.1416275,-0.4203453,1.0140624,0.8050031,-0.15539367,0.09420824,0.56475437,-0.31301558,0.7117293,0.42790443,1.0,0.0,0.0,0.0,0.0,0.0,0.0,-2.0274734,0.20476684,-0.7002956,0.75850487,-2.4282217,-1.6315222,-10.967482,-2.9907465,0.18225908,1.5712321
9.552699,25.030567,4.870936,2.3596706,-0.41486037,-1.5807246,0.2067568,-0.75949687,0.6297438,0.29933494,-0.17921473,0.2927079,0.65533924,0.5451351,1.1228443,-0.5237175,-1.6770241,-0.91736835,2.2921233,1.4644583,-0.9135288,1.1852518,-0.5752011,-1.7010028,-0.9023642,2.267598,1.4037844,-0.96489996,-1.3532617,1.142834,0.58555853,-0.31151083,0.46643955,0.48643014,0.3177022,1.344348,-0.6068878,1.2538801,-3.3117263,-0.2118702,0.33380145,0.13881817,-0.41339493,1.0180112,0.80438703,-0.16058534,0.097088195,0.5636912,-0.26264134,0.6907564,0.37937143,1.0,0.0,0.0,0.0,0.0,0.0,0.0,-1.9943479,0.20688781,-0.70388013,0.4181385,-2.4870634,-3.9920092,-7.919055,-3.3073366,0.16453266,1.3940692
5.633007,19.121235,2.277349,3.8013391,-0.31027073,-1.7144734,0.050570484,-0.7590864,0.6100144,0.23174395,-0.2126524,0.20388983,0.66023934,0.5517064,1.1093432,-0.5141997,-1.6778284,-0.92362946,2.287987,1.4698083,-0.9097293,1.1717287,-0.5639935,-1.6957138,-0.9059424,2.2718132,1.4086405,-0.96162695,-1.3519456,1.1137432,0.50994974,-0.3736957,0.40658024,0.4861288,0.33030516,1.3112556,-0.609005,1.2564791,-3.3084152,-0.21165836,0.23528178,0.13646904,-0.40673447,1.0214547,0.80378515,-0.1651933,0.10043089,0.56263155,-0.21824259,0.6587095,0.3284003,1.0,0.0,0.0,0.0,0.0,0.0,0.0,-1.9612556,0.20900497,-0.70647913,0.13384819,-2.8319836,-7.589531,-6.35528,-5.920887,0.16884208,1.1968672
2.0956757,12.311742,-0.3372391,4.977861,-0.28166527,-1.8260999,-0.08772455,-0.7569178,0.5760627,0.18014139,-0.2331022,0.045546234,0.66518396,0.5591175,1.0960369,-0.50638723,-1.6776996,-0.9292526,2.2763677,1.4751589,-0.9057152,1.1582171,-0.55316836,-1.6913345,-0.91001457,2.2750213,1.4134985,-0.9582395,-1.3509699,1.072291,0.41395548,-0.4188996,0.29252166,0.48619723,0.34126797,1.2781962,-0.6111183,1.2580937,-3.3051074,-0.21144675,0.1368606,0.13453487,-0.4004631,1.024362,0.8033294,-0.16918951,0.10443462,0.5613646,-0.17816819,0.6169875,0.27416205,1.0,0.0,0.0,0.0,0.0,0.0,0.0,-1.9281962,0.21111831,-0.7080937,0.10356903,-4.0731907,-9.624034,-4.681879,-11.357981,0.18362999,1.004535
1.1294913,2.9309368,-3.3507342,2.9564142,-0.5790511,-2.055085,-0.1022108,-0.7542078,0.5140032,0.15572116,-0.2959,-0.21960224,0.6746388,0.565565,1.0827963,-0.50176805,-1.6757624,-0.9396046,2.253061,1.4809624,-0.901683,1.1447245,-0.54297453,-1.6878555,-0.9146599,2.276406,1.4183642,-0.9547538,-1.3484712,1.0018398,0.3259347,-0.4801848,0.08695016,0.48727715,0.35056427,1.2451699,-0.61323166,1.2587248,-3.3018029,-0.21123534,0.038537815,0.13306668,-0.39468384,1.0266225,0.80307907,-0.17248993,0.10936843,0.5597764,-0.12984107,0.56473535,0.20628794,1.0,0.0,0.0,0.0,0.0,0.0,0.0,-1.8951699,0.21323165,-0.7087248,0.30527115,-6.985283,-8.834058,-6.286377,-20.542465,0.2842188,0.789696
-5.586864,-39.47395,-15.589733,-1.8178761,0.3052526,-2.8381472,-0.0074849613,-0.72648853,0.27566895,0.17449124,-0.36986372,-0.42556924,0.6838301,0.55297214,1.0720756,-0.5154076,-1.6704063,-0.95164627,2.233849,1.4867471,-0.8994566,1.1313921,-0.53450495,-1.6849296,-0.9201359,2.2753265,1.423247,-0.9512033,-1.3273373,0.79531497,0.28095463,-0.5707682,-0.17345788,0.48895866,0.35568112,1.2121767,-0.615345,1.2583735,-3.2985017,-0.21102415,-0.059686664,0.13195515,-0.3899498,1.027886,0.80302846,-0.17483436,0.1149975,0.5579908,-0.098970085,0.442498,0.09628478,1.0,0.0,0.0,0.0,0.0,0.0,0.0,-1.8621767,0.215345,-0.7083735,2.3396254,-20.64234,-4.584515,-9.252203,-26.095707,0.3130138,0.24008751
-28.434464,-131.6207,-43.826893,-5.6629543,3.219159,-4.3771596,-0.075657725,-0.6920832,-0.18522836,0.13588925,-0.4190374,-0.5345611,0.68457144,0.5376302,1.0621839,-0.5530278,-1.6713407,-0.96203965,2.2218704,1.4917041,-0.89744025,1.1184412,-0.5301028,-1.6823986,-0.9266028,2.2716873,1.4281317,-0.9476356,-1.2830223,0.3213504,0.2437492,-0.67282987,-0.42790535,0.48801848,0.35538942,1.1792164,-0.6174507,1.2570406,-3.295204,-0.21081316,-0.15781294,0.13059875,-0.38765717,1.0274771,0.8033204,-0.1756593,0.1203066,0.5561892,-0.14363442,0.15783985,-0.08900701,1.0,0.0,0.0,0.0,0.0,0.0,0.0,-1.8292164,0.21745071,-0.7070406,4.891658,-47.53401,-3.7676632,-10.480797,-25.653118,-0.21179914,-0.5502224
-44.828938,-176.0,-64.36615,-6.508855,5.5929003,-5.5666423,-0.2569606,-0.56680137,-0.5595549,-0.040582594,-0.39682502,-0.5443664,0.6488925,0.45842198,1.0617611,-0.58605826,-1.6864568,-0.9662853,2.2172506,1.493021,-0.9017934,1.1065794,-0.5303183,-1.6839912,-0.93395084,2.268689,1.4340655,-0.9431848,-1.1519428,-0.13677265,-0.2926602,-0.7555449,-0.2594857,0.6263377,0.47316012,1.146289,-0.6195564,1.2547272,-3.2919095,-0.21060239,-0.2558411,0.12832098,-0.38913345,1.0248331,0.8042171,-0.17441764,0.124249384,0.55441445,-0.25411898,-0.24995162,-0.32383573,1.0,0.0,0.0,0.0,0.0,0.0,0.0,-1.796289,0.21955642,-0.70472723,13.671732,-46.06885,-53.381485,-8.299255,16.224945,13.164627,11.242712
-4.8087587,-149.22408,-45.21112,-22.80116,3.3438313,-5.5077214,0.76335573,-0.19389291,-0.6974248,0.026964206,-0.5330841,-0.56690186,0.6655017,0.47564736,1.0871902,-0.6000608,-1.6812948,-0.98725927,2.2119987,1.5006156,-0.89562005,1.0975672,-0.5361205,-1.6874568,-0.9422907,2.2651489,1.440272,-0.93847555,-0.816667,-0.7285702,-0.36469045,-0.85916495,-0.38603112,0.6155037,0.4696869,1.1133945,-0.62166214,1.2514343,-3.288618,-0.21039183,-0.35377124,0.12572074,-0.3941002,1.0199728,0.805101,-0.17125328,0.12626468,0.55366236,-0.26378632,-0.5782862,-0.5405052,1.0,0.0,0.0,0.0,0.0,0.0,0.0,-1.7633945,0.22166213,-0.7014343,33.841385,-59.359455,-7.2425723,-10.042131,-12.839002,-1.9864678,-0.4583478
42.240067,-73.34216,-16.568363,-36.168694,-0.31444782,-4.8608465,1.5689684,0.20187832,-0.7430494,-0.10124815,-0.5800403,-0.683467,0.699094,0.41350615,1.117755,-0.6104254,-1.6975816,-1.0002948,2.1968021,1.5101814,-0.89712495,1.0934244,-0.546835,-1.6911361,-0.9516739,2.2598808,1.4462839,-0.93393415,-0.28283846,-1.1860747,-0.3673719,-0.9647656,-0.57294923,0.59370744,0.44919273,1.0805329,-0.62376404,1.2471628,-3.28533,-0.21018149,-0.45160347,0.12406088,-0.40133286,1.01325,0.80513704,-0.16671899,0.1266396,0.5549066,-0.13680685,-0.7692883,-0.71767926,1.0,0.0,0.0,0.0,0.0,0.0,0.0,-1.7305329,0.22376403,-0.6971628,52.627693,-45.812893,0.21228194,-10.589337,-18.448639,-3.0535698,-1.9983649
47.616283,-22.760933,-2.6112216,-28.197203,-1.614166,-3.8360593,1.1907967,0.2793683,-0.7711049,-0.3371836,-0.53900117,-0.7088192,0.6879896,0.33098328,1.1213613,-0.6239455,-1.7248545,-1.005574,2.188999,1.5150828,-0.9008358,1.094216,-0.5607901,-1.6954429,-0.9616675,2.2527816,1.452048,-0.92968744,0.19598866,-1.4656161,-0.4491928,-1.0114987,-0.75486165,0.568043,0.41669953,1.0477042,-0.6258621,1.2419137,-3.2820454,-0.20997135,-0.5493379,0.12384514,-0.40982437,1.0051315,0.8042811,-0.16124584,0.12617047,0.5578644,0.015118289,-0.87255794,-0.84633946,1.0,0.0,0.0,0.0,0.0,0.0,0.0,-1.6977042,0.22586212,-0.69191366,46.75817,-28.021908,-7.4197173,-4.85363,-17.942917,-3.3390522,-3.1936765
46.01345,17.275213,7.95026,-18.466997,-2.070694,-2.802371,0.80998254,0.3840546,-0.7976862,-0.42866638,-0.5420627,-0.6549851,0.69142485,0.2449765,1.1326214,-0.6405587,-1.7383095,-1.0158738,2.187283,1.5211904,-0.9051898,1.099013,-0.57637507,-1.7009475,-0.9718699,2.2443855,1.4575907,-0.9258136,0.5711151,-1.5895798,-0.58208126,-1.0239227,-0.8673761,0.54790086,0.37792382,1.0149084,-0.6279602,1.235688,-3.278764,-0.20976143,-0.6469747,0.12509257,-0.4188614,0.9960726,0.80275935,-0.1551416,0.12546898,0.5619306,0.16280724,-0.90828586,-0.93047094,1.0,0.0,0.0,0.0,0.0,0.0,0.0,-1.6649084,0.2279602,-0.68568796,36.51887,-12.439585,-12.660217,-1.4526606,-11.051583,-2.5442839,-3.8108766
40.953606,43.4722,14.5769005,-9.923285,-2.125781,-1.9657118,0.5079132,0.487004,-0.80637014,-0.49374118,-0.5520629,-0.64243186,0.69926816,0.20967479,1.1477134,-0.6570121,-1.7503216,-1.0270761,2.1801424,1.5275176,-0.90484613,1.1067663,-0.5923882,-1.707936,-0.9820828,2.2352836,1.4629751,-0.9223241,0.8411161,-1.6052369,-0.73647135,-1.0209739,-0.92424965,0.53432596,0.33954746,0.98214537,-0.6300583,1.2284867,-3.275486,-0.2095517,-0.7445138,0.12767571,-0.4279251,0.98642576,0.8007744,-0.14861983,0.12492683,0.56662655,0.2943639,-0.89908135,-0.9818914,1.0,0.0,0.0,0.0,0.0,0.0,0.0,-1.6321454,0.23005828,-0.67848665,26.330173,-1.5780449,-15.088677,0.110435486,-5.551064,-1.6578913,-3.7801862
28.901602,56.70357,17.781687,2.999546,-1.2489111,-1.0872028,0.06713533,0.57545424,-0.8093564,-0.5566276,-0.43090603,-0.65194035,0.7044584,0.120609365,1.1643118,-0.67332387,-1.7635988,-1.0251734,2.1700895,1.533421,-0.9102632,1.1165968,-0.60814387,-1.7164543,-0.9916405,2.2258499,1.4682661,-0.9192466,1.0291363,-1.565706,-0.88968354,-0.9344664,-0.94973516,0.5270124,0.29730207,0.9494151,-0.63215256,1.2203107,-3.272211,-0.2093422,-0.8419554,0.1312079,-0.43672562,0.9765669,0.7985907,-0.142019,0.12471019,0.57142866,0.3789717,-0.8660285,-0.9937804,1.0,0.0,0.0,0.0,0.0,0.0,0.0,-1.5994151,0.23215255,-0.6703107,18.425512,3.9417982,-15.115476,8.519006,-2.5245786,-0.7678032,-4.1782436
10.637252,55.959454,16.409317,17.235603,0.2361399,-0.36570132,-0.4391363,0.6115363,-0.81806946,-0.61875904,-0.27027205,-0.66303015,0.7050289,0.028015323,1.1777505,-0.6899508,-1.7783302,-1.0186677,2.1595469,1.538769,-0.9164451,1.1277128,-0.6234351,-1.7264068,-0.9995722,2.2162673,1.4735094,-0.91662115,1.1386085,-1.5171065,-1.0297607,-0.74620414,-0.96158975,0.52398473,0.2509266,0.9167175,-0.634243,1.211161,-3.2689395,-0.2091329,-0.93929964,0.13509013,-0.44521332,0.96683586,0.7965569,-0.13570747,0.12480582,0.57576394,0.39845613,-0.83513063,-0.9730097,1.0,0.0,0.0,0.0,0.0,0.0,0.0,-1.5667175,0.234243,-0.661161,10.808802,4.8015833,-13.800156,18.794144,-1.3318658,-0.13718605,-4.614818
-6.518317,49.581318,13.253191,27.917507,1.6193109,0.10073587,-0.8113382,0.6059395,-0.8213202,-0.65992093,-0.13782546,-0.6459005,0.69430447,-0.06385113,1.1883068,-0.7055671,-1.7923989,-1.0133548,2.1516774,1.5429399,-0.92300624,1.139361,-0.63832575,-1.7375495,-1.0051682,2.2066772,1.4787298,-0.9144859,1.1737819,-1.4801424,-1.141873,-0.49693236,-0.9587528,0.5221602,0.20106201,0.8840527,-0.63633347,1.2010386,-3.2656713,-0.2089238,-1.0365465,0.13874073,-0.45349503,0.95744884,0.79498917,-0.12993091,0.12509517,0.5791902,0.36154988,-0.81831205,-0.93392307,1.0,0.0,0.0,0.0,0.0,0.0,0.0,-1.5340526,0.23633346,-0.6510386,3.569436,3.579259,-10.990167,25.01232,-0.009691715,0.08157492,-4.975891
-14.11401,45.58015,11.8060875,31.893772,2.3490138,0.28612107,-0.9014144,0.6163017,-0.8220655,-0.6722992,-0.02899735,-0.60744464,0.6845009,-0.14331171,1.2009912,-0.7205323,-1.8047794,-1.008068,2.1459327,1.5471799,-0.92881703,1.151076,-0.6529742,-1.7494972,-1.0081837,2.1972625,1.4839293,-0.91285986,1.1713014,-1.4602706,-1.2116101,-0.23582058,-0.9369387,0.51999164,0.14990717,0.8514205,-0.6384239,1.1899444,-3.262406,-0.20871492,-1.1336961,0.14182423,-0.46167374,0.9484993,0.7940292,-0.12479971,0.12538971,0.58156693,0.29864702,-0.8116831,-0.88857114,1.0,0.0,0.0,0.0,0.0,0.0,0.0,-1.5014205,0.23842391,-0.6399444,-0.108885765,1.8331528,-6.7632914,26.270905,1.8291354,0.046145916,-5.082446
-16.145,41.172382,9.919933,30.017767,2.3392692,0.16524333,-0.8197778,0.5999618,-0.81851196,-0.7029127,0.024756432,-0.6061402,0.66845995,-0.16934471,1.2110721,-0.7348254,-1.8197885,-1.0057081,2.1366484,1.5507753,-0.9297943,1.1625544,-0.66751295,-1.761975,-1.0089447,2.188073,1.4890925,-0.9117126,1.1405859,-1.4523191,-1.2593839,-0.022305226,-0.9143681,0.5155867,0.10311769,0.8188209,-0.64050674,1.1778795,-3.2591443,-0.20850624,-1.2307487,0.1442833,-0.469841,0.9399083,0.7936779,-0.12020333,0.12563072,0.5829609,0.23646146,-0.81389934,-0.8558852,1.0,0.0,0.0,0.0,0.0,0.0,0.0,-1.4688208,0.24050674,-0.62787944,-2.871561,0.62909126,-4.6241283,21.56827,1.9057512,-0.27064085,-4.64713
-9.519896,37.02585,8.271075,20.578632,1.4290693,-0.28335917,-0.5155544,0.5841911,-0.8152098,-0.73633635,-0.027274305,-0.611475,0.6516637,-0.24960314,1.2209735,-0.7490339,-1.8356087,-1.0116721,2.1269255,1.5542588,-0.9366729,1.1736323,-0.6820193,-1.7748802,-1.0084927,2.1790588,1.4941927,-0.91104025,1.0976484,-1.450549,-1.3008469,0.06831956,-0.8981286,0.5080136,0.055330228,0.7862539,-0.64258957,1.1648448,-3.2558858,-0.20829777,-1.3277042,0.14637437,-0.4780693,0.93138474,0.7937924,-0.115761995,0.12589872,0.58364564,0.20815621,-0.8199692,-0.85774124,1.0,0.0,0.0,0.0,0.0,0.0,0.0,-1.4362539,0.24258956,-0.61484474,-4.096341,0.0344038,-4.09112,9.274657,1.3432145,-0.7642031,-4.7678804
5.0318546,32.36743,7.323053,5.598822,-0.073391914,-0.9210727,0.0030239895,0.587244,-0.82880765,-0.7480919,-0.16665462,-0.6251771,0.629299,-0.31899476,1.2323567,-0.7649001,-1.8496894,-1.0251582,2.1165411,1.5571226,-0.9429397,1.1843554,-0.6965981,-1.788121,-1.008384,2.1701248,1.4991919,-0.9108476,1.0641322,-1.4605904,-1.3321502,-0.007635957,-0.8925221,0.4964693,0.0072610234,0.7537195,-0.6446724,1.1508412,-3.2526307,-0.20808952,-1.4245628,0.14861384,-0.48633575,0.9224815,0.79405767,-0.110936835,0.12629546,0.58413607,0.23694484,-0.8244728,-0.9077159,1.0,0.0,0.0,0.0,0.0,0.0,0.0,-1.4037194,0.24467239,-0.6008412,-3.230548,-1.0939121,-3.181243,-7.4390044,0.39412975,-1.3854682,-4.807274
14.945728,32.33026,8.093376,-3.4301891,-1.0812922,-1.135112,0.36573547,0.56897265,-0.8333185,-0.73757035,-0.26508236,-0.6532432,0.6401315,-0.3472117,1.2412527,-0.77992994,-1.861878,-1.0348922,2.1048005,1.563205,-0.9455688,1.19476,-0.7113047,-1.8015182,-1.0098164,2.161126,1.5040842,-0.911107,1.0329354,-1.4741977,-1.3428077,-0.18791892,-0.902473,0.4855533,-0.037001085,0.7212176,-0.6467514,1.1358699,-3.2493787,-0.20788147,-1.5213246,0.15140733,-0.4945717,0.9128803,0.7941765,-0.10537822,0.12690848,0.5848704,0.30092067,-0.81820357,-0.98424596,1.0,0.0,0.0,0.0,0.0,0.0,0.0,-1.3712175,0.2467514,-0.58586985,-3.026843,-1.4114618,-1.2055874,-17.907444,-1.1035442,-1.4578402,-4.428412
14.465168,37.5116,10.203447,-1.8299303,-1.0393741,-0.8096496,0.39677063,0.53840286,-0.82733226,-0.7224566,-0.26841724,-0.67482,0.6642153,-0.32039863,1.2486002,-0.79403794,-1.8737638,-1.0366582,2.093644,1.5705057,-0.9431469,1.2048041,-0.7261,-1.8148639,-1.012975,2.1519477,1.5088965,-0.91173834,0.9953138,-1.4814838,-1.3325309,-0.358254,-0.9234913,0.47865236,-0.07182711,0.6887482,-0.6488266,1.1199316,-3.24613,-0.20767362,-1.6179897,0.15479974,-0.502655,0.9025799,0.7940327,-0.09912323,0.12777054,0.58597034,0.3591461,-0.7987409,-1.0521156,1.0,0.0,0.0,0.0,0.0,0.0,0.0,-1.3387482,0.2488266,-0.56993157,-3.6432385,-0.774765,0.8613825,-16.911972,-2.2295594,-1.0396302,-3.4759662
5.522487,37.781765,9.42022,2.968268,-0.49655986,-0.45258808,0.28421777,0.46470287,-0.8279633,-0.7269161,-0.3242371,-0.676257,0.6631652,-0.261714,1.2512743,-0.80889636,-1.8875555,-1.0453987,2.084322,1.575213,-0.9379097,1.2142149,-0.74093825,-1.8280895,-1.0176919,2.1425636,1.5136515,-0.91262716,0.9236573,-1.4848119,-1.3198334,-0.5089428,-0.9437872,0.47358182,-0.094514236,0.6563112,-0.6509018,1.1030273,-3.2428844,-0.20746599,-1.714558,0.15858611,-0.5105438,0.89165586,0.793665,-0.0922658,0.12888849,0.5873421,0.39153227,-0.7788231,-1.1125537,1.0,0.0,0.0,0.0,0.0,0.0,0.0,-1.3063111,0.2509018,-0.55302733,-6.959164,-0.3907919,1.0766983,-14.8888,-2.2092342,-0.8145213,-2.2625313
-5.857295,40.764637,9.246976,9.9982605,0.17318624,0.034592837,0.097165704,0.384616,-0.8158016,-0.7190695,-0.35651964,-0.7174522,0.6751807,-0.18921739,1.2526765,-0.8225184,-1.8999964,-1.0533438,2.0708184,1.5811696,-0.9315489,1.222632,-0.7557307,-1.8411644,-1.0236123,2.1328857,1.5183798,-0.91365045,0.815306,-1.4776276,-1.3038775,-0.6189998,-0.9763247,0.47172368,-0.10497859,0.6239067,-0.652977,1.0851582,-3.2396421,-0.20725857,-1.8110298,0.16246088,-0.5182228,0.8802456,0.7931827,-0.08495549,0.13031521,0.5887799,0.39176783,-0.75616497,-1.1571351,1.0,0.0,0.0,0.0,0.0,0.0,0.0,-1.2739067,0.25297698,-0.5351582,-10.554695,0.64139366,1.4179468,-10.787058,-3.5121083,-0.40612817,-1.0597438
-37.123615,38.58844,4.967263,26.607761,2.116233,0.8627852,-0.454022,0.18990476,-0.80855286,-0.7109237,-0.30158982,-0.7307867,0.6834083,-0.12522365,1.2416226,-0.836586,-1.9122567,-1.0537713,2.059807,1.5867206,-0.9261728,1.2292277,-0.7704087,-1.8540695,-1.0299599,2.1228797,1.52311,-0.9147052,0.609069,-1.4651258,-1.2861501,-0.6389192,-1.0104119,0.47334236,-0.10581916,0.59153455,-0.6550484,1.0663251,-3.2364032,-0.20705135,-1.9074051,0.16572174,-0.52579117,0.8685975,0.79294,-0.07742999,0.13206528,0.58975375,0.308896,-0.7498455,-1.1738243,1.0,0.0,0.0,0.0,0.0,0.0,0.0,-1.2415345,0.25504836,-0.51632506,-20.179033,1.101923,1.683259,-1.647079,-3.8665175,0.12552738,-0.13389438
-88.11698,23.264381,-7.3294344,45.256096,4.626807,1.7047005,-1.123045,-0.18972096,-0.80610573,-0.7163163,-0.36213315,-0.73415494,0.6673391,-0.053539097,1.2102556,-0.85101926,-1.9257011,-1.0661732,2.0494642,1.589844,-0.92005914,1.2322603,-0.78497034,-1.8668582,-1.0364583,2.1125686,1.5278498,-0.91570276,0.20396726,-1.4540912,-1.276765,-0.65121555,-1.0408987,0.47404194,-0.098110475,0.5591948,-0.65711594,1.0465288,-3.2331674,-0.20684434,-2.003684,0.1672966,-0.53359604,0.8567855,0.79348963,-0.06964718,0.1341632,0.5895113,0.11058674,-0.7824107,-1.1898643,1.0,0.0,0.0,0.0,0.0,0.0,0.0,-1.2091948,0.25711593,-0.4965288,-39.703648,0.8160353,0.8784294,-0.55077076,-3.8362503,0.06420612,0.66512674
-93.66593,18.826239,-9.801834,40.723328,4.4782057,1.8269131,-0.7561427,-0.3908208,-0.803706,-0.64151686,-0.60244656,-0.7115678,0.65877116,0.2351858,1.1931783,-0.86534095,-1.9310099,-1.0967029,2.0414119,1.5937269,-0.8921842,1.230784,-0.7994433,-1.8792541,-1.0440838,2.102082,1.5325781,-0.916398,-0.26187018,-1.4461335,-1.2277616,-0.7968837,-1.0543364,0.47141814,-0.060091306,0.52688736,-0.6591835,1.0257705,-3.229935,-0.20663755,-2.0998666,0.16687214,-0.54169846,0.84460896,0.79477674,-0.061295077,0.1365002,0.58816713,-0.09193253,-0.81138295,-1.2327976,1.0,0.0,0.0,0.0,0.0,0.0,0.0,-1.1768873,0.2591835,-0.47577053,-45.657856,0.45166016,4.7198296,-13.700497,-2.2518873,-0.5141318,3.7812955
-57.401802,53.356678,10.25475,30.676962,3.1581702,2.5542412,0.13930866,-0.44253257,-0.77126575,-0.2972593,-0.7013403,-0.67722726,0.6816876,0.47728714,1.1865308,-0.87656987,-1.90898,-1.1142179,2.0343592,1.6007469,-0.8686693,1.225329,-0.81370836,-1.8895881,-1.0536053,2.0916412,1.5373045,-0.9165229,-0.63800526,-1.4206008,-0.9701528,-1.0019358,-1.0429019,0.47280216,0.004102304,0.49461225,-0.66125107,1.0040512,-3.2267056,-0.20643096,-2.195953,0.16491346,-0.54950714,0.83234584,0.7961143,-0.052776143,0.13858894,0.58669394,-0.2315642,-0.7622746,-1.2296568,1.0,0.0,0.0,0.0,0.0,0.0,0.0,-1.1446122,0.26125106,-0.4540512,-36.956436,2.3468494,25.331127,-19.924164,0.49231052,0.06835461,6.6653433
-20.290253,91.607925,32.56223,25.608503,2.2312844,3.3423047,0.71797204,-0.4980938,-0.74482065,0.047372546,-0.6989855,-0.66901207,0.7023231,0.52078557,1.1755197,-0.88819045,-1.8848509,-1.1235039,2.02474,1.6075368,-0.8644444,1.2170206,-0.8276053,-1.8958557,-1.0648873,2.0814025,1.5420862,-0.9159917,-0.89383847,-1.3793927,-0.514816,-1.1697484,-1.0178427,0.48144022,0.07110541,0.46236938,-0.663311,0.9813717,-3.2234795,-0.20622456,-2.2919433,0.16201493,-0.55628204,0.8206667,0.79687655,-0.045019183,0.13987602,0.58599967,-0.31184542,-0.64076406,-1.1518244,1.0,0.0,0.0,0.0,0.0,0.0,0.0,-1.1123693,0.263311,-0.4313717,-25.20573,4.1392565,44.71412,-16.569592,2.3983002,1.2956202,7.2165356
-10.157349,64.17649,19.994501,15.679501,1.2610908,1.4433897,0.4925653,-0.4965034,-0.7592365,-0.34566188,-0.73365736,-0.63968456,0.6886472,0.51581377,1.1673703,-0.9035289,-1.9304218,-1.138253,2.0174341,1.610951,-0.86441034,1.2071997,-0.8412133,-1.8999393,-1.0775101,2.0714958,1.546929,-0.91486543,-1.0105029,-1.3546103,-0.37464267,-1.2922118,-0.9820183,0.48567092,0.12768008,0.43015876,-0.66537094,0.95773304,-3.2202568,-0.20601837,-2.3878376,0.1586659,-0.56230927,0.80925053,0.7971279,-0.03763525,0.14058961,0.5860078,-0.34573215,-0.5815376,-1.1408972,1.0,0.0,0.0,0.0,0.0,0.0,0.0,-1.0801587,0.26537094,-0.40773302,-11.397659,2.4816513,13.466639,-11.969399,3.5099626,0.5503535,5.9868307
-1.9885726,35.395023,7.0291123,6.4093122,0.41241664,-0.30913883,0.31179988,-0.46186137,-0.7828113,-0.5636165,-0.7619893,-0.62488663,0.6619759,0.5352228,1.1610136,-0.9194944,-1.956301,-1.153709,2.0090072,1.6131266,-0.86134315,1.1971194,-0.8547841,-1.9046886,-1.0910256,2.06194,1.5517718,-0.9132375,-1.006864,-1.357975,-0.5089933,-1.3703163,-0.9473102,0.48288223,0.17482492,0.39798036,-0.6674309,0.9331361,-3.2170372,-0.2058124,-2.4836361,0.15525553,-0.5681915,0.7973989,0.79709125,-0.029773211,0.14115894,0.58637285,-0.3429694,-0.58096904,-1.2015731,1.0,0.0,0.0,0.0,0.0,0.0,0.0,-1.0479803,0.26743087,-0.3831361,0.5107403,-0.38621426,-13.582033,-7.489133,3.262937,-0.50919056,4.8313947
-6.3346744,23.16629,0.14031029,6.3045917,0.40096053,-0.84840757,0.0676063,-0.49717444,-0.780419,-0.6409395,-0.7592336,-0.6554672,0.66705835,0.5449987,1.1474019,-0.932826,-1.9687825,-1.1669489,1.9963932,1.6184776,-0.85873765,1.187306,-0.868455,-1.9117076,-1.104955,2.0525634,1.5565745,-0.9111995,-0.97251314,-1.3704652,-0.7659994,-1.3991339,-0.93531317,0.4779862,0.21348257,0.36583412,-0.669487,0.90758187,-3.2138207,-0.20560662,-2.5793388,0.15184957,-0.57427216,0.7847324,0.7969699,-0.020974187,0.1418958,0.58674073,-0.34347838,-0.6069605,-1.2899591,1.0,0.0,0.0,0.0,0.0,0.0,0.0,-1.0158341,0.269487,-0.35758185,3.5663724,-1.3490438,-25.637758,-2.4974108,0.8740425,-0.89788437,3.8738637
-23.848034,20.798403,-3.492691,13.381327,1.2421116,-0.46526098,-0.24721819,-0.5935668,-0.7772956,-0.69256854,-0.74835986,-0.67521095,0.6681759,0.51113355,1.1279494,-0.9461846,-1.9809645,-1.179791,1.9850423,1.6233921,-0.86008614,1.1774546,-0.8822499,-1.9213588,-1.1188805,2.0431678,1.5613238,-0.9088544,-0.98859036,-1.3830582,-1.0311447,-1.3887239,-0.9423113,0.47241932,0.2415417,0.33372,-0.6715393,0.8810713,-3.2106075,-0.20540106,-2.6749456,0.14813198,-0.58068085,0.7712113,0.79699177,-0.0111699365,0.14292252,0.58673036,-0.3849917,-0.6409553,-1.3750763,1.0,0.0,0.0,0.0,0.0,0.0,0.0,-0.98371994,0.2715393,-0.33107132,-1.4023781,-1.4339447,-26.370764,1.544261,-1.1531472,-1.0459065,2.7968526
-37.683895,31.32316,-0.4950168,21.257133,2.1704879,0.46128812,-0.40320396,-0.6815168,-0.7606197,-0.6878579,-0.73896646,-0.64748925,0.6793066,0.5205574,1.1093029,-0.95831186,-1.9901446,-1.1927772,1.978419,1.6292545,-0.8567987,1.1669623,-0.89606863,-1.9330432,-1.1325486,2.0337455,1.5660349,-0.9062614,-1.0685011,-1.3821619,-1.2139568,-1.3575552,-0.9438674,0.46910444,0.2653814,0.301638,-0.6735916,0.85360545,-3.2073977,-0.20519571,-2.770457,0.14370106,-0.5873184,0.75708324,0.7972887,-0.0006189752,0.14412943,0.5861374,-0.46681386,-0.65925986,-1.4283065,1.0,0.0,0.0,0.0,0.0,0.0,0.0,-0.951638,0.2735916,-0.30360544,-7.737398,-0.12807846,-18.144941,3.6603928,-0.67305565,-0.76577663,2.4303913
-41.424522,42.84596,4.5832405,24.935951,2.669298,1.1978122,-0.40964147,-0.7323246,-0.75297934,-0.6931303,-0.7307233,-0.59967214,0.68129605,0.48497522,1.0937299,-0.9713666,-2.0023563,-1.2056209,1.9737784,1.6341646,-0.8577639,1.1554419,-0.9098101,-1.945893,-1.1458676,2.0244567,1.5707232,-0.90348524,-1.178936,-1.3721976,-1.3082627,-1.3216553,-0.9256365,0.46757612,0.28217235,0.26958808,-0.6756439,0.8251852,-3.204191,-0.20499055,-2.865873,0.13832265,-0.5939903,0.74265426,0.79788154,0.010336298,0.1452759,0.5849557,-0.566353,-0.6580833,-1.451071,1.0,0.0,0.0,0.0,0.0,0.0,0.0,-0.9195881,0.27564391,-0.27518517,-10.800171,0.77462196,-9.328318,4.1050673,1.3171673,-0.50527453,1.8014967
-38.88408,49.239494,8.358912,25.124235,2.770384,1.5561559,-0.3552798,-0.76548994,-0.7598001,-0.7151877,-0.7078802,-0.57899386,0.68285275,0.45676103,1.078893,-0.98579013,-2.0174117,-1.2166556,1.9665574,1.6390084,-0.8578091,1.1428286,-0.9234763,-1.9592559,-1.1587899,2.0154197,1.5754038,-0.90058416,-1.2880492,-1.365491,-1.3455324,-1.2809176,-0.89774305,0.4673483,0.29327437,0.23757021,-0.6776924,0.7958115,-3.2009873,-0.2047856,-2.9611938,0.13195181,-0.60056305,0.72812533,0.7987327,0.02143593,0.1461523,0.58327186,-0.6660208,-0.6442261,-1.4569422,1.0,0.0,0.0,0.0,0.0,0.0,0.0,-0.8875702,0.2776924,-0.24581146,-10.706019,0.46617985,-3.6596775,4.546404,2.3476124,-0.31549335,1.2875915
-31.994383,53.093838,11.322696,22.671812,2.549016,1.64185,-0.26335004,-0.791494,-0.75894195,-0.7395006,-0.6984895,-0.5372314,0.6724425,0.39860407,1.0636792,-0.99937046,-2.033206,-1.2286388,1.9616966,1.6426481,-0.86072373,1.1292711,-0.93709093,-1.9728019,-1.1713555,2.0067642,1.5800806,-0.8976335,-1.3778523,-1.3606218,-1.3575717,-1.2470847,-0.8560978,0.46682042,0.29638043,0.20558435,-0.6797371,0.7654853,-3.197787,-0.20458086,-3.0564191,0.12468177,-0.6069336,0.71358097,0.79978114,0.032548692,0.14660707,0.58120304,-0.7528297,-0.62118244,-1.4567146,1.0,0.0,0.0,0.0,0.0,0.0,0.0,-0.8555843,0.2797371,-0.21548527,-8.816957,0.31552315,-1.1730433,3.8002968,3.8019538,-0.30421615,0.5213797
-23.88825,57.48507,14.61479,20.188652,2.2333548,1.688117,-0.17846738,-0.8122627,-0.7533519,-0.73853886,-0.67686707,-0.5106517,0.6660033,0.35802677,1.0480449,-1.0124261,-2.046656,-1.2390422,1.955699,1.646681,-0.86183083,1.1150023,-0.9506474,-1.9863327,-1.1835911,1.9985557,1.5847517,-0.8946952,-1.4428596,-1.3544633,-1.3513689,-1.2144227,-0.80998135,0.46638918,0.29380694,0.17363046,-0.68178177,0.7342076,-3.1945899,-0.20437633,-3.151549,0.11666983,-0.6130104,0.69908935,0.8009589,0.043573722,0.14657025,0.57886374,-0.8227551,-0.5890838,-1.4494649,0.0,1.0,0.0,0.0,0.0,0.0,0.0,-0.82363045,0.28178176,-0.18420756,-6.384945,0.4876852,0.6197214,3.603363,4.339373,-0.23162961,-0.03771782
-16.087456,57.386364,15.889925,16.71134,1.8364954,1.5554904,-0.10554631,-0.8218574,-0.75963426,-0.75178504,-0.6668947,-0.48293507,0.65586525,0.27422053,1.0328165,-1.0266109,-2.061511,-1.2502806,1.9502622,1.6503383,-0.86727315,1.1002359,-0.96413565,-2.0001574,-1.1957716,1.9914014,1.5891286,-0.89208853,-1.495544,-1.3385582,-1.4551749,-1.2606497,-0.6036012,0.33461508,0.23099771,0.14691561,-0.6836853,0.7112964,-1.7888062,-0.068932064,-0.20480222,0.10804317,-0.6188736,0.68452156,0.80232227,0.054783337,0.14579037,0.57621425,-0.8813112,-0.5957645,-1.485137,0.0,1.0,0.0,0.0,0.0,0.0,0.0,-0.7969156,0.2836853,-0.16129637,-6.625128,3.0097961,-21.194817,-11.549354,36.353268,-26.40428,-11.180186
33.603664,176.0,110.0,110.0,6.0034237,11.970652,-2.0898528,-0.73853636,0.48565242,0.7179821,0.642471,-0.43051103,0.67674047,-0.39306194,1.0263823,-0.9155704,-1.9283592,-1.1315244,1.9483503,1.6568027,-0.9313947,1.0885477,-0.9804597,-2.00533,-1.1936487,1.9750345,1.5997239,-0.8885561,-1.0517168,-1.6762145,-0.29137197,0.68032074,-1.9013717,1.3458521,0.41280448,0.12904096,-0.68437195,0.70851344,-1.7870178,-0.068863146,-0.3027834,0.098419055,-0.6232796,0.6745885,0.80425966,0.056393612,0.14754239,0.5729025,-0.99381834,-0.3734678,-0.83185923,0.0,1.0,0.0,0.0,0.0,0.0,0.0,-0.77904093,0.28437194,-0.15851343,46.849728,-17.52069,90.37328,187.19469,-105.84276,114.52316,23.799675
-39.73791,151.09966,59.1116,83.604576,8.799748,4.8327994,-2.2975028,-0.8106387,-0.7077391,0.034846038,0.6869495,-0.30876458,0.61872065,-0.41063374,1.0074838,-1.0512336,-2.0018456,-1.1249537,1.9441581,1.6615961,-0.9296195,1.0781298,-0.99700975,-2.004426,-1.1804003,1.9565523,1.6132509,-0.88495505,-1.0368686,-1.6486996,0.2196031,1.5414393,-1.8336635,1.3590075,0.34606314,0.11118418,-0.6850586,0.70475143,-1.7852311,-0.068794295,-0.40066662,0.08710375,-0.62701035,0.66916156,0.80770296,0.05135072,0.14996624,0.5678812,-1.1775943,-0.3622169,-0.45006204,0.0,1.0,0.0,0.0,0.0,0.0,0.0,-0.76118416,0.2850586,-0.15475142,1.9510269,2.5248528,51.63163,86.663605,5.835223,2.5750637,-5.6313334
-51.993713,117.858955,30.214113,55.37163,5.893083,2.3206878,-1.7651768,-0.7752536,-0.6039632,-0.27656478,0.63980865,-0.4668702,0.64569646,-0.25871617,1.0006044,-1.0574061,-2.0320826,-1.1164194,1.9098653,1.6778204,-0.9108267,1.0672178,-1.0120549,-2.0021791,-1.162515,1.9402387,1.6262437,-0.88203776,-1.1076112,-1.4570421,0.2258926,1.8728617,-1.5649475,1.2812188,0.27459097,0.09334526,-0.68574524,0.7000113,-1.7834463,-0.06872551,-0.49845198,0.0742429,-0.6306801,0.6660098,0.8126184,0.04462458,0.15216328,0.56080866,-1.3233484,-0.36140564,-0.27692476,0.0,1.0,0.0,0.0,0.0,0.0,0.0,-0.74334526,0.28574523,-0.1500113,-6.6049576,18.939924,0.44438243,33.736015,26.56517,-7.1660995,-6.833619
-23.33348,112.863495,36.360027,30.69606,3.703869,2.3503215,-0.5456464,-0.7714176,-0.6804196,0.39620727,0.706101,-0.5057266,0.5904302,-0.22055669,0.99007607,-1.0800968,-1.9625584,-1.091905,1.8896661,1.6852868,-0.90409344,1.0552672,-1.0254707,-1.9984272,-1.1440469,1.9268306,1.6376863,-0.8796146,-1.2237458,-1.3037941,0.42440942,1.8387321,-1.2642863,1.1028988,0.22947675,0.074466765,-0.68572235,0.6989908,-1.8897588,0.023585262,0.031157373,0.060592953,-0.6339798,0.66423523,0.81816787,0.037658278,0.15351813,0.5528249,-1.3823053,-0.31011996,-0.15153536,0.0,1.0,0.0,0.0,0.0,0.0,0.0,-0.72446674,0.28572235,-0.14899081,-11.425447,14.963555,21.005571,-2.259469,31.455183,-12.582064,-7.0682344
-16.760303,108.489456,31.748148,19.78654,1.8514123,1.8545119,-0.24497639,-0.8024927,-0.51920986,0.25811124,0.7133552,-0.523716,0.6139408,-0.33853427,0.97501796,-1.0773917,-1.9726161,-1.0727113,1.874459,1.6990803,-0.913468,1.0421332,-1.0369987,-1.9936062,-1.1270318,1.9160728,1.6477598,-0.8778643,-1.3431813,-1.1033298,0.50120443,1.6559623,-1.0147105,0.9768728,0.15681234,0.055776484,-0.6852188,0.69970214,-1.8629173,0.058905657,0.08175693,0.04663593,-0.6366005,0.66336256,0.8239483,0.030926311,0.15420024,0.5444032,-1.4035051,-0.23699571,-0.0726018,0.0,1.0,0.0,0.0,0.0,0.0,0.0,-0.70577645,0.2852188,-0.14970213,-11.911535,19.832874,7.6182547,-18.235756,24.466919,-12.227225,-7.2969823
-6.7814035,110.61808,32.96441,15.910515,1.0587971,1.6193511,-0.12079413,-0.8056385,-0.41085085,0.27237657,0.7281893,-0.4393748,0.6023919,-0.37344724,0.96156937,-1.0780839,-1.9663686,-1.0542129,1.8721354,1.707999,-0.91520905,1.0280589,-1.046442,-1.9883448,-1.1119298,1.9074728,1.656736,-0.87682194,-1.429064,-0.8920309,0.53465176,1.4616976,-0.8100579,0.8725814,0.08639829,0.037429668,-0.6843376,0.7009503,-1.8259606,0.09730165,0.13696264,0.032689136,-0.63845825,0.6632201,0.82977873,0.024560103,0.15460673,0.5356872,-1.395048,-0.15830672,-0.00013827205,0.0,1.0,0.0,0.0,0.0,0.0,0.0,-0.68742967,0.2843376,-0.15095031,-8.642769,20.92967,3.3700228,-19.42017,20.023382,-10.051096,-7.1332307
-0.04552269,106.17552,31.966875,14.246029,0.75680697,1.277015,-0.08220334,-0.807425,-0.34027088,0.27920905,0.7161363,-0.3526856,0.6154537,-0.34935504,0.9473164,-1.0804691,-1.9604238,-1.0403161,1.8722043,1.7182814,-0.91175747,1.0134276,-1.053936,-1.9829936,-1.0984433,1.9006318,1.6648321,-0.8763964,-1.474878,-0.7024479,0.53559667,1.3109717,-0.6434924,0.78976065,0.02765241,0.019474458,-0.6830864,0.7027272,-1.7857956,0.13392273,0.18997176,0.018924339,-0.6395874,0.6637303,0.8355759,0.01850964,0.15494974,0.52674556,-1.3731806,-0.08849315,0.06385703,0.0,1.0,0.0,0.0,0.0,0.0,0.0,-0.6694744,0.2830864,-0.15272719,-4.662013,18.784927,0.18914938,-15.052867,16.280735,-7.9526663,-5.962192
4.6947937,106.67125,32.83786,15.082764,0.6866709,1.0958091,-0.12093879,-0.80577344,-0.24703388,0.29103282,0.71371555,-0.31536117,0.61065996,-0.35178697,0.93285024,-1.0786394,-1.9538903,-1.0270717,1.8690957,1.7258981,-0.91157514,0.998592,-1.0596447,-1.9776932,-1.0859749,1.8951242,1.6722155,-0.87648535,-1.4867179,-0.52744085,0.52876276,1.2257112,-0.5209417,0.7222017,-0.02139432,0.0019480977,-0.68146896,0.7051083,-1.7417548,0.17085573,0.25372007,0.005428791,-0.64006424,0.66491735,0.841315,0.012628522,0.15542853,0.51756316,-1.3439094,-0.024785215,0.1338446,0.0,1.0,0.0,0.0,0.0,0.0,0.0,-0.6519481,0.28146896,-0.15510827,-1.2633562,17.337704,-0.51652193,-8.484864,11.903596,-6.4719796,-4.9875665
4.3647223,108.02553,33.36625,17.448217,0.97038287,1.0406915,-0.20352015,-0.8147924,-0.15127319,0.29435766,0.7087403,-0.21372592,0.6023176,-0.36096394,0.91711277,-1.074772,-1.9482574,-1.015101,1.8737516,1.7324473,-0.91258174,0.9837433,-1.0636654,-1.9724709,-1.0739568,1.8907851,1.679011,-0.87700486,-1.4844999,-0.3607627,0.52078086,1.1940105,-0.40601125,0.66597295,-0.062297843,-0.015142365,-0.6794815,0.70819515,-1.6981559,0.20831679,0.327096,-0.007822187,-0.63994217,0.6668684,0.84702253,0.0067446423,0.15612534,0.5080672,-1.3202662,0.03374292,0.2129347,0.0,1.0,0.0,0.0,0.0,0.0,0.0,-0.6348576,0.2794815,-0.15819514,0.16036034,16.509104,-0.60378313,-3.0967712,11.174971,-5.405426,-4.1520886
3.3550007,103.74721,32.231606,18.230194,1.2581749,0.9839872,-0.23426813,-0.8191825,-0.099239275,0.32045957,0.7000599,-0.1267505,0.6156505,-0.40007138,0.9018251,-1.0735893,-1.9404249,-1.0039508,1.87811,1.740576,-0.917012,0.96895087,-1.0662423,-1.9671893,-1.0620283,1.8875765,1.6853309,-0.8779057,-1.4776801,-0.22399949,0.531233,1.1927143,-0.29351044,0.6208815,-0.0994018,-0.03182163,-0.67713165,0.711985,-1.6580352,0.24506992,0.39679992,-0.020904213,-0.63928604,0.6695892,0.8527214,0.00070504006,0.15695256,0.49822834,-1.3050408,0.086854555,0.2894999,0.0,1.0,0.0,0.0,0.0,0.0,0.0,-0.61817837,0.27713165,-0.16198498,0.6376505,13.525454,1.2639642,-0.03964901,10.955447,-4.3693185,-3.7396266
1.2287006,96.765755,29.286837,17.925207,1.3548641,0.8408794,-0.23672923,-0.81960297,-0.039498,0.2941761,0.6918586,-0.045139562,0.611596,-0.3931322,0.88699055,-1.0701921,-1.9377717,-0.99284244,1.8830625,1.7464905,-0.9172189,0.95422804,-1.0676157,-1.9619038,-1.050031,1.8854877,1.6912612,-0.87912667,-1.4705627,-0.10889549,0.5283518,1.2023187,-0.18139172,0.5838555,-0.12965326,-0.048141014,-0.67443466,0.71636647,-1.6232293,0.27918336,0.45290375,-0.03388839,-0.6381264,0.6729783,0.8584164,-0.005501557,0.15783165,0.4880371,-1.2965156,0.1335323,0.35339582,0.0,1.0,0.0,0.0,0.0,0.0,0.0,-0.601859,0.27443466,-0.16636646,0.6758213,11.373191,-0.08505583,1.0536194,10.969743,-3.6147714,-3.0405567
-3.0249257,92.26874,26.381878,18.471226,1.459199,0.727864,-0.27220032,-0.8258073,0.035208765,0.23769069,0.69446087,0.058008198,0.61484355,-0.3873011,0.8716473,-1.0640949,-1.9381348,-0.98058486,1.8912885,1.7527455,-0.91785675,0.9395329,-1.0678675,-1.9569253,-1.0379001,1.8845888,1.6968762,-0.88060504,-1.4692438,0.0024123138,0.48817882,1.216908,-0.059835125,0.5538997,-0.15384574,-0.06415242,-0.67141724,0.7212176,-1.5936993,0.31128696,0.4968839,-0.046854563,-0.6365509,0.6769221,0.86412156,-0.011786185,0.15875752,0.4774422,-1.296406,0.17550822,0.40625614,0.0,1.0,0.0,0.0,0.0,0.0,0.0,-0.58584756,0.27141723,-0.17121756,0.09968281,11.002681,-3.8530052,1.5541553,11.9806,-2.948153,-2.4331093
-5.719817,89.18026,24.066048,18.668781,1.2861164,0.6265133,-0.30436382,-0.82570034,0.10106192,0.1796623,0.7113615,0.0577742,0.6188093,-0.42202663,0.85696286,-1.0577613,-1.938959,-0.9667639,1.8903663,1.7587571,-0.9228077,0.92483294,-1.0670112,-1.95262,-1.0255615,1.8846704,1.7022357,-0.88231796,-1.4703295,0.112746246,0.41169992,1.2396665,0.030552784,0.5299334,-0.17711125,-0.07988126,-0.6680794,0.7264517,-1.5658486,0.34299666,0.53328854,-0.059823,-0.6345749,0.6813186,0.86983335,-0.018021176,0.1599027,0.46636486,-1.2962569,0.21582167,0.44894254,0.0,1.0,0.0,0.0,0.0,0.0,0.0,-0.5701187,0.26807937,-0.17645168,-0.14500618,10.907633,-7.499957,2.3599148,8.905715,-2.3682594,-2.3547828
-11.011511,69.57743,16.026167,16.499678,1.2737712,0.28831196,-0.30254862,-0.8345632,0.09057546,0.0832567,0.70690954,0.1536712,0.6172469,-0.44030163,0.8413766,-1.0579537,-1.9442943,-0.9548705,1.9000375,1.7639604,-0.92634815,0.9100739,-1.0653957,-1.9494438,-1.0130471,1.8856709,1.7073938,-0.88425004,-1.4778103,0.1775406,0.28654912,1.2553638,0.12335138,0.51098394,-0.19864646,-0.09542521,-0.6644974,0.73173,-1.5502275,0.36459953,0.5276365,-0.07289118,-0.63230896,0.6858449,0.8755712,-0.023956375,0.16122861,0.4547597,-1.3089732,0.23968409,0.4524425,0.0,1.0,0.0,0.0,0.0,0.0,0.0,-0.5545748,0.26449737,-0.18172997,-0.77250004,6.3925,-12.450731,1.6144276,9.237921,-1.8837929,-2.1785946
-7.498105,79.18622,19.092936,16.67765,0.83433485,0.3688338,-0.26001108,-0.8249357,0.19751728,0.03445726,0.7244527,0.094013125,0.6134185,-0.43279225,0.82758033,-1.045644,-1.9459981,-0.9406018,1.8950722,1.7687356,-0.9275293,0.8952848,-1.0629238,-1.9475722,-1.0003535,1.8872339,1.7123839,-0.88636893,-1.4794255,0.27008817,0.15443441,1.2740316,0.16711968,0.4948626,-0.21648699,-0.110740595,-0.66064835,0.7371054,-1.5248656,0.39337036,0.5425446,-0.08595841,-0.62974167,0.69050056,0.88127345,-0.029522993,0.16298677,0.44262943,-1.3040292,0.27372706,0.46881393,0.0,1.0,0.0,0.0,0.0,0.0,0.0,-0.5392594,0.26064834,-0.18710542,-0.21862984,9.133357,-13.059198,1.8801928,4.2770267,-1.6111314,-1.8545657
-12.623781,68.71925,13.573181,16.171728,0.4517039,0.13832307,-0.28812805,-0.8384153,0.21722332,-0.13245137,0.74200493,0.003079668,0.6172571,-0.4525575,0.8114432,-1.0412015,-1.9608173,-0.92615294,1.8875418,1.7741096,-0.93162465,0.88043225,-1.0596336,-1.9475049,-0.9874352,1.8887593,1.7172418,-0.88865966,-1.487297,0.34845132,-0.0423143,1.2976755,0.14784251,0.48267767,-0.2335705,-0.12583609,-0.65655136,0.74245965,-1.50384,0.41672924,0.5351286,-0.09898741,-0.6268997,0.69512,0.8869103,-0.03445424,0.1655498,0.42987928,-1.2999204,0.29863468,0.45895064,0.0,1.0,0.0,0.0,0.0,0.0,0.0,-0.5241639,0.25655136,-0.19245964,-0.8333206,7.728404,-19.593092,2.3512125,-1.9630045,-1.2028575,-1.7995536
-15.957173,48.09878,5.5831156,13.286436,0.17363486,-0.24483001,-0.25148222,-0.838935,0.18691033,-0.2916181,0.7465459,-0.029426483,0.60440063,-0.4324741,0.7965388,-1.0409425,-1.9766667,-0.91278064,1.8858166,1.7776818,-0.93190706,0.86550903,-1.0559257,-1.9498007,-0.9743017,1.8898544,1.7219944,-0.891089,-1.4941206,0.378185,-0.29229978,1.3183669,0.09715932,0.4728224,-0.24649473,-0.14079513,-0.652298,0.7474237,-1.4925387,0.4285993,0.48638618,-0.11202861,-0.6239624,0.6993295,0.8924757,-0.038380593,0.16903335,0.41646335,-1.3024274,0.30444202,0.4080126,0.0,1.0,0.0,0.0,0.0,0.0,0.0,-0.50920486,0.25229797,-0.1974237,-0.6946802,2.9049337,-25.024742,2.0227432,-5.0171866,-0.92950463,-1.4069915
-13.64941,37.968098,3.386845,10.816711,0.050290734,-0.3280797,-0.1580283,-0.8335817,0.1589755,-0.3356687,0.7577798,-0.10511068,0.6055358,-0.42063174,0.78215086,-1.0400282,-1.9833676,-0.8985237,1.8793434,1.782548,-0.9331522,0.85056007,-1.0522636,-1.954324,-0.960966,1.8902148,1.7266655,-0.8936231,-1.4952313,0.36190754,-0.5057997,1.3383722,0.016108118,0.46522263,-0.25614467,-0.15565762,-0.64795303,0.751794,-1.4832642,0.43725199,0.42370182,-0.12509432,-0.62099457,0.7029199,0.89792347,-0.041224267,0.17334925,0.4024722,-1.3046,0.30405134,0.34292325,0.0,1.0,0.0,0.0,0.0,0.0,0.0,-0.49434236,0.24795303,-0.20179397,-0.10793209,-1.68342,-21.344011,1.942563,-8.075726,-0.705421,-1.1031747
-10.332725,31.384434,2.7830505,8.79803,0.0389494,-0.34313518,-0.061826896,-0.8262735,0.11831387,-0.38227263,0.7707471,-0.17656237,0.60495526,-0.39845333,0.7679327,-1.0404322,-1.9925513,-0.8838913,1.8725586,1.787161,-0.93346846,0.83565223,-1.049065,-1.9605755,-0.9474243,1.8896346,1.7312723,-0.89622384,-1.4892277,0.3056775,-0.66494185,1.3591624,-0.082236096,0.45939317,-0.2618768,-0.17043352,-0.64354324,0.7554869,-1.4746883,0.44314596,0.35445678,-0.13818005,-0.6180725,0.7058088,0.9031952,-0.04308161,0.17831258,0.38805518,-1.3063508,0.3004243,0.27160537,0.0,1.0,0.0,0.0,0.0,0.0,0.0,-0.47956645,0.24354324,-0.2054869,0.6117821,-5.6686697,-15.8584,2.0310402,-9.836548,-0.5394399,-0.7162452
-8.80439,27.356123,2.3441312,7.537575,0.027139187,-0.3438996,0.017751116,-0.8261085,0.07763492,-0.4496758,0.77339745,-0.25578243,0.59035385,-0.36787647,0.7530414,-1.0413015,-2.005543,-0.8700845,1.8640563,1.7903078,-0.9330115,0.8208121,-1.0466068,-1.9681467,-0.9337136,1.8879852,1.735821,-0.89884937,-1.4821799,0.22566421,-0.7877243,1.3748378,-0.19222927,0.45342872,-0.26318204,-0.18512964,-0.6390877,0.75844675,-1.4666048,0.4474119,0.2806348,-0.15128523,-0.6151924,0.7079498,0.9082415,-0.044025525,0.18377551,0.37334374,-1.3083822,0.2951015,0.19594993,0.0,1.0,0.0,0.0,0.0,0.0,0.0,-0.46487033,0.23908767,-0.20844674,0.7205725,-8.0417,-12.189161,1.5412092,-11.02646,-0.5549133,-0.273633
-4.8308983,34.077713,5.7070265,7.5055485,0.11842808,-0.19264853,0.10457684,-0.8180537,0.055253044,-0.46015427,0.77847856,-0.30600655,0.60099804,-0.3038355,0.73900676,-1.0410814,-2.014162,-0.8558658,1.8573846,1.7959208,-0.9292329,0.8060683,-1.044934,-1.9765396,-0.91987985,1.8852909,1.7403214,-0.9014321,-1.4718841,0.14769973,-0.85590035,1.3860617,-0.29525468,0.44881734,-0.25713348,-0.19969936,-0.6345558,0.76078784,-1.4524826,0.455992,0.2223253,-0.16436552,-0.6123085,0.7094454,0.9130047,-0.044233456,0.18960457,0.3584912,-1.3045361,0.2969051,0.13532601,0.0,1.0,0.0,0.0,0.0,0.0,0.0,-0.45030063,0.23455581,-0.21078783,1.0101318,-7.8582497,-6.594026,1.0891438,-10.444223,-0.4633248,0.4567206
-7.7603855,22.15899,1.9102061,6.2900677,0.2645321,-0.32988906,0.12896161,-0.82314324,-0.04117079,-0.5287229,0.7787361,-0.34276864,0.5714767,-0.27728733,0.723754,-1.0490512,-2.0294118,-0.84200627,1.851014,1.797469,-0.92916083,0.79138744,-1.044297,-1.9855858,-0.90596986,1.8816638,1.7447624,-0.9039315,-1.4667004,0.03561106,-0.92067564,1.3926959,-0.38501883,0.44260615,-0.24787772,-0.21419768,-0.6299896,0.7623706,-1.4476213,0.45763004,0.14082038,-0.17750485,-0.60947037,0.710194,0.9174925,-0.043699224,0.1955914,0.343572,-1.3138503,0.2897432,0.055860266,0.0,1.0,0.0,0.0,0.0,0.0,0.0,-0.43580228,0.22998962,-0.21237057,0.54397583,-11.242985,-6.3495755,0.6979227,-9.041244,-0.61290264,0.8196473
-1.0023963,47.050587,10.409628,8.449184,0.30107194,0.0045076013,0.2189391,-0.80737007,0.011489731,-0.508425,0.7769802,-0.37838945,0.5952111,-0.13795556,0.71065044,-1.043148,-2.0364282,-0.82827187,1.8438249,1.8042835,-0.91772705,0.77680194,-1.0443313,-1.9949707,-0.8920465,1.8772812,1.7491555,-0.9062386,-1.4560496,-0.016685538,-0.9431861,1.3919708,-0.4568028,0.4378224,-0.2254329,-0.22850509,-0.625309,0.76349485,-1.4236505,0.47242764,0.10671206,-0.1905821,-0.6065674,0.71047133,0.92164266,-0.042626042,0.20174584,0.32871935,-1.3023667,0.30255073,0.01945004,0.0,1.0,0.0,0.0,0.0,0.0,0.0,-0.4214949,0.22530898,-0.21349484,0.98633766,-5.334111,-1.8330574,-0.13053417,-7.5103164,-0.56592226,2.090046
-6.0275383,26.331005,3.7637887,6.454334,0.48972568,-0.26070213,0.199379,-0.81315106,-0.13579692,-0.56142646,0.78053594,-0.38918293,0.56045556,-0.15596926,0.69548684,-1.057911,-2.0511134,-0.8139929,1.8383629,1.805201,-0.92183554,0.76228416,-1.0453041,-2.0046563,-0.87812126,1.8723153,1.7534872,-0.90834254,-1.4503711,-0.12433556,-0.97630954,1.3927771,-0.50987387,0.43144542,-0.20562156,-0.24270102,-0.62057114,0.76397765,-1.4168463,0.4754231,0.032414947,-0.20370872,-0.6036377,0.71013826,0.9254972,-0.040975135,0.20785211,0.31396425,-1.3129828,0.29965892,-0.049965613,0.0,1.0,0.0,0.0,0.0,0.0,0.0,-0.40729895,0.22057113,-0.21397763,0.57559013,-10.816404,-3.10843,0.13422966,-5.4531455,-0.68989396,1.9009471
-5.954792,30.188557,4.790894,7.031764,0.53158045,-0.19127285,0.2251038,-0.8096431,-0.15607265,-0.57412165,0.778928,-0.42713585,0.5810672,-0.07188585,0.68131983,-1.0609113,-2.0620685,-0.8002285,1.8296016,1.811594,-0.9155311,0.74781406,-1.0472724,-2.014642,-0.86419994,1.8668659,1.7577735,-0.91020495,-1.4459366,-0.221315,-1.0053513,1.392056,-0.5567571,0.42738593,-0.18000443,-0.25681072,-0.6157837,0.7637647,-1.4076161,0.4802759,-0.035786703,-0.21693158,-0.6007118,0.7091579,0.92907035,-0.038738012,0.21383539,0.29933584,-1.3223561,0.30112985,-0.11334715,0.0,1.0,0.0,0.0,0.0,0.0,0.0,-0.39318925,0.21578369,-0.21376467,0.44088364,-9.765914,-2.656889,-0.010561943,-4.881406,-0.4880011,2.4828374
-8.177135,16.84925,1.0308971,5.318768,0.6607158,-0.3210572,0.23460919,-0.808218,-0.27193412,-0.5786208,0.78080255,-0.42209992,0.57130533,-0.038953293,0.66699225,-1.0744659,-2.072504,-0.7861197,1.8246559,1.8149041,-0.9141003,0.7333802,-1.0505054,-2.0248578,-0.8502677,1.8610752,1.7620176,-0.9118034,-1.4424125,-0.35759348,-1.0269085,1.3939942,-0.586755,0.42336977,-0.15334493,-0.270877,-0.6109848,0.76266265,-1.4068135,0.47965145,-0.13089332,-0.23035543,-0.5978203,0.7073966,0.9324053,-0.035905488,0.21949434,0.28487444,-1.3459948,0.29506195,-0.1966194,0.0,1.0,0.0,0.0,0.0,0.0,0.0,-0.37912297,0.2109848,-0.21266264,0.40700436,-13.663048,-2.0593405,0.33876896,-3.0632377,-0.46021938,2.6422143
-8.284168,12.992443,-0.0877583,4.250914,0.65034974,-0.3577777,0.2975774,-0.8044614,-0.3408049,-0.6008865,0.7713986,-0.41331622,0.56172943,0.107740834,0.6529341,-1.0845859,-2.0849464,-0.77312785,1.8197435,1.8181906,-0.90102935,0.71898735,-1.0551631,-2.0353177,-0.83635646,1.8551147,1.7662195,-0.9130499,-1.4380172,-0.5020175,-1.0522559,1.3907629,-0.59938675,0.41869918,-0.11495152,-0.28493458,-0.60619354,0.7606073,-1.405407,0.47917187,-0.23040736,-0.24404189,-0.59500885,0.70475006,0.93552715,-0.03244635,0.2246763,0.2706597,-1.3731298,0.2878283,-0.2871385,0.0,1.0,0.0,0.0,0.0,0.0,0.0,-0.3650654,0.20619354,-0.21060729,0.5132437,-14.472633,-2.4758816,-0.12142658,-1.2944698,-0.5612552,3.8633018
-10.020928,4.753301,-2.5177808,3.0215297,0.6789141,-0.44001204,0.3244301,-0.80338997,-0.4442481,-0.6236002,0.7725201,-0.39412156,0.5292994,0.20780906,0.63864833,-1.0995879,-2.0976777,-0.75910443,1.8157026,1.8191495,-0.89226896,0.70463645,-1.0614192,-2.0460827,-0.82247096,1.84916,1.7703527,-0.91386145,-1.4337807,-0.6667052,-1.084862,1.3887353,-0.5938631,0.41117254,-0.069653146,-0.2989781,-0.6014061,0.7575576,-1.4040018,0.47869277,-0.3298219,-0.2580694,-0.5922966,0.70109683,0.93847406,-0.0283045,0.22922848,0.25674805,-1.409523,0.27730528,-0.3913655,0.0,1.0,0.0,0.0,0.0,0.0,0.0,-0.3510219,0.20140609,-0.20755756,0.54130554,-16.48637,-3.3132792,0.08702278,0.6144643,-0.8697331,4.6171637
-7.115108,10.716877,-0.0308038,3.0093398,0.8557042,-0.28244573,0.3420397,-0.79578876,-0.5097623,-0.58536035,0.76572603,-0.32970798,0.54205245,0.25987387,0.6250576,-1.1123955,-2.1046188,-0.74589837,1.8161892,1.824558,-0.88787407,0.69035137,-1.0692565,-2.056928,-0.8086322,1.8434856,1.774423,-0.9142162,-1.4265355,-0.8226477,-1.0840483,1.3831481,-0.55879134,0.4049954,-0.023744043,-0.3130076,-0.59662247,0.7535144,-1.4025981,0.47821417,-0.42913708,-0.27243054,-0.5896187,0.69649565,0.94127774,-0.023637915,0.23298775,0.24321593,-1.4416238,0.27550787,-0.48327297,0.0,1.0,0.0,0.0,0.0,0.0,0.0,-0.33699238,0.19662246,-0.2035144,0.8113384,-15.629554,0.12612343,-0.2742052,3.4742236,-0.78930855,4.7159657
-9.065163,11.267553,-0.036265373,3.1541247,0.99461335,-0.19954413,0.34033614,-0.8097052,-0.58919996,-0.59412885,0.74344474,-0.2612636,0.4655518,0.3254296,0.60938084,-1.1281766,-2.1163409,-0.73428774,1.8173592,1.8209782,-0.8816733,0.67606246,-1.0786045,-2.0677235,-0.794946,1.8383644,1.7783788,-0.91410655,-1.4293706,-0.97239745,-1.0780814,1.3648967,-0.49674863,0.3917288,0.023048352,-0.32702306,-0.59184647,0.7484873,-1.4011959,0.4777361,-0.5272297,-0.28713915,-0.58693314,0.69099414,0.9439825,-0.018531116,0.23581553,0.23009712,-1.477053,0.27965963,-0.5733075,0.0,1.0,0.0,0.0,0.0,0.0,0.0,-0.32297692,0.19184646,-0.19848728,-0.18820763,-15.020657,0.6370783,-1.5051842,6.1495543,-1.5407503,4.850669
-4.6333966,27.724737,4.897933,4.567729,1.0097094,0.07146245,0.35473484,-0.8012659,-0.6163087,-0.5494622,0.7347748,-0.26529896,0.4633611,0.38927335,0.5959359,-1.1402353,-2.1226697,-0.7214685,1.8118345,1.8247149,-0.87517923,0.661764,-1.0891635,-2.0782177,-0.78147537,1.833781,1.782205,-0.9135315,-1.430012,-1.0841235,-1.0390831,1.3418949,-0.4464034,0.378954,0.06933712,-0.34102452,-0.58707047,0.74248,-1.399795,0.47725847,-0.6252243,-0.30206406,-0.5840988,0.6847957,0.9465754,-0.013149639,0.23778826,0.21743667,-1.4936098,0.29687893,-0.63665,0.0,1.0,0.0,0.0,0.0,0.0,0.0,-0.30897546,0.18707046,-0.19247997,-0.046801567,-11.256027,4.17161,-2.0777702,4.7600627,-1.5111446,4.7558146
-2.1538062,35.795288,7.0968437,4.843953,0.86006886,0.22076488,0.37563393,-0.8029505,-0.6687707,-0.5199214,0.71419895,-0.30000657,0.4460198,0.42537573,0.581469,-1.1560407,-2.13021,-0.7100555,1.8037803,1.826807,-0.8709939,0.6474494,-1.1006916,-2.0881894,-0.7682927,1.8294761,1.7859052,-0.9125177,-1.4319471,-1.1759162,-0.9822411,1.3108687,-0.42660117,0.36618656,0.11232086,-0.35501197,-0.5823021,0.7354934,-1.3983955,0.47678134,-0.72312087,-0.31705406,-0.5810623,0.678047,0.94902676,-0.0075891754,0.23906839,0.20527235,-1.49624,0.3194389,-0.6892479,0.0,1.0,0.0,0.0,0.0,0.0,0.0,-0.294988,0.18230209,-0.18549341,-0.21381378,-9.277868,6.068361,-2.9313326,1.5916288,-1.4982104,4.388979
0.538661,40.54476,7.8408594,4.3997793,0.5440496,0.20560944,0.4004514,-0.7927801,-0.7091165,-0.5422758,0.6940443,-0.32460335,0.42444316,0.44683868,0.5681714,-1.1716032,-2.142417,-0.6988883,1.7970158,1.8283496,-0.86783385,0.6331643,-1.1130073,-2.0977795,-0.7554601,1.8251789,1.7894758,-0.9111101,-1.4274169,-1.250605,-0.9496073,1.274419,-0.4320757,0.35321113,0.1503758,-0.36898544,-0.57753754,0.72751546,-1.3969973,0.47630468,-0.8226771,-0.3319799,-0.5778122,0.6707757,0.95130444,-0.0017723823,0.2398584,0.19360925,-1.4864117,0.33954677,-0.7416918,0.0,1.0,0.0,0.0,0.0,0.0,0.0,-0.28101453,0.17753753,-0.17751545,0.41007996,-7.574868,3.6794305,-3.5113096,-0.971514,-1.5069425,3.8453817
0.34680462,45.38616,8.403734,5.1018395,0.5931318,0.22088951,0.36793172,-0.79277575,-0.7277009,-0.5658194,0.66697705,-0.22886772,0.40910295,0.45586345,0.5538867,-1.1857774,-2.1543615,-0.68876237,1.8022921,1.830386,-0.86552376,0.6189288,-1.1259048,-2.1072896,-0.74304515,1.8210571,1.7929167,-0.909363,-1.4224331,-1.3030988,-0.9499166,1.2308617,-0.40720317,0.3402488,0.18294163,-0.38294494,-0.5727768,0.7185427,-1.3956006,0.4758285,-0.92213374,-0.34679443,-0.57435226,0.66302,0.9534184,0.0043465635,0.24021086,0.1824091,-1.4745233,0.3612135,-0.78897643,0.0,1.0,0.0,0.0,0.0,0.0,0.0,-0.26705503,0.17277679,-0.16854268,0.4436493,-5.365753,0.39194822,-4.2496204,2.0495832,-1.528436,3.2770128
-0.528039,50.08284,8.354074,5.888939,0.31188685,0.21657789,0.36953554,-0.7902335,-0.731768,-0.6270244,0.6449968,-0.2880751,0.3936765,0.49303228,0.5399054,-1.1990817,-2.169992,-0.6785455,1.7922496,1.8322843,-0.86005974,0.6047467,-1.139138,-2.1171973,-0.73108464,1.8170022,1.7962384,-0.9073134,-1.4169921,-1.3304907,-1.0077478,1.1816843,-0.4046789,0.33291134,0.20924741,-0.39693427,-0.5680084,0.70882785,-1.4112892,0.48655924,-0.8477121,-0.3614328,-0.57069397,0.65479404,0.9553332,0.010944581,0.24035105,0.1716102,-1.4543351,0.38144687,-0.83790076,0.0,1.0,0.0,0.0,0.0,0.0,0.0,-0.2530657,0.16800842,-0.15882784,0.47962666,-2.8482676,-5.9520006,-5.2253485,-0.028777122,-0.43202043,2.2098243
-0.42684412,58.485626,9.90281,7.639519,0.35348418,0.2841134,0.34198475,-0.7849363,-0.72730845,-0.645271,0.6333401,-0.29017833,0.3593931,0.5288526,0.52625304,-1.2118689,-2.1817243,-0.66775066,1.7879844,1.8321778,-0.8544282,0.5906304,-1.1524742,-2.1278017,-0.71956223,1.8130345,1.7994432,-0.9049859,-1.4101444,-1.3351028,-1.0764722,1.1425211,-0.39602965,0.3156091,0.24028787,-0.41050565,-0.5630989,0.6999246,-1.3393701,0.49306175,-0.90233636,-0.3758464,-0.5668068,0.6461768,0.9570264,0.018088253,0.24041629,0.16116165,-1.4310445,0.40418157,-0.871942,0.0,1.0,0.0,0.0,0.0,0.0,0.0,-0.23949432,0.1630989,-0.14992458,0.59165955,-0.60539246,-6.3557863,-3.8994312,0.24217963,-1.9818366,2.999446
3.4319334,65.755745,12.347077,8.412169,0.7187561,0.33261234,0.30072212,-0.76574135,-0.730272,-0.63171,0.6210974,-0.16576381,0.30617854,0.5539062,0.51405627,-1.2255014,-2.1909726,-0.65745246,1.7964581,1.8300611,-0.8495953,0.57665616,-1.1657817,-2.138921,-0.7083801,1.8094624,1.8024668,-0.90237606,-1.393671,-1.3297899,-1.1218727,1.1099786,-0.34607786,0.29690278,0.26758313,-0.4236263,-0.55812454,0.6907263,-1.3017296,0.50010437,-0.9240505,-0.39000595,-0.56267166,0.637344,0.9585328,0.025584506,0.24029277,0.15106168,-1.4046849,0.42919442,-0.88917714,0.0,1.0,0.0,0.0,0.0,0.0,0.0,-0.22637367,0.15812454,-0.14072627,1.5091658,0.38444996,-3.9030313,-3.308034,4.3773293,-2.1817803,2.6405275
3.7650309,73.44194,14.425231,10.300694,1.0846514,0.45808625,0.24481535,-0.76787317,-0.7203711,-0.61146253,0.60449696,-0.13368088,0.26023972,0.56641495,0.49986884,-1.2378188,-2.2000673,-0.6479304,1.7960943,1.8284907,-0.84573454,0.5628174,-1.1789634,-2.1502192,-0.69748986,1.8064699,1.8052804,-0.8995125,-1.3811196,-1.3147525,-1.1296158,1.0816664,-0.28580406,0.27498487,0.29236022,-0.43633693,-0.55307007,0.6814096,-1.2594222,0.50789356,-0.9324794,-0.40389794,-0.5582428,0.6284683,0.9598909,0.03320176,0.239883,0.14129144,-1.3774422,0.4597069,-0.88884676,0.0,1.0,0.0,0.0,0.0,0.0,0.0,-0.21366304,0.15307006,-0.13140959,1.0868549,1.3505459,-0.012397766,-2.9351473,5.3052483,-2.5159001,2.3894072
7.215319,73.08591,14.919675,8.69071,1.2797521,0.43961883,0.27755463,-0.76275134,-0.71935266,-0.6087778,0.5332,0.045174178,0.16412483,0.5680899,0.48654225,-1.2508987,-2.211097,-0.64416987,1.8109874,1.821693,-0.8427035,0.5490911,-1.1919963,-2.161445,-0.68712884,1.8045297,1.8078218,-0.8964287,-1.3704726,-1.2998703,-1.1174765,1.0203773,-0.16569637,0.2460182,0.31358463,-0.44863975,-0.54795456,0.67198527,-1.2190347,0.51371664,-0.9437138,-0.41751862,-0.5535202,0.61961097,0.96117806,0.040738527,0.23890439,0.13191538,-1.3502119,0.4886923,-0.8863846,0.0,1.0,0.0,0.0,0.0,0.0,0.0,-0.20136023,0.14795455,-0.12198526,0.8834839,1.3570309,1.980257,-6.273961,11.279103,-3.2324553,2.0713866
14.151146,75.5979,16.847164,6.8164206,1.5015132,0.48288268,0.30858085,-0.7499728,-0.71277267,-0.5328559,0.46774837,0.20628801,0.08562652,0.54543835,0.47409382,-1.2632736,-2.2147305,-0.640354,1.8251585,1.8163844,-0.84188485,0.5354936,-1.2048824,-2.1721442,-0.67761546,1.8041539,1.8100384,-0.89317495,-1.3568692,-1.2849994,-1.0514382,0.9276373,0.0028389697,0.21244292,0.3292783,-0.46051857,-0.54278946,0.662486,-1.1758641,0.5176644,-0.94973135,-0.43082473,-0.5485153,0.6108476,0.9624935,0.04788159,0.23700747,0.123048924,-1.3170722,0.5161133,-0.874421,0.0,1.0,0.0,0.0,0.0,0.0,0.0,-0.1894814,0.14278945,-0.112486005,1.1496067,1.3851404,7.4181557,-9.490597,16.094017,-3.656104,1.541692
16.968937,74.59682,16.943508,5.67106,1.4520233,0.381626,0.31910104,-0.7455251,-0.7118946,-0.48657668,0.41555947,0.25587434,-0.15792339,0.52439487,0.4609411,-1.2760718,-2.2208018,-0.6360595,1.8297414,1.7942461,-0.84073544,0.5220239,-1.2176521,-2.181989,-0.66913414,1.8053937,1.8117688,-0.889804,-1.3443046,-1.274573,-0.9595692,0.8208782,0.1622326,0.15898804,0.33974457,-0.47196192,-0.5376091,0.6529272,-1.1323758,0.51855564,-0.9558198,-0.44377962,-0.5432892,0.6022026,0.9638945,0.05452083,0.23403268,0.11473212,-1.2814063,0.5370455,-0.86262244,0.0,1.0,0.0,0.0,0.0,0.0,0.0,-0.17803806,0.1376091,-0.10292721,1.0578871,0.9628296,9.950113,-10.890234,15.229254,-5.598578,1.0281026
17.781054,76.049515,16.707323,5.881456,1.1147968,0.28005373,0.32278728,-0.73631907,-0.69524705,-0.46587035,0.3789002,0.19253193,-0.3630578,0.522878,0.448392,-1.2871768,-2.228576,-0.6312441,1.8246468,1.775463,-0.8375162,0.50868964,-1.2302787,-2.1909604,-0.6616695,1.8077189,1.8128488,-0.88635004,-1.3303301,-1.2588035,-0.8741249,0.72096163,0.25389153,0.09034644,0.34718516,-0.48293862,-0.5324478,0.6433461,-1.084953,0.51563215,-0.95718515,-0.4563285,-0.53790283,0.59366685,0.9653466,0.060812607,0.23015933,0.10693187,-1.2392862,0.5495076,-0.8520271,0.0,1.0,0.0,0.0,0.0,0.0,0.0,-0.16706136,0.13244781,-0.09334606,1.2147427,1.505971,9.2471485,-10.195327,8.515703,-7.0555744,0.6777227
19.206566,75.79119,16.337952,5.9135647,0.9359319,0.18542743,0.30498827,-0.71453464,-0.6901243,-0.44123966,0.3507146,0.23359016,-0.4577735,0.54538673,0.4372362,-1.2992911,-2.2350843,-0.62659806,1.8310779,1.7670715,-0.83181137,0.49556544,-1.2427528,-2.199192,-0.6550642,1.8107504,1.813225,-0.88281786,-1.3070382,-1.2438177,-0.8041215,0.6397539,0.3178009,0.01950386,0.35497186,-0.49343264,-0.5273361,0.6337652,-1.036793,0.5095202,-0.95717543,-0.46844298,-0.532444,0.5852228,0.9668108,0.06688592,0.22557233,0.099599585,-1.1957136,0.55496496,-0.8433961,0.0,1.0,0.0,0.0,0.0,0.0,0.0,-0.15656734,0.12733611,-0.08376521,2.1636724,1.437068,7.6221585,-8.307707,5.8338046,-7.235034,0.6893337
14.036874,68.19191,13.255997,4.948088,0.5763204,0.11784989,0.36410752,-0.73486644,-0.68609035,-0.46419382,0.24713057,0.2484082,-0.5333892,0.5454453,0.4220788,-1.3113618,-2.2456114,-0.6303512,1.8355912,1.7598861,-0.82827336,0.4825454,-1.2550952,-2.2070615,-0.6494824,1.8142306,1.8129051,-0.87921697,-1.3006781,-1.2312672,-0.77987295,0.5305593,0.35658464,-0.049764298,0.36162144,-0.50349814,-0.5222969,0.62406474,-0.9959044,0.50227404,-0.9735153,-0.48015085,-0.5269432,0.5767099,0.9682474,0.07300212,0.22038308,0.092730336,-1.1562206,0.55738026,-0.8555819,0.0,1.0,0.0,0.0,0.0,0.0,0.0,-0.14650184,0.1222969,-0.07406473,0.5232334,1.1990309,2.883625,-11.02159,3.4299314,-7.074784,0.59449077
11.815151,75.52573,14.470946,7.4777827,0.7910233,0.26971757,0.31021792,-0.7348001,-0.6535997,-0.39868775,0.20866345,0.25319052,-0.5563903,0.5470479,0.4090654,-1.3204552,-2.2469304,-0.6286161,1.8395497,1.757266,-0.8245122,0.46953443,-1.2671993,-2.2145836,-0.64495045,1.8179704,1.8119495,-0.87555605,-1.3015753,-1.2037257,-0.7413039,0.42714876,0.37837273,-0.111552045,0.36729905,-0.5131277,-0.517334,0.61429566,-0.9513374,0.49470747,-0.9774816,-0.49145767,-0.521389,0.56817347,0.969632,0.07917283,0.2147085,0.08628844,-1.1162267,0.5649051,-0.85456926,0.0,1.0,0.0,0.0,0.0,0.0,0.0,-0.13687229,0.11733398,-0.06429565,-0.19819736,2.7015448,4.301679,-10.451698,1.7583191,-6.3293843,0.49379468
13.57155,71.09245,13.833968,5.535997,0.7263926,0.29176688,0.36296254,-0.734216,-0.65968925,-0.3603256,0.112680815,0.3242472,-0.5688337,0.5406494,0.39611283,-1.3331681,-2.2506163,-0.63368237,1.8503951,1.7550662,-0.8214911,0.45649135,-1.2790916,-2.221637,-0.6416307,1.8220462,1.8104393,-0.87185025,-1.3055325,-1.1844194,-0.69216704,0.29999956,0.416114,-0.16472177,0.37159854,-0.5223366,-0.5124588,0.6044351,-0.9101818,0.4860398,-0.98873806,-0.50236285,-0.5157623,0.5595888,0.9709866,0.08529987,0.20846346,0.08032408,-1.0761907,0.57037264,-0.86133385,0.0,1.0,0.0,0.0,0.0,0.0,0.0,-0.12766337,0.112458795,-0.054435074,-0.48146248,1.8959761,5.2503824,-12.7984705,3.4497142,-5.4755597,0.3969431
20.737705,73.23221,15.341569,3.2892716,0.6083465,0.37275115,0.45817006,-0.7272189,-0.6362607,-0.2889296,-0.00086592126,0.36804116,-0.5863254,0.53707427,0.38376945,-1.3427176,-2.25053,-0.6417173,1.8588502,1.7518069,-0.81814283,0.44343933,-1.2907417,-2.2279618,-0.63984066,1.8265874,1.8084544,-0.8681101,-1.3053983,-1.1585336,-0.61196685,0.1382671,0.46603453,-0.21009271,0.3747769,-0.53110176,-0.50769424,0.59451175,-0.86465025,0.47385404,-0.9936627,-0.51278627,-0.5101204,0.5509675,0.9723418,0.09120642,0.20151949,0.07498526,-1.0254648,0.57020015,-0.8640416,0.0,1.0,0.0,0.0,0.0,0.0,0.0,-0.11889821,0.10769424,-0.044511735,-0.06959438,2.5829792,8.256733,-16.288944,4.779625,-4.645234,0.29187202
19.089499,83.0759,18.123562,7.4898233,1.40827,0.58414096,0.28596961,-0.7282897,-0.6221531,-0.15229511,0.0029365711,0.43281406,-0.57282734,0.5576081,0.37061036,-1.352957,-2.2431912,-0.639547,1.8698689,1.7511717,-0.8123493,0.4303926,-1.3021209,-2.2329788,-0.6393343,1.8317606,1.806085,-0.864327,-1.3046311,-1.1311233,-0.46458417,0.021071792,0.53417206,-0.24623913,0.37952685,-0.53939253,-0.50305176,0.5846985,-0.8166659,0.46209273,-0.97783846,-0.5227617,-0.50439453,0.5425306,0.973757,0.096479066,0.19380859,0.07019429,-0.9829422,0.58074623,-0.83866626,0.0,1.0,0.0,0.0,0.0,0.0,0.0,-0.110607445,0.10305175,-0.034698486,0.009179115,2.7481556,14.880347,-11.833533,6.755781,-3.6732793,0.46753287
32.440613,98.03891,24.720354,7.7292976,2.048102,0.9083167,0.28470778,-0.7073014,-0.60107934,0.15339385,-0.08228648,0.511531,-0.55165523,0.57694715,0.35966244,-1.3622289,-2.2176394,-0.647563,1.8829137,1.7509195,-0.8066323,0.41745505,-1.3131893,-2.2353058,-0.6400049,1.8377872,1.8034279,-0.8604844,-1.2903603,-1.0986226,-0.15527233,-0.09707792,0.62600136,-0.2720288,0.38578895,-0.5470998,-0.4985733,0.5753371,-0.7551057,0.4444631,-0.92318803,-0.53221405,-0.49856567,0.5346652,0.9753506,0.10031766,0.18511784,0.06602133,-0.9276678,0.591217,-0.77086407,0.0,1.0,0.0,0.0,0.0,0.0,0.0,-0.10290015,0.0985733,-0.0253371,1.3626575,3.2988787,30.904697,-12.00417,9.35713,-2.4618387,0.60453415
37.743603,96.3053,25.012228,5.113082,1.8031342,0.87107813,0.39222628,-0.7034178,-0.58135945,0.23103619,-0.21290794,0.60233223,-0.5683707,0.5951807,0.34711325,-1.3713253,-2.212202,-0.66129565,1.8980204,1.7465909,-0.8009664,0.4046801,-1.3239105,-2.2345316,-0.6421278,1.8448852,1.8005457,-0.85656905,-1.2732105,-1.0632391,0.1541758,-0.2510081,0.7388266,-0.2929433,0.39354578,-0.55418324,-0.4942932,0.56653124,-0.69349533,0.42275244,-0.8675912,-0.5410724,-0.49268723,0.527444,0.9771662,0.102439895,0.17530636,0.062608674,-0.86734104,0.5927833,-0.70762783,0.0,1.0,0.0,0.0,0.0,0.0,0.0,-0.09581673,0.09429321,-0.016531229,1.7132282,3.5905838,30.670664,-15.499008,11.684216,-1.8669844,0.7942498
25.223438,122.99734,27.483955,15.427726,2.231805,1.048351,0.17015444,-0.71337754,-0.43394074,0.19996531,-0.22182807,0.6529696,-0.5598842,0.6069063,0.33334234,-1.3673046,-2.214535,-0.66431063,1.9101822,1.7445573,-0.7958784,0.3920053,-1.3336685,-2.2315414,-0.64552295,1.8531072,1.7974945,-0.85257316,-1.2653279,-0.9463744,0.34566027,-0.36904192,0.85213906,-0.30806032,0.40162432,-0.56059897,-0.49024963,0.5585757,-0.6253832,0.39862728,-0.7735293,-0.54936844,-0.4867096,0.5211379,0.97909725,0.103084445,0.1648455,0.05973383,-0.81300145,0.60529417,-0.60640454,0.0,1.0,0.0,0.0,0.0,0.0,0.0,-0.08940101,0.09024963,-0.008575678,0.86033344,11.7616415,18.612427,-11.8347225,12.029446,-1.1770546,0.8301735
23.530901,124.594666,27.027872,16.642649,1.9661545,0.98150754,0.12787424,-0.6925725,-0.4016265,0.29126862,-0.26398736,0.65953326,-0.5250822,0.5879926,0.32274804,-1.3738312,-2.2024145,-0.6719217,1.9190606,1.7449863,-0.7937739,0.37946638,-1.3421962,-2.227033,-0.64991015,1.8622624,1.7943454,-0.8485188,-1.249671,-0.8212997,0.48395133,-0.4618179,0.939312,-0.31600133,0.40692738,-0.5663483,-0.48646545,0.5515964,-0.5593919,0.37194115,-0.6752287,-0.55712754,-0.4806404,0.5158306,0.98104745,0.10252073,0.15413858,0.05724241,-0.7599758,0.6126518,-0.5068595,0.0,1.0,0.0,0.0,0.0,0.0,0.0,-0.08365166,0.08646545,-0.0015963912,1.6830444,12.598062,13.141727,-9.235853,9.587479,-0.41555762,0.5822003
21.172897,136.65015,29.542538,21.351315,2.2713966,1.1131085,-0.019250263,-0.67508465,-0.32453635,0.43806514,-0.24283357,0.6667763,-0.4716429,0.5888495,0.31195793,-1.3746499,-2.1832263,-0.6741935,1.92894,1.747181,-0.78963387,0.36714253,-1.3493621,-2.2210522,-0.6547923,1.872087,1.7911762,-0.84441954,-1.2260756,-0.6814532,0.6335557,-0.4967014,1.0002896,-0.31571788,0.41112587,-0.571423,-0.48296738,0.54580456,-0.49166438,0.34282598,-0.5503636,-0.5643807,-0.47446442,0.5117081,0.9829718,0.10073774,0.14351101,0.054980204,-0.71083117,0.62376344,-0.38200396,0.0,1.0,0.0,0.0,0.0,0.0,0.0,-0.07857698,0.08296737,0.0041954517,2.5254965,14.104772,14.103866,-3.4061074,7.1908712,0.46637654,0.47988296
31.558395,118.45319,27.133701,13.089562,1.3305184,0.89805704,0.21656284,-0.6444008,-0.3163561,0.5223561,-0.36244807,0.7025371,-0.35979012,0.5789918,0.30270246,-1.3809978,-2.1688166,-0.6910371,1.9423407,1.7551972,-0.78652036,0.35516295,-1.355416,-2.2135723,-0.66031736,1.8824228,1.7881072,-0.8402901,-1.1879838,-0.57974464,0.7836713,-0.5705676,1.0480021,-0.30256858,0.41385043,-0.5758623,-0.4797821,0.5410819,-0.42952707,0.31126502,-0.44990388,-0.5710622,-0.46831512,0.5085658,0.9848574,0.09777974,0.13293831,0.053126037,-0.65141386,0.61528283,-0.29269376,0.0,1.0,0.0,0.0,0.0,0.0,0.0,-0.07413769,0.0797821,0.008918107,3.984642,10.269833,14.15,-7.2445035,5.8425426,1.770711,0.3761828
40.78359,116.87375,28.140373,10.561039,0.9031505,0.9023818,0.25702974,-0.58325654,-0.2597526,0.60679024,-0.342711,0.7201359,-0.04868254,0.57661146,0.2968373,-1.3813913,-2.1528933,-0.6945885,1.9544364,1.7832389,-0.782629,0.34379658,-1.3605449,-2.204586,-0.6663562,1.8931515,1.7854067,-0.8361388,-1.1188935,-0.49023184,0.934087,-0.61426586,1.0847903,-0.25735518,0.41594392,-0.5796757,-0.47694016,0.53740627,-0.3667421,0.27627593,-0.3438959,-0.5770799,-0.4623413,0.5063031,0.9866842,0.09358162,0.12252386,0.05181356,-0.58305705,0.5951101,-0.20501377,0.0,1.0,0.0,0.0,0.0,0.0,0.0,-0.0703243,0.07694015,0.012593746,7.1147203,9.057921,14.120113,-4.183054,4.8374176,5.048114,0.34570694
58.122704,85.62998,23.727524,-1.4656426,-0.3544713,0.4195618,0.48174018,-0.48851883,-0.325619,0.6692966,-0.36643612,0.72976243,0.17027551,0.5765294,0.2949447,-1.3931068,-2.1376565,-0.70299983,1.9661278,1.8024342,-0.77848583,0.33347258,-1.365382,-2.1941693,-0.6727682,1.9041436,1.7833145,-0.8319701,-1.0029893,-0.4812793,1.0755347,-0.6495139,1.1066396,-0.19146097,0.41771072,-0.5829268,-0.4744606,0.53444993,-0.31263828,0.2392949,-0.28377968,-0.58234555,-0.45679474,0.5044894,0.9884388,0.08818979,0.112173595,0.051267732,-0.5059008,0.5439217,-0.17421967,0.0,1.0,0.0,0.0,0.0,0.0,0.0,-0.06707317,0.074460596,0.015550077,11.765885,0.9521365,13.469958,-3.328073,3.0452013,7.0881844,0.3301978
81.09451,58.958534,20.204369,-14.782785,-1.926762,-0.1825288,0.77899504,-0.36317512,-0.36537558,0.68337196,-0.4231812,0.74483746,0.30330452,0.56905127,0.29715508,-1.4019195,-2.125832,-0.7150863,1.9786273,1.8136449,-0.77506495,0.3247317,-1.3705623,-2.1826391,-0.6796579,1.9152983,1.7819483,-0.82779,-0.8306344,-0.53016436,1.1777002,-0.70135343,1.1199203,-0.116831906,0.41870934,-0.58566725,-0.47239304,0.5317694,-0.26239076,0.19666426,-0.2669471,-0.5866975,-0.45206833,0.5025816,0.9900871,0.081826724,0.1017111,0.051833466,-0.4101899,0.4502958,-0.19681406,0.0,1.0,0.0,0.0,0.0,0.0,0.0,-0.06433272,0.07239303,0.018230617,17.372787,-4.894507,9.831333,-4.961598,1.8470526,7.948522,0.27765036
92.54559,66.65437,22.27801,-16.379631,-2.6115997,-0.406898,0.81921864,-0.23971778,-0.30795506,0.6681973,-0.40662375,0.7343948,0.38865155,0.56141055,0.30075994,-1.4013578,-2.1158195,-0.7203202,1.9887378,1.8208135,-0.77164894,0.31802118,-1.3760383,-2.1705363,-0.68688565,1.9265052,1.7813326,-0.8236051,-0.6172834,-0.55338854,1.2199379,-0.72877675,1.1225432,-0.04140092,0.41918892,-0.5878816,-0.47079468,0.5293214,-0.20873448,0.148056,-0.24067383,-0.58998424,-0.44845963,0.5005157,0.9915625,0.0747514,0.09132039,0.0536331,-0.30059326,0.333498,-0.21027309,0.0,1.0,0.0,0.0,0.0,0.0,0.0,-0.06211835,0.07079467,0.02067864,21.503937,-2.331233,3.8571835,-2.4175286,0.78098774,8.076889,0.27906895
98.22749,57.685852,20.648212,-19.386597,-3.0360177,-0.77283674,0.80810046,-0.10465451,-0.36678872,0.68019474,-0.3723578,0.734879,0.4199948,0.55119133,0.30755574,-1.4127172,-2.102517,-0.72412145,1.9999931,1.8233321,-0.76848596,0.31366098,-1.381932,-2.15823,-0.69409746,1.9376891,1.7814165,-0.81942326,-0.3750583,-0.6016465,1.2335855,-0.7173855,1.1179498,0.026447853,0.4186306,-0.58960867,-0.4696846,0.52696824,-0.16106287,0.09919633,-0.23522928,-0.5921896,-0.44612122,0.49819446,0.9928273,0.06717421,0.081074856,0.056642044,-0.19342951,0.20165773,-0.2399409,0.0,1.0,0.0,0.0,0.0,0.0,0.0,-0.060391307,0.069684595,0.023031771,24.380993,-4.86356,1.1871338,1.5057802,-0.1582861,7.2278953,0.1817882
