Afshin1997/kuka_rl_ros2/src/catch_and_throw/input_files/idealpd/recorded_trajectories/env_439_data.csv
torque0,torque1,torque2,torque3,torque4,torque5,torque6,action0,action1,action2,action3,action4,action5,action6,set_target_0,set_target_1,set_target_2,set_target_3,set_target_4,set_target_5,set_target_6,joint_pos_0,joint_pos_1,joint_pos_2,joint_pos_3,joint_pos_4,joint_pos_5,joint_pos_6,joint_vel_0,joint_vel_1,joint_vel_2,joint_vel_3,joint_vel_4,joint_vel_5,joint_vel_6,tennisball_pos_0,tennisball_pos_1,tennisball_pos_2,tennisball_lin_vel_0,tennisball_lin_vel_1,tennisball_lin_vel_2,end_effector_pos_0,end_effector_pos_1,end_effector_pos_2,end_effector_rot_0,end_effector_rot_1,end_effector_rot_2,end_effector_rot_3,end_effector_lin_vel_0,end_effector_lin_vel_1,end_effector_lin_vel_2,obs_task_0,obs_task_1,obs_task_2,obs_task_3,obs_task_4,obs_task_5,obs_task_6,to_final_target_0,to_final_target_1,to_final_target_2,joint_acc_0,joint_acc_1,joint_acc_2,joint_acc_3,joint_acc_4,joint_acc_5,joint_acc_6
0.0,0.0,0.0,0.0,0.0,0.0,0.0,0.0,0.0,0.0,0.0,0.0,0.0,0.0,1.7802359,-1.0646509,-1.8151424,-1.1170107,1.9373155,1.1170107,-0.91629785,1.7802359,-1.0646509,-1.8151424,-1.1170107,1.9373155,1.1170107,-0.91629785,0.0,0.0,0.0,0.0,0.0,0.0,0.0,3.0335312,-0.3541031,0.12374918,-3.8348885,-0.47580498,5.085872,0.5304184,-0.45448303,0.693097,0.5745483,0.17512383,0.15255436,0.7848268,0.0,0.0,0.0,1.0,0.0,0.0,0.0,0.0,0.0,0.0,-3.6835313,-0.045896918,0.42625082,0.0,0.0,0.0,0.0,0.0,0.0,0.0
0.0,0.0,0.0,0.0,0.0,0.0,0.0,0.0,0.0,0.0,0.0,0.0,0.0,0.0,1.7802359,-1.0646509,-1.8151424,-1.1170107,1.9373155,1.1170107,-0.91629785,1.7802359,-1.0646509,-1.8151424,-1.1170107,1.9373155,1.1170107,-0.91629785,0.0,0.0,0.0,0.0,0.0,0.0,0.0,3.0335312,-0.3541031,0.12374918,-3.8348885,-0.47580498,5.085872,0.5304184,-0.45448303,0.693097,0.5745483,0.17512383,0.15255436,0.7848268,0.0,0.0,0.0,1.0,0.0,0.0,0.0,0.0,0.0,0.0,-3.6835313,-0.045896918,0.42625082,0.0,0.0,0.0,0.0,0.0,0.0,0.0
0.0,0.0,0.0,0.0,0.0,0.0,0.0,0.0,0.0,0.0,0.0,0.0,0.0,0.0,1.7802359,-1.0646509,-1.8151424,-1.1170107,1.9373155,1.1170107,-0.91629785,1.7802359,-1.0646509,-1.8151424,-1.1170107,1.9373155,1.1170107,-0.91629785,0.0,0.0,0.0,0.0,0.0,0.0,0.0,3.0335312,-0.3541031,0.12374918,-3.8348885,-0.47580498,5.085872,0.5304184,-0.45448303,0.693097,0.5745483,0.17512383,0.15255436,0.7848268,0.0,0.0,0.0,1.0,0.0,0.0,0.0,0.0,0.0,0.0,-3.6835313,-0.045896918,0.42625082,0.0,0.0,0.0,0.0,0.0,0.0,0.0
-176.0,61.130184,-8.904476,110.0,9.51287,4.3482394,-4.016537,-0.7738302,0.30233687,-0.5530961,0.74070877,-0.2677714,0.68067616,-0.5298823,1.7028528,-1.0344172,-1.870452,-1.0429398,1.9105383,1.1850784,-0.9692861,1.778895,-1.0627302,-1.8205822,-1.1121527,1.9409642,1.121966,-0.9177827,-0.17835915,0.25541726,-0.72486866,0.64811975,0.48584387,0.6592798,-0.19762488,2.9952126,-0.35886383,0.17383331,-3.8310542,-0.47532928,4.982601,0.5283699,-0.4575882,0.69381016,0.5783418,0.17354842,0.15153477,0.78258467,-0.2724021,-0.41219997,0.09488079,1.0,0.0,0.0,0.0,0.0,0.0,0.0,-3.6452127,-0.041136175,0.3761667,-17.758276,25.35971,-72.355095,64.91434,48.387173,65.5021,-19.650553
-176.0,-48.137672,-54.27365,110.0,9.928118,0.6377564,-3.606,-0.7760408,-0.25438812,-0.5620934,0.7244014,-0.34734446,0.6736492,-0.56008613,1.701291,-1.088169,-1.8767915,-1.0397125,1.9062297,1.1893309,-0.97379136,1.7776686,-1.0607694,-1.8352745,-1.0973517,1.9464078,1.1349474,-0.91787237,-0.10298966,0.1715069,-1.7104241,1.76025,0.5605039,1.498918,0.053278428,2.956932,-0.3636093,0.22288549,-3.8272238,-0.47485405,4.8794336,0.52399445,-0.4656906,0.6942808,0.5866981,0.16965397,0.14950198,0.77759373,-0.4934139,-0.94043237,0.03234391,1.0,0.0,0.0,0.0,0.0,0.0,0.0,-3.6069322,-0.036390692,0.32711452,7.8392177,-9.79251,-96.457794,112.04906,6.4142942,80.27043,24.887661
-164.2196,42.916004,2.8956666,85.252365,7.1859064,4.9460607,-1.9344852,-0.73684084,-0.095316395,0.09538922,0.683207,-0.32772374,0.6795932,-0.46571684,1.7039845,-1.070301,-1.8257356,-1.0290309,1.9136354,1.2029067,-0.96444404,1.7735487,-1.0600408,-1.8504379,-1.0777804,1.9501977,1.1498705,-0.9175224,-0.5140622,0.037759658,-1.4471288,2.0257068,0.3140259,1.4867412,0.029126473,2.9186897,-0.3683548,0.27090678,-3.8233972,-0.4743793,4.776369,0.5170708,-0.47691345,0.69527024,0.59783447,0.1643631,0.14687203,0.7707187,-0.76557696,-1.1773354,0.12490971,1.0,0.0,0.0,0.0,0.0,0.0,0.0,-3.5686898,-0.03164521,0.27909324,-40.851337,-14.065281,27.64101,27.401997,-25.967968,-2.2653341,-2.3493752
-106.01618,49.96689,19.665516,49.844284,4.9574018,5.492545,-0.10973498,-0.74532866,-0.28049117,0.3073497,0.694461,-0.26113075,0.66748965,-0.4940361,1.6990159,-1.08809,-1.8197029,-1.0083343,1.9240847,1.2166195,-0.966926,1.7652346,-1.0615152,-1.8595226,-1.058127,1.9513211,1.1638476,-0.9175758,-0.93731296,-0.21044803,-0.7228857,1.9468957,0.03900332,1.3664274,-0.016361259,2.8804855,-0.37310028,0.3178982,-3.8195744,-0.47390503,4.6734076,0.5078201,-0.48931885,0.69710505,0.60972214,0.15812,0.14310664,0.76338553,-0.98883593,-1.2513101,0.20632423,1.0,0.0,0.0,0.0,0.0,0.0,0.0,-3.5304856,-0.026899725,0.2321018,-42.356228,-25.244982,74.20144,-7.353115,-29.3172,-12.534499,-4.4068336
-49.86071,88.21798,38.666473,27.099064,2.315935,5.715435,0.53839684,-0.7674173,-0.17371728,0.36162087,0.71453226,-0.35408187,0.68131065,-0.49647355,1.6884929,-1.078887,-1.8233604,-0.98667383,1.915913,1.2319787,-0.9672231,1.7533385,-1.0646433,-1.860995,-1.0404421,1.9497685,1.1764418,-0.9181394,-1.2740921,-0.34828177,0.04989475,1.7092035,-0.22563414,1.2230895,-0.069781125,2.8423195,-0.3778305,0.3638608,-3.8157554,-0.47343123,4.570549,0.49683762,-0.5014572,0.69995457,0.62122464,0.15090515,0.13832009,0.7564225,-1.1449949,-1.1877798,0.31087914,1.0,0.0,0.0,0.0,0.0,0.0,0.0,-3.4923196,-0.0221695,0.18613923,-33.809544,-14.158678,78.874916,-23.688126,-28.149855,-14.559937,-5.3596334
-8.716606,120.99092,48.291565,15.095746,0.13254228,5.0009174,0.3961698,-0.7776959,-0.020042202,0.31168514,0.71789706,-0.4209521,0.6929367,-0.50648946,1.6755688,-1.0666475,-1.8298266,-0.9686524,1.9076734,1.2457354,-0.9687883,1.7391268,-1.0678514,-1.8565948,-1.0251471,1.9459538,1.1877218,-0.91920847,-1.4705602,-0.31292865,0.5736235,1.4693586,-0.43756998,1.0964423,-0.119867496,2.8041916,-0.38256073,0.40879554,-3.8119402,-0.4729579,4.4677935,0.48483658,-0.5123749,0.7039471,0.63208956,0.14277104,0.13339388,0.74985677,-1.2286603,-1.0505182,0.42586383,1.0,0.0,0.0,0.0,0.0,0.0,0.0,-3.4541917,-0.017439276,0.14120448,-19.786,3.1610548,53.468468,-24.042797,-22.39976,-12.663031,-5.1544456
7.608534,163.16165,53.706566,15.808912,-1.8085353,4.135627,-0.52374196,-0.79860234,0.32385367,-0.024620945,0.7187968,-0.49017364,0.67787933,-0.47547576,1.6592666,-1.0354661,-1.859057,-0.9532674,1.8969365,1.2555097,-0.96675605,1.7237917,-1.0686601,-1.850558,-1.0117251,1.9403996,1.1978823,-0.9207105,-1.555364,-0.0049231336,0.6157542,1.3000866,-0.59692115,0.9899692,-0.16136013,2.7661018,-0.38729095,0.4527035,-3.8081288,-0.47248507,4.36514,0.47241974,-0.52163696,0.709218,0.64278734,0.13394064,0.13004766,0.7429482,-1.2555734,-0.876969,0.5571387,1.0,0.0,0.0,0.0,0.0,0.0,0.0,-3.416102,-0.012709051,0.097296506,-8.68423,30.408823,4.8152447,-16.874266,-16.609383,-10.413588,-4.45579
5.482001,150.03424,39.95976,15.4483795,-2.3136039,2.0446413,-1.0949627,-0.81765145,0.46167526,-0.36112416,0.7001428,-0.35292056,0.63127667,-0.45578572,1.6420265,-1.0224926,-1.8866705,-0.94171077,1.9051076,1.2610099,-0.9662891,1.7081228,-1.0657171,-1.8472393,-0.9994569,1.9341607,1.2070814,-0.9225616,-1.5715128,0.3930101,0.23819701,1.2025752,-0.63363224,0.89716035,-0.19415186,2.7280502,-0.39200592,0.4955857,-3.8043213,-0.4720127,4.2625895,0.46004486,-0.52949524,0.7153304,0.65383655,0.12515277,0.12942433,0.73490393,-1.2396785,-0.7447568,0.62612575,1.0,0.0,0.0,0.0,0.0,0.0,0.0,-3.3780503,-0.007994086,0.054414302,-1.8669367,39.50081,-37.5374,-9.720302,-3.9153814,-9.0544815,-3.622347
5.236006,132.38104,31.557362,14.521029,-1.9884624,0.9860307,-1.1164677,-0.8261535,0.5585809,-0.47480515,0.67723495,-0.2518938,0.624213,-0.42471415,1.6255075,-1.009859,-1.8947197,-0.93173337,1.9089713,1.2695028,-0.965033,1.6925474,-1.0589689,-1.8486583,-0.9877887,1.928227,1.2154528,-0.924673,-1.5535773,0.7679425,-0.2680339,1.1544213,-0.58047175,0.8170878,-0.21792266,2.6900368,-0.3967209,0.53744316,-3.8005176,-0.4715408,4.1601415,0.44792938,-0.53632355,0.72186583,0.66539115,0.116951786,0.13160588,0.72543555,-1.2077292,-0.64869046,0.66057557,1.0,0.0,0.0,0.0,0.0,0.0,0.0,-3.3400369,-0.0032791197,0.012556851,1.5496969,37.24414,-50.444542,-4.9714804,5.1354647,-8.005881,-2.7424068
8.924431,113.083954,27.42853,11.815556,-1.3020806,0.66174954,-0.7651752,-0.821639,0.6153863,-0.5011323,0.6415572,-0.1746909,0.62873346,-0.44074076,1.6103835,-0.99743026,-1.8987715,-0.923633,1.9107579,1.2783262,-0.9687471,1.677262,-1.049188,-1.8545425,-0.97647524,1.9231973,1.2231165,-0.9269952,-1.5209529,1.0473403,-0.6943967,1.1224875,-0.47789657,0.7486719,-0.238264,2.6520615,-0.40143585,0.57827693,-3.7967176,-0.47106934,4.057796,0.4361229,-0.54235077,0.7286102,0.67726946,0.10949069,0.13593203,0.7147309,-1.175242,-0.5760874,0.67814416,1.0,0.0,0.0,0.0,0.0,0.0,0.0,-3.3020616,0.0014358461,-0.02827692,3.0375957,27.720415,-42.3446,-3.5348177,10.002828,-7.0681095,-2.393052
12.452507,99.21693,26.998661,9.998653,-0.33023983,0.86892366,-0.28945315,-0.81851876,0.6595685,-0.49463302,0.60561246,-0.032540407,0.63535315,-0.4697238,1.5954101,-0.9832312,-1.9040058,-0.915914,1.9199432,1.2866518,-0.9739676,1.6622931,-1.0374044,-1.8634079,-0.96549654,1.9195523,1.2301794,-0.9295129,-1.4897915,1.221473,-0.9491464,1.0882503,-0.32783702,0.6909534,-0.25738153,2.6141243,-0.4061432,0.618088,-3.7929215,-0.47059834,3.9555528,0.42455292,-0.5477829,0.73552686,0.68915594,0.10266982,0.14136654,0.70323426,-1.1548523,-0.51813614,0.6966661,1.0,0.0,0.0,0.0,0.0,0.0,0.0,-3.2641244,0.0061431825,-0.068087995,2.8775215,17.225933,-25.015795,-3.8481712,14.661825,-6.1561227,-2.2286444
16.508604,92.417175,29.13345,8.951979,0.64861137,1.3232424,0.17377202,-0.81246,0.6931866,-0.45003375,0.5710845,0.16049187,0.63312364,-0.49325967,1.581047,-0.96808577,-1.9084113,-0.9083881,1.9356015,1.2934918,-0.97883886,1.6475836,-1.0245165,-1.873431,-0.9549289,1.9177938,1.2367331,-0.93221563,-1.4654485,1.310739,-1.0178429,1.0447888,-0.12673931,0.6420035,-0.27537984,2.5762253,-0.4108429,0.65687746,-3.7891293,-0.47012782,3.8534122,0.41306686,-0.5526581,0.7427179,0.7007417,0.0962567,0.14681269,0.69147795,-1.1496421,-0.46520448,0.7280751,1.0,0.0,0.0,0.0,0.0,0.0,0.0,-3.2262254,0.01084289,-0.106877446,2.1502256,8.766937,-6.223476,-4.7765017,19.677963,-5.3724885,-2.0666897
21.63701,90.97435,32.021828,7.976963,1.1338874,1.7843711,0.4769775,-0.8005331,0.7170074,-0.37916425,0.54356056,0.2495877,0.6428336,-0.49364465,1.5675303,-0.9528157,-1.9113474,-0.90057284,1.9427525,1.3010164,-0.9815801,1.6330897,-1.0111479,-1.8830192,-0.94483614,1.9180207,1.2428671,-0.9350776,-1.4451479,1.3450141,-0.9364029,0.9961041,0.07085772,0.60239804,-0.2906483,2.5383606,-0.4155426,0.69464624,-3.7853408,-0.46965778,3.7513735,0.40157318,-0.55696106,0.7503281,0.71180266,0.08994713,0.15152872,0.6799158,-1.1518022,-0.40421057,0.7739044,1.0,0.0,0.0,0.0,0.0,0.0,0.0,-3.1883607,0.015542597,-0.14464623,1.7046213,3.289771,8.939362,-5.272889,19.29419,-4.4426203,-1.7892003
26.917488,93.07555,35.07506,7.2163997,1.357904,2.1865923,0.6721416,-0.7892129,0.7313495,-0.267872,0.5140485,0.3412259,0.65653145,-0.5038744,1.5541683,-0.9380129,-1.9098064,-0.8934313,1.9521433,1.3085203,-0.98546505,1.6187826,-0.9976587,-1.8909614,-0.9352584,1.9201016,1.2486712,-0.9380817,-1.4270438,1.3497437,-0.7439317,0.94377244,0.25219062,0.5716229,-0.30454472,2.500534,-0.42023468,0.73139536,-3.7815561,-0.4691882,3.649437,0.39003754,-0.5605469,0.758501,0.7222024,0.08343605,0.1550885,0.6688869,-1.1562183,-0.3301297,0.8335262,1.0,0.0,0.0,0.0,0.0,0.0,0.0,-3.1505342,0.020234674,-0.18139535,1.4656544,0.34925938,20.138502,-5.5971026,17.66278,-3.5263538,-1.6675472
26.06455,93.618706,35.389225,9.004633,1.4696856,2.3305519,0.62185204,-0.7805463,0.74208623,-0.18719734,0.5251093,0.38338506,0.65988433,-0.50600153,1.540728,-0.9234501,-1.9096812,-0.8827475,1.9584402,1.3146596,-0.98868185,1.6046435,-0.9841986,-1.8967159,-0.92602396,1.9237065,1.2542158,-0.9412107,-1.4107169,1.3443625,-0.51650167,0.9156687,0.3952342,0.5474571,-0.31662452,2.4627457,-0.42491913,0.7671259,-3.7777753,-0.46871912,3.5476024,0.3784294,-0.563385,0.7673203,0.7319607,0.076501004,0.1574102,0.6584854,-1.1640847,-0.25349328,0.8991852,1.0,0.0,0.0,0.0,0.0,0.0,0.0,-3.1127458,0.024919122,-0.2171259,1.3228178,-0.6622791,23.612154,-3.1059146,13.884419,-2.824378,-1.5000999
20.5849,91.23052,33.254364,11.738902,1.5206467,2.2678168,0.4649848,-0.7826341,0.7477419,-0.119293526,0.537702,0.41399992,0.6639473,-0.4911179,1.5263801,-0.90942436,-1.9086453,-0.8722538,1.9651065,1.3206105,-0.9903225,1.5906092,-0.97079754,-1.900315,-0.9168725,1.9284482,1.2595583,-0.9444341,-1.4017186,1.3382844,-0.30504283,0.9141349,0.49916804,0.5286838,-0.32525486,2.4249954,-0.42960358,0.8018389,-3.7739983,-0.4682505,3.44587,0.3666954,-0.5654831,0.77677566,0.74119514,0.06904506,0.15863955,0.64861083,-1.1774535,-0.18229434,0.9612954,1.0,0.0,0.0,0.0,0.0,0.0,0.0,-3.0749955,0.02960357,-0.25183886,0.64160824,-0.73411465,21.937477,-0.38214922,10.034728,-2.2469163,-1.1527419
17.014824,90.28013,31.52545,13.565519,1.4146355,2.1786788,0.31855437,-0.77754366,0.75777525,-0.044570383,0.5503213,0.42823383,0.6721384,-0.4719294,1.5128548,-0.89502,-1.904772,-0.86184037,1.9712716,1.3267722,-0.99162704,1.5766474,-0.9574022,-1.9020278,-0.90758467,1.9339528,1.2647482,-0.94771665,-1.3950142,1.3394812,-0.124168836,0.93299085,0.5665226,0.51467854,-0.3301804,2.3872833,-0.43428802,0.8355353,-3.770225,-0.46778238,3.344239,0.35481262,-0.56687164,0.78682536,0.75001454,0.06102924,0.15902017,0.63911355,-1.192125,-0.112536855,1.0190206,1.0,0.0,0.0,0.0,0.0,0.0,0.0,-3.0372834,0.03428802,-0.28553528,0.45206547,-0.008296967,18.809517,1.704967,6.4211965,-1.7366886,-0.7748425
13.139095,85.05184,28.269276,14.11204,1.2879462,1.9245393,0.21354342,-0.7794919,0.75626826,0.009886538,0.5542144,0.4611845,0.66993177,-0.46870825,1.4986982,-0.8817754,-1.9010392,-0.8521632,1.9800713,1.3317413,-0.9945875,1.562718,-0.94398594,-1.9022453,-0.898067,1.9399934,1.2698218,-0.95103544,-1.3928725,1.3419336,0.014411819,0.9574194,0.61575234,0.50383043,-0.33331567,2.3496094,-0.4389572,0.86821616,-3.7664557,-0.4673147,3.2427096,0.34278488,-0.56764984,0.79735523,0.7584964,0.052509274,0.1587708,0.6298554,-1.2065274,-0.04901508,1.0629133,1.0,0.0,0.0,0.0,0.0,0.0,0.0,-2.9996095,0.03895721,-0.31821615,0.028347969,0.1294136,14.492756,2.2855282,4.6643853,-1.3645172,-0.57869554
10.800711,80.66472,25.481224,14.167831,1.0854058,1.6728139,0.119049,-0.77489793,0.76044255,0.045236032,0.5713221,0.46282986,0.67530584,-0.45126668,1.4852283,-0.8679417,-1.8977216,-0.8409348,1.9862764,1.3373524,-0.9961621,1.5488135,-0.9305239,-1.9014099,-0.8882613,1.9463735,1.2748095,-0.9543657,-1.3901609,1.3473226,0.108262874,0.98788,0.64469,0.4961946,-0.3337169,2.3119736,-0.4436264,0.8998825,-3.76269,-0.46684745,3.1412818,0.33062744,-0.56781006,0.8082338,0.76669794,0.04356952,0.15811479,0.6207058,-1.2178073,0.01013631,1.0940975,1.0,0.0,0.0,0.0,0.0,0.0,0.0,-2.9619737,0.043626398,-0.34988248,0.10881424,0.43537617,9.941094,2.8999567,2.6786685,-0.9879708,-0.28747916
9.53784,75.81186,22.943834,13.270216,0.9149962,1.426645,0.096553504,-0.77756786,0.7614695,0.07765296,0.56887054,0.49221748,0.67345345,-0.4442819,1.4710567,-0.8543769,-1.8936446,-0.8313743,1.9955952,1.3421549,-0.99879384,1.5349165,-0.9170084,-1.8998802,-0.87822294,1.9530187,1.2797343,-0.9576902,-1.3901861,1.3527472,0.16957437,1.0086989,0.6706834,0.4905491,-0.33281213,2.274376,-0.4482956,0.9305353,-3.7589283,-0.4663807,3.0399554,0.31838226,-0.56742096,0.8193266,0.7746363,0.03431538,0.15720105,0.6115952,-1.2252449,0.06542696,1.1117424,1.0,0.0,0.0,0.0,0.0,0.0,0.0,-2.924376,0.048295587,-0.3805353,-0.15809536,0.4513979,6.641817,1.929307,2.4162412,-0.7330775,-0.14596581
8.910214,70.37148,20.270725,11.950364,0.64223135,1.1470695,0.06257418,-0.776869,0.761603,0.08147048,0.5701314,0.47578618,0.67650163,-0.4389613,1.4572296,-0.8408481,-1.8917332,-0.8212098,2.0005972,1.3473845,-1.0015863,1.5210158,-0.9034481,-1.8979995,-0.8680463,1.9598069,1.2846171,-0.9610004,-1.3905917,1.3568203,0.19586925,1.0200635,0.68099904,0.48711556,-0.33112213,2.2368164,-0.45294952,0.96017563,-3.7551703,-0.4659144,2.9387302,0.30612183,-0.56648254,0.83048755,0.7823206,0.024862276,0.15619722,0.6024606,-1.2258115,0.116921075,1.1145052,1.0,0.0,0.0,0.0,0.0,0.0,0.0,-2.8868165,0.052949518,-0.41017562,-0.1910448,0.33283234,3.085384,0.9676933,0.8894801,-0.44038296,-0.0572443
8.138288,65.06785,17.759472,10.661598,0.416753,0.8818057,0.045016915,-0.7807685,0.76201165,0.07156234,0.56203014,0.47216094,0.68399954,-0.43117893,1.4429389,-0.82724696,-1.8908433,-0.8118433,2.007023,1.353017,-1.0041183,1.5070902,-0.8898592,-1.8960865,-0.8578563,1.9666333,1.2894808,-0.9642877,-1.3937163,1.3594335,0.19122708,1.0180043,0.68280727,0.48593882,-0.32864982,2.1992912,-0.45760345,0.98880446,-3.7514157,-0.4654486,2.8376064,0.29388046,-0.56507874,0.84157616,0.7897558,0.015329954,0.15525557,0.5932507,-1.2203065,0.16363731,1.1035854,1.0,0.0,0.0,0.0,0.0,0.0,0.0,-2.8492913,0.05760345,-0.43880445,-0.46432018,0.20215511,-0.05276203,-0.396204,0.075387955,-0.15150905,0.030267239
9.669865,64.894356,17.729704,9.825586,0.28313887,0.84753364,0.08579977,-0.782334,0.76260036,0.104950905,0.5558044,0.44932938,0.69435346,-0.39464757,1.4288568,-0.81359917,-1.8855914,-0.80227584,2.0115662,1.3589162,-1.0037525,1.4931265,-0.8762522,-1.8941543,-0.8477521,1.9733777,1.2943465,-0.96752447,-1.3977381,1.3608568,0.1954127,1.0071954,0.67138535,0.48659945,-0.32278377,2.1618042,-0.4622574,1.0164229,-3.747665,-0.46498325,2.7365837,0.2817421,-0.5631943,0.85254294,0.796912,0.005743599,0.15444785,0.58398986,-1.2096512,0.21358691,1.0907575,1.0,0.0,0.0,0.0,0.0,0.0,0.0,-2.8118043,0.06225738,-0.46642286,-0.5592108,0.08428097,0.85408986,-1.2729645,-1.2571335,0.053924322,0.36464334
10.23427,64.26339,17.500095,9.558893,0.20970511,0.8050022,0.10037035,-0.7855828,0.758918,0.1229015,0.5537185,0.41351905,0.69391954,-0.37377378,1.4145682,-0.8003604,-1.8818642,-0.7923802,2.0147295,1.3637384,-1.0049019,1.4791132,-0.8626566,-1.8921039,-0.83776903,1.9798913,1.2992197,-0.9706897,-1.402913,1.358993,0.20980719,0.99467486,0.64443845,0.4876334,-0.3151356,2.1243553,-0.4669037,1.0430318,-3.743918,-0.46451837,2.635662,0.2697258,-0.560791,0.8633734,0.8037673,-0.0039059008,0.15381418,0.5747033,-1.1958127,0.26451355,1.0767471,1.0,0.0,0.0,0.0,0.0,0.0,0.0,-2.7743554,0.06690368,-0.4930318,-0.67346096,-0.24280548,1.88725,-1.4381528,-2.8235435,0.10649562,0.54588914
13.981424,66.59205,18.845259,8.082518,0.16982377,0.8578272,0.22896685,-0.79074275,0.7594275,0.17955963,0.51581216,0.43158135,0.68600273,-0.35681444,1.400039,-0.78671384,-1.8741479,-0.7861878,2.0230494,1.36782,-1.0063711,1.4650351,-0.849082,-1.8896434,-0.82806635,1.9862065,1.3040987,-0.973772,-1.4100744,1.3567808,0.25961876,0.9615566,0.62659097,0.48795182,-0.30660993,2.0869446,-0.47154236,1.0686322,-3.7401748,-0.46405393,2.534841,0.2578888,-0.55783844,0.87408364,0.810247,-0.01364683,0.15327546,0.5655263,-1.1763132,0.3223893,1.0650316,1.0,0.0,0.0,0.0,0.0,0.0,0.0,-2.7369447,0.07154235,-0.51863223,-0.88174343,-0.2809286,5.496091,-3.4888506,-1.9566178,0.045520067,0.62431693
18.72963,69.342,20.276823,6.1833463,0.04472983,0.8848847,0.3596486,-0.79015815,0.7619686,0.23410237,0.47723082,0.42719185,0.6829953,-0.32368222,1.3860192,-0.77288514,-1.8662332,-0.7803433,2.0289257,1.3723983,-1.0061402,1.4508997,-0.835515,-1.8864601,-0.81884336,1.9923768,1.3089796,-0.97675127,-1.4151292,1.3565444,0.33984473,0.9087524,0.6130954,0.48811495,-0.29582903,2.049572,-0.47618103,1.0932251,-3.7364354,-0.46358997,2.434121,0.24629974,-0.5542221,0.8846899,0.81625724,-0.023507487,0.15275177,0.5566312,-1.1479833,0.38797855,1.0548513,1.0,0.0,0.0,0.0,0.0,0.0,0.0,-2.699572,0.076181024,-0.5432251,-0.6705761,-0.08473396,8.584345,-5.438721,-1.5571237,0.05558133,0.8472979
24.142673,71.488625,21.515219,3.6301584,-0.09976405,0.8579803,0.52388525,-0.78830564,0.7651572,0.29830545,0.42071652,0.4496125,0.67874664,-0.26154122,1.3720691,-0.7589993,-1.8566295,-0.7767717,2.037338,1.3768543,-1.0029054,1.4367396,-0.82192993,-1.8822811,-0.8103385,1.9985185,1.3138605,-0.9795856,-1.4166588,1.3590673,0.4460285,0.8306858,0.61395466,0.48819724,-0.28001112,2.0122337,-0.4808197,1.1168116,-3.7326999,-0.46312648,2.3335016,0.23508072,-0.5499191,0.8951924,0.8216911,-0.033495627,0.15215486,0.5482249,-1.1090018,0.4597872,1.0440884,1.0,0.0,0.0,0.0,0.0,0.0,0.0,-2.6622338,0.080819696,-0.5668116,-0.30834675,0.19421577,11.199152,-7.940638,-0.13824701,0.090390444,1.3540745
24.977882,68.582184,20.316057,2.4121795,-0.19007164,0.6415686,0.5608203,-0.7873506,0.7647519,0.31660855,0.38187024,0.46346122,0.6747067,-0.20455264,1.3580045,-0.7454547,-1.8506203,-0.77215147,2.0448647,1.3813312,-1.0000409,1.422587,-0.8083172,-1.8771465,-0.80267,2.004744,1.3187395,-0.9822292,-1.4153461,1.3617638,0.5375597,0.7452954,0.6248656,0.48838684,-0.25977418,1.9749336,-0.48544312,1.1393927,-3.7289681,-0.46266347,2.2329829,0.22428513,-0.5449219,0.90554297,0.8265151,-0.043552876,0.15146764,0.54040116,-1.0645323,0.52569234,1.0267467,1.0,0.0,0.0,0.0,0.0,0.0,0.0,-2.6249337,0.08544311,-0.5893927,0.0,0.22733212,9.655881,-8.656931,0.91307163,0.15546083,1.8187225
23.285992,66.03569,19.043148,3.044074,-0.1199218,0.4746716,0.53752804,-0.7850431,0.76545256,0.34380704,0.3612342,0.47694433,0.6811388,-0.109258965,1.3440827,-0.73177195,-1.8427658,-0.7665466,2.0524385,1.3868535,-0.99315506,1.408465,-0.7946787,-1.8712356,-0.7957616,2.011126,1.3236281,-0.9846124,-1.4114473,1.3644251,0.6102571,0.6723489,0.64255685,0.48941252,-0.2318371,1.9376717,-0.49006653,1.1609694,-3.7252398,-0.46220088,2.1325645,0.2139206,-0.53933716,0.9157082,0.8307572,-0.053635187,0.15070474,0.5331545,-1.0215878,0.58358353,1.0074747,1.0,0.0,0.0,0.0,0.0,0.0,0.0,-2.5876718,0.09006652,-0.61096936,0.2860546,0.23977757,7.674837,-7.392311,1.650691,0.25869608,2.6158185
14.895026,62.15479,16.595207,7.7676516,0.20196533,0.3419445,0.30465004,-0.7861238,0.76411843,0.33354884,0.40362072,0.44333237,0.6852959,-0.04126576,1.3298527,-0.71826684,-1.8378807,-0.7553995,2.0554593,1.3921577,-0.98873895,1.3943754,-0.78102684,-1.8649051,-0.7891631,2.0175729,1.328528,-0.98668474,-1.4082541,1.365467,0.64171296,0.65528417,0.64530075,0.49048764,-0.19947453,1.9004478,-0.49468994,1.1815426,-3.7215152,-0.46173877,2.0322468,0.20384979,-0.53325653,0.9257086,0.83456284,-0.063749336,0.14995596,0.52626425,-0.99456435,0.6271546,0.99158597,1.0,0.0,0.0,0.0,0.0,0.0,0.0,-2.550448,0.094689935,-0.6315426,0.23901463,0.09596348,3.4128666,-1.7929077,0.24164915,0.22467375,3.0948668
4.486761,59.900757,14.675225,14.229636,0.6351815,0.35704482,0.049221545,-0.79612106,0.76175696,0.33482853,0.46936303,0.37102947,0.6894316,0.11452693,1.3147633,-0.70485115,-1.8314222,-0.74222684,2.0546758,1.3974712,-0.97523206,1.3802649,-0.76738167,-1.8584621,-0.782228,2.0238023,1.3334357,-0.9883422,-1.4123199,1.3642248,0.64584374,0.70597935,0.6153858,0.4910188,-0.15493563,1.8632622,-0.4992981,1.2011133,-3.7177944,-0.46127713,1.932029,0.19388962,-0.52682495,0.935617,0.83810794,-0.07396431,0.1493606,0.5194186,-0.9897762,0.6608228,0.9843262,1.0,0.0,0.0,0.0,0.0,0.0,0.0,-2.5132623,0.09929809,-0.65111333,-0.48105717,-0.123143196,0.5850196,4.9898148,-2.9599547,0.0882566,4.340884
0.022479057,56.703,13.185816,16.348476,0.8420643,0.27955124,-0.026616096,-0.8030288,0.7573382,0.3321854,0.48390913,0.381666,0.6786931,0.22235858,1.299962,-0.6916478,-1.8252436,-0.73383707,2.0619688,1.401305,-0.96610636,1.3660723,-0.75377274,-1.8521011,-0.77463675,2.0297494,1.3383394,-0.98950666,-1.421896,1.359772,0.6333965,0.7765308,0.58812636,0.49002048,-0.103904,1.8261108,-0.50390625,1.2196827,-3.7140775,-0.46081597,1.8319113,0.18390274,-0.5200958,0.9454528,0.8414816,-0.0842865,0.14896256,0.5124594,-0.99443823,0.6878997,0.9769128,1.0,0.0,0.0,0.0,0.0,0.0,0.0,-2.476111,0.103906244,-0.6696827,-1.0378122,-0.44240952,-1.0968924,6.967449,-2.6738286,-0.09368658,4.9976306
3.173267,53.189697,12.447414,13.431705,0.5627567,0.12856844,0.08059489,-0.79891664,0.74344456,0.34978384,0.46832156,0.33330968,0.678756,0.34859818,1.2861806,-0.6794283,-1.8171227,-0.7278046,2.0630803,1.4062151,-0.9546468,1.3518072,-0.7402725,-1.8458107,-0.7665019,2.0353227,1.3432337,-0.9901094,-1.4281256,1.3468399,0.6283883,0.8254721,0.54731864,0.48938525,-0.046155896,1.7889977,-0.5085144,1.2372516,-3.7103643,-0.46035522,1.7318938,0.1739502,-0.51309204,0.9551473,0.8446414,-0.094653375,0.14880133,0.5054501,-0.98818904,0.71470696,0.96045214,1.0,0.0,0.0,0.0,0.0,0.0,0.0,-2.4389977,0.1085144,-0.6872516,-0.6987095,-1.2931824,-0.31565428,4.7984004,-4.059291,-0.0104904175,5.659693
6.138807,50.525784,11.847972,10.666936,0.29045463,-0.022681952,0.16870917,-0.800769,0.7338739,0.35279426,0.46588218,0.29372558,0.6719275,0.4282326,1.2717303,-0.66688514,-1.8105313,-0.71991366,2.0646951,1.4104265,-0.9472861,1.3374926,-0.72693634,-1.8395298,-0.7580619,2.0404267,1.3481203,-0.9901275,-1.4326307,1.3291693,0.62849534,0.8498739,0.49827233,0.48858857,0.012581028,1.7519226,-0.5131149,1.2538211,-3.7066545,-0.45989496,1.6319762,0.1641388,-0.5058441,0.9646193,0.84752697,-0.10499034,0.14892398,0.4984945,-0.9710535,0.7405954,0.93608576,1.0,0.0,0.0,0.0,0.0,0.0,0.0,-2.4019227,0.11311492,-0.7038211,-0.5249262,-1.7695665,0.23186207,2.3397565,-4.9153748,0.020456314,5.753183
9.263079,49.000175,11.509102,7.933667,0.015541315,-0.16947997,0.2508558,-0.80343944,0.7267323,0.35397965,0.45206064,0.261452,0.6607958,0.48319587,1.2571486,-0.65426314,-1.8041317,-0.7128558,2.066572,1.4142,-0.9418079,1.3231417,-0.7137823,-1.833224,-0.7495847,2.0450196,1.3529917,-0.9895763,-1.4362708,1.3108138,0.63215715,0.8466163,0.4464694,0.4872677,0.06890402,1.7148819,-0.5177078,1.2693921,-3.7029486,-0.45943516,1.5321586,0.15457535,-0.49834442,0.97379845,0.8500937,-0.115214266,0.14937444,0.49168453,-0.94242644,0.7658222,0.90520376,1.0,0.0,0.0,0.0,0.0,0.0,0.0,-2.364882,0.11770782,-0.7193921,-0.4386425,-1.840663,0.621438,-0.4254341,-5.2239475,0.013631582,5.510117
9.773065,47.371555,10.781628,7.4353538,-0.15316153,-0.30949634,0.20066558,-0.79337806,0.71676683,0.32915667,0.47964537,0.18358333,0.65236133,0.51398176,1.2438039,-0.64210564,-1.8003083,-0.70162016,2.0633779,1.4182278,-0.9381781,1.3088156,-0.7008152,-1.8269966,-0.7410903,2.048964,1.3578459,-0.9884996,-1.4317036,1.2920035,0.62035215,0.8500105,0.3766329,0.48537555,0.120194346,1.6778793,-0.5223007,1.2839658,-3.6992464,-0.45897582,1.4324408,0.1453476,-0.49059296,0.98265624,0.8523626,-0.1252852,0.15024427,0.4849828,-0.90860695,0.7877342,0.8725997,1.0,0.0,0.0,0.0,0.0,0.0,0.0,-2.3278794,0.122300714,-0.7339658,0.40049553,-1.882863,-0.9541154,0.24909973,-7.0309343,-0.027120113,5.018172
13.869537,45.14354,10.3180275,3.7990556,-0.5952071,-0.48129356,0.28989246,-0.7899235,0.6993856,0.3469628,0.43096128,0.07820641,0.6588936,0.5568469,1.2298232,-0.63087666,-1.7923002,-0.6979942,2.0567846,1.4237353,-0.9328149,1.2945601,-0.68806934,-1.8208091,-0.7328,2.0519967,1.3626906,-0.9869384,-1.4236078,1.2686934,0.6191601,0.82170856,0.2785574,0.4849757,0.16774252,1.6409149,-0.526886,1.297543,-3.695548,-0.45851693,1.3328227,0.1365776,-0.4826355,0.9911232,0.85430914,-0.13513103,0.15166065,0.47842923,-0.85808015,0.8086864,0.83146685,1.0,0.0,0.0,0.0,0.0,0.0,0.0,-2.290915,0.12688598,-0.74754304,0.7634878,-2.3339748,0.14196634,-2.9170275,-9.896814,0.18442273,4.641676
18.144108,41.551228,9.570753,-0.49056625,-0.961805,-0.7152896,0.4200961,-0.7869755,0.6785434,0.3645275,0.36254954,0.017867971,0.6530001,0.57593656,1.2158625,-0.620215,-1.7843564,-0.69654506,2.0537834,1.4279906,-0.9293448,1.2803942,-0.6756048,-1.8145301,-0.72511816,2.0540032,1.3675314,-0.9849424,-1.4144222,1.2389371,0.6319034,0.75005335,0.17418684,0.4848853,0.20976551,1.6039886,-0.5314636,1.3101249,-3.6918533,-0.4580585,1.2333041,0.12842941,-0.47449493,0.99910146,0.85587806,-0.14463678,0.1536675,0.4721645,-0.79142225,0.82410175,0.7801771,1.0,0.0,0.0,0.0,0.0,0.0,0.0,-2.2539887,0.13146362,-0.76012486,0.8840084,-2.9747486,1.5572548,-7.251799,-10.5603485,0.2807796,4.08619
18.77592,40.88656,9.342528,-1.0659719,-0.9818126,-0.8280594,0.42693052,-0.7790975,0.66736925,0.3650261,0.34195983,-0.03179127,0.65100986,0.58458495,1.2024845,-0.6088679,-1.7780275,-0.6909222,2.0508242,1.4326324,-0.92648387,1.266339,-0.6634321,-1.80811,-0.7181945,2.0550065,1.3723723,-0.98257154,-1.4026105,1.2099845,0.6460689,0.6728491,0.07547842,0.48469374,0.24592383,1.5670967,-0.53604126,1.3217123,-3.688162,-0.45760056,1.1338851,0.120960236,-0.4662323,1.0065707,0.8570681,-0.15375865,0.15624899,0.46623877,-0.722338,0.8354001,0.7295995,1.0,0.0,0.0,0.0,0.0,0.0,0.0,-2.2170968,0.13604125,-0.77171224,1.1636734,-2.889967,1.6702771,-7.7892303,-9.99651,0.26625395,3.5113633
15.257347,38.580936,8.200899,0.9673786,-0.84519726,-0.9315101,0.30378637,-0.7749309,0.65246886,0.3386542,0.3425723,-0.11749076,0.65168834,0.59570956,1.1888459,-0.59818524,-1.7742445,-0.68393725,2.0432575,1.4375411,-0.9230006,1.2523981,-0.6515455,-1.8017013,-0.7118802,2.0549836,1.3772112,-0.9798755,-1.3912529,1.1816691,0.63981175,0.61734587,-0.028330622,0.4844232,0.2772016,1.5302429,-0.5406189,1.3323061,-3.6844747,-0.45714304,1.0345654,0.11413574,-0.45790863,1.013555,0.8579571,-0.16248783,0.15943137,0.46053115,-0.66052127,0.8396828,0.68209094,1.0,0.0,0.0,0.0,0.0,0.0,0.0,-2.180243,0.14061889,-0.78230613,1.1260748,-2.8158665,-0.44561625,-5.6171536,-10.463765,0.23745298,3.0391634
15.715248,34.500317,7.084301,-0.39347267,-0.92642504,-1.1155736,0.32215214,-0.7639093,0.6250821,0.34485838,0.28408703,-0.1957101,0.6566092,0.608612,1.1760072,-0.5890373,-1.7672155,-0.6834715,2.0354125,1.4428722,-0.91901433,1.2385947,-0.6399927,-1.7953651,-0.7061963,2.0539002,1.3820521,-0.9768972,-1.3766962,1.1465366,0.63214254,0.55182034,-0.13521346,0.48481113,0.30447277,1.4934273,-0.5451813,1.3419075,-3.6807911,-0.456686,0.93534505,0.10795593,-0.44957733,1.0200312,0.8585779,-0.17077552,0.16322203,0.45501438,-0.5951876,0.8357519,0.63045543,1.0,0.0,0.0,0.0,0.0,0.0,0.0,-2.1434274,0.14518127,-0.7919075,1.4641523,-3.488922,-0.6221175,-6.620002,-10.761072,0.31909347,2.6383698
16.01751,31.777441,6.3089895,-1.597971,-0.9327896,-1.275888,0.36152872,-0.7618149,0.60693514,0.34186366,0.21963446,-0.22276776,0.65483975,0.6104253,1.1624131,-0.5792992,-1.7611787,-0.6842329,2.0316234,1.447536,-0.91585463,1.224917,-0.62880135,-1.7891166,-0.70131063,2.0518823,1.3868967,-0.9736785,-1.3647913,1.1101192,0.6228239,0.4673488,-0.22412008,0.48505428,0.32731825,1.456646,-0.54974365,1.3505175,-3.677111,-0.45622942,0.8362239,0.10243988,-0.44136047,1.025968,0.8589367,-0.17855205,0.16756923,0.4497415,-0.5280609,0.82438695,0.5760902,1.0,0.0,0.0,0.0,0.0,0.0,0.0,-2.106646,0.14974365,-0.8005175,1.2032986,-3.6129475,-0.80519915,-8.513939,-8.958951,0.30411482,2.1954
12.342493,26.65949,4.4744806,-0.09690237,-0.8034328,-1.4441841,0.25209,-0.7546542,0.5816746,0.29478574,0.21165875,-0.3016841,0.65697324,0.61819273,1.1494516,-0.5706339,-1.7596381,-0.6801448,2.021714,1.452594,-0.9118593,1.2113558,-0.6180048,-1.7831657,-0.6971421,2.048964,1.3917433,-0.9702558,-1.3531938,1.0697191,0.5859422,0.3997792,-0.31435803,0.4854326,0.34691653,1.4199028,-0.55430603,1.358137,-3.6734345,-0.45577326,0.73720187,0.097545624,-0.43330383,1.0313579,0.85910714,-0.18576398,0.17247967,0.44460934,-0.46869624,0.8019346,0.5216008,1.0,0.0,0.0,0.0,0.0,0.0,0.0,-2.069903,0.15430602,-0.808137,1.1746883,-3.998828,-3.6293745,-6.841749,-9.039718,0.31122565,1.8688679
9.97453,17.805117,1.7550987,-0.7585864,-0.91105264,-1.7164795,0.19855079,-0.75036436,0.54009527,0.25730923,0.16140743,-0.42507568,0.6571718,0.62447375,1.1363194,-0.56399524,-1.7574347,-0.68100137,2.0064564,1.4574605,-0.9078084,1.1978976,-0.6077118,-1.7777393,-0.6936765,2.0449739,1.3965937,-0.9666595,-1.3432542,1.0160872,0.52827877,0.3284689,-0.42738464,0.48598266,0.36353564,1.3831978,-0.5588608,1.364767,-3.669762,-0.4553176,0.63827884,0.09323883,-0.42560577,1.0361413,0.85916495,-0.1923019,0.1780392,0.439497,-0.40967858,0.76365566,0.45921415,1.0,0.0,0.0,0.0,0.0,0.0,0.0,-2.0331979,0.15886077,-0.81476694,1.015377,-5.31137,-5.7512403,-7.243222,-11.280555,0.34757257,1.55074
2.8432684,0.39017153,-3.0711093,0.89812946,-0.58296204,-2.0708182,0.05275915,-0.7450123,0.46048385,0.20668224,0.16597408,-0.5304996,0.6568513,0.6285403,1.1233963,-0.5616634,-1.757071,-0.6770791,1.9919239,1.4622788,-0.90380543,1.1845347,-0.59822273,-1.7730529,-0.6907172,2.0397325,1.4014517,-0.96291727,-1.3339173,0.9267018,0.44852346,0.28451124,-0.55650085,0.4865946,0.37726632,1.3465271,-0.5634079,1.3704084,-3.6660929,-0.4548624,0.5394547,0.08938599,-0.41847992,1.0402352,0.859229,-0.19805354,0.18423596,0.43423173,-0.36966813,0.69684887,0.3885458,1.0,0.0,0.0,0.0,0.0,0.0,0.0,-1.9965271,0.16340789,-0.8204084,0.9674072,-8.8679905,-8.047748,-4.5683265,-12.804932,0.3640592,1.2216389
-4.7471056,-13.957973,-6.740671,3.966137,0.07183832,-2.2896938,-0.06651837,-0.7484867,0.38152325,0.17097937,0.17315935,-0.551779,0.6672237,0.6191719,1.109686,-0.5600704,-1.755955,-0.6734013,1.9845545,1.4681741,-0.9010001,1.1712214,-0.5898657,-1.7691963,-0.6879811,2.033358,1.4063212,-0.9590644,-1.3302854,0.8056741,0.3641603,0.26928246,-0.66338414,0.48796657,0.38732082,1.3098946,-0.567955,1.3750625,-3.6624274,-0.4544076,0.4407294,0.08572006,-0.4122162,1.0436069,0.8594159,-0.20297572,0.19087014,0.42868847,-0.35785645,0.6071852,0.3163963,1.0,0.0,0.0,0.0,0.0,0.0,0.0,-1.9598945,0.16795501,-0.82506245,0.4038334,-12.023568,-8.57482,-1.7316461,-10.511457,0.41544437,0.8247256
-7.6544237,-44.976242,-13.15452,-0.011715174,0.68387234,-2.8270361,0.11818365,-0.73466426,0.19324927,0.24793217,0.10292272,-0.5759671,0.668185,0.6068445,1.097755,-0.5705408,-1.744403,-0.67768884,1.9757614,1.4731396,-0.89838,1.1579882,-0.5833893,-1.7656333,-0.68559504,2.0261102,1.4112021,-0.95513815,-1.320552,0.59523684,0.35297427,0.22757989,-0.7443345,0.48914996,0.39366898,1.2732964,-0.57250214,1.37873,-3.6587658,-0.4539533,0.34210283,0.08201218,-0.4071579,1.0460864,0.8597347,-0.20696402,0.19740532,0.4231469,-0.36880684,0.471601,0.2221721,1.0,0.0,0.0,0.0,0.0,0.0,0.0,-1.9232963,0.17250213,-0.82873005,1.0938406,-20.951962,-1.3400793,-4.409048,-7.863033,0.37623048,0.41074753
-16.697567,-107.981606,-28.109926,-7.3656654,1.3215058,-4.046045,0.27970946,-0.7260071,-0.1172443,0.25932324,0.01745625,-0.60790896,0.6792042,0.5837099,1.0853875,-0.5951137,-1.739701,-0.6838494,1.9653193,1.4791225,-0.89676714,1.1448847,-0.5801754,-1.7619159,-0.6839719,2.0181985,1.4160982,-0.9511823,-1.3061225,0.23041062,0.37703505,0.1395084,-0.8054315,0.49030676,0.39516714,1.2367363,-0.577034,1.381412,-3.6551077,-0.45349944,0.24357484,0.07793808,-0.40419006,1.0472244,0.8602696,-0.2096311,0.20314975,0.41799653,-0.4169757,0.23895791,0.075768724,1.0,0.0,0.0,0.0,0.0,0.0,0.0,-1.8867363,0.17703399,-0.831412,1.6650915,-36.3861,2.0939112,-9.122809,-5.786586,0.27316213,-0.1719594
-23.006586,-155.44183,-37.37733,-8.853311,2.6794677,-4.6777854,0.3467033,-0.6140629,-0.46840924,0.39963043,0.10363963,-0.6560637,0.6894603,0.55047107,1.0834785,-0.6270163,-1.7219529,-0.67360795,1.9525921,1.4850442,-0.8961352,1.1324335,-0.58176327,-1.7572238,-0.68273306,2.0097184,1.4209944,-0.94724077,-1.2237184,-0.2882476,0.4988347,0.117771536,-0.8614615,0.48881164,0.3928783,1.2002144,-0.58156586,1.3831096,-3.6514533,-0.45304602,0.14514537,0.07296753,-0.40402985,1.0467426,0.86109704,-0.2109516,0.20715146,0.41364184,-0.52049714,-0.05663299,-0.09035204,1.0,0.0,0.0,0.0,0.0,0.0,0.0,-1.8502144,0.18156585,-0.83310956,8.542991,-51.78748,11.846542,-2.4686546,-5.2902102,-0.3498733,-0.4921019
-11.474013,-131.68102,-29.939861,-7.8306007,2.7168193,-4.214801,0.33941257,-0.41868278,-0.6007443,0.3832957,0.20896527,-0.6842013,0.69676995,0.49218348,1.0905652,-0.6418377,-1.7188942,-0.6618365,1.9412982,1.4906714,-0.8980224,1.121678,-0.5883026,-1.751416,-0.6810117,2.0007234,1.4258658,-0.94336027,-1.0256046,-0.7756656,0.6080552,0.18962502,-0.91202044,0.4849205,0.38629428,1.1637268,-0.5860977,1.3838235,-3.6478026,-0.4525931,0.046814308,0.06707382,-0.4065323,1.0448153,0.8621624,-0.21134429,0.20904256,0.4102567,-0.6127402,-0.31256184,-0.22709952,1.0,0.0,0.0,0.0,0.0,0.0,0.0,-1.8137268,0.18609771,-0.8338235,19.926739,-48.688446,10.89685,6.994611,-4.922819,-0.88793635,-0.725472
1.8934362,-79.1027,-15.740598,-2.3213825,2.6392689,-3.126294,0.22096752,-0.23834337,-0.70269656,0.4229464,0.3591141,-0.7145066,0.7007836,0.4232902,1.0978436,-0.65857226,-1.7091213,-0.64510024,1.9292727,1.4959441,-0.90103126,1.1135641,-0.5989342,-1.7445667,-0.6777606,1.9912381,1.4307009,-0.9395847,-0.7403471,-1.1588403,0.71191543,0.3699777,-0.96100247,0.48127308,0.37523055,1.1272774,-0.5906143,1.3835548,-3.6441555,-0.45214057,-0.051418446,0.06044388,-0.4109726,1.0419184,0.86333585,-0.2115019,0.20889537,0.40777528,-0.68107015,-0.48448944,-0.3111236,1.0,0.0,0.0,0.0,0.0,0.0,0.0,-1.7772774,0.19061431,-0.8335548,28.366983,-38.275337,10.763062,17.963928,-4.980099,-0.8848131,-0.9513259
17.749535,-20.694405,-1.1747632,-0.29417354,1.9320573,-2.124805,0.1595299,-0.069845736,-0.75774884,0.4363363,0.4433683,-0.70855933,0.6989214,0.26588565,1.1065795,-0.6747091,-1.7009331,-0.63342375,1.9203821,1.5005931,-0.9129961,1.1086355,-0.6123581,-1.736882,-0.6724353,1.9813695,1.4355055,-0.9360265,-0.41165885,-1.4036983,0.7903825,0.5866983,-0.99698454,0.47886476,0.3501536,1.0908623,-0.5951309,1.3823045,-3.640512,-0.45168853,-0.14955299,0.0534935,-0.41648865,1.0385283,0.8644675,-0.21199623,0.20705548,0.40605608,-0.7022367,-0.5719024,-0.35005584,1.0,0.0,0.0,0.0,0.0,0.0,0.0,-1.7408623,0.19513091,-0.83230454,32.457096,-24.502945,8.758032,21.660429,-4.054153,-0.6559491,-2.2653878
32.62578,24.622375,8.765054,-3.548882,0.61671126,-1.5974813,0.22876897,0.078675404,-0.7785939,0.3959793,0.45317692,-0.7123843,0.69938695,0.19465621,1.1165031,-0.6902175,-1.697284,-0.6271176,1.9101311,1.5054442,-0.9165609,1.1069895,-0.62726116,-1.7288501,-0.66529894,1.971211,1.440293,-0.9327659,-0.08435126,-1.5195177,0.8122176,0.7558172,-1.0250583,0.47761264,0.3185859,1.0544853,-0.5996475,1.3800737,-3.6368723,-0.45123693,-0.24758941,0.04679489,-0.42246246,1.0349214,0.86542016,-0.21299686,0.20410652,0.40499458,-0.6626074,-0.6027968,-0.36732706,1.0,0.0,0.0,0.0,0.0,0.0,0.0,-1.7044853,0.19964752,-0.83007365,32.145016,-11.716485,3.6031485,16.881382,-3.6872864,-0.4805982,-2.9982507
38.251568,50.274292,12.955358,-5.9465866,-0.46231225,-1.403722,0.2575106,0.17073636,-0.7839165,0.34275234,0.4443623,-0.71523017,0.70343685,0.13647243,1.1240631,-0.70565283,-1.6945748,-0.6208627,1.8996879,1.5106367,-0.91911864,1.1082121,-0.6426182,-1.7210643,-0.6570573,1.960835,1.4450766,-0.92984766,0.18925565,-1.5418873,0.77243125,0.8469162,-1.045366,0.47766188,0.28312513,1.0181427,-0.6041565,1.3768632,-3.6332362,-0.4507858,-0.34552783,0.040771484,-0.4285202,1.0311955,0.8661433,-0.2143579,0.20067462,0.40444538,-0.5828028,-0.60583335,-0.37856337,1.0,0.0,0.0,0.0,0.0,0.0,0.0,-1.6681427,0.20415649,-0.8268632,26.800415,-2.4680614,-2.4673939,9.088683,-3.0906677,-0.3029108,-3.497696
37.488014,54.205734,11.409248,-8.1760025,-1.3164961,-1.6202784,0.24809813,0.26213512,-0.791699,0.21496084,0.43656483,-0.7234054,0.70482874,0.16424596,1.1344256,-0.72178805,-1.6995683,-0.6134008,1.8884945,1.5155594,-0.91342306,1.1117407,-0.6578493,-1.7143791,-0.64841604,1.9502988,1.4498659,-0.9272365,0.4058276,-1.5176381,0.63836247,0.869845,-1.0594082,0.47828847,0.25358227,0.9818382,-0.60865784,1.3726741,-3.6296036,-0.4503351,-0.4433683,0.035713196,-0.43463135,1.0272865,0.8666882,-0.21570516,0.1973279,0.4042085,-0.48100227,-0.6131491,-0.39970377,1.0,0.0,0.0,0.0,0.0,0.0,0.0,-1.6318382,0.20865783,-0.8226741,21.170633,2.16465,-12.120509,2.2809863,-2.3209572,-0.22451282,-3.0053318
19.523935,38.817368,4.455047,-2.6794248,-1.4045571,-1.9779186,-0.069651335,0.2455268,-0.7937312,-0.0009214857,0.4412622,-0.7146348,0.7065306,0.10971211,1.1362934,-0.73722243,-1.7144712,-0.6042898,1.8788353,1.520519,-0.9162653,1.1166178,-0.67272377,-1.7100208,-0.6398063,1.9397244,1.4546686,-0.92492765,0.5142863,-1.4780302,0.37015668,0.85841435,-1.0579822,0.48032755,0.22304621,0.9455681,-0.6131592,1.3675072,-3.625975,-0.44988483,-0.54111093,0.03148651,-0.44099426,1.023031,0.86731523,-0.21650742,0.19459467,0.40375933,-0.40113893,-0.6472187,-0.4391235,1.0,0.0,0.0,0.0,0.0,0.0,0.0,-1.5955681,0.21315917,-0.8175072,10.626775,3.7747145,-26.317078,-1.0156393,-0.18699169,0.03594756,-3.1340628
0.42332625,22.22423,-1.9076698,3.8646305,-1.2477851,-2.2113845,-0.36639327,0.20660418,-0.7881324,-0.20975624,0.4242559,-0.71304864,0.7115597,0.027090184,1.1372782,-0.751537,-1.7309964,-0.5973807,1.8684195,1.5258247,-0.9222186,1.1218058,-0.6872053,-1.7090671,-0.6314883,1.9292264,1.4595,-0.92295545,0.5203761,-1.4385617,0.0031025375,0.82368976,-1.0464326,0.4837692,0.18829234,0.9093361,-0.6176605,1.3613638,-3.6223495,-0.44943506,-0.6387559,0.027832031,-0.44789886,1.018252,0.8683226,-0.21627918,0.19290207,0.40252677,-0.35076803,-0.7045997,-0.49579796,1.0,0.0,0.0,0.0,0.0,0.0,0.0,-1.5593361,0.21766052,-0.81136376,0.65693855,3.8383245,-36.889965,-3.2125711,1.3237,0.27335882,-3.5806088
-7.000355,22.91433,-1.127845,8.253117,-0.6390681,-1.888638,-0.37990114,0.20182301,-0.787211,-0.21883747,0.4134067,-0.7090576,0.7197075,-0.045965217,1.141988,-0.7659264,-1.7309508,-0.5901477,1.8583206,1.5314707,-0.927552,1.1266848,-0.7013807,-1.7112205,-0.6235585,1.9188619,1.4643694,-0.9213514,0.47771522,-1.4109101,-0.2890688,0.7836582,-1.0327399,0.48793516,0.1507991,0.8731384,-0.6221466,1.3542445,-3.618728,-0.4489857,-0.73630327,0.024497986,-0.455307,1.012944,0.86976975,-0.2150068,0.19222224,0.40040383,-0.3244857,-0.7513192,-0.5474482,1.0,0.0,0.0,0.0,0.0,0.0,0.0,-1.5231384,0.2221466,-0.80424446,-4.074568,2.6670218,-29.49594,-3.705585,1.4824629,0.35362244,-3.8237066
-8.373904,26.732786,1.0429038,10.252174,-0.08022851,-1.5599681,-0.2991653,0.20361179,-0.7915102,-0.25504577,0.4099026,-0.70458055,0.71283364,-0.07340255,1.147046,-0.78053176,-1.7367251,-0.5825683,1.8484038,1.5356528,-0.9286916,1.131066,-0.71540356,-1.7155635,-0.61597013,1.9086232,1.4692732,-0.9201049,0.42557263,-1.3997968,-0.48346168,0.7515765,-1.0210984,0.49076867,0.11575841,0.8369789,-0.6266327,1.3461505,-3.61511,-0.4485368,-0.8337531,0.021305084,-0.46305847,1.007183,0.8715713,-0.21291462,0.1922895,0.39756206,-0.31389448,-0.78470254,-0.59057546,1.0,0.0,0.0,0.0,0.0,0.0,0.0,-1.4869789,0.22663268,-0.7961505,-4.9946604,1.004386,-19.598282,-2.9176354,1.1036634,0.19416809,-3.5333529
-8.510296,29.890265,2.5421941,10.991368,0.21025068,-1.3445659,-0.21063931,0.18267055,-0.7900312,-0.33245268,0.3930612,-0.7084419,0.7131402,-0.046696536,1.149333,-0.79440665,-1.7488089,-0.57666403,1.837779,1.5405872,-0.9247746,1.1349074,-0.72939014,-1.7213943,-0.6086793,1.8984551,1.4741999,-0.91914934,0.37112695,-1.398573,-0.61639786,0.72240955,-1.0159265,0.49289793,0.08879974,0.8008537,-0.6311188,1.3370829,-3.6114955,-0.44808835,-0.9311055,0.018154144,-0.47109222,1.001025,0.8736324,-0.21017405,0.1929098,0.39418158,-0.31059876,-0.8091677,-0.62903744,1.0,0.0,0.0,0.0,0.0,0.0,0.0,-1.4508537,0.23111877,-0.78708285,-5.227995,0.0062704086,-13.347208,-2.6403904,0.3358841,0.10223985,-2.7021825
-6.9586015,37.372345,5.344554,11.9648075,0.6074779,-1.0449259,-0.13989583,0.16979472,-0.7904511,-0.33051658,0.39945588,-0.70888746,0.7109801,-0.06957332,1.1518868,-0.80843526,-1.7544459,-0.5687337,1.8275664,1.5452979,-0.9261067,1.1382738,-0.7434063,-1.7279613,-0.601562,1.8883023,1.4791418,-0.91844076,0.32572985,-1.4031225,-0.66976166,0.7089053,-1.0160977,0.494254,0.06498859,0.7647667,-0.6355972,1.3270423,-3.607885,-0.44764036,-1.0283605,0.01499176,-0.4792633,0.99456847,0.8758483,-0.20702353,0.19386144,0.39044678,-0.31429157,-0.81822175,-0.6561347,1.0,0.0,0.0,0.0,0.0,0.0,0.0,-1.4147667,0.23559722,-0.7770423,-4.3560085,-0.58751106,-5.2201033,-1.1023641,-0.36406517,0.01604557,-2.3465917
-15.214146,38.17149,5.579318,16.713196,1.1322091,-0.8451031,-0.21621275,0.09059593,-0.792763,-0.36750233,0.40233028,-0.7103822,0.7145297,-0.048988897,1.1473334,-0.8226826,-1.7647115,-0.561329,1.8172641,1.5505948,-0.92333966,1.1409613,-0.7574892,-1.7348449,-0.5944848,1.8781266,1.484099,-0.91792196,0.2505776,-1.410478,-0.6944622,0.7083578,-1.0193353,0.49595022,0.047721036,0.728714,-0.64006805,1.3160299,-3.6042776,-0.4471928,-1.1255183,0.011627197,-0.48750305,0.9878786,0.87820935,-0.20358717,0.19504294,0.3863402,-0.33999076,-0.8215283,-0.6782313,1.0,0.0,0.0,0.0,0.0,0.0,0.0,-1.378714,0.24006805,-0.7660299,-7.246411,-0.8770704,-2.384162,0.26803017,-0.7209301,0.0798583,-1.6524732
-13.763634,40.04749,6.1423864,15.700136,1.1295083,-0.7892498,-0.14292052,0.06946089,-0.7973858,-0.38075718,0.37494075,-0.7045266,0.7077781,-0.061306234,1.1479074,-0.83722776,-1.7729206,-0.55699074,1.8076739,1.5548768,-0.9240526,1.1429201,-0.7716589,-1.741843,-0.58749723,1.8679299,1.4890658,-0.9175586,0.17857029,-1.4197049,-0.70118684,0.69654113,-1.0210185,0.49661937,0.03273981,0.69269943,-0.6445389,1.3040466,-3.6006742,-0.4467457,-1.222579,0.008029938,-0.49572754,0.98096704,0.8806821,-0.19989981,0.19639964,0.38192442,-0.3634134,-0.82213473,-0.7004891,1.0,0.0,0.0,0.0,0.0,0.0,0.0,-1.3426994,0.24453887,-0.7540466,-6.958854,-1.0657549,-0.53833723,-0.8813143,-0.60276985,-0.037389994,-1.4204853
-19.9173,42.60954,6.744879,19.039232,1.521946,-0.6001616,-0.172399,-0.0103817275,-0.7990323,-0.35091063,0.36976257,-0.7085092,0.70561695,-0.0440338,1.141882,-0.85156214,-1.776934,-0.55052096,1.797079,1.5596274,-0.92196196,1.1439654,-0.78591156,-1.7486866,-0.58063936,1.8577085,1.4940382,-0.91731066,0.080993965,-1.4277163,-0.67824453,0.68336266,-1.0242215,0.49707887,0.022478659,0.6567192,-0.6490021,1.2910935,-3.597074,-0.44629905,-1.3195426,0.0040779114,-0.50390625,0.97386706,0.88325214,-0.19601448,0.19787608,0.3772119,-0.4019652,-0.815432,-0.7181262,1.0,0.0,0.0,0.0,0.0,0.0,0.0,-1.3067192,0.24900207,-0.74109346,-9.459162,-0.9532213,2.4208307,-0.9701967,-0.8123636,-0.037038326,-0.9167135
-22.110386,45.462772,7.2800593,20.164158,1.6624501,-0.5064363,-0.17257573,-0.062458668,-0.7973169,-0.3465603,0.35952973,-0.7023783,0.7009095,-0.050760455,1.1377195,-0.86564326,-1.7833426,-0.5446864,1.7874706,1.5641291,-0.9223867,1.1439825,-0.80021477,-1.7552497,-0.57393694,1.8474755,1.4990107,-0.9171533,-0.02353457,-1.4316707,-0.64847434,0.66702896,-1.0246353,0.49699777,0.013845695,0.62077713,-0.65345764,1.2771714,-3.5934777,-0.44585285,-1.4164094,-0.0002822876,-0.5119934,0.96661013,0.88591063,-0.1919634,0.19944678,0.3722005,-0.44515145,-0.8041126,-0.733088,1.0,0.0,0.0,0.0,0.0,0.0,0.0,-1.2707771,0.25345764,-0.72717136,-10.14507,-0.5527735,3.113699,-1.2753606,-0.55947304,-0.085395575,-0.7437252
-20.488844,41.779045,5.941243,17.61954,1.3261354,-0.6494107,-0.09722413,-0.106376186,-0.8059424,-0.3938988,0.31446058,-0.6971698,0.6909223,-0.035350606,1.1333449,-0.880809,-1.7946396,-0.5424909,1.7777586,1.568103,-0.92068833,1.1429888,-0.8145752,-1.7617805,-0.56757593,1.8372636,1.5039717,-0.91705984,-0.12375054,-1.4380059,-0.65413105,0.6269302,-1.0215998,0.49552664,0.00811855,0.5848694,-0.6579132,1.2622815,-3.589885,-0.44540706,-1.5131793,-0.005004883,-0.5200424,0.9591267,0.88864213,-0.18762165,0.20117575,0.36693516,-0.4791876,-0.80115265,-0.7583021,1.0,0.0,0.0,0.0,0.0,0.0,0.0,-1.2348694,0.2579132,-0.7122815,-9.735523,-0.78020096,-0.4725337,-3.665471,-0.1483202,-0.25615692,-0.4805891
-22.631403,41.959705,5.671555,18.12802,1.3394246,-0.62978053,-0.08373314,-0.17266077,-0.805844,-0.3990812,0.29665712,-0.6934697,0.686713,0.0022151563,1.1257228,-0.8951596,-1.8016887,-0.5379102,1.7679166,1.572643,-0.91683835,1.1409518,-0.8289852,-1.7684639,-0.5616574,1.8270955,1.5089155,-0.9169864,-0.22932604,-1.4425228,-0.6729745,0.5812661,-1.0167167,0.4935611,0.0073826946,0.548996,-0.6623688,1.2464247,-3.5862958,-0.44496176,-1.6098524,-0.01007843,-0.52806854,0.9513757,0.8914372,-0.18290393,0.20311548,0.36142763,-0.51553273,-0.7981474,-0.78555584,1.0,0.0,0.0,0.0,0.0,0.0,0.0,-1.198996,0.26236877,-0.69642466,-10.2631035,-0.59940815,-1.8053293,-4.2099953,0.04031658,-0.31391978,0.013906602
-14.7859745,49.623665,7.864986,15.513237,1.2571228,-0.5199468,0.020461693,-0.17091891,-0.8026855,-0.35968503,0.29699135,-0.6957179,0.6905421,0.04888587,1.1238599,-0.9092538,-1.8044324,-0.5319583,1.7575238,1.5779698,-0.9120978,1.138127,-0.84341145,-1.7751529,-0.5561099,1.8169618,1.5138441,-0.91687864,-0.29943368,-1.4430746,-0.66684455,0.54687613,-1.0140134,0.49206677,0.012174216,0.5131607,-0.6668091,1.2296017,-3.5827103,-0.44451687,-1.7064289,-0.015419006,-0.53598785,0.94340956,0.89422315,-0.17790887,0.20520033,0.3558176,-0.5394374,-0.78613794,-0.8050476,1.0,0.0,0.0,0.0,0.0,0.0,0.0,-1.1631607,0.26680908,-0.6796017,-6.816709,-0.20387173,0.8396387,-3.171122,-0.24797916,-0.27504563,0.5621841
-15.64656,53.148888,8.484367,16.656837,1.3558847,-0.46465534,-0.01818557,-0.21502122,-0.7974407,-0.38328055,0.30590713,-0.6992696,0.68778914,0.082682475,1.1166248,-0.92315555,-1.813481,-0.5255192,1.7470348,1.582623,-0.9086104,1.134667,-0.85780525,-1.7818496,-0.55074835,1.8068357,1.5187575,-0.91669554,-0.36073273,-1.4386632,-0.6697633,0.5335083,-1.0141075,0.4906084,0.020601882,0.47735977,-0.6712494,1.2118138,-3.5791283,-0.44407246,-1.8029088,-0.021022797,-0.5437622,0.93528473,0.89697975,-0.1727035,0.2074244,0.3501084,-0.5654943,-0.7705539,-0.81967175,1.0,0.0,0.0,0.0,0.0,0.0,0.0,-1.1273597,0.27124938,-0.6618138,-5.9503136,0.28750896,-0.029850006,-1.0727763,-0.5429983,-0.2649784,0.9236448
-11.46195,55.8598,9.315467,15.425276,1.3638881,-0.4505489,0.0050639883,-0.21544297,-0.802187,-0.37539136,0.31960517,-0.6916721,0.68869174,0.11864443,1.1131227,-0.9380239,-1.8193887,-0.51878786,1.7376684,1.5876267,-0.9048311,1.130797,-0.87217236,-1.788533,-0.5453601,1.796721,1.5236574,-0.91640466,-0.3952848,-1.4366318,-0.6668381,0.54129803,-1.0122331,0.4893905,0.032179475,0.44159317,-0.6756897,1.1930618,-3.5755498,-0.44362846,-1.8992922,-0.02683258,-0.55137634,0.92704207,0.89968675,-0.1673609,0.20973653,0.34433198,-0.5869182,-0.7532634,-0.8304869,1.0,0.0,0.0,0.0,0.0,0.0,0.0,-1.0915931,0.2756897,-0.6430618,-3.331691,0.051426888,0.62556267,1.0042429,-0.35791397,-0.24781227,1.2418356
-9.639637,54.31776,8.644528,14.174246,1.1630801,-0.5435741,0.005779408,-0.228486,-0.80307156,-0.42533326,0.32201415,-0.69378793,0.69009227,0.13803995,1.1079484,-0.9524795,-1.8310663,-0.5131587,1.7273421,1.5926666,-0.90260065,1.1266848,-0.88653183,-1.7954185,-0.53983545,1.7866197,1.528546,-0.9159927,-0.41599858,-1.436259,-0.6947618,0.55695873,-1.0111306,0.48832196,0.044388108,0.40586472,-0.6801224,1.1733466,-3.571975,-0.44318494,-1.9955792,-0.032821655,-0.5588608,0.9186582,0.90234095,-0.16184266,0.21217024,0.3384842,-0.6025706,-0.7413084,-0.8456186,1.0,0.0,0.0,0.0,0.0,0.0,0.0,-1.0558647,0.28012237,-0.6233466,-1.9718647,-0.11153221,-2.4497747,1.7771244,-0.40664673,-0.25354028,1.2796268
-1.9764712,50.690887,7.619023,8.63541,0.5785417,-0.6814038,0.1747988,-0.23576029,-0.8071757,-0.45999497,0.25085658,-0.67535144,0.6827376,0.12807965,1.1031088,-0.9672494,-1.841418,-0.51474977,1.7190845,1.5968198,-0.9031847,1.122439,-0.90091324,-1.8027503,-0.53449774,1.7765851,1.5334193,-0.9154796,-0.42741957,-1.4391986,-0.74485904,0.52650756,-1.002621,0.48624876,0.05360663,0.3701706,-0.6845474,1.1526694,-3.5684037,-0.44274184,-2.09177,-0.038806915,-0.56627655,0.91002405,0.9048967,-0.15600704,0.21477482,0.33270943,-0.5974647,-0.7380849,-0.8738831,1.0,0.0,0.0,0.0,0.0,0.0,0.0,-1.0201706,0.28454742,-0.6026694,-1.0939062,-0.42390823,-4.6718836,-2.9042602,0.36871433,-0.399971,0.93225986
6.7295055,51.42025,7.8740206,3.4273996,0.12147999,-0.6845045,0.38405204,-0.23702708,-0.8060103,-0.45332927,0.18207183,-0.67412925,0.6758394,0.17806083,1.0987363,-0.9815143,-1.8480833,-0.51629055,1.7091721,1.6010032,-0.8976735,1.1181322,-0.91531944,-1.810498,-0.52982664,1.7666345,1.5382658,-0.9148511,-0.43173745,-1.441469,-0.78348225,0.44739145,-0.99402446,0.48340678,0.06575054,0.3345108,-0.6889725,1.1310309,-3.564836,-0.4422992,-2.1878643,-0.04459381,-0.57367706,0.9010595,0.90726745,-0.14977153,0.21754919,0.32727146,-0.57149404,-0.73604816,-0.90858984,1.0,0.0,0.0,0.0,0.0,0.0,0.0,-0.9845108,0.28897247,-0.5810309,-0.44193268,-0.3360033,-3.5023332,-7.8609943,0.37459135,-0.50138235,1.1894978
5.220687,50.47015,7.5585513,3.242412,0.16129507,-0.6372683,0.44149905,-0.27265328,-0.808537,-0.464585,0.12541103,-0.64873856,0.66822106,0.19416143,1.0908669,-0.99617314,-1.8569565,-0.5172855,1.7017606,1.6050879,-0.895435,1.1136519,-0.92975426,-1.8185699,-0.5261636,1.7568345,1.54308,-0.91409963,-0.45341593,-1.4444269,-0.8141518,0.33949643,-0.97689724,0.47993085,0.07812926,0.29888916,-0.6933975,1.1084323,-3.561272,-0.44185698,-2.2838626,-0.05013275,-0.58106995,0.8917187,0.90941894,-0.14309861,0.2204479,0.32230842,-0.5475994,-0.73396695,-0.9471093,1.0,0.0,0.0,0.0,0.0,0.0,0.0,-0.94888914,0.29339752,-0.5584323,-2.1548808,-0.39217472,-2.771151,-10.730195,1.252532,-0.57400465,1.2220576
-1.9095438,48.842793,6.937611,5.3406343,0.39924294,-0.5369272,0.46230987,-0.33496183,-0.8102335,-0.46909943,0.03480023,-0.62568474,0.6625332,0.23231487,1.0801557,-1.0107776,-1.8654798,-0.52268356,1.6942661,1.6093333,-0.8908681,1.1086832,-0.9442196,-1.826865,-0.5238261,1.7472577,1.547856,-0.91320795,-0.5112427,-1.4475183,-0.83402354,0.19890435,-0.95276225,0.4762106,0.09293451,0.26330566,-0.6978073,1.0848743,-3.5577114,-0.44141522,-2.379765,-0.055519104,-0.58841705,0.8819634,0.91135293,-0.13594331,0.2234248,0.31786233,-0.5360035,-0.729743,-0.9895872,1.0,0.0,0.0,0.0,0.0,0.0,0.0,-0.91330564,0.2978073,-0.53487426,-5.704117,-0.3993988,-1.785624,-13.940331,1.9678593,-0.6041825,1.4930949
-1.6224084,52.994785,8.169965,4.840412,0.5994021,-0.32429898,0.57583344,-0.3764608,-0.8049402,-0.40623146,-0.09399988,-0.5878742,0.6576538,0.2439587,1.0710372,-1.0247136,-1.8674881,-0.53322613,1.6884702,1.6136214,-0.88881207,1.102986,-0.958683,-1.8349845,-0.5232339,1.7380052,1.5525957,-0.91217035,-0.5888234,-1.4461176,-0.8039491,0.013013982,-0.9175736,0.47260076,0.107538596,0.22775269,-0.7022171,1.060358,-3.5541544,-0.4409739,-2.4755716,-0.060791016,-0.5956497,0.871809,0.9130366,-0.12837784,0.22632857,0.3140997,-0.52498025,-0.71585196,-1.0286462,1.0,0.0,0.0,0.0,0.0,0.0,0.0,-0.87775266,0.3022171,-0.51035804,-7.6690316,0.06835461,3.1386256,-18.479065,3.0892372,-0.5797446,1.5145228
-1.5389419,53.575222,8.309705,3.2949529,0.5138731,-0.17777681,0.7337518,-0.44558862,-0.80139023,-0.37291008,-0.2695262,-0.5828557,0.65887475,0.31008413,1.0584271,-1.038822,-1.8722756,-0.5501865,1.6797196,1.6184832,-0.8811619,1.0963198,-0.9731064,-1.8425949,-0.52497435,1.7290769,1.557305,-0.9109506,-0.6921703,-1.4411908,-0.74674046,-0.23592116,-0.88591033,0.4696077,0.12702227,0.19223785,-0.7066269,1.0348845,-3.550601,-0.440533,-2.5712824,-0.06592178,-0.60271454,0.8612288,0.9144136,-0.12041308,0.22907305,0.31124577,-0.50920194,-0.6972505,-1.0724162,1.0,0.0,0.0,0.0,0.0,0.0,0.0,-0.84223783,0.3066269,-0.48488444,-10.2112055,0.44505596,5.701709,-24.758595,2.8101563,-0.5229652,2.0325587
6.905724,48.11461,6.8487515,-2.9237335,-0.2510203,-0.29505962,0.95389944,-0.47465196,-0.80074704,-0.4360903,-0.46167585,-0.5515392,0.65585285,0.38081926,1.0488546,-1.053181,-1.8862039,-0.57114196,1.6739229,1.6228902,-0.87286866,1.0886751,-0.9874754,-1.849982,-0.5296464,1.7204957,1.5619818,-0.90950006,-0.78812015,-1.4355532,-0.73676276,-0.54379725,-0.84955144,0.4661762,0.15125303,0.15675735,-0.71102905,1.0084544,-3.5470512,-0.44009256,-2.6668973,-0.0707016,-0.60967255,0.8500718,0.91541135,-0.11186661,0.23171774,0.30953947,-0.46934426,-0.68811953,-1.134773,1.0,0.0,0.0,0.0,0.0,0.0,0.0,-0.80675733,0.31102905,-0.45845443,-9.4661,0.55384636,0.81863403,-30.647528,3.4068108,-0.632298,2.4879336
-0.18540955,42.30415,4.7049756,-0.83623475,-0.35767272,-0.38521796,0.87093794,-0.539587,-0.7987704,-0.52619994,-0.565923,-0.5459087,0.64906275,0.4607707,1.0347165,-1.0673524,-1.902602,-0.5862387,1.6659049,1.626888,-0.863423,1.0800253,-1.00179,-1.857827,-0.53726816,1.7122273,1.5666186,-0.90776724,-0.89008117,-1.4301248,-0.8010897,-0.83407223,-0.8202965,0.46170986,0.18075675,0.12131119,-0.7154236,0.981069,-3.543505,-0.43965256,-2.7624168,-0.07514572,-0.6165924,0.8381992,0.9160366,-0.102503024,0.23442876,0.30889022,-0.43822336,-0.6856566,-1.2094938,1.0,0.0,0.0,0.0,0.0,0.0,0.0,-0.77131116,0.31542358,-0.43106902,-10.001874,0.52907467,-6.62868,-28.778446,2.671373,-0.8154988,3.0100644
-9.540131,38.04971,2.968564,3.3687236,-0.18354775,-0.44658828,0.66859907,-0.5871464,-0.7987817,-0.6287785,-0.63846034,-0.529809,0.64814466,0.4793236,1.0213107,-1.0816683,-1.9207048,-0.6011142,1.6592464,1.631433,-0.85983485,1.0703894,-1.0160646,-1.8668487,-0.54735804,1.7042184,1.5712115,-0.90575117,-0.98708737,-1.4268273,-0.93600965,-1.0661457,-0.7956825,0.4568557,0.2086604,0.08590317,-0.7198181,0.9527291,-3.539962,-0.439213,-2.8578405,-0.07941437,-0.62353516,0.82553005,0.9163494,-0.092153765,0.23735817,0.30898613,-0.42521188,-0.6872287,-1.2911716,1.0,0.0,0.0,0.0,0.0,0.0,0.0,-0.73590314,0.3198181,-0.4027291,-9.463644,0.29449463,-13.55679,-22.867012,2.0731568,-0.9310305,2.838829
-28.378334,42.01969,3.0720117,13.376895,0.72666514,-0.24151409,0.33313885,-0.6712983,-0.7852945,-0.6842482,-0.67459613,-0.53697515,0.6548395,0.49944118,1.0032595,-1.0945941,-1.9352735,-0.6148176,1.6505209,1.6366954,-0.85580707,1.0596567,-1.030261,-1.8773506,-0.5591588,1.6963601,1.5757643,-0.90347093,-1.1010803,-1.4174743,-1.0878067,-1.2167011,-0.7844855,0.45320508,0.23466001,0.05052948,-0.72421265,0.9234357,-3.536423,-0.4387739,-2.9531689,-0.08384323,-0.630394,0.81212986,0.9164459,-0.08083017,0.24057221,0.30938378,-0.45140207,-0.67765003,-1.3618995,1.0,0.0,0.0,0.0,0.0,0.0,0.0,-0.70052946,0.32421264,-0.37343568,-11.119962,0.8536577,-15.070105,-14.630318,0.5531192,-0.8154154,2.66082
-36.674282,48.09045,4.4587173,19.20882,1.5026635,-0.036840975,0.10331616,-0.71392614,-0.77889913,-0.7262145,-0.70101154,-0.50767237,0.64616424,0.46226493,0.98826414,-1.108151,-1.949972,-0.62925994,1.6455929,1.6403807,-0.85724443,1.0478426,-1.0443449,-1.8892543,-0.57194185,1.6886468,1.5802809,-0.90098757,-1.2073987,-1.4057329,-1.2240771,-1.297446,-0.76884687,0.44978607,0.25310534,0.0151901245,-0.7285919,0.89318967,-3.5328872,-0.4383352,-3.048402,-0.088703156,-0.6371002,0.7981408,0.9164082,-0.068699464,0.24397622,0.30976114,-0.50173014,-0.65693575,-1.4175404,1.0,0.0,0.0,0.0,0.0,0.0,0.0,-0.6651901,0.3285919,-0.34318966,-10.372376,1.0724545,-13.463211,-7.656312,0.9951949,-0.74585676,1.9227177
-39.53215,52.541973,6.157425,22.348345,2.3699095,0.11205208,-0.031395197,-0.75049186,-0.7814583,-0.7576526,-0.71845657,-0.35215694,0.5984392,0.41063356,0.97279346,-1.1224908,-1.9650196,-0.6437875,1.653431,1.6401248,-0.8599242,1.0350786,-1.0583448,-1.9022796,-0.58516645,1.6815286,1.5847327,-0.8983831,-1.2985557,-1.3984438,-1.3283614,-1.3294762,-0.6944017,0.44268262,0.2634025,-0.020111084,-0.7329712,0.86199206,-3.529355,-0.43789697,-3.1435401,-0.09421921,-0.6435394,0.78371716,0.9163288,-0.056025628,0.24719654,0.30999434,-0.5730193,-0.62795883,-1.457373,1.0,0.0,0.0,0.0,0.0,0.0,0.0,-0.6298889,0.3329712,-0.31199205,-8.893347,0.6161928,-10.283279,-2.8114796,6.957102,-1.0634661,1.1805773
-38.9235,58.942886,8.983322,24.460531,3.6018906,0.27761,-0.13514115,-0.77954394,-0.77919847,-0.76856333,-0.71869195,0.014356095,0.5553082,0.30013216,0.95712423,-1.1362647,-1.979136,-0.65703565,1.6829642,1.6402634,-0.8683699,1.0215479,-1.0722895,-1.9160373,-0.5984578,1.6762319,1.589091,-0.8957719,-1.3705344,-1.3935859,-1.3914465,-1.32789,-0.47556072,0.43268904,0.26127994,-0.05537796,-0.73735046,0.82984376,-3.5258265,-0.43745917,-3.2385828,-0.100624084,-0.6496277,0.7690779,0.91635925,-0.043233622,0.24949603,0.31010988,-0.66803175,-0.58919954,-1.4728653,1.0,0.0,0.0,0.0,0.0,0.0,0.0,-0.594622,0.33735046,-0.27984375,-7.0269823,0.3828764,-6.269145,0.48832893,21.582376,-1.2626827,0.08533001
-35.660305,61.145832,10.945998,24.627342,4.636482,0.31501406,-0.24496369,-0.79709625,-0.78943264,-0.78424674,-0.7100014,0.4456197,0.46238053,0.06799638,0.94183826,-1.1512327,-1.994462,-0.669458,1.7207938,1.635329,-0.8889723,1.007464,-1.086257,-1.9302089,-0.61157846,1.6742997,1.593289,-0.89336103,-1.4206651,-1.3979628,-1.4258001,-1.3058573,-0.099374644,0.4147171,0.23587172,-0.090610504,-0.7417221,0.7967458,-3.5223012,-0.4370218,-3.3335307,-0.10810852,-0.6552887,0.75441784,0.9167098,-0.030753156,0.25001335,0.31014627,-0.78145736,-0.54754823,-1.4700717,0.0,1.0,0.0,0.0,0.0,0.0,0.0,-0.5593895,0.3417221,-0.24674577,-4.884839,-0.5305767,-3.4681082,2.4885178,37.47189,-2.0213544,-2.083528
-30.94709,66.80831,12.776602,24.189484,4.5559874,0.4486118,-0.3579179,-0.8099358,-0.78638047,-0.7798567,-0.67264056,0.46753064,0.43840086,-0.061344948,0.92647046,-1.164895,-2.0081947,-0.67884254,1.7210528,1.6371291,-0.89949554,0.9928972,-1.1002264,-1.9456921,-0.62456584,1.6776073,1.5954065,-0.8920265,-1.4655001,-1.3977678,-1.5635287,-1.2899073,0.42726538,0.17729552,0.124114774,-0.10425186,-0.74082947,0.7931688,-1.156157,0.18793248,0.026551068,-0.1169014,-0.66096497,0.73975015,0.917862,-0.017814467,0.24780907,0.30952007,-0.9101266,-0.5519786,-1.4708539,0.0,1.0,0.0,0.0,0.0,0.0,0.0,-0.5457481,0.34082946,-0.24316877,-2.8938293,-0.5218744,-0.20401478,5.139351,32.89572,-2.8009443,-2.9867365
-8.209828,176.0,69.71508,59.00853,12.0087595,4.6509256,-1.4060676,-0.74405336,-0.49747196,0.6892596,-0.19019043,0.5708868,0.68648,-0.45264494,0.9184919,-1.1499736,-1.8767661,-0.6435849,1.734696,1.6640545,-0.93729097,0.97831553,-1.1168013,-1.9429835,-0.6322725,1.672547,1.5948534,-0.89045197,-1.4536282,-1.6762146,0.670733,-0.6419637,-0.6024451,-0.08130292,0.15588903,-0.11580658,-0.73895264,0.79269767,-1.155001,0.18774459,-0.07166143,-0.12681961,-0.66480255,0.7281789,0.9196064,-0.009583912,0.2428884,0.3086055,-1.022007,-0.31328207,-1.0584182,1.0,0.0,0.0,0.0,0.0,0.0,0.0,-0.5341934,0.33895263,-0.24269766,1.8349171,-7.4578285,159.97209,51.47933,-38.573242,-10.40819,-0.62941015
49.13525,176.0,61.37364,35.695652,9.08381,2.7262616,-1.4984648,-0.34045342,-0.79281855,0.4456081,0.30279788,0.58412623,0.6124547,-0.5296899,0.9442702,-1.1960831,-1.8984227,-0.60199267,1.7309597,1.6560988,-0.94342095,0.9660198,-1.133563,-1.9302652,-0.6338804,1.6677386,1.5943766,-0.8894115,-1.1541573,-1.6762149,1.4725878,0.00059534615,-0.43943375,-0.03186363,0.08869248,-0.12734604,-0.7370758,0.7912451,-1.1538463,0.18755688,-0.16977572,-0.1373558,-0.6669693,0.72010756,0.9221427,-0.006854426,0.2351376,0.30710912,-1.0646774,-0.17126817,-0.7245419,1.0,0.0,0.0,0.0,0.0,0.0,0.0,-0.52265394,0.3370758,-0.24124509,30.15907,2.3841858e-05,80.25074,64.553345,16.5779,6.266302,-6.1308784
56.406006,155.8591,40.346634,20.775564,3.9200847,0.39692783,-1.3230314,-0.22568235,-0.7492258,0.04367291,0.4908441,0.2902717,0.6473309,-0.4376443,0.9434516,-1.2084856,-1.925898,-0.58479595,1.6967658,1.6591096,-0.9331759,0.95725363,-1.1494856,-1.9159868,-0.6295183,1.6652342,1.5946302,-0.8889995,-0.78381586,-1.5644164,1.4167622,0.58350706,-0.19024861,0.04602292,0.026432171,-0.13887787,-0.735199,0.78881216,-1.1526927,0.18736935,-0.26779193,-0.14780045,-0.6684494,0.71420044,0.9251875,-0.0072521917,0.22644939,0.3044603,-1.0394436,-0.13296127,-0.54718757,1.0,0.0,0.0,0.0,0.0,0.0,0.0,-0.5111221,0.33519897,-0.23881215,37.133217,11.168003,-4.3906927,58.926952,24.067635,8.302051,-5.8956227
82.36812,135.41591,33.3843,0.7004397,0.14161503,-0.12965521,-0.5716216,-0.10120677,-0.7441229,0.47008792,0.53998166,-0.2905355,0.6498486,-0.2157764,0.94713295,-1.2238979,-1.868978,-0.5755201,1.6361806,1.659615,-0.9105772,0.9521658,-1.1642351,-1.9028528,-0.62069774,1.6633784,1.5956297,-0.88899094,-0.41727573,-1.4460925,1.285763,0.9836723,-0.19004104,0.11806023,-0.0068985806,-0.15039444,-0.73332214,0.7853998,-1.1515402,0.18718202,-0.36571014,-0.15724564,-0.6697693,0.7095076,0.9282321,-0.009130778,0.2184058,0.3009995,-0.9150401,-0.12566327,-0.44629842,1.0,0.0,0.0,0.0,0.0,0.0,0.0,-0.49960554,0.33332214,-0.23539978,36.59575,11.499548,-11.041665,40.655304,-1.7873883,7.221112,-3.0932493
-0.8578558,95.246445,16.834982,19.567448,0.82949775,-0.022720188,-0.7266471,-0.34813777,-0.7505612,0.50042975,0.5771704,-0.41610783,0.6457521,-0.27580458,0.917352,-1.2392912,-1.8528098,-0.5629807,1.6217675,1.6602049,-0.9165714,0.9486696,-1.1780424,-1.8913705,-0.60926795,1.6607252,1.5972719,-0.8892923,-0.32659003,-1.359714,1.1041985,1.1982616,-0.29234806,0.1795418,-0.03700776,-0.16190338,-0.7314453,0.78100896,-1.1503888,0.18699488,-0.46353045,-0.16625214,-0.67092896,0.7052693,0.931207,-0.011304771,0.21166435,0.29651946,-0.89969295,-0.10974345,-0.42134982,1.0,0.0,0.0,0.0,0.0,0.0,0.0,-0.4880966,0.3314453,-0.23100895,9.212816,8.450079,-17.591667,22.11361,-10.818902,6.179714,-2.7349017
-21.91243,75.42558,11.3277235,19.240204,0.9103507,0.19889127,-0.3774614,-0.34268406,-0.7387102,0.57037926,0.53006595,-0.40185586,0.62371993,-0.20859693,0.91440123,-1.2519134,-1.8343326,-0.55626136,1.6205397,1.6596439,-0.910152,0.945141,-1.1912374,-1.8810995,-0.5970924,1.6569754,1.5994349,-0.8898054,-0.36111975,-1.3065614,1.0017447,1.2257035,-0.40335035,0.22882727,-0.055267103,-0.17339706,-0.72958374,0.77564067,-1.1492387,0.18680792,-0.56125295,-0.17528915,-0.6718674,0.70102024,0.93409836,-0.013252337,0.20606992,0.2912382,-0.9074886,-0.08403239,-0.43162438,1.0,0.0,0.0,0.0,0.0,0.0,0.0,-0.4766029,0.32958373,-0.22564065,-3.2961965,5.1702023,-10.148716,3.2349348,-11.318958,5.0070944,-1.6103745
-30.464535,62.286602,8.212521,17.575012,1.0539823,0.22771968,-0.1291445,-0.35079637,-0.7292632,0.5401027,0.50154614,-0.3520543,0.5995635,-0.16434488,0.91006136,-1.2641637,-1.8270892,-0.54693776,1.6217699,1.6593912,-0.90623987,0.94081134,-1.2041025,-1.8715742,-0.5854652,1.6524416,1.602004,-0.89043576,-0.45648843,-1.2801181,0.93566096,1.1430194,-0.46994153,0.2668302,-0.06501233,-0.18488312,-0.72772217,0.7692879,-1.1480898,0.18662114,-0.659943,-0.18450928,-0.6725235,0.69650006,0.93688935,-0.014806872,0.20121063,0.28554028,-0.9290526,-0.056876674,-0.46416345,1.0,0.0,0.0,0.0,0.0,0.0,0.0,-0.46511686,0.32772216,-0.21928787,-9.385771,2.5359392,-6.764722,-7.874298,-6.6666603,3.8926065,-0.7883951
-11.989834,58.08379,8.810445,9.199937,0.70167357,0.121005714,0.13351807,-0.29885945,-0.73280084,0.5518481,0.49519688,-0.34226495,0.5856663,-0.11762455,0.9109254,-1.2773826,-1.8163893,-0.53594553,1.6182151,1.6605706,-0.9021982,0.9357769,-1.2168818,-1.8623235,-0.5748937,1.6474882,1.604886,-0.8911062,-0.5188221,-1.2775949,0.9220753,1.0295271,-0.5045581,0.29543993,-0.067178175,-0.19635391,-0.7258606,0.761949,-1.1469419,0.18643457,-0.7585343,-0.19377518,-0.67298126,0.6916209,0.939548,-0.016055902,0.19667645,0.2798392,-0.92753035,-0.03728067,-0.50064087,1.0,0.0,0.0,0.0,0.0,0.0,0.0,-0.45364606,0.3258606,-0.21194899,-6.1383367,0.1162529,-1.2390614,-11.028719,-3.7376404,2.8814554,-0.037573278
-4.6179953,55.732967,8.884528,6.6095543,0.67811227,-0.015190095,0.1497808,-0.29917392,-0.73933864,0.52966714,0.50591534,-0.34962264,0.577042,-0.118765876,0.9058595,-1.2908156,-1.8093568,-0.5243022,1.6125259,1.6625903,-0.9029828,0.9303276,-1.2297525,-1.853111,-0.5652635,1.6423289,1.6080027,-0.8917871,-0.55340886,-1.2906862,0.921743,0.9419035,-0.5210201,0.31707788,-0.067674585,-0.20781708,-0.723999,0.75362486,-1.1457952,0.18624817,-0.8570271,-0.20301056,-0.6732788,0.6863728,0.9420855,-0.017102255,0.1922249,0.27428442,-0.92210245,-0.02433783,-0.53721035,1.0,0.0,0.0,0.0,0.0,0.0,0.0,-0.4421829,0.32399902,-0.20362484,-3.3732295,-1.4430285,0.18769503,-8.444536,-2.00876,2.1416485,0.14533997
-3.5674312,56.008675,9.263174,7.0550966,0.9306261,-0.08447614,0.06863775,-0.31180143,-0.74834186,0.53072125,0.50820345,-0.33160764,0.5625829,-0.14068353,0.89914745,-1.3045868,-1.8000389,-0.51444316,1.609168,1.664261,-0.9058555,0.92465895,-1.2428179,-1.8438222,-0.55622077,1.6371447,1.6112909,-0.89248425,-0.5711068,-1.3123204,0.9321245,0.89289755,-0.51885104,0.3326225,-0.069543555,-0.21926498,-0.72213745,0.7443165,-1.1446496,0.18606195,-0.95542145,-0.21222687,-0.6734772,0.6807934,0.9445508,-0.018041983,0.18769872,0.26882577,-0.92342347,-0.013238777,-0.5689817,1.0,0.0,0.0,0.0,0.0,0.0,0.0,-0.430735,0.32213745,-0.1943165,-1.6730309,-2.2883654,1.3034463,-4.5593977,-0.17857552,1.505059,0.035959482
-4.7069283,58.49232,9.564175,8.368858,0.99452114,-0.123567045,-0.029157925,-0.31708026,-0.74871546,0.5072583,0.51702476,-0.36752358,0.57079697,-0.13549067,0.89295095,-1.3176894,-1.7930964,-0.5045183,1.6003923,1.6683706,-0.90603334,0.91889685,-1.2560778,-1.8345277,-0.54737735,1.6319166,1.6147165,-0.89319474,-0.57746655,-1.330951,0.9295025,0.8826784,-0.5254875,0.3456114,-0.07066977,-0.23070526,-0.7202759,0.73402506,-1.1435052,0.18587594,-1.0537174,-0.22149658,-0.6735611,0.6749296,0.94697547,-0.018891038,0.18312818,0.26333356,-0.92781585,-0.0026343516,-0.5961577,0.0,1.0,0.0,0.0,0.0,0.0,0.0,-0.41929471,0.32027587,-0.18402505,-0.5275011,-1.9848108,0.036096573,-0.64810514,-1.0798573,1.2397766,0.11881292
-1.9656101,60.359154,9.969651,7.472142,0.986068,-0.15531495,-0.031163113,-0.31357625,-0.75538224,0.5066626,0.49842954,-0.33530805,0.5480743,-0.1355583,0.8875392,-1.331616,-1.7838615,-0.4975344,1.5983858,1.669524,-0.90675056,0.9131462,-1.2695036,-1.825279,-0.5385692,1.626721,1.6182356,-0.8939138,-0.57399464,-1.3470131,0.92452353,0.88145113,-0.5191744,0.35379758,-0.07152223,-0.24213028,-0.7184143,0.7227513,-1.142362,0.1856901,-1.1519151,-0.23078537,-0.67354584,0.6688179,0.9493696,-0.019660745,0.17850015,0.25777593,-0.9296337,0.0068997922,-0.6202057,0.0,1.0,0.0,0.0,0.0,0.0,0.0,-0.4078697,0.3184143,-0.17275131,0.45218468,-1.7353535,-0.1306653,0.25638342,0.15141964,0.7464111,0.15125275
-6.9964347,63.907047,10.270222,9.879897,1.1233476,-0.1319718,-0.119704664,-0.32576206,-0.7514823,0.4810093,0.5220481,-0.35396263,0.5475119,-0.12244516,0.88057,-1.3446518,-1.777178,-0.4863644,1.5913248,1.6729867,-0.9061583,0.9073984,-1.283021,-1.8162019,-0.5296085,1.6215407,1.6218233,-0.89462906,-0.5747085,-1.3538122,0.9032714,0.9022807,-0.51904535,0.35998586,-0.07084526,-0.25354767,-0.71655273,0.71049637,-1.1412199,0.18550445,-1.2500145,-0.24013901,-0.6734085,0.66250414,0.95174605,-0.020323362,0.17388844,0.2520499,-0.93793803,0.019453716,-0.63903564,0.0,1.0,0.0,0.0,0.0,0.0,0.0,-0.3964523,0.31655273,-0.16049635,0.049567223,-0.80747604,-1.7616272,2.4940014,-0.46241283,0.54435134,0.30700713
-10.374208,65.61473,10.510194,10.88729,1.2838719,-0.07095441,-0.14016864,-0.34152058,-0.75624675,0.49036196,0.51201206,-0.33748847,0.53271043,-0.13382931,0.8732464,-1.3586457,-1.7671658,-0.4784073,1.5877918,1.6750944,-0.908012,0.90156126,-1.2965852,-1.8073789,-0.52051145,1.6163888,1.6253603,-0.89526546,-0.5875402,-1.3579133,0.85470223,0.906766,-0.51035595,0.33249405,-0.04669985,-0.26546478,-0.7139435,0.7004983,-1.2505895,0.43178186,-0.22594513,-0.24960327,-0.673172,0.65600204,0.9541052,-0.020790355,0.16930854,0.24614158,-0.9479038,0.026400952,-0.6629202,0.0,1.0,0.0,0.0,0.0,0.0,0.0,-0.3845352,0.31394348,-0.15049827,-1.3489246,-0.55081844,-7.969594,-0.27081966,0.68057775,-5.9131503,5.10111
-81.23503,100.42236,15.382688,42.205387,3.7260067,0.72809273,-0.95937943,-0.57069737,-0.6173624,0.40554768,0.6339115,-0.4812577,0.58639777,-0.33177984,0.84449154,-1.3583214,-1.7668241,-0.4571203,1.568263,1.684,-0.92844343,0.89453554,-1.3095151,-1.7993184,-0.51079065,1.6109204,1.6287496,-0.8958863,-0.7399457,-1.27168,0.789787,0.99618024,-0.55951834,0.34108168,-0.066279285,-0.27796173,-0.70962524,0.6974961,-1.2493391,0.43135017,-0.3249704,-0.25987625,-0.67237854,0.6497173,0.95656776,-0.02090019,0.165334,0.23917739,-1.0529237,0.10186084,-0.62102515,0.0,1.0,0.0,0.0,0.0,0.0,0.0,-0.37203825,0.30962524,-0.1474961,-14.930058,8.515382,-6.5390587,9.6304655,-5.0973177,0.86078644,-1.6590453
-73.680435,125.72911,20.831305,41.215115,3.806669,1.0936127,-0.9055755,-0.552788,-0.54392457,0.45447066,0.6355497,-0.51304364,0.6314484,-0.28463045,0.83925676,-1.3639076,-1.7538713,-0.44723567,1.5596161,1.6918944,-0.92434937,0.88609076,-1.321232,-1.7915803,-0.50020295,1.6048303,1.632261,-0.896675,-0.8782679,-1.1390142,0.7702554,1.082041,-0.6284432,0.35428894,-0.08200911,-0.29044724,-0.70531464,0.6935044,-1.24809,0.4309189,-0.42389664,-0.27103424,-0.6707001,0.64415425,0.95913106,-0.021068437,0.16226442,0.23085482,-1.1368691,0.19422229,-0.53855217,0.0,1.0,0.0,0.0,0.0,0.0,0.0,-0.35955274,0.30531463,-0.14350438,-13.545251,13.0481,-1.4088869,9.296083,-7.704699,1.2630761,-1.2627274
-71.635864,135.12845,22.569569,40.05388,3.8861175,1.2380004,-0.77352995,-0.6267373,-0.47397467,0.4130458,0.62136644,-0.4524958,0.6119113,-0.13656826,0.823417,-1.3686295,-1.7502757,-0.4380663,1.5595807,1.6934521,-0.91033185,0.87622786,-1.331463,-1.7840177,-0.4889863,1.5982804,1.6359003,-0.89750946,-1.0214671,-0.98548555,0.7546397,1.1372124,-0.667622,0.3667241,-0.08286637,-0.30291748,-0.70101166,0.6885242,-1.2468423,0.43048808,-0.52272403,-0.28297806,-0.6680527,0.63951886,0.961725,-0.02142965,0.16008915,0.2213529,-1.2128965,0.29436094,-0.44214565,0.0,1.0,0.0,0.0,0.0,0.0,0.0,-0.3470825,0.30101165,-0.13852417,-14.058566,15.068841,-0.7045388,6.22952,-5.0703883,1.0985315,0.24121255
-53.071796,128.95677,21.718845,31.622631,3.494828,1.0603702,-0.5541881,-0.64378774,-0.43786702,0.4126143,0.6372293,-0.3408309,0.5787925,-0.112529814,0.81184906,-1.3752496,-1.7427562,-0.42526338,1.5641973,1.6937795,-0.90876245,0.86522245,-1.3403112,-1.7765123,-0.4773758,1.5917916,1.6396215,-0.89831626,-1.1262641,-0.852128,0.75292337,1.1711385,-0.6472633,0.37314758,-0.07885993,-0.31537628,-0.6967087,0.68255347,-1.2455957,0.43005767,-0.6218463,-0.29553223,-0.6644974,0.63577265,0.9643037,-0.022083873,0.15848534,0.2109809,-1.2681123,0.38299018,-0.3554251,0.0,1.0,0.0,0.0,0.0,0.0,0.0,-0.3346237,0.29670867,-0.13255346,-10.278988,13.023531,0.9753704,4.024625,0.6233573,0.3997147,0.728561
-30.654577,105.9484,17.674028,19.974937,2.7508357,0.7288419,-0.26677266,-0.6559591,-0.44442323,0.42490724,0.6131165,-0.22498985,0.5690045,-0.11181645,0.7996265,-1.3847535,-1.7340215,-0.41606414,1.5692927,1.696522,-0.9094979,0.85347986,-1.3482419,-1.768921,-0.46571094,1.5859551,1.6433847,-0.89907825,-1.189714,-0.77450573,0.76494545,1.1664872,-0.5669643,0.37653145,-0.074409716,-0.32782364,-0.6924057,0.67559224,-1.2443503,0.4296277,-0.7208695,-0.3084793,-0.66023254,0.6326161,0.96683687,-0.023069637,0.15694842,0.20015319,-1.3012599,0.44903445,-0.3057847,0.0,1.0,0.0,0.0,0.0,0.0,0.0,-0.32217634,0.2924057,-0.12559223,-6.2120914,7.4866295,2.341807,0.018453598,6.6871166,0.06992817,0.73888004
-7.211545,93.764145,15.462421,9.517701,1.9052687,0.4857834,-0.032429226,-0.6385651,-0.41879618,0.44004247,0.6185213,-0.1857271,0.5750929,-0.049605295,0.7896234,-1.3901216,-1.7249168,-0.4038588,1.5673825,1.700894,-0.9040388,0.84147704,-1.3556459,-1.7612733,-0.45420638,1.5811589,1.6470158,-0.89970833,-1.2034303,-0.7296511,0.77231425,1.1470553,-0.45753604,0.362024,-0.059843052,-0.3397255,-0.68683624,0.6719609,-1.1784519,0.56539655,-0.3427917,-0.32154083,-0.65550995,0.62977356,0.96929216,-0.024298849,0.15511969,0.18926215,-1.3061979,0.4902257,-0.27946678,0.0,1.0,0.0,0.0,0.0,0.0,0.0,-0.31027448,0.28683624,-0.12196088,-1.2545109,4.2579055,3.2333136,-1.328063,8.4966545,-0.26359558,1.2565844
-3.061878,94.01033,15.138401,7.6896987,1.716325,0.43953088,-0.022860818,-0.66420805,-0.36700723,0.43524495,0.6241251,-0.14498779,0.56451994,-0.08873313,0.77505624,-1.3923466,-1.7177488,-0.39179388,1.56666,1.7034678,-0.9085816,0.829414,-1.3625963,-1.7534728,-0.44286054,1.5773449,1.6506304,-0.90027165,-1.2070107,-0.68420637,0.7871484,1.1316338,-0.3609577,0.36057496,-0.05436488,-0.35129547,-0.6810303,0.668725,-1.149965,0.5850442,-0.31883857,-0.33460236,-0.6503601,0.6272083,0.97164935,-0.025863495,0.15299591,0.17838408,-1.3029664,0.53131586,-0.25179586,0.0,1.0,0.0,0.0,0.0,0.0,0.0,-0.2987045,0.28103027,-0.118725,-0.28624535,4.278779,2.808416,-1.1859894,8.195716,-0.3872633,0.78226775
-1.7506838,90.25344,14.182019,6.543155,1.6769699,0.38788533,0.004947182,-0.675396,-0.3498214,0.42589,0.6080822,-0.020433387,0.56008387,-0.047043175,0.76187444,-1.3975784,-1.7108839,-0.38205233,1.5753015,1.7066387,-0.90497595,0.81733096,-1.369148,-1.7455829,-0.43170208,1.5746511,1.6542448,-0.9007633,-1.2084861,-0.6463377,0.7940084,1.11173,-0.2436082,0.36068997,-0.046607055,-0.3625908,-0.6750488,0.6656835,-1.1228201,0.6038985,-0.30104476,-0.34762573,-0.64482117,0.62487185,0.97390723,-0.027779505,0.15052418,0.16755733,-1.2999045,0.5700998,-0.23059283,0.0,1.0,0.0,0.0,0.0,0.0,0.0,-0.2874092,0.27504882,-0.115683496,-0.07843971,3.5342693,1.9756198,-1.6509771,10.321349,-0.23044944,1.0083295
-6.031729,90.23153,13.909604,7.9071493,1.9130774,0.3815936,-0.02494161,-0.6935928,-0.3217283,0.4129123,0.59680295,0.1307093,0.54049516,-0.021707427,0.74797165,-1.4013208,-1.7042917,-0.3720218,1.5877221,1.7082943,-0.902934,0.805164,-1.3753088,-1.7377269,-0.42075276,1.573376,1.6578455,-0.90116405,-1.2191335,-0.60673034,0.7870409,1.0904825,-0.09335044,0.35898662,-0.037088983,-0.37363052,-0.668869,0.66281575,-1.0985774,0.6229435,-0.2839043,-0.3606758,-0.63887024,0.6227464,0.9760783,-0.030073132,0.147615,0.15676922,-1.3049479,0.6126861,-0.20949827,0.0,1.0,0.0,0.0,0.0,0.0,0.0,-0.27636945,0.268869,-0.11281574,-0.9869337,3.7151933,0.5509734,-1.7743826,13.665965,-0.43659806,1.1950873
-7.76656,98.29008,14.714319,8.9242325,1.9241004,0.41851884,-0.046262573,-0.6981604,-0.26613948,0.37732774,0.5975631,0.21439134,0.51747435,0.035459917,0.7353479,-1.4019227,-1.6999942,-0.36099645,1.5948151,1.7095929,-0.89761806,0.79287493,-1.3809183,-1.7301286,-0.40996203,1.5736157,1.6614084,-0.9014348,-1.2318844,-0.54660565,0.75544596,1.0765264,0.058144573,0.35455537,-0.022903387,-0.38441086,-0.6624832,0.66021895,-1.0713431,0.6442285,-0.25346327,-0.37377167,-0.63246155,0.62091523,0.9781499,-0.032735325,0.14436369,0.14598008,-1.3068788,0.658812,-0.17735916,0.0,1.0,0.0,0.0,0.0,0.0,0.0,-0.26558912,0.2624832,-0.11021894,-1.1917591,5.74373,-1.788497,-1.0204554,13.677875,-0.7223606,1.6585697
-8.548273,110.41991,16.018492,9.827743,1.8301629,0.47363916,-0.062714204,-0.7025883,-0.1976287,0.33555144,0.6030274,0.26599094,0.47428995,0.10376313,0.7226161,-1.4006811,-1.6965735,-0.3496593,1.6002147,1.7088374,-0.89105844,0.78045905,-1.3857096,-1.7230278,-0.39922896,1.5752208,1.6648915,-0.90152323,-1.2444632,-0.4577935,0.7004801,1.0735362,0.18896794,0.345413,-0.0033632338,-0.39487076,-0.6558609,0.6580804,-1.0382541,0.66802245,-0.20276937,-0.38681793,-0.6255722,0.6195344,0.98008937,-0.03571685,0.14101487,0.1351443,-1.3004396,0.7079586,-0.12799612,0.0,1.0,0.0,0.0,0.0,0.0,0.0,-0.25512922,0.2558609,-0.10808039,-1.1733055,8.573884,-3.8948178,0.09777546,11.389362,-1.2149811,2.1775744
-10.380658,128.26787,18.007496,11.512025,1.7189009,0.5619256,-0.10297163,-0.7110509,-0.099312216,0.26988354,0.6207594,0.28900552,0.4209599,0.15742518,0.7093539,-1.3956409,-1.6960394,-0.33715302,1.6041213,1.7069875,-0.8857807,0.76791054,-1.3893031,-1.7167053,-0.38839966,1.5778741,1.6682408,-0.9013908,-1.2580957,-0.3275425,0.6161963,1.0874394,0.28371114,0.33042863,0.019443123,-0.40493774,-0.64897156,0.6566604,-0.9971025,0.6955777,-0.12326692,-0.39972305,-0.61816406,0.61883956,0.9818527,-0.038934875,0.1379401,0.12418413,-1.2828704,0.76161355,-0.052535206,0.0,1.0,0.0,0.0,0.0,0.0,0.0,-0.24506223,0.24897155,-0.106660366,-1.2809515,12.65477,-6.4505935,1.8119812,7.4109373,-1.8484592,2.4801276
-8.925809,133.99315,17.94076,10.738352,1.3565854,0.53489506,-0.060867496,-0.7187332,-0.024278322,0.18384759,0.6123611,0.33153242,0.33231434,0.21201079,0.69603723,-1.3917309,-1.6983205,-0.32716355,1.6110274,1.7014722,-0.8801897,0.75522095,-1.3914565,-1.7114894,-0.37745768,1.581306,1.6713817,-0.9010113,-1.2723694,-0.17939974,0.49733114,1.0976504,0.3554035,0.30735543,0.04455822,-0.41456604,-0.64180756,0.6561086,-0.9515785,0.7228886,-0.03415808,-0.41236115,-0.6102295,0.618961,0.9834036,-0.042239506,0.13543701,0.11309263,-1.2528263,0.81115055,0.031198641,0.0,1.0,0.0,0.0,0.0,0.0,0.0,-0.23543394,0.24180755,-0.106108606,-1.3734579,14.412305,-9.699785,1.3868332,4.9128056,-2.6861787,2.6611247
-7.2184124,163.93694,20.679691,11.258189,0.8256494,0.56824917,-0.02861694,-0.72676724,0.16963042,-0.035707664,0.62135625,0.3573841,0.16776712,0.2817196,0.68254423,-1.3744935,-1.7150602,-0.31532204,1.6170444,1.6881584,-0.87283933,0.74238354,-1.3915423,-1.708268,-0.36639935,1.5852906,1.6741704,-0.90035707,-1.2875454,0.046655435,0.2732951,1.1095976,0.40315223,0.26795092,0.07266088,-0.42362213,-0.634346,0.656764,-0.890379,0.7535451,0.09834157,-0.42449188,-0.60183716,0.6202321,0.984679,-0.045344763,0.13408084,0.10185031,-1.194661,0.8581629,0.15730134,0.0,1.0,0.0,0.0,0.0,0.0,0.0,-0.22637784,0.234346,-0.10676396,-1.5142441,22.082594,-19.577694,1.5009642,1.8799782,-4.422945,2.887088
-11.651463,160.94957,17.08592,11.742225,-0.6159052,0.16861892,0.034749433,-0.7620933,0.28615916,-0.4507397,0.6239398,0.26132065,-0.16285416,0.34449536,0.66617423,-1.3629264,-1.753342,-0.30400535,1.6114227,1.657885,-0.86590755,0.729261,-1.3892001,-1.708945,-0.3552504,1.5893073,1.6763468,-0.89940906,-1.3207945,0.2949239,-0.17236114,1.1168749,0.39200082,0.19925101,0.101984926,-0.43205643,-0.62664795,0.6585866,-0.827351,0.77503604,0.21064165,-0.43587875,-0.59316254,0.6226569,0.9856178,-0.047332674,0.13472691,0.09036397,-1.1140115,0.8779235,0.2699487,0.0,1.0,0.0,0.0,0.0,0.0,0.0,-0.21794355,0.22664794,-0.10858661,-3.4172773,24.28272,-41.909557,0.7794857,-3.8416564,-7.348484,2.8699503
-3.9458625,133.40361,11.189061,6.1441936,-2.3044426,-0.20317143,0.25848243,-0.7686812,0.30266312,-0.6219936,0.5907314,-0.1179952,-0.35804266,0.46985132,0.65239286,-1.3589338,-1.7711444,-0.29617724,1.5775077,1.6405425,-0.8524239,0.7158085,-1.384836,-1.714363,-0.3442311,1.591975,1.6777471,-0.8981121,-1.3539468,0.4821944,-0.6574674,1.0959079,0.21742797,0.11929254,0.13822547,-0.439888,-0.6188507,0.66109425,-0.7674553,0.78090054,0.26690444,-0.44628906,-0.5845947,0.62582994,0.98617023,-0.047264688,0.13796856,0.078733295,-1.0098064,0.8589993,0.33350936,0.0,1.0,0.0,0.0,0.0,0.0,0.0,-0.21011198,0.2188507,-0.11109424,-3.507924,18.28013,-46.273094,-2.4095058,-19.74172,-8.274433,3.4117534
6.9494605,91.54596,5.575836,-0.3621661,-2.8533542,-0.4987238,0.392798,-0.75177354,0.2612322,-0.67441005,0.5776722,-0.28697133,-0.3854688,0.51892006,0.64063114,-1.3587128,-1.781804,-0.2864639,1.5632778,1.6392002,-0.84622014,0.70217955,-1.3794206,-1.7238697,-0.3335138,1.5924084,1.6784158,-0.89645034,-1.366626,0.56055343,-1.0437766,1.0620891,-0.019488988,0.04920814,0.17458561,-0.44724274,-0.6111069,0.6636341,-0.7224137,0.77316123,0.25492334,-0.45571518,-0.5764084,0.62915564,0.98634213,-0.044854462,0.14355354,0.06715404,-0.9134041,0.8131585,0.3337367,0.0,1.0,0.0,0.0,0.0,0.0,0.0,-0.20275724,0.21110687,-0.11363411,-1.4721632,7.5705767,-37.138412,-3.8555622,-25.207293,-7.035711,3.3620596
18.312622,26.961922,-2.0303285,-8.839493,-3.095064,-0.92120725,0.570953,-0.7453917,0.116491936,-0.7022873,0.50367975,-0.3799746,-0.3997216,0.5226217,0.62764037,-1.3677714,-1.7940984,-0.28314582,1.5544109,1.6384436,-0.84418815,0.6885468,-1.3744138,-1.7361721,-0.32344013,1.5905125,1.6784806,-0.89445335,-1.3624432,0.4805372,-1.2922223,0.98819643,-0.24659516,-0.006388668,0.20731065,-0.45446014,-0.6033859,0.6654293,-0.7216915,0.7723882,0.15438928,-0.46439362,-0.56887054,0.63174975,0.98620456,-0.0401737,0.15052772,0.055927582,-0.8455353,0.7385152,0.23638064,0.0,1.0,0.0,0.0,0.0,0.0,0.0,-0.19553983,0.20338592,-0.11542928,0.34236908,-8.008867,-24.764751,-7.6748013,-22.797321,-5.1603956,3.036025
30.701925,-10.639,-5.648961,-15.962676,-3.0373483,-1.2009459,0.69961244,-0.717557,0.018947849,-0.7208529,0.44464353,-0.4532243,-0.42870677,0.49774373,0.61679107,-1.372519,-1.8082573,-0.27897578,1.5451901,1.63561,-0.844679,0.6751381,-1.3709348,-1.7500137,-0.31429154,1.5866368,1.6780534,-0.8921836,-1.333565,0.3042197,-1.4173318,0.8902849,-0.43212292,-0.052864216,0.23287942,-0.46166992,-0.595665,0.6662199,-0.72097,0.771616,0.05395571,-0.47252274,-0.562233,0.632957,0.98584324,-0.033520777,0.15790127,0.045348905,-0.79874426,0.6467437,0.08396472,0.0,1.0,0.0,0.0,0.0,0.0,0.0,-0.18833005,0.19566497,-0.11621988,2.9240131,-17.492765,-13.254309,-9.845281,-17.811792,-4.0738354,2.372077
31.204876,-13.273781,-4.515052,-15.753787,-2.143854,-1.2110255,0.6624366,-0.7056259,-0.03188681,-0.7165379,0.41526717,-0.44894537,-0.46730122,0.5017764,0.6045755,-1.3741236,-1.8216676,-0.27276483,1.5417422,1.6313232,-0.84200597,0.6620766,-1.3693479,-1.7643512,-0.30608565,1.5814049,1.6771874,-0.88968974,-1.2968715,0.11047693,-1.4414332,0.7974937,-0.5511572,-0.09646003,0.25441796,-0.46887589,-0.5879593,0.6660069,-0.7202492,0.7708445,-0.04637744,-0.4803543,-0.5564041,0.6326549,0.9853348,-0.025411362,0.16494659,0.035526183,-0.7748093,0.5665744,-0.06706283,0.0,1.0,0.0,0.0,0.0,0.0,0.0,-0.18112409,0.18795928,-0.11600691,3.7278414,-19.23015,-3.1113386,-9.238327,-11.208015,-3.9616272,2.0044355
23.01015,-33.342937,-6.003592,-14.001842,-1.4821082,-1.3387069,0.6119864,-0.7163079,-0.19299622,-0.7131333,0.35895494,-0.44635093,-0.5198453,0.48293734,0.5904458,-1.3886476,-1.8356646,-0.27019015,1.5367699,1.6252029,-0.84139603,0.6492773,-1.3700536,-1.7785248,-0.29881674,1.5754216,1.6758943,-0.8870185,-1.2737805,-0.13031876,-1.4124662,0.70425093,-0.6108638,-0.13939235,0.2712034,-0.47607422,-0.5802536,0.6647913,-0.7195291,0.77007383,-0.14661027,-0.4881897,-0.5512848,0.6306431,0.9847743,-0.01618074,0.1710495,0.026454782,-0.783949,0.49664453,-0.245045,0.0,1.0,0.0,0.0,0.0,0.0,0.0,-0.17392576,0.1802536,-0.114791274,2.4591208,-23.918667,1.9004583,-9.047758,-4.98935,-3.9968565,1.6329765
12.7247925,-36.157986,-5.685667,-10.367661,-0.82943773,-1.2978566,0.5482669,-0.7284934,-0.3090809,-0.6997899,0.3079042,-0.44361585,-0.5526766,0.49993652,0.576428,-1.4009618,-1.8485037,-0.26802632,1.53106,1.6206266,-0.83702487,0.63656294,-1.373216,-1.79221,-0.2924667,1.5691273,1.6741834,-0.88418704,-1.2701279,-0.37775517,-1.356817,0.6132267,-0.63267744,-0.18133202,0.28717893,-0.48326492,-0.5725632,0.6625742,-0.7188097,0.7693039,-0.2467429,-0.4962654,-0.5467453,0.62684107,0.9842299,-0.006052018,0.17586325,0.018078923,-0.81410235,0.4445976,-0.42505878,0.0,1.0,0.0,0.0,0.0,0.0,0.0,-0.16673505,0.17256317,-0.11257416,0.5476475,-24.614,4.666662,-8.714115,-1.315105,-4.0893974,1.6229749
3.1324835,-37.25855,-5.4347444,-6.432808,-0.35435277,-1.2323722,0.41585743,-0.7253997,-0.44257158,-0.6823763,0.3092963,-0.46226472,-0.5457007,0.4764579,0.56402296,-1.4174732,-1.8604476,-0.26153708,1.5229008,1.6196133,-0.83654124,0.6238314,-1.378877,-1.8052944,-0.28676945,1.562711,1.6720948,-0.8812297,-1.2734476,-0.6287863,-1.2952521,0.5568304,-0.64185774,-0.21835333,0.29887074,-0.490448,-0.56487274,0.6593564,-0.7180911,0.7685348,-0.34677538,-0.5047569,-0.5425949,0.6212406,0.9837346,0.004837948,0.17927067,0.010237259,-0.85977423,0.40940893,-0.6055719,0.0,1.0,0.0,0.0,0.0,0.0,0.0,-0.15955198,0.16487274,-0.1093564,-0.12266636,-25.014269,5.335927,-5.1564217,-0.14381409,-3.7789881,1.2566626
-8.459539,-24.307562,-3.7452931,-0.9561015,0.25287196,-1.0166618,0.29841897,-0.7522087,-0.5314229,-0.6852561,0.27993664,-0.41873717,-0.5555593,0.47245726,0.5486105,-1.4320194,-1.8738201,-0.25877577,1.5208373,1.6165389,-0.83398396,0.61091864,-1.386825,-1.8178924,-0.2815333,1.5563843,1.6696649,-0.8781751,-1.296647,-0.8498558,-1.2496836,0.514163,-0.62804466,-0.25228503,0.30811512,-0.49762344,-0.5571976,0.6551391,-0.71737313,0.7677664,-0.44670787,-0.5137558,-0.5386429,0.61398274,0.9832857,0.016372588,0.1813104,0.0027565856,-0.9126713,0.39768136,-0.7666751,0.0,1.0,0.0,0.0,0.0,0.0,0.0,-0.15237653,0.15719756,-0.10513908,-2.1262884,-22.067356,4.026389,-3.7929177,1.8458724,-3.6526055,1.0370791
-9.851723,7.221402,0.11945331,2.301762,0.86451995,-0.6289638,0.24667248,-0.75973684,-0.5608117,-0.66805625,0.2395831,-0.3324181,-0.56451935,0.47216874,0.53494495,-1.4429061,-1.884698,-0.25757498,1.5231425,1.613213,-0.8309582,0.5977379,-1.3964666,-1.8300861,-0.27675158,1.5504544,1.6669202,-0.8750432,-1.3249032,-1.0022589,-1.2093924,0.46712497,-0.58140635,-0.28291672,0.3150404,-0.50479126,-0.5495224,0.6499232,-0.7166559,0.76699877,-0.5465405,-0.5231972,-0.5346527,0.6054807,0.9828588,0.028290916,0.18212211,-0.0044317944,-0.9518987,0.40611646,-0.87941146,1.0,0.0,0.0,0.0,0.0,0.0,0.0,-0.14520872,0.1495224,-0.09992319,-2.7275562,-15.242767,3.9993763,-4.4307413,4.6189666,-3.4365773,0.75641274
-3.5740554,29.251049,3.2963858,1.7723813,1.5659374,-0.3031566,0.29308856,-0.76007605,-0.61335266,-0.62592655,0.17013822,-0.044836905,-0.5493183,0.4833011,0.5217303,-1.4578018,-1.8926787,-0.25973776,1.5459707,1.6119883,-0.8267131,0.58431685,-1.4072775,-1.8417934,-0.27265316,1.5458214,1.6639142,-0.87184554,-1.3478242,-1.1075479,-1.1570514,0.3910991,-0.4249967,-0.30771852,0.32148835,-0.51195145,-0.5418625,0.6437098,-0.7159394,0.76623195,-0.64627326,-0.53294754,-0.53047943,0.5961347,0.98249865,0.04007992,0.18155995,-0.0112246545,-0.9800818,0.42903322,-0.954794,1.0,0.0,0.0,0.0,0.0,0.0,0.0,-0.13804853,0.14186248,-0.09370977,-2.2737741,-10.540557,5.4792643,-7.50283,15.3238,-2.9041946,0.6890893
-0.0740757,50.86421,6.0859966,3.0264728,2.0632231,-0.00013202429,0.2312454,-0.7561248,-0.6395111,-0.57833314,0.1644462,0.05350562,-0.52543443,0.47493902,0.50870436,-1.4712286,-1.8996267,-0.25620854,1.551172,1.6113708,-0.82435167,0.5707518,-1.4188207,-1.8528503,-0.26922995,1.5429547,1.6607118,-0.8686002,-1.3595732,-1.1699915,-1.0871018,0.3258868,-0.24211287,-0.32562247,0.3256051,-0.519104,-0.5342026,0.63649976,-0.7152236,0.76546586,-0.74590623,-0.5428963,-0.52599335,0.58630735,0.9822397,0.051328436,0.17961104,-0.017617032,-0.9965625,0.46272126,-0.99385476,1.0,0.0,0.0,0.0,0.0,0.0,0.0,-0.13089597,0.13420257,-0.08649975,-1.224637,-6.2647343,7.442498,-6.576413,17.801582,-2.2066236,0.41831136
23.275303,66.60587,7.5236244,-5.6182556,1.2784823,0.263679,0.54666543,-0.7452433,-0.6358941,-0.55344075,-0.018717533,0.1285688,-0.5318171,0.4704611,0.49622744,-1.4824102,-1.9081944,-0.2711017,1.5558115,1.6075301,-0.82155406,0.5571791,-1.4306616,-1.8632206,-0.26714808,1.5418732,1.6573625,-0.86532813,-1.3568486,-1.1887614,-1.019035,0.168117,-0.06495205,-0.33890024,0.32745254,-0.52625275,-0.5265579,0.6282941,-0.71450853,0.7647006,-0.8454397,-0.55268097,-0.52137756,0.57624507,0.98209107,0.061862987,0.1764336,-0.023263514,-0.9687361,0.47109264,-1.0123104,1.0,0.0,0.0,0.0,0.0,0.0,0.0,-0.12374723,0.12655792,-0.0782941,0.14858246,-1.8484354,7.2137117,-16.03328,17.292376,-1.5849233,0.10417104
38.17152,74.4228,8.052244,-11.409539,0.6581735,0.39603436,0.7737736,-0.7446267,-0.6341619,-0.536594,-0.16608721,0.23354019,-0.55378854,0.4781552,0.4827164,-1.4940778,-1.91688,-0.2837568,1.5652273,1.6019835,-0.81751263,0.5436741,-1.4424871,-1.8730205,-0.26716143,1.5425255,1.6538911,-0.86203986,-1.3488653,-1.1802799,-0.96654916,-0.058954116,0.108235106,-0.35015377,0.3288706,-0.53339386,-0.51891327,0.6190939,-0.7137942,0.76393604,-0.9448736,-0.56199265,-0.5168152,0.5660639,0.9820619,0.071655914,0.17218207,-0.02780232,-0.9133119,0.45835668,-1.0221031,1.0,0.0,0.0,0.0,0.0,0.0,0.0,-0.11660612,0.11891326,-0.06909388,0.65727234,0.9301424,5.321479,-23.048418,17.251564,-1.2358427,0.01488924
32.601093,82.694756,8.97912,-7.5033135,0.9905219,0.4610417,0.62866044,-0.7441672,-0.6248888,-0.5069693,-0.18119393,0.3197529,-0.5583514,0.48838428,0.46925738,-1.504976,-1.9237175,-0.28528082,1.5745008,1.598056,-0.8132014,0.530254,-1.4541067,-1.8823532,-0.26916367,1.5448124,1.6503224,-0.8587335,-1.3401408,-1.1553675,-0.9233288,-0.2484592,0.2700521,-0.35928327,0.33074456,-0.54052734,-0.5112839,0.60890007,-0.7130805,0.76317227,-1.0442082,-0.5707741,-0.51233673,0.55589116,0.9821482,0.080694064,0.16701175,-0.031310417,-0.863195,0.4521949,-1.0177784,1.0,0.0,0.0,0.0,0.0,0.0,0.0,-0.10947263,0.11128387,-0.05890006,0.7494688,2.59552,4.0196776,-19.288519,16.536007,-0.9708822,0.05081892
34.538864,83.156425,8.945034,-7.874207,0.82866263,0.4671949,0.6305838,-0.7319147,-0.6189018,-0.4935624,-0.2891558,0.4057855,-0.5600173,0.5152379,0.45706254,-1.5159968,-1.9317094,-0.29807925,1.585391,1.5943207,-0.8072097,0.51696265,-1.4654497,-1.8913616,-0.27301604,1.5486329,1.6466775,-0.85539085,-1.3258793,-1.1269163,-0.89564884,-0.4318989,0.42195037,-0.36617282,0.33496416,-0.5476532,-0.5036545,0.59771365,-0.7123676,0.76240927,-1.1434433,-0.5790405,-0.50795746,0.5457636,0.9823421,0.089020886,0.16103885,-0.0338484,-0.80994064,0.43995586,-1.0134435,1.0,0.0,0.0,0.0,0.0,0.0,0.0,-0.10234678,0.103654474,-0.047713637,1.3275862,2.982664,2.0693302,-18.663443,15.972799,-0.67667365,0.28187633
28.627348,86.67254,9.613061,-4.292604,1.1872075,0.50078225,0.48808825,-0.7250886,-0.6034709,-0.4414617,-0.33479646,0.47375804,-0.5651418,0.5292768,0.44445378,-1.5257968,-1.9355078,-0.30649567,1.5960087,1.5901634,-0.8024632,0.5038239,-1.4764894,-1.8999866,-0.27839333,1.5538514,1.6429715,-0.8519977,-1.3101044,-1.0958549,-0.8549737,-0.574011,0.55882484,-0.3718745,0.34029034,-0.5547714,-0.49604034,0.58553565,-0.7116554,0.761647,-1.2425792,-0.5868416,-0.5036392,0.5357396,0.9826398,0.09661733,0.15433212,-0.035575353,-0.7658164,0.43576494,-1.0011804,1.0,0.0,0.0,0.0,0.0,0.0,0.0,-0.09522855,0.09604034,-0.035535634,1.5002966,3.2615185,3.047061,-14.50876,14.832914,-0.5235076,0.3959775
19.4658,95.98356,10.906558,1.2807715,1.6788063,0.5982907,0.3020616,-0.7231298,-0.56618553,-0.3998555,-0.3596148,0.50002813,-0.56144327,0.56665516,0.4315109,-1.533108,-1.9399722,-0.3143548,1.6038542,1.5868272,-0.79533213,0.4908191,-1.4871153,-1.9081081,-0.28482252,1.5602105,1.6392217,-0.8485282,-1.2974992,-1.0510035,-0.8023701,-0.6669175,0.66638833,-0.37573394,0.34863436,-0.561882,-0.4884262,0.572367,-0.7109439,0.76088554,-1.3416162,-0.5942726,-0.49926758,0.5259663,0.98301923,0.10345921,0.14703578,-0.036738038,-0.7313649,0.4439621,-0.9719304,1.0,0.0,0.0,0.0,0.0,0.0,0.0,-0.08811796,0.0884262,-0.022367,1.1941433,4.65734,3.967321,-9.593773,12.219572,-0.2982378,0.6824672
14.847766,99.0576,11.53289,4.023763,1.8819271,0.6574078,0.19637275,-0.71761453,-0.5467072,-0.3420777,-0.40248388,0.5116003,-0.5578158,0.5599041,0.41905764,-1.541786,-1.9423159,-0.32507092,1.6113704,1.5834401,-0.7925378,0.47792685,-1.4972814,-1.9155449,-0.29198033,1.5673954,1.6354432,-0.84498626,-1.2866135,-1.0044999,-0.728953,-0.7329863,0.7415078,-0.37807682,0.35559723,-0.568985,-0.48082733,0.55820876,-0.7102331,0.7601248,-1.440554,-0.60139084,-0.4947815,0.5165341,0.9834617,0.109541476,0.13927089,-0.037515745,-0.7022871,0.45730862,-0.9360304,0.0,1.0,0.0,0.0,0.0,0.0,0.0,-0.08101499,0.080827326,-0.008208752,1.039362,4.8318624,5.861616,-6.885457,9.186721,-0.11584759,0.54813623
10.22873,103.35263,11.862594,6.5851164,1.8557405,0.6854546,0.1206374,-0.7187339,-0.504845,-0.36693254,-0.4378554,0.5472958,-0.5717545,0.5610446,0.40605345,-1.547766,-1.9522381,-0.33576587,1.622125,1.5782678,-0.7888818,0.46510375,-1.5068926,-1.922501,-0.29968792,1.5752041,1.631638,-0.8413814,-1.280949,-0.94617045,-0.689656,-0.784209,0.80003357,-0.3808817,0.3615435,-0.5760803,-0.47322845,0.54306185,-0.709523,0.75936484,-1.539393,-0.60824203,-0.49014282,0.5074989,0.9839269,0.11498921,0.13121992,-0.03803403,-0.6751782,0.47110996,-0.89510995,0.0,1.0,0.0,0.0,0.0,0.0,0.0,-0.073919654,0.07322845,0.0069381595,0.53384304,6.029272,2.3551583,-5.3881764,7.6364517,-0.12944937,0.4425168
7.370761,100.32935,11.356251,7.4119453,1.6674248,0.64530265,0.0940788,-0.7190412,-0.48408404,-0.3773172,-0.46838546,0.5744542,-0.5803105,0.56443965,0.39319962,-1.555301,-1.9602327,-0.34652647,1.6326495,1.573607,-0.7849374,0.4523067,-1.5159595,-1.9294134,-0.30785188,1.5836686,1.6279464,-0.8377166,-1.2795174,-0.8959688,-0.7277124,-0.82685584,0.9052898,-0.32772413,0.36757758,-0.58215714,-0.46666718,0.53028023,-0.34113446,0.39091483,-0.3275703,-0.61483383,-0.48535156,0.49879807,0.9843822,0.11993298,0.1230302,-0.03835555,-0.6493455,0.49101377,-0.8692159,0.0,1.0,0.0,0.0,0.0,0.0,0.0,-0.06784284,0.06666717,0.01971978,0.10020733,4.7149777,-10.068857,-4.3156385,18.210709,11.109507,0.52895546
-3.0813584,175.56076,26.268805,26.079609,6.425762,1.8905387,-0.6044758,-0.65480125,-0.33882853,0.48231983,-0.20154725,0.5634813,-0.35461068,0.5571565,0.38682657,-1.5498424,-1.8811815,-0.3280066,1.6400167,1.5924853,-0.7820009,0.43980497,-1.5239704,-1.9327532,-0.31506547,1.5929497,1.6248279,-0.8340163,-1.2406343,-0.7685158,-0.21280304,-0.6877563,0.94762903,-0.30532253,0.36986163,-0.5855675,-0.46276093,0.52625483,-0.34079337,0.390524,-0.42752197,-0.6214371,-0.47974396,0.49162862,0.98509157,0.122409515,0.11438467,-0.0390706,-0.6610218,0.5887541,-0.66828704,0.0,1.0,0.0,0.0,0.0,0.0,0.0,-0.0644325,0.06276092,0.02374518,3.817463,13.029612,48.47872,13.43143,7.815361,2.665627,-0.059127808
74.409485,104.4245,19.399357,-12.732623,3.0732017,1.2398064,0.33623224,-0.45909107,-0.5583326,0.6621639,-0.40754464,0.69662017,-0.19361049,0.5510058,0.39389586,-1.5798036,-1.8665369,-0.35581994,1.6626117,1.6054668,-0.77891576,0.42860883,-1.531884,-1.9300715,-0.321714,1.602868,1.6220412,-0.8302932,-1.0790824,-0.7985912,0.4211534,-0.6574929,1.0153472,-0.26800913,0.37297538,-0.5889702,-0.45885468,0.5212307,-0.34045264,0.39013356,-0.5273738,-0.6277275,-0.47390747,0.48563346,0.986278,0.121650256,0.1044035,-0.039454285,-0.6153952,0.584518,-0.5782316,0.0,1.0,0.0,0.0,0.0,0.0,0.0,-0.06102979,0.05885467,0.028769314,16.210438,-2.8538823,61.213852,2.941966,9.400904,4.200572,0.2438128
80.9175,132.95547,21.453484,-13.531424,1.9359249,1.6509583,0.5125343,-0.46967965,-0.35275468,0.5841618,-0.4929522,0.70051193,0.26725712,0.5515942,0.38164088,-1.5671594,-1.8716553,-0.37100923,1.6729192,1.648767,-0.7751337,0.41890997,-1.5394123,-1.9223658,-0.32869062,1.6133145,1.6199298,-0.8265338,-0.9326669,-0.73716617,0.8788797,-0.710118,1.0640804,-0.18962081,0.37720802,-0.5923729,-0.45495605,0.5152088,-0.34011227,0.3897435,-0.6271257,-0.6332855,-0.46832275,0.48075056,0.9878293,0.117959246,0.093597084,-0.038965244,-0.5326137,0.55368465,-0.4594777,0.0,1.0,0.0,0.0,0.0,0.0,0.0,-0.057627082,0.05495605,0.03479123,14.8782015,6.2922597,43.361164,-4.9731255,7.739353,8.612072,0.51505566
91.64849,127.8557,19.124668,-19.4145,0.16969514,1.395061,0.67677605,-0.37442127,-0.32238227,0.6116888,-0.50978917,0.7141588,0.38462666,0.53791875,0.38146785,-1.5716505,-1.8611969,-0.37966955,1.6847304,1.6583924,-0.7727419,0.41078418,-1.54621,-1.9115301,-0.3364068,1.6241463,1.6186614,-0.8227372,-0.7713892,-0.6604436,1.1440723,-0.79017353,1.098749,-0.10285227,0.38121045,-0.5957718,-0.45106506,0.50819004,-0.33977222,0.38935384,-0.72677785,-0.6378403,-0.46334076,0.476871,0.9895475,0.112103574,0.0826551,-0.037371174,-0.4272886,0.48248574,-0.36507767,0.0,1.0,0.0,0.0,0.0,0.0,0.0,-0.054228187,0.051065058,0.041809976,16.466225,7.7929854,24.21801,-7.430792,6.168556,9.58387,0.6439686
78.93227,153.12852,20.233953,-12.711098,-0.50372624,1.39503,0.55334145,-0.32851174,-0.16675465,0.51369184,-0.52542895,0.72292715,0.44499564,0.5513723,0.37793303,-1.5628855,-1.860161,-0.3889497,1.696439,1.6631609,-0.7676,0.40410084,-1.5516194,-1.899948,-0.34489346,1.6353035,1.6182868,-0.8189234,-0.63240874,-0.50096446,1.1472949,-0.86514527,1.1344608,-0.009169403,0.3806478,-0.5984421,-0.44708252,0.50328094,-0.19886641,0.405973,-0.22211668,-0.6412735,-0.4591446,0.47410014,0.991218,0.10503291,0.07243455,-0.034760665,-0.3143916,0.400844,-0.24964693,0.0,1.0,0.0,0.0,0.0,0.0,0.0,-0.0515579,0.047082514,0.046719074,14.318121,16.259909,-1.2866974,-6.6319823,7.33912,11.922337,1.4713943
43.509487,176.0,24.008347,4.0596046,0.19718292,1.6081636,0.21430057,-0.3505219,0.04597034,0.4235543,-0.5470073,0.721751,0.36003506,0.52991116,0.36904866,-1.5470223,-1.8575926,-0.3995942,1.7074786,1.6542903,-0.7659323,0.39843458,-1.5554398,-1.88599,-0.35318276,1.6431807,1.6184833,-0.81464446,-0.54286724,-0.3415207,1.4667864,-0.81358564,0.68511605,0.031963,0.44478175,-0.60027695,-0.44426727,0.5021095,-0.1757696,0.24506602,-0.08225907,-0.6437454,-0.45548248,0.47285303,0.99269617,0.097373985,0.06388505,-0.031485055,-0.22394048,0.35566685,-0.08317221,0.0,1.0,0.0,0.0,0.0,0.0,0.0,-0.04972303,0.044267267,0.047890484,9.509886,16.1955,28.375935,6.1380744,-41.067005,4.9288554,6.756568
