Afshin1997/kuka_rl_ros2/src/catch_and_throw/input_files/idealpd/recorded_trajectories/env_420_data.csv
torque0,torque1,torque2,torque3,torque4,torque5,torque6,action0,action1,action2,action3,action4,action5,action6,set_target_0,set_target_1,set_target_2,set_target_3,set_target_4,set_target_5,set_target_6,joint_pos_0,joint_pos_1,joint_pos_2,joint_pos_3,joint_pos_4,joint_pos_5,joint_pos_6,joint_vel_0,joint_vel_1,joint_vel_2,joint_vel_3,joint_vel_4,joint_vel_5,joint_vel_6,tennisball_pos_0,tennisball_pos_1,tennisball_pos_2,tennisball_lin_vel_0,tennisball_lin_vel_1,tennisball_lin_vel_2,end_effector_pos_0,end_effector_pos_1,end_effector_pos_2,end_effector_rot_0,end_effector_rot_1,end_effector_rot_2,end_effector_rot_3,end_effector_lin_vel_0,end_effector_lin_vel_1,end_effector_lin_vel_2,obs_task_0,obs_task_1,obs_task_2,obs_task_3,obs_task_4,obs_task_5,obs_task_6,to_final_target_0,to_final_target_1,to_final_target_2,joint_acc_0,joint_acc_1,joint_acc_2,joint_acc_3,joint_acc_4,joint_acc_5,joint_acc_6
0.0,0.0,0.0,0.0,0.0,0.0,0.0,0.0,0.0,0.0,0.0,0.0,0.0,0.0,1.7802359,-1.0646509,-1.8151424,-1.1170107,1.9373155,1.1170107,-0.91629785,1.7802359,-1.0646509,-1.8151424,-1.1170107,1.9373155,1.1170107,-0.91629785,0.0,0.0,0.0,0.0,0.0,0.0,0.0,2.8542938,-0.67126083,0.15008184,-3.6312335,0.23629981,4.8791666,0.5304184,-0.45449448,0.693097,0.5745483,0.17512383,0.15255436,0.7848268,0.0,0.0,0.0,1.0,0.0,0.0,0.0,0.0,0.0,0.0,-3.504294,0.27126083,0.39991817,0.0,0.0,0.0,0.0,0.0,0.0,0.0
0.0,0.0,0.0,0.0,0.0,0.0,0.0,0.0,0.0,0.0,0.0,0.0,0.0,0.0,1.7802359,-1.0646509,-1.8151424,-1.1170107,1.9373155,1.1170107,-0.91629785,1.7802359,-1.0646509,-1.8151424,-1.1170107,1.9373155,1.1170107,-0.91629785,0.0,0.0,0.0,0.0,0.0,0.0,0.0,2.8542938,-0.67126083,0.15008184,-3.6312335,0.23629981,4.8791666,0.5304184,-0.45449448,0.693097,0.5745483,0.17512383,0.15255436,0.7848268,0.0,0.0,0.0,1.0,0.0,0.0,0.0,0.0,0.0,0.0,-3.504294,0.27126083,0.39991817,0.0,0.0,0.0,0.0,0.0,0.0,0.0
0.0,0.0,0.0,0.0,0.0,0.0,0.0,0.0,0.0,0.0,0.0,0.0,0.0,0.0,1.7802359,-1.0646509,-1.8151424,-1.1170107,1.9373155,1.1170107,-0.91629785,1.7802359,-1.0646509,-1.8151424,-1.1170107,1.9373155,1.1170107,-0.91629785,0.0,0.0,0.0,0.0,0.0,0.0,0.0,2.8542938,-0.67126083,0.15008184,-3.6312335,0.23629981,4.8791666,0.5304184,-0.45449448,0.693097,0.5745483,0.17512383,0.15255436,0.7848268,0.0,0.0,0.0,1.0,0.0,0.0,0.0,0.0,0.0,0.0,-3.504294,0.27126083,0.39991817,0.0,0.0,0.0,0.0,0.0,0.0,0.0
-176.0,53.99621,-12.850632,110.0,11.27317,4.2184777,-3.7928927,-0.82211393,0.29362044,-0.58910066,0.73853266,0.32454708,0.65091556,-0.5743104,1.6980245,-1.0352888,-1.8740524,-1.0431575,1.9697702,1.1821023,-0.9737289,1.7791353,-1.0626692,-1.821368,-1.1119524,1.9439054,1.1229082,-0.91840833,-0.14645596,0.26365474,-0.82977587,0.67500174,0.87764895,0.7843421,-0.2805633,2.8180084,-0.66889954,0.19810046,-3.6276028,0.23606357,4.776102,0.5282364,-0.45801926,0.6937531,0.5785082,0.17368984,0.15033625,0.78266144,-0.29062125,-0.47058347,0.087250516,1.0,0.0,0.0,0.0,0.0,0.0,0.0,-3.4680085,0.26889953,0.35189956,-14.552585,26.166052,-82.83471,67.62165,87.47786,77.809814,-27.794811
-176.0,-40.617035,-50.17754,110.0,11.7196865,1.0443307,-3.1390157,-0.80883574,-0.22118454,-0.54183877,0.7034499,0.4021269,0.6321314,-0.563272,1.6982517,-1.0847876,-1.8755518,-1.0416074,1.984118,1.1861213,-0.97473556,1.778031,-1.0606188,-1.8365963,-1.0971609,1.9556241,1.13683,-0.91973585,-0.10389217,0.16880798,-1.7104229,1.7464988,1.2470785,1.5477479,-0.094554074,2.7817612,-0.66654205,0.24508922,-3.623976,0.23582757,4.6731405,0.52349854,-0.46694946,0.69432306,0.5870107,0.17031512,0.14557874,0.7779576,-0.53498554,-1.0300404,0.051544305,1.0,0.0,0.0,0.0,0.0,0.0,0.0,-3.4317613,0.26654205,0.30491078,2.616711,-14.475894,-75.073006,106.94811,30.062199,62.176727,15.262397
-155.41519,117.47683,31.193798,91.297104,7.2167025,7.425766,-1.9501965,-0.7617429,0.29653805,0.046262275,0.62944657,0.3787347,0.68695253,-0.5030732,1.7018567,-1.030965,-1.83197,-1.0342163,1.9934976,1.2055253,-0.9700432,1.7737089,-1.0581106,-1.8517501,-1.0780569,1.9677739,1.1521021,-0.92086023,-0.5415949,0.2748789,-1.4438789,1.9662504,1.1992817,1.513697,-0.12026021,2.7455482,-0.6641846,0.29104912,-3.6203527,0.2355918,4.570282,0.5159111,-0.47864532,0.6964866,0.5983301,0.16532975,0.13974807,0.7714516,-0.84256285,-1.2091483,0.27513513,1.0,0.0,0.0,0.0,0.0,0.0,0.0,-3.3955483,0.26418456,0.2589509,-43.779922,9.62081,28.611683,22.320007,-6.2370777,-5.3932667,-3.164567
-101.52292,115.43431,41.53986,56.451416,4.357875,7.409583,-0.39630085,-0.77422804,0.10594726,0.14817856,0.6347972,0.4187056,0.6488894,-0.5460433,1.6962861,-1.0475159,-1.8369323,-1.0145772,2.0096445,1.2169911,-0.9754646,1.764939,-1.0554384,-1.8613803,-1.0592963,1.978476,1.166207,-0.92235845,-0.9900338,0.26234195,-0.7949931,1.8463473,1.021758,1.3725551,-0.16200812,2.7093697,-0.6618309,0.33598122,-3.616733,0.23535624,4.4675264,0.5057106,-0.49093628,0.700601,0.6105713,0.15893956,0.13313097,0.76434094,-1.0901175,-1.224476,0.46112996,1.0,0.0,0.0,0.0,0.0,0.0,0.0,-3.3593698,0.2618309,0.21401879,-45.160378,-1.9492269,67.20234,-11.877799,-19.42165,-15.193987,-4.874322
-46.167084,129.37216,49.778435,30.726892,1.6177375,6.5355725,0.30041248,-0.7832681,0.21712457,0.12018574,0.6414213,0.48438662,0.66943413,-0.53426594,1.6866121,-1.033726,-1.8493618,-0.99515414,2.0269146,1.2331504,-0.975785,1.752482,-1.052482,-1.8646934,-1.0428492,1.9875321,1.1788069,-0.9242868,-1.3322142,0.30519566,-0.17066053,1.577055,0.86292267,1.2209934,-0.20542265,2.6732292,-0.65948105,0.3798865,-3.6131172,0.23512092,4.364874,0.4936943,-0.5025215,0.70637774,0.6225696,0.15140592,0.12600312,0.7573681,-1.2525753,-1.1228712,0.6184138,1.0,0.0,0.0,0.0,0.0,0.0,0.0,-3.3232293,0.25948104,0.1701135,-34.606598,3.7806332,64.30695,-27.075935,-17.10384,-15.592098,-5.049196
-11.501921,114.10325,40.867596,14.001264,-0.24543643,4.1534324,0.2765115,-0.79593325,0.2867685,-0.022437956,0.6435297,0.48717767,0.6613251,-0.5578106,1.6728888,-1.0238051,-1.8669372,-0.9784962,2.0362499,1.2449394,-0.98006785,1.7377154,-1.0488027,-1.8639247,-1.0289961,1.9953465,1.1900297,-0.9266185,-1.5257742,0.38778332,0.16299784,1.3206464,0.7521684,1.0892878,-0.24409859,2.637127,-0.6571312,0.42276606,-3.6095047,0.23488584,4.2623234,0.48070145,-0.51291275,0.71316427,0.6340059,0.14330024,0.11904837,0.7505524,-1.3263296,-0.997479,0.6982424,1.0,0.0,0.0,0.0,0.0,0.0,0.0,-3.287127,0.2571312,0.12723395,-19.659782,7.947123,34.424267,-25.833393,-11.653387,-13.173938,-4.3873997
7.268162,120.32391,38.08854,9.549469,-1.4353664,2.7834487,-0.13775316,-0.8165181,0.46705216,-0.15846045,0.6385512,0.49186924,0.649592,-0.54734415,1.6560636,-1.0020975,-1.8797708,-0.965141,2.0445335,1.2549889,-0.9813529,1.7218863,-1.0435232,-1.8621376,-1.0171229,2.002429,1.200091,-0.9292812,-1.6029242,0.5737676,0.18604259,1.1421582,0.69312733,0.9787295,-0.27514997,2.601059,-0.65478134,0.46462086,-3.605896,0.234651,4.159876,0.46738052,-0.52199936,0.7205932,0.64508814,0.13504715,0.11314088,0.7435204,-1.3439645,-0.8650998,0.7561391,1.0,0.0,0.0,0.0,0.0,0.0,0.0,-3.251059,0.25478134,0.08537915,-7.996011,18.352777,2.9155107,-18.036413,-6.1097383,-10.935068,-3.5654843
16.641289,114.00378,33.268764,7.333336,-1.7559402,1.7192199,-0.3385696,-0.82451814,0.54375297,-0.21476482,0.612557,0.53220314,0.63624525,-0.54128623,1.6394345,-0.9891479,-1.8836141,-0.9558672,2.0556493,1.2637155,-0.9834098,1.705855,-1.0362104,-1.8614643,-1.006478,2.0093145,1.2091814,-0.9322042,-1.6039649,0.78301877,0.028952008,1.0379269,0.6864908,0.8859912,-0.299289,2.5650253,-0.6524391,0.505452,-3.6022909,0.2344164,4.0575304,0.45411682,-0.5298729,0.7284363,0.6560434,0.12693681,0.10870116,0.7359879,-1.3284031,-0.74811727,0.79200566,1.0,0.0,0.0,0.0,0.0,0.0,0.0,-3.2150254,0.2524391,0.044548035,-0.35860538,20.742952,-15.307157,-10.639405,-0.7241368,-9.166824,-2.8074741
20.774162,110.27114,31.975647,7.714869,-1.5723795,1.4160316,-0.3627036,-0.82579154,0.61072814,-0.21224375,0.5946984,0.5486992,0.6369641,-0.5486342,1.6232759,-0.9751376,-1.8826886,-0.94700813,2.0641844,1.2728778,-0.9870676,1.6900889,-1.0269102,-1.8626201,-0.9964415,2.0163374,1.2174612,-0.93533796,-1.5683756,0.97836137,-0.16250218,0.9914355,0.70722485,0.80859596,-0.31929958,2.5290298,-0.6500969,0.5452604,-3.5986893,0.23418203,3.955288,0.44106674,-0.5366821,0.7366345,0.6669714,0.1190278,0.10567483,0.72788346,-1.3035306,-0.6443543,0.8280014,1.0,0.0,0.0,0.0,0.0,0.0,0.0,-3.17903,0.2500969,0.0047395825,3.3287764,19.377232,-18.775105,-4.9043417,2.034998,-7.733023,-2.372557
22.354347,102.93245,30.986341,7.690201,-1.181335,1.3929849,-0.21747158,-0.82307905,0.6469774,-0.1835006,0.5671451,0.5552669,0.6443419,-0.5565839,1.6077809,-0.96221244,-1.8809701,-0.93972695,2.0718641,1.2818954,-0.99099636,1.6747442,-1.0160211,-1.8652599,-0.98667777,2.0236273,1.2250696,-0.9386501,-1.5238801,1.1253808,-0.29656273,0.9703936,0.73599017,0.7447711,-0.3364009,2.4930687,-0.64775467,0.58404714,-3.5950913,0.2339479,3.8531477,0.42824936,-0.5425339,0.7451869,0.67782485,0.11123902,0.10370585,0.71932214,-1.2801923,-0.5511011,0.8639569,1.0,0.0,0.0,0.0,0.0,0.0,0.0,-3.1430688,0.24775466,-0.034047127,4.2331457,14.564371,-12.994218,-2.3911357,2.8221846,-6.4528227,-2.0772874
21.868763,95.26398,29.90858,7.8536367,-0.747872,1.4545219,-0.049894232,-0.815438,0.6776139,-0.16614445,0.5484884,0.57216656,0.65247995,-0.56110644,1.5932004,-0.9482597,-1.8818743,-0.9318289,2.080844,1.2903177,-0.9947607,1.6598097,-1.0040373,-1.868676,-0.97705233,2.0312262,1.2321306,-0.9421138,-1.4838307,1.2221421,-0.3552072,0.95893157,0.76748836,0.692699,-0.3509723,2.4571457,-0.6454201,0.6218133,-3.591497,0.23371401,3.7511096,0.41560364,-0.5475311,0.75408685,0.6884989,0.103459656,0.10236315,0.7104836,-1.2628729,-0.46709374,0.89843243,1.0,0.0,0.0,0.0,0.0,0.0,0.0,-3.1071458,0.24542007,-0.071813285,3.794551,9.554791,-5.3997574,-1.4382958,3.07405,-5.3189874,-1.821804
20.663816,86.325035,27.976152,7.325602,-0.40967274,1.4323158,0.111844204,-0.80908257,0.6928298,-0.14573908,0.5227416,0.59309745,0.65491205,-0.5676682,1.5789014,-0.93475425,-1.8832499,-0.92477816,2.0905359,1.2976218,-0.9988806,1.6451956,-0.9914316,-1.8721912,-0.9675909,2.0391455,1.2387434,-0.9457101,-1.4545195,1.2730145,-0.34879142,0.94097006,0.7998069,0.65037304,-0.3636618,2.421257,-0.6430855,0.6585598,-3.5879061,0.23348033,3.6491735,0.40309906,-0.55174637,0.76326853,0.6988761,0.09562934,0.10127009,0.7015494,-1.2502487,-0.39126888,0.92479265,1.0,0.0,0.0,0.0,0.0,0.0,0.0,-3.071257,0.24308547,-0.10855979,2.7252197,4.98724,1.1422157,-2.0834684,3.1469464,-4.334092,-1.6289651
18.162113,79.93523,26.331661,7.567524,-0.13454697,1.4408506,0.21132314,-0.8088159,0.70426905,-0.11197836,0.50448626,0.60345995,0.6612498,-0.56480354,1.564314,-0.9210047,-1.883389,-0.9171423,2.0994914,1.3048685,-1.0021905,1.6307703,-0.9785503,-1.8752792,-0.9583565,2.0473547,1.2449957,-0.9494142,-1.4393482,1.2928575,-0.2938713,0.9166174,0.82757276,0.6165131,-0.3738708,2.3854065,-0.6407509,0.6942877,-3.5843189,0.2332469,3.5473394,0.39066696,-0.5552559,0.77267027,0.7088766,0.08770072,0.10016316,0.69265425,-1.243353,-0.32214502,0.94517326,1.0,0.0,0.0,0.0,0.0,0.0,0.0,-3.0354066,0.24075088,-0.1442877,1.3159275,1.8983841,6.0157356,-2.7047753,2.6869059,-3.4705877,-1.3719797
14.333115,75.2414,24.376144,8.653993,0.048508227,1.3948328,0.20775704,-0.81039834,0.7153313,-0.09624814,0.49809867,0.5993929,0.66467357,-0.5551867,1.5497305,-0.9070172,-1.884904,-0.9085466,2.107294,1.3114631,-1.0049329,1.6164042,-0.9655813,-1.8777206,-0.9493519,2.0557623,1.25096,-0.9531984,-1.4362645,1.2979529,-0.22583668,0.89422876,0.8448527,0.58939284,-0.38109645,2.3495903,-0.6384201,0.728998,-3.5807354,0.23301369,3.445607,0.37826157,-0.55812836,0.7822343,0.7184975,0.07964996,0.098945096,0.6838326,-1.2415414,-0.2604094,0.95969456,1.0,0.0,0.0,0.0,0.0,0.0,0.0,-2.9995904,0.2384201,-0.178998,0.11882782,0.43358803,7.3087544,-2.48698,1.6501546,-2.7842045,-1.0544717
13.792511,73.75965,23.510263,8.513628,0.03203726,1.3303789,0.22251712,-0.8088205,0.72931874,-0.07280977,0.47169846,0.616181,0.6647856,-0.5557123,1.5355221,-0.8926494,-1.8850015,-0.90218204,2.1173804,1.3174386,-1.0087696,1.6020266,-0.9525684,-1.8794849,-0.9406353,2.06433,1.2566916,-0.95704454,-1.4387827,1.302223,-0.15821953,0.8633576,0.8608111,0.5675959,-0.38676706,2.3138084,-0.63609314,0.7626918,-3.5771554,0.23278072,3.3439763,0.36588287,-0.560379,0.79191256,0.7277333,0.0714815,0.09760935,0.67510515,-1.2386401,-0.19898231,0.9698339,1.0,0.0,0.0,0.0,0.0,0.0,0.0,-2.9638085,0.23609313,-0.21269178,-0.4392624,0.35877228,7.256231,-3.3280492,1.5268087,-2.2251606,-0.88662505
16.399555,73.62946,23.55907,7.129566,-0.12006891,1.2698214,0.28882325,-0.8056804,0.73414886,-0.02298753,0.43436733,0.6224327,0.6684164,-0.5502384,1.5214585,-0.87915355,-1.8817836,-0.8971986,2.1265733,1.3235332,-1.0120684,1.5876223,-0.9395126,-1.8805072,-0.9323412,2.0730352,1.262242,-0.9609346,-1.4414113,1.3065518,-0.082130246,0.8172167,0.8738105,0.5506823,-0.39076123,2.2780647,-0.6337662,0.79537004,-3.573579,0.232548,3.2424471,0.35356522,-0.561985,0.8016714,0.73653567,0.063194364,0.096161895,0.66653925,-1.229354,-0.13253284,0.97661865,1.0,0.0,0.0,0.0,0.0,0.0,0.0,-2.9280648,0.23376617,-0.24537003,-0.45070648,0.3755808,8.100369,-4.8533916,1.2410402,-1.6878128,-0.71558356
17.656704,73.30936,23.073347,6.3974915,-0.2523222,1.1562405,0.30021912,-0.8050551,0.74494094,-0.0025736976,0.40511408,0.6312504,0.6728637,-0.54035294,1.5071168,-0.8650185,-1.8807646,-0.8918298,2.1361604,1.3295283,-1.0149698,1.5731989,-0.9263729,-1.8808525,-0.9245707,2.0818663,1.2676512,-0.9648494,-1.443189,1.3162005,-0.017303433,0.762929,0.88606393,0.5378658,-0.39279056,2.2423553,-0.6314392,0.82703376,-3.5700061,0.23231551,3.1410196,0.3413887,-0.5629082,0.81147134,0.74488115,0.054810077,0.09465113,0.658171,-1.2143513,-0.06472453,0.9793483,1.0,0.0,0.0,0.0,0.0,0.0,0.0,-2.8923554,0.2314392,-0.27703375,-0.35977364,0.9183645,6.942521,-5.6627393,1.1883497,-1.2384176,-0.5046904
20.345104,69.45504,21.341362,3.558607,-0.5552603,0.84648705,0.34657687,-0.80548984,0.75071484,0.0009950111,0.33516267,0.6424087,0.670353,-0.53633267,1.4926499,-0.85130143,-1.8807529,-0.8910544,2.1461072,1.3346865,-1.0184827,1.5587641,-0.9131197,-1.8807323,-0.9175602,2.090827,1.2729555,-0.96877664,-1.4442618,1.3281875,0.023301221,0.6795583,0.89921045,0.52824754,-0.3936237,2.2066803,-0.6291199,0.85768396,-3.566437,0.23208323,3.0396936,0.32944107,-0.5631561,0.82119244,0.75273633,0.04643704,0.09317538,0.6500384,-1.1864108,0.0033007846,0.96753764,1.0,0.0,0.0,0.0,0.0,0.0,0.0,-2.8566804,0.22911987,-0.30768394,-0.28510094,1.1752605,4.4723635,-8.586348,1.3056517,-0.8271575,-0.3632307
19.163559,65.112236,19.141573,3.244372,-0.6204062,0.5881864,0.30089632,-0.80664694,0.7544382,-0.0061246217,0.30424517,0.63854235,0.6731409,-0.51750576,1.4780993,-0.83767587,-1.8813448,-0.8871357,2.1546812,1.3402696,-1.0205272,1.5443178,-0.89975107,-1.8804195,-0.9113909,2.099883,1.2781817,-0.97269434,-1.4452231,1.3397609,0.034992617,0.59519464,0.9076662,0.5212883,-0.3919547,2.1710434,-0.62680054,0.88732165,-3.5628712,0.23185119,2.9384687,0.31781006,-0.5627785,0.8307273,0.76012796,0.038176548,0.09183825,0.6421166,-1.1539866,0.06340188,0.9463794,1.0,0.0,0.0,0.0,0.0,0.0,0.0,-2.8210435,0.22680053,-0.33732164,-0.25732517,1.1535645,1.504856,-8.685446,0.874877,-0.52102804,-0.08106828
28.15026,62.67373,18.99158,-3.2536116,-1.2206144,0.25467843,0.5215262,-0.8053301,0.761851,0.032785553,0.1494622,0.65858537,0.6616735,-0.52033085,1.4637848,-0.82356596,-1.8771409,-0.8964447,2.1657417,1.344349,-1.0247275,1.5298716,-0.8862604,-1.8799312,-0.90659297,2.1090574,1.2833487,-0.97659487,-1.4450231,1.3522921,0.05470114,0.4404506,0.9205675,0.5161389,-0.39033887,2.1354408,-0.6244812,0.91594785,-3.5593092,0.23161939,2.837345,0.30669022,-0.5617142,0.839924,0.766924,0.03018375,0.09070556,0.6345777,-1.0958775,0.1335391,0.9081049,1.0,0.0,0.0,0.0,0.0,0.0,0.0,-2.785441,0.2244812,-0.36594784,-0.14748573,1.2791157,2.3050234,-15.748226,1.3253093,-0.19161701,-0.07646084
41.707428,60.148903,19.528507,-12.457487,-2.0467596,-0.15906885,0.8535799,-0.7974118,0.7645988,0.08580224,-0.047849786,0.671164,0.65945405,-0.5212681,1.4501305,-0.8098005,-1.871351,-0.91137797,2.176174,1.3492941,-1.0287217,1.5154673,-0.8726591,-1.8790481,-0.9040457,2.1183767,1.2884794,-0.9804811,-1.4393214,1.3629084,0.10051762,0.1917857,0.9360253,0.51384354,-0.38879403,2.0998726,-0.6221695,0.9435635,-3.5557506,0.23138782,2.7363222,0.29641724,-0.55983734,0.8485822,0.7728704,0.022660118,0.089816645,0.62776643,-1.0012945,0.21772103,0.8487447,1.0,0.0,0.0,0.0,0.0,0.0,0.0,-2.7498727,0.22216949,-0.3935635,0.41763783,1.1284113,4.887357,-25.145084,1.6005516,0.29091835,-0.060665607
47.621567,57.938255,19.249239,-16.701237,-2.4385564,-0.47775292,0.9953258,-0.7939494,0.77267796,0.108340904,-0.19537012,0.67673194,0.6551123,-0.509341,1.4360723,-0.7953913,-1.868214,-0.92358273,2.18605,1.3539907,-1.0314152,1.5011393,-0.8589443,-1.8776538,-0.90431464,2.1278448,1.2935969,-0.98434347,-1.4309462,1.3746412,0.1530993,-0.10060639,0.95096034,0.51289225,-0.38580665,2.0643425,-0.6198578,0.9701697,-3.5521955,0.23115648,2.6354005,0.28723526,-0.5570946,0.85656327,0.7778277,0.015755603,0.08921214,0.62191397,-0.88695765,0.3025687,0.7779399,1.0,0.0,0.0,0.0,0.0,0.0,0.0,-2.7143426,0.21985778,-0.4201697,0.7356405,1.2741804,5.446124,-29.471556,1.605022,0.5187869,0.14420152
43.139774,56.427654,18.26313,-13.414621,-2.1142507,-0.5596285,0.8722321,-0.7872998,0.7767183,0.11782402,-0.25795573,0.68040925,0.6541276,-0.49674153,1.4224093,-0.7812725,-1.8658714,-0.9301102,2.1958857,1.3590096,-1.0340176,1.4869181,-0.8451208,-1.8758018,-0.90720713,2.1374502,1.2987047,-0.98816484,-1.4192886,1.3852308,0.19619164,-0.3527347,0.96408176,0.5118503,-0.38129967,2.0288467,-0.6175461,0.99576753,-3.548644,0.23092537,2.53458,0.27911758,-0.55360794,0.8638857,0.7818833,0.009467604,0.088885434,0.61698306,-0.7810383,0.37263682,0.71324384,1.0,0.0,0.0,0.0,0.0,0.0,0.0,-2.6788468,0.21754608,-0.44576752,1.1229515,1.1803627,4.3377757,-25.385996,1.501751,0.45776367,0.35565495
38.308952,55.39667,17.579546,-9.737602,-1.7462509,-0.56691796,0.74889684,-0.7792844,0.77871555,0.1428493,-0.3463887,0.68394864,0.66105574,-0.48691764,1.4089897,-0.7672492,-1.8615168,-0.941846,2.205845,1.3648103,-1.0368567,1.4728323,-0.83121145,-1.8735416,-0.91229403,2.1471663,1.303805,-0.9919357,-1.4048866,1.3932544,0.23580866,-0.5611765,0.97508556,0.511137,-0.3758683,1.9933853,-0.6152382,1.0203578,-3.5450962,0.23069449,2.43386,0.27197266,-0.5494995,0.87062496,0.7851794,0.0037250977,0.08879843,0.61285734,-0.6865158,0.43028647,0.6566528,1.0,0.0,0.0,0.0,0.0,0.0,0.0,-2.6433854,0.21523818,-0.47035784,1.437521,0.9397268,3.867951,-20.97953,1.3536572,0.43367147,0.48760176
31.828718,55.561577,17.235523,-4.8933387,-1.284666,-0.4601115,0.6090158,-0.7788145,0.78254044,0.17517333,-0.41627982,0.6828321,0.65475434,-0.4631249,1.3949509,-0.7529574,-1.8560243,-0.95392203,2.2154496,1.3692805,-1.0382482,1.4588667,-0.8172325,-1.870856,-0.9191042,2.1569662,1.3088919,-0.99563783,-1.3937917,1.399961,0.2787844,-0.721276,0.9823343,0.5092472,-0.36850405,1.957962,-0.6129341,1.0439417,-3.5415518,0.23046385,2.333241,0.2656479,-0.5448837,0.8768905,0.787856,-0.0015796163,0.08889335,0.60940814,-0.6087013,0.4772925,0.6119292,1.0,0.0,0.0,0.0,0.0,0.0,0.0,-2.6079621,0.2129341,-0.49394172,1.1202574,0.8179188,4.1219053,-16.12637,1.0322571,0.24642944,0.70387125
26.977726,57.562332,18.020658,-0.25909567,-0.8408712,-0.24381006,0.514465,-0.7749274,0.78183067,0.23689349,-0.4637478,0.67771876,0.6548585,-0.44991446,1.381374,-0.73904943,-1.8471667,-0.965479,2.2247381,1.3743777,-1.0406293,1.4449946,-0.80321157,-1.867564,-0.92716086,2.1668005,1.3139578,-0.9992618,-1.3849734,1.4033227,0.34530896,-0.83412015,0.9851465,0.5069763,-0.3605353,1.9225731,-0.61063004,1.0665202,-3.5380108,0.23023343,2.2327225,0.25997162,-0.5398216,0.8828275,0.7900221,-0.0066062193,0.08907802,0.60653657,-0.547328,0.51958776,0.58277005,1.0,0.0,0.0,0.0,0.0,0.0,0.0,-2.5725732,0.21063003,-0.5165202,0.89571476,0.49381256,6.403035,-11.389769,0.6595969,0.15723705,0.771749
26.72309,61.639305,20.069849,2.231512,-0.635367,-0.040167555,0.51155436,-0.7597751,0.7855719,0.30988312,-0.5110307,0.68150866,0.65329945,-0.42933154,1.369017,-0.7246544,-1.8365756,-0.9782639,2.2349513,1.3792877,-1.042195,1.4312521,-0.7891573,-1.8633792,-0.93611395,2.1766615,1.3190008,-1.002798,-1.3707241,1.4067538,0.4416578,-0.9159774,0.9879759,0.5047254,-0.35143054,1.8872185,-0.6083298,1.0880942,-3.5344737,0.23000324,2.1323044,0.25486374,-0.534317,0.88858354,0.7917064,-0.011523215,0.089240916,0.60423857,-0.49292585,0.56540585,0.5680106,1.0,0.0,0.0,0.0,0.0,0.0,0.0,-2.5372186,0.20832977,-0.5380942,1.4552832,0.5174637,9.295344,-8.269321,0.7468581,0.15734434,0.896132
23.31006,62.605488,20.51558,5.3323536,-0.35633266,0.10224952,0.4501135,-0.7602155,0.78569216,0.36514622,-0.53350365,0.6818487,0.65277654,-0.41377342,1.3552306,-0.71058804,-1.8268646,-0.98946434,2.2448463,1.3842785,-1.0441753,1.4176241,-0.77507913,-1.858134,-0.9456631,2.1865454,1.324021,-1.0062407,-1.3600398,1.408857,0.55092674,-0.9681867,0.99036807,0.5024611,-0.3418713,1.851902,-0.6060333,1.1086649,-3.5309398,0.22977328,2.0319867,0.25021362,-0.52835464,0.89426476,0.79295456,-0.01645469,0.08930921,0.6024749,-0.44954416,0.60907876,0.5626373,1.0,0.0,0.0,0.0,0.0,0.0,0.0,-2.501902,0.20603332,-0.55866486,1.0967016,0.391078,10.549271,-5.2981973,0.74260235,0.13023615,0.94751716
18.767769,62.920216,20.395279,9.003442,-0.05355501,0.22143368,0.34371638,-0.75747013,0.7892258,0.40972495,-0.52435637,0.6809134,0.65045094,-0.38277948,1.3418771,-0.69615656,-1.8171616,-0.99809873,2.2546368,1.3890661,-1.0445187,1.404082,-0.7609714,-1.8518226,-0.9554573,2.1964483,1.3290201,-1.0095729,-1.3523004,1.4120525,0.6566666,-0.98336905,0.9918126,0.49992898,-0.33049774,1.8166199,-0.6037369,1.128233,-3.5274096,0.22954357,1.9317691,0.24588394,-0.52199936,0.8999617,0.7938466,-0.021503493,0.08925319,0.601148,-0.41886914,0.64843404,0.5662926,1.0,0.0,0.0,0.0,0.0,0.0,0.0,-2.46662,0.20373687,-0.57823294,0.78992844,0.5053282,10.182619,-1.6024709,0.6659627,0.067961216,1.1290789
15.503849,59.279385,18.890545,10.332756,0.09751499,0.14602096,0.2780548,-0.756234,0.78492934,0.4442599,-0.5356733,0.68616736,0.64634,-0.35528976,1.3284585,-0.6824785,-1.8073967,-1.0090246,2.265065,1.3936541,-1.0451019,1.3905932,-0.746858,-1.8445671,-0.9653002,2.2063704,1.3339907,-1.0127829,-1.3478814,1.4116856,0.7471375,-0.98487717,0.9943913,0.49704844,-0.31774822,1.7813721,-0.6014404,1.1467997,-3.5238829,0.22931406,1.8316517,0.24184418,-0.5152931,0.9056811,0.7944506,-0.026677476,0.089082524,0.60016733,-0.3938662,0.6803217,0.567756,1.0,0.0,0.0,0.0,0.0,0.0,0.0,-2.4313722,0.20144042,-0.5967997,0.44903755,0.14457703,8.68305,-0.24666786,0.74745417,0.007736683,1.264447
9.780072,56.815376,17.306406,13.826775,0.37547487,0.16275959,0.1275565,-0.7573046,0.7893124,0.4592419,-0.49203634,0.67511994,0.65228367,-0.3005429,1.3148627,-0.6679268,-1.7986429,-1.0145038,2.2738824,1.399219,-1.0428373,1.3771178,-0.732736,-1.8366153,-0.97489035,2.2162848,1.3389345,-1.0158366,-1.3474464,1.4130102,0.81005776,-0.95083123,0.9917118,0.4945437,-0.30119938,1.7461586,-0.5991516,1.164366,-3.5203598,0.22908479,1.7316344,0.23793793,-0.50834656,0.9114462,0.7948765,-0.031999726,0.08884197,0.59937835,-0.38133204,0.70339924,0.5731303,1.0,0.0,0.0,0.0,0.0,0.0,0.0,-2.3961587,0.1991516,-0.614366,0.019454956,0.31223297,5.969107,3.278935,0.19150972,-0.0055789948,1.6352296
3.7045789,51.991955,14.832395,16.403122,0.63576555,0.11557788,-0.005689215,-0.7733185,0.7866973,0.47079968,-0.4653548,0.6691123,0.65270054,-0.27043316,1.2997859,-0.65406626,-1.7895354,-1.0214258,2.283196,1.4042046,-1.0428799,1.3635565,-0.71861494,-1.8282249,-0.98400366,2.2261457,1.3438555,-1.0187148,-1.3593307,1.4124019,0.84789586,-0.8987613,0.98556143,0.4919313,-0.2834575,1.7109795,-0.5968628,1.1809329,-3.5168402,0.22885576,1.6317171,0.23408127,-0.5012398,0.9172521,0.7952414,-0.037465114,0.08859085,0.5986142,-0.38016132,0.7156617,0.57670015,1.0,0.0,0.0,0.0,0.0,0.0,0.0,-2.3609796,0.19686279,-0.63093287,-1.2565374,0.10895729,3.5352468,5.046046,-0.20890236,-0.0708282,1.745373
1.6349611,47.506886,12.890255,16.525267,0.6711884,-0.030101225,-0.05741818,-0.77752334,0.7843836,0.47111407,-0.4506012,0.6663636,0.65749013,-0.23343475,1.2858042,-0.6401766,-1.7811135,-1.0290638,2.292782,1.4096045,-1.0420582,1.3498522,-0.7045139,-1.8196342,-0.99259436,2.235938,1.3487555,-1.0214041,-1.374479,1.4099458,0.8621085,-0.846493,0.9780104,0.48994705,-0.2642496,1.6758385,-0.594574,1.1965014,-3.513324,0.22862695,1.5318997,0.23020935,-0.49406815,0.9230486,0.79560995,-0.04301585,0.08838359,0.5977815,-0.3801464,0.72072756,0.5741491,1.0,0.0,0.0,0.0,0.0,0.0,0.0,-2.3258386,0.19457397,-0.64650136,-1.5998125,-0.08599758,1.2272239,5.0483823,-0.40078163,-0.030046701,1.8876731
0.28999615,43.55499,11.268337,16.346867,0.686681,-0.16453001,-0.08614064,-0.78670365,0.781136,0.46686444,-0.42904904,0.6613778,0.66239023,-0.19016846,1.2711818,-0.6264003,-1.7729478,-1.0354992,2.3020759,1.4149945,-1.040421,1.3359762,-0.69045293,-1.811034,-1.0006882,2.2456465,1.3536421,-1.0238894,-1.3924924,1.4054033,0.858754,-0.79758406,0.9695572,0.48861945,-0.2432015,1.6407318,-0.592289,1.2110724,-3.5098114,0.22839837,1.4321822,0.22635269,-0.4868889,0.9287773,0.7960161,-0.04858849,0.088268384,0.59683,-0.38019004,0.719918,0.56598324,1.0,0.0,0.0,0.0,0.0,0.0,0.0,-2.290732,0.19228896,-0.66107243,-1.8993855,-0.30362606,-0.48538446,4.698634,-0.53191185,0.020492077,2.068311
2.5738788,41.90912,10.938204,14.225621,0.49337417,-0.3255757,-0.031095035,-0.7920978,0.78132796,0.46985796,-0.43560335,0.6627035,0.652503,-0.16854246,1.2567664,-0.6123201,-1.7640482,-1.0442486,2.3119168,1.4188924,-1.0407437,1.3219305,-0.67643106,-1.8025043,-1.0084606,2.25529,1.3585097,-1.0261649,-1.4087683,1.4016016,0.8504947,-0.7709369,0.96327645,0.48672658,-0.22258244,1.6056595,-0.5900078,1.224647,-3.5063024,0.22817002,1.3325644,0.22255707,-0.47971725,0.9343729,0.7964361,-0.054099936,0.08827802,0.59579337,-0.3715704,0.7195481,0.5509322,1.0,0.0,0.0,0.0,0.0,0.0,0.0,-2.2556596,0.19000778,-0.67464703,-1.7154217,-0.2374649,-0.9528041,2.4853468,-0.34348965,-0.023031235,2.0298958
2.5399232,40.296696,10.479676,14.175424,0.49364024,-0.38539174,-0.031478632,-0.7999817,0.77700424,0.4643868,-0.4071175,0.6526309,0.65720713,-0.12376421,1.2419324,-0.5987306,-1.7560656,-1.0491724,2.320553,1.4242303,-1.0385413,1.3077303,-0.66245687,-1.7940872,-1.0159622,2.2648573,1.3633639,-1.0282229,-1.4239784,1.3964685,0.8386114,-0.7439076,0.9552048,0.4854324,-0.20037124,1.5706253,-0.5877266,1.2372262,-3.5027966,0.2279419,1.233046,0.21883774,-0.4725647,0.93981,0.796862,-0.05952416,0.08842858,0.5946833,-0.36227977,0.7174443,0.53481513,1.0,0.0,0.0,0.0,0.0,0.0,0.0,-2.2206254,0.18772659,-0.68722624,-1.6103745,-0.37355423,-1.302731,2.5205374,-0.53441525,0.030738115,2.1863222
2.2550774,38.84022,10.087595,14.54056,0.55275923,-0.43031806,-0.028896905,-0.8053079,0.77245635,0.45397803,-0.37958887,0.6524796,0.65169024,-0.046891235,1.2271996,-0.5852112,-1.7486894,-1.0539211,2.3301053,1.4285328,-1.032912,1.2933985,-0.64854467,-1.7858169,-1.0231491,2.274356,1.3682009,-1.0300235,-1.4365876,1.3898373,0.8227818,-0.7109703,0.94881505,0.48376095,-0.17345712,1.5356216,-0.5854492,1.248811,-3.4992945,0.227714,1.1336273,0.2152214,-0.46543884,0.94509083,0.7972923,-0.06485929,0.08871191,0.59350514,-0.3539546,0.71299094,0.5193685,1.0,0.0,0.0,0.0,0.0,0.0,0.0,-2.1856217,0.18544921,-0.698811,-1.3514042,-0.5256653,-1.6888499,3.1065702,-0.37435293,-0.016498566,2.6519985
2.5109954,38.43662,10.189216,14.969979,0.5865922,-0.43768817,-0.012604807,-0.8066257,0.76919687,0.4466358,-0.35206923,0.64645106,0.66163945,0.047888186,1.2127359,-0.571625,-1.7411534,-1.058356,2.339001,1.4343648,-1.0252346,1.2789751,-0.6347021,-1.7777088,-1.0299488,2.2837896,1.3730322,-1.0315055,-1.4445785,1.3828336,0.8062882,-0.6703131,0.9421989,0.48321778,-0.1401612,1.5006561,-0.58317566,1.2594023,-3.495796,0.22748634,1.0343078,0.21167374,-0.45836258,0.95023453,0.7977148,-0.07013089,0.08911529,0.5922763,-0.3461398,0.7085577,0.5062718,1.0,0.0,0.0,0.0,0.0,0.0,0.0,-2.1506562,0.18317565,-0.70940226,-0.8861065,-0.5631685,-1.7570496,3.878677,-0.3927827,0.09070039,3.2850714
0.17502117,39.59229,10.677517,18.443577,0.8427396,-0.27251574,-0.069041625,-0.8087332,0.76909184,0.4377302,-0.27139935,0.63041073,0.66556895,0.18748544,1.1981018,-0.5577929,-1.7339357,-1.0570887,2.3468306,1.4395891,-1.012757,1.2644945,-0.6209129,-1.7697704,-1.0360485,2.2931242,1.3778597,-1.0325793,-1.4494737,1.3779781,0.789299,-0.5903848,0.93139255,0.48295388,-0.0966226,1.465725,-0.5809021,1.2690011,-3.4923007,0.22725889,0.93508774,0.20812607,-0.45131683,0.9553401,0.7981525,-0.075454846,0.08962201,0.5909543,-0.34914848,0.70479506,0.5056765,1.0,0.0,0.0,0.0,0.0,0.0,0.0,-2.115725,0.1809021,-0.7190011,-0.5958319,-0.34382343,-1.8140674,7.7926874,-0.7821083,0.08311868,4.298474
-0.8001871,34.69465,8.548667,17.438738,0.8289413,-0.4693156,-0.093101725,-0.81690234,0.76125014,0.39097548,-0.2700751,0.6307624,0.66583586,0.22672062,1.1828043,-0.5447879,-1.7306728,-1.063056,2.3562005,1.4444433,-1.0099072,1.249951,-0.60719144,-1.7621772,-1.0414444,2.3023634,1.3826834,-1.0332221,-1.4563084,1.3705381,0.74916404,-0.5232875,0.9220956,0.48272717,-0.053628247,1.4308281,-0.57862854,1.2776085,-3.488809,0.22703168,0.8359669,0.20456314,-0.44437408,0.9603741,0.7986366,-0.080785684,0.090258576,0.5894968,-0.35000715,0.69335306,0.49647933,1.0,0.0,0.0,0.0,0.0,0.0,0.0,-2.0808282,0.17862853,-0.7276085,-0.79352856,-0.61416626,-4.088938,6.499219,-0.67669153,0.080263615,4.2428246
1.6606588,32.75768,7.9809475,14.384541,0.5215001,-0.67197895,-0.02903543,-0.82131135,0.7583488,0.3752437,-0.28776178,0.6027406,0.66269267,0.257579,1.1678199,-0.5313566,-1.7246529,-1.0702206,2.3626375,1.4489527,-1.0074642,1.235335,-0.5935453,-1.7550132,-1.046436,2.3114424,1.3875052,-1.0334548,-1.4637341,1.3630553,0.7053838,-0.49157795,0.9040182,0.48247096,-0.0132004265,1.3959656,-0.5763626,1.2852255,-3.485321,0.2268047,0.7369451,0.20108414,-0.43753052,0.9652353,0.7991432,-0.08600255,0.09110598,0.58793986,-0.3386502,0.6824318,0.47668388,1.0,0.0,0.0,0.0,0.0,0.0,0.0,-2.0459657,0.1763626,-0.7352255,-0.8363962,-0.62811375,-4.429543,2.9773772,-1.59055,0.10046959,3.9917488
3.504838,28.59552,6.598343,11.263727,0.30840927,-0.9274159,0.04137275,-0.8199352,0.7443145,0.3442423,-0.29929614,0.58186305,0.6673064,0.3288137,1.1533415,-0.5191139,-1.720589,-1.0763656,2.3696287,1.4542358,-1.0005734,1.2206675,-0.5800222,-1.7483394,-1.0513474,2.3202963,1.3923289,-1.0332755,-1.4678054,1.3490825,0.65443254,-0.49163166,0.87986314,0.48297375,0.028313097,1.3611374,-0.5740967,1.2918531,-3.4818363,0.22657794,0.6380223,0.19779968,-0.43084335,0.96980536,0.79963064,-0.09096913,0.09222424,0.5863532,-0.31669098,0.6667939,0.44455305,1.0,0.0,0.0,0.0,0.0,0.0,0.0,-2.0111375,0.17409667,-0.74185306,-0.47180653,-1.2857437,-5.135131,-0.19084811,-2.2390962,0.20038486,4.100354
1.3025031,24.312119,4.5547276,11.750215,0.42078286,-1.052664,-0.035257105,-0.8232524,0.73684585,0.28260452,-0.2702715,0.56586426,0.6681712,0.35966244,1.1383423,-0.50633764,-1.720079,-1.0783745,2.3768828,1.459146,-0.99730927,1.2059637,-0.56665456,-1.7423503,-1.0562302,2.3288946,1.3971583,-1.0326995,-1.4714442,1.3330259,0.5801435,-0.48786542,0.85353833,0.4833938,0.06711161,1.3263474,-0.57183075,1.2974921,-3.4783552,0.22635141,0.5391984,0.19470596,-0.4243698,0.97403175,0.8001441,-0.0956136,0.093649544,0.58468544,-0.29783326,0.64218277,0.40962064,1.0,0.0,0.0,0.0,0.0,0.0,0.0,-1.9763473,0.17183074,-0.74749213,-0.4317522,-1.4991522,-7.453084,0.17436147,-2.482891,0.17163157,3.8242936
-0.0063476562,19.563644,2.2783313,10.958452,0.44215554,-1.2571447,-0.08102438,-0.82420915,0.728223,0.20995305,-0.28261238,0.5524405,0.66931623,0.40156588,1.1235428,-0.49383226,-1.7213551,-1.0844914,2.3841386,1.4640899,-0.99254286,1.1912333,-0.5534557,-1.7373168,-1.061155,2.3372335,1.4019915,-1.0317496,-1.4737719,1.3158116,0.47777578,-0.49470022,0.827747,0.48379666,0.10431434,1.2915878,-0.56956863,1.3021437,-3.4748776,0.2261251,0.44047338,0.19181824,-0.4182167,0.9778531,0.8007482,-0.099838845,0.095426306,0.5828622,-0.2778567,0.6077741,0.36763293,1.0,0.0,0.0,0.0,0.0,0.0,0.0,-1.9415878,0.16956863,-0.7521437,-0.28998852,-1.6220808,-10.244626,-0.8941233,-2.4707317,0.15835762,3.6632478
0.17803288,17.631142,1.4337792,10.068277,0.37075472,-1.3822881,-0.086142555,-0.82216674,0.7203304,0.15452655,-0.30041757,0.5211561,0.66577566,0.43531734,1.1090167,-0.48142266,-1.7218642,-1.0911968,2.3893492,1.468569,-0.9882179,1.1765009,-0.54042566,-1.7333877,-1.066238,2.345275,1.4068266,-1.0304431,-1.4733669,1.299062,0.36475778,-0.5136001,0.79637843,0.48372358,0.13931827,1.2568665,-0.56731033,1.3058087,-3.4714034,0.22589903,0.34184706,0.1891594,-0.41242218,0.98122346,0.8014684,-0.103569336,0.09759896,0.5808582,-0.254374,0.5700029,0.3217903,1.0,0.0,0.0,0.0,0.0,0.0,0.0,-1.9068664,0.16731033,-0.75580865,0.0019311905,-1.5795231,-11.308277,-2.094102,-3.0520082,0.10518432,3.4412563
-1.1282201,9.540594,-1.9946303,7.836916,0.41385138,-1.698508,-0.094304115,-0.82016724,0.69304436,0.059394237,-0.3436367,0.5090795,0.6628117,0.47010925,1.0944842,-0.47112122,-1.7274483,-1.1006017,2.3961828,1.4731078,-0.9834322,1.1617914,-0.5276474,-1.7307823,-1.0717026,2.353015,1.4116579,-1.0287989,-1.4703072,1.2710613,0.22572249,-0.5580357,0.7668535,0.48325652,0.1725175,1.2221794,-0.56505203,1.3084881,-3.4679327,0.22567318,0.24331935,0.18675613,-0.4071312,0.98403,0.80233663,-0.10664629,0.10018203,0.5786589,-0.22837006,0.51621073,0.26226032,1.0,0.0,0.0,0.0,0.0,0.0,0.0,-1.8721794,0.16505203,-0.7584881,0.3143072,-2.7147293,-13.911713,-4.646957,-2.9281735,0.059729815,3.2556324
2.014306,8.146549,-1.888009,3.974966,0.14233327,-1.8766611,0.043001905,-0.8209551,0.6725664,0.034186542,-0.4323639,0.480507,0.6630624,0.46690348,1.0796959,-0.46039075,-1.7273636,-1.114939,2.4010656,1.4779642,-0.9821086,1.1471106,-0.515201,-1.7293956,-1.0779835,2.3604383,1.4164854,-1.0268611,-1.4670981,1.2361515,0.10939269,-0.65193605,0.7339298,0.48297292,0.20047517,1.1875267,-0.56279755,1.310183,-3.4644656,0.22544755,0.14489014,0.18470764,-0.40237045,0.98615307,0.80329216,-0.10891583,0.103158176,0.57638294,-0.1900679,0.4621681,0.1913807,1.0,0.0,0.0,0.0,0.0,0.0,0.0,-1.8375267,0.16279754,-0.76018304,0.38659573,-3.4069777,-11.661771,-9.548664,-3.2998085,0.09431243,2.7384787
2.9452107,9.937844,-1.1082221,3.5658274,0.018588156,-1.869847,0.061436705,-0.8206673,0.66897976,-0.026870169,-0.47523943,0.44141924,0.66376126,0.4702732,1.0650438,-0.44830298,-1.7320826,-1.1255075,2.4045804,1.4828615,-0.9798337,1.1324583,-0.503055,-1.7291133,-1.0853039,2.3674765,1.4213091,-1.0246791,-1.4643552,1.2078142,0.0011913652,-0.75903434,0.69371,0.48259038,0.22404416,1.1529083,-0.5605469,1.3108944,-3.4610019,0.22522216,0.046559334,0.18307495,-0.3981247,0.9875653,0.8043046,-0.1103329,0.106553145,0.57407945,-0.14850534,0.41176668,0.12071424,1.0,0.0,0.0,0.0,0.0,0.0,0.0,-1.8029083,0.16054687,-0.76089436,0.355196,-2.7490616,-10.853959,-10.843992,-4.040718,0.059384108,2.3010998
2.1104982,8.252863,-2.195259,2.790146,0.041363657,-1.9778003,0.03553143,-0.8267209,0.6606638,-0.11599019,-0.5541985,0.4521983,0.6630782,0.44055536,1.0497862,-0.4369886,-1.7407124,-1.1407237,2.4126964,1.4876169,-0.98062354,1.1178004,-0.49114382,-1.7300079,-1.0938488,2.3742094,1.4261271,-1.022312,-1.4661766,1.1858338,-0.11990634,-0.886726,0.66619354,0.48176482,0.24054722,1.1183243,-0.5582962,1.3106232,-3.4575415,0.22499697,-0.051673166,0.18186188,-0.3944168,0.9882304,0.80539805,-0.110814296,0.11035983,0.5717298,-0.10710128,0.35561833,0.0447236,1.0,0.0,0.0,0.0,0.0,0.0,0.0,-1.7683243,0.1582962,-0.76062316,-0.07953644,-2.119112,-12.129827,-12.885404,-2.8192282,-0.030601025,1.5979767
0.19097686,8.084573,-2.7549453,4.2772593,0.12091905,-1.9328449,-0.051890604,-0.82911074,0.65648013,-0.19600838,-0.6007513,0.40346906,0.66273576,0.42009032,1.0348892,-0.4254958,-1.7496088,-1.153924,2.4145563,1.4924006,-0.980303,1.1031042,-0.4793936,-1.7321994,-1.1036164,2.380599,1.4309336,-1.019823,-1.4704907,1.171676,-0.25215524,-1.0071161,0.62970424,0.48039547,0.25143188,1.0837746,-0.55604553,1.3093704,-3.4540846,0.22477202,-0.14980747,0.18103409,-0.3912735,0.9881541,0.80663806,-0.110339366,0.11461262,0.56923115,-0.07130507,0.298336,-0.028566882,1.0,0.0,0.0,0.0,0.0,0.0,0.0,-1.7337745,0.15604553,-0.7593704,-0.3289461,-1.3440132,-13.225168,-12.154222,-3.7447572,-0.14452934,1.0220587
-2.4512682,5.058916,-4.1224823,6.01208,0.37579513,-1.8905904,-0.12181505,-0.8256802,0.6358645,-0.2711937,-0.64532346,0.3689499,0.6642746,0.41354078,1.0205362,-0.41580716,-1.7593188,-1.1681488,2.417494,1.4973611,-0.9784689,1.0883814,-0.46782076,-1.7357566,-1.1144749,2.3865843,1.4357268,-1.0172518,-1.4722849,1.1527201,-0.39018816,-1.1125191,0.5877463,0.4787357,0.25882274,1.0492592,-0.5538025,1.307137,-3.4506314,0.2245473,-0.24784362,0.18048477,-0.3887291,0.9873633,0.8080798,-0.108934745,0.11929099,0.56648904,-0.045709115,0.23548685,-0.09931913,1.0,0.0,0.0,0.0,0.0,0.0,0.0,-1.6992592,0.15380248,-0.757137,-0.059771538,-1.8365622,-13.802963,-10.657239,-4.314065,-0.22923946,0.6480694
-4.269998,6.391548,-3.4765134,9.357665,0.60971874,-1.6507375,-0.17999904,-0.82603675,0.62775904,-0.32231754,-0.6654267,0.314267,0.66265756,0.41135627,1.0057777,-0.40504485,-1.7679884,-1.1810175,2.418011,1.5019925,-0.97611624,1.073649,-0.45643342,-1.7405918,-1.1261612,2.3920622,1.4405028,-1.0146216,-1.4732926,1.1342261,-0.514556,-1.1878334,0.53372234,0.47664708,0.2640332,1.0147781,-0.55155945,1.303924,-3.4471815,0.2243228,-0.34578177,0.18012238,-0.3867874,0.98595124,0.809746,-0.10672186,0.12436182,0.5634323,-0.031626806,0.1776363,-0.15852475,1.0,0.0,0.0,0.0,0.0,0.0,0.0,-1.6647781,0.15155944,-0.75392395,-0.014019012,-1.8003225,-12.415325,-7.6625586,-5.503094,-0.31800866,0.40397048
-4.8395066,9.945214,-1.7729963,12.672323,0.7207691,-1.3618102,-0.2152877,-0.8232366,0.62329906,-0.36664608,-0.67665404,0.23393829,0.6591624,0.40900904,0.9913254,-0.3941035,-1.7772564,-1.1938267,2.415456,1.506419,-0.9737207,1.0589243,-0.44520533,-1.7465198,-1.1383682,2.396842,1.445254,-1.0119494,-1.4721404,1.119099,-0.6185655,-1.2321641,0.45928302,0.47419417,0.26763803,0.9803314,-0.5493164,1.2997322,-3.443735,0.22409852,-0.443622,0.17985916,-0.38534164,0.98404557,0.81163234,-0.10387538,0.12983719,0.56000465,-0.025071986,0.13044392,-0.2044353,1.0,0.0,0.0,0.0,0.0,0.0,0.0,-1.6303314,0.1493164,-0.7497322,0.14927387,-1.4685392,-10.3540535,-4.5827627,-7.5072584,-0.37730932,0.21955371
-6.197816,11.735485,-1.000299,15.751776,0.8219247,-1.114506,-0.27220267,-0.82725716,0.61459047,-0.41561976,-0.67887396,0.12831993,0.6611833,0.397228,0.9761986,-0.3837463,-1.7880818,-1.2062557,2.409674,1.5113723,-0.9722266,1.044192,-0.43412173,-1.7533786,-1.1508118,2.4006681,1.4499823,-1.0092582,-1.4737557,1.1048993,-0.7079671,-1.2491027,0.3569976,0.47199228,0.26893288,0.94591904,-0.5470772,1.2945629,-3.440292,0.22387446,-0.54136443,0.17960358,-0.38430023,0.9817579,0.8137398,-0.100558124,0.13577147,0.5561309,-0.025956973,0.09119032,-0.23999062,1.0,0.0,0.0,0.0,0.0,0.0,0.0,-1.595919,0.14707717,-0.7445629,-0.18644333,-1.38762,-8.845258,-1.8629074,-10.27466,-0.37349463,-0.04400015
-7.828423,8.474223,-2.2774909,16.474829,0.6604477,-1.0611823,-0.32596782,-0.826131,0.582626,-0.46649766,-0.6899442,-0.11650499,0.6621924,0.36564264,0.96157885,-0.37585914,-1.8000284,-1.2198062,2.3890176,1.5162015,-0.97269386,1.0294462,-0.42328894,-1.7610843,-1.1633412,2.4028845,1.4546934,-1.006586,-1.4747899,1.0761442,-0.79101276,-1.2545942,0.17632526,0.47033805,0.26591337,0.911541,-0.54484177,1.2884169,-3.4368522,0.22365063,-0.6390092,0.17934799,-0.3836403,0.97909737,0.8160716,-0.09684516,0.142389,0.5517004,-0.02676516,0.05362567,-0.27761644,1.0,0.0,0.0,0.0,0.0,0.0,0.0,-1.561541,0.14484176,-0.73841685,-0.11386871,-2.8579712,-8.220291,-0.7039547,-18.116634,-0.31040907,-0.53510666
-9.766694,4.7713785,-3.7054431,17.380503,0.43944108,-0.9858401,-0.36335912,-0.8281878,0.5450686,-0.50265735,-0.67848444,-0.4339871,0.67319787,0.39081246,0.94662744,-0.36878207,-1.8113501,-1.2311896,2.3594859,1.5220132,-0.96750474,1.0146834,-0.41288245,-1.7695434,-1.1758076,2.4025412,1.4594008,-1.0039309,-1.4767148,1.0287968,-0.86418283,-1.2444303,-0.10458954,0.47037205,0.2644073,0.8772011,-0.54260635,1.2812952,-3.4334161,0.22342703,-0.7365563,0.17910385,-0.38332748,0.976041,0.81860226,-0.09279866,0.15003178,0.5465979,-0.026993854,0.018751454,-0.31780186,1.0,0.0,0.0,0.0,0.0,0.0,0.0,-1.527201,0.14260635,-0.73129517,-0.1901865,-4.734516,-7.2438717,0.8834362,-28.140715,-0.11648536,-0.46072602
-11.554055,-0.61510277,-4.862757,18.836403,0.7711684,-0.8819583,-0.29026622,-0.8215104,0.47782433,-0.49627686,-0.6488373,-0.5969808,0.6684975,0.42716444,0.9325323,-0.36510003,-1.8191711,-1.2406913,2.342843,1.5262505,-0.9612145,0.9999358,-0.4031998,-1.7784851,-1.1880089,2.3992414,1.4641062,-1.0012625,-1.4738446,0.9480162,-0.9041213,-1.2124157,-0.40526268,0.47046974,0.26664883,0.8428917,-0.54037094,1.2731986,-3.4299834,0.22320364,-0.8340059,0.17877197,-0.3834076,0.97260654,0.82124704,-0.08849519,0.15869923,0.5408663,-0.037706632,-0.019986417,-0.35485613,1.0,0.0,0.0,0.0,0.0,0.0,0.0,-1.4928917,0.14037094,-0.7231986,0.30481815,-8.095991,-3.9613605,3.100729,-30.08656,-0.08228421,-0.10492802
-15.902696,-13.541609,-9.519577,18.430323,1.4917023,-1.037123,-0.20817915,-0.8186133,0.38093913,-0.52226406,-0.64591587,-0.67752707,0.66770124,0.44941163,0.9180745,-0.36510587,-1.8307115,-1.2526004,2.3314888,1.5308763,-0.95632136,0.9852416,-0.3946687,-1.7877567,-1.1998898,2.3932295,1.4688135,-0.99855137,-1.4675385,0.82128364,-0.93480945,-1.1801233,-0.66649884,0.47044277,0.27141973,0.80862045,-0.53814316,1.2641283,-3.426554,0.22298048,-0.93135804,0.17819214,-0.38403702,0.9687498,0.8239431,-0.08388634,0.16805254,0.53463936,-0.06861551,-0.081829265,-0.39862764,1.0,0.0,0.0,0.0,0.0,0.0,0.0,-1.4586204,0.13814315,-0.7141283,0.7508278,-12.723124,-3.124392,3.1945229,-26.150524,-0.10585189,0.15158057
-19.418646,-24.002506,-13.553353,17.08355,2.1747139,-1.2233934,-0.11626666,-0.8194334,0.29008317,-0.54884875,-0.66043365,-0.6972661,0.6709805,0.43962392,0.90329826,-0.36566037,-1.8426416,-1.2659332,2.3235028,1.5359116,-0.95458895,0.9706084,-0.3876425,-1.7973354,-1.2115818,2.3851652,1.4735209,-0.9958,-1.4612055,0.6628162,-0.96604794,-1.1654375,-0.8530023,0.4702878,0.27534074,0.77437973,-0.5359154,1.2540853,-3.4231281,0.22275755,-1.0286129,0.17716217,-0.3854561,0.96439254,0.82666314,-0.07883024,0.1776121,0.5280792,-0.11879249,-0.16521901,-0.45066965,1.0,0.0,0.0,0.0,0.0,0.0,0.0,-1.4243797,0.13591537,-0.7040853,0.8609772,-15.925205,-3.2616735,1.5089512,-18.69644,-0.16849637,0.0957787
-22.31118,-31.143078,-16.56592,15.732781,2.7165031,-1.3434501,-0.03719907,-0.8300444,0.19608505,-0.5665601,-0.6824139,-0.69861805,0.6775066,0.42251623,0.887604,-0.368034,-1.8539914,-1.2798232,2.3153033,1.5412716,-0.9535484,0.9559781,-0.38234055,-1.8072269,-1.2233101,2.3758001,1.4782263,-0.9930248,-1.4625385,0.48561487,-0.9973626,-1.1749343,-0.9643784,0.4700004,0.27736178,0.74017334,-0.5336876,1.2430705,-3.4197056,0.22253484,-1.1257704,0.17550278,-0.38782883,0.9594585,0.8294066,-0.07317233,0.1869196,0.5213362,-0.18608402,-0.26340768,-0.50991553,1.0,0.0,0.0,0.0,0.0,0.0,0.0,-1.3901733,0.13368759,-0.6930705,0.17740726,-17.827839,-3.3242226,-0.83224773,-11.212862,-0.25969148,-0.055015087
-33.340553,-68.70503,-30.320927,10.178408,4.1070023,-1.9787719,0.17340368,-0.8193648,-0.10623861,-0.5392806,-0.7244831,-0.69146067,0.6926127,0.43490472,0.8740416,-0.39296442,-1.8611549,-1.2957584,2.306654,1.5474876,-0.94953436,0.9413859,-0.37983668,-1.8172405,-1.2353684,2.365779,1.4829355,-0.990222,-1.4558672,0.17142034,-1.0044409,-1.2149282,-1.0148758,0.47002286,0.28048185,0.7060013,-0.5314636,1.2310848,-3.4162867,0.22231235,-1.2228309,0.17282867,-0.39164734,0.95368725,0.83217937,-0.06664919,0.1951552,0.5147326,-0.3002014,-0.4225556,-0.6014863,1.0,0.0,0.0,0.0,0.0,0.0,0.0,-1.3560013,0.13146362,-0.6810848,1.3240814,-31.598736,-1.255691,-3.641677,-5.069351,-0.35140514,0.095915794
-31.990715,-81.64778,-30.986,6.324984,4.702962,-1.9128569,0.6312802,-0.7965297,-0.36492103,-0.35659975,-0.7545749,-0.6588167,0.68294436,0.48818073,0.86173296,-0.4163288,-1.8529005,-1.3108258,2.2998972,1.55123,-0.9414039,0.9269721,-0.38123524,-1.8263977,-1.2479492,2.355628,1.4876333,-0.9873409,-1.4342169,-0.2442593,-0.88879704,-1.2705928,-1.0147847,0.46817678,0.29076147,0.67186356,-0.52924347,1.2181293,-3.4128711,0.22209008,-1.3197943,0.16891098,-0.39710236,0.9469433,0.83481103,-0.059265275,0.20145461,0.50891477,-0.42969024,-0.5867514,-0.7004371,1.0,0.0,0.0,0.0,0.0,0.0,0.0,-1.3218635,0.12924346,-0.66812927,2.9019117,-41.76377,10.779023,-5.0226927,0.10514259,-0.63509345,1.0288
-7.8396378,-45.22022,-7.48823,6.1818047,3.635125,-0.63365036,1.3319625,-0.76418483,-0.50657,0.036596537,-0.77465314,-0.6330457,0.68276113,0.52104783,0.85055363,-0.43189225,-1.822738,-1.3254145,2.2923234,1.5559095,-0.93523616,0.9128997,-0.3867141,-1.8325241,-1.2610985,2.3457022,1.4923216,-0.9843159,-1.3970098,-0.64938724,-0.5233551,-1.328423,-0.98423207,0.4679699,0.3076257,0.63776016,-0.5270233,1.2042048,-3.4094589,0.22186804,-1.4166608,0.16410446,-0.40353394,0.93948936,0.8368248,-0.05162508,0.20535244,0.50486565,-0.50394315,-0.659032,-0.7623454,1.0,0.0,0.0,0.0,0.0,0.0,0.0,-1.2877601,0.12702331,-0.6542048,4.12395,-40.595184,35.741425,-5.3571463,3.3385754,-0.30397773,2.0609617
-4.545086,-31.524118,-3.1102881,7.753775,3.215555,-0.38964897,1.1841879,-0.7335974,-0.6332126,-0.016177777,-0.7809199,-0.59245354,0.6734626,0.50464714,0.83953995,-0.45003536,-1.8341419,-1.3391905,2.2864568,1.5596678,-0.9338512,0.89929265,-0.39581406,-1.8354671,-1.2747227,2.3362265,1.4970003,-0.98114204,-1.3473564,-0.99712527,-0.22032031,-1.3726553,-0.93481433,0.46685213,0.3219541,0.6036911,-0.52480316,1.1893123,-3.4060502,0.22164622,-1.5134305,0.15866089,-0.4105568,0.9314927,0.83817023,-0.044007797,0.20694137,0.50270194,-0.5636587,-0.70950294,-0.81409615,1.0,0.0,0.0,0.0,0.0,0.0,0.0,-1.2536911,0.124803156,-0.6393123,5.324459,-34.862946,29.562838,-4.076433,5.1363826,-0.41022897,1.8408895
-5.0733013,-21.756304,-3.2521558,8.661651,2.727536,-0.544771,0.8220422,-0.6590871,-0.72963357,-0.1287298,-0.7921017,-0.56027776,0.6258364,0.49542764,0.8333839,-0.46877742,-1.84834,-1.3539329,2.2801986,1.559584,-0.93159926,0.8864371,-0.40777266,-1.8366916,-1.288694,2.3272848,1.5016314,-0.97785187,-1.2640717,-1.2624485,-0.09155365,-1.4042267,-0.8803605,0.46084395,0.332449,0.5696564,-0.52259064,1.1734529,-3.4026449,0.22142461,-1.6101034,0.15269852,-0.41807175,0.92296,0.83906376,-0.036316894,0.20665438,0.5019432,-0.61302686,-0.75781345,-0.8682897,1.0,0.0,0.0,0.0,0.0,0.0,0.0,-1.2196563,0.12259063,-0.62345284,8.587861,-26.636839,12.357383,-2.835989,5.497551,-0.92594624,1.3801515
-2.1355238,1.8348265,3.0228124,12.828033,2.0383797,-0.13887852,0.49197972,-0.6478403,-0.74825764,-0.10123532,-0.78949094,-0.5392107,0.6324481,0.48549914,0.82165307,-0.48259842,-1.8468151,-1.3676431,2.2733638,1.5648762,-0.929302,0.8743426,-0.4215194,-1.8373306,-1.3028466,2.3188543,1.5062186,-0.97448254,-1.190608,-1.4123082,-0.055886265,-1.417937,-0.8308436,0.4574791,0.3393018,0.535656,-0.5203781,1.1566275,-3.3992429,0.22120324,-1.7066796,0.14636993,-0.4258499,0.91401106,0.8396773,-0.028562684,0.20508648,0.50206137,-0.64316654,-0.77447593,-0.90583074,1.0,0.0,0.0,0.0,0.0,0.0,0.0,-1.185656,0.12037811,-0.6066275,7.549286,-15.055323,3.1644127,-1.0900736,4.936123,-0.47755837,0.9678602
-6.957234,10.462919,1.369801,15.987303,1.8712633,-0.15133321,0.06361736,-0.6317503,-0.77125156,-0.22123721,-0.7887861,-0.49707702,0.62063247,0.45814306,0.8111676,-0.49864456,-1.8594543,-1.3817252,2.2691467,1.5682818,-0.92866826,0.86286134,-0.43612254,-1.83862,-1.3170391,2.3109274,1.5107695,-0.9710827,-1.1332022,-1.4765803,-0.15418805,-1.4186381,-0.78058255,0.45404595,0.34076047,0.5016899,-0.5181656,1.1388371,-3.3958445,0.22098207,-1.8031592,0.13970566,-0.43380356,0.9047022,0.84024924,-0.020631507,0.2027658,0.5024356,-0.67723125,-0.790711,-0.9415109,1.0,0.0,0.0,0.0,0.0,0.0,0.0,-1.1516899,0.11816558,-0.5888371,5.962467,-6.5067053,-10.112818,0.25231838,4.900348,-0.44016242,0.33069253
-10.147865,20.199257,2.2263703,19.42286,1.8190693,0.09646469,-0.19745249,-0.65111315,-0.770576,-0.25796157,-0.7857735,-0.44697714,0.6193787,0.4440427,0.79775,-0.51318014,-1.8644161,-1.3956165,2.2662296,1.5727074,-0.9266784,0.85166806,-0.45089638,-1.8412178,-1.3311764,2.3035383,1.5152937,-0.96769047,-1.1136255,-1.4778706,-0.2960722,-1.4109181,-0.72519255,0.45180213,0.33921513,0.46775436,-0.5159569,1.1200825,-3.3924494,0.22076114,-1.8995425,0.13267136,-0.4418373,0.8951047,0.8409576,-0.012458825,0.20003717,0.50261325,-0.7159131,-0.7961323,-0.9684276,1.0,0.0,0.0,0.0,0.0,0.0,0.0,-1.1177543,0.11595687,-0.5700825,2.2708893,-0.21116734,-14.484843,1.1139393,5.356264,-0.25197268,-0.017821789
-12.787934,26.084908,3.3637927,22.358343,1.9777197,0.40977174,-0.31811348,-0.6775763,-0.7758013,-0.27329323,-0.7735031,-0.3822397,0.6202216,0.43090475,0.78391045,-0.52847654,-1.8685471,-1.4085267,2.2653143,1.5773159,-0.9246,0.8403899,-0.46548283,-1.8451393,-1.3451668,2.296794,1.5198027,-0.96432686,-1.1311742,-1.4525349,-0.4252767,-1.3940525,-0.65821993,0.45054495,0.3358896,0.43385696,-0.513752,1.1003649,-3.3890576,0.22054042,-1.9958292,0.12516403,-0.4498558,0.8853239,0.8418938,-0.004092005,0.19700715,0.50238055,-0.76296556,-0.79144114,-0.9843822,1.0,0.0,0.0,0.0,0.0,0.0,0.0,-1.0838569,0.11375198,-0.5503649,-1.3535023,2.4435282,-13.268316,2.0359516,6.4944386,-0.11472106,-0.20229816
-16.44195,24.6859,1.4109845,22.51704,2.1079688,0.43414328,-0.39349535,-0.69531167,-0.7778086,-0.3613713,-0.783034,-0.33682397,0.6088912,0.411579,0.77085876,-0.5432637,-1.8812764,-1.4234703,2.2631116,1.5806918,-0.92316896,0.8287799,-0.47978222,-1.8504226,-1.3590466,2.2907438,1.5242888,-0.96101093,-1.169428,-1.4227742,-0.5637391,-1.3847356,-0.5885737,0.44781643,0.33060083,0.39999008,-0.5115471,1.0796851,-3.3856692,0.22031993,-2.0920196,0.117118835,-0.45784378,0.8753532,0.84312004,0.004517975,0.19368589,0.5016113,-0.8198196,-0.78971344,-1.004657,1.0,0.0,0.0,0.0,0.0,0.0,0.0,-1.04999,0.11154708,-0.5296851,-3.3775806,2.8568983,-14.1959305,1.3156414,6.7195177,-0.33379793,-0.4164815
-12.167918,30.762293,6.0388775,22.01712,1.7677927,0.74372363,-0.25975606,-0.70103,-0.7775801,-0.33791625,-0.77514267,-0.36660674,0.6232221,0.41500002,0.7586769,-0.55754024,-1.8842143,-1.4365609,2.2540832,1.586611,-0.91951096,0.81678075,-0.4938308,-1.856633,-1.3728386,2.285163,1.5287615,-0.9577408,-1.2087724,-1.3992597,-0.64121884,-1.3761574,-0.5484059,0.44725174,0.3261785,0.36616135,-0.509346,1.0580442,-3.3822842,0.22009966,-2.1881137,0.10861969,-0.4656868,0.865228,0.8445468,0.013271923,0.19012319,0.50041753,-0.8632106,-0.7700087,-1.0185359,1.0,0.0,0.0,0.0,0.0,0.0,0.0,-1.0161613,0.109346,-0.5080442,-3.535056,2.2497416,-8.09964,1.1887312,3.8211226,-0.06687045,-0.3225565
-12.55234,29.216587,5.3018074,20.90115,1.4895365,0.7225238,-0.26970485,-0.7079143,-0.7775167,-0.42676482,-0.76644367,-0.458339,0.6352265,0.38987118,0.7459893,-0.5715825,-1.8993094,-1.449483,2.239329,1.5922842,-0.9187537,0.80444115,-0.5077201,-1.8636749,-1.3865334,2.279563,1.53324,-0.9545307,-1.2411311,-1.3858504,-0.7261802,-1.3658978,-0.56443745,0.44783255,0.3195279,0.33236313,-0.50714874,1.035443,-3.3789027,0.2198796,-2.2841117,0.09972,-0.47333527,0.8549101,0.846115,0.022156235,0.18649776,0.49881566,-0.9019435,-0.7498345,-1.0396814,1.0,0.0,0.0,0.0,0.0,0.0,0.0,-0.9823631,0.10714874,-0.48544294,-2.8688908,1.2297153,-8.810329,1.368618,-1.8048644,0.009578466,-0.58708787
-14.029388,26.377338,3.690485,19.710072,1.4474905,0.6683167,-0.26934803,-0.7268555,-0.7797203,-0.49608573,-0.7691389,-0.467547,0.63374686,0.37797993,0.7317556,-0.58569217,-1.9132835,-1.4634472,2.2328084,1.5966146,-0.9167327,0.79179066,-0.5215522,-1.8716457,-1.4001576,2.2736769,1.5377203,-0.9513922,-1.2717781,-1.3827713,-0.82182634,-1.3600839,-0.5974747,0.4478937,0.31221247,0.29859924,-0.5049515,1.0118825,-3.3755245,0.21965976,-2.380014,0.090408325,-0.48080063,0.8443209,0.8478125,0.031240188,0.18288554,0.49678057,-0.9431868,-0.7329879,-1.0689901,1.0,0.0,0.0,0.0,0.0,0.0,0.0,-0.9485992,0.10495147,-0.46188253,-2.7043104,0.17957687,-9.860063,0.9551048,-3.5244107,-0.09890795,-0.6685674
-13.94723,27.87031,4.3779716,19.407063,1.3574836,0.77154964,-0.27573636,-0.74730176,-0.7715646,-0.53321964,-0.76222813,-0.49652782,0.6385578,0.3032592,0.7170605,-0.5987087,-1.9249676,-1.4763803,2.224024,1.6015761,-0.9210663,0.7788264,-0.5353576,-1.8805282,-1.4137169,2.267375,1.5422045,-0.94837666,-1.3034432,-1.3802224,-0.9113833,-1.3533468,-0.6415949,0.44829765,0.29821005,0.2648697,-0.5027542,0.9873638,-3.3721497,0.21944015,-2.47582,0.080703735,-0.48807144,0.83343756,0.8496279,0.040534385,0.17932203,0.4943004,-0.9828165,-0.7114041,-1.0984151,1.0,0.0,0.0,0.0,0.0,0.0,0.0,-0.91486967,0.102754205,-0.4373638,-2.8213978,0.12142658,-9.232891,1.0484934,-4.6358347,-0.071406364,-1.3461769
-13.701875,28.641733,5.034609,18.717422,1.4276694,0.85885406,-0.24354208,-0.7675965,-0.7751065,-0.5648401,-0.76773167,-0.4582551,0.6317552,0.23303951,0.7020668,-0.61286825,-1.9370122,-1.4904901,2.2215495,1.60538,-0.9250727,0.76553124,-0.5491687,-1.8902099,-1.4272534,2.26081,1.5466868,-0.94554424,-1.3370456,-1.3819466,-0.98809826,-1.3524796,-0.66239136,0.44783697,0.27846366,0.23117065,-0.5005646,0.9618877,-3.3687782,0.21922074,-2.5715306,0.07058334,-0.49510956,0.82226205,0.85155374,0.05002218,0.17569761,0.49141052,-1.0239766,-0.6873116,-1.127673,1.0,0.0,0.0,0.0,0.0,0.0,0.0,-0.88117063,0.10056457,-0.4118877,-3.028345,-0.3112793,-7.940185,0.46567917,-2.3040056,-0.17455816,-1.8963277
-10.904243,35.422306,9.012703,19.405695,1.2937698,1.1459343,-0.20815992,-0.78341705,-0.75955886,-0.5678951,-0.74893177,-0.48274624,0.64438075,0.18382497,0.6871895,-0.6251246,-1.9469994,-1.5021465,2.2125354,1.6111249,-0.92716175,0.7519061,-0.5629312,-1.9004333,-1.4407135,2.2540503,1.5511786,-0.9429331,-1.3700359,-1.3747232,-1.034481,-1.3426667,-0.6810729,0.44920135,0.25561962,0.19750977,-0.49837494,0.93545526,-3.36541,0.21900158,-2.6671455,0.060123444,-0.50182724,0.8108845,0.8535556,0.059585277,0.1719877,0.4881728,-1.0564954,-0.6502147,-1.1447988,1.0,0.0,0.0,0.0,0.0,0.0,0.0,-0.84750974,0.09837493,-0.38545525,-3.015089,0.6001234,-4.874444,1.3068199,-2.065742,0.06862283,-2.1991074
-13.693038,32.237804,6.602827,19.085758,1.5032525,1.0641372,-0.30413276,-0.7994129,-0.77076226,-0.64949805,-0.74482954,-0.46166632,0.62217635,-0.010068536,0.6719648,-0.6400074,-1.965383,-1.5151964,2.2078836,1.6133962,-0.9439399,0.7379634,-0.5766727,-1.9112918,-1.4540592,2.247222,1.5556628,-0.94067574,-1.4014198,-1.3745062,-1.1036589,-1.3306727,-0.6841254,0.4477342,0.21604125,0.1638794,-0.4961853,0.90806735,-3.3620453,0.21878262,-2.7626646,0.04925537,-0.50821686,0.79929537,0.8556876,0.06923507,0.16811916,0.48450077,-1.0985595,-0.6201254,-1.1672678,1.0,0.0,0.0,0.0,0.0,0.0,0.0,-0.8138794,0.0961853,-0.35806733,-2.852106,-0.12087822,-7.130909,1.5669107,-0.5200982,-0.27866364,-3.866169
-9.120323,42.092575,12.925217,20.719547,1.4144948,1.5027304,-0.23355395,-0.81637514,-0.75141567,-0.59079707,-0.711275,-0.43445998,0.6506954,-0.04362,0.6563259,-0.6518142,-1.9703715,-1.5251868,2.203776,1.6207323,-0.9450377,0.72370976,-0.5903331,-1.9224212,-1.4671513,2.2404852,1.5601584,-0.9388151,-1.4325662,-1.3635837,-1.1167508,-1.3013337,-0.67029893,0.45010173,0.17650427,0.13028717,-0.49399948,0.879725,-3.3586838,0.21856388,-2.8580883,0.038059235,-0.5141792,0.7876533,0.8579277,0.07877129,0.16403863,0.48046485,-1.1284406,-0.5726684,-1.1668452,1.0,0.0,0.0,0.0,0.0,0.0,0.0,-0.78028715,0.093999475,-0.32972497,-2.89917,0.9814501,-1.4789343,3.2059193,1.2231469,0.21568537,-3.8363278
-9.54521,41.488647,12.45132,20.926615,1.3463627,1.4825225,-0.3302376,-0.81758726,-0.7607272,-0.6453756,-0.6783838,-0.5093986,0.6407033,-0.2740483,0.641951,-0.6664058,-1.9869587,-1.5349897,2.1895454,1.6242287,-0.96621996,0.70922154,-0.60393345,-1.93377,-1.4798275,2.2336798,1.5646712,-0.93748665,-1.4536498,-1.3592265,-1.1413205,-1.2554125,-0.68437797,0.45152727,0.11866286,0.096725464,-0.49181747,0.85042906,-3.355326,0.21834537,-2.9534166,0.02658081,-0.51968384,0.7760146,0.8602945,0.088109575,0.15983877,0.47600576,-1.1568106,-0.5275913,-1.1662099,1.0,0.0,0.0,0.0,0.0,0.0,0.0,-0.74672544,0.09181747,-0.30042905,-1.9221783,0.32379627,-2.5864363,4.8673153,-1.5518308,0.11678934,-5.6917086
-10.161232,46.57213,14.64795,24.549942,1.5397019,1.7432325,-0.41794437,-0.8337825,-0.744693,-0.6404211,-0.593524,-0.5148218,0.6275458,-0.30950618,0.6258433,-0.6784028,-1.997812,-1.5391799,2.1821976,1.6274258,-0.96843725,0.6945264,-0.6174356,-1.9452674,-1.491716,2.2267027,1.5691897,-0.9367218,-1.4743637,-1.3476341,-1.1526133,-1.1657453,-0.70295405,0.45203,0.062742725,0.06319809,-0.48963547,0.8201806,-3.3519714,0.21812707,-3.0486495,0.014785767,-0.5247116,0.76453626,0.86283284,0.09710004,0.15562902,0.4710313,-1.1869491,-0.47838885,-1.1449138,1.0,0.0,0.0,0.0,0.0,0.0,0.0,-0.71319807,0.08963546,-0.27018058,-1.9239902,1.0524273,-1.1888742,9.200811,-1.9776821,0.080150366,-5.5130033
-10.530759,52.31484,17.500607,29.58243,1.8794646,2.0444427,-0.52945775,-0.8376522,-0.7354499,-0.6196517,-0.4690406,-0.5138741,0.61588615,-0.37361133,0.61076117,-0.69098055,-2.0072327,-1.5386201,2.1753154,1.6307783,-0.97408295,0.6796643,-0.63079464,-1.9567173,-1.502237,2.2195578,1.5737063,-0.9365082,-1.4898026,-1.3322794,-1.1423395,-1.0133889,-0.71884316,0.45187426,0.007851668,0.029705048,-0.48745346,0.7889805,-3.3486202,0.217909,-3.1437871,0.002670288,-0.52923965,0.7534832,0.8656082,0.105477914,0.15149693,0.46545172,-1.2205687,-0.42713162,-1.0950977,0.0,1.0,0.0,0.0,0.0,0.0,0.0,-0.679705,0.087453455,-0.23898047,-1.4480114,1.4373779,1.0585308,15.414143,-1.6706228,0.09006858,-5.417082
-14.429802,49.352135,14.862259,31.777363,2.2323146,1.9743459,-0.6325062,-0.8412784,-0.74574506,-0.6650444,-0.36779898,-0.53623515,0.61596423,-0.37838155,0.5955365,-0.7053692,-2.0232217,-1.5390168,2.1659343,1.6353027,-0.97434634,0.6647474,-0.6440509,-1.9686478,-1.5111271,2.2122467,1.579466,-0.9365769,-1.481025,-1.3200395,-1.2776954,-0.87518394,-0.75170064,0.8041208,0.0071290997,0.00390625,-0.4868698,0.77092135,-1.2330811,-0.17968757,1.0773817,-0.009990692,-0.5331917,0.74283874,0.86865556,0.11276383,0.14756522,0.45928884,-1.2942008,-0.34943593,-1.0780114,0.0,1.0,0.0,0.0,0.0,0.0,0.0,-0.6539062,0.086869806,-0.22092134,2.8978825,1.8015862,-25.751114,9.013891,-4.6507835,70.57965,4.6676855
74.02447,176.0,110.0,107.2667,0.58471453,10.752943,-1.1553166,-0.79261833,0.26050815,0.7095462,0.7547815,-0.2721976,0.6176616,-0.50235736,0.5854856,-0.6180001,-1.8976932,-1.4356489,2.185027,1.6412321,-0.98681265,0.65452045,-0.65699536,-1.9791864,-1.5088943,2.1992538,1.5950797,-0.9360443,-0.87537706,-1.2853985,-0.96782434,0.5875331,-1.4776161,1.8113781,0.06650554,-0.0079574585,-0.48871994,0.7821722,-1.2318482,-0.1795079,0.97811854,-0.021793365,-0.5349426,0.7363218,0.8716975,0.111005545,0.14845179,0.4536335,-1.1406062,-0.103844844,-0.510189,0.0,1.0,0.0,0.0,0.0,0.0,0.0,-0.6420425,0.088719934,-0.23217219,59.18169,3.6783934,33.077885,145.12796,-71.85292,103.32684,5.3960943
39.59145,165.83139,95.77327,85.0905,3.158675,6.676482,-0.61660224,-0.76631045,-0.60298866,0.58944446,0.7706783,-0.5115527,0.6699755,-0.4167037,0.5778894,-0.7172942,-1.920242,-1.4318265,2.1480985,1.6620772,-0.97771466,0.64609474,-0.669211,-1.9829363,-1.4970821,2.1844146,1.6131785,-0.93565804,-0.8314327,-1.2012216,-0.17507276,1.3786073,-1.4897485,1.8154058,0.030647714,-0.020267487,-0.49051285,0.7912096,-1.2306167,-0.17932841,0.87895465,-0.032505035,-0.53495026,0.73479754,0.87492776,0.10241466,0.15188,0.44826886,-1.045498,0.042737346,-0.038207848,1.0,0.0,0.0,0.0,0.0,0.0,0.0,-0.6297325,0.09051284,-0.24120957,4.4742227,8.124948,79.94727,78.93597,-2.4518251,2.1857023,-3.1652966
23.359879,132.19762,71.00822,55.395535,2.1873841,4.3157477,-0.0557833,-0.7231589,-0.57023764,0.48524225,0.67025524,-0.6731993,0.6475798,0.0656593,0.57377887,-0.72623473,-1.934412,-1.4300566,2.1170948,1.6779364,-0.9290921,0.63710064,-0.68051296,-1.9796499,-1.4807361,2.170163,1.6302321,-0.9353357,-0.9203658,-1.1076005,0.49641648,1.7204463,-1.4077287,1.6723592,0.03396859,-0.032562256,-0.49230576,0.7992561,-1.2293863,-0.1791491,0.7798899,-0.042411804,-0.53367996,0.7366799,0.8781294,0.09032306,0.15588099,0.4432058,-0.9717786,0.16050477,0.25678763,1.0,0.0,0.0,0.0,0.0,0.0,0.0,-0.6174377,0.09230575,-0.24925607,-8.383417,9.055519,67.084724,34.298874,6.9329977,-13.191414,0.67735463
7.19745,101.08424,47.43377,34.82156,1.6641363,2.6127682,0.08530817,-0.7103742,-0.5199921,0.53928566,0.7350186,-0.6735044,0.6091091,0.0462674,0.5660632,-0.7325122,-1.9257213,-1.4072343,2.1028125,1.691143,-0.93070894,0.6268038,-0.69082886,-1.9711946,-1.4631809,2.1571434,1.64555,-0.93498474,-1.0644891,-1.0069834,0.96059984,1.7676125,-1.2693706,1.4876876,0.036172017,-0.044849396,-0.49409866,0.8063127,-1.2281572,-0.17896998,0.6809242,-0.051799774,-0.531456,0.74045175,0.8811555,0.07680733,0.15971227,0.43835777,-0.92929053,0.24922377,0.41014665,1.0,0.0,0.0,0.0,0.0,0.0,0.0,-0.6051506,0.09409866,-0.25631267,-13.916612,9.86352,46.011055,4.845953,13.043809,-17.64431,0.4399605
-8.2717285,59.242294,20.464863,18.80248,1.3938779,0.8698952,0.06668024,-0.70980984,-0.54741335,0.4927968,0.7303907,-0.6729595,0.60509866,0.0014875627,0.55582285,-0.7455702,-1.9219149,-1.3901418,2.0898473,1.7060599,-0.934836,0.6152062,-0.7005001,-1.9601644,-1.4463695,2.1454132,1.659117,-0.9346433,-1.1906316,-0.9540283,1.1490883,1.6525799,-1.1416198,1.3150177,0.033857796,-0.057121277,-0.49588394,0.8123804,-1.2269292,-0.17879103,0.5820574,-0.06106186,-0.52872086,0.7447377,0.8840301,0.06344331,0.16298452,0.43347618,-0.92863894,0.28813556,0.428442,1.0,0.0,0.0,0.0,0.0,0.0,0.0,-0.5928787,0.095883936,-0.26238036,-12.345719,5.2416444,18.407583,-11.436224,12.547708,-16.665602,-0.10528937
-12.033573,35.660454,6.591264,10.764496,1.0702577,-0.2205401,0.022855818,-0.68911326,-0.5467591,0.4802144,0.7346168,-0.67312604,0.6075684,-0.057630997,0.54629487,-0.755176,-1.912143,-1.3729079,2.0781004,1.7198738,-0.94040644,0.602776,-0.7098947,-1.9486574,-1.4310097,2.134713,1.6711333,-0.93437535,-1.2601935,-0.9345494,1.1499974,1.4974524,-1.0461731,1.1654961,0.024547005,-0.069381714,-0.49766922,0.8174601,-1.2257025,-0.17861226,0.48328948,-0.07041168,-0.5258713,0.7486774,0.88681597,0.051122297,0.16564082,0.42837718,-0.94166034,0.29057303,0.37720475,1.0,0.0,0.0,0.0,0.0,0.0,0.0,-0.58061826,0.097669214,-0.2674601,-6.8830967,1.9566894,-0.2292633,-15.4874325,9.5460415,-14.493895,-0.8728433
-10.240574,21.872505,0.65088105,6.9731245,0.9047359,-0.80626255,0.029112808,-0.67534846,-0.5749682,0.48794234,0.71289057,-0.6506545,0.6034655,-0.120046325,0.5352411,-0.76739156,-1.8998631,-1.3597206,2.0696476,1.7314799,-0.94637996,0.59005207,-0.7193952,-1.937776,-1.417107,2.124768,1.6818297,-0.93424755,-1.2765347,-0.9551415,1.0669818,1.3547239,-0.97762746,1.0387222,0.008939352,-0.08163071,-0.4994545,0.82155293,-1.224477,-0.17843367,0.38462037,-0.07992554,-0.5231705,0.7518746,0.8895606,0.040136874,0.16768987,0.42302606,-0.9580514,0.26981926,0.29623258,1.0,0.0,0.0,0.0,0.0,0.0,0.0,-0.56836927,0.09945449,-0.27155292,-1.6523838,-2.0378113,-8.484912,-14.2540455,6.878984,-12.359929,-1.5210264
-4.1914644,17.329817,1.0057563,5.6679816,0.7472105,-1.0201712,0.1129718,-0.64459264,-0.6126093,0.49609086,0.69064015,-0.6433823,0.6062427,-0.07676306,0.5255928,-0.78065616,-1.8881669,-1.348043,2.0604298,1.7424539,-0.94192386,0.57752556,-0.7293516,-1.9278063,-1.4043545,2.1153076,1.6914198,-0.9342361,-1.2448672,-1.0090859,0.97367746,1.2489995,-0.93572044,0.932928,-0.0013205173,-0.09386444,-0.5012398,0.8246598,-1.2232528,-0.17825526,0.28604987,-0.0895462,-0.52075195,0.7542392,0.89225286,0.03039515,0.16915813,0.41754803,-0.96710324,0.23902047,0.21291871,1.0,0.0,0.0,0.0,0.0,0.0,0.0,-0.55613554,0.10123977,-0.2746598,3.1129599,-5.3874135,-9.3832855,-10.543585,4.1460395,-10.36824,-0.9865118
2.1151204,20.960915,5.1145363,6.9747176,0.69444513,-0.9534164,0.14180972,-0.6070258,-0.63782156,0.5011206,0.6875562,-0.63479,0.61075914,-0.09187461,0.516823,-0.79313374,-1.8776942,-1.3355988,2.0518286,1.7524958,-0.94342357,0.5655684,-0.7399393,-1.9185747,-1.3922886,2.1061294,1.7000906,-0.93432385,-1.1794583,-1.0752926,0.9062911,1.1925882,-0.9123446,0.84567374,-0.011057079,-0.106090546,-0.50302124,0.8267817,-1.2220298,-0.17807703,0.18757793,-0.09918976,-0.5186348,0.7558975,0.89487123,0.02158871,0.17011526,0.41206807,-0.9659833,0.20921096,0.14690028,1.0,0.0,0.0,0.0,0.0,0.0,0.0,-0.54390943,0.103021234,-0.27678168,6.4852,-6.634426,-6.7038894,-5.5891037,2.2126794,-8.557999,-0.92526114
9.625607,25.633047,9.771939,6.957563,0.52341765,-0.8985181,0.23648944,-0.54784065,-0.67431396,0.5020792,0.67011446,-0.6284493,0.6080958,-0.04360915,0.5107843,-0.80737066,-1.8683667,-1.3252771,2.0432844,1.7609003,-0.93868476,0.5544905,-0.75124127,-1.9097685,-1.3805679,2.0970962,1.7080004,-0.9344602,-1.0842202,-1.1485863,0.8724025,1.165535,-0.90085405,0.7733609,-0.014352615,-0.11830139,-0.5047989,0.8279196,-1.220808,-0.17789897,0.089204445,-0.10870743,-0.5167961,0.757002,0.89736295,0.013404667,0.17061788,0.4067547,-0.9502872,0.18178125,0.09525493,1.0,0.0,0.0,0.0,0.0,0.0,0.0,-0.5316986,0.10479888,-0.2779196,9.442878,-7.366538,-3.2552242,-2.6533604,0.9400487,-7.0952415,-0.28055722
8.4125,29.640015,11.233627,9.06054,0.6959379,-0.7434528,0.18577486,-0.53296775,-0.694264,0.4822595,0.6534234,-0.60051346,0.59437895,-0.031946678,0.50119376,-0.8206677,-1.8615425,-1.3152256,2.0370448,1.7674383,-0.9376549,0.5442862,-0.76320416,-1.9012026,-1.3690132,2.0882041,1.715275,-0.93460995,-0.99931294,-1.212337,0.85170895,1.1524097,-0.88604474,0.7126762,-0.014966113,-0.1305008,-0.50657654,0.8280665,-1.2195874,-0.1777211,-0.010135896,-0.11810303,-0.5151863,0.75767255,0.8997358,0.0056509064,0.1707051,0.4016257,-0.93849874,0.15981488,0.054522805,1.0,0.0,0.0,0.0,0.0,0.0,0.0,-0.5194992,0.10657653,-0.27806652,8.439886,-6.4208984,-1.9605875,-1.2281895,1.2783766,-5.9217215,0.003692694
14.549515,34.939587,14.717999,7.747058,0.41637108,-0.7518663,0.2729329,-0.45427942,-0.7156669,0.4740044,0.633252,-0.58972454,0.60626227,0.012536254,0.49885824,-0.83477086,-1.8538021,-1.305688,2.0292318,1.7759013,-0.93335634,0.535067,-0.7757192,-1.8927664,-1.3575939,2.0794609,1.7220309,-0.9347282,-0.89640933,-1.2646718,0.8414474,1.1386272,-0.8715217,0.6637651,-0.010656488,-0.14268875,-0.5083542,0.8272208,-1.218368,-0.1775434,-0.10937692,-0.12726974,-0.5137749,0.75798327,0.9019527,-0.001797281,0.17042388,0.39677933,-0.9115816,0.14002237,0.020061549,1.0,0.0,0.0,0.0,0.0,0.0,0.0,-0.5073112,0.10835418,-0.2772208,10.198772,-5.3002596,-0.84650517,-1.3074875,1.1968732,-4.7529817,0.47802386
17.178293,32.85062,13.539495,5.0565934,0.21547051,-0.9596511,0.3363183,-0.38575986,-0.7495036,0.41689196,0.5956309,-0.5615425,0.59560096,0.06883512,0.49649104,-0.85066956,-1.8510772,-1.2980309,2.0233066,1.7815909,-0.9278447,0.52696556,-0.7887426,-1.8846372,-1.3464454,2.070916,1.7283537,-0.9347616,-0.78174007,-1.3151087,0.8043279,1.1070648,-0.8496478,0.62231237,-0.0006771857,-0.15486145,-0.510128,0.82538337,-1.21715,-0.17736588,-0.2085187,-0.13613892,-0.5126114,0.75786304,0.903988,-0.008887489,0.16976027,0.39231113,-0.88064957,0.11296142,-0.025833953,1.0,0.0,0.0,0.0,0.0,0.0,0.0,-0.49513853,0.110128015,-0.27538335,11.327017,-5.119252,-3.4892082,-3.093195,1.9364595,-4.044962,1.034153
18.325396,33.425903,12.949675,4.419152,0.071981296,-1.1023977,0.3129591,-0.31713384,-0.7609358,0.35932693,0.59302837,-0.569416,0.59628236,0.073516145,0.49525216,-0.86483616,-1.8487046,-1.2871426,2.0139744,1.787982,-0.92740995,0.5200743,-0.8021789,-1.8771127,-1.3355888,2.0625389,1.734318,-0.9346948,-0.6588847,-1.3534282,0.7359339,1.0787466,-0.83491653,0.5880694,0.009179821,-0.16702652,-0.51189804,0.8225553,-1.2159331,-0.17718855,-0.30756137,-0.14466858,-0.5117531,0.7572579,0.9058492,-0.015536484,0.16878343,0.38821128,-0.84691846,0.08107357,-0.07543413,1.0,0.0,0.0,0.0,0.0,0.0,0.0,-0.48297346,0.111898035,-0.2725553,12.123275,-3.9140224,-6.5999627,-2.756095,1.2410522,-3.3375263,1.0118086
20.722446,29.55454,10.5131855,0.6305862,-0.23954834,-1.3686609,0.37335315,-0.2438405,-0.7857343,0.2803812,0.52658904,-0.5443181,0.5886275,0.06824417,0.49569026,-0.8807523,-1.8490746,-1.2829299,2.008107,1.7931808,-0.9278704,0.5144581,-0.81598145,-1.870561,-1.3252567,2.054341,1.739979,-0.9345432,-0.5298209,-1.3895268,0.62914777,1.0183071,-0.81547236,0.5586702,0.017162284,-0.17917633,-0.51366806,0.81873757,-1.2147174,-0.17701139,-0.40650502,-0.1528244,-0.51127625,0.7560185,0.9075398,-0.021560652,0.16749762,0.3845142,-0.8078699,0.03949579,-0.14353561,1.0,0.0,0.0,0.0,0.0,0.0,0.0,-0.47082365,0.113668054,-0.26873755,12.69629,-3.6989927,-10.419167,-5.9761524,1.7363667,-2.8998017,0.8130809
7.559084,20.342607,2.2782574,2.9331832,0.20806152,-1.4634883,0.14154182,-0.24031453,-0.8007685,0.12715186,0.5093308,-0.51689726,0.57339764,0.04734747,0.49042666,-0.8960583,-1.8578458,-1.2743236,2.0026515,1.7973188,-0.92980844,0.50983566,-0.83010536,-1.8656439,-1.3155273,2.0463912,1.7453692,-0.9343372,-0.4402466,-1.4203038,0.4462753,0.9580918,-0.7881479,0.532681,0.021874655,-0.1913147,-0.5154381,0.8139311,-1.2135029,-0.1768344,-0.50534976,-0.16083908,-0.51127243,0.7539609,0.909189,-0.026663389,0.16591682,0.38096717,-0.8007328,-0.009056498,-0.23011732,1.0,0.0,0.0,0.0,0.0,0.0,0.0,-0.45868528,0.115438074,-0.2639311,8.813953,-3.1401396,-18.176174,-5.8745384,2.686727,-2.569604,0.51378083
-6.8744397,9.874971,-6.9849358,5.4530582,0.59360296,-1.5809262,-0.13529956,-0.2302203,-0.81018686,-0.07934727,0.4888564,-0.51617736,0.57538337,-0.04697899,0.48681363,-0.91112405,-1.8735785,-1.2666417,1.9947735,1.8029076,-0.9390351,0.50582546,-0.8444839,-1.8632749,-1.3063549,2.0386894,1.7505324,-0.93416363,-0.38822228,-1.4439265,0.16693848,0.9044282,-0.76395357,0.5108926,0.016101241,-0.20344162,-0.5172081,0.80813694,-1.2122897,-0.1766576,-0.6040957,-0.16902924,-0.51179504,0.75086564,0.9109812,-0.030462401,0.16413736,0.37715277,-0.8260466,-0.06505439,-0.33970457,0.0,1.0,0.0,0.0,0.0,0.0,0.0,-0.44655836,0.11720809,-0.25813693,5.1359057,-2.4019003,-27.968603,-5.120766,2.5346994,-2.1770716,-0.51882493
-26.055695,8.0682125,-11.621872,13.94561,1.4375758,-1.2112048,-0.5071955,-0.27514428,-0.80863726,-0.21500601,0.5378819,-0.5266335,0.59161276,-0.102361515,0.47831103,-0.9253476,-1.8847755,-1.2525667,1.986026,1.8096937,-0.9443998,0.5018725,-0.8590074,-1.8639139,-1.2973255,2.0311477,1.7555182,-0.934094,-0.39731708,-1.4553381,-0.14152265,0.903853,-0.7499675,0.49452117,0.0042170673,-0.21555328,-0.5189705,0.8013561,-1.2110777,-0.17648098,-0.70274293,-0.17778015,-0.5127945,0.746739,0.91310465,-0.03283413,0.16234882,0.3725649,-0.8918446,-0.108442895,-0.44104862,0.0,1.0,0.0,0.0,0.0,0.0,0.0,-0.4344467,0.11897048,-0.25135607,-0.8020103,-1.1806011,-31.037971,0.32292604,1.6051888,-1.6397178,-1.1123602
-44.797474,7.079364,-15.304953,22.309381,2.2796404,-0.78125685,-0.8194393,-0.33472785,-0.8101204,-0.38062394,0.5912853,-0.5267996,0.6015155,-0.073508166,0.4683997,-0.9400195,-1.9019763,-1.238197,1.9784677,1.8156698,-0.9414448,0.49739698,-0.8735872,-1.8677515,-1.2878975,2.0236976,1.7603686,-0.9341169,-0.46332562,-1.4590559,-0.46535107,0.9575646,-0.7425736,0.48194313,-0.0042363633,-0.22765732,-0.5207329,0.7935895,-1.2098669,-0.17630453,-0.8012915,-0.18749237,-0.51410675,0.74167603,0.9157128,-0.033778127,0.16072983,0.36673552,-0.997015,-0.13552359,-0.5324829,0.0,1.0,0.0,0.0,0.0,0.0,0.0,-0.42234266,0.12073287,-0.24358946,-6.317842,-0.43935776,-32.681583,5.8932424,0.9860158,-1.302582,-0.76670766
-27.250925,25.204285,-2.6513174,20.632244,1.7266387,-0.574079,-0.5931869,-0.24662592,-0.80412626,-0.39666975,0.6418327,-0.53512746,0.61762387,-0.07350505,0.4727344,-0.9539998,-1.9074185,-1.2237142,1.9701849,1.8221309,-0.9414674,0.4926553,-0.8881412,-1.874103,-1.2776626,2.0162551,1.7651255,-0.9342151,-0.47707564,-1.4544723,-0.6918964,1.0468082,-0.74477607,0.47322184,-0.011586436,-0.2397461,-0.52249527,0.7848381,-1.2086573,-0.17612827,-0.89974153,-0.19795609,-0.51559067,0.7359752,0.91868526,-0.03368867,0.15938897,0.35982972,-1.0602819,-0.14855617,-0.5874834,0.0,1.0,0.0,0.0,0.0,0.0,0.0,-0.41025388,0.122495264,-0.23483807,-1.1721969,0.34003258,-22.75269,9.340119,-0.1544118,-0.94539523,-0.7025831
-16.760561,32.795834,3.0336838,17.024889,1.230542,-0.5124006,-0.38096413,-0.23792683,-0.80389243,-0.50163126,0.64070696,-0.5197183,0.602214,-0.052467108,0.46886262,-0.9685305,-1.9242661,-1.2135919,1.9642833,1.825347,-0.9394618,0.48795465,-0.9026322,-1.8823925,-1.2666744,2.008807,1.7697556,-0.93434757,-0.46668825,-1.4475739,-0.8786476,1.1138732,-0.7438448,0.45385987,-0.011704557,-0.25221634,-0.523716,0.776493,-1.3072248,-0.027916178,-0.60657036,-0.20883942,-0.5171814,0.72978216,0.9218607,-0.032772645,0.15831769,0.35218495,-1.0955502,-0.15972361,-0.6370234,0.0,1.0,0.0,0.0,0.0,0.0,0.0,-0.39778364,0.12371597,-0.226493,1.2829065,0.59218407,-19.431042,6.370425,0.10973215,-3.1117916,0.39588585
-27.492285,40.402832,4.928698,22.513731,1.5394155,0.02040556,-0.45415622,-0.33131415,-0.77866006,-0.57774794,0.71516544,-0.60390747,0.6285129,0.07428214,0.45482323,-0.9804982,-1.9401673,-1.1951579,1.9484162,1.8326069,-0.92691934,0.48299176,-0.9169468,-1.8922293,-1.2548609,2.0011134,1.774249,-0.9343903,-0.5054601,-1.4266565,-1.0186611,1.2049986,-0.77787066,0.44759598,-0.001965243,-0.265419,-0.5237999,0.7702394,-1.324205,-0.0031700614,-0.6350823,-0.22018051,-0.5187111,0.72325015,0.92518353,-0.031122485,0.15768796,0.34380406,-1.1432214,-0.14490424,-0.66424537,0.0,1.0,0.0,0.0,0.0,0.0,0.0,-0.38458097,0.12379989,-0.2202394,-3.6625028,1.9023657,-13.992286,9.472799,-3.4983993,-0.7164717,0.9286215
-34.3317,47.56676,7.4123354,25.648111,1.7085233,0.4866865,-0.4486336,-0.38890344,-0.76015913,-0.6089205,0.7553007,-0.6531705,0.6401173,0.17296545,0.44410142,-0.9929627,-1.9531214,-1.1793308,1.9357964,1.8382607,-0.91709375,0.4773623,-0.930983,-1.9031055,-1.2421504,1.9929343,1.7787005,-0.9342574,-0.5812591,-1.3968083,-1.110309,1.2944877,-0.8319388,0.44386867,0.018189618,-0.2788124,-0.52358246,0.76385796,-1.3439778,0.029026337,-0.6429364,-0.23201752,-0.5199394,0.71656686,0.9286073,-0.028926015,0.15767145,0.33465135,-1.1944706,-0.10931365,-0.67539966,0.0,1.0,0.0,0.0,0.0,0.0,0.0,-0.37118757,0.12358245,-0.21385795,-7.330823,2.7514458,-9.113884,9.311318,-5.567956,-0.46919584,1.958642
-27.539108,55.143173,12.189121,23.083616,1.3657396,0.64645016,-0.27171326,-0.38941863,-0.74353695,-0.62019324,0.7621714,-0.6679588,0.64817214,0.21042904,0.43842044,-1.0053368,-1.9651248,-1.1659333,1.9261385,1.8435177,-0.9132145,0.471038,-0.94469017,-1.9145429,-1.2287327,1.9842563,1.7831477,-0.9339019,-0.6489253,-1.3628576,-1.1544074,1.3584509,-0.8810269,0.44455573,0.04106039,-0.29214478,-0.5230942,0.75745463,-1.3303953,0.055104706,-0.64313406,-0.24422073,-0.5207634,0.7098463,0.93203175,-0.026336333,0.15825592,0.32492793,-1.2254298,-0.06569673,-0.67669934,0.0,1.0,0.0,0.0,0.0,0.0,0.0,-0.3578552,0.12309417,-0.20745462,-6.5905213,3.147626,-4.2581797,6.668186,-5.2027345,-0.03337264,2.1895983
-18.086077,59.43522,15.856958,18.927666,0.98575974,0.6432331,-0.08529817,-0.39451283,-0.733608,-0.62206334,0.7630752,-0.6677789,0.6478013,0.21044533,0.43158674,-1.0180509,-1.9767493,-1.1524252,1.9174783,1.8479278,-0.91285735,0.46418348,-0.95808357,-1.9261552,-1.2149123,1.9751946,1.78761,-0.9333357,-0.69733125,-1.3323635,-1.1626321,1.3906136,-0.91589993,0.44613823,0.061515838,-0.3052864,-0.52236176,0.75107825,-1.3092679,0.07989032,-0.6391672,-0.25657272,-0.5211525,0.7031304,0.9353588,-0.023474732,0.15931496,0.31491506,-1.234624,-0.02257255,-0.6753318,0.0,1.0,0.0,0.0,0.0,0.0,0.0,-0.34471357,0.12236175,-0.20107824,-4.7543287,2.8101683,-0.58579445,3.3949614,-3.8594842,0.0664413,1.9332558
-21.10308,60.367447,16.133247,19.180653,1.1890976,0.8256953,-0.059702136,-0.4651021,-0.72621775,-0.60374516,0.7708678,-0.6611174,0.63041276,0.25917423,0.41767326,-1.0307053,-1.9865297,-1.1378255,1.9090829,1.8506514,-0.9074183,0.45669666,-0.97122425,-1.9376149,-1.2009184,1.9659067,1.7920724,-0.9325499,-0.7655291,-1.3088154,-1.1395444,1.4029508,-0.9347336,0.44564784,0.084111564,-0.31822586,-0.52137375,0.7447362,-1.2892249,0.10564903,-0.6352668,-0.26904678,-0.52106094,0.6964488,0.938564,-0.020432623,0.16068774,0.30472866,-1.2480428,0.027823288,-0.6710345,0.0,1.0,0.0,0.0,0.0,0.0,0.0,-0.33177412,0.12137374,-0.19473618,-6.733072,2.1113157,2.5666714,1.4190674,-2.2875667,-0.17171502,2.1848412
-11.654346,64.799065,19.364048,16.123245,0.8860686,0.72626865,0.06293209,-0.4492457,-0.7052247,-0.59073883,0.7779813,-0.65929836,0.6304035,0.27900758,0.4117721,-1.0417467,-1.9966888,-1.1231203,1.8999768,1.8551128,-0.90464914,0.44873732,-0.98411304,-1.9487351,-1.1868787,1.9565222,1.796532,-0.93154573,-0.8060192,-1.2829837,-1.1017538,1.4047451,-0.9413206,0.44539922,0.10566658,-0.33091736,-0.5201416,0.73847115,-1.2623527,0.12913263,-0.626145,-0.28152084,-0.5205116,0.689841,0.9416057,-0.017296562,0.1622737,0.294528,-1.2427477,0.07316007,-0.6622726,0.0,1.0,0.0,0.0,0.0,0.0,0.0,-0.31908262,0.120141596,-0.18847114,-4.0395617,2.3535967,4.1038036,0.27976036,-1.1150479,-0.13008118,2.0618067
-3.750446,62.82115,19.805916,12.465936,0.6705414,0.5278714,0.16498372,-0.44313246,-0.71302277,-0.57703954,0.76801854,-0.6329257,0.60699123,0.28951702,0.40442407,-1.0554153,-2.006439,-1.1100768,1.8932296,1.8572311,-0.90259403,0.4405648,-0.9968455,-1.9594514,-1.1729136,1.9471986,1.8009741,-0.93034214,-0.82109565,-1.2705873,-1.0604111,1.3939874,-0.9309856,0.44308448,0.1251767,-0.34333038,-0.5187187,0.73223335,-1.2339941,0.1476457,-0.6247499,-0.2938614,-0.5195732,0.68327004,0.9444581,-0.014109706,0.16392033,0.28448156,-1.2270287,0.108242474,-0.6599935,0.0,1.0,0.0,0.0,0.0,0.0,0.0,-0.3066696,0.11871871,-0.18223333,-1.5482664,1.0387897,4.477072,-1.0122061,0.6068945,-0.38412213,1.9075543
2.5590632,64.47745,21.89623,10.597666,0.6014589,0.49036962,0.22723055,-0.445707,-0.71484053,-0.50958794,0.7646134,-0.61686647,0.6056813,0.28628322,0.39599413,-1.0683296,-2.0104103,-1.0964522,1.885512,1.8615422,-0.9017138,0.43235177,-1.0095274,-1.9695262,-1.1590872,1.9380482,1.8053921,-0.9289671,-0.82165176,-1.2679946,-0.9884696,1.3790731,-0.9112373,0.44091645,0.14148746,-0.3554306,-0.5171242,0.72602785,-1.202134,0.16428372,-0.62033427,-0.30596924,-0.5183296,0.6767521,0.94711065,-0.011001738,0.16549072,0.2747239,-1.2021698,0.1394645,-0.6534345,0.0,1.0,0.0,0.0,0.0,0.0,0.0,-0.29456937,0.11712417,-0.17602783,-0.13771057,0.07309914,7.5829744,-1.4685392,1.5105009,-0.34585,1.5971154
9.717062,66.94315,23.572863,8.8037405,0.3493898,0.33570996,0.28401947,-0.41847178,-0.70153326,-0.4917584,0.7699417,-0.63184625,0.6053721,0.3198401,0.3905046,-1.0796808,-2.018702,-1.082093,1.8748636,1.8659294,-0.8969831,0.4243147,-1.0221598,-1.9789028,-1.1453676,1.9290444,1.8097931,-0.9274262,-0.7980896,-1.2624464,-0.919381,1.369625,-0.8983981,0.4394183,0.15811957,-0.36717606,-0.5153847,0.71989715,-1.1653541,0.17793375,-0.61192256,-0.31775284,-0.516819,0.6703151,0.9495465,-0.0080323415,0.16699241,0.26534963,-1.1649284,0.16195829,-0.6447321,0.0,1.0,0.0,0.0,0.0,0.0,0.0,-0.28282392,0.11538467,-0.16989714,2.237463,0.37891865,7.3295236,-0.9661913,0.8092642,-0.27011633,1.6147316
3.520028,65.33732,21.637075,10.747158,0.62018645,0.39509407,0.18979147,-0.44983572,-0.70100635,-0.46229687,0.77025986,-0.6235099,0.5895449,0.31455857,0.37933114,-1.0922605,-2.0251324,-1.0683416,1.8666934,1.8687476,-0.89597034,0.41637918,-1.0347502,-1.9876196,-1.1317015,1.9201528,1.814167,-0.92574036,-0.7923081,-1.258355,-0.8545894,1.3657926,-0.88759977,0.43628332,0.17199439,-0.378582,-0.5135002,0.7138304,-1.1325749,0.19196498,-0.60596025,-0.32923508,-0.51506805,0.6639615,0.95179874,-0.0051896097,0.16844244,0.25627968,-1.1395004,0.1876583,-0.6362437,0.0,1.0,0.0,0.0,0.0,0.0,0.0,-0.27141798,0.11350021,-0.1638304,0.5004525,0.2320528,6.8641186,-0.35500526,0.62772036,-0.42831302,1.3530731
7.139719,66.250496,22.372263,9.753544,0.55020404,0.32227278,0.20523822,-0.4228712,-0.70151985,-0.4155355,0.7663863,-0.61258984,0.5896959,0.3076069,0.37409207,-1.1049023,-2.0291731,-1.0550629,1.8588938,1.8731366,-0.89497966,0.4085806,-1.0473139,-1.9956535,-1.118064,1.9113737,1.8185124,-0.9239381,-0.7759895,-1.2562531,-0.7849028,1.3631227,-0.87630814,0.43351838,0.18283062,-0.38964844,-0.51148987,0.7078304,-1.0978035,0.20410894,-0.59885746,-0.3404312,-0.5130844,0.6577001,0.95388275,-0.0025007383,0.16983165,0.2475046,-1.1091117,0.20885876,-0.6266304,0.0,1.0,0.0,0.0,0.0,0.0,0.0,-0.26035154,0.11148986,-0.15783042,1.5387058,0.039577484,7.372141,-0.25451183,0.6667614,-0.38597584,1.0511547
14.472399,67.388725,24.255796,7.4597044,0.44774616,0.24348736,0.2582896,-0.39128637,-0.7117427,-0.33718008,0.75300545,-0.5767784,0.58860713,0.27323034,0.36945197,-1.1184882,-2.0293715,-1.0427635,1.8536959,1.8773731,-0.8966151,0.40106523,-1.0599139,-2.0027947,-1.1045047,1.9027933,1.822833,-0.92206824,-0.7438066,-1.2618932,-0.68906534,1.3535868,-0.8535577,0.43123385,0.18829831,-0.40034103,-0.50938034,0.70191836,-1.0595629,0.2137477,-0.58938456,-0.35126114,-0.5109329,0.65155685,0.95580286,-9.5180476e-05,0.17106698,0.2391167,-1.0693609,0.22364186,-0.6140317,0.0,1.0,0.0,0.0,0.0,0.0,0.0,-0.24965894,0.109380335,-0.15191835,3.0927777,-0.72352886,10.027838,-0.9778261,1.7779708,-0.3219843,0.52276254
2.879689,59.177456,19.20427,9.203047,0.97398597,0.302036,0.14413537,-0.44307035,-0.74362963,-0.30854967,0.7232179,-0.50088835,0.5464302,0.24784014,0.3567582,-1.1342769,-2.0336497,-1.0321829,1.8527044,1.877476,-0.8972842,0.39359653,-1.0727274,-2.0090241,-1.0911647,1.8946302,1.8270963,-0.9201725,-0.74808156,-1.2883042,-0.59967935,1.3277901,-0.80545586,0.4243475,0.19008629,-0.4107437,-0.5071678,0.6959392,-1.0339417,0.2238642,-0.6018231,-0.36187744,-0.5085869,0.64542717,0.9576345,0.0020302243,0.171932,0.23102258,-1.0551664,0.24503164,-0.6162508,0.0,1.0,0.0,0.0,0.0,0.0,0.0,-0.23925626,0.10716781,-0.14593917,-0.47848225,-2.788663,9.2779045,-2.4977446,4.391873,-0.7925451,0.22078156
12.919839,74.33473,27.420494,9.227179,0.97203183,0.49741963,0.20404652,-0.40761125,-0.7226026,-0.11773476,0.72625613,-0.50201535,0.54639447,0.25347432,0.35283542,-1.1449877,-2.0207977,-1.0185391,1.8444287,1.8817358,-0.8948251,0.38617504,-1.0856974,-2.013701,-1.0780557,1.8869196,1.831295,-0.9182596,-0.74055254,-1.3004531,-0.42187637,1.3052357,-0.7616228,0.4182482,0.19187506,-0.42077637,-0.50483704,0.6900981,-0.99319226,0.2362239,-0.5792938,-0.3722,-0.5059929,0.63952786,0.95937705,0.003549333,0.17239046,0.22330363,-1.0193765,0.26988974,-0.5847475,0.0,1.0,0.0,0.0,0.0,0.0,0.0,-0.22922361,0.10483703,-0.1400981,0.649631,-1.3814449,18.266464,-2.266097,3.801012,-0.684011,0.21520853
-5.6524496,67.451744,21.313528,13.433386,1.5299847,0.6519182,0.023241628,-0.49004048,-0.7443188,-0.1061481,0.69627905,-0.4777851,0.49240956,0.22388469,0.337171,-1.1601293,-2.0243158,-1.0084279,1.8391411,1.880536,-0.89587116,0.37843502,-1.0988352,-2.016787,-1.0652479,1.8796175,1.8353939,-0.9163515,-0.78514266,-1.3185893,-0.26987535,1.2731237,-0.72121125,0.40686467,0.19077145,-0.43050003,-0.5023575,0.6843482,-0.965755,0.25182688,-0.5743442,-0.38237,-0.50304794,0.63384795,0.9610851,0.0044915653,0.17243005,0.21578468,-1.0137116,0.30853868,-0.5659234,0.0,1.0,0.0,0.0,0.0,0.0,0.0,-0.21949995,0.10235748,-0.13434821,-4.455507,-1.9671202,15.517825,-3.0967712,3.5897136,-1.1925817,-0.0269413
-11.6349125,64.50971,17.59322,14.288388,1.3970097,0.5203183,-0.03499665,-0.4944166,-0.73090035,-0.13356991,0.6857371,-0.492559,0.46549538,0.22429225,0.32899335,-1.1719253,-2.030144,-0.9966742,1.8303616,1.8819435,-0.89392227,0.37021768,-1.1120474,-2.018893,-1.0527452,1.8725786,1.8393654,-0.9144577,-0.83380216,-1.322746,-0.19017798,1.24315,-0.69931495,0.3937461,0.1891369,-0.43998337,-0.4997368,0.67856926,-0.94261515,0.2662443,-0.5803742,-0.39253998,-0.49973297,0.628255,0.96277887,0.0051780697,0.17219022,0.20828009,-1.0141407,0.345216,-0.56081414,0.0,1.0,0.0,0.0,0.0,0.0,0.0,-0.21001661,0.09973678,-0.12856925,-4.827833,-0.55663586,8.176747,-2.8352976,1.8574238,-1.3521433,-0.09371936
-20.512646,58.706753,12.235401,15.774894,1.3229182,0.35682833,-0.11721547,-0.5214139,-0.7240257,-0.1932262,0.6864173,-0.49796304,0.43564948,0.2466755,0.31807628,-1.18445,-2.0382156,-0.9841035,1.8227823,1.8829303,-0.8897901,0.3614725,-1.1252253,-2.0209033,-1.0404562,1.86565,1.8431926,-0.91256577,-0.8878393,-1.316616,-0.2041592,1.2250763,-0.69145703,0.37887084,0.1894297,-0.44929504,-0.49697876,0.6725967,-0.9274722,0.27940002,-0.6040975,-0.40280533,-0.49605942,0.62256616,0.9644622,0.0060406104,0.17185743,0.20060195,-1.0271982,0.38025025,-0.5750409,0.0,1.0,0.0,0.0,0.0,0.0,0.0,-0.20070493,0.096978754,-0.12259668,-5.3266406,0.4852295,-1.3134301,-1.5766144,0.59320927,-1.5326738,0.0872612
-5.5433207,60.517647,14.772454,11.20488,0.7518727,0.093854606,0.028062213,-0.47121263,-0.72667956,-0.15596612,0.6834936,-0.4904856,0.44239098,0.29326925,0.31435123,-1.1978933,-2.0365,-0.9721068,1.8166015,1.8874316,-0.88323885,0.3525442,-1.1383345,-2.0231316,-1.0282854,1.858773,1.8468932,-0.91063756,-0.89446485,-1.3095369,-0.22843306,1.2151417,-0.68725693,0.3669163,0.19402407,-0.4583969,-0.49412918,0.6664137,-0.90483344,0.28677705,-0.62398505,-0.41303635,-0.49216843,0.61672986,0.9660943,0.007184877,0.17151172,0.1928569,-1.0182531,0.39771375,-0.58985806,0.0,1.0,0.0,0.0,0.0,0.0,0.0,-0.19160306,0.094129175,-0.11641371,-0.6521821,0.5795717,-2.24756,-0.83277225,0.16790628,-1.2495279,0.47706366
-8.403253,55.97035,12.2148,10.971717,0.75727475,-0.0026461482,0.027348582,-0.50525606,-0.73440987,-0.19566381,0.6720367,-0.4659565,0.36129874,0.3488936,0.30201858,-1.2117755,-2.042698,-0.96108174,1.8121773,1.883023,-0.8757482,0.3435291,-1.1514189,-2.0258133,-1.016208,1.8519816,1.8504277,-0.9086225,-0.9037986,-1.30844,-0.28087997,1.205962,-0.67711115,0.34862727,0.20406173,-0.46731186,-0.49121475,0.6599382,-0.8873834,0.292737,-0.65590733,-0.42323303,-0.48812485,0.6106655,0.96767026,0.008727274,0.1711261,0.18507837,-1.016181,0.41322768,-0.61523,0.0,1.0,0.0,0.0,0.0,0.0,0.0,-0.18268812,0.091214746,-0.109938204,-0.910604,-0.012278557,-5.1016865,-0.7308006,0.8054018,-1.9016922,1.0246903
-0.6862469,56.653225,13.45195,8.1143,0.5046145,-0.116598934,0.108329505,-0.48476192,-0.7310562,-0.20725591,0.6531763,-0.43417838,0.32746178,0.34968778,0.29505292,-1.2245245,-2.0465388,-0.9508904,1.8085638,1.883174,-0.8736537,0.33456314,-1.1644938,-2.029014,-1.0042814,1.8453774,1.8537678,-0.9065116,-0.8942669,-1.3076341,-0.33256128,1.1887065,-0.65559226,0.32876864,0.2134072,-0.47602844,-0.48826218,0.65314895,-0.86680937,0.29564402,-0.6875175,-0.43333054,-0.4839859,0.60434246,0.96918315,0.010682964,0.1706341,0.17735216,-1.0034876,0.4203013,-0.6412418,0.0,1.0,0.0,0.0,0.0,0.0,0.0,-0.17397153,0.08826217,-0.10314894,0.94127655,-0.03991127,-4.9797893,-1.5840769,1.9072294,-2.0710409,0.93646646
-2.3564708,48.777878,10.111697,6.5226264,0.47291332,-0.2205658,0.12611252,-0.49422526,-0.75167114,-0.27787572,0.62810946,-0.37482542,0.27337226,0.37735882,0.2851406,-1.2396609,-2.0568018,-0.94147044,1.807895,1.881105,-0.8687757,0.32567108,-1.177664,-2.0329432,-0.9926165,1.8391407,1.8568845,-0.9042965,-0.8875277,-1.3204722,-0.41248897,1.1596014,-0.6137815,0.30558392,0.22421673,-0.48459244,-0.48529816,0.64589703,-0.85328615,0.29677245,-0.7382352,-0.44335556,-0.47978973,0.59763104,0.9706495,0.01313703,0.16989157,0.16971678,-0.99768937,0.42468357,-0.68413335,0.0,1.0,0.0,0.0,0.0,0.0,0.0,-0.16540754,0.08529815,-0.09589702,0.6747484,-1.3913631,-7.8596473,-2.739668,3.997767,-2.4411023,1.1045635
-3.8357992,49.67389,9.574959,6.8747587,0.40483648,-0.2783804,0.14014238,-0.4944058,-0.73830557,-0.34289837,0.6229515,-0.3730212,0.13566265,0.4494558,0.27623048,-1.2514946,-2.067233,-0.93032134,1.8018385,1.8704507,-0.8593509,0.31683242,-1.190901,-2.037841,-0.98122764,1.8332849,1.8596863,-0.9019308,-0.8825872,-1.325346,-0.51490015,1.1326066,-0.5766202,0.27115232,0.24066824,-0.49302673,-0.4823265,0.63812476,-0.8400568,0.297222,-0.7898135,-0.45333862,-0.47556686,0.590482,0.97206587,0.016238973,0.16889511,0.16216822,-0.99223715,0.4279733,-0.7282273,0.0,1.0,0.0,0.0,0.0,0.0,0.0,-0.15697324,0.0823265,-0.08812475,0.49860477,-0.60002804,-10.110903,-2.5256157,3.5331607,-3.5853863,1.6507
-5.9381995,48.217308,8.674139,6.7174873,0.5239989,-0.2930799,0.14333078,-0.50400996,-0.7468664,-0.39185408,0.59023863,-0.28425553,-0.021080391,0.49057254,0.26643142,-1.2655877,-2.0770266,-0.9222038,1.8048593,1.8575782,-0.85287356,0.30797946,-1.2042029,-2.0437996,-0.9701926,1.8279862,1.8620476,-0.8993809,-0.88617885,-1.3322452,-0.622307,1.0944909,-0.51498586,0.22376241,0.25980484,-0.5013542,-0.47935104,0.62979627,-0.8300086,0.29780307,-0.84716964,-0.46329117,-0.47129822,0.5828693,0.973447,0.020051569,0.16752706,0.15470433,-0.9917202,0.43320438,-0.7752221,0.0,1.0,0.0,0.0,0.0,0.0,0.0,-0.14864576,0.07935104,-0.079796255,-0.34759045,-0.8027792,-10.619211,-3.6293983,5.978024,-4.919094,1.9304514
-6.1834803,50.825474,9.316333,6.9845715,0.5576733,-0.28401738,0.14923365,-0.50471175,-0.74041086,-0.44702446,0.572008,-0.24181423,-0.16918865,0.5313313,0.25750828,-1.278244,-2.0885022,-0.9129918,1.8038049,1.8451287,-0.8462478,0.29907262,-1.2175276,-2.050834,-0.95955235,1.8233509,1.8638539,-0.8966257,-0.89212245,-1.3328358,-0.73013085,1.0544764,-0.4472382,0.1656158,0.28083315,-0.5095711,-0.47636795,0.62091935,-0.8190146,0.2983532,-0.90112555,-0.47323608,-0.46695328,0.574816,0.9747953,0.024596866,0.16572082,0.14732821,-0.9904998,0.4394119,-0.8181355,0.0,1.0,0.0,0.0,0.0,0.0,0.0,-0.1404289,0.076367944,-0.070919335,-0.5877018,-0.17807484,-10.634637,-3.834319,6.5579357,-6.0218124,2.1095812
-3.2397776,55.183193,12.088804,6.1896935,0.7677919,-0.12786323,0.17948703,-0.5175973,-0.7489755,-0.41281873,0.5173142,-0.13801251,-0.29873595,0.5463274,0.24731289,-1.2924252,-2.0921159,-0.90782094,1.8095497,1.8339803,-0.841993,0.29004893,-1.230881,-2.0585053,-0.94947857,1.8195868,1.8650253,-0.8936665,-0.905842,-1.336493,-0.7791112,0.99210095,-0.35379598,0.10019456,0.30107138,-0.5176544,-0.4733734,0.61157465,-0.8045295,0.2996563,-0.9446852,-0.48314285,-0.46253204,0.56642705,0.9761268,0.02964718,0.16329835,0.1401106,-0.98514163,0.4500856,-0.8484933,0.0,1.0,0.0,0.0,0.0,0.0,0.0,-0.13234556,0.07337341,-0.061574638,-1.3895512,-0.48348904,-4.684198,-6.117964,9.04895,-6.769213,2.0452023
1.9012654,58.286625,14.598352,4.3836784,0.91419864,-0.010859489,0.21698673,-0.52234256,-0.7545164,-0.3955467,0.45210916,0.0033897008,-0.3870901,0.5429606,0.23781466,-1.3063326,-2.09806,-0.90426767,1.8199257,1.8263162,-0.8393704,0.28087887,-1.2442896,-2.066306,-0.9402335,1.8170422,1.8655326,-0.89052707,-0.92088264,-1.3426912,-0.779553,0.9022285,-0.22227089,0.033425514,0.31832945,-0.5255661,-0.47036743,0.6018554,-0.78674996,0.30066785,-0.98021543,-0.49295807,-0.45799255,0.5578031,0.977472,0.03488045,0.16000724,0.13315178,-0.9742831,0.46209794,-0.8696134,0.0,1.0,0.0,0.0,0.0,0.0,0.0,-0.124433875,0.070367426,-0.051855385,-1.5473127,-0.7258892,0.20542145,-8.919287,12.821993,-6.9095216,1.7689943
7.835272,67.48542,19.089972,4.7970047,1.0226429,0.14933565,0.20190172,-0.5128341,-0.7478569,-0.33897242,0.44326085,0.034045987,-0.39523482,0.546379,0.22959547,-1.3190753,-2.1002033,-0.89590746,1.8204468,1.8260092,-0.83588916,0.2716325,-1.2577212,-2.07368,-0.9317839,1.8157315,1.8654299,-0.88723403,-0.9261459,-1.3436655,-0.7224531,0.82580346,-0.101815365,-0.025428824,0.3330867,-0.53323746,-0.46736145,0.5919604,-0.76056087,0.30069533,-0.9915892,-0.5025978,-0.453331,0.54913014,0.978834,0.039951306,0.15583985,0.12649848,-0.95427597,0.47418535,-0.8691107,0.0,1.0,0.0,0.0,0.0,0.0,0.0,-0.11676252,0.067361444,-0.04196036,-0.5993843,-0.1994133,6.027472,-7.6399684,11.678068,-6.092338,1.5008271
17.639738,77.10556,24.254837,4.723069,1.1133232,0.21088874,0.17957644,-0.4812412,-0.74534607,-0.2535517,0.44316483,0.10951956,-0.40543804,0.5545011,0.22350837,-1.3322558,-2.099035,-0.88746744,1.8266835,1.8248861,-0.8317839,0.26251823,-1.2711356,-2.080054,-0.92388654,1.8156073,1.8648005,-0.8838065,-0.9068275,-1.3410302,-0.6076843,0.77735925,0.016107554,-0.07592033,0.3459855,-0.54058075,-0.46437836,0.58215797,-0.7255505,0.29749537,-0.9760663,-0.5119591,-0.4485855,0.5406396,0.98021215,0.044482913,0.15087366,0.120176874,-0.9247949,0.48028913,-0.84480876,0.0,1.0,0.0,0.0,0.0,0.0,0.0,-0.10941923,0.06437835,-0.032157958,1.8258929,0.16942024,11.859322,-4.9179435,11.415434,-5.218184,1.2886524
23.521885,82.53937,26.605768,4.371871,0.8697854,0.21209219,0.20150054,-0.4620799,-0.7348441,-0.20224182,0.42088985,0.0879518,-0.43351915,0.54884136,0.21631023,-1.34462,-2.1002781,-0.88179755,1.8244025,1.8214486,-0.8289224,0.25370723,-1.2844679,-2.0851543,-0.9163716,1.8163457,1.8637094,-0.8802717,-0.87290484,-1.3309711,-0.47623432,0.7424773,0.09193186,-0.120381914,0.35581565,-0.5475273,-0.4614601,0.5726316,-0.6843801,0.29022995,-0.9450515,-0.52096176,-0.44384384,0.53246456,0.9815806,0.048344675,0.14531095,0.114223056,-0.8850738,0.47800532,-0.8108044,0.0,1.0,0.0,0.0,0.0,0.0,0.0,-0.10247266,0.061460108,-0.022631586,3.2797337,0.91598034,13.540518,-3.5898685,7.220414,-4.5679092,0.947392
40.498077,99.1354,35.397495,3.577172,0.8100352,0.3172933,0.2450834,-0.39870557,-0.7187801,0.024318673,0.43670517,0.086019635,-0.3973964,0.5667047,0.21383667,-1.3563459,-2.0827224,-0.87270105,1.8249476,1.8239698,-0.8236012,0.24549629,-1.2976286,-2.0881488,-0.90899396,1.8176047,1.862256,-0.8766409,-0.8043052,-1.3114496,-0.23855518,0.7354937,0.13576613,-0.15363443,0.36516553,-0.5539398,-0.45866776,0.5637676,-0.627487,0.2758368,-0.867314,-0.52939606,-0.43922424,0.52492815,0.98292154,0.051116902,0.13937174,0.108755134,-0.824699,0.46248648,-0.7369327,0.0,1.0,0.0,0.0,0.0,0.0,0.0,-0.09606016,0.05866775,-0.0137676,6.7095995,1.8598318,24.285217,-0.89871883,3.9528399,-3.369099,0.84313154
42.149902,99.34085,35.988483,2.954908,1.0073912,0.34115297,0.23695262,-0.38769817,-0.7197631,0.13849963,0.38628072,0.2308818,-0.42337456,0.5514133,0.20672646,-1.369605,-2.0742989,-0.87036586,1.8406929,1.8199186,-0.8214996,0.23794518,-1.3106215,-2.0885684,-0.90181875,1.8195524,1.8604994,-0.8729396,-0.73907506,-1.2954899,0.025513263,0.710992,0.212935,-0.18302813,0.37156996,-0.5597992,-0.45602798,0.55571723,-0.57244164,0.26017472,-0.78540164,-0.53726196,-0.43475342,0.5181551,0.9842686,0.052489918,0.13297477,0.103815645,-0.7685423,0.44656163,-0.6596336,0.0,1.0,0.0,0.0,0.0,0.0,0.0,-0.09020078,0.05602798,-0.005717218,6.4091325,1.4950514,26.901525,-2.5921345,7.2971435,-2.966094,0.57100654
37.146214,101.26859,34.450085,5.579916,1.1355314,0.22584227,0.13325311,-0.34688482,-0.6758987,0.14438109,0.4118602,0.33452567,-0.40888005,0.5573021,0.2032567,-1.3782114,-2.0741303,-0.8606327,1.8530049,1.8196114,-0.81720936,0.23108278,-1.3232939,-2.086875,-0.8947283,1.8224692,1.8584983,-0.8691809,-0.66887647,-1.2582299,0.2190061,0.70823634,0.31655586,-0.20583418,0.37716743,-0.5651474,-0.45354462,0.5484844,-0.5228519,0.24446858,-0.70462346,-0.5446396,-0.43043518,0.5121402,0.9856301,0.05255669,0.12616326,0.0992672,-0.7241906,0.4314341,-0.5844661,0.0,1.0,0.0,0.0,0.0,0.0,0.0,-0.084852576,0.05354461,0.0015156269,6.95318,3.6138058,19.786007,-0.32799244,10.009461,-2.29851,0.5026579
41.455708,96.26826,31.718607,1.674828,0.5772735,-0.010752499,0.2635616,-0.29303402,-0.63655436,0.14720161,0.32578608,0.4712992,-0.39839503,0.56500375,0.20177938,-1.3869493,-2.0721548,-0.8621497,1.8695991,1.8186588,-0.81268054,0.22500148,-1.3354551,-2.083911,-0.8880125,1.8266873,1.8563123,-0.86536896,-0.5880726,-1.2022618,0.3237746,0.65942496,0.4558308,-0.2226305,0.38236922,-0.57001877,-0.45124435,0.5419416,-0.4762038,0.22544554,-0.6404096,-0.55152893,-0.42636108,0.5067206,0.9869844,0.05161118,0.11891588,0.09516845,-0.67391497,0.40329233,-0.53002155,0.0,1.0,0.0,0.0,0.0,0.0,0.0,-0.07998121,0.05124435,0.008058429,8.021271,5.4845095,10.833937,-4.8896194,13.661623,-1.6640812,0.47374964
39.87444,94.87626,29.46943,-0.700793,0.07047846,-0.044743717,0.41621,-0.2829396,-0.5748022,0.15951653,0.20388068,0.5503111,-0.41308498,0.5673259,0.19670752,-1.3929353,-2.0679593,-0.86762446,1.8817184,1.8150038,-0.80863637,0.21959534,-1.3468496,-2.080399,-0.8823308,1.8323343,1.8539773,-0.86150944,-0.52497274,-1.1188153,0.36127463,0.537794,0.60035425,-0.2368745,0.38694444,-0.57442856,-0.44914246,0.5359601,-0.4306125,0.20548576,-0.5874019,-0.55784225,-0.42259598,0.5017404,0.98829293,0.049993157,0.11122765,0.09168513,-0.6152517,0.37041813,-0.4898439,0.0,1.0,0.0,0.0,0.0,0.0,0.0,-0.07557142,0.04914245,0.014039934,6.2619567,8.243203,3.9778888,-12.148321,14.306986,-1.34781,0.4257679
48.833263,87.86168,27.355104,-7.987403,-0.9324379,-0.19824077,0.71704483,-0.24180873,-0.533857,0.16145559,0.03545244,0.59928083,-0.42233714,0.5735761,0.19541447,-1.4002353,-2.0642536,-0.87878555,1.8922623,1.8117436,-0.80415183,0.21480769,-1.3573514,-2.0768375,-0.8785553,1.8393072,1.8515185,-0.85760677,-0.46352217,-1.0275126,0.35477346,0.32431352,0.72949654,-0.24834605,0.39139917,-0.57836914,-0.44727325,0.53037226,-0.38285646,0.1808097,-0.552792,-0.5634041,-0.41931152,0.4969878,0.9895069,0.048022963,0.10305639,0.08915867,-0.5346507,0.3180209,-0.4727911,0.0,1.0,0.0,0.0,0.0,0.0,0.0,-0.071630836,0.04727325,0.01962775,6.0982046,9.046578,-0.54162145,-21.327608,12.88954,-0.99425614,0.4429698
43.29767,97.52004,29.322119,-6.4215894,-0.9711295,0.07993421,0.78799915,-0.26146048,-0.44307745,0.22065017,-0.110719204,0.6331959,-0.3996203,0.5685597,0.18866163,-1.4016591,-2.0547726,-0.8896272,1.9026268,1.8115565,-0.8007508,0.21036766,-1.3667146,-2.0732217,-0.87732714,1.8473839,1.8489754,-0.8536671,-0.4374839,-0.9059458,0.36384898,0.055826515,0.8341221,-0.25544435,0.39485282,-0.58181,-0.44564056,0.525241,-0.33237416,0.15772164,-0.50324446,-0.5681076,-0.41648483,0.49251592,0.9905925,0.045787178,0.094482236,0.08776802,-0.4470864,0.272861,-0.44062957,0.0,1.0,0.0,0.0,0.0,0.0,0.0,-0.06818998,0.045640558,0.024758995,2.6046813,12.10829,0.8397937,-26.80839,10.609078,-0.47971606,0.36240816
27.562048,109.53063,30.813057,0.8264741,-0.46286696,0.41222996,0.6432365,-0.28912002,-0.35000122,0.2367834,-0.19809464,0.6461188,-0.3603005,0.56393594,0.18145566,-1.4017147,-2.0495434,-0.8971366,1.9119958,1.8129454,-0.7972735,0.20589924,-1.3746568,-2.069465,-0.878692,1.8562719,1.8463991,-0.849699,-0.4497446,-0.7569161,0.37886694,-0.20026341,0.9081307,-0.25732908,0.39758694,-0.584774,-0.4441948,0.52074087,-0.28494236,0.1403266,-0.4348084,-0.57201385,-0.4139557,0.48853183,0.9915317,0.043308444,0.08574999,0.08738442,-0.37098303,0.24846955,-0.3859885,0.0,1.0,0.0,0.0,0.0,0.0,0.0,-0.06522596,0.044194788,0.029259145,-1.1642456,14.906633,1.2436211,-25.525877,7.766938,0.07186532,0.334692
40.811638,116.28161,35.560272,0.33371747,-0.579827,0.3068161,0.6105857,-0.1918553,-0.30757236,0.33093223,-0.21642348,0.6500068,-0.25501254,0.57807606,0.18671371,-1.405414,-2.0363717,-0.9003343,1.9212725,1.8208978,-0.7918914,0.20167471,-1.3812047,-2.0651395,-0.8820348,1.8656929,1.8438948,-0.8456983,-0.41301998,-0.6207731,0.44923192,-0.37867835,0.95511,-0.24700822,0.40115058,-0.58724594,-0.44295883,0.517096,-0.2354611,0.118162386,-0.34297073,-0.57512283,-0.41176987,0.48525274,0.9923171,0.040360376,0.07709667,0.087943226,-0.2901608,0.20906658,-0.30998713,0.0,1.0,0.0,0.0,0.0,0.0,0.0,-0.062754035,0.042958826,0.03290403,3.768456,13.660264,6.6954136,-17.747408,5.2232504,1.3426512,0.42656064
56.033325,131.40028,42.46582,2.5090637,-0.634463,0.123890325,0.46415654,-0.06969677,-0.21203877,0.3720053,-0.14214048,0.6632713,-0.032781463,0.57673645,0.19470504,-1.4024086,-2.027939,-0.8962488,1.93202,1.8406167,-0.78802466,0.19839956,-1.3863145,-2.0599668,-0.8861347,1.8754675,1.8416655,-0.841667,-0.29861808,-0.47418863,0.53871775,-0.4200657,0.9870585,-0.21351,0.4040578,-0.5892105,-0.4419899,0.51464635,-0.18411605,0.09008925,-0.21351163,-0.57741165,-0.41012192,0.4829973,0.99293965,0.036669027,0.06893045,0.0893017,-0.20785815,0.15138762,-0.19838111,0.0,1.0,0.0,0.0,0.0,0.0,0.0,-0.060789466,0.041989893,0.03535366,11.565685,14.746845,8.564639,-4.0346565,3.8694024,3.7620187,0.358212
