Afshin1997/kuka_rl_ros2/src/catch_and_throw/input_files/idealpd/recorded_trajectories/env_334_data.csv
torque0,torque1,torque2,torque3,torque4,torque5,torque6,action0,action1,action2,action3,action4,action5,action6,set_target_0,set_target_1,set_target_2,set_target_3,set_target_4,set_target_5,set_target_6,joint_pos_0,joint_pos_1,joint_pos_2,joint_pos_3,joint_pos_4,joint_pos_5,joint_pos_6,joint_vel_0,joint_vel_1,joint_vel_2,joint_vel_3,joint_vel_4,joint_vel_5,joint_vel_6,tennisball_pos_0,tennisball_pos_1,tennisball_pos_2,tennisball_lin_vel_0,tennisball_lin_vel_1,tennisball_lin_vel_2,end_effector_pos_0,end_effector_pos_1,end_effector_pos_2,end_effector_rot_0,end_effector_rot_1,end_effector_rot_2,end_effector_rot_3,end_effector_lin_vel_0,end_effector_lin_vel_1,end_effector_lin_vel_2,obs_task_0,obs_task_1,obs_task_2,obs_task_3,obs_task_4,obs_task_5,obs_task_6,to_final_target_0,to_final_target_1,to_final_target_2,joint_acc_0,joint_acc_1,joint_acc_2,joint_acc_3,joint_acc_4,joint_acc_5,joint_acc_6
0.0,0.0,0.0,0.0,0.0,0.0,0.0,0.0,0.0,0.0,0.0,0.0,0.0,0.0,1.7802359,-1.0646509,-1.8151424,-1.1170107,1.9373155,1.1170107,-0.91629785,1.7802359,-1.0646509,-1.8151424,-1.1170107,1.9373155,1.1170107,-0.91629785,0.0,0.0,0.0,0.0,0.0,0.0,0.0,3.2296124,-0.49279022,0.2850321,-3.7448783,0.0802766,4.802382,0.5304146,-0.45449448,0.693097,0.5745483,0.17512383,0.15255436,0.7848268,0.0,0.0,0.0,1.0,0.0,0.0,0.0,0.0,0.0,0.0,-3.8796124,0.092790216,0.26496792,0.0,0.0,0.0,0.0,0.0,0.0,0.0
0.0,0.0,0.0,0.0,0.0,0.0,0.0,0.0,0.0,0.0,0.0,0.0,0.0,0.0,1.7802359,-1.0646509,-1.8151424,-1.1170107,1.9373155,1.1170107,-0.91629785,1.7802359,-1.0646509,-1.8151424,-1.1170107,1.9373155,1.1170107,-0.91629785,0.0,0.0,0.0,0.0,0.0,0.0,0.0,3.2296124,-0.49279022,0.2850321,-3.7448783,0.0802766,4.802382,0.5304146,-0.45449448,0.693097,0.5745483,0.17512383,0.15255436,0.7848268,0.0,0.0,0.0,1.0,0.0,0.0,0.0,0.0,0.0,0.0,-3.8796124,0.092790216,0.26496792,0.0,0.0,0.0,0.0,0.0,0.0,0.0
0.0,0.0,0.0,0.0,0.0,0.0,0.0,0.0,0.0,0.0,0.0,0.0,0.0,0.0,1.7802359,-1.0646509,-1.8151424,-1.1170107,1.9373155,1.1170107,-0.91629785,1.7802359,-1.0646509,-1.8151424,-1.1170107,1.9373155,1.1170107,-0.91629785,0.0,0.0,0.0,0.0,0.0,0.0,0.0,3.2296124,-0.49279022,0.2850321,-3.7448783,0.0802766,4.802382,0.5304146,-0.45449448,0.693097,0.5745483,0.17512383,0.15255436,0.7848268,0.0,0.0,0.0,1.0,0.0,0.0,0.0,0.0,0.0,0.0,-3.8796124,0.092790216,0.26496792,0.0,0.0,0.0,0.0,0.0,0.0,0.0
-176.0,62.595192,-8.935778,110.0,11.2400675,4.5400434,-3.7498658,-0.8225374,0.33051127,-0.5669237,0.72438663,0.38133883,0.62625647,-0.583673,1.6979822,-1.0315998,-1.8718348,-1.044572,1.9754493,1.1796364,-0.97466516,1.778916,-1.062383,-1.821307,-1.1119982,1.9431863,1.1224829,-0.9177932,-0.17568702,0.3016599,-0.82140774,0.66865647,0.7818801,0.7275826,-0.19879687,3.192192,-0.49198914,0.33228347,-3.7411342,0.080196336,4.6993947,0.5282097,-0.45793533,0.693874,0.57839495,0.17372514,0.15073462,0.78266084,-0.2938566,-0.4587623,0.10331976,1.0,0.0,0.0,0.0,0.0,0.0,0.0,-3.8421922,0.09198913,0.21771654,-17.486835,29.9559,-81.97374,66.967445,77.92071,72.13687,-19.688097
-176.0,-18.20107,-40.107933,110.0,11.848021,1.7532697,-3.1690938,-0.8115135,-0.09905726,-0.5582915,0.6864833,0.51198375,0.626259,-0.5991206,1.6977646,-1.0722888,-1.8771361,-1.0433499,1.9943846,1.1851088,-0.9777053,1.7771422,-1.0593694,-1.8363235,-1.0976988,1.9540124,1.1354948,-0.91828245,-0.17905724,0.2931295,-1.710423,1.6849501,1.1731672,1.4684026,-0.0023578478,3.15481,-0.49118805,0.3785057,-3.7373939,0.08011616,4.5965104,0.52334213,-0.46659088,0.6948563,0.5867437,0.17042688,0.14670895,0.77792215,-0.5522077,-0.9991225,0.098994635,1.0,0.0,0.0,0.0,0.0,0.0,0.0,-3.80481,0.09118804,0.1714943,-0.6639421,-3.33156,-83.508156,102.03204,36.17935,66.879295,18.638105
-149.62973,109.85063,28.354733,86.37803,7.369685,7.1909313,-1.8570559,-0.77653414,0.32932642,-0.029135939,0.5620273,0.5158326,0.6642802,-0.56327224,1.6994888,-1.0264368,-1.8392371,-1.041496,2.0055957,1.2019229,-0.9746097,1.7720553,-1.0555395,-1.8518493,-1.079516,1.9659848,1.1499983,-0.91858953,-0.6187671,0.40988654,-1.4934852,1.8637096,1.2005075,1.4374366,-0.04176464,3.117464,-0.49038696,0.4236999,-3.7336574,0.08003606,4.4937286,0.51561546,-0.47800446,0.6973638,0.5978649,0.16570327,0.14159125,0.77139604,-0.8541976,-1.1813388,0.30568746,1.0,0.0,0.0,0.0,0.0,0.0,0.0,-3.7674642,0.09038696,0.12630013,-44.02471,10.710466,23.61598,18.175173,1.2886286,-5.1466227,-4.4393888
-92.237236,122.74279,44.25258,54.142803,4.1760006,7.648533,-0.4552532,-0.7818614,0.24434896,0.06602855,0.5931387,0.5001866,0.64870864,-0.5883194,1.6938691,-1.0311046,-1.8452464,-1.0202022,2.0160034,1.2148691,-0.97742146,1.7626482,-1.051124,-1.8624122,-1.061854,1.9771371,1.1634299,-0.91942686,-1.049555,0.44969323,-0.9026222,1.733963,1.0813514,1.3075079,-0.100250386,3.0801544,-0.48958588,0.46786702,-3.7299247,0.07995604,4.3910494,0.50535965,-0.48992157,0.70187044,0.60994065,0.15964867,0.13572067,0.7642411,-1.0948758,-1.183237,0.5041504,1.0,0.0,0.0,0.0,0.0,0.0,0.0,-3.7301545,0.08958587,0.082132995,-43.496407,3.2411277,61.472298,-12.965369,-13.509703,-14.225578,-6.6228924
-35.260544,128.53513,50.281586,25.87067,1.2226143,6.5362587,0.37372175,-0.79702747,0.32068345,0.05211719,0.54129016,0.57867974,0.6391974,-0.5826578,1.6829455,-1.0190556,-1.8572005,-1.007725,2.035005,1.2273496,-0.97769266,1.7497259,-1.0461534,-1.8670204,-1.0467631,1.9871144,1.1754366,-0.9208631,-1.3747265,0.51112795,-0.30697137,1.4333643,0.96613455,1.1635269,-0.16061239,3.042883,-0.4887848,0.51100814,-3.7261953,0.0798761,4.288473,0.49339867,-0.5009613,0.7080489,0.6217317,0.1525083,0.12936854,0.7572679,-1.2426385,-1.064327,0.65876055,1.0,0.0,0.0,0.0,0.0,0.0,0.0,-3.692883,0.088784784,0.03899187,-33.021904,5.6514206,61.521576,-30.303669,-12.651491,-14.851856,-6.808555
5.0949197,129.43803,50.112896,10.211291,-0.703232,4.9603825,0.5144395,-0.80529684,0.4299183,0.0490317,0.5324979,0.59010535,0.6292343,-0.5935924,1.6691962,-1.0031615,-1.8621172,-0.9935133,2.046125,1.23836,-0.98022234,1.7346522,-1.0402025,-1.8670223,-1.0345846,1.9961743,1.1861311,-0.92285055,-1.5530885,0.6219156,0.10654325,1.1451057,0.8840136,1.0380712,-0.2136456,3.0056496,-0.4879837,0.55312425,-3.7224698,0.07979624,4.1859994,0.48056984,-0.51044846,0.7155143,0.6327705,0.14459264,0.12303865,0.7507036,-1.3065597,-0.8971342,0.7763449,1.0,0.0,0.0,0.0,0.0,0.0,0.0,-3.6556497,0.0879837,-0.003124237,-18.26458,10.742819,42.66216,-29.109526,-8.785618,-12.547755,-5.972865
29.364428,134.84134,50.810104,3.792643,-1.6541977,3.9526997,0.46012405,-0.82299984,0.5464707,0.1216488,0.4895873,0.6376435,0.6124657,-0.583369,1.6523522,-0.9855554,-1.8548574,-0.9856259,2.0599387,1.2473776,-0.98118746,1.7186381,-1.032739,-1.8641307,-1.0248114,2.0048168,1.1957175,-0.9252929,-1.618724,0.78693193,0.35305417,0.9206143,0.85698974,0.9326892,-0.25643283,2.9684544,-0.48718643,0.5942164,-3.718748,0.07971646,4.083628,0.46749115,-0.5181465,0.7240948,0.6430053,0.13608432,0.11712078,0.7445186,-1.3174111,-0.71339774,0.8842192,1.0,0.0,0.0,0.0,0.0,0.0,0.0,-3.6184545,0.087186426,-0.044216394,-6.9168806,16.245878,25.56766,-22.673882,-2.95887,-10.36005,-4.8579397
39.329086,134.44908,49.08453,3.3124819,-1.9109752,3.2094254,0.26512152,-0.81859165,0.6364945,0.17623702,0.48339272,0.628737,0.62607807,-0.57074594,1.636779,-0.96908957,-1.8465071,-0.97647214,2.0676904,1.2583252,-0.9823675,1.7025591,-1.0234579,-1.8597419,-1.0165411,2.0133655,1.2043978,-0.92809194,-1.6053897,0.9745251,0.46970326,0.79520047,0.85390466,0.8472842,-0.28930083,2.9312935,-0.48639297,0.6342856,-3.7150302,0.07963676,3.9813592,0.45449638,-0.524086,0.7337216,0.65259445,0.12704372,0.111853056,0.73855895,-1.3002563,-0.5395958,0.9868244,1.0,0.0,0.0,0.0,0.0,0.0,0.0,-3.5812936,0.08639297,-0.08428562,1.071024,18.565868,12.306863,-12.665582,-0.38568974,-8.337557,-3.7651956
37.815258,118.8691,41.600048,3.6416235,-1.6982932,2.3047905,0.113915846,-0.81389475,0.68054515,0.18273944,0.4607735,0.6415785,0.6338053,-0.5545867,1.6211697,-0.9554034,-1.841468,-0.97046375,2.0775235,1.2677783,-0.9835506,1.6868826,-1.0124887,-1.8549259,-1.0089995,2.0220134,1.2123457,-0.93115515,-1.5554454,1.1373404,0.48705152,0.7401907,0.86850876,0.7778943,-0.31316328,2.8941708,-0.48559952,0.67333287,-3.711316,0.079557136,3.8791928,0.44174957,-0.52851486,0.74415976,0.6617271,0.11762499,0.107298315,0.732645,-1.2710146,-0.39789903,1.0602397,1.0,0.0,0.0,0.0,0.0,0.0,0.0,-3.5441709,0.08559951,-0.12333286,4.8083305,16.15112,2.1675766,-5.5892825,1.4666796,-6.762326,-2.7574837
31.13454,102.383934,34.40881,5.0298886,-1.2649035,1.7020912,0.024922222,-0.80989206,0.7195044,0.19660373,0.4455881,0.6497896,0.64143264,-0.53821105,1.6058934,-0.9405383,-1.8352655,-0.96444064,2.0869923,1.276489,-0.98497623,1.6717459,-1.0001844,-1.85027,-1.0016848,2.030856,1.2196985,-0.93440336,-1.5002568,1.2613117,0.45943028,0.7282259,0.88947207,0.72148204,-0.32974264,2.8570862,-0.48480606,0.71135926,-3.7076054,0.07947759,3.7771285,0.4292698,-0.5317917,0.75514007,0.6705441,0.107988015,0.10337581,0.7266516,-1.2432597,-0.28878435,1.107747,1.0,0.0,0.0,0.0,0.0,0.0,0.0,-3.5070863,0.084806055,-0.16135925,5.380273,12.30967,-2.4529874,-1.2915254,2.1451116,-5.5107236,-1.9607067
25.380978,82.66709,26.597593,4.1399746,-0.96586853,1.0658996,0.036585927,-0.798186,0.7332005,0.18572594,0.41186357,0.65750617,0.6463245,-0.5295915,1.5919273,-0.9268644,-1.8316975,-0.96049845,2.0966065,1.284331,-0.9873625,1.6571108,-0.9870161,-1.8460567,-0.99446017,2.0399082,1.2265688,-0.9377813,-1.4516095,1.3351665,0.40929416,0.72011185,0.9109615,0.67599905,-0.3413777,2.8200378,-0.4840126,0.74836576,-3.7038984,0.07939813,3.6751661,0.41706467,-0.5341797,0.76633906,0.6790924,0.098324776,0.099959746,0.7205371,-1.2149459,-0.20712072,1.1206394,1.0,0.0,0.0,0.0,0.0,0.0,0.0,-3.470038,0.0840126,-0.19836575,4.7490835,7.3387623,-4.7816095,-0.96348524,2.2172093,-4.3986917,-1.4260232
21.326328,67.2082,20.798853,2.3162584,-0.81811184,0.61922073,0.118400276,-0.795069,0.7423879,0.18073927,0.35699213,0.66525334,0.6505177,-0.5244074,1.5776039,-0.9127773,-1.8279828,-0.958761,2.1064334,1.2916206,-0.99022204,1.6428362,-0.97341573,-1.8423297,-0.98751646,2.0491588,1.2330519,-0.9412517,-1.4199114,1.3683332,0.36143017,0.6850435,0.9302205,0.6397917,-0.34972894,2.7830257,-0.48321915,0.78435344,-3.7001953,0.07931875,3.5733058,0.40514755,-0.5358734,0.77744997,0.6873308,0.08882338,0.09692684,0.7143472,-1.1854334,-0.14213403,1.104637,1.0,0.0,0.0,0.0,0.0,0.0,0.0,-3.4330258,0.08321914,-0.23435342,3.0538082,3.3002853,-4.577154,-3.7191749,2.0045161,-3.4187555,-1.0784328
21.952816,58.93088,18.254498,-0.661973,-0.8967593,0.36981902,0.2761504,-0.7900223,0.75010437,0.19592535,0.2806544,0.67589414,0.6463721,-0.5203599,1.563834,-0.8984053,-1.8227372,-0.959451,2.1167483,1.2976891,-0.9932877,1.6287695,-0.95967233,-1.8388908,-0.98126036,2.0585887,1.2392241,-0.9447889,-1.4027288,1.3762708,0.33877197,0.6050126,0.94784963,0.6106461,-0.3558717,2.7460518,-0.4824257,0.8193232,-3.696496,0.07923944,3.4715476,0.39356232,-0.5369301,0.7882679,0.6951383,0.07960684,0.09417193,0.7082211,-1.1498088,-0.07929033,1.0707034,1.0,0.0,0.0,0.0,0.0,0.0,0.0,-3.396052,0.082425684,-0.26932317,1.5911102,0.79653263,-2.0345867,-8.255863,1.8393993,-2.641201,-0.85633993
22.671669,56.484497,17.413628,-2.0139017,-1.0091434,0.24725398,0.34502286,-0.7825346,0.76604766,0.18413705,0.22479552,0.67415124,0.65593976,-0.50804824,1.550516,-0.88306755,-1.8204771,-0.9587808,2.126004,1.304818,-0.99559367,1.6148154,-0.9458879,-1.8356063,-0.97599226,2.0681484,1.245154,-0.948368,-1.3935106,1.3791729,0.32575577,0.49984545,0.9593198,0.5882785,-0.35941446,2.709116,-0.48163223,0.8532762,-3.6928003,0.07916022,3.369891,0.3823719,-0.53735733,0.7986963,0.7024379,0.070727624,0.09167597,0.70226353,-1.1088932,-0.016050542,1.0301117,1.0,0.0,0.0,0.0,0.0,0.0,0.0,-3.359116,0.08163223,-0.30327618,0.791955,0.3052473,-1.0720968,-10.775447,1.232481,-1.9243956,-0.5847335
28.707722,52.852962,16.467894,-7.5019307,-1.5019412,-0.0746865,0.54678726,-0.7831344,0.76759756,0.184897,0.0726883,0.68849105,0.64562166,-0.5036044,1.5365019,-0.86912817,-1.8171166,-0.9687234,2.1369975,1.3097162,-0.99872845,1.6008955,-0.93210447,-1.8323715,-0.9723092,2.07783,1.2508913,-0.95197195,-1.3920412,1.3782243,0.32345104,0.32346955,0.9714707,0.57042754,-0.36150098,2.6722145,-0.48083878,0.88621336,-3.6891081,0.07908107,3.268336,0.37171936,-0.5370636,0.80858433,0.7090701,0.062317286,0.08947758,0.6966562,-1.0487267,0.057046387,0.9715418,1.0,0.0,0.0,0.0,0.0,0.0,0.0,-3.3222146,0.08083877,-0.33621335,0.007224083,-0.060915947,0.014305115,-17.91755,1.2968659,-1.3542652,-0.4262328
35.975056,53.01165,17.083328,-12.3008375,-2.01229,-0.29210702,0.73369575,-0.7785582,0.7740483,0.20568755,-0.07450404,0.68504566,0.65026677,-0.49023446,1.5230397,-0.8546996,-1.8118027,-0.9797596,2.1463346,1.315918,-1.0009954,1.5869814,-0.91830957,-1.8290222,-0.9708205,2.0875957,1.2564837,-0.9555816,-1.3915203,1.3800645,0.33936784,0.089856364,0.9787466,0.55740166,-0.361507,2.6353512,-0.48004532,0.91813576,-3.6854198,0.07900201,3.1668828,0.36182022,-0.53593445,0.81781906,0.7148589,0.05447953,0.08763856,0.6916127,-0.9687606,0.1425147,0.903747,1.0,0.0,0.0,0.0,0.0,0.0,0.0,-3.2853513,0.08004531,-0.36813575,-0.07483959,0.23739338,1.818335,-23.624273,0.8227587,-0.7765174,-0.19475818
42.77447,54.170475,18.024765,-16.00687,-2.4234753,-0.49871078,0.86978817,-0.76703674,0.78123,0.22563903,-0.22263627,0.68957525,0.6459669,-0.5035171,1.5102777,-0.8401866,-1.8064582,-0.99308413,2.1565533,1.3210803,-1.0059333,1.5731188,-0.90446126,-1.8254116,-0.9719439,2.0974262,1.2619673,-0.95919794,-1.3845983,1.3866594,0.36879107,-0.180396,0.98475957,0.54734045,-0.3622011,2.598526,-0.4792595,0.94904435,-3.6817353,0.078923024,3.0655308,0.35284042,-0.5338783,0.82634157,0.71967846,0.047277663,0.08620371,0.6873111,-0.8708752,0.23680192,0.83122617,1.0,0.0,0.0,0.0,0.0,0.0,0.0,-3.248526,0.079259485,-0.39904433,0.60510635,0.7363558,3.0990183,-27.242363,0.73070526,-0.41223764,-0.22389889
43.81835,56.81826,19.30697,-14.705549,-2.3293037,-0.49461126,0.85823107,-0.7494713,0.7863735,0.25496942,-0.3062167,0.69166875,0.64361215,-0.49011356,1.4981717,-0.8258239,-1.7999146,-1.0025656,2.166593,1.3263285,-1.0082093,1.5594107,-0.89052427,-1.8214061,-0.9755812,2.10731,1.2673632,-0.9628095,-1.3663235,1.3963206,0.4112399,-0.4254247,0.9899895,0.53892326,-0.36116162,2.5617352,-0.47847366,0.97894025,-3.678054,0.078844115,2.9642801,0.344841,-0.5308876,0.8342185,0.72353274,0.040656175,0.08514362,0.6838114,-0.77201504,0.32782322,0.76882833,1.0,0.0,0.0,0.0,0.0,0.0,0.0,-3.2117352,0.07847366,-0.42894024,1.7975092,1.0684013,4.271573,-24.655432,0.72540045,-0.26493073,-0.007009506
41.9733,58.072758,20.058132,-12.148428,-2.0611715,-0.4280006,0.8183536,-0.73941123,0.7856034,0.29985246,-0.40108702,0.6938292,0.64285666,-0.47984004,1.4854696,-0.8119639,-1.7914209,-1.01569,2.176693,1.3316488,-1.0107934,1.54592,-0.8765081,-1.8168399,-0.9814263,2.1172397,1.2726847,-0.96640104,-1.3431144,1.4038523,0.47137588,-0.6378091,0.99502194,0.5316505,-0.35875762,2.5249825,-0.47768784,1.0078243,-3.6743767,0.07876529,2.8631306,0.3377781,-0.52703476,0.8415534,0.72648424,0.03451337,0.08437405,0.6811096,-0.6793599,0.41190928,0.71693456,1.0,0.0,0.0,0.0,0.0,0.0,0.0,-3.1749825,0.07768783,-0.4578243,2.3355246,0.8776903,5.9187293,-21.340668,0.7811427,-0.18254519,0.16574264
39.555798,63.9568,22.782887,-7.5107503,-1.6671243,-0.111373685,0.75225085,-0.718596,0.79515105,0.37660706,-0.45144975,0.6897034,0.6337525,-0.45664755,1.4740604,-0.796993,-1.7791792,-1.0265713,2.1862102,1.3360599,-1.0120658,1.5327212,-0.86239374,-1.8114231,-0.9889689,2.1272037,1.2779318,-0.96995157,-1.3119521,1.4145076,0.56428546,-0.7931923,0.9980681,0.5243187,-0.35399,2.488266,-0.476902,1.0356977,-3.6707032,0.07868654,2.762082,0.33154106,-0.5223503,0.8485507,0.7286145,0.02864644,0.08376421,0.6791788,-0.6001302,0.49339765,0.6888016,1.0,0.0,0.0,0.0,0.0,0.0,0.0,-3.138266,0.076902,-0.4856977,3.1656742,1.2161732,9.058571,-15.5923605,0.69869757,-0.22761822,0.42446256
35.249996,63.608257,22.754423,-4.061179,-1.3041651,-0.016135499,0.66998166,-0.70656437,0.7935061,0.42171866,-0.5141899,0.69559145,0.63395137,-0.44526464,1.4620647,-0.78304315,-1.7692512,-1.0403879,2.1967628,1.341327,-1.0144781,1.5198351,-0.8482002,-1.8050182,-0.99777895,2.1372058,1.2831141,-0.97344774,-1.2807069,1.4214994,0.6650002,-0.9103382,1.0026867,0.5177065,-0.34829265,2.4515858,-0.47611618,1.0625614,-3.6670332,0.07860787,2.6611347,0.3260002,-0.51691437,0.8553352,0.7300167,0.022920644,0.08321618,0.67795664,-0.53248036,0.5657502,0.66935915,1.0,0.0,0.0,0.0,0.0,0.0,0.0,-3.1015859,0.076116174,-0.5125614,3.1910896,0.8632183,9.763622,-11.751545,0.90641975,-0.19056797,0.5347371
37.205296,67.43207,24.822079,-2.5002413,-1.2470497,0.063933805,0.6496094,-0.6548525,0.80460733,0.48157883,-0.5440651,0.69576734,0.614775,-0.43016958,1.4543499,-0.7677395,-1.7568603,-1.0521854,2.2067826,1.3445916,-1.0164647,1.5074297,-0.8339094,-1.7975547,-1.0074531,2.1472538,1.2882239,-0.97688,-1.2268955,1.4322262,0.7722595,-0.9864174,1.0071168,0.5103687,-0.34164795,2.4149437,-0.47533035,1.0884163,-3.6633668,0.078529276,2.5602884,0.32113266,-0.5107384,0.86202675,0.7307324,0.017212007,0.082669705,0.6774213,-0.4656576,0.64034474,0.6629831,1.0,0.0,0.0,0.0,0.0,0.0,0.0,-3.0649438,0.07533035,-0.5384163,5.4935694,1.2600422,10.309458,-7.6129913,0.958395,-0.24847984,0.63956976
30.324238,63.741158,23.021194,1.391542,-0.84203994,0.07047056,0.503104,-0.6436033,0.8017394,0.5100331,-0.5509221,0.69233197,0.6108241,-0.4074849,1.4430693,-0.7537354,-1.7465514,-1.0625453,2.216487,1.3493062,-1.0176286,1.4955317,-0.8195461,-1.7891452,-1.0175887,2.1573246,1.2932631,-0.98023504,-1.1771036,1.4384062,0.8626934,-1.0225979,1.0089667,0.5029753,-0.33357868,2.3783379,-0.47454453,1.1132636,-3.6597042,0.07845076,2.4595428,0.31682587,-0.5039177,0.8686776,0.73087764,0.01145829,0.082106955,0.6774547,-0.41271418,0.699978,0.65934366,1.0,0.0,0.0,0.0,0.0,0.0,0.0,-3.028338,0.07454452,-0.5632636,5.08132,0.80673695,8.625102,-3.6411047,0.6872654,-0.31085014,0.7822871
21.032309,58.625195,20.06095,5.424711,-0.42820233,0.050312847,0.32194155,-0.6462178,0.8083501,0.51937735,-0.5604275,0.69393146,0.60765636,-0.38267934,1.4309099,-0.7387111,-1.7372075,-1.0736315,2.2267177,1.3540287,-1.018503,1.4839903,-0.8051151,-1.7800605,-1.0279056,2.1674068,1.2982279,-0.98349756,-1.1462415,1.4452592,0.9225188,-1.0348251,1.0096388,0.49554083,-0.323923,2.3417683,-0.4737587,1.1371042,-3.6560454,0.07837233,2.358898,0.31293106,-0.49663544,0.87527925,0.7306246,0.00567875,0.08156307,0.67786634,-0.37562817,0.7422506,0.65361965,1.0,0.0,0.0,0.0,0.0,0.0,0.0,-2.9917684,0.07375869,-0.58710414,3.1410217,0.8684397,5.62526,-1.2808561,0.5163431,-0.3886819,0.94762444
15.855804,55.733402,18.617859,8.47344,-0.12347376,0.061380044,0.20663376,-0.6233701,0.81026536,0.5449762,-0.5376237,0.69092774,0.6066824,-0.34130982,1.4216533,-0.72408855,-1.7255629,-1.0816679,2.2364995,1.3588961,-1.0176286,1.4727293,-0.79062593,-1.7705047,-1.0381175,2.1774852,1.3031241,-0.9866418,-1.1191112,1.4507824,0.9654759,-1.0169307,1.0082735,0.48855767,-0.31132236,2.305235,-0.47297287,1.1599389,-3.65239,0.07829397,2.2583537,0.30932426,-0.48900604,0.8818453,0.73010457,-0.00014168042,0.08105296,0.67851144,-0.34915638,0.77352095,0.65048885,1.0,0.0,0.0,0.0,0.0,0.0,0.0,-2.955235,0.072972864,-0.6099389,2.7424574,0.7363081,3.9632916,1.7027378,0.29320717,-0.38742423,1.2354851
4.334203,49.066822,14.971165,13.665337,0.47516888,0.11661579,-0.0082348585,-0.6488554,0.8088797,0.54144937,-0.503125,0.6943032,0.611835,-0.32325378,1.4078438,-0.70973796,-1.7163597,-1.08843,2.2469156,1.3643075,-1.0189672,1.4615237,-0.77610624,-1.7607086,-1.0479461,2.1875522,1.3079573,-0.9896564,-1.1212437,1.4529893,0.9835257,-0.97179693,1.007451,0.48226136,-0.29829648,2.2687378,-0.47218704,1.181769,-3.6487384,0.078215696,2.15791,0.30581856,-0.4812355,0.888376,0.72950697,-0.005998434,0.08058416,0.6791831,-0.3447982,0.78312093,0.64672244,1.0,0.0,0.0,0.0,0.0,0.0,0.0,-2.918738,0.07218704,-0.631769,-0.26893616,0.3966093,1.5656114,4.360354,0.2986908,-0.4055202,1.2724578
0.46702003,43.746357,12.463744,14.042946,0.5801552,-0.0045752823,-0.058284447,-0.661441,0.80749047,0.5432559,-0.519069,0.6947979,0.6127646,-0.3078371,1.3953795,-0.6953572,-1.706383,-1.099853,2.257032,1.3692337,-1.0204401,1.4501616,-0.7615875,-1.7508438,-1.0574256,2.1976116,1.3127333,-0.99254125,-1.1414522,1.452148,0.98697346,-0.9405507,1.006401,0.47668812,-0.2853563,2.2322788,-0.47140884,1.2025955,-3.6450906,0.078137495,2.057567,0.30233002,-0.4734192,0.894802,0.7289283,-0.011813699,0.08018876,0.67977476,-0.34372127,0.78415805,0.63397974,1.0,0.0,0.0,0.0,0.0,0.0,0.0,-2.882279,0.07140884,-0.65259546,-2.116108,0.07739067,0.1811862,2.9467106,0.22230148,-0.36623478,1.266861
-0.7639837,40.149784,10.952723,13.724563,0.6003758,-0.12756497,-0.067100674,-0.6703503,0.8051232,0.5419605,-0.51475716,0.6964329,0.60943687,-0.2780907,1.3831265,-0.68107516,-1.6966478,-1.1089014,2.2672548,1.373677,-1.0203503,1.438542,-0.7470964,-1.7410114,-1.0666724,2.207667,1.3174578,-0.99528784,-1.1693406,1.4486563,0.9816562,-0.92015445,1.0060012,0.47150278,-0.2712578,2.1958542,-0.47063065,1.2224193,-3.641446,0.078059375,1.9573239,0.29885674,-0.46564484,0.90105426,0.72839224,-0.017513264,0.079896286,0.6802606,-0.34191874,0.780515,0.6149321,1.0,0.0,0.0,0.0,0.0,0.0,0.0,-2.8458543,0.07063064,-0.67241925,-2.9016495,-0.19783974,-0.64998865,1.8491983,0.25434494,-0.34369826,1.3822615
-1.2612095,39.349525,10.709134,14.28936,0.6318103,-0.1432784,-0.09353413,-0.6811171,0.8071184,0.54091036,-0.4879532,0.6919208,0.6135168,-0.2667395,1.3704304,-0.6663846,-1.6869204,-1.1154678,2.2768593,1.3788095,-1.0219618,1.4266325,-0.7326311,-1.7312534,-1.0756828,2.2177036,1.3221384,-0.997899,-1.1985861,1.446431,0.9734287,-0.89526033,1.0039487,0.46740475,-0.25783804,2.1594677,-0.46985245,1.2412413,-3.6378055,0.07798133,1.857181,0.295393,-0.457901,0.9071247,0.7279233,-0.023089282,0.079723306,0.6806164,-0.3410554,0.77565914,0.5970647,1.0,0.0,0.0,0.0,0.0,0.0,0.0,-2.8094678,0.06985244,-0.6912413,-3.0476332,-0.072431564,-0.9264231,2.2952676,0.08225441,-0.2475977,1.3140976
-0.4230337,38.20121,10.55558,13.785244,0.59494734,-0.19801246,-0.06559176,-0.69517624,0.80231524,0.54455876,-0.48394474,0.69128025,0.6211483,-0.234246,1.3571149,-0.65239954,-1.6767975,-1.1240772,2.2868316,1.3842533,-1.0213236,1.4144331,-0.71820295,-1.7215526,-1.0844852,2.227721,1.3267885,-1.0003659,-1.2275895,1.4421266,0.96873605,-0.8759753,1.0016657,0.46477398,-0.24311739,2.1231155,-0.46907425,1.2590628,-3.6341684,0.07790337,1.7571381,0.29195213,-0.45020294,0.9130056,0.7275091,-0.028540721,0.07966455,0.6808594,-0.33788878,0.77136827,0.57770455,1.0,0.0,0.0,0.0,0.0,0.0,0.0,-2.7731156,0.06907424,-0.70906276,-3.021741,-0.2847433,-0.5613923,1.7374635,0.05042553,-0.102972984,1.4421284
1.7081203,37.502125,10.586868,12.368109,0.4589324,-0.30753183,-0.01368881,-0.70607555,0.80014104,0.5429358,-0.491884,0.69268435,0.61684215,-0.21011274,1.3438256,-0.63818884,-1.667259,-1.1336735,2.2969894,1.3884728,-1.0213771,1.4019686,-0.7038206,-1.7118843,-1.0931941,2.2377193,1.3314139,-1.0026814,-1.2531288,1.4373186,0.9657127,-0.86981016,1.0003582,0.46241474,-0.22786327,2.0868015,-0.46829605,1.2758845,-3.630535,0.07782548,1.6571953,0.28858566,-0.44252777,0.9186673,0.7271074,-0.03383878,0.07972845,0.68103826,-0.32844302,0.7695981,0.5548989,1.0,0.0,0.0,0.0,0.0,0.0,0.0,-2.7368016,0.068296045,-0.7258845,-2.6624918,-0.33955574,-0.38683414,0.43756962,0.13532639,-0.067442656,1.4966339
2.4423127,36.858135,10.496525,12.11533,0.41461444,-0.36663416,-0.012617573,-0.7180449,0.79902315,0.53689235,-0.48190853,0.6875354,0.6178413,-0.20386438,1.3301641,-0.6239183,-1.658195,-1.141385,2.3064728,1.393198,-1.0230678,1.3892676,-0.6894821,-1.7022617,-1.1018497,2.2476947,1.3360201,-1.0048558,-1.2759688,1.433101,0.96097094,-0.8646502,0.9974554,0.46056473,-0.21400529,2.0505238,-0.46751785,1.2917075,-3.6269052,0.07774767,1.5573524,0.28533173,-0.43487167,0.92409706,0.726708,-0.038970552,0.0799259,0.68116707,-0.31660008,0.768199,0.53164274,1.0,0.0,0.0,0.0,0.0,0.0,0.0,-2.7005239,0.06751785,-0.7417075,-2.389288,-0.28157234,-0.5533576,0.34074783,-0.03168583,-0.01885891,1.3571739
3.7823186,36.530323,10.62394,11.336834,0.34128493,-0.43317026,0.026187424,-0.72988373,0.79750687,0.53907377,-0.4901517,0.69367605,0.6199589,-0.1711303,1.3162792,-0.60973144,-1.6483543,-1.1508648,2.3170624,1.398016,-1.0219688,1.3763529,-0.6751808,-1.6926677,-1.1105167,2.2576625,1.3406111,-1.0068833,-1.2968552,1.4295188,0.95878375,-0.86781293,0.9974836,0.4593096,-0.19897309,2.0142822,-0.46673965,1.306533,-3.6232789,0.07766994,1.4576094,0.28222275,-0.42720795,0.9292831,0.7262843,-0.043920815,0.08025764,0.6812787,-0.30103177,0.76853,0.50692517,1.0,0.0,0.0,0.0,0.0,0.0,0.0,-2.6642823,0.06673965,-0.75653297,-2.186656,-0.21982193,-0.2925992,-0.48145056,0.25484562,0.043690205,1.4768183
3.0228443,35.782173,10.4470825,12.371793,0.43134677,-0.42453772,0.0035193413,-0.7415872,0.79586834,0.533635,-0.46869323,0.6895291,0.6222815,-0.123237774,1.3021942,-0.5955939,-1.6393042,-1.157386,2.3266153,1.4028393,-1.019207,1.363238,-0.6609119,-1.6831081,-1.1191283,2.2676227,1.3451945,-1.0087391,-1.3168659,1.4264698,0.95483196,-0.85949475,0.99654,0.45842668,-0.1811583,1.9780769,-0.46596146,1.3203616,-3.6196563,0.07759228,1.3579661,0.2792549,-0.41955566,0.93424535,0.7258433,-0.048711177,0.08071534,0.68136895,-0.28799787,0.76680946,0.4853266,1.0,0.0,0.0,0.0,0.0,0.0,0.0,-2.628077,0.06596145,-0.7703616,-2.1080017,-0.16422272,-0.4660964,0.66046715,0.16185045,0.067561865,1.752761
2.8362083,32.71914,9.276129,11.671533,0.43213594,-0.5410572,0.011702606,-0.7574039,0.7859247,0.52777374,-0.48627475,0.6883039,0.6269051,-0.114841774,1.2874976,-0.58231944,-1.6303307,-1.1677558,2.3364532,1.407885,-1.0202233,1.3499037,-0.64671075,-1.6736076,-1.1277362,2.2775714,1.3497721,-1.0104252,-1.3392824,1.41843,0.9484354,-0.8618083,0.99508697,0.45816955,-0.16458541,1.9419079,-0.46518326,1.3331946,-3.6160374,0.07751471,1.2584224,0.27642822,-0.41194916,0.93895173,0.7253908,-0.053306457,0.081298046,0.68143755,-0.27269477,0.76151794,0.458421,1.0,0.0,0.0,0.0,0.0,0.0,0.0,-2.591908,0.06518325,-0.7831946,-2.3483515,-0.6709099,-0.68912506,-0.40700436,0.08698702,0.12462139,1.6265005
8.306044,36.27281,11.620582,9.573547,0.135629,-0.5950069,0.16483067,-0.7375463,0.7874652,0.5527121,-0.49702823,0.6839061,0.62392336,0.003422782,1.276149,-0.56796426,-1.6183364,-1.177439,2.345962,1.4121644,-1.010083,1.336495,-0.6325735,-1.664046,-1.1364299,2.2874973,1.3543497,-1.0118748,-1.3417094,1.4125543,0.9583144,-0.8723648,0.99232227,0.4580735,-0.13859802,1.9057751,-0.46440887,1.3450329,-3.612422,0.07743721,1.1589782,0.27383614,-0.40429688,0.94340426,0.72480845,-0.057716265,0.082001545,0.6816136,-0.2462766,0.76811117,0.43341368,1.0,0.0,0.0,0.0,0.0,0.0,0.0,-2.5557752,0.06440887,-0.7950329,-0.29258728,-0.4477024,0.8869648,-1.1899948,-0.021219254,0.17527938,2.567625
7.0507183,35.712425,11.586502,10.818272,0.23950016,-0.5332233,0.16068503,-0.75679576,0.7844032,0.55749106,-0.48354298,0.6782828,0.63615733,0.092193365,1.2608155,-0.5541332,-1.608297,-1.1847842,2.3553255,1.4179654,-1.0026555,1.3230292,-0.61849153,-1.6543472,-1.1451675,2.2973812,1.358935,-1.0130154,-1.3486725,1.4071577,0.9733351,-0.87467,0.98772573,0.45912832,-0.106128015,1.8696785,-0.4636383,1.3558775,-3.6088104,0.07735979,1.0596335,0.27147865,-0.39658356,0.94763273,0.7240592,-0.061977707,0.0828179,0.68193704,-0.22423369,0.7738095,0.41189092,1.0,0.0,0.0,0.0,0.0,0.0,0.0,-2.5196786,0.0636383,-0.8058775,-0.7645607,-0.39744377,1.4096379,-0.36925077,-0.19495487,0.274539,3.2166526
6.3565845,32.71793,10.39501,10.508867,0.27806187,-0.6276707,0.17786476,-0.7646902,0.77369165,0.5549347,-0.49853775,0.6729104,0.6361208,0.1818996,1.2465601,-0.5411224,-1.5988537,-1.1950213,2.3646722,1.4225471,-0.9948254,1.3094736,-0.6044973,-1.6445243,-1.1539756,2.307204,1.3635298,-1.0137898,-1.357972,1.397246,0.9847865,-0.883397,0.9814434,0.46010706,-0.068042666,1.8336163,-0.46286774,1.3657295,-3.6052022,0.07728244,0.960388,0.26934433,-0.38884354,0.95161444,0.72313625,-0.06606468,0.0837518,0.6824185,-0.20132983,0.77526075,0.38614136,1.0,0.0,0.0,0.0,0.0,0.0,0.0,-2.4836164,0.06286773,-0.81572944,-0.99885464,-0.8545637,1.0691404,-1.0168314,-0.38163662,0.25923252,3.776291
5.30766,31.128855,10.149525,11.956885,0.41836798,-0.57763624,0.18275122,-0.7623945,0.761255,0.5710821,-0.47207087,0.64634347,0.6394597,0.32520524,1.2332342,-0.5283718,-1.5874162,-1.2011827,2.3718383,1.4274758,-0.98126924,1.2958513,-0.59064615,-1.6345508,-1.162738,2.3168933,1.368136,-1.0141102,-1.3638518,1.3815302,1.0013819,-0.8741574,0.96586543,0.46121335,-0.020069279,1.7975922,-0.46209717,1.3745897,-3.6015978,0.07720517,0.86124176,0.26740646,-0.38111115,0.9553722,0.72202843,-0.070013106,0.084792964,0.68306893,-0.18289807,0.77432096,0.36495903,1.0,0.0,0.0,0.0,0.0,0.0,0.0,-2.4475923,0.062097162,-0.82458967,-0.6587982,-1.4316559,1.5693784,0.76868534,-1.2959003,0.2614379,4.756198
2.4602475,27.505499,8.469315,14.021898,0.67186177,-0.58356285,0.09093522,-0.76470786,0.752033,0.5489471,-0.43932772,0.6356178,0.65618986,0.38472715,1.2193806,-0.51544285,-1.5796561,-1.2066708,2.380455,1.433755,-0.9756375,1.2821814,-0.57697237,-1.6245468,-1.1712352,2.3264072,1.3727633,-1.0139443,-1.3682323,1.3631133,0.99992853,-0.84225506,0.94759905,0.46362048,0.028636673,1.7616024,-0.4613266,1.3824592,-3.597997,0.077127986,0.7621947,0.26560402,-0.37345505,0.9589395,0.7208009,-0.073865324,0.08593025,0.68381715,-0.17136194,0.76416504,0.34663078,1.0,0.0,0.0,0.0,0.0,0.0,0.0,-2.4116025,0.061326593,-0.83245915,-0.5282402,-1.7025709,-0.22293329,3.0077934,-1.5758038,0.36724806,4.8230133
2.1756444,25.761171,7.725305,13.821292,0.65773654,-0.6554704,0.0783252,-0.76945585,0.74294907,0.5483068,-0.44536,0.6155382,0.65189946,0.42598596,1.2052358,-0.50267744,-1.5697161,-1.2157712,2.387961,1.4379532,-0.97134566,1.2684637,-0.56348836,-1.614598,-1.179454,2.3357074,1.3774096,-1.0133072,-1.3732357,1.3439711,0.9929437,-0.8157042,0.9248622,0.46537504,0.07510824,1.7256489,-0.46055603,1.389339,-3.5943997,0.07705087,0.66324663,0.26392555,-0.36590958,0.9623059,0.71948713,-0.077606745,0.08718508,0.68462706,-0.15832801,0.7521866,0.32605246,1.0,0.0,0.0,0.0,0.0,0.0,0.0,-2.375649,0.060556024,-0.83933896,-0.5898237,-1.78051,-0.76197386,2.4747968,-2.0410419,0.2953887,4.600718
1.5739956,22.689533,6.0504827,12.782404,0.6354782,-0.81854826,0.054911148,-0.7783942,0.73350674,0.5244909,-0.4588995,0.60966253,0.6590204,0.4451897,1.1906244,-0.4901377,-1.5621489,-1.225344,2.3966737,1.4433116,-0.96878827,1.2546679,-0.55019414,-1.6048362,-1.1875392,2.344794,1.382075,-1.0122429,-1.3821543,1.325024,0.9703347,-0.80688536,0.90428245,0.46746445,0.116715625,1.6897316,-0.45978546,1.39523,-3.590806,0.07697384,0.5643975,0.2624035,-0.35852432,0.9654093,0.7181204,-0.08115399,0.088598445,0.68546873,-0.14174677,0.7348814,0.29794332,1.0,0.0,0.0,0.0,0.0,0.0,0.0,-2.3397317,0.059785455,-0.84523004,-0.98121166,-1.7721176,-2.2916436,0.7026553,-1.866579,0.3201425,4.1182814
4.116705,23.315619,6.4914794,10.334763,0.39474678,-0.9581746,0.13464177,-0.77751535,0.725696,0.53140795,-0.4914268,0.60257477,0.65375304,0.4700611,1.1769164,-0.47762454,-1.5516955,-1.2366819,2.4050515,1.4474503,-0.9652368,1.2407995,-0.5370754,-1.5952537,-1.1957618,2.3537014,1.3867575,-1.0107933,-1.3885257,1.307774,0.9539872,-0.82782775,0.8866367,0.468876,0.15426843,1.6538506,-0.4590149,1.4001334,-3.587216,0.07689688,0.46564722,0.26112175,-0.3512764,0.96817946,0.7166576,-0.08441483,0.0901964,0.68639684,-0.115459695,0.7222814,0.2631291,1.0,0.0,0.0,0.0,0.0,0.0,0.0,-2.3038507,0.059014887,-0.85013336,-0.69372654,-1.608634,-1.6654968,-2.2419453,-1.5951037,0.2632022,3.719461
5.0007243,24.57959,7.4058647,10.925671,0.38299584,-0.9237819,0.13869521,-0.76790553,0.71949655,0.52798206,-0.46909258,0.5861917,0.6531703,0.5016825,1.164009,-0.46512574,-1.5424556,-1.242671,2.4123206,1.4520745,-0.96062505,1.226935,-0.52410924,-1.5858028,-1.2041217,2.3624256,1.3914515,-1.0089909,-1.3860272,1.2933513,0.9418145,-0.8393775,0.8685704,0.46995002,0.18898806,1.6180058,-0.45824432,1.4040499,-3.5836294,0.07682,0.36699572,0.26011276,-0.3441124,0.97063756,0.7150753,-0.0874093,0.091973655,0.6874356,-0.088995166,0.7130571,0.23318484,1.0,0.0,0.0,0.0,0.0,0.0,0.0,-2.2680058,0.058244318,-0.85404986,0.20573139,-1.3197899,-1.2707353,-1.2921572,-1.6226292,0.22717714,3.4370303
4.4661293,23.554138,6.9680047,11.410803,0.43854368,-0.94481087,0.10453602,-0.76898265,0.7121545,0.5087012,-0.47159436,0.57741594,0.65612924,0.5055042,1.1500368,-0.4528938,-1.5349326,-1.2512811,2.4201672,1.4570644,-0.9584405,1.2131087,-0.51127565,-1.5765178,-1.2125732,2.370982,1.3961569,-1.0068775,-1.3816868,1.2804754,0.9239148,-0.8476906,0.8519544,0.47096932,0.21868269,1.5821953,-0.45747375,1.4069806,-3.5800464,0.07674319,0.26844287,0.25935364,-0.33706665,0.97280157,0.7133977,-0.0901499,0.09392053,0.68856055,-0.06344684,0.7018407,0.20411335,1.0,0.0,0.0,0.0,0.0,0.0,0.0,-2.2321954,0.05747375,-0.8569806,0.3875494,-1.1656284,-1.8387198,-0.9691477,-1.4840603,0.20983815,2.935484
4.044908,22.310778,6.1614623,10.96286,0.43011993,-1.0292597,0.07968513,-0.7743451,0.7100912,0.48641807,-0.49687666,0.57701933,0.65826213,0.5041253,1.1356741,-0.44026652,-1.527876,-1.2622608,2.4286838,1.4619831,-0.956465,1.1992995,-0.49854028,-1.5674808,-1.2211925,2.3794086,1.4008719,-1.0045048,-1.3808786,1.2716004,0.89692926,-0.86694723,0.8400829,0.4719211,0.24333405,1.546423,-0.456707,1.4089266,-3.5764673,0.07666647,0.16998854,0.25886917,-0.33013916,0.9746472,0.7116588,-0.09259066,0.09605087,0.6897412,-0.03610959,0.6880659,0.17155227,1.0,0.0,0.0,0.0,0.0,0.0,0.0,-2.196423,0.056706995,-0.8589266,0.029468536,-0.77044964,-2.7238846,-2.0584464,-1.032424,0.19020438,2.4364233
4.1384664,19.076895,4.693967,9.047436,0.3740567,-1.1971356,0.11228979,-0.7739417,0.6910342,0.47432673,-0.5440458,0.561017,0.65900797,0.50989324,1.1219053,-0.42943686,-1.5200481,-1.2755971,2.4355104,1.4667727,-0.95351547,1.1854903,-0.48594892,-1.5587261,-1.2302009,2.3877017,1.4055945,-1.0019127,-1.3808031,1.2553424,0.86819607,-0.91237146,0.8261559,0.4727352,0.26416957,1.510685,-0.45594406,1.4098887,-3.5728915,0.076589815,0.07163264,0.2586956,-0.3233986,0.97609335,0.7098559,-0.09463011,0.09837674,0.6909932,-0.0034958955,0.6697665,0.1291993,1.0,0.0,0.0,0.0,0.0,0.0,0.0,-2.160685,0.055944055,-0.85988873,-0.009083748,-1.5197992,-2.8986573,-4.6643496,-1.2740374,0.1701951,2.052325
3.2231655,15.834057,3.1059809,8.295021,0.41191673,-1.3032053,0.09755713,-0.77630717,0.6777889,0.45040178,-0.57611704,0.54647446,0.6676414,0.49987823,1.1078595,-0.41817003,-1.513686,-1.2878126,2.4423492,1.4723586,-0.9519249,1.1716696,-0.47355688,-1.550307,-1.2397681,2.3958385,1.4103304,-0.99914896,-1.3826146,1.2341583,0.83322585,-0.971935,0.80975676,0.47411487,0.28032544,1.4749832,-0.45518112,1.409868,-3.5693195,0.07651324,-0.02662493,0.25885963,-0.316864,0.9770695,0.70800614,-0.09618471,0.10090537,0.6923105,0.030283796,0.64557457,0.08074778,1.0,0.0,0.0,0.0,0.0,0.0,0.0,-2.1249833,0.055181116,-0.859868,-0.17881393,-2.0208359,-3.518641,-6.075418,-1.5503407,0.20887852,1.5816033
2.4012184,13.231874,1.5185252,7.427266,0.39390314,-1.4349955,0.06330344,-0.7775295,0.6698247,0.41123062,-0.6204713,0.5225973,0.6684408,0.48192593,1.0939167,-0.4065744,-1.509184,-1.3018153,2.4480982,1.4771745,-0.95095634,1.1578242,-0.46137655,-1.5423458,-1.2500373,2.4037654,1.4150797,-0.9962603,-1.3849643,1.2129471,0.7837141,-1.0455285,0.78718084,0.47524738,0.29156634,1.4393177,-0.45441818,1.4088655,-3.5657508,0.07643674,-0.12478425,0.25938034,-0.31061554,0.977511,0.7061525,-0.097171985,0.10368016,0.69365454,0.06671657,0.6160833,0.025787398,1.0,0.0,0.0,0.0,0.0,0.0,0.0,-2.0893178,0.054418176,-0.85886544,-0.21047592,-2.0323753,-4.9668074,-7.4713945,-2.2048712,0.16040802,1.0868669
1.9639362,10.998684,0.78123903,7.178323,0.45519066,-1.4629564,0.08270431,-0.7739015,0.64645183,0.40073815,-0.6630361,0.5016651,0.6622212,0.49289697,1.080434,-0.39673138,-1.5022719,-1.3163409,2.453932,1.4813018,-0.9469706,1.1439787,-0.44946563,-1.5348403,-1.2610942,2.4114368,1.4198328,-0.99326956,-1.3843123,1.1840607,0.7391341,-1.1260836,0.76053184,0.4754038,0.30143374,1.4036865,-0.45365524,1.406882,-3.5621858,0.07636032,-0.22284544,0.26027298,-0.3046837,0.97738516,0.70429474,-0.0975499,0.106692694,0.6950321,0.1026126,0.58358645,-0.03153023,1.0,0.0,0.0,0.0,0.0,0.0,0.0,-2.0536866,0.053655237,-0.85688204,0.12264252,-2.8039932,-4.499781,-8.159637,-2.620852,0.044041872,0.9440839
0.30462027,7.971055,-0.24971533,8.45601,0.6564577,-1.4080921,0.054664757,-0.7706334,0.6202399,0.3784851,-0.6864546,0.46888807,0.65448785,0.49586725,1.0669154,-0.38744164,-1.4969919,-1.3297397,2.4583256,1.4852816,-0.94368285,1.1301619,-0.4379114,-1.5277679,-1.2728816,2.418784,1.4245802,-0.9901911,-1.3806379,1.1461674,0.6964577,-1.196787,0.72667617,0.47436222,0.30974156,1.3680916,-0.4528923,1.4039187,-3.5586243,0.07628398,-0.3208086,0.26147652,-0.2991066,0.97670346,0.7024494,-0.09733513,0.1099058,0.69642764,0.1324886,0.54617524,-0.08633545,1.0,0.0,0.0,0.0,0.0,0.0,0.0,-2.0180917,0.052892298,-0.85391873,0.43554306,-3.7080288,-4.3303013,-7.182598,-3.339088,-0.101685524,0.77881217
-0.8801255,6.2056665,-0.37786722,10.320141,0.82679534,-1.2611271,0.040142186,-0.763567,0.5906449,0.37035352,-0.7035792,0.418033,0.6581544,0.504485,1.0538052,-0.3788469,-1.4907326,-1.3432395,2.4605873,1.4903957,-0.9397426,1.1164137,-0.42680395,-1.5210407,-1.2852508,2.4256961,1.4293181,-0.98703444,-1.3725535,1.099214,0.6643898,-1.2507073,0.6798698,0.47347546,0.3173862,1.3325329,-0.45212936,1.3999766,-3.5550663,0.076207705,-0.41867378,0.26293373,-0.29390335,0.97551906,0.7006224,-0.09660751,0.11327837,0.6978275,0.15509543,0.50844145,-0.13488512,1.0,0.0,0.0,0.0,0.0,0.0,0.0,-1.9825329,0.052129358,-0.8499766,0.87542534,-4.613161,-3.2957911,-5.5130243,-4.6111584,-0.104123354,0.70387125
-2.9937296,5.3304386,-0.8439591,12.959024,1.1268723,-1.130584,-0.045888633,-0.76956195,0.58183205,0.3323767,-0.7114686,0.43832955,0.65107155,0.4888254,1.0394576,-0.36862075,-1.487803,-1.3563976,2.4695292,1.4944252,-0.9381519,1.1027075,-0.41611373,-1.5146968,-1.2980052,2.4322689,1.4340388,-0.98382246,-1.3697852,1.0592217,0.62418437,-1.2841545,0.6502771,0.47167343,0.32229605,1.2970085,-0.45136642,1.3950566,-3.551512,0.076131515,-0.5164411,0.26454926,-0.28910828,0.9739118,0.6988764,-0.09543125,0.11673935,0.6991684,0.1679803,0.4666849,-0.17484607,1.0,0.0,0.0,0.0,0.0,0.0,0.0,-1.9470085,0.05136642,-0.8450566,0.28660297,-3.9184332,-4.0649176,-3.482318,-2.8886914,-0.22615194,0.43703914
-4.8714957,2.4266262,-2.1009092,14.397266,1.2452759,-1.0645111,-0.10176679,-0.7639221,0.54753923,0.301257,-0.7244123,0.34884068,0.6511013,0.5093465,1.0263153,-0.3613598,-1.4845711,-1.3704464,2.4671528,1.4991488,-0.9328878,1.0890375,-0.40586746,-1.5088108,-1.3110019,2.4383724,1.4387442,-0.9805542,-1.365934,1.0133655,0.57660246,-1.3054242,0.5970088,0.46980932,0.32801846,1.2615204,-0.4506035,1.3891596,-3.5479612,0.0760554,-0.61411077,0.26625633,-0.2847557,0.97192156,0.69726884,-0.093862794,0.12031053,0.7003794,0.17566997,0.4215841,-0.21234418,1.0,0.0,0.0,0.0,0.0,0.0,0.0,-1.9115204,0.05060348,-0.83915955,0.39060116,-4.5116663,-4.803419,-2.2740364,-5.2621126,-0.25377274,0.5033195
-7.832292,-1.8029993,-4.721117,15.783846,1.4280211,-1.0900372,-0.22151482,-0.7593134,0.5233713,0.22809103,-0.72583723,0.27635214,0.64812857,0.50893956,1.0131062,-0.35353032,-1.4860016,-1.3835856,2.4660075,1.5035571,-0.92966026,1.0754172,-0.3960842,-1.5036418,-1.3241187,2.443793,1.4434286,-0.97723734,-1.3606743,0.9668673,0.49689287,-1.3142182,0.52389127,0.46757364,0.33272406,1.2260685,-0.44984055,1.3822867,-3.544414,0.07597936,-0.7116828,0.26800537,-0.28091812,0.9695548,0.6959053,-0.09191458,0.12407724,0.701336,0.17809652,0.366943,-0.24966612,1.0,0.0,0.0,0.0,0.0,0.0,0.0,-1.8760685,0.04984054,-0.83228666,0.5307436,-4.589796,-7.9978228,-1.0384083,-7.283795,-0.32385588,0.3803134
-20.51514,-26.495926,-19.062523,16.427042,2.5038245,-1.5861095,-0.5548263,-0.74929374,0.43372598,0.0054125255,-0.7374774,0.19474459,0.64604586,0.5074086,1.0004878,-0.3527116,-1.5031006,-1.3978665,2.4632676,1.5080333,-0.9264965,1.061894,-0.3870734,-1.5001953,-1.3373157,2.4483287,1.4480845,-0.9738833,-1.3489003,0.879118,0.29368904,-1.3221376,0.42941728,0.46425152,0.33566034,1.1906509,-0.44908142,1.3744386,-3.5408702,0.07590339,-0.8091573,0.2696476,-0.2781105,0.9666565,0.69511724,-0.08935447,0.12805633,0.7017332,0.16233212,0.2490098,-0.30766052,1.0,0.0,0.0,0.0,0.0,0.0,0.0,-1.8406509,0.049081415,-0.82443863,1.3338327,-8.790791,-20.381588,-0.9836912,-9.606016,-0.54320693,0.11796355
-38.785183,-61.433605,-39.606213,16.7998,3.7868764,-2.2592828,-1.0351859,-0.7403259,0.30475733,-0.3043697,-0.7517316,-0.06037017,0.6341468,0.5037528,0.98786145,-0.35659766,-1.5306323,-1.4124888,2.4422917,1.5114992,-0.923508,1.0485331,-0.37942874,-1.5000522,-1.3506252,2.4512851,1.4526926,-0.9705149,-1.3301468,0.7258714,-0.0794575,-1.334443,0.24955314,0.45840007,0.33607647,1.1552677,-0.4483261,1.3656167,-3.5373302,0.07582751,-0.9065343,0.27095032,-0.27711487,0.96293163,0.6954265,-0.08580282,0.13240466,0.7010626,0.121366575,0.04662562,-0.3978398,1.0,0.0,0.0,0.0,0.0,0.0,0.0,-1.8052677,0.048326105,-0.81561667,2.3422241,-15.449846,-37.519573,-1.390481,-18.393152,-0.9621203,-0.28826594
-67.66771,-126.81474,-69.37993,20.006392,6.667059,-2.4522965,-1.2743753,-0.73559976,-0.11220288,-0.4807212,-0.76588726,-0.44238847,0.62949026,0.52190506,0.9749731,-0.39064902,-1.5481243,-1.4272139,2.4070463,1.5156417,-0.9183244,1.0353876,-0.37507713,-1.5040405,-1.364091,2.451472,1.4572321,-0.96714175,-1.3057252,0.33725932,-0.5077507,-1.3503186,-0.059990823,0.45048353,0.33602974,1.1199207,-0.4475708,1.3558217,-3.5337934,0.0757517,-1.0038139,0.27130318,-0.27907944,0.95803756,0.6971955,-0.08094275,0.13678989,0.6990388,0.005976875,-0.2810277,-0.5224485,1.0,0.0,0.0,0.0,0.0,0.0,0.0,-1.7699207,0.047570795,-0.8058217,3.5199165,-39.165825,-43.55664,-1.4999628,-31.529781,-1.3730884,-0.5230665
-66.05388,-126.32576,-64.37493,23.389605,6.9680495,-1.5992142,-0.9430765,-0.706354,-0.2872135,-0.47104228,-0.7433894,-0.5839315,0.6507617,0.52274597,0.96475226,-0.4037985,-1.5511447,-1.43843,2.3930788,1.5223083,-0.91486716,1.0225855,-0.37507522,-1.5114067,-1.3775607,2.4484775,1.4617106,-0.96376383,-1.2678921,-0.113257386,-0.8160367,-1.3444037,-0.38066253,0.44496062,0.33698124,1.08461,-0.4468155,1.3450546,-3.5302603,0.075675964,-1.1009963,0.2703266,-0.2841301,0.9520362,0.70018923,-0.07496457,0.1407588,0.69591826,-0.13628823,-0.5825582,-0.62742364,1.0,0.0,0.0,0.0,0.0,0.0,0.0,-1.73461,0.046815485,-0.7950546,4.940772,-45.389874,-31.723202,1.0581493,-32.51748,-1.179713,-0.32872558
-56.16106,-112.49766,-51.3539,23.555496,6.7297454,-0.6194483,-0.3150698,-0.69260025,-0.53431225,-0.3871513,-0.7735466,-0.6081802,0.6436468,0.5490806,0.9533255,-0.42850643,-1.5501218,-1.4549154,2.3876595,1.5260752,-0.9088558,1.010163,-0.3798722,-1.5203788,-1.3910571,2.4427936,1.4661375,-0.96034396,-1.2302774,-0.6029635,-0.9274939,-1.3489246,-0.63204837,0.43998444,0.343169,1.0493336,-0.44606018,1.3333164,-3.5267308,0.0756003,-1.1980815,0.26787186,-0.29179,0.94513035,0.70378774,-0.06820137,0.14368777,0.6923765,-0.2883328,-0.82768697,-0.71280164,1.0,0.0,0.0,0.0,0.0,0.0,0.0,-1.6993335,0.046060175,-0.78331643,4.7912836,-49.310173,-12.059927,0.30844212,-25.44489,-1.0999799,0.4484713
-21.751087,-49.997448,-12.222812,21.443487,3.9733317,0.9505144,0.6821666,-0.67595154,-0.62869453,-0.046941247,-0.7942734,-0.6092123,0.65207696,0.551398,0.9425678,-0.44274166,-1.5250729,-1.4704845,2.3818724,1.5313452,-0.9052042,0.99807835,-0.38885963,-1.5279739,-1.4047042,2.4352748,1.4705492,-0.95684206,-1.1996144,-0.99801654,-0.7058579,-1.3679446,-0.7920741,0.44082028,0.3532589,1.0140934,-0.44530487,1.3206081,-3.5232048,0.07552472,-1.2950697,0.2642746,-0.30064392,0.93776155,0.70695925,-0.06135806,0.14524119,0.68945545,-0.3908561,-0.90079844,-0.74687266,1.0,0.0,0.0,0.0,0.0,0.0,0.0,-1.6640934,0.045304865,-0.7706081,3.5618544,-39.705883,21.474897,-1.3097048,-16.035807,-0.11060834,1.2060344
13.8770685,13.4561205,23.917807,16.80611,0.77506065,1.7444892,1.4054394,-0.5524412,-0.6708577,0.13687609,-0.79553694,-0.64872366,0.65481544,0.54836243,0.94283426,-0.4559454,-1.5142863,-1.4842579,2.3704026,1.5360308,-0.9020058,0.9867544,-0.4007262,-1.5320594,-1.4185592,2.4266117,1.475001,-0.95323527,-1.1098913,-1.2495589,-0.31078106,-1.3909476,-0.89034617,0.4473486,0.36445674,0.97888756,-0.44454956,1.3069307,-3.5196824,0.075449206,-1.3919609,0.2602501,-0.3091011,0.93037677,0.70879394,-0.05514371,0.14557627,0.68802464,-0.41250888,-0.8207926,-0.7382812,1.0,0.0,0.0,0.0,0.0,0.0,0.0,-1.6288875,0.044549555,-0.75693065,8.983469,-25.166725,39.057148,-2.1213531,-9.628857,0.92844963,1.5227795
30.424088,41.26926,35.29383,11.536309,-0.8178309,1.1296442,1.4420549,-0.3421232,-0.7229997,0.0047490755,-0.7811915,-0.66678435,0.6459312,0.51860154,0.95254207,-0.47302616,-1.5315845,-1.4966784,2.3599331,1.539594,-0.9013751,0.9772072,-0.41424787,-1.5331542,-1.4325515,2.4172962,1.4795157,-0.9495512,-0.9041424,-1.3860563,-0.042860005,-1.4021015,-0.9442739,0.453812,0.3709834,0.94371796,-0.44379425,1.2922851,-3.5161633,0.07537377,-1.4887551,0.25646782,-0.31647873,0.9231073,0.709054,-0.04971316,0.14507821,0.68827564,-0.3716036,-0.70331436,-0.72536296,1.0,0.0,0.0,0.0,0.0,0.0,0.0,-1.5937179,0.043794245,-0.7422851,20.227837,-13.567734,26.707796,-1.1759996,-5.16932,0.98576546,1.0167658
39.986763,47.869568,32.712936,2.6482906,-1.6498945,-0.5315889,1.2847314,0.025730606,-0.7602122,-0.2960054,-0.7766165,-0.6583481,0.63613844,0.49133527,0.97978026,-0.4902691,-1.5627548,-1.5102131,2.3514614,1.5431296,-0.9004177,0.9712105,-0.42855155,-1.5338657,-1.4465858,2.407706,1.4840704,-0.9458424,-0.5014626,-1.4448382,-0.078407206,-1.4045683,-0.96337086,0.45635727,0.37161553,0.9085827,-0.44303894,1.2766722,-3.5126479,0.07529841,-1.5854526,0.25355148,-0.3229065,0.91572404,0.7078937,-0.04465889,0.14413422,0.6900126,-0.26934505,-0.61493015,-0.744292,1.0,0.0,0.0,0.0,0.0,0.0,0.0,-1.5585827,0.043038934,-0.72667223,39.2871,-5.7777166,-2.9026732,-0.45235157,-1.7406821,0.35939217,0.27458072
34.50376,38.178875,20.398092,-0.33025646,-1.3054596,-1.8123504,0.80299556,0.21987759,-0.7712618,-0.5436169,-0.76145923,-0.6604849,0.65143037,0.48273703,0.9931982,-0.50567776,-1.5882274,-1.5227317,2.3416576,1.5492134,-0.8975687,0.9696741,-0.44306362,-1.5368621,-1.4605361,2.3980472,1.4886423,-0.9421488,-0.04166322,-1.4532394,-0.3699801,-1.3923699,-0.96637833,0.45693806,0.3687906,0.87348175,-0.44228363,1.2600932,-3.509136,0.07522313,-1.6820534,0.2517395,-0.328907,0.9079069,0.7057756,-0.039412614,0.14307685,0.6927167,-0.15331206,-0.5873542,-0.79579645,1.0,0.0,0.0,0.0,0.0,0.0,0.0,-1.5234817,0.042283624,-0.7100932,44.797222,-0.8049488,-28.163593,1.0526896,-0.2607584,-0.09623766,-0.20647049
15.80686,20.990292,5.393125,4.4430943,-0.024763167,-2.0324888,0.12822823,0.19277072,-0.7755178,-0.6568491,-0.7555818,-0.6503552,0.6364584,0.40715367,0.9889512,-0.5206154,-1.602547,-1.5360943,2.3330116,1.5522882,-0.90143347,0.97169876,-0.45747936,-1.5434196,-1.4743167,2.3884418,1.493199,-0.93854773,0.28133038,-1.4378468,-0.7486902,-1.3731236,-0.9591522,0.45439067,0.35720894,0.83841705,-0.44153214,1.2425488,-3.5056274,0.07514793,-1.7785578,0.25076675,-0.33506775,0.8994711,0.703384,-0.033555806,0.14209543,0.6956535,-0.07800444,-0.6184091,-0.86196303,1.0,0.0,0.0,0.0,0.0,0.0,0.0,-1.488417,0.04153213,-0.6925488,31.558805,1.4824867,-37.172924,1.9482136,0.6132722,-0.5157769,-1.1564374
7.618904,18.251276,3.2163115,8.270221,0.47922885,-1.5297002,-0.055420376,0.2208817,-0.7758876,-0.65194356,-0.7698546,-0.62068,0.638558,0.40286267,0.99378693,-0.5350681,-1.608614,-1.5513022,2.3263738,1.5570548,-0.8982615,0.97593594,-0.47168958,-1.5531604,-1.4879886,2.379008,1.4977309,-0.93506396,0.47015706,-1.4156967,-1.0482297,-1.3647993,-0.9386471,0.45205027,0.34539822,0.8033867,-0.44078445,1.2240402,-3.5021224,0.075072795,-1.8749657,0.25031662,-0.34155655,0.8904267,0.70104057,-0.027012313,0.14120072,0.69848037,-0.032612786,-0.6519989,-0.92236334,1.0,0.0,0.0,0.0,0.0,0.0,0.0,-1.4533867,0.04078445,-0.67404014,18.580627,2.1281004,-29.644537,0.9498358,1.8898964,-0.4726827,-1.1783004
-8.69683,14.317827,1.320462,18.401005,1.4415686,-0.2158703,-0.37893325,0.04445691,-0.76950574,-0.5778363,-0.75161356,-0.64142454,0.6679234,0.43141016,0.9803816,-0.54864013,-1.610944,-1.5631499,2.3148656,1.5645232,-0.89192295,0.9803314,-0.48567617,-1.5646389,-1.5015289,2.3697002,1.5022684,-0.93166983,0.43053326,-1.393457,-1.1817516,-1.3497728,-0.9293099,0.4539945,0.33724508,0.76839256,-0.44003677,1.2045681,-3.498621,0.07499774,-1.971277,0.2498436,-0.3483467,0.8810027,0.69901675,-0.020031173,0.14036939,0.70090705,-0.049768075,-0.68022496,-0.95382434,1.0,0.0,0.0,0.0,0.0,0.0,0.0,-1.4183925,0.040036768,-0.65456814,-3.6188662,2.0848036,-13.537788,1.7443419,0.63569546,0.06766915,-0.8618474
-23.047392,13.4617405,1.3676224,27.083317,2.208431,1.0884899,-0.60525167,-0.16374515,-0.75421554,-0.48576325,-0.7572265,-0.6382016,0.675063,0.46110237,0.9639569,-0.56109774,-1.6132152,-1.5772516,2.30588,1.5697747,-0.8855596,0.98279953,-0.49942482,-1.576205,-1.51497,2.3604534,1.5068403,-0.92832434,0.18838413,-1.3692886,-1.1501175,-1.3411535,-0.9247622,0.45804203,0.33335397,0.73343277,-0.4392891,1.1841336,-3.4951231,0.074922755,-2.067492,0.2487812,-0.3553276,0.8714855,0.6975443,-0.01293361,0.13956267,0.7026997,-0.12295945,-0.69680476,-0.9561073,1.0,0.0,0.0,0.0,0.0,0.0,0.0,-1.3834327,0.039289087,-0.63413364,-23.36764,2.2348166,2.5960207,1.194334,0.028944016,0.38104653,-0.47513843
-27.6744,13.430379,2.1604338,28.9818,2.4791617,1.6062132,-0.5906885,-0.24895611,-0.7594472,-0.47088557,-0.7764899,-0.6051894,0.662723,0.4548065,0.9579039,-0.57536954,-1.6232935,-1.592619,2.2999344,1.5731126,-0.8828437,0.98241043,-0.5130156,-1.5869339,-1.5284492,2.351321,1.5114428,-0.9250103,-0.11159277,-1.3563826,-1.0494328,-1.3487511,-0.910803,0.46093464,0.33053726,0.6985073,-0.4385414,1.1627378,-3.491629,0.07484785,-2.1636107,0.24684525,-0.36242676,0.8620086,0.69666916,-0.005867121,0.13866259,0.7038397,-0.21626993,-0.7072515,-0.94946665,1.0,0.0,0.0,0.0,0.0,0.0,0.0,-1.3485073,0.038541406,-0.61273783,-29.054058,1.0925055,9.394026,-0.38437843,0.94234943,0.28076172,-0.33063293
-19.166054,24.065575,10.907672,27.431532,1.8721337,1.9133341,-0.28511924,-0.2886518,-0.7525786,-0.37123483,-0.7739328,-0.5970832,0.6600404,0.498721,0.9535453,-0.58827347,-1.6240573,-1.6058425,2.2916126,1.5774468,-0.8751382,0.9793329,-0.5265063,-1.5961635,-1.5420219,2.342345,1.5160719,-0.921682,-0.37059924,-1.3471045,-0.88282037,-1.3590125,-0.89441794,0.46387854,0.33373004,0.6636162,-0.43779373,1.1403815,-3.488138,0.07477301,-2.2596333,0.24410057,-0.36938477,0.8527065,0.6961394,0.0009682584,0.1375678,0.7046021,-0.29373217,-0.68431956,-0.9278025,1.0,0.0,0.0,0.0,0.0,0.0,0.0,-1.3136162,0.037793726,-0.59038144,-25.125568,0.7707596,16.04408,-0.72984695,1.2738943,0.36530495,0.35612583
-15.84125,23.922264,10.73687,24.679045,1.6820594,1.5903398,-0.20487662,-0.34019658,-0.7568395,-0.41120708,-0.7758678,-0.6034338,0.64795685,0.50534457,0.9453133,-0.60219026,-1.6372843,-1.6196086,2.2820017,1.5808676,-0.8711475,0.974164,-0.53996456,-1.6041286,-1.5556957,2.333491,1.5207182,-0.9183117,-0.56356734,-1.3458138,-0.76936364,-1.3692509,-0.88323504,0.4648974,0.33837765,0.6287613,-0.43704605,1.1170657,-3.4846506,0.074698254,-2.3555598,0.24069405,-0.37614822,0.84354675,0.6958177,0.0075853304,0.13625725,0.7051341,-0.3569674,-0.6658011,-0.9152364,1.0,0.0,0.0,0.0,0.0,0.0,0.0,-1.2787613,0.037046045,-0.56706566,-18.697077,-0.007915497,10.842228,-0.7379055,0.8081794,0.1441598,0.53271055
-9.725378,19.541367,6.8587914,18.194878,1.3449986,0.6103523,-0.12712103,-0.28198794,-0.76937395,-0.5601783,-0.78762263,-0.624724,0.6326426,0.48725104,0.94596523,-0.61690193,-1.6601465,-1.634458,2.2710187,1.5839825,-0.8695866,0.9680309,-0.5534934,-1.6120384,-1.569503,2.3246562,1.5253531,-0.91490996,-0.6287903,-1.3556459,-0.7992617,-1.3836871,-0.88447726,0.46275896,0.34093934,0.59394073,-0.43629837,1.0927912,-3.4811666,0.07462357,-2.4513905,0.23688889,-0.3828926,0.83426124,0.69564325,0.014286896,0.13477896,0.70548636,-0.39003235,-0.6682188,-0.9355932,1.0,0.0,0.0,0.0,0.0,0.0,0.0,-1.2439407,0.036298364,-0.5427912,-6.195855,-1.0986567,-3.2707095,-1.1698961,-0.38682222,-0.2966225,0.3135264
-7.719101,16.801971,3.8838456,15.136949,1.2246891,0.08655456,-0.1422359,-0.29963675,-0.76931524,-0.6326864,-0.78771067,-0.64367247,0.6217934,0.48091403,0.93806726,-0.6304249,-1.675307,-1.6482741,2.260289,1.5875324,-0.86681855,0.96170616,-0.567129,-1.6209133,-1.5834285,2.315726,1.5299536,-0.91149294,-0.6330259,-1.3665516,-0.91758496,-1.394561,-0.8966619,0.45845392,0.34205553,0.5591545,-0.4355507,1.0675592,-3.4776862,0.07454896,-2.5471253,0.23284912,-0.38975525,0.82462364,0.6956187,0.021335296,0.13320512,0.70563143,-0.41003403,-0.6846351,-0.9755811,1.0,0.0,0.0,0.0,0.0,0.0,0.0,-1.2091545,0.035550684,-0.51755923,-0.2153039,-1.2034416,-11.998248,-0.8057833,-1.4750361,-0.59814453,0.14486313
-16.635996,9.561139,-2.1423957,17.072586,1.8395648,0.15364808,-0.3599223,-0.4173469,-0.78619784,-0.679229,-0.7856708,-0.6467356,0.6076846,0.43788558,0.91997147,-0.6457488,-1.6888362,-1.6619955,2.2510524,1.5907221,-0.8677044,0.9550457,-0.5809363,-1.6312072,-1.5974132,2.3066585,1.5344969,-0.9081007,-0.67603225,-1.3860186,-1.0674301,-1.3984364,-0.9113121,0.45206645,0.33826968,0.5244045,-0.434803,1.0413706,-3.474209,0.074474424,-2.6427646,0.22844124,-0.3969612,0.8145252,0.6959289,0.028882774,0.13151976,0.7053731,-0.45322993,-0.72241735,-1.0238683,1.0,0.0,0.0,0.0,0.0,0.0,0.0,-1.1744045,0.034803003,-0.49137062,-3.9871335,-2.1073103,-15.200734,-0.0009536743,-1.791954,-0.8908868,-0.36284924
-26.765064,7.1848545,-5.1103673,20.820223,2.454958,0.6398742,-0.5834427,-0.5529066,-0.7833914,-0.70091283,-0.7832212,-0.6243066,0.6094003,0.393626,0.89975506,-0.6592755,-1.7012985,-1.6757354,2.244228,1.5954369,-0.8687381,0.94737816,-0.5949,-1.6428516,-1.6113902,2.2975261,1.5389792,-0.90478194,-0.7953241,-1.4005709,-1.1980044,-1.3956367,-0.9152204,0.44587237,0.32979506,0.48968887,-0.43405533,1.0142263,-3.4707355,0.07439996,-2.738308,0.22336388,-0.40459824,0.80399066,0.69680786,0.03693977,0.12965651,0.70447385,-0.52825665,-0.7673646,-1.0662003,1.0,0.0,0.0,0.0,0.0,0.0,0.0,-1.1396888,0.034055322,-0.4642263,-11.4427805,-1.6731739,-13.370109,0.7671356,-0.8075714,-0.91932416,-0.8412063
-30.584991,11.5093975,-2.4801486,23.165312,2.598936,1.2553889,-0.62105227,-0.65648097,-0.7798544,-0.6846751,-0.7822231,-0.60060054,0.6195865,0.38138393,0.8817301,-0.6728855,-1.7113191,-1.6896125,2.237466,1.6009378,-0.86664355,0.9381256,-0.60894954,-1.6553562,-1.6253158,2.288451,1.5434138,-0.9015528,-0.9667023,-1.4072123,-1.2693008,-1.3898569,-0.9062057,0.44161424,0.32066584,0.45500755,-0.43331528,0.9861273,-3.4672656,0.07432558,-2.833756,0.21740913,-0.41257858,0.7931539,0.69833547,0.045367185,0.12753433,0.70285434,-0.62105894,-0.79816884,-1.0927432,1.0,0.0,0.0,0.0,0.0,0.0,0.0,-1.1050075,0.03331527,-0.4361273,-16.56183,-0.91240406,-7.4970484,1.0937452,0.44465065,-0.7161498,-0.8920729
-26.24234,20.771627,4.101205,22.592983,2.1835635,1.6435308,-0.49852163,-0.70874,-0.76706964,-0.675239,-0.78286403,-0.57815063,0.62378514,0.3515361,0.86725163,-0.6856565,-1.7228801,-1.7036022,2.230636,1.6057923,-0.86639917,0.9271755,-0.62296283,-1.6681736,-1.6391917,2.2795513,1.5478178,-0.8984276,-1.1360177,-1.400251,-1.2871039,-1.3853788,-0.88609165,0.43919957,0.3099264,0.42036057,-0.43257523,0.9570746,-3.463799,0.074251264,-2.9291086,0.2105732,-0.42068863,0.78217,0.7004101,0.053975713,0.12510978,0.7006139,-0.70736754,-0.8024056,-1.1035799,1.0,0.0,0.0,0.0,0.0,0.0,0.0,-1.0703605,0.03257522,-0.40707457,-16.408205,0.46200752,-2.1151543,0.9002209,1.5855789,-0.4765153,-1.0267913
-20.80638,26.939367,8.784941,21.030731,1.8317418,1.7404481,-0.37834698,-0.7472747,-0.76515985,-0.6935635,-0.7755266,-0.5405269,0.60533845,0.29686865,0.85244805,-0.6994788,-1.7375299,-1.7167444,2.2254987,1.6083517,-0.86874074,0.9147625,-0.6368741,-1.6810272,-1.6530048,2.270953,1.5521914,-0.89543974,-1.274976,-1.3888216,-1.285568,-1.37877,-0.8519763,0.43603396,0.2953314,0.3857479,-0.43183517,0.927069,-3.460336,0.07417703,-3.024366,0.20297241,-0.4287262,0.77113503,0.7028974,0.06264158,0.12233204,0.6978868,-0.78147185,-0.79102015,-1.1065731,1.0,0.0,0.0,0.0,0.0,0.0,0.0,-1.0357479,0.03183517,-0.377069,-13.476133,0.93615055,-0.113248825,1.0480642,3.041935,-0.5099118,-1.3835549
-15.618919,29.456251,11.337343,18.769636,1.5729558,1.6461874,-0.2799918,-0.775276,-0.77616423,-0.7118803,-0.77149713,-0.49821153,0.5678392,0.17623952,0.8372349,-0.71449053,-1.7522151,-1.7301545,2.2211318,1.6089753,-0.8778158,0.90126896,-0.65073097,-1.6938655,-1.6667491,2.2627933,1.5565096,-0.892676,-1.3730749,-1.3852345,-1.2839165,-1.3718269,-0.8052286,0.42979324,0.27049065,0.3511696,-0.43109512,0.89611155,-3.4568763,0.07410286,-3.1195278,0.19473076,-0.43660736,0.7600656,0.7056922,0.07132428,0.119110405,0.6947835,-0.8424423,-0.77310824,-1.1098398,1.0,0.0,0.0,0.0,0.0,0.0,0.0,-1.0011696,0.031095117,-0.34611154,-9.495711,0.18246174,-0.04031658,1.036644,4.36846,-0.79316497,-2.3772955
-11.851195,31.927898,13.518779,17.978157,1.3831005,1.6095793,-0.3000245,-0.80383784,-0.7773978,-0.71695936,-0.74463725,-0.48045427,0.5372936,-0.091582134,0.8208852,-0.72847074,-1.7655615,-1.7412128,2.214748,1.610239,-0.9018342,0.88704014,-0.6645831,-1.7066982,-1.6803161,2.2550914,1.5607458,-0.89034617,-1.4386597,-1.3857409,-1.2835206,-1.3507413,-0.7591906,0.42129928,0.22090831,0.3166275,-0.43035507,0.8642032,-3.4534202,0.074028775,-3.2145948,0.18596077,-0.4442749,0.7489914,0.708781,0.079956815,0.11542432,0.6913129,-0.893341,-0.75049114,-1.1091996,1.0,0.0,0.0,0.0,0.0,0.0,0.0,-0.9666275,0.030355066,-0.3142032,-6.32813,-0.20198822,-0.100803375,2.4065971,4.3619275,-0.9814322,-4.843828
-9.066774,35.4713,15.999428,18.869658,1.2853563,1.6413848,-0.3748811,-0.8224273,-0.76814485,-0.7165459,-0.69164544,-0.46003467,0.49119776,-0.33329496,0.8047974,-0.74139756,-1.7783527,-1.7494806,2.2090878,1.6098657,-0.92367566,0.8723488,-0.6784104,-1.7195251,-1.6934463,2.2478244,1.5648714,-0.8886696,-1.4787534,-1.3821725,-1.2825717,-1.2994857,-0.7166851,0.40943515,0.15022036,0.28211975,-0.42961502,0.8313449,-3.4499674,0.07395476,-3.3095667,0.17673492,-0.4516945,0.7380038,0.71221364,0.08841971,0.111318395,0.68741685,-0.9367802,-0.7248662,-1.0975679,1.0,0.0,0.0,0.0,0.0,0.0,0.0,-0.9321197,0.029615015,-0.2813449,-3.8498402,0.2248764,0.03745556,5.3688526,4.069042,-1.2720108,-6.966159
-7.972161,38.238003,17.65513,20.358242,1.3465601,1.6971316,-0.43707114,-0.84045446,-0.7589482,-0.7155226,-0.63392234,-0.41040182,0.44242328,-0.45517573,0.7883033,-0.75430524,-1.7910774,-1.7568386,2.2067842,1.6091138,-0.9341872,0.85736275,-0.69215953,-1.7323368,-1.7058402,2.2410343,1.5688521,-0.8877455,-1.504819,-1.3729324,-1.2804765,-1.218763,-0.66672564,0.39407137,0.07335815,0.24764633,-0.42887497,0.7975376,-3.4465182,0.07388082,-3.4044435,0.16708565,-0.45887375,0.72721606,0.7160492,0.096600555,0.10682766,0.68302983,-0.97788566,-0.70053715,-1.0746617,1.0,0.0,0.0,0.0,0.0,0.0,0.0,-0.8976463,0.028874964,-0.24753761,-2.490902,0.8010149,0.22292137,8.275509,4.857993,-1.5986264,-7.5953646
-7.571556,40.349205,18.929882,22.642181,1.3758583,1.7919978,-0.49441952,-0.8447482,-0.75415313,-0.7154363,-0.5431978,-0.4360007,0.43418542,-0.48592377,0.77288795,-0.76757485,-1.8038803,-1.76016,2.1974342,1.6122706,-0.9363379,0.84221554,-0.70579994,-1.7451236,-1.7171184,2.2345798,1.5726858,-0.8875462,-1.51774,-1.3615109,-1.2777982,-1.0969487,-0.6387785,0.37968332,0.0023099585,0.21320724,-0.42813492,0.7627823,-3.4430723,0.07380696,-3.4992256,0.15703392,-0.46582794,0.7167525,0.72032607,0.10435523,0.10207168,0.6781015,-1.0177704,-0.67775047,-1.0390844,1.0,0.0,0.0,0.0,0.0,0.0,0.0,-0.8632072,0.028134912,-0.21278226,-1.2123823,1.0242939,0.35424232,12.352324,2.6988387,-1.4752626,-7.046224
-6.1200237,39.199276,17.935116,19.679842,1.0508442,1.6041859,-0.41405708,-0.84552765,-0.75687635,-0.7392093,-0.5374999,-0.46200848,0.44223514,-0.50886124,0.7576628,-0.7814876,-1.8190446,-1.7708684,2.188379,1.6169094,-0.93843234,0.82701206,-0.7193593,-1.7579982,-1.7273437,2.2282245,1.5763975,-0.8879963,-1.5208972,-1.3544666,-1.2906942,-0.99723774,-0.6346776,0.36794817,-0.060558766,0.17880249,-0.42739487,0.7270798,-3.43963,0.073733166,-3.5939128,0.1466484,-0.472538,0.70654273,0.7249752,0.111733444,0.09718081,0.6726681,-1.0492854,-0.65326,-1.0173066,0.0,1.0,0.0,0.0,0.0,0.0,0.0,-0.82880247,0.027394861,-0.1770798,-0.24211407,0.5926609,-1.221323,10.152733,0.30597448,-1.2268722,-6.2416434
-3.0543349,37.39346,17.036825,14.234471,0.5171144,1.3389628,-0.23448083,-0.83832616,-0.7655123,-0.7547874,-0.55620927,-0.48690018,0.4524724,-0.5222277,0.74317944,-0.7959105,-1.833477,-1.7829646,2.1795344,1.6216447,-0.9402191,0.81192756,-0.73279816,-1.772313,-1.737401,2.2199214,1.5826683,-0.8882246,-1.50441,-1.3429549,-1.4576504,-0.9988052,-0.8674858,0.652165,-0.031726122,0.16223145,-0.4300766,0.7308871,-1.4574981,-0.28782183,1.0068423,0.13587952,-0.47862244,0.69597995,0.7295589,0.118187845,0.09303337,0.66717327,-1.0832707,-0.5845505,-1.0645721,0.0,1.0,0.0,0.0,0.0,0.0,0.0,-0.8122314,0.030076593,-0.1808871,1.0723352,-0.33771992,-2.943778,5.6732297,-1.8055439,-1.2097836,-5.398342
64.618546,176.0,110.0,84.71259,-2.91029,8.955565,-0.9537059,-0.8022505,0.3604791,0.7034784,0.76378435,-0.10886989,0.5422573,-0.47427437,0.7317025,-0.6967502,-1.7019652,-1.6610225,2.2090344,1.636894,-0.935652,0.8005245,-0.7427421,-1.7858418,-1.7387533,2.2070467,1.596075,-0.8873186,-1.0218729,-0.8779572,-1.3115097,0.14747325,-1.4251312,1.5758765,0.1280806,0.14766693,-0.43295288,0.74021155,-1.456041,-0.28753406,0.90764964,0.1257,-0.48281097,0.68930537,0.73441875,0.11755362,0.09305411,0.6619299,-0.9974047,-0.34988466,-0.5365398,1.0,0.0,0.0,0.0,0.0,0.0,0.0,-0.7976669,0.032952875,-0.19021153,47.34037,46.56832,16.58733,113.14752,-55.027344,94.04576,15.015009
28.55045,140.172,101.461586,82.95404,1.7142743,7.0025215,-0.66323936,-0.8044011,-0.51873535,0.5546993,0.77915806,-0.44358963,0.5240143,-0.37950027,0.72008437,-0.7946156,-1.730372,-1.6608375,2.1626878,1.6484765,-0.92526865,0.7904918,-0.7504402,-1.7925633,-1.7310076,2.193165,1.6116447,-0.8862848,-0.9973283,-0.7347002,-0.45669836,0.9821813,-1.3784682,1.555468,0.09577138,0.13311768,-0.43582535,0.7485448,-1.4545853,-0.28724658,0.8085562,0.11593437,-0.485466,0.6878978,0.73979855,0.11027412,0.09532276,0.6568495,-0.97046936,-0.2271333,-0.011989462,1.0,0.0,0.0,0.0,0.0,0.0,0.0,-0.78311765,0.035825342,-0.1985448,2.3872852,14.038027,86.18442,83.04679,3.81217,-0.5322933,-3.0529692
6.2092295,114.10006,71.90012,62.124302,1.8768841,4.8213487,-0.7000035,-0.7895837,-0.28321537,0.20190045,0.7180555,-0.59992784,0.6365876,-0.07832247,0.7115334,-0.77876174,-1.7723733,-1.659202,2.1331723,1.6753035,-0.89411706,0.77983165,-0.75651985,-1.7926377,-1.7174616,2.180237,1.6263123,-0.8854685,-1.0876465,-0.56661063,0.1417669,1.4789753,-1.2673149,1.4402318,0.07742554,0.11858368,-0.438694,0.7558878,-1.4531311,-0.2869594,0.7095618,0.106212616,-0.4871254,0.6904394,0.74569744,0.09917205,0.098499425,0.65145844,-0.9733864,-0.13853848,0.33825558,1.0,0.0,0.0,0.0,0.0,0.0,0.0,-0.76858366,0.038693994,-0.2058878,-8.625746,16.514635,59.719624,49.753548,10.15811,-10.615158,-1.6956866
-10.088562,76.953575,42.71559,41.293377,2.0226405,3.001905,-0.5614301,-0.79143643,-0.28508186,0.22861508,0.7765371,-0.6307104,0.5893464,-0.18723857,0.700688,-0.78502804,-1.7697762,-1.6398078,2.117166,1.685247,-0.9041923,0.7678993,-0.76151043,-1.7884015,-1.7010565,2.1685565,1.6395473,-0.88492966,-1.2270463,-0.4771999,0.51641196,1.6950094,-1.1371596,1.2864274,0.04660935,0.10406494,-0.44156265,0.7622416,-1.4516783,-0.2866725,0.61066645,0.09625816,-0.48815536,0.69521433,0.75198936,0.08637403,0.101974405,0.6454864,-1.0043907,-0.08439444,0.5188522,1.0,0.0,0.0,0.0,0.0,0.0,0.0,-0.7540649,0.041562647,-0.21224159,-13.529658,8.755064,37.11391,21.791672,12.366486,-14.819074,-2.9328249
-17.799818,43.595425,17.828394,22.789516,1.7379978,1.3404822,-0.35866082,-0.7946417,-0.31101742,0.21169403,0.7744793,-0.64438236,0.5894873,-0.17620812,0.6884351,-0.7926122,-1.7672321,-1.6236086,2.104118,1.6984961,-0.90255046,0.7547138,-0.76614815,-1.7822388,-1.6840277,2.1579554,1.651329,-0.8846693,-1.3483707,-0.45944297,0.64866996,1.7058712,-1.035267,1.1434492,0.019416047,0.08955765,-0.4444275,0.7676073,-1.4502269,-0.2863859,0.5118699,0.08593559,-0.48890686,0.7006791,0.7585012,0.07351251,0.105295986,0.63889325,-1.0444059,-0.06417813,0.5509223,1.0,0.0,0.0,0.0,0.0,0.0,0.0,-0.7395576,0.044427484,-0.21760726,-11.910796,1.7090082,12.960661,1.1875868,9.930921,-13.915753,-2.631812
-17.914982,22.422726,3.6285377,11.651769,1.4323316,0.23248029,-0.1849716,-0.78804874,-0.33992252,0.20360988,0.77975166,-0.6365345,0.58086914,-0.18250719,0.6759089,-0.8001404,-1.7618779,-1.6060525,2.094302,1.7094159,-0.90292,0.7406719,-0.7710262,-1.775916,-1.6676188,2.148144,1.6618195,-0.8846588,-1.4225448,-0.49720612,0.62631506,1.6191496,-0.9632279,1.0186564,-0.004883385,0.07506561,-0.4472885,0.77198565,-1.448777,-0.28609955,0.4131722,0.07524681,-0.48965836,0.705814,0.7650962,0.061559156,0.10822067,0.63176465,-1.0803303,-0.069900244,0.49665183,1.0,0.0,0.0,0.0,0.0,0.0,0.0,-0.7250656,0.047288507,-0.22198564,-7.345867,-3.7767947,-2.3687243,-8.651757,7.1403384,-12.200069,-2.384077
-14.604439,12.863692,-1.5915405,6.833518,1.184127,-0.29452896,-0.06507176,-0.7847244,-0.37852943,0.2038013,0.77493745,-0.63737065,0.5960202,-0.215499,0.66219944,-0.80887914,-1.7555358,-1.590125,2.0844069,1.7214215,-0.9062087,0.7262294,-0.7765537,-1.7703179,-1.6522646,2.1388247,1.6712246,-0.8848877,-1.4514176,-0.57125014,0.53749216,1.5074133,-0.921338,0.91510326,-0.028706579,0.060588837,-0.45014954,0.7753698,-1.4473284,-0.2858135,0.3135079,0.06425667,-0.49055862,0.7101406,0.77168435,0.05086567,0.11065891,0.624236,-1.1080903,-0.08837638,0.40745094,1.0,0.0,0.0,0.0,0.0,0.0,0.0,-0.7105888,0.05014953,-0.22536981,-2.8796196,-7.384968,-8.931613,-11.171365,4.168904,-10.142946,-2.3515875
-12.370443,7.897238,-3.5872192,6.099379,1.2063615,-0.5025388,-0.030060954,-0.77940905,-0.43222648,0.17133096,0.768136,-0.6262936,0.5981973,-0.22703849,0.64828855,-0.81977636,-1.7531848,-1.575451,2.0761952,1.7310443,-0.9075915,0.7117479,-0.783011,-1.7658013,-1.6378965,2.1297915,1.6797276,-0.8853369,-1.4470332,-0.67040867,0.4231197,1.4134246,-0.8970759,0.829284,-0.05007268,0.04612732,-0.45300293,0.7777581,-1.4458814,-0.28552777,0.21394329,0.053001404,-0.4917183,0.7135083,0.77824265,0.041439697,0.11256898,0.61640024,-1.1346847,-0.11622998,0.30985016,1.0,0.0,0.0,0.0,0.0,0.0,0.0,-0.6961273,0.053002924,-0.22775811,0.441885,-9.892857,-11.451334,-9.366941,2.413571,-8.430731,-2.09563
-9.867843,11.616511,-0.72471946,8.1330385,1.2035002,-0.40987158,-0.04942326,-0.77315545,-0.4572734,0.14911942,0.7702934,-0.6132299,0.5967694,-0.23145024,0.6344323,-0.82873833,-1.7508894,-1.5608672,2.0684686,1.7394044,-0.9084819,0.69744563,-0.7904077,-1.7623395,-1.6241789,2.1209376,1.6874847,-0.8859768,-1.4245597,-0.76265705,0.32030138,1.358115,-0.88167685,0.75837034,-0.06848273,0.031679153,-0.45585632,0.7791515,-1.4444357,-0.2852423,0.11447823,0.041498184,-0.49312973,0.7160223,0.78478307,0.033073694,0.11400994,0.6082955,-1.1582884,-0.14122956,0.22857383,1.0,0.0,0.0,0.0,0.0,0.0,0.0,-0.6816791,0.055856317,-0.22915149,2.2667646,-9.218478,-10.28899,-5.4583073,1.4985442,-6.9594026,-1.7959379
-10.110971,16.361807,1.3383439,10.728302,1.2664526,-0.29579848,-0.1345265,-0.7715101,-0.4723211,0.08478535,0.7690312,-0.60436064,0.585376,-0.22700222,0.62029463,-0.8376398,-1.753861,-1.5472758,2.0605016,1.7460223,-0.90867704,0.6833875,-0.798554,-1.7599248,-1.6107588,2.1122057,1.6946182,-0.88677406,-1.3994664,-0.831932,0.21498889,1.3369306,-0.87077045,0.69893414,-0.08342099,0.017244339,-0.4587059,0.77955097,-1.4429915,-0.2849571,0.015112618,0.029750824,-0.49477386,0.71783584,0.7913592,0.025591299,0.11511691,0.5998698,-1.1835269,-0.16315402,0.16228923,1.0,0.0,0.0,0.0,0.0,0.0,0.0,-0.6672443,0.058705896,-0.22955096,2.550888,-6.937742,-10.552084,-2.0061493,1.048243,-5.8167934,-1.4552474
-11.680717,20.123407,2.311231,13.008957,1.3524932,-0.20603824,-0.23902641,-0.7665381,-0.4865423,0.0059093954,0.7752099,-0.599221,0.58569944,-0.24017085,0.6067337,-0.84720826,-1.7593338,-1.5332378,2.0522838,1.7531881,-0.91079116,0.66955733,-0.80721337,-1.7586564,-1.5973501,2.1035578,1.7012367,-0.8877115,-1.377304,-0.8773646,0.09712895,1.342722,-0.8627177,0.649911,-0.09710564,0.0028247833,-0.46155167,0.77895755,-1.4415487,-0.2846722,-0.084153645,0.017717361,-0.49661255,0.719063,0.7980445,0.018894387,0.11603721,0.5910189,-1.2127885,-0.1829378,0.10609708,1.0,0.0,0.0,0.0,0.0,0.0,0.0,-0.65282476,0.06155166,-0.22895753,2.2814274,-4.5681477,-11.823665,0.7261276,0.7750511,-4.7846556,-1.3417377
-14.091267,23.660954,2.4271874,14.532073,1.3573875,-0.16221762,-0.34192842,-0.76654243,-0.48000547,-0.094518,0.780817,-0.60335153,0.5825911,-0.24517523,0.5929031,-0.85521394,-1.7681081,-1.5192684,2.0432227,1.7594959,-0.91222906,0.65588546,-0.81610066,-1.7587651,-1.5837774,2.0949519,1.707428,-0.8887739,-1.3634754,-0.892634,-0.047080413,1.3626974,-0.85951024,0.6092281,-0.10930979,-0.011579514,-0.46439743,0.7773722,-1.4401073,-0.2843876,-0.18332066,0.0053653717,-0.49863434,0.7197609,0.8049116,0.012991267,0.116943546,0.58161205,-1.2453163,-0.20016868,0.054188427,1.0,0.0,0.0,0.0,0.0,0.0,0.0,-0.63842046,0.064397424,-0.22737217,1.4693737,-1.5674472,-14.482284,2.1709442,0.31342506,-3.9615154,-1.2191206
-16.79061,21.509798,0.58670807,14.849235,1.5271504,-0.1451804,-0.38658124,-0.76395017,-0.513963,-0.18186307,0.7844898,-0.5734558,0.5765126,-0.2649465,0.5794904,-0.86749697,-1.7769514,-1.5053284,2.0376062,1.7650793,-0.91526854,0.6423061,-0.8251663,-1.7604264,-1.5699816,2.0864527,1.7132587,-0.8899584,-1.3557676,-0.91124433,-0.20583442,1.3856951,-0.84648246,0.57468057,-0.121442944,-0.025968552,-0.46723938,0.77479595,-1.4386674,-0.28410327,-0.28238854,-0.0073833466,-0.5008507,0.7199055,0.812009,0.007918643,0.117832765,0.5715715,-1.2868168,-0.21951276,-0.0023910457,1.0,0.0,0.0,0.0,0.0,0.0,0.0,-0.6240314,0.067239374,-0.22479594,0.8809328,-1.9087076,-15.945008,2.5058746,1.3161182,-3.3974528,-1.2080282
-15.947994,24.778656,2.0695605,14.384282,1.3294535,-0.07851565,-0.36282733,-0.75535816,-0.50455546,-0.2585383,0.7904621,-0.58042586,0.59696984,-0.27246195,0.56677026,-0.87562186,-1.7862803,-1.4909353,2.0284102,1.7729558,-0.91720456,0.62880206,-0.8343139,-1.7636708,-1.555974,2.0780528,1.7188053,-0.8912573,-1.3482519,-0.9161851,-0.36419284,1.4066546,-0.8375713,0.54798996,-0.13273501,-0.04034424,-0.4700775,0.7712297,-1.4372292,-0.28381923,-0.38135737,-0.020505905,-0.50320816,0.7195067,0.819313,0.003671208,0.11875862,0.5609003,-1.3235785,-0.23123686,-0.056156866,1.0,0.0,0.0,0.0,0.0,0.0,0.0,-0.60965574,0.07007751,-0.22122967,0.8595705,-0.56010485,-15.894443,2.2990704,0.88869333,-2.6317477,-1.1447221
-17.221413,22.372627,0.7114873,13.579882,1.3579068,-0.0502308,-0.3403945,-0.75628906,-0.5316523,-0.35030589,0.790901,-0.56258774,0.5970178,-0.27806848,0.5531732,-0.8874792,-1.7987014,-1.4768839,2.021794,1.7785071,-0.91906416,0.61534476,-0.8435922,-1.7685212,-1.541812,2.0697749,1.7241211,-0.8926592,-1.3444428,-0.93189317,-0.52550006,1.4203064,-0.82445955,0.5259289,-0.14276166,-0.054706573,-0.47291565,0.7666745,-1.4357923,-0.28353545,-0.48022726,-0.034030914,-0.50567627,0.718521,0.82679725,0.000266253,0.11968457,0.54961956,-1.3647484,-0.2421513,-0.116588324,1.0,0.0,0.0,0.0,0.0,0.0,0.0,-0.5952934,0.07291564,-0.2166745,0.5001545,-1.6437292,-16.18378,1.5912533,1.313591,-2.213788,-1.0112882
-10.863556,29.520433,6.6618423,12.086485,0.92973113,0.14261019,-0.18520369,-0.7337338,-0.53257793,-0.3474608,0.7955635,-0.5707917,0.6246115,-0.30919728,0.5419714,-0.89685,-1.8032672,-1.4622556,2.0126958,1.7865822,-0.9235789,0.60200953,-0.8530107,-1.7745522,-1.5275488,2.061577,1.7292671,-0.89417267,-1.3296483,-0.9455397,-0.62892634,1.428922,-0.8182584,0.51077974,-0.15437794,-0.06905365,-0.47574615,0.7611314,-1.4343569,-0.28325197,-0.57899827,-0.047834396,-0.50813675,0.7170475,0.8343371,-0.0024738486,0.12061968,0.5378906,-1.387556,-0.23639825,-0.16171832,0.0,1.0,0.0,0.0,0.0,0.0,0.0,-0.5809463,0.07574615,-0.2111314,1.5512228,-1.4602542,-10.32728,1.0336399,0.5368948,-1.5081048,-1.1826754
-10.767655,27.30444,6.0662766,10.856518,0.92110837,0.1817311,-0.118067935,-0.73403895,-0.56746286,-0.41682583,0.7866215,-0.5528861,0.6220726,-0.28935835,0.52860564,-0.909757,-1.8162348,-1.4488866,2.0062885,1.7914743,-0.9231085,0.5888088,-0.8626953,-1.7815217,-1.5132818,2.0534708,1.7342834,-0.8957758,-1.3167343,-0.9764262,-0.7193185,1.426672,-0.80839103,0.49840233,-0.16235596,-0.08338547,-0.47857666,0.7546013,-1.432923,-0.2829688,-0.67767054,-0.061876297,-0.5105324,0.715085,0.8418537,-0.0046303356,0.121485755,0.52583456,-1.4114963,-0.2292408,-0.211944,0.0,1.0,0.0,0.0,0.0,0.0,0.0,-0.5666145,0.078576654,-0.20460129,1.3577461,-3.1849384,-9.00668,-0.03988743,0.89530945,-1.2534678,-0.80010295
-4.9862394,28.924847,9.18119,8.8908615,0.668087,0.23816961,0.03410668,-0.69936824,-0.6084365,-0.40911454,0.7872199,-0.5639748,0.64125305,-0.29763547,0.51887196,-0.9235389,-1.8224331,-1.4345598,1.9970734,1.7984087,-0.9255393,0.57586455,-0.8728443,-1.7890443,-1.4990625,2.0454104,1.7392082,-0.89745235,-1.2869331,-1.028014,-0.76290375,1.4209626,-0.8056835,0.490513,-0.16938429,-0.09770393,-0.48140717,0.7470823,-1.4314904,-0.28268588,-0.7766379,-0.076063156,-0.51280975,0.7126569,0.8492375,-0.006360878,0.122195244,0.5136376,-1.4226314,-0.21571024,-0.2574374,0.0,1.0,0.0,0.0,0.0,0.0,0.0,-0.55229604,0.08140716,-0.19708228,2.9955387,-5.2548885,-4.259956,-0.41542053,0.13130903,-0.78731775,-0.685212
-6.3260927,26.383884,7.7564697,8.482813,0.7288448,0.24420685,0.045998756,-0.6998578,-0.64228535,-0.4605035,0.7834664,-0.56249744,0.6381732,-0.26908308,0.5058788,-0.9370728,-1.8350946,-1.4207159,1.9891607,1.8030255,-0.92436063,0.56321895,-0.8835905,-1.797151,-1.4849876,2.037267,1.7440915,-0.8992926,-1.2568678,-1.0904081,-0.82703584,1.4032845,-0.8166036,0.48994744,-0.18848757,-0.11341286,-0.48222733,0.7448128,-1.6070052,-0.013628064,-0.017645797,-0.09036636,-0.5149803,0.70966697,0.85647404,-0.0076419115,0.12273486,0.50132805,-1.4344692,-0.20543604,-0.3176967,0.0,1.0,0.0,0.0,0.0,0.0,0.0,-0.5365871,0.08222732,-0.19481277,2.5008678,-6.4331055,-4.2084813,-0.5820513,-0.035643578,-0.6250322,-0.25799572
-4.65705,62.930733,23.67283,13.851768,0.034621358,0.8156383,-0.04292891,-0.7452088,-0.4232573,-0.43359783,0.8080322,-0.5981487,0.61748403,-0.24415176,0.48869807,-0.92591625,-1.8405107,-1.4041843,1.977452,1.8058399,-0.9237078,0.55055606,-0.8938244,-1.8054727,-1.4708999,2.0289853,1.74894,-0.9011818,-1.2693764,-1.0017787,-0.83354145,1.4105815,-0.8332145,0.48325184,-0.18967865,-0.12947083,-0.48236465,0.74388903,-1.6053985,-0.0136144385,-0.11727306,-0.104566574,-0.51672745,0.7066481,0.8635237,-0.008655847,0.12368968,0.4888279,-1.4155481,-0.15281188,-0.30152923,0.0,1.0,0.0,0.0,0.0,0.0,0.0,-0.52052915,0.08236465,-0.19388902,-1.2328148,8.657932,-0.5343437,0.7311821,-1.9797564,-0.62357783,-0.2803117
-5.7992563,75.256454,27.821753,16.078882,-0.11298442,0.9318744,-0.07981937,-0.7508627,-0.36442935,-0.48774424,0.8051087,-0.6090055,0.6118758,-0.18142118,0.4754698,-0.93026733,-1.8542472,-1.3903891,1.9680847,1.8101276,-0.9193239,0.53766334,-0.90274125,-1.8139604,-1.4567169,2.0205204,1.7537198,-0.90302336,-1.2959348,-0.85584414,-0.8533382,1.4205002,-0.85233176,0.47643438,-0.18306178,-0.14551163,-0.48250198,0.74196976,-1.6037935,-0.013600826,-0.2168007,-0.1185112,-0.51789093,0.7039425,0.87036645,-0.009414802,0.1254853,0.4760536,-1.3878452,-0.0913141,-0.26479468,0.0,1.0,0.0,0.0,0.0,0.0,0.0,-0.50448835,0.08250198,-0.19196975,-2.6441336,14.352202,-1.8533826,0.9334326,-2.28194,-0.65012574,0.4241705
-8.991913,71.37804,24.534437,16.595064,0.09138024,0.8083241,-0.10116967,-0.7533728,-0.34926337,-0.55575705,0.80970573,-0.6178162,0.61210555,-0.100908704,0.46232605,-0.9376676,-1.8695362,-1.3757464,1.9587388,1.8149303,-0.91311425,0.52449787,-0.9102619,-1.8229078,-1.4424156,2.0118687,1.7584329,-0.90473235,-1.3233728,-0.7183076,-0.908116,1.4331481,-0.87071884,0.4695946,-0.1676493,-0.16153717,-0.4826393,0.739056,-1.60219,-0.013587228,-0.31622887,-0.13224983,-0.51848984,0.7015268,0.87701213,-0.009787145,0.12816674,0.46295467,-1.3693743,-0.038136438,-0.23760766,0.0,1.0,0.0,0.0,0.0,0.0,0.0,-0.4884628,0.08263931,-0.18905598,-2.723527,13.518513,-5.352485,1.2372255,-2.17489,-0.70566535,1.3084024
-8.549208,61.33517,19.817616,14.536189,0.19859797,0.57286197,-0.01398759,-0.739884,-0.3452685,-0.60057324,0.8062722,-0.6355705,0.6224202,0.01139112,0.45050946,-0.94478875,-1.8829651,-1.3617884,1.9483117,1.8206749,-0.90359324,0.51118076,-0.91673356,-1.8325685,-1.4280266,2.0030224,1.7630906,-0.9062067,-1.3344343,-0.6240558,-0.9849662,1.4406275,-0.89049286,0.4644033,-0.14131889,-0.17754745,-0.48277664,0.73514867,-1.6005882,-0.013573644,-0.41555762,-0.14585876,-0.5186577,0.69921565,0.8834329,-0.009647199,0.13156493,0.4496041,-1.3573744,0.0019842894,-0.23215128,0.0,1.0,0.0,0.0,0.0,0.0,0.0,-0.47245252,0.082776636,-0.18514866,-1.0955334,9.222031,-7.5479984,0.7524252,-2.259004,-0.57578087,2.4343073
-14.57782,37.406235,8.3581505,12.508493,0.7588279,0.3122518,-0.00205208,-0.75208956,-0.41817993,-0.6714575,0.80395114,-0.6402323,0.6102544,0.08371346,0.4359718,-0.9585515,-1.8997142,-1.3476315,1.9389992,1.824116,-0.8978354,0.49778402,-0.9229653,-1.8432748,-1.4136193,1.994137,1.7677804,-0.90732557,-1.3410698,-0.6233069,-1.099746,1.4407803,-0.8877126,0.47384232,-0.10347404,-0.1929493,-0.48222733,0.7323187,-1.5167938,0.0712145,-0.20201528,-0.15960121,-0.51856995,0.6966045,0.8896523,-0.008862277,0.13520685,0.43607256,-1.380384,0.021675615,-0.27373004,0.0,1.0,0.0,0.0,0.0,0.0,0.0,-0.45705068,0.08222732,-0.18231869,-0.74043274,-0.10083914,-10.655785,0.4219532,-1.2934327,-0.52458644,3.2706902
-10.562694,39.597607,10.477733,11.207982,0.593403,0.34297186,0.10172321,-0.741038,-0.3694506,-0.67487764,0.80574,-0.6539895,0.6229659,0.16160563,0.42368022,-0.95991033,-1.9107625,-1.3330452,1.9287381,1.830077,-0.891165,0.4844002,-0.9292385,-1.8549061,-1.3992113,1.9851693,1.7725209,-0.9080791,-1.3373568,-0.6291441,-1.1838601,1.4410524,-0.90042394,0.4735107,-0.0662269,-0.20803261,-0.4814186,0.7300867,-1.5056399,0.0855726,-0.23120426,-0.17349243,-0.5182762,0.69361854,0.8956312,-0.0074727293,0.13896835,0.4224651,-1.3911825,0.04451806,-0.3093389,0.0,1.0,0.0,0.0,0.0,0.0,0.0,-0.44196737,0.0814186,-0.18008667,0.40659904,-0.7327914,-8.274341,0.14865398,-1.3975024,-0.17869473,3.6678462
-8.543731,39.207855,11.459345,10.318287,0.5938594,0.4061447,0.15470907,-0.74009377,-0.38565573,-0.6815608,0.80208087,-0.6517978,0.62276787,0.16256768,0.41039082,-0.9678041,-1.9230622,-1.3190032,1.9199895,1.8347977,-0.89182234,0.47107786,-0.93570834,-1.8671341,-1.3848224,1.9760892,1.7772547,-0.908495,-1.3305,-0.6534893,-1.2351598,1.4383591,-0.9111686,0.47273883,-0.033581022,-0.22299576,-0.48046494,0.7275652,-1.4933268,0.09990025,-0.2600747,-0.18747139,-0.5177345,0.6902905,0.9013297,-0.005577847,0.14276743,0.40889,-1.3988616,0.06940083,-0.3430889,0.0,1.0,0.0,0.0,0.0,0.0,0.0,-0.42700422,0.08046493,-0.17756522,0.69544315,-2.5806785,-4.9484015,-0.15733242,-1.2959719,-0.14624,3.1558275
-7.2921586,37.69438,11.452651,9.519848,0.6014123,0.4256968,0.20388606,-0.73348707,-0.41140798,-0.7040185,0.8038727,-0.6546563,0.62863445,0.24579626,0.39772916,-0.97684914,-1.937536,-1.3044351,1.9106236,1.8401182,-0.88391536,0.45785087,-0.9425319,-1.8797361,-1.3704524,1.96691,1.7819782,-0.9085599,-1.3201073,-0.6924229,-1.2678394,1.4368541,-0.9208063,0.4716822,0.0024596674,-0.23783493,-0.47937393,0.72473735,-1.4810586,0.11328037,-0.2909186,-0.20152092,-0.5169449,0.68662137,0.90672785,-0.0032642302,0.1465084,0.3954354,-1.4054468,0.09437804,-0.37726486,0.0,1.0,0.0,0.0,0.0,0.0,0.0,-0.41216505,0.079373926,-0.17473733,1.0386229,-4.033649,-3.068924,-0.027394295,-1.1520505,-0.24698973,3.5724585
-7.7313495,38.468273,12.003069,9.67182,0.6662146,0.51567376,0.20617944,-0.7391658,-0.43117297,-0.70629793,0.8025566,-0.65932393,0.6285357,0.26867887,0.3839343,-0.98564917,-1.9503659,-1.2901968,1.9009776,1.8448318,-0.88169205,0.44468445,-0.94978553,-1.892519,-1.3560996,1.9576442,1.7866918,-0.9082815,-1.3154601,-0.7368921,-1.2808698,1.4352586,-0.929224,0.47057116,0.03622339,-0.25255013,-0.4781456,0.72160876,-1.4682889,0.12716103,-0.32051644,-0.2156353,-0.5158882,0.68263364,0.9118267,-0.0006104015,0.1501376,0.38213894,-1.4122138,0.12268058,-0.40845418,0.0,1.0,0.0,0.0,0.0,0.0,0.0,-0.39744985,0.07814559,-0.17160875,0.45871735,-4.593241,-1.0817766,-0.02861023,-1.0576844,-0.25681853,3.3567145
-0.82951117,47.019215,16.810106,8.676659,0.38637304,0.5175934,0.272599,-0.70513415,-0.41787434,-0.6951128,0.8029496,-0.6586861,0.63653654,0.2794592,0.37417102,-0.991573,-1.9620303,-1.2758046,1.8917756,1.8503455,-0.88033557,0.43169686,-0.9573291,-1.9052811,-1.3417602,1.9483267,1.7914104,-0.90769225,-1.2933977,-0.76071304,-1.2737775,1.4335376,-0.9334816,0.47174582,0.06631009,-0.26707268,-0.4767723,0.7182986,-1.4465185,0.1421956,-0.3346383,-0.22967911,-0.51451874,0.6784424,0.9165939,0.0022712364,0.15369977,0.36908892,-1.3994836,0.15291722,-0.42537013,0.0,1.0,0.0,0.0,0.0,0.0,0.0,-0.3829273,0.0767723,-0.1682986,2.1408558,-2.53402,0.98457336,-0.12774467,-0.69351196,-0.039756298,2.9769912
-2.4881692,41.798862,14.178993,8.344202,0.5487233,0.4436131,0.25752193,-0.7053367,-0.48020577,-0.7099313,0.80127335,-0.6580428,0.6280303,0.30261847,0.3611632,-1.0053496,-1.9762743,-1.2616328,1.8825225,1.8542135,-0.8774304,0.4189138,-0.9652894,-1.9179935,-1.3274379,1.938981,1.7961291,-0.9068216,-1.2734554,-0.8083197,-1.2694316,1.4320211,-0.9355999,0.47132862,0.093961805,-0.28141022,-0.4752655,0.7147438,-1.429257,0.15439764,-0.36257002,-0.24365616,-0.51288986,0.67399853,0.92104995,0.0053674686,0.15711324,0.35630536,-1.3948957,0.17856632,-0.4534218,0.0,1.0,0.0,0.0,0.0,0.0,0.0,-0.36858976,0.0752655,-0.16474378,1.9482374,-4.899347,0.6924391,-0.05543232,-0.45833588,-0.18206835,2.752483
0.48949957,46.188416,16.348827,7.98761,0.42880547,0.44623208,0.2932052,-0.6853717,-0.47913897,-0.69343203,0.8021182,-0.6645617,0.6254725,0.36355174,0.35037664,-1.0132033,-1.9873368,-1.247226,1.8725249,1.8586763,-0.8704664,0.40637583,-0.9736455,-1.9305897,-1.313127,1.9296117,1.8008442,-0.905661,-1.2475175,-0.8451547,-1.2554632,1.4310472,-0.9383198,0.4711079,0.12340708,-0.29554176,-0.47364044,0.71096236,-1.4074454,0.16661778,-0.38327485,-0.25752258,-0.5110016,0.6693267,0.92519325,0.008645545,0.16038045,0.34383228,-1.3811187,0.20468697,-0.47456643,0.0,1.0,0.0,0.0,0.0,0.0,0.0,-0.3544582,0.073640436,-0.16096234,2.5222063,-3.826785,1.6827106,-0.038576126,-0.5506158,-0.16338825,2.9225678
3.1745858,52.110313,18.772493,7.978273,0.30381244,0.44880477,0.3082119,-0.6658587,-0.47022584,-0.68866205,0.8008569,-0.6662969,0.6320227,0.39508379,0.33978996,-1.0206681,-1.9994559,-1.2330414,1.862982,1.8640465,-0.8661526,0.39413396,-0.98221904,-1.943037,-1.2988296,1.9202217,1.8055665,-0.9042115,-1.2167405,-0.86192274,-1.2403024,1.4292979,-0.94021136,0.4721236,0.15200128,-0.3094139,-0.4718895,0.7070458,-1.380105,0.17898013,-0.39423594,-0.2711792,-0.5088501,0.66451,0.9290139,0.012076587,0.16358334,0.33170447,-1.3575741,0.23099393,-0.48700324,0.0,1.0,0.0,0.0,0.0,0.0,0.0,-0.34058607,0.07188949,-0.15704578,2.9816628,-1.8297076,1.8288612,-0.16422272,-0.5047083,-0.0438869,2.8125823
-1.2547631,50.27367,16.80692,8.955601,0.48058087,0.48212814,0.25818554,-0.6775126,-0.49725923,-0.6927931,0.797522,-0.6705182,0.61319304,0.432926,0.3263827,-1.031945,-2.0123162,-1.2190773,1.8531699,1.8668859,-0.86091894,0.3820823,-0.9909833,-1.9553832,-1.2845607,1.910801,1.8102796,-0.9024789,-1.2015663,-0.88180375,-1.2317814,1.4263473,-0.94359654,0.47048753,0.18024397,-0.3230362,-0.4700203,0.70297784,-1.3559223,0.1908738,-0.41063344,-0.28466988,-0.5064163,0.6595404,0.9325419,0.015700169,0.16672936,0.3198753,-1.3426871,0.25852105,-0.5031809,0.0,1.0,0.0,0.0,0.0,0.0,0.0,-0.32696378,0.07002029,-0.15297782,1.4508724,-2.1470547,1.1491537,-0.24104118,-0.64798594,-0.32929182,2.789861
-0.033313274,54.5175,18.502842,9.225406,0.48831037,0.51589453,0.2565924,-0.6610421,-0.49114773,-0.67229456,0.7951377,-0.65641636,0.6082542,0.45478868,0.3159781,-1.0400981,-2.0226126,-1.2050469,1.8451594,1.8711051,-0.857,0.37018093,-0.99986106,-1.9675882,-1.27033,1.9013976,1.8149737,-0.90047795,-1.1865933,-0.89032745,-1.2156214,1.4220031,-0.9403748,0.4684189,0.20665334,-0.33639145,-0.46802902,0.69879663,-1.328277,0.20280617,-0.4202769,-0.29797745,-0.50369644,0.65446496,0.9357942,0.019495225,0.16982485,0.308332,-1.3230076,0.28711733,-0.51190084,0.0,1.0,0.0,0.0,0.0,0.0,0.0,-0.31360853,0.068029016,-0.14879662,1.4147758,-1.0187626,1.9386053,-0.40941238,-0.018537045,-0.37955046,2.5996895
-6.291454,50.24072,15.31957,10.408199,0.7480584,0.5558513,0.1845805,-0.6811748,-0.5204604,-0.67956513,0.79386896,-0.6595083,0.5879219,0.47505605,0.30206347,-1.0519071,-2.0355446,-1.190943,1.8354467,1.873766,-0.8529723,0.35828668,-1.0089115,-1.9796902,-1.2561374,1.8920169,1.8196229,-0.89822745,-1.1905001,-0.91053075,-1.2074993,1.4186711,-0.9384294,0.46323076,0.23110442,-0.34951591,-0.4659195,0.694437,-1.3066999,0.21437451,-0.4405555,-0.31119347,-0.5006714,0.64924586,0.9388134,0.023499675,0.17282654,0.29699832,-1.3169992,0.31803274,-0.52815825,0.0,1.0,0.0,0.0,0.0,0.0,0.0,-0.30048406,0.06591949,-0.14443702,-0.43137074,-2.1889448,1.1057615,-0.24001598,-0.13108253,-0.68566203,2.4110346
-3.3745456,50.603592,15.698961,9.30044,0.6457311,0.4859107,0.222204,-0.65676224,-0.5291617,-0.6732392,0.7899696,-0.6540655,0.5825712,0.5187931,0.29261047,-1.0618277,-2.047014,-1.1771404,1.8266103,1.87788,-0.84634817,0.34642768,-1.0181736,-1.9917177,-1.2419868,1.8826684,1.8242179,-0.895728,-1.1845914,-0.932107,-1.2002794,1.4140675,-0.9345878,0.45774862,0.25619727,-0.3624153,-0.46370697,0.6898602,-1.2837135,0.22403629,-0.46236533,-0.3243065,-0.49737167,0.64385486,0.9416084,0.02772592,0.17570245,0.28589073,-1.3056147,0.34548807,-0.54568386,0.0,1.0,0.0,0.0,0.0,0.0,0.0,-0.28758466,0.063706964,-0.13986021,0.5337,-2.3168206,1.022625,-0.38614273,0.057661533,-0.7120669,2.4737568
1.8124938,51.249603,17.11923,7.861207,0.5666939,0.41851854,0.25959545,-0.63232976,-0.5525382,-0.6382552,0.791794,-0.639731,0.57227296,0.51049244,0.2831947,-1.0734274,-2.0555432,-1.1628073,1.8186953,1.8814452,-0.84467876,0.33473843,-1.027716,-2.0035365,-1.2278664,1.8733996,1.8287572,-0.89300835,-1.1639678,-0.9621081,-1.1746141,1.4116241,-0.9253242,0.45208132,0.27714986,-0.37506676,-0.46141815,0.685071,-1.2582012,0.23147638,-0.48326144,-0.33725548,-0.49382782,0.63830405,0.94417983,0.032084566,0.17839317,0.27508318,-1.2867625,0.3679714,-0.56099933,0.0,1.0,0.0,0.0,0.0,0.0,0.0,-0.27493322,0.061418146,-0.13507098,1.9752979,-3.1452537,2.8926373,-0.20074844,0.58888197,-0.7273972,2.0764828
-1.1931088,48.284676,15.182684,8.22024,0.6964185,0.41513106,0.2211638,-0.64485884,-0.5795912,-0.63879526,0.7911815,-0.6385135,0.5442811,0.5257336,0.27025256,-1.0856751,-2.067416,-1.1487483,1.8095483,1.8831853,-0.84043497,0.32318842,-1.0376304,-2.0151212,-1.2137594,1.864215,1.8332181,-0.8900941,-1.1522199,-1.0015892,-1.1518619,1.4107844,-0.91706765,0.44364223,0.29618266,-0.38749313,-0.45905685,0.68001264,-1.236529,0.23828292,-0.511925,-0.35007095,-0.49005508,0.63255817,0.94655657,0.03656745,0.1808459,0.26455295,-1.27503,0.39087498,-0.58181,0.0,1.0,0.0,0.0,0.0,0.0,0.0,-0.26250684,0.05905685,-0.13001263,1.1113644,-4.0908456,2.5805712,0.0026226044,0.50662756,-1.0058403,1.902312
5.773569,54.438587,18.79377,7.091589,0.5250267,0.39804792,0.26975766,-0.6084598,-0.57602835,-0.5980228,0.78865004,-0.6250491,0.55469525,0.52620554,0.26234245,-1.0952333,-2.0749235,-1.1348944,1.8017101,1.8886876,-0.8374736,0.3118797,-1.0478481,-2.0263398,-1.1996696,1.8551449,1.8376122,-0.88701105,-1.1240916,-1.0290006,-1.1108438,1.4085535,-0.9046735,0.43772417,0.31227264,-0.39964294,-0.45663452,0.67475396,-1.207079,0.24332878,-0.528865,-0.36265564,-0.48607635,0.626688,0.9487338,0.041081768,0.1830792,0.25435853,-1.2482971,0.40969664,-0.59169185,0.0,1.0,0.0,0.0,0.0,0.0,0.0,-0.25035703,0.056634516,-0.12475395,2.7015448,-2.881503,4.4588804,-0.2121687,0.86557865,-0.72493553,1.5775263
4.649494,49.164436,16.205194,6.204135,0.498693,0.29761922,0.26947063,-0.6040919,-0.620356,-0.6018763,0.78297186,-0.63499254,0.5107982,0.5397868,0.2514705,-1.1098837,-2.0865273,-1.1213725,1.7916456,1.888692,-0.83303237,0.30083704,-1.0584491,-2.0372264,-1.1856201,1.8461468,1.841919,-0.8837783,-1.0979694,-1.0709661,-1.0804387,1.4037985,-0.89920044,0.4279044,0.32696828,-0.41153145,-0.45417786,0.66923374,-1.1821027,0.24644917,-0.5580089,-0.37501144,-0.48194504,0.62063277,0.9507263,0.04565594,0.18506135,0.24451467,-1.2262582,0.42461246,-0.613216,0.0,1.0,0.0,0.0,0.0,0.0,0.0,-0.23846853,0.05417785,-0.11923373,2.5217533,-4.3234825,3.360343,-0.4226923,0.21526814,-1.1164904,1.4608204
8.327093,53.378582,17.91478,5.7570267,0.35831112,0.2432763,0.2909833,-0.57381046,-0.613934,-0.5902145,0.78365695,-0.6331128,0.49972636,0.5593738,0.24345599,-1.1198425,-2.096248,-1.1072544,1.7828355,1.8918916,-0.8278409,0.29013342,-1.0693611,-2.0478537,-1.1716142,1.8371892,1.8461276,-0.8804022,-1.0615631,-1.0983264,-1.0556022,1.3995892,-0.8955238,0.41819066,0.34112227,-0.42313385,-0.45170212,0.66347384,-1.1522804,0.24765074,-0.58029044,-0.38708496,-0.47768402,0.6144004,0.9525307,0.05032029,0.18683794,0.23504189,-1.1956434,0.43514404,-0.62953997,0.0,1.0,0.0,0.0,0.0,0.0,0.0,-0.22686613,0.051702112,-0.11347383,3.5281897,-2.865839,2.8264523,-0.4099846,0.009596348,-1.1011064,1.3782263
12.364054,56.323345,19.854082,5.1435013,0.33257142,0.2343559,0.3141924,-0.5476587,-0.6325693,-0.54055434,0.7809203,-0.61903536,0.48971254,0.5711464,0.23536755,-1.1326181,-2.1019092,-1.0935222,1.7752857,1.8950989,-0.82328755,0.27984515,-1.0805324,-2.0580845,-1.1576542,1.8283017,1.850243,-0.8768907,-1.0183381,-1.1238896,-1.0112472,1.3946849,-0.8878374,0.40887251,0.3544638,-0.4344082,-0.4492302,0.65753984,-1.1184993,0.2470436,-0.5962292,-0.39880562,-0.47335052,0.60805726,0.9541495,0.054984875,0.18842012,0.22599357,-1.1585011,0.44208127,-0.63908553,0.0,1.0,0.0,0.0,0.0,0.0,0.0,-0.21559179,0.049230188,-0.10753983,4.1870117,-2.6840448,4.812956,-0.51283836,0.37392378,-1.0571837,1.2987018
16.11418,55.034546,19.541191,3.6292386,0.15137577,0.0619905,0.34601426,-0.5092143,-0.6528056,-0.5446007,0.77582157,-0.6262886,0.4216316,0.569944,0.22892372,-1.145813,-2.1125445,-1.080072,1.7656728,1.8924061,-0.81989634,0.27007994,-1.0919727,-2.0679605,-1.1437553,1.8194617,1.8542233,-0.87326264,-0.96305805,-1.1511098,-0.97854555,1.3880693,-0.884,0.39413887,0.365513,-0.4453411,-0.4467888,0.6514216,-1.0840663,0.24312524,-0.61545354,-0.41012383,-0.4690094,0.601579,0.95558685,0.059675243,0.18980248,0.21741079,-1.1173097,0.4400154,-0.6537561,0.0,1.0,0.0,0.0,0.0,0.0,0.0,-0.20465887,0.046788782,-0.101421595,5.384612,-2.8392553,3.6388993,-0.6939173,0.00020265579,-1.5949845,1.0633945
26.314905,55.418205,21.149189,0.43023896,-0.22975928,-0.17184967,0.44157672,-0.4382591,-0.6666108,-0.5307475,0.76719314,-0.624213,0.4039653,0.57186514,0.22625403,-1.1586338,-2.1210353,-1.067036,1.7570404,1.8946198,-0.81607616,0.26108912,-1.10368,-2.0775502,-1.1299539,1.8106573,1.858057,-0.8695377,-0.8783751,-1.1777121,-0.95103335,1.3771006,-0.88040245,0.3794314,0.374679,-0.45589066,-0.4444275,0.64512366,-1.0445608,0.23373601,-0.63297194,-0.42092705,-0.46479034,0.59493655,0.9568296,0.064402096,0.19098893,0.20941003,-1.0621847,0.42249513,-0.67083657,0.0,1.0,0.0,0.0,0.0,0.0,0.0,-0.19410932,0.044427484,-0.09512365,8.284866,-2.7615547,3.1396508,-1.1861801,-0.031781197,-1.5833497,0.8547008
22.525936,53.890976,19.75099,1.2523987,-0.010276258,-0.13709164,0.39606062,-0.43414715,-0.68702567,-0.5078266,0.754095,-0.58814746,0.37285486,0.579999,0.2176744,-1.1723826,-2.1283329,-1.0545443,1.7518425,1.8953425,-0.8115378,0.25282827,-1.1156791,-2.0868502,-1.1163049,1.801982,1.8617297,-0.86572677,-0.80919343,-1.2077003,-0.9216751,1.3605576,-0.8643459,0.3627944,0.3831247,-0.46607208,-0.44215393,0.6386188,-1.0087322,0.2248725,-0.65501577,-0.43124008,-0.46073532,0.5881099,0.95790994,0.069148034,0.1919131,0.20198125,-1.0157894,0.40786046,-0.6897102,0.0,1.0,0.0,0.0,0.0,0.0,0.0,-0.1839279,0.042153925,-0.088618815,6.7613006,-3.1039238,3.3026934,-1.7016649,1.2241006,-1.795721,0.81189275
14.311538,59.444633,20.055475,5.1580963,0.40794593,0.08937368,0.28115365,-0.4387384,-0.6773891,-0.47078973,0.75653636,-0.5961215,0.34416574,0.58678395,0.20895442,-1.183418,-2.1339293,-1.0406512,1.7423699,1.8961463,-0.8070484,0.24503599,-1.1278652,-2.0957572,-1.1027837,1.7934344,1.8652258,-0.8618359,-0.76965296,-1.2225773,-0.87927884,1.3491693,-0.85280496,0.34470174,0.39101395,-0.47589302,-0.43994904,0.6319616,-0.9725768,0.2188183,-0.66794753,-0.4411602,-0.45671844,0.58118993,0.958863,0.073879756,0.19261901,0.19499078,-0.9786581,0.40521285,-0.69581,0.0,1.0,0.0,0.0,0.0,0.0,0.0,-0.17410696,0.03994903,-0.08196157,3.8273454,-1.6186476,4.6237826,-1.1542797,0.73200464,-1.9521177,0.7589996
4.591564,63.99132,19.990034,9.228588,0.98047084,0.35549492,0.15042527,-0.4540756,-0.6788789,-0.41892844,0.74972326,-0.5562341,0.3064283,0.5974522,0.19962843,-1.1957531,-2.13765,-1.0278114,1.737811,1.8958687,-0.80209064,0.23737748,-1.1401314,-2.1040766,-1.0893673,1.7850908,1.8685232,-0.85786575,-0.764883,-1.2283696,-0.814669,1.3391826,-0.82970655,0.32425153,0.39905939,-0.48536682,-0.43777466,0.62522376,-0.9385196,0.21663406,-0.6747026,-0.45080757,-0.45262527,0.5743043,0.9597382,0.07850896,0.19311358,0.18827114,-0.95469445,0.4178402,-0.6890453,0.0,1.0,0.0,0.0,0.0,0.0,0.0,-0.16463315,0.037774652,-0.075223744,0.38508177,-0.72972775,6.853032,-0.97460747,1.8543363,-2.1992385,0.8006096
5.609045,65.101524,20.951176,8.84716,1.1819537,0.40326393,0.13862845,-0.43790475,-0.696585,-0.34855342,0.72073424,-0.48311013,0.22639652,0.5845753,0.193587,-1.2097899,-2.138932,-1.0172938,1.7367798,1.8911629,-0.7994082,0.22971945,-1.1524891,-2.111519,-1.0761548,1.777169,1.8715727,-0.8538317,-0.76644164,-1.2386129,-0.71979994,1.3154513,-0.7811904,0.29800382,0.4050105,-0.4944992,-0.43562698,0.6184319,-0.90433526,0.21398363,-0.6795727,-0.46021652,-0.44837952,0.5675304,0.96058965,0.08286935,0.19326651,0.1817918,-0.9312577,0.43160945,-0.6765122,0.0,1.0,0.0,0.0,0.0,0.0,0.0,-0.15550077,0.035626978,-0.068431914,-0.25098324,-1.1678219,9.890223,-2.3579836,4.371953,-2.779138,0.62191486
9.156851,71.1923,24.362513,9.003517,1.504698,0.4745065,0.11430584,-0.4332406,-0.6934434,-0.23736517,0.6981851,-0.37244242,0.10913621,0.5920233,0.18639538,-1.2218335,-2.1352556,-1.0063363,1.7399248,1.8824863,-0.7946294,0.22203185,-1.1649116,-2.117649,-1.063261,1.7700253,1.8742924,-0.8497378,-0.7698857,-1.2440696,-0.57604164,1.2807796,-0.693869,0.2627928,0.4109704,-0.50325584,-0.43351746,0.61169034,-0.86569405,0.20990442,-0.6712365,-0.4693699,-0.44400024,0.5610163,0.96148247,0.08668477,0.19290599,0.17556885,-0.9050695,0.44556656,-0.6459847,0.0,1.0,0.0,0.0,0.0,0.0,0.0,-0.14674413,0.03351745,-0.06169033,-0.45503378,-0.6882191,14.8227215,-3.4908295,8.190929,-3.6671638,0.6462276
26.24149,89.42716,36.832706,8.408025,2.1346323,0.8078192,0.10439019,-0.41059625,-0.69970703,0.10173653,0.676596,-0.20262578,0.12771824,0.580517,0.18097222,-1.2348824,-2.1074755,-0.9956014,1.7497627,1.8870642,-0.7916861,0.21441409,-1.1773952,-2.1209867,-1.0507715,1.7641948,1.8767033,-0.84559274,-0.7596693,-1.2503126,-0.25075927,1.2380091,-0.5485756,0.23355334,0.41603106,-0.5114708,-0.43148804,0.6054023,-0.8063045,0.20068683,-0.61346024,-0.47810364,-0.4394951,0.5552317,0.96252644,0.08905164,0.19182155,0.16975614,-0.8572833,0.45695788,-0.5586104,0.0,1.0,0.0,0.0,0.0,0.0,0.0,-0.13852918,0.03148803,-0.05540228,0.84735155,-0.7775068,33.17924,-4.426861,13.763738,-3.0338168,0.59916973
26.187134,90.779686,38.941334,8.692554,3.1797147,0.89987046,-0.04917925,-0.44242242,-0.7260351,0.30283722,0.6055377,0.2019931,-0.07704778,0.51598954,0.17017184,-1.2499987,-2.090703,-0.9902177,1.7843941,1.8689985,-0.7939938,0.2067599,-1.1900467,-2.120479,-1.0389555,1.7608616,1.8786982,-0.84144926,-0.7676975,-1.2706976,0.15364304,1.1623281,-0.26401234,0.18780954,0.4142075,-0.5191269,-0.4295311,0.5997343,-0.7520536,0.19395722,-0.5508903,-0.4864769,-0.43480682,0.5504594,0.9639327,0.089169905,0.18943396,0.16430828,-0.8265484,0.47738895,-0.45287815,0.0,1.0,0.0,0.0,0.0,0.0,0.0,-0.13087308,0.029531091,-0.049734294,-0.9150624,-2.188921,41.038033,-7.6788425,27.726645,-4.68089,-0.034183264
43.16152,80.98688,36.963127,0.30984426,2.3305748,0.25146016,0.15399942,-0.34928447,-0.73335797,0.33551598,0.5193685,0.41074395,-0.24041398,0.53380954,0.17183146,-1.2633824,-2.0869274,-0.9870186,1.801936,1.8546568,-0.7880683,0.19944313,-1.2029213,-2.1165047,-1.0281919,1.7607292,1.880152,-0.83732396,-0.72005147,-1.2934606,0.48044553,1.0473391,0.068211816,0.13099837,0.4121647,-0.526247,-0.42770767,0.59457195,-0.6992622,0.17846109,-0.5058422,-0.4944439,-0.43014908,0.54651695,0.96574694,0.087024085,0.18536718,0.15936957,-0.7835585,0.46670923,-0.37754425,0.0,1.0,0.0,0.0,0.0,0.0,0.0,-0.12375295,0.027707666,-0.044571936,4.6512485,-2.4228573,33.212727,-11.594033,32.612103,-5.743775,-0.13610125
24.616167,71.833534,26.686687,4.419905,2.0926557,-0.117874175,0.020687927,-0.36671686,-0.7013498,0.2445832,0.53073025,0.49600556,-0.38543442,0.5456658,0.16277145,-1.2730563,-2.0920463,-0.9751189,1.8103298,1.8416085,-0.7827574,0.19253384,-1.2158283,-2.1107032,-1.0183387,1.7636411,1.8809721,-0.83321613,-0.6813401,-1.2900255,0.6142972,0.96483666,0.36424598,0.06561094,0.41041604,-0.5329666,-0.42601013,0.58963156,-0.66413665,0.16722503,-0.49254283,-0.50218964,-0.4255638,0.5430288,0.967874,0.08342419,0.17979468,0.1547064,-0.7695696,0.4604196,-0.3422954,0.0,1.0,0.0,0.0,0.0,0.0,0.0,-0.11703336,0.026010126,-0.039631546,3.838265,0.22892952,13.651824,-8.197058,29.313452,-6.5415726,-0.13010502
25.63943,73.501884,25.523907,4.6213093,1.4827737,-0.30599684,0.072774306,-0.3176126,-0.68059075,0.3281393,0.5094903,0.5313185,-0.4011539,0.5705373,0.16077258,-1.2838874,-2.0778892,-0.96738964,1.8167729,1.8408568,-0.7761624,0.18615358,-1.2285427,-2.1040857,-1.0091321,1.7689562,1.8811857,-0.82910645,-0.6237064,-1.2657473,0.67845464,0.9062865,0.5862622,0.0067745443,0.41113922,-0.53930855,-0.42444992,0.5848581,-0.6259282,0.15264499,-0.47626656,-0.50974464,-0.42111206,0.53982097,0.9701642,0.07896494,0.1731396,0.15022838,-0.74875593,0.44438127,-0.31698412,0.0,1.0,0.0,0.0,0.0,0.0,0.0,-0.11069143,0.024449915,-0.034858108,5.735278,2.3173094,6.6467166,-5.765176,22.003395,-5.8289566,0.090032816
10.918191,73.31827,21.797752,8.9665165,1.5086869,-0.16581947,-0.006992765,-0.3458563,-0.66366196,0.3579862,0.4826255,0.58285713,-0.4362615,0.58200926,0.15156794,-1.2949089,-2.0682871,-0.9608696,1.8272419,1.8375595,-0.7709055,0.18011218,-1.2409252,-2.097174,-1.0003949,1.7760046,1.8808465,-0.82497764,-0.5975545,-1.229494,0.6961693,0.86337054,0.7436917,-0.047124755,0.41344163,-0.54530907,-0.42300034,0.58022034,-0.59344614,0.14300567,-0.4646661,-0.5171757,-0.4167137,0.53680354,0.97251153,0.074051015,0.16576606,0.14580557,-0.74017847,0.44256395,-0.30018795,0.0,1.0,0.0,0.0,0.0,0.0,0.0,-0.10469091,0.02300033,-0.03022033,2.6328921,3.540802,1.8657804,-4.151714,15.685368,-5.3047123,0.27076006
9.6480665,82.83921,24.596598,11.604763,1.4531326,0.0075419545,-0.031194333,-0.3205406,-0.62344295,0.4333629,0.4843819,0.59860426,-0.39072517,0.5820285,0.14805812,-1.3032695,-2.0538375,-0.95195675,1.835865,1.841774,-0.7667748,0.17431346,-1.252808,-2.08995,-0.9919104,1.7841784,1.8800642,-0.8208257,-0.5738774,-1.1748475,0.73162854,0.8440601,0.8415399,-0.088272005,0.4158416,-0.55093193,-0.42164993,0.5758735,-0.55416316,0.13305825,-0.430237,-0.5244694,-0.41231918,0.53408086,0.97483283,0.06877915,0.15805604,0.14138095,-0.72519344,0.44424212,-0.26655003,0.0,1.0,0.0,0.0,0.0,0.0,0.0,-0.099068046,0.021649927,-0.025873482,2.4027586,5.377507,3.641367,-1.7864943,9.754646,-4.002261,0.2655983
