Afshin1997/kuka_rl_ros2/src/catch_and_throw/input_files/idealpd/recorded_trajectories/env_348_data.csv
torque0,torque1,torque2,torque3,torque4,torque5,torque6,action0,action1,action2,action3,action4,action5,action6,set_target_0,set_target_1,set_target_2,set_target_3,set_target_4,set_target_5,set_target_6,joint_pos_0,joint_pos_1,joint_pos_2,joint_pos_3,joint_pos_4,joint_pos_5,joint_pos_6,joint_vel_0,joint_vel_1,joint_vel_2,joint_vel_3,joint_vel_4,joint_vel_5,joint_vel_6,tennisball_pos_0,tennisball_pos_1,tennisball_pos_2,tennisball_lin_vel_0,tennisball_lin_vel_1,tennisball_lin_vel_2,end_effector_pos_0,end_effector_pos_1,end_effector_pos_2,end_effector_rot_0,end_effector_rot_1,end_effector_rot_2,end_effector_rot_3,end_effector_lin_vel_0,end_effector_lin_vel_1,end_effector_lin_vel_2,obs_task_0,obs_task_1,obs_task_2,obs_task_3,obs_task_4,obs_task_5,obs_task_6,to_final_target_0,to_final_target_1,to_final_target_2,joint_acc_0,joint_acc_1,joint_acc_2,joint_acc_3,joint_acc_4,joint_acc_5,joint_acc_6
0.0,0.0,0.0,0.0,0.0,0.0,0.0,0.0,0.0,0.0,0.0,0.0,0.0,0.0,1.7802359,-1.0646509,-1.8151424,-1.1170107,1.9373155,1.1170107,-0.91629785,1.7802359,-1.0646509,-1.8151424,-1.1170107,1.9373155,1.1170107,-0.91629785,0.0,0.0,0.0,0.0,0.0,0.0,0.0,3.113699,-0.37911224,0.14584115,-3.7738435,-0.041262027,4.949159,0.5304146,-0.45449448,0.693097,0.5745483,0.17512383,0.15255436,0.7848268,0.0,0.0,0.0,1.0,0.0,0.0,0.0,0.0,0.0,0.0,-3.763699,-0.020887762,0.40415886,0.0,0.0,0.0,0.0,0.0,0.0,0.0
0.0,0.0,0.0,0.0,0.0,0.0,0.0,0.0,0.0,0.0,0.0,0.0,0.0,0.0,1.7802359,-1.0646509,-1.8151424,-1.1170107,1.9373155,1.1170107,-0.91629785,1.7802359,-1.0646509,-1.8151424,-1.1170107,1.9373155,1.1170107,-0.91629785,0.0,0.0,0.0,0.0,0.0,0.0,0.0,3.113699,-0.37911224,0.14584115,-3.7738435,-0.041262027,4.949159,0.5304146,-0.45449448,0.693097,0.5745483,0.17512383,0.15255436,0.7848268,0.0,0.0,0.0,1.0,0.0,0.0,0.0,0.0,0.0,0.0,-3.763699,-0.020887762,0.40415886,0.0,0.0,0.0,0.0,0.0,0.0,0.0
0.0,0.0,0.0,0.0,0.0,0.0,0.0,0.0,0.0,0.0,0.0,0.0,0.0,0.0,1.7802359,-1.0646509,-1.8151424,-1.1170107,1.9373155,1.1170107,-0.91629785,1.7802359,-1.0646509,-1.8151424,-1.1170107,1.9373155,1.1170107,-0.91629785,0.0,0.0,0.0,0.0,0.0,0.0,0.0,3.113699,-0.37911224,0.14584115,-3.7738435,-0.041262027,4.949159,0.5304146,-0.45449448,0.693097,0.5745483,0.17512383,0.15255436,0.7848268,0.0,0.0,0.0,1.0,0.0,0.0,0.0,0.0,0.0,0.0,-3.763699,-0.020887762,0.40415886,0.0,0.0,0.0,0.0,0.0,0.0,0.0
-176.0,63.888123,-8.7289295,110.0,11.043582,4.538403,-3.8087606,-0.8214811,0.34178835,-0.5806718,0.72508955,0.31419605,0.6196834,-0.5668728,1.6980878,-1.030472,-1.8732096,-1.0445018,1.9687351,1.178979,-0.97298515,1.7789351,-1.062219,-1.8214462,-1.1125895,1.9430699,1.1223818,-0.91882795,-0.17333378,0.3235018,-0.8397671,0.5898246,0.7662685,0.7142779,-0.3368924,3.0759888,-0.37952423,0.19455917,-3.7700703,-0.041220773,4.846025,0.5283432,-0.4576683,0.69375575,0.57860804,0.17376527,0.15108204,0.7824273,-0.27614647,-0.42348647,0.08760025,1.0,0.0,0.0,0.0,0.0,0.0,0.0,-3.7259889,-0.020475775,0.35544086,-17.265203,32.127632,-83.7627,59.059994,76.32652,70.818016,-33.52753
-176.0,-18.979477,-42.083363,110.0,12.658173,1.9398214,-3.0377986,-0.811339,-0.08513842,-0.56473416,0.69327146,0.4323527,0.6151583,-0.60726905,1.6978011,-1.0707328,-1.8779196,-1.0432624,1.9863052,1.1838976,-0.97955483,1.7772452,-1.058803,-1.8367794,-1.0998503,1.9553666,1.1357886,-0.9221296,-0.1752541,0.326988,-1.7104232,1.4996693,1.3544666,1.493941,-0.34248686,3.0383167,-0.37993622,0.24224663,-3.766301,-0.04117956,4.742994,0.5236778,-0.4658394,0.6945228,0.58742565,0.17053849,0.14703697,0.7773209,-0.5301829,-0.9447574,0.07848863,1.0,0.0,0.0,0.0,0.0,0.0,0.0,-3.6883168,-0.020063788,0.30775338,-2.5110722,-5.8861732,-70.83905,90.26072,49.941563,61.26244,-4.950261
-154.65744,105.57758,27.458546,90.90591,8.072396,7.2988024,-1.6672734,-0.7577804,0.30047038,-0.04188186,0.5412364,0.49240166,0.64792144,-0.55989933,1.7014672,-1.0287559,-1.8409675,-1.0457267,2.0046067,1.2005807,-0.9781195,1.7722765,-1.0548128,-1.8523242,-1.0834605,1.9691052,1.1505419,-0.92572683,-0.6041654,0.41970575,-1.4959141,1.6863487,1.3756478,1.4621395,-0.36710772,3.0006828,-0.3803482,0.28890455,-3.7625353,-0.04113839,4.6400657,0.51623726,-0.4767685,0.6967224,0.59902,0.16602075,0.14166608,0.7704173,-0.82286054,-1.1364512,0.27119857,1.0,0.0,0.0,0.0,0.0,0.0,0.0,-3.650683,-0.0196518,0.26109546,-42.970444,8.280432,23.439812,18.988014,0.6714344,-5.292821,-2.9728115
-98.47452,121.72105,45.008286,59.579983,4.764331,7.989116,-0.38745835,-0.7778008,0.22546268,0.0714688,0.5551719,0.4968595,0.6237253,-0.58825296,1.6944964,-1.0322665,-1.8451774,-1.0279433,2.0187912,1.2129145,-0.98455215,1.7630125,-1.0504946,-1.8628032,-1.0673357,1.9816918,1.1641566,-0.9295234,-1.0352626,0.43336934,-0.89058614,1.588068,1.2147309,1.3238167,-0.38665906,2.963087,-0.3807602,0.33453396,-3.7587736,-0.041097257,4.5372405,0.50629807,-0.4883423,0.70085454,0.61150914,0.16021328,0.13549112,0.7629092,-1.06248,-1.1536169,0.4654264,1.0,0.0,0.0,0.0,0.0,0.0,0.0,-3.6130872,-0.019239813,0.21546605,-43.518375,0.6016791,62.917423,-9.761262,-17.607761,-15.103197,-2.7813494
-44.89791,130.5515,51.162582,33.564747,1.7218313,6.9016743,0.20107117,-0.79424095,0.31761515,0.01638428,0.5518121,0.5437104,0.62462306,-0.5687309,1.6835884,-1.018733,-1.8611648,-1.0121545,2.036063,1.2266189,-0.9863965,1.750218,-1.0457453,-1.867459,-1.0531794,1.9925332,1.1762854,-0.93346876,-1.3622065,0.48695502,-0.31758547,1.3577712,1.0371938,1.1740305,-0.39974174,2.9255276,-0.38117218,0.3791359,-3.7550156,-0.04105617,4.4345183,0.49459457,-0.49926376,0.7066738,0.6238064,0.15328456,0.1289477,0.7554745,-1.2176877,-1.0598279,0.6234852,1.0,0.0,0.0,0.0,0.0,0.0,0.0,-3.5755277,-0.018827826,0.1708641,-33.136604,4.8342466,59.15841,-23.177265,-18.768333,-15.5187845,-2.1047235
-5.298319,133.92207,51.57785,18.43987,-0.28945005,5.3344455,0.2547521,-0.8032368,0.43260494,-0.0059785554,0.57313436,0.541185,0.60822374,-0.5760927,1.6698943,-1.0024848,-1.8680569,-0.99586594,2.0466516,1.2371078,-0.991078,1.7352434,-1.0400003,-1.8678501,-1.0411574,2.0018582,1.1870428,-0.9375228,-1.5437557,0.6024369,0.05798049,1.1495838,0.8958661,1.0425885,-0.40957755,2.8880043,-0.38158417,0.42271137,-3.7512615,-0.041015122,4.331898,0.48192406,-0.5088997,0.7138549,0.63555163,0.14550857,0.12264363,0.74823785,-1.294517,-0.91822904,0.75012594,1.0,0.0,0.0,0.0,0.0,0.0,0.0,-3.5380044,-0.018415838,0.12728864,-18.53006,11.17345,38.80431,-21.01643,-14.6524315,-13.280034,-1.6591132
16.72644,131.39558,48.32466,11.08934,-1.301907,3.901937,0.12895966,-0.81970125,0.53004116,-0.0111423535,0.5649244,0.559543,0.6037331,-0.5648758,1.6532733,-0.9869962,-1.8689643,-0.9846649,2.0578125,1.2474161,-0.9940104,1.7193075,-1.0327505,-1.8660591,-1.0307394,2.0102048,1.1966463,-0.94164556,-1.6113878,0.76471883,0.22234245,1.0053355,0.8136121,0.93319046,-0.41497988,2.8505192,-0.38199615,0.4652614,-3.7475111,-0.040974118,4.229381,0.46887398,-0.5170593,0.7221048,0.64676374,0.13717027,0.11705927,0.74106544,-1.3172823,-0.76928043,0.8490285,1.0,0.0,0.0,0.0,0.0,0.0,0.0,-3.5005193,-0.018003851,0.08473861,-7.074952,15.951622,17.269915,-14.605188,-8.461738,-10.906458,-1.0887325
29.25359,123.86362,44.134254,6.86376,-1.6862197,2.814073,0.05796589,-0.81884617,0.59899,0.012135119,0.540353,0.5858794,0.6095134,-0.56854343,1.6374229,-0.9728515,-1.8648455,-0.9767041,2.0687928,1.2575977,-0.99849993,1.7032725,-1.0238127,-1.8636444,-1.0213171,2.0181355,1.2053076,-0.9458093,-1.6017079,0.9359546,0.2497466,0.9204619,0.7856732,0.84409386,-0.41837677,2.8130722,-0.38240814,0.50678706,-3.7437644,-0.04093315,4.126966,0.45583916,-0.52381134,0.73117435,0.65752935,0.12850124,0.11237848,0.73383486,-1.3059518,-0.6288647,0.9245843,1.0,0.0,0.0,0.0,0.0,0.0,0.0,-3.4630723,-0.017591864,0.04321295,0.70352554,16.917812,3.3510118,-8.664644,-2.9019713,-8.823848,-0.79954267
35.821945,116.448784,41.439713,4.587367,-1.697944,2.2576034,0.09558987,-0.81051177,0.65215385,0.07450678,0.5095966,0.59409195,0.62130237,-0.5696945,1.6222212,-0.95859724,-1.8561937,-0.9703575,2.0775447,1.2674378,-1.0027788,1.6876265,-1.013307,-1.8612411,-1.0124689,2.0260167,1.2132078,-0.9499988,-1.552812,1.0881693,0.23889776,0.8724541,0.78885025,0.7722796,-0.42050162,2.7756634,-0.38282013,0.5472893,-3.7400212,-0.04089223,4.024654,0.4430275,-0.5292244,0.74090534,0.6678665,0.11960133,0.108516954,0.7265493,-1.2785244,-0.49777848,0.9875022,1.0,0.0,0.0,0.0,0.0,0.0,0.0,-3.4256635,-0.017179877,0.0027107,4.6613455,15.058327,-0.5613893,-4.983294,0.24930239,-7.1006775,-0.6267071
34.8481,104.71189,37.124577,3.769755,-1.4028122,1.8477776,0.16254242,-0.8076077,0.68738854,0.1100166,0.47480032,0.6180669,0.6257184,-0.5633141,1.6068658,-0.9445681,-1.8502394,-0.9649889,2.0878234,1.2757797,-1.0063303,1.6725107,-1.0015558,-1.8589466,-1.0040022,2.0340886,1.220492,-0.9541978,-1.4983075,1.2036935,0.22781812,0.83747977,0.8134975,0.71395737,-0.42099896,2.7382927,-0.38323212,0.58676916,-3.7362819,-0.040851343,3.9224443,0.43049622,-0.5334549,0.75113684,0.6777582,0.11054453,0.10524245,0.71926886,-1.2483505,-0.38378552,1.0331352,1.0,0.0,0.0,0.0,0.0,0.0,0.0,-3.3882928,-0.01676789,-0.03676915,5.254507,11.426473,-0.6448418,-3.6863804,2.4172425,-5.7652354,-0.41909218
31.36428,92.946945,33.0859,3.5398784,-1.0299315,1.6014473,0.2492714,-0.8023541,0.7066771,0.15651715,0.44212803,0.63496614,0.62923515,-0.5618935,1.5922754,-0.9308881,-1.8432949,-0.9597894,2.0975852,1.2834156,-1.0103872,1.6578661,-0.9889685,-1.8565433,-0.99588746,2.0424695,1.2272764,-0.9583978,-1.4539059,1.2766982,0.24591237,0.8021263,0.8464457,0.6666348,-0.420742,2.7009563,-0.3836403,0.62522775,-3.7325463,-0.040810503,3.820337,0.41823387,-0.5366783,0.76171035,0.68716556,0.10138268,0.10227804,0.7120844,-1.2217425,-0.28596163,1.0632263,1.0,0.0,0.0,0.0,0.0,0.0,0.0,-3.3509564,-0.016359717,-0.07522774,4.2675734,7.2048426,2.2429972,-3.7294984,3.2609224,-4.665637,-0.3148377
26.657455,83.24584,29.277431,3.964044,-0.7386283,1.3887343,0.27540553,-0.7942257,0.7293709,0.17169425,0.4180779,0.6456803,0.63364035,-0.5540012,1.5784435,-0.9160314,-1.8393738,-0.9540797,2.1070375,1.2906405,-1.0137979,1.6435629,-0.9758717,-1.8538616,-0.9881398,2.0511785,1.2336565,-0.96258634,-1.4228114,1.3205435,0.27691,0.7650762,0.87857527,0.6285027,-0.4193299,2.6636581,-0.38404465,0.662666,-3.7288146,-0.0407697,3.7183318,0.4061966,-0.5390167,0.7724814,0.69607985,0.09216319,0.0994392,0.7050465,-1.1995944,-0.20266363,1.0793036,1.0,0.0,0.0,0.0,0.0,0.0,0.0,-3.3136582,-0.015955359,-0.11266601,2.9541254,4.313946,3.4943402,-3.9008617,3.202176,-3.7338495,-0.17185807
22.550825,73.43164,25.157078,3.6098003,-0.6004787,1.1038401,0.28559908,-0.7895707,0.73987186,0.17511445,0.37995574,0.653677,0.64627475,-0.5479114,1.5646058,-0.9018845,-1.8363501,-0.95014423,2.1165462,1.298284,-1.0173775,1.6294695,-0.962504,-1.8508842,-0.98084897,2.060166,1.2397162,-0.9667558,-1.4052057,1.341938,0.30580643,0.7163796,0.9055037,0.59904796,-0.41705924,2.626398,-0.384449,0.699085,-3.7250867,-0.040728938,3.6164286,0.39436722,-0.5406227,0.78328544,0.70450723,0.082961485,0.09666204,0.69817144,-1.1786525,-0.13163473,1.077945,1.0,0.0,0.0,0.0,0.0,0.0,0.0,-3.2763982,-0.015551001,-0.14908499,1.614356,2.0939589,3.240943,-5.0795794,2.7072787,-2.8242826,-0.05812049
19.030724,66.57948,22.106321,3.654027,-0.49109602,0.88389605,0.2788628,-0.7893641,0.7471913,0.18339351,0.34456965,0.66837287,0.6445132,-0.5443788,1.550533,-0.8877849,-1.8325448,-0.946392,2.1270032,1.3041675,-1.0211937,1.6154658,-0.94902194,-1.847655,-0.9741151,2.0693974,1.245524,-0.9709005,-1.3993657,1.3502755,0.32971945,0.6583342,0.9293681,0.57540375,-0.4143719,2.5891762,-0.38485336,0.7344857,-3.7213624,-0.040688217,3.514627,0.3827324,-0.5415878,0.79398584,0.71246505,0.07385296,0.09392607,0.69146013,-1.158743,-0.07052948,1.0644535,1.0,0.0,0.0,0.0,0.0,0.0,0.0,-3.2391763,-0.015146643,-0.18448567,0.44326782,0.80838203,2.7015686,-6.022799,2.425456,-2.2108197,0.010186434
21.028591,61.64057,19.962265,0.92642593,-0.775261,0.5582121,0.31813762,-0.77986777,0.75640845,0.17430764,0.27503118,0.67073774,0.64831614,-0.53939676,1.5374789,-0.8733811,-1.8302243,-0.94661194,2.1364713,1.3103557,-1.0248401,1.6015078,-0.9354826,-1.8443077,-0.9681689,2.0788198,1.2511374,-0.9750146,-1.3949368,1.3550904,0.33731908,0.5726116,0.94654834,0.55742705,-0.4113155,2.5519905,-0.38525772,0.76886916,-3.7176416,-0.040647537,3.4129274,0.37137032,-0.5419388,0.80444366,0.71992826,0.064936295,0.09130231,0.6849456,-1.1280123,-0.009393098,1.0362189,1.0,0.0,0.0,0.0,0.0,0.0,0.0,-3.2019906,-0.014742285,-0.21886915,0.30181408,0.47576427,1.0415733,-8.811199,1.7740726,-1.5643358,0.06502271
22.414152,59.73017,19.003948,-0.20946026,-0.934329,0.35767177,0.3259207,-0.7715208,0.7644807,0.17006367,0.22876823,0.6749487,0.65632856,-0.5279521,1.5243556,-0.85903454,-1.8273013,-0.9452921,2.1463146,1.3167702,-1.0278099,1.5876127,-0.92188704,-1.8409717,-0.9631507,2.0883756,1.2566057,-0.97909254,-1.3883432,1.3610932,0.33309558,0.4774688,0.9587646,0.5441776,-0.4073216,2.514841,-0.38566208,0.8022364,-3.7139246,-0.040606897,3.3113294,0.36036682,-0.5416832,0.81457746,0.72688645,0.056268584,0.08887161,0.67865425,-1.089958,0.05058078,1.002302,1.0,0.0,0.0,0.0,0.0,0.0,0.0,-3.1648412,-0.014337927,-0.25223637,0.52673817,0.6094456,-0.1766622,-9.753466,1.2965083,-1.0521889,0.17766356
21.87283,57.67079,17.873106,-0.6601229,-1.0059414,0.19543657,0.32174414,-0.7785879,0.76966363,0.16524023,0.16389409,0.67909044,0.65200245,-0.5278726,1.509754,-0.8449207,-1.8244476,-0.94676125,2.1562846,1.321806,-1.0318798,1.5737368,-0.9082209,-1.837733,-0.95918053,2.0980268,1.2619597,-0.9831323,-1.3877412,1.3684672,0.32142553,0.3693748,0.96744335,0.533474,-0.40355018,2.4777298,-0.38606644,0.83458835,-3.7102115,-0.0405663,3.209833,0.3497696,-0.54084396,0.82433474,0.73335403,0.047900476,0.0866952,0.6725929,-1.0480173,0.10746916,0.9632277,1.0,0.0,0.0,0.0,0.0,0.0,0.0,-3.12773,-0.013933569,-0.28458834,-0.069761276,0.76019764,-0.9508848,-11.046553,0.9572625,-0.7728934,0.1802504
26.627144,56.814117,17.771086,-3.975812,-1.3730769,-0.028547019,0.4164173,-0.7740787,0.7759957,0.1698915,0.055694908,0.6812344,0.6484366,-0.5181911,1.496329,-0.8306213,-1.8207439,-0.953611,2.16615,1.3268033,-1.0349514,1.5598704,-0.8944651,-1.8345878,-0.95655507,2.1077428,1.267224,-0.98713106,-1.3864707,1.3779926,0.31291643,0.226142,0.97332346,0.52513784,-0.39921054,2.4406567,-0.3864708,0.86592615,-3.7065022,-0.040525742,3.108438,0.33968735,-0.53939056,0.8336439,0.7392705,0.03990426,0.08483529,0.6668505,-0.9920238,0.17008372,0.91639197,1.0,0.0,0.0,0.0,0.0,0.0,0.0,-3.0906568,-0.013529211,-0.31592613,0.0022888184,0.99184513,-0.6497383,-14.560035,0.6853223,-0.46765804,0.25300384
39.19993,53.750183,17.650175,-13.643685,-2.2962608,-0.51138306,0.7147669,-0.7746099,0.77572024,0.19698209,-0.1666747,0.6917194,0.6397829,-0.51342314,1.4824094,-0.81689304,-1.8148896,-0.97322255,2.1769147,1.3312023,-1.0384734,1.5460097,-0.880633,-1.8313758,-0.9561297,2.1175275,1.2724177,-0.99108595,-1.3860881,1.3851362,0.32477385,-0.019387657,0.98063093,0.5192749,-0.39474264,2.4036179,-0.38687515,0.8962508,-3.7027965,-0.040485222,3.0071445,0.33041382,-0.5371666,0.8423059,0.7443946,0.03248262,0.083368786,0.6617183,-0.9020379,0.24982652,0.84569997,1.0,0.0,0.0,0.0,0.0,0.0,0.0,-3.053618,-0.013124853,-0.34625077,-0.07548332,0.77991486,1.3895571,-24.790148,0.818038,-0.04787445,0.29098988
50.172802,57.00364,20.064919,-19.589935,-2.9227653,-0.70055884,0.94545984,-0.76247185,0.7864452,0.2544824,-0.3337066,0.6961644,0.6360289,-0.51373345,1.4697624,-0.8019885,-1.8059276,-0.9895004,2.187144,1.3360206,-1.0424592,1.5322119,-0.8667017,-1.8277538,-0.95858544,2.1273923,1.2775656,-0.9949998,-1.3778902,1.3961414,0.37496853,-0.32155594,0.9884018,0.51531786,-0.3905307,2.3666172,-0.3872795,0.9255632,-3.6990943,-0.040444747,2.905952,0.32221985,-0.5340233,0.8502294,0.7484977,0.025734939,0.08230868,0.657506,-0.78774667,0.34553483,0.7704087,1.0,0.0,0.0,0.0,0.0,0.0,0.0,-3.0166173,-0.012720495,-0.3755632,0.7619858,1.1959076,5.136138,-30.385801,0.91428757,0.24335384,0.311172
49.52385,58.46417,20.766266,-17.386932,-2.7277036,-0.72122645,0.8962872,-0.7435582,0.79119635,0.27149957,-0.3997139,0.6908477,0.63479304,-0.4955832,1.457856,-0.7875821,-1.8006039,-0.99855685,2.1964772,1.3410449,-1.0445582,1.5185877,-0.852656,-1.8235767,-0.96379155,2.1373067,1.2826773,-0.9988603,-1.3573405,1.4077502,0.4317372,-0.58724385,0.99305594,0.5119796,-0.38471982,2.3296547,-0.38768387,0.9538645,-3.695396,-0.04040431,2.804861,0.3151474,-0.529953,0.85747445,0.75158995,0.019607348,0.08162276,0.65426743,-0.6756099,0.4341771,0.7046516,1.0,0.0,0.0,0.0,0.0,0.0,0.0,-2.9796548,-0.012316138,-0.4038645,2.0698547,1.286912,5.621332,-26.666004,0.69612265,0.27852058,0.52494407
45.284084,60.763977,21.73286,-12.50753,-2.2509596,-0.56233937,0.79043317,-0.7273339,0.79522765,0.31689402,-0.46754378,0.6919471,0.63189733,-0.48477218,1.4458543,-0.7731332,-1.7918873,-1.010546,2.2065015,1.345867,-1.0473375,1.5052305,-0.8385006,-1.8187358,-0.971214,2.1472592,1.2877566,-1.0026573,-1.3283665,1.4186838,0.50095934,-0.7940048,0.9969423,0.50846094,-0.3781886,2.2927284,-0.38808823,0.98115563,-3.6917014,-0.04036391,2.703871,0.30908585,-0.52505875,0.86419046,0.75379133,0.013951052,0.08121462,0.6519265,-0.57684493,0.51322156,0.655557,1.0,0.0,0.0,0.0,0.0,0.0,0.0,-2.9427285,-0.01191178,-0.43115562,2.9606104,1.2471199,6.7105412,-20.72605,0.72312355,0.20544529,0.6316066
42.06426,63.72981,23.2994,-7.995031,-1.8089427,-0.343966,0.71791065,-0.7035394,0.7968204,0.38642058,-0.5327874,0.69202626,0.62244284,-0.474464,1.4348766,-0.75881857,-1.7800938,-1.0244927,2.216462,1.3500009,-1.0501037,1.49223,-0.82425654,-1.813029,-0.98028535,2.1572423,1.2927958,-1.0063862,-1.2902329,1.4268715,0.59281236,-0.9449589,1.0005339,0.5041877,-0.37129393,2.2558384,-0.38849258,1.0074376,-3.6880105,-0.040323555,2.6029818,0.30391502,-0.5194168,0.8705517,0.75520283,0.008583276,0.08095338,0.6504165,-0.4913199,0.586777,0.62405163,1.0,0.0,0.0,0.0,0.0,0.0,0.0,-2.9058385,-0.011507422,-0.45743757,3.912568,0.99897385,8.834577,-15.114307,0.8002281,0.096940994,0.68754554
38.337547,66.57594,24.634466,-3.1930985,-1.380601,-0.12732966,0.6219596,-0.67227423,0.80350995,0.4397438,-0.5616036,0.69288886,0.6192192,-0.44716612,1.4250026,-0.74390554,-1.7690547,-1.0364457,2.2265313,1.3547177,-1.0511028,1.4796892,-0.8099266,-1.8063343,-0.9904191,2.1672597,1.2977911,-1.010033,-1.2416831,1.4356334,0.6936823,-1.0362122,1.0042238,0.49974972,-0.3625651,2.2189865,-0.38889694,1.0327115,-3.684323,-0.04028324,2.5021937,0.29948807,-0.5130615,0.8767302,0.7559249,0.00332098,0.08072894,0.6496533,-0.41972008,0.65495116,0.6097245,1.0,0.0,0.0,0.0,0.0,0.0,0.0,-2.8689866,-0.011103064,-0.4827115,4.9761057,1.0794401,9.629286,-9.131002,0.8927107,0.0500381,0.8805871
34.563984,67.71151,25.180096,0.8687115,-1.0246773,0.006766975,0.52616125,-0.6391042,0.8092782,0.48618582,-0.5738212,0.6942409,0.60163265,-0.42149824,1.4157789,-0.7289988,-1.7577157,-1.0478013,2.2366838,1.3579544,-1.0521828,1.4676958,-0.79550517,-1.7986419,-1.0010905,2.1773152,1.3027331,-1.0135826,-1.1847757,1.4450513,0.7926548,-1.0773749,1.008019,0.4938221,-0.35229394,2.1821709,-0.3893013,1.0569782,-3.6806395,-0.040242966,2.4015062,0.29569244,-0.5060768,0.88285977,0.7560565,-0.0019769398,0.08047372,0.64953727,-0.3598813,0.71716493,0.6075475,1.0,0.0,0.0,0.0,0.0,0.0,0.0,-2.832171,-0.010698706,-0.5069782,5.8226824,1.1603355,9.378934,-4.120922,0.9458065,-0.12829304,1.0365725
20.714485,59.686604,20.73091,6.6480064,-0.36353758,0.026025414,0.30401108,-0.6645547,0.8092896,0.4890744,-0.5911109,0.69616276,0.60737777,-0.4063103,1.4012403,-0.7145762,-1.7497345,-1.0602016,2.2469316,1.3634708,-1.0542136,1.4560267,-0.78101313,-1.7902019,-1.0119796,2.187405,1.3076178,-1.0170273,-1.1606724,1.4513083,0.85999346,-1.0927477,1.0108303,0.48796242,-0.34177583,2.1453915,-0.38970566,1.0802388,-3.6769598,-0.04020273,2.3009193,0.29231453,-0.49864197,0.88894355,0.75579375,-0.0073050917,0.08020604,0.649838,-0.32422453,0.7564089,0.6019941,1.0,0.0,0.0,0.0,0.0,0.0,0.0,-2.7953916,-0.010294348,-0.5302388,2.461338,0.82757473,6.330657,-1.6009808,0.76892376,-0.23338199,1.0563135
12.422354,54.164318,17.829962,10.235144,0.035800338,0.015115112,0.16350542,-0.662582,0.81100136,0.50817215,-0.5900556,0.6924215,0.60750175,-0.37300748,1.3897685,-0.699913,-1.7393847,-1.0709851,2.2566473,1.3683679,-1.054328,1.4444624,-0.76647437,-1.7812545,-1.0228763,2.1975026,1.3124472,-1.0203537,-1.1550604,1.4553477,0.9051309,-1.0890915,1.0105772,0.48219246,-0.32940006,2.1086502,-0.39011002,1.1024944,-3.6732833,-0.040162537,2.200433,0.28918266,-0.49092102,0.8949601,0.7553017,-0.012636458,0.07996448,0.6503577,-0.30278614,0.78109294,0.59442586,1.0,0.0,0.0,0.0,0.0,0.0,0.0,-2.7586503,-0.00988999,-0.55249435,0.55572987,0.5974531,4.188657,0.2567768,0.41267872,-0.29136539,1.2354076
8.7378645,50.456455,16.140978,12.060221,0.24472946,-0.045909867,0.08385111,-0.6489219,0.81132054,0.52197117,-0.57470495,0.69288236,0.601111,-0.3490836,1.3795702,-0.6853423,-1.7290574,-1.0803467,2.2667909,1.3725582,-1.0552621,1.4329325,-0.7519127,-1.7719867,-1.0336089,2.2075887,1.3172175,-1.0235485,-1.152513,1.4570693,0.93314713,-1.068512,1.0092173,0.47624424,-0.3162197,2.0719452,-0.39051437,1.1237457,-3.6696107,-0.040122382,2.100047,0.28622055,-0.48300934,0.90089494,0.7546777,-0.017954314,0.079772964,0.6509804,-0.28742826,0.7969173,0.58592314,1.0,0.0,0.0,0.0,0.0,0.0,0.0,-2.7219453,-0.009485632,-0.57374567,0.22387505,0.36087036,2.5191307,1.9203663,0.26888847,-0.34326315,1.3064861
1.7754693,45.303318,13.491193,15.001111,0.6049957,-0.04557395,-0.031250242,-0.67376274,0.8111582,0.52235657,-0.55709463,0.6960342,0.61024296,-0.32227755,1.3655562,-0.6707969,-1.7197511,-1.0893184,2.277192,1.3782418,-1.0557762,1.4212786,-0.73734725,-1.7625644,-1.0440536,2.217667,1.3219401,-1.026604,-1.1697885,1.4569547,0.94448066,-1.0371054,1.0084797,0.47139713,-0.3020981,2.0352764,-0.39091873,1.143994,-3.665942,-0.04008227,1.9997618,0.28331375,-0.47504044,0.9067311,0.7540332,-0.023239462,0.07964538,0.6515753,-0.2845323,0.80013686,0.5754691,1.0,0.0,0.0,0.0,0.0,0.0,0.0,-2.6852765,-0.009081274,-0.59399396,-1.8209457,0.16729832,0.93432665,2.9585361,0.28836727,-0.29184222,1.3936579
-0.6742668,41.179928,11.792035,15.673416,0.7394608,-0.12713438,-0.06521855,-0.6833525,0.8049322,0.5276631,-0.5464078,0.69422865,0.6066137,-0.29196984,1.3529433,-0.65685403,-1.7097981,-1.0986943,2.28709,1.3826014,-1.055801,1.4093996,-0.722819,-1.7530868,-1.0541778,2.227734,1.326615,-1.0295109,-1.1945057,1.4520452,0.9483983,-1.0049782,1.0070112,0.46675563,-0.28685823,1.9986458,-0.39131927,1.1632402,-3.6622767,-0.040042195,1.8995764,0.28041458,-0.46709824,0.912436,0.7534272,-0.028456237,0.079588346,0.6520762,-0.28472447,0.7964749,0.5614103,1.0,0.0,0.0,0.0,0.0,0.0,0.0,-2.6486459,-0.008680731,-0.6132402,-2.5897264,-0.32236576,0.24079084,3.0090094,0.18184185,-0.29733777,1.4983773
-0.18300152,39.194786,11.039003,14.787392,0.662307,-0.24574777,-0.058786854,-0.6935211,0.8066482,0.5236696,-0.54919463,0.6981799,0.6130546,-0.28091717,1.3400475,-0.64215416,-1.7007198,-1.1090972,2.297552,1.3879204,-1.0576025,1.3972555,-0.70833266,-1.7436264,-1.0640693,2.2377973,1.3312536,-1.0322708,-1.221276,1.4479958,0.94473,-0.9846448,1.0070612,0.46337596,-0.27242577,1.9620495,-0.391716,1.1814853,-3.658615,-0.04000216,1.7994912,0.2775383,-0.45918655,0.9179658,0.7528682,-0.03355808,0.07962578,0.6524745,-0.28132072,0.79183257,0.54274607,1.0,0.0,0.0,0.0,0.0,0.0,0.0,-2.6120496,-0.008284003,-0.6314853,-2.7987719,-0.24411678,-0.48636198,1.8326163,0.30567646,-0.17638803,1.4207065
2.6414304,38.213886,10.9990225,12.817606,0.4597718,-0.3984689,-0.009861801,-0.696464,0.80348957,0.5248272,-0.55533326,0.6942256,0.6096648,-0.2700566,1.3276092,-0.6279837,-1.6911436,-1.1196026,2.3072197,1.3922201,-1.0592765,1.3848921,-0.6938921,-1.7342117,-1.0738711,2.247849,1.3358618,-1.0348934,-1.2417916,1.4432123,0.9399048,-0.97919834,1.0056474,0.4604426,-0.25896594,1.9254913,-0.39211273,1.1987302,-3.6549573,-0.039962165,1.699506,0.2747612,-0.4513092,0.9232728,0.75231975,-0.038495734,0.07978679,0.65281475,-0.269491,0.7896985,0.5192738,1.0,0.0,0.0,0.0,0.0,0.0,0.0,-2.5754914,-0.007887274,-0.6487302,-2.1517038,-0.3235817,-0.5968213,0.36045313,0.13849735,-0.12040138,1.3254285
1.2387524,36.092842,10.061148,13.255917,0.51455975,-0.44373587,-0.036914498,-0.72168535,0.8016576,0.5156479,-0.5461107,0.69065,0.61455303,-0.2499117,1.3127235,-0.6137264,-1.6826469,-1.1284822,2.316914,1.397317,-1.0598845,1.3722731,-0.67949736,-1.7248828,-1.0836349,2.257874,1.3404452,-1.0373825,-1.268989,1.4387001,0.93028086,-0.9762205,1.0027468,0.45831776,-0.2455511,1.8889694,-0.39250946,1.2149761,-3.651303,-0.03992221,1.5996208,0.27208328,-0.44347,0.9283329,0.7517963,-0.04324251,0.08009463,0.6530828,-0.25914252,0.7843368,0.49415258,1.0,0.0,0.0,0.0,0.0,0.0,0.0,-2.5389695,-0.0074905455,-0.66497606,-2.8396606,-0.30155182,-1.0432482,0.10483265,-0.027132034,-0.05888939,1.3208479
4.56663,38.03516,11.403476,12.094488,0.32979667,-0.48027647,0.025408056,-0.71967137,0.80377865,0.52721214,-0.55018514,0.68899727,0.6139822,-0.21638644,1.300306,-0.5991195,-1.6721616,-1.1386534,2.3267736,1.4018434,-1.0590211,1.35945,-0.6651255,-1.7155845,-1.0934119,2.2678685,1.3450114,-1.0397266,-1.2869911,1.4371533,0.9292569,-0.9786713,0.9996106,0.45673028,-0.23065825,1.8524837,-0.3929062,1.2302239,-3.6476524,-0.039882295,1.4998355,0.26955986,-0.43564224,0.9331522,0.7512561,-0.04780743,0.08055415,0.6533296,-0.24219126,0.7855739,0.47048524,1.0,0.0,0.0,0.0,0.0,0.0,0.0,-2.5024838,-0.007093817,-0.6802239,-1.894331,-0.0010728836,-0.20661354,-0.4124403,-0.040781498,0.01091361,1.4733851
4.4117336,36.218533,10.954536,12.105746,0.37853336,-0.5213335,0.0411185,-0.7352715,0.79478294,0.5298661,-0.55020356,0.689383,0.61621594,-0.18085846,1.2859229,-0.5856472,-1.6625979,-1.1484323,2.3368068,1.4066329,-1.0578125,1.3464419,-0.65080035,-1.7062614,-1.1032233,2.2778401,1.3495661,-1.0419086,-1.3058106,1.4315575,0.9329831,-0.9824939,0.99732655,0.4556514,-0.21412314,1.8160343,-0.39330292,1.2444746,-3.6440055,-0.039842423,1.40015,0.26720238,-0.42780304,0.9377281,0.7506735,-0.05219106,0.081142984,0.653591,-0.22541825,0.78491557,0.4458885,1.0,0.0,0.0,0.0,0.0,0.0,0.0,-2.4660344,-0.0066970885,-0.69447464,-1.9774199,-0.40869713,0.2768755,-0.55214167,0.03887415,0.05503297,1.6342759
4.1733437,36.529816,11.269106,13.059578,0.4264686,-0.48750275,0.023800792,-0.7449109,0.79789454,0.52986777,-0.5361382,0.68624693,0.6209896,-0.16033548,1.2719507,-0.5710109,-1.6532747,-1.1568371,2.3464649,1.4116651,-1.0579422,1.3332525,-0.63650954,-1.6968944,-1.1130023,2.2877889,1.3541151,-1.0439247,-1.3235986,1.4287431,0.93779963,-0.9770586,0.9947303,0.45519304,-0.19757003,1.7796211,-0.39369965,1.2577293,-3.6403623,-0.03980259,1.300564,0.2650032,-0.41996384,0.942088,0.75005835,-0.056423947,0.08185135,0.6538571,-0.21041873,0.784844,0.4252176,1.0,0.0,0.0,0.0,0.0,0.0,0.0,-2.4296212,-0.00630036,-0.7077293,-1.8830061,-0.12691021,0.38784742,0.37356615,0.015938282,0.1067698,1.6365558
2.3406324,33.41979,9.976836,14.088521,0.5844357,-0.53015375,-0.010042984,-0.7570214,0.7896886,0.51844746,-0.5225969,0.68117493,0.62476206,-0.10544196,1.2575504,-0.55754066,-1.6450497,-1.165262,2.3559062,1.4165913,-1.0544689,1.3198763,-0.62227404,-1.687537,-1.1226554,2.2976956,1.3586622,-1.0457519,-1.3426323,1.422396,0.9348264,-0.96214443,0.9906231,0.4550807,-0.17788155,1.7432461,-0.39409637,1.2699888,-3.6367226,-0.039762795,1.2010778,0.2629223,-0.41217804,0.9462408,0.74944186,-0.060517147,0.082674146,0.65409446,-0.19884497,0.7786839,0.4044871,1.0,0.0,0.0,0.0,0.0,0.0,0.0,-2.3932462,-0.0059036314,-0.71998876,-2.0228624,-0.48406124,-0.3697157,1.3028979,-0.14787912,0.12174845,1.9423753
2.5118608,34.01004,10.605809,15.160472,0.6460433,-0.47172844,0.011304755,-0.760922,0.78943795,0.5289646,-0.50010717,0.6756277,0.6309257,0.011547202,1.2437841,-0.54333025,-1.6346405,-1.1726661,2.3652585,1.4217548,-1.0445973,1.3063399,-0.6080929,-1.6781719,-1.1320624,2.3075528,1.3632132,-1.0473121,-1.3577936,1.41714,0.9368016,-0.93429834,0.9851112,0.45561758,-0.14884204,1.7069054,-0.3944931,1.281254,-3.6330867,-0.039723042,1.101691,0.26094627,-0.4044342,0.95022714,0.7488124,-0.06451718,0.08359245,0.65431625,-0.18927827,0.7740968,0.38922557,1.0,0.0,0.0,0.0,0.0,0.0,0.0,-2.3569055,-0.005506903,-0.73125404,-1.6388893,-0.3701687,0.11591911,2.597189,-0.27160645,0.18148422,2.8752506
1.3576035,31.701765,9.703051,15.9524555,0.76497203,-0.50488687,0.0116796475,-0.77139246,0.78338224,0.5175415,-0.481055,0.6709016,0.6340224,0.13874963,1.2292006,-0.5297547,-1.6264178,-1.1801679,2.374643,1.4266155,-1.0334371,1.2926508,-0.5939795,-1.6688354,-1.1411357,2.317349,1.3677717,-1.048508,-1.3730664,1.4100018,0.9321409,-0.89906424,0.9788081,0.45635182,-0.10978491,1.6706028,-0.39488983,1.2915263,-3.6294544,-0.039683327,1.0024035,0.25904465,-0.39676285,0.95406455,0.74816364,-0.068440676,0.08459961,0.6545303,-0.18201298,0.7653999,0.37446395,1.0,0.0,0.0,0.0,0.0,0.0,0.0,-2.320603,-0.0051101744,-0.7415263,-1.6611099,-0.5616188,-0.53088665,3.3247352,-0.35879612,0.18708706,3.871654
1.6438794,29.692041,8.985075,15.226946,0.7335393,-0.5965294,0.03672273,-0.78102165,0.7767408,0.5142033,-0.48240817,0.66558266,0.6455623,0.20656213,1.2145487,-0.5163054,-1.6174151,-1.1893765,2.3839073,1.432328,-1.0278518,1.2788073,-0.5799538,-1.6595638,-1.1499267,2.3270764,1.3723456,-1.0492882,-1.3886954,1.4005462,0.92528135,-0.8732466,0.9715935,0.4581698,-0.06770205,1.6343346,-0.39528656,1.3008064,-3.6258256,-0.039643653,0.9032153,0.25723457,-0.3891983,0.9577271,0.74747926,-0.072258525,0.0857059,0.65475786,-0.1721484,0.7551572,0.3560816,1.0,0.0,0.0,0.0,0.0,0.0,0.0,-2.2843347,-0.004713446,-0.7508064,-1.6913652,-0.8001566,-0.735569,2.3872852,-0.46772957,0.29354095,4.173128
1.1712446,27.725058,8.181373,15.5534115,0.7826288,-0.6570324,0.022279622,-0.7840695,0.77127993,0.4980266,-0.456184,0.6538491,0.6528365,0.28136897,1.2004004,-0.5028258,-1.6097611,-1.1955451,2.3924613,1.4376292,-1.0211513,1.2648321,-0.56603014,-1.6504295,-1.1584258,2.3367085,1.3769423,-1.0496315,-1.4008734,1.3900144,0.90938646,-0.8427684,0.96127146,0.460526,-0.023283286,1.5981045,-0.3956833,1.3090954,-3.6222007,-0.03960402,0.80412626,0.2555256,-0.3817482,0.96120274,0.746768,-0.075958624,0.086925566,0.65498996,-0.16237533,0.74180907,0.33744824,1.0,0.0,0.0,0.0,0.0,0.0,0.0,-2.2481046,-0.0043167174,-0.7590954,-1.3448238,-0.91097355,-1.6319871,2.8487682,-0.7912278,0.33879876,4.4032598
2.0575986,25.901796,7.5523486,14.349588,0.6783923,-0.7799151,0.05581779,-0.7870502,0.7612698,0.490039,-0.4588924,0.62996936,0.6559665,0.36491752,1.1861271,-0.48990315,-1.6014256,-1.2043151,2.3997054,1.442539,-1.0131397,1.2507635,-0.55223715,-1.6414745,-1.1667056,2.3461804,1.3815638,-1.0495113,-1.4092902,1.3762287,0.8907841,-0.8237686,0.943137,0.4630229,0.023633404,1.5619087,-0.39608002,1.3163942,-3.6185791,-0.039564423,0.7051363,0.2539482,-0.37443924,0.9644567,0.7460101,-0.079507165,0.08829174,0.6552496,-0.14763649,0.72788095,0.3142464,1.0,0.0,0.0,0.0,0.0,0.0,0.0,-2.2119088,-0.003919989,-0.7663942,-0.9470463,-1.2430668,-1.9014835,1.7104506,-1.5913606,0.35663843,4.650277
1.7106395,23.73483,6.696521,14.347721,0.71369606,-0.8499241,0.043897636,-0.7893049,0.7510154,0.47295567,-0.44291234,0.61504424,0.66141474,0.40855417,1.171833,-0.4771356,-1.5941789,-1.2109969,2.4076848,1.4477053,-1.0086559,1.2366339,-0.5386034,-1.6327484,-1.1747966,2.3554463,1.386212,-1.0489353,-1.4144195,1.359559,0.866338,-0.8050047,0.9215675,0.46568358,0.06875053,1.5257511,-0.39647675,1.3227038,-3.6149614,-0.039524868,0.60624534,0.2525215,-0.3672943,0.967468,0.7452104,-0.082883656,0.08982046,0.6555334,-0.13238862,0.71086717,0.28974065,1.0,0.0,0.0,0.0,0.0,0.0,0.0,-2.1757512,-0.0035232604,-0.7727038,-0.6093979,-1.535964,-2.4834633,1.685977,-1.9491076,0.36644936,4.4668407
2.3077846,23.343666,6.828973,14.321477,0.68759716,-0.8715824,0.05714526,-0.7862009,0.74144816,0.46710542,-0.43046388,0.5924773,0.66308415,0.46101272,1.1580138,-0.4644586,-1.5860379,-1.2178429,2.414694,1.4525204,-1.0028341,1.2224947,-0.5251471,-1.6242473,-1.1827006,2.3644605,1.390885,-1.0479187,-1.4141893,1.3414764,0.84439945,-0.7860538,0.8954648,0.4681704,0.112598635,1.4896278,-0.39687347,1.3280252,-3.6113472,-0.03948535,0.5074532,0.25126266,-0.36029816,0.97023934,0.744362,-0.08609335,0.09151763,0.6558488,-0.11571759,0.6949379,0.26611584,1.0,0.0,0.0,0.0,0.0,0.0,0.0,-2.139628,-0.0031265318,-0.7780252,-0.058746338,-1.6777515,-2.244091,1.713109,-2.4024487,0.34914017,4.3385105
1.5169964,18.8743,4.5646143,12.7582655,0.68932277,-1.0828395,0.04705414,-0.7940818,0.7256179,0.43066806,-0.45499992,0.58342427,0.6612457,0.4775303,1.1430866,-0.45258528,-1.5811805,-1.2282007,2.422803,1.4570096,-1.0001657,1.2083384,-0.51190436,-1.6160762,-1.190578,2.3732305,1.3955771,-1.0464977,-1.4165857,1.3189329,0.8079387,-0.78902525,0.871042,0.47002715,0.1516981,1.4535427,-0.3972702,1.3323596,-3.6077366,-0.039445873,0.4087599,0.25020218,-0.35353088,0.9727014,0.74348164,-0.08904299,0.09339883,0.65618825,-0.09534318,0.67116755,0.2329155,1.0,0.0,0.0,0.0,0.0,0.0,0.0,-2.1035428,-0.0027298033,-0.78235954,-0.3052473,-2.1378517,-3.672576,-0.47684908,-2.2818565,0.2783656,3.863123
1.2836294,18.669054,4.314462,12.991997,0.6844191,-1.1186972,0.013956779,-0.79416263,0.72522014,0.4040805,-0.4472841,0.5694239,0.6619066,0.4888558,1.1289221,-0.43938234,-1.5756682,-1.2353064,2.430173,1.4617677,-0.9976121,1.1941592,-0.49884284,-1.6083343,-1.1984992,2.381764,1.4002863,-1.0447239,-1.4187485,1.3023305,0.76287144,-0.7936579,0.84795976,0.47148103,0.18578963,1.4174919,-0.39766693,1.3357075,-3.6041296,-0.039406434,0.31016526,0.24934006,-0.3469963,0.9748334,0.7426062,-0.091692284,0.09549097,0.65651345,-0.074446745,0.64681995,0.20024572,1.0,0.0,0.0,0.0,0.0,0.0,0.0,-2.067492,-0.0023330748,-0.78570753,-0.28703213,-1.5454292,-4.5200944,-0.63716173,-2.1594167,0.22495389,3.3663034
0.084038734,15.462742,2.5582778,12.883196,0.7485743,-1.2405508,-0.035689943,-0.7904959,0.71244353,0.35450354,-0.4500703,0.5445887,0.66653675,0.502372,1.1151096,-0.42759848,-1.572884,-1.2435062,2.4362228,1.46694,-0.9944867,1.1799799,-0.48595107,-1.6011894,-1.2064872,2.3900418,1.4050108,-1.042641,-1.417892,1.2851458,0.69844216,-0.80100054,0.82149273,0.47298148,0.2155235,1.3814774,-0.39806366,1.3380704,-3.600526,-0.039367035,0.2116692,0.248703,-0.34075546,0.976611,0.7417904,-0.09399947,0.09782322,0.656766,-0.05316839,0.6158175,0.16416945,1.0,0.0,0.0,0.0,0.0,0.0,0.0,-2.0314775,-0.0019363463,-0.7880704,0.027346611,-1.6108513,-6.449175,-0.91160536,-2.5273442,0.21365881,2.926457
-1.5272999,11.554318,0.054519415,11.964996,0.7865678,-1.4382374,-0.10034633,-0.79761,0.70736295,0.2862342,-0.4785461,0.5345253,0.6674112,0.48496118,1.1002189,-0.41521478,-1.5725659,-1.2543418,2.4434943,1.4717519,-0.9941449,1.1657816,-0.47320807,-1.5948951,-1.2146697,2.3980718,1.4097487,-1.0403122,-1.4205829,1.2709991,0.60666245,-0.8245963,0.79712313,0.47410774,0.23855922,1.345499,-0.3984604,1.339449,-3.5969265,-0.039327677,0.11327164,0.24829102,-0.33489227,0.977968,0.7411155,-0.09586109,0.100442804,0.6568636,-0.029978763,0.5755848,0.12033008,1.0,0.0,0.0,0.0,0.0,0.0,0.0,-1.995499,-0.0015396178,-0.78944904,-0.31785965,-1.3196468,-9.154951,-2.535987,-2.3685455,0.15294552,2.2550225
-1.96732,8.155155,-1.977836,9.745848,0.7247424,-1.6582041,-0.10054518,-0.8050865,0.6968334,0.23103535,-0.53294516,0.5228185,0.6681668,0.4811989,1.085273,-0.40352473,-1.5717916,-1.2679642,2.4503536,1.4765654,-0.99219227,1.1515242,-0.46061194,-1.5896194,-1.2233253,2.4058728,1.4144961,-1.0377887,-1.4275666,1.2560761,0.50139475,-0.87966794,0.77470225,0.47493836,0.25688833,1.309557,-0.3988533,1.3398445,-3.5933301,-0.039288357,0.014972442,0.24815369,-0.3294716,0.9788009,0.7406188,-0.097128995,0.10339081,0.65677994,-0.0016501392,0.52836275,0.065375194,1.0,0.0,0.0,0.0,0.0,0.0,0.0,-1.9595569,-0.001146704,-0.78984445,-0.70950985,-1.4105558,-10.492743,-5.664921,-2.2273421,0.106054544,1.7831892
-0.8709998,7.9868355,-1.9659692,8.202051,0.6076007,-1.7440249,-0.056467094,-0.8018885,0.68828976,0.19104365,-0.57724583,0.5041447,0.670141,0.4877276,1.0713353,-0.39178297,-1.570515,-1.2810498,2.4562874,1.4815102,-0.989016,1.1372191,-0.448166,-1.5853622,-1.2326846,2.413445,1.4192511,-1.0351032,-1.4314104,1.2409892,0.40067562,-0.9553385,0.7515679,0.47568852,0.27243423,1.2736511,-0.3992424,1.3392576,-3.5897377,-0.039249077,-0.083228484,0.24833679,-0.3245201,0.9790463,0.7402814,-0.09771605,0.10667812,0.65654767,0.031360507,0.481847,0.0055023716,1.0,0.0,0.0,0.0,0.0,0.0,0.0,-1.9236511,-0.00075760484,-0.7892576,-0.34854412,-1.4296532,-10.061598,-7.6969743,-2.3185968,0.086802244,1.5050113
-2.3270357,3.712761,-3.9590816,7.7953353,0.7524729,-1.8393669,-0.067636795,-0.7996191,0.66564596,0.12295708,-0.61722255,0.48146,0.6661863,0.48833445,1.0572572,-0.38160142,-1.5730665,-1.2944069,2.461591,1.4858698,-0.9862698,1.1229044,-0.43593943,-1.5821655,-1.242866,2.4207654,1.424008,-1.0322803,-1.4312328,1.2167912,0.29276028,-1.0393372,0.7254668,0.47564778,0.28520763,1.2377796,-0.3996315,1.3376894,-3.5861485,-0.039209835,-0.18133122,0.24884224,-0.32009506,0.97865444,0.74010795,-0.09755402,0.11028128,0.65617174,0.06249115,0.4267737,-0.05910315,1.0,0.0,0.0,0.0,0.0,0.0,0.0,-1.8877796,-0.00036850572,-0.7876894,0.10643005,-2.3502827,-10.8108225,-8.5198765,-2.6465058,-0.020807981,1.2167037
-1.0612221,6.531503,-1.5083727,9.239662,0.77068734,-1.5927683,-0.008560538,-0.79729396,0.65029657,0.12865525,-0.642754,0.4521749,0.67018855,0.4771962,1.043175,-0.37090978,-1.5692999,-1.3071414,2.465983,1.4910269,-0.9845607,1.1086146,-0.42398655,-1.5797527,-1.2538218,2.4277883,1.4287649,-1.0293564,-1.4279951,1.1883421,0.22375368,-1.1145258,0.69454926,0.47582874,0.29463086,1.2019463,-0.4000206,1.3351411,-3.5825632,-0.039170634,-0.2793359,0.2496357,-0.31613922,0.97768223,0.7400442,-0.09672593,0.1141267,0.65570855,0.08943571,0.38173896,-0.114861056,1.0,0.0,0.0,0.0,0.0,0.0,0.0,-1.8519462,2.0593405e-05,-0.78514105,0.40574074,-2.7664661,-6.950495,-7.6257944,-3.0802727,-0.008356571,0.88466406
-5.009801,2.0921042,-4.550835,11.200324,1.100606,-1.6403649,-0.15689707,-0.798569,0.6485014,0.0037261364,-0.6636417,0.4424476,0.6621896,0.4575878,1.0287577,-0.3591364,-1.57938,-1.320186,2.472033,1.4949839,-0.9835976,1.0943533,-0.4122702,-1.5783374,-1.2654109,2.4345212,1.4335161,-1.0263695,-1.4252717,1.1662902,0.114121005,-1.1741836,0.666328,0.4745959,0.29999965,1.1661472,-0.4004097,1.3316133,-3.5789812,-0.03913147,-0.37724254,0.25063705,-0.31272888,0.97615916,0.7401897,-0.09524188,0.11820813,0.65503824,0.10780062,0.3239386,-0.16945484,1.0,0.0,0.0,0.0,0.0,0.0,0.0,-1.8161472,0.00040969253,-0.7816133,0.34866333,-2.142334,-10.979465,-6.0916185,-2.8576016,-0.21061301,0.46239495
-11.365084,-5.562999,-9.660306,13.982031,1.6031804,-1.7118975,-0.37684658,-0.804501,0.64101946,-0.13580364,-0.67089874,0.41228256,0.66163737,0.44755766,1.0139033,-0.34816825,-1.5919178,-1.3325008,2.4757495,1.4996799,-0.9816137,1.0800844,-0.40073884,-1.5784652,-1.2774291,2.4409413,1.4382521,-1.0233482,-1.427142,1.1488439,-0.054745562,-1.2115684,0.63360846,0.47247365,0.3026086,1.1303844,-0.4007988,1.3271073,-3.575403,-0.039092347,-0.4750513,0.25172615,-0.31004333,0.97409374,0.7407593,-0.093062535,0.1225678,0.6539052,0.11222858,0.24567817,-0.22331782,1.0,0.0,0.0,0.0,0.0,0.0,0.0,-1.7803844,0.00079879165,-0.7771073,-0.11305809,-1.7111778,-16.849775,-3.8939238,-3.3848047,-0.38524866,0.15051961
-12.97431,-6.6956644,-9.988287,16.174534,1.734554,-1.5327435,-0.42098838,-0.8031619,0.62232137,-0.18388814,-0.6801786,0.33086458,0.666535,0.45050028,0.99976826,-0.3385067,-1.5968541,-1.345447,2.4740279,1.5049056,-0.9782982,1.0657946,-0.38940823,-1.5802429,-1.2896991,2.446854,1.442969,-1.020306,-1.4292197,1.127885,-0.21875247,-1.2326063,0.57651544,0.4706229,0.30442557,1.0946579,-0.4011879,1.3216239,-3.5718281,-0.03905326,-0.57276237,0.2528057,-0.30812073,0.9715349,0.741826,-0.09025514,0.12724747,0.6521935,0.10851411,0.16875312,-0.27081606,1.0,0.0,0.0,0.0,0.0,0.0,0.0,-1.7446579,0.0011878908,-0.7716239,-0.13859272,-2.072239,-16.364887,-2.260971,-5.816126,-0.39036274,0.046169758
-13.514385,-5.686983,-9.749246,17.370712,1.7127686,-1.4185205,-0.46237198,-0.8053722,0.625023,-0.27736995,-0.69511145,0.26937345,0.6677153,0.4357743,0.9852574,-0.32690594,-1.6079799,-1.3592103,2.4737914,1.5097405,-0.97672856,1.0514761,-0.3782264,-1.5836952,-1.302135,2.4520764,1.4476668,-1.01726,-1.4324487,1.1150088,-0.38702664,-1.2479076,0.5035268,0.4687994,0.30414513,1.0589657,-0.401577,1.3151641,-3.568257,-0.039014217,-0.6703757,0.25383377,-0.3069458,0.9685246,0.743413,-0.08688111,0.13231863,0.64983124,0.101553604,0.09568303,-0.31483957,1.0,0.0,0.0,0.0,0.0,0.0,0.0,-1.7089657,0.0015769899,-0.7651641,-0.2578497,-1.271534,-16.777367,-1.6823053,-7.4133754,-0.42025447,-0.18324852
-12.774802,-5.274328,-8.743684,17.615902,1.5565084,-1.2548496,-0.407685,-0.80193114,0.5965919,-0.326626,-0.7127982,0.1336112,0.6685788,0.42928538,0.971283,-0.31856722,-1.6163578,-1.3734148,2.4654377,1.5145247,-0.97433144,1.03715,-0.3672539,-1.5886276,-1.3147407,2.4562688,1.4523493,-1.0142235,-1.4325792,1.0913488,-0.52869105,-1.265226,0.3906841,0.46743023,0.30272606,1.0233097,-0.4019661,1.3077289,-3.5646894,-0.03897521,-0.76789147,0.25479507,-0.30644226,0.9650784,0.7454569,-0.08301301,0.13786672,0.64683515,0.09399523,0.031191353,-0.35789746,1.0,0.0,0.0,0.0,0.0,0.0,0.0,-1.6733097,0.001966089,-0.7577289,0.07293224,-2.353382,-14.152455,-1.8614054,-11.376834,-0.3668666,-0.32245517
-13.531765,-7.3632517,-8.967586,18.314445,1.2708544,-1.0669423,-0.39956948,-0.8067877,0.5546817,-0.37727174,-0.7138122,-0.15468669,0.668429,0.41816783,0.95647126,-0.31178573,-1.6263547,-1.3861219,2.4408002,1.5191922,-0.9724067,1.0228068,-0.35667622,-1.594775,-1.3274798,2.4586148,1.4570223,-1.0112137,-1.4345993,1.0465773,-0.64369005,-1.2771279,0.18205075,0.46659458,0.2995262,0.98769,-0.4023552,1.2993193,-3.5611255,-0.038936242,-0.8653097,0.2556858,-0.30651093,0.9611916,0.74788857,-0.07876917,0.1441416,0.6431806,0.08568594,-0.024221115,-0.401921,1.0,0.0,0.0,0.0,0.0,0.0,0.0,-1.63769,0.0023551881,-0.74931926,-0.10199547,-4.4764996,-11.516201,-1.2953281,-20.939306,-0.2873063,-0.56706667
-18.694048,-18.462212,-14.105728,18.972418,1.4767234,-1.066109,-0.44303393,-0.8024192,0.4772958,-0.47166458,-0.7116737,-0.43588895,0.6771498,0.426963,0.94256485,-0.30894664,-1.6419414,-1.3986472,2.415026,1.5247372,-0.96851736,1.0084711,-0.34685624,-1.6021316,-1.340282,2.4582448,1.4616953,-1.0082325,-1.4324186,0.96038866,-0.7668908,-1.2812774,-0.11047808,0.46698305,0.29648682,0.95210457,-0.4027443,1.2899362,-3.557565,-0.038897313,-0.96263057,0.25642395,-0.3072281,0.95680934,0.75069374,-0.07419333,0.15136242,0.63878286,0.06699077,-0.092713155,-0.4530032,1.0,0.0,0.0,0.0,0.0,0.0,0.0,-1.6021045,0.0027442873,-0.7399362,0.4380703,-8.655643,-12.438059,-0.47237873,-29.358799,-0.15285611,-0.64089894
-30.108,-44.268005,-25.615776,19.938007,2.8146496,-1.1722769,-0.43938303,-0.7989013,0.30217865,-0.542477,-0.7140214,-0.6023051,0.6827124,0.42352298,0.928581,-0.31663838,-1.6563793,-1.4116842,2.3980143,1.5299666,-0.96588016,0.9941927,-0.33861887,-1.6107471,-1.3530936,2.4548345,1.4663779,-1.0052837,-1.4248302,0.77778417,-0.8941132,-1.2810818,-0.41822717,0.46792197,0.29283595,0.9165554,-0.4031334,1.2795806,-3.5540082,-0.038858425,-1.059854,0.25671577,-0.30897522,0.95183605,0.7538822,-0.06919356,0.15927616,0.63364416,0.013226654,-0.20746095,-0.5144824,1.0,0.0,0.0,0.0,0.0,0.0,0.0,-1.5665554,0.0031333864,-0.7295806,1.2393713,-18.375587,-13.069749,0.07658005,-30.921656,-0.11369586,-0.7713139
-35.953487,-57.069347,-30.418528,21.6149,3.9172747,-1.0223521,-0.3291046,-0.80464196,0.1644057,-0.56097823,-0.71125317,-0.6612288,0.681066,0.4430825,0.91372854,-0.3221783,-1.666845,-1.4242189,2.3887117,1.5344845,-0.96097547,0.9799658,-0.33265746,-1.6204097,-1.365869,2.4487424,1.4710661,-1.002354,-1.4199786,0.5350263,-0.9917095,-1.2757512,-0.6734888,0.46829945,0.29193437,0.8810425,-0.4035225,1.2682536,-3.5504549,-0.038819574,-1.1569804,0.25626373,-0.31205368,0.94626653,0.75739545,-0.06369388,0.16734625,0.6279254,-0.07030451,-0.34419465,-0.573068,1.0,0.0,0.0,0.0,0.0,0.0,0.0,-1.5310425,0.0035224855,-0.71825355,1.0769844,-24.447453,-10.220575,0.71041584,-25.67643,-0.21201372,-0.4629016
-42.271866,-71.768425,-36.093376,22.164394,5.1903505,-0.9288854,-0.18979752,-0.80973876,-0.03420488,-0.5784233,-0.7242144,-0.66029584,0.69254607,0.42931753,0.89899194,-0.33607796,-1.6782521,-1.4382905,2.3827128,1.5403208,-0.9594223,0.965757,-0.32964194,-1.6308067,-1.3786407,2.4407392,1.475762,-0.9994339,-1.4186713,0.22292401,-1.0578592,-1.2764652,-0.84331185,0.46886644,0.2910471,0.8455639,-0.4039116,1.2559559,-3.5469053,-0.03878076,-1.2540096,0.25473022,-0.31669998,0.94010335,0.7611646,-0.05759716,0.17485206,0.6218823,-0.1871399,-0.5076671,-0.6322316,1.0,0.0,0.0,0.0,0.0,0.0,0.0,-1.4955639,0.0039115846,-0.7059559,0.88660717,-31.44268,-7.2463274,0.278306,-17.140411,-0.27797818,-0.37281513
-45.071674,-84.73059,-38.766582,20.952797,6.240484,-0.6943655,0.14247742,-0.8078702,-0.31484485,-0.48571303,-0.7555054,-0.6434729,0.6886745,0.43479145,0.88497,-0.36112642,-1.679378,-1.4541912,2.376392,1.5446295,-0.95595473,0.9515635,-0.33046782,-1.6411674,-1.3915648,2.4316525,1.480456,-0.99650705,-1.4166108,-0.1853421,-1.031657,-1.2957706,-0.9309202,0.46816924,0.29291677,0.81012154,-0.4043007,1.2426888,-3.543359,-0.038741987,-1.3509419,0.25182343,-0.32310486,0.93333226,0.7650066,-0.050847508,0.18091808,0.61599356,-0.33231816,-0.68441856,-0.6933302,1.0,0.0,0.0,0.0,0.0,0.0,0.0,-1.4601215,0.0043006837,-0.69268876,1.1000395,-41.102024,1.7665625,-1.3577938,-8.877206,-0.48689246,0.09294152
-16.222908,-41.334183,-8.6463175,19.388557,4.366356,0.6444363,0.9576919,-0.77698046,-0.43607077,-0.09333304,-0.777289,-0.6096392,0.6830904,0.50867844,0.8738654,-0.3740749,-1.6505007,-1.4692937,2.3706887,1.5487651,-0.9456392,0.9375073,-0.33516467,-1.649226,-1.4047904,2.4221997,1.48515,-0.9934858,-1.4006197,-0.5649159,-0.7328975,-1.3299896,-0.9494824,0.46926087,0.30617684,0.7747154,-0.4046898,1.228453,-3.5398164,-0.03870325,-1.4477772,0.24785614,-0.33039856,0.9262144,0.76823765,-0.04392216,0.18503949,0.6112627,-0.42649853,-0.7431896,-0.71949583,1.0,0.0,0.0,0.0,0.0,0.0,0.0,-1.4247154,0.004689783,-0.678453,2.0184517,-38.098984,29.18725,-2.9664278,-1.7660975,-0.06532073,1.6180515
3.3366623,-8.985801,11.524303,18.517452,2.8194041,1.3923779,1.3166102,-0.7459137,-0.56451863,0.09687101,-0.7829004,-0.60756576,0.6856387,0.5294373,0.8629159,-0.39161652,-1.6395389,-1.4830804,2.361443,1.5537138,-0.9405421,0.92374384,-0.34324515,-1.6534164,-1.4183536,2.4128003,1.4898688,-0.9903091,-1.367354,-0.88923204,-0.31669092,-1.3641489,-0.9358864,0.47289824,0.32318512,0.73934364,-0.4050789,1.2132497,-3.5362773,-0.038664557,-1.5445156,0.24328423,-0.33771896,0.91901726,0.7703668,-0.03732806,0.1871608,0.6083686,-0.4745451,-0.7239449,-0.7214295,1.0,0.0,0.0,0.0,0.0,0.0,0.0,-1.3893436,0.005078882,-0.6632497,3.5849094,-32.466652,40.92084,-3.138876,1.5583277,0.41555166,2.1794498
-10.358608,-24.611786,-4.4815865,16.24457,3.4803438,0.23588204,0.72833514,-0.6793577,-0.70259523,-0.24170491,-0.802451,-0.54369026,0.6279984,0.5181227,0.8558081,-0.41350466,-1.6775869,-1.4985987,2.3584313,1.5526686,-0.9384968,0.9105965,-0.35420382,-1.6556346,-1.4322677,2.4037938,1.4945666,-0.9869884,-1.2958223,-1.1650662,-0.19214982,-1.3992157,-0.88861305,0.46805292,0.33599955,0.7040062,-0.405468,1.1970797,-3.5327418,-0.0386259,-1.6411574,0.23810577,-0.34536362,0.911574,0.7718051,-0.030743634,0.1874869,0.6068115,-0.5378237,-0.7706563,-0.75343084,1.0,0.0,0.0,0.0,0.0,0.0,0.0,-1.3540062,0.005467981,-0.64707965,7.559085,-27.691437,11.811781,-3.154087,4.7227263,-0.7029891,1.6010106
-11.237808,-16.914185,-6.377066,15.277134,2.9123056,-0.25065625,0.34391165,-0.6010244,-0.7397396,-0.33760202,-0.79819995,-0.56201845,0.62695724,0.5434099,0.850494,-0.42817777,-1.6893948,-1.5120877,2.3475919,1.5572623,-0.93264747,0.8984467,-0.3672067,-1.6580551,-1.446424,2.3951879,1.499211,-0.98354375,-1.1873865,-1.3457775,-0.25985008,-1.419798,-0.85140336,0.4624738,0.34787992,0.668705,-0.4058571,1.1799439,-3.5292099,-0.03858728,-1.7377026,0.23239326,-0.3535385,0.90371907,0.7729773,-0.023853485,0.18652216,0.6059262,-0.5873571,-0.82423604,-0.79775876,1.0,0.0,0.0,0.0,0.0,0.0,0.0,-1.318705,0.00585708,-0.6299439,11.069083,-18.189621,-7.1015983,-1.7052174,3.6007285,-0.8049309,1.3867497
-14.28994,-11.383675,-9.076609,15.724956,2.5901384,-0.5565061,-0.05346173,-0.5662228,-0.76792043,-0.4606968,-0.79146886,-0.5699499,0.63192946,0.5024416,0.8418244,-0.44399875,-1.7041247,-1.5255709,2.338193,1.5624039,-0.9332996,0.8873793,-0.3813945,-1.6622379,-1.4606605,2.386845,1.5038038,-0.9800323,-1.079375,-1.4436057,-0.4715742,-1.423512,-0.82953304,0.45742732,0.35245204,0.63344,-0.4062462,1.1618434,-3.5256813,-0.0385487,-1.8341513,0.22621155,-0.36231613,0.8953584,0.774227,-0.016462483,0.18480323,0.6051026,-0.6329679,-0.885373,-0.8510729,1.0,0.0,0.0,0.0,0.0,0.0,0.0,-1.28344,0.0062461793,-0.6118434,10.965943,-9.926081,-21.309353,0.01900196,1.95539,-0.7784188,0.5399823
-8.638245,5.76449,-1.2273891,17.048994,1.873712,-0.17365503,-0.11535863,-0.5577807,-0.7734508,-0.43654254,-0.7873453,-0.5423792,0.63136935,0.49005017,0.8316012,-0.45873958,-1.7058921,-1.539395,2.3326073,1.5669408,-0.9310273,0.8771702,-0.39604914,-1.6683719,-1.474853,2.378716,1.5083586,-0.97649896,-1.0007167,-1.4731336,-0.6611365,-1.4167488,-0.80789775,0.45442277,0.35379517,0.5982094,-0.40663147,1.1427792,-3.5221562,-0.03851016,-1.9305035,0.2196846,-0.37145996,0.8865597,0.7756339,-0.00863064,0.18268669,0.60410523,-0.6630594,-0.9139119,-0.89255404,1.0,0.0,0.0,0.0,0.0,0.0,0.0,-1.2482094,0.0066314638,-0.5927792,8.059692,-3.075099,-19.094921,1.0087729,1.9296765,-0.44074655,0.1906097
-3.3358583,21.550274,7.6887984,19.395638,1.2463834,0.4768958,-0.09518235,-0.58333874,-0.7720725,-0.39151922,-0.77736837,-0.56595445,0.64746094,0.472295,0.81883633,-0.4732564,-1.7075238,-1.5525899,2.3221207,1.5731047,-0.92926943,0.86734927,-0.41067994,-1.6757343,-1.488914,2.3706822,1.5129095,-0.9729732,-0.9748144,-1.460103,-0.7620139,-1.4016924,-0.80283,0.4553945,0.35234872,0.5630131,-0.40701294,1.1227523,-3.5186348,-0.038471658,-2.0267591,0.21293831,-0.38059998,0.8775014,0.7771266,-0.00060322473,0.18041888,0.60292864,-0.68168616,-0.9034158,-0.91415167,1.0,0.0,0.0,0.0,0.0,0.0,0.0,-1.213013,0.0070129335,-0.5727523,2.8949022,1.2033701,-10.341299,1.7634869,0.29742718,0.120425224,-0.097864866
-1.2994273,28.628487,12.059486,20.310108,1.0068619,0.8473208,-0.059353493,-0.5935212,-0.77699775,-0.4014193,-0.7808381,-0.5560873,0.63854986,0.4523833,0.80799717,-0.48837972,-1.7158762,-1.5669978,2.3150735,1.5767645,-0.9277349,0.85751784,-0.4250809,-1.6836421,-1.5028548,2.3626828,1.51747,-0.96947896,-0.984692,-1.4337339,-0.80150974,-1.3906986,-0.7996958,0.45666793,0.3486731,0.527853,-0.4073944,1.1017634,-3.515117,-0.038433194,-2.1229184,0.2060337,-0.38950348,0.86830723,0.7786376,0.0074533946,0.17809495,0.60162294,-0.69670963,-0.8743016,-0.9252612,1.0,0.0,0.0,0.0,0.0,0.0,0.0,-1.177853,0.007394403,-0.55176336,-0.62007904,2.5452375,-4.276383,1.3215065,0.114405155,0.21619797,-0.31504035
-5.1027274,26.27583,9.948482,21.016344,1.2252934,0.92716825,-0.13683721,-0.617161,-0.78029585,-0.4639133,-0.7789696,-0.55962044,0.639965,0.4205257,0.79580176,-0.50311047,-1.7300335,-1.5807518,2.3067207,1.5814666,-0.9274264,0.8473784,-0.43924105,-1.6919181,-1.5167098,2.3546834,1.5220438,-0.9660448,-1.022207,-1.4104636,-0.8375816,-1.3827509,-0.80094445,0.4577416,0.34183088,0.4927292,-0.40777588,1.0798136,-3.5116026,-0.038394768,-2.2189817,0.19890404,-0.3981514,0.85899717,0.78021175,0.015528333,0.17572595,0.600124,-0.7219437,-0.8501908,-0.9369448,1.0,0.0,0.0,0.0,0.0,0.0,0.0,-1.1427292,0.007775873,-0.5298136,-3.311181,2.2151947,-3.9855003,1.0562658,-0.35378933,0.15681386,-0.641191
-5.192848,27.660837,11.127737,21.218569,1.1938179,1.1051469,-0.10568443,-0.63716793,-0.7755472,-0.4524751,-0.77483743,-0.57299614,0.64505553,0.42890888,0.7836616,-0.51679575,-1.7371657,-1.5941936,2.2973838,1.5865494,-0.9231539,0.83677256,-0.45320666,-1.7003601,-1.5304961,2.346623,1.526631,-0.9626678,-1.0718813,-1.3922666,-0.8475067,-1.3764528,-0.8084491,0.45929423,0.33638012,0.4576397,-0.40815735,1.056904,-3.5080917,-0.038356382,-2.314949,0.19150925,-0.4065132,0.8495946,0.78184205,0.023588821,0.17330661,0.59844065,-0.7481819,-0.82023954,-0.94519514,1.0,0.0,0.0,0.0,0.0,0.0,0.0,-1.1076397,0.008157343,-0.50690395,-4.529047,1.7083168,-1.3808846,0.8888006,-0.97397566,0.21487474,-0.4926324
-11.810022,19.883848,5.0671096,21.29775,1.6380603,0.9312689,-0.24391863,-0.6667484,-0.7819919,-0.5485712,-0.7696958,-0.5874135,0.635998,0.37959906,0.77009773,-0.53140587,-1.7552172,-1.6074657,2.2878816,1.5902308,-0.9247079,0.8256146,-0.467085,-1.709254,-1.5442138,2.3384404,1.5312201,-0.95937765,-1.1288564,-1.3868738,-0.9046574,-1.3691134,-0.8221874,0.45869192,0.32667667,0.42258453,-0.40853882,1.0330354,-3.5045843,-0.038318034,-2.4108202,0.18373299,-0.41472244,0.8400308,0.7836312,0.031734988,0.17081587,0.5964368,-0.7910523,-0.80993176,-0.9637663,1.0,0.0,0.0,0.0,0.0,0.0,0.0,-1.0725845,0.008538812,-0.4830354,-5.218363,0.39319992,-6.1088443,1.0761976,-1.644063,-0.10688901,-0.93565583
-16.436344,14.488474,0.567003,20.363626,1.961761,0.7705621,-0.32959527,-0.6978918,-0.7829285,-0.62131524,-0.779689,-0.5619934,0.61483216,0.31697124,0.7558254,-0.54537785,-1.7713856,-1.6221827,2.282241,1.5927033,-0.9276805,0.81386435,-0.4809667,-1.7190158,-1.55792,2.3302083,1.5357805,-0.95622575,-1.1887045,-1.3891871,-1.0014662,-1.3697343,-0.8244781,0.45474932,0.31149337,0.3875656,-0.4089203,1.0082089,-3.5010805,-0.038279723,-2.5065956,0.17542839,-0.42295074,0.83019125,0.78569436,0.040138815,0.16817322,0.59396213,-0.84666383,-0.8139157,-0.99426454,1.0,0.0,0.0,0.0,0.0,0.0,0.0,-1.0375656,0.008920282,-0.45820886,-5.478573,-0.4083395,-10.075355,0.349164,-0.5423188,-0.5452335,-1.4888525
-16.370756,16.927149,2.1663995,20.851265,2.0031967,0.9992338,-0.3287305,-0.73747,-0.7794462,-0.6156959,-0.76600033,-0.5436765,0.6195637,0.24160782,0.7401174,-0.5589113,-1.7805854,-1.63452,2.2758408,1.597737,-0.93206495,0.8014742,-0.4948784,-1.7296016,-1.5715861,2.3220334,1.5403067,-0.9532722,-1.2540817,-1.3924389,-1.0787916,-1.364209,-0.8159812,0.4513291,0.29019836,0.35258102,-0.40930176,0.9824252,-3.49758,-0.038241453,-2.6022754,0.16654587,-0.4311638,0.82008725,0.7880544,0.048784617,0.16529512,0.59098876,-0.9051314,-0.8106594,-1.0193948,1.0,0.0,0.0,0.0,0.0,0.0,0.0,-1.002581,0.009301752,-0.4324252,-6.043339,-0.5079508,-8.112812,0.9631634,0.5409956,-0.48666,-2.083695
-14.270357,21.530697,5.3485003,21.015835,1.8624855,1.2272274,-0.30188513,-0.76340973,-0.774495,-0.62890327,-0.752929,-0.5347601,0.61362755,0.15853038,0.72513324,-0.5723279,-1.7924919,-1.6468791,2.2685573,1.6016694,-0.9374192,0.7884613,-0.5087979,-1.740792,-1.5851398,2.3139806,1.5447985,-0.9505781,-1.3154624,-1.3924048,-1.1335433,-1.3512341,-0.80229294,0.44804597,0.26270184,0.31763077,-0.40968323,0.9556855,-3.4940832,-0.03820322,-2.6978593,0.15711784,-0.43925858,0.8097896,0.7906805,0.057570584,0.16214305,0.5875538,-0.95926315,-0.7962322,-1.0369412,1.0,0.0,0.0,0.0,0.0,0.0,0.0,-0.96763074,0.009683222,-0.40568548,-5.69551,-0.17168522,-5.8106422,1.6762257,1.0845542,-0.44098496,-2.6916087
-11.776142,25.48486,8.565578,20.94299,1.7289393,1.4240527,-0.28011635,-0.7875226,-0.78089094,-0.6310118,-0.74024993,-0.5128004,0.5838305,-0.020466972,0.70970905,-0.586887,-1.8038932,-1.6591648,2.2627006,1.6031816,-0.9526248,0.7748877,-0.5227387,-1.752322,-1.5985179,2.3061223,1.5492388,-0.94827116,-1.3701409,-1.3951949,-1.1603173,-1.3320998,-0.78105927,0.4426788,0.22033827,0.28271675,-0.4100647,0.9279907,-3.4905899,-0.038165025,-2.7933478,0.14718819,-0.44715118,0.79937375,0.79354477,0.06638199,0.1586694,0.5836986,-1.0076737,-0.7720089,-1.0468417,1.0,0.0,0.0,0.0,0.0,0.0,0.0,-0.9327167,0.010064691,-0.37799066,-5.087614,-0.44174194,-2.9676676,2.255845,1.8762946,-0.6085813,-4.157266
-8.95164,32.354336,13.030514,22.426832,1.5402565,1.7033803,-0.31457937,-0.8123077,-0.76248103,-0.62492776,-0.6980326,-0.51213044,0.5658233,-0.20207107,0.6936569,-0.5989868,-1.8148147,-1.6683211,2.2549093,1.6058211,-0.96847826,0.7608105,-0.5366185,-1.7639263,-1.6115394,2.2984548,1.5536219,-0.94649637,-1.4192121,-1.3860306,-1.1613797,-1.291177,-0.7625781,0.43673134,0.16345024,0.24783707,-0.41044617,0.8993417,-3.4871,-0.038126867,-2.888741,0.136837,-0.45470428,0.78897834,0.7966451,0.07504223,0.15492249,0.57941717,-1.0476241,-0.7350271,-1.0407867,1.0,0.0,0.0,0.0,0.0,0.0,0.0,-0.89783704,0.010446161,-0.3493417,-4.596615,0.771451,-0.32200813,4.368782,1.6420245,-0.5929887,-5.6136727
-8.172565,35.044975,14.674982,23.716818,1.6300062,1.7990934,-0.36200052,-0.82540643,-0.75934035,-0.6400971,-0.65351313,-0.46528566,0.52774376,-0.35017797,0.67826986,-0.6125525,-1.8279359,-1.6768907,2.2519262,1.6063963,-0.98151416,0.74632514,-0.5503857,-1.775521,-1.6239886,2.2910733,1.557923,-0.94536054,-1.4574156,-1.3740754,-1.1593379,-1.2288915,-0.7305182,0.4279035,0.097271405,0.21299171,-0.41082764,0.86973953,-3.4836135,-0.038088746,-2.9840388,0.12609291,-0.46188354,0.7787179,0.8000178,0.08343252,0.15090188,0.5746644,-1.0862648,-0.69755113,-1.0246035,1.0,0.0,0.0,0.0,0.0,0.0,0.0,-0.8629917,0.010827631,-0.31973952,-3.566885,1.0586023,0.05853176,6.4731836,3.029716,-0.86011887,-6.5378175
-7.5936866,37.752228,16.292,25.703289,1.7282689,1.9187287,-0.40360525,-0.8327829,-0.75135833,-0.6433827,-0.5835684,-0.44597024,0.52397716,-0.4180191,0.66304684,-0.62552154,-1.8398594,-1.6823455,2.2464764,1.6103207,-0.9871625,0.7315527,-0.5640118,-1.7870872,-1.6355834,2.2840314,1.5621382,-0.9448818,-1.483167,-1.3591945,-1.1559541,-1.135721,-0.69572866,0.41974732,0.031734556,0.1781807,-0.4112091,0.8391851,-3.4801307,-0.038050666,-3.0792413,0.11496544,-0.4686966,0.7687109,0.80369395,0.09142778,0.14662647,0.5694011,-1.1239958,-0.6599202,-0.9960611,1.0,0.0,0.0,0.0,0.0,0.0,0.0,-0.8281807,0.0112091005,-0.2891851,-2.3776293,1.3584614,0.27189255,9.527111,3.3382177,-0.767678,-6.4817905
-6.9108553,39.136833,17.48632,27.15084,1.7535644,2.0136013,-0.41064677,-0.83382833,-0.7536061,-0.63578033,-0.50673133,-0.45727235,0.54965353,-0.45407185,0.6481699,-0.6393724,-1.8506652,-1.6862565,2.2383041,1.6171036,-0.990289,0.71662295,-0.5775292,-1.7985828,-1.6460376,2.2772489,1.566302,-0.9450172,-1.4957583,-1.349585,-1.1475384,-1.0147952,-0.6731503,0.4155612,-0.02850884,0.14340591,-0.41159058,0.8076793,-3.4766512,-0.038012624,-3.1743484,0.10347748,-0.47512817,0.7590582,0.807674,0.0988907,0.14215966,0.56362563,-1.1597487,-0.6224356,-0.95826685,1.0,0.0,0.0,0.0,0.0,0.0,0.0,-0.7934059,0.01159057,-0.25767928,-1.1086226,0.8384466,0.83642006,12.278771,2.1502972,-0.3442645,-5.9635296
-5.7333994,34.861572,14.885782,21.443562,1.3589517,1.6226728,-0.28738695,-0.8280919,-0.766442,-0.6771726,-0.5371682,-0.46357474,0.5564584,-0.47941226,0.63381374,-0.6541734,-1.8663001,-1.6997544,2.2308915,1.6219478,-0.9929584,0.70166934,-0.5910466,-1.8101985,-1.6556487,2.270596,1.5704352,-0.9457048,-1.4948145,-1.3528985,-1.1663535,-0.942474,-0.66277885,0.41259247,-0.082007945,0.10866547,-0.41197205,0.77522314,-3.4731753,-0.03797462,-3.2693605,0.091688156,-0.48122406,0.7495776,0.81186897,0.10599467,0.13752745,0.55742264,-1.1874505,-0.58997506,-0.94783664,0.0,1.0,0.0,0.0,0.0,0.0,0.0,-0.75866544,0.01197204,-0.22522312,0.2354145,-0.45001507,-1.9225597,7.4511647,0.912416,-0.28752685,-5.287686
-4.176275,31.148058,12.557322,14.649414,0.8330967,1.2420201,-0.1340856,-0.8272974,-0.77429116,-0.71018565,-0.5757708,-0.4749046,0.5546275,-0.4893973,0.6189396,-0.6684757,-1.8812171,-1.7132258,2.2231057,1.6258979,-0.9946445,0.68696576,-0.6045937,-1.8231869,-1.6653342,2.262981,1.5778041,-0.94617736,-1.4638945,-1.356838,-1.3287995,-0.97073954,-0.78537476,0.7858591,-0.0544685,0.09233856,-0.41457748,0.7792627,-1.3760256,-0.27265826,1.0837917,0.07947922,-0.48662567,0.73970443,0.8159404,0.11194472,0.13321875,0.5513277,-1.2282951,-0.5148295,-0.99975103,0.0,1.0,0.0,0.0,0.0,0.0,0.0,-0.74233854,0.014577478,-0.22926271,1.0975361,-1.3355017,-4.8152924,1.5114069,-0.1633048,-0.56045055,-4.3686233
80.41133,176.0,110.0,96.447655,-2.308059,10.037601,-0.7309282,-0.80035776,0.2613105,0.70582,0.76458645,-0.18184283,0.57564545,-0.49613935,0.60693,-0.57846266,-1.7526048,-1.5888755,2.2447968,1.6353686,-0.9957913,0.67804796,-0.61514896,-1.8380337,-1.665525,2.2510028,1.5944228,-0.9450234,-0.70623547,-0.95474845,-1.5281101,0.29338557,-1.3317719,1.9604437,0.16856426,0.078588486,-0.41730118,0.78935605,-1.3746498,-0.27238566,0.98452216,0.06834602,-0.48999023,0.73341656,0.81983316,0.11017841,0.13334544,0.54585105,-1.0757662,-0.26143295,-0.5073707,1.0,0.0,0.0,0.0,0.0,0.0,0.0,-0.72858846,0.017301172,-0.23935604,74.21795,40.3031,-17.377853,124.99124,-53.6772,119.42565,21.267109
38.475132,150.78705,102.31114,92.12298,2.0296326,7.3370514,-0.55867565,-0.80015945,-0.5189845,0.5314083,0.786821,-0.5038244,0.61303556,-0.37405905,0.598032,-0.6670474,-1.7848928,-1.5868429,2.2006204,1.6557264,-0.9824293,0.67108804,-0.62359375,-1.8473701,-1.6563792,2.2377238,1.6138015,-0.9435643,-0.69284993,-0.80914944,-0.7325631,1.1204238,-1.3298063,1.9363567,0.13830712,0.06485176,-0.42002487,0.79845744,-1.3732754,-0.27211332,0.88535184,0.05823517,-0.49147034,0.73207974,0.8238547,0.10177785,0.13612251,0.5407173,-0.98809695,-0.10044072,-0.013740928,1.0,0.0,0.0,0.0,0.0,0.0,0.0,-0.71485174,0.020024866,-0.24845743,1.2253284,14.143431,80.427895,82.33528,-0.7904053,-0.61507225,-3.035736
11.873512,117.200035,72.215744,68.65363,2.2937927,5.2097645,-0.38659295,-0.7746485,-0.39095852,0.26769504,0.71854633,-0.6306619,0.63588434,0.12648618,0.59362316,-0.6626896,-1.8206006,-1.5845246,2.1746576,1.6773899,-0.93091565,0.662896,-0.63076633,-1.8495502,-1.6417518,2.224998,1.6319518,-0.9421967,-0.8594549,-0.6879165,-0.046803076,1.5772576,-1.2574455,1.7785072,0.13665487,0.051130295,-0.42274094,0.80656785,-1.3719025,-0.27184126,0.7862807,0.048603058,-0.4915924,0.7344808,0.82799923,0.08973156,0.13986248,0.5355409,-0.95345,0.023412988,0.31858182,1.0,0.0,0.0,0.0,0.0,0.0,0.0,-0.7011303,0.02274093,-0.25656784,-16.11637,11.738003,68.45136,45.796394,6.140542,-14.6292925,-0.053817034
-5.7875557,77.882835,43.668636,45.0979,2.248117,3.2705956,-0.19278057,-0.759214,-0.39929464,0.31110388,0.7716661,-0.6754857,0.5912232,0.105849005,0.58697456,-0.6706958,-1.8184398,-1.5645852,2.1574495,1.6910741,-0.93161184,0.6526001,-0.6373114,-1.8461304,-1.6247535,2.2131495,1.6481814,-0.9408883,-1.0843576,-0.64416766,0.4699646,1.741348,-1.16327,1.5734937,0.12954555,0.037420273,-0.425457,0.81368834,-1.3705308,-0.27156946,0.68730855,0.03904152,-0.49077225,0.73901725,0.83213824,0.07606801,0.14376517,0.5301803,-0.95804095,0.10792987,0.49209672,1.0,0.0,0.0,0.0,0.0,0.0,0.0,-0.68742025,0.025456995,-0.26368833,-21.888197,4.147351,51.22921,16.607094,8.652067,-19.74337,-0.519225
-15.741985,51.703953,20.80082,27.155277,1.7421306,1.5046983,-0.22211727,-0.77142125,-0.32331872,0.2523491,0.77799034,-0.66978693,0.5876134,0.051700134,0.575458,-0.6696433,-1.8208954,-1.5469544,2.1461709,1.7069428,-0.9357183,0.6403101,-0.6433901,-1.8396988,-1.6075282,2.202167,1.662477,-0.93968666,-1.2760652,-0.5960769,0.69942313,1.7166698,-1.0776311,1.3836132,0.117391825,0.02372551,-0.42817307,0.81981987,-1.3691605,-0.27129796,0.58843535,0.029315948,-0.48941803,0.7443206,0.8362698,0.06241332,0.14754836,0.5243918,-0.9793264,0.15260509,0.5369718,1.0,0.0,0.0,0.0,0.0,0.0,0.0,-0.6737255,0.02817306,-0.26981986,-18.799423,4.71884,22.48981,-2.3553848,8.266354,-18.398619,-1.1191636
-21.03894,25.544315,2.598943,15.195158,1.6032969,0.10362202,-0.20159304,-0.78104323,-0.35808784,0.2109882,0.76828897,-0.653479,0.5776369,0.028918872,0.5622058,-0.6791989,-1.8185999,-1.5306993,2.1368191,1.7202407,-0.93679476,0.62659913,-0.6493105,-1.8326302,-1.5912204,2.1919208,1.6750598,-0.9386195,-1.402372,-0.5907397,0.7084314,1.6021938,-1.0072792,1.2179321,0.10343673,0.010044098,-0.4308815,0.8249634,-1.3677917,-0.2710267,0.48966107,0.019266129,-0.4879341,0.7493821,0.8404457,0.049848575,0.15103576,0.5180292,-1.0156704,0.15331809,0.49051067,1.0,0.0,0.0,0.0,0.0,0.0,0.0,-0.6600441,0.030881494,-0.27496338,-12.481809,0.5372882,0.5859256,-11.410737,7.013941,-16.150713,-1.3382584
-17.026133,14.332938,-2.7023273,9.522552,1.3255246,-0.5843041,-0.10123573,-0.7741304,-0.39277923,0.23211744,0.76182646,-0.6406761,0.57200515,-0.0068939533,0.5491861,-0.68858844,-1.8094184,-1.5150378,2.1278532,1.7322603,-0.9393089,0.6121748,-0.6554617,-1.8261547,-1.5761485,2.1822314,1.6861796,-0.9377078,-1.455685,-0.6231925,0.62668234,1.4754666,-0.9558526,1.0775433,0.08717791,-0.0036239624,-0.43358994,0.82911986,-1.3664242,-0.27075574,0.39098558,0.008899689,-0.48662186,0.7537203,0.84465945,0.03875621,0.15411557,0.5111718,-1.0459031,0.13284272,0.41038644,1.0,0.0,0.0,0.0,0.0,0.0,0.0,-0.646376,0.03358993,-0.27911985,-5.2951097,-3.2200336,-8.344973,-12.663102,5.1424384,-13.749027,-1.5934825
-13.904917,7.4141006,-4.393793,8.666085,1.4011569,-0.8224688,-0.051017903,-0.77112097,-0.45289743,0.23021248,0.7599859,-0.63037276,0.5709814,-0.049859364,0.53506273,-0.7007515,-1.8031335,-1.50015,2.119194,1.7432778,-0.9426937,0.5976046,-0.6622605,-1.8206692,-1.5621123,2.172935,1.6960692,-0.9369763,-1.4574603,-0.69871914,0.52219623,1.3799578,-0.92114204,0.9600746,0.06868276,-0.017276764,-0.43629837,0.83229035,-1.3650581,-0.27048504,0.29240873,-0.0017776489,-0.4855919,0.75720876,0.84890735,0.029063562,0.15668894,0.50394464,-1.076991,0.1003809,0.32448897,1.0,0.0,0.0,0.0,0.0,0.0,0.0,-0.6327232,0.036298364,-0.28229034,-0.1494646,-7.523036,-10.543787,-9.516025,3.4500003,-11.558378,-1.8008113
-9.868225,9.123507,-1.2656054,10.484778,1.4335495,-0.71834534,-0.025693381,-0.76130867,-0.49572158,0.23319376,0.7593936,-0.6297946,0.5739371,-0.10069046,0.5214737,-0.71183264,-1.7973498,-1.4861729,2.1099555,1.7534629,-0.9470454,0.58324987,-0.6699557,-1.8160572,-1.5487056,2.1638637,1.7049403,-0.9364499,-1.4279873,-0.7930835,0.4407823,1.3277144,-0.9023081,0.8630792,0.047446664,-0.030918121,-0.43899918,0.8344678,-1.3636932,-0.27021462,0.19286521,-0.012735367,-0.4848671,0.7599426,0.8531774,0.020465301,0.15874757,0.4964559,-1.103577,0.070425585,0.25289598,1.0,0.0,0.0,0.0,0.0,0.0,0.0,-0.61908185,0.03899917,-0.28446782,2.989912,-9.421682,-8.191866,-5.15244,1.8127441,-9.546459,-2.0590992
-4.436716,14.207635,4.182476,11.900047,1.3235132,-0.48086458,0.051728703,-0.737254,-0.5492035,0.26315013,0.75415194,-0.63269377,0.5761815,-0.108972654,0.50952446,-0.72487605,-1.7897422,-1.4732904,2.1005943,1.7625585,-0.94734716,0.5693405,-0.67867607,-1.8118572,-1.5355754,2.1548877,1.7129703,-0.9361228,-1.3783611,-0.89843196,0.41328013,1.3086113,-0.89636767,0.7835074,0.02804932,-0.04454422,-0.44169998,0.8356506,-1.3623298,-0.26994446,0.093421236,-0.023878098,-0.484375,0.7621076,0.8574102,0.0125734415,0.1603115,0.48886588,-1.1196433,0.050848264,0.20112446,1.0,0.0,0.0,0.0,0.0,0.0,0.0,-0.60545576,0.041699976,-0.2856506,5.0062656,-10.5423565,-2.7462304,-1.822114,0.45194626,-7.8104258,-1.8613889
-1.4518385,19.283413,7.9821053,12.805467,1.2197276,-0.29705012,0.08255018,-0.7160249,-0.58980596,0.26395538,0.7427173,-0.6295659,0.5780425,-0.1174646,0.49773803,-0.73765665,-1.7854617,-1.4613037,2.091931,1.7707745,-0.94786924,0.55597,-0.6884064,-1.8076973,-1.5225215,2.1459346,1.7203155,-0.93597496,-1.3230479,-0.9979588,0.4171132,1.3044858,-0.89586955,0.7185049,0.010699143,-0.058156967,-0.44439697,0.8358397,-1.3609679,-0.26967457,-0.0059233215,-0.035131454,-0.48400497,0.76385385,0.8615581,0.0050976584,0.16142854,0.481282,-1.1285943,0.040308144,0.16244614,1.0,0.0,0.0,0.0,0.0,0.0,0.0,-0.591843,0.044396967,-0.28583968,5.571103,-9.978294,0.41359067,-0.31528473,-0.12962818,-6.343615,-1.6535753
-2.6231499,19.293634,7.5966163,12.907736,1.2433649,-0.23634422,0.073387936,-0.7021486,-0.64278984,0.24074304,0.7248657,-0.63554317,0.57324743,-0.09483194,0.48575515,-0.75268537,-1.783623,-1.450035,2.0823803,1.7776402,-0.9454582,0.5431021,-0.6991114,-1.8034992,-1.509521,2.1369472,1.7270942,-0.9359616,-1.2745739,-1.094775,0.42075628,1.2990911,-0.90031844,0.66476977,-0.0015292477,-0.07175636,-0.44709015,0.83503604,-1.3596071,-0.26940495,-0.10516855,-0.04649353,-0.48371887,0.7652089,0.8656154,-0.0020533553,0.16213454,0.47372767,-1.1407247,0.03191907,0.122998215,1.0,0.0,0.0,0.0,0.0,0.0,0.0,-0.5782436,0.047090143,-0.28503603,4.8947096,-9.713268,0.38517118,-0.42164326,-0.6112337,-5.2214265,-1.1336193
-7.2875075,15.781358,2.9969625,12.778516,1.3688911,-0.42224056,-0.038723424,-0.6789996,-0.67173815,0.13221097,0.7142906,-0.6283032,0.5590107,-0.0858888,0.4752021,-0.76628524,-1.7902781,-1.438092,2.074117,1.7829952,-0.9445505,0.5306862,-0.7106547,-1.7997665,-1.4966006,2.1279368,1.733396,-0.9360465,-1.2305192,-1.1742615,0.3576006,1.2901436,-0.90170884,0.6190498,-0.010418557,-0.08534241,-0.44978333,0.8332407,-1.3582478,-0.2691356,-0.20431457,-0.058063507,-0.48357773,0.7660675,0.86966,-0.008722776,0.16248907,0.46606067,-1.1645312,0.015129771,0.06982834,1.0,0.0,0.0,0.0,0.0,0.0,0.0,-0.56465757,0.04978332,-0.28324068,4.449892,-7.973218,-6.330812,-0.7385254,-0.22358894,-4.436159,-0.80536336
-11.769323,14.846195,-0.18917441,13.544937,1.4396876,-0.522698,-0.1554555,-0.6649381,-0.68652135,0.04158019,0.7182908,-0.6397341,0.5526903,-0.06588651,0.4641924,-0.7793068,-1.7956085,-1.4247715,2.0639634,1.788665,-0.9426351,0.5186451,-0.7228064,-1.7971001,-1.4837356,2.1188846,1.7392955,-0.93619144,-1.1951213,-1.2288811,0.23601739,1.2860199,-0.90602136,0.5806024,-0.015562517,-0.0989151,-0.4524727,0.8304546,-1.3568898,-0.2688665,-0.30336148,-0.06993675,-0.48363876,0.7663401,0.8737799,-0.014713329,0.16262309,0.45808932,-1.1971115,-0.005653329,0.009097285,1.0,0.0,0.0,0.0,0.0,0.0,0.0,-0.5510849,0.05247268,-0.28045458,3.5987139,-5.487275,-12.218228,-0.21092892,-0.44586658,-3.7136316,-0.44513512
-26.098213,-0.4635359,-14.301127,14.491056,2.0070572,-0.9871183,-0.46814936,-0.65881383,-0.7138256,-0.24822333,0.7277516,-0.63480896,0.5556921,-0.08780561,0.45276374,-0.794189,-1.8219224,-1.4109604,2.0554037,1.7948647,-0.944972,0.50687104,-0.73541015,-1.7968922,-1.4708381,2.1098208,1.7448573,-0.9363936,-1.1711287,-1.2709488,-0.05161727,1.2919288,-0.905589,0.5483344,-0.021493284,-0.112472534,-0.45515823,0.8266788,-1.3555332,-0.2685977,-0.40230936,-0.0824337,-0.48410416,0.7657279,0.87820244,-0.019523703,0.16263434,0.44936544,-1.2693424,-0.05257231,-0.08900446,1.0,0.0,0.0,0.0,0.0,0.0,0.0,-0.53752744,0.055158228,-0.2766788,2.5170088,-4.204178,-28.945108,0.92380047,0.24212599,-3.177929,-0.5229659
-28.189674,0.15858507,-15.904427,14.894782,1.9127419,-1.0432311,-0.5703493,-0.6322871,-0.70994604,-0.39369294,0.7485424,-0.6488062,0.6121421,-0.17025435,0.44364232,-0.80640477,-1.8362615,-1.3959838,2.0449402,1.8060715,-0.953419,0.49536496,-0.748259,-1.7999649,-1.457767,2.1007304,1.7501788,-0.9367112,-1.1432369,-1.2895278,-0.39312586,1.3133824,-0.9092366,0.52685034,-0.03512725,-0.12601852,-0.45784378,0.8219143,-1.354178,-0.26832914,-0.5011583,-0.09567833,-0.4850464,0.7640967,0.88303274,-0.022895351,0.16267267,0.43962076,-1.3439391,-0.09924208,-0.19255915,1.0,0.0,0.0,0.0,0.0,0.0,0.0,-0.52398145,0.057843775,-0.2719143,2.9507399,-1.8777132,-34.361504,2.5396347,-0.13223886,-2.1535277,-1.329717
-24.78554,4.5658455,-12.3970995,13.845736,1.6711152,-0.86156577,-0.49163353,-0.61251175,-0.73313373,-0.48052427,0.7501173,-0.6301267,0.6410557,-0.21473378,0.4341138,-0.82157236,-1.8480173,-1.3827553,2.0377178,1.8142843,-0.9581846,0.4841612,-0.76128525,-1.8062134,-1.4444823,2.091659,1.7553401,-0.9371928,-1.112174,-1.3071396,-0.70250005,1.3347338,-0.90567875,0.512497,-0.05250466,-0.13954926,-0.4605255,0.81616205,-1.3528241,-0.26806086,-0.5999084,-0.109594345,-0.4863739,0.76147985,0.8882192,-0.024890097,0.16276261,0.4289003,-1.4086168,-0.1346444,-0.29003653,1.0,0.0,0.0,0.0,0.0,0.0,0.0,-0.5104507,0.060525507,-0.26616204,3.2835722,-1.8162012,-31.115019,2.5343657,0.52791834,-1.4938116,-1.7216616
-16.6301,13.831038,-4.333271,11.866962,1.279252,-0.5149834,-0.2924441,-0.5915403,-0.7564493,-0.5153814,0.7410351,-0.5948885,0.6508606,-0.2485936,0.42500716,-0.83693016,-1.8577515,-1.3703789,2.0321703,1.8204261,-0.96205217,0.4732936,-0.77453464,-1.8148518,-1.4310775,2.0827289,1.7603908,-0.9378613,-1.0778626,-1.3311278,-0.91779876,1.3436836,-0.88859755,0.50236887,-0.07161895,-0.15306854,-0.46320343,0.809423,-1.3514715,-0.26779285,-0.6985598,-0.12399483,-0.48791504,0.7580222,0.8936072,-0.025796767,0.16280608,0.41748625,-1.4508204,-0.15071227,-0.3701658,0.0,1.0,0.0,0.0,0.0,0.0,0.0,-0.49693143,0.063203424,-0.25942302,3.5605907,-2.4911642,-21.605755,1.2292147,1.7468929,-1.087451,-1.8988714
-6.645801,25.183817,5.1948175,9.792257,0.83487296,-0.15835172,-0.069190614,-0.56450063,-0.77434343,-0.5212643,0.732692,-0.56757027,0.66065055,-0.27675712,0.41684353,-0.851969,-1.8669782,-1.3578082,2.025972,1.8264558,-0.965537,0.46281177,-0.78806156,-1.8248291,-1.4176822,2.074039,1.7653651,-0.9387244,-1.0381647,-1.3603818,-1.0242563,1.3388683,-0.8626022,0.49570617,-0.0911988,-0.16657257,-0.46588135,0.8016982,-1.3501203,-0.2675251,-0.7971126,-0.13861656,-0.48947906,0.75393236,0.8990119,-0.026008632,0.16269606,0.40574744,-1.4651673,-0.14750329,-0.42831743,0.0,1.0,0.0,0.0,0.0,0.0,0.0,-0.4834274,0.06588134,-0.2516982,4.006052,-3.0462265,-10.586286,-0.25479794,2.4898648,-0.719738,-1.9440963
4.914504,36.80976,14.146061,7.068221,0.2230714,0.009687126,0.1601997,-0.51697415,-0.7802869,-0.52735496,0.7190348,-0.5731802,0.66905963,-0.26303527,0.41111436,-0.86609024,-1.8775645,-1.3457787,2.016721,1.8322711,-0.9650279,0.4528554,-0.8018517,-1.8352661,-1.4044375,2.065559,1.7702956,-0.93975437,-0.9817323,-1.3856734,-1.0495192,1.3199923,-0.84402454,0.49191806,-0.106957756,-0.18006325,-0.46855164,0.7929856,-1.3487705,-0.26725763,-0.8959605,-0.15313148,-0.49092484,0.74939734,0.9042498,-0.02585609,0.16241863,0.39406094,-1.4461837,-0.13247927,-0.4685075,0.0,1.0,0.0,0.0,0.0,0.0,0.0,-0.46993673,0.06855163,-0.2429856,5.559242,-2.6631355,-2.3319483,-1.7928839,1.6263127,-0.3856659,-1.5797601
8.697036,40.99674,17.176918,5.823619,0.0514192,0.06693661,0.24692667,-0.4983089,-0.7940893,-0.5476583,0.69818854,-0.5428217,0.6479038,-0.25983238,0.40302452,-0.88126063,-1.8900319,-1.3346187,2.0112767,1.835086,-0.9657376,0.4434479,-0.8158869,-1.8456974,-1.391479,2.057304,1.7751784,-0.9409188,-0.9274643,-1.4099119,-1.0402625,1.2879883,-0.82050383,0.48717412,-0.11968184,-0.19354057,-0.47122192,0.7832854,-1.347422,-0.26699042,-0.9947096,-0.16738129,-0.49219513,0.7445086,0.909239,-0.025493607,0.1619434,0.3826341,-1.4163967,-0.11448873,-0.5023921,0.0,1.0,0.0,0.0,0.0,0.0,0.0,-0.4564594,0.07122192,-0.23328537,5.3100467,-2.5612116,1.1546135,-3.1491518,2.074194,-0.4728794,-1.2747989
22.449425,50.094994,23.910652,2.6552987,-0.6460215,-0.13946891,0.43631873,-0.39514306,-0.7923593,-0.53551704,0.70021886,-0.57977027,0.6528797,-0.21193299,0.40393358,-0.8951228,-1.8992491,-1.3214571,1.9993268,1.8404664,-0.9621121,0.4349502,-0.8300815,-1.8559712,-1.3788702,2.0491023,1.7800493,-0.94222665,-0.824667,-1.4230803,-1.022262,1.2514391,-0.81936836,0.4884766,-0.13417049,-0.20788574,-0.47176743,0.7789599,-1.4479791,0.013416864,-0.23509374,-0.18106651,-0.4933319,0.7393124,0.91387445,-0.025001002,0.16137536,0.3717072,-1.3509645,-0.10361194,-0.53207093,0.0,1.0,0.0,0.0,0.0,0.0,0.0,-0.44211423,0.07176742,-0.22895986,9.65929,-1.5140772,3.729248,-2.722025,-0.090134144,-0.2753079,-0.6421715
-11.352985,58.62112,21.320906,20.203535,0.95947385,0.95343184,-0.06739178,-0.60583943,-0.72230774,-0.49256006,0.7844219,-0.6500431,0.63191307,-0.04762063,0.37436625,-0.9023123,-1.9052272,-1.300428,1.984098,1.8432406,-0.9469887,0.42633948,-0.84402615,-1.8657578,-1.3660738,2.0406718,1.7848978,-0.94347787,-0.8728307,-1.3856922,-0.96345866,1.2895145,-0.85193306,0.48384827,-0.12248112,-0.22235489,-0.4716301,0.7758633,-1.4465313,0.01340345,-0.33450362,-0.19456482,-0.49406052,0.73418546,0.91829574,-0.024533994,0.1611204,0.36079243,-1.3467935,-0.052197408,-0.51275814,0.0,1.0,0.0,0.0,0.0,0.0,0.0,-0.4276451,0.07163009,-0.22586328,-4.6952844,3.4983158,6.0321093,3.9479017,-3.6346316,-0.41840076,1.0739148
-20.77471,62.01849,20.016426,24.717058,1.340591,1.1428359,-0.19757903,-0.6011358,-0.6915872,-0.5248718,0.7944075,-0.6598622,0.6455246,0.048383307,0.3662259,-0.9131849,-1.918245,-1.2866331,1.9746855,1.8494502,-0.9386395,0.41703352,-0.8574119,-1.8751496,-1.3527548,2.031879,1.789712,-0.9445269,-0.94914925,-1.3237952,-0.9307956,1.3465841,-0.8898178,0.48064598,-0.099465236,-0.23680878,-0.47149277,0.77177334,-1.4450852,0.013390049,-0.4338141,-0.20813179,-0.49419403,0.72931397,0.92259485,-0.024064597,0.16144586,0.3495352,-1.3577813,0.007749672,-0.48494148,0.0,1.0,0.0,0.0,0.0,0.0,0.0,-0.4131912,0.07149276,-0.22177333,-7.4357867,5.9221983,3.3747435,5.8989525,-4.1583896,-0.28552413,2.1771936
-24.662754,52.0613,13.380249,22.688284,1.4054792,0.851012,-0.20229366,-0.5947844,-0.7030746,-0.6038126,0.78271943,-0.6536622,0.6253783,0.12143876,0.3575551,-0.92771935,-1.9355309,-1.2744828,1.9665127,1.8522497,-0.93238306,0.4070247,-0.870297,-1.8847169,-1.3389666,2.022777,1.7944784,-0.9452956,-1.0174525,-1.2775898,-0.96502155,1.3904291,-0.91785216,0.4751851,-0.06967344,-0.2512474,-0.47135544,0.7666911,-1.4436405,0.0133766625,-0.53302526,-0.22190857,-0.49383163,0.7245212,0.92680794,-0.023319097,0.16230506,0.33784652,-1.3818678,0.05606209,-0.4832622,0.0,1.0,0.0,0.0,0.0,0.0,0.0,-0.39875257,0.07135543,-0.21669108,-6.6252947,4.3768644,-3.3643007,4.6418667,-3.0802727,-0.56684613,2.8779163
-12.627354,49.90396,13.923358,16.377394,0.763335,0.4252571,-0.008555908,-0.54278696,-0.6935652,-0.624914,0.7859485,-0.6687947,0.6431399,0.1683619,0.352746,-0.9396535,-1.9472083,-1.2603718,1.9558976,1.8587924,-0.9284594,0.3967527,-0.88282067,-1.8948239,-1.3248656,2.0134273,1.7992067,-0.94575334,-1.0301604,-1.244656,-1.025491,1.4171876,-0.94161683,0.47181347,-0.03805948,-0.2656746,-0.4712181,0.76061743,-1.4421972,0.013363289,-0.6321372,-0.23576546,-0.49310303,0.71962285,0.9308717,-0.022131445,0.16358429,0.32592663,-1.3837441,0.08846438,-0.49760827,0.0,1.0,0.0,0.0,0.0,0.0,0.0,-0.38432539,0.0712181,-0.21061742,-1.1893511,3.0844688,-5.913031,2.8523922,-2.6385307,-0.3754139,3.0530035
0.88782597,44.29164,13.804659,9.146404,0.15501672,-0.042811036,0.21511984,-0.48931512,-0.71582204,-0.65321815,0.78355646,-0.6731771,0.64661664,0.23674273,0.34782118,-0.95440286,-1.9601457,-1.2465099,1.9461095,1.8638684,-0.9220791,0.38678533,-0.8952476,-1.9056304,-1.310642,2.0039096,1.8039075,-0.9458641,-0.9850131,-1.2424631,-1.1022679,1.4227345,-0.948449,0.47248384,-0.0008391876,-0.2800007,-0.47085953,0.7541132,-1.3890578,0.08735074,-0.4878505,-0.24948883,-0.49219894,0.7144285,0.93469954,-0.020424945,0.16508698,0.31411117,-1.3670665,0.10020727,-0.53326774,0.0,1.0,0.0,0.0,0.0,0.0,0.0,-0.3699993,0.07085952,-0.20411319,4.57983,0.080013275,-8.020496,0.40214062,0.055873394,0.33057928,3.8828142
-2.217808,45.179047,13.782852,10.091456,0.31435585,0.098537385,0.21047518,-0.53506994,-0.6992416,-0.6543744,0.7934073,-0.68529844,0.6191408,0.31134006,0.33327833,-0.96517175,-1.9710678,-1.2313013,1.9353797,1.8658216,-0.9147301,0.3771242,-0.90767014,-1.917069,-1.2963963,1.9943522,1.8086237,-0.94558555,-0.9598455,-1.2428184,-1.1569904,1.425499,-0.95929265,0.47060242,0.037249487,-0.2936802,-0.46997452,0.74902314,-1.3629022,0.09109349,-0.517705,-0.26309013,-0.4911461,0.7089007,0.9382846,-0.018228982,0.16669476,0.30249396,-1.3541183,0.11769536,-0.5645973,0.0,1.0,0.0,0.0,0.0,0.0,0.0,-0.3563198,0.06997451,-0.19902313,2.5005698,-0.20849705,-5.264449,0.39858818,-1.4044642,-0.36829114,3.740226
2.3858414,50.431374,17.27259,9.25265,0.18796766,0.1725241,0.26620832,-0.50879824,-0.687318,-0.6408681,0.7959566,-0.6853423,0.6211077,0.329825,0.32624435,-0.9764019,-1.9811558,-1.2168006,1.925818,1.8707345,-0.912603,0.36775628,-0.92006695,-1.9288069,-1.2821484,1.9847184,1.8133162,-0.9449466,-0.92933154,-1.2391609,-1.1783692,1.4248487,-0.9658877,0.46857634,0.07253334,-0.30710983,-0.46897125,0.7437227,-1.3367676,0.10369288,-0.5356006,-0.2764721,-0.48989868,0.7031389,0.94160557,-0.015657617,0.16841169,0.29115498,-1.329497,0.13698907,-0.5851377,0.0,1.0,0.0,0.0,0.0,0.0,0.0,-0.34289014,0.06897125,-0.19372267,2.986014,0.1884222,-1.8672228,-0.0036239624,-0.978446,-0.29155016,3.4416058
0.26623535,50.344967,16.958057,9.756422,0.3369735,0.2517237,0.25118935,-0.5128581,-0.6967973,-0.6514699,0.79001397,-0.6823711,0.60171133,0.36248448,0.31647047,-0.9897467,-1.993954,-1.2031469,1.9164814,1.8734874,-0.90869814,0.3585944,-0.93247235,-1.9406404,-1.2679387,1.9750336,1.8179718,-0.9439709,-0.91196036,-1.2416253,-1.1841707,1.4198831,-0.97047514,0.46405965,0.10573004,-0.3202858,-0.4678383,0.73824143,-1.3116014,0.11642655,-0.5537993,-0.28964233,-0.48843765,0.69718146,0.94467306,-0.012780704,0.17019026,0.28011554,-1.3088636,0.1587003,-0.60436505,0.0,1.0,0.0,0.0,0.0,0.0,0.0,-0.32971418,0.06783828,-0.18824142,1.6834378,-0.42779446,-0.30281544,-0.41832924,-0.79677105,-0.5551696,3.248097
1.6073585,54.559967,19.035503,10.129626,0.37802112,0.32208568,0.25170904,-0.49941924,-0.6877831,-0.6360411,0.7912024,-0.67663705,0.5961491,0.37831149,0.30865246,-1.0012506,-2.0042446,-1.1888185,1.90737,1.8775867,-0.9061398,0.34959176,-0.94486725,-1.9523804,-1.2537767,1.9653387,1.8225803,-0.94268894,-0.8966031,-1.2394282,-1.1696624,1.4152383,-0.97054744,0.45937926,0.13551019,-0.3331871,-0.46657562,0.7326344,-1.2830485,0.1298874,-0.5640483,-0.30257607,-0.48674393,0.69109505,0.9474963,-0.009683471,0.17200568,0.26939008,-1.2840149,0.18249959,-0.61503,0.0,1.0,0.0,0.0,0.0,0.0,0.0,-0.31681287,0.06657562,-0.18263441,1.4644861,0.03080368,1.76723,-0.41353703,-0.38831234,-0.5781293,2.905345
8.074415,58.659866,21.853983,8.7419815,0.22840309,0.2303558,0.31464928,-0.459608,-0.68921,-0.6161307,0.7871499,-0.6687637,0.593711,0.41318485,0.30363095,-1.0137882,-2.0139935,-1.1750617,1.8984623,1.8819515,-0.90137047,0.34087285,-0.95724404,-1.9638569,-1.2396721,1.9556818,1.8271469,-0.9411182,-0.8640483,-1.2377579,-1.139028,1.4088197,-0.9656713,0.45529228,0.16409591,-0.34576607,-0.4651909,0.72696316,-1.2493674,0.1415595,-0.56924576,-0.31517792,-0.48484802,0.6849364,0.9500651,-0.0064675706,0.1738274,0.2590724,-1.2479566,0.2008064,-0.6209362,0.0,1.0,0.0,0.0,0.0,0.0,0.0,-0.3042339,0.06519088,-0.17696315,3.1351209,-0.01590252,3.4334898,-0.64349174,0.06814003,-0.513798,2.779317
7.1292744,58.204216,20.795265,8.905573,0.24322367,0.14470637,0.29519257,-0.45227215,-0.68427247,-0.637037,0.7866353,-0.67785716,0.5518096,0.4570581,0.29564565,-1.0256712,-2.0275607,-1.1610086,1.8878961,1.8823278,-0.8954124,0.3324729,-0.96958363,-1.9751503,-1.2256209,1.9460478,1.8316447,-0.93926126,-0.8323796,-1.2333554,-1.1248337,1.4039085,-0.9641405,0.44747615,0.19261466,-0.35801315,-0.46369934,0.7212169,-1.2166028,0.15146635,-0.57721716,-0.32744026,-0.48279953,0.67869747,0.9523919,-0.003091774,0.17566477,0.24916245,-1.2143196,0.21557115,-0.62949896,0.0,1.0,0.0,0.0,0.0,0.0,0.0,-0.29198682,0.063699335,-0.1712169,3.0584335,0.25906563,1.7744303,-0.48019886,-0.25576353,-0.8861482,2.7606578
3.3681457,59.11468,19.971367,10.212551,0.39454696,0.19764334,0.25078443,-0.4591199,-0.6740373,-0.6314809,0.78080255,-0.6776037,0.53006434,0.4887577,0.2865609,-1.0369873,-2.0382984,-1.1475406,1.8782874,1.8846511,-0.8903855,0.3242837,-0.9818373,-1.9863447,-1.2116288,1.9364206,1.8360492,-0.9371261,-0.81469214,-1.2232786,-1.1164871,1.3975675,-0.96375126,0.4377222,0.22016823,-0.3699417,-0.4621086,0.71539253,-1.1848769,0.16163997,-0.5849717,-0.33940887,-0.48057175,0.67238075,0.95450205,0.00049907574,0.17754011,0.23959363,-1.186032,0.2330416,-0.636863,0.0,1.0,0.0,0.0,0.0,0.0,0.0,-0.28005826,0.062108606,-0.16539252,1.6836166,0.8178711,1.180172,-0.6030083,-0.37499666,-1.0933161,2.6610136
-3.0061274,54.598717,16.241798,11.287548,0.5738378,0.16077682,0.19137064,-0.46478653,-0.6807473,-0.6639154,0.77975976,-0.68865,0.4722896,0.5349885,0.27780503,-1.049912,-2.0527363,-1.1336528,1.8675556,1.8832781,-0.88362724,0.31616315,-0.99403095,-1.9976556,-1.197688,1.9267542,1.8403162,-0.9347122,-0.8112913,-1.2186972,-1.1350529,1.3932,-0.9688751,0.42251316,0.2482243,-0.38159943,-0.46042252,0.709404,-1.1593782,0.17075934,-0.6039654,-0.35119057,-0.47816467,0.6659178,0.95642895,0.004441347,0.17945448,0.2302605,-1.1707106,0.25111967,-0.6537492,0.0,1.0,0.0,0.0,0.0,0.0,0.0,-0.26840055,0.06042251,-0.15940398,0.3013134,0.2695322,-1.5625238,-0.341177,-0.8809924,-1.6551137,2.7206392
14.380826,59.40818,21.315315,6.317351,-0.011231959,-0.11612302,0.3492775,-0.3676554,-0.67558813,-0.63528174,0.7757472,-0.67175233,0.4999252,0.54137015,0.2793976,-1.0615897,-2.0611837,-1.1201133,1.859579,1.8903087,-0.8805752,0.30847177,-1.006175,-2.0090418,-1.1838007,1.9170953,1.8444663,-0.9320418,-0.7556358,-1.2136362,-1.1386042,1.387023,-0.96636677,0.41211027,0.27293265,-0.39292336,-0.45869064,0.7032879,-1.1234344,0.17427148,-0.6145347,-0.36260986,-0.475708,0.6593223,0.95814204,0.008661473,0.181378,0.22133856,-1.1278919,0.25177154,-0.6657492,0.0,1.0,0.0,0.0,0.0,0.0,0.0,-0.25707662,0.058690637,-0.15328789,5.4173946,0.34279823,0.027394295,-0.6534338,-0.15865564,-1.1695623,2.361393
1.0394354,52.350132,15.925085,9.463741,0.53883034,0.020739436,0.21029568,-0.42856997,-0.699501,-0.6533861,0.77588737,-0.6759911,0.4307322,0.5366822,0.26561478,-1.0761251,-2.0743804,-1.1062119,1.8494962,1.8875395,-0.8783736,0.30103692,-1.0183973,-2.0205202,-1.1699553,1.9074466,1.8484678,-0.929157,-0.7396407,-1.2257134,-1.1496774,1.3841125,-0.9655725,0.39565843,0.29344755,-0.40397072,-0.45690918,0.6969563,-1.0986084,0.17950705,-0.63966143,-0.37380028,-0.4731636,0.6525334,0.9596862,0.013192226,0.18323728,0.21272576,-1.111152,0.26202863,-0.6872077,0.0,1.0,0.0,0.0,0.0,0.0,0.0,-0.24602926,0.056909174,-0.14695626,1.5381813,-1.3787985,-0.7946968,-0.20167828,-0.27981997,-1.8014908,1.9911528
4.2348914,52.27196,16.547388,8.139107,0.51205647,0.0019020438,0.2378041,-0.3941762,-0.70730543,-0.6388046,0.765243,-0.64722455,0.43763715,0.5493563,0.2616193,-1.0891279,-2.0844007,-1.093431,1.8427242,1.8922316,-0.8742214,0.2938095,-1.0307894,-2.0320215,-1.1561747,1.8978908,1.8523223,-0.92608345,-0.7173703,-1.2443142,-1.1488308,1.3762752,-0.9534657,0.38136512,0.31177783,-0.4147663,-0.45508575,0.6903617,-1.0730048,0.18324204,-0.6660366,-0.38479996,-0.47053146,0.64552647,0.96108764,0.017986909,0.18493944,0.20441218,-1.091121,0.26993284,-0.7090272,0.0,1.0,0.0,0.0,0.0,0.0,0.0,-0.23523366,0.05508575,-0.14036167,2.146542,-2.0219564,0.41413307,-0.71144104,0.8442879,-1.5967965,1.7872036
-5.079755,48.664753,13.290624,10.166647,0.88368845,0.15161425,0.14898838,-0.42779312,-0.7246837,-0.64683986,0.7560163,-0.6341879,0.39868414,0.54505014,0.2510302,-1.1032578,-2.0967054,-1.0805731,1.8344721,1.8921907,-0.87157845,0.28658208,-1.0434294,-2.0435228,-1.1425009,1.8884857,1.8560147,-0.92285216,-0.7245803,-1.271113,-1.1499455,1.3650055,-0.93724835,0.3645022,0.326865,-0.42535782,-0.45320892,0.6834331,-1.0544254,0.18897477,-0.701654,-0.39571762,-0.46775436,0.63826215,0.962386,0.023049966,0.18640256,0.1963057,-1.0868641,0.28734076,-0.73612934,0.0,1.0,0.0,0.0,0.0,0.0,0.0,-0.22464216,0.053208917,-0.1334331,-0.7474184,-2.8480053,0.17464161,-0.97653866,1.2809157,-1.8715978,1.4968395
2.3952029,52.852016,16.04868,8.49473,0.66461635,0.098204315,0.20056024,-0.38156205,-0.72401154,-0.63812006,0.75738996,-0.62008685,0.42895392,0.5579438,0.24842587,-1.1158305,-2.1073349,-1.0667619,1.8264769,1.8989102,-0.8670578,0.27944288,-1.0562906,-2.0549898,-1.1289186,1.879271,1.8595775,-0.9194808,-0.71059567,-1.2914995,-1.144554,1.356192,-0.917461,0.35293156,0.3405378,-0.43571854,-0.45129395,0.6762004,-1.0299356,0.1923085,-0.7300554,-0.40650177,-0.46485138,0.630769,0.96357846,0.028320355,0.18762793,0.18844172,-1.0698874,0.29860288,-0.75750184,0.0,1.0,0.0,0.0,0.0,0.0,0.0,-0.21428144,0.05129394,-0.12620038,1.3261437,-2.2022724,0.8741379,-0.7933855,1.6080141,-1.3441741,1.3375282
5.215103,53.81501,17.232296,7.4372454,0.72477096,0.14615333,0.20934856,-0.38084432,-0.74703556,-0.59799606,0.7358043,-0.56582534,0.41756773,0.5214984,0.24135844,-1.1309942,-2.1147895,-1.0553383,1.8226885,1.9013343,-0.86733097,0.27244577,-1.0693979,-2.0662127,-1.1154985,1.8703846,1.8630316,-0.9160144,-0.6963374,-1.3175148,-1.113921,1.3374221,-0.88027865,0.3423429,0.34861338,-0.44582748,-0.44935226,0.6686938,-1.0041257,0.1948078,-0.7569401,-0.41708755,-0.46182632,0.62308633,0.96467984,0.03365026,0.18852764,0.18088035,-1.0498173,0.30944195,-0.77567786,0.0,1.0,0.0,0.0,0.0,0.0,0.0,-0.20417249,0.04935226,-0.11869377,1.3358593,-2.7568579,3.4208298,-1.8094301,3.3242702,-1.2543976,0.80149174
-5.0460634,54.07182,15.3618,10.265549,1.214238,0.37990537,0.11435624,-0.43567848,-0.7550576,-0.5813166,0.7099985,-0.5050525,0.3481036,0.52571636,0.22887792,-1.1449037,-2.1243443,-1.0444987,1.8198793,1.8978419,-0.8634427,0.2653137,-1.0827436,-2.0770617,-1.1023606,1.8620055,1.8663372,-0.9124782,-0.71896213,-1.3409276,-1.0742435,1.3063384,-0.82501304,0.325924,0.35542485,-0.45571518,-0.447361,0.66089976,-0.9833752,0.20089006,-0.78654295,-0.4275875,-0.45859528,0.61524034,0.9657399,0.038980573,0.18898825,0.17352355,-1.0438938,0.33432198,-0.79138726,0.0,1.0,0.0,0.0,0.0,0.0,0.0,-0.1942848,0.047360986,-0.11089975,-2.303934,-2.508831,4.2962074,-2.9828072,5.1274776,-1.8526018,0.708729
-7.166047,59.68003,16.777071,12.341647,1.4219176,0.5028652,0.062299635,-0.43774813,-0.7490377,-0.5555278,0.7166904,-0.47831628,0.32975402,0.5510106,0.2215389,-1.1576474,-2.1326144,-1.0306916,1.8141738,1.8993126,-0.8573772,0.25790888,-1.0962305,-2.0874567,-1.0894611,1.854191,1.8694749,-0.9088638,-0.74781716,-1.3520831,-1.0269581,1.2849538,-0.7682694,0.30907005,0.36346507,-0.4653759,-0.44530106,0.6528788,-0.9601326,0.20788324,-0.806798,-0.43802834,-0.45508194,0.60732126,0.9667776,0.044252343,0.18903019,0.1662834,-1.038536,0.36452684,-0.79586667,0.0,1.0,0.0,0.0,0.0,0.0,0.0,-0.18462408,0.04530105,-0.10287881,-2.926004,-1.2949705,5.0845385,-2.0218134,5.244148,-1.893717,0.8246958
-8.355622,62.752346,18.048296,12.906895,1.7745162,0.6285783,0.025042132,-0.46675444,-0.76070344,-0.48365226,0.6764687,-0.3482566,0.22365731,0.53189725,0.21123344,-1.1723008,-2.1358218,-1.0218142,1.8193653,1.8918406,-0.855674,0.2501145,-1.1098223,-2.097142,-1.0768898,1.8472252,1.8723792,-0.9051893,-0.7900937,-1.3621576,-0.94778216,1.2481626,-0.6741422,0.2833708,0.368981,-0.47480774,-0.44316483,0.64468616,-0.93683946,0.21581905,-0.822554,-0.44844246,-0.45121002,0.59942544,0.9678396,0.049299996,0.1885112,0.15912075,-1.0359107,0.40065485,-0.79109746,0.0,1.0,0.0,0.0,0.0,0.0,0.0,-0.17519224,0.04316482,-0.09468615,-4.270661,-1.1842489,8.289719,-3.5742998,8.950483,-2.7904272,0.6077111
-10.561459,66.06727,18.741972,13.751746,2.081164,0.68001604,-0.016334258,-0.50257415,-0.75466555,-0.43897,0.6375455,-0.21928665,0.035554644,0.53537506,0.19985709,-1.1852888,-2.141039,-1.0131352,1.8252965,1.8759346,-0.8516518,0.24180153,-1.1234484,-2.1059463,-1.0648084,1.8414681,1.874901,-0.90146506,-0.8451381,-1.3634807,-0.8567657,1.1952919,-0.54452175,0.24097756,0.37390703,-0.4840107,-0.44094467,0.63636106,-0.91403484,0.22428359,-0.8346526,-0.45885277,-0.44694138,0.59163296,0.9689799,0.05401631,0.1872429,0.15198757,-1.0369813,0.44126332,-0.7787728,0.0,1.0,0.0,0.0,0.0,0.0,0.0,-0.16598928,0.040944666,-0.08636105,-5.5408597,-0.3055811,9.462822,-5.1906824,12.491918,-4.4617357,0.5646467
-7.1770344,66.4742,19.05565,11.982307,2.0514784,0.5327518,0.008087628,-0.5133378,-0.75037646,-0.415985,0.5859546,-0.07038296,-0.18084148,0.54622287,0.19046775,-1.198486,-2.1475449,-1.006213,1.8344297,1.8568169,-0.84684277,0.23298933,-1.1370401,-2.1139224,-1.05341,1.8372753,1.8768603,-0.89768964,-0.89338106,-1.3582706,-0.77651525,1.1214248,-0.3789529,0.18023427,0.37898865,-0.49298477,-0.43865585,0.62790346,-0.89144677,0.23033574,-0.84838116,-0.46926308,-0.44231796,0.58395344,0.97023696,0.058395848,0.18503416,0.14488764,-1.0359174,0.47618893,-0.76757735,0.0,1.0,0.0,0.0,0.0,0.0,0.0,-0.1570152,0.038655847,-0.07790345,-4.8701525,0.36554337,8.356678,-7.3181868,16.1156,-6.297594,0.57899356
-3.5116231,64.74834,18.354235,9.945,1.8040807,0.36991343,0.046936404,-0.5200532,-0.74693495,-0.41346434,0.5439761,0.029915748,-0.29064792,0.5636247,0.180984,-1.2117336,-2.155269,-0.9990125,1.8402668,1.8477955,-0.8413272,0.22379911,-1.1505537,-2.1213114,-1.0428205,1.8347864,1.8781707,-0.8938568,-0.9277302,-1.3495194,-0.72587496,1.0384251,-0.20668711,0.11398858,0.3848745,-0.5017357,-0.4363289,0.61927396,-0.869317,0.23351046,-0.8670082,-0.47963524,-0.43740082,0.57632875,0.97161275,0.06251454,0.18181394,0.13785547,-1.0311731,0.5032559,-0.7640603,0.0,1.0,0.0,0.0,0.0,0.0,0.0,-0.14826429,0.036328882,-0.06927395,-3.4848332,0.738287,5.3525686,-8.243275,16.845057,-6.8387985,0.6452441
25.833195,76.37736,29.257004,3.4985363,1.4762845,0.2459836,0.21143311,-0.45099008,-0.74493796,-0.21332294,0.48691005,0.26199368,-0.31428453,0.55290264,0.1787001,-1.2250475,-2.1426437,-0.9941294,1.8609858,1.8467423,-0.83856654,0.21471487,-1.1639776,-2.1274793,-1.0331597,1.8344066,1.8788688,-0.8899792,-0.90256757,-1.3403453,-0.5787688,0.9413308,0.016691852,0.05439266,0.38879675,-0.5101185,-0.43404388,0.6107143,-0.82750535,0.22631134,-0.8512517,-0.4896965,-0.43240356,0.5689518,0.9731274,0.06586746,0.1774141,0.13118169,-0.99185884,0.5049155,-0.73187286,0.0,1.0,0.0,0.0,0.0,0.0,0.0,-0.13988149,0.03404388,-0.060714304,2.345264,0.8156538,15.142643,-9.865856,21.895132,-6.1195283,0.4048705
36.33673,82.11581,34.118996,2.2802804,1.4426527,0.27552694,0.23885797,-0.44624528,-0.7545147,-0.065631576,0.45519987,0.34086686,-0.3651736,0.53772026,0.17009035,-1.2394291,-2.1340425,-0.9876397,1.8684933,1.8423514,-0.83620715,0.20600353,-1.1773748,-2.1316373,-1.0244107,1.8361475,1.8790042,-0.88608044,-0.86126506,-1.3397603,-0.36024,0.85223067,0.22515973,-0.0004865314,0.3902147,-0.518013,-0.4318695,0.6024808,-0.77670723,0.21420945,-0.8139433,-0.49927902,-0.42746353,0.5620219,0.97479326,0.06797836,0.17181584,0.1250452,-0.94114584,0.4972881,-0.6829645,0.0,1.0,0.0,0.0,0.0,0.0,0.0,-0.13198698,0.0318695,-0.052480817,3.9488792,-0.031757355,22.316206,-9.104824,20.426826,-5.5790234,0.12892485
71.61375,96.59016,46.06475,-3.4773521,0.46277755,-0.10444963,0.4371298,-0.29664764,-0.7426879,0.1304366,0.47214484,0.31702724,-0.39516795,0.54630435,0.17633876,-1.2516437,-2.1185937,-0.9771962,1.8678503,1.8394874,-0.83145,0.1983758,-1.1907339,-2.1330183,-1.0162377,1.8394837,1.8786439,-0.8821702,-0.73082316,-1.3349286,-0.061727636,0.80467606,0.36813018,-0.04782968,0.3908905,-0.5252037,-0.4299469,0.5949786,-0.7004466,0.18478945,-0.7296032,-0.5080223,-0.4229164,0.55580837,0.9765414,0.06845683,0.16533758,0.119765945,-0.846997,0.44516677,-0.60362357,0.0,1.0,0.0,0.0,0.0,0.0,0.0,-0.12479627,0.029946893,-0.04497856,12.787485,0.38745403,30.484755,-5.0807953,13.8359785,-4.704682,-0.06516576
70.30172,94.52525,44.36379,-2.0732322,0.42916325,-0.27367952,0.37359387,-0.26103038,-0.7489619,0.20526168,0.47431326,0.39521927,-0.39632952,0.53192365,0.17227277,-1.2656301,-2.112492,-0.9688064,1.8790057,1.839011,-0.8289778,0.19212496,-1.2040815,-2.1315916,-1.0082823,1.8440353,1.8778676,-0.8782675,-0.5904657,-1.3352519,0.21292804,0.7918563,0.4826692,-0.087458186,0.38974568,-0.531662,-0.42833328,0.5883209,-0.6287029,0.15368436,-0.6463714,-0.5158844,-0.41893387,0.5503537,0.97833073,0.06728038,0.15822858,0.115351036,-0.76269984,0.38751647,-0.5290892,0.0,1.0,0.0,0.0,0.0,0.0,0.0,-0.11833799,0.028333277,-0.0383209,13.851762,-0.15947819,28.071436,-1.4649034,11.0327835,-3.9258971,-0.23124814
44.74189,99.27954,39.51331,8.783018,1.1915956,-0.08221954,0.08191331,-0.26064363,-0.700561,0.23396754,0.54224527,0.4310036,-0.33874163,0.5618404,0.1660606,-1.2741376,-2.1081948,-0.95405775,1.8871356,1.8439934,-0.8220835,0.1870009,-1.2172174,-2.128018,-0.9999777,1.8494967,1.8767841,-0.87435347,-0.4866319,-1.3067985,0.40712377,0.84344214,0.56596047,-0.1151909,0.3916798,-0.53749084,-0.42697144,0.58250606,-0.569052,0.13087952,-0.56291705,-0.5231533,-0.41532898,0.5456767,0.9801222,0.06476136,0.15086351,0.11138519,-0.71228963,0.35627043,-0.45031703,0.0,1.0,0.0,0.0,0.0,0.0,0.0,-0.11250913,0.02697143,-0.03250605,10.316986,2.703452,19.893753,5.1549554,8.015263,-2.7407691,0.12050867
52.093964,107.39113,42.691914,8.340735,0.86629057,-0.0921883,0.13092463,-0.14609665,-0.6623809,0.37723315,0.5426352,0.47631037,-0.16722399,0.5617065,0.17239124,-1.2834555,-2.0902946,-0.9457142,1.8971277,1.8600616,-0.8181828,0.18309112,-1.2298937,-2.1225677,-0.99109536,1.8556736,1.8755957,-0.87041944,-0.3593067,-1.2552248,0.5927962,0.90329874,0.6335359,-0.119933054,0.39364994,-0.54268074,-0.42586136,0.57766205,-0.5038434,0.104605824,-0.46187243,-0.52983093,-0.4120865,0.5418723,0.98186326,0.060969453,0.14354768,0.10780215,-0.6505357,0.31652403,-0.36043695,0.0,1.0,0.0,0.0,0.0,0.0,0.0,-0.107319236,0.025861353,-0.027662039,12.672747,4.978776,19.117134,6.0300827,6.40018,-0.42032897,0.11487603
41.35416,98.31131,37.13678,7.6596375,0.86961186,0.12638348,0.15215293,-0.14057064,-0.66069555,0.45146823,0.48057193,0.561883,0.06278106,0.53424567,0.16903405,-1.2959633,-2.0774207,-0.94303817,1.9118619,1.8818738,-0.8169949,0.18018633,-1.2421026,-2.1154773,-0.9819927,1.8625836,1.8745617,-0.86648625,-0.26759967,-1.209952,0.74919826,0.91305494,0.70904285,-0.09777113,0.39315298,-0.5472927,-0.4249649,0.5736701,-0.44875053,0.08477046,-0.38323748,-0.5359497,-0.40913773,0.5387954,0.98354167,0.055965345,0.13625954,0.10462724,-0.5982835,0.2914049,-0.29350105,0.0,1.0,0.0,0.0,0.0,0.0,0.0,-0.10270727,0.024964899,-0.023670077,9.153498,4.3551445,16.075706,1.0932922,7.268381,2.2875085,-0.06964803
27.225166,88.27998,30.064783,7.18126,0.7369318,0.26057118,0.18660447,-0.14336371,-0.62816304,0.45440796,0.40978596,0.6101391,0.15373397,0.5191147,0.16584995,-1.3049189,-2.0700364,-0.9410141,1.9235976,1.889935,-0.8145748,0.17786776,-1.2538252,-2.1073072,-0.9732725,1.8702393,1.8738272,-0.8625702,-0.21992072,-1.1601124,0.84059244,0.8588849,0.7837828,-0.06496044,0.39124027,-0.5514355,-0.42421722,0.5702494,-0.40447518,0.07169612,-0.3335899,-0.5416088,-0.4063301,0.53616893,0.98514163,0.050050173,0.12890667,0.10185274,-0.5552633,0.2802973,-0.25598332,0.0,1.0,0.0,0.0,0.0,0.0,0.0,-0.098564506,0.024217218,-0.020249367,4.7792883,4.845476,9.379292,-5.267012,7.3480487,3.4080684,-0.15274882
22.848507,84.627754,26.964628,6.0565295,0.4014093,0.20777032,0.24647167,-0.11152749,-0.5858017,0.47093356,0.36411735,0.6252551,0.14757943,0.51697445,0.16671501,-1.3124053,-2.0602138,-0.93686074,1.9327648,1.8885852,-0.8108728,0.17591141,-1.2649717,-2.0985801,-0.96536475,1.8785352,1.8734,-0.8586742,-0.1874801,-1.0999442,0.8840895,0.7686956,0.84450233,-0.03455221,0.38927495,-0.55516624,-0.4235878,0.56723267,-0.36422387,0.060320295,-0.29691365,-0.5468292,-0.40364075,0.53380626,0.9866312,0.043560117,0.12148593,0.09951088,-0.5114749,0.2688718,-0.23331033,0.0,1.0,0.0,0.0,0.0,0.0,0.0,-0.09483373,0.023587793,-0.017232656,3.2628803,5.8995247,4.475498,-8.856905,6.050098,3.2210171,-0.1279831
11.377995,80.089714,22.956993,7.8543386,0.4762228,0.22543693,0.20552957,-0.12633997,-0.55958086,0.4777272,0.321251,0.6351859,0.09220681,0.51065403,0.16327742,-1.3209298,-2.0508075,-0.93323964,1.9420538,1.8826207,-0.80760884,0.1740571,-1.2755194,-2.089674,-0.9584577,1.8873085,1.8732052,-0.85480016,-0.18461473,-1.040038,0.89301383,0.66526645,0.88847697,-0.01378791,0.38708264,-0.5585499,-0.42303848,0.5644795,-0.33146146,0.053533643,-0.2741379,-0.5516968,-0.40098953,0.5315777,0.98799473,0.03678904,0.114015914,0.097536035,-0.47845063,0.26675183,-0.22291243,0.0,1.0,0.0,0.0,0.0,0.0,0.0,-0.091450095,0.023038477,-0.014479458,0.3288865,5.9114695,0.87503195,-10.173583,4.498565,2.287197,-0.11731386
