Afshin1997/kuka_rl_ros2/src/catch_and_throw/input_files/idealpd/recorded_trajectories/env_472_data.csv
torque0,torque1,torque2,torque3,torque4,torque5,torque6,action0,action1,action2,action3,action4,action5,action6,set_target_0,set_target_1,set_target_2,set_target_3,set_target_4,set_target_5,set_target_6,joint_pos_0,joint_pos_1,joint_pos_2,joint_pos_3,joint_pos_4,joint_pos_5,joint_pos_6,joint_vel_0,joint_vel_1,joint_vel_2,joint_vel_3,joint_vel_4,joint_vel_5,joint_vel_6,tennisball_pos_0,tennisball_pos_1,tennisball_pos_2,tennisball_lin_vel_0,tennisball_lin_vel_1,tennisball_lin_vel_2,end_effector_pos_0,end_effector_pos_1,end_effector_pos_2,end_effector_rot_0,end_effector_rot_1,end_effector_rot_2,end_effector_rot_3,end_effector_lin_vel_0,end_effector_lin_vel_1,end_effector_lin_vel_2,obs_task_0,obs_task_1,obs_task_2,obs_task_3,obs_task_4,obs_task_5,obs_task_6,to_final_target_0,to_final_target_1,to_final_target_2,joint_acc_0,joint_acc_1,joint_acc_2,joint_acc_3,joint_acc_4,joint_acc_5,joint_acc_6
0.0,0.0,0.0,0.0,0.0,0.0,0.0,0.0,0.0,0.0,0.0,0.0,0.0,0.0,1.7802359,-1.0646509,-1.8151424,-1.1170107,1.9373155,1.1170107,-0.91629785,1.7802359,-1.0646509,-1.8151424,-1.1170107,1.9373155,1.1170107,-0.91629785,0.0,0.0,0.0,0.0,0.0,0.0,0.0,2.759346,-0.32484388,0.31891105,-2.8656132,-0.44378188,5.277808,0.5304184,-0.4544952,0.693097,0.5745483,0.17512383,0.15255436,0.7848268,0.0,0.0,0.0,1.0,0.0,0.0,0.0,0.0,0.0,0.0,-3.409346,-0.07515612,0.23108897,0.0,0.0,0.0,0.0,0.0,0.0,0.0
0.0,0.0,0.0,0.0,0.0,0.0,0.0,0.0,0.0,0.0,0.0,0.0,0.0,0.0,1.7802359,-1.0646509,-1.8151424,-1.1170107,1.9373155,1.1170107,-0.91629785,1.7802359,-1.0646509,-1.8151424,-1.1170107,1.9373155,1.1170107,-0.91629785,0.0,0.0,0.0,0.0,0.0,0.0,0.0,2.759346,-0.32484388,0.31891105,-2.8656132,-0.44378188,5.277808,0.5304184,-0.4544952,0.693097,0.5745483,0.17512383,0.15255436,0.7848268,0.0,0.0,0.0,1.0,0.0,0.0,0.0,0.0,0.0,0.0,-3.409346,-0.07515612,0.23108897,0.0,0.0,0.0,0.0,0.0,0.0,0.0
0.0,0.0,0.0,0.0,0.0,0.0,0.0,0.0,0.0,0.0,0.0,0.0,0.0,0.0,1.7802359,-1.0646509,-1.8151424,-1.1170107,1.9373155,1.1170107,-0.91629785,1.7802359,-1.0646509,-1.8151424,-1.1170107,1.9373155,1.1170107,-0.91629785,0.0,0.0,0.0,0.0,0.0,0.0,0.0,2.759346,-0.32484388,0.31891105,-2.8656132,-0.44378188,5.277808,0.5304184,-0.4544952,0.693097,0.5745483,0.17512383,0.15255436,0.7848268,0.0,0.0,0.0,1.0,0.0,0.0,0.0,0.0,0.0,0.0,-3.409346,-0.07515612,0.23108897,0.0,0.0,0.0,0.0,0.0,0.0,0.0
-176.0,67.49376,-6.065634,110.0,10.416324,4.755229,-3.8886452,-0.79615563,0.33025423,-0.52681756,0.7465103,0.054145344,0.6849372,-0.5675487,1.7006203,-1.0316255,-1.8678242,-1.0423597,1.94273,1.1855044,-0.97305274,1.7787272,-1.0622076,-1.8210132,-1.1126925,1.9418111,1.1218535,-0.9173278,-0.20103243,0.32518908,-0.78209823,0.5760189,0.5985454,0.64398456,-0.13696197,2.730713,-0.32927823,0.3709131,-2.8627481,-0.4433382,5.174345,0.52835846,-0.4575081,0.6938238,0.5780764,0.17382269,0.15148412,0.78272974,-0.2733817,-0.40180272,0.096733265,1.0,0.0,0.0,0.0,0.0,0.0,0.0,-3.380713,-0.070721775,0.17908692,-20.043867,32.301773,-77.99463,57.673138,59.59176,63.872475,-13.601414
-176.0,-52.138073,-55.524197,110.0,12.273802,0.7007622,-3.5450985,-0.7902982,-0.2587074,-0.5703431,0.7283647,0.124273345,0.66429037,-0.585709,1.6996974,-1.0880783,-1.8780475,-1.039856,1.9542384,1.1882825,-0.97589874,1.7772642,-1.0595983,-1.8361499,-1.0990378,1.9507718,1.1348406,-0.917757,-0.13413715,0.22070856,-1.7104229,1.6277372,0.9694709,1.4687026,-0.024206715,2.7021103,-0.3337083,0.42188126,-2.859886,-0.44289494,5.070986,0.5239105,-0.4656787,0.69431514,0.5861295,0.17055543,0.14834899,0.7780461,-0.50359315,-0.9528207,0.037956696,1.0,0.0,0.0,0.0,0.0,0.0,0.0,-3.3521104,-0.06629172,0.12811875,4.8434525,-16.067013,-78.71757,104.88484,29.339874,67.9913,7.487072
-158.67093,83.55014,22.683064,94.40204,9.08026,7.292706,-1.8276856,-0.7479384,0.09563255,0.1903302,0.68348575,0.30187422,0.6870773,-0.49977973,1.7024704,-1.0500351,-1.8171169,-1.0306892,1.9809592,1.2035483,-0.96773493,1.7728163,-1.0576319,-1.850724,-1.0806566,1.9603448,1.1494433,-0.91826624,-0.54809785,0.18534173,-1.3666664,1.9104136,0.9474408,1.4516821,-0.060224716,2.6735382,-0.33813405,0.47181663,-2.8570266,-0.44245213,4.9677296,0.5166626,-0.47697115,0.69608223,0.5969849,0.16576801,0.14351122,0.7717087,-0.80608445,-1.1814057,0.22683264,1.0,0.0,0.0,0.0,0.0,0.0,0.0,-3.3235383,-0.061865956,0.07818338,-41.32309,-4.4942856,36.291885,28.937006,-3.880608,-3.4684181,-3.7437537
-105.76537,79.45296,32.972904,59.09261,6.3815813,7.370363,-0.09862996,-0.7672261,-0.12880656,0.3431646,0.6893828,0.35045806,0.6619045,-0.57136804,1.6960937,-1.0705125,-1.8164076,-1.0117184,1.9953907,1.2156337,-0.9754031,1.7641169,-1.0570978,-1.8587005,-1.0618845,1.9688954,1.1630427,-0.91925234,-0.9777273,0.007383452,-0.60082275,1.8677669,0.81813896,1.3260444,-0.11190613,2.644989,-0.34255528,0.5207202,-2.85417,-0.44200978,4.8645763,0.50679016,-0.48944044,0.6994575,0.6086849,0.1597005,0.13677493,0.76504314,-1.0582902,-1.2580239,0.37801456,1.0,0.0,0.0,0.0,0.0,0.0,0.0,-3.294989,-0.05744472,0.029279828,-43.09144,-18.405693,78.729294,-3.817749,-14.772713,-13.534927,-5.3463473
-53.388527,97.32131,42.404587,33.06516,3.3496785,6.6404243,0.58542573,-0.79193985,-0.041929178,0.3392789,0.687479,0.42571846,0.65997165,-0.582497,1.6849229,-1.0612907,-1.8247726,-0.99313664,2.0114672,1.2290398,-0.97750205,1.7517878,-1.0577577,-1.8592079,-1.0448061,1.9762731,1.1752421,-0.9207601,-1.3185222,-0.092012286,0.13793491,1.6548753,0.7064972,1.1831938,-0.16482817,2.6164627,-0.346972,0.568593,-2.8513165,-0.44156787,4.761526,0.4949646,-0.5017853,0.7041804,0.62009096,0.15259518,0.12841478,0.7587566,-1.2359456,-1.2147995,0.5038966,1.0,0.0,0.0,0.0,0.0,0.0,0.0,-3.2664628,-0.053028017,-0.018593013,-34.22859,-10.375453,75.531334,-21.205997,-12.531126,-14.695382,-5.6028547
-13.656279,112.872475,45.078163,17.33563,0.74411654,5.1560683,0.47465062,-0.8038103,0.10041549,0.26411366,0.6815994,0.45046702,0.65410024,-0.60274667,1.6714067,-1.0477161,-1.8327965,-0.9766462,2.0213199,1.2406521,-0.98103476,1.7371107,-1.0583643,-1.8544452,-1.0299937,1.9828553,1.186133,-0.9227676,-1.5179211,-0.051521685,0.5924116,1.4232415,0.6396611,1.0577674,-0.21401565,2.587967,-0.3513844,0.61543614,-2.8484657,-0.44112638,4.658579,0.48197174,-0.5132036,0.7099843,0.63089395,0.14476591,0.11939703,0.7528347,-1.333312,-1.106037,0.603193,1.0,0.0,0.0,0.0,0.0,0.0,0.0,-3.237967,-0.048615605,-0.065436125,-20.08872,3.689427,46.471043,-23.219633,-7.4183583,-12.556005,-5.318627
11.476973,141.02026,50.05787,12.087771,-1.4814614,4.2575955,-0.106427565,-0.81593347,0.328894,0.14804922,0.6700518,0.37087762,0.6560585,-0.5957259,1.6555173,-1.0254749,-1.8396403,-0.9629885,2.019943,1.2517389,-0.98234016,1.7213331,-1.0571817,-1.8476608,-1.0171057,1.9887967,1.1959311,-0.92521185,-1.5985107,0.1735223,0.70951104,1.2440466,0.5779546,0.9544082,-0.2561906,2.5595016,-0.35579228,0.66125053,-2.8456178,-0.44068533,4.5557346,0.46846008,-0.5231714,0.71685004,0.64131653,0.13637419,0.11112416,0.7468377,-1.3685755,-0.94926405,0.71070945,1.0,0.0,0.0,0.0,0.0,0.0,0.0,-3.2095017,-0.044207722,-0.11125052,-8.273745,22.140118,12.395609,-17.938995,-6.492722,-10.12212,-4.712412
21.354418,148.27742,48.012493,10.623314,-2.4649875,3.2231283,-0.54711056,-0.82556176,0.48128247,0.030513257,0.65345776,0.3894392,0.6561443,-0.5857625,1.638777,-1.0090535,-1.8446095,-0.95175993,2.0277407,1.2615455,-0.9837881,1.705319,-1.0530466,-1.8416488,-1.00549,1.9943528,1.2048327,-0.92801565,-1.6033663,0.49235496,0.56670046,1.1341122,0.54796946,0.8695087,-0.28986782,2.531067,-0.36019588,0.7060372,-2.8427727,-0.44024473,4.4529934,0.45489502,-0.5315461,0.7247202,0.65169394,0.1276319,0.10459781,0.74031365,-1.3638662,-0.7885283,0.80895555,1.0,0.0,0.0,0.0,0.0,0.0,0.0,-3.181067,-0.03980413,-0.15603721,-0.743103,31.560814,-13.795495,-10.980415,-3.123176,-8.262491,-3.8107753
24.631887,138.70818,42.86209,9.727616,-2.4138598,2.3496428,-0.64126956,-0.8184918,0.5684494,-0.025178632,0.6444803,0.45837283,0.63850886,-0.5768191,1.6234698,-0.99620163,-1.8441666,-0.94104195,2.0401902,1.2686836,-0.98569757,1.6895777,-1.0457834,-1.8378589,-0.9945132,1.9999547,1.212979,-0.93109983,-1.5652701,0.8035271,0.31772998,1.0852892,0.56388086,0.79667276,-0.31586704,2.5026627,-0.36459494,0.7497973,-2.8399305,-0.43980458,4.350355,0.44148254,-0.53847647,0.73342806,0.6621986,0.11876894,0.10002076,0.733064,-1.3397765,-0.64822286,0.88870674,1.0,0.0,0.0,0.0,0.0,0.0,0.0,-3.1526628,-0.03540507,-0.19979727,3.553772,30.84389,-24.47344,-4.9321413,1.4963508,-7.203293,-2.9779732
23.721912,126.08359,39.09165,9.954618,-1.8074076,2.027727,-0.5016247,-0.81595653,0.6398005,-0.021102997,0.63523984,0.5053546,0.62897396,-0.5610217,1.607982,-0.98180336,-1.8399692,-0.9309892,2.0504901,1.2758764,-0.987202,1.6742922,-1.0358461,-1.836335,-0.9837386,2.0059361,1.2204748,-0.93439287,-1.5171196,1.0562419,0.09871396,1.074409,0.6090679,0.73365396,-0.33490056,2.474289,-0.3689897,0.7925318,-2.8370912,-0.43936488,4.2478194,0.42830658,-0.5441823,0.74284995,0.67281693,0.10986556,0.09703045,0.7251427,-1.3166394,-0.5304943,0.95792866,1.0,0.0,0.0,0.0,0.0,0.0,0.0,-3.124289,-0.0310103,-0.24253178,4.5787334,25.028503,-21.444704,-1.2179852,4.386008,-6.3996196,-2.249211
23.079552,111.47507,35.988857,9.318987,-1.1411705,1.941727,-0.23334455,-0.8040445,0.6791406,0.015195931,0.6277689,0.51763237,0.64261365,-0.55110526,1.5938878,-0.96793205,-1.8348154,-0.92096174,2.0576994,1.2847362,-0.9895034,1.6594721,-1.0240167,-1.8362453,-0.972943,2.0123944,1.2274271,-0.93783945,-1.4708842,1.2243631,-0.019128831,1.0806617,0.6575403,0.68164337,-0.3489842,2.4459457,-0.37338018,0.8342416,-2.8342547,-0.4389256,4.145386,0.41529083,-0.5488477,0.752881,0.68340385,0.10087051,0.0950305,0.71676606,-1.300243,-0.4298064,1.0167034,1.0,0.0,0.0,0.0,0.0,0.0,0.0,-3.0959458,-0.026619822,-0.28424162,4.4062138,16.600513,-11.259295,0.4397154,4.674864,-5.3916097,-1.7534137
18.451588,91.79245,29.801832,8.603733,-0.5683507,1.6110501,-0.064892836,-0.798686,0.7021383,-0.014661523,0.6196262,0.53047585,0.65179545,-0.54440874,1.5796036,-0.9538029,-1.8377115,-0.9109804,2.065442,1.2926067,-0.9922803,1.645022,-1.0110983,-1.8368785,-0.9620721,2.0192952,1.2339331,-0.94139856,-1.4370205,1.3137287,-0.07641455,1.0885373,0.7007238,0.63973105,-0.35934743,2.4176178,-0.37776613,0.87492794,-2.8314211,-0.43848675,4.0430555,0.40238953,-0.5526829,0.76330405,0.6938331,0.09180521,0.093531586,0.7081096,-1.2904946,-0.35208625,1.0497205,1.0,0.0,0.0,0.0,0.0,0.0,0.0,-3.067618,-0.022233874,-0.32492793,3.1927586,8.772111,-5.214543,0.56626797,4.163277,-4.373908,-1.3694584
14.468251,76.40692,24.959522,7.901102,-0.14701527,1.3731987,0.074609265,-0.7962613,0.7113792,-0.011112819,0.60775423,0.5451727,0.6584598,-0.54677916,1.565396,-0.93996036,-1.8379898,-0.9012967,2.0738125,1.299779,-0.99607646,1.6307989,-0.99773765,-1.8376911,-0.951184,2.0265737,1.2400843,-0.94504637,-1.4177722,1.3430474,-0.08136235,1.0880653,0.73660964,0.6065856,-0.3677028,2.3893204,-0.3821478,0.9145917,-2.8285904,-0.43804836,3.9408276,0.389534,-0.5558696,0.7738999,0.7040101,0.08271177,0.09217847,0.6993079,-1.2865843,-0.29101515,1.0618073,1.0,0.0,0.0,0.0,0.0,0.0,0.0,-3.0393205,-0.017852217,-0.36459172,1.7472267,2.8078556,0.010082126,-0.28760433,3.4498692,-3.4480095,-1.158917
9.505323,67.65312,21.827774,8.955748,0.17216563,1.2802091,0.09508413,-0.79784656,0.7203876,-0.0071489844,0.6162632,0.5380356,0.6679762,-0.54137486,1.5510143,-0.9256989,-1.838406,-0.88955766,2.080377,1.3068819,-0.99918383,1.6166674,-0.9843271,-1.8383472,-0.9402806,2.0341,1.2459608,-0.9487619,-1.412326,1.340085,-0.058685984,1.0903358,0.75741893,0.58086616,-0.37381136,2.3610535,-0.38652492,0.953234,-2.8257625,-0.4376104,3.8387017,0.3766632,-0.5585375,0.784538,0.7139094,0.07359155,0.0907875,0.6904167,-1.2901783,-0.2421322,1.0633619,1.0,0.0,0.0,0.0,0.0,0.0,0.0,-3.0110536,-0.01347509,-0.403234,0.38106441,-0.39949417,2.756805,-0.0071525574,1.9591808,-2.682817,-0.91999173
7.8664694,62.41994,19.660448,8.618227,0.2147457,1.132137,0.112288475,-0.7967086,0.7248883,-0.0138954045,0.60217184,0.55095935,0.67569655,-0.54934347,1.5369965,-0.91183823,-1.8397367,-0.8800634,2.089196,1.3135304,-1.0036962,1.6025339,-0.97103953,-1.838763,-0.92942494,2.0417943,1.2516237,-0.9525346,-1.4140725,1.3246267,-0.03415044,1.0831492,0.7729782,0.5613037,-0.37936395,2.332817,-0.39089775,0.99085575,-2.8229375,-0.43717286,3.736678,0.363739,-0.56075287,0.79512024,0.7235236,0.0644684,0.08931312,0.6814547,-1.2938178,-0.19792792,1.0551449,1.0,0.0,0.0,0.0,0.0,0.0,0.0,-2.9828172,-0.009102255,-0.44085574,-0.3341198,-1.6325235,2.9228308,-0.95784664,1.4500976,-2.02533,-0.8522093
9.349774,64.92935,20.659016,8.784519,0.17473155,1.2130156,0.14280404,-0.7889492,0.73062825,0.02040061,0.605179,0.54964375,0.6748707,-0.54338986,1.523639,-0.8979767,-1.836723,-0.86890703,2.0967586,1.3191109,-1.0068736,1.5883967,-0.9578941,-1.8388107,-0.9186303,2.049584,1.2571207,-0.9563512,-1.4141934,1.3109355,0.006719778,1.0774515,0.7808446,0.5454227,-0.38346127,2.3046112,-0.3952663,1.0274581,-2.8201153,-0.43673578,3.634756,0.35079956,-0.56248665,0.8056594,0.7328266,0.0552902,0.08774298,0.672465,-1.2963077,-0.14871362,1.0519632,1.0,0.0,0.0,0.0,0.0,0.0,0.0,-2.9546113,-0.0047337115,-0.47745806,-0.1734972,-1.4631271,4.593903,-0.79467297,0.65892935,-1.665473,-0.7142544
7.7672424,64.42599,19.768654,9.447327,0.13335794,1.1461389,0.09065285,-0.7959568,0.73231745,0.009978051,0.6025993,0.54001796,0.6754756,-0.54228854,1.508801,-0.88466233,-1.8378129,-0.85837036,2.1035857,1.3246683,-1.0105801,1.5742251,-0.94484496,-1.8385627,-0.9078919,2.0573926,1.2624804,-0.96020216,-1.4186126,1.3026227,0.032491446,1.071886,0.7802908,0.5326955,-0.38652903,2.2764359,-0.3996303,1.0630419,-2.8172958,-0.43629912,3.5329363,0.33782196,-0.5637369,0.81615144,0.74184376,0.04604756,0.08614519,0.6634202,-1.2984426,-0.10049377,1.0464448,1.0,0.0,0.0,0.0,0.0,0.0,0.0,-2.926436,-0.0003696978,-0.5130419,-0.6018877,-0.9237528,3.0670724,-0.77393055,-0.1697421,-1.3397336,-0.5978644
7.7356906,65.43961,19.608267,9.6569195,0.07875633,1.1056483,0.07561567,-0.79851407,0.73758084,0.011187536,0.5941557,0.5548006,0.68177193,-0.5379491,1.4943737,-0.8710869,-1.837444,-0.84847635,2.1128726,1.3306576,-1.0139971,1.5600001,-0.9318168,-1.8381469,-0.8972327,2.0652165,1.2677351,-0.964075,-1.4245353,1.302565,0.04611481,1.063219,0.7830043,0.5229467,-0.38849908,2.248291,-0.40399003,1.0976083,-2.8144789,-0.4358629,3.4312184,0.32484436,-0.5644927,0.82659066,0.7505911,0.036745112,0.084584236,0.65429986,-1.2988442,-0.0509719,1.0408835,1.0,0.0,0.0,0.0,0.0,0.0,0.0,-2.898291,0.0039900243,-0.5476083,-0.75609684,-0.09908676,1.8502682,-1.0801315,0.15950203,-1.0392308,-0.48193336
9.06763,66.57783,19.688015,9.417786,-0.030747414,1.0509841,0.07227705,-0.7945888,0.74147785,0.014484518,0.5914188,0.55180186,0.68287975,-0.5335271,1.4805412,-0.85766906,-1.8366985,-0.83809084,2.1203966,1.3360231,-1.0174277,1.5457426,-0.91874576,-1.8376586,-0.8866584,2.0730596,1.2729098,-0.9679603,-1.4268104,1.3083057,0.051487867,1.0548406,0.7839705,0.51530266,-0.3895514,2.2201614,-0.40834546,1.1311584,-2.8116648,-0.43542713,3.329602,0.3118744,-0.5647335,0.8369789,0.7590711,0.027380714,0.08310736,0.64510036,-1.2951105,0.0011641382,1.0357541,1.0,0.0,0.0,0.0,0.0,0.0,0.0,-2.8701615,0.008345455,-0.58115834,-0.39207935,0.47986507,1.0289297,-1.048255,-0.016760826,-0.82155466,-0.38957596
11.414339,69.172424,20.689533,8.799231,-0.09701103,1.0862314,0.1413346,-0.79781675,0.74645406,0.04799406,0.5710227,0.5695897,0.6798534,-0.5340821,1.465961,-0.84410036,-1.8328593,-0.8295561,2.1300185,1.340895,-1.0213685,1.5314604,-0.90558887,-1.8370006,-0.87624234,2.080956,1.2780157,-0.9718551,-1.4293373,1.3178464,0.07239859,1.036521,0.79136777,0.5088332,-0.3904673,2.1920624,-0.41269636,1.163693,-2.8088536,-0.43499178,3.2280874,0.29897308,-0.56440973,0.8473397,0.7672421,0.017931169,0.08169483,0.6358804,-1.2878596,0.058988295,1.0336392,1.0,0.0,0.0,0.0,0.0,0.0,0.0,-2.8420625,0.012696356,-0.61369294,-0.42750835,0.855422,2.629347,-2.038741,0.60032606,-0.70302486,-0.38621426
13.0069275,68.15111,20.003424,7.773961,-0.2630967,0.93569463,0.15109272,-0.7942671,0.75189567,0.033213343,0.5573268,0.56036794,0.684612,-0.52073133,1.4520336,-0.8303993,-1.8336793,-0.8205097,2.1369927,1.3464769,-1.0239283,1.5171763,-0.89232135,-1.8362224,-0.8660514,2.0888982,1.2830702,-0.975748,-1.4284948,1.3293605,0.08140949,1.0125694,0.79464537,0.50428253,-0.38985875,2.1639938,-0.41704297,1.1952131,-2.8060453,-0.43455687,3.1266742,0.2861786,-0.5635028,0.8576486,0.77508324,0.008414469,0.08038253,0.6266687,-1.2737515,0.11738114,1.0271056,1.0,0.0,0.0,0.0,0.0,0.0,0.0,-2.813994,0.017042965,-0.64521307,-0.08890629,1.0601759,1.4268563,-2.606225,0.19860268,-0.4787326,-0.23026466
14.629303,66.85525,19.350628,6.4706125,-0.39238364,0.7874987,0.19328743,-0.7959245,0.75778717,0.0345656,0.5262997,0.5744645,0.6896858,-0.5129683,1.4375838,-0.8165426,-1.8327658,-0.8134214,2.1463447,1.3520387,-1.0270448,1.5028998,-0.87893367,-1.8353927,-0.8562047,2.0969014,1.2880923,-0.97962755,-1.4278485,1.341662,0.085234486,0.9746861,0.8021513,0.5015974,-0.3883028,2.1359558,-0.4213853,1.2257199,-2.8032398,-0.4341224,3.0253625,0.27357483,-0.56201077,0.8678561,0.7825694,-0.0011224722,0.079203054,0.6175035,-1.2531323,0.17573062,1.0155855,1.0,0.0,0.0,0.0,0.0,0.0,0.0,-2.785956,0.021385282,-0.6757199,-0.111317635,1.149869,0.8990541,-4.0074944,0.6296396,-0.2522707,-0.12955666
15.04505,66.07174,19.118488,6.498371,-0.3403679,0.7311037,0.22056405,-0.7942874,0.7565588,0.058799382,0.51803195,0.58107805,0.6914384,-0.5026774,1.423471,-0.8032778,-1.8295128,-0.8044015,2.1550093,1.3572361,-1.0298953,1.4886404,-0.8654573,-1.8344429,-0.8467156,2.1049924,1.2930933,-0.9834842,-1.4260347,1.3494017,0.09991192,0.93960196,0.8110694,0.49989122,-0.38572636,2.1079483,-0.4257233,1.2552145,-2.8004372,-0.43368837,2.924152,0.26120758,-0.55994654,0.8779514,0.7896823,-0.01068178,0.0781158,0.6084288,-1.2315847,0.23220639,1.0042003,1.0,0.0,0.0,0.0,0.0,0.0,0.0,-2.7579484,0.025723308,-0.70521444,0.013208389,0.7015228,1.9753172,-3.7187457,0.77546835,-0.14601946,-0.022929907
17.050133,66.55096,19.303608,5.689785,-0.4247458,0.6635838,0.26791343,-0.7898124,0.76372266,0.074990295,0.48953062,0.5869726,0.6909272,-0.4986668,1.4096591,-0.78908503,-1.8269439,-0.7977626,2.1636896,1.3621861,-1.033351,1.4744173,-0.8519008,-1.8332851,-0.83762044,2.1131787,1.298083,-0.98731416,-1.4216577,1.3574558,0.122986525,0.8988294,0.8206042,0.49877912,-0.3829706,2.0799713,-0.43005705,1.2836976,-2.7976375,-0.43325478,2.8230424,0.24905396,-0.55730295,0.88793314,0.79639703,-0.020271268,0.0770952,0.59949744,-1.2050271,0.29026997,0.9926313,1.0,0.0,0.0,0.0,0.0,0.0,0.0,-2.7299714,0.030057043,-0.7336976,0.2728939,0.7372856,2.8229938,-4.2801857,0.8339286,-0.06735325,-0.0055134296
16.805103,63.34059,17.868792,4.9107857,-0.4913749,0.46717465,0.27414602,-0.7945096,0.76622796,0.06440535,0.4523773,0.59519845,0.6909861,-0.48333582,1.3949664,-0.77527803,-1.8268446,-0.7923827,2.1726985,1.3671815,-1.0356477,1.4602095,-0.8382747,-1.8319786,-0.8290135,2.121468,1.303065,-0.991106,-1.4207841,1.3641286,0.13483162,0.8473089,0.83122367,0.4983873,-0.37885085,2.0520096,-0.43438625,1.3111703,-2.7948406,-0.4328216,2.722034,0.2372055,-0.5541115,0.8977501,0.8027095,-0.029836914,0.076165095,0.5907335,-1.1742778,0.3434945,0.9742627,1.0,0.0,0.0,0.0,0.0,0.0,0.0,-2.7020097,0.034386247,-0.7611703,-0.07417202,0.6148577,1.6591787,-5.359566,0.9676695,0.046914816,0.14951825
20.93114,65.587234,18.970242,2.964748,-0.6571697,0.43685168,0.4066375,-0.7926351,0.77343684,0.1197804,0.39351034,0.61496955,0.6885896,-0.47327694,1.3809459,-0.760931,-1.8200005,-0.7896625,2.182965,1.3719239,-1.0384337,1.4460112,-0.82456946,-1.8303459,-0.8210942,2.1299024,1.308045,-0.99485296,-1.4200292,1.3725525,0.17433555,0.7728966,0.8469284,0.49829745,-0.37417147,2.0240784,-0.43871117,1.3376338,-2.7920463,-0.43238887,2.6211267,0.22573853,-0.5503397,0.9073899,0.8085509,-0.039364897,0.0752885,0.58226067,-1.1348485,0.40251696,0.95652306,1.0,0.0,0.0,0.0,0.0,0.0,0.0,-2.6740785,0.03871116,-0.78763384,-0.088238716,0.7949352,4.457569,-7.637501,1.4609098,0.115180016,0.20188689
31.241762,68.546234,20.877787,-2.9103432,-1.1869891,0.30258498,0.70252913,-0.7844501,0.77837676,0.20375794,0.272737,0.6342008,0.686368,-0.46129432,1.3675662,-0.74673176,-1.80997,-0.7938205,2.1933224,1.3766818,-1.0409824,1.4318568,-0.81077456,-1.8279617,-0.81435555,2.1385274,1.3130289,-0.99854845,-1.4146348,1.3817412,0.26161736,0.64026946,0.867126,0.49920112,-0.36894095,1.9961777,-0.4430318,1.363089,-2.7892547,-0.43195656,2.5203204,0.21481323,-0.54588175,0.9168153,0.81373847,-0.04882044,0.0743973,0.5743791,-1.0714937,0.473538,0.93367946,1.0,0.0,0.0,0.0,0.0,0.0,0.0,-2.6461778,0.043031782,-0.81308895,0.38135052,0.8827448,9.28542,-13.441467,1.8790603,0.32538176,0.25081635
42.831398,67.6536,21.292057,-11.044059,-1.9499531,-0.09441692,1.0188999,-0.774557,0.78279495,0.2629408,0.110151574,0.6492585,0.67819464,-0.43047175,1.3544011,-0.73249507,-1.8016676,-0.8033404,2.2034533,1.3808484,-1.0415956,1.4177996,-0.7968862,-1.824517,-0.8095233,2.1473699,1.3180262,-1.0021716,-1.403044,1.391197,0.37401792,0.43038815,0.8894714,0.5011166,-0.36105004,1.9683075,-0.44734812,1.3875368,-2.786466,-0.4315247,2.4196148,0.20478821,-0.5406594,0.92589813,0.81806386,-0.058058932,0.07349605,0.56744957,-0.9746034,0.55063415,0.89533967,1.0,0.0,0.0,0.0,0.0,0.0,0.0,-2.6183076,0.047348112,-0.83753675,1.0354757,0.936985,11.752683,-21.138073,2.1132708,0.60653687,0.5458653
56.30887,66.00191,21.474337,-21.431902,-2.9390643,-0.6244191,1.4080616,-0.7726282,0.7918311,0.34953606,-0.13095497,0.66828316,0.6642152,-0.39942837,1.3405368,-0.7177031,-1.7895634,-0.8226188,2.214198,1.3844477,-1.0421145,1.4038588,-0.7828834,-1.8197429,-0.8076064,2.1564565,1.3230425,-1.0056964,-1.3911318,1.403465,0.51316774,0.11184955,0.9145528,0.5037316,-0.3502291,1.9404678,-0.45166016,1.4109783,-2.78368,-0.43109325,2.31901,0.19603729,-0.5346122,0.93443966,0.82129186,-0.06683026,0.07265039,0.5619033,-0.83525246,0.63319176,0.83550626,1.0,0.0,0.0,0.0,0.0,0.0,0.0,-2.590468,0.05166015,-0.8609783,1.132369,1.2483358,14.321738,-31.933743,2.4350286,0.89077353,0.9059191
55.89357,65.43719,21.196295,-20.941216,-2.8885233,-0.78929436,1.4215966,-0.76025504,0.7974156,0.41787785,-0.21707273,0.6670279,0.6474924,-0.2886715,1.3278333,-0.70314187,-1.7779552,-0.8293137,2.2231593,1.3877918,-1.0345635,1.3900763,-0.7687547,-1.8135498,-0.80877274,2.165749,1.3280703,-1.0090343,-1.3738555,1.4162909,0.6551468,-0.19269183,0.93457043,0.5046531,-0.32855362,1.9126587,-0.4559679,1.4334146,-2.780897,-0.43066224,2.2185056,0.18868256,-0.5277796,0.94240564,0.8233838,-0.075066,0.071892135,0.55788505,-0.6947235,0.7083476,0.7783288,1.0,0.0,0.0,0.0,0.0,0.0,0.0,-2.5626588,0.055967897,-0.88341457,1.7717123,1.3378859,14.329445,-30.425995,2.0830631,0.7362962,2.0876467
37.583523,64.07078,19.642487,-7.3053203,-1.5476964,-0.468236,0.96388155,-0.7537709,0.7967962,0.45028198,-0.1425461,0.65902084,0.64162165,-0.14319889,1.3146992,-0.6890751,-1.7685215,-0.8230274,2.231651,1.3922324,-1.0233542,1.3764673,-0.7545278,-1.8061473,-0.8118693,2.1751752,1.3330923,-1.0120555,-1.35633,1.4251133,0.76819915,-0.34849638,0.94642437,0.50292194,-0.29344192,1.8848648,-0.46027136,1.4548466,-2.7781167,-0.43023166,2.1181018,0.1823349,-0.5203347,0.9500082,0.8246079,-0.083003394,0.07116229,0.5550389,-0.6062096,0.763096,0.74848104,1.0,0.0,0.0,0.0,0.0,0.0,0.0,-2.534865,0.060271353,-0.9048466,1.8229246,0.97637177,11.173415,-15.5420065,1.4559627,0.289464,3.4753263
8.849637,62.988075,17.641644,14.474072,0.5627475,0.2410857,0.24894723,-0.7543044,0.796998,0.45512354,0.049439073,0.64666474,0.6489037,0.098450445,1.301037,-0.674828,-1.760635,-0.8069254,2.2398417,1.3979827,-1.0022105,1.3629862,-0.7402427,-1.7979705,-0.81482,2.184647,1.3380877,-1.0145675,-1.3455266,1.4300835,0.8331911,-0.2775175,0.9492527,0.4990422,-0.23719342,1.8571014,-0.46457052,1.4752754,-2.7753394,-0.42980152,2.0177984,0.17623138,-0.51250935,0.9576391,0.8254233,-0.09111343,0.07034222,0.5526541,-0.60294175,0.79455686,0.7617951,1.0,0.0,0.0,0.0,0.0,0.0,0.0,-2.5071015,0.06457052,-0.9252754,1.0655642,0.6337404,6.2267184,7.023394,0.7229924,-0.19775629,5.5597095
-27.385998,57.17875,13.74774,40.520435,3.0875025,1.124761,-0.6724069,-0.7826472,0.78320915,0.42816326,0.35198948,0.60049874,0.6732942,0.26387462,1.2847215,-0.6619218,-1.7551543,-0.77962106,2.2446969,1.4054171,-0.98818004,1.3494269,-0.72599673,-1.7895916,-0.81514424,2.193993,1.3430449,-1.0164272,-1.360002,1.4233086,0.83849293,0.048451655,0.93117034,0.49412763,-0.16938947,1.8293686,-0.4688654,1.4947019,-2.7725644,-0.4293718,1.917595,0.16938782,-0.5045767,0.9657362,0.82642055,-0.09997175,0.06930955,0.5497552,-0.704959,0.79857576,0.8191925,1.0,0.0,0.0,0.0,0.0,0.0,0.0,-2.4793687,0.06886539,-0.94470185,-1.6111612,-0.50985813,0.20672083,32.35647,-1.2383461,-0.65562725,6.662962
-39.471355,52.398552,11.43458,48.63579,3.7894454,1.373876,-1.0270846,-0.79290706,0.7796054,0.40609777,0.48695925,0.56969243,0.6770015,0.31077144,1.2701361,-0.6480362,-1.7489817,-0.7664483,2.2509623,1.410745,-0.98535,1.3356405,-0.71185184,-1.7814643,-0.81161374,2.203053,1.3479487,-1.0176269,-1.3854195,1.4120442,0.80281377,0.453832,0.8994811,0.48802736,-0.10380656,1.8016663,-0.47315598,1.513127,-2.7697923,-0.42894253,1.8174919,0.16123962,-0.49665594,0.97446936,0.82791936,-0.10983926,0.068078935,0.5457565,-0.84035605,0.7966243,0.88456684,1.0,0.0,0.0,0.0,0.0,0.0,0.0,-2.4516664,0.07315597,-0.96312696,-2.7103424,-0.9791136,-3.900516,40.315323,-2.6001573,-0.9642184,6.4547076
-30.796951,47.261,10.152015,40.32659,2.964867,0.98884845,-0.8457007,-0.7952257,0.7705872,0.39528078,0.50176656,0.5662482,0.6743524,0.2513735,1.2561179,-0.6347931,-1.7419362,-0.76143706,2.259678,1.4153839,-0.9924895,1.3216139,-0.6978538,-1.7737949,-0.8046462,2.2118077,1.3527952,-1.0182811,-1.4089543,1.3959925,0.75422317,0.77732176,0.86867684,0.48253313,-0.052942317,1.7739944,-0.47744226,1.5305518,-2.767023,-0.42851368,1.7174888,0.15198517,-0.48872566,0.9836629,0.82986844,-0.12055014,0.06675434,0.54067546,-0.9452826,0.8003827,0.9238673,1.0,0.0,0.0,0.0,0.0,0.0,0.0,-2.4239945,0.07744226,-0.9805518,-2.4617672,-1.5099287,-5.1000476,32.206177,-2.6396751,-0.86643696,5.0059547
-12.779872,44.785286,9.984443,24.760141,1.4510064,0.32454652,-0.39657694,-0.7989257,0.7711701,0.37684396,0.46282622,0.5935408,0.667289,0.19594555,1.2417214,-0.6207368,-1.7361104,-0.75836354,2.2711618,1.4195242,-0.99868655,1.3073927,-0.68399024,-1.7666214,-0.7956359,2.220387,1.357598,-1.0185367,-1.4266651,1.383276,0.7051046,0.94188106,0.8548845,0.4790523,-0.01692299,1.7463455,-0.48172426,1.5469773,-2.7642567,-0.42808524,1.6175857,0.14213562,-0.48069978,0.99297196,0.83200806,-0.13168979,0.06547973,0.53491384,-0.9894577,0.8135794,0.9257771,1.0,0.0,0.0,0.0,0.0,0.0,0.0,-2.3963456,0.08172426,-0.99697727,-1.8594503,-1.2331724,-4.935634,16.347134,-1.1317015,-0.46523213,3.5052915
3.828518,44.865585,10.580658,10.977549,0.09971976,-0.24579465,0.04168486,-0.8017194,0.77084184,0.370831,0.4307151,0.6053164,0.6720371,0.18660085,1.2272208,-0.60690606,-1.7295382,-0.7525644,2.2809186,1.4248017,-0.9998766,1.2930456,-0.6702192,-1.759835,-0.78603333,2.2289166,1.3623854,-1.0184985,-1.4377748,1.3750863,0.67051697,0.966079,0.85250807,0.47895452,0.010221802,1.7187195,-0.48600197,1.5624045,-2.7614932,-0.42765725,1.5177823,0.13227081,-0.47249103,1.0020877,0.83405393,-0.14286341,0.064379394,0.5289606,-0.97792196,0.83442366,0.8992897,1.0,0.0,0.0,0.0,0.0,0.0,0.0,-2.3687196,0.08600196,-1.0124044,-1.205349,-0.8212328,-3.25675,2.3123384,-0.17522573,0.08496642,2.5832267
14.7998295,44.20133,10.597576,1.5392122,-0.8139879,-0.72248346,0.32712537,-0.8039983,0.7679651,0.3531413,0.39377692,0.6119283,0.6690021,0.17883918,1.2126458,-0.59342265,-1.7245209,-0.74665564,2.2901094,1.4292856,-1.0006146,1.278628,-0.6565082,-1.7533405,-0.7768981,2.237473,1.3671824,-1.0182372,-1.443471,1.369648,0.64346874,0.89569247,0.8565902,0.48079696,0.030857796,1.691124,-0.49027538,1.5768346,-2.758732,-0.42722967,1.4180789,0.122787476,-0.46407127,1.0107998,0.83581865,-0.1537767,0.063549,0.5231838,-0.92732054,0.8554788,0.85434437,1.0,0.0,0.0,0.0,0.0,0.0,0.0,-2.341124,0.09027538,-1.0268345,-0.66099167,-0.56169033,-2.3796082,-7.1460605,0.36008358,0.44196248,1.9182872
20.90432,46.081116,11.390206,-2.8430386,-1.2427733,-0.9438868,0.50670636,-0.8016824,0.7676469,0.36137727,0.36051545,0.61465514,0.66576785,0.22946067,1.1984597,-0.5797435,-1.7172028,-0.7408465,2.2989385,1.4337592,-0.9952912,1.264197,-0.64282966,-1.7469738,-0.7687766,2.2460866,1.3720003,-1.0177642,-1.4430504,1.367209,0.6355456,0.7841035,0.8625684,0.48316106,0.052399535,1.663559,-0.4945445,1.5902683,-2.7559738,-0.42680255,1.3184751,0.113983154,-0.45542765,1.0190324,0.83718944,-0.16430064,0.06301534,0.51783025,-0.857186,0.8777351,0.8056332,1.0,0.0,0.0,0.0,0.0,0.0,0.0,-2.313559,0.0945445,-1.0402682,-0.023150444,-0.26550293,-0.42506456,-11.235249,0.4910946,0.5564332,2.00907
20.764324,48.209885,12.244925,-1.2536273,-1.105571,-0.8956871,0.5128367,-0.78792393,0.76109326,0.37786868,0.38079768,0.5879087,0.6613768,0.32027212,1.1854045,-0.5667203,-1.7091869,-0.7306968,2.3048775,1.438138,-0.985737,1.2498556,-0.6291902,-1.7405345,-0.7615506,2.2546773,1.3768355,-1.0170318,-1.4310896,1.3628553,0.64759856,0.70197064,0.85723925,0.48451492,0.07989896,1.6360245,-0.49880934,1.6027067,-2.7532184,-0.42637584,1.2189709,0.10583496,-0.4465413,1.0268476,0.8381333,-0.17451063,0.06274103,0.51297385,-0.79159236,0.90154797,0.76641506,1.0,0.0,0.0,0.0,0.0,0.0,0.0,-2.2860246,0.09880933,-1.0527067,1.1777878,-0.44894218,1.5178084,-8.247793,-0.6257415,0.41051507,2.6116757
15.50249,42.34619,10.049515,1.6345196,-0.7781247,-0.99373984,0.3536537,-0.7892811,0.7486336,0.32976383,0.37936255,0.5748122,0.66385895,0.36430594,1.1709275,-0.55432683,-1.7075582,-0.72361434,2.3121586,1.4432213,-0.9806012,1.2356325,-0.6156423,-1.7341735,-0.7548873,2.263165,1.381682,-1.0160114,-1.4194328,1.3520929,0.6328604,0.6542407,0.8458603,0.4855556,0.10905703,1.6085129,-0.5030699,1.6141508,-2.7504659,-0.42594954,1.1195662,0.098228455,-0.43749404,1.034283,0.83874345,-0.18445088,0.062736124,0.5084794,-0.7391618,0.91394836,0.728986,1.0,0.0,0.0,0.0,0.0,0.0,0.0,-2.258513,0.10306987,-1.0641508,1.1548519,-1.0653973,-1.2810588,-4.8261046,-1.1515737,0.3516674,2.8061748
13.209494,38.01936,8.575284,2.3753633,-0.6518984,-1.1237099,0.29385722,-0.786341,0.73721886,0.31797427,0.34311554,0.5609565,0.65528405,0.40411246,1.1569984,-0.5419204,-1.7023761,-0.72057575,2.3192606,1.4472104,-0.9756001,1.2215163,-0.6022451,-1.7280376,-0.7486369,2.271504,1.3865324,-1.0146953,-1.4090275,1.3357023,0.6076384,0.61508214,0.82992816,0.48550773,0.13867609,1.5810242,-0.5073261,1.6246016,-2.747716,-0.42552367,1.0202608,0.09112549,-0.4283769,1.0413374,0.83909774,-0.194106,0.06301674,0.5042486,-0.691172,0.91837204,0.69086695,1.0,0.0,0.0,0.0,0.0,0.0,0.0,-2.2310243,0.10732612,-1.0746017,1.0344982,-1.6143322,-2.387607,-3.980863,-1.5723109,0.24305582,2.8683438
10.874852,35.979256,7.9657145,4.164319,-0.48392802,-1.128235,0.23286036,-0.7763361,0.72371554,0.31719545,0.34730545,0.517116,0.6532551,0.46604943,1.1438826,-0.52987355,-1.696318,-0.71390635,2.3232155,1.4518579,-0.96809036,1.2075201,-0.58905005,-1.7221382,-0.7426116,2.2795758,1.3913771,-1.0130683,-1.3964227,1.3141594,0.58423877,0.5982124,0.79960835,0.4848377,0.17046984,1.553566,-0.5115781,1.6340601,-2.7449687,-0.42509824,0.9210547,0.08444214,-0.41922927,1.0480393,0.83924323,-0.2035119,0.06359352,0.50020945,-0.65051144,0.92016196,0.65672684,1.0,0.0,0.0,0.0,0.0,0.0,0.0,-2.203566,0.11157808,-1.0840602,1.2628317,-2.1211386,-2.248633,-1.7545223,-2.9850245,0.15417933,3.0913055
10.774977,31.012089,6.259353,2.5375638,-0.6017529,-1.3798918,0.2184209,-0.77185917,0.70852095,0.27637187,0.29708862,0.49595863,0.64564395,0.48034132,1.1303343,-0.51819795,-1.6945009,-0.7129027,2.3291717,1.4559414,-0.9650342,1.1936442,-0.576102,-1.7166069,-0.73688096,2.287312,1.3962103,-1.0111438,-1.3846707,1.2884684,0.5428926,0.5643246,0.7650602,0.48373654,0.19968116,1.5261383,-0.51582575,1.6425273,-2.7422242,-0.42467323,0.8219478,0.07820892,-0.41013193,1.054352,0.8392276,-0.21259354,0.06451932,0.49632475,-0.6045238,0.9123068,0.61649257,1.0,0.0,0.0,0.0,0.0,0.0,0.0,-2.1761384,0.11582574,-1.0925274,1.1862516,-2.5284052,-4.074621,-3.4649491,-3.4016848,0.14878511,2.8492272
10.908804,27.132294,4.8287234,0.59092665,-0.7661007,-1.6243324,0.22800773,-0.77935153,0.69675726,0.24223378,0.23667286,0.47782028,0.63988364,0.5011886,1.1157091,-0.5064263,-1.6923835,-0.7132137,2.335094,1.4601986,-0.96102494,1.1798197,-0.5634134,-1.7115886,-0.73171395,2.294705,1.4010321,-1.0089427,-1.3818693,1.2625455,0.48842123,0.50049335,0.7307252,0.48252144,0.22674812,1.4987411,-0.5200696,1.6500041,-2.7394826,-0.42424864,0.72294,0.07248688,-0.40117335,1.0602144,0.83909297,-0.22121498,0.06586624,0.49259368,-0.5515392,0.8958057,0.5702993,1.0,0.0,0.0,0.0,0.0,0.0,0.0,-2.1487412,0.12006959,-1.1000042,0.28486252,-2.5470257,-5.3943577,-6.4655304,-3.382051,0.17461777,2.6504934
14.502254,25.377308,4.2724977,-3.55335,-1.1417637,-1.9244152,0.33487073,-0.76898044,0.6816955,0.2237414,0.150784,0.44534436,0.63590837,0.5182442,1.1029216,-0.49524382,-1.6892145,-0.7166355,2.3392394,1.464623,-0.9571183,1.166041,-0.5509889,-1.7071044,-0.72751015,2.3017278,1.4058405,-1.0064899,-1.3764036,1.2358816,0.43520215,0.39356792,0.69242907,0.48159206,0.25145793,1.4713669,-0.5243087,1.6564918,-2.7367437,-0.4238245,0.6240312,0.06742096,-0.39242578,1.0655617,0.8388331,-0.22922504,0.06769447,0.48911378,-0.4817475,0.8724559,0.51734096,1.0,0.0,0.0,0.0,0.0,0.0,0.0,-2.121367,0.124308676,-1.1064918,0.5899191,-2.618122,-5.277419,-10.748011,-3.8162708,0.25407672,2.42866
16.761284,23.979536,4.239292,-5.85594,-1.2224553,-2.0871866,0.44394815,-0.75977457,0.65516937,0.23939818,0.081414096,0.41722777,0.6360633,0.5452192,1.0900636,-0.48547196,-1.6831646,-0.71936876,2.3434505,1.4694469,-0.95196795,1.1523501,-0.5388868,-1.7029464,-0.72454995,2.30835,1.4106432,-1.0037967,-1.3665291,1.2017797,0.40946504,0.26331615,0.65228367,0.48096898,0.27501276,1.4440155,-0.52854395,1.6619909,-2.7340074,-0.42340076,0.5252213,0.06311798,-0.38394284,1.0703613,0.83840185,-0.2365542,0.06996527,0.48603418,-0.4052352,0.8439212,0.46244887,1.0,0.0,0.0,0.0,0.0,0.0,0.0,-2.0940156,0.12854394,-1.1119909,1.07615,-3.3554554,-2.556157,-13.050818,-4.023719,0.29587746,2.3200452
13.877621,21.644999,3.835194,-2.9908276,-0.8467076,-2.037698,0.3572166,-0.74195033,0.6275057,0.22105983,0.08685641,0.3763594,0.6399595,0.5580626,1.078155,-0.4761362,-1.6808405,-0.7158643,2.3459861,1.4746392,-0.9479904,1.1388289,-0.52718616,-1.6989944,-0.72261494,2.31453,1.4154402,-1.0008861,-1.346946,1.1597338,0.39026424,0.17010404,0.6065488,0.48041058,0.29625225,1.4166946,-0.53277445,1.6665027,-2.731274,-0.42297745,0.4265102,0.0594635,-0.37576032,1.0746623,0.83781755,-0.24327958,0.07258548,0.4833303,-0.3428127,0.8126157,0.41478068,1.0,0.0,0.0,0.0,0.0,0.0,0.0,-2.0666947,0.13277444,-1.1165028,2.0635843,-4.1397095,-1.972127,-9.354973,-4.54365,0.24900436,2.0870566
9.821112,19.55563,3.1148427,0.4653883,-0.48305434,-1.9922327,0.22133127,-0.73739326,0.6113182,0.17617163,0.069855414,0.36369637,0.6290768,0.571568,1.0650896,-0.46605435,-1.6813773,-0.7156294,2.3508995,1.4783479,-0.9437293,1.1255003,-0.5158975,-1.6953609,-0.7213666,2.3203015,1.4202219,-0.997779,-1.3278326,1.1189039,0.35411814,0.10952432,0.56736165,0.47834787,0.31541798,1.3894043,-0.53700113,1.6700282,-2.7285433,-0.42255455,0.32789785,0.05632782,-0.36790133,1.0785356,0.8371543,-0.24948514,0.075502284,0.48086295,-0.29552326,0.7790632,0.37398934,1.0,0.0,0.0,0.0,0.0,0.0,0.0,-2.0394044,0.13700113,-1.1200283,1.9915104,-4.012871,-3.6972642,-6.1189995,-3.8496137,0.047171116,1.8785119
4.35254,17.37049,2.4472547,5.4869337,0.009442687,-1.8356059,0.045155272,-0.73490524,0.5877285,0.14686032,0.08648268,0.33298647,0.6308949,0.58228886,1.0520098,-0.45712465,-1.6806749,-0.7127183,2.3536003,1.4833114,-0.9395501,1.1123263,-0.50502086,-1.6921737,-0.72037953,2.325684,1.4249827,-0.9944955,-1.3136164,1.0774065,0.30680072,0.09478796,0.5287456,0.4759758,0.33248058,1.3621445,-0.5412235,1.6725683,-2.7258153,-0.42213207,0.22938408,0.053512573,-0.36036682,1.0820669,0.83650357,-0.25528982,0.07867644,0.47843376,-0.26954046,0.74640214,0.3423219,1.0,0.0,0.0,0.0,0.0,0.0,0.0,-2.0121446,0.14122352,-1.1225684,1.4504433,-4.0771723,-4.8208833,-1.5780642,-3.7467241,-0.042438507,1.658237
0.69008636,13.7370615,1.3914404,8.174326,0.29759467,-1.7977216,-0.069168925,-0.7332522,0.5574811,0.11654934,0.08262696,0.28946835,0.62884676,0.5856671,1.039001,-0.44927275,-1.6805187,-0.71211684,2.354631,1.4878674,-0.9359288,1.0992514,-0.49459383,-1.6895168,-0.7193782,2.3306355,1.4297186,-0.9910594,-1.3054183,1.0314075,0.25175098,0.10140222,0.4843201,0.4733481,0.34705588,1.3349075,-0.5454416,1.674124,-2.72309,-0.42171,0.1309688,0.050865173,-0.35317445,1.085304,0.83594203,-0.2607618,0.08209359,0.47588325,-0.25607398,0.7113113,0.3140005,1.0,0.0,0.0,0.0,0.0,0.0,0.0,-1.9849075,0.14544162,-1.124124,0.8176565,-4.5288563,-5.5883408,0.52970946,-4.3115854,-0.095546246,1.4030039
3.564718,7.5791707,0.035472274,3.448976,0.15298992,-2.1220145,0.07961693,-0.7186848,0.5085405,0.118553855,-0.01269465,0.28070694,0.63200915,0.58573145,1.0273829,-0.44373977,-1.6776614,-0.72064763,2.3587062,1.4929196,-0.9324863,1.086291,-0.4847481,-1.6872852,-0.7186877,2.335198,1.4344355,-0.98749554,-1.2928654,0.96923614,0.21337986,0.057930224,0.44679597,0.47173002,0.35926598,1.3076935,-0.5496559,1.6746963,-2.7203674,-0.4212884,0.03265191,0.048439026,-0.34644246,1.0881727,0.83544505,-0.26578,0.08568203,0.47334024,-0.23124109,0.66145235,0.2746593,1.0,0.0,0.0,0.0,0.0,0.0,0.0,-1.9576935,0.14965591,-1.1246963,1.3187647,-6.1463714,-3.9406805,-4.4444637,-3.6714196,0.04440546,1.1758864
2.8762472,0.6405523,-1.5445199,2.2922313,0.32586664,-2.283137,0.11499852,-0.713503,0.45514327,0.112246856,-0.03693145,0.25117838,0.6357068,0.5944877,1.0149406,-0.43923378,-1.6760606,-0.7223809,2.3603158,1.4980061,-0.92804676,1.0734545,-0.47565624,-1.6853263,-0.71854943,2.3393865,1.4391409,-0.9838201,-1.280268,0.8894047,0.18948697,-0.0011327221,0.40932086,0.47083253,0.37020501,1.28051,-0.55386543,1.6742861,-2.7176478,-0.4208672,-0.06556668,0.04624176,-0.3402977,1.0906093,0.83499575,-0.2702552,0.089343935,0.470916,-0.20985936,0.5994456,0.2305617,1.0,0.0,0.0,0.0,0.0,0.0,0.0,-1.9305099,0.15386543,-1.1242862,1.3506413,-7.9146743,-2.506864,-5.998073,-3.687948,0.11522174,1.0488808
0.5394902,-14.504639,-5.617514,0.71068,0.5288911,-2.6355324,0.050173793,-0.67853004,0.3704884,0.047083914,-0.053853385,0.16806616,0.63514775,0.59862864,1.0056015,-0.4386074,-1.6806179,-0.72393477,2.356193,1.5026557,-0.9239572,1.0608832,-0.46760723,-1.6838043,-0.71899956,2.3430295,1.4438406,-0.98004544,-1.2491157,0.77698666,0.13914856,-0.059941184,0.34924865,0.47017106,0.37966433,1.2533569,-0.55807114,1.6728945,-2.7149305,-0.42044643,-0.16368708,0.044204712,-0.33496213,1.0925286,0.83466166,-0.27407268,0.09304919,0.4685786,-0.19428357,0.51187253,0.1767207,1.0,0.0,0.0,0.0,0.0,0.0,0.0,-1.9033569,0.15807113,-1.1228945,3.275895,-11.175621,-5.211869,-5.9781218,-5.9724865,0.1393795,0.8918464
-4.4301143,-41.50788,-13.449829,-2.5140042,0.6495534,-3.2813616,-0.110608,-0.65044713,0.24640845,-0.07043926,-0.10869979,0.002271777,0.6289826,0.5940771,0.99583846,-0.44296637,-1.6908482,-0.72986954,2.3432567,1.5067389,-0.9206377,1.0487257,-0.46106645,-1.6832683,-0.7201497,2.3456502,1.448527,-0.97619355,-1.2038087,0.6132614,0.024497533,-0.13370097,0.23262826,0.46898326,0.38681185,1.2262344,-0.5622721,1.6705223,-2.7122161,-0.42002606,-0.2617094,0.042312622,-0.33084273,1.0937475,0.8346395,-0.2769484,0.09692428,0.4661353,-0.1842832,0.3786256,0.10186249,1.0,0.0,0.0,0.0,0.0,0.0,0.0,-1.8762344,0.16227207,-1.1205223,4.7851562,-16.320646,-11.683671,-7.473543,-11.697519,0.07728934,0.6318033
-15.640245,-112.79292,-32.00168,-11.576102,1.7867988,-4.6816554,-0.2191151,-0.61539656,-0.086003125,-0.11095299,-0.24295236,-0.25027978,0.63433915,0.5663487,0.9871861,-0.46966678,-1.6943636,-0.7444449,2.3206222,1.5119609,-0.9195587,1.0371271,-0.45745012,-1.683953,-0.72251004,2.3464513,1.4532019,-0.9723054,-1.143553,0.2777176,-0.100442246,-0.2702153,0.028289294,0.46742725,0.38894358,1.1991272,-0.5664692,1.6671708,-2.7095046,-0.41960612,-0.35963368,0.040267944,-0.32894182,1.0937837,0.8351945,-0.27828434,0.10081048,0.46351385,-0.20610115,0.1271933,-0.030104091,1.0,0.0,0.0,0.0,0.0,0.0,0.0,-1.8491272,0.16646919,-1.1171708,6.5116644,-33.558483,-12.738631,-13.69347,-20.668266,-0.06148219,0.04376173
-16.741615,-134.75684,-34.945114,-14.323189,2.8602629,-4.7411923,0.101055175,-0.57540256,-0.33872908,0.15556544,-0.33209532,-0.43808505,0.6362946,0.5045515,0.9795869,-0.49132302,-1.6683965,-0.75571954,2.3026428,1.5168314,-0.92185026,1.0262114,-0.45798275,-1.6843708,-0.726463,2.344853,1.4578482,-0.9684535,-1.0728214,-0.16397178,-0.022397138,-0.43681362,-0.22375073,0.46272138,0.38327232,1.1720505,-0.570662,1.6628407,-2.7067955,-0.4191866,-0.45746008,0.037826538,-0.3297565,1.0923876,0.8361898,-0.27797788,0.10409968,0.46117026,-0.25549093,-0.15108603,-0.17646898,1.0,0.0,0.0,0.0,0.0,0.0,0.0,-1.8220505,0.17066202,-1.1128407,7.5547695,-44.271233,7.750098,-16.589725,-25.560724,-0.7362366,-0.7936299
-13.5107155,-138.75522,-32.971443,-14.784273,3.7975926,-4.416039,0.45200324,-0.4560911,-0.6101919,0.3608567,-0.36466554,-0.5723474,0.6693399,0.47978032,0.98060226,-0.51900196,-1.648285,-0.76292956,2.2876182,1.5247822,-0.9204755,1.0164019,-0.463443,-1.6827095,-0.73191804,2.3407102,1.4624506,-0.9646808,-0.9493092,-0.6741026,0.2299131,-0.58161896,-0.47912666,0.45700935,0.37447977,1.1450043,-0.57485056,1.6575332,-2.7040892,-0.41876748,-0.55518866,0.034744263,-0.3333323,1.0895288,0.8372694,-0.27633667,0.10601052,0.4597603,-0.32658342,-0.42569965,-0.32248893,1.0,0.0,0.0,0.0,0.0,0.0,0.0,-1.7950042,0.17485055,-1.1075332,12.608635,-51.229584,25.503899,-14.432621,-25.951975,-1.2910187,-1.1199296
0.90894926,-88.79019,-17.77518,-10.340569,3.3754418,-3.3108761,0.70875186,-0.24068733,-0.7191597,0.4586747,-0.29049814,-0.6015814,0.67105883,0.352897,0.9923332,-0.53535897,-1.636842,-0.76096785,2.280552,1.5295565,-0.9293911,1.0086333,-0.4734256,-1.6781223,-0.73806447,2.3344388,1.4669958,-0.9610797,-0.720047,-1.1070162,0.53667575,-0.6260214,-0.6772333,0.45105678,0.35490006,1.1179886,-0.5790353,1.651249,-2.7013857,-0.4183488,-0.6528196,0.0311203,-0.33902168,1.0855316,0.83801,-0.27408,0.10608086,0.45974582,-0.37763068,-0.61444175,-0.42613286,1.0,0.0,0.0,0.0,0.0,0.0,0.0,-1.7679886,0.17903528,-1.101249,22.684597,-43.49892,31.222898,-4.5633435,-20.044195,-1.4030755,-2.0570755
18.455566,-26.288218,-1.4057475,-7.9599037,1.8014035,-2.4329267,0.7671331,-0.021869993,-0.7575236,0.42573452,-0.24632844,-0.60074896,0.6645311,0.15917794,1.0064462,-0.54917794,-1.6355488,-0.76269734,2.274364,1.5334489,-0.94516194,1.0038706,-0.48662016,-1.6711547,-0.7440612,2.3267293,1.4714934,-0.95780575,-0.3976145,-1.3907186,0.7528963,-0.591826,-0.80278695,0.44756797,0.31829405,1.0909958,-0.5832157,1.6439893,-2.698685,-0.4179305,-0.75035286,0.027381897,-0.34592104,1.0808394,0.83814865,-0.27185026,0.10442445,0.46119377,-0.37426347,-0.7113021,-0.4849977,1.0,0.0,0.0,0.0,0.0,0.0,0.0,-1.7409958,0.18321571,-1.0939894,31.514364,-28.507923,22.458113,3.1374335,-12.686241,-0.9103775,-3.6311805
32.927246,21.498943,9.570158,-9.683949,-0.080674455,-2.1354806,0.7266085,0.15483834,-0.77989817,0.35509345,-0.27029726,-0.58346844,0.6548657,-0.023538698,1.0193545,-0.56461,-1.6356454,-0.7710909,2.2683825,1.5369799,-0.9601596,1.0026098,-0.50156766,-1.6631114,-0.74965066,2.3182607,1.475968,-0.9550172,-0.03898882,-1.529821,0.8250065,-0.54917824,-0.86245704,0.44633308,0.26587653,1.0640259,-0.58739185,1.635755,-2.6959867,-0.41751266,-0.84778863,0.024154663,-0.35335755,1.0757611,0.8376413,-0.26986963,0.10153,0.463917,-0.3086905,-0.7498737,-0.51750046,1.0,0.0,0.0,0.0,0.0,0.0,0.0,-1.7140259,0.18739185,-1.0857549,34.852516,-14.019585,8.298278,3.9057136,-6.1555505,-0.4443586,-5.2004633
36.271988,43.46299,12.678384,-10.492622,-1.3215202,-2.1820254,0.5294621,0.2361253,-0.79446626,0.26622927,-0.32748526,-0.54777807,0.642994,-0.1457707,1.0262223,-0.5810143,-1.6364886,-0.7823992,2.2634828,1.5402673,-0.9695943,1.0045325,-0.5171316,-1.6553943,-0.7551181,2.3095975,1.4804331,-0.95281327,0.26613384,-1.565635,0.75734663,-0.54687715,-0.8680974,0.44575015,0.20532005,1.0370865,-0.5915642,1.6265469,-2.6932914,-0.4170952,-0.945127,0.02180481,-0.36101604,1.0704143,0.8366606,-0.267965,0.09800345,0.46753505,-0.20853217,-0.7669891,-0.54286695,1.0,0.0,0.0,0.0,0.0,0.0,0.0,-1.6870865,0.19156417,-1.0765469,29.593653,-3.6946058,-5.7664514,-0.065255165,-0.7995367,-0.26205182,-6.056893
33.03013,44.96986,10.025082,-10.711381,-1.9922519,-2.4874215,0.23694696,0.32787013,-0.7992719,0.0832585,-0.36221278,-0.5165662,0.6427761,-0.20810682,1.0373194,-0.59705883,-1.6470685,-0.79133934,2.2579408,1.5447108,-0.97362393,1.0090243,-0.5326155,-1.6495006,-0.7608277,2.3011327,1.4848944,-0.95121396,0.50767976,-1.5431151,0.5361579,-0.57958424,-0.8400172,0.44546732,0.14456625,1.0101776,-0.59573174,1.6163663,-2.6905985,-0.4166782,-1.042368,0.020561218,-0.36889338,1.0647691,0.8355208,-0.26575208,0.09442552,0.4715555,-0.09505199,-0.7908293,-0.57457113,1.0,0.0,0.0,0.0,0.0,0.0,0.0,-1.6601776,0.19573173,-1.0663662,23.401838,2.1366835,-21.270264,-3.4711123,2.5734425,-0.23204088,-6.146693
22.451782,30.740646,3.4539762,-6.57836,-1.8064547,-2.764539,-0.21480216,0.4291555,-0.8107034,-0.18381667,-0.30759472,-0.51165557,0.6526595,-0.21434096,1.0519398,-0.61368585,-1.6678823,-0.7915872,2.249967,1.5501603,-0.972648,1.0155779,-0.54776555,-1.6469886,-0.7666337,2.2930036,1.4893595,-0.9501687,0.7028079,-1.5061061,0.15870142,-0.5811577,-0.8046822,0.4458788,0.090740144,0.9832916,-0.5998955,1.6052139,-2.6879084,-0.41626158,-1.139512,0.02028656,-0.37717772,1.0587423,0.8346281,-0.26288763,0.09127622,0.47534677,0.0004826648,-0.8373704,-0.6152215,1.0,0.0,0.0,0.0,0.0,0.0,0.0,-1.6332916,0.19989547,-1.0552139,18.930363,3.5916805,-36.9748,-0.23065805,3.2841802,-0.20619035,-5.5136323
11.394748,15.125206,-2.7300196,-1.9225159,-1.4279512,-2.9010828,-0.5804492,0.49654984,-0.8136819,-0.43879735,-0.26676908,-0.53922015,0.6616161,-0.20651045,1.0652329,-0.62913376,-1.6908684,-0.7933106,2.2390816,1.5555211,-0.9708198,1.0237356,-0.56258184,-1.6489742,-0.7721936,2.2851033,1.4938322,-0.9495956,0.85212976,-1.4737628,-0.31538063,-0.54749936,-0.7859871,0.4467093,0.045678012,0.9564285,-0.6040549,1.5930909,-2.6852212,-0.4158454,-1.2365587,0.0207901,-0.38607836,1.0522388,0.8343456,-0.25912386,0.088927306,0.4783451,0.072621025,-0.9042646,-0.665893,1.0,0.0,0.0,0.0,0.0,0.0,0.0,-1.6064285,0.20405492,-1.0430908,14.549708,3.1260252,-46.74971,3.4166932,1.6131282,-0.2186954,-4.686591
9.697985,13.184023,-3.2705789,-2.1431046,-1.434493,-2.7978637,-0.4782763,0.5352864,-0.809014,-0.54384714,-0.3221328,-0.5646005,0.6544345,-0.16209784,1.0772643,-0.6434832,-1.7033589,-0.8044069,2.2286432,1.5592756,-0.96580535,1.0330359,-0.5771387,-1.655318,-0.7776496,2.2772489,1.498305,-0.94938004,0.95520604,-1.4500313,-0.7392307,-0.5448057,-0.7859563,0.44633266,0.012875888,0.92959595,-0.6082101,1.5799981,-2.6825364,-0.41542962,-1.3335084,0.022010803,-0.39563513,1.0451765,0.83472353,-0.2543394,0.08751887,0.48050857,0.14261098,-0.9697194,-0.7244675,1.0,0.0,0.0,0.0,0.0,0.0,0.0,-1.5795959,0.20821008,-1.0299981,10.0963955,2.2814274,-41.979385,0.3475666,-0.16746521,-0.3848076,-3.459292
9.723424,19.480446,-0.038728952,-0.48584557,-1.1543174,-2.3251698,-0.25851804,0.5673566,-0.81096315,-0.5868866,-0.3274788,-0.5768179,0.6548141,-0.12128502,1.0897715,-0.658235,-1.7140067,-0.81039745,2.219567,1.5637864,-0.9615085,1.0431029,-0.59155446,-1.664931,-0.78316945,2.2693143,1.5027758,-0.9494096,1.023324,-1.4389815,-1.0347307,-0.5541428,-0.796466,0.44627145,-0.008631454,0.9027939,-0.61236143,1.5659366,-2.6798544,-0.41501427,-1.4303612,0.0238266,-0.40570116,1.0375705,0.83557516,-0.24866757,0.086910434,0.48210487,0.20284542,-1.0156357,-0.7784135,1.0,0.0,0.0,0.0,0.0,0.0,0.0,-1.5527939,0.21236143,-1.0159366,6.714809,1.0364532,-29.36598,-0.8628011,-1.1492133,-0.31704903,-2.2730248
14.684299,28.30333,3.9545627,-2.6234417,-1.2593734,-2.0033948,0.07437792,0.59771794,-0.8094002,-0.6308086,-0.3928202,-0.5826876,0.64354193,-0.09773151,1.1028746,-0.6724945,-1.728012,-0.8224515,2.2110455,1.56713,-0.95918274,1.0536925,-0.6059187,-1.6765697,-0.7891194,2.26125,1.5072371,-0.9495956,1.0705829,-1.4356786,-1.2068806,-0.60858256,-0.80959487,0.44514588,-0.022172006,0.8760147,-0.6165085,1.5509073,-2.677175,-0.41459933,-1.527117,0.026283264,-0.41609025,1.0294383,0.8366249,-0.24224944,0.086888805,0.48355386,0.2700775,-1.0431303,-0.8314034,1.0,0.0,0.0,0.0,0.0,0.0,0.0,-1.5260147,0.21650848,-1.0009072,4.644227,0.2982378,-17.208504,-5.435407,-1.3125181,-0.4190266,-1.4174268
17.053236,35.47708,7.4022055,-2.3476448,-1.135184,-1.6301608,0.2861433,0.6197349,-0.81454813,-0.656252,-0.41599616,-0.5943707,0.64148134,-0.054570254,1.1156659,-0.6873735,-1.7421949,-0.83071905,2.201813,1.5713853,-0.9550526,1.0646559,-0.62030965,-1.6891963,-0.7957074,2.2530408,1.5116869,-0.9498559,1.104834,-1.4403018,-1.2816228,-0.67560697,-0.824589,0.4442025,-0.027366683,0.8492584,-0.62065125,1.534911,-2.6744983,-0.4141848,-1.6237762,0.029418945,-0.42662764,1.0208195,0.8376334,-0.23525578,0.08723846,0.48519522,0.33475292,-1.0532237,-0.879242,1.0,0.0,0.0,0.0,0.0,0.0,0.0,-1.4992584,0.22065124,-0.984911,3.3501863,-0.47063828,-7.581067,-6.727612,-1.4439106,-0.36638975,-0.52102137
11.860253,44.605892,11.354467,5.329685,-0.3912672,-0.92854464,0.23336008,0.61725354,-0.81209564,-0.63670987,-0.34543738,-0.6055431,0.6633702,-0.034806218,1.1263813,-0.7015192,-1.7528673,-0.83025116,2.1924865,1.5780239,-0.95333654,1.0758158,-0.6347502,-1.701947,-0.8025214,2.2446713,1.5161539,-0.9501344,1.1197273,-1.4453146,-1.2734404,-0.68346316,-0.8409468,0.4471508,-0.027903428,0.82253265,-0.6247902,1.517949,-2.6718245,-0.4137707,-1.7203387,0.032958984,-0.43707967,1.0118889,0.8384768,-0.22806183,0.08774703,0.48707804,0.37019926,-1.0377666,-0.90525615,1.0,0.0,0.0,0.0,0.0,0.0,0.0,-1.4725326,0.22479019,-0.967949,1.4627218,-0.5213022,0.69196224,-0.8096099,-1.6333103,0.17834902,-0.0019069761
6.0775423,45.21171,11.756341,10.319191,0.14474338,-0.63532305,0.10750495,0.609656,-0.81857264,-0.6647286,-0.32552114,-0.6093623,0.6522486,-0.043825187,1.1367815,-0.71660745,-1.7684199,-0.83507353,2.1837351,1.5813788,-0.9545169,1.0869948,-0.64926416,-1.7144859,-0.80915135,2.236157,1.5206457,-0.95041764,1.1173689,-1.4536557,-1.2479054,-0.6560718,-0.85553396,0.4498002,-0.028223686,0.7958374,-0.62892485,1.500022,-2.6691532,-0.41335702,-1.8168048,0.036705017,-0.44734192,1.0027668,0.8391676,-0.2208944,0.08830695,0.48908603,0.38425303,-1.0172133,-0.92215246,1.0,0.0,0.0,0.0,0.0,0.0,0.0,-1.4458374,0.22892484,-0.95002204,-0.20432472,-0.87559223,2.4556875,2.7619958,-1.5323043,0.213629,0.030436367
6.320923,47.834476,12.705915,10.749053,0.17672998,-0.5460606,0.12867883,0.6169264,-0.81779426,-0.65634274,-0.3386786,-0.6128939,0.65167266,-0.020384284,1.1486874,-0.7310436,-1.7801201,-0.8430192,2.1748676,1.585813,-0.95245606,1.0981337,-0.6638449,-1.7266986,-0.8155095,2.2275167,1.5251642,-0.95068467,1.1127261,-1.4597609,-1.212843,-0.6290079,-0.8671424,0.4522703,-0.025891209,0.76916504,-0.6330552,1.4811312,-2.6664846,-0.41294375,-1.9131743,0.04058075,-0.4573741,0.9934975,0.8397009,-0.21381952,0.08888771,0.4912051,0.39749703,-0.99315125,-0.9360704,1.0,0.0,0.0,0.0,0.0,0.0,0.0,-1.419165,0.2330552,-0.9311312,-0.42786598,-0.6506443,3.4032345,2.7277946,-1.243937,0.20786524,0.30253196
5.932476,47.786156,12.613332,10.912544,0.21061075,-0.5416793,0.107843995,0.6169043,-0.8214626,-0.6579629,-0.3291366,-0.61223257,0.6518824,-0.03004783,1.1598241,-0.7459911,-1.7924949,-0.8484232,2.1662934,1.5903525,-0.95368946,1.1092192,-0.6784857,-1.7386234,-0.8216006,2.2187924,1.5297037,-0.9509345,1.1074908,-1.4656212,-1.1861019,-0.60226804,-0.8745797,0.45433012,-0.024491271,0.74251556,-0.63718176,1.4612774,-2.6638188,-0.4125309,-2.0094476,0.04459381,-0.46717954,0.98408455,0.8400875,-0.20682918,0.08948316,0.4934243,0.4097625,-0.9705901,-0.95032454,1.0,0.0,0.0,0.0,0.0,0.0,0.0,-1.3925155,0.23718175,-0.91127735,-0.4781723,-0.6295204,2.5814295,2.7109027,-0.8419037,0.15884042,0.2075389
6.375616,47.685703,12.485302,10.387238,0.18142283,-0.5740671,0.10401259,0.61718214,-0.8236412,-0.657947,-0.32301354,-0.6042601,0.6495106,-0.04152614,1.1709374,-0.76084983,-1.8044181,-0.853902,2.1583664,1.5946548,-0.9550871,1.1202666,-0.693178,-1.7503669,-0.8274657,2.2100453,1.5342585,-0.9511806,1.1038582,-1.4705166,-1.1707025,-0.5811131,-0.8753264,0.45559964,-0.024507,0.7158966,-0.641304,1.4404615,-2.6611555,-0.41211846,-2.1056244,0.048736572,-0.47677898,0.9745141,0.8403417,-0.19988574,0.09009332,0.49573663,0.42375356,-0.95023036,-0.96636385,1.0,0.0,0.0,0.0,0.0,0.0,0.0,-1.3658966,0.24130401,-0.8904615,-0.31511784,-0.53400993,1.4538288,2.16254,-0.17504692,0.06223321,0.06318204
7.706849,47.896812,12.326163,9.029373,0.021204889,-0.6420414,0.128435,0.61621064,-0.81969917,-0.67131627,-0.3322413,-0.59590334,0.64834017,-0.0259266,1.1818876,-0.7751479,-1.8174986,-0.8606898,2.150455,1.5990925,-0.95377326,1.1312872,-0.70788366,-1.7620952,-0.8332326,2.2013326,1.5388209,-0.95141804,1.1015216,-1.4708115,-1.1737783,-0.57504463,-0.87033176,0.4561426,-0.02333592,0.68930817,-0.645422,1.4186846,-2.658495,-0.41170642,-2.201705,0.05304718,-0.48618937,0.96475387,0.8404698,-0.19291109,0.090755284,0.4981559,0.44371238,-0.9317999,-0.9862454,1.0,0.0,0.0,0.0,0.0,0.0,0.0,-1.3393081,0.24542198,-0.8686846,-0.18203259,-0.07059574,-0.3976345,0.6565809,0.40410757,-0.041770935,0.16989075
7.024868,49.292416,12.842019,10.171463,0.1122973,-0.54934615,0.10245173,0.62069994,-0.8238927,-0.6597471,-0.29360616,-0.6118973,0.6580264,-0.0013084188,1.1933572,-0.79027295,-1.8280699,-0.8625932,2.140143,1.6046236,-0.9515489,1.1423136,-0.72259885,-1.7738464,-0.8388173,2.1926236,1.5433966,-0.95162594,1.10325,-1.4719658,-1.1757609,-0.55272096,-0.8711912,0.4576153,-0.019771263,0.6627426,-0.64953613,1.3959476,-2.6558368,-0.4112948,-2.2976894,0.05756378,-0.49540162,0.9548197,0.84047663,-0.18592696,0.09148978,0.5006594,0.46009785,-0.9112349,-1.002684,1.0,0.0,0.0,0.0,0.0,0.0,0.0,-1.3127426,0.24953613,-0.84594756,0.21691322,-0.16052723,-0.26807785,2.2839427,-0.1909852,0.06867051,0.4094474
4.677688,49.216137,12.753087,11.959524,0.3395573,-0.47083166,0.036898382,0.61784416,-0.8277449,-0.6656682,-0.25945514,-0.59908843,0.657664,-0.0013398151,1.204098,-0.8053733,-1.8404132,-0.8647628,2.1327147,1.609163,-0.95175993,1.1533533,-0.73734075,-1.7856452,-0.84404343,2.1839375,1.5479838,-0.9517995,1.1041768,-1.4751823,-1.1816015,-0.51232046,-0.86817724,0.45909855,-0.016348736,0.63619995,-0.653646,1.3722514,-2.6531816,-0.41088358,-2.393578,0.062156677,-0.5044184,0.94474286,0.8403899,-0.17897914,0.09227572,0.50318617,0.46843594,-0.8917497,-1.0161539,1.0,0.0,0.0,0.0,0.0,0.0,0.0,-1.2861999,0.253646,-0.8222514,0.141716,-0.37891865,-0.61643124,4.108727,0.1675129,0.08529425,0.39474332
3.2724795,49.739983,12.73486,12.807116,0.4339521,-0.43176734,0.0002219975,0.61214477,-0.82501453,-0.6774072,-0.2434045,-0.58695245,0.64702296,-0.0038951202,1.2145678,-0.8198422,-1.8533859,-0.8683839,2.1252422,1.612686,-0.952189,1.1643721,-0.75210077,-1.7975509,-0.84883755,2.1753163,1.5525786,-0.9519445,1.1014321,-1.4764352,-1.1937469,-0.46816576,-0.8606503,0.45932168,-0.013676755,0.6096878,-0.65775156,1.3475971,-2.650529,-0.41047278,-2.4893708,0.06682587,-0.5132475,0.9345388,0.8402423,-0.17207399,0.09311281,0.5056811,0.47328833,-0.87299436,-1.0284687,1.0,0.0,0.0,0.0,0.0,0.0,0.0,-1.2596878,0.25775155,-0.7975971,-0.21619797,-0.19013882,-1.2240887,4.494083,0.5953312,-0.041294098,0.31210855
5.727599,46.988773,11.7510195,9.472458,0.17906654,-0.5849017,0.0886728,0.60508025,-0.82863414,-0.69674575,-0.29180783,-0.558838,0.63383365,-0.013085219,1.2248801,-0.83496416,-1.8672255,-0.8780183,2.1194324,1.6159619,-0.953253,1.1753298,-0.7668827,-1.8096588,-0.85351056,2.1668515,1.55716,-0.9520732,1.0939424,-1.4789592,-1.2166234,-0.46664068,-0.8423499,0.45731893,-0.012436305,0.5832062,-0.6618533,1.3219856,-2.647879,-0.4100624,-2.5850677,0.071624756,-0.52192974,0.92412394,0.84001815,-0.16507368,0.09400151,0.5082162,0.48818442,-0.85949177,-1.0523788,1.0,0.0,0.0,0.0,0.0,0.0,0.0,-1.2332062,0.2618533,-0.7719856,-0.67682266,-0.3115654,-2.3288727,0.24854541,1.6894698,-0.33823848,0.16585308
8.0850935,48.75555,12.380101,7.660445,-0.088599384,-0.5577306,0.1734151,0.5983388,-0.82414645,-0.6923811,-0.30816624,-0.58044976,0.63728386,0.012627144,1.2351637,-0.84929734,-1.8788968,-0.8843272,2.1088066,1.6208884,-0.9508105,1.1861845,-0.7816637,-1.8219478,-0.8583581,2.1584897,1.5617205,-0.95217335,1.0830139,-1.4779365,-1.2333553,-0.4905572,-0.83435166,0.4552591,-0.00912103,0.55674744,-0.66595125,1.2954179,-2.6452317,-0.4096524,-2.6806688,0.07661438,-0.5304475,0.9134439,0.8396709,-0.15789166,0.09499042,0.5108813,0.5115238,-0.8417,-1.0797693,1.0,0.0,0.0,0.0,0.0,0.0,0.0,-1.2067474,0.26595125,-0.7454179,-1.0166645,0.054073334,-1.7470837,-2.3053944,0.67521334,-0.3737092,0.36498103
9.199341,47.820995,12.213209,6.254563,-0.22087425,-0.54532224,0.19796365,0.59055465,-0.83259004,-0.6923096,-0.33079916,-0.59171605,0.6316899,-0.07203544,1.24524,-0.8649227,-1.8911787,-0.891438,2.099318,1.6248895,-0.9593769,1.1969095,-0.79646856,-1.8343532,-0.8635823,2.1501431,1.5662562,-0.9523059,1.0694247,-1.4813533,-1.2432668,-0.5327317,-0.8350451,0.45252472,-0.014475125,0.5303116,-0.6700444,1.2678949,-2.642587,-0.40924284,-2.7761745,0.08189392,-0.53878546,0.90244967,0.8391753,-0.15047832,0.096099235,0.51371783,0.538943,-0.8232586,-1.1124066,1.0,0.0,0.0,0.0,0.0,0.0,0.0,-1.1803116,0.27004442,-0.71789485,-1.275897,-0.3827095,-1.095581,-4.118681,-0.17449856,-0.4718125,-0.49722716
9.950383,49.246025,12.648886,5.7313547,-0.36318964,-0.4755578,0.23219374,0.58339894,-0.82793885,-0.70411605,-0.35324398,-0.6149958,0.6355355,-0.038163286,1.2552495,-0.87926245,-1.9047648,-0.8989067,2.0886436,1.6298097,-0.9561222,1.2074934,-0.81128484,-1.8468654,-0.86928815,2.1417012,1.5707709,-0.95246994,1.0550301,-1.4818186,-1.25444,-0.5828234,-0.847834,0.45037287,-0.016938156,0.50390625,-0.6741338,1.2394174,-2.639945,-0.40883368,-2.871585,0.08744049,-0.5469117,0.8911204,0.83850485,-0.14281155,0.09738502,0.51675004,0.56969696,-0.80080897,-1.1463226,1.0,0.0,0.0,0.0,0.0,0.0,0.0,-1.1539062,0.27413377,-0.6894174,-1.3503551,-0.07958412,-1.2445688,-4.9104333,-1.3740063,-0.42374134,-0.21507517
1.3321509,51.65024,13.106899,11.689427,0.32190627,-0.12284058,0.061078086,0.54857475,-0.8315197,-0.68298227,-0.3065085,-0.60628366,0.6423751,-0.07096603,1.2623509,-0.89443684,-1.9151636,-0.899939,2.0810728,1.6350083,-0.95956653,1.2178046,-0.82611734,-1.8593585,-0.8751752,2.1331487,1.575276,-0.95267975,1.0235877,-1.483863,-1.2478437,-0.5903711,-0.85814387,0.4501236,-0.022198178,0.47753143,-0.6782193,1.2099867,-2.6373055,-0.40842494,-2.9668999,0.09314728,-0.55479574,0.8795473,0.8377176,-0.13502666,0.09880871,0.51984006,0.5745718,-0.77551043,-1.1673967,1.0,0.0,0.0,0.0,0.0,0.0,0.0,-1.1275314,0.2782193,-0.6599867,-3.0373812,-0.25491714,0.580883,-0.6412983,-1.1843085,-0.1469791,-0.48875326
3.9561515,47.629353,11.702016,8.081759,-0.03619653,-0.28394884,0.12847635,0.53922594,-0.83685136,-0.71618426,-0.3978487,-0.6251775,0.6145495,-0.14999297,1.2717271,-0.9098025,-1.930977,-0.91496,2.070631,1.6367309,-0.967679,1.2277952,-0.8409918,-1.8719146,-0.88143796,2.1244588,1.5797564,-0.9529983,0.99141854,-1.4887933,-1.2585994,-0.63780653,-0.873149,0.44653293,-0.03498277,0.45117188,-0.68230057,1.1796035,-2.6346688,-0.4080166,-3.0621195,0.098968506,-0.56245995,0.8676568,0.836819,-0.12702845,0.10039608,0.5229898,0.5911557,-0.7543102,-1.2026464,1.0,0.0,0.0,0.0,0.0,0.0,0.0,-1.1011719,0.28230056,-0.62960345,-3.0923724,-0.53880215,-1.1884451,-4.5957804,-1.6350389,-0.5664706,-1.2466487
0.28065157,51.30239,12.735687,10.998714,0.22039163,-0.030661464,0.07174866,0.51206195,-0.8320947,-0.6954071,-0.37633735,-0.65287715,0.6286269,-0.13507278,1.2790015,-0.92420125,-1.9414554,-0.9190717,2.059171,1.642619,-0.9665056,1.2374083,-0.85588914,-1.884486,-0.8880269,2.1155553,1.5842139,-0.9534284,0.9518445,-1.4902081,-1.2568927,-0.6655274,-0.8963604,0.44498292,-0.04567984,0.42484283,-0.6863775,1.1482688,-2.6320345,-0.40760866,-3.1572437,0.10487366,-0.56987286,0.85547763,0.8358153,-0.11885548,0.102173544,0.52616215,0.596926,-0.7274612,-1.2292815,1.0,0.0,0.0,0.0,0.0,0.0,0.0,-1.0748428,0.28637752,-0.5982688,-3.8303375,-0.1896143,0.071811676,-2.6317358,-2.4784207,-0.3131926,-1.0407239
-10.461496,52.119164,12.021915,16.45797,0.8372987,0.26822045,-0.10011205,0.4474212,-0.83072585,-0.6918436,-0.3635241,-0.6625016,0.629352,-0.18447688,1.2821504,-0.93896174,-1.9536703,-0.9243793,2.0493052,1.6471491,-0.9718761,1.246409,-0.8707836,-1.8970039,-0.89473313,2.106419,1.5886618,-0.953992,0.8834174,-1.4895239,-1.2502223,-0.6717956,-0.9203406,0.44441572,-0.059936382,0.3985443,-0.69045067,1.1159836,-2.629403,-0.40720114,-3.2522728,0.11065674,-0.57702637,0.84308934,0.83479255,-0.110601164,0.10413965,0.5291914,0.5775821,-0.7015888,-1.2482735,1.0,0.0,0.0,0.0,0.0,0.0,0.0,-1.0485443,0.29045066,-0.5659836,-6.68242,-0.0020503998,0.6211519,-0.45725107,-2.632475,-0.15897751,-1.4098153
-19.47823,44.530247,8.203548,16.891575,1.0490906,0.27253008,-0.13391009,0.35982758,-0.83716995,-0.72112036,-0.45659313,-0.6606863,0.594642,-0.22578701,1.2823918,-0.9545006,-1.969116,-0.94039243,2.0403504,1.648126,-0.9765707,1.2544199,-0.8856972,-1.9095867,-0.9018485,2.0970883,1.5930754,-0.9547187,0.7742254,-1.4923499,-1.2611678,-0.72382957,-0.9384035,0.43992212,-0.076896995,0.3722763,-0.69452,1.0827488,-2.626774,-0.406794,-3.347207,0.11615753,-0.58399296,0.8303891,0.8338208,-0.10210913,0.10631462,0.53199035,0.5455274,-0.6851945,-1.2833753,1.0,0.0,0.0,0.0,0.0,0.0,0.0,-1.0222763,0.29452,-0.53274876,-10.682607,-0.38137436,-1.1258602,-4.935074,-2.1206856,-0.6293833,-1.695028
-60.334255,30.906385,-1.1476325,28.394157,2.6661334,0.86890185,-0.4466818,0.06807852,-0.8371063,-0.72090286,-0.5815111,-0.6447754,0.5677562,-0.19535697,1.2612277,-0.9694078,-1.9816769,-0.9599996,2.032611,1.649851,-0.9742544,1.260142,-0.90064603,-1.9222858,-0.9100253,2.0876546,1.5974222,-0.95558083,0.50648195,-1.4964163,-1.2724763,-0.84716,-0.9472111,0.4321421,-0.08940503,0.34602356,-0.69858456,1.0485654,-2.624148,-0.4063873,-3.4420464,0.120788574,-0.5909276,0.81720155,0.8331169,-0.09308566,0.1087169,0.5342581,0.4372678,-0.6863008,-1.33643,1.0,0.0,0.0,0.0,0.0,0.0,0.0,-0.99602354,0.29858455,-0.49856538,-26.301659,-0.62322617,-1.0257006,-11.797762,-1.5586734,-1.032275,-1.2974844
-124.774055,17.974867,-12.716674,49.23509,5.59584,2.0586066,-0.8678411,-0.36892074,-0.8330343,-0.6659781,-0.7266486,-0.571747,0.55404764,0.12338887,1.2232499,-0.9839495,-1.9888836,-0.98269016,2.03048,1.652827,-0.94324195,1.2614142,-0.91562253,-1.9348094,-0.9199864,2.078362,1.6016794,-0.9563104,0.003478408,-1.4996079,-1.244399,-1.0424883,-0.9278501,0.42213112,-0.06760781,0.31980133,-0.7026453,1.0134343,-2.6215243,-0.405981,-3.5367908,0.12333679,-0.5980253,0.80342853,0.833002,-0.083286144,0.111212805,0.53553957,0.199427,-0.70776296,-1.3967334,1.0,0.0,0.0,0.0,0.0,0.0,0.0,-0.9698013,0.3026453,-0.46343428,-49.50636,-0.7691145,3.1908274,-18.558586,0.6076455,-1.3919771,2.141981
-115.99233,34.2236,-5.1183434,48.898975,5.9740496,2.5316207,-0.6114631,-0.43944865,-0.82474476,-0.5281468,-0.76653117,-0.42890173,0.57338655,0.27073815,1.2174693,-0.998097,-1.9876242,-0.99663955,2.035472,1.659018,-0.9292366,1.2579237,-0.9305828,-1.9463832,-0.9318082,2.069718,1.6058565,-0.95668423,-0.46426007,-1.4963495,-1.1276846,-1.2255634,-0.84740126,0.41496757,-0.026715834,0.29360962,-0.70670223,0.9773565,-2.6189034,-0.4055751,-3.6314404,0.123542786,-0.6051903,0.78928226,0.8333934,-0.07295431,0.11327692,0.536005,-0.040395934,-0.70942265,-1.4262073,1.0,0.0,0.0,0.0,0.0,0.0,0.0,-0.9436096,0.30670223,-0.42735648,-46.057148,-0.12028217,11.895919,-17.331123,6.8214297,-1.1134624,4.286252
-80.885704,57.261765,8.203765,41.28827,5.3432517,2.574296,-0.21272846,-0.47000477,-0.8189643,-0.39697278,-0.7688881,-0.27351454,0.55983305,0.40357372,1.2109232,-1.0124793,-1.9860805,-1.008697,2.0423665,1.6618398,-0.9163269,1.2507693,-0.94546777,-1.9562423,-0.9450175,2.0623403,1.6099745,-0.9565526,-0.79752666,-1.4867363,-0.9391064,-1.3503231,-0.7030708,0.4100008,0.027930256,0.2674408,-0.71075535,0.9403329,-2.616285,-0.4051696,-3.7259955,0.12173462,-0.61216974,0.77514684,0.8339925,-0.06260385,0.11427905,0.53616935,-0.23149985,-0.68374896,-1.4142956,1.0,0.0,0.0,0.0,0.0,0.0,0.0,-0.9174408,0.31075534,-0.39033288,-32.82831,0.69265366,18.685234,-11.766791,13.778627,-0.66708326,5.8855433
-48.878193,54.061413,9.728395,29.187489,4.090737,1.4962475,-0.12362524,-0.4754291,-0.82231754,-0.57522166,-0.7678651,-0.064715095,0.51962066,0.3389235,1.2032263,-1.0276995,-2.0137644,-1.021804,2.0558689,1.6619365,-0.9226603,1.2414976,-0.96027166,-1.9653003,-0.9589898,2.056912,1.61402,-0.95595944,-0.96926993,-1.4787629,-0.8951254,-1.4110649,-0.4905365,0.40192387,0.07105815,0.24129486,-0.7148037,0.90236443,-2.6136694,-0.4047645,-3.8204563,0.11849213,-0.6190076,0.7610136,0.83469605,-0.052227266,0.11401067,0.53624266,-0.359355,-0.67282504,-1.4171281,1.0,0.0,0.0,0.0,0.0,0.0,0.0,-0.89129484,0.3148037,-0.35236442,-16.854572,0.63056946,4.232812,-5.5402756,20.887352,-1.0001659,4.722518
-31.854252,48.77486,8.837815,22.640486,3.4620261,0.7152934,-0.18507975,-0.5151257,-0.82487375,-0.67493796,-0.75424016,0.15442504,0.49213725,0.28482085,1.189985,-1.0427591,-2.032794,-1.0344138,2.0723546,1.6632338,-0.92747736,1.2312781,-0.975025,-1.9748275,-0.97314614,2.0540051,1.6179663,-0.9550315,-1.0386876,-1.4746596,-0.9721097,-1.4157133,-0.22510396,0.3912675,0.101280026,0.21517944,-0.7188482,0.8634441,-2.611056,-0.40435982,-3.9158876,0.114212036,-0.62587166,0.74672306,0.8355487,-0.041625667,0.11244234,0.5361737,-0.45395097,-0.679291,-1.4367063,1.0,0.0,0.0,0.0,0.0,0.0,0.0,-0.8651794,0.31884822,-0.31344408,-6.73275,0.27992725,-7.7256203,-0.03054142,26.25288,-1.3250649,3.3875732
-44.124374,42.841118,4.339847,26.679502,3.8503122,0.7269546,-0.47043368,-0.6498858,-0.82826144,-0.72152823,-0.72808677,0.23650572,0.50308365,0.31792936,1.1662894,-1.0578512,-2.0469804,-1.0459548,2.0776558,1.6682746,-0.9232386,1.2202898,-0.98977834,-1.985543,-0.98702115,2.0535817,1.6218134,-0.953827,-1.1181324,-1.4763372,-1.1040978,-1.3763406,0.016758129,0.3810064,0.12793413,0.18909454,-0.72288895,0.82357013,-2.6084456,-0.40395555,-4.011224,0.10884094,-0.63289356,0.7321684,0.83671445,-0.030675506,0.10973577,0.5356546,-0.56937677,-0.69771665,-1.4653293,1.0,0.0,0.0,0.0,0.0,0.0,0.0,-0.8390945,0.32288894,-0.27357012,-7.7257156,-0.38061142,-13.010764,4.468155,23.719614,-1.4582276,2.9862432
-45.171627,46.124084,4.7079935,27.329212,3.3906922,0.9230292,-0.5797409,-0.6979917,-0.8178575,-0.7557524,-0.70410943,0.17861752,0.5350927,0.26664326,1.1504906,-1.0715641,-2.0611184,-1.057432,2.0714436,1.6753227,-0.9271627,1.2085291,-1.004515,-1.9976127,-1.0003421,2.054871,1.62559,-0.95243275,-1.1946309,-1.4734552,-1.240509,-1.3155838,0.1647398,0.37488797,0.14399424,0.1630249,-0.72692585,0.7827435,-2.6058376,-0.40355167,-4.1064644,0.102371216,-0.64002323,0.7173385,0.8382595,-0.019395903,0.106306195,0.5344565,-0.6786148,-0.7050373,-1.4926255,1.0,0.0,0.0,0.0,0.0,0.0,0.0,-0.8130249,0.32692584,-0.2327435,-7.447648,0.058197975,-13.3992195,6.6018105,14.324034,-1.0902822,1.8425673
-38.651646,49.976585,6.306993,23.885262,2.0031774,1.0804335,-0.53145003,-0.7293,-0.8164597,-0.7890451,-0.70103115,-0.11779318,0.5227065,0.15654607,1.1355991,-1.086161,-2.076517,-1.0704453,2.0430918,1.6778606,-0.9367781,1.1960589,-1.019215,-2.0108924,-1.0131156,2.056233,1.6293074,-0.9509965,-1.2639843,-1.469522,-1.3566593,-1.2630632,0.12525581,0.36929807,0.1437599,0.13698578,-0.730958,0.7409652,-2.6032324,-0.4031482,-4.2016096,0.09503174,-0.6470518,0.7022102,0.8400977,-0.00781182,0.10291865,0.5325245,-0.7552314,-0.68859005,-1.5235975,0.0,1.0,0.0,0.0,0.0,0.0,0.0,-0.78698575,0.33095798,-0.19096518,-6.752062,0.18136501,-11.426282,5.746889,-4.3568106,-1.0009587,0.06432235
-27.057812,54.833355,9.63184,18.539162,0.82834363,1.2066305,-0.34511405,-0.74923396,-0.8130235,-0.8053396,-0.7177589,-0.26273182,0.5138284,0.06406869,1.1211355,-1.1005174,-2.0914264,-1.0848916,2.0299597,1.6806903,-0.9445897,1.182851,-1.0337241,-2.0260377,-1.0263691,2.0580328,1.631012,-0.95008636,-1.3375055,-1.4464954,-1.5599164,-1.3391229,0.17813943,0.09926214,0.08596339,0.11961365,-0.7326045,0.73015606,-1.5871754,-0.057131734,-0.22073068,0.08721924,-0.654233,0.6864343,0.8422798,0.005497417,0.0995032,0.5297485,-0.7940009,-0.71148676,-1.5990536,0.0,1.0,0.0,0.0,0.0,0.0,0.0,-0.7696136,0.3326045,-0.18015605,-5.015683,0.2652645,-7.6312065,3.2791138,-15.638802,-2.003707,-0.81047565
16.283436,176.0,110.0,110.0,4.9978275,12.736586,-1.9014515,-0.65152216,0.58170706,0.7202103,0.6356384,-0.49238268,0.7020227,-0.39498475,1.1176988,-0.9755534,-1.9540167,-0.9628053,2.0087945,1.7012142,-0.9895848,1.172145,-1.0504858,-2.0315309,-1.0264835,2.049404,1.6393757,-0.9487798,-0.97013485,-1.676215,-0.35776737,0.39213592,-1.0718663,1.1371576,0.17012638,0.103752136,-0.7331753,0.72720593,-1.5855886,-0.057074614,-0.31976113,0.07829285,-0.65931606,0.6749288,0.8447767,0.009159067,0.09854945,0.5258863,-0.9324652,-0.4243887,-1.0057163,1.0,0.0,0.0,0.0,0.0,0.0,0.0,-0.7537521,0.33317527,-0.17720592,40.22944,9.536743e-05,76.63766,161.40683,-83.599594,120.295,15.781318
-61.821774,176.0,67.59762,99.607704,8.071076,5.9459333,-2.3365602,-0.7764594,-0.7088224,0.115089424,0.702028,-0.5170012,0.6362291,-0.4343785,1.0944991,-1.121368,-2.020022,-0.9562807,1.9977038,1.7029986,-0.99221766,1.162202,-1.0672476,-2.0296464,-1.0155411,2.0358808,1.650835,-0.94762015,-1.0007278,-1.6762149,0.3718505,1.329665,-1.4469362,1.1535838,0.10037655,0.087905884,-0.7337456,0.7232663,-1.5840033,-0.05701755,-0.41869262,0.067466736,-0.6630578,0.66799754,0.8484315,0.0056999493,0.09887498,0.5199567,-1.132918,-0.34660706,-0.59176886,1.0,0.0,0.0,0.0,0.0,0.0,0.0,-0.73790586,0.33374557,-0.17326629,-2.5662303,2.3841858e-05,73.25757,94.1996,-37.97896,3.0915499,-6.238991
-75.86352,155.10002,37.230564,73.34243,5.8412366,3.2446702,-1.9491063,-0.76729244,-0.58196855,-0.25101653,0.6366159,-0.50749934,0.65556514,-0.23216453,1.0854727,-1.1254445,-2.054748,-0.9518795,1.9851309,1.7163916,-0.9708366,1.1514369,-1.08235,-2.0256677,-0.9991913,2.0216863,1.6620216,-0.94690776,-1.0999546,-1.455748,0.40624976,1.7395879,-1.4113333,1.1095716,0.062395755,0.07207489,-0.7343154,0.7183381,-1.5824196,-0.056960545,-0.51752514,0.054893494,-0.66625834,0.6637533,0.8532876,-0.0001324901,0.10008441,0.5117453,-1.3005016,-0.30321267,-0.3738127,1.0,0.0,0.0,0.0,0.0,0.0,0.0,-0.72207487,0.3343154,-0.16833806,-9.361601,21.794558,3.3509374,41.802956,3.2425404,-3.638029,-3.523626
-39.15586,147.28798,41.973232,46.69114,4.0185113,2.8179717,-0.81242627,-0.7504922,-0.6146653,0.417032,0.72304213,-0.53076833,0.6562341,-0.34108645,1.0763876,-1.1438166,-1.9839644,-0.9268871,1.9686095,1.727645,-0.9810164,1.1395427,-1.0954058,-2.0201287,-0.9812584,2.0087774,1.6724243,-0.94664454,-1.2184246,-1.2566447,0.6040198,1.8126166,-1.2534299,1.0184193,0.014836402,0.056259155,-0.73488474,0.71242225,-1.5808376,-0.056903597,-0.6162589,0.041229248,-0.6687784,0.6613834,0.85873705,-0.007008794,0.101296015,0.5022556,-1.3908042,-0.22640704,-0.19756605,0.0,1.0,0.0,0.0,0.0,0.0,0.0,-0.70625913,0.33488473,-0.16242224,-11.589336,19.565392,20.093452,7.7242613,14.92424,-8.7344885,-4.5808144
-7.309902,105.16975,30.826008,17.313005,1.4939815,1.4482691,0.0647918,-0.7376451,-0.6303016,0.42240235,0.6336334,-0.5051776,0.66549665,-0.31293434,1.0657781,-1.158436,-1.9778885,-0.9178951,1.9582596,1.738974,-0.977938,1.1267253,-1.1069758,-2.0131402,-0.96445084,1.9976728,1.681942,-0.94679713,-1.3029114,-1.1244546,0.7317548,1.6370915,-1.0650088,0.9304263,-0.025320796,0.04046631,-0.7354531,0.7055198,-1.579257,-0.056846704,-0.714894,0.027252197,-0.67060757,0.65992653,0.8641888,-0.014048727,0.10187162,0.492547,-1.4024128,-0.15933825,-0.13439327,0.0,1.0,0.0,0.0,0.0,0.0,0.0,-0.6904663,0.33545312,-0.15551978,-8.472967,12.967443,13.082552,-17.47222,18.12501,-8.575117,-4.019165
13.769362,88.245705,27.144,3.9919784,0.0819944,0.68412656,0.42888108,-0.7227283,-0.57192904,0.43980595,0.62516665,-0.48290935,0.63844687,-0.3173649,1.0544525,-1.1641687,-1.9691596,-0.90193415,1.9493818,1.7457867,-0.9785336,1.1134205,-1.1174785,-2.0052671,-0.94991344,1.9882368,1.6903796,-0.9471959,-1.3419677,-1.023523,0.77784586,1.3736663,-0.8609722,0.77027607,-0.04219753,0.023796082,-0.73525333,0.7001517,-1.5908015,0.1733836,0.41128606,0.013557434,-0.6718788,0.65874726,0.8693174,-0.020599857,0.10173647,0.48323128,-1.3610078,-0.11903746,-0.12674884,0.0,1.0,0.0,0.0,0.0,0.0,0.0,-0.67379606,0.33525333,-0.15015167,-4.271555,10.230517,1.1281252,-28.983234,23.960281,-23.834682,0.052805245
7.015347,132.7962,39.241062,17.629105,0.5726987,1.3229135,0.07800201,-0.77481806,-0.28967324,0.4423696,0.68697673,-0.36661494,0.64375734,-0.40582722,1.0359387,-1.1464459,-1.9610301,-0.88121575,1.9515753,1.7547554,-0.9877786,1.0997295,-1.1260482,-1.9972347,-0.9373631,1.9808306,1.6975837,-0.94790256,-1.3783255,-0.80218554,0.8129806,1.2159833,-0.70271504,0.7048354,-0.080552734,0.007896423,-0.733521,0.70351404,-1.589211,0.17321025,0.31122994,0.00018310547,-0.6725235,0.6582829,0.87423456,-0.026709776,0.101234615,0.47408015,-1.3314484,-0.037397027,-0.023836846,0.0,1.0,0.0,0.0,0.0,0.0,0.0,-0.6578964,0.33352098,-0.15351403,-3.7076712,21.871376,3.8506389,-15.63828,15.209187,-6.1888933,-3.933868
3.6504307,130.11235,37.19639,20.114687,0.7584438,1.1121595,-0.06179077,-0.7747871,-0.24556655,0.41737258,0.6626493,-0.29365173,0.63732576,-0.36204597,1.0222508,-1.1506048,-1.9554975,-0.87109816,1.9514654,1.7613163,-0.98410714,1.085804,-1.1324741,-1.9892029,-0.92590374,1.9748815,1.7042384,-0.9489325,-1.3972454,-0.59024435,0.80083865,1.1232988,-0.56046623,0.6534155,-0.11066625,-0.007980347,-0.73179054,0.7058766,-1.587622,0.17303708,0.21127388,-0.0129470825,-0.67242527,0.6588235,0.87901783,-0.03293664,0.10086098,0.46483323,-1.3086652,0.0339659,0.07660069,0.0,1.0,0.0,0.0,0.0,0.0,0.0,-0.6420196,0.33179054,-0.15587658,-1.9280195,20.971275,-0.94656944,-9.064221,13.761997,-4.832113,-3.066924
-0.7607107,125.82295,34.69537,22.79949,0.76922655,0.96593416,-0.2054078,-0.7733182,-0.16904415,0.37715757,0.673053,-0.3248625,0.62314636,-0.33275726,1.0084722,-1.1493785,-1.9514871,-0.8585984,1.9423953,1.766553,-0.98220825,1.0718002,-1.1369296,-1.981522,-0.9147982,1.9698385,1.7104945,-0.95020854,-1.4014158,-0.39792728,0.75786966,1.1071917,-0.48668855,0.61722255,-0.13329917,-0.023841858,-0.73006105,0.70724034,-1.5860348,0.17286408,0.11141776,-0.025871277,-0.67166615,0.66032994,0.88372356,-0.039321482,0.1009632,0.45529437,-1.2910539,0.098031364,0.17252733,0.0,1.0,0.0,0.0,0.0,0.0,0.0,-0.6261581,0.33006105,-0.15724033,-0.42128563,19.029724,-4.0413737,-1.3537645,6.9996595,-3.3711672,-2.2954047
-5.6505065,102.2309,26.546034,21.117268,0.9271288,0.57010746,-0.27985016,-0.77510613,-0.16058266,0.3447158,0.6791701,-0.29029652,0.6310171,-0.35287654,0.99428964,-1.152988,-1.9470503,-0.8468812,1.9408089,1.7735963,-0.9854962,1.0578079,-1.1399833,-1.9744247,-0.9035401,1.9653391,1.7164474,-0.95169055,-1.3983064,-0.27490845,0.6941265,1.132861,-0.4388576,0.5884684,-0.1531165,-0.03968811,-0.7283335,0.70760626,-1.584449,0.17269124,0.011661466,-0.038742065,-0.67042494,0.6625038,0.8884063,-0.045753606,0.10158766,0.44533226,-1.2865044,0.14113009,0.22986345,0.0,1.0,0.0,0.0,0.0,0.0,0.0,-0.61031187,0.32833347,-0.15760624,0.32556057,12.145174,-6.171608,2.801156,4.5059624,-2.73,-1.9861519
-5.3518867,86.834175,22.167467,18.297411,0.930069,0.3733352,-0.23893417,-0.7726298,-0.13632707,0.35955212,0.6770273,-0.28076324,0.6356444,-0.35798252,0.9805449,-1.153616,-1.9384695,-0.83583736,1.9372628,1.7800118,-0.9874888,1.0438786,-1.1422046,-1.9678613,-0.8919778,1.961234,1.7220217,-0.9533176,-1.3914119,-0.2044731,0.63727254,1.1605085,-0.39089268,0.5349978,-0.16399062,-0.05558777,-0.72598934,0.7086676,-1.5819193,0.3117218,0.34292325,-0.051612854,-0.6688571,0.6650506,0.8930655,-0.052076586,0.10256253,0.4349746,-1.2851086,0.16724631,0.25881106,0.0,1.0,0.0,0.0,0.0,0.0,0.0,-0.5944122,0.32598934,-0.15866756,0.6543875,7.0088444,-6.950307,2.092886,6.68633,-8.277046,-0.49436986
-8.437502,128.59482,34.037647,26.861809,1.1297007,0.9661407,-0.3267075,-0.79830223,0.12996225,0.31169128,0.6954628,-0.19217786,0.6117729,-0.35591537,0.9640483,-1.1292084,-1.9366921,-0.8224315,1.9420162,1.783199,-0.9889091,1.029892,-1.1428474,-1.9619255,-0.88008636,1.9577663,1.7271295,-0.95505434,-1.4010637,-0.018261641,0.5803152,1.1996014,-0.33343786,0.5027403,-0.17705101,-0.071243286,-0.7225075,0.7128953,-1.558827,0.36106306,0.4499419,-0.06442261,-0.6667738,0.6684193,0.89769334,-0.058434792,0.104097635,0.42414123,-1.2801632,0.23065701,0.36079505,0.0,1.0,0.0,0.0,0.0,0.0,0.0,-0.5787567,0.32250747,-0.16289526,-0.98052025,18.377428,-5.2975655,4.17552,5.3440332,-3.1216025,-1.3793349
-14.382933,115.65067,28.671228,25.926115,1.4057767,0.7649678,-0.373999,-0.8143626,0.14502124,0.20008695,0.68917465,-0.02279254,0.6082892,-0.39106682,0.9484557,-1.1283453,-1.9419168,-0.8111689,1.955487,1.7879584,-0.994161,1.0157185,-1.1417755,-1.9569378,-0.86791164,1.9552884,1.7319603,-0.95693165,-1.423062,0.14836481,0.4726086,1.224207,-0.22034766,0.47624746,-0.19134846,-0.08670807,-0.7185812,0.7179695,-1.5427028,0.40436164,0.527238,-0.07728577,-0.6641307,0.67261446,0.90231085,-0.064851515,0.106176,0.41274193,-1.288214,0.2845838,0.43721604,0.0,1.0,0.0,0.0,0.0,0.0,0.0,-0.5632919,0.3185812,-0.16796947,-2.2294283,16.44105,-10.442453,2.6798964,10.960826,-2.6972055,-1.4588624
-14.603356,119.89574,29.761736,26.487066,1.5126646,0.83369076,-0.37293598,-0.82356185,0.2477296,0.16303453,0.704354,0.078168586,0.583981,-0.40040004,0.93336225,-1.1170025,-1.9406344,-0.79747623,1.9631053,1.7903584,-0.99697167,1.0012932,-1.1389717,-1.9530331,-0.85550886,1.9541125,1.7365496,-0.95894736,-1.4491686,0.32360652,0.36452612,1.2462186,-0.08459158,0.45248002,-0.20512888,-0.102012634,-0.71419,0.7238709,-1.525549,0.45217276,0.61252654,-0.09024811,-0.6609087,0.67762214,0.90691143,-0.07131977,0.108691275,0.40076336,-1.2964076,0.34440377,0.5202784,0.0,1.0,0.0,0.0,0.0,0.0,0.0,-0.54798734,0.31419,-0.17387086,-2.675724,17.269829,-10.364181,2.3821592,13.15504,-2.5277913,-1.4314592
-12.872556,113.98423,28.046602,24.608639,1.4319069,0.7597867,-0.34402058,-0.82865787,0.30899334,0.11667635,0.720827,0.13985716,0.5820193,-0.4341919,0.9184274,-1.1080724,-1.9413655,-0.78342617,1.9680983,1.7947515,-1.0023665,0.9866307,-1.1345772,-1.9501717,-0.8428849,1.9542688,1.7409302,-0.9611134,-1.4721891,0.4770703,0.2616763,1.2681186,0.047645077,0.43228936,-0.22058989,-0.11714172,-0.7093239,0.73054796,-1.5081933,0.4996154,0.68743753,-0.103279114,-0.65710306,0.6833781,0.9114648,-0.07785053,0.11156473,0.38823232,-1.3017123,0.40289637,0.59255105,0.0,1.0,0.0,0.0,0.0,0.0,0.0,-0.53285825,0.30932388,-0.18054795,-2.3955345,15.090836,-9.769225,2.3038387,12.780224,-2.2393644,-1.6232878
-12.946879,90.97273,19.564835,19.688334,0.6688992,0.32836816,-0.2950266,-0.83119786,0.34358582,-0.0802667,0.72512454,0.08775089,0.5724622,-0.43747213,0.90351087,-1.1002185,-1.9581984,-0.77037245,1.9630439,1.7981764,-1.0048606,0.9717934,-1.128939,-1.9489733,-0.8300799,1.9553064,1.7451494,-0.963426,-1.4880122,0.5919863,0.07374602,1.2846018,0.121709585,0.4177513,-0.23509322,-0.1321106,-0.70407104,0.7376215,-1.4923176,0.5356023,0.7159514,-0.1162796,-0.6528468,0.6895095,0.9159508,-0.084086254,0.11503735,0.37513995,-1.2963915,0.44430205,0.61881465,0.0,1.0,0.0,0.0,0.0,0.0,0.0,-0.5178894,0.30407104,-0.18762147,-1.6844988,11.292553,-18.43278,1.6554117,7.1259303,-1.5908301,-1.5520751
-14.74536,55.246433,7.665572,13.6231165,0.0704408,-0.2549324,-0.25502795,-0.8307238,0.3087207,-0.26714358,0.739978,0.048785802,0.54969877,-0.41421998,0.88872105,-1.0980669,-1.9756876,-0.7560821,1.9601849,1.8001193,-1.004848,0.95686454,-1.1227306,-1.9502523,-0.8170933,1.956667,1.7492608,-0.96585345,-1.4947449,0.6303051,-0.19492617,1.3029479,0.1410646,0.40887284,-0.2456623,-0.14697266,-0.698606,0.7444548,-1.4835937,0.55146676,0.6754316,-0.12923431,-0.6484041,0.69541407,0.9203797,-0.08949374,0.11932091,0.36146167,-1.2911557,0.45579398,0.5803798,0.0,1.0,0.0,0.0,0.0,0.0,0.0,-0.5030273,0.298606,-0.19445479,-0.73502064,3.7356615,-26.807144,1.7368078,1.9321054,-0.88344216,-1.1641234
-14.926379,19.056904,-3.2682087,7.06567,-0.5847707,-0.75414866,-0.15420368,-0.82622033,0.23033759,-0.41028607,0.7542587,-0.11667359,0.5322014,-0.348739,0.8742425,-1.0996969,-1.9912809,-0.74166745,1.9449996,1.8024809,-1.0007273,0.94193953,-1.1168274,-1.9544523,-0.8038973,1.9575253,1.7533158,-0.9683244,-1.4916661,0.57704866,-0.49579364,1.3247313,0.068270944,0.4051273,-0.247928,-0.16179657,-0.6930952,0.7504651,-1.4821104,0.5509154,0.57623464,-0.14215088,-0.6440692,0.7004666,0.92474276,-0.0935903,0.124576665,0.34723502,-1.285338,0.43770215,0.48017117,0.0,1.0,0.0,0.0,0.0,0.0,0.0,-0.4882034,0.2930952,-0.20046508,0.3251791,-5.3141356,-30.339218,2.044773,-7.015236,-0.14769435,-0.3435582
-14.17897,0.5684271,-7.631057,3.5681376,-0.7221018,-0.9063894,-0.043237146,-0.8311367,0.15258163,-0.46773976,0.75774026,-0.23939905,0.5313604,-0.29369625,0.85882586,-1.1015692,-2.0012262,-0.7281233,1.9335854,1.8064518,-0.9976941,0.9270498,-1.1119674,-1.9612844,-0.79051155,1.9572258,1.757348,-0.9707639,-1.4878247,0.45573765,-0.7469035,1.3428792,-0.06158612,0.40363064,-0.24305601,-0.17660522,-0.6875901,0.755471,-1.4806285,0.5503646,0.47537935,-0.1550293,-0.6400161,0.7042958,0.9290009,-0.096200004,0.1307406,0.33258048,-1.2843516,0.40579662,0.35112804,0.0,1.0,0.0,0.0,0.0,0.0,0.0,-0.47339475,0.28759012,-0.20547098,0.4645586,-12.068439,-25.471544,1.7362595,-12.619105,0.15636683,0.37058294
-10.159431,1.4756508,-5.769128,2.4959874,-0.5908939,-0.82752633,0.054958317,-0.8237749,0.103773355,-0.51150346,0.76331466,-0.28839827,0.52845263,-0.25461015,0.8446723,-1.1015902,-2.0124347,-0.7141801,1.928386,1.8101932,-0.99622494,0.9122316,-1.1084713,-1.9700601,-0.7769703,1.9555798,1.7613667,-0.97312236,-1.479487,0.3144693,-0.92195004,1.3577499,-0.1978808,0.4020688,-0.23374791,-0.19139862,-0.68209076,0.7594691,-1.4791483,0.54981434,0.37462488,-0.16791534,-0.63626766,0.7068769,0.9330945,-0.097454205,0.13758317,0.31766024,-1.2839099,0.37546498,0.22840741,0.0,1.0,0.0,0.0,0.0,0.0,0.0,-0.45860136,0.28209075,-0.20946908,0.91741085,-14.076871,-17.750145,1.4657497,-13.357243,0.089651346,0.8052081
-7.2905655,8.727523,-2.4704413,2.87734,-0.34636733,-0.6724991,0.14894688,-0.8222993,0.046937257,-0.55036294,0.76329565,-0.33603695,0.5261802,-0.1578974,0.8300017,-1.1037775,-2.0250964,-0.70064074,1.9219761,1.8139848,-0.9889121,0.89749354,-1.1063808,-1.980068,-0.76332897,1.9526653,1.7653664,-0.9753187,-1.4717249,0.17386097,-1.0272818,1.3662988,-0.3224172,0.3996583,-0.21526846,-0.20617676,-0.6765971,0.76246035,-1.4776695,0.54926467,0.2739711,-0.1807785,-0.6327653,0.7083479,0.9369628,-0.097584434,0.14485279,0.3026475,-1.2842776,0.35249677,0.12149574,0.0,1.0,0.0,0.0,0.0,0.0,0.0,-0.44382322,0.2765971,-0.21246034,0.8336067,-14.043975,-10.592997,0.86705685,-12.345332,-0.09295344,1.7168462
-6.3641577,13.439047,-0.5277705,3.4771585,-0.10192913,-0.5971336,0.19116808,-0.82089114,-0.024461715,-0.59747803,0.76492584,-0.37611714,0.4930456,-0.10740836,0.8154044,-1.108827,-2.0398157,-0.68683636,1.9150536,1.814671,-0.9860595,0.8828203,-1.1056751,-1.990835,-0.74963325,1.9486618,1.7693146,-0.9773004,-1.4657396,0.03611691,-1.0928785,1.3707289,-0.42636442,0.39334932,-0.19279668,-0.22093964,-0.67110825,0.76444584,-1.4761921,0.54871553,0.17341799,-0.19367981,-0.6294584,0.70882624,0.94057834,-0.096751206,0.15233475,0.2876555,-1.2878803,0.3339639,0.024855629,0.0,1.0,0.0,0.0,0.0,0.0,0.0,-0.42906034,0.27110824,-0.21444583,0.64058304,-13.78173,-6.5051317,0.48565865,-10.397309,-0.56307316,2.125603
-7.0601616,24.104713,2.525977,5.864172,0.21998611,-0.45819986,0.1983751,-0.8239044,-0.06789741,-0.62745243,0.7710472,-0.39446735,0.46054044,-0.03373627,0.8004299,-1.1124648,-2.0535803,-0.6725285,1.9092151,1.8153687,-0.980674,0.86816996,-1.1061844,-2.0020654,-0.7358908,1.943821,1.7731713,-0.9790189,-1.4647799,-0.080061585,-1.1322654,1.3755302,-0.5039181,0.38300648,-0.16527829,-0.23568726,-0.6656251,0.7654266,-1.4747162,0.54816693,0.0729654,-0.20663452,-0.62626314,0.7084842,0.9439299,-0.09510475,0.15989025,0.27273858,-1.294492,0.32496223,-0.052364226,0.0,1.0,0.0,0.0,0.0,0.0,0.0,-0.41431272,0.2656251,-0.21542656,0.104141235,-11.673964,-3.702879,0.52785873,-7.9378185,-1.0743678,2.6274471
-1.6048849,54.82463,11.13611,9.757885,0.41548917,-0.104059815,0.23417056,-0.81410605,-0.034585148,-0.61128217,0.7675976,-0.4062951,0.49740198,0.011412251,0.7867594,-1.1096429,-2.0631936,-0.65913105,1.9031914,1.8229115,-0.9778777,0.8535511,-1.1073421,-2.0133874,-0.7221388,1.9383736,1.7769498,-0.98045516,-1.4614015,-0.12800294,-1.12973,1.3748369,-0.5606032,0.37545994,-0.13717721,-0.25042725,-0.66014767,0.76540357,-1.4732417,0.54761887,-0.027386757,-0.2195282,-0.6229811,0.7077437,0.9469636,-0.09296261,0.16753426,0.25797287,-1.2842898,0.33963212,-0.07978933,0.0,1.0,0.0,0.0,0.0,0.0,0.0,-0.39957273,0.26014766,-0.21540356,0.20241737,-4.9551845,1.0135651,-0.16515255,-6.3416243,-0.9583175,2.5952935
-5.017402,35.544155,5.7344017,7.1124635,0.486032,-0.33708477,0.23546302,-0.82146084,-0.17094208,-0.66187143,0.75622475,-0.41481996,0.44434613,0.04352659,0.771405,-1.1244364,-2.0795746,-0.6465163,1.8968916,1.8213844,-0.9761025,0.83892936,-1.1092933,-2.0248163,-0.7084536,1.9325237,1.7806271,-0.98161006,-1.4625126,-0.2179956,-1.1457582,1.3664825,-0.5944367,0.36453548,-0.108797155,-0.26515198,-0.65467596,0.7643778,-1.4717687,0.54707134,-0.1276386,-0.23244476,-0.61965704,0.7064989,0.94971323,-0.090269476,0.17509747,0.24338646,-1.2891345,0.33990696,-0.13822953,0.0,1.0,0.0,0.0,0.0,0.0,0.0,-0.384848,0.25467595,-0.21437776,-0.15571117,-9.0956745,-1.1594772,-0.82292557,-3.7758827,-1.2326598,2.7013392
-7.9659443,23.37503,2.0800776,5.635625,0.37034518,-0.49307,0.27607447,-0.82422096,-0.24704526,-0.7000061,0.75858027,-0.4838305,0.39117113,0.18268238,0.7565073,-1.1339979,-2.094817,-0.63259554,1.8841407,1.8197442,-0.96334183,0.824279,-1.1123317,-2.0365732,-0.69483894,1.9262657,1.7841653,-0.9824045,-1.46577,-0.3325246,-1.184629,1.3602016,-0.63696045,0.3498167,-0.07001616,-0.27986145,-0.649209,0.7623502,-1.4702973,0.5465244,-0.22779018,-0.24546051,-0.6163969,0.70451486,0.9522143,-0.08681599,0.182508,0.22900163,-1.3020009,0.3313621,-0.21733421,0.0,1.0,0.0,0.0,0.0,0.0,0.0,-0.37013853,0.24920902,-0.21235019,-0.30241013,-11.516344,-3.6651134,-0.5222082,-4.4519663,-1.5713274,3.7881017
-7.1305842,14.956471,0.06553769,3.5209675,0.23272881,-0.5991298,0.32970816,-0.8159772,-0.32429653,-0.710681,0.75672174,-0.5200854,0.35498524,0.2710863,0.74268126,-1.1447614,-2.1076412,-0.6191668,1.8742572,1.8196638,-0.95529586,0.8096382,-1.1166672,-2.0487459,-0.68127483,1.9195652,1.7875394,-0.9827726,-1.4633772,-0.46731398,-1.2278408,1.3557405,-0.6814496,0.33304593,-0.025992865,-0.29455566,-0.6437478,0.75932187,-1.4688274,0.54597795,-0.3278416,-0.25860596,-0.61327124,0.7016358,0.95448285,-0.08248077,0.18970588,0.21487422,-1.31752,0.3165898,-0.31057283,0.0,1.0,0.0,0.0,0.0,0.0,0.0,-0.3554443,0.2437478,-0.20932186,0.3023386,-13.5173855,-4.2404175,-0.2758503,-4.5220137,-1.7641068,4.349856
-8.939739,11.8719425,-0.9393048,3.3068361,0.23766604,-0.63309556,0.34736013,-0.8227391,-0.39333645,-0.739515,0.7515192,-0.54023206,0.2735503,0.34647483,0.7273643,-1.1560009,-2.1226974,-0.6061229,1.8655419,1.8148944,-0.9481251,0.79499835,-1.1223892,-2.0613992,-0.66775745,1.912447,1.7906979,-0.98268104,-1.4639266,-0.6072175,-1.2782546,1.351135,-0.72210026,0.3098415,0.020789031,-0.30923462,-0.6382923,0.7552937,-1.4673588,0.5454321,-0.42779306,-0.27196503,-0.6102977,0.69778496,0.9565377,-0.077178,0.1966386,0.20102845,-1.3375795,0.3012005,-0.40942273,0.0,1.0,0.0,0.0,0.0,0.0,0.0,-0.34076536,0.2382923,-0.20529372,0.03631115,-14.030445,-5.027342,-0.22683144,-4.091382,-2.434492,4.65658
-8.083409,20.843712,1.2222261,4.56693,0.27302894,-0.48674506,0.37434003,-0.8235806,-0.4333551,-0.74616516,0.7462413,-0.5778874,0.2615223,0.4243359,0.7126403,-1.1657248,-2.1360157,-0.59313333,1.8546582,1.8168502,-0.9402474,0.7803442,-1.1293586,-2.074476,-0.6542992,1.9048939,1.7936314,-0.9821098,-1.4657296,-0.7270829,-1.3165514,1.3447568,-0.7671378,0.28716287,0.06911856,-0.32389832,-0.63284206,0.75026685,-1.4658917,0.54488677,-0.5276446,-0.2854843,-0.60741806,0.6930434,0.9583667,-0.07094429,0.20333531,0.1874964,-1.3520076,0.2942528,-0.49529478,0.0,1.0,0.0,0.0,0.0,0.0,0.0,-0.32610166,0.23284206,-0.20026684,-0.12853146,-12.061191,-3.6442518,-0.42862892,-4.701543,-2.44205,4.7887535
-7.0693636,34.755516,4.3531294,6.7096634,0.3776216,-0.3402121,0.390456,-0.82938164,-0.45619392,-0.7598721,0.7297587,-0.5942358,0.1609955,0.47776428,0.69740605,-1.174978,-2.150463,-0.5813233,1.8454703,1.809731,-0.9343334,0.7656414,-1.1372722,-2.087858,-0.64097446,1.8969135,1.7962807,-0.98106647,-1.4718741,-0.8131313,-1.3439057,1.3289379,-0.80976355,0.25681543,0.115819596,-0.33854675,-0.62739706,0.7442422,-1.464426,0.544342,-0.6273962,-0.29907227,-0.60453653,0.6876011,0.9599498,-0.06385809,0.20984538,0.17430848,-1.3582053,0.29715332,-0.5605089,0.0,1.0,0.0,0.0,0.0,0.0,0.0,-0.31145322,0.22739705,-0.19424218,-0.63102245,-8.723677,-2.2818804,-1.4503956,-4.734957,-3.2752395,4.577124
-5.854141,43.72292,6.2997446,7.7164025,0.46032006,-0.27487665,0.4026767,-0.8369478,-0.48828053,-0.77313775,0.7013326,-0.5977468,0.020786876,0.48266524,0.68194664,-1.1861002,-2.1651716,-0.5708412,1.8371389,1.7983594,-0.93279994,0.75084066,-1.1458673,-2.101502,-0.62795234,1.8886918,1.7985839,-0.979637,-1.4830153,-0.8755996,-1.3689208,1.2937144,-0.82931006,0.21825334,0.15279812,-0.35281372,-0.6221466,0.7383519,-1.4147706,0.53110516,-0.58521223,-0.31269836,-0.6015835,0.6815964,0.96129227,-0.05598349,0.21612245,0.1614748,-1.3600787,0.30544937,-0.61396676,0.0,1.0,0.0,0.0,0.0,0.0,0.0,-0.29718626,0.2221466,-0.18835187,-1.1635542,-6.3992977,-1.4744043,-3.2635212,-3.5849094,-4.2180357,3.7320228
-3.6887195,50.08321,7.9598875,8.307713,0.6695486,-0.21364558,0.39812154,-0.83592427,-0.5215766,-0.764031,0.6872152,-0.56719685,-0.07023433,0.5213334,0.66724825,-1.198025,-2.177905,-0.5592308,1.8319721,1.7915604,-0.9275037,0.7359462,-1.1549997,-2.1152382,-0.61530054,1.8803742,1.800415,-0.97782606,-1.4920079,-0.926053,-1.3725301,1.2556968,-0.8352028,0.17013839,0.19012192,-0.36681366,-0.6167855,0.7321444,-1.3944532,0.5383553,-0.63109493,-0.32630157,-0.59852505,0.6751457,0.9624097,-0.04739555,0.22205795,0.14903475,-1.3586507,0.3174269,-0.6556787,0.0,1.0,0.0,0.0,0.0,0.0,0.0,-0.28318632,0.21678552,-0.1821444,-1.0049105,-5.1939607,0.40931702,-3.7910223,-1.3913512,-5.161577,3.6239595
-0.89085054,50.22741,8.232753,7.291734,0.7153,-0.2868036,0.41651326,-0.8353638,-0.56104517,-0.75997335,0.6582109,-0.5448806,-0.2754496,0.54483604,0.6524098,-1.2111043,-2.1912355,-0.5494794,1.8258861,1.7728701,-0.92334247,0.7209897,-1.1646414,-2.1289208,-0.6030856,1.872112,1.8016464,-0.97566414,-1.4973398,-0.97720206,-1.3642056,1.2099658,-0.8257267,0.10623826,0.22451153,-0.3806076,-0.6113558,0.72546095,-1.3736432,0.54477733,-0.67838156,-0.33992004,-0.5953655,0.6682876,0.9633353,-0.038144086,0.22749634,0.13702342,-1.355829,0.32688946,-0.69640344,0.0,1.0,0.0,0.0,0.0,0.0,0.0,-0.26939237,0.21135578,-0.17546093,-0.6515026,-5.250621,1.6223669,-4.5854807,0.11719465,-6.734186,3.3363967
1.984185,40.30525,6.5908813,3.8807213,0.67776126,-0.38300633,0.45990115,-0.8363634,-0.6288376,-0.74101347,0.6112682,-0.486815,-0.39737543,0.5581026,0.63735336,-1.2275251,-2.2030222,-0.54195875,1.8234305,1.7619088,-0.91985387,0.70600176,-1.1749679,-2.142409,-0.591446,1.8641347,1.8022015,-0.97318745,-1.4996256,-1.0515196,-1.3417723,1.1487036,-0.7904927,0.037495766,0.25515774,-0.39424133,-0.605896,0.71818113,-1.3598666,0.54647946,-0.74329126,-0.35350037,-0.592155,0.6609123,0.96412945,-0.028260449,0.23216887,0.12551185,-1.356667,0.3306502,-0.75211877,0.0,1.0,0.0,0.0,0.0,0.0,0.0,-0.25575864,0.20589599,-0.16818112,-0.30987263,-7.5263023,2.8574467,-6.092167,2.8549433,-7.2146335,3.011897
0.77815104,52.817295,8.896941,7.712428,0.99091375,-0.17451566,0.34434167,-0.8340481,-0.61916715,-0.7309027,0.6315452,-0.5037264,-0.38003367,0.5498921,0.622597,-1.2368846,-2.2154994,-0.52829146,1.8137621,1.7641982,-0.9181982,0.69101477,-1.1858608,-2.155638,-0.58021533,1.8564526,1.8021386,-0.97044575,-1.498761,-1.1023177,-1.3138462,1.1145048,-0.76343524,-0.022299754,0.28014183,-0.4076767,-0.60038424,0.71041167,-1.3376027,0.55278254,-0.78688484,-0.3670807,-0.58882904,0.6531343,0.96479875,-0.01789491,0.23611672,0.114419825,-1.3544956,0.34479997,-0.7873632,0.0,1.0,0.0,0.0,0.0,0.0,0.0,-0.24232328,0.20038423,-0.16041166,-0.040006638,-5.209565,3.6089182,-3.4333706,1.8599391,-6.3636065,2.404958
1.9299021,58.243515,10.330235,9.185552,1.4604664,-0.055791974,0.2512256,-0.82295007,-0.64791167,-0.69915277,0.6267375,-0.36180916,-0.38693702,0.56328106,0.60871977,-1.250652,-2.2255533,-0.5175416,1.8202716,1.7634449,-0.91411763,0.67609644,-1.1972171,-2.1684892,-0.5692011,1.849408,1.8015398,-0.9674761,-1.4901112,-1.1471876,-1.2723776,1.0969831,-0.68779653,-0.073997,0.30237803,-0.42088318,-0.5948019,0.70226675,-1.3138174,0.56072104,-0.82257795,-0.38066864,-0.5853114,0.6450994,0.96538234,-0.007316546,0.23923945,0.1036717,-1.3554224,0.36586946,-0.8099881,0.0,1.0,0.0,0.0,0.0,0.0,0.0,-0.2291168,0.1948019,-0.15226674,0.71377754,-4.6243906,5.046582,-1.7959833,6.6596866,-5.614242,2.1569133
1.6732175,65.94468,11.707904,11.063936,1.7616202,0.09509122,0.20218721,-0.82742214,-0.6500284,-0.67966527,0.59711593,-0.27783072,-0.4151141,0.57229483,0.5933542,-1.2622199,-2.2364557,-0.50948954,1.821625,1.7600284,-0.9102467,0.6612411,-1.2088844,-2.1808982,-0.5583969,1.8433104,1.8004643,-0.9643052,-1.4845891,-1.1736664,-1.2270589,1.0746032,-0.5871844,-0.12041191,0.32182664,-0.433815,-0.58913326,0.69384944,-1.2858547,0.5700396,-0.84786797,-0.39424896,-0.58152914,0.63693756,0.96591526,0.0032711728,0.24146502,0.09322836,-1.3546364,0.3940532,-0.81953126,0.0,1.0,0.0,0.0,0.0,0.0,0.0,-0.21618497,0.18913326,-0.14384943,0.37186146,-2.795744,5.555105,-2.3278475,9.047389,-5.117163,1.867491
8.107436,63.19357,11.981335,7.994926,1.8837178,0.10618132,0.2445154,-0.8112038,-0.68065184,-0.64498353,0.5370193,-0.047958642,-0.4410095,0.56156075,0.58012074,-1.2769495,-2.2453966,-0.50469494,1.8385144,1.7563633,-0.9081491,0.6464983,-1.2208358,-2.1927922,-0.5480419,1.8387713,1.7989634,-0.96097183,-1.4714376,-1.2027458,-1.1734314,1.0219249,-0.41257885,-0.16166082,0.33705935,-0.4464798,-0.58338785,0.6851256,-1.2602243,0.5769756,-0.8798064,-0.4078064,-0.5774784,0.62866324,0.9664805,0.013646283,0.24251217,0.08316801,-1.3514736,0.42038932,-0.8313358,0.0,1.0,0.0,0.0,0.0,0.0,0.0,-0.20352018,0.18338785,-0.13512558,1.1236191,-3.023219,6.3431025,-5.40545,16.501003,-4.6022863,1.463592
15.805456,67.7067,13.2645855,6.003846,1.6198561,0.18301737,0.33847517,-0.7964955,-0.67122996,-0.61303604,0.47557044,0.012780688,-0.47037217,0.5739324,0.56684875,-1.2879589,-2.2540958,-0.5004848,1.8400494,1.7519262,-0.9035786,0.6319376,-1.2329532,-2.204118,-0.5384527,1.8359715,1.7970792,-0.9575005,-1.4517138,-1.2148389,-1.1150662,0.9370814,-0.23920791,-0.19878049,0.35019085,-0.4588318,-0.5775924,0.67614883,-1.2264506,0.581075,-0.90362436,-0.42121124,-0.57319975,0.6203037,0.9671107,0.023690764,0.24231201,0.07362321,-1.3321565,0.44220352,-0.8385508,0.0,1.0,0.0,0.0,0.0,0.0,0.0,-0.19116819,0.17759237,-0.12614882,1.7401695,-1.3020039,6.8941116,-8.7216015,16.317055,-4.145813,1.206106
15.897721,72.29243,13.596545,6.992744,1.4929991,0.24863923,0.336556,-0.79553014,-0.662962,-0.59750766,0.43993732,0.043859236,-0.5232816,0.5687855,0.5523846,-1.2992494,-2.2638688,-0.49445894,1.8403574,1.7447511,-0.90062195,0.61754954,-1.2450763,-2.2149208,-0.5297635,1.8346772,1.7948308,-0.9539197,-1.4353385,-1.2117819,-1.0654229,0.8454053,-0.09605813,-0.23492542,0.36029842,-0.47081757,-0.57176733,0.6669801,-1.1876227,0.58345056,-0.9198733,-0.43437195,-0.5687089,0.6119087,0.9677887,0.03341505,0.24102616,0.06461199,-1.3062174,0.46286854,-0.8411582,0.0,1.0,0.0,0.0,0.0,0.0,0.0,-0.17918241,0.17176732,-0.116980076,1.4047623,0.21772385,6.0238123,-9.423006,13.302645,-4.0031047,0.87586045
18.289858,71.9382,12.952375,5.116314,0.9703105,0.25295883,0.47007707,-0.798794,-0.64629835,-0.6075806,0.32104677,0.087117374,-0.57681465,0.5775161,0.53767014,-1.3097061,-2.2756789,-0.49765885,1.8433889,1.7371494,-0.8961681,0.60326254,-1.2570449,-2.2254303,-0.52234775,1.8345896,1.7922258,-0.9502482,-1.4272503,-1.1922524,-1.043054,0.7060719,0.017076705,-0.27016756,0.3689365,-0.4823761,-0.5659523,0.65764993,-1.1453447,0.5816202,-0.9373513,-0.4472046,-0.56406736,0.60342914,0.96847767,0.04298876,0.23883437,0.056222614,-1.2686418,0.47573376,-0.851638,0.0,1.0,0.0,0.0,0.0,0.0,0.0,-0.16762388,0.1659523,-0.10764992,0.58882236,1.89116,3.1958103,-14.211262,10.371067,-3.8541317,0.7071376
18.47749,76.73942,13.382366,6.4343643,0.8828113,0.313106,0.45271468,-0.7882968,-0.6265643,-0.589342,0.27783495,0.10998982,-0.5894153,0.574793,0.52443284,-1.3197013,-2.2843645,-0.49456427,1.8455886,1.7332844,-0.89276886,0.5890604,-1.2687255,-2.2357762,-0.5162932,1.8353952,1.7892983,-0.94650483,-1.4185704,-1.160058,-1.0287106,0.5709695,0.09888553,-0.30123243,0.37561512,-0.49347687,-0.56017065,0.6482141,-1.0985293,0.57752365,-0.94646657,-0.45960236,-0.5593071,0.59488475,0.96913934,0.052492138,0.23593415,0.048461962,-1.2259994,0.48675126,-0.8566487,0.0,1.0,0.0,0.0,0.0,0.0,0.0,-0.15652311,0.16017064,-0.09821409,0.65591335,3.1721592,2.3250341,-13.802457,7.3254294,-3.3929646,0.49189925
21.916668,70.529686,12.581734,3.555002,0.68884397,0.29141486,0.52719986,-0.7842249,-0.633635,-0.55153126,0.16414899,0.20183653,-0.59885305,0.5570642,0.51063794,-1.3320891,-2.2909293,-0.49987832,1.8555789,1.729413,-0.8907984,0.57493937,-1.2801563,-2.245885,-0.51178515,1.8370447,1.7860943,-0.94271696,-1.4105074,-1.1373581,-1.0025681,0.40987498,0.1847498,-0.3275394,0.3794121,-0.50413513,-0.55444956,0.6386094,-1.0549943,0.570595,-0.9648375,-0.47156525,-0.5544777,0.5862106,0.9697934,0.06190196,0.2322826,0.041397836,-1.1812222,0.4919067,-0.87232983,0.0,1.0,0.0,0.0,0.0,0.0,0.0,-0.14586484,0.15444955,-0.0886094,0.63073635,2.2566795,3.3085585,-16.373474,7.91809,-2.8724134,0.23376942
28.600483,61.318752,11.645632,-1.6778833,0.30797258,0.24498057,0.6907075,-0.78223675,-0.633426,-0.51762265,-0.00066629,0.3020362,-0.6115501,0.539157,0.4967157,-1.3434988,-2.2976472,-0.5118518,1.8672483,1.7249393,-0.8888013,0.5608889,-1.2914325,-2.2556238,-0.5092999,1.8396714,1.7826576,-0.93891096,-1.4036989,-1.1241671,-0.96304333,0.19402464,0.2872731,-0.3496463,0.3806588,-0.51438904,-0.54882336,0.6287207,-1.0151465,0.5602276,-0.9970453,-0.48303223,-0.549665,0.5772532,0.97049385,0.07117962,0.2276724,0.03521808,-1.1302826,0.48751178,-0.9049561,0.0,1.0,0.0,0.0,0.0,0.0,0.0,-0.13561094,0.14882335,-0.07872069,0.5510807,1.3502598,4.3817997,-21.817842,9.824976,-2.3896515,0.021058321
17.324898,77.57662,14.398711,8.396301,1.8059009,0.5342088,0.2938941,-0.78454727,-0.6165667,-0.38073996,0.07138685,0.38140818,-0.59069216,0.52867174,0.48243415,-1.3530892,-2.2936978,-0.5021612,1.8778121,1.7235885,-0.8860438,0.5468746,-1.3025638,-2.264398,-0.50823087,1.843392,1.7790408,-0.93510205,-1.4010435,-1.1093489,-0.8477487,0.07727803,0.39913455,-0.36664036,0.380893,-0.52423096,-0.5432682,0.61871207,-0.97463983,0.5553562,-1.0037543,-0.49414062,-0.54470634,0.5682748,0.97130626,0.07989367,0.22204056,0.02964986,-1.1006347,0.50792396,-0.89717495,0.0,1.0,0.0,0.0,0.0,0.0,0.0,-0.12576902,0.1432682,-0.068712056,0.14891624,1.4981747,11.897135,-11.870459,10.878539,-1.8615007,-0.054335594
