Afshin1997/kuka_rl_ros2/src/catch_and_throw/input_files/idealpd/recorded_trajectories/env_396_data.csv
torque0,torque1,torque2,torque3,torque4,torque5,torque6,action0,action1,action2,action3,action4,action5,action6,set_target_0,set_target_1,set_target_2,set_target_3,set_target_4,set_target_5,set_target_6,joint_pos_0,joint_pos_1,joint_pos_2,joint_pos_3,joint_pos_4,joint_pos_5,joint_pos_6,joint_vel_0,joint_vel_1,joint_vel_2,joint_vel_3,joint_vel_4,joint_vel_5,joint_vel_6,tennisball_pos_0,tennisball_pos_1,tennisball_pos_2,tennisball_lin_vel_0,tennisball_lin_vel_1,tennisball_lin_vel_2,end_effector_pos_0,end_effector_pos_1,end_effector_pos_2,end_effector_rot_0,end_effector_rot_1,end_effector_rot_2,end_effector_rot_3,end_effector_lin_vel_0,end_effector_lin_vel_1,end_effector_lin_vel_2,obs_task_0,obs_task_1,obs_task_2,obs_task_3,obs_task_4,obs_task_5,obs_task_6,to_final_target_0,to_final_target_1,to_final_target_2,joint_acc_0,joint_acc_1,joint_acc_2,joint_acc_3,joint_acc_4,joint_acc_5,joint_acc_6
0.0,0.0,0.0,0.0,0.0,0.0,0.0,0.0,0.0,0.0,0.0,0.0,0.0,0.0,1.7802359,-1.0646509,-1.8151424,-1.1170107,1.9373155,1.1170107,-0.91629785,1.7802359,-1.0646509,-1.8151424,-1.1170107,1.9373155,1.1170107,-0.91629785,0.0,0.0,0.0,0.0,0.0,0.0,0.0,3.2061539,-0.24521637,0.38629547,-3.674566,-0.47937244,4.7834744,0.5304184,-0.45448303,0.693097,0.5745483,0.17512383,0.15255436,0.7848268,0.0,0.0,0.0,1.0,0.0,0.0,0.0,0.0,0.0,0.0,-3.856154,-0.15478364,0.16370454,0.0,0.0,0.0,0.0,0.0,0.0,0.0
0.0,0.0,0.0,0.0,0.0,0.0,0.0,0.0,0.0,0.0,0.0,0.0,0.0,0.0,1.7802359,-1.0646509,-1.8151424,-1.1170107,1.9373155,1.1170107,-0.91629785,1.7802359,-1.0646509,-1.8151424,-1.1170107,1.9373155,1.1170107,-0.91629785,0.0,0.0,0.0,0.0,0.0,0.0,0.0,3.2061539,-0.24521637,0.38629547,-3.674566,-0.47937244,4.7834744,0.5304184,-0.45448303,0.693097,0.5745483,0.17512383,0.15255436,0.7848268,0.0,0.0,0.0,1.0,0.0,0.0,0.0,0.0,0.0,0.0,-3.856154,-0.15478364,0.16370454,0.0,0.0,0.0,0.0,0.0,0.0,0.0
0.0,0.0,0.0,0.0,0.0,0.0,0.0,0.0,0.0,0.0,0.0,0.0,0.0,0.0,1.7802359,-1.0646509,-1.8151424,-1.1170107,1.9373155,1.1170107,-0.91629785,1.7802359,-1.0646509,-1.8151424,-1.1170107,1.9373155,1.1170107,-0.91629785,0.0,0.0,0.0,0.0,0.0,0.0,0.0,3.2061539,-0.24521637,0.38629547,-3.674566,-0.47937244,4.7834744,0.5304184,-0.45448303,0.693097,0.5745483,0.17512383,0.15255436,0.7848268,0.0,0.0,0.0,1.0,0.0,0.0,0.0,0.0,0.0,0.0,-3.856154,-0.15478364,0.16370454,0.0,0.0,0.0,0.0,0.0,0.0,0.0
-176.0,74.155014,-3.4820614,110.0,10.038382,4.930417,-3.9244313,-0.7977411,0.36730847,-0.5297189,0.72082746,-0.004190797,0.6733305,-0.5828471,1.7004617,-1.02792,-1.8681142,-1.044928,1.9368964,1.1843438,-0.97458255,1.77871,-1.0624174,-1.8204429,-1.1124521,1.9411111,1.1216589,-0.9176807,-0.20320642,0.2972884,-0.7059885,0.6079658,0.5053642,0.618278,-0.18405305,3.1694336,-0.25000763,0.43335786,-3.6708922,-0.47889316,4.6805053,0.528347,-0.45748138,0.6939441,0.57825446,0.17363149,0.15159608,0.782619,-0.27621418,-0.39782104,0.11286162,1.0,0.0,0.0,0.0,0.0,0.0,0.0,-3.8194337,-0.14999238,0.11664215,-20.264442,29.542225,-70.4305,60.870564,50.326393,61.367725,-18.318853
-176.0,11.212484,-30.089914,110.0,11.297591,2.7937858,-3.5752666,-0.7997583,0.049477056,-0.5574997,0.7050252,0.21218625,0.6453485,-0.6072988,1.6987342,-1.0574697,-1.8761929,-1.0419496,1.9623297,1.1861938,-0.97841054,1.7763544,-1.0584863,-1.8345058,-1.0999476,1.9500718,1.1339422,-0.91934866,-0.24439141,0.42340004,-1.6408745,1.4669179,1.0263324,1.4263656,-0.15876594,3.1327515,-0.2547989,0.47939134,-3.667222,-0.47841436,4.577639,0.5236168,-0.4650879,0.69522834,0.5866576,0.17006214,0.14889391,0.7776517,-0.5403969,-0.8804188,0.13407387,1.0,0.0,0.0,0.0,0.0,0.0,0.0,-3.7827516,-0.14520112,0.070608675,-3.5403013,12.100381,-93.83745,86.58636,52.06207,79.23711,3.2450347
-152.9192,120.74293,32.712967,92.86656,7.7836943,7.6526914,-2.020228,-0.7532805,0.35095894,0.017007506,0.6139429,0.3203854,0.64070743,-0.5579337,1.7010264,-1.0233904,-1.832805,-1.0385532,1.9821104,1.198013,-0.975142,1.7707735,-1.053243,-1.849345,-1.0835844,1.9604268,1.1480929,-0.9212255,-0.6630803,0.5547332,-1.4251322,1.6936959,1.0337743,1.4046116,-0.19896989,3.0961075,-0.2595749,0.52439696,-3.6635556,-0.47793603,4.474876,0.516037,-0.47530365,0.6982414,0.59800416,0.16485976,0.14518589,0.7708004,-0.8368949,-1.0640467,0.36113197,1.0,0.0,0.0,0.0,0.0,0.0,0.0,-3.7461076,-0.14042512,0.025603056,-41.994987,12.153828,23.516703,22.945332,-0.68969727,-4.2227745,-4.497263
-94.16676,134.81113,48.967,60.63301,4.65071,8.062556,-0.59409446,-0.7700977,0.33063376,0.07443119,0.60697955,0.3682617,0.6136468,-0.5641081,1.6937637,-1.0201796,-1.8419019,-1.0228865,1.997253,1.2094575,-0.9776363,1.76113,-1.0472158,-1.8594387,-1.067084,1.9699082,1.1612383,-0.9234876,-1.0663819,0.6160261,-0.86287254,1.6357331,0.91457313,1.2799258,-0.23770858,3.0595016,-0.2643509,0.5683757,-3.6598928,-0.47745818,4.3722157,0.50597,-0.4861145,0.7034659,0.6104355,0.15819335,0.14075446,0.76323754,-1.0736244,-1.0743738,0.5813318,1.0,0.0,0.0,0.0,0.0,0.0,0.0,-3.7095017,-0.13564911,-0.018375695,-40.770447,5.3569674,58.56372,-5.755067,-13.471376,-13.846326,-4.569623
-40.85303,143.13313,55.19428,34.576744,1.7777622,7.046113,0.10667032,-0.79472584,0.45097327,0.01738245,0.59472096,0.43762106,0.6020033,-0.5641042,1.6816574,-1.0021185,-1.8577005,-1.0076119,2.0136704,1.2214386,-0.97989804,1.7481791,-1.0403455,-1.8639934,-1.0522429,1.9781346,1.1729647,-0.92611593,-1.3728015,0.70881957,-0.31301206,1.4330808,0.78825325,1.1343976,-0.2734519,3.0229301,-0.2691269,0.6113286,-3.6562335,-0.4769808,4.269658,0.4941635,-0.4961853,0.7106257,0.62282115,0.15029715,0.13594314,0.75566125,-1.2277097,-0.97172403,0.76415354,1.0,0.0,0.0,0.0,0.0,0.0,0.0,-3.6729302,-0.13087311,-0.06132859,-31.14419,8.7271805,56.936802,-20.421696,-13.765705,-15.282774,-4.273176
2.358663,141.01512,55.140667,16.494583,-0.1289519,5.491456,0.4124886,-0.7989798,0.5352608,0.06792258,0.5910928,0.49219847,0.5974326,-0.5729496,1.6682811,-0.98681945,-1.8572011,-0.9931336,2.0273545,1.232708,-0.9834109,1.733214,-1.03235,-1.864085,-1.0394827,1.9854665,1.1833597,-0.92906183,-1.5390517,0.82851315,0.09694394,1.22286,0.71269685,1.0069032,-0.30373403,2.986393,-0.27388763,0.65325665,-3.652578,-0.4765039,4.167203,0.48140717,-0.5048523,0.71932626,0.63462055,0.14148012,0.13110732,0.74836546,-1.3016692,-0.8166504,0.90624243,1.0,0.0,0.0,0.0,0.0,0.0,0.0,-3.636393,-0.12611237,-0.10325664,-17.064428,11.581612,42.410503,-21.228361,-8.243084,-13.0369425,-3.6319315
29.512766,141.29547,54.85667,7.770639,-1.1594917,4.3765707,0.4495234,-0.80124736,0.6275559,0.16059972,0.58704716,0.5130519,0.6026737,-0.55296236,1.6530893,-0.96959436,-1.848025,-0.980778,2.0367718,1.2436271,-0.9843581,1.7174498,-1.022941,-1.8611133,-1.0284067,1.9923825,1.1926428,-0.9322538,-1.5901048,0.97726035,0.36729428,1.0686324,0.68336725,0.9018656,-0.3262235,2.949894,-0.27864838,0.69416094,-3.6489263,-0.4760275,4.0648503,0.46830368,-0.51182556,0.72932,0.645676,0.13191935,0.12649916,0.74141604,-1.3213875,-0.6422479,1.0294924,1.0,0.0,0.0,0.0,0.0,0.0,0.0,-3.599894,-0.12135163,-0.14416093,-5.459571,14.573729,28.086466,-15.585279,-3.3473372,-10.584164,-2.7810931
38.46333,127.98534,48.090157,4.2805586,-1.4466653,3.1613154,0.3321692,-0.79936373,0.67801267,0.19301338,0.58263135,0.5209069,0.61936986,-0.5293058,1.6375134,-0.95513976,-1.841812,-0.9701436,2.0444732,1.2545798,-0.9851844,1.7017161,-1.0121015,-1.8564746,-1.0183455,1.9992261,1.2010332,-0.93561643,-1.5684534,1.1189849,0.49848178,0.98502153,0.6840456,0.8181372,-0.340952,2.913433,-0.28340912,0.7340425,-3.645278,-0.47555155,3.9626002,0.45521927,-0.51717377,0.74030244,0.65606123,0.12182,0.12228254,0.73470426,-1.3096733,-0.4855685,1.1191932,1.0,0.0,0.0,0.0,0.0,0.0,0.0,-3.5634332,-0.11659089,-0.18404251,1.9138336,13.953948,13.851011,-8.469427,-0.16624928,-8.352196,-1.9038498
34.849182,110.33542,39.472954,4.9790473,-1.1458313,2.2102194,0.16248551,-0.79389393,0.71382666,0.20495449,0.5945883,0.54615325,0.633295,-0.51733553,1.6223266,-0.9407189,-1.8359792,-0.9588866,2.0538414,1.2643627,-0.98735,1.6864401,-1.0000433,-1.8512847,-1.0086199,2.0062451,1.2087141,-0.93908685,-1.514583,1.2342705,0.5275658,0.96806014,0.7075794,0.75142264,-0.350212,2.8770065,-0.28816223,0.77290237,-3.6416335,-0.47507608,3.8604527,0.44231415,-0.52124786,0.75195134,0.66595596,0.11139622,0.11848576,0.72804844,-1.2890394,-0.3645743,1.177283,1.0,0.0,0.0,0.0,0.0,0.0,0.0,-3.5270066,-0.111837775,-0.22290236,5.2186728,11.374402,3.405857,-1.7816186,2.2289038,-6.6446424,-1.2690842
27.019981,90.39145,30.474722,5.6786413,-0.7483169,1.4436789,0.062100045,-0.7885812,0.73031163,0.20302224,0.5863609,0.5677136,0.63792026,-0.5128924,1.607582,-0.9270121,-1.8309826,-0.94998384,2.0630164,1.2725061,-0.9903761,1.6717211,-0.98712766,-1.846257,-0.998839,2.0135846,1.2158247,-0.94262594,-1.4580151,1.3103287,0.4955436,0.98114103,0.74252397,0.6978062,-0.35608062,2.8406181,-0.2929077,0.8107415,-3.6379926,-0.4746011,3.7584074,0.4296074,-0.5243759,0.76393235,0.6755099,0.10086922,0.11504845,0.72130126,-1.2686585,-0.27849498,1.2016665,1.0,0.0,0.0,0.0,0.0,0.0,0.0,-3.4906182,-0.10709229,-0.26074147,5.5330515,7.50556,-2.860248,1.1897326,3.444159,-5.320382,-0.87102056
18.480875,74.774536,23.678816,6.9490995,-0.36866325,0.99887604,-0.004318133,-0.78248304,0.7409189,0.1966672,0.5888068,0.56632763,0.6467992,-0.50059706,1.5934728,-0.91303575,-1.8265903,-0.93995833,2.0702174,1.2805047,-0.9926857,1.6574789,-0.97371995,-1.8417289,-0.98882926,2.021237,1.2224814,-0.9462022,-1.4134535,1.3507094,0.4394107,1.0071101,0.77253187,0.6550806,-0.35889146,2.804264,-0.2976532,0.8475609,-3.6343553,-0.47412658,3.656464,0.41704178,-0.52682495,0.7759809,0.6848239,0.09039024,0.111896425,0.71437037,-1.254194,-0.21907543,1.2023567,1.0,0.0,0.0,0.0,0.0,0.0,0.0,-3.4542642,-0.10234681,-0.29756087,4.352975,3.9731264,-5.356532,2.4397254,3.0025244,-4.2242527,-0.5315423
12.139713,63.926445,19.134113,7.4089184,-0.12542808,0.7523146,-0.006958615,-0.78136224,0.74715734,0.18448631,0.5752023,0.5783502,0.65347236,-0.49980575,1.5793427,-0.8990042,-1.8232803,-0.93130904,2.079072,1.2878286,-0.9961828,1.64354,-0.96010244,-1.8377788,-0.97863925,2.02916,1.2287756,-0.9497976,-1.3877152,1.3652008,0.381086,1.0222517,0.7986697,0.62117445,-0.36050403,2.7679482,-0.30239105,0.88336164,-3.6307218,-0.47365254,3.5546227,0.40459442,-0.5288315,0.78790826,0.6939355,0.08006088,0.10895953,0.7072281,-1.2451288,-0.1752627,1.1859599,1.0,0.0,0.0,0.0,0.0,0.0,0.0,-3.4179482,-0.09760895,-0.33336163,2.4677515,1.4063597,-5.6017933,1.3183355,2.6440024,-3.3257246,-0.39516687
9.03427,58.44506,17.006876,7.5232406,-0.0090397,0.6619363,0.01720284,-0.7764291,0.74972695,0.17383173,0.5675808,0.5865041,0.65900505,-0.5034291,1.5658971,-0.88512975,-1.8203956,-0.92188114,2.0878105,1.2946761,-1.0001404,1.6297556,-0.94645727,-1.8343284,-0.9683949,2.0373006,1.2347838,-0.9534072,-1.375659,1.3641701,0.33369166,1.0244092,0.81936723,0.59429723,-0.36191872,2.7316704,-0.30712128,0.91814476,-3.6270916,-0.47317898,3.452883,0.39219666,-0.53041077,0.79961187,0.7028401,0.06991883,0.106179595,0.69989496,-1.2390836,-0.13778415,1.1616511,1.0,0.0,0.0,0.0,0.0,0.0,0.0,-3.3816705,-0.09287873,-0.36814475,1.0921001,-0.13608932,-4.4996142,-0.0009775162,2.1051645,-2.6113033,-0.37090182
10.329103,59.61101,17.777546,6.7639723,-0.0799889,0.74161494,0.10254206,-0.7724741,0.758187,0.18347497,0.5440426,0.5962513,0.6602807,-0.4958794,1.5525082,-0.87063855,-1.8159809,-0.9139906,2.0969257,1.3008119,-1.0029951,1.6160303,-0.93283784,-1.8311527,-0.9582869,2.0456204,1.240563,-0.9570245,-1.3719205,1.3610196,0.31318808,1.0054953,0.83618593,0.57265115,-0.3624805,2.695427,-0.3118515,0.9519113,-3.6234653,-0.4727059,3.351245,0.37986755,-0.5315933,0.81108403,0.71147597,0.05993691,0.10351058,0.69245577,-1.2318437,-0.093944885,1.1389332,1.0,0.0,0.0,0.0,0.0,0.0,0.0,-3.345427,-0.088148504,-0.40191126,0.242877,-0.35429,-1.7474532,-2.1131992,1.6976237,-2.0858169,-0.30183792
9.841702,59.33746,17.53135,6.9450274,-0.08451283,0.7252524,0.11315183,-0.772275,0.75894135,0.16515703,0.5372592,0.6002817,0.6563973,-0.49005908,1.5388029,-0.8569437,-1.814637,-0.904561,2.1056485,1.3062028,-1.0060304,1.6023012,-0.9192537,-1.8281372,-0.94841444,2.0540738,1.2461535,-0.96064085,-1.3735166,1.3573804,0.2988545,0.98045486,0.8485069,0.5546447,-0.3622487,2.6592178,-0.3165741,0.9846621,-3.6198425,-0.4722333,3.2497087,0.36761093,-0.53232574,0.8223268,0.7198202,0.050092213,0.10094547,0.6849522,-1.2242513,-0.049985256,1.1159943,1.0,0.0,0.0,0.0,0.0,0.0,0.0,-3.309218,-0.08342591,-0.4346621,-0.2957344,-0.40228367,-1.1179745,-2.7243376,1.2456536,-1.7200828,-0.21968484
10.33335,61.542824,18.16357,7.32753,-0.14020288,0.7630065,0.110666305,-0.7710485,0.76672727,0.15662989,0.528696,0.59617573,0.6595555,-0.48237452,1.5251964,-0.842581,-1.8124741,-0.8955448,2.1136913,1.312109,-1.0088784,1.5885473,-0.9056629,-1.8252304,-0.9387957,2.0626035,1.2515894,-0.96424955,-1.3764534,1.3594685,0.28897,0.9549417,0.85412645,0.54006624,-0.3611616,2.6230469,-0.32128906,1.0163983,-3.6162233,-0.47176117,3.148274,0.3554268,-0.5325699,0.8333707,0.72787315,0.040343594,0.09851042,0.6773985,-1.2155468,-0.0026561527,1.0970091,1.0,0.0,0.0,0.0,0.0,0.0,0.0,-3.273047,-0.07871094,-0.4663983,-0.43358803,0.16651154,-0.6568134,-2.7611017,0.57148933,-1.3869524,-0.13434887
13.2936535,63.669785,19.072554,6.4089947,-0.28423387,0.7555698,0.16260254,-0.76529336,0.77051514,0.16266961,0.5034669,0.6016472,0.66232413,-0.4759077,1.512018,-0.8286114,-1.8089634,-0.888449,2.1227682,1.3178219,-1.0118403,1.5747935,-0.8920244,-1.8223503,-0.9294878,2.071175,1.2569014,-0.967843,-1.3756868,1.3651391,0.2887217,0.92196095,0.85806745,0.52851534,-0.35952777,2.586914,-0.32600403,1.047121,-3.612608,-0.47128952,3.0469406,0.34337997,-0.53232574,0.84424317,0.7356012,0.030652763,0.09621945,0.66984564,-1.2013345,0.050746493,1.0802892,1.0,0.0,0.0,0.0,0.0,0.0,0.0,-3.2369142,-0.07399598,-0.49712104,-0.06585121,0.5228758,0.3319621,-3.5022855,0.39037466,-1.0737777,-0.08651018
17.585606,65.65545,20.073368,4.479438,-0.49822158,0.7137102,0.26023126,-0.761413,0.775465,0.17998597,0.45920652,0.6127021,0.6607048,-0.4714264,1.4986522,-0.8144779,-1.8043517,-0.88356715,2.1324453,1.3229718,-1.0149857,1.5610701,-0.8783077,-1.8193634,-0.92065203,2.079804,1.2621142,-0.97141737,-1.3716786,1.3736792,0.3034393,0.87021166,0.8641601,0.5192799,-0.35767627,2.5508156,-0.330719,1.0768311,-3.608996,-0.47081834,2.9457085,0.33153152,-0.53147125,0.8549482,0.7429281,0.021007042,0.09406229,0.66239625,-1.1784765,0.11197465,1.06358,1.0,0.0,0.0,0.0,0.0,0.0,0.0,-3.2008157,-0.06928101,-0.5268311,0.25308132,0.81083775,1.8621385,-5.37771,0.59182644,-0.81095695,-0.074607134
17.973482,64.67451,19.41758,3.9856863,-0.5667747,0.58541876,0.2698544,-0.76394886,0.7814133,0.16873279,0.42962745,0.61899614,0.65919673,-0.4631327,1.4846752,-0.80016637,-1.8024901,-0.8776893,2.1417036,1.3280338,-1.0177306,1.5473753,-0.8644899,-1.8162735,-0.91239035,2.0885053,1.2672487,-0.97496885,-1.3692387,1.3843608,0.31185552,0.8108758,0.8717503,0.51188123,-0.35512215,2.5147514,-0.3354187,1.1055297,-3.6053877,-0.47034764,2.8445776,0.31993103,-0.53001404,0.86546457,0.74983305,0.01142774,0.0920562,0.655092,-1.1514171,0.17171827,1.0436522,1.0,0.0,0.0,0.0,0.0,0.0,0.0,-3.1647515,-0.064581305,-0.55552965,0.097966194,1.0343075,1.211685,-6.134665,0.7569432,-0.60220957,0.008022785
18.79018,64.89788,19.636177,3.810162,-0.549392,0.5599535,0.31690234,-0.7649993,0.7824855,0.20051247,0.39613935,0.629979,0.65968055,-0.45104545,1.4708754,-0.78624135,-1.7962222,-0.8727764,2.151503,1.3332168,-1.0200734,1.533692,-0.8505796,-1.8129795,-0.9047533,2.0972981,1.2723185,-0.97848696,-1.3684795,1.3930393,0.33637005,0.74725264,0.88216496,0.5060141,-0.35161525,2.4787254,-0.3401184,1.1332177,-3.601783,-0.4698774,2.7435477,0.30862045,-0.52793884,0.8757926,0.75629437,0.0019097541,0.090169676,0.64798504,-1.1227345,0.23171459,1.0249724,1.0,0.0,0.0,0.0,0.0,0.0,0.0,-3.1287255,-0.059881598,-0.5832177,-0.065755844,0.84044933,2.8187692,-6.5516233,1.042664,-0.43976307,0.10828972
23.59636,63.038376,19.342207,0.17622519,-0.84706765,0.34467304,0.45919818,-0.763422,0.7810696,0.23015796,0.30365786,0.6444954,0.65610176,-0.45646748,1.4573498,-0.7724727,-1.7899637,-0.87438756,2.1617477,1.3379287,-1.0241337,1.5200163,-0.8366169,-1.8093288,-0.8980366,2.1062284,1.2773405,-0.9819774,-1.3677255,1.397419,0.37589672,0.6458759,0.8963252,0.5017022,-0.34898597,2.4427338,-0.34481812,1.1598961,-3.598182,-0.4694076,2.642619,0.29768372,-0.5252609,0.8858652,0.76221764,-0.0074881124,0.08837252,0.64121634,-1.0802317,0.29573938,0.9970657,1.0,0.0,0.0,0.0,0.0,0.0,0.0,-3.0927339,-0.05518189,-0.6098961,-0.06527901,0.42302608,4.3289423,-10.331893,1.4141083,-0.20256042,0.02336502
24.899658,63.56576,19.563646,-0.093364716,-0.8962704,0.28059942,0.48787355,-0.7582599,0.7872682,0.2553832,0.26960662,0.64166164,0.6675321,-0.4308747,1.4441903,-0.75789005,-1.7837905,-0.8710759,2.1703944,1.3440938,-1.0250648,1.5063692,-0.82260454,-1.8052185,-0.8923279,2.115273,1.2823359,-0.98542494,-1.3639523,1.4025463,0.42362595,0.54533046,0.9070061,0.49964157,-0.3441487,2.4067802,-0.34950256,1.185566,-3.5945845,-0.46893826,2.5417912,0.2871971,-0.5219116,0.89567226,0.7675666,-0.016765742,0.086662345,0.63486207,-1.0339516,0.35966915,0.9705889,1.0,0.0,0.0,0.0,0.0,0.0,0.0,-3.0567803,-0.050497442,-0.63556594,0.25589466,0.50890446,5.1073847,-10.224258,1.0884285,0.04220605,0.2618134
31.306414,62.618042,19.688002,-4.9190407,-1.3191981,0.029789,0.6815708,-0.76001865,0.7877649,0.3085899,0.133055,0.66370463,0.65279555,-0.42753223,1.4303674,-0.74382806,-1.7743595,-0.8790224,2.1816435,1.3476155,-1.0281782,1.4927508,-0.8085512,-1.8004768,-0.88802207,2.1244588,1.2873102,-0.9888248,-1.3614352,1.4062847,0.49206734,0.3917824,0.9226625,0.49779466,-0.33927643,2.370861,-0.354187,1.2102284,-3.5909905,-0.4684694,2.4410641,0.27730942,-0.5178833,0.90513635,0.77222484,-0.025839232,0.08504201,0.6291016,-0.96889246,0.42986727,0.9334856,1.0,0.0,0.0,0.0,0.0,0.0,0.0,-3.0208611,-0.045812994,-0.66022843,0.14111996,0.38366318,7.1730733,-15.511883,1.5867591,0.1652658,0.2805233
40.413345,62.95052,20.334305,-11.1939945,-1.9531139,-0.2781489,0.91634643,-0.75077903,0.7937362,0.36590952,-0.021585925,0.665844,0.6489212,-0.3955115,1.4176729,-0.7291776,-1.7638859,-0.89018065,2.1910431,1.3522024,-1.028376,1.4791952,-0.79444444,-1.7949054,-0.88571036,2.1337857,1.2922713,-0.99215597,-1.3537894,1.4121679,0.57986903,0.17725214,0.93608844,0.49715906,-0.33161128,2.33498,-0.35887146,1.2338843,-3.5874004,-0.46800104,2.340438,0.2682762,-0.5130539,0.91414374,0.7760167,-0.03458034,0.08355996,0.62419534,-0.8774409,0.5097078,0.8847209,1.0,0.0,0.0,0.0,0.0,0.0,0.0,-2.98498,-0.041128546,-0.6838843,0.6892204,0.6129503,9.072161,-21.57222,1.3763547,0.4081726,0.5877793
50.70135,63.724552,21.114712,-17.868065,-2.6499736,-0.65637165,1.1515414,-0.72599614,0.80234414,0.41792783,-0.18694451,0.668508,0.63891935,-0.33613747,1.4065956,-0.71421003,-1.7531127,-0.9044048,2.2006366,1.3561631,-1.0257697,1.4658285,-0.780249,-1.7883823,-0.88594687,2.143227,1.2972265,-0.9953689,-1.3308804,1.4221945,0.67699575,-0.09077337,0.9469805,0.4970309,-0.31827566,2.2991333,-0.36354828,1.2565347,-3.5838137,-0.46753314,2.2399123,0.26036072,-0.5073776,0.92258227,0.7787644,-0.04285336,0.08230216,0.6204158,-0.7561257,0.5981677,0.82473934,1.0,0.0,0.0,0.0,0.0,0.0,0.0,-2.9491334,-0.036451727,-0.7065347,2.2927523,1.0470867,9.896553,-26.847494,1.1591196,0.5792141,1.2067378
49.436043,61.920113,20.292175,-17.303102,-2.5738726,-0.8349236,1.1408632,-0.71852326,0.80519015,0.45680067,-0.2823718,0.67686784,0.6206936,-0.2555189,1.3939762,-0.69973,-1.7427022,-0.91418403,2.210914,1.359296,-1.0209208,1.4527117,-0.76595247,-1.7809341,-0.88878405,2.152779,1.3021685,-0.998393,-1.3048264,1.4323853,0.76768833,-0.34799248,0.95805675,0.4952412,-0.2973403,2.263321,-0.36821747,1.2781806,-3.5802307,-0.46706572,2.139487,0.2536583,-0.5008545,0.9304229,0.78045416,-0.05059915,0.08130135,0.6178358,-0.63412315,0.6780447,0.7647718,1.0,0.0,0.0,0.0,0.0,0.0,0.0,-2.913321,-0.031782538,-0.7281806,2.6744604,1.0889769,9.085119,-25.70293,1.2579203,0.40893555,2.0316064
38.930984,58.666008,18.552877,-10.072126,-1.8420091,-0.7576703,0.91689783,-0.71036804,0.80265206,0.48295537,-0.2988018,0.66238534,0.6156271,-0.09625356,1.3816749,-0.68568724,-1.7326386,-0.9186642,2.2190177,1.3637311,-1.0080184,1.4398466,-0.7515882,-1.7727115,-0.89360106,2.1623769,1.3070856,-1.0011003,-1.2800562,1.4381787,0.8398508,-0.5262114,0.9610908,0.49208125,-0.2619412,2.2275467,-0.37288666,1.298823,-3.576651,-0.46659875,2.0391622,0.24798584,-0.4936676,0.9377636,0.78125244,-0.057907287,0.080534846,0.6162836,-0.53794146,0.73838633,0.7176626,1.0,0.0,0.0,0.0,0.0,0.0,0.0,-2.8775468,-0.027113348,-0.748823,2.5684118,0.67851543,7.0765734,-17.79614,0.55018663,0.17595291,3.5122037
26.634146,52.864517,15.779346,-2.574417,-1.0498712,-0.69421214,0.6705201,-0.71115786,0.7977273,0.49199247,-0.326742,0.65444255,0.61121505,0.08203862,1.3687309,-0.6718155,-1.7235123,-0.92627525,2.227821,1.3682071,-0.99289644,1.427159,-0.73721445,-1.763972,-0.89965117,2.1719594,1.3119627,-1.0033395,-1.264833,1.4375497,0.8846917,-0.6313494,0.95832175,0.48770282,-0.2114062,2.1918068,-0.37754822,1.3184628,-3.5730753,-0.46613222,1.9389374,0.24304962,-0.48603058,0.9447042,0.78138024,-0.06487293,0.0799789,0.6154997,-0.4705468,0.776569,0.679737,1.0,0.0,0.0,0.0,0.0,0.0,0.0,-2.841807,-0.022451788,-0.76846284,1.582551,0.05567074,4.285872,-10.536993,0.01770258,-0.04350543,5.0329776
9.153315,47.765392,13.049983,9.245918,0.12239534,-0.3719951,0.28154472,-0.7248802,0.7926895,0.49219003,-0.2612789,0.63011616,0.6286874,0.2491131,1.3546709,-0.6579455,-1.714753,-0.92577904,2.234971,1.3748314,-0.97842824,1.4144884,-0.72288644,-1.7549865,-0.9059311,2.181435,1.3168055,-1.0049837,-1.2679427,1.4316059,0.90249616,-0.6273005,0.94508284,0.48404184,-0.14892553,2.1561012,-0.38220215,1.3371012,-3.5695028,-0.46566617,1.8388128,0.23845291,-0.4781952,0.9514147,0.7811422,-0.07168801,0.07958466,0.6150966,-0.44904009,0.79018754,0.66145426,1.0,0.0,0.0,0.0,0.0,0.0,0.0,-2.8061013,-0.017797858,-0.7871012,-0.3453493,-0.45542717,1.5769362,0.27896166,-0.97489357,-0.11039376,6.204015
-4.97701,41.818455,10.098261,18.478188,1.0377688,-0.17278859,-0.078256436,-0.7407345,0.78630215,0.4675487,-0.19611995,0.61355835,0.6330043,0.31250995,1.340415,-0.64425623,-1.7082317,-0.9255431,2.242791,1.380106,-0.97373265,1.4016596,-0.70865095,-1.7460716,-0.91154635,2.1907315,1.3216139,-1.006006,-1.2881166,1.4214025,0.8872503,-0.54033524,0.92572165,0.48024437,-0.08694597,2.1204338,-0.38685608,1.3547391,-3.5659342,-0.4652006,1.7387884,0.23379135,-0.47039795,0.95803964,0.78085274,-0.07851766,0.07931897,0.61466444,-0.46340343,0.7825098,0.6561508,1.0,0.0,0.0,0.0,0.0,0.0,0.0,-2.770434,-0.013143927,-0.80473906,-2.1465302,-0.8747339,-1.6839266,8.4739685,-1.5802264,-0.23718476,6.1293693
-9.60206,39.73698,9.291382,22.150764,1.3772421,-0.07622409,-0.2032184,-0.7449627,0.7801533,0.4665485,-0.15032367,0.590826,0.6361167,0.4178899,1.3271633,-0.6306356,-1.6994168,-0.9265787,2.249814,1.3852255,-0.964217,1.3886038,-0.6945337,-1.7373779,-0.9160181,2.1997876,1.326388,-1.0063932,-1.3118186,1.4089452,0.8628978,-0.41696742,0.90032953,0.47675884,-0.022856474,2.0848007,-0.39151,1.3713775,-3.5623689,-0.4647355,1.6388639,0.22888565,-0.46268463,0.96466494,0.78066355,-0.0854677,0.0791676,0.6139969,-0.49136865,0.7690419,0.6580053,1.0,0.0,0.0,0.0,0.0,0.0,0.0,-2.7348008,-0.008489996,-0.82137746,-2.527666,-1.101327,-2.5821567,12.088233,-2.1772027,-0.25372505,6.3304224
-22.6227,39.618176,9.0629,34.234154,2.5120168,0.4622115,-0.5924635,-0.7592789,0.7723251,0.44704422,0.08753524,0.56835675,0.64722234,0.457091,1.312676,-0.6173012,-1.6926734,-0.9072646,2.2566233,1.3911102,-0.9606841,1.3752848,-0.68055284,-1.7290027,-0.9183184,2.2085652,1.3311316,-1.0061758,-1.3395301,1.3949538,0.82843,-0.16873488,0.8717868,0.4734582,0.03624099,2.049202,-0.39614868,1.3870174,-3.5588074,-0.4642709,1.5390394,0.22335434,-0.4552307,0.97153634,0.7808235,-0.09284506,0.07900119,0.6127423,-0.5654893,0.7441593,0.6902739,1.0,0.0,0.0,0.0,0.0,0.0,0.0,-2.699202,-0.0038513243,-0.83701736,-2.98872,-1.2425423,-3.6339164,24.52212,-2.411878,-0.37534833,5.808658
-31.979336,38.993027,8.751337,43.271988,3.3352008,0.87345225,-0.90006524,-0.7731747,0.76443094,0.4095709,0.30518562,0.5458873,0.66052103,0.48570332,1.2979673,-0.60410976,-1.6880456,-0.88779986,2.263154,1.3971837,-0.9576054,1.3616816,-0.6667179,-1.7210929,-0.91741526,2.2170453,1.3358485,-1.0054128,-1.3680526,1.3801445,0.77771854,0.1755742,0.84157056,0.4705425,0.089417554,2.0136414,-0.40078735,1.4016597,-3.5552492,-0.4638067,1.4393147,0.21682358,-0.44805145,0.9788947,0.78157705,-0.10096272,0.07869463,0.6105333,-0.6746021,0.71334785,0.7445028,1.0,0.0,0.0,0.0,0.0,0.0,0.0,-2.6636415,0.00078734756,-0.8516597,-3.0763626,-1.3265848,-5.315852,34.13762,-2.522242,-0.4776895,5.2205057
-32.755844,36.769913,7.970827,43.864212,3.3920896,0.86956155,-0.96823263,-0.78696996,0.7565734,0.35882846,0.4374133,0.5495861,0.6550823,0.47788802,1.2829846,-0.5910605,-1.6852101,-0.8736739,2.272004,1.4013567,-0.957624,1.3477999,-0.6530336,-1.713845,-0.9130169,2.2252889,1.3405329,-1.0041864,-1.3954979,1.3649495,0.7062061,0.52714807,0.82048243,0.4667933,0.13369824,1.9781151,-0.40542603,1.4153056,-3.5516946,-0.46334296,1.3396897,0.2091713,-0.441185,0.9867793,0.78300655,-0.109890945,0.07821572,0.6072125,-0.7875382,0.683674,0.79671633,1.0,0.0,0.0,0.0,0.0,0.0,0.0,-2.6281152,0.0054260194,-0.8653056,-2.9193401,-1.3899565,-7.420659,34.92833,-1.6260266,-0.63005686,4.354869
-19.977997,37.764538,9.27975,33.574104,2.4021761,0.5408595,-0.61596316,-0.78731483,0.73996437,0.37578723,0.4536269,0.5358501,0.6582598,0.47408798,1.2690684,-0.5790372,-1.6762663,-0.8676542,2.278874,1.4063588,-0.9567776,1.3337198,-0.63954294,-1.7071064,-0.9058634,2.2333379,1.3451887,-1.0025747,-1.4124519,1.344028,0.66260016,0.77755326,0.8010838,0.46444523,0.17001396,1.9426231,-0.41005707,1.427956,-3.5481436,-0.46287972,1.2401644,0.20067215,-0.43450165,0.9950098,0.7848888,-0.119458884,0.07760739,0.6030391,-0.8627831,0.6730524,0.8253885,1.0,0.0,0.0,0.0,0.0,0.0,0.0,-2.5926232,0.010057062,-0.877956,-1.7934084,-2.0077705,-4.529524,24.894846,-1.5735507,-0.4163146,3.5515814
-4.7751827,41.556923,11.131537,21.027348,1.0918214,0.09679608,-0.21070665,-0.787994,0.7410857,0.37114382,0.44398236,0.52717036,0.65424997,0.4612823,1.2549205,-0.56543434,-1.669992,-0.86146516,2.2860548,1.4106138,-0.95644647,1.3195425,-0.62621915,-1.7006404,-0.89716685,2.2412114,1.3498274,-1.0006597,-1.4198335,1.3286462,0.64109015,0.9000142,0.78322303,0.4635953,0.19838557,1.9071693,-0.41468048,1.4396119,-3.5445962,-0.46241695,1.1407385,0.19179535,-0.4277649,1.0033234,0.78689945,-0.12937675,0.07700322,0.5984324,-0.88807094,0.68371934,0.8268048,1.0,0.0,0.0,0.0,0.0,0.0,0.0,-2.5571694,0.014680475,-0.8896119,-0.81067085,-1.4973164,-2.1375775,12.143254,-1.582098,-0.120037794,2.732104
6.238309,39.71653,10.542536,9.843032,0.042417586,-0.47695225,0.10717174,-0.79317176,0.72860396,0.34483266,0.41182986,0.5224749,0.6572642,0.47217587,1.2402253,-0.55335873,-1.6661571,-0.85598385,2.293459,1.4155538,-0.9534421,1.3053175,-0.6130575,-1.6943748,-0.8881203,2.2489247,1.3544737,-0.99849296,-1.4235194,1.3120424,0.6223382,0.905845,0.7677845,0.46521255,0.22231436,1.8717499,-0.4193039,1.4502742,-3.5410523,-0.46195462,1.041412,0.18299866,-0.42087555,1.0114303,0.78878766,-0.13929705,0.07656696,0.5937574,-0.86944115,0.6996051,0.7988173,1.0,0.0,0.0,0.0,0.0,0.0,0.0,-2.52175,0.019303888,-0.9002742,-0.44181347,-1.6391754,-1.7245412,0.47044754,-1.4553905,0.30417442,2.2716641
14.741565,40.127747,10.625355,1.6075816,-0.77507913,-0.91028214,0.3471138,-0.79507536,0.72466576,0.34057286,0.3582618,0.5115058,0.6570611,0.47419515,1.2258099,-0.54059094,-1.6603175,-0.8522941,2.3000753,1.4201798,-0.95107347,1.2910734,-0.600037,-1.6882389,-0.8796717,2.2564855,1.3591429,-0.9961183,-1.4249787,1.2986875,0.61147535,0.82422286,0.7519572,0.46834433,0.24209712,1.8363647,-0.42391968,1.4599441,-3.537512,-0.46149275,0.9421848,0.17463684,-0.4138031,1.0191184,0.7903776,-0.14893721,0.07643271,0.5893037,-0.8163699,0.71959245,0.752323,1.0,0.0,0.0,0.0,0.0,0.0,0.0,-2.4863648,0.023919672,-0.9099441,-0.2179861,-1.3272524,-0.8354306,-8.271444,-1.586175,0.58487654,1.848653
19.700235,38.09012,9.882877,-3.6666145,-1.2516509,-1.2907636,0.4908859,-0.7870244,0.7099371,0.33323383,0.29863212,0.48177734,0.652336,0.5065143,1.212371,-0.52904326,-1.6549155,-0.84980845,2.3046632,1.4243765,-0.9454669,1.2768656,-0.5871767,-1.6821926,-0.8724104,2.2638288,1.3638445,-0.9935472,-1.4194003,1.2818391,0.60308945,0.69321656,0.72829074,0.47175854,0.2616263,1.8010178,-0.42852783,1.4686224,-3.5339754,-0.46103135,0.8430568,0.16698074,-0.40654755,1.026251,0.7915739,-0.15810345,0.07670029,0.58526164,-0.74077266,0.7358906,0.69399995,1.0,0.0,0.0,0.0,0.0,0.0,0.0,-2.4510179,0.028527826,-0.91862243,0.5192995,-1.6727448,-0.5825877,-13.196826,-2.4138331,0.698334,1.832217
18.58614,36.079956,8.972987,-3.3628078,-1.2026422,-1.4197685,0.45502037,-0.7905984,0.7018489,0.31861284,0.2673212,0.4644741,0.65226233,0.5172157,1.1978058,-0.5169918,-1.6503313,-0.84567827,2.3102763,1.4290707,-0.9418256,1.2627035,-0.5744852,-1.6762664,-0.86644804,2.2709165,1.3685766,-0.9907949,-1.4152185,1.2649906,0.58956337,0.56369436,0.7021669,0.47475982,0.2794499,1.7657051,-0.433136,1.4763103,-3.530442,-0.46057042,0.7440279,0.16007614,-0.3991623,1.0328066,0.79239756,-0.16673438,0.07740122,0.58164823,-0.66535145,0.74553114,0.63681036,1.0,0.0,0.0,0.0,0.0,0.0,0.0,-2.4157052,0.03313598,-0.92631024,0.39625168,-1.6611338,-1.1508584,-13.036573,-2.6407957,0.6469846,1.6820312
18.514101,34.99002,8.56254,-3.3541193,-1.1584365,-1.5350409,0.44702613,-0.77996665,0.6921504,0.3113757,0.20655206,0.45411244,0.6557286,0.52986693,1.1847069,-0.5052701,-1.6451288,-0.84579283,2.3163278,1.4341495,-0.9378082,1.2486254,-0.56196535,-1.670491,-0.8617531,2.27776,1.3733374,-0.9878757,-1.4053464,1.2477956,0.57407916,0.43793952,0.67810494,0.47755092,0.29588532,1.7304268,-0.43774414,1.4830085,-3.5269122,-0.46010995,0.6450981,0.15393066,-0.39173126,1.0388027,0.79288125,-0.17481798,0.0785207,0.5784568,-0.58925664,0.7504425,0.5816492,1.0,0.0,0.0,0.0,0.0,0.0,0.0,-2.380427,0.037744135,-0.9330085,0.9962797,-1.6848803,-1.4041185,-12.641275,-2.4232507,0.61406493,1.5593827
17.318748,30.767742,7.16588,-3.3981218,-1.0644951,-1.6907413,0.43126458,-0.77538884,0.6697809,0.3049682,0.13465105,0.41923973,0.6481805,0.55584764,1.1710865,-0.49498725,-1.6399941,-0.848288,2.319684,1.4381554,-0.9322909,1.234656,-0.54967725,-1.6648719,-0.85831034,2.2843137,1.3781172,-0.98479056,-1.3939525,1.222638,0.55825984,0.31274593,0.647373,0.4791283,0.31245175,1.6951866,-0.44233704,1.4887182,-3.523386,-0.45964992,0.5462671,0.1485405,-0.38430023,1.0442368,0.7930577,-0.18232569,0.08004489,0.5756818,-0.51397485,0.7462898,0.5253325,1.0,0.0,0.0,0.0,0.0,0.0,0.0,-2.3451867,0.04233703,-0.93871814,1.1743784,-2.469945,-1.4913797,-12.582016,-3.07827,0.4879117,1.5857458
19.467188,32.716583,8.124796,-4.439027,-1.1792839,-1.7403913,0.5039217,-0.75799686,0.6593147,0.3335706,0.051461384,0.38259062,0.64800966,0.56180036,1.1588563,-0.48374578,-1.6315149,-0.8531642,2.3225727,1.4429182,-0.9286105,1.2208639,-0.5376438,-1.6592376,-0.856176,2.2904973,1.3829085,-0.98155284,-1.3741968,1.1969911,0.56520784,0.18028614,0.6087617,0.48020765,0.32729456,1.659977,-0.44692993,1.4934403,-3.5198634,-0.45919037,0.447535,0.14394379,-0.37687683,1.0491242,0.7928944,-0.18926294,0.08195566,0.57339454,-0.43312553,0.74489397,0.47151852,1.0,0.0,0.0,0.0,0.0,0.0,0.0,-2.309977,0.046929926,-0.94344026,2.0531178,-2.5143385,0.74698925,-13.272574,-3.8721204,0.42831302,1.4212012
15.5151205,31.457525,7.350499,-1.2791085,-0.85195374,-1.7139275,0.38035178,-0.7631851,0.65844285,0.29551044,0.020477615,0.39976075,0.6445014,0.57003653,1.1445454,-0.4717995,-1.6296866,-0.85412824,2.3304734,1.4473586,-0.92454916,1.207213,-0.5258106,-1.6536739,-0.85518324,2.29641,1.3877035,-0.97817874,-1.3617294,1.1790019,0.553459,0.07218616,0.5855461,0.48016575,0.34071586,1.6248055,-0.45152283,1.4971758,-3.5163443,-0.4587313,0.34890163,0.14006424,-0.3694992,1.0535235,0.7924613,-0.195662,0.0842144,0.5715149,-0.36489683,0.73810506,0.4247135,1.0,0.0,0.0,0.0,0.0,0.0,0.0,-2.2748055,0.05152282,-0.9471758,1.2998104,-1.7393827,-1.1607647,-10.847449,-2.2918582,0.26408434,1.2937129
12.309427,26.440598,5.3745193,0.06407261,-0.65568435,-1.8288219,0.27714634,-0.75826067,0.64067745,0.25911155,-0.03480599,0.3730982,0.64200693,0.5760012,1.131387,-0.46174285,-1.6277627,-0.85866386,2.33372,1.4519042,-0.9205786,1.1936651,-0.5141729,-1.6484039,-0.85518706,2.3020902,1.3924948,-0.97468066,-1.3524536,1.15889,0.51814336,-0.024863442,0.5621757,0.47951376,0.35261586,1.5896683,-0.45610046,1.4999257,-3.5128286,-0.45827264,0.25036684,0.13682175,-0.36227417,1.0574532,0.7918634,-0.20150684,0.086825915,0.5699197,-0.30312318,0.7209471,0.37780583,1.0,0.0,0.0,0.0,0.0,0.0,0.0,-2.2396684,0.056100458,-0.9499257,0.9741783,-1.944685,-3.5458565,-9.762238,-2.2926688,0.18146038,1.1487484
7.3340516,22.731585,4.0168447,4.2266073,-0.27979034,-1.7464695,0.10179795,-0.7537037,0.6261335,0.22791052,-0.0305701,0.32093164,0.64611155,0.5778187,1.1182947,-0.45155954,-1.6256129,-0.85824406,2.3341832,1.457106,-0.9168988,1.1801916,-0.5027517,-1.6436164,-0.8558451,2.3074384,1.3972784,-0.9710777,-1.345575,1.1367697,0.465573,-0.0796643,0.52590394,0.47877255,0.36269408,1.5545654,-0.4606781,1.501691,-3.5093164,-0.45781446,0.15193057,0.1340599,-0.35525513,1.0609701,0.79123247,-0.20686124,0.089808375,0.5684137,-0.25796187,0.69836915,0.33873892,1.0,0.0,0.0,0.0,0.0,0.0,0.0,-2.2045655,0.060678095,-0.951691,0.7035732,-2.1381378,-5.293989,-5.5731735,-3.5450697,0.12623072,0.96122026
0.61876154,10.889708,-0.49923408,7.2526946,0.101656675,-1.9254471,-0.14597261,-0.7467169,0.59736,0.11418734,-0.028541327,0.25721583,0.6425662,0.5905692,1.1055199,-0.4430157,-1.6321977,-0.8586992,2.33316,1.4615351,-0.91202074,1.1667906,-0.4916352,-1.6398113,-0.85678256,2.312283,1.4020525,-0.9673784,-1.3380846,1.103524,0.3520505,-0.09891294,0.47072178,0.47751442,0.3721493,1.5195007,-0.46525574,1.5024728,-3.5058079,-0.45735675,0.053592727,0.13165665,-0.34858704,1.0640831,0.79077715,-0.21171805,0.09324523,0.56670284,-0.22739916,0.6550695,0.29810783,1.0,0.0,0.0,0.0,0.0,0.0,0.0,-2.1695008,0.06525573,-0.95247275,0.74949265,-3.2489061,-11.405361,-2.0778403,-5.4311457,0.05158782,0.8845866
-0.78611183,-0.020204782,-4.586464,4.3291874,-0.045886815,-2.334521,-0.1844021,-0.7441563,0.5614467,0.028323786,-0.117006876,0.17597446,0.64914256,0.5909532,1.0923749,-0.43549052,-1.6369789,-0.86848325,2.3298805,1.4669667,-0.90828305,1.153462,-0.4809631,-1.6374156,-0.8581549,2.316399,1.4068209,-0.96359515,-1.331088,1.0553421,0.20170659,-0.15056837,0.39181837,0.47721195,0.3800417,1.4844666,-0.46982574,1.5022718,-3.5023026,-0.45689946,-0.044646803,0.12962723,-0.3425293,1.0666769,0.79062974,-0.21589066,0.09727902,0.5646527,-0.18849361,0.5915229,0.24277352,1.0,0.0,0.0,0.0,0.0,0.0,0.0,-2.1344666,0.06982574,-0.95227176,0.75085163,-4.748869,-15.093576,-5.3198366,-7.856923,0.16481876,0.71410537
-0.3391447,-4.771302,-6.571285,1.2713089,-0.5533817,-2.5920906,-0.18362458,-0.74546033,0.53175175,-0.04082073,-0.18939033,-0.031874306,0.6572046,0.5936604,1.0789161,-0.42778793,-1.6414977,-0.8770939,2.3132117,1.4725413,-0.9042291,1.1401812,-0.4708327,-1.6365917,-0.86030924,2.319203,1.4115931,-0.95974326,-1.326881,0.9992042,0.042516626,-0.23737986,0.2434162,0.47794527,0.3865962,1.4494705,-0.47438812,1.5010892,-3.498801,-0.45644265,-0.14278811,0.12810516,-0.33713531,1.0686268,0.79085785,-0.21920162,0.10220237,0.56218237,-0.13407533,0.5218646,0.1759907,1.0,0.0,0.0,0.0,0.0,0.0,0.0,-2.0994706,0.07438812,-0.9510892,0.527668,-5.5500627,-15.980985,-8.805132,-14.8552685,0.27580857,0.5531311
4.2266517,-9.173285,-6.531496,-4.5668955,-1.1020098,-2.7218254,0.10640542,-0.73869354,0.43727282,0.053958952,-0.31722385,-0.3380858,0.66525495,0.5915615,1.0663118,-0.42710543,-1.6311958,-0.8920316,2.2853944,1.4781185,-0.9005871,1.1269594,-0.4615897,-1.6365478,-0.86381114,2.319756,1.4163786,-0.95583797,-1.319826,0.8995352,-0.008632392,-0.3880123,-0.007315911,0.479679,0.39137092,1.4145088,-0.4789505,1.4989259,-3.495303,-0.45598632,-0.2408313,0.12728882,-0.33242798,1.069791,0.791304,-0.22155212,0.10819052,0.5595063,-0.058573544,0.45241565,0.09379188,1.0,0.0,0.0,0.0,0.0,0.0,0.0,-2.064509,0.078950495,-0.9489259,0.92761517,-9.906256,-5.231819,-15.101868,-25.117107,0.38462877,0.3349185
2.1909022,-31.782885,-10.528337,-6.6032677,-0.16133896,-2.796041,0.4035681,-0.71461105,0.23842444,0.2127239,-0.39424938,-0.51797754,0.6853899,0.5884912,1.0554984,-0.43774724,-1.6152754,-0.9032361,2.2679582,1.4849176,-0.89698887,1.1139151,-0.4541353,-1.6358631,-0.8689743,2.3175397,1.4211947,-0.9518974,-1.2980434,0.6942036,0.093374245,-0.559028,-0.29305732,0.4826143,0.39422244,1.3795815,-0.48351288,1.495783,-3.4918082,-0.4555304,-0.33877647,0.12707901,-0.32862854,1.0700297,0.7916885,-0.22295636,0.114815116,0.5570792,-0.0033881366,0.35268688,-0.0018736805,1.0,0.0,0.0,0.0,0.0,0.0,0.0,-2.0295815,0.08351287,-0.94578296,2.534151,-20.506466,9.9752035,-17.101818,-28.602331,0.42563677,0.0798285
-19.14424,-107.17721,-31.62866,-4.788106,2.9655685,-3.55262,0.32415864,-0.6966183,-0.15517648,0.27496153,-0.43688002,-0.60625476,0.6888032,0.5611056,1.0442532,-0.46965295,-1.608367,-0.9126623,2.2569141,1.490075,-0.8957868,1.1011664,-0.4503535,-1.6336601,-0.87569773,2.3126683,1.4260279,-0.9479654,-1.2654791,0.27243757,0.2619799,-0.7105204,-0.55208635,0.4829771,0.39161822,1.3446922,-0.48806,1.4916613,-3.488317,-0.45507497,-0.43662372,0.12680435,-0.32676697,1.0690434,0.7920126,-0.22323444,0.120992586,0.55519646,-0.031907707,0.12988266,-0.13285726,1.0,0.0,0.0,0.0,0.0,0.0,0.0,-1.9946922,0.08805999,-0.9416613,3.7719965,-42.29977,16.677137,-15.249956,-26.033365,-0.1080513,-0.65765977
-34.376244,-151.04884,-43.98145,1.2993212,5.4922957,-3.8180046,0.13770726,-0.60596377,-0.45225608,0.28208852,-0.39812705,-0.6155646,0.6677515,0.50870043,1.04057,-0.49557912,-1.6054512,-0.9155104,2.251112,1.4928031,-0.8970953,1.0891215,-0.4517187,-1.6298969,-0.88332236,2.30576,1.430823,-0.9441049,-1.1826562,-0.27371192,0.41418448,-0.7802282,-0.73809755,0.47664273,0.3826879,1.3098335,-0.49260712,1.4865619,-3.4848294,-0.45462,-0.53437316,0.12570572,-0.32767487,1.0667145,0.792405,-0.22235888,0.12563708,0.55395496,-0.1348375,-0.16414656,-0.26734388,1.0,0.0,0.0,0.0,0.0,0.0,0.0,-1.9598335,0.09260711,-0.9365619,8.777475,-54.870415,15.198988,-7.1309686,-18.810474,-1.199621,-1.3474882
-36.564377,-145.11034,-41.863243,8.051494,6.313667,-3.385197,0.014045395,-0.50957274,-0.63717806,0.28865606,-0.35355344,-0.5962181,0.67157626,0.46196103,1.0381641,-0.5154365,-1.6010313,-0.9186777,2.246138,1.4979806,-0.8979088,1.0782686,-0.45844924,-1.624974,-0.8910204,2.297604,1.4355437,-0.9403579,-1.0517712,-0.80708164,0.5188347,-0.76651305,-0.842258,0.46772915,0.37107834,1.275013,-0.49715424,1.4804857,-3.4813452,-0.45416546,-0.6320249,0.12335968,-0.33142853,1.063202,0.7929289,-0.22058627,0.12817757,0.55333155,-0.2682346,-0.44560915,-0.37946296,1.0,0.0,0.0,0.0,0.0,0.0,0.0,-1.925013,0.09715423,-0.93048567,13.39941,-53.612648,10.596895,1.305759,-10.643017,-1.7353773,-1.4298499
-12.925662,-86.43423,-23.62252,1.095032,3.9898143,-2.8579547,0.42200047,-0.37589005,-0.7027146,0.3457627,-0.48801556,-0.6295607,0.6605771,0.414731,1.0406797,-0.52872074,-1.5903977,-0.93982196,2.234648,1.5016013,-0.89888483,1.0691477,-0.46946657,-1.6191356,-0.8989731,2.288735,1.4401709,-0.9367454,-0.8657974,-1.2006296,0.6064838,-0.80492336,-0.9023344,0.45828485,0.35778296,1.2402229,-0.5016861,1.4734337,-3.4778645,-0.4537114,-0.729579,0.12025452,-0.3373413,1.0586956,0.7933121,-0.21813084,0.12881736,0.5536071,-0.3271149,-0.63434887,-0.47469088,1.0,0.0,0.0,0.0,0.0,0.0,0.0,-1.8902229,0.10168609,-0.9234337,18.52491,-39.56833,9.093153,-3.8707614,-6.1893106,-1.7895639,-1.3986766
16.356771,-14.9269905,-0.8844063,-6.5252895,1.1076596,-2.1943681,0.8494339,-0.1909686,-0.736998,0.3944283,-0.5451169,-0.6794459,0.66874945,0.3337153,1.0500509,-0.5431664,-1.5796928,-0.9534848,2.2207904,1.5070459,-0.9033739,1.0624167,-0.48316658,-1.6124904,-0.90756476,2.279385,1.4447333,-0.93330836,-0.61054593,-1.4269075,0.68568766,-0.87772834,-0.9463373,0.45362237,0.3391114,1.205471,-0.50621796,1.465407,-3.4743874,-0.45325777,-0.82703555,0.117263794,-0.3442688,1.0534446,0.7931308,-0.21528748,0.12812075,0.55513954,-0.29335228,-0.7094871,-0.5428081,1.0,0.0,0.0,0.0,0.0,0.0,0.0,-1.855471,0.10621795,-0.915407,24.995173,-22.751926,8.425856,-7.43891,-4.465294,-1.0226071,-1.8205047
29.028809,27.218765,10.821721,-7.7860456,-0.54655516,-1.8700445,0.8097733,-0.07839948,-0.7659692,0.3077127,-0.5516432,-0.66911846,0.66571885,0.2590756,1.0545768,-0.5597635,-1.5817192,-0.9627291,2.2124732,1.5113051,-0.9074008,1.0583044,-0.49813688,-1.6056964,-0.91684973,2.2697759,1.4492708,-0.9301002,-0.34706712,-1.5206772,0.6789137,-0.946097,-0.9659263,0.45271066,0.31495905,1.1707535,-0.5107498,1.4564064,-3.4709136,-0.4528046,-0.92439467,0.1149559,-0.3515091,1.0476778,0.79227674,-0.21223783,0.12670135,0.5578525,-0.2116981,-0.72290045,-0.58949864,1.0,0.0,0.0,0.0,0.0,0.0,0.0,-1.8207535,0.11074981,-0.90640634,25.667048,-9.444594,-0.14190674,-7.035804,-1.9873857,-0.3747046,-2.3498654
32.9705,45.910442,14.6308155,-6.9987545,-1.3022227,-1.9061998,0.58580035,0.06187893,-0.78139716,0.15881915,-0.5401653,-0.6291655,0.6574519,0.18927129,1.0644923,-0.5762766,-1.5898145,-0.97086626,2.2068594,1.5150161,-0.91117305,1.0568568,-0.5134119,-1.599879,-0.9265963,2.2601933,1.4538046,-0.92716956,-0.07988652,-1.5298878,0.5512363,-0.98477846,-0.956315,0.4533767,0.285895,1.1360703,-0.51527405,1.446433,-3.4674435,-0.4523519,-1.0216565,0.11361694,-0.35873413,1.0415382,0.7908971,-0.20899299,0.1250331,0.5614003,-0.10945548,-0.7163411,-0.623919,1.0,0.0,0.0,0.0,0.0,0.0,0.0,-1.7860702,0.11527404,-0.89643294,26.005327,-0.95870495,-12.190926,-4.0526032,0.9122968,-0.06797314,-2.8704584
27.844574,33.609695,6.155137,-8.710193,-1.6435912,-2.7413769,0.19136748,0.19584282,-0.79135704,-0.18864937,-0.57459533,-0.60239536,0.6553882,0.21949686,1.076441,-0.5925476,-1.618744,-0.9840558,2.1999538,1.5193434,-0.90521985,1.0580202,-0.52849424,-1.5969951,-0.9367062,2.250832,1.4583403,-0.9244907,0.17911552,-1.5012352,0.20350066,-1.0201825,-0.9300933,0.45266867,0.26145187,1.1014214,-0.51979065,1.4354875,-3.4639769,-0.45189962,-1.1188211,0.1133728,-0.3662033,1.0348965,0.7893976,-0.20513512,0.123625875,0.5652323,0.003663528,-0.749461,-0.67971194,1.0,0.0,0.0,0.0,0.0,0.0,0.0,-1.7514213,0.11979064,-0.8854875,25.163424,2.790165,-33.964928,-3.67198,2.439332,-0.3571093,-2.56145
28.45021,23.790106,0.5571506,-12.962595,-1.9983113,-3.3918386,0.10069777,0.36857206,-0.7998316,-0.42830902,-0.6155048,-0.598396,0.659348,0.26471394,1.0948775,-0.6084774,-1.639826,-0.9982567,2.1909926,1.5242751,-0.8980193,1.0618826,-0.54325044,-1.5984504,-0.9472405,2.2417378,1.4628645,-0.92199683,0.4526326,-1.4673523,-0.25919533,-1.0648957,-0.9029616,0.45071793,0.24465282,1.0668068,-0.52430725,1.4235712,-3.4605136,-0.4514478,-1.2158885,0.11436844,-0.37419128,1.0275344,0.788025,-0.20022486,0.12280182,0.5690749,0.1331043,-0.81062657,-0.75812805,1.0,0.0,0.0,0.0,0.0,0.0,0.0,-1.7168068,0.124307245,-0.8735712,26.597368,3.3001184,-45.39873,-4.592395,2.5358438,-0.6521106,-1.8695086
23.490707,20.382378,-0.6244073,-9.076662,-1.6328604,-3.1594315,-0.01629071,0.450392,-0.8004182,-0.55386573,-0.5886534,-0.62866855,0.6634663,0.25793114,1.1069218,-0.62329227,-1.653837,-1.0061058,2.178871,1.5292112,-0.8962037,1.0681864,-0.55772054,-1.6043651,-0.95799696,2.232781,1.4673735,-0.9196489,0.68794036,-1.4404111,-0.7001222,-1.0793384,-0.8935074,0.449297,0.23101485,1.0322304,-0.52882385,1.4106851,-3.4570537,-0.45099646,-1.3128588,0.11650467,-0.38278198,1.0194049,0.7868779,-0.19420576,0.12264934,0.5727691,0.24436922,-0.87140906,-0.83553094,1.0,0.0,0.0,0.0,0.0,0.0,0.0,-1.6822304,0.12882385,-0.86068505,22.981285,2.623701,-43.46853,-1.4881372,0.82969666,-0.58716536,-1.5186578
20.539783,23.747295,1.8832549,-5.0732226,-1.3048313,-2.5919108,0.030469507,0.51887983,-0.80077153,-0.63280743,-0.5909641,-0.67037344,0.6714332,0.29793555,1.1200744,-0.6377977,-1.6676458,-1.0170934,2.1657436,1.5345168,-0.8898553,1.0764662,-0.57200754,-1.6139343,-0.96879447,2.223744,1.4718767,-0.9173839,0.8735006,-1.424887,-1.0413651,-1.0799148,-0.907397,0.449522,0.22460762,0.9976845,-0.5333252,1.39683,-3.4535973,-0.45054555,-1.4097322,0.11960602,-0.3918686,1.0105737,0.78588957,-0.18726324,0.12312099,0.5763256,0.33672246,-0.91387445,-0.90476686,1.0,0.0,0.0,0.0,0.0,0.0,0.0,-1.6476845,0.13332519,-0.84682995,18.197775,1.5049696,-33.788754,-0.055527687,-1.4249444,-0.35603642,-0.7298082
16.831022,30.013786,6.2465973,0.92720747,-0.6941687,-1.8036342,0.07031989,0.5705659,-0.8071888,-0.6681373,-0.5628797,-0.6733627,0.666366,0.268818,1.1335227,-0.6527264,-1.680748,-1.0250825,2.1564076,1.5385133,-0.8905021,1.0862108,-0.58624303,-1.62592,-0.97940695,2.2145276,1.4763876,-0.9151857,1.007297,-1.4233152,-1.2506154,-1.0549808,-0.9259849,0.45071626,0.21813457,0.9631767,-0.53782654,1.3820066,-3.4501445,-0.45009512,-1.5065088,0.12340927,-0.4011917,1.0011977,0.7849301,-0.17973739,0.12401405,0.5798273,0.40069613,-0.93179226,-0.95549005,1.0,0.0,0.0,0.0,0.0,0.0,0.0,-1.6131767,0.13782653,-0.83200663,13.159906,0.117754936,-20.792698,2.5137901,-1.8622041,-0.13468266,-0.6540805
11.422004,39.24126,11.768172,9.261566,0.076093376,-0.8657613,0.03719546,0.5917516,-0.80728245,-0.65671575,-0.49543813,-0.6806037,0.67847204,0.22540535,1.145386,-0.66697127,-1.6915916,-1.0289508,2.1464672,1.5442349,-0.8926452,1.0968806,-0.6005119,-1.6389911,-0.9894434,2.2051244,1.480929,-0.91307425,1.0862476,-1.4282868,-1.3258809,-0.9865357,-0.94555837,0.45500842,0.20913205,0.9286995,-0.5423279,1.3662163,-3.446695,-0.4496451,-1.6031886,0.12759018,-0.4104843,0.9915359,0.7838993,-0.17209214,0.12506501,0.583305,0.4294303,-0.92114407,-0.977439,1.0,0.0,0.0,0.0,0.0,0.0,0.0,-1.5786995,0.14232787,-0.8162163,7.78296,-0.54376125,-7.501936,6.85755,-1.9949436,0.35489798,-0.8401543
1.2090621,45.425648,15.322385,20.82616,1.1519754,-0.0047730803,-0.2047358,0.59244156,-0.80412966,-0.6597724,-0.35445252,-0.6917026,0.6909618,0.16750762,1.1561247,-0.6809249,-1.7049683,-1.0248886,2.1359541,1.5500252,-0.8963235,1.1079623,-0.6148323,-1.6521919,-0.9981829,2.195519,1.4855314,-0.9110868,1.1153631,-1.4334975,-1.3180773,-0.83634365,-0.9658562,0.46243453,0.19544005,0.8942604,-0.5468216,1.3494599,-3.443249,-0.44919556,-1.6997718,0.13170624,-0.4195404,0.9819192,0.7828572,-0.16482769,0.12607788,0.5865754,0.41219023,-0.89357597,-0.96422553,1.0,0.0,0.0,0.0,0.0,0.0,0.0,-1.5442604,0.14682159,-0.7994599,2.9001236,-0.6082535,0.84421635,15.043163,-2.1982074,0.8678436,-1.2917727
-6.473365,42.952686,14.255207,25.428568,1.7430545,0.20992659,-0.3630502,0.57495105,-0.81261903,-0.686672,-0.305454,-0.66976935,0.67366004,0.08216768,1.1654574,-0.69609416,-1.720859,-1.0287282,2.128542,1.5528975,-0.90287006,1.1190134,-0.6292366,-1.6651561,-1.0053374,2.1858106,1.490193,-0.909292,1.1022505,-1.4431382,-1.2889788,-0.67501056,-0.97316384,0.46794394,0.17442247,0.85985184,-0.5513077,1.3317384,-3.4398065,-0.44874644,-1.7962583,0.13547134,-0.42836,0.9724897,0.78193873,-0.15811403,0.1269421,0.58945507,0.37203735,-0.8722327,-0.94346863,1.0,0.0,0.0,0.0,0.0,0.0,0.0,-1.5098518,0.15130767,-0.78173834,-1.2141943,-1.080656,2.9859066,16.225672,-1.0011673,0.70195794,-2.0278394
-9.067188,39.808144,12.287285,24.236126,1.7412156,0.09024021,-0.37720066,0.5493392,-0.8138327,-0.7037243,-0.30126616,-0.64516306,0.6647324,0.0065503214,1.1739473,-0.71061987,-1.7355286,-1.0354639,2.1212943,1.5566663,-0.9086369,1.1297098,-0.6437305,-1.6778781,-1.0111967,2.176148,1.4948946,-0.9077518,1.0595264,-1.4517827,-1.2664305,-0.5558924,-0.96529067,0.4710423,0.1474998,0.8254814,-0.55579376,1.3130529,-3.4363673,-0.4482978,-1.8926485,0.1388359,-0.43704224,0.9631912,0.78122574,-0.1518218,0.12764426,0.59189814,0.33196822,-0.8600044,-0.9325223,1.0,0.0,0.0,0.0,0.0,0.0,0.0,-1.4754814,0.15579376,-0.7630529,-4.093361,-0.98588467,2.287674,12.061095,0.48439503,0.39621592,-2.6313424
-6.2927885,35.079372,9.389974,17.412731,1.1395936,-0.33010057,-0.26770642,0.52416414,-0.8170452,-0.735191,-0.35665804,-0.63546824,0.6434023,-0.14006752,1.1821263,-0.725435,-1.7513973,-1.0468625,2.112601,1.5592349,-0.92175853,1.1398722,-0.65830266,-1.6905868,-1.0165392,2.166615,1.4995962,-0.9065702,1.002518,-1.4593173,-1.2726886,-0.52650553,-0.9502143,0.46972805,0.10843563,0.7911415,-0.56027985,1.2934042,-3.4329317,-0.44784957,-1.9889421,0.14197159,-0.44567108,0.9537973,0.7807251,-0.1455965,0.12827672,0.59398234,0.31416765,-0.85811687,-0.94882375,1.0,0.0,0.0,0.0,0.0,0.0,0.0,-1.4411415,0.16027984,-0.7434042,-5.4834366,-0.85692406,-0.6793499,3.1248093,1.2487888,-0.18913746,-3.8683982
-1.6639566,33.90772,8.438318,11.175314,0.44079185,-0.57940334,-0.08745031,0.50117624,-0.82087296,-0.73973477,-0.39691713,-0.67598164,0.6475037,-0.1431018,1.1899898,-0.74038994,-1.7645602,-1.0562309,2.099017,1.5643466,-0.9208804,1.149449,-0.6729435,-1.703448,-1.0221182,2.157105,1.5042788,-0.90575576,0.94355726,-1.4658935,-1.2909455,-0.567564,-0.9521589,0.4671984,0.072476454,0.75683975,-0.5647507,1.2727933,-3.4294994,-0.44740182,-2.0851395,0.14509964,-0.4542923,0.94407976,0.78035325,-0.13912684,0.12899616,0.59586275,0.3195772,-0.8556399,-0.98630476,1.0,0.0,0.0,0.0,0.0,0.0,0.0,-1.4068397,0.16475067,-0.7227933,-5.67888,-0.7395983,-1.9478083,-3.9151788,-0.40684938,-0.41732192,-3.5771594
-3.7329726,34.12451,8.060154,10.918984,0.36625516,-0.48398834,-0.075560525,0.4387686,-0.81827474,-0.7376815,-0.40700445,-0.68358386,0.65245,-0.18910028,1.1933259,-0.75477093,-1.7772162,-1.0628186,2.0887465,1.5695238,-0.9246658,1.1582876,-0.6876167,-1.7164867,-1.0282885,2.1475224,1.5089384,-0.90529895,0.8647374,-1.4680947,-1.3087254,-0.6328055,-0.9609638,0.4649337,0.03679593,0.7225685,-0.5692215,1.2512211,-3.4260705,-0.4469545,-2.1812406,0.14827728,-0.46284485,0.93394786,0.7800795,-0.13228947,0.12990277,0.59757906,0.3233526,-0.85051394,-1.0291194,1.0,0.0,0.0,0.0,0.0,0.0,0.0,-1.3725685,0.16922149,-0.70122105,-7.6195955,-0.30043125,-1.9345284,-6.312418,-1.1120081,-0.4147768,-3.5645127
-7.0088563,32.30621,6.705723,10.3567505,0.31182367,-0.42124102,-0.041341007,0.36354503,-0.81810766,-0.75286084,-0.47577244,-0.69486636,0.6383245,-0.17765294,1.1946422,-0.7694275,-1.7917727,-1.0758657,2.0780358,1.5727708,-0.92306423,1.1661402,-0.70229375,-1.7297351,-1.0353705,2.137814,1.5135657,-0.9051521,0.7600231,-1.4678181,-1.3310316,-0.73231673,-0.97522736,0.4610452,0.0072351196,0.6883354,-0.5736923,1.2286885,-3.422645,-0.44650763,-2.2772455,0.15147018,-0.4713745,0.9233168,0.7798918,-0.124961175,0.13107271,0.5991438,0.32418987,-0.845899,-1.0814638,1.0,0.0,0.0,0.0,0.0,0.0,0.0,-1.3383354,0.17369232,-0.67868847,-10.146666,-0.055336952,-2.4258137,-9.6964245,-1.6890526,-0.6262064,-2.9699128
-22.992706,28.582228,3.8296943,16.197495,0.9692526,0.052707434,-0.16655408,0.18284114,-0.812474,-0.73226684,-0.55119383,-0.70615834,0.63518655,-0.11166818,1.1844243,-0.78354114,-1.8029618,-1.0904899,2.0671983,1.5770843,-0.9163189,1.1723028,-0.71693456,-1.7430675,-1.0436388,2.1279378,1.5181528,-0.905216,0.57001966,-1.4632704,-1.3345889,-0.85713947,-0.9935103,0.45710576,-0.011013485,0.65413284,-0.5781479,1.2051967,-3.419223,-0.4460612,-2.3731544,0.15441513,-0.47988892,0.91215086,0.7798703,-0.117058314,0.13256525,0.6004383,0.28944787,-0.8437667,-1.1353769,1.0,0.0,0.0,0.0,0.0,0.0,0.0,-1.3041328,0.17814788,-0.6551967,-18.494247,0.33361912,-0.5847454,-12.114739,-2.245164,-0.6387651,-1.8682702
-51.257187,21.597618,-1.0930539,27.267376,2.3259768,0.8710501,-0.38395107,-0.09710047,-0.8124828,-0.67319316,-0.6448335,-0.7090145,0.6374595,0.08423728,1.1625928,-0.79818285,-1.8103868,-1.1081222,2.0570364,1.5818988,-0.89679223,1.1755263,-0.7315334,-1.7561023,-1.0533453,2.1178784,1.5227057,-0.9052837,0.24228977,-1.4594735,-1.294052,-1.0065335,-1.0121889,0.45378724,-0.0054726996,0.6199684,-0.58260345,1.1807466,-3.4158046,-0.44561523,-2.4689674,0.15653229,-0.48840332,0.9004671,0.78018177,-0.10854627,0.1343734,0.6012302,0.1885434,-0.8492863,-1.1863303,1.0,0.0,0.0,0.0,0.0,0.0,0.0,-1.2699684,0.18260345,-0.63074654,-31.994953,0.17113686,3.8067102,-14.367903,-2.5639296,-0.5847931,0.49471605
-74.80586,24.415045,-1.2465332,38.594055,3.6782877,1.921155,-0.50796074,-0.37301984,-0.8003224,-0.54537576,-0.7217774,-0.69495785,0.6491854,0.30990887,1.1382242,-0.81156564,-1.8106399,-1.1255231,2.0483828,1.5876242,-0.8742928,1.1746317,-0.7460512,-1.7681129,-1.0645853,2.1077008,1.5272413,-0.9051006,-0.19691992,-1.4501626,-1.171131,-1.160923,-1.0227151,0.45263493,0.02635643,0.5858345,-0.587059,1.1553389,-3.4123895,-0.4451697,-2.5646849,0.15717316,-0.4969406,0.88842946,0.7809269,-0.09957694,0.13635156,0.60137004,0.024851391,-0.84708536,-1.2163191,1.0,0.0,0.0,0.0,0.0,0.0,0.0,-1.2358345,0.18705902,-0.6053389,-42.96126,0.6411791,12.0002985,-14.710712,-1.9676208,-0.32743216,3.1957533
-51.85534,64.32066,20.341,38.10702,3.4339707,3.0879798,0.033931546,-0.42056593,-0.7749098,-0.17412493,-0.7441233,-0.6636457,0.67604953,0.47545263,1.1325752,-0.8235422,-1.7855254,-1.1389977,2.0413363,1.5948462,-0.8575553,1.1698786,-0.76035917,-1.777251,-1.0771128,2.097569,1.5318094,-0.9044578,-0.56564265,-1.4248248,-0.82996553,-1.2817321,-1.0113393,0.45899755,0.077930324,0.55173874,-0.59150696,1.1289748,-3.4089777,-0.44472462,-2.6603065,0.15634537,-0.5049057,0.8766175,0.78166217,-0.090944245,0.13800803,0.6014043,-0.11955124,-0.7708455,-1.1754127,1.0,0.0,0.0,0.0,0.0,0.0,0.0,-1.2017387,0.19150695,-0.5789748,-36.18035,2.4055243,33.487083,-11.631918,0.6460428,0.85654855,5.4771414
-25.111835,77.49742,28.821514,30.048624,2.4943929,2.6800542,0.3171804,-0.4119887,-0.7712421,-0.14474294,-0.75135225,-0.65642667,0.6683587,0.5193454,1.1286798,-0.8374834,-1.7917253,-1.152248,2.0319264,1.5986453,-0.85252327,1.1625468,-0.77441156,-1.7831142,-1.090489,2.0876203,1.5364462,-0.90328765,-0.7875848,-1.3985635,-0.5075985,-1.3552912,-0.9895274,0.4667053,0.13146022,0.5176735,-0.59594727,1.1016552,-3.4055696,-0.44427997,-2.7558324,0.15449142,-0.5119858,0.8653338,0.78203565,-0.08308897,0.13908473,0.60180724,-0.20943063,-0.67900664,-1.1171877,1.0,0.0,0.0,0.0,0.0,0.0,0.0,-1.1676735,0.19594726,-0.55165523,-21.773731,2.6441813,31.477844,-7.0977926,2.114427,1.1792839,5.780025
-3.5490682,57.026733,19.322594,15.583863,1.0625949,0.686926,0.3168914,-0.33680433,-0.77814174,-0.43363488,-0.7684215,-0.64666075,0.63858706,0.53154325,1.1288663,-0.8522257,-1.8264776,-1.1673312,2.0229542,1.600305,-0.8501333,1.1543509,-0.7882875,-1.7878444,-1.1043459,2.077908,1.5411211,-0.9016311,-0.829852,-1.3838661,-0.46275786,-1.3949761,-0.9648896,0.46810952,0.17784287,0.48364258,-0.6003876,1.0733811,-3.4021647,-0.4438358,-2.8512628,0.15228653,-0.5185547,0.8541905,0.7820586,-0.07550624,0.13983217,0.60260284,-0.22807567,-0.6389491,-1.1163611,1.0,0.0,0.0,0.0,0.0,0.0,0.0,-1.1336426,0.20038757,-0.52338105,-4.0430546,1.4961481,4.084462,-3.7624836,2.4192333,0.26358962,4.8752694
9.522019,36.99965,9.608236,5.1148005,0.0071246475,-0.8530924,0.26375723,-0.28585452,-0.78620094,-0.60391515,-0.7758227,-0.67266834,0.6331786,0.52464175,1.1257654,-0.8669076,-1.848236,-1.1819282,2.010641,1.604439,-0.8491669,1.1466395,-0.8021225,-1.7937667,-1.1184126,2.0683255,1.5457827,-0.8995807,-0.75152224,-1.3834485,-0.63558364,-1.4097378,-0.9566187,0.46514267,0.21424332,0.449646,-0.6048279,1.0441535,-3.3987632,-0.44339204,-2.9465978,0.15024948,-0.5250244,0.8426419,0.7818432,-0.06750366,0.1406156,0.6036486,-0.1988663,-0.6428992,-1.170116,1.0,0.0,0.0,0.0,0.0,0.0,0.0,-1.099646,0.20482787,-0.49415344,7.8663945,0.038290024,-17.343605,-1.2861729,0.7000923,-0.46015978,3.6902606
-1.4038367,23.865448,1.5665565,7.0599027,0.27908242,-1.1582279,0.0034943894,-0.35924798,-0.78317046,-0.68719715,-0.7742048,-0.6966063,0.62905896,0.51074225,1.1107147,-0.8804395,-1.8624865,-1.1958331,1.9986649,1.6086886,-0.8485065,1.1395975,-0.8159889,-1.802098,-1.132485,2.0586972,1.5503985,-0.8972318,-0.68824476,-1.3880513,-0.8986781,-1.4055247,-0.9660333,0.45940983,0.2415703,0.41568375,-0.6092529,1.0139731,-3.3953652,-0.44294873,-3.0418375,0.14838791,-0.53176117,0.83037376,0.78160274,-0.05866773,0.14168589,0.6046323,-0.18529859,-0.6730545,-1.2484807,1.0,0.0,0.0,0.0,0.0,0.0,0.0,-1.0656837,0.20925292,-0.4639731,6.419146,-0.53727627,-26.228035,0.72534084,-1.217258,-0.92006326,2.6995897
-21.075197,18.385794,-2.318275,14.487951,1.3511523,-0.6177538,-0.238583,-0.45987743,-0.7981627,-0.70091623,-0.776401,-0.66212124,0.6017332,0.46075174,1.0936098,-0.8958052,-1.8721896,-1.2101251,1.992485,1.6105717,-0.85115665,1.1325957,-0.8299879,-1.8128097,-1.146464,2.0490422,1.554936,-0.89468837,-0.70353144,-1.4043314,-1.1284741,-1.3938442,-0.9666938,0.45037356,0.2586775,0.38175583,-0.613678,0.98284113,-3.3919706,-0.44250587,-3.136982,0.14630508,-0.5388489,0.81734055,0.781552,-0.048930593,0.14297101,0.60526145,-0.2197271,-0.71107775,-1.3249711,1.0,0.0,0.0,0.0,0.0,0.0,0.0,-1.0317558,0.21367797,-0.43284112,-1.3084888,-1.7914772,-22.885323,1.6218424,-0.4838109,-1.328516,1.7079115
-38.02418,25.006088,-0.14634061,22.805616,2.3840659,0.3955054,-0.37841374,-0.5629333,-0.7947041,-0.6792092,-0.77730346,-0.6329201,0.6087009,0.45365372,1.0763023,-0.9094583,-1.8807306,-1.2241943,1.9857502,1.6158061,-0.849323,1.124787,-0.844128,-1.8250873,-1.1603247,2.039475,1.5593935,-0.89200664,-0.80569,-1.4179549,-1.2607089,-1.3816891,-0.95543885,0.4430411,0.27165514,0.34786224,-0.618103,0.9507584,-3.3885794,-0.44206345,-3.2320313,0.14351654,-0.5462189,0.80373394,0.78181005,-0.038517155,0.14424872,0.6053773,-0.30118597,-0.73408085,-1.3765906,1.0,0.0,0.0,0.0,0.0,0.0,0.0,-0.9978622,0.21810302,-0.4007584,-9.898543,-1.5857935,-13.163114,1.7532825,0.60213804,-1.1241853,1.36832
-42.9524,35.83495,4.9594383,26.485027,2.8199792,1.1645789,-0.37802315,-0.6223145,-0.78945315,-0.67434543,-0.77754223,-0.60327065,0.61479217,0.42873466,1.0625556,-0.92307335,-1.8925219,-1.238079,1.9791479,1.6208727,-0.8491332,1.115666,-0.85834444,-1.838042,-1.17409,2.0301137,1.5637957,-0.88922954,-0.9462671,-1.423734,-1.3070619,-1.3730364,-0.93162423,0.43818742,0.28019217,0.314003,-0.62252045,0.91772586,-3.3851914,-0.44162148,-3.3269858,0.13978577,-0.5536499,0.78980714,0.7823781,-0.027737748,0.14530684,0.6049801,-0.4018933,-0.73561466,-1.402464,1.0,0.0,0.0,0.0,0.0,0.0,0.0,-0.96400297,0.22252044,-0.36772585,-13.730788,-0.80857277,-4.6231985,1.3949633,1.853025,-0.8009553,0.9969294
-42.96603,43.70129,8.431234,27.31383,2.8410897,1.5340476,-0.36960468,-0.67656106,-0.7796504,-0.7137771,-0.7691592,-0.59960115,0.62330574,0.41765308,1.0480099,-0.93630946,-1.9094198,-1.2510059,1.9701536,1.6261263,-0.8474642,1.1050955,-0.87253606,-1.8512352,-1.18776,2.0209813,1.5681654,-0.88638854,-1.0927352,-1.4183712,-1.3233668,-1.3635559,-0.90860736,0.43569836,0.28598493,0.28017426,-0.62693024,0.88374454,-3.3818069,-0.44117993,-3.4218452,0.13502884,-0.56100464,0.77572656,0.78323025,-0.016785162,0.14607324,0.6040953,-0.5049031,-0.7230499,-1.4142847,1.0,0.0,0.0,0.0,0.0,0.0,0.0,-0.93017423,0.22693023,-0.33374453,-14.342403,0.31325817,-1.6302824,1.4504671,1.7928004,-0.5267322,0.7472992
-41.364937,44.474506,8.7867775,25.893684,2.8083444,1.5555509,-0.36720118,-0.73253256,-0.7867772,-0.75871927,-0.76917475,-0.5482293,0.60871285,0.32621446,1.0318422,-0.9512138,-1.9271071,-1.2646775,1.9661584,1.6290367,-0.8537671,1.093144,-0.88668764,-1.8646228,-1.2013613,2.0121922,1.5725046,-0.8835666,-1.2284609,-1.4147837,-1.3440273,-1.3573297,-0.8706256,0.432258,0.28161418,0.24638367,-0.63134,0.84881526,-3.3784258,-0.44073886,-3.5166097,0.12926102,-0.56822205,0.7615162,0.7843643,-0.005689908,0.14646223,0.60273457,-0.6055278,-0.70899874,-1.427355,1.0,0.0,0.0,0.0,0.0,0.0,0.0,-0.89638364,0.23134002,-0.29881525,-13.288689,0.13673306,-2.0626545,1.1345387,3.3082128,-0.6494403,-0.24265051
-36.73994,46.37835,10.122338,24.256134,2.6948736,1.5305104,-0.36625075,-0.77020377,-0.7894598,-0.7817558,-0.74273324,-0.5080939,0.60856104,0.22753794,1.0161237,-0.96563363,-1.9427984,-1.2756346,1.9613829,1.6333607,-0.86081284,1.0800368,-0.9008211,-1.8782623,-1.2148024,2.0038571,1.5768114,-0.8808677,-1.3374537,-1.4135526,-1.3706652,-1.3382242,-0.8223761,0.42933306,0.2666934,0.2126236,-0.6357498,0.8129391,-3.3750482,-0.4402982,-3.6112795,0.12254715,-0.57530975,0.74718654,0.7857836,0.005517452,0.14639479,0.60090125,-0.69852215,-0.6927174,-1.4386555,1.0,0.0,0.0,0.0,0.0,0.0,0.0,-0.8626236,0.23574981,-0.2629391,-10.661268,-0.07998943,-2.6530027,2.3916006,4.3982863,-0.5912721,-1.2816608
-29.436003,51.051834,13.101057,22.314968,2.3346798,1.5442661,-0.33107004,-0.7954257,-0.7845837,-0.78786224,-0.71017927,-0.53222513,0.61670685,0.17753449,1.0004942,-0.97927946,-1.9570485,-1.2858204,1.9506346,1.6384821,-0.8631143,1.0660807,-0.91492784,-1.8921459,-1.227923,1.9958653,1.581103,-0.8783548,-1.4144961,-1.410293,-1.3943102,-1.3019302,-0.79250586,0.42820892,0.24690099,0.17889786,-0.64014435,0.7761169,-3.3716738,-0.439858,-3.7058547,0.11502075,-0.5821533,0.732787,0.787448,0.016748002,0.145916,0.59862643,-0.77581584,-0.668197,-1.4439223,1.0,0.0,0.0,0.0,0.0,0.0,0.0,-0.82889783,0.24014434,-0.2261169,-7.5280905,0.1611948,-2.353716,4.034996,2.6504278,-0.35617352,-1.7879277
-20.78091,54.358387,15.71655,19.001024,1.8864043,1.4743412,-0.30915308,-0.811161,-0.7824777,-0.79742885,-0.70259625,-0.5177,0.5955752,-0.08133948,0.9849646,-0.9931756,-1.9718888,-1.2981826,1.9440954,1.6406605,-0.88648874,1.0515394,-0.9289561,-1.9065228,-1.2408612,1.9884963,1.585117,-0.8763643,-1.4753845,-1.3924363,-1.5132984,-1.3288548,-0.66110015,0.29518035,0.17174497,0.1502266,-0.6436691,0.74891204,-1.888545,-0.018758053,0.05867959,0.1068573,-0.5887985,0.7182454,0.7894031,0.028203001,0.14493865,0.5958524,-0.8321295,-0.6755396,-1.4835379,0.0,1.0,0.0,0.0,0.0,0.0,0.0,-0.80022657,0.24366912,-0.19891202,-7.35929,3.0124187,-21.705627,-8.521891,23.64868,-26.571625,-10.448891
23.14212,176.0,110.0,110.0,5.8857493,12.260526,-2.2337997,-0.79635984,0.5338672,0.708019,0.69702214,-0.39747363,0.62375253,-0.35251585,0.97190344,-0.87556934,-1.8357209,-1.1711589,1.948749,1.6474923,-0.91161585,1.0400305,-0.94514185,-1.9140205,-1.2410767,1.973289,1.5961224,-0.87429196,-1.0427012,-1.6762139,-0.5202387,0.4063418,-1.7795938,1.39185,0.22560544,0.13135529,-0.64385223,0.74876195,-1.8866568,-0.018739298,-0.03956503,0.09740448,-0.5938339,0.70774615,0.79195744,0.030422231,0.1462507,0.5920207,-0.9865614,-0.43050992,-0.90735954,0.0,1.0,0.0,0.0,0.0,0.0,0.0,-0.78135526,0.24385223,-0.19876194,43.269085,-23.029064,91.81459,171.17444,-103.52202,116.518715,7.3504686
-59.14557,153.27264,60.443752,97.40237,9.141612,4.7969103,-2.6717603,-0.82561237,-0.6167217,-0.25229022,0.7381175,-0.4199993,0.5439318,-0.3066045,0.9574692,-1.006814,-1.9392495,-1.1672649,1.9312891,1.6505156,-0.9049524,1.0295744,-0.96112543,-1.916605,-1.2301323,1.955749,1.6100937,-0.87243706,-1.0449882,-1.5733321,-0.16949834,1.3256278,-1.7475837,1.4034668,0.17440407,0.11250305,-0.64403534,0.7476301,-1.8847704,-0.018720562,-0.13771144,0.0859642,-0.5981369,0.7015209,0.796163,0.026306516,0.14864853,0.58594865,-1.1974937,-0.4197362,-0.5315913,0.0,1.0,0.0,0.0,0.0,0.0,0.0,-0.762503,0.24403533,-0.1976301,0.24785995,10.020804,35.595654,92.44565,2.547717,2.505374,-4.433164
-69.47715,142.33981,40.552113,74.097595,6.534308,2.841823,-2.1194327,-0.82050586,-0.42618567,-0.4853814,0.72442615,-0.5470248,0.5630101,0.12317532,0.94752383,-1.003744,-1.9651431,-1.1576897,1.9010465,1.6663947,-0.8601195,1.0183287,-0.9746266,-1.9186096,-1.2133934,1.9398055,1.623428,-0.8708082,-1.1491443,-1.276958,-0.21102497,1.7919691,-1.5444658,1.3124387,0.15923099,0.09366989,-0.64421844,0.74551755,-1.8828859,-0.018701846,-0.23575969,0.07273102,-0.6022873,0.697982,0.80202633,0.02052937,0.15169021,0.5773408,-1.3644958,-0.4051545,-0.30127928,0.0,1.0,0.0,0.0,0.0,0.0,0.0,-0.74366987,0.24421844,-0.19551754,-9.831333,29.258013,-4.210043,47.245716,19.89932,-8.415532,-1.4481038
-57.6425,88.20913,17.702509,41.651817,4.28751,1.1152471,-1.0782089,-0.7973759,-0.58606267,-0.36516136,0.7662381,-0.49714315,0.5475851,0.13238855,0.93859106,-1.0332329,-1.9551258,-1.1367697,1.8900912,1.6781865,-0.85756934,1.0058622,-0.985962,-1.9217663,-1.1947358,1.9265475,1.6355015,-0.86930233,-1.2779602,-1.0865812,-0.35151643,1.8918651,-1.2535855,1.1724697,0.14778239,0.074855804,-0.64440155,0.74242526,-1.8810034,-0.018683149,-0.33370993,0.05822754,-0.60640717,0.69552046,0.8089039,0.015192499,0.1548116,0.5669893,-1.4810894,-0.4043652,-0.2347481,0.0,1.0,0.0,0.0,0.0,0.0,0.0,-0.7248558,0.24440154,-0.19242525,-12.523413,18.759037,-14.321411,10.405636,28.920578,-13.895154,-1.1282921
-41.455544,50.18109,3.6098344,18.205048,2.117568,0.10488427,-0.40696937,-0.810053,-0.59642595,-0.43373412,0.7592238,-0.4786281,0.5541922,-0.091268666,0.92485696,-1.0456046,-1.9651397,-1.1188134,1.8786848,1.6909207,-0.8784292,0.9922447,-0.99608713,-1.9268017,-1.1766427,1.9159217,1.6462361,-0.86805683,-1.3890504,-0.9883677,-0.5552074,1.7825779,-0.9988955,1.0401458,0.11668428,0.05606079,-0.64458466,0.7383542,-1.8791227,-0.01866447,-0.43156224,0.042942047,-0.6105652,0.69288534,0.8162569,0.011384364,0.1575957,0.5556604,-1.5466667,-0.40635902,-0.27908772,0.0,1.0,0.0,0.0,0.0,0.0,0.0,-0.70606077,0.24458465,-0.1883542,-10.949683,9.663343,-20.647753,-10.711384,25.412537,-13.327789,-3.1527236
-20.187515,38.13566,3.826591,5.5559354,0.7984352,-0.11926824,0.04684687,-0.80396295,-0.595121,-0.40033874,0.77013916,-0.46545255,0.5574263,-0.19768319,0.9118484,-1.0555992,-1.9668355,-1.0996287,1.8693764,1.7019787,-0.88782513,0.97785854,-1.0057906,-1.9334049,-1.1601002,1.9073119,1.6557804,-0.86718804,-1.4550245,-0.9646468,-0.695498,1.6116489,-0.81561726,0.92551744,0.07694205,0.037281036,-0.64476776,0.73329735,-1.877244,-0.01864581,-0.5303819,0.02733612,-0.6146622,0.68956894,0.82369334,0.009224424,0.15986536,0.54395515,-1.5680406,-0.39774156,-0.35391444,0.0,1.0,0.0,0.0,0.0,0.0,0.0,-0.687281,0.24476776,-0.18329734,-6.579733,2.264464,-14.089036,-17.006922,18.124973,-11.592245,-3.995298
-7.4760795,39.957024,7.8036904,2.3295069,0.36267388,-0.043678284,0.17345682,-0.80634385,-0.57036805,-0.4259231,0.7726398,-0.39611414,0.5712262,-0.27220693,0.8972242,-1.0628273,-1.9759972,-1.0828363,1.8677005,1.712903,-0.8944087,0.9631014,-1.015459,-1.9410286,-1.1451104,1.900188,1.6643311,-0.8667436,-1.4828037,-0.96775407,-0.78445774,1.4615549,-0.6792026,0.8311044,0.03350618,0.01852417,-0.64495087,0.7272531,-1.8753672,-0.018627169,-0.6291028,0.011657715,-0.6186218,0.6855539,0.83102846,0.008402716,0.16159062,0.5321742,-1.5682116,-0.3810833,-0.42118677,0.0,1.0,0.0,0.0,0.0,0.0,0.0,-0.66852415,0.24495086,-0.17725307,-2.8209925,-0.4118681,-8.800602,-14.973307,13.351679,-9.567404,-4.3529553
-0.14851093,47.93074,13.060082,3.4723103,0.32914,0.16454184,0.17692819,-0.80474,-0.5557874,-0.43834272,0.767361,-0.35634312,0.5744167,-0.27110568,0.88262737,-1.0710377,-1.9848629,-1.0683743,1.8645537,1.7217728,-0.8938542,0.94827366,-1.0251998,-1.9491844,-1.1312401,1.8941188,1.6720654,-0.86669403,-1.4830014,-0.97665495,-0.8250262,1.362162,-0.5839106,0.75382805,-0.0046210685,-0.00021743774,-0.645134,0.7202223,-1.8734922,-0.018608546,-0.727725,-0.003929138,-0.6223602,0.68103534,0.8381977,0.008510744,0.16285843,0.52041256,-1.5586236,-0.3565125,-0.46534294,0.0,1.0,0.0,0.0,0.0,0.0,0.0,-0.64978254,0.24513397,-0.17022228,-0.095415115,-1.0055542,-3.8342,-9.931564,9.184134,-7.84266,-3.827605
5.370578,54.485767,17.93164,5.186002,0.59375,0.41184825,0.16265282,-0.793766,-0.57732177,-0.38912854,0.7585291,-0.28604254,0.5938489,-0.2893766,0.8688971,-1.082932,-1.9880973,-1.0553873,1.8655145,1.7314503,-0.8956317,0.93359137,-1.0351406,-1.9572479,-1.1180031,1.8888912,1.6791348,-0.8669893,-1.4631468,-0.9997243,-0.80689746,1.3065649,-0.5100396,0.68039423,-0.033789877,-0.019031525,-0.64525604,0.7125143,-1.9555925,0.05684418,-0.43692863,-0.01941681,-0.6258087,0.67625207,0.8451817,0.0090923095,0.16363285,0.50873315,-1.5440959,-0.32863057,-0.48900616,0.0,1.0,0.0,0.0,0.0,0.0,0.0,-0.63096845,0.24525604,-0.16251427,1.9305706,-2.370286,1.2576222,-6.0551643,6.250441,-8.662701,-2.4452672
3.7345524,84.73351,27.920946,13.0462265,0.6345177,0.956307,-0.020568997,-0.8054763,-0.44036773,-0.41702375,0.77560353,-0.35420585,0.5807791,-0.27342954,0.85304374,-1.0791774,-1.9989502,-1.0404428,1.8534707,1.7372128,-0.8943323,0.91907084,-1.0446526,-1.9651337,-1.1049633,1.8839552,1.6855232,-0.8675251,-1.4487426,-0.9358927,-0.78080124,1.3028083,-0.48964342,0.6246615,-0.060652863,-0.03882599,-0.64443207,0.7086195,-1.9870802,0.09079111,-0.37710997,-0.034690857,-0.62880707,0.67163324,0.85196936,0.009937651,0.16446543,0.4969915,-1.5229808,-0.27576536,-0.45571506,0.0,1.0,0.0,0.0,0.0,0.0,0.0,-0.611174,0.24443206,-0.15861946,1.3046741,6.172383,3.0946136,-0.47934055,1.5389502,-5.6788445,-2.8331957
10.545706,123.038376,42.93563,19.042364,0.53116184,1.6611128,-0.07190342,-0.7916231,-0.30441272,-0.31907457,0.7842457,-0.41950986,0.6177988,-0.28811502,0.83990854,-1.0750939,-1.9970411,-1.0265387,1.8420043,1.747303,-0.8963366,0.904718,-1.0528408,-1.9723289,-1.0917667,1.8788993,1.6914593,-0.86831194,-1.4317138,-0.7808302,-0.69660807,1.324303,-0.51229393,0.5840171,-0.08582213,-0.05853653,-0.6430664,0.705829,-1.9551752,0.14951093,-0.2522496,-0.04957199,-0.6310272,0.6678766,0.8585152,0.010497761,0.16591525,0.48509115,-1.4777018,-0.19045536,-0.35144526,0.0,1.0,0.0,0.0,0.0,0.0,0.0,-0.59146345,0.2430664,-0.15582901,1.4543772,15.210247,9.160137,1.8782377,-2.6337385,-3.8349867,-2.8575494
3.0244584,120.97519,39.27544,21.399874,0.60183364,1.5415809,-0.15862703,-0.8030571,-0.26326296,-0.39947557,0.78086084,-0.45423666,0.6268439,-0.27926368,0.8244123,-1.0791671,-2.0122764,-1.0136806,1.8334757,1.7541437,-0.8962383,0.8904405,-1.0594002,-1.9791098,-1.0783142,1.8734909,1.6970955,-0.869322,-1.4270982,-0.6151777,-0.6693267,1.351634,-0.5528046,0.556626,-0.10706522,-0.077625275,-0.64120483,0.7041174,-1.8938452,0.19790831,-0.14642613,-0.06406784,-0.63243866,0.6650923,0.86482525,0.010778194,0.16829088,0.47290513,-1.441228,-0.11229048,-0.2558769,0.0,1.0,0.0,0.0,0.0,0.0,0.0,-0.5723747,0.24120483,-0.1541174,0.2583027,16.258408,3.4283757,2.520299,-4.7480464,-2.825129,-2.416779
0.070875645,129.81105,40.019657,23.839045,0.49899796,1.533594,-0.18786041,-0.8022799,-0.12119969,-0.44720277,0.7866926,-0.50127465,0.6219421,-0.21750988,0.81021255,-1.0715202,-2.02383,-0.99964494,1.8233634,1.7592897,-0.891073,0.87616783,-1.0639855,-1.9860225,-1.0646042,1.8675681,1.7025063,-0.87047315,-1.4279996,-0.4074248,-0.6960285,1.3768371,-0.6078949,0.5353968,-0.118964456,-0.09606552,-0.63884735,0.70353943,-1.8275806,0.24781993,-0.030296428,-0.07817459,-0.633049,0.66331524,0.8708763,0.010957527,0.17191322,0.46032608,-1.4000953,-0.032076735,-0.15292823,0.0,1.0,0.0,0.0,0.0,0.0,0.0,-0.55393445,0.23884735,-0.15353942,-0.31285286,20.433712,-1.9340515,2.2895098,-6.251991,-2.260971,-1.5367582
-5.096467,115.60215,33.44832,23.026474,0.6884916,1.2451637,-0.18969132,-0.80806434,-0.08809213,-0.47603372,0.79519284,-0.49285135,0.6180603,-0.22327144,0.7953614,-1.0727947,-2.0336258,-0.9850849,1.818283,1.7643124,-0.8928003,0.8618408,-1.0667645,-1.9934425,-1.0506634,1.8611907,1.7077327,-0.8717216,-1.4348648,-0.23582123,-0.75506806,1.3992752,-0.65008587,0.5176991,-0.1278604,-0.113910675,-0.636055,0.7039127,-1.7703004,0.29035357,0.058065064,-0.09197235,-0.63295746,0.66236675,0.8766718,0.011233574,0.17673126,0.44731018,-1.3722875,0.033145074,-0.0762997,0.0,1.0,0.0,0.0,0.0,0.0,0.0,-0.5360893,0.23605499,-0.15391266,-0.8780718,16.842655,-5.2324653,2.0759344,-4.8984647,-1.9779325,-1.1879206
-8.61355,99.601295,26.746363,20.884872,0.73838365,0.9541944,-0.1452595,-0.8152264,-0.045336463,-0.52498996,0.79092854,-0.50608677,0.61236453,-0.21048944,0.78031814,-1.0712981,-2.0459416,-0.9715705,1.810582,1.7689692,-0.8927706,0.8474117,-1.0681454,-2.0016446,-1.0365814,1.8544546,1.7128009,-0.87303424,-1.4461321,-0.106291935,-0.83991575,1.410691,-0.68353677,0.5024063,-0.13325998,-0.13124847,-0.6328888,0.704935,-1.721873,0.32549372,0.11553831,-0.10556793,-0.6323242,0.6619509,0.8822101,0.0118189845,0.18254305,0.43387043,-1.3548218,0.0846734,-0.030112024,0.0,1.0,0.0,0.0,0.0,0.0,0.0,-0.5187515,0.23288879,-0.154935,-1.2901068,12.671551,-7.887423,1.0105133,-3.9438963,-1.7692208,-0.80699325
-11.604834,79.46715,19.255749,17.949673,0.7935847,0.65169954,-0.1025481,-0.8216845,-0.039156437,-0.57304204,0.7924611,-0.5203431,0.62536985,-0.23817208,0.76524323,-1.0720611,-2.0589488,-0.9573353,1.8024204,1.7753378,-0.8968514,0.83285576,-1.0686737,-2.0107846,-1.0224346,1.8474284,1.7177446,-0.87441045,-1.4591591,-0.035673395,-0.9369376,1.4158145,-0.7105715,0.49083245,-0.13984077,-0.14818954,-0.6294327,0.7062516,-1.6848668,0.35215402,0.13645537,-0.119091034,-0.6312866,0.66172945,0.88749397,0.012889117,0.18907903,0.4200445,-1.3502034,0.12111246,-0.019099848,0.0,1.0,0.0,0.0,0.0,0.0,0.0,-0.50181043,0.22943267,-0.15625161,-1.4219761,6.8315954,-9.205664,0.42905807,-3.1830907,-1.3969362,-0.8872926
-12.952766,56.821686,11.449443,13.876433,0.7249473,0.30419147,-0.010069631,-0.82230175,-0.06988344,-0.6293946,0.79030824,-0.54273,0.6314589,-0.1990901,0.7506256,-1.075662,-2.073724,-0.9434038,1.7931554,1.7808905,-0.8943195,0.8181959,-1.0690018,-2.020951,-1.0082766,1.8401314,1.7225933,-0.8758162,-1.468513,-0.032601863,-1.0419518,1.4156486,-0.7372553,0.48216036,-0.14147684,-0.16485214,-0.6257858,0.7074743,-1.6604844,0.36927328,0.11652956,-0.1326561,-0.63002014,0.6613206,0.89251614,0.014610455,0.19603683,0.40592006,-1.3567121,0.14115432,-0.04769115,0.0,1.0,0.0,0.0,0.0,0.0,0.0,-0.48514783,0.22578582,-0.15747428,-0.99716187,0.14190674,-10.14291,-0.04079342,-2.9963493,-1.065439,-0.35455525
-9.800808,50.975246,10.520999,11.808191,0.7429187,0.25453,0.06254372,-0.817729,-0.069156736,-0.6366401,0.7917609,-0.5455343,0.6382761,-0.19823483,0.73642296,-1.0759175,-2.084615,-0.9291005,1.785578,1.786421,-0.8956397,0.8034969,-1.0695206,-2.0319526,-0.99413073,1.8326185,1.7273736,-0.87723047,-1.4706117,-0.05871304,-1.1183479,1.4142164,-0.7570369,0.47600037,-0.14196633,-0.18128586,-0.62197876,0.70842624,-1.6374108,0.38394412,0.088250525,-0.14627838,-0.6285553,0.66056913,0.89725596,0.016960794,0.20317468,0.39161718,-1.363196,0.15823062,-0.08346984,0.0,1.0,0.0,0.0,0.0,0.0,0.0,-0.46871412,0.22197875,-0.15842623,-0.27430058,-2.754142,-7.2731733,-0.16508102,-2.2957325,-0.8137703,-0.2183646
-4.030503,55.821655,13.463127,11.03895,0.74290085,0.35615784,0.12499495,-0.8076174,-0.059562538,-0.63236314,0.7929169,-0.5609551,0.6527844,-0.19410183,0.72273517,-1.0754769,-2.0951889,-0.914839,1.776523,1.792652,-0.89664066,0.7888494,-1.0703083,-2.0434272,-0.9799992,1.824923,1.7321167,-0.87864286,-1.4631736,-0.08587745,-1.1555004,1.4125367,-0.7749663,0.4728862,-0.14153033,-0.19743347,-0.6180191,0.70918006,-1.6074169,0.40002704,0.070684545,-0.15990448,-0.6268997,0.65954036,0.90167874,0.019772481,0.21038105,0.37725875,-1.3600765,0.1793188,-0.10844602,0.0,1.0,0.0,0.0,0.0,0.0,0.0,-0.4525665,0.2180191,-0.15918005,0.63405037,-2.8637767,-3.2461405,-0.23453236,-2.1978378,-0.5282998,-0.12714267
-4.5000663,47.864094,11.026393,9.697496,0.7693893,0.27813524,0.17295653,-0.81193966,-0.11549407,-0.6552097,0.79172873,-0.5828223,0.64925104,-0.14750037,0.70765543,-1.0818577,-2.1089482,-0.90082633,1.7666408,1.7970418,-0.8933929,0.7742677,-1.0715786,-2.0551612,-0.96588385,1.8170244,1.7368318,-0.8800143,-1.4568689,-0.14109957,-1.1777138,1.4110925,-0.7959661,0.47042796,-0.13611703,-0.21332169,-0.61392975,0.7096491,-1.5822496,0.41260302,0.039141476,-0.17353058,-0.62506866,0.6581728,0.9057767,0.022997452,0.21752875,0.3629337,-1.3618512,0.19604729,-0.14523701,0.0,1.0,0.0,0.0,0.0,0.0,0.0,-0.4366783,0.21392974,-0.15964907,0.54392815,-5.645311,-1.7967701,-0.16961098,-2.4542928,-0.44270158,0.40411353
-5.679946,38.036026,7.92542,8.117167,0.8182863,0.170466,0.2258407,-0.812162,-0.18001708,-0.6659131,0.78931534,-0.577109,0.6449856,-0.07319871,0.69305146,-1.0895803,-2.1217525,-0.88695234,1.7593135,1.8013303,-0.88733417,0.75973463,-1.0736309,-2.0670402,-0.95178664,1.8089643,1.7415221,-0.88127506,-1.4521888,-0.2269724,-1.1902728,1.4094281,-0.81020063,0.46798512,-0.12304176,-0.22901154,-0.6097412,0.7096717,-1.5646586,0.42104918,-0.010381548,-0.18724442,-0.62309265,0.6563281,0.909565,0.026646206,0.22443861,0.34872437,-1.3713741,0.20760106,-0.1968284,0.0,1.0,0.0,0.0,0.0,0.0,0.0,-0.42098844,0.2097412,-0.15967166,0.4178524,-8.68215,-0.91063976,-0.13182163,-1.7006278,-0.41896105,1.2175634
-3.96236,37.18026,8.013472,7.409858,0.8504222,0.1630382,0.29190722,-0.8016848,-0.216933,-0.6623849,0.7905048,-0.5647836,0.6450081,0.06451914,0.67956614,-1.0953243,-2.1332786,-0.87273616,1.7524859,1.8060229,-0.87482315,0.74528074,-1.0765873,-2.078961,-0.9376951,1.8008404,1.7461917,-0.882306,-1.4432809,-0.31898278,-1.1914653,1.4092058,-0.81391215,0.46598038,-0.09661382,-0.24452972,-0.6054764,0.70917314,-1.5474133,0.42819035,-0.06225788,-0.20103836,-0.6210251,0.6539677,0.9130468,0.030687433,0.23099084,0.33473408,-1.3802749,0.21910335,-0.24858522,0.0,1.0,0.0,0.0,0.0,0.0,0.0,-0.40547025,0.20547637,-0.15917313,0.8392811,-9.290939,0.22797585,0.023698807,-0.65227747,-0.37848353,2.577375
-3.5541835,44.021347,9.93211,8.638914,0.9502686,0.2691179,0.31203026,-0.80096376,-0.23103352,-0.6637876,0.7895667,-0.5582092,0.63725716,0.17864665,0.6651844,-1.0996907,-2.1453397,-0.8587384,1.7450194,1.8099174,-0.86444134,0.73090595,-1.0803257,-2.090859,-0.9236073,1.7927375,1.7508378,-0.88299835,-1.435837,-0.39265186,-1.1880772,1.4087328,-0.81030566,0.4635201,-0.060298454,-0.25984192,-0.60113525,0.70822734,-1.5255206,0.43666163,-0.10453316,-0.21490097,-0.61878204,0.6511768,0.91621864,0.03506909,0.23718624,0.32102382,-1.3859061,0.23579645,-0.28906924,0.0,1.0,0.0,0.0,0.0,0.0,0.0,-0.39015806,0.20113525,-0.15822732,0.6690264,-7.4787617,0.75740814,-0.019168854,0.0011920929,-0.45346618,3.5630486
-3.4219465,36.75087,7.9902554,7.0298615,1.0321684,0.20000309,0.33294547,-0.79613346,-0.31830636,-0.6478762,0.7842408,-0.50553596,0.6444619,0.20121098,0.6512926,-1.1121564,-2.1556466,-0.8451832,1.7421839,1.815284,-0.86287725,0.71660846,-1.084972,-2.1026387,-0.9095444,1.7848341,1.7554665,-0.8833331,-1.4279308,-0.48900542,-1.1734661,1.405743,-0.78452957,0.46180597,-0.024608312,-0.27498627,-0.59672546,0.70675987,-1.5106198,0.44227827,-0.16103679,-0.22885895,-0.6164093,0.6479079,0.9191244,0.03974191,0.24286671,0.30764702,-1.3971771,0.24958684,-0.3392517,0.0,1.0,0.0,0.0,0.0,0.0,0.0,-0.3750137,0.19672546,-0.15675986,0.7406473,-9.724421,1.8137932,-0.22556782,2.2823095,-0.3746152,3.5572667
-4.806238,41.18733,8.798118,8.444594,1.1592908,0.27574736,0.30722785,-0.79723626,-0.34125423,-0.6495763,0.7903895,-0.4914904,0.6287546,0.27518705,0.6368848,-1.1190975,-2.1675963,-0.8305055,1.7356851,1.818342,-0.8558144,0.70236427,-1.0904862,-2.1142848,-0.89548135,1.7772268,1.7600667,-0.883292,-1.4235249,-0.5725199,-1.1604953,1.4067332,-0.7537932,0.4586822,0.01381425,-0.2899704,-0.59226227,0.7047521,-1.4940546,0.4487351,-0.21280006,-0.242939,-0.61385345,0.64419365,0.9217974,0.04467234,0.24800459,0.2945973,-1.4088254,0.26769343,-0.38215283,0.0,1.0,0.0,0.0,0.0,0.0,0.0,-0.36002958,0.19226226,-0.15475208,0.38530827,-8.459579,1.6867399,0.17998219,2.7369738,-0.5561471,3.847246
-7.1630735,35.41137,6.733072,7.8955755,1.2050536,0.24414611,0.29311803,-0.80046314,-0.41396293,-0.6413997,0.79199815,-0.4599473,0.6111695,0.31296137,0.62231797,-1.1318824,-2.1784248,-0.81628156,1.731232,1.8211837,-0.8519959,0.68812877,-1.0969368,-2.1257937,-0.8813907,1.7699728,1.7646215,-0.88287437,-1.4235513,-0.6696112,-1.1468031,1.4103199,-0.71673936,0.4536869,0.05127974,-0.3048401,-0.58774567,0.7021481,-1.4841514,0.45376718,-0.2752188,-0.25718307,-0.61112976,0.63999563,0.92428005,0.049863018,0.25254166,0.2818557,-1.4268899,0.28547356,-0.43255442,0.0,1.0,0.0,0.0,0.0,0.0,0.0,-0.3451599,0.18774566,-0.15214807,-0.025844574,-9.807634,1.6925812,0.49681664,3.424549,-0.73153377,3.789559
-4.908737,48.818275,10.592867,9.765149,1.2587007,0.45968616,0.28615534,-0.7982768,-0.4070237,-0.61704427,0.7851443,-0.46258494,0.6080063,0.3753737,0.6083011,-1.1376392,-2.187498,-0.80287623,1.7237144,1.8254222,-0.845337,0.67388755,-1.1041008,-2.1370852,-0.86730194,1.7630291,1.7691302,-0.8820744,-1.4245809,-0.7323052,-1.1217494,1.408655,-0.6882805,0.44901577,0.08963876,-0.31951904,-0.5831604,0.6990739,-1.4623007,0.46141398,-0.3173472,-0.27152634,-0.6081772,0.6354471,0.92656565,0.055244703,0.25657722,0.26942956,-1.4325074,0.31197068,-0.46258885,0.0,1.0,0.0,0.0,0.0,0.0,0.0,-0.33048093,0.1831604,-0.1490739,-0.18274784,-6.399572,2.9852152,-0.09973049,2.4094462,-0.71762204,3.8347437
-0.83769274,44.683456,10.545321,7.601199,1.3263788,0.43054688,0.31214222,-0.7868967,-0.49092394,-0.56043094,0.7822074,-0.3768246,0.5963503,0.40449122,0.59519786,-1.1531932,-2.1931283,-0.7890812,1.7253467,1.8287653,-0.8416253,0.6596864,-1.1120373,-2.1478953,-0.8532493,1.7565479,1.7735872,-0.8809069,-1.4188442,-0.814436,-1.0659448,1.4043278,-0.63597435,0.4437303,0.12601636,-0.33401108,-0.57850647,0.6955127,-1.4439226,0.46718442,-0.36711666,-0.28591156,-0.6049576,0.63058037,0.92870045,0.060666557,0.25997332,0.2573884,-1.4366586,0.33630306,-0.4952336,0.0,1.0,0.0,0.0,0.0,0.0,0.0,-0.3159889,0.17850646,-0.1455127,0.492239,-8.320772,6.052232,-0.3609419,4.807234,-0.7860422,3.699246
-1.4819052,52.335423,11.860514,9.1635895,1.3007199,0.5045694,0.30095965,-0.79349035,-0.49554804,-0.5637916,0.7756655,-0.40032345,0.5599689,0.46624848,0.58033735,-1.1615921,-2.2042744,-0.77568275,1.7165155,1.8295841,-0.83428204,0.6455129,-1.1206299,-2.1582177,-0.83927214,1.75046,1.777971,-0.8793704,-1.4171681,-0.8746934,-1.0195984,1.3956468,-0.6013051,0.43565542,0.16303153,-0.34827423,-0.57379913,0.69151837,-1.4193082,0.47340676,-0.4089022,-0.30028534,-0.60147095,0.6254423,0.9306875,0.06612479,0.26279956,0.2457331,-1.4346592,0.36400858,-0.5209088,0.0,1.0,0.0,0.0,0.0,0.0,0.0,-0.30172575,0.17379913,-0.14151835,0.06952286,-6.1538696,5.1695347,-0.81694126,2.9744864,-1.07494,3.7382574
-2.8596406,47.724495,10.335101,8.354515,1.4014015,0.4589957,0.29295275,-0.7986768,-0.55573595,-0.5350808,0.76211846,-0.30311507,0.52168244,0.49805105,0.5656452,-1.1762035,-2.2117257,-0.7630603,1.7201486,1.8301393,-0.8295653,0.63132304,-1.1299034,-2.1680744,-0.82543236,1.7449045,1.7822477,-0.8774776,-1.4199114,-0.94541126,-0.9723993,1.3802866,-0.5415558,0.42407453,0.19834103,-0.36234283,-0.56903076,0.68702364,-1.4016763,0.47868186,-0.46143922,-0.31469345,-0.5977249,0.6200002,0.93257326,0.07161798,0.26497054,0.23445362,-1.438308,0.39122382,-0.55286676,0.0,1.0,0.0,0.0,0.0,0.0,0.0,-0.28765714,0.16903076,-0.13702363,-0.3469944,-7.1876287,5.1906586,-1.4469147,5.5310965,-1.4167726,3.6036701
3.0093307,57.076992,14.672608,8.93494,2.0123434,0.65123,0.23910475,-0.7902527,-0.57866174,-0.40782988,0.74950415,-0.107100785,0.50318676,0.5068788,0.5522978,-1.1877697,-2.2088573,-0.75048196,1.7341944,1.8325664,-0.82678974,0.61713517,-1.1398197,-2.1769812,-0.81179076,1.7404517,1.7864021,-0.87526083,-1.4188548,-1.0075499,-0.86153144,1.3588223,-0.41487828,0.4114429,0.2299992,-0.37620163,-0.56420135,0.6820927,-1.3795044,0.48542756,-0.5016848,-0.32910156,-0.5936508,0.6144318,0.9344828,0.07677414,0.2661846,0.22359186,-1.4375545,0.4251097,-0.5592049,0.0,1.0,0.0,0.0,0.0,0.0,0.0,-0.27379835,0.16420135,-0.13209271,-0.019693375,-6.3352466,11.720109,-2.1270752,12.085104,-1.5660405,3.3006878
1.3814864,49.918114,12.896054,7.333977,2.4788485,0.5984751,0.2064594,-0.8065523,-0.63928294,-0.37117606,0.6954029,0.19801655,0.43907863,0.5099925,0.53647995,-1.203748,-2.214099,-0.74225044,1.7602533,1.83031,-0.8242616,0.6028873,-1.1504618,-2.184732,-0.7985774,1.7380533,1.7903866,-0.87275976,-1.4270897,-1.0835131,-0.7443863,1.3090293,-0.1830438,0.39290416,0.25765523,-0.38994217,-0.5593033,0.67660713,-1.3721069,0.49270484,-0.5610185,-0.3436203,-0.5892105,0.60876006,0.936602,0.081309386,0.2659445,0.21316437,-1.4509737,0.46098977,-0.5710911,0.0,1.0,0.0,0.0,0.0,0.0,0.0,-0.2600578,0.15930328,-0.12660712,-0.91085434,-7.694936,12.236893,-4.918885,22.676506,-2.1846592,3.0011864
8.327212,55.50873,15.558922,5.6665106,2.5270755,0.688054,0.23875336,-0.80142605,-0.65228885,-0.26939714,0.6318497,0.34895515,0.35361922,0.51790977,0.52274466,-1.2156907,-2.2116716,-0.73539245,1.7729489,1.8257484,-0.8209688,0.58857834,-1.1617571,-2.1910827,-0.78611183,1.7381977,1.7941369,-0.8700099,-1.4325377,-1.1450254,-0.596431,1.2255923,0.07865348,0.36809593,0.28159043,-0.40357208,-0.55433655,0.67059445,-1.3587663,0.49918213,-0.61229205,-0.35817719,-0.5844269,0.6030472,0.9390269,0.08499728,0.26399776,0.20324643,-1.4513623,0.49803856,-0.57269466,0.0,1.0,0.0,0.0,0.0,0.0,0.0,-0.2464279,0.15433654,-0.12059444,-0.6695509,-6.241441,15.396059,-8.360028,25.614607,-2.7546763,2.6120186
17.858938,69.633934,20.537258,5.2354183,2.3264656,0.8765799,0.28041485,-0.79822737,-0.64276224,-0.12163942,0.5638421,0.3655798,0.24989279,0.49809518,0.5087556,-1.2260333,-2.2032466,-0.7297276,1.7747557,1.8191261,-0.8202004,0.5742436,-1.173432,-2.1955607,-0.7746962,1.7405994,1.7975879,-0.8670654,-1.43438,-1.1752422,-0.396136,1.1132089,0.2918856,0.33684742,0.29928637,-0.4169159,-0.5493088,0.6642722,-1.3254817,0.50457114,-0.63716984,-0.3725357,-0.5792618,0.5974768,0.9417328,0.087642215,0.26046553,0.19394785,-1.4247711,0.5347549,-0.5535847,0.0,1.0,0.0,0.0,0.0,0.0,0.0,-0.23308408,0.14930877,-0.11427218,-0.3658533,-3.117156,20.788633,-11.367655,20.629427,-3.299147,1.8952847
24.56825,67.737976,19.705904,1.3306234,1.4577881,0.6329862,0.42491806,-0.7872636,-0.65350276,-0.11011728,0.4552575,0.4207443,0.026397828,0.49826512,0.49551725,-1.2387823,-2.2065725,-0.72917044,1.7826738,1.8002276,-0.8172389,0.55995756,-1.1852862,-2.1983569,-0.76471776,1.7447793,1.8005937,-0.8639738,-1.4272063,-1.1891352,-0.23899634,0.9589012,0.4582054,0.28825194,0.31270552,-0.4298706,-0.54426575,0.65770465,-1.2849257,0.50333756,-0.6619021,-0.38648224,-0.57385254,0.59198046,0.9446249,0.08946566,0.25556743,0.18537794,-1.3794618,0.5562285,-0.55048794,0.0,1.0,0.0,0.0,0.0,0.0,0.0,-0.22012937,0.14426574,-0.10770464,0.53846836,-1.467967,16.359524,-15.586079,16.0254,-4.917079,1.3896883
15.870017,65.65307,15.088714,3.017106,0.7292453,0.20120817,0.41716987,-0.7902597,-0.6235542,-0.24724591,0.40259063,0.4465901,-0.28948843,0.53541994,0.48093158,-1.2476416,-2.2230814,-0.7244587,1.7894384,1.7716448,-0.8104318,0.54573923,-1.1970392,-2.2007332,-0.7562482,1.7502358,1.8029112,-0.8607448,-1.4204258,-1.1710186,-0.23567118,0.80939573,0.57358193,0.21275887,0.32636267,-0.44242477,-0.53926086,0.6508544,-1.2453606,0.4990113,-0.69211227,-0.4000206,-0.5682907,0.5863453,0.94754833,0.09119899,0.24973547,0.17738934,-1.3389955,0.56518805,-0.57009065,0.0,1.0,0.0,0.0,0.0,0.0,0.0,-0.2075752,0.13926086,-0.1008544,0.5583286,1.7332315,0.70943236,-15.017962,11.1510515,-7.566333,1.3608217
3.1654458,78.58674,15.087533,11.976383,1.1248734,0.15853786,0.14352307,-0.7885258,-0.5840269,-0.2646813,0.45799127,0.4524366,-0.40418068,0.5694808,0.46688664,-1.2554419,-2.2272012,-0.71044904,1.7954794,1.7624931,-0.8037967,0.5315867,-1.2083803,-2.2036028,-0.7486359,1.7565023,1.804435,-0.8573718,-1.4138064,-1.1221355,-0.30322793,0.7452692,0.6432847,0.13183632,0.3408722,-0.45455933,-0.53430176,0.6438515,-1.2027473,0.49476784,-0.702983,-0.4132576,-0.5626068,0.58065385,0.9503942,0.093260676,0.24350257,0.16958672,-1.3141676,0.57980865,-0.57105356,0.0,1.0,0.0,0.0,0.0,0.0,0.0,-0.19544065,0.13430175,-0.09385151,0.5851269,4.788995,-6.432122,-6.4104795,6.667292,-8.158544,1.4097929
-6.7817903,89.67431,15.78068,19.212572,1.5258282,0.27098578,-0.071820185,-0.79382664,-0.5508443,-0.26960215,0.48150307,0.409014,-0.4589376,0.58185416,0.45220405,-1.2634648,-2.230563,-0.7004856,1.7974037,1.7585412,-0.7991864,0.517458,-1.2191054,-2.2072845,-0.7411581,1.7630736,1.8051763,-0.8538587,-1.4126947,-1.0562911,-0.38865304,0.74868524,0.66067356,0.054263685,0.3546576,-0.4662361,-0.52937317,0.6368712,-1.1562198,0.49287695,-0.69633186,-0.42632675,-0.5567169,0.5750932,0.9530891,0.09578747,0.23732635,0.16162296,-1.2999855,0.60325193,-0.5530227,0.0,1.0,0.0,0.0,0.0,0.0,0.0,-0.18376386,0.12937316,-0.08687121,0.04878044,6.4623117,-8.17526,0.36866665,1.4235258,-7.881219,1.2978852
-2.6648502,112.278145,23.007732,24.46565,2.3239086,0.7078775,-0.20129779,-0.7888519,-0.49314022,-0.11532563,0.4874014,0.41127515,-0.4668902,0.5963831,0.43857282,-1.2684194,-2.218817,-0.692418,1.8042011,1.7584872,-0.7942204,0.5033446,-1.2290102,-2.2109654,-0.7334028,1.7696724,1.8052183,-0.8502101,-1.4113051,-0.9690007,-0.3592092,0.7842039,0.6580232,-0.012986898,0.3678045,-0.47732544,-0.52446747,0.63025326,-1.0933049,0.4903953,-0.64960146,-0.4391899,-0.55049896,0.570088,0.9556443,0.098349035,0.2313843,0.15340365,-1.276556,0.63814414,-0.48473725,0.0,1.0,0.0,0.0,0.0,0.0,0.0,-0.17267454,0.12446746,-0.08025324,0.016856194,8.588457,3.5702288,3.4700274,-0.74807405,-6.887305,1.1761427
6.5341277,101.438126,23.107788,18.330069,2.2984931,0.75611615,-0.045652628,-0.79353696,-0.5242218,0.0022098843,0.40155858,0.50603956,-0.53947306,0.59509665,0.4239909,-1.2814324,-2.2107444,-0.69324696,1.8202764,1.751271,-0.79070044,0.4892166,-1.2383486,-2.213586,-0.72565895,1.7764527,1.8046151,-0.84644586,-1.4137625,-0.9224059,-0.2272621,0.77078575,0.6830208,-0.07655663,0.37899736,-0.48783875,-0.5195999,0.6240069,-1.0373784,0.4858222,-0.6162586,-0.4517784,-0.5439682,0.5656934,0.9581615,0.10046398,0.22531088,0.14515002,-1.2479948,0.66882396,-0.4257393,0.0,1.0,0.0,0.0,0.0,0.0,0.0,-0.16216123,0.11959991,-0.074006915,-0.3722906,4.5475364,13.835517,-1.4405131,1.9980311,-6.5008917,1.02489
23.314968,109.15474,27.979883,13.419325,2.1344242,0.9448571,0.1725433,-0.7820882,-0.45273516,0.13978632,0.29365596,0.57382935,-0.58070713,0.6031377,0.41100776,-1.2836221,-2.1996074,-0.69629335,1.8338356,1.7465445,-0.7861321,0.47511128,-1.2470995,-2.2142422,-0.7186342,1.7836955,1.8034269,-0.84257776,-1.4099879,-0.8596364,-0.009455747,0.6790418,0.7362464,-0.13312796,0.38891485,-0.49769974,-0.5148239,0.618228,-0.9692378,0.47513714,-0.565249,-0.46388245,-0.5371628,0.56200635,0.9607118,0.101677656,0.21876599,0.13724431,-1.1927024,0.69183,-0.35118866,0.0,1.0,0.0,0.0,0.0,0.0,0.0,-0.15230024,0.11482391,-0.06822801,0.20952225,6.1853886,22.489897,-9.373236,4.7843695,-5.695489,0.85216165
23.53442,103.52578,25.7792,11.542663,1.7668977,0.79869807,0.23595697,-0.7787439,-0.4192059,0.12120585,0.2629424,0.60379815,-0.5959633,0.61028814,0.39723688,-1.2890201,-2.2021217,-0.69233996,1.8440753,1.7438306,-0.7815489,0.46106556,-1.2552153,-2.2130945,-0.71266335,1.7915258,1.8017313,-0.8386171,-1.4031565,-0.7955721,0.15776165,0.56933737,0.7971851,-0.18172793,0.39801538,-0.5069046,-0.51017,0.6129075,-0.90526766,0.46201232,-0.5225007,-0.47543335,-0.5301895,0.55894536,0.96328634,0.10201209,0.21170612,0.12982102,-1.1382147,0.7076037,-0.29254287,0.0,1.0,0.0,0.0,0.0,0.0,0.0,-0.14309537,0.11016998,-0.06290752,0.56347847,6.330371,17.220072,-11.100494,5.738735,-4.835701,0.80335736
31.745174,118.74133,30.592934,12.939891,1.9333042,0.9503296,0.2319382,-0.7559692,-0.34321117,0.2985062,0.22679141,0.63216394,-0.5903165,0.61265236,0.38546863,-1.2895364,-2.1832438,-0.6899842,1.8547423,1.7426997,-0.77735186,0.44719055,-1.2624861,-2.2099707,-0.7077721,1.7999765,1.7996202,-0.8345744,-1.382672,-0.7045281,0.36530015,0.46196213,0.86003274,-0.22055998,0.40586844,-0.51537704,-0.5056839,0.60824287,-0.8285528,0.44387773,-0.44917998,-0.48633957,-0.5230942,0.5566859,0.96587795,0.10128275,0.20422363,0.12294032,-1.0705572,0.72014076,-0.20541552,0.0,1.0,0.0,0.0,0.0,0.0,0.0,-0.13462293,0.10568389,-0.058242857,1.9460678,9.0328455,21.196438,-10.861283,6.0421944,-3.7787766,0.656116
29.95095,86.24689,21.925087,4.67931,0.9223773,0.51260096,0.42019048,-0.7586604,-0.3952362,0.27959666,0.10301854,0.6662368,-0.58657795,0.6000089,0.3713245,-1.3020097,-2.1820111,-0.69747025,1.8666002,1.7409624,-0.7745735,0.43349388,-1.2692553,-2.2053337,-0.7042493,1.8090118,1.7971771,-0.8304725,-1.3655158,-0.66796815,0.4970888,0.31572625,0.91740876,-0.25188613,0.41142625,-0.5232315,-0.5013809,0.60394025,-0.7728027,0.42617694,-0.42734548,-0.4966278,-0.5159607,0.55481374,0.9684646,0.09975763,0.19621019,0.11673104,-1.0125035,0.7179516,-0.18290113,0.0,1.0,0.0,0.0,0.0,0.0,0.0,-0.12676847,0.101380914,-0.053940237,1.6662121,3.6085844,13.364887,-14.651596,5.6684613,-2.9729514,0.5157888
26.58973,83.197105,18.566835,3.3517923,0.07206488,0.3138456,0.5323762,-0.7543145,-0.29767892,0.1694016,-0.022205334,0.67425156,-0.5686735,0.5992178,0.35806245,-1.2990232,-2.1883936,-0.70646983,1.876437,1.7403097,-0.7705507,0.41994512,-1.2754217,-2.200425,-0.702488,1.8185186,1.7944789,-0.82632273,-1.3514127,-0.59982854,0.48895162,0.1297631,0.96181333,-0.2748772,0.41623235,-0.53054047,-0.4972763,0.5997847,-0.7187745,0.40592235,-0.41524678,-0.5063019,-0.50891876,0.55299103,0.970935,0.09805166,0.18786104,0.11126206,-0.94889516,0.70553815,-0.18373933,0.0,1.0,0.0,0.0,0.0,0.0,0.0,-0.11945951,0.0972763,-0.04978466,1.3834238,6.783855,-0.84088445,-18.566376,4.546225,-2.0517707,0.5001128
23.843843,85.739685,18.559513,4.993918,0.09250331,0.31378695,0.4839903,-0.74963033,-0.26118687,0.23433478,-0.077164344,0.67991656,-0.5567933,0.5910842,0.3449821,-1.3015404,-2.1769915,-0.7102044,1.8865103,1.7387996,-0.7672143,0.40651408,-1.2808672,-2.195696,-0.70248276,1.8283666,1.7915937,-0.82213604,-1.3403047,-0.52621645,0.46714252,-0.04238996,0.9929536,-0.29216555,0.41955572,-0.5373192,-0.4933777,0.59578127,-0.6657602,0.38561916,-0.3989783,-0.51535416,-0.50200653,0.5511863,0.97324365,0.0963695,0.17935747,0.106492035,-0.8880966,0.6930363,-0.18097477,0.0,1.0,0.0,0.0,0.0,0.0,0.0,-0.11268079,0.09337768,-0.045781255,1.1159182,7.353163,-2.3255348,-17.159071,3.3396125,-1.4746726,0.38029552
31.603706,63.86094,15.010642,-3.3887627,-0.5874077,0.06873819,0.6777939,-0.7362661,-0.30953562,0.2892825,-0.24072883,0.69947475,-0.5630157,0.57027715,0.33288747,-1.3118207,-2.1667678,-0.72655565,1.8983141,1.7352921,-0.76510835,0.39321795,-1.2859617,-2.1909935,-0.70450026,1.838472,1.7885591,-0.8179379,-1.3259801,-0.50380856,0.4706566,-0.2547165,1.0169029,-0.30645072,0.42009825,-0.54364014,-0.48968506,0.59170055,-0.6224675,0.36442977,-0.4148827,-0.5237732,-0.4953308,0.5491294,0.975414,0.09473141,0.17049357,0.102593705,-0.8242108,0.66540235,-0.21519624,0.0,1.0,0.0,0.0,0.0,0.0,0.0,-0.10635984,0.08968505,-0.041700542,1.446557,2.2432804,0.14752746,-21.176418,2.6380062,-1.1538327,0.1298964
24.23647,82.900696,17.923906,3.6108208,-0.18476015,0.26088867,0.52329916,-0.7447837,-0.19390854,0.23289238,-0.29791275,0.6981494,-0.5381534,0.5622294,0.3187396,-1.3053526,-2.1677043,-0.73429155,1.9082869,1.7347437,-0.761715,0.37999678,-1.2904783,-2.1864886,-0.7084485,1.848757,1.7854179,-0.8137425,-1.3206043,-0.43403986,0.4425846,-0.4411562,1.0335969,-0.31570572,0.41967073,-0.5494919,-0.48619843,0.5876583,-0.5735422,0.34338924,-0.40307704,-0.53157425,-0.48885345,0.5469554,0.9774224,0.09318565,0.16145144,0.09947442,-0.7625724,0.64665675,-0.21918343,0.0,1.0,0.0,0.0,0.0,0.0,0.0,-0.100508094,0.08619842,-0.037658274,0.5978346,7.011986,-3.1852365,-18.545496,2.111864,-0.63397884,0.066906214
32.3917,80.96678,20.61326,2.280159,0.21931066,0.3581683,0.47337323,-0.71118045,-0.24486065,0.43547347,-0.33837518,0.71161777,-0.45300603,0.547903,0.30887872,-1.3149644,-2.1429412,-0.742286,1.9199188,1.7401173,-0.7589522,0.36695337,-1.2946268,-2.1813166,-0.71392107,1.8592013,1.7822634,-0.8095654,-1.2986529,-0.40813458,0.5404913,-0.58239454,1.0499831,-0.3142667,0.41726258,-0.55485535,-0.48292542,0.5837996,-0.5251685,0.32191363,-0.38293833,-0.53876877,-0.4825592,0.54483324,0.9793323,0.09126292,0.1521542,0.0970989,-0.70322233,0.6273869,-0.2108145,0.0,1.0,0.0,0.0,0.0,0.0,0.0,-0.09514463,0.08292541,-0.03379959,2.284503,2.6516497,9.279501,-14.050865,2.255416,0.45671463,-0.15617609
35.176777,59.4364,17.05844,-2.975048,0.069110945,0.14366508,0.5286136,-0.69866467,-0.3185206,0.49491978,-0.43071434,0.73722494,-0.43625206,0.561659,0.2970869,-1.3264788,-2.1318247,-0.7569925,1.9329238,1.7386382,-0.75339955,0.35416842,-1.2990137,-2.1748257,-0.72072905,1.8698304,1.7791449,-0.8054036,-1.2714374,-0.44866943,0.6834555,-0.7132529,1.069031,-0.31006238,0.41611257,-0.5598259,-0.4798584,0.57991576,-0.4885415,0.30254057,-0.39265645,-0.54545593,-0.47649384,0.5425651,0.981205,0.08867429,0.14229701,0.09552595,-0.6542203,0.6025471,-0.23305911,0.0,1.0,0.0,0.0,0.0,0.0,0.0,-0.09017408,0.07985839,-0.02991575,2.8213024,-4.010558,13.776302,-12.994539,2.4832726,0.70258975,-0.015342236
31.420229,81.4587,21.141815,4.016295,0.33722332,0.32158023,0.36961293,-0.6747489,-0.21337016,0.45853364,-0.44011807,0.7300527,-0.36240232,0.57675695,0.2866935,-1.3203508,-2.1289723,-0.7647409,1.9428357,1.7429047,-0.7477279,0.34172398,-1.3034083,-2.1672695,-0.72848934,1.8806155,1.7761294,-0.80123794,-1.2349373,-0.43587488,0.77720064,-0.7964859,1.0841993,-0.29762426,0.41713393,-0.564373,-0.47699738,0.5762078,-0.44467354,0.28125694,-0.36620265,-0.5516319,-0.4706421,0.54033524,0.98299867,0.085440114,0.13214414,0.09461199,-0.60358244,0.58261955,-0.2202686,0.0,1.0,0.0,0.0,0.0,0.0,0.0,-0.08562696,0.07699737,-0.026207805,3.8015366,1.3700962,8.663214,-8.183849,2.3250103,1.6115427,0.24095178
32.875675,83.87686,22.554312,5.594894,0.5274493,0.34089354,0.26751363,-0.63105565,-0.24541925,0.56106883,-0.4231071,0.7390362,-0.24610724,0.57953495,0.2786184,-1.3279502,-2.1111627,-0.77080005,1.954519,1.7515186,-0.74328446,0.32978255,-1.3077589,-2.1586485,-0.7366528,1.8915415,1.7733217,-0.7970599,-1.1799564,-0.4345669,0.88813215,-0.8224069,1.0981417,-0.27391437,0.41851217,-0.5684967,-0.47434998,0.5728384,-0.40226713,0.25979578,-0.329778,-0.55735016,-0.4649887,0.5383049,0.98469955,0.08144425,0.12189312,0.09421074,-0.55800647,0.56297493,-0.19781874,0.0,1.0,0.0,0.0,0.0,0.0,0.0,-0.08150327,0.07434997,-0.022838414,5.6708813,0.2397418,10.3369,-2.4512053,2.2668123,2.7637064,0.27442575
40.609184,51.923664,16.389101,-3.1381419,-0.11089004,-0.12305948,0.36245474,-0.56605786,-0.38066834,0.6097185,-0.43947297,0.7497162,-0.12063847,0.5906416,0.27317676,-1.3458258,-2.0976768,-0.7806001,1.9665132,1.7612579,-0.73799574,0.31860358,-1.3127314,-2.1489441,-0.7449002,1.9025728,1.7708308,-0.79286265,-1.0968113,-0.5181175,0.9966821,-0.8250508,1.1063386,-0.23986581,0.4205609,-0.5722923,-0.4719162,0.5694722,-0.3731576,0.23914935,-0.34210068,-0.5626526,-0.45965576,0.5361011,0.9863139,0.07667307,0.1113603,0.094366275,-0.5201223,0.5264552,-0.22839355,0.0,1.0,0.0,0.0,0.0,0.0,0.0,-0.07770765,0.07191619,-0.019472182,8.439183,-8.305526,10.384953,-0.15499592,1.3424397,3.6919355,0.3276825
47.30355,68.49218,20.73435,-1.0728266,-0.35730505,0.03285432,0.32515034,-0.48964858,-0.31200626,0.6081076,-0.40854147,0.7421169,0.21169548,0.5991095,0.26963872,-1.343932,-2.0881333,-0.7857544,1.9767845,1.7920003,-0.7329517,0.30848414,-1.3182284,-2.1384501,-0.7529217,1.913647,1.7689118,-0.7886369,-0.9831763,-0.55997825,1.0653908,-0.7939908,1.1098624,-0.17465293,0.42372984,-0.5757446,-0.46971893,0.56619394,-0.33644414,0.21452141,-0.32517293,-0.5674782,-0.45472717,0.5337796,0.98779476,0.07113006,0.100806735,0.09507861,-0.46838698,0.4835567,-0.23366305,0.0,1.0,0.0,0.0,0.0,0.0,0.0,-0.07425535,0.06971893,-0.016193926,11.519205,-4.1078568,6.3466787,3.2643676,0.9833574,6.9099007,0.48240423
67.10944,70.09517,23.416086,-6.1332865,-1.1604602,-0.2569964,0.4092739,-0.3506099,-0.34781116,0.6413892,-0.35711536,0.7308846,0.3281713,0.5799754,0.27342314,-1.3530095,-2.0743113,-0.7886332,1.9867355,1.801729,-0.7306394,0.2999521,-1.3241507,-2.1273952,-0.76036906,1.9247031,1.767705,-0.7843969,-0.8093752,-0.6025771,1.1179512,-0.7276432,1.1060143,-0.10127899,0.42460206,-0.5787964,-0.4678192,0.5631421,-0.29536957,0.18203235,-0.30100733,-0.5716553,-0.45043182,0.53142077,0.98909867,0.06482485,0.09046325,0.096425824,-0.39894676,0.41192183,-0.23664846,0.0,1.0,0.0,0.0,0.0,0.0,0.0,-0.07120359,0.06781921,-0.013142109,17.531479,-4.195988,4.864335,6.815326,0.15130043,7.7822,0.24698377
