Afshin1997/kuka_rl_ros2/src/catch_and_throw/output_files/tm/nn_ema7.00_jvws1_realball_D22H14M59S53/recorded_data.csv
pure_target_joint_0,pure_target_joint_1,pure_target_joint_2,pure_target_joint_3,pure_target_joint_4,pure_target_joint_5,pure_target_joint_6,target_joint_0,target_joint_1,target_joint_2,target_joint_3,target_joint_4,target_joint_5,target_joint_6,pos_joint_0,pos_joint_1,pos_joint_2,pos_joint_3,pos_joint_4,pos_joint_5,pos_joint_6,vel_joint_0,vel_joint_1,vel_joint_2,vel_joint_3,vel_joint_4,vel_joint_5,vel_joint_6,vel_smooth_joint_0,vel_smooth_joint_1,vel_smooth_joint_2,vel_smooth_joint_3,vel_smooth_joint_4,vel_smooth_joint_5,vel_smooth_joint_6,ee_pos_x,ee_pos_y,ee_pos_z,ee_or_w,ee_or_x,ee_or_y,ee_or_z,ee_vel_x,ee_vel_y,ee_vel_z,ball_pos_x,ball_pos_y,ball_pos_z,ball_raw_vx,ball_raw_vy,ball_raw_vz,ball_ema_vx,ball_ema_vy,ball_ema_vz,action_0,action_1,action_2,action_3,action_4,action_5,action_6,command_published
1.75506,-1.04932,-1.83603,-1.05706,1.97354,1.17831,-0.851238,1.77984,-1.06446,-1.8154,-1.11611,1.93786,1.11789,-0.915335,1.78023,-1.0647,-1.81507,-1.11705,1.93729,1.11693,-0.916352,0,0,0,0,0,0,0,0,0,0,0,0,0,0,0.531041,-0.454434,0.694285,0.574539,0.175155,0.152553,0.784827,0,0,0,2.97435,-0.470588,0.346635,-3.10216,0.0105746,5.20892,-3.37578,-0.137276,4.89722,-0.251689,0.153815,-0.209573,0.599948,0.362475,0.613773,0.651141,1
1.73393,-1.0278,-1.83977,-1.05907,1.95983,1.18065,-0.854791,1.77715,-1.06268,-1.81742,-1.11052,1.94104,1.12368,-0.909286,1.78023,-1.0647,-1.81507,-1.11705,1.93729,1.11693,-0.916352,6.88855e-07,-6.36833e-07,7.68447e-07,-6.70371e-07,5.41693e-07,2.7616e-07,-8.70498e-07,6.88855e-07,-6.36833e-07,7.68447e-07,-6.70371e-07,5.41693e-07,2.7616e-07,-8.70498e-07,0.531041,-0.454434,0.694285,0.574539,0.175155,0.152553,0.784827,3.77457e-07,4.95247e-07,-2.14163e-07,2.94225,-0.470998,0.401447,-3.41781,-0.0436559,5.83607,-3.35504,-0.0797582,5.11809,-0.463036,0.368976,-0.247011,0.579848,0.225369,0.637176,0.615615,1
1.74018,-1.0212,-1.81915,-1.06149,1.96097,1.17823,-0.85727,1.76937,-1.05696,-1.82236,-1.09669,1.94827,1.13825,-0.894396,1.78017,-1.06466,-1.81512,-1.11691,1.93738,1.11708,-0.916196,-0.0120747,0.00737861,-0.0100542,0.0287837,0.0173902,0.0294469,0.0312378,-0.0120747,0.00737861,-0.0100542,0.0287837,0.0173902,0.0294469,0.0312378,0.530964,-0.454519,0.694336,0.574565,0.175094,0.152475,0.784836,-0.0137792,-0.0165902,0.00930532,2.90876,-0.471438,0.45342,-3.22637,-0.0423693,5.00702,-3.33601,-0.046914,5.25021,-0.399889,0.434613,-0.0403226,0.554164,0.235912,0.611487,0.589254,1
1.73001,-1.01374,-1.8156,-1.05905,1.96956,1.17947,-0.853284,1.75698,-1.04637,-1.8278,-1.0786,1.95662,1.15777,-0.875051,1.77967,-1.06433,-1.81551,-1.11582,1.938,1.1182,-0.915023,-0.0912418,0.059887,-0.0693259,0.192356,0.110222,0.1989,0.208113,-0.0912418,0.059887,-0.0693259,0.192356,0.110222,0.1989,0.208113,0.530361,-0.455168,0.694741,0.574791,0.174611,0.151924,0.784886,-0.0977305,-0.112471,0.0672782,2.87804,-0.470171,0.505887,-3.11195,0.128309,5.31607,-3.29178,-0.0176319,5.31103,-0.496609,0.505914,-0.000954327,0.567786,0.315605,0.612783,0.617395,1
1.72152,-0.99701,-1.7851,-1.0528,1.97765,1.18187,-0.849159,1.74485,-1.03353,-1.82824,-1.06541,1.96203,1.17247,-0.861043,1.77776,-1.06298,-1.81681,-1.1122,1.93997,1.12199,-0.911111,-0.304337,0.218702,-0.201377,0.562623,0.30091,0.589783,0.606287,-0.304337,0.218702,-0.201377,0.562623,0.30091,0.589783,0.606287,0.528216,-0.457339,0.696231,0.575664,0.172869,0.150197,0.784964,-0.308267,-0.32946,0.221605,2.84577,-0.469512,0.557745,-3.06778,0.0626853,4.93,-3.2494,0.0102524,5.3139,-0.562349,0.659751,0.317098,0.594011,0.376727,0.598808,0.619518,1
1.71022,-0.989221,-1.782,-1.04967,1.98895,1.18361,-0.842055,1.73614,-1.02155,-1.8209,-1.0598,1.96552,1.17856,-0.855114,1.77348,-1.05965,-1.81922,-1.10502,1.94361,1.12959,-0.903403,-0.598539,0.481711,-0.31127,0.958526,0.472151,1.02199,1.02841,-0.598539,0.481711,-0.31127,0.958526,0.472151,1.02199,1.02841,0.52363,-0.461536,0.699616,0.577652,0.169017,0.147071,0.784934,-0.578836,-0.547919,0.45031,2.81268,-0.469039,0.608651,-3.45403,0.0493468,5.31332,-3.22686,0.0284127,5.271,-0.632594,0.704292,0.372169,0.553546,0.453378,0.540168,0.613484,1
1.70734,-0.982074,-1.77502,-1.04526,1.9938,1.19125,-0.832433,1.72895,-1.01065,-1.80809,-1.05703,1.97079,1.18041,-0.851982,1.76694,-1.05392,-1.82172,-1.09551,1.94813,1.13984,-0.893216,-0.801149,0.739305,-0.236545,1.09186,0.504435,1.18375,1.16699,-0.801149,0.739305,-0.236545,1.09186,0.504435,1.18375,1.16699,0.516895,-0.466773,0.705098,0.580654,0.163041,0.143323,0.784676,-0.745432,-0.580416,0.661508,2.77978,-0.468934,0.658105,-3.40557,0.0109168,5.11887,-3.23505,0.0385915,5.1898,-0.596032,0.718417,0.466973,0.502478,0.456766,0.514106,0.607831,1
1.70095,-0.97381,-1.77956,-1.0333,2.00043,1.20286,-0.823371,1.72115,-1.00009,-1.79454,-1.05343,1.97843,1.18256,-0.847338,1.75934,-1.0463,-1.82244,-1.08611,1.95261,1.15002,-0.883186,-0.841671,0.89777,0.055903,0.954413,0.468601,1.03519,1.01823,-0.841671,0.89777,0.055903,0.954413,0.468601,1.03519,1.01823,0.509314,-0.47131,0.712234,0.583941,0.155799,0.139824,0.78434,-0.757583,-0.429976,0.808785,2.7477,-0.468907,0.70591,-3.15154,0.0026118,4.69672,-3.23911,0.0443293,5.09115,-0.583866,0.724872,0.428826,0.52812,0.478291,0.528341,0.59815,1
1.6936,-0.964201,-1.78139,-1.02419,2.00591,1.21155,-0.817837,1.71339,-0.990334,-1.78458,-1.0485,1.98652,1.18676,-0.840625,1.75166,-1.03761,-1.82004,-1.07823,1.95708,1.1584,-0.874747,-0.823625,0.977926,0.433434,0.768979,0.497393,0.798383,0.825763,-0.823625,0.977926,0.433434,0.768979,0.497393,0.798383,0.825763,0.501838,-0.47428,0.720561,0.586831,0.148103,0.136541,0.784252,-0.721615,-0.254473,0.923052,2.71606,-0.468124,0.753437,-3.1115,0.0770004,4.67382,-3.23129,0.0465976,5.00164,-0.580576,0.734078,0.386472,0.540431,0.488367,0.53151,0.569109,1
1.68357,-0.95415,-1.78368,-1.01603,2.01058,1.2202,-0.814445,1.70654,-0.981595,-1.78003,-1.04198,1.99372,1.19347,-0.832808,1.74403,-1.02835,-1.81457,-1.07167,1.96214,1.16497,-0.867581,-0.82964,1.02485,0.726572,0.661552,0.590991,0.638258,0.73428,-0.82964,1.02485,0.726572,0.661552,0.590991,0.638258,0.73428,0.494521,-0.475965,0.729807,0.589129,0.140238,0.132973,0.784588,-0.714413,-0.146915,1.01044,2.68366,-0.467637,0.800004,-3.216,0.0483101,4.6217,-3.24129,0.0375347,4.89642,-0.604593,0.741952,0.308836,0.556331,0.484394,0.552304,0.531358,1
1.67468,-0.944243,-1.77754,-1.01039,2.01834,1.22574,-0.80861,1.69988,-0.972997,-1.77959,-1.03383,1.99996,1.20202,-0.825285,1.73635,-1.01884,-1.80736,-1.06574,1.968,1.1706,-0.860812,-0.832921,1.03394,0.826264,0.625403,0.67202,0.586253,0.732254,-0.832921,1.03394,0.826264,0.625403,0.67202,0.586253,0.732254,0.487185,-0.476997,0.739528,0.590939,0.132307,0.128981,0.78527,-0.718642,-0.104666,1.03194,2.65088,-0.467055,0.845503,-3.18789,0.0566558,4.42522,-3.23729,0.0392301,4.79041,-0.616657,0.745954,0.298219,0.55356,0.503394,0.551465,0.522024,1
1.6671,-0.93424,-1.76866,-1.00505,2.02339,1.23057,-0.80048,1.69233,-0.963825,-1.78035,-1.02519,2.00576,1.21083,-0.818949,1.72879,-1.00942,-1.80021,-1.05985,1.97435,1.17621,-0.85389,-0.807033,1.00917,0.731815,0.648293,0.70257,0.626086,0.764689,-0.807033,1.00917,0.731815,0.648293,0.70257,0.626086,0.764689,0.479836,-0.477872,0.749105,0.592485,0.124434,0.124857,0.786059,-0.716172,-0.10822,0.987788,2.61858,-0.46696,0.889535,-3.67346,0.0107402,5.00741,-3.2291,0.0402276,4.68408,-0.616926,0.751766,0.315447,0.547993,0.490382,0.543627,0.534101,1
1.66001,-0.92497,-1.76282,-0.998236,2.02747,1.2366,-0.791851,1.68393,-0.954141,-1.77945,-1.01739,2.01155,1.21862,-0.813328,1.72146,-1.00021,-1.79442,-1.05354,1.9808,1.18242,-0.846759,-0.782913,0.987108,0.537783,0.714755,0.694969,0.711226,0.778933,-0.782913,0.987108,0.537783,0.714755,0.694969,0.711226,0.778933,0.472485,-0.47891,0.758163,0.594115,0.11664,0.120967,0.786632,-0.721273,-0.139687,0.92574,2.58526,-0.467137,0.931795,-3.38005,-0.0178874,4.28743,-3.23919,0.0369774,4.5728,-0.614474,0.752407,0.316028,0.552996,0.466712,0.541801,0.549074,1
1.65309,-0.916,-1.7587,-0.990781,2.03242,1.24281,-0.782865,1.67546,-0.944305,-1.77562,-1.01067,2.01733,1.22517,-0.807194,1.71418,-0.991088,-1.79033,-1.04662,1.98712,1.18933,-0.839699,-0.792595,0.988921,0.362121,0.777333,0.675972,0.779896,0.752652,-0.792595,0.988921,0.362121,0.777333,0.675972,0.779896,0.752652,0.465033,-0.480224,0.766721,0.596161,0.108862,0.117513,0.786722,-0.741876,-0.1725,0.882606,2.55304,-0.466944,0.973478,-3.16205,0.0189048,4.08992,-3.25241,0.0305031,4.46054,-0.610909,0.750883,0.316315,0.558424,0.453002,0.534874,0.568338,1
1.64565,-0.906888,-1.75582,-0.983595,2.03719,1.24977,-0.77466,1.66752,-0.934609,-1.76985,-1.00436,2.02275,1.23103,-0.799889,1.7067,-0.981873,-1.78737,-1.03935,1.9933,1.19662,-0.832954,-0.82599,1.00589,0.287111,0.796575,0.662263,0.798107,0.711866,-0.82599,1.00589,0.287111,0.796575,0.662263,0.798107,0.711866,0.457392,-0.481685,0.775005,0.59866,0.10105,0.114481,0.786314,-0.765723,-0.179084,0.868468,2.52132,-0.466737,1.01462,-3.03645,0.0198092,3.93857,-3.25395,0.0195214,4.34573,-0.610448,0.749849,0.315491,0.55756,0.438965,0.531565,0.582943,1
1.63753,-0.89731,-1.75303,-0.976761,2.04424,1.25621,-0.768245,1.6601,-0.925176,-1.76412,-0.997796,2.02773,1.23691,-0.791711,1.69894,-0.972502,-1.78453,-1.03209,1.99936,1.20386,-0.826449,-0.851815,1.02272,0.323395,0.777181,0.652002,0.772994,0.698394,-0.851815,1.02272,0.323395,0.777181,0.652002,0.772994,0.698394,0.449593,-0.483008,0.783262,0.6013,0.0931698,0.11171,0.785671,-0.778405,-0.150099,0.878027,2.49147,-0.465976,1.05558,-2.78718,0.0710513,3.82523,-3.21868,0.0201242,4.24611,-0.61409,0.75192,0.314985,0.553321,0.448816,0.52347,0.582039,1
1.62922,-0.887457,-1.74896,-0.970478,2.05198,1.26225,-0.762676,1.65279,-0.91592,-1.75953,-0.990857,2.03273,1.24313,-0.783416,1.69107,-0.963021,-1.78112,-1.02505,2.00529,1.2108,-0.81987,-0.853949,1.03052,0.408926,0.750489,0.633494,0.733763,0.724727,-0.853949,1.03052,0.408926,0.750489,0.633494,0.733763,0.724727,0.441743,-0.483947,0.79163,0.603697,0.0851871,0.109053,0.785112,-0.777367,-0.101849,0.894496,2.45904,-0.464564,1.09489,-3.18348,0.138571,3.85791,-3.19176,0.0351378,4.15384,-0.618491,0.755631,0.32157,0.545732,0.466929,0.514525,0.571931,1
1.62108,-0.877779,-1.74468,-0.96381,2.05886,1.26856,-0.756711,1.64525,-0.906625,-1.75588,-0.983847,2.03832,1.24958,-0.775691,1.68325,-0.953519,-1.77704,-1.01818,2.011,1.21744,-0.81295,-0.839937,1.02804,0.468812,0.739307,0.606763,0.706276,0.770364,-0.839937,1.02804,0.468812,0.739307,0.606763,0.706276,0.770364,0.433928,-0.484448,0.800085,0.605675,0.0771032,0.106487,0.784776,-0.770214,-0.0593009,0.900676,2.42603,-0.464808,1.13219,-3.24388,-0.023982,3.66562,-3.18452,0.0448861,4.05801,-0.621769,0.757401,0.323679,0.543685,0.478608,0.511219,0.562389,1
1.61309,-0.868158,-1.73961,-0.95723,2.06538,1.27412,-0.749808,1.63737,-0.897143,-1.75242,-0.977021,2.04473,1.25599,-0.768814,1.67557,-0.944063,-1.77268,-1.01134,2.01651,1.22391,-0.805656,-0.826207,1.0208,0.476689,0.742775,0.588217,0.697125,0.806682,-0.826207,1.0208,0.476689,0.742775,0.588217,0.697125,0.806682,0.426167,-0.484623,0.808512,0.607305,0.0689645,0.104053,0.7846,-0.765451,-0.0339381,0.892586,2.39493,-0.46368,1.16926,-3.45597,0.125371,4.11973,-3.16889,0.060047,3.96454,-0.624735,0.759052,0.330622,0.541047,0.488666,0.502058,0.558478,1
1.60555,-0.858603,-1.73541,-0.950645,2.07058,1.28001,-0.741948,1.62929,-0.887506,-1.74862,-0.970383,2.05163,1.26223,-0.762492,1.66795,-0.934659,-1.76839,-1.00445,2.02197,1.23035,-0.798166,-0.823467,1.01682,0.45374,0.747458,0.593317,0.697408,0.815191,-0.823467,1.01682,0.45374,0.747458,0.593317,0.697408,0.815191,0.418426,-0.484612,0.816817,0.608761,0.0608264,0.101759,0.784446,-0.766683,-0.0206952,0.878162,2.36243,-0.463865,1.20534,-3.18408,-0.0181386,3.53483,-3.17865,0.0589894,3.86231,-0.62401,0.760559,0.329803,0.538085,0.486165,0.496574,0.562182,1
1.59831,-0.848977,-1.73126,-0.944416,2.07552,1.28573,-0.73359,1.62123,-0.87783,-1.74437,-0.963817,2.05843,1.26827,-0.756108,1.66031,-0.925256,-1.76431,-0.997565,2.02759,1.23679,-0.790739,-0.83189,1.01969,0.431287,0.745148,0.621903,0.696642,0.795264,-0.83189,1.01969,0.431287,0.745148,0.621903,0.696642,0.795264,0.410656,-0.484483,0.824987,0.610186,0.0527149,0.0995604,0.784208,-0.772777,-0.00957511,0.866337,2.3301,-0.46368,1.24048,-3.3147,0.0189954,3.60226,-3.19944,0.0509884,3.75516,-0.620031,0.76279,0.33049,0.531486,0.479289,0.489407,0.571485,1
1.59089,-0.839286,-1.72714,-0.938599,2.08076,1.29117,-0.725391,1.61336,-0.868189,-1.73992,-0.957284,2.06467,1.27416,-0.749176,1.65257,-0.915808,-1.76036,-0.990722,2.03351,1.24319,-0.783553,-0.844199,1.02655,0.425824,0.737726,0.657466,0.690697,0.763918,-0.844199,1.02655,0.425824,0.737726,0.657466,0.690697,0.763918,0.402825,-0.484227,0.833064,0.611632,0.0446189,0.0974014,0.783855,-0.78003,0.00578822,0.860179,2.2986,-0.463097,1.2745,-2.97271,0.0550697,3.21083,-3.21462,0.0405388,3.64671,-0.616781,0.765218,0.332223,0.521227,0.472499,0.479799,0.581624,1
1.58354,-0.829593,-1.72273,-0.932688,2.08651,1.29678,-0.717833,1.60573,-0.858571,-1.73553,-0.950863,2.07033,1.27993,-0.74161,1.64473,-0.9063,-1.75638,-0.983948,2.03969,1.24951,-0.776603,-0.852415,1.03261,0.435448,0.730202,0.679631,0.68048,0.743388,-0.852415,1.03261,0.435448,0.730202,0.679631,0.68048,0.743388,0.394942,-0.483797,0.841087,0.613062,0.0365112,0.0952706,0.783419,-0.784372,0.0268719,0.857214,2.26691,-0.46286,1.30722,-3.25525,0.0242797,3.36081,-3.20028,0.0304861,3.5458,-0.611872,0.767067,0.336491,0.512603,0.468211,0.472708,0.587702,1
1.57608,-0.81996,-1.71836,-0.926498,2.09297,1.30265,-0.710681,1.59828,-0.848939,-1.73126,-0.944638,2.07568,1.28561,-0.733674,1.63686,-0.896749,-1.75229,-0.977239,2.04596,1.25573,-0.769729,-0.852483,1.03592,0.448643,0.723794,0.678846,0.668243,0.745478,-0.852483,1.03592,0.448643,0.723794,0.678846,0.668243,0.745478,0.38705,-0.483139,0.849065,0.614387,0.0283789,0.0932198,0.782964,-0.783013,0.0524988,0.853251,2.2348,-0.463293,1.33814,-3.15857,-0.0425825,3.04163,-3.19137,0.0248377,3.43908,-0.607846,0.767889,0.339371,0.507411,0.470111,0.469155,0.590484,1
1.56858,-0.810359,-1.71366,-0.920176,2.09979,1.30855,-0.703692,1.59089,-0.839284,-1.72701,-0.938575,2.08113,1.29124,-0.725757,1.62903,-0.887177,-1.74811,-0.970596,2.05213,1.26184,-0.762742,-0.845083,1.03758,0.456351,0.715762,0.660121,0.655884,0.76646,-0.845083,1.03758,0.456351,0.715762,0.660121,0.655884,0.76646,0.379207,-0.482217,0.856974,0.615523,0.0202354,0.0913325,0.782548,-0.775497,0.0809279,0.845897,2.20452,-0.462698,1.36937,-3.13338,0.0615789,3.23292,-3.17746,0.0175357,3.33107,-0.604489,0.768181,0.344497,0.504209,0.476593,0.467053,0.590495,1
1.56023,-0.800642,-1.7091,-0.914323,2.10672,1.3129,-0.696389,1.58348,-0.829622,-1.72267,-0.932543,2.08696,1.2969,-0.718121,1.62128,-0.877589,-1.74389,-0.964047,2.05811,1.26784,-0.755533,-0.834312,1.03917,0.458134,0.703999,0.637211,0.644368,0.792864,-0.834312,1.03917,0.458134,0.703999,0.637211,0.644368,0.792864,0.371464,-0.48101,0.864785,0.616418,0.0121068,0.0896686,0.782203,-0.764167,0.110172,0.835752,2.17236,-0.461857,1.39953,-3.24805,0.0849052,3.04559,-3.16135,0.0278247,3.2287,-0.610462,0.769477,0.347862,0.497235,0.486076,0.450636,0.591437,1
1.55231,-0.790899,-1.7048,-0.908512,2.1131,1.3175,-0.688705,1.57595,-0.819968,-1.71823,-0.926459,2.09324,1.30251,-0.710773,1.61362,-0.867986,-1.73966,-0.957614,2.06393,1.27374,-0.748121,-0.824608,1.04105,0.45879,0.690572,0.623737,0.63482,0.811185,-0.824608,1.04105,0.45879,0.690572,0.623737,0.63482,0.811185,0.363836,-0.479526,0.872485,0.617074,0.00400854,0.088226,0.781933,-0.753028,0.137924,0.825135,2.14045,-0.461521,1.42904,-3.17082,0.0334716,2.93168,-3.15647,0.0325676,3.1354,-0.613187,0.770868,0.348565,0.49102,0.49175,0.437605,0.594164,1
1.54453,-0.781133,-1.70106,-0.902502,2.11891,1.32177,-0.680629,1.56823,-0.810306,-1.71373,-0.920377,2.09982,1.30786,-0.703518,1.60604,-0.858366,-1.73541,-0.951291,2.0697,1.27957,-0.74061,-0.818538,1.04264,0.461865,0.680064,0.626008,0.628507,0.815712,-0.818538,1.04264,0.461865,0.680064,0.626008,0.628507,0.815712,0.356303,-0.477791,0.88008,0.617533,-0.00406754,0.0869445,0.781714,-0.745409,0.162241,0.815874,2.10869,-0.461497,1.45703,-3.1561,0.00233958,2.78219,-3.16103,0.0318336,3.04517,-0.615083,0.77233,0.343437,0.487887,0.492073,0.421962,0.599807,1
1.53692,-0.771312,-1.69728,-0.896921,2.12437,1.32575,-0.6723,1.56034,-0.800612,-1.70931,-0.914381,2.10641,1.31278,-0.696121,1.59849,-0.848736,-1.73111,-0.945043,2.07556,1.28534,-0.733107,-0.817628,1.04352,0.467454,0.674084,0.641493,0.622648,0.810112,-0.817628,1.04352,0.467454,0.674084,0.641493,0.622648,0.810112,0.348822,-0.475847,0.887583,0.617848,-0.0121372,0.0857474,0.781514,-0.742248,0.182336,0.808146,2.07711,-0.46164,1.48314,-3.06502,-0.0138873,2.53412,-3.16313,0.0301072,2.94724,-0.615691,0.774236,0.338391,0.481219,0.488103,0.404047,0.608066,1
1.52912,-0.761458,-1.69367,-0.891503,2.12986,1.32898,-0.663935,1.55243,-0.790876,-1.7051,-0.908488,2.11272,1.31731,-0.688437,1.59091,-0.839098,-1.72677,-0.938841,2.08158,1.29103,-0.725662,-0.822842,1.04437,0.473109,0.669745,0.661696,0.61036,0.803235,-0.822842,1.04437,0.473109,0.669745,0.661696,0.61036,0.803235,0.341359,-0.473733,0.895006,0.618058,-0.0201898,0.0845888,0.781307,-0.741785,0.198869,0.800751,2.04532,-0.461488,1.50902,-3.25651,0.0155564,2.65071,-3.16752,0.0281832,2.84879,-0.617924,0.776394,0.331047,0.473378,0.482812,0.379475,0.617275,1
1.52101,-0.751619,-1.69029,-0.886127,2.13596,1.33208,-0.655798,1.54461,-0.7811,-1.70114,-0.9027,2.11868,1.3215,-0.680454,1.58327,-0.829448,-1.72239,-0.932687,2.08776,1.29656,-0.718249,-0.831718,1.04597,0.474767,0.663993,0.676311,0.588441,0.802664,-0.831718,1.04597,0.474767,0.663993,0.676311,0.588441,0.802664,0.33391,-0.471474,0.902342,0.61818,-0.0281786,0.0834806,0.781083,-0.740641,0.213727,0.792213,2.01351,-0.461106,1.53441,-3.11734,0.0374207,2.4881,-3.18021,0.0192659,2.74351,-0.622652,0.778286,0.321084,0.465597,0.481984,0.355242,0.624516,1
1.51268,-0.741739,-1.68658,-0.881202,2.14268,1.33414,-0.647728,1.53681,-0.771291,-1.69738,-0.89706,2.12442,1.32532,-0.672275,1.57556,-0.819779,-1.71804,-0.926593,2.09402,1.30185,-0.710797,-0.838824,1.04842,0.469425,0.656727,0.678555,0.560598,0.811073,-0.838824,1.04842,0.469425,0.656727,0.678555,0.560598,0.811073,0.326504,-0.469076,0.909577,0.618206,-0.036049,0.0824821,0.780845,-0.735852,0.229024,0.781835,1.98196,-0.460639,1.55846,-3.24336,0.0480199,2.47233,-3.17298,0.0160413,2.64106,-0.62878,0.780401,0.314533,0.453914,0.486612,0.322895,0.630687,1
1.50408,-0.731786,-1.68262,-0.876972,2.14982,1.33402,-0.639542,1.52892,-0.761454,-1.69375,-0.891617,2.13023,1.32866,-0.66404,1.5678,-0.810085,-1.71376,-0.920572,2.10023,1.30688,-0.703233,-0.841413,1.05137,0.457838,0.648271,0.669057,0.530508,0.826246,-0.841413,1.05137,0.457838,0.648271,0.669057,0.530508,0.826246,0.319184,-0.466526,0.916697,0.618122,-0.0437614,0.0816647,0.780603,-0.726631,0.245642,0.769852,1.95171,-0.45961,1.58245,-2.81681,0.0958335,2.23406,-3.15453,0.0285029,2.55125,-0.637182,0.782995,0.311429,0.436005,0.495846,0.271495,0.636913,1
1.49566,-0.721813,-1.67849,-0.873589,2.15695,1.33331,-0.631121,1.52084,-0.751592,-1.69013,-0.886446,2.13638,1.33128,-0.655839,1.56003,-0.800363,-1.70961,-0.91464,2.10634,1.31161,-0.69552,-0.842169,1.05453,0.443349,0.637673,0.655561,0.49751,0.843185,-0.842169,1.05453,0.443349,0.637673,0.655561,0.49751,0.843185,0.311987,-0.463816,0.923689,0.617918,-0.0512852,0.0810734,0.780368,-0.714638,0.262528,0.75693,1.91983,-0.459569,1.60384,-3.46046,0.00445356,2.32119,-3.14553,0.0381883,2.45879,-0.64369,0.785495,0.31122,0.410516,0.50611,0.217011,0.64399,1
1.48747,-0.711714,-1.67404,-0.870879,2.16428,1.33364,-0.622727,1.51255,-0.741696,-1.6864,-0.881701,2.14296,1.33293,-0.647657,1.55224,-0.790612,-1.70558,-0.908821,2.11236,1.31601,-0.687667,-0.845709,1.05764,0.429268,0.624047,0.64816,0.458804,0.857019,-0.845709,1.05764,0.429268,0.624047,0.64816,0.458804,0.857019,0.304929,-0.460956,0.930549,0.617599,-0.0585857,0.0807059,0.780145,-0.70242,0.277757,0.743783,1.88772,-0.459888,1.62367,-2.94435,-0.0292091,1.81847,-3.1463,0.0378298,2.35446,-0.647657,0.788983,0.315445,0.379426,0.519275,0.176357,0.649397,1
1.47863,-0.701579,-1.67211,-0.864438,2.17191,1.33384,-0.614341,1.50415,-0.731751,-1.6825,-0.877488,2.14991,1.33358,-0.639422,1.54439,-0.780832,-1.70167,-0.90315,2.11837,1.32,-0.67971,-0.854303,1.06064,0.41872,0.605916,0.653311,0.409405,0.86588,-0.854303,1.06064,0.41872,0.605916,0.653311,0.409405,0.86588,0.298008,-0.457971,0.937281,0.61718,-0.0656141,0.0805173,0.779937,-0.592795,0.241806,0.626316,1.85607,-0.459727,1.64324,-3.2618,0.0165909,2.01724,-3.14807,0.0314031,2.23769,-0.657588,0.79253,0.295675,0.387121,0.535392,0.138419,0.653697,1
1.47109,-0.691564,-1.66654,-0.864312,2.17888,1.33351,-0.606133,1.49573,-0.721748,-1.67857,-0.873653,2.15708,1.33367,-0.631106,1.53644,-0.771024,-1.69783,-0.897687,2.12448,1.32345,-0.671687,-0.866563,1.06385,0.414639,0.579858,0.670346,0.343907,0.871668,-0.866563,1.06385,0.414639,0.579858,0.670346,0.343907,0.871668,0.291233,-0.454882,0.943891,0.616661,-0.0723005,0.0804479,0.779763,-0.677343,0.302494,0.718505,1.82461,-0.459477,1.66231,-3.11357,0.0247447,1.88689,-3.1517,0.0229904,2.12311,-0.65352,0.794606,0.312865,0.333744,0.54393,0.10061,0.655548,1
1.46342,-0.681356,-1.66148,-0.861351,2.18674,1.33195,-0.597671,1.48736,-0.711693,-1.67473,-0.869972,2.16438,1.33362,-0.622749,1.52838,-0.761184,-1.69399,-0.892509,2.13079,1.32624,-0.663611,-0.878861,1.06763,0.416715,0.544829,0.69349,0.266518,0.877419,-0.878861,1.06763,0.416715,0.544829,0.69349,0.266518,0.877419,0.284631,-0.451696,0.950382,0.61602,-0.0785738,0.0804524,0.779662,-0.660145,0.31558,0.706079,1.79407,-0.45848,1.681,-3.19957,0.104394,1.95778,-3.14879,0.0235268,2.02406,-0.649578,0.798277,0.325134,0.31158,0.559535,0.0571041,0.659399,1
1.45602,-0.671244,-1.65557,-0.859121,2.19557,1.32654,-0.589387,1.47915,-0.701606,-1.67076,-0.866599,2.17177,1.33338,-0.614397,1.52022,-0.751305,-1.69013,-0.887662,2.13731,1.32833,-0.655478,-0.888288,1.07212,0.419286,0.508146,0.717064,0.193498,0.884024,-0.888288,1.07212,0.419286,0.508146,0.717064,0.193498,0.884024,0.278229,-0.448404,0.956758,0.615234,-0.084414,0.0805126,0.779666,-0.640951,0.329932,0.693824,1.76271,-0.45873,1.69713,-2.94023,-0.0234022,1.51256,-3.14872,0.0186809,1.91782,-0.641938,0.800607,0.345559,0.285414,0.582615,-0.0179464,0.660912,1
1.44853,-0.661015,-1.65098,-0.86012,2.20356,1.32067,-0.580991,1.47121,-0.691498,-1.66628,-0.863856,2.17933,1.33238,-0.606057,1.51199,-0.741383,-1.68626,-0.883126,2.14403,1.32984,-0.647286,-0.893408,1.07688,0.41836,0.477096,0.737925,0.137063,0.890003,-0.893408,1.07688,0.41836,0.477096,0.737925,0.137063,0.890003,0.272028,-0.444993,0.963024,0.614297,-0.0898732,0.0806294,0.779782,-0.622292,0.344894,0.682102,1.73093,-0.458587,1.71197,-3.0746,0.0138226,1.43588,-3.13826,0.0232475,1.81809,-0.634644,0.803673,0.352837,0.230064,0.595306,-0.0916185,0.662947,1
1.44066,-0.650812,-1.6475,-0.858191,2.21126,1.31583,-0.572818,1.46353,-0.681365,-1.66127,-0.861796,2.18719,1.32994,-0.597715,1.50375,-0.731418,-1.68239,-0.87888,2.15093,1.33087,-0.639048,-0.892195,1.08132,0.421557,0.445414,0.755634,0.0909119,0.894146,-0.892195,1.08132,0.421557,0.445414,0.755634,0.0909119,0.894146,0.266035,-0.441443,0.969181,0.613201,-0.095019,0.0808043,0.780017,-0.600978,0.362824,0.67067,1.69899,-0.458347,1.72658,-3.37448,0.0253273,1.54383,-3.13704,0.0273143,1.71792,-0.630876,0.806058,0.348882,0.206887,0.603213,-0.150376,0.662301,1
1.43172,-0.640689,-1.64693,-0.853247,2.21845,1.31179,-0.564829,1.45594,-0.671203,-1.65628,-0.860268,2.19527,1.32596,-0.589383,1.49556,-0.721416,-1.6784,-0.874977,2.158,1.33143,-0.63078,-0.882963,1.08514,0.43978,0.403382,0.773529,0.0343783,0.896748,-0.882963,1.08514,0.43978,0.403382,0.773529,0.0343783,0.896748,0.260297,-0.437718,0.975236,0.611889,-0.0998574,0.081019,0.780421,-0.571932,0.385744,0.659723,1.6682,-0.459123,1.74061,-3.27288,-0.0824258,1.49156,-3.13568,0.0141599,1.61299,-0.63838,0.807265,0.314685,0.217306,0.604477,-0.196372,0.659509,1
1.42239,-0.630651,-1.64792,-0.847048,2.22658,1.30532,-0.557088,1.4482,-0.661026,-1.65204,-0.858766,2.20329,1.3211,-0.581111,1.48748,-0.711379,-1.6742,-0.871509,2.16525,1.33132,-0.622491,-0.868474,1.08867,0.468825,0.352293,0.795559,-0.0501276,0.898666,-0.868474,1.08867,0.468825,0.352293,0.795559,-0.0501276,0.898666,0.254887,-0.433797,0.981195,0.610297,-0.104303,0.0812357,0.781063,-0.535238,0.409932,0.649314,1.63734,-0.458921,1.75373,-3.06064,0.019993,1.3005,-3.13303,0.00273074,1.51049,-0.650898,0.807283,0.262723,0.244602,0.613315,-0.259994,0.654034,1
1.41314,-0.620631,-1.65043,-0.842318,2.23468,1.29802,-0.549478,1.44006,-0.650862,-1.64924,-0.856328,2.21109,1.31601,-0.572964,1.47952,-0.701311,-1.66977,-0.868521,2.17271,1.33032,-0.614189,-0.855268,1.09206,0.489311,0.299326,0.818174,-0.157982,0.899719,-0.855268,1.09206,0.489311,0.299326,0.818174,-0.157982,0.899719,0.249863,-0.429709,0.987058,0.608424,-0.10822,0.0814369,0.781969,-0.49542,0.428979,0.637379,1.60623,-0.45884,1.76514,-3.12288,0.00815788,1.14621,-3.13208,-0.0071334,1.40817,-0.663884,0.8068,0.193352,0.262032,0.619715,-0.322958,0.647109,1
1.40331,-0.61056,-1.65089,-0.838347,2.24247,1.28947,-0.541806,1.4314,-0.640741,-1.6482,-0.852431,2.21881,1.31065,-0.564987,1.47165,-0.691214,-1.66529,-0.865951,2.18034,1.32834,-0.605887,-0.850489,1.09497,0.480623,0.26061,0.83241,-0.26261,0.898659,-0.850489,1.09497,0.480623,0.26061,0.83241,-0.26261,0.898659,0.245213,-0.425533,0.992807,0.606375,-0.111527,0.0816625,0.783072,-0.461984,0.437112,0.623041,1.57591,-0.458603,1.77541,-3.08179,0.0240118,1.04313,-3.11236,-0.0025034,1.3155,-0.683377,0.806541,0.143989,0.276041,0.62132,-0.388652,0.640815,1
1.39408,-0.600534,-1.64867,-0.832666,2.24931,1.28489,-0.533612,1.4223,-0.630666,-1.64858,-0.847601,2.22662,1.30455,-0.557167,1.46375,-0.681096,-1.66111,-0.86354,2.18804,1.32551,-0.597613,-0.859433,1.09663,0.43028,0.261582,0.836022,-0.344337,0.894076,-0.859433,1.09663,0.43028,0.261582,0.836022,-0.344337,0.894076,0.240822,-0.421387,0.998435,0.60437,-0.11426,0.0819856,0.784194,-0.447292,0.428813,0.609463,1.54501,-0.458267,1.78521,-3.11308,0.033857,0.987389,-3.0925,0.00260259,1.22109,-0.696797,0.805626,0.124382,0.308736,0.612716,-0.406181,0.64001,1
1.38488,-0.590474,-1.64925,-0.829295,2.2567,1.28046,-0.525179,1.41295,-0.620616,-1.64939,-0.84266,2.23444,1.29779,-0.5494,1.45571,-0.670972,-1.65758,-0.860897,2.19576,1.32199,-0.589401,-0.881818,1.09652,0.340273,0.307067,0.836231,-0.411475,0.885533,-0.881818,1.09652,0.340273,0.307067,0.836231,-0.411475,0.885533,0.236508,-0.41742,1.00396,0.602686,-0.116512,0.0824566,0.785109,-0.453235,0.403242,0.598766,1.51423,-0.457585,1.79407,-3.00374,0.0665602,0.865001,-3.0789,0.0154035,1.11908,-0.708288,0.804975,0.0833362,0.316025,0.609388,-0.415317,0.642223,1
1.37588,-0.580641,-1.65039,-0.826979,2.26525,1.27591,-0.51719,1.40353,-0.610574,-1.64976,-0.837968,2.24207,1.29118,-0.541533,1.44742,-0.660856,-1.65498,-0.857756,2.20349,1.31784,-0.58128,-0.911235,1.09503,0.232298,0.368342,0.838942,-0.482059,0.874604,-0.911235,1.09503,0.232298,0.368342,0.838942,-0.482059,0.874604,0.232145,-0.413742,1.00939,0.601518,-0.118314,0.0830813,0.785669,-0.467303,0.369241,0.589221,1.48293,-0.45704,1.80289,-2.97405,0.0518063,0.838008,-3.08303,0.033895,1.02711,-0.715419,0.802149,0.045903,0.307766,0.617607,-0.419266,0.640906,1
1.36723,-0.57086,-1.65342,-0.822477,2.27335,1.27406,-0.509474,1.39419,-0.600552,-1.64972,-0.833645,2.24958,1.28546,-0.533493,1.43886,-0.650755,-1.65329,-0.854119,2.21125,1.31303,-0.573252,-0.940028,1.09319,0.141366,0.415622,0.841032,-0.552798,0.865157,-0.940028,1.09319,0.141366,0.415622,0.841032,-0.552798,0.865157,0.227717,-0.41036,1.01475,0.600882,-0.119667,0.0838383,0.78587,-0.477542,0.341374,0.580225,1.45146,-0.457023,1.81001,-3.36743,0.00183066,0.761912,-3.09254,0.0368255,0.939337,-0.716338,0.79895,-0.00125547,0.316417,0.620992,-0.389701,0.637788,1
1.35768,-0.561079,-1.66045,-0.816026,2.28138,1.2713,-0.502245,1.38501,-0.590583,-1.65012,-0.829748,2.25724,1.28081,-0.525391,1.43007,-0.64067,-1.65224,-0.85015,2.21899,1.3077,-0.565283,-0.962786,1.09161,0.0900311,0.441852,0.837083,-0.599147,0.861468,-0.962786,1.09161,0.0900311,0.441852,0.837083,-0.599147,0.861468,0.22326,-0.407164,1.02004,0.60063,-0.120663,0.0847013,0.785818,-0.481657,0.329455,0.572996,1.42063,-0.456477,1.81518,-2.86818,0.0508107,0.48081,-3.09917,0.0409888,0.846412,-0.723931,0.79591,-0.0820603,0.341244,0.62386,-0.364032,0.63038,1
1.34802,-0.55133,-1.66854,-0.810208,2.28913,1.26947,-0.495138,1.37595,-0.580694,-1.65191,-0.825889,2.26518,1.27706,-0.517432,1.42111,-0.6306,-1.65153,-0.846033,2.22669,1.30214,-0.557317,-0.976528,1.08988,0.0659193,0.449354,0.830352,-0.604794,0.864094,-0.976528,1.08988,0.0659193,0.449354,0.830352,-0.604794,0.864094,0.218814,-0.404011,1.02526,0.600561,-0.121483,0.0856556,0.78564,-0.480012,0.331385,0.564849,1.38982,-0.455802,1.82051,-3.07022,0.0672173,0.530978,-3.10637,0.0448103,0.754224,-0.73096,0.792704,-0.170113,0.358253,0.624459,-0.326717,0.621788,1
1.3386,-0.541506,-1.67566,-0.804229,2.29643,1.27062,-0.48794,1.36684,-0.570873,-1.65566,-0.821383,2.27324,1.27413,-0.509757,1.41207,-0.620552,-1.65108,-0.841923,2.23435,1.2967,-0.54932,-0.981388,1.087,0.0348292,0.441617,0.830111,-0.576323,0.867927,-0.981388,1.087,0.0348292,0.441617,0.830111,-0.576323,0.867927,0.214419,-0.40082,1.03037,0.600546,-0.122269,0.0867018,0.785416,-0.472574,0.336299,0.550675,1.35895,-0.455947,1.82452,-3.42259,-0.0160187,0.4451,-3.10466,0.0396098,0.653952,-0.734677,0.790464,-0.24585,0.376946,0.620768,-0.260791,0.613793,1
1.32936,-0.531581,-1.68103,-0.800064,2.30399,1.27266,-0.479892,1.35755,-0.561084,-1.66133,-0.816053,2.28118,1.27205,-0.502343,1.40301,-0.610539,-1.65108,-0.837879,2.24206,1.29162,-0.541315,-0.981459,1.08256,-0.0299024,0.434944,0.838609,-0.52792,0.866285,-0.981459,1.08256,-0.0299024,0.434944,0.838609,-0.52792,0.866285,0.2101,-0.397613,1.03532,0.600588,-0.123066,0.0878524,0.785131,-0.465066,0.333703,0.530524,1.32823,-0.455722,1.82807,-3.03009,0.0222249,0.35033,-3.09861,0.032138,0.556316,-0.736522,0.789572,-0.299527,0.378153,0.619327,-0.18958,0.614223,1
1.3205,-0.521643,-1.68634,-0.798318,2.31161,1.27833,-0.471195,1.34813,-0.551286,-1.66806,-0.810446,2.28892,1.27114,-0.495002,1.39394,-0.600571,-1.65189,-0.833789,2.24985,1.28704,-0.533367,-0.982981,1.07724,-0.136603,0.449985,0.848293,-0.468306,0.856386,-0.982981,1.07724,-0.136603,0.449985,0.848293,-0.468306,0.856386,0.205815,-0.394478,1.04008,0.600833,-0.123888,0.0891363,0.784669,-0.46638,0.319332,0.508926,1.2974,-0.454954,1.83029,-2.91914,0.0727,0.209707,-3.08835,0.0335421,0.455943,-0.734451,0.789282,-0.344535,0.354709,0.617571,-0.0871707,0.621715,1
1.31138,-0.511852,-1.69296,-0.800459,2.31838,1.28768,-0.462635,1.33876,-0.54145,-1.67475,-0.805432,2.29649,1.27193,-0.487453,1.38483,-0.59065,-1.65383,-0.829454,2.2577,1.28306,-0.525536,-0.989602,1.07244,-0.272017,0.486087,0.851763,-0.399497,0.841284,-0.989602,1.07244,-0.272017,0.486087,0.851763,-0.399497,0.841284,0.201481,-0.391496,1.04463,0.601462,-0.124764,0.0906023,0.78388,-0.47778,0.297687,0.488712,1.26604,-0.455318,1.83079,-3.19498,-0.0370694,0.0506122,-3.08684,0.0294387,0.357539,-0.734556,0.787976,-0.391338,0.289952,0.606801,0.0462132,0.629004,1
1.30237,-0.502302,-1.70035,-0.802638,2.3245,1.29915,-0.454749,1.32953,-0.531583,-1.68095,-0.801909,2.30393,1.27501,-0.479508,1.37565,-0.580764,-1.65699,-0.824794,2.26554,1.2798,-0.517834,-0.998325,1.06928,-0.401687,0.520471,0.84785,-0.314337,0.828199,-0.998325,1.06928,-0.401687,0.520471,0.84785,-0.314337,0.828199,0.197043,-0.388665,1.049,0.602544,-0.125762,0.0922993,0.782691,-0.491242,0.280983,0.47002,1.23509,-0.455176,1.82969,-3.14128,0.0143586,-0.111433,-3.09187,0.0209451,0.249457,-0.732833,0.784629,-0.433578,0.221568,0.589518,0.19353,0.630851,1
1.29552,-0.494379,-1.70968,-0.801183,2.3307,1.31919,-0.448201,1.32047,-0.521764,-1.68705,-0.800419,2.31114,1.28092,-0.47127,1.36641,-0.570898,-1.66115,-0.819957,2.27333,1.27747,-0.510203,-1.00322,1.06816,-0.493195,0.526871,0.839915,-0.200709,0.825206,-1.00322,1.06816,-0.493195,0.526871,0.839915,-0.200709,0.825206,0.192527,-0.385877,1.05319,0.603943,-0.126999,0.0942581,0.781178,-0.496307,0.280374,0.450883,1.20565,-0.464405,1.80713,-2.93521,-0.920123,-2.24876,-3.08003,-0.0852227,-0.0967264,-0.708952,0.765197,-0.485217,0.187748,0.573708,0.417261,0.620021,1
1.28641,-0.485979,-1.71782,-0.79683,2.33834,1.32275,-0.441384,1.31164,-0.512179,-1.69371,-0.800501,2.318,1.29001,-0.463121,1.35716,-0.561036,-1.66596,-0.815299,2.28104,1.27637,-0.502535,-1.00201,1.06834,-0.543638,0.48571,0.830298,-0.0493137,0.835242,-1.00201,1.06834,-0.543638,0.48571,0.830298,-0.0493137,0.835242,0.188038,-0.38297,1.05715,0.605382,-0.128599,0.096507,0.779527,-0.485081,0.296816,0.425762,1.17345,-0.454897,1.82631,-2.96938,0.876792,1.76888,-3.08553,-0.0515674,-0.13253,-0.707511,0.750567,-0.518599,0.184695,0.573022,0.46382,0.611504,1
1.27785,-0.476681,-1.7229,-0.802145,2.34409,1.32478,-0.43331,1.30312,-0.503023,-1.70118,-0.800789,2.32459,1.30141,-0.455409,1.34794,-0.55118,-1.67115,-0.811274,2.28863,1.27689,-0.494743,-0.996102,1.06699,-0.576869,0.393774,0.816461,0.146133,0.851413,-0.996102,1.06699,-0.576869,0.393774,0.816461,0.146133,0.851413,0.183727,-0.379823,1.06081,0.606602,-0.13064,0.0991049,0.777911,-0.456528,0.32163,0.388539,1.14267,-0.454084,1.8244,-3.12887,0.082589,-0.19515,-3.08911,-0.0145061,-0.152275,-0.700897,0.74499,-0.51756,0.09129,0.554554,0.47888,0.614322,1
1.26853,-0.46614,-1.72683,-0.81823,2.35151,1.32385,-0.424298,1.29479,-0.494231,-1.70898,-0.800747,2.33116,1.31234,-0.448081,1.3388,-0.54137,-1.67668,-0.80821,2.29607,1.27943,-0.486838,-0.985051,1.05884,-0.617836,0.279629,0.795609,0.383638,0.860275,-0.985051,1.05884,-0.617836,0.279629,0.795609,0.383638,0.860275,0.179699,-0.37641,1.06404,0.607489,-0.133178,0.102126,0.776396,-0.421078,0.343353,0.340484,1.11191,-0.454392,1.81947,-3.24569,-0.0324654,-0.519585,-3.08872,0.0158259,-0.173594,-0.702665,0.752293,-0.501522,-0.1002,0.554461,0.444218,0.625401,1
1.26026,-0.456031,-1.73021,-0.843629,2.36098,1.32048,-0.416553,1.28634,-0.485375,-1.71611,-0.802434,2.33788,1.3197,-0.440685,1.32979,-0.531689,-1.68265,-0.806069,2.3033,1.28418,-0.478931,-0.967465,1.03981,-0.672057,0.191527,0.772446,0.625003,0.853198,-0.967465,1.03981,-0.672057,0.191527,0.772446,0.625003,0.853198,0.175939,-0.372798,1.06681,0.608105,-0.136267,0.105582,0.774915,-0.394505,0.353455,0.292694,1.08163,-0.453947,1.81431,-3.11396,0.0457145,-0.530957,-3.08061,0.05714,-0.187872,-0.69526,0.756581,-0.475583,-0.375603,0.576782,0.362982,0.623778,1
1.25725,-0.44723,-1.73411,-0.856514,2.37368,1.31524,-0.411113,1.27774,-0.476053,-1.7219,-0.809325,2.34497,1.32261,-0.432903,1.32095,-0.522214,-1.6891,-0.804566,2.31034,1.29074,-0.471138,-0.948976,1.01503,-0.720923,0.1385,0.755272,0.783318,0.836358,-0.948976,1.01503,-0.720923,0.1385,0.755272,0.783318,0.836358,0.172374,-0.369112,1.06917,0.608585,-0.139793,0.109374,0.773382,-0.375878,0.351216,0.25539,1.05109,-0.453697,1.80858,-3.21461,0.0263896,-0.603011,-3.0771,0.0923489,-0.199362,-0.637024,0.749836,-0.450078,-0.519488,0.633375,0.244964,0.60025,1
1.25264,-0.438385,-1.74059,-0.859023,2.38288,1.31216,-0.405706,1.26957,-0.466336,-1.72649,-0.822367,2.353,1.32211,-0.425044,1.31224,-0.512922,-1.69583,-0.803742,2.31728,1.29799,-0.463467,-0.939409,0.999203,-0.735766,0.0474397,0.747263,0.787443,0.826376,-0.939409,0.999203,-0.735766,0.0474397,0.747263,0.787443,0.826376,0.16911,-0.365457,1.07121,0.608957,-0.143249,0.113352,0.771882,-0.334343,0.345093,0.222553,1.02072,-0.453586,1.80153,-3.22703,0.0117566,-0.749268,-3.07339,0.124976,-0.22276,-0.595976,0.74537,-0.447606,-0.55281,0.655999,0.141647,0.577605,1
1.25265,-0.430385,-1.75013,-0.859548,2.39037,1.33543,-0.402259,1.26272,-0.456687,-1.73074,-0.837768,2.36231,1.31993,-0.417812,1.30357,-0.503682,-1.70247,-0.804429,2.3242,1.30459,-0.455814,-0.93716,1.00219,-0.704816,-0.177589,0.753127,0.65357,0.831043,-0.93716,1.00219,-0.704816,-0.177589,0.753127,0.65357,0.831043,0.166582,-0.361883,1.07288,0.609012,-0.145785,0.117394,0.770759,-0.234135,0.342693,0.174598,0.99062,-0.452936,1.79511,-3.0325,0.0654519,-0.646125,-3.0472,0.0270448,-0.536534,-0.509269,0.732967,-0.476605,-0.551184,0.661651,0.30842,0.535552,1
1.24638,-0.423209,-1.7625,-0.857713,2.39668,1.3549,-0.399592,1.25765,-0.447498,-1.7358,-0.849947,2.37224,1.31921,-0.411694,1.295,-0.494358,-1.70868,-0.807819,2.33132,1.30962,-0.448113,-0.922359,1.01641,-0.64582,-0.527658,0.786251,0.452971,0.836756,-0.922359,1.01641,-0.64582,-0.527658,0.786251,0.452971,0.836756,0.165344,-0.358423,1.07404,0.608422,-0.146613,0.121377,0.770451,-0.0800276,0.340263,0.105043,0.960563,-0.452044,1.78626,-3.08942,0.091716,-0.909851,-3.0351,0.033548,-0.628192,-0.486209,0.711495,-0.538154,-0.498937,0.653622,0.452801,0.485211,1
1.24137,-0.413969,-1.77242,-0.865371,2.40254,1.36634,-0.396314,1.25392,-0.438867,-1.74267,-0.856454,2.38154,1.32415,-0.406753,1.28585,-0.48368,-1.71493,-0.816309,2.34011,1.31255,-0.439524,-0.83894,0.979072,-0.573232,-0.778342,0.805386,0.267911,0.787509,-0.83894,0.979072,-0.573232,-0.778342,0.805386,0.267911,0.787509,0.166207,-0.354781,1.07449,0.606556,-0.144654,0.125431,0.771643,0.0519252,0.315758,0.0412935,0.930231,-0.452417,1.77454,-3.07328,-0.0377514,-1.18814,-3.02732,0.0374756,-0.729864,-0.444727,0.697105,-0.574884,-0.49062,0.624342,0.537944,0.432096,1
1.23818,-0.404872,-1.78081,-0.874333,2.4088,1.37154,-0.393651,1.25044,-0.43062,-1.75155,-0.859239,2.3895,1.33588,-0.402804,1.27785,-0.473423,-1.72085,-0.825844,2.34922,1.31444,-0.431635,-0.732744,0.940335,-0.542378,-0.874236,0.835157,0.173273,0.723287,-0.732744,0.940335,-0.542378,-0.874236,0.835157,0.173273,0.723287,0.167884,-0.351458,1.07459,0.604331,-0.141854,0.128843,0.773344,0.124771,0.294014,0.00624547,0.899854,-0.45211,1.7634,-3.01499,0.0304317,-1.1056,-3.02575,0.0343374,-0.843162,-0.396769,0.68551,-0.599667,-0.484889,0.595884,0.571073,0.379838,1
1.23208,-0.394929,-1.79016,-0.882221,2.41477,1.37514,-0.390845,1.24644,-0.422362,-1.76158,-0.861983,2.39634,1.35027,-0.399508,1.27107,-0.463628,-1.72703,-0.834521,2.35838,1.31719,-0.424582,-0.622013,0.898105,-0.56712,-0.795533,0.839963,0.252498,0.646665,-0.622013,0.898105,-0.56712,-0.795533,0.839963,0.252498,0.646665,0.169476,-0.348266,1.07462,0.60223,-0.139717,0.131892,0.774857,0.122012,0.281434,0.00118911,0.869892,-0.451752,1.7515,-2.93753,0.0350742,-1.16661,-3.02043,0.0332334,-0.957448,-0.389848,0.686981,-0.631245,-0.476996,0.563886,0.579524,0.337365,1
1.22357,-0.387152,-1.79937,-0.890396,2.42361,1.37714,-0.387542,1.24188,-0.413719,-1.77156,-0.867002,2.40266,1.36213,-0.396513,1.26522,-0.454271,-1.73398,-0.841528,2.3672,1.32249,-0.418408,-0.536085,0.857839,-0.637106,-0.642398,0.808813,0.485654,0.566002,-0.536085,0.857839,-0.637106,-0.642398,0.808813,0.485654,0.566002,0.170448,-0.345048,1.07465,0.600586,-0.139221,0.135024,0.775682,0.0733991,0.276275,0.00553745,0.839411,-0.451291,1.7386,-3.12171,0.047263,-1.32068,-3.0218,0.0328145,-1.06742,-0.416542,0.67119,-0.653827,-0.48868,0.56406,0.546533,0.308667,1
1.21293,-0.383484,-1.80915,-0.900553,2.43268,1.37658,-0.390895,1.23673,-0.404796,-1.78102,-0.874208,2.40907,1.36965,-0.393693,1.2599,-0.445226,-1.7418,-0.847326,2.37546,1.33036,-0.413051,-0.488193,0.829292,-0.717126,-0.531623,0.757394,0.722071,0.491195,-0.488193,0.829292,-0.717126,-0.531623,0.757394,0.722071,0.491195,0.170874,-0.34179,1.07458,0.599479,-0.140156,0.1385,0.775757,0.0290186,0.271641,0.00208983,0.808067,-0.451422,1.72542,-2.99595,-0.0125508,-1.26011,-3.03679,0.0239772,-1.16945,-0.469639,0.617421,-0.67342,-0.532272,0.572195,0.462192,0.221561,1
1.20566,-0.380814,-1.81684,-0.903818,2.43971,1.37851,-0.392935,1.2304,-0.39637,-1.79023,-0.882381,2.41608,1.37381,-0.391415,1.25538,-0.437418,-1.74894,-0.852251,2.38235,1.33783,-0.408752,-0.489741,0.859588,-0.820346,-0.535027,0.736791,0.881498,0.443941,-0.489741,0.859588,-0.820346,-0.535027,0.736791,0.881498,0.443941,0.171192,-0.33899,1.07443,0.598753,-0.141189,0.14169,0.775555,0.0206146,0.277935,-0.0123731,0.778586,-0.451021,1.71063,-2.73882,0.0373107,-1.37388,-3.03822,0.0209966,-1.24973,-0.497259,0.566037,-0.678953,-0.515668,0.573607,0.406859,0.15817,1
1.19889,-0.375698,-1.82479,-0.906956,2.44487,1.38669,-0.389949,1.22265,-0.389422,-1.79938,-0.890481,2.42379,1.37613,-0.390355,1.25076,-0.42933,-1.75681,-0.857539,2.38909,1.34587,-0.40485,-0.509081,0.88988,-0.87837,-0.604591,0.724641,0.862426,0.404659,-0.509081,0.88988,-0.87837,-0.604591,0.724641,0.862426,0.404659,0.171611,-0.336175,1.07411,0.598352,-0.142186,0.145217,0.775029,0.0424684,0.271323,-0.0315886,0.748813,-0.450561,1.69467,-2.85776,0.0441223,-1.53166,-3.03077,0.0288457,-1.32572,-0.518773,0.536322,-0.679833,-0.494169,0.557755,0.408212,0.149011,1
1.19298,-0.367591,-1.83315,-0.91514,2.45015,1.39903,-0.385323,1.21428,-0.384147,-1.80828,-0.897638,2.43156,1.37825,-0.39045,1.24581,-0.421082,-1.76508,-0.863519,2.39583,1.35325,-0.401337,-0.55902,0.89633,-0.912029,-0.684173,0.734484,0.745882,0.359893,-0.55902,0.89633,-0.912029,-0.684173,0.734484,0.745882,0.359893,0.172253,-0.333588,1.07361,0.598314,-0.14248,0.148784,0.774328,0.0570308,0.237566,-0.0529101,0.718592,-0.45065,1.67912,-3.06602,-0.00907045,-1.57819,-3.02418,0.025117,-1.40879,-0.528343,0.534908,-0.680617,-0.516212,0.543182,0.457849,0.160149,1
1.1886,-0.358292,-1.84161,-0.924661,2.45678,1.40932,-0.381572,1.20641,-0.379464,-1.81676,-0.90358,2.43862,1.3822,-0.390327,1.24026,-0.41301,-1.77362,-0.870109,2.40275,1.35943,-0.398362,-0.638428,0.855569,-0.934331,-0.738895,0.762839,0.605442,0.290432,-0.638428,0.855569,-0.934331,-0.738895,0.762839,0.605442,0.290432,0.172938,-0.331559,1.07293,0.598832,-0.141851,0.152058,0.773406,0.0418083,0.167617,-0.077703,0.688711,-0.450138,1.66202,-3.02594,0.0518461,-1.73099,-3.01584,0.0249454,-1.49335,-0.516513,0.547188,-0.67991,-0.545522,0.540217,0.498883,0.167898,1
1.18607,-0.353906,-1.85022,-0.931509,2.46401,1.41914,-0.380312,1.19963,-0.373934,-1.82499,-0.909323,2.44484,1.3892,-0.38868,1.23398,-0.405514,-1.78228,-0.876983,2.40991,1.36449,-0.396107,-0.714526,0.775014,-0.942735,-0.749185,0.785411,0.499045,0.205191,-0.714526,0.775014,-0.942735,-0.749185,0.785411,0.499045,0.205191,0.173396,-0.330327,1.07206,0.600073,-0.140451,0.154798,0.772155,0.00153372,0.0820192,-0.10077,0.658383,-0.449529,1.64292,-3.03087,0.0609129,-1.90903,-3.00639,0.0293719,-1.59052,-0.479127,0.51608,-0.679323,-0.545268,0.540953,0.54651,0.15795,1
1.18129,-0.357744,-1.85963,-0.937259,2.47245,1.4256,-0.387955,1.19401,-0.367363,-1.83328,-0.916044,2.45086,1.39858,-0.3859,1.22719,-0.398738,-1.79095,-0.88375,2.41713,1.369,-0.394484,-0.753578,0.6991,-0.935991,-0.719253,0.779324,0.47888,0.15078,-0.753578,0.6991,-0.935991,-0.719253,0.779324,0.47888,0.15078,0.173476,-0.3298,1.07104,0.601929,-0.138725,0.157045,0.770567,-0.041635,0.0233011,-0.113551,0.628656,-0.449208,1.62247,-2.69041,0.0290058,-1.85051,-2.9955,0.0358841,-1.70321,-0.458986,0.409946,-0.686807,-0.535092,0.553201,0.566053,0.0652973,1
1.17401,-0.361865,-1.86941,-0.943051,2.47722,1.43057,-0.404025,1.18935,-0.361432,-1.8418,-0.923518,2.45732,1.40847,-0.384068,1.22026,-0.392426,-1.79953,-0.890253,2.42418,1.37381,-0.393053,-0.748294,0.670725,-0.92349,-0.691712,0.749393,0.55799,0.158632,-0.748294,0.670725,-0.92349,-0.691712,0.749393,0.55799,0.158632,0.173253,-0.32956,1.06995,0.603993,-0.137183,0.159129,0.768798,-0.0623451,0.0162636,-0.11795,0.59818,-0.449738,1.60097,-3.15767,-0.0548689,-2.22797,-3.00622,0.02741,-1.81989,-0.462507,0.305607,-0.698785,-0.527986,0.530463,0.567597,-0.109718,1
1.16313,-0.365166,-1.87857,-0.949322,2.47886,1.43459,-0.412967,1.1849,-0.358379,-1.85065,-0.930694,2.46416,1.41728,-0.385752,1.21355,-0.386175,-1.80802,-0.89669,2.43096,1.37962,-0.391387,-0.708724,0.682373,-0.916169,-0.702025,0.721919,0.687821,0.199017,-0.708724,0.682373,-0.916169,-0.702025,0.721919,0.687821,0.199017,0.172961,-0.32919,1.06879,0.605832,-0.136105,0.161378,0.767073,-0.053585,0.0416164,-0.12482,0.568181,-0.449036,1.58015,-3.13579,0.0734072,-2.17691,-3.00991,0.0261818,-1.92651,-0.504182,0.210088,-0.705498,-0.526315,0.479047,0.549749,-0.215806,1
1.1516,-0.365264,-1.88706,-0.956217,2.47966,1.43677,-0.41433,1.17941,-0.358829,-1.85982,-0.937169,2.47049,1.42433,-0.392047,1.20729,-0.379932,-1.81649,-0.903324,2.43759,1.38651,-0.38955,-0.650789,0.671056,-0.918128,-0.732486,0.715715,0.796507,0.198856,-0.650789,0.671056,-0.918128,-0.732486,0.715715,0.796507,0.198856,0.172752,-0.328652,1.0675,0.607327,-0.135458,0.163774,0.765495,-0.0390215,0.0477926,-0.143031,0.538167,-0.448922,1.55785,-2.94074,0.0111692,-2.1843,-3.00905,0.0256517,-2.03393,-0.556971,0.146681,-0.705671,-0.528926,0.420638,0.502627,-0.247802,1
1.1414,-0.376067,-1.89517,-0.964648,2.48724,1.43643,-0.417348,1.17191,-0.361411,-1.86909,-0.943366,2.47531,1.42962,-0.400955,1.20152,-0.374219,-1.82502,-0.91015,2.44424,1.39409,-0.388255,-0.602951,0.574563,-0.929553,-0.745196,0.722865,0.841171,0.0907687,-0.602951,0.574563,-0.929553,-0.745196,0.722865,0.841171,0.0907687,0.172509,-0.328382,1.06596,0.608844,-0.135032,0.165912,0.763903,-0.0527554,-0.0097488,-0.176155,0.507734,-0.449245,1.53349,-2.9904,-0.0318257,-2.39422,-3.0137,0.0145188,-2.13599,-0.601212,-0.0184771,-0.701504,-0.54498,0.430075,0.423468,-0.290934,1
1.13322,-0.396119,-1.90361,-0.969527,2.49545,1.43383,-0.421528,1.16253,-0.365049,-1.87814,-0.949811,2.47888,1.43324,-0.40888,1.19597,-0.369798,-1.8337,-0.916968,2.45085,1.40174,-0.388512,-0.600819,0.397881,-0.947549,-0.732781,0.712066,0.819306,-0.128251,-0.600819,0.397881,-0.947549,-0.732781,0.712066,0.819306,-0.128251,0.171925,-0.329004,1.06408,0.611065,-0.134565,0.167329,0.761901,-0.105415,-0.129415,-0.220751,0.478222,-0.448953,1.50873,-2.87516,0.0285177,-2.41177,-3.00835,0.00882064,-2.22738,-0.62752,-0.263213,-0.699112,-0.525589,0.445961,0.320852,-0.33016,1
1.12406,-0.403221,-1.91281,-0.970407,2.49756,1.43407,-0.423183,1.15232,-0.370822,-1.88684,-0.956516,2.48267,1.43511,-0.414153,1.19012,-0.367085,-1.84252,-0.923645,2.45716,1.40896,-0.390881,-0.660545,0.205799,-0.963625,-0.715312,0.658494,0.749475,-0.365388,-0.660545,0.205799,-0.963625,-0.715312,0.658494,0.749475,-0.365388,0.170755,-0.330898,1.06181,0.614536,-0.133785,0.16789,0.759118,-0.178844,-0.268093,-0.266692,0.448959,-0.448134,1.48307,-3.12059,0.0872929,-2.73652,-2.99805,0.0163666,-2.31912,-0.660639,-0.361366,-0.702813,-0.46762,0.404014,0.251166,-0.323017,1
1.11785,-0.409392,-1.92306,-0.978978,2.49695,1.45114,-0.423384,1.14243,-0.380057,-1.89538,-0.962805,2.48757,1.43565,-0.417643,1.18352,-0.366035,-1.85144,-0.930225,2.46285,1.41537,-0.394953,-0.761319,0.035766,-0.968441,-0.710457,0.581171,0.648111,-0.505158,-0.761319,0.035766,-0.968441,-0.710457,0.581171,0.648111,-0.505158,0.16893,-0.334102,1.05918,0.619294,-0.132419,0.167754,0.755512,-0.253784,-0.397199,-0.309281,0.42009,-0.446667,1.45703,-2.76141,0.140353,-2.49108,-2.97378,0.0392301,-2.4111,-0.656718,-0.43357,-0.71615,-0.487528,0.340955,0.357684,-0.284309,1
1.11431,-0.411142,-1.93252,-0.9911,2.49541,1.46908,-0.427593,1.13344,-0.391187,-1.90412,-0.968249,2.49242,1.43696,-0.420396,1.176,-0.366642,-1.86035,-0.936806,2.46798,1.42072,-0.399711,-0.859017,-0.15164,-0.961018,-0.714919,0.532867,0.52181,-0.52386,-0.859017,-0.15164,-0.961018,-0.714919,0.532867,0.52181,-0.52386,0.166431,-0.338634,1.05616,0.624964,-0.130238,0.166931,0.751393,-0.332323,-0.535908,-0.357283,0.390888,-0.446903,1.42972,-3.11684,-0.0251956,-2.91406,-2.95289,0.0429239,-2.5119,-0.61699,-0.445003,-0.721743,-0.542939,0.274319,0.483631,-0.278822,1
1.11374,-0.4208,-1.94147,-1.00615,2.50134,1.48464,-0.436172,1.12573,-0.400881,-1.91329,-0.973946,2.49553,1.44235,-0.422773,1.16777,-0.369245,-1.86917,-0.943359,2.47289,1.42488,-0.40434,-0.919368,-0.392202,-0.950685,-0.705362,0.532179,0.390434,-0.482518,-0.919368,-0.392202,-0.950685,-0.705362,0.532179,0.390434,-0.482518,0.163155,-0.344683,1.05269,0.631144,-0.127158,0.165108,0.747146,-0.423365,-0.698933,-0.415813,0.361321,-0.446965,1.40095,-2.94898,-0.00619461,-2.86952,-2.93701,0.0458577,-2.60687,-0.540279,-0.515558,-0.722968,-0.627873,0.284443,0.597618,-0.318317,1
1.10843,-0.432264,-1.94972,-1.01659,2.51608,1.49139,-0.45026,1.11975,-0.408018,-1.92276,-0.981835,2.49715,1.45326,-0.425674,1.15921,-0.374018,-1.87794,-0.949707,2.4778,1.42813,-0.408534,-0.934552,-0.622751,-0.949591,-0.672581,0.530442,0.320028,-0.430286,-0.934552,-0.622751,-0.949591,-0.672581,0.530442,0.320028,-0.430286,0.159038,-0.352228,1.04875,0.637567,-0.123386,0.16215,0.742962,-0.510464,-0.837578,-0.471913,0.33194,-0.446729,1.37165,-2.94997,0.0236629,-2.94211,-2.92591,0.0455528,-2.6943,-0.507744,-0.582459,-0.717751,-0.668861,0.382869,0.632551,-0.417261,1
1.09899,-0.445632,-1.95843,-1.02505,2.52044,1.49498,-0.459926,1.11542,-0.414537,-1.93212,-0.992429,2.49969,1.46719,-0.430739,1.15072,-0.380373,-1.88677,-0.955838,2.48242,1.43146,-0.412261,-0.906451,-0.743894,-0.962112,-0.656853,0.475625,0.394922,-0.381296,-0.906451,-0.743894,-0.962112,-0.656853,0.475625,0.394922,-0.381296,0.1543,-0.360654,1.04436,0.643962,-0.119446,0.15858,0.738849,-0.554523,-0.886503,-0.51494,0.302417,-0.446647,1.34115,-2.98587,0.00834597,-3.08456,-2.92937,0.0336762,-2.79159,-0.517313,-0.652588,-0.716555,-0.692091,0.380162,0.635152,-0.476642,1
1.082,-0.45632,-1.96812,-1.03374,2.50169,1.49495,-0.467282,1.1113,-0.422762,-1.94114,-1.00417,2.50473,1.47978,-0.438774,1.14272,-0.387282,-1.89574,-0.962182,2.48639,1.43623,-0.415686,-0.833113,-0.752142,-0.979938,-0.712876,0.390441,0.617993,-0.362274,-0.833113,-0.752142,-0.979938,-0.712876,0.390441,0.617993,-0.362274,0.149436,-0.369079,1.03957,0.650007,-0.115906,0.155211,0.734824,-0.536693,-0.851657,-0.555929,0.272735,-0.4462,1.31005,-2.93476,0.0441853,-3.07511,-2.93917,0.0214866,-2.88885,-0.60718,-0.690378,-0.723793,-0.715622,0.153077,0.587255,-0.515957,1
1.06808,-0.46579,-1.97857,-1.04375,2.45928,1.48853,-0.474488,1.10505,-0.433152,-1.94997,-1.01518,2.50917,1.48822,-0.448653,1.13554,-0.394161,-1.90484,-0.969379,2.48983,1.44319,-0.419295,-0.729793,-0.739113,-0.989552,-0.83607,0.357792,0.87038,-0.41511,-0.729793,-0.739113,-0.989552,-0.83607,0.357792,0.87038,-0.41511,0.144866,-0.377065,1.03431,0.655528,-0.113018,0.152298,0.730968,-0.486867,-0.805767,-0.609665,0.243235,-0.446012,1.27777,-2.95441,0.0188607,-3.23326,-2.9492,0.0131782,-2.98903,-0.674681,-0.716293,-0.737357,-0.743705,-0.305458,0.453394,-0.551923,1
1.05909,-0.471354,-1.98706,-1.05058,2.45832,1.47673,-0.474449,1.09532,-0.444429,-1.959,-1.02495,2.50614,1.49187,-0.458244,1.12921,-0.4012,-1.91395,-0.977715,2.4934,1.45193,-0.423773,-0.649599,-0.782101,-0.985929,-0.959408,0.411069,1.01015,-0.544125,-0.649599,-0.782101,-0.985929,-0.959408,0.411069,1.01015,-0.544125,0.140597,-0.384856,1.0285,0.660723,-0.110589,0.149326,0.727266,-0.460262,-0.809554,-0.672505,0.213952,-0.446041,1.24464,-2.86893,-0.00291683,-3.24551,-2.95066,0.0179308,-3.08295,-0.701205,-0.701543,-0.731024,-0.728641,-0.350793,0.24801,-0.506757,1
1.05271,-0.481773,-1.99583,-1.05832,2.49173,1.47552,-0.477214,1.08309,-0.455032,-1.96836,-1.03397,2.49327,1.49095,-0.465992,1.12317,-0.408907,-1.92302,-0.986904,2.49729,1.46112,-0.429542,-0.657169,-0.879392,-0.977712,-1.02562,0.430991,0.983004,-0.693184,-0.657169,-0.879392,-0.977712,-1.02562,0.430991,0.983004,-0.693184,0.13629,-0.392973,1.02214,0.666112,-0.108091,0.145778,0.723436,-0.48465,-0.863032,-0.730177,0.185064,-0.445706,1.21089,-2.88597,0.0335515,-3.37182,-2.9426,0.0206781,-3.17002,-0.7046,-0.728655,-0.728123,-0.714159,-0.0556146,0.144059,-0.476717,1
1.0463,-0.494121,-2.00429,-1.06747,2.5125,1.45998,-0.484948,1.07098,-0.464402,-1.97779,-1.04256,2.47949,1.48625,-0.471465,1.11654,-0.417511,-1.93204,-0.99642,2.50019,1.46936,-0.436432,-0.769669,-0.976345,-0.977698,-1.03497,0.215604,0.816385,-0.791176,-0.769669,-0.976345,-0.977698,-1.03497,0.215604,0.816385,-0.791176,0.131675,-0.401684,1.01534,0.672248,-0.104782,0.142024,0.71898,-0.535919,-0.923839,-0.774415,0.156024,-0.445547,1.17645,-2.98012,0.0162921,-3.53462,-2.93298,0.0199599,-3.25555,-0.7024,-0.766105,-0.722493,-0.710513,0.123035,-0.0937933,-0.485165,1
1.04044,-0.503233,-2.01327,-1.07933,2.50743,1.47395,-0.494649,1.06098,-0.473313,-1.98693,-1.05085,2.47726,1.47959,-0.475507,1.10865,-0.426769,-1.94112,-1.00589,2.4999,1.4756,-0.443804,-0.927144,-1.02512,-0.988124,-1.01852,-0.240677,0.556658,-0.804771,-0.927144,-1.02512,-0.988124,-1.01852,-0.240677,0.556658,-0.804771,0.126825,-0.410854,1.00823,0.679363,-0.0999169,0.139131,0.71353,-0.572272,-0.955953,-0.801158,0.126978,-0.445866,1.14038,-2.86003,-0.0314695,-3.55119,-2.9211,0.0141191,-3.3443,-0.682125,-0.764636,-0.721468,-0.73438,0.0752983,-0.016519,-0.508448,1
1.03136,-0.509624,-2.02125,-1.09115,2.50391,1.50072,-0.499962,1.05312,-0.482776,-1.99574,-1.05938,2.48754,1.47393,-0.479958,1.09954,-0.436219,-1.95029,-1.01517,2.49591,1.47923,-0.450934,-1.03603,-1.02223,-0.997461,-0.993554,-0.595455,0.254777,-0.744682,-1.03603,-1.02223,-0.997461,-0.993554,-0.595455,0.254777,-0.744682,0.121942,-0.420225,1.00097,0.687175,-0.0931984,0.137505,0.707246,-0.587494,-0.961013,-0.805622,0.100654,-0.445995,1.11481,-2.66108,-0.0130149,-2.5852,-2.88101,0.00499785,-3.31678,-0.681827,-0.734053,-0.709615,-0.759805,0.0799995,0.214944,-0.490285,1
1.02424,-0.51314,-2.03176,-1.1018,2.50962,1.51282,-0.506718,1.04622,-0.492536,-2.00441,-1.06891,2.49968,1.47356,-0.486009,1.08991,-0.445576,-1.95949,-1.02421,2.49091,1.4802,-0.457374,-1.04936,-1.00606,-0.995198,-0.966262,-0.495186,-0.0219514,-0.65769,-1.04936,-1.00606,-0.995198,-0.966262,-0.495186,-0.0219514,-0.65769,0.116968,-0.429732,0.993755,0.695074,-0.085085,0.13599,0.700813,-0.609823,-0.96664,-0.793838,0.0754486,-0.455835,1.10659,-2.54919,-0.995169,-0.831316,-2.81443,-0.105495,-3.01326,-0.65675,-0.675638,-0.722683,-0.77593,0.187042,0.32624,-0.493433,1
1.02031,-0.513559,-2.0431,-1.1086,2.49077,1.51918,-0.5118,1.03929,-0.501175,-2.01319,-1.07947,2.5055,1.48149,-0.49307,1.0805,-0.454891,-1.96862,-1.03307,2.48862,1.47916,-0.463198,-0.99335,-1.01141,-0.983614,-0.954404,-0.0390688,-0.189513,-0.607904,-0.99335,-1.01141,-0.983614,-0.954404,-0.0390688,-0.189513,-0.607904,0.111619,-0.439474,0.986655,0.702575,-0.0764892,0.13288,0.694896,-0.647908,-0.98225,-0.788275,0.048483,-0.47406,1.104,-2.45775,-1.6611,-0.235992,-2.7536,-0.374156,-2.47202,-0.601906,-0.58668,-0.744784,-0.755304,0.0215302,0.400241,-0.486019,1
1.01335,-0.495693,-2.05106,-1.08618,2.43379,1.53772,-0.510795,1.03224,-0.507213,-2.02237,-1.0897,2.50436,1.49538,-0.499816,1.07168,-0.464294,-1.97764,-1.04199,2.49018,1.47762,-0.468878,-0.923443,-1.02437,-0.971163,-0.976304,0.344719,-0.147266,-0.621378,-0.923443,-1.02437,-0.971163,-0.976304,0.344719,-0.147266,-0.621378,0.1058,-0.449355,0.979522,0.709546,-0.0682626,0.12776,0.68961,-0.675469,-0.976247,-0.804757,0.0226605,-0.493419,1.0995,-2.8483,-2.1353,-0.495934,-2.69222,-0.750481,-1.8316,-0.583356,-0.313988,-0.734228,-0.441908,-0.56385,0.600968,-0.419179,1
0.991508,-0.508345,-2.05936,-1.00475,2.44329,1.53966,-0.521295,1.02532,-0.509478,-2.03203,-1.09528,2.49556,1.50976,-0.505464,1.0634,-0.473626,-1.98658,-1.05124,2.49377,1.47769,-0.474818,-0.874436,-0.999247,-0.965353,-1.02373,0.425584,0.138061,-0.662029,-0.874436,-0.999247,-0.965353,-1.02373,0.425584,0.138061,-0.662029,0.0997421,-0.458887,0.97218,0.716041,-0.0610488,0.121859,0.684623,-0.673543,-0.913795,-0.829984,-0.00260799,-0.510468,1.0956,-2.3332,-1.57427,-0.360733,-2.63109,-1.13548,-1.19685,-0.718935,-0.347188,-0.727797,0.464955,-0.504784,0.619727,-0.464769,1
0.988639,-0.513546,-2.06513,-0.998409,2.45285,1.5492,-0.533874,1.01776,-0.508254,-2.04166,-1.0882,2.47828,1.52199,-0.510231,1.05548,-0.482362,-1.99553,-1.06081,2.49692,1.4809,-0.481027,-0.843252,-0.90136,-0.973532,-1.04781,0.269976,0.525276,-0.681499,-0.843252,-0.90136,-0.973532,-1.04781,0.269976,0.525276,-0.681499,0.0937972,-0.467418,0.964694,0.722134,-0.0552312,0.116841,0.679574,-0.643723,-0.794016,-0.827761,-0.0302431,-0.529868,1.09127,-2.68395,-1.88416,-0.419681,-2.61063,-1.49477,-0.688671,-0.668458,-0.311836,-0.695972,0.624053,-0.440693,0.683073,-0.528465,1
0.982007,-0.523306,-2.06982,-0.999545,2.44663,1.55308,-0.531394,1.00836,-0.506804,-2.05047,-1.06431,2.45956,1.53223,-0.515425,1.04783,-0.489754,-2.00462,-1.06986,2.49767,1.48721,-0.48722,-0.816596,-0.71539,-0.994215,-0.921887,-0.076821,0.817925,-0.661714,-0.816596,-0.71539,-0.994215,-0.921887,-0.076821,0.817925,-0.661714,0.0882379,-0.474366,0.957574,0.72797,-0.0508858,0.114077,0.674134,-0.600612,-0.623486,-0.74231,-0.056918,-0.548633,1.08518,-2.32665,-1.63676,-0.531668,-2.62568,-1.75853,-0.456841,-0.658249,-0.335517,-0.651951,0.703136,-0.510484,0.65871,-0.441733,1
0.980486,-0.510862,-2.07273,-1.00363,2.44753,1.56665,-0.542712,0.998103,-0.508604,-2.058,-1.0331,2.44917,1.54078,-0.521946,1.04029,-0.495158,-2.01387,-1.07598,2.49442,1.49548,-0.493124,-0.817338,-0.475036,-1.00803,-0.443375,-0.585448,0.961461,-0.620487,-0.817338,-0.475036,-1.00803,-0.443375,-0.585448,0.961461,-0.620487,0.0829308,-0.479222,0.951873,0.733952,-0.0482648,0.114699,0.667705,-0.608978,-0.409805,-0.513558,-0.0815903,-0.566743,1.07812,-2.88633,-2.11855,-0.8254,-2.62437,-1.85114,-0.468785,-0.598027,-0.157042,-0.588579,0.723434,-0.468943,0.711675,-0.495885,1
0.972316,-0.515407,-2.0788,-1.00242,2.43897,1.57717,-0.539414,0.989549,-0.512718,-2.06414,-1.01066,2.44724,1.5484,-0.528751,1.03246,-0.498647,-2.0231,-1.07578,2.48697,1.50457,-0.49877,-0.874179,-0.295857,-0.992908,0.41586,-0.99419,1.0035,-0.604097,-0.874179,-0.295857,-0.992908,0.41586,-0.99419,1.0035,-0.604097,0.0769948,-0.481823,0.948765,0.74071,-0.0481875,0.118939,0.659454,-0.746898,-0.209526,-0.169865,-0.107959,-0.586022,1.0696,-2.54754,-1.86262,-0.823592,-2.61478,-1.85964,-0.558478,-0.601424,-0.167599,-0.556957,0.733575,-0.480032,0.726025,-0.406435,1
0.964574,-0.527196,-2.0861,-0.995935,2.42851,1.587,-0.540153,0.983404,-0.515588,-2.06922,-1.00229,2.44678,1.55664,-0.534248,1.02405,-0.501236,-2.03202,-1.06773,2.47761,1.51372,-0.504493,-0.941267,-0.267273,-0.942482,1.2564,-1.03153,0.981562,-0.633076,-0.941267,-0.267273,-0.942482,1.2564,-1.03153,0.981562,-0.633076,0.0694331,-0.482718,0.948507,0.748572,-0.051171,0.125319,0.649089,-0.953814,-0.0953891,0.123817,-0.133168,-0.604104,1.06072,-2.97706,-2.13531,-1.04877,-2.60548,-1.85728,-0.64821,-0.594781,-0.259599,-0.54081,0.717981,-0.49097,0.732796,-0.356599,1
0.957625,-0.540509,-2.09529,-0.984302,2.42336,1.59679,-0.543266,0.978015,-0.517051,-2.07415,-1.00089,2.44358,1.56625,-0.537892,1.01538,-0.503956,-2.04032,-1.05447,2.46925,1.52256,-0.510485,-0.937094,-0.31783,-0.863784,1.58901,-0.798407,0.937291,-0.662572,-0.937094,-0.31783,-0.863784,1.58901,-0.798407,0.937291,-0.662572,0.0604184,-0.482845,0.949978,0.757008,-0.0563542,0.131678,0.637514,-1.05045,-0.0637524,0.227061,-0.160962,-0.622327,1.05088,-2.68677,-1.76164,-0.950583,-2.61412,-1.86228,-0.752956,-0.577582,-0.365528,-0.549673,0.701691,-0.458907,0.74231,-0.327808,1
0.950831,-0.547344,-2.10274,-0.971328,2.42148,1.60571,-0.5493,0.971867,-0.520669,-2.07995,-0.998667,2.43772,1.5766,-0.540037,1.00712,-0.506881,-2.04785,-1.04077,2.46294,1.53115,-0.516507,-0.860119,-0.315847,-0.775075,1.39564,-0.586146,0.924599,-0.643533,-0.860119,-0.315847,-0.775075,1.39564,-0.586146,0.924599,-0.643533,0.0513164,-0.482794,0.951644,0.764973,-0.0620557,0.137006,0.626255,-0.969386,-0.0515788,0.177592,-0.186478,-0.641286,1.03929,-2.62235,-1.94853,-1.19193,-2.60132,-1.85359,-0.864132,-0.562857,-0.404628,-0.548908,0.694399,-0.414615,0.74555,-0.327937,1
0.944057,-0.553993,-2.10894,-0.960643,2.41688,1.61408,-0.555112,0.964915,-0.528269,-2.08695,-0.992648,2.43098,1.58673,-0.541903,0.999568,-0.509574,-2.05467,-1.02965,2.45787,1.53985,-0.522095,-0.781768,-0.27122,-0.706739,1.04292,-0.518197,0.957696,-0.572996,-0.781768,-0.27122,-0.706739,1.04292,-0.518197,0.957696,-0.572996,0.0432492,-0.482688,0.952659,0.771811,-0.0671461,0.141619,0.616233,-0.827445,-0.0373082,0.0868652,-0.211919,-0.659197,1.0273,-2.46187,-1.73313,-1.15957,-2.59922,-1.84672,-0.964329,-0.55511,-0.444195,-0.542749,0.690038,-0.409888,0.742273,-0.330171,1
0.937242,-0.558207,-2.115,-0.952764,2.41104,1.62273,-0.55957,0.957806,-0.537715,-2.09457,-0.983277,2.42517,1.5963,-0.544946,0.992515,-0.512248,-2.06108,-1.02115,2.45292,1.54892,-0.526902,-0.748942,-0.305424,-0.68442,0.815665,-0.551249,1.00376,-0.476442,-0.748942,-0.305424,-0.68442,0.815665,-0.551249,1.00376,-0.476442,0.036143,-0.48269,0.952853,0.777615,-0.0713891,0.146001,0.607374,-0.760101,-0.05751,-0.00267328,-0.238003,-0.678585,1.01445,-2.59429,-1.92839,-1.27819,-2.60881,-1.85378,-1.06083,-0.552726,-0.459583,-0.53923,0.6839,-0.418812,0.738074,-0.326675,1
0.929148,-0.566196,-2.12217,-0.946746,2.40465,1.63126,-0.562032,0.950847,-0.546225,-2.10197,-0.972533,2.42053,1.60538,-0.549398,0.985594,-0.515802,-2.0675,-1.01386,2.44758,1.55832,-0.530912,-0.750094,-0.452202,-0.705353,0.769283,-0.602011,1.03034,-0.398688,-0.750094,-0.452202,-0.705353,0.769283,-0.602011,1.03034,-0.398688,0.0291772,-0.483155,0.952265,0.782883,-0.0749661,0.150167,0.599103,-0.793151,-0.121669,-0.0850258,-0.26148,-0.697524,0.999423,-2.45658,-1.98167,-1.57251,-2.57567,-1.85835,-1.16655,-0.564463,-0.503936,-0.546623,0.671094,-0.429267,0.729319,-0.311202,1
0.92083,-0.575031,-2.12982,-0.940558,2.39975,1.64037,-0.565486,0.943879,-0.553212,-2.10884,-0.962453,2.41596,1.61412,-0.554261,0.978641,-0.520786,-2.07419,-1.00641,2.44198,1.56785,-0.534495,-0.755767,-0.614053,-0.739422,0.838931,-0.609826,1.03218,-0.379091,-0.755767,-0.614053,-0.739422,0.838931,-0.609826,1.03218,-0.379091,0.0216988,-0.484251,0.951077,0.788084,-0.0781918,0.153934,0.590858,-0.867384,-0.18342,-0.137571,-0.28793,-0.717146,0.987016,-2.55101,-1.89243,-1.1967,-2.56016,-1.88149,-1.24593,-0.578113,-0.542448,-0.556295,0.658479,-0.422318,0.725214,-0.309914,1
0.912714,-0.586457,-2.13796,-0.933752,2.39474,1.64912,-0.57059,0.936613,-0.559815,-2.11555,-0.953992,2.41077,1.62277,-0.558612,0.971667,-0.526891,-2.0811,-0.9982,2.4365,1.5773,-0.538141,-0.755185,-0.701301,-0.756923,0.931028,-0.57927,1.01819,-0.408318,-0.755185,-0.701301,-0.756923,0.931028,-0.57927,1.01819,-0.408318,0.013624,-0.485743,0.949609,0.793428,-0.0813763,0.1573,0.582329,-0.921005,-0.204658,-0.150455,-0.314442,-0.733599,0.968729,-2.54887,-1.58185,-1.75802,-2.54609,-1.87093,-1.35316,-0.589527,-0.595653,-0.568627,0.644478,-0.417659,0.7182,-0.324493,1
0.905196,-0.595665,-2.14548,-0.926267,2.38949,1.6579,-0.574824,0.928917,-0.567315,-2.12258,-0.946855,2.40524,1.63148,-0.562419,0.964695,-0.533445,-2.08807,-0.989377,2.43127,1.5866,-0.542078,-0.755055,-0.717026,-0.753351,0.976585,-0.555348,0.998134,-0.441905,-0.755055,-0.717026,-0.753351,0.976585,-0.555348,0.998134,-0.441905,0.0052396,-0.487283,0.948107,0.79887,-0.0846203,0.160461,0.573497,-0.936304,-0.194179,-0.146668,-0.339691,-0.751661,0.951443,-2.56406,-1.83417,-1.75544,-2.5522,-1.85175,-1.45755,-0.594992,-0.622204,-0.574059,0.631094,-0.417873,0.712995,-0.327457,1
0.898131,-0.604566,-2.15281,-0.918884,2.38459,1.66654,-0.578866,0.920958,-0.576128,-2.13005,-0.940193,2.39985,1.64027,-0.566241,0.957679,-0.540062,-2.09499,-0.980446,2.42614,1.59573,-0.5462,-0.764135,-0.71652,-0.745901,0.959557,-0.557445,0.980603,-0.450212,-0.764135,-0.71652,-0.745901,0.959557,-0.557445,0.980603,-0.450212,-0.00318222,-0.488734,0.946571,0.804273,-0.0877691,0.163596,0.564516,-0.933169,-0.182849,-0.156226,-0.365906,-0.770176,0.934141,-2.69359,-1.90241,-1.77783,-2.56536,-1.83987,-1.55785,-0.595485,-0.645043,-0.578225,0.61562,-0.415495,0.708103,-0.326664,1
0.891146,-0.612217,-2.16045,-0.91127,2.37985,1.67547,-0.582111,0.913074,-0.585696,-2.13772,-0.933363,2.39468,1.64909,-0.570368,0.950526,-0.546813,-2.1019,-0.971851,2.42093,1.60473,-0.550303,-0.783822,-0.743696,-0.750328,0.90669,-0.569131,0.970055,-0.439502,-0.783822,-0.743696,-0.750328,0.90669,-0.569131,0.970055,-0.439502,-0.0115939,-0.4902,0.944824,0.809563,-0.0905907,0.166712,0.555526,-0.938034,-0.19002,-0.190708,-0.39778,-0.79197,0.918884,-3.35339,-2.29302,-1.60518,-2.64265,-1.85705,-1.61729,-0.593802,-0.654043,-0.585561,0.605814,-0.410866,0.707416,-0.318081,1
0.883602,-0.620392,-2.16868,-0.904605,2.37595,1.68427,-0.58406,0.905487,-0.595136,-2.14537,-0.926206,2.38965,1.65787,-0.574531,0.943179,-0.553977,-2.10891,-0.963743,2.41566,1.61366,-0.554324,-0.805997,-0.803467,-0.766773,0.85423,-0.573353,0.965205,-0.432255,-0.805997,-0.803467,-0.766773,0.85423,-0.573353,0.965205,-0.432255,-0.0201121,-0.491853,0.94269,0.814766,-0.0929618,0.169689,0.546553,-0.958782,-0.212781,-0.240781,-0.427609,-0.81195,0.899755,-3.12788,-2.09502,-2.00584,-2.74839,-1.89108,-1.67806,-0.595762,-0.664148,-0.597761,0.591378,-0.397095,0.706027,-0.297362,1
0.87575,-0.628912,-2.17677,-0.898074,2.3726,1.69323,-0.58621,0.89816,-0.603978,-2.15299,-0.918898,2.38482,1.66665,-0.578296,0.935669,-0.561725,-2.11608,-0.956019,2.41038,1.62256,-0.558336,-0.819575,-0.869458,-0.784975,0.821752,-0.569514,0.962171,-0.43642,-0.819575,-0.869458,-0.784975,0.821752,-0.569514,0.962171,-0.43642,-0.0288319,-0.493757,0.940119,0.819933,-0.0949114,0.172438,0.537557,-0.983434,-0.234841,-0.288006,-0.456691,-0.832359,0.882859,-2.99681,-2.10312,-1.74104,-2.82394,-1.93804,-1.72492,-0.599197,-0.671869,-0.606915,0.579447,-0.37778,0.706666,-0.27874,1
0.867684,-0.640485,-2.1846,-0.894989,2.36779,1.70057,-0.590945,0.890859,-0.612392,-2.16074,-0.911758,2.38031,1.67544,-0.581466,0.9281,-0.56997,-2.12339,-0.948498,2.40516,1.63143,-0.562385,-0.820177,-0.912824,-0.797356,0.808544,-0.562457,0.959081,-0.440544,-0.820177,-0.912824,-0.797356,0.808544,-0.562457,0.959081,-0.440544,-0.0377217,-0.495828,0.937202,0.825057,-0.096556,0.17499,0.528523,-0.997541,-0.242619,-0.319175,-0.471452,-0.84374,0.852739,-1.49779,-1.15472,-3.05625,-2.73833,-1.90569,-1.85545,-0.604153,-0.705156,-0.612102,0.535089,-0.373644,0.691408,-0.285598,1
