Afshin1997/kuka_rl_ros2/src/catch_and_throw/output_files/tm/nn_ema7.00_jvws1_realball_D24H09M50S20/recorded_data.csv
pure_target_joint_0,pure_target_joint_1,pure_target_joint_2,pure_target_joint_3,pure_target_joint_4,pure_target_joint_5,pure_target_joint_6,target_joint_0,target_joint_1,target_joint_2,target_joint_3,target_joint_4,target_joint_5,target_joint_6,pos_joint_0,pos_joint_1,pos_joint_2,pos_joint_3,pos_joint_4,pos_joint_5,pos_joint_6,vel_joint_0,vel_joint_1,vel_joint_2,vel_joint_3,vel_joint_4,vel_joint_5,vel_joint_6,vel_smooth_joint_0,vel_smooth_joint_1,vel_smooth_joint_2,vel_smooth_joint_3,vel_smooth_joint_4,vel_smooth_joint_5,vel_smooth_joint_6,ee_pos_x,ee_pos_y,ee_pos_z,ee_or_w,ee_or_x,ee_or_y,ee_or_z,ee_vel_x,ee_vel_y,ee_vel_z,ball_pos_x,ball_pos_y,ball_pos_z,ball_raw_vx,ball_raw_vy,ball_raw_vz,ball_ema_vx,ball_ema_vy,ball_ema_vz,action_0,action_1,action_2,action_3,action_4,action_5,action_6,command_published
1.70779,-1.00305,-1.8005,-1.16678,2.00808,1.17843,-0.936349,1.76213,-1.04922,-1.81144,-1.12949,1.95493,1.13227,-0.921262,1.78024,-1.06462,-1.81509,-1.11705,1.93722,1.11689,-0.916233,0,0,0,0,0,0,0,0,0,0,0,0,0,0,0.531047,-0.454398,0.69432,0.574505,0.175147,0.152611,0.784842,0,0,0,2.96833,-0.438367,0.163674,-3.75628,0.149718,5.28113,-3.90411,0.103047,4.90235,-0.724429,0.61568,0.145893,-0.497299,0.708556,0.615399,-0.201158,1
1.70719,-1.00046,-1.80521,-1.16148,2.00763,1.17765,-0.930825,1.72575,-1.01779,-1.80532,-1.15302,1.99025,1.16285,-0.929939,1.78024,-1.06462,-1.81509,-1.11705,1.93722,1.11689,-0.916233,0,0,0,0,0,0,0,0,0,0,0,0,0,0,0.531047,-0.454398,0.69432,0.574505,0.175147,0.152611,0.784842,0,0,0,2.93007,-0.437254,0.214535,-3.82643,0.111327,5.08608,-3.84705,0.124081,5.00265,-0.730455,0.641601,0.098772,-0.444292,0.704049,0.607616,-0.145915,1
1.70377,-0.993059,-1.82036,-1.15385,2.00857,1.17738,-0.938695,1.70649,-0.999255,-1.80782,-1.1609,2.00797,1.17778,-0.934173,1.77811,-1.06281,-1.81466,-1.11851,1.9393,1.1187,-0.916824,-0.425626,0.361732,0.0857164,-0.292178,0.416299,0.361564,-0.118185,-0.425626,0.361732,0.0857164,-0.292178,0.416299,0.361564,-0.118185,0.529818,-0.454471,0.695302,0.575031,0.174209,0.151989,0.784787,-0.227782,-0.0134621,0.187167,2.89182,-0.436005,0.263916,-3.82466,0.124878,4.93814,-3.81388,0.131018,5.009,-0.743349,0.697496,-0.0570701,-0.353346,0.6927,0.586841,-0.218711,1
1.69633,-0.981937,-1.83454,-1.13938,2.01413,1.17902,-0.948184,1.70277,-0.992128,-1.82012,-1.15214,2.00972,1.17786,-0.9391,1.7703,-1.05611,-1.81323,-1.12371,1.94691,1.12529,-0.918825,-1.18626,1.02041,0.210504,-0.780762,1.15416,1.00014,-0.295959,-1.18626,1.02041,0.210504,-0.780762,1.15416,1.00014,-0.295959,0.525302,-0.454775,0.698898,0.576979,0.170796,0.149757,0.784536,-0.636657,-0.0435467,0.519474,2.85399,-0.434832,0.312233,-3.78273,0.117382,4.83163,-3.79632,0.130203,4.94468,-0.739692,0.74173,-0.213149,-0.15671,0.672198,0.537247,-0.293583,1
1.68417,-0.969937,-1.84507,-1.14847,2.02333,1.18541,-0.947791,1.69515,-0.981717,-1.83363,-1.14527,2.01504,1.18021,-0.945713,1.75818,-1.04546,-1.81177,-1.13112,1.95858,1.13536,-0.921781,-1.37665,1.23035,0.105242,-0.793098,1.31543,1.12975,-0.330009,-1.37665,1.23035,0.105242,-0.793098,1.31543,1.12975,-0.330009,0.51828,-0.455432,0.704397,0.580317,0.165636,0.146595,0.783777,-0.745778,-0.0884668,0.593327,2.816,-0.433959,0.360127,-3.79865,0.0872493,4.78944,-3.80244,0.121041,4.84035,-0.740155,0.755197,-0.333039,-0.173555,0.647501,0.500549,-0.260098,1
1.67154,-0.957411,-1.85244,-1.14123,2.03152,1.18898,-0.954815,1.68405,-0.969805,-1.84428,-1.14439,2.02308,1.18471,-0.949645,1.74631,-1.0344,-1.81234,-1.13668,1.96971,1.14475,-0.925101,-1.15956,1.1257,-0.207105,-0.411801,1.06558,0.881722,-0.372784,-1.15956,1.1257,-0.207105,-0.411801,1.06558,0.881722,-0.372784,0.511318,-0.456731,0.709685,0.584746,0.160858,0.144239,0.781916,-0.651155,-0.180764,0.495485,2.77853,-0.432805,0.407179,-3.74715,0.115395,4.70519,-3.79571,0.115778,4.72697,-0.747733,0.769877,-0.400932,-0.0455199,0.618115,0.44236,-0.297136,1
1.66154,-0.94589,-1.86047,-1.13398,2.03667,1.19525,-0.959239,1.67219,-0.957662,-1.8526,-1.14123,2.03076,1.18966,-0.954165,1.73578,-1.02383,-1.81565,-1.13929,1.97919,1.15235,-0.928975,-1.08208,1.12135,-0.478817,-0.15926,0.954787,0.741888,-0.445754,-1.08208,1.12135,-0.478817,-0.15926,0.954787,0.741888,-0.445754,0.50502,-0.458877,0.714245,0.590393,0.157039,0.143154,0.778641,-0.627425,-0.269821,0.448631,2.74085,-0.431227,0.453039,-3.76859,0.157788,4.58597,-3.79044,0.115589,4.61997,-0.742492,0.779359,-0.448237,0.0530911,0.574844,0.429012,-0.302638,1
1.65062,-0.934564,-1.86786,-1.12704,2.04322,1.19587,-0.964387,1.66131,-0.945939,-1.86031,-1.13406,2.03702,1.19384,-0.95942,1.72549,-1.01311,-1.82088,-1.14051,1.98806,1.15904,-0.933139,-1.10359,1.15326,-0.623225,-0.103314,0.932481,0.683505,-0.439554,-1.10359,1.15326,-0.623225,-0.103314,0.932481,0.683505,-0.439554,0.498851,-0.46161,0.718444,0.596887,0.153812,0.142849,0.774378,-0.638192,-0.30883,0.42504,2.7032,-0.429693,0.497776,-3.76439,0.153428,4.47373,-3.77852,0.12238,4.52469,-0.748742,0.785481,-0.469802,0.134643,0.551609,0.368268,-0.312479,1
1.63533,-0.918055,-1.8777,-1.13761,2.05415,1.20019,-0.972461,1.64952,-0.933268,-1.86847,-1.13142,2.04432,1.19679,-0.965119,1.70991,-0.996883,-1.83004,-1.14102,2.00071,1.16816,-0.939301,-1.00434,1.04442,-0.600931,-0.00545155,0.800205,0.572431,-0.39582,-1.00434,1.04442,-0.600931,-0.00545155,0.800205,0.572431,-0.39582,0.492513,-0.464707,0.722615,0.603911,0.150806,0.142918,0.769496,-0.669674,-0.347581,0.443484,2.66548,-0.428627,0.541347,-3.77226,0.1066,4.3571,-3.77052,0.125516,4.42961,-0.745827,0.788283,-0.476667,0.0341048,0.534396,0.320289,-0.331607,1
1.62479,-0.906559,-1.88355,-1.14298,2.06153,1.20218,-0.978382,1.63652,-0.919308,-1.87671,-1.13631,2.05326,1.19961,-0.971923,1.69916,-0.985614,-1.83673,-1.13948,2.00874,1.17384,-0.943751,-1.00798,1.05653,-0.627809,0.144433,0.753033,0.532504,-0.417248,-1.00798,1.05653,-0.627809,0.144433,0.753033,0.532504,-0.417248,0.485891,-0.468184,0.727054,0.611589,0.147693,0.14319,0.763964,-0.699864,-0.390216,0.482107,2.62797,-0.427559,0.583879,-3.75102,0.1068,4.25325,-3.76586,0.127121,4.32849,-0.743674,0.790551,-0.468185,-0.0350026,0.527883,0.283368,-0.346306,1
1.6192,-0.90028,-1.88637,-1.13637,2.06527,1.20725,-0.982494,1.62603,-0.907863,-1.88279,-1.13999,2.06062,1.20295,-0.97793,1.69333,-0.979463,-1.84046,-1.13853,2.01292,1.17654,-0.946262,-1.16642,1.23014,-0.745887,0.189455,0.835986,0.539386,-0.502141,-1.16642,1.23014,-0.745887,0.189455,0.835986,0.539386,-0.502141,0.479075,-0.471855,0.731713,0.619763,0.144567,0.14371,0.757853,-0.714775,-0.393371,0.493102,2.59048,-0.426647,0.625494,-3.74901,0.0911713,4.1615,-3.76094,0.1251,4.22076,-0.741251,0.791831,-0.459046,0.0216545,0.523454,0.307153,-0.362326,1
1.60813,-0.888385,-1.89391,-1.12447,2.0738,1.21566,-0.98686,1.61783,-0.898876,-1.88755,-1.13505,2.06647,1.20809,-0.982557,1.68211,-0.967605,-1.84763,-1.13754,2.02092,1.18135,-0.951232,-1.21411,1.28609,-0.774336,0.0325711,0.861325,0.486174,-0.550969,-1.21411,1.28609,-0.774336,0.0325711,0.861325,0.486174,-0.550969,0.472259,-0.475293,0.736289,0.627982,0.14176,0.144608,0.75142,-0.709901,-0.345573,0.470288,2.55293,-0.425455,0.665977,-3.75521,0.119251,4.0482,-3.75993,0.11909,4.11217,-0.739832,0.792197,-0.462873,0.130655,0.528855,0.343124,-0.356274,1
1.59663,-0.876452,-1.90257,-1.11723,2.0816,1.22186,-0.991394,1.60802,-0.888376,-1.89419,-1.12563,2.07362,1.21511,-0.986902,1.67079,-0.955577,-1.85477,-1.1377,2.02894,1.18578,-0.956515,-1.19201,1.27056,-0.74615,-0.060968,0.843677,0.457204,-0.570256,-1.19201,1.27056,-0.74615,-0.060968,0.843677,0.457204,-0.570256,0.465646,-0.478256,0.740617,0.635894,0.139291,0.145793,0.74497,-0.681078,-0.294191,0.444145,2.51543,-0.424332,0.705513,-3.7503,0.112274,3.95369,-3.75649,0.111221,4.00704,-0.741618,0.791247,-0.477997,0.204663,0.526631,0.360847,-0.348796,1
1.58542,-0.864904,-1.91041,-1.11399,2.08858,1.22662,-0.996755,1.5967,-0.876548,-1.90237,-1.11823,2.0814,1.2215,-0.991601,1.65993,-0.943967,-1.86153,-1.13762,2.03663,1.19018,-0.961796,-1.12099,1.20071,-0.692874,0.0685784,0.794477,0.476785,-0.55287,-1.12099,1.20071,-0.692874,0.0685784,0.794477,0.476785,-0.55287,0.459187,-0.480994,0.744913,0.643588,0.136706,0.146888,0.7386,-0.673977,-0.295415,0.460561,2.47796,-0.422948,0.743897,-3.74622,0.138396,3.83838,-3.75312,0.110461,3.90284,-0.745037,0.79063,-0.488814,0.236309,0.519466,0.364359,-0.349589,1
1.57449,-0.853705,-1.91739,-1.11256,2.09593,1.22791,-1.003,1.58549,-0.864991,-1.9102,-1.11444,2.08867,1.22575,-0.996975,1.64946,-0.932759,-1.86807,-1.13595,2.04407,1.19497,-0.966899,-1.10355,1.18188,-0.695695,0.274607,0.786797,0.53638,-0.532674,-1.10355,1.18188,-0.695695,0.274607,0.786797,0.53638,-0.532674,0.452498,-0.483938,0.749555,0.651514,0.133553,0.147636,0.73205,-0.716548,-0.336316,0.511335,2.44049,-0.421642,0.781136,-3.74727,0.130641,3.72387,-3.75015,0.116046,3.79793,-0.749679,0.790542,-0.493192,0.233869,0.518591,0.329396,-0.360987,1
1.5635,-0.842485,-1.92413,-1.11009,2.10244,1.2282,-1.00951,1.57448,-0.8537,-1.91733,-1.1123,2.09572,1.22766,-1.00307,1.63897,-0.921552,-1.87481,-1.1328,2.05152,1.20017,-0.971875,-1.12543,1.1984,-0.733947,0.387864,0.795518,0.567946,-0.525266,-1.12543,1.1984,-0.733947,0.387864,0.795518,0.567946,-0.525266,0.445362,-0.487187,0.754601,0.659874,0.129878,0.148152,0.725086,-0.759967,-0.362944,0.543967,2.40316,-0.420309,0.817619,-3.73273,0.133285,3.64831,-3.74774,0.122387,3.69436,-0.754646,0.790662,-0.493187,0.227038,0.509232,0.280262,-0.376382,1
1.55268,-0.831191,-1.93092,-1.10518,2.10903,1.23241,-1.01573,1.56354,-0.842467,-1.92414,-1.10948,2.10246,1.22918,-1.00944,1.6283,-0.910239,-1.88182,-1.12913,2.05898,1.20539,-0.97687,-1.13992,1.20491,-0.755551,0.391064,0.790555,0.542185,-0.535378,-1.13992,1.20491,-0.755551,0.391064,0.790555,0.542185,-0.535378,0.437977,-0.490511,0.759787,0.668443,0.126076,0.148688,0.717761,-0.770858,-0.356113,0.543277,2.36583,-0.419057,0.853052,-3.73366,0.125122,3.5433,-3.74438,0.127683,3.59136,-0.756182,0.790479,-0.490933,0.239515,0.500445,0.270165,-0.388591,1
1.54183,-0.81985,-1.93803,-1.09653,2.11645,1.23973,-1.02095,1.55267,-0.831179,-1.931,-1.10424,2.10924,1.23319,-1.01548,1.61754,-0.898903,-1.88894,-1.12563,2.06638,1.21012,-0.982033,-1.14661,1.20373,-0.756011,0.354908,0.781339,0.467049,-0.56008,-1.14661,1.20373,-0.756011,0.354908,0.781339,0.467049,-0.56008,0.430604,-0.493705,0.764902,0.676977,0.1225,0.149384,0.710198,-0.763742,-0.336339,0.531706,2.32847,-0.418014,0.887476,-3.73611,0.104398,3.4424,-3.74066,0.126827,3.49035,-0.757077,0.79053,-0.490957,0.290973,0.500667,0.29612,-0.389177,1
1.5307,-0.808589,-1.94601,-1.087,2.12444,1.24672,-1.02469,1.54176,-0.81987,-1.93825,-1.09631,2.11659,1.23965,-1.02058,1.60673,-0.887584,-1.89602,-1.12235,2.07366,1.21418,-0.987434,-1.14992,1.20144,-0.748833,0.342685,0.766922,0.399479,-0.585952,-1.14992,1.20144,-0.748833,0.342685,0.766922,0.399479,-0.585952,0.423312,-0.496735,0.769939,0.685438,0.11921,0.150243,0.702418,-0.76002,-0.319611,0.528869,2.29115,-0.416916,0.92066,-3.73139,0.109774,3.31836,-3.73743,0.123933,3.38754,-0.760312,0.789956,-0.499889,0.353491,0.507818,0.32542,-0.372592,1
1.51937,-0.797437,-1.95428,-1.07882,2.13153,1.25134,-1.02969,1.53065,-0.808616,-1.94608,-1.08734,2.12422,1.24613,-1.02501,1.5959,-0.876278,-1.90304,-1.11889,2.08083,1.21797,-0.993012,-1.15103,1.20094,-0.744392,0.389925,0.75649,0.405298,-0.598333,-1.15103,1.20094,-0.744392,0.389925,0.75649,0.405298,-0.598333,0.415963,-0.499648,0.775049,0.693924,0.11591,0.151155,0.694397,-0.775821,-0.311738,0.546693,2.25385,-0.415627,0.953152,-3.73025,0.128907,3.24919,-3.73471,0.120395,3.2881,-0.765291,0.788408,-0.512405,0.400693,0.507011,0.333786,-0.366787,1
1.50807,-0.786338,-1.96209,-1.07225,2.13712,1.25456,-1.03671,1.51938,-0.79745,-1.95417,-1.07922,2.13116,1.25099,-1.0302,1.58505,-0.864973,-1.91008,-1.11472,2.08798,1.22209,-0.998581,-1.15292,1.20106,-0.750093,0.490137,0.761981,0.46747,-0.585842,-1.15292,1.20106,-0.750093,0.490137,0.761981,0.46747,-0.585842,0.408343,-0.502526,0.780416,0.702537,0.112204,0.151945,0.686123,-0.811079,-0.31452,0.580754,2.21669,-0.4144,0.984546,-3.71609,0.122631,3.13941,-3.73111,0.118675,3.18894,-0.769859,0.786352,-0.520144,0.424692,0.491426,0.324688,-0.381321,1
1.49669,-0.77526,-1.96947,-1.06581,2.14261,1.25759,-1.04368,1.50805,-0.786343,-1.96199,-1.07228,2.1371,1.25451,-1.0367,1.57417,-0.853674,-1.91723,-1.10959,2.0952,1.22674,-1.00397,-1.15901,1.19985,-0.768303,0.592577,0.772611,0.51638,-0.560263,-1.15901,1.19985,-0.768303,0.592577,0.772611,0.51638,-0.560263,0.40034,-0.505431,0.786101,0.711302,0.107985,0.152534,0.677585,-0.849145,-0.321218,0.611637,2.17946,-0.413153,1.01521,-3.72293,0.124761,3.06665,-3.72859,0.11846,3.09087,-0.774854,0.784144,-0.52241,0.43784,0.474075,0.308484,-0.397084,1
1.48527,-0.764153,-1.97708,-1.05812,2.14866,1.26118,-1.04984,1.49668,-0.775253,-1.96953,-1.0655,2.14275,1.25773,-1.04348,1.56322,-0.842395,-1.92456,-1.10371,2.10244,1.2316,-1.00923,-1.16753,1.19685,-0.788345,0.652237,0.764792,0.516461,-0.558293,-1.16753,1.19685,-0.788345,0.652237,0.764792,0.516461,-0.558293,0.39203,-0.508342,0.792001,0.720181,0.103455,0.153035,0.668743,-0.873358,-0.319537,0.626474,2.14222,-0.411937,1.04484,-3.72403,0.121582,2.96234,-3.72607,0.119994,2.99539,-0.779475,0.782425,-0.52515,0.455899,0.462281,0.295849,-0.406106,1
1.47399,-0.753034,-1.98494,-1.0502,2.15503,1.26614,-1.05554,1.48531,-0.76415,-1.97714,-1.05806,2.14874,1.26152,-1.04972,1.55219,-0.831148,-1.93203,-1.09748,2.10949,1.2363,-1.01463,-1.17553,1.19318,-0.797736,0.671116,0.735223,0.484978,-0.587609,-1.17553,1.19318,-0.797736,0.671116,0.735223,0.484978,-0.587609,0.383571,-0.511162,0.79798,0.729125,0.0988466,0.15363,0.659548,-0.882911,-0.305482,0.630019,2.10465,-0.410913,1.0734,-3.75738,0.102383,2.85667,-3.72757,0.120474,2.90068,-0.781964,0.781144,-0.529109,0.472827,0.455406,0.298431,-0.409039,1
1.46268,-0.741957,-1.99291,-1.04204,2.16056,1.27156,-1.06151,1.47399,-0.753044,-1.98497,-1.05014,2.15482,1.26626,-1.05561,1.54109,-0.819934,-1.93954,-1.09111,2.11626,1.24071,-1.02031,-1.1827,1.18989,-0.798543,0.682086,0.705515,0.45327,-0.616935,-1.1827,1.18989,-0.798543,0.682086,0.705515,0.45327,-0.616935,0.375055,-0.513816,0.803985,0.738089,0.0942388,0.154395,0.650005,-0.889469,-0.28667,0.633759,2.06699,-0.409759,1.1004,-3.7657,0.115383,2.69972,-3.73346,0.119142,2.80004,-0.784104,0.779775,-0.533713,0.490681,0.443021,0.308515,-0.41198,1
1.45137,-0.730893,-2.00077,-1.03439,2.16586,1.27663,-1.06775,1.46268,-0.74196,-1.99288,-1.04217,2.1605,1.27147,-1.06158,1.52993,-0.808746,-1.94707,-1.08457,2.12282,1.24492,-1.02617,-1.18835,1.18761,-0.800828,0.705887,0.690234,0.442201,-0.627288,-1.18835,1.18761,-0.800828,0.705887,0.690234,0.442201,-0.627288,0.366462,-0.516286,0.810045,0.74703,0.0895781,0.155271,0.640166,-0.900969,-0.268742,0.642711,2.03013,-0.408756,1.12647,-3.68629,0.100303,2.60738,-3.73353,0.11476,2.69237,-0.785628,0.778529,-0.536968,0.50177,0.43039,0.317098,-0.41586,1
1.44002,-0.719835,-2.0086,-1.02693,2.17139,1.28082,-1.07394,1.45136,-0.730895,-2.00076,-1.03444,2.16592,1.27641,-1.06774,1.51873,-0.797577,-1.95464,-1.07778,2.12927,1.24915,-1.03207,-1.19155,1.18591,-0.807614,0.735945,0.680407,0.455639,-0.626759,-1.19155,1.18591,-0.807614,0.735945,0.680407,0.455639,-0.626759,0.357748,-0.518565,0.816196,0.755916,0.0847588,0.156189,0.630089,-0.915258,-0.249378,0.653609,1.9929,-0.407818,1.15162,-3.72206,0.0938028,2.51496,-3.73304,0.109705,2.58328,-0.787094,0.777412,-0.539607,0.508504,0.421198,0.316696,-0.418744,1
1.42866,-0.708761,-2.01652,-1.01943,2.17682,1.2845,-1.08013,1.44002,-0.719831,-2.00862,-1.02692,2.17137,1.28069,-1.07394,1.5075,-0.786424,-1.96228,-1.07073,2.13559,1.25355,-1.03798,-1.19366,1.18408,-0.814994,0.760506,0.663446,0.477415,-0.628451,-1.19366,1.18408,-0.814994,0.760506,0.663446,0.477415,-0.628451,0.348908,-0.520622,0.822437,0.764724,0.0797127,0.157153,0.619796,-0.927399,-0.226374,0.662467,1.95557,-0.406835,1.17603,-3.73328,0.0983179,2.44064,-3.73147,0.104813,2.47535,-0.788447,0.776622,-0.542354,0.512917,0.412329,0.309521,-0.421572,1
1.41732,-0.697647,-2.02445,-1.01171,2.18169,1.28853,-1.08627,1.42866,-0.708751,-2.01652,-1.01938,2.17668,1.28459,-1.08012,1.49626,-0.775288,-1.96998,-1.0635,2.14174,1.25809,-1.04392,-1.19569,1.18221,-0.819876,0.77395,0.643973,0.487801,-0.63429,-1.19569,1.18221,-0.819876,0.77395,0.643973,0.487801,-0.63429,0.33998,-0.522427,0.828741,0.773428,0.0744629,0.158196,0.609293,-0.93468,-0.200802,0.667851,1.91843,-0.405684,1.19925,-3.71406,0.115129,2.32222,-3.72712,0.103059,2.37045,-0.789368,0.776411,-0.544737,0.517945,0.399573,0.304401,-0.423441,1
1.40597,-0.686488,-2.03237,-1.00402,2.18666,1.29209,-1.09218,1.41732,-0.697636,-2.02445,-1.01172,2.18172,1.28841,-1.08621,1.48499,-0.764168,-1.97771,-1.05619,2.14773,1.26265,-1.04992,-1.19776,1.18071,-0.823221,0.779447,0.629547,0.480529,-0.639793,-1.19776,1.18071,-0.823221,0.779447,0.629547,0.480529,-0.639793,0.331012,-0.523974,0.835077,0.782,0.0690984,0.159334,0.598593,-0.937953,-0.174993,0.670792,1.88097,-0.404241,1.2214,-3.74631,0.144309,2.21523,-3.72392,0.107463,2.2688,-0.790275,0.776807,-0.546627,0.521667,0.389357,0.294404,-0.422596,1
1.3946,-0.675354,-2.04046,-0.996507,2.19117,1.29562,-1.09807,1.40596,-0.686494,-2.03241,-1.00406,2.18655,1.29208,-1.09217,1.47371,-0.753059,-1.98547,-1.04883,2.15358,1.26709,-1.05596,-1.1996,1.17993,-0.826757,0.784337,0.61523,0.465789,-0.643403,-1.1996,1.17993,-0.826757,0.784337,0.61523,0.465789,-0.643403,0.322034,-0.525266,0.841432,0.790421,0.063688,0.160569,0.587705,-0.939603,-0.149169,0.673518,1.84403,-0.40331,1.24256,-3.69415,0.0930309,2.11555,-3.72026,0.108973,2.17132,-0.791082,0.777049,-0.54981,0.523211,0.375952,0.285273,-0.421055,1
1.38324,-0.664206,-2.04854,-0.988904,2.19535,1.299,-1.10398,1.3946,-0.67535,-2.04046,-0.996485,2.19109,1.29558,-1.09807,1.46241,-0.741952,-1.99327,-1.04141,2.15928,1.27141,-1.06202,-1.20093,1.18016,-0.830138,0.790812,0.597491,0.452662,-0.64424,-1.20093,1.18016,-0.830138,0.790812,0.597491,0.452662,-0.64424,0.313058,-0.526297,0.847808,0.798678,0.0582413,0.16191,0.576634,-0.940495,-0.122235,0.677045,1.80693,-0.402206,1.26282,-3.70976,0.110391,2.02651,-3.72124,0.111641,2.0725,-0.791749,0.777466,-0.552647,0.525087,0.360728,0.275855,-0.419592,1
1.37188,-0.653027,-2.05649,-0.981585,2.19996,1.30166,-1.10962,1.38324,-0.664198,-2.0485,-0.988975,2.19546,1.29882,-1.10391,1.4511,-0.73084,-2.0011,-1.03395,2.16481,1.2756,-1.06807,-1.20209,1.18095,-0.833724,0.795739,0.578834,0.438782,-0.641821,-1.20209,1.18095,-0.833724,0.795739,0.578834,0.438782,-0.641821,0.304097,-0.527059,0.854207,0.806758,0.0527568,0.16337,0.565393,-0.939969,-0.0946426,0.68006,1.76995,-0.401057,1.28223,-3.69816,0.114954,1.94041,-3.71629,0.113981,1.97398,-0.792226,0.778137,-0.553821,0.523601,0.351518,0.260556,-0.415453,1
1.36054,-0.641819,-2.06441,-0.974338,2.20402,1.30427,-1.11522,1.37189,-0.653019,-2.05648,-0.981603,2.19983,1.30165,-1.10961,1.43978,-0.719722,-2.00898,-1.02645,2.17015,1.27966,-1.0741,-1.2032,1.18162,-0.838332,0.797846,0.55757,0.424003,-0.6385,-1.2032,1.18162,-0.838332,0.797846,0.55757,0.424003,-0.6385,0.295166,-0.527549,0.860617,0.814647,0.0472489,0.164959,0.553992,-0.937671,-0.0668324,0.681529,1.73276,-0.399893,1.30043,-3.71842,0.116417,1.82024,-3.71226,0.114696,1.8735,-0.79245,0.77903,-0.554342,0.521072,0.338699,0.246048,-0.411249,1
1.34918,-0.630626,-2.0724,-0.967035,2.20805,1.30689,-1.1208,1.36054,-0.641822,-2.06443,-0.974324,2.20401,1.30427,-1.11521,1.42846,-0.708596,-2.01688,-1.01894,2.1753,1.28356,-1.08009,-1.20408,1.18234,-0.84206,0.797853,0.536952,0.406304,-0.63446,-1.20408,1.18234,-0.84206,0.797853,0.536952,0.406304,-0.63446,0.286285,-0.527767,0.867029,0.822333,0.041737,0.166685,0.542441,-0.933633,-0.0388635,0.682307,1.69577,-0.398825,1.31753,-3.69935,0.106826,1.70991,-3.70883,0.112596,1.77342,-0.792708,0.779703,-0.555115,0.519,0.327488,0.233245,-0.407107,1
1.33783,-0.619415,-2.08029,-0.959799,2.21219,1.30908,-1.12635,1.34918,-0.630621,-2.07237,-0.967052,2.20808,1.30678,-1.12079,1.41712,-0.697462,-2.02482,-1.01144,2.18027,1.28727,-1.08602,-1.20454,1.18346,-0.843193,0.794582,0.520725,0.382828,-0.628002,-1.20454,1.18346,-0.843193,0.794582,0.520725,0.382828,-0.628002,0.277473,-0.527714,0.873435,0.829803,0.0362507,0.168537,0.530762,-0.927407,-0.0107076,0.682667,1.65877,-0.397774,1.33356,-3.69959,0.105029,1.60306,-3.70451,0.109589,1.67149,-0.792927,0.780464,-0.554779,0.51643,0.319199,0.218052,-0.403295,1
1.32649,-0.608184,-2.08812,-0.952875,2.21639,1.31069,-1.13182,1.33783,-0.61941,-2.08027,-0.959877,2.2122,1.30893,-1.12633,1.40578,-0.686316,-2.03275,-1.00399,2.18509,1.29076,-1.0919,-1.2048,1.18481,-0.843389,0.78988,0.503966,0.359795,-0.620815,-1.2048,1.18481,-0.843389,0.78988,0.503966,0.359795,-0.620815,0.268747,-0.527389,0.879834,0.837044,0.0308085,0.170505,0.518977,-0.919719,0.0177638,0.682576,1.62214,-0.396627,1.34858,-3.66359,0.114688,1.50241,-3.70055,0.111237,1.56732,-0.792894,0.781321,-0.553627,0.511111,0.312981,0.199322,-0.399204,1
1.31517,-0.596949,-2.09596,-0.946476,2.22062,1.31182,-1.13713,1.32649,-0.608183,-2.08812,-0.953006,2.2164,1.31057,-1.13178,1.39444,-0.675158,-2.04069,-0.996571,2.18975,1.29404,-1.09771,-1.20509,1.18596,-0.84362,0.786055,0.487968,0.339176,-0.614581,-1.20509,1.18596,-0.84362,0.786055,0.487968,0.339176,-0.614581,0.260115,-0.526794,0.886222,0.844053,0.0254068,0.172587,0.507092,-0.911749,0.0459607,0.682478,1.58546,-0.395265,1.36278,-3.66802,0.136271,1.41984,-3.69294,0.113583,1.46328,-0.792665,0.782083,-0.552675,0.500948,0.308716,0.177803,-0.394151,1
1.30388,-0.585688,-2.1038,-0.940539,2.22503,1.31228,-1.14216,1.31518,-0.596942,-2.09596,-0.946591,2.22067,1.31165,-1.13706,1.38309,-0.663989,-2.04863,-0.989198,2.19429,1.29711,-1.10347,-1.20529,1.18709,-0.84269,0.780788,0.477015,0.31475,-0.608816,-1.20529,1.18709,-0.84269,0.780788,0.477015,0.31475,-0.608816,0.251583,-0.525935,0.892598,0.850832,0.020054,0.174765,0.495116,-0.90264,0.0734834,0.682053,1.54855,-0.394089,1.376,-3.69033,0.117534,1.32178,-3.68722,0.115558,1.36099,-0.792126,0.78301,-0.551684,0.48659,0.307437,0.151638,-0.386906,1
1.29267,-0.574385,-2.11154,-0.934842,2.22938,1.31253,-1.14721,1.3039,-0.585677,-2.10377,-0.940599,2.22502,1.31223,-1.14217,1.37175,-0.652809,-2.05655,-0.981905,2.19875,1.29992,-1.10917,-1.2051,1.18835,-0.840689,0.769545,0.470037,0.283608,-0.602211,-1.2051,1.18835,-0.840689,0.769545,0.470037,0.283608,-0.602211,0.24317,-0.524823,0.898953,0.857373,0.0147899,0.177022,0.483069,-0.890735,0.100228,0.679749,1.51155,-0.393322,1.38823,-3.70075,0.0766873,1.2231,-3.68355,0.113183,1.26274,-0.79079,0.784242,-0.549838,0.47063,0.306326,0.126147,-0.380482,1
1.28146,-0.563052,-2.11931,-0.928841,2.23449,1.31258,-1.15195,1.29267,-0.574377,-2.11155,-0.934766,2.22957,1.31248,-1.14713,1.36041,-0.641617,-2.06446,-0.974759,2.20315,1.3024,-1.11479,-1.20446,1.18964,-0.838906,0.750069,0.466418,0.246328,-0.593033,-1.20446,1.18964,-0.838906,0.750069,0.466418,0.246328,-0.593033,0.234906,-0.523472,0.905263,0.863663,0.00967261,0.179346,0.470985,-0.875598,0.125679,0.674502,1.47485,-0.392329,1.39927,-3.66961,0.0993252,1.10419,-3.6814,0.110457,1.16425,-0.789483,0.785644,-0.548586,0.459181,0.313409,0.101765,-0.37161,1
1.27028,-0.551761,-2.12738,-0.922368,2.23997,1.31346,-1.15659,1.28147,-0.563063,-2.11939,-0.928723,2.23458,1.31279,-1.15193,1.34908,-0.630411,-2.07234,-0.967824,2.20754,1.30452,-1.12031,-1.20306,1.19122,-0.836969,0.72498,0.465476,0.205338,-0.581853,-1.20306,1.19122,-0.836969,0.72498,0.465476,0.205338,-0.581853,0.226818,-0.521899,0.911507,0.869692,0.00475299,0.181729,0.458899,-0.857916,0.150033,0.667406,1.43802,-0.391331,1.40962,-3.68344,0.099805,1.03444,-3.68127,0.106671,1.06785,-0.788016,0.7865,-0.550389,0.454561,0.324356,0.089431,-0.362769,1
1.25903,-0.540565,-2.1359,-0.915541,2.24629,1.31373,-1.16126,1.27026,-0.551785,-2.12749,-0.92228,2.24018,1.31331,-1.1566,1.33777,-0.619188,-2.08021,-0.961116,2.21194,1.30625,-1.12573,-1.20085,1.19327,-0.834491,0.701691,0.469517,0.165879,-0.569925,-1.20085,1.19327,-0.834491,0.701691,0.469517,0.165879,-0.569925,0.218917,-0.520114,0.917683,0.875459,4.41616e-05,0.184152,0.446833,-0.840273,0.173752,0.661278,1.40138,-0.390072,1.41879,-3.66362,0.125888,0.917637,-3.68164,0.104616,0.9699,-0.787357,0.786234,-0.556925,0.455751,0.34346,0.0747899,-0.355279,1
1.24791,-0.529335,-2.1444,-0.909459,2.25325,1.31251,-1.16558,1.25906,-0.540556,-2.13589,-0.915727,2.24645,1.31336,-1.16117,1.32648,-0.607947,-2.08806,-0.954578,2.21643,1.30767,-1.13103,-1.1985,1.19522,-0.834158,0.688491,0.483477,0.1364,-0.55647,-1.1985,1.19522,-0.834158,0.688491,0.483477,0.1364,-0.55647,0.211175,-0.518123,0.923813,0.880979,-0.00449531,0.186571,0.434796,-0.826723,0.196754,0.658421,1.36465,-0.388627,1.42716,-3.67259,0.144553,0.836849,-3.6796,0.106926,0.871832,-0.785653,0.786119,-0.563345,0.45119,0.368244,0.0484062,-0.345483,1
1.23679,-0.518059,-2.15277,-0.903635,2.26033,1.31117,-1.1695,1.24791,-0.529323,-2.14436,-0.909523,2.25328,1.31248,-1.16548,1.3152,-0.596693,-2.09594,-0.948102,2.2211,1.30886,-1.1362,-1.19673,1.19587,-0.840185,0.687616,0.508059,0.118429,-0.543167,-1.19673,1.19587,-0.840185,0.687616,0.508059,0.118429,-0.543167,0.203539,-0.515934,0.929928,0.886276,-0.00893595,0.188932,0.422775,-0.819125,0.218089,0.658378,1.328,-0.387383,1.43471,-3.6657,0.124341,0.754547,-3.67474,0.113451,0.776806,-0.784117,0.786338,-0.56823,0.444667,0.3923,0.0231177,-0.333043,1
1.22574,-0.506749,-2.16103,-0.897807,2.26794,1.30996,-1.17321,1.23681,-0.518051,-2.15274,-0.903634,2.26047,1.3112,-1.16945,1.30395,-0.58544,-2.10391,-0.94162,2.22606,1.30985,-1.14125,-1.19521,1.19521,-0.851736,0.689492,0.54297,0.0934005,-0.53051,-1.19521,1.19521,-0.851736,0.689492,0.54297,0.0934005,-0.53051,0.195967,-0.513572,0.93604,0.891378,-0.0132901,0.191188,0.410751,-0.813613,0.236226,0.658165,1.29138,-0.386406,1.44109,-3.66155,0.0976801,0.637841,-3.66987,0.119085,0.682069,-0.782012,0.786911,-0.571202,0.43813,0.418845,0.00110872,-0.319567,1
1.21482,-0.495407,-2.16934,-0.891853,2.27564,1.30886,-1.17691,1.22578,-0.506741,-2.16104,-0.897775,2.26797,1.30999,-1.17321,1.29271,-0.574192,-2.11198,-0.935163,2.23137,1.31052,-1.14616,-1.1929,1.19481,-0.86238,0.682772,0.58341,0.0521051,-0.514397,-1.1929,1.19481,-0.86238,0.682772,0.58341,0.0521051,-0.514397,0.188467,-0.511067,0.94214,0.896287,-0.0174843,0.193308,0.398742,-0.804673,0.252421,0.655644,1.2543,-0.385488,1.44637,-3.70774,0.0918031,0.528753,-3.67247,0.118073,0.586262,-0.778829,0.787852,-0.57361,0.433106,0.442714,-0.0165924,-0.30751,1
1.20407,-0.484049,-2.17762,-0.886298,2.28374,1.3085,-1.18045,1.21487,-0.495403,-2.16933,-0.891953,2.27574,1.30905,-1.17687,1.28149,-0.562943,-2.12013,-0.9288,2.23706,1.3108,-1.1509,-1.18991,1.19543,-0.868434,0.670149,0.623197,0.0105874,-0.493872,-1.18991,1.19543,-0.868434,0.670149,0.623197,0.0105874,-0.493872,0.181068,-0.508426,0.948214,0.900994,-0.0214667,0.195284,0.386797,-0.79274,0.269795,0.652346,1.21744,-0.384857,1.4503,-3.68598,0.0631571,0.392509,-3.6755,0.110037,0.482599,-0.77425,0.788931,-0.574883,0.425021,0.466819,-0.0230018,-0.295504,1
1.19356,-0.472715,-2.18612,-0.880828,2.2919,1.31053,-1.18428,1.20413,-0.484055,-2.17767,-0.886319,2.28376,1.3091,-1.18053,1.27031,-0.551684,-2.12832,-0.922545,2.24312,1.31075,-1.15545,-1.18604,1.19683,-0.871475,0.659619,0.661638,-0.0202796,-0.472999,-1.18604,1.19683,-0.871475,0.659619,0.661638,-0.0202796,-0.472999,0.173784,-0.505627,0.954266,0.905491,-0.0252703,0.197115,0.374957,-0.780442,0.289472,0.650406,1.18043,-0.384169,1.45341,-3.70163,0.0687569,0.310779,-3.68203,0.0969401,0.377777,-0.767542,0.78969,-0.578076,0.41717,0.487783,-0.00223477,-0.28837,1
1.18306,-0.461538,-2.1949,-0.874477,2.30061,1.31513,-1.1883,1.19356,-0.472754,-2.18619,-0.880608,2.29204,1.31117,-1.18433,1.25918,-0.54041,-2.13653,-0.916382,2.24953,1.31047,-1.15981,-1.1801,1.19855,-0.873538,0.650554,0.698075,-0.0379093,-0.454475,-1.1801,1.19855,-0.873538,0.650554,0.698075,-0.0379093,-0.454475,0.166617,-0.502645,0.960305,0.909779,-0.0289687,0.198803,0.363236,-0.767364,0.311283,0.648969,1.14361,-0.383304,1.45575,-3.68183,0.0865191,0.233972,-3.68645,0.0855182,0.272723,-0.761231,0.78872,-0.583668,0.419045,0.510807,0.046549,-0.284934,1
1.17265,-0.450472,-2.20392,-0.868437,2.30963,1.32004,-1.19209,1.18308,-0.461566,-2.19496,-0.874555,2.30069,1.31521,-1.18824,1.24812,-0.529121,-2.14477,-0.910316,2.25627,1.31016,-1.16401,-1.17135,1.20013,-0.876365,0.639047,0.731999,-0.0282995,-0.439814,-1.17135,1.20013,-0.876365,0.639047,0.731999,-0.0282995,-0.439814,0.159574,-0.499446,0.966324,0.913854,-0.032663,0.200361,0.351654,-0.752846,0.335993,0.645929,1.10683,-0.382261,1.45709,-3.67788,0.10429,0.134575,-3.68899,0.0817503,0.169666,-0.754624,0.786495,-0.591574,0.418789,0.533611,0.0988185,-0.280812,1
1.16212,-0.439596,-2.21344,-0.862562,2.318,1.32499,-1.19561,1.17262,-0.450519,-2.20405,-0.868478,2.30947,1.32005,-1.19202,1.23714,-0.517825,-2.15305,-0.904337,2.26332,1.31017,-1.16811,-1.16065,1.20024,-0.882652,0.631916,0.764683,0.0266374,-0.431925,-1.16065,1.20024,-0.882652,0.631916,0.764683,0.0266374,-0.431925,0.152647,-0.495982,0.972313,0.91771,-0.0365286,0.201806,0.340219,-0.740435,0.364887,0.642382,1.0702,-0.38094,1.45729,-3.66292,0.132152,0.0197768,-3.68686,0.0871701,0.0696242,-0.750274,0.782283,-0.603981,0.417747,0.546786,0.148229,-0.275029,1
1.15186,-0.428797,-2.22277,-0.857192,2.32689,1.33066,-1.1986,1.16219,-0.439615,-2.21339,-0.862688,2.31813,1.32517,-1.19548,1.22627,-0.50654,-2.16141,-0.898377,2.27069,1.31087,-1.17216,-1.15019,1.1977,-0.89351,0.634386,0.798817,0.115567,-0.428359,-1.15019,1.1977,-0.89351,0.634386,0.798817,0.115567,-0.428359,0.145799,-0.492206,0.97827,0.921349,-0.040764,0.203145,0.328918,-0.732536,0.396176,0.639541,1.03379,-0.379944,1.45648,-3.64113,0.0995368,-0.0807285,-3.67723,0.0941949,-0.0285941,-0.74416,0.777433,-0.613604,0.41185,0.561971,0.197947,-0.264412,1
1.14152,-0.417845,-2.2315,-0.853683,2.33613,1.33373,-1.20115,1.15184,-0.428759,-2.22262,-0.857657,2.32698,1.33001,-1.19849,1.21549,-0.495294,-2.1699,-0.892393,2.27836,1.3124,-1.17616,-1.14162,1.19236,-0.909412,0.636863,0.828483,0.203898,-0.422452,-1.14162,1.19236,-0.909412,0.636863,0.828483,0.203898,-0.422452,0.139007,-0.488115,0.984183,0.924772,-0.0454391,0.204397,0.317732,-0.725594,0.424741,0.634123,0.997682,-0.379007,1.45461,-3.61091,0.0937432,-0.187683,-3.66418,0.101301,-0.12637,-0.739684,0.77449,-0.616012,0.387103,0.577694,0.213375,-0.249878,1
1.12655,-0.402091,-2.24551,-0.847485,2.3487,1.33367,-1.20765,1.14036,-0.416644,-2.23282,-0.853011,2.33696,1.33295,-1.20214,1.19978,-0.478881,-2.18264,-0.883634,2.29,1.31592,-1.18189,-1.00098,1.0456,-0.818868,0.557768,0.749024,0.246333,-0.361996,-1.00098,1.0456,-0.818868,0.557768,0.749024,0.246333,-0.361996,0.132283,-0.483745,0.990018,0.927976,-0.0504852,0.205606,0.306656,-0.71617,0.449099,0.624308,0.961054,-0.378211,1.45201,-3.66274,0.0795662,-0.259972,-3.65364,0.102806,-0.225334,-0.732277,0.767898,-0.628644,0.361487,0.586923,0.177472,-0.257604,1
1.12079,-0.396552,-2.25079,-0.846305,2.35276,1.34031,-1.20795,1.12885,-0.404645,-2.24333,-0.84874,2.34657,1.33535,-1.2061,1.19414,-0.472991,-2.18734,-0.880582,2.29435,1.31758,-1.18384,-1.1266,1.17792,-0.939474,0.61049,0.86893,0.33112,-0.390229,-1.1266,1.17792,-0.939474,0.61049,0.86893,0.33112,-0.390229,0.125681,-0.479144,0.995732,0.930946,-0.055767,0.206799,0.295743,-0.699894,0.469669,0.61002,0.924283,-0.376968,1.44823,-3.67718,0.124282,-0.377262,-3.6502,0.103713,-0.326411,-0.733553,0.76439,-0.634486,0.342768,0.584135,0.227373,-0.241097,1
1.10589,-0.380721,-2.26491,-0.841487,2.36665,1.34161,-1.21383,1.1185,-0.393979,-2.253,-0.845395,2.35522,1.33898,-1.20934,1.17838,-0.456479,-2.20063,-0.872385,2.30676,1.32212,-1.18922,-1.01226,1.06077,-0.85717,0.515923,0.804209,0.288476,-0.343786,-1.01226,1.06077,-0.85717,0.515923,0.804209,0.288476,-0.343786,0.119191,-0.474333,1.00136,0.933732,-0.0610955,0.20799,0.284873,-0.693017,0.492639,0.606436,0.887692,-0.375881,1.44358,-3.65905,0.108755,-0.465846,-3.64998,0.102917,-0.425501,-0.724866,0.757587,-0.642857,0.308981,0.598947,0.194967,-0.246046,1
1.09527,-0.369724,-2.27526,-0.836219,2.37523,1.34559,-1.21739,1.10696,-0.381929,-2.26397,-0.841374,2.36533,1.34228,-1.21325,1.16742,-0.445014,-2.21007,-0.867155,2.31557,1.32504,-1.19296,-1.02706,1.07499,-0.885484,0.490378,0.825617,0.274394,-0.349889,-1.02706,1.07499,-0.885484,0.490378,0.825617,0.274394,-0.349889,0.112797,-0.469345,1.00692,0.936387,-0.0663267,0.209211,0.273881,-0.682563,0.509767,0.597823,0.851004,-0.374939,1.43797,-3.66884,0.0941545,-0.560844,-3.65426,0.100595,-0.521989,-0.721526,0.752901,-0.651899,0.309361,0.596667,0.20548,-0.244327,1
1.08463,-0.359499,-2.28569,-0.833089,2.38457,1.3493,-1.22097,1.09526,-0.369917,-2.27528,-0.836753,2.37542,1.34552,-1.2174,1.1566,-0.433725,-2.21957,-0.862342,2.32434,1.32812,-1.19658,-1.01449,1.0584,-0.890254,0.45126,0.822343,0.289006,-0.339803,-1.01449,1.0584,-0.890254,0.45126,0.822343,0.289006,-0.339803,0.1066,-0.464259,1.01231,0.93886,-0.0714359,0.210482,0.262938,-0.655331,0.515647,0.57119,0.814402,-0.374095,1.43143,-3.66015,0.0844747,-0.654089,-3.6603,0.100053,-0.617427,-0.719692,0.742255,-0.661244,0.292529,0.602325,0.211778,-0.243909,1
1.07375,-0.349064,-2.2965,-0.829551,2.3938,1.35327,-1.22401,1.08457,-0.359447,-2.28579,-0.832987,2.38454,1.34937,-1.22084,1.14562,-0.422268,-2.22939,-0.857704,2.3334,1.33126,-1.20027,-1.02951,1.07417,-0.920837,0.434834,0.850054,0.293611,-0.345662,-1.02951,1.07417,-0.920837,0.434834,0.850054,0.293611,-0.345662,0.100568,-0.459051,1.01755,0.941159,-0.0764931,0.21179,0.252017,-0.648447,0.536151,0.566437,0.777905,-0.373116,1.42378,-3.64971,0.0978947,-0.764918,-3.66397,0.0997722,-0.713983,-0.718659,0.732033,-0.671123,0.281527,0.60396,0.220173,-0.237458,1
1.06295,-0.338742,-2.3077,-0.827763,2.40363,1.35822,-1.22698,1.07377,-0.349093,-2.2966,-0.829988,2.39395,1.35352,-1.224,1.13448,-0.410688,-2.23954,-0.853069,2.3427,1.33441,-1.20406,-1.04436,1.08574,-0.95181,0.434506,0.871454,0.295902,-0.355211,-1.04436,1.08574,-0.95181,0.434506,0.871454,0.295902,-0.355211,0.0945935,-0.453649,1.02276,0.943337,-0.0815755,0.213131,0.240907,-0.645067,0.557323,0.565455,0.74178,-0.372014,1.41535,-3.61254,0.110173,-0.842381,-3.65667,0.1003,-0.810799,-0.715263,0.719453,-0.681597,0.253067,0.609337,0.238043,-0.229242,1
1.05923,-0.339178,-2.31267,-0.828482,2.41063,1.36029,-1.22448,1.06472,-0.341432,-2.30614,-0.82839,2.40292,1.3575,-1.22561,1.12987,-0.405897,-2.24374,-0.851152,2.34654,1.33572,-1.20562,-0.921601,0.958119,-0.83993,0.383432,0.769019,0.26112,-0.313458,-0.921601,0.958119,-0.83993,0.383432,0.769019,0.26112,-0.313458,0.0894126,-0.448714,1.02733,0.945134,-0.0861072,0.214343,0.231009,-0.490201,0.448702,0.438008,0.705359,-0.371292,1.40577,-3.64208,0.0721633,-0.958681,-3.64891,0.094951,-0.907277,-0.706429,0.667187,-0.689307,0.2267,0.640845,0.245674,-0.188603,1
1.04796,-0.323681,-2.3239,-0.832742,2.4188,1.36831,-1.23003,1.05734,-0.335195,-2.31424,-0.829367,2.41092,1.36177,-1.22649,1.11858,-0.394406,-2.25431,-0.846782,2.35605,1.33922,-1.20936,-1.19325,1.20664,-1.12607,0.447193,1.00914,0.38058,-0.389718,-1.19325,1.20664,-1.12607,0.447193,1.00914,0.38058,-0.389718,0.0835593,-0.443087,1.03231,0.947024,-0.0912204,0.21575,0.21972,-0.626076,0.570355,0.530091,0.669129,-0.370437,1.39527,-3.62296,0.0855029,-1.04989,-3.64143,0.0918056,-1.00499,-0.706196,0.707247,-0.695919,0.140394,0.627452,0.290838,-0.206677,1
1.03895,-0.316871,-2.33535,-0.844903,2.43078,1.37223,-1.23431,1.04853,-0.325853,-2.32396,-0.834717,2.41975,1.36728,-1.22971,1.10761,-0.383482,-2.26479,-0.842879,2.36549,1.34285,-1.21279,-1.14198,1.11976,-1.10128,0.385843,0.996774,0.389961,-0.341576,-1.14198,1.11976,-1.10128,0.385843,0.996774,0.389961,-0.341576,0.0779661,-0.437668,1.0369,0.948686,-0.0960589,0.217073,0.208921,-0.593476,0.533993,0.475868,0.633142,-0.369553,1.3837,-3.59876,0.0884026,-1.15643,-3.63099,0.090344,-1.104,-0.686584,0.666112,-0.705626,-0.0202362,0.652925,0.29373,-0.215184,1
1.03122,-0.309475,-2.34446,-0.849118,2.44158,1.37846,-1.2401,1.03927,-0.316724,-2.33477,-0.842917,2.43049,1.37281,-1.23468,1.09725,-0.373448,-2.27489,-0.839789,2.37471,1.3466,-1.21573,-1.06278,1.01864,-1.04787,0.277519,0.964265,0.404186,-0.286683,-1.06278,1.01864,-1.04787,0.277519,0.964265,0.404186,-0.286683,0.0727788,-0.432698,1.0409,0.950092,-0.100409,0.218237,0.199035,-0.539842,0.481682,0.403681,0.596996,-0.368544,1.37118,-3.61462,0.100887,-1.25197,-3.62285,0.0905433,-1.20343,-0.660312,0.639732,-0.69572,-0.0932928,0.668655,0.318679,-0.243711,1
1.02452,-0.301996,-2.35379,-0.855685,2.45174,1.38628,-1.24608,1.03148,-0.309454,-2.34451,-0.849706,2.44142,1.37886,-1.24015,1.08739,-0.363889,-2.28473,-0.838112,2.38376,1.3506,-1.21849,-1.03491,1.01286,-1.04451,0.0904052,0.958489,0.444229,-0.298874,-1.03491,1.01286,-1.04451,0.0904052,0.958489,0.444229,-0.298874,0.0681159,-0.428124,1.04426,0.951275,-0.104224,0.219399,0.189939,-0.483251,0.454954,0.337871,0.560612,-0.367673,1.35778,-3.6384,0.0871718,-1.3402,-3.62024,0.089312,-1.30139,-0.62866,0.618922,-0.690536,-0.175726,0.679843,0.356782,-0.275963,1
1.01625,-0.294769,-2.36357,-0.864054,2.4621,1.39004,-1.25093,1.02413,-0.302059,-2.3539,-0.856136,2.45179,1.38527,-1.2458,1.07771,-0.354403,-2.29468,-0.838325,2.39298,1.35494,-1.22155,-1.02348,1.00333,-1.06745,-0.122273,0.998707,0.475781,-0.349639,-1.02348,1.00333,-1.06745,-0.122273,0.998707,0.475781,-0.349639,0.0639071,-0.423937,1.04696,0.952336,-0.107433,0.22059,0.181255,-0.4451,0.41008,0.26327,0.524361,-0.366696,1.34375,-3.62506,0.0976354,-1.40313,-3.62102,0.0895888,-1.39594,-0.614535,0.596333,-0.688913,-0.257294,0.691175,0.351041,-0.293718,1
1.00392,-0.286315,-2.3778,-0.867684,2.47634,1.3932,-1.25706,1.01524,-0.294462,-2.36468,-0.862869,2.46307,1.38989,-1.25125,1.06396,-0.341012,-2.30937,-0.841263,2.40713,1.36187,-1.22687,-0.865052,0.840395,-0.935856,-0.224854,0.913204,0.452525,-0.353603,-0.865052,0.840395,-0.935856,-0.224854,0.913204,0.452525,-0.353603,0.0599983,-0.420222,1.04904,0.953345,-0.110108,0.221604,0.17292,-0.417617,0.363773,0.202366,0.487836,-0.366013,1.32841,-3.65251,0.068289,-1.53397,-3.6237,0.0899979,-1.48937,-0.600453,0.546971,-0.68432,-0.264211,0.692133,0.313337,-0.301953,1
0.994577,-0.282596,-2.38868,-0.879238,2.48515,1.39554,-1.26198,1.00467,-0.287499,-2.37696,-0.869665,2.47498,1.393,-1.25676,1.05515,-0.332396,-2.31922,-0.844552,2.41701,1.36704,-1.23106,-0.826117,0.807871,-0.923535,-0.308463,0.92628,0.485324,-0.392594,-0.826117,0.807871,-0.923535,-0.308463,0.92628,0.485324,-0.392594,0.0563291,-0.416883,1.05065,0.954299,-0.112491,0.222387,0.164932,-0.390774,0.334054,0.158712,0.451474,-0.365674,1.31183,-3.63617,0.033921,-1.65802,-3.62933,0.0829177,-1.58689,-0.605755,0.497995,-0.694542,-0.346854,0.681479,0.284975,-0.309221,1
0.993554,-0.293697,-2.39328,-0.885277,2.48943,1.39554,-1.26449,0.996657,-0.286301,-2.38711,-0.877859,2.48402,1.39495,-1.26138,1.05151,-0.328831,-2.3233,-0.845914,2.42109,1.36918,-1.23279,-0.729011,0.71291,-0.814977,-0.272205,0.8174,0.428277,-0.346447,-0.729011,0.71291,-0.814977,-0.272205,0.8174,0.428277,-0.346447,0.0532001,-0.414034,1.0519,0.95509,-0.114522,0.222993,0.157994,-0.302331,0.264527,0.123257,0.415219,-0.364801,1.29415,-3.6255,0.0873208,-1.76809,-3.63424,0.0773434,-1.68835,-0.579543,0.351338,-0.699871,-0.393635,0.683394,0.263537,-0.317033,1
0.97985,-0.275472,-2.40828,-0.898995,2.50164,1.41785,-1.27328,0.990384,-0.286366,-2.39588,-0.887197,2.49142,1.40111,-1.26606,1.03892,-0.317265,-2.33768,-0.852014,2.43562,1.37602,-1.23921,-0.912266,0.792694,-1.04609,-0.470041,1.04827,0.451965,-0.467349,-0.912266,0.792694,-1.04609,-0.470041,1.04827,0.451965,-0.467349,0.049942,-0.41146,1.05289,0.955948,-0.116162,0.22343,0.150826,-0.314693,0.242468,0.0967091,0.379215,-0.364083,1.27584,-3.60045,0.0717878,-1.83053,-3.63219,0.0719611,-1.79001,-0.590732,0.417937,-0.705941,-0.469806,0.660197,0.418228,-0.34074,1
0.972885,-0.280725,-2.41369,-0.905398,2.50708,1.42333,-1.26865,0.981535,-0.281341,-2.40588,-0.897166,2.49995,1.41364,-1.26993,1.03396,-0.313627,-2.34349,-0.855051,2.44131,1.37825,-1.24181,-0.993274,0.727663,-1.16156,-0.607355,1.13742,0.444858,-0.520979,-0.993274,0.727663,-1.16156,-0.607355,1.13742,0.444858,-0.520979,0.0456853,-0.40967,1.05332,0.957165,-0.116705,0.223497,0.142354,-0.474338,0.147874,0.00982306,0.343006,-0.363247,1.25683,-3.62089,0.0835747,-1.90094,-3.62759,0.0704093,-1.88898,-0.610724,0.329023,-0.702004,-0.503466,0.657679,0.450784,-0.268326,1
0.95973,-0.281102,-2.42455,-0.912669,2.51396,1.42962,-1.26841,0.971337,-0.279506,-2.41505,-0.905615,2.50744,1.42353,-1.26975,1.02497,-0.30759,-2.35417,-0.861193,2.45162,1.38267,-1.24669,-0.920978,0.56519,-1.11072,-0.692443,1.05959,0.491244,-0.51579,-0.920978,0.56519,-1.11072,-0.692443,1.05959,0.491244,-0.51579,0.0413166,-0.408928,1.053,0.958407,-0.11641,0.223247,0.134411,-0.47353,0.0523361,-0.0748419,0.3068,-0.362331,1.23653,-3.62062,0.0916451,-2.0309,-3.62359,0.0722127,-1.98861,-0.652396,0.264884,-0.703792,-0.514754,0.623398,0.469483,-0.217169,1
0.949168,-0.300946,-2.43573,-0.922061,2.51927,1.44205,-1.27206,0.960378,-0.285968,-2.42463,-0.913199,2.51357,1.43115,-1.26938,1.01628,-0.302305,-2.36457,-0.868117,2.46143,1.38822,-1.25143,-0.925254,0.558267,-1.10012,-0.773594,1.02575,0.676932,-0.492546,-0.925254,0.558267,-1.10012,-0.773594,1.02575,0.676932,-0.492546,0.0369742,-0.408576,1.05214,0.959516,-0.116085,0.223016,0.126956,-0.467405,0.0574436,-0.110462,0.270809,-0.36138,1.21505,-3.59912,0.0951111,-2.14775,-3.61659,0.0790741,-2.08575,-0.67111,0.0135907,-0.711576,-0.539446,0.578377,0.538261,-0.20632,1
0.938081,-0.331052,-2.44646,-0.932739,2.5216,1.45387,-1.27899,0.949037,-0.303511,-2.43562,-0.922383,2.51852,1.44189,-1.27288,1.0074,-0.297452,-2.37479,-0.875535,2.47083,1.395,-1.2555,-0.96024,0.477918,-1.07227,-0.801029,0.974925,0.759613,-0.379368,-0.96024,0.477918,-1.07227,-0.801029,0.974925,0.759613,-0.379368,0.032491,-0.40835,1.05091,0.960465,-0.115895,0.222929,0.11991,-0.501592,0.023999,-0.150161,0.235002,-0.360435,1.19273,-3.58065,0.0944585,-2.23148,-3.60948,0.0868269,-2.18147,-0.693146,-0.336004,-0.716782,-0.572035,0.507725,0.588679,-0.234917,1
0.926902,-0.347918,-2.45748,-0.948082,2.5111,1.46342,-1.29001,0.938058,-0.327742,-2.44653,-0.933905,2.51839,1.4533,-1.28001,0.998132,-0.294242,-2.38482,-0.88308,2.47965,1.40221,-1.25861,-1.00539,0.22032,-1.06017,-0.802086,0.903306,0.770716,-0.286882,-1.00539,0.22032,-1.06017,-0.802086,0.903306,0.770716,-0.286882,0.0273028,-0.408999,1.04906,0.961438,-0.115098,0.222643,0.113221,-0.610016,-0.11152,-0.242652,0.199344,-0.359596,1.16962,-3.56579,0.0838906,-2.3109,-3.60089,0.0884912,-2.27708,-0.712296,-0.536759,-0.726622,-0.650024,0.31452,0.612086,-0.314014,1
0.915172,-0.358191,-2.46664,-0.962498,2.49718,1.46835,-1.29654,0.926764,-0.34627,-2.45701,-0.94785,2.51024,1.46226,-1.28889,0.988448,-0.294473,-2.39491,-0.890821,2.48773,1.40987,-1.2614,-1.04954,-0.240696,-1.0839,-0.840485,0.819996,0.852731,-0.305675,-1.04954,-0.240696,-1.0839,-0.840485,0.819996,0.852731,-0.305675,0.0206509,-0.411606,1.04594,0.962669,-0.113016,0.221678,0.106558,-0.799381,-0.360298,-0.426266,0.163115,-0.358595,1.14545,-3.62288,0.100124,-2.41781,-3.59793,0.0916498,-2.37645,-0.732763,-0.637181,-0.717212,-0.716769,0.0944534,0.58472,-0.351387,1
0.905327,-0.367371,-2.47549,-0.974192,2.4973,1.47335,-1.30356,0.915643,-0.357918,-2.46656,-0.961818,2.50069,1.46836,-1.29666,0.97844,-0.299319,-2.4052,-0.899157,2.49453,1.4183,-1.26478,-1.07539,-0.756904,-1.10071,-0.925368,0.635498,0.932194,-0.405688,-1.07539,-0.756904,-1.10071,-0.925368,0.635498,0.932194,-0.405688,0.0121719,-0.416877,1.04093,0.96426,-0.109216,0.219908,0.0995742,-0.988705,-0.641572,-0.655833,0.126692,-0.358039,1.1205,-3.64239,0.0555873,-2.49465,-3.5992,0.0888565,-2.47352,-0.73113,-0.680514,-0.702872,-0.750356,0.0276924,0.550492,-0.387787,1
0.888442,-0.383769,-2.49068,-0.988974,2.50424,1.4884,-1.30245,0.903567,-0.369175,-2.47707,-0.974964,2.499,1.47586,-1.30153,0.963314,-0.312306,-2.42044,-0.913108,2.50019,1.43123,-1.27151,-0.973291,-0.904426,-0.973833,-0.92517,0.267782,0.826506,-0.462856,-0.973291,-0.904426,-0.973833,-0.92517,0.267782,0.826506,-0.462856,0.00247903,-0.424312,1.03411,0.966039,-0.10368,0.218092,0.0919467,-1.06704,-0.795008,-0.821332,0.0906198,-0.357581,1.09452,-3.60717,0.045836,-2.59823,-3.60236,0.0813271,-2.56574,-0.748722,-0.714633,-0.702329,-0.758664,0.0404829,0.571775,-0.309451,1
0.880564,-0.3907,-2.49717,-0.993101,2.51351,1.49102,-1.29661,0.890694,-0.381402,-2.4885,-0.98631,2.50482,1.48529,-1.30127,0.957713,-0.317665,-2.42586,-0.918831,2.50025,1.43559,-1.27446,-1.12032,-1.07193,-1.08377,-1.14475,0.0117432,0.872791,-0.591198,-1.12032,-1.07193,-1.08377,-1.14475,0.0117432,0.872791,-0.591198,-0.00746835,-0.432668,1.02618,0.967741,-0.0968499,0.217026,0.0836533,-1.06242,-0.821478,-0.896135,0.0564556,-0.356254,1.0694,-3.41643,0.132638,-2.51135,-3.58741,0.0808648,-2.63746,-0.771483,-0.730345,-0.713043,-0.742699,0.132674,0.554334,-0.221495,1
0.86767,-0.402383,-2.50971,-1.00023,2.52835,1.49567,-1.30276,0.87931,-0.391888,-2.49868,-0.993852,2.5149,1.49153,-1.29961,0.946988,-0.327892,-2.4361,-0.929884,2.50015,1.44372,-1.27995,-1.15631,-1.09939,-1.0911,-1.20049,-0.0304684,0.855906,-0.574752,-1.15631,-1.09939,-1.0911,-1.20049,-0.0304684,0.855906,-0.574752,-0.0175407,-0.441181,1.01765,0.969309,-0.0892606,0.216415,0.0750874,-1.09806,-0.815358,-0.943742,0.0381716,-0.350354,1.06632,-1.8284,0.590083,-0.308657,-3.38844,0.13551,-2.4522,-0.793183,-0.744908,-0.736125,-0.703457,0.282039,0.519466,-0.228192,1
0.855773,-0.41014,-2.51939,-0.981475,2.56041,1.48294,-1.30914,0.867919,-0.401401,-2.50899,-0.993759,2.53266,1.49132,-1.30282,0.935871,-0.338461,-2.44651,-0.941189,2.50058,1.45194,-1.28469,-1.20307,-1.14355,-1.11837,-1.20159,0.113021,0.888279,-0.441529,-1.20307,-1.14355,-1.11837,-1.20159,0.113021,0.888279,-0.441529,-0.0282016,-0.449575,1.00878,0.970828,-0.0813463,0.215441,0.0667904,-1.17554,-0.791645,-0.974713,0.0307651,-0.339301,1.0796,-0.740647,1.10526,1.32848,-2.9495,0.282692,-1.91221,-0.800979,-0.716793,-0.728791,-0.40286,0.598305,0.30999,-0.24456,1
0.848956,-0.412741,-2.51786,-0.914282,2.57586,1.45108,-1.30518,0.857043,-0.408851,-2.51659,-0.969366,2.55626,1.47815,-1.30656,0.92454,-0.349191,-2.45699,-0.952056,2.5027,1.46005,-1.28816,-1.20449,-1.13703,-1.1102,-1.11303,0.324977,0.838325,-0.304888,-1.20449,-1.13703,-1.1102,-1.11303,0.324977,0.838325,-0.304888,-0.0395136,-0.457524,0.999926,0.972359,-0.0734911,0.213597,0.0591001,-1.21904,-0.726482,-0.946008,0.0243357,-0.328186,1.09244,-0.642943,1.11145,1.28325,-2.35943,0.485462,-1.16082,-0.755841,-0.635497,-0.608724,0.377742,0.731602,-0.0897052,-0.170234,1
0.833073,-0.423387,-2.53437,-0.903093,2.57347,1.4303,-1.27472,0.846689,-0.414752,-2.52237,-0.928283,2.5714,1.45385,-1.29856,0.913197,-0.359754,-2.46743,-0.96129,2.50749,1.46699,-1.29107,-1.20576,-1.10909,-1.107,-0.864655,0.670278,0.648056,-0.312913,-1.20576,-1.10909,-1.107,-0.864655,0.670278,0.648056,-0.312913,-0.051466,-0.464664,0.991757,0.974018,-0.066091,0.210396,0.0515253,-1.28315,-0.629735,-0.841294,0.0186781,-0.316415,1.1049,-0.565755,1.1771,1.24643,-1.7225,0.716476,-0.345606,-0.801238,-0.636331,-0.669483,0.581972,0.659824,-0.366905,0.163545,1
0.819894,-0.424394,-2.54502,-0.905359,2.58324,1.43341,-1.29529,0.833749,-0.420977,-2.53291,-0.906457,2.57651,1.43627,-1.28748,0.901903,-0.369841,-2.47751,-0.965606,2.51583,1.47082,-1.29411,-1.19465,-1.03884,-1.04057,-0.100117,1.07667,0.195229,-0.331551,-1.19465,-1.03884,-1.04057,-0.100117,1.07667,0.195229,-0.331551,-0.0642212,-0.470266,0.985699,0.975884,-0.0600857,0.205393,0.0430469,-1.35401,-0.428631,-0.518963,0.0126342,-0.304493,1.11638,-0.604397,1.19227,1.14809,-1.15481,0.932533,0.381053,-0.820095,-0.545527,-0.675045,0.602476,0.674098,-0.374169,-0.011788,1
0.809648,-0.394328,-2.54904,-0.90064,2.59899,1.43112,-1.29294,0.820627,-0.416626,-2.54336,-0.903612,2.58473,1.43206,-1.28956,0.890764,-0.379164,-2.48684,-0.96161,2.52655,1.46959,-1.29592,-1.17366,-0.947688,-0.946303,0.887477,1.19432,-0.419179,-0.0701539,-1.17366,-0.947688,-0.946303,0.887477,1.19432,-0.419179,-0.0701539,-0.0775531,-0.473689,0.983111,0.977778,-0.0560609,0.199208,0.0335247,-1.3839,-0.200292,-0.111619,0.00619442,-0.293127,1.12673,-0.643975,1.13654,1.03477,-0.76409,1.08567,0.862117,-0.811159,-0.151647,-0.621993,0.609708,0.724416,-0.384666,0.0298108,1
0.79687,-0.361006,-2.56634,-0.889956,2.6179,1.42032,-1.27515,0.809015,-0.393514,-2.55236,-0.899148,2.59978,1.42899,-1.28908,0.874119,-0.39167,-2.50028,-0.946361,2.5417,1.46078,-1.2943,-1.07506,-0.780472,-0.868913,1.06265,0.926845,-0.652667,0.181601,-1.07506,-0.780472,-0.868913,1.06265,0.926845,-0.652667,0.181601,-0.0911141,-0.47558,0.982948,0.979455,-0.052784,0.193198,0.0235968,-1.40444,-0.107422,0.0181508,0.000330699,-0.281344,1.13642,-0.586373,1.1783,0.969088,-0.622734,1.15381,0.973212,-0.772489,0.306632,-0.66058,0.564049,0.76196,-0.404585,0.191507,1
0.789803,-0.360686,-2.57385,-0.895164,2.62212,1.41795,-1.26842,0.798298,-0.369257,-2.56389,-0.893929,2.61423,1.42243,-1.27791,0.867833,-0.394602,-2.50534,-0.941338,2.54676,1.4574,-1.29374,-1.25706,-0.586475,-1.01243,1.00459,1.01118,-0.674924,0.111322,-1.25706,-0.586475,-1.01243,1.00459,1.01118,-0.674924,0.111322,-0.104154,-0.476371,0.983561,0.980797,-0.0496538,0.188131,0.0133764,-1.29564,0.02615,0.0677704,-0.00593411,-0.26953,1.14532,-0.626481,1.18146,0.889981,-0.609255,1.16531,0.896232,-0.780304,0.339158,-0.685062,0.461733,0.753559,-0.394548,0.253215,1
0.777676,-0.37289,-2.5819,-0.880612,2.62872,1.40265,-1.26196,0.788538,-0.363817,-2.57398,-0.890224,2.62271,1.41472,-1.26848,0.857391,-0.399474,-2.51375,-0.932993,2.55516,1.4518,-1.29281,-0.978997,-0.456747,-0.78848,0.782372,0.787504,-0.525631,0.0866976,-0.978997,-0.456747,-0.78848,0.782372,0.787504,-0.525631,0.0866976,-0.115194,-0.476406,0.984262,0.981766,-0.047146,0.184108,0.00418181,-1.00699,0.0412695,0.0500648,-0.0126031,-0.257822,1.15296,-0.666898,1.1708,0.764143,-0.615515,1.17148,0.808757,-0.797156,0.265833,-0.681495,0.523813,0.735559,-0.491442,0.308593,1
0.770962,-0.333059,-2.59241,-0.890465,2.64285,1.3987,-1.25803,0.779029,-0.359882,-2.58251,-0.886713,2.6306,1.40549,-1.26259,0.845431,-0.395305,-2.52365,-0.924893,2.56673,1.44598,-1.29068,-1.25513,0.693642,-1.07165,0.824551,1.26487,-0.627216,0.339882,-1.25513,0.693642,-1.07165,0.824551,1.26487,-0.627216,0.339882,-0.123907,-0.471655,0.988849,0.98216,-0.0476816,0.181807,-0.00586276,-0.800493,0.632281,0.580026,-0.0183028,-0.24569,1.15954,-0.56997,1.21321,0.657845,-0.619807,1.17542,0.713101,-0.744694,0.622458,-0.687599,0.344285,0.761205,-0.472807,0.326423,1
0.753842,-0.328161,-2.60931,-0.906647,2.65824,1.38559,-1.25268,0.76836,-0.341792,-2.59401,-0.892047,2.64316,1.39641,-1.25768,0.828533,-0.385956,-2.53846,-0.914391,2.58346,1.43691,-1.2846,-1.06509,0.58957,-0.945912,0.643571,1.04535,-0.591005,0.429156,-1.06509,0.58957,-0.945912,0.643571,1.04535,-0.591005,0.429156,-0.131317,-0.465916,0.994116,0.982315,-0.0484642,0.180244,-0.0148358,-0.756367,0.605201,0.533006,-0.025025,-0.233189,1.16464,-0.672221,1.25009,0.510395,-0.624663,1.18682,0.610533,-0.746913,0.577952,-0.708458,0.0774366,0.747826,-0.51323,0.319191,1
0.749284,-0.322063,-2.61106,-0.890475,2.66514,1.38072,-1.24641,0.756982,-0.327861,-2.60552,-0.898559,2.65612,1.38765,-1.25245,0.822716,-0.382892,-2.54364,-0.911139,2.589,1.43322,-1.28201,-1.16335,0.612759,-1.03519,0.65043,1.10782,-0.73841,0.517207,-1.16335,0.612759,-1.03519,0.65043,1.10782,-0.73841,0.517207,-0.138364,-0.460553,0.998927,0.98243,-0.0484955,0.178747,-0.023009,-0.723001,0.563745,0.482677,-0.0317421,-0.221874,1.16985,-0.671715,1.13152,0.52104,-0.631749,1.19255,0.514436,-0.734319,0.608294,-0.674179,0.206633,0.761396,-0.524956,0.355986,1
0.740748,-0.310585,-2.62042,-0.894346,2.67586,1.37074,-1.2422,0.74829,-0.320718,-2.61296,-0.895486,2.66609,1.37944,-1.24693,0.811799,-0.375677,-2.55359,-0.906362,2.59968,1.42602,-1.27714,-1.15674,0.902311,-1.07626,0.381207,1.15803,-0.788415,0.518296,-1.15674,0.902311,-1.07626,0.381207,1.15803,-0.788415,0.518296,-0.144595,-0.455026,1.00369,0.982474,-0.048025,0.177458,-0.0307615,-0.591368,0.639973,0.517332,-0.038243,-0.21081,1.17386,-0.65009,1.10641,0.40096,-0.641997,1.18411,0.418148,-0.710515,0.650921,-0.668321,0.120165,0.761833,-0.552734,0.349416,1
0.729332,-0.301689,-2.63028,-0.888443,2.6866,1.3626,-1.23922,0.740028,-0.31123,-2.62054,-0.891903,2.67586,1.3712,-1.24251,0.800853,-0.366545,-2.56388,-0.903961,2.61082,1.41844,-1.27222,-1.16825,1.03011,-1.1088,0.143862,1.20628,-0.8199,0.526405,-1.16825,1.03011,-1.1088,0.143862,1.20628,-0.8199,0.526405,-0.149954,-0.449132,1.00847,0.982457,-0.0470861,0.176346,-0.0382448,-0.535872,0.65337,0.490788,-0.0448816,-0.198916,1.1765,-0.663853,1.1894,0.264013,-0.648434,1.17744,0.320252,-0.715218,0.648561,-0.663997,0.155178,0.757804,-0.558419,0.329956,1
0.719404,-0.292832,-2.64046,-0.889088,2.69792,1.35379,-1.23443,0.729704,-0.301698,-2.63036,-0.89008,2.68674,1.36243,-1.23877,0.790128,-0.357149,-2.57397,-0.902405,2.62201,1.41066,-1.2672,-1.11411,0.970114,-1.03839,0.184248,1.17391,-0.831361,0.539814,-1.11411,0.970114,-1.03839,0.184248,1.17391,-0.831361,0.539814,-0.154912,-0.44326,1.01309,0.982433,-0.0459235,0.175109,-0.0453163,-0.50165,0.639132,0.481809,-0.0511092,-0.187341,1.17778,-0.622767,1.15747,0.127697,-0.649622,1.16918,0.220024,-0.707242,0.643169,-0.664965,0.133169,0.759097,-0.568765,0.327667,1
0.709649,-0.284038,-2.65017,-0.888672,2.70893,1.34557,-1.22943,0.719447,-0.292848,-2.64034,-0.888823,2.69784,1.35394,-1.23438,0.779902,-0.347975,-2.58348,-0.900453,2.63291,1.40279,-1.2622,-1.06183,0.978487,-0.98692,0.2277,1.14383,-0.841156,0.524231,-1.06183,0.978487,-0.98692,0.2277,1.14383,-0.841156,0.524231,-0.159436,-0.43734,1.01777,0.982374,-0.0450216,0.173818,-0.0519698,-0.443188,0.655282,0.502077,-0.0570151,-0.175797,1.17878,-0.590581,1.15441,0.100315,-0.648017,1.15833,0.123774,-0.702538,0.639369,-0.666863,0.117818,0.760235,-0.572206,0.327695,1
0.700487,-0.274774,-2.65931,-0.888354,2.71989,1.33728,-1.22441,0.709797,-0.283921,-2.65003,-0.888696,2.70892,1.34555,-1.22942,0.769869,-0.338727,-2.59283,-0.898348,2.64369,1.39477,-1.2574,-1.06957,0.986046,-0.999306,0.220163,1.1465,-0.861199,0.496138,-1.06957,0.986046,-0.999306,0.220163,1.1465,-0.861199,0.496138,-0.163646,-0.431266,1.02254,0.982263,-0.0442909,0.172528,-0.0585734,-0.43193,0.668491,0.501194,-0.062961,-0.164544,1.17842,-0.594598,1.12528,-0.035882,-0.632929,1.14842,0.0254341,-0.69382,0.639529,-0.664799,0.099942,0.761993,-0.574917,0.329884,1
0.690693,-0.266084,-2.6689,-0.889885,2.73082,1.32917,-1.22003,0.700329,-0.274918,-2.65943,-0.888816,2.71988,1.33732,-1.22457,0.759779,-0.329497,-2.60231,-0.896371,2.65452,1.38662,-1.25276,-1.07402,0.975928,-1.01286,0.201011,1.15372,-0.870363,0.489589,-1.07402,0.975928,-1.01286,0.201011,1.15372,-0.870363,0.489589,-0.167794,-0.425123,1.02724,0.982116,-0.0435171,0.171156,-0.0652741,-0.427753,0.671596,0.488495,-0.0688922,-0.152926,1.17707,-0.59312,1.16183,-0.134945,-0.617927,1.15176,-0.0819002,-0.690862,0.634126,-0.665961,0.0648629,0.763069,-0.57454,0.327317,1
0.680776,-0.257699,-2.67841,-0.889408,2.74185,1.32087,-1.21624,0.690662,-0.26616,-2.66888,-0.889383,2.73085,1.32912,-1.22018,0.749724,-0.320341,-2.61186,-0.894687,2.6654,1.37841,-1.24811,-1.06327,0.969882,-1.01646,0.159528,1.15886,-0.8749,0.497746,-1.06327,0.969882,-1.01646,0.159528,1.15886,-0.8749,0.497746,-0.171862,-0.41899,1.0318,0.981951,-0.042643,0.169664,-0.0718916,-0.413245,0.667605,0.470292,-0.0748792,-0.14101,1.17494,-0.598699,1.19152,-0.213492,-0.606363,1.15777,-0.182075,-0.689476,0.626422,-0.665487,0.0527825,0.764472,-0.575341,0.318703,1
0.67113,-0.249346,-2.68811,-0.891085,2.75293,1.31268,-1.21201,0.680844,-0.257707,-2.67846,-0.889947,2.74186,1.3209,-1.21613,0.73978,-0.311227,-2.62141,-0.893376,2.67632,1.37017,-1.24341,-1.05058,0.966924,-1.01245,0.121426,1.16021,-0.874731,0.501697,-1.05058,0.966924,-1.01245,0.121426,1.16021,-0.874731,0.501697,-0.175786,-0.41289,1.03621,0.981776,-0.0416779,0.16806,-0.0783231,-0.394742,0.665031,0.454785,-0.0809905,-0.130053,1.17176,-0.611132,1.09577,-0.318134,-0.599086,1.15043,-0.27722,-0.686499,0.618814,-0.667027,0.0229077,0.766098,-0.574918,0.313986,1
0.661292,-0.241339,-2.69784,-0.892344,2.76404,1.30504,-1.20837,0.671082,-0.249432,-2.68812,-0.890981,2.75294,1.31282,-1.21216,0.729917,-0.302166,-2.63093,-0.892434,2.68724,1.36194,-1.23873,-1.04537,0.958853,-1.01075,0.081241,1.16121,-0.874025,0.493903,-1.04537,0.958853,-1.01075,0.081241,1.16121,-0.874025,0.493903,-0.179583,-0.406825,1.04045,0.98159,-0.0406356,0.166345,-0.084616,-0.383378,0.660581,0.436277,-0.0866809,-0.118788,1.16771,-0.569034,1.12645,-0.405109,-0.594943,1.14528,-0.370537,-0.686251,0.608275,-0.669127,0.000892631,0.768032,-0.569068,0.303528,1
0.651298,-0.23357,-2.70757,-0.893622,2.77521,1.29769,-1.20488,0.661253,-0.241398,-2.69784,-0.892349,2.76406,1.30511,-1.20841,0.72008,-0.293209,-2.64045,-0.891825,2.69818,1.35372,-1.23415,-1.04488,0.945424,-1.0122,0.0500234,1.16324,-0.873966,0.479768,-1.04488,0.945424,-1.0122,0.0500234,1.16324,-0.873966,0.479768,-0.183316,-0.400802,1.04453,0.981388,-0.039513,0.164505,-0.0908567,-0.377985,0.656887,0.418565,-0.0930096,-0.106664,1.16299,-0.632876,1.21244,-0.472164,-0.598292,1.14923,-0.46479,-0.68782,0.596389,-0.671216,-0.0179681,0.770279,-0.560246,0.292681,1
0.634633,-0.227725,-2.72307,-0.897873,2.79113,1.28582,-1.19842,0.649631,-0.234051,-2.70901,-0.894365,2.7764,1.29656,-1.20414,0.705651,-0.280276,-2.65447,-0.891466,2.71429,1.34167,-1.22764,-0.920553,0.821354,-0.89596,0.0129358,1.02911,-0.768223,0.412112,-0.920553,0.821354,-0.89596,0.0129358,1.02911,-0.768223,0.412112,-0.187019,-0.394825,1.04844,0.981169,-0.0383134,0.162531,-0.0970752,-0.374097,0.651552,0.398904,-0.0998028,-0.09518,1.15682,-0.679314,1.14838,-0.616074,-0.609149,1.15299,-0.557888,-0.710184,0.525517,-0.686006,-0.0640626,0.768425,-0.558472,0.292158,1
0.63013,-0.219928,-2.72687,-0.887598,2.79764,1.28312,-1.19762,0.637674,-0.227237,-2.72015,-0.894241,2.78878,1.28811,-1.19984,0.700434,-0.275708,-2.65957,-0.89157,2.72014,1.33737,-1.22538,-1.04341,0.913684,-1.01923,-0.02074,1.16956,-0.859093,0.451842,-1.04341,0.913684,-1.01923,-0.02074,1.16956,-0.859093,0.451842,-0.190712,-0.3889,1.05216,0.980931,-0.0370473,0.160421,-0.103277,-0.372841,0.646342,0.378153,-0.106116,-0.0835229,1.14999,-0.631291,1.16571,-0.683224,-0.619773,1.15449,-0.650885,-0.703043,0.557803,-0.673062,0.0397251,0.775066,-0.542529,0.277541,1
0.620436,-0.21229,-2.73748,-0.893183,2.80858,1.27456,-1.19399,0.628832,-0.219967,-2.72858,-0.891563,2.79875,1.28165,-1.19692,0.690402,-0.267255,-2.66935,-0.891979,2.7313,1.32923,-1.22112,-1.08576,0.884253,-1.05635,-0.0635379,1.20092,-0.87003,0.452269,-1.08576,0.884253,-1.05635,-0.0635379,1.20092,-0.87003,0.452269,-0.194599,-0.383021,1.05565,0.980677,-0.035616,0.15809,-0.109593,-0.408285,0.644366,0.350067,-0.112617,-0.0715658,1.14176,-0.650179,1.19571,-0.823057,-0.630668,1.16072,-0.74981,-0.699662,0.549657,-0.681387,-0.012038,0.772804,-0.546677,0.271288,1
0.609124,-0.206292,-2.74786,-0.890688,2.8199,1.26754,-1.19096,0.620031,-0.2127,-2.73743,-0.891163,2.80868,1.27495,-1.19414,0.679978,-0.25911,-2.67943,-0.892492,2.74273,1.32101,-1.21686,-1.12659,0.848794,-1.08434,-0.0465683,1.22624,-0.87611,0.453347,-1.12659,0.848794,-1.08434,-0.0465683,1.22624,-0.87611,0.453347,-0.198816,-0.377095,1.05898,0.980392,-0.0340677,0.155503,-0.116143,-0.438056,0.656895,0.340213,-0.119066,-0.0606105,1.13311,-0.644833,1.09554,-0.865245,-0.640018,1.16397,-0.84582,-0.708546,0.528175,-0.684299,0.0180456,0.771699,-0.534659,0.258952,1
0.598441,-0.201386,-2.75864,-0.89389,2.83122,1.25916,-1.1874,0.609281,-0.206565,-2.74796,-0.892112,2.8199,1.2672,-1.19083,0.669582,-0.251205,-2.68943,-0.892565,2.75409,1.31297,-1.21275,-1.08517,0.831877,-1.04258,0.0266794,1.18934,-0.834076,0.421719,-1.08517,0.831877,-1.04258,0.0266794,1.18934,-0.834076,0.421719,-0.202944,-0.371012,1.06234,0.980039,-0.0328367,0.15292,-0.122725,-0.393922,0.671006,0.356681,-0.12602,-0.0488631,1.12307,-0.695455,1.17474,-1.00402,-0.653377,1.16249,-0.94546,-0.711411,0.498193,-0.692178,-0.0132509,0.771308,-0.538192,0.253545,1
0.587637,-0.197897,-2.7688,-0.89285,2.84221,1.25197,-1.18423,0.598411,-0.20174,-2.75849,-0.892829,2.83114,1.25946,-1.1875,0.659534,-0.243442,-2.69913,-0.892296,2.76514,1.30526,-1.20892,-1.05196,0.818663,-1.01994,0.0301744,1.15956,-0.807211,0.393566,-1.05196,0.818663,-1.01994,0.0301744,1.15956,-0.807211,0.393566,-0.206712,-0.364845,1.06574,0.979618,-0.0319864,0.150474,-0.129165,-0.36397,0.668178,0.350749,-0.132602,-0.0371295,1.112,-0.658149,1.17336,-1.10689,-0.657721,1.15768,-1.04768,-0.718964,0.455445,-0.696726,-0.00554281,0.770749,-0.532837,0.246952,1
0.571004,-0.200929,-2.78435,-0.890451,2.85765,1.2399,-1.17722,0.58618,-0.199527,-2.77015,-0.89251,2.84101,1.25075,-1.18327,0.644803,-0.232471,-2.71343,-0.892152,2.78123,1.29407,-1.20357,-0.945919,0.689858,-0.91946,0.00105101,1.02969,-0.715381,0.339204,-0.945919,0.689858,-0.91946,0.00105101,1.02969,-0.715381,0.339204,-0.210471,-0.358724,1.06898,0.979156,-0.0311298,0.147956,-0.135619,-0.387245,0.661295,0.324749,-0.138424,-0.0259552,1.09982,-0.582218,1.11743,-1.21799,-0.650853,1.15416,-1.14889,-0.737987,0.315426,-0.709126,0.0170025,0.764141,-0.54167,0.263494,1
0.565721,-0.198164,-2.78886,-0.878599,2.86428,1.23814,-1.17608,0.573842,-0.19948,-2.78159,-0.888088,2.84686,1.24248,-1.17869,0.639352,-0.22886,-2.71873,-0.892231,2.7871,1.29,-1.20168,-1.09028,0.722214,-1.0588,-0.015928,1.17281,-0.813352,0.377707,-1.09028,0.722214,-1.0588,-0.015928,1.17281,-0.813352,0.377707,-0.214522,-0.35271,1.07196,0.978669,-0.0300805,0.145197,-0.142199,-0.420274,0.648404,0.294313,-0.144244,-0.0145374,1.08723,-0.582004,1.14179,-1.25871,-0.641194,1.14878,-1.24739,-0.736309,0.306969,-0.70129,0.136323,0.77182,-0.518607,0.255964,1
0.550103,-0.208977,-2.8042,-0.884661,2.87804,1.22817,-1.16955,0.563137,-0.201558,-2.79156,-0.883078,2.84842,1.23609,-1.17473,0.625112,-0.22012,-2.73253,-0.892381,2.80203,1.27943,-1.19675,-1.03677,0.548382,-1.00174,-0.00345019,1.03814,-0.76362,0.358976,-1.03677,0.548382,-1.00174,-0.00345019,1.03814,-0.76362,0.358976,-0.218187,-0.347409,1.07447,0.978208,-0.0291165,0.142639,-0.148036,-0.318235,0.512385,0.228676,-0.150043,-0.00356401,1.07359,-0.579864,1.09733,-1.36447,-0.625128,1.1395,-1.34114,-0.750085,0.111427,-0.716715,0.0771981,0.76013,-0.512546,0.271971,1
