Afshin1997/kuka_rl_ros2/src/catch_and_throw/input_files/idealpd/trajectory_evaluator/1.csv
pure_target_joint_0,pure_target_joint_1,pure_target_joint_2,pure_target_joint_3,pure_target_joint_4,pure_target_joint_5,pure_target_joint_6,target_joint_0,target_joint_1,target_joint_2,target_joint_3,target_joint_4,target_joint_5,target_joint_6,pos_joint_0,pos_joint_1,pos_joint_2,pos_joint_3,pos_joint_4,pos_joint_5,pos_joint_6,vel_joint_0,vel_joint_1,vel_joint_2,vel_joint_3,vel_joint_4,vel_joint_5,vel_joint_6,vel_smooth_joint_0,vel_smooth_joint_1,vel_smooth_joint_2,vel_smooth_joint_3,vel_smooth_joint_4,vel_smooth_joint_5,vel_smooth_joint_6,ee_pos_x,ee_pos_y,ee_pos_z,ee_or_w,ee_or_x,ee_or_y,ee_or_z,ee_vel_x,ee_vel_y,ee_vel_z,ball_pos_x,ball_pos_y,ball_pos_z,ball_raw_vx,ball_raw_vy,ball_raw_vz,ball_ema_vx,ball_ema_vy,ball_ema_vz,action_0,action_1,action_2,action_3,action_4,action_5,action_6,command_published
1.7025,-1.00341,-1.87619,-1.08602,1.99523,1.17722,-0.975461,1.77541,-1.06105,-1.81901,-1.1151,1.94085,1.12092,-0.919918,1.78027,-1.06489,-1.8152,-1.11703,1.93723,1.11717,-0.916215,0,0,0,0,0,0,0,0,0,0,0,0,0,0,0.531049,-0.45449,0.694147,0.574487,0.175151,0.152513,0.784873,0,0,0,2.97464,-0.481261,0.288168,-3.39312,0.319334,4.73865,-3.58611,0.285203,4.73913,-0.777665,0.614832,-0.60985,0.310109,0.58,0.600491,-0.592452,1
1.70113,-1.00208,-1.87526,-1.08013,1.99615,1.17794,-0.974249,1.75588,-1.0456,-1.8342,-1.10698,1.95541,1.13598,-0.934654,1.78027,-1.06489,-1.8152,-1.11703,1.93723,1.11717,-0.916215,0,0,0,0,0,0,0,0,0,0,0,0,0,0,0.531049,-0.45449,0.694147,0.574487,0.175151,0.152513,0.784873,0,0,0,2.93949,-0.478119,0.336093,-3.61567,0.323239,4.92902,-3.54323,0.309977,4.70102,-0.79143,0.628127,-0.600538,0.369044,0.58927,0.607736,-0.580338,1
1.70059,-1.00039,-1.87325,-1.08204,1.99799,1.17819,-0.974749,1.72634,-1.0221,-1.85671,-1.09399,1.9775,1.15869,-0.956599,1.77983,-1.06454,-1.81555,-1.11686,1.93755,1.11751,-0.916551,-0.0881037,0.0696545,-0.0690904,0.0351334,0.0657107,0.0680302,-0.0671185,-0.0881037,0.0696545,-0.0690904,0.0351334,0.0657107,0.0680302,-0.0671185,0.530757,-0.454761,0.694289,0.574928,0.175005,0.152485,0.784588,-1.0114e-06,-1.30988e-06,3.70075e-08,2.90442,-0.47508,0.383061,-3.46613,0.300311,4.64189,-3.51779,0.311797,4.62433,-0.792377,0.641512,-0.577051,0.348167,0.604351,0.606783,-0.581978,1
1.69757,-0.996546,-1.86511,-1.08418,2.00449,1.17969,-0.976259,1.70606,-1.00557,-1.8706,-1.08464,1.99322,1.17413,-0.971175,1.7766,-1.06199,-1.81807,-1.11554,1.93996,1.12,-0.918997,-0.485158,0.383843,-0.378185,0.199521,0.361728,0.374241,-0.367048,-0.485158,0.383843,-0.378185,0.199521,0.361728,0.374241,-0.367048,0.530226,-0.455253,0.694547,0.57573,0.17474,0.152435,0.784069,-0.102777,-0.0965515,0.0497911,2.86937,-0.471956,0.428967,-3.46467,0.308891,4.53849,-3.50307,0.308078,4.5237,-0.790307,0.654449,-0.470373,0.313663,0.64533,0.596915,-0.572626,1
1.68663,-0.991715,-1.85409,-1.06727,2.00783,1.18687,-0.982154,1.69922,-0.999499,-1.8707,-1.08142,1.9996,1.17898,-0.975509,1.76709,-1.05446,-1.82543,-1.11154,1.94706,1.12732,-0.926147,-1.15047,0.912508,-0.886958,0.4896,0.859057,0.886068,-0.862519,-1.15047,0.912508,-0.886958,0.4896,0.859057,0.886068,-0.862519,0.526083,-0.459049,0.696584,0.581916,0.172654,0.152029,0.780033,-0.488778,-0.450262,0.23963,2.83492,-0.469035,0.473855,-3.37668,0.286254,4.3994,-3.48784,0.308355,4.41734,-0.804688,0.627421,-0.286626,0.442688,0.607709,0.595495,-0.560062,1
1.67028,-0.981445,-1.85106,-1.05188,2.01334,1.2006,-0.99289,1.69411,-0.995702,-1.86415,-1.07714,2.00373,1.18231,-0.978269,1.75182,-1.04229,-1.837,-1.10491,1.95852,1.13907,-0.937508,-1.57719,1.26,-1.18035,0.690376,1.1886,1.21091,-1.16807,-1.57719,1.26,-1.18035,0.690376,1.1886,1.21091,-1.16807,0.511565,-0.471643,0.703912,0.602775,0.165196,0.150493,0.76598,-1.07061,-0.906506,0.549002,2.79918,-0.46626,0.517718,-3.68984,0.286514,4.52848,-3.4934,0.304503,4.32801,-0.815383,0.608464,-0.140598,0.530253,0.548195,0.615392,-0.553818,1
1.65429,-0.968747,-1.85463,-1.04452,2.02678,1.21264,-1.00523,1.68413,-0.989462,-1.85732,-1.06715,2.00894,1.18958,-0.984344,1.73612,-1.02963,-1.84809,-1.09793,1.97054,1.15107,-0.949,-1.48226,1.19999,-0.999157,0.659881,1.14559,1.12875,-1.07785,-1.48226,1.19999,-0.999157,0.659881,1.14559,1.12875,-1.07785,0.505667,-0.476423,0.706987,0.610887,0.162091,0.149809,0.76033,-1.14294,-0.932817,0.596267,2.76487,-0.462743,0.560573,-3.3303,0.341311,4.15985,-3.48942,0.303957,4.2291,-0.818224,0.608875,-0.0654653,0.534114,0.562435,0.615753,-0.562339,1
1.64209,-0.955447,-1.85831,-1.04407,2.04256,1.22189,-1.01505,1.67031,-0.980157,-1.85404,-1.05542,2.01659,1.2002,-0.993638,1.72349,-1.01936,-1.85495,-1.0921,1.98049,1.16057,-0.95799,-1.1878,0.963306,-0.552397,0.567629,0.937526,0.88888,-0.836849,-1.1878,0.963306,-0.552397,0.567629,0.937526,0.88888,-0.836849,0.490887,-0.48706,0.715702,0.629794,0.153576,0.147212,0.747062,-0.857253,-0.584454,0.557967,2.73046,-0.459413,0.602261,-3.52016,0.340691,4.26413,-3.47546,0.30785,4.12193,-0.814011,0.639085,-0.0336265,0.480289,0.620675,0.613157,-0.570639,1
1.63141,-0.944456,-1.85679,-1.04223,2.05412,1.22874,-1.02201,1.65583,-0.968514,-1.85476,-1.04753,2.02789,1.21134,-1.00421,1.7129,-1.01099,-1.85736,-1.08627,1.98863,1.1684,-0.965226,-1.05293,0.815181,-0.14921,0.625125,0.784211,0.776962,-0.712035,-1.05293,0.815181,-0.14921,0.625125,0.784211,0.776962,-0.712035,0.482529,-0.492018,0.721805,0.639306,0.147739,0.144644,0.740634,-0.796033,-0.476824,0.617224,2.69545,-0.456045,0.643027,-3.72151,0.358053,4.33389,-3.51129,0.318725,4.07011,-0.814883,0.665354,0.0057139,0.440338,0.654923,0.603452,-0.567869,1
1.62046,-0.935338,-1.8529,-1.03369,2.06169,1.23653,-1.02863,1.64288,-0.956393,-1.85622,-1.04356,2.04087,1.22087,-1.0138,1.70216,-1.00305,-1.85705,-1.0789,1.99602,1.17634,-0.972371,-1.10429,0.807706,0.0606813,0.779993,0.741705,0.821328,-0.73591,-1.10429,0.807706,0.0606813,0.779993,0.741705,0.821328,-0.73591,0.473561,-0.496783,0.729,0.648873,0.140675,0.141293,0.734309,-0.869414,-0.479022,0.722268,2.66092,-0.452269,0.682767,-3.48859,0.381443,4.01435,-3.5177,0.332192,3.98143,-0.817012,0.677121,0.0414648,0.452127,0.656757,0.601905,-0.562553,1
1.6085,-0.926025,-1.84816,-1.0226,2.06887,1.24556,-1.03639,1.63134,-0.945291,-1.85553,-1.03947,2.05234,1.22902,-1.02178,1.69035,-0.994448,-1.85612,-1.07044,2.00382,1.18522,-0.98034,-1.20781,0.890563,0.0762705,0.839984,0.815486,0.910094,-0.822844,-1.20781,0.890563,0.0762705,0.839984,0.815486,0.910094,-0.822844,0.463478,-0.501728,0.737102,0.659328,0.132502,0.13752,0.727199,-0.961391,-0.48771,0.792059,2.62606,-0.449126,0.721717,-3.45291,0.311283,3.85823,-3.52234,0.341922,3.88729,-0.818515,0.684224,0.0795949,0.478475,0.650481,0.603428,-0.560482,1
1.59602,-0.915549,-1.84397,-1.01558,2.07836,1.25527,-1.04547,1.62003,-0.93531,-1.85247,-1.03257,2.06144,1.2371,-1.02912,1.67779,-0.984799,-1.85581,-1.06253,2.01293,1.19469,-0.989079,-1.25939,0.989518,0.0139976,0.752063,0.949676,0.948188,-0.882379,-1.25939,0.989518,0.0139976,0.752063,0.949676,0.948188,-0.882379,0.452852,-0.506393,0.745467,0.670081,0.124049,0.13369,0.719535,-0.992023,-0.444318,0.805694,2.59123,-0.445486,0.759676,-3.51946,0.367904,3.83606,-3.50442,0.348996,3.7734,-0.817738,0.692497,0.118344,0.469489,0.654253,0.605748,-0.563869,1
1.58352,-0.904035,-1.84139,-1.01165,2.08945,1.26491,-1.05455,1.60824,-0.925512,-1.84842,-1.02416,2.06981,1.24589,-1.03695,1.66524,-0.974428,-1.85588,-1.05591,2.02318,1.20406,-0.997952,-1.24558,1.04444,0.000320227,0.637137,1.03708,0.924772,-0.878404,-1.24558,1.04444,0.000320227,0.637137,1.03708,0.924772,-0.878404,0.442369,-0.510317,0.753741,0.680314,0.115841,0.129922,0.71195,-0.971096,-0.369632,0.799435,2.55625,-0.442279,0.796048,-3.44158,0.315499,3.57821,-3.52229,0.347874,3.67892,-0.817188,0.703928,0.144881,0.44257,0.662678,0.60847,-0.565942,1
1.57141,-0.892529,-1.84059,-1.01002,2.10087,1.27423,-1.06309,1.596,-0.915088,-1.84472,-1.01714,2.07913,1.25527,-1.04552,1.65304,-0.963917,-1.85549,-1.04986,2.03362,1.21302,-1.00647,-1.21121,1.04581,0.0659108,0.612964,1.03032,0.887214,-0.840249,-1.21121,1.04581,0.0659108,0.612964,1.03032,0.887214,-0.840249,0.432156,-0.513513,0.762023,0.689852,0.107711,0.126151,0.704691,-0.955839,-0.33327,0.796934,2.52132,-0.438911,0.831561,-3.39772,0.327613,3.45456,-3.49902,0.343701,3.54103,-0.816295,0.713886,0.148973,0.39841,0.672491,0.612062,-0.566221,1
1.55978,-0.881333,-1.83859,-1.00995,2.11162,1.28326,-1.07128,1.58369,-0.903993,-1.84208,-1.0128,2.08963,1.26477,-1.05432,1.64109,-0.953598,-1.85412,-1.0434,2.04355,1.22176,-1.01465,-1.19347,1.02676,0.162995,0.665792,0.977559,0.873959,-0.81424,-1.19347,1.02676,0.162995,0.665792,0.977559,0.873959,-0.81424,0.421935,-0.516235,0.770543,0.699004,0.0992422,0.122271,0.697563,-0.955842,-0.268987,0.836052,2.48607,-0.435849,0.865792,-3.38222,0.293783,3.28491,-3.44634,0.332065,3.36883,-0.813102,0.722648,0.155378,0.33447,0.680644,0.615082,-0.566299,1
1.54796,-0.870466,-1.83659,-1.00549,2.12132,1.29221,-1.07892,1.5716,-0.892666,-1.84025,-1.01048,2.10057,1.2741,-1.06289,1.62915,-0.943394,-1.85191,-1.03642,2.05305,1.23056,-1.02278,-1.19681,1.02263,0.236397,0.698404,0.948373,0.886295,-0.817309,-1.19681,1.02263,0.236397,0.698404,0.948373,0.886295,-0.817309,0.416748,-0.517463,0.774917,0.703522,0.0948132,0.120277,0.693974,-0.963669,-0.253335,0.849991,2.45135,-0.432777,0.899332,-3.56176,0.315067,3.44013,-3.45999,0.323879,3.27014,-0.81188,0.729276,0.153206,0.309261,0.68263,0.616443,-0.561435,1
1.5361,-0.859293,-1.83479,-1.0015,2.13117,1.30142,-1.08673,1.55973,-0.881457,-1.83853,-1.00843,2.11119,1.28323,-1.07106,1.61711,-0.933056,-1.8493,-1.02967,2.0626,1.23957,-1.03107,-1.20699,1.04133,0.261116,0.650916,0.964379,0.905507,-0.8346,-1.20699,1.04133,0.261116,0.650916,0.964379,0.905507,-0.8346,0.401016,-0.520433,0.788187,0.716768,0.0810558,0.114207,0.683104,-0.971203,-0.182933,0.858035,2.41662,-0.429726,0.931887,-3.56051,0.312831,3.3373,-3.47842,0.320178,3.18305,-0.810081,0.737636,0.145054,0.281674,0.685667,0.618532,-0.556532,1
1.5242,-0.848068,-1.83018,-1.00451,2.14169,1.31058,-1.09497,1.54793,-0.870369,-1.83649,-1.00583,2.12135,1.2923,-1.07898,1.60499,-0.922448,-1.84676,-1.0239,2.0725,1.24872,-1.03951,-1.21098,1.06801,0.247421,0.542826,1.00068,0.917114,-0.845463,-1.21098,1.06801,0.247421,0.542826,1.00068,0.917114,-0.845463,0.390673,-0.521694,0.796829,0.725122,0.0718943,0.110264,0.675922,-0.950774,-0.124985,0.83353,2.38255,-0.42661,0.963444,-3.26015,0.298212,3.02031,-3.43624,0.309582,3.04986,-0.807984,0.743801,0.1658,0.193849,0.691837,0.618541,-0.55453,1
1.51204,-0.836847,-1.82546,-1.00843,2.15192,1.31948,-1.10278,1.53606,-0.859255,-1.83374,-1.00421,2.13141,1.3014,-1.08687,1.59291,-0.911614,-1.84445,-1.01929,2.08272,1.25791,-1.04796,-1.20633,1.08721,0.224332,0.435451,1.02563,0.918763,-0.842007,-1.20633,1.08721,0.224332,0.435451,1.02563,0.918763,-0.842007,0.385617,-0.522098,0.80102,0.72911,0.0674032,0.108365,0.672393,-0.937305,-0.0972588,0.818177,2.34831,-0.423522,0.993919,-3.55539,0.320639,3.16449,-3.4508,0.309229,2.98259,-0.808664,0.747667,0.189933,0.108599,0.692024,0.615667,-0.548175,1
1.50002,-0.825453,-1.8217,-1.01603,2.16237,1.32871,-1.11033,1.52411,-0.848055,-1.83002,-1.00552,2.14164,1.3105,-1.09482,1.5809,-0.900667,-1.84232,-1.01547,2.09303,1.26708,-1.05629,-1.19874,1.09614,0.212905,0.369358,1.02923,0.915818,-0.829135,-1.19874,1.09614,0.212905,0.369358,1.02923,0.915818,-0.829135,0.375752,-0.522509,0.809148,0.736719,0.0586013,0.10473,0.665465,-0.907724,-0.0477177,0.787286,2.31379,-0.420225,1.02367,-3.47033,0.331465,2.9905,-3.45602,0.310534,2.90506,-0.80887,0.752135,0.206143,-0.00557189,0.693387,0.616302,-0.540332,1
1.48812,-0.814018,-1.81804,-1.02702,2.17284,1.33792,-1.11742,1.51208,-0.83678,-1.82582,-1.01008,2.15199,1.31959,-1.10263,1.56896,-0.889671,-1.84015,-1.01215,2.10328,1.27622,-1.06449,-1.19382,1.1008,0.222745,0.315523,1.02306,0.913481,-0.816385,-1.19382,1.1008,0.222745,0.315523,1.02306,0.913481,-0.816385,0.361391,-0.522306,0.820925,0.747397,0.0456011,0.0995756,0.655289,-0.876423,0.0142726,0.760451,2.27949,-0.416958,1.05255,-3.40314,0.324069,2.86517,-3.46235,0.316272,2.83091,-0.808388,0.756527,0.221072,-0.148697,0.695627,0.616999,-0.529328,1
1.47659,-0.802623,-1.81172,-1.03785,2.18333,1.34734,-1.12493,1.5001,-0.825429,-1.82163,-1.01752,2.16239,1.32874,-1.11017,1.55703,-0.878628,-1.8377,-1.00965,2.11348,1.28535,-1.07259,-1.19308,1.10585,0.257495,0.211832,1.02046,0.91233,-0.808459,-1.19308,1.10585,0.257495,0.211832,1.02046,0.91233,-0.808459,0.352166,-0.521545,0.828506,0.753949,0.037051,0.0962956,0.64878,-0.865765,0.0353324,0.752367,2.24558,-0.41376,1.08023,-3.30881,0.312107,2.70147,-3.42353,0.317187,2.70973,-0.804374,0.760049,0.259738,-0.281964,0.698483,0.61994,-0.523435,1
1.46529,-0.79097,-1.80693,-1.04752,2.19398,1.35666,-1.1319,1.48828,-0.814014,-1.81715,-1.0271,2.17286,1.33799,-1.11751,1.54509,-0.867527,-1.83479,-1.0087,2.1237,1.29446,-1.08062,-1.19519,1.11188,0.304002,0.0399659,1.0234,0.911326,-0.801373,-1.19519,1.11188,0.304002,0.0399659,1.0234,0.911326,-0.801373,0.343442,-0.520121,0.835716,0.759831,0.028757,0.0931733,0.642766,-0.789727,0.135949,0.695925,2.21102,-0.410908,1.10685,-3.37746,0.278746,2.60106,-3.39379,0.313784,2.5899,-0.797931,0.765567,0.27853,-0.388179,0.702802,0.621989,-0.51275,1
1.45358,-0.779532,-1.80142,-1.05395,2.20418,1.366,-1.13843,1.47667,-0.802542,-1.81208,-1.0372,2.18336,1.34732,-1.12473,1.53312,-0.856361,-1.83145,-1.00983,2.13397,1.30357,-1.08856,-1.19686,1.11836,0.342061,-0.175754,1.02819,0.911594,-0.789727,-1.19686,1.11836,0.342061,-0.175754,1.02819,0.911594,-0.789727,0.335401,-0.517984,0.842394,0.764926,0.0208965,0.0902915,0.637416,-0.721886,0.206006,0.640818,2.17699,-0.407886,1.13258,-3.47957,0.308893,2.63031,-3.43138,0.314227,2.52455,-0.795339,0.768291,0.300303,-0.441178,0.70214,0.624204,-0.498675,1
1.44203,-0.768062,-1.79442,-1.06346,2.21456,1.37526,-1.14581,1.46516,-0.791033,-1.80666,-1.04642,2.19383,1.35666,-1.13175,1.52116,-0.845129,-1.82781,-1.01323,2.14429,1.31271,-1.09635,-1.19436,1.12502,0.372758,-0.401854,1.03335,0.914629,-0.77449,-1.19436,1.12502,0.372758,-0.401854,1.03335,0.914629,-0.77449,0.331664,-0.516661,0.845504,0.767176,0.0171619,0.0889617,0.635005,-0.688245,0.237453,0.612715,2.14259,-0.404877,1.15713,-3.31796,0.290265,2.3686,-3.38884,0.306162,2.39109,-0.791334,0.770673,0.333904,-0.502278,0.702702,0.625547,-0.49465,1
1.43028,-0.756491,-1.78943,-1.07344,2.22486,1.38454,-1.15217,1.4536,-0.779527,-1.80094,-1.05493,2.20421,1.36597,-1.13866,1.50927,-0.833831,-1.82383,-1.01872,2.15466,1.32189,-1.10398,-1.18632,1.13148,0.408187,-0.594638,1.03841,0.919474,-0.75893,-1.18632,1.13148,0.408187,-0.594638,1.03841,0.919474,-0.75893,0.321661,-0.511696,0.853922,0.772735,0.0067393,0.0854,0.628921,-0.577484,0.334235,0.528179,2.10848,-0.401728,1.18085,-3.55289,0.328036,2.47061,-3.40507,0.303888,2.30463,-0.789922,0.773403,0.344079,-0.547163,0.702013,0.626482,-0.48188,1
1.41855,-0.745073,-1.78364,-1.08385,2.23526,1.39386,-1.15875,1.44197,-0.768032,-1.79503,-1.06386,2.21455,1.37527,-1.1455,1.49748,-0.822473,-1.81947,-1.02565,2.16507,1.33112,-1.11146,-1.17611,1.13734,0.44697,-0.715714,1.04176,0.924006,-0.74314,-1.17611,1.13734,0.44697,-0.715714,1.04176,0.924006,-0.74314,0.315776,-0.50772,0.859003,0.775674,0.000222426,0.0832443,0.62562,-0.526335,0.380624,0.495663,2.07418,-0.39862,1.20347,-3.23805,0.29344,2.13555,-3.37727,0.299869,2.1814,-0.789334,0.774002,0.358325,-0.581963,0.701855,0.62745,-0.472913,1
1.40624,-0.733765,-1.77913,-1.09141,2.24533,1.40328,-1.16446,1.43024,-0.756549,-1.78933,-1.07345,2.22487,1.38456,-1.15213,1.48578,-0.811065,-1.81473,-1.03327,2.17549,1.34038,-1.11877,-1.16874,1.14174,0.483779,-0.770844,1.04189,0.926836,-0.727579,-1.16874,1.14174,0.483779,-0.770844,1.04189,0.926836,-0.727579,0.310264,-0.50339,0.863882,0.778235,-0.00616265,0.0811471,0.622678,-0.49464,0.412234,0.479348,2.04061,-0.395559,1.2249,-3.63614,0.33151,2.32119,-3.42928,0.305764,2.12041,-0.795412,0.772996,0.356014,-0.581445,0.698372,0.628926,-0.456866,1
1.39423,-0.72249,-1.7735,-1.09997,2.25571,1.41264,-1.1709,1.41835,-0.745126,-1.784,-1.08287,2.23516,1.3939,-1.15848,1.47412,-0.799626,-1.80965,-1.04122,2.1859,1.34966,-1.12595,-1.16594,1.14446,0.516408,-0.804718,1.03977,0.927986,-0.714106,-1.16594,1.14446,0.516408,-0.804718,1.03977,0.927986,-0.714106,0.307599,-0.501128,0.866277,0.779419,-0.00933657,0.0801056,0.62129,-0.482989,0.42429,0.473711,2.00649,-0.392347,1.2454,-3.31903,0.312496,1.99454,-3.41816,0.310028,2.01515,-0.798877,0.771362,0.361439,-0.587539,0.698162,0.629816,-0.449478,1
1.38238,-0.711131,-1.76779,-1.10947,2.26617,1.42202,-1.17709,1.40632,-0.733779,-1.77878,-1.09167,2.24543,1.40326,-1.16466,1.46245,-0.788169,-1.80431,-1.04955,2.19628,1.35895,-1.133,-1.16688,1.1459,0.537175,-0.845786,1.03744,0.928505,-0.700503,-1.16688,1.1459,0.537175,-0.845786,1.03744,0.928505,-0.700503,0.299981,-0.494006,0.873212,0.782614,-0.0186992,0.0770594,0.617436,-0.446164,0.456464,0.447618,1.97256,-0.389611,1.26492,-3.40149,0.274213,1.95641,-3.40205,0.307092,1.90405,-0.800736,0.770383,0.365204,-0.599145,0.698956,0.630776,-0.440998,1
1.37018,-0.699863,-1.76215,-1.11778,2.27626,1.43144,-1.18262,1.39428,-0.722466,-1.7734,-1.10031,2.25574,1.41265,-1.17081,1.45075,-0.776709,-1.79889,-1.05828,2.20664,1.36824,-1.13988,-1.17173,1.14559,0.541323,-0.880082,1.03515,0.929566,-0.683164,-1.17173,1.14559,0.541323,-0.880082,1.03515,0.929566,-0.683164,0.297572,-0.491541,0.875415,0.783571,-0.0217379,0.0760889,0.616242,-0.434148,0.46475,0.436781,1.93866,-0.386499,1.28363,-3.47909,0.319404,1.92014,-3.43047,0.308823,1.826,-0.805786,0.768459,0.367386,-0.594918,0.696206,0.63208,-0.427438,1
1.35807,-0.688636,-1.75728,-1.12709,2.28666,1.44081,-1.18814,1.38226,-0.711162,-1.76786,-1.10914,2.26606,1.42204,-1.17683,1.43898,-0.765268,-1.79351,-1.06719,2.21697,1.37755,-1.14657,-1.17983,1.14312,0.536532,-0.889173,1.03277,0.931437,-0.664181,-1.17983,1.14312,0.536532,-0.889173,1.03277,0.931437,-0.664181,0.290598,-0.484058,0.881698,0.786259,-0.0306081,0.0733246,0.612767,-0.413827,0.471942,0.407122,1.90471,-0.383267,1.30155,-3.44352,0.327826,1.81762,-3.41244,0.307247,1.71945,-0.80909,0.766325,0.362222,-0.599008,0.696891,0.632682,-0.415616,1
1.34577,-0.677445,-1.75261,-1.13538,2.29682,1.45018,-1.19349,1.37018,-0.699886,-1.76246,-1.11801,2.27634,1.43143,-1.18257,1.42712,-0.753862,-1.78817,-1.07604,2.22729,1.38688,-1.15309,-1.18755,1.13971,0.534509,-0.88329,1.03156,0.933465,-0.648376,-1.18755,1.13971,0.534509,-0.88329,1.03156,0.933465,-0.648376,0.288324,-0.481557,0.883707,0.787124,-0.0335082,0.0724363,0.611609,-0.40977,0.472224,0.399538,1.87052,-0.380083,1.31813,-3.3003,0.30733,1.60064,-3.42644,0.31013,1.63022,-0.813489,0.764167,0.355581,-0.593417,0.695322,0.63301,-0.403904,1
1.33373,-0.666231,-1.7479,-1.14488,2.3073,1.45951,-1.19922,1.35802,-0.688651,-1.7574,-1.12684,2.28661,1.44081,-1.1881,1.41521,-0.742487,-1.7828,-1.08484,2.2376,1.39622,-1.15948,-1.19262,1.13676,0.538609,-0.880485,1.0315,0.935143,-0.634923,-1.19262,1.13676,0.538609,-0.880485,1.0315,0.935143,-0.634923,0.28164,-0.474024,0.889538,0.789639,-0.0420987,0.0698088,0.608132,-0.396106,0.476307,0.380484,1.83595,-0.377207,1.33358,-3.44797,0.286899,1.54031,-3.39248,0.305639,1.5073,-0.814807,0.762559,0.348969,-0.600398,0.696946,0.632866,-0.397376,1
1.32149,-0.655087,-1.74336,-1.15354,2.31752,1.46894,-1.2044,1.34584,-0.677443,-1.75262,-1.13572,2.29691,1.45017,-1.19358,1.40325,-0.731138,-1.77738,-1.09366,2.24792,1.40558,-1.16572,-1.19688,1.13415,0.541265,-0.882078,1.03094,0.936406,-0.618893,-1.19688,1.13415,0.541265,-0.882078,1.03094,0.936406,-0.618893,0.277336,-0.468953,0.893248,0.79122,-0.0477159,0.0680995,0.605852,-0.384164,0.480053,0.366134,1.80205,-0.374368,1.34806,-3.35796,0.281181,1.43465,-3.40615,0.303838,1.41176,-0.817608,0.760506,0.340251,-0.598784,0.69606,0.633575,-0.386761,1
1.30949,-0.643949,-1.73812,-1.16344,2.32804,1.4783,-1.21009,1.33369,-0.666256,-1.74792,-1.14472,2.30724,1.45954,-1.19907,1.39125,-0.719816,-1.772,-1.10249,2.25822,1.41495,-1.17177,-1.202,1.13125,0.53465,-0.882979,1.0298,0.937071,-0.600279,-1.202,1.13125,0.53465,-0.882979,1.0298,0.937071,-0.600279,0.27316,-0.463867,0.896794,0.792729,-0.0532164,0.0664517,0.6036,-0.37282,0.48046,0.34974,1.76818,-0.37138,1.36158,-3.14686,0.277657,1.25671,-3.36368,0.299408,1.28786,-0.817581,0.758677,0.338824,-0.609558,0.698246,0.633419,-0.38317,1
1.29708,-0.632878,-1.73388,-1.17159,2.33808,1.4878,-1.21467,1.32154,-0.655098,-1.74317,-1.15384,2.31759,1.46893,-1.20449,1.37919,-0.708526,-1.76676,-1.11132,2.26851,1.42433,-1.17765,-1.20694,1.12826,0.520151,-0.883815,1.02945,0.937126,-0.583959,-1.20694,1.12826,0.520151,-0.883815,1.02945,0.937126,-0.583959,0.271119,-0.461331,0.898501,0.793465,-0.0559153,0.0656572,0.602474,-0.367253,0.479922,0.341286,1.73449,-0.36826,1.37396,-3.7663,0.348723,1.38329,-3.40456,0.300497,1.2023,-0.82114,0.756482,0.328753,-0.602724,0.695665,0.6347,-0.370122,1
1.28495,-0.621828,-1.72906,-1.18139,2.34857,1.49711,-1.21994,1.30937,-0.643976,-1.73842,-1.16297,2.32791,1.47833,-1.20975,1.36709,-0.697264,-1.76167,-1.12018,2.27881,1.4337,-1.1834,-1.21016,1.12542,0.504891,-0.887302,1.03022,0.936993,-0.572247,-1.21016,1.12542,0.504891,-0.887302,1.03022,0.936993,-0.572247,0.267134,-0.456284,0.901768,0.794919,-0.0611922,0.064134,0.600205,-0.355651,0.476861,0.322598,1.70132,-0.365107,1.38534,-3.24983,0.308888,1.11547,-3.37062,0.297862,1.08744,-0.821416,0.754369,0.326132,-0.612117,0.697616,0.634121,-0.365425,1
1.27258,-0.610859,-1.72543,-1.19023,2.35877,1.50654,-1.2243,1.29714,-0.632895,-1.7338,-1.17204,2.3382,1.48774,-1.2148,1.35498,-0.68603,-1.75671,-1.1291,2.28912,1.44307,-1.18906,-1.2118,1.12269,0.494258,-0.893777,1.03147,0.937311,-0.563189,-1.2118,1.12269,0.494258,-0.893777,1.03147,0.937311,-0.563189,0.261437,-0.448756,0.90631,0.797041,-0.0688095,0.0619955,0.596781,-0.334714,0.474931,0.29448,1.66753,-0.362359,1.39583,-3.4354,0.279484,1.06611,-3.38505,0.298782,0.997526,-0.823964,0.751715,0.312721,-0.611288,0.696448,0.634755,-0.35238,1
1.26036,-0.599921,-1.72087,-1.19974,2.36919,1.51592,-1.22917,1.28489,-0.621861,-1.72941,-1.18118,2.3485,1.49714,-1.21967,1.34285,-0.674824,-1.75181,-1.13808,2.29944,1.45245,-1.19462,-1.21324,1.11978,0.487951,-0.899913,1.03205,0.938139,-0.553333,-1.21324,1.11978,0.487951,-0.899913,1.03205,0.938139,-0.553333,0.257835,-0.443746,0.90911,0.798404,-0.0737044,0.0606508,0.594509,-0.320517,0.474708,0.277151,1.63375,-0.359177,1.40562,-3.29346,0.310213,0.954213,-3.36035,0.300847,0.895917,-0.824897,0.749029,0.309439,-0.616555,0.697466,0.634793,-0.345495,1
1.2481,-0.588881,-1.71615,-1.2091,2.37944,1.52522,-1.23404,1.27262,-0.610869,-1.72515,-1.19041,2.35882,1.50652,-1.22443,1.3307,-0.66365,-1.74698,-1.14711,2.30976,1.46183,-1.20007,-1.21552,1.11655,0.481327,-0.90314,1.03156,0.939,-0.54063,-1.21552,1.11655,0.481327,-0.90314,1.03156,0.939,-0.54063,0.256091,-0.441244,0.910446,0.799068,-0.0761026,0.0600003,0.593379,-0.313644,0.474606,0.268987,1.60038,-0.355888,1.41456,-3.31157,0.326361,0.887736,-3.35543,0.305814,0.803634,-0.826037,0.747689,0.308318,-0.619915,0.696842,0.633864,-0.339771,1
1.23563,-0.577639,-1.71333,-1.21691,2.38923,1.53446,-1.23753,1.26034,-0.599872,-1.72087,-1.19963,2.36911,1.51588,-1.22912,1.31853,-0.65251,-1.74223,-1.15616,2.32007,1.47123,-1.20537,-1.21837,1.11291,0.47069,-0.905665,1.03097,0.939395,-0.525716,-1.21837,1.11291,0.47069,-0.905665,1.03097,0.939395,-0.525716,0.25106,-0.433785,0.914199,0.801009,-0.0830907,0.0581487,0.589999,-0.295368,0.469692,0.24332,1.56647,-0.35279,1.42257,-3.62165,0.330883,0.85492,-3.43571,0.315643,0.738572,-0.828964,0.748716,0.289014,-0.607531,0.691598,0.632354,-0.32165,1
1.22351,-0.566776,-1.70813,-1.22744,2.39974,1.54389,-1.24281,1.24804,-0.588823,-1.7167,-1.20868,2.3793,1.52521,-1.23364,1.30633,-0.64141,-1.73762,-1.16524,2.33038,1.48062,-1.21051,-1.22095,1.10901,0.457973,-0.91005,1.03104,0.9393,-0.510991,-1.22095,1.10901,0.457973,-0.91005,1.03104,0.9393,-0.510991,0.249451,-0.431322,0.91536,0.801642,-0.0853453,0.0575672,0.588874,-0.289236,0.467659,0.23466,1.53291,-0.349808,1.42891,-3.36944,0.299383,0.637157,-3.37975,0.310347,0.626215,-0.828161,0.746341,0.294878,-0.621949,0.693642,0.632693,-0.322936,1
1.21124,-0.55578,-1.70412,-1.23712,2.40982,1.55312,-1.24694,1.23574,-0.57776,-1.71263,-1.21778,2.38944,1.53452,-1.23804,1.2941,-0.630344,-1.73312,-1.17438,2.34069,1.49001,-1.21553,-1.22304,1.10588,0.447815,-0.914152,1.03079,0.938614,-0.498048,-1.22304,1.10588,0.447815,-0.914152,1.03079,0.938614,-0.498048,0.24484,-0.424007,0.918571,0.803502,-0.0918657,0.0559303,0.585506,-0.270061,0.4611,0.208132,1.49942,-0.346855,1.4342,-3.27115,0.288415,0.516243,-3.38028,0.309406,0.523992,-0.828657,0.745642,0.289995,-0.627398,0.691296,0.631143,-0.314102,1
1.19907,-0.544931,-1.69948,-1.24738,2.42018,1.56247,-1.25145,1.22348,-0.566759,-1.70839,-1.22733,2.39964,1.54383,-1.24251,1.28186,-0.619297,-1.7287,-1.18352,2.35098,1.49938,-1.22042,-1.22502,1.1048,0.439168,-0.913634,1.0284,0.937051,-0.485265,-1.22502,1.1048,0.439168,-0.913634,1.0284,0.937051,-0.485265,0.241939,-0.419179,0.920513,0.804716,-0.0960403,0.054929,0.583259,-0.263695,0.459555,0.200316,1.46556,-0.343887,1.43885,-3.29803,0.289071,0.453508,-3.35544,0.306807,0.414474,-0.827899,0.743657,0.292215,-0.638568,0.691995,0.630844,-0.310304,1
1.18677,-0.533947,-1.69556,-1.25683,2.43021,1.57172,-1.25521,1.21126,-0.555818,-1.704,-1.23723,2.40988,1.55315,-1.24696,1.26959,-0.608247,-1.72438,-1.19264,2.36124,1.50874,-1.22517,-1.22673,1.1051,0.430026,-0.911725,1.02449,0.935221,-0.47227,-1.22673,1.1051,0.430026,-0.911725,1.02449,0.935221,-0.47227,0.239168,-0.414384,0.922318,0.805919,-0.100099,0.0540145,0.580997,-0.252279,0.456367,0.18703,1.4319,-0.340962,1.44287,-3.33631,0.289938,0.39838,-3.36553,0.302103,0.314314,-0.828197,0.743004,0.288215,-0.641858,0.689767,0.629836,-0.300357,1
1.17446,-0.522979,-1.69186,-1.26622,2.44021,1.58099,-1.25885,1.19903,-0.544891,-1.69972,-1.24711,2.42007,1.56244,-1.25118,1.25732,-0.597199,-1.72012,-1.20179,2.37146,1.51808,-1.22982,-1.2271,1.10437,0.425565,-0.919254,1.02211,0.934006,-0.463019,-1.2271,1.10437,0.425565,-0.919254,1.02211,0.934006,-0.463019,0.237834,-0.411998,0.923168,0.806515,-0.102084,0.0535909,0.579862,-0.239927,0.453396,0.173108,1.39844,-0.33767,1.44564,-3.39296,0.333881,0.280583,-3.37788,0.301941,0.215451,-0.828637,0.742206,0.28258,-0.644292,0.687454,0.629115,-0.290318,1
1.16228,-0.512257,-1.68791,-1.27658,2.45047,1.59017,-1.26249,1.18677,-0.53396,-1.69567,-1.25682,2.4302,1.57172,-1.25512,1.24506,-0.586172,-1.71586,-1.21111,2.38168,1.52742,-1.23441,-1.22606,1.10188,0.427709,-0.937427,1.02203,0.933198,-0.457347,-1.22606,1.10188,0.427709,-0.937427,1.02203,0.933198,-0.457347,0.234113,-0.404853,0.925449,0.808235,-0.107796,0.0524169,0.576532,-0.223137,0.45286,0.155745,1.3649,-0.334521,1.44712,-3.40058,0.31919,0.150168,-3.34573,0.302074,0.111636,-0.827728,0.73915,0.279458,-0.65471,0.687921,0.627571,-0.280842,1
1.15013,-0.501589,-1.68429,-1.28691,2.46068,1.59927,-1.26525,1.17451,-0.523076,-1.6918,-1.26658,2.4403,1.58096,-1.25879,1.23281,-0.575175,-1.71156,-1.22062,2.3919,1.53674,-1.23893,-1.22495,1.09902,0.429349,-0.954349,1.02177,0.932207,-0.4491,-1.22495,1.09902,0.429349,-0.954349,1.02177,0.932207,-0.4491,0.231873,-0.400104,0.92674,0.809315,-0.11139,0.0517036,0.574394,-0.19615,0.452083,0.127793,1.33175,-0.331887,1.44799,-3.26507,0.2595,0.0859138,-3.32973,0.299963,0.0184863,-0.826786,0.735858,0.272718,-0.662937,0.687751,0.625277,-0.263162,1
1.13792,-0.490987,-1.68128,-1.29701,2.47085,1.60829,-1.26753,1.1623,-0.512297,-1.68806,-1.27662,2.45046,1.59013,-1.26213,1.22056,-0.5642,-1.70729,-1.23023,2.40211,1.54606,-1.24333,-1.22486,1.09701,0.42478,-0.96228,1.0197,0.93097,-0.435023,-1.22486,1.09701,0.42478,-0.96228,1.0197,0.93097,-0.435023,0.229797,-0.39539,0.927863,0.810356,-0.114829,0.0510571,0.572302,-0.182049,0.448276,0.11153,1.29826,-0.328728,1.44786,-3.31374,0.312493,-0.0133031,-3.33147,0.30123,-0.0744633,-0.826381,0.732132,0.260114,-0.66785,0.687416,0.622335,-0.242046,1
1.12566,-0.480369,-1.67905,-1.30702,2.48088,1.61723,-1.26974,1.15011,-0.501616,-1.68459,-1.28682,2.46065,1.59923,-1.26501,1.20831,-0.553244,-1.70311,-1.23988,2.41228,1.55535,-1.24755,-1.22513,1.09486,0.415051,-0.966086,1.01696,0.929154,-0.416544,-1.22513,1.09486,0.415051,-0.966086,1.01696,0.929154,-0.416544,0.228812,-0.393054,0.928368,0.810869,-0.116496,0.0507631,0.571265,-0.17583,0.445776,0.104024,1.26504,-0.325512,1.44651,-3.37203,0.326476,-0.136726,-3.34538,0.305298,-0.173775,-0.826465,0.728747,0.240645,-0.671447,0.685987,0.618766,-0.221961,1
1.11345,-0.469885,-1.67821,-1.31742,2.49086,1.62605,-1.27147,1.1379,-0.490993,-1.6817,-1.29699,2.47079,1.60825,-1.26744,1.19606,-0.542321,-1.69904,-1.24959,2.42244,1.56463,-1.25156,-1.22452,1.09082,0.403535,-0.974407,1.01587,0.926253,-0.394276,-1.22452,1.09082,0.403535,-0.974407,1.01587,0.926253,-0.394276,0.226063,-0.386167,0.929626,0.812368,-0.121244,0.0500044,0.568206,-0.156846,0.434135,0.0777234,1.2318,-0.322932,1.44408,-3.33467,0.258832,-0.244492,-3.34578,0.301699,-0.278186,-0.826092,0.724365,0.208279,-0.678288,0.684219,0.614243,-0.19916,1
1.1012,-0.45945,-1.67919,-1.32775,2.50073,1.63495,-1.27249,1.12567,-0.480421,-1.67973,-1.30716,2.48085,1.61718,-1.26951,1.18382,-0.531455,-1.69511,-1.25942,2.4326,1.57386,-1.2553,-1.22306,1.08477,0.388946,-0.987054,1.01642,0.921996,-0.366083,-1.22306,1.08477,0.388946,-0.987054,1.01642,0.921996,-0.366083,0.224417,-0.3817,0.930228,0.813318,-0.124152,0.0495938,0.566251,-0.143666,0.424003,0.0575936,1.19862,-0.319936,1.44084,-3.50241,0.316355,-0.342069,-3.36265,0.298468,-0.379303,-0.826194,0.720048,0.159131,-0.683284,0.681283,0.610865,-0.171859,1
1.08898,-0.449053,-1.68216,-1.33822,2.5105,1.64361,-1.27347,1.11344,-0.469914,-1.6791,-1.31743,2.49081,1.62606,-1.27117,1.1716,-0.520655,-1.69138,-1.26938,2.44277,1.58304,-1.25872,-1.22201,1.0782,0.364608,-0.997412,1.0163,0.916502,-0.332236,-1.22201,1.0782,0.364608,-0.997412,1.0163,0.916502,-0.332236,0.222909,-0.377371,0.930622,0.814234,-0.126821,0.0492718,0.564369,-0.13263,0.409911,0.036622,1.16514,-0.316782,1.43674,-3.46362,0.326183,-0.423634,-3.37246,0.300038,-0.478205,-0.826234,0.716017,0.0921882,-0.688427,0.67736,0.605683,-0.147444,1
1.07688,-0.439105,-1.68603,-1.34926,2.51987,1.65235,-1.27338,1.10122,-0.459495,-1.68011,-1.32783,2.50066,1.63487,-1.27236,1.15938,-0.509918,-1.68801,-1.2794,2.45292,1.59216,-1.26179,-1.22192,1.07203,0.3229,-1.00388,1.01399,0.910158,-0.296315,-1.22192,1.07203,0.3229,-1.00388,1.01399,0.910158,-0.296315,0.221511,-0.373235,0.930803,0.815158,-0.129232,0.049073,0.562502,-0.124948,0.389995,0.014347,1.13164,-0.314181,1.4314,-3.17176,0.246251,-0.505343,-3.35289,0.296791,-0.579196,-0.825064,0.708128,0.0197765,-0.698549,0.66954,0.601914,-0.11596,1
1.06477,-0.429373,-1.69107,-1.36017,2.52881,1.66125,-1.27221,1.08903,-0.449237,-1.6827,-1.33843,2.51032,1.64363,-1.273,1.14716,-0.499241,-1.68522,-1.28948,2.46303,1.60121,-1.26448,-1.22228,1.06596,0.256974,-1.01002,1.00957,0.903548,-0.259412,-1.22228,1.06596,0.256974,-1.01002,1.00957,0.903548,-0.259412,0.220846,-0.371254,0.930809,0.81564,-0.130336,0.0490304,0.561552,-0.120637,0.362388,-0.0113924,1.09819,-0.311123,1.42505,-3.24032,0.296293,-0.615686,-3.34322,0.292295,-0.679539,-0.823903,0.69868,-0.058511,-0.706822,0.657833,0.600336,-0.077272,1
1.05269,-0.419973,-1.69595,-1.37113,2.53756,1.67009,-1.27016,1.07688,-0.439235,-1.68652,-1.34925,2.51967,1.65241,-1.27285,1.13494,-0.488628,-1.6833,-1.29964,2.47308,1.6102,-1.2668,-1.22243,1.05932,0.163405,-1.01808,1.00321,0.897064,-0.220118,-1.22243,1.05932,0.163405,-1.01808,1.00321,0.897064,-0.220118,0.218937,-0.365839,0.930395,0.817284,-0.133107,0.049243,0.558484,-0.12,0.325955,-0.0417738,1.06546,-0.308071,1.41748,-3.25301,0.303314,-0.752508,-3.32899,0.291519,-0.780288,-0.82249,0.686547,-0.126551,-0.714904,0.644824,0.598872,-0.0335801,1
1.04048,-0.410627,-1.7034,-1.38181,2.54616,1.67878,-1.26679,1.06477,-0.429514,-1.69124,-1.36016,2.5287,1.66123,-1.27173,1.12271,-0.478094,-1.68248,-1.3099,2.48305,1.61913,-1.26869,-1.22182,1.05065,0.047746,-1.029,0.993722,0.890991,-0.176739,-1.22182,1.05065,0.047746,-1.029,0.993722,0.890991,-0.176739,0.217704,-0.362754,0.929717,0.818605,-0.134452,0.049711,0.556181,-0.122999,0.28198,-0.0762305,1.0326,-0.304835,1.40949,-3.33106,0.328023,-0.809277,-3.32727,0.299104,-0.879622,-0.822325,0.674671,-0.209158,-0.719188,0.631068,0.596501,0.0189874,1
1.02847,-0.401799,-1.70992,-1.39322,2.55435,1.68739,-1.26197,1.05265,-0.420046,-1.69685,-1.37107,2.53747,1.67002,-1.26952,1.11051,-0.467674,-1.6829,-1.32028,2.49289,1.628,-1.2701,-1.22003,1.03782,-0.0756444,-1.04308,0.978994,0.886439,-0.125262,-1.22003,1.03782,-0.0756444,-1.04308,0.978994,0.886439,-0.125262,0.216469,-0.360157,0.928683,0.820129,-0.135354,0.0504724,0.553643,-0.12513,0.260584,-0.0927113,0.999271,-0.301531,1.40038,-3.23918,0.321143,-0.885825,-3.27703,0.300508,-0.969272,-0.820421,0.658749,-0.270203,-0.729335,0.614638,0.593825,0.0812836,1
1.01627,-0.393137,-1.71946,-1.40451,2.56216,1.69565,-1.26039,1.04053,-0.410835,-1.7034,-1.38206,2.54597,1.67872,-1.26637,1.09832,-0.457417,-1.68452,-1.33082,2.50254,1.63685,-1.2709,-1.21756,1.02031,-0.19313,-1.0575,0.958756,0.884276,-0.0614408,-1.21756,1.02031,-0.19313,-1.0575,0.958756,0.884276,-0.0614408,0.215204,-0.358054,0.92729,0.821817,-0.135828,0.051521,0.55092,-0.132356,0.212205,-0.129702,0.966296,-0.299148,1.39047,-3.40697,0.246213,-1.02355,-3.26781,0.297895,-1.063,-0.820521,0.6428,-0.349387,-0.736871,0.596253,0.58805,0.105185,1
1.00408,-0.385463,-1.73271,-1.41622,2.56917,1.70322,-1.26396,1.02841,-0.401955,-1.71122,-1.39325,2.55413,1.68721,-1.26341,1.08616,-0.44736,-1.68724,-1.34148,2.51196,1.64568,-1.27098,-1.21555,0.999811,-0.301173,-1.06863,0.935522,0.883043,0.015583,-1.21555,0.999811,-0.301173,-1.06863,0.935522,0.883043,0.015583,0.213874,-0.356428,0.925566,0.823614,-0.135914,0.0528323,0.548084,-0.142492,0.16562,-0.164176,0.933548,-0.295607,1.37952,-3.17214,0.342963,-1.0607,-3.27141,0.305153,-1.15619,-0.820845,0.618968,-0.454668,-0.747331,0.572136,0.575346,0.0701907,1
0.991898,-0.378607,-1.74589,-1.42802,2.57566,1.71034,-1.2692,1.01626,-0.393569,-1.72103,-1.40466,2.56181,1.69534,-1.26263,1.07402,-0.43752,-1.691,-1.35223,2.52114,1.6545,-1.27021,-1.21438,0.977723,-0.403803,-1.07746,0.911367,0.880087,0.10043,-1.21438,0.977723,-0.403803,-1.07746,0.911367,0.880087,0.10043,0.213174,-0.355784,0.924593,0.824541,-0.135827,0.0535759,0.546638,-0.156118,0.120702,-0.194954,0.900293,-0.292493,1.36761,-3.39609,0.317998,-1.21654,-3.29882,0.308892,-1.2543,-0.821204,0.589139,-0.548829,-0.757812,0.545247,0.558424,0.0100845,1
0.979653,-0.371756,-1.75586,-1.43938,2.58121,1.71837,-1.26927,1.00408,-0.385832,-1.73271,-1.41625,2.56887,1.70307,-1.26458,1.06188,-0.427918,-1.6958,-1.36308,2.53007,1.66325,-1.26867,-1.21367,0.953064,-0.509776,-1.08809,0.885055,0.872901,0.167602,-1.21367,0.953064,-0.509776,-1.08809,0.885055,0.872901,0.167602,0.210877,-0.354577,0.921227,0.827453,-0.134991,0.0561621,0.542167,-0.1829,0.0498743,-0.241058,0.867158,-0.289589,1.3543,-3.30524,0.289711,-1.32757,-3.30588,0.307469,-1.35101,-0.822277,0.561622,-0.600641,-0.76294,0.511416,0.55118,-0.00591602,1
0.967531,-0.36481,-1.76295,-1.45064,2.58593,1.72715,-1.26181,0.991882,-0.378654,-1.7445,-1.42785,2.57522,1.7107,-1.26689,1.04974,-0.418599,-1.70177,-1.37406,2.5387,1.67189,-1.26687,-1.21369,0.922667,-0.635675,-1.10237,0.853459,0.858561,0.170437,-1.21369,0.922667,-0.635675,-1.10237,0.853459,0.858561,0.170437,0.20914,-0.354424,0.918589,0.829695,-0.133908,0.0581543,0.538789,-0.206996,-0.00467146,-0.275307,0.834398,-0.287178,1.34025,-3.39835,0.250045,-1.45722,-3.31687,0.299497,-1.45749,-0.822144,0.537886,-0.611803,-0.76578,0.472315,0.552667,0.0506328,1
0.95534,-0.357242,-1.76943,-1.46185,2.59048,1.73635,-1.25185,0.979691,-0.371682,-1.75454,-1.43931,2.58083,1.71873,-1.26596,1.0376,-0.409646,-1.70918,-1.3852,2.54695,1.68032,-1.26565,-1.2147,0.883204,-0.783427,-1.1184,0.814001,0.8362,0.0904775,-1.2147,0.883204,-0.783427,-1.1184,0.814001,0.8362,0.0904775,0.207159,-0.354921,0.915582,0.832507,-0.132311,0.0603386,0.534589,-0.239286,-0.0688121,-0.313758,0.801493,-0.284218,1.32562,-3.08149,0.27727,-1.37056,-3.29073,0.291816,-1.54693,-0.822619,0.524038,-0.602444,-0.766547,0.435257,0.560299,0.137928,1
0.942965,-0.351242,-1.77788,-1.47334,2.59224,1.74518,-1.24664,0.967501,-0.364669,-1.76267,-1.45063,2.58564,1.72733,-1.2607,1.02544,-0.401144,-1.71801,-1.39649,2.55475,1.68851,-1.26551,-1.21615,0.836977,-0.912179,-1.13193,0.765679,0.813545,-0.0102799,-1.21615,0.836977,-0.912179,-1.13193,0.765679,0.813545,-0.0102799,0.204878,-0.356085,0.912208,0.836013,-0.130208,0.0626704,0.52934,-0.274569,-0.127987,-0.348728,0.768895,-0.281229,1.30966,-3.33789,0.305984,-1.63369,-3.28128,0.291223,-1.6435,-0.824796,0.499023,-0.598736,-0.76854,0.374832,0.566669,0.188699,1
0.930664,-0.347784,-1.78934,-1.48515,2.58951,1.75323,-1.2442,0.955271,-0.35795,-1.77032,-1.46197,2.58914,1.73619,-1.25365,1.01328,-0.393098,-1.72765,-1.40787,2.56201,1.69655,-1.26588,-1.21724,0.793963,-0.968411,-1.13864,0.709173,0.804299,-0.0243509,-1.21724,0.793963,-0.968411,-1.13864,0.709173,0.804299,-0.0243509,0.202324,-0.357697,0.908575,0.83989,-0.127791,0.0651064,0.523465,-0.301825,-0.160622,-0.369831,0.736099,-0.277124,1.29241,-3.32953,0.416757,-1.75106,-3.30228,0.298906,-1.75566,-0.826115,0.453137,-0.616895,-0.772876,0.274972,0.566722,0.216832,1
0.91851,-0.347099,-1.80245,-1.4971,2.58209,1.76098,-1.24232,0.942991,-0.352466,-1.77924,-1.47349,2.59009,1.74484,-1.24801,1.0011,-0.385402,-1.73725,-1.41926,2.56865,1.70465,-1.26543,-1.21785,0.762815,-0.945417,-1.13857,0.645738,0.81424,0.092944,-1.21785,0.762815,-0.945417,-1.13857,0.645738,0.81424,0.092944,0.199604,-0.3594,0.904846,0.843545,-0.125347,0.0676512,0.517825,-0.315062,-0.161262,-0.375253,0.703172,-0.274428,1.27476,-3.32854,0.272532,-1.78441,-3.29021,0.304583,-1.8499,-0.825883,0.383027,-0.651952,-0.778392,0.134382,0.563332,0.231083,1
0.906506,-0.35348,-1.81627,-1.50897,2.56285,1.76833,-1.24141,0.930733,-0.349424,-1.79019,-1.48522,2.58673,1.75304,-1.24464,0.988913,-0.377957,-1.74633,-1.43063,2.57457,1.71293,-1.26323,-1.21895,0.737207,-0.89303,-1.13685,0.56773,0.833942,0.268276,-1.21895,0.737207,-0.89303,-1.13685,0.56773,0.833942,0.268276,0.196815,-0.360966,0.901111,0.846606,-0.123051,0.0703693,0.512997,-0.320518,-0.148419,-0.375498,0.67012,-0.271172,1.25601,-3.22651,0.317849,-1.83051,-3.27816,0.313358,-1.93754,-0.824071,0.244776,-0.699434,-0.783387,-0.117198,0.553995,0.218235,1
0.894842,-0.378851,-1.82854,-1.52068,2.539,1.77636,-1.23576,0.918597,-0.351109,-1.80272,-1.49707,2.57707,1.76085,-1.24242,0.976709,-0.370864,-1.75504,-1.44201,2.57946,1.72138,-1.25956,-1.22121,0.693282,-0.873835,-1.13913,0.449706,0.847344,0.386666,-1.22121,0.693282,-0.873835,-1.13913,0.449706,0.847344,0.386666,0.19395,-0.362457,0.897311,0.849183,-0.120856,0.0733795,0.50882,-0.332114,-0.149901,-0.386159,0.637332,-0.269193,1.2356,-3.37231,0.203544,-2.09947,-3.27618,0.30938,-2.03869,-0.81867,-0.079871,-0.734986,-0.786708,-0.404621,0.549802,0.237985,1
0.884099,-0.398025,-1.83729,-1.53254,2.52349,1.78549,-1.21746,0.906701,-0.360655,-1.81551,-1.50891,2.5609,1.76863,-1.2389,0.964482,-0.364523,-1.76401,-1.45345,2.58266,1.72986,-1.25545,-1.22307,0.60125,-0.916694,-1.14712,0.254642,0.845045,0.403912,-1.22307,0.60125,-0.916694,-1.14712,0.254642,0.845045,0.403912,0.190894,-0.364175,0.893251,0.851677,-0.118553,0.0768623,0.504662,-0.360724,-0.183038,-0.41801,0.605066,-0.265912,1.21472,-3.25321,0.330873,-2.10543,-3.31346,0.306465,-2.16613,-0.803829,-0.335015,-0.732771,-0.790922,-0.591717,0.556345,0.379854,1
0.875946,-0.416429,-1.84849,-1.54606,2.51814,1.79236,-1.20849,0.895371,-0.377666,-1.82728,-1.52083,2.54247,1.77667,-1.2313,0.952256,-0.359698,-1.77378,-1.465,2.58313,1.73821,-1.25168,-1.22176,0.417642,-1.00424,-1.15782,-0.0541626,0.829696,0.36098,-1.22176,0.417642,-1.00424,-1.15782,-0.0541626,0.829696,0.36098,0.187457,-0.366507,0.888675,0.854388,-0.115903,0.0810153,0.500023,-0.378679,-0.204566,-0.437198,0.572528,-0.263126,1.1929,-3.11468,0.26665,-2.0882,-3.27101,0.292393,-2.24348,-0.763099,-0.567314,-0.747141,-0.810588,-0.649819,0.541536,0.431922,1
0.868568,-0.423833,-1.85694,-1.55857,2.51595,1.80342,-1.20093,0.885176,-0.396661,-1.83782,-1.53311,2.52802,1.78498,-1.22026,0.940081,-0.357732,-1.78448,-1.47664,2.57966,1.74638,-1.24831,-1.21474,0.0818954,-1.09099,-1.16668,-0.472787,0.813039,0.338719,-1.21474,0.0818954,-1.09099,-1.16668,-0.472787,0.813039,0.338719,0.183334,-0.369921,0.883272,0.85733,-0.112672,0.0858173,0.4949,-0.444662,-0.295253,-0.510052,0.540598,-0.259797,1.17018,-3.2128,0.334977,-2.28641,-3.25137,0.2844,-2.33636,-0.715131,-0.661012,-0.724585,-0.819259,-0.637113,0.570425,0.473779,1
0.856305,-0.432787,-1.86553,-1.57059,2.51674,1.8134,-1.2003,0.876093,-0.412353,-1.84762,-1.54575,2.52015,1.79373,-1.21004,0.928049,-0.360237,-1.79578,-1.48836,2.57181,1.75444,-1.24452,-1.19614,-0.395125,-1.13433,-1.17378,-0.890987,0.806232,0.416999,-1.19614,-0.395125,-1.13433,-1.17378,-0.890987,0.806232,0.416999,0.178128,-0.374881,0.876748,0.860224,-0.108625,0.0907352,0.489881,-0.621014,-0.526727,-0.687462,0.507895,-0.256531,1.14672,-3.28715,0.328269,-2.35784,-3.23706,0.293609,-2.4297,-0.71744,-0.725502,-0.697481,-0.822304,-0.550729,0.589605,0.442172,1
0.843611,-0.443281,-1.87663,-1.5817,2.51061,1.82103,-1.20519,0.866758,-0.423823,-1.85698,-1.55827,2.51683,1.80313,-1.20396,0.916352,-0.367705,-1.80712,-1.50018,2.56083,1.76252,-1.23916,-1.15473,-0.86163,-1.12602,-1.18622,-1.13276,0.810321,0.592517,-1.15473,-0.86163,-1.12602,-1.18622,-1.13276,0.810321,0.592517,0.17169,-0.381418,0.869065,0.862682,-0.103643,0.0948756,0.485835,-0.731939,-0.65739,-0.799667,0.475383,-0.254129,1.12158,-3.3631,0.248509,-2.60089,-3.26071,0.296663,-2.54767,-0.727408,-0.755761,-0.695088,-0.815249,-0.502143,0.585039,0.339761,1
0.831594,-0.455847,-1.88829,-1.59285,2.49951,1.82907,-1.20779,0.85588,-0.433591,-1.86651,-1.57022,2.51402,1.81248,-1.20266,0.905251,-0.378673,-1.81813,-1.51218,2.5493,1.77072,-1.232,-1.08998,-1.14391,-1.08893,-1.2066,-1.11649,0.824972,0.746372,-1.08998,-1.14391,-1.08893,-1.2066,-1.11649,0.824972,0.746372,0.164363,-0.388907,0.86056,0.864556,-0.0978962,0.0975629,0.483157,-0.79339,-0.714271,-0.870836,0.442988,-0.250902,1.09572,-3.28679,0.327327,-2.62384,-3.25155,0.304831,-2.63768,-0.736565,-0.771734,-0.701619,-0.806644,-0.497881,0.583476,0.242144,1
0.820634,-0.469087,-1.9001,-1.60461,2.48913,1.83607,-1.20682,0.843904,-0.444196,-1.877,-1.5817,2.50836,1.82097,-1.20445,0.894792,-0.390816,-1.8287,-1.52438,2.53939,1.77916,-1.22421,-1.03466,-1.20757,-1.045,-1.22329,-0.925271,0.853368,0.762072,-1.03466,-1.20757,-1.045,-1.22329,-0.925271,0.853368,0.762072,0.160534,-0.392747,0.85615,0.865323,-0.0948612,0.0983121,0.482236,-0.808369,-0.719835,-0.892329,0.411052,-0.247899,1.0688,-3.05411,0.287207,-2.57405,-3.22006,0.29898,-2.71848,-0.741582,-0.782706,-0.713968,-0.802318,-0.502606,0.569129,0.173875,1
0.810297,-0.481372,-1.91169,-1.61677,2.47899,1.84279,-1.20518,0.832072,-0.456169,-1.88836,-1.59311,2.49948,1.82869,-1.20627,0.884564,-0.402583,-1.83889,-1.53664,2.5317,1.78791,-1.21742,-1.02926,-1.15674,-1.01217,-1.22242,-0.720391,0.881047,0.62458,-1.02926,-1.15674,-1.01217,-1.22242,-0.720391,0.881047,0.62458,0.148866,-0.403635,0.84304,0.867766,-0.0859588,0.0986272,0.479443,-0.813546,-0.648855,-0.877575,0.378874,-0.244707,1.04126,-3.22655,0.320124,-2.76183,-3.24064,0.303244,-2.83782,-0.742664,-0.787884,-0.728044,-0.801315,-0.527096,0.548835,0.122422,1
0.799593,-0.492973,-1.92222,-1.62898,2.47313,1.84847,-1.20531,0.820911,-0.468728,-1.89996,-1.6048,2.48953,1.83583,-1.20646,0.874022,-0.413767,-1.84894,-1.54875,2.52536,1.79678,-1.21272,-1.06845,-1.11259,-1.01016,-1.20485,-0.627278,0.883238,0.405532,-1.06845,-1.11259,-1.01016,-1.20485,-0.627278,0.883238,0.405532,0.140828,-0.410375,0.834477,0.869985,-0.0803044,0.0979136,0.47654,-0.819305,-0.625102,-0.868908,0.346972,-0.241788,1.01263,-3.19474,0.292291,-2.86696,-3.23195,0.300225,-2.93479,-0.744288,-0.792061,-0.732764,-0.802316,-0.522222,0.516919,0.0740884,1
0.787888,-0.504405,-1.93252,-1.64063,2.46923,1.85502,-1.21152,0.810136,-0.481045,-1.91126,-1.61678,2.48073,1.84244,-1.20618,0.86302,-0.424884,-1.85922,-1.56065,2.51895,1.80545,-1.21016,-1.10842,-1.12021,-1.03877,-1.18475,-0.665387,0.857949,0.212383,-1.10842,-1.12021,-1.03877,-1.18475,-0.665387,0.857949,0.212383,0.132465,-0.416914,0.825891,0.872805,-0.0746808,0.0970886,0.472448,-0.868999,-0.595446,-0.873932,0.314837,-0.238916,0.983212,-3.25022,0.290426,-2.97516,-3.22404,0.299875,-3.03252,-0.751319,-0.79521,-0.732986,-0.799869,-0.497223,0.495624,-0.0136325,1
0.775404,-0.516076,-1.94324,-1.65204,2.46699,1.86133,-1.21897,0.799146,-0.492882,-1.92209,-1.62876,2.47424,1.84872,-1.20778,0.851805,-0.436337,-1.86988,-1.57241,2.51163,1.81376,-1.20889,-1.12091,-1.15624,-1.07508,-1.17548,-0.758145,0.819158,0.112011,-1.12091,-1.15624,-1.07508,-1.17548,-0.758145,0.819158,0.112011,0.128178,-0.420141,0.821534,0.874363,-0.0718152,0.0967362,0.470078,-0.88333,-0.588115,-0.881983,0.282617,-0.235863,0.952928,-3.16374,0.299827,-2.97358,-3.19133,0.301421,-3.09518,-0.764016,-0.797397,-0.73354,-0.796356,-0.4464,0.475687,-0.100815,1
0.763455,-0.528271,-1.95418,-1.66336,2.46306,1.86734,-1.22754,0.787567,-0.504517,-1.93268,-1.6405,2.46987,1.85496,-1.21243,0.840643,-0.448132,-1.88082,-1.58417,2.50355,1.82164,-1.20806,-1.11231,-1.18469,-1.09763,-1.17863,-0.815411,0.774852,0.0772596,-1.11231,-1.18469,-1.09763,-1.17863,-0.815411,0.774852,0.0772596,0.11951,-0.426495,0.81263,0.877518,-0.0658554,0.0961768,0.465162,-0.897648,-0.571968,-0.906246,0.25067,-0.23299,0.921152,-3.16285,0.284462,-3.14604,-3.17557,0.295681,-3.17713,-0.771885,-0.80139,-0.733536,-0.791859,-0.404852,0.45704,-0.19477,1
0.752075,-0.540451,-1.96561,-1.67497,2.45769,1.87345,-1.23129,0.775591,-0.516287,-1.94338,-1.65201,2.46637,1.86121,-1.21917,0.82959,-0.460056,-1.89184,-1.59601,2.49544,1.82906,-1.20759,-1.10472,-1.19148,-1.09986,-1.18497,-0.794919,0.731197,0.0269556,-1.10472,-1.19148,-1.09986,-1.18497,-0.794919,0.731197,0.0269556,0.1108,-0.432647,0.803531,0.880626,-0.0595786,0.0955999,0.460227,-0.899229,-0.546721,-0.923922,0.218866,-0.230427,0.888689,-3.25303,0.262117,-3.32042,-3.20969,0.292508,-3.30552,-0.775142,-0.803954,-0.737742,-0.789593,-0.377426,0.443822,-0.236985,1
0.741009,-0.552354,-1.97705,-1.68673,2.44861,1.88054,-1.2322,0.763721,-0.528281,-1.95438,-1.66347,2.46218,1.86742,-1.22562,0.818504,-0.471932,-1.90277,-1.60787,2.48805,1.83611,-1.20807,-1.1135,-1.18524,-1.08982,-1.18493,-0.708412,0.69658,-0.0900482,-1.1135,-1.18524,-1.08982,-1.18493,-0.708412,0.69658,-0.0900482,0.102035,-0.438545,0.794349,0.883796,-0.0530626,0.0946779,0.455109,-0.902618,-0.516465,-0.929549,0.187417,-0.227241,0.855501,-3.18579,0.322708,-3.36185,-3.20588,0.290382,-3.40718,-0.774949,-0.804219,-0.742799,-0.788564,-0.394418,0.444316,-0.241336,1
0.729924,-0.56379,-1.98849,-1.69869,2.43893,1.8883,-1.23243,0.752227,-0.540317,-1.96565,-1.67505,2.45617,1.87386,-1.22988,0.807219,-0.483742,-1.9136,-1.61967,2.48174,1.84289,-1.21012,-1.13532,-1.1805,-1.08156,-1.17717,-0.603107,0.672834,-0.251523,-1.13532,-1.1805,-1.08156,-1.17717,-0.603107,0.672834,-0.251523,0.0930929,-0.444189,0.785168,0.887261,-0.0464441,0.093148,0.449371,-0.918649,-0.487491,-0.927863,0.155483,-0.224518,0.821056,-3.20398,0.273269,-3.45598,-3.20085,0.28887,-3.50557,-0.772945,-0.800487,-0.748841,-0.790199,-0.428091,0.454074,-0.22315,1
0.718559,-0.575307,-1.99979,-1.7102,2.42965,1.89684,-1.23483,0.741004,-0.552167,-1.97704,-1.68678,2.44818,1.8809,-1.2319,0.795716,-0.495558,-1.92442,-1.63137,2.47629,1.84949,-1.21369,-1.15391,-1.1834,-1.08318,-1.16764,-0.532087,0.656256,-0.385578,-1.15391,-1.1834,-1.08318,-1.16764,-0.532087,0.656256,-0.385578,0.0791792,-0.452216,0.771398,0.893156,-0.0364667,0.0897099,0.439198,-0.951933,-0.447943,-0.930013,0.123799,-0.220525,0.786151,-3.2156,0.405253,-3.54241,-3.19396,0.299854,-3.60134,-0.771574,-0.79749,-0.753705,-0.788254,-0.466436,0.473452,-0.21142,1
0.707058,-0.587051,-2.01141,-1.72177,2.42378,1.9025,-1.24132,0.729809,-0.563806,-1.98846,-1.69854,2.43925,1.88845,-1.23346,0.784126,-0.507437,-1.93531,-1.643,2.4711,1.85599,-1.21801,-1.15806,-1.18949,-1.09361,-1.1628,-0.527774,0.648939,-0.431484,-1.15806,-1.18949,-1.09361,-1.1628,-0.527774,0.648939,-0.431484,0.0744329,-0.454766,0.766783,0.895228,-0.0331252,0.0883611,0.435502,-0.959768,-0.433563,-0.932767,0.0916952,-0.21756,0.750148,-3.12566,0.288629,-3.50532,-3.18668,0.307062,-3.68751,-0.770686,-0.796136,-0.760919,-0.787626,-0.473202,0.465122,-0.233151,1
0.695199,-0.598999,-2.02297,-1.73283,2.41687,1.90871,-1.24906,0.718468,-0.57541,-1.99989,-1.71016,2.43089,1.89584,-1.23658,0.772593,-0.519351,-1.94635,-1.65463,2.46545,1.86252,-1.22211,-1.15031,-1.19078,-1.10691,-1.16398,-0.58789,0.65819,-0.389093,-1.15031,-1.19078,-1.10691,-1.16398,-0.58789,0.65819,-0.389093,0.0601777,-0.461873,0.752767,0.901145,-0.0230697,0.0844145,0.424594,-0.956675,-0.37704,-0.948495,0.0614931,-0.21377,0.715186,-2.94217,0.36919,-3.40594,-3.16221,0.321791,-3.74375,-0.773932,-0.796484,-0.76628,-0.781999,-0.485778,0.461938,-0.269513,1
0.682595,-0.610191,-2.03204,-1.74491,2.41993,1.9151,-1.25218,0.706869,-0.587094,-2.01125,-1.72165,2.42423,1.90254,-1.24176,0.761164,-0.531224,-1.9575,-1.6663,2.45895,1.86926,-1.22548,-1.14057,-1.18505,-1.11803,-1.16734,-0.674473,0.682537,-0.319039,-1.14057,-1.18505,-1.11803,-1.16734,-0.674473,0.682537,-0.319039,0.0507898,-0.466057,0.743284,0.904643,-0.0164333,0.0821195,0.417861,-0.945436,-0.332296,-0.957035,0.0617455,-0.191872,0.70916,0.0253862,2.20176,-0.605864,-2.80257,0.532612,-3.46982,-0.785685,-0.789663,-0.745381,-0.786108,-0.390166,0.458418,-0.267068,1
0.669456,-0.619907,-2.03653,-1.75683,2.47078,1.91995,-1.24596,0.694864,-0.598636,-2.02175,-1.73317,2.42353,1.90872,-1.24682,0.749799,-0.543018,-1.96874,-1.67798,2.4517,1.87626,-1.22839,-1.13628,-1.17746,-1.12618,-1.16763,-0.736232,0.703556,-0.293491,-1.13628,-1.17746,-1.12618,-1.16763,-0.736232,0.703556,-0.293491,0.0415071,-0.469776,0.733727,0.907833,-0.0099129,0.0800827,0.411494,-0.93969,-0.309811,-0.960277,0.0677136,-0.168383,0.704997,0.602784,2.37245,-0.420494,-2.16727,0.884938,-2.95627,-0.80343,-0.768896,-0.677918,-0.788504,0.190853,0.436912,-0.175698,1
0.657307,-0.628287,-2.02999,-1.76736,2.50166,1.92028,-1.20946,0.68241,-0.609507,-2.02948,-1.74483,2.43723,1.91425,-1.2465,0.738419,-0.554756,-1.98004,-1.68963,2.44423,1.88332,-1.23156,-1.14026,-1.17331,-1.13052,-1.1634,-0.73846,0.702639,-0.336887,-1.14026,-1.17331,-1.13052,-1.1634,-0.73846,0.702639,-0.336887,0.0322374,-0.473109,0.724133,0.91094,-0.00345172,0.0780381,0.405076,-0.934405,-0.269324,-0.963794,0.0724371,-0.143677,0.698676,0.474041,2.47945,-0.634347,-1.39269,1.32591,-2.33049,-0.811112,-0.735315,-0.499473,-0.777293,0.574274,0.369581,0.221008,1
0.64781,-0.637924,-2.03685,-1.77928,2.49373,1.88908,-1.20236,0.66996,-0.619392,-2.03295,-1.75639,2.46385,1.91619,-1.23586,0.726929,-0.566463,-1.99128,-1.70123,2.43757,1.89022,-1.23538,-1.1541,-1.16912,-1.11662,-1.15923,-0.606458,0.68239,-0.394496,-1.1541,-1.16912,-1.11662,-1.15923,-0.606458,0.68239,-0.394496,0.022843,-0.47616,0.714553,0.914146,0.00304104,0.0754954,0.398282,-0.948099,-0.224414,-0.959718,0.0771471,-0.120412,0.692036,0.462698,2.28548,-0.652233,-0.60983,1.74715,-1.70014,-0.79119,-0.714605,-0.455717,-0.780542,0.561596,-0.0113892,0.330238,1
0.637657,-0.644074,-2.04693,-1.79065,2.4926,1.86582,-1.21192,0.658323,-0.628457,-2.03453,-1.76776,2.48628,1.90867,-1.21963,0.715229,-0.578055,-2.00203,-1.71282,2.43419,1.89682,-1.23912,-1.17754,-1.15204,-1.04445,-1.15941,-0.168537,0.649498,-0.333733,-1.17754,-1.15204,-1.04445,-1.15941,-0.168537,0.649498,-0.333733,0.0130916,-0.479032,0.70515,0.917489,0.00958388,0.0713087,0.3912,-0.97415,-0.202331,-0.935682,0.0826122,-0.0967172,0.685004,0.55329,2.39887,-0.712007,0.0525641,2.129,-1.19878,-0.775719,-0.66019,-0.448993,-0.778368,0.584127,-0.310014,0.272074,1
0.625997,-0.647234,-2.06453,-1.80179,2.50088,1.86448,-1.22612,0.647636,-0.636508,-2.03937,-1.77915,2.49444,1.89145,-1.21073,0.703281,-0.58932,-2.01139,-1.72442,2.4376,1.90274,-1.24059,-1.19986,-1.11277,-0.877732,-1.1597,0.572971,0.552632,-0.0260466,-1.19986,-1.11277,-0.877732,-1.1597,0.572971,0.552632,-0.0260466,0.00279585,-0.481846,0.696224,0.920749,0.0162106,0.0638661,0.384552,-0.995617,-0.187311,-0.882065,0.0881581,-0.0724543,0.676151,0.557847,2.4405,-0.890406,0.469928,2.37264,-0.939082,-0.772836,-0.579144,-0.531399,-0.773773,0.63276,-0.382624,0.144689,1
0.614794,-0.650291,-2.07713,-1.81323,2.51365,1.86702,-1.23979,0.63708,-0.642729,-2.04964,-1.79055,2.49683,1.87478,-1.21467,0.691241,-0.600056,-2.01864,-1.73599,2.44829,1.90649,-1.23756,-1.20002,-1.05695,-0.668497,-1.15512,1.18585,0.26286,0.434567,-1.20002,-1.05695,-0.668497,-1.15512,1.18585,0.26286,0.434567,-0.00251275,-0.483257,0.692012,0.922207,0.0196104,0.0587064,0.38171,-1.00099,-0.180875,-0.852496,0.0936051,-0.0488936,0.666487,0.545608,2.36004,-0.968104,0.525064,2.39093,-1.0139,-0.764472,-0.50235,-0.584932,-0.772471,0.653649,-0.39471,-0.0223334,1
0.604314,-0.653847,-2.07991,-1.82453,2.52702,1.87129,-1.22653,0.626119,-0.64704,-2.06251,-1.80188,2.50319,1.86741,-1.22453,0.67942,-0.610149,-2.02432,-1.74749,2.46156,1.90565,-1.23084,-1.17083,-0.988971,-0.559264,-1.14955,1.27569,-0.247455,0.693462,-1.17083,-0.988971,-0.559264,-1.14955,1.27569,-0.247455,0.693462,-0.0175056,-0.487786,0.680167,0.925125,0.0322591,0.0411336,0.376047,-0.886989,-0.191662,-0.782157,0.0981779,-0.0239365,0.656606,0.469675,2.56332,-1.0148,0.519681,2.4087,-1.10941,-0.751056,-0.436977,-0.555909,-0.770307,0.654627,-0.343616,0.0430981,1
0.595015,-0.667966,-2.08373,-1.83589,2.53401,1.86731,-1.20201,0.615167,-0.651132,-2.0732,-1.8132,2.51376,1.8674,-1.22896,0.667984,-0.619403,-2.03021,-1.75896,2.47261,1.89946,-1.22457,-1.1348,-0.895178,-0.632901,-1.14628,1.01955,-0.723698,0.525628,-1.1348,-0.895178,-0.632901,-1.14628,1.01955,-0.723698,0.525628,-0.0262948,-0.491108,0.672403,0.92645,0.043486,0.0306338,0.372642,-0.816302,-0.199923,-0.780309,0.103656,0.000366081,0.646307,0.537317,2.38361,-1.01015,0.524727,2.40669,-1.18157,-0.729699,-0.485636,-0.535255,-0.769264,0.613941,-0.321506,0.225596,1
0.584202,-0.679492,-2.08921,-1.84726,2.53574,1.859,-1.18559,0.604707,-0.657677,-2.07979,-1.82454,2.52434,1.86803,-1.22113,0.656802,-0.627484,-2.03778,-1.7704,2.48118,1.89065,-1.2222,-1.11602,-0.770528,-0.810072,-1.14302,0.834111,-0.86614,0.115184,-1.11602,-0.770528,-0.810072,-1.14302,0.834111,-0.86614,0.115184,-0.0304388,-0.492805,0.668454,0.927217,0.049801,0.0261206,0.370279,-0.794989,-0.199575,-0.785795,0.107872,0.0246707,0.635123,0.422407,2.43518,-1.12061,0.517756,2.43274,-1.26056,-0.726006,-0.520088,-0.514268,-0.768587,0.545686,-0.316532,0.366042,1
0.571783,-0.687721,-2.09857,-1.85908,2.54136,1.85145,-1.1855,0.59442,-0.667448,-2.08466,-1.83593,2.53188,1.86522,-1.20537,0.645694,-0.634302,-2.0469,-1.78181,2.48939,1.88299,-1.22337,-1.10924,-0.654633,-0.927797,-1.1395,0.844967,-0.690159,-0.14942,-1.10924,-0.654633,-0.927797,-1.1395,0.844967,-0.690159,-0.14942,-0.043075,-0.497163,0.656579,0.930541,0.0682544,0.0139371,0.3595,-0.820909,-0.126898,-0.77619,0.113372,0.0490533,0.622122,0.545372,2.41779,-1.28916,0.506939,2.43466,-1.34021,-0.739113,-0.534198,-0.516706,-0.772695,0.519725,-0.31536,0.378669,1
0.560954,-0.693101,-2.11176,-1.87097,2.55049,1.84347,-1.18917,0.583604,-0.677916,-2.09101,-1.84743,2.53709,1.85899,-1.19246,0.634682,-0.640444,-2.05617,-1.79319,2.49838,1.87791,-1.2245,-1.09568,-0.618186,-0.900016,-1.13741,0.914996,-0.45131,-0.0240625,-1.09568,-0.618186,-0.900016,-1.13741,0.914996,-0.45131,-0.0240625,-0.0516805,-0.499209,0.648845,0.932776,0.0789899,0.00577346,0.351648,-0.81678,-0.0697781,-0.757567,0.118975,0.0734581,0.608112,0.558483,2.43269,-1.39649,0.505887,2.43605,-1.42237,-0.737278,-0.526575,-0.555898,-0.777797,0.521054,-0.344376,0.353358,1
0.551066,-0.700004,-2.12248,-1.88292,2.56287,1.83868,-1.19346,0.572338,-0.686542,-2.1001,-1.85914,2.54312,1.85154,-1.18797,0.623868,-0.647011,-2.0644,-1.80456,2.50762,1.8744,-1.22196,-1.07616,-0.688628,-0.789372,-1.13706,0.907124,-0.344093,0.385768,-1.07616,-0.688628,-0.789372,-1.13706,0.907124,-0.344093,0.385768,-0.0601418,-0.500743,0.641172,0.934063,0.0886059,-0.00305057,0.345927,-0.790279,-0.035946,-0.758557,0.123743,0.097491,0.593314,0.485661,2.44786,-1.50723,0.507447,2.44419,-1.51986,-0.728016,-0.529928,-0.580813,-0.783593,0.552496,-0.357129,0.28501,1
0.54112,-0.710884,-2.12906,-1.89486,2.57385,1.83593,-1.19122,0.561403,-0.693743,-2.11082,-1.87099,2.55184,1.84477,-1.18923,0.613179,-0.654697,-2.07165,-1.81594,2.51609,1.87081,-1.21532,-1.0701,-0.796353,-0.716479,-1.1397,0.814467,-0.385355,0.726584,-1.0701,-0.796353,-0.716479,-1.1397,0.814467,-0.385355,0.726584,-0.068395,-0.5021,0.633265,0.934244,0.0979894,-0.0124397,0.342683,-0.770398,-0.0238351,-0.784171,0.128192,0.12139,0.577388,0.444027,2.38542,-1.58968,0.503613,2.41982,-1.6209,-0.720596,-0.561868,-0.57406,-0.78922,0.577615,-0.348785,0.240964,1
0.53092,-0.721272,-2.13586,-1.9065,2.58149,1.83269,-1.18303,0.551087,-0.70156,-2.12079,-1.8829,2.56234,1.83961,-1.19068,0.602408,-0.663134,-2.07886,-1.82738,2.52356,1.86623,-1.20738,-1.08205,-0.845527,-0.739189,-1.14689,0.732615,-0.485822,0.759968,-1.08205,-0.845527,-0.739189,-1.14689,0.732615,-0.485822,0.759968,-0.0766082,-0.503412,0.625001,0.933894,0.10779,-0.0219947,0.340204,-0.772583,-0.014577,-0.813984,0.133742,0.1452,0.560424,0.540263,2.31777,-1.65126,0.502786,2.40733,-1.73051,-0.714882,-0.58138,-0.570024,-0.791164,0.579264,-0.335421,0.243445,1
0.520373,-0.730853,-2.14387,-1.91792,2.58638,1.82824,-1.17159,0.540999,-0.710897,-2.12896,-1.89473,2.57234,1.8358,-1.18838,0.591503,-0.671504,-2.08683,-1.83893,2.5308,1.86078,-1.20109,-1.09074,-0.825315,-0.824654,-1.15738,0.738646,-0.558933,0.553192,-1.09074,-0.825315,-0.824654,-1.15738,0.738646,-0.558933,0.553192,-0.0807574,-0.504036,0.620755,0.933729,0.112905,-0.0267496,0.338655,-0.778038,-0.00765507,-0.826187,0.138922,0.169381,0.542752,0.502548,2.34589,-1.71451,0.506582,2.38718,-1.82653,-0.711298,-0.593492,-0.570344,-0.789922,0.555833,-0.325382,0.295006,1
0.50969,-0.739847,-2.1519,-1.92951,2.59168,1.82236,-1.16335,0.530765,-0.720902,-2.13633,-1.90641,2.58028,1.83212,-1.18164,0.580645,-0.679544,-2.09564,-1.85058,2.53869,1.85503,-1.19731,-1.08041,-0.801783,-0.892626,-1.16759,0.814822,-0.56854,0.325852,-1.08041,-0.801783,-0.892626,-1.16759,0.814822,-0.56854,0.325852,-0.0892152,-0.505158,0.612104,0.93369,0.12344,-0.0363075,0.334167,-0.796535,0.0125438,-0.842914,0.143998,0.193234,0.52369,0.511087,2.4014,-1.91905,0.503123,2.38515,-1.92858,-0.709551,-0.603031,-0.562535,-0.78933,0.529933,-0.326749,0.339591,1
0.498842,-0.749199,-2.16091,-1.94139,2.59887,1.81599,-1.16011,0.52029,-0.730605,-2.14401,-1.91799,2.58648,1.8276,-1.1729,0.569986,-0.687648,-2.10467,-1.86231,2.54739,1.8496,-1.19492,-1.06017,-0.822723,-0.89447,-1.17385,0.883256,-0.526762,0.23858,-1.06017,-0.822723,-0.89447,-1.17385,0.883256,-0.526762,0.23858,-0.102101,-0.506389,0.598795,0.933876,0.139157,-0.0513711,0.325378,-0.795058,0.0500363,-0.862799,0.149353,0.216846,0.503723,0.567396,2.50206,-2.11582,0.510294,2.40008,-2.04567,-0.711439,-0.615502,-0.562408,-0.790821,0.514766,-0.336117,0.348079,1
0.4889,-0.758642,-2.16984,-1.95336,2.60722,1.81066,-1.15882,0.509676,-0.73995,-2.15226,-1.92963,2.59249,1.82215,-1.16555,0.559502,-0.69622,-2.11335,-1.87405,2.55634,1.84472,-1.19215,-1.04587,-0.871411,-0.85443,-1.17414,0.884339,-0.476486,0.316177,-1.04587,-0.871411,-0.85443,-1.17414,0.884339,-0.476486,0.316177,-0.110615,-0.50684,0.589743,0.933657,0.149118,-0.062025,0.31969,-0.777683,0.0766951,-0.872471,0.154767,0.241401,0.483094,0.557571,2.52903,-2.12466,0.52298,2.40817,-2.1482,-0.706021,-0.624223,-0.564905,-0.793061,0.50881,-0.340565,0.333291,1
0.479309,-0.768258,-2.17828,-1.96527,2.61601,1.80642,-1.15722,0.499193,-0.749266,-2.16091,-1.94144,2.59945,1.81642,-1.16114,0.549079,-0.705236,-2.12162,-1.88577,2.56479,1.84015,-1.18789,-1.04283,-0.908475,-0.821385,-1.17022,0.823059,-0.455977,0.470363,-1.04283,-0.908475,-0.821385,-1.17022,0.823059,-0.455977,0.470363,-0.118945,-0.506983,0.580595,0.932905,0.158646,-0.0729167,0.314965,-0.756786,0.102884,-0.877986,0.160446,0.265301,0.461291,0.570487,2.40051,-2.18992,0.536454,2.41403,-2.24812,-0.697692,-0.63022,-0.566629,-0.795015,0.512127,-0.337299,0.306704,1
0.46918,-0.777636,-2.18606,-1.977,2.62488,1.80195,-1.15322,0.489055,-0.758698,-2.16961,-1.95333,2.60746,1.81112,-1.15868,0.538626,-0.714447,-2.12975,-1.89745,2.57249,1.83552,-1.18229,-1.04688,-0.922367,-0.81417,-1.16736,0.75267,-0.471441,0.578288,-1.04688,-0.922367,-0.81417,-1.16736,0.75267,-0.471441,0.578288,-0.127088,-0.506845,0.571376,0.931673,0.16796,-0.0838174,0.311046,-0.739642,0.127435,-0.882108,0.165287,0.289276,0.438357,0.472055,2.3381,-2.23654,0.533774,2.41707,-2.34847,-0.694455,-0.631893,-0.563098,-0.795561,0.523927,-0.335729,0.29066,1
0.459155,-0.787524,-2.19408,-1.98866,2.63167,1.79725,-1.14718,0.479136,-0.768212,-2.17802,-1.9652,2.61594,1.80639,-1.15618,0.528131,-0.723699,-2.13796,-1.90913,2.57971,1.83059,-1.17637,-1.04928,-0.925843,-0.824952,-1.1693,0.719868,-0.500754,0.576749,-1.04928,-0.925843,-0.824952,-1.1693,0.719868,-0.500754,0.576749,-0.135099,-0.506459,0.562064,0.930146,0.177252,-0.0947238,0.307308,-0.727583,0.150429,-0.888827,0.170845,0.313054,0.414646,0.547702,2.34327,-2.33663,0.538765,2.42113,-2.45383,-0.689767,-0.638249,-0.561212,-0.795261,0.519561,-0.33346,0.291904,1
0.449022,-0.797727,-2.20241,-2.00037,2.6378,1.79186,-1.14006,0.469179,-0.777832,-2.18613,-1.97697,2.62406,1.80181,-1.15224,0.517672,-0.732983,-2.14631,-1.92086,2.58695,1.82544,-1.17112,-1.04271,-0.92983,-0.839033,-1.17459,0.731056,-0.516756,0.496661,-1.04271,-0.92983,-0.839033,-1.17459,0.731056,-0.516756,0.496661,-0.139072,-0.506178,0.557362,0.929322,0.181912,-0.100213,0.30533,-0.722291,0.161836,-0.892715,0.175521,0.336979,0.391869,0.455855,2.3324,-2.22055,0.530931,2.40786,-2.5172,-0.686506,-0.64744,-0.560977,-0.795089,0.508493,-0.335745,0.310601,1
0.439327,-0.807746,-2.21039,-2.01205,2.64271,1.78582,-1.1334,0.459148,-0.787663,-2.19419,-1.98858,2.63121,1.79694,-1.14668,0.507339,-0.742323,-2.15476,-1.93264,2.59448,1.82029,-1.16679,-1.02925,-0.935753,-0.843965,-1.17897,0.762561,-0.510803,0.414793,-1.02925,-0.935753,-0.843965,-1.17897,0.762561,-0.510803,0.414793,-0.150844,-0.504964,0.543077,0.926708,0.195782,-0.117007,0.298649,-0.701587,0.196494,-0.90342,0.180662,0.361335,0.366558,0.525316,2.48852,-2.58602,0.519865,2.39687,-2.58355,-0.680121,-0.654229,-0.556312,-0.794104,0.482279,-0.344652,0.333921,1
0.429479,-0.817661,-2.21867,-2.0238,2.64885,1.78004,-1.12817,0.44917,-0.797671,-2.20232,-1.99918,2.63737,1.79159,-1.14026,0.497138,-0.75173,-2.16316,-1.94444,2.60229,1.81529,-1.16294,-1.01764,-0.94285,-0.837519,-1.17973,0.784248,-0.495706,0.386553,-1.01764,-0.94285,-0.837519,-1.17973,0.784248,-0.495706,0.386553,-0.158523,-0.503824,0.533466,0.924768,0.204775,-0.12848,0.293878,-0.683626,0.220196,-0.905111,0.186207,0.38522,0.339762,0.553358,2.38372,-2.67423,0.514186,2.38048,-2.66175,-0.676589,-0.659315,-0.555063,-0.79361,0.465583,-0.352538,0.347668,1
0.419721,-0.82705,-2.22687,-2.03554,2.65578,1.77492,-1.12431,0.439302,-0.807663,-2.21047,-2.00669,2.64314,1.78592,-1.13405,0.487011,-0.761226,-2.17146,-1.95622,2.61011,1.8104,-1.15891,-1.01175,-0.952992,-0.827884,-1.17604,0.775958,-0.48857,0.418362,-1.01175,-0.952992,-0.827884,-1.17604,0.775958,-0.48857,0.418362,-0.166031,-0.502417,0.523823,0.922563,0.213495,-0.140123,0.289247,-0.664348,0.242868,-0.905149,0.191973,0.409959,0.311947,0.585387,2.51148,-2.82369,0.519531,2.395,-2.76308,-0.672905,-0.658237,-0.554023,-0.793203,0.456618,-0.354863,0.345913,1
0.409929,-0.836283,-2.23483,-2.04709,2.663,1.77011,-1.12048,0.429501,-0.817448,-2.21864,-2.00998,2.64924,1.78032,-1.12878,0.476921,-0.770849,-2.17969,-1.96785,2.61763,1.80548,-1.15429,-1.00795,-0.966136,-0.821885,-1.15291,0.737961,-0.496658,0.47938,-1.00795,-0.966136,-0.821885,-1.15291,0.737961,-0.496658,0.47938,-0.173363,-0.500777,0.514167,0.920039,0.221952,-0.151843,0.284972,-0.647469,0.260719,-0.901706,0.196574,0.433877,0.283778,0.446461,2.32073,-2.73328,0.521101,2.39901,-2.86011,-0.669926,-0.654346,-0.551354,-0.792466,0.453688,-0.353693,0.338157,1
0.400194,-0.845463,-2.24276,-2.05803,2.67053,1.76535,-1.11645,0.419717,-0.826955,-2.22677,-2.01062,2.65595,1.77508,-1.12439,0.466878,-0.780597,-2.18789,-1.97886,2.62466,1.80039,-1.1491,-1.00261,-0.977281,-0.819417,-1.06617,0.690617,-0.515046,0.52909,-1.00261,-0.977281,-0.819417,-1.06617,0.690617,-0.515046,0.52909,-0.180601,-0.498991,0.504617,0.917279,0.230044,-0.163497,0.280977,-0.644255,0.266075,-0.882562,0.200898,0.458426,0.25423,0.438364,2.48894,-2.99581,0.512058,2.41992,-2.98207,-0.666838,-0.648659,-0.548661,-0.791743,0.45865,-0.350349,0.326484,1
0.390679,-0.855167,-2.25037,-2.06735,2.67708,1.75925,-1.11225,0.409962,-0.836286,-2.23478,-2.01062,2.66307,1.77006,-1.1204,0.456898,-0.790407,-2.19608,-1.98833,2.63131,1.79511,-1.14366,-0.996187,-0.980755,-0.818391,-0.885768,0.65903,-0.530873,0.542366,-0.996187,-0.980755,-0.818391,-0.885768,0.65903,-0.530873,0.542366,-0.187976,-0.497197,0.495435,0.914524,0.237462,-0.174907,0.276885,-0.646483,0.265953,-0.869469,0.206547,0.481286,0.223497,0.563984,2.2825,-3.06864,0.515343,2.41978,-3.11366,-0.66219,-0.647602,-0.542954,-0.790173,0.457702,-0.358568,0.31416,1
0.380934,-0.865413,-2.25778,-2.07445,2.68408,1.75265,-1.10819,0.400266,-0.84569,-2.24262,-2.01062,2.67021,1.76482,-1.11638,0.446979,-0.800183,-2.20425,-1.99553,2.63783,1.78976,-1.13836,-0.990583,-0.974996,-0.817149,-0.654286,0.654011,-0.533974,0.521279,-0.990583,-0.974996,-0.817149,-0.654286,0.654011,-0.533974,0.521279,-0.195724,-0.495494,0.486838,0.912024,0.243917,-0.185954,0.272282,-0.705012,0.23499,-0.781654,0.212221,0.504649,0.192681,0.578634,2.38218,-3.14209,0.516478,2.40028,-3.20624,-0.660452,-0.652296,-0.53531,-0.789204,0.462536,-0.371106,0.301709,1
0.371029,-0.875319,-2.26568,-2.07918,2.69046,1.74618,-1.10405,0.390597,-0.855382,-2.2503,-2.01062,2.67715,1.75899,-1.11229,0.437107,-0.809855,-2.2124,-2.0005,2.64445,1.78447,-1.13339,-0.986053,-0.963813,-0.813616,-0.448096,0.667078,-0.526666,0.48693,-0.986053,-0.963813,-0.813616,-0.448096,0.667078,-0.526666,0.48693,-0.203888,-0.493863,0.478826,0.909851,0.249387,-0.196656,0.267028,-0.724319,0.226708,-0.755359,0.217363,0.528349,0.160525,0.517,2.38329,-3.23366,0.515894,2.38769,-3.29827,-0.660786,-0.654635,-0.532777,-0.786786,0.460162,-0.382903,0.293393,1
0.361148,-0.885507,-2.27335,-2.08239,2.69712,1.74006,-1.10013,0.380861,-0.865337,-2.25794,-2.01062,2.68389,1.75269,-1.10818,0.427279,-0.819421,-2.22049,-2.00384,2.65123,1.77924,-1.12874,-0.981525,-0.955015,-0.806457,-0.300368,0.682137,-0.52252,0.458517,-0.981525,-0.955015,-0.806457,-0.300368,0.682137,-0.52252,0.458517,-0.212344,-0.492233,0.47124,0.907903,0.25408,-0.207115,0.261263,-0.766132,0.213639,-0.694154,0.223293,0.551886,0.126669,0.569747,2.26112,-3.25244,0.521498,2.347,-3.36766,-0.661316,-0.660852,-0.528569,-0.785492,0.458871,-0.391845,0.286184,1
0.432157,-0.929101,-2.18843,-1.93562,2.61603,1.82832,-1.05975,0.376083,-0.877491,-2.25984,-2.00594,2.68504,1.75222,-1.10185,0.385721,-0.860409,-2.25413,-2.01072,2.68062,1.75594,-1.11015,0,0,0,0,0,0,0,0,0,0,0,0,0,0,-0.248873,-0.484142,0.440082,0.899256,0.270243,-0.25108,0.235086,0,0,0,1.65882,-1.55738,0.385887,117.832,-289.322,109.055,12.7097,-31.2514,11.4742,0.464358,-0.686922,0.657065,0.751018,-0.645896,0.723781,0.504017,1
0.427195,-0.929389,-2.18872,-1.93541,2.61534,1.82849,-1.06004,0.386735,-0.895345,-2.24394,-1.98717,2.66926,1.76997,-1.08901,0.385721,-0.860409,-2.25413,-2.01072,2.68062,1.75594,-1.11015,0,0,0,0,0,0,0,0,0,0,0,0,0,0,-0.248873,-0.484142,0.440082,0.899256,0.270243,-0.25108,0.235086,0,0,0,1.65998,-1.55667,0.386466,0.121129,0.0743644,0.0605833,21.3948,-50,19.4962,0.414732,-0.689801,0.654146,0.753086,-0.652744,0.725455,0.501132,1
0.426865,-0.929402,-2.1884,-1.93513,2.6162,1.82834,-1.06116,0.409013,-0.914932,-2.21456,-1.95897,2.64079,1.80116,-1.07277,0.385721,-0.860409,-2.25413,-2.01072,2.68062,1.75594,-1.11015,0,0,0,0,0,0,0,0,0,0,0,0,0,0,-0.248873,-0.484142,0.440082,0.899256,0.270243,-0.25108,0.235086,0,0,0,1.65992,-1.55646,0.386499,-0.00598512,0.0205746,0.00321182,25.7086,-50,23.4704,0.411433,-0.689928,0.657369,0.755929,-0.644233,0.72397,0.489988,1
0.426892,-0.929415,-2.18838,-1.93512,2.61623,1.82833,-1.0612,0.424206,-0.926579,-2.19383,-1.94007,2.62089,1.82287,-1.06283,0.385721,-0.860409,-2.25413,-2.01072,2.68062,1.75594,-1.11015,0,0,0,0,0,0,0,0,0,0,0,0,0,0,-0.248873,-0.484142,0.440082,0.899256,0.270243,-0.25108,0.235086,0,0,0,1.65996,-1.55642,0.386488,0.0040761,0.00421996,-0.00106698,25.8518,-50,23.5943,0.411705,-0.690059,0.65755,0.755978,-0.643925,0.723902,0.489536,1
0.426894,-0.929376,-2.18878,-1.93532,2.61526,1.82846,-1.06021,0.427287,-0.929381,-2.1885,-1.93524,2.61592,1.82838,-1.06074,0.385721,-0.860409,-2.25413,-2.01072,2.68062,1.75594,-1.11015,0,0,0,0,0,0,0,0,0,0,0,0,0,0,-0.248873,-0.484142,0.440082,0.899256,0.270243,-0.25108,0.235086,0,0,0,1.65988,-1.55636,0.386459,-0.00832384,0.00582316,-0.00287636,21.5372,-50,19.623,0.411725,-0.689673,0.653568,0.754031,-0.653552,0.725226,0.499483,1
0.419409,-0.923232,-2.19463,-1.93501,2.61576,1.82883,-1.05561,0.426437,-0.929014,-2.18889,-1.93518,2.61589,1.82841,-1.06052,0.385721,-0.860409,-2.25413,-2.01072,2.68062,1.75594,-1.11015,0,0,0,0,0,0,0,0,0,0,0,0,0,0,-0.248873,-0.484142,0.440082,0.899256,0.270243,-0.25108,0.235086,0,0,0,1.47943,-1.34704,0.504225,118.536,-246.876,60.3516,5.9782,-23.5627,19.5839,0.336874,-0.628228,0.595087,0.757137,-0.648563,0.728863,0.545432,1
0.423314,-0.927688,-2.1901,-1.93514,2.61576,1.82859,-1.05842,0.424797,-0.927746,-2.1902,-1.93517,2.61572,1.82852,-1.05925,0.385721,-0.860409,-2.25413,-2.01072,2.68062,1.75594,-1.11015,0,0,0,0,0,0,0,0,0,0,0,0,0,0,-0.248873,-0.484142,0.440082,0.899256,0.270243,-0.25108,0.235086,0,0,0,1.47576,-1.3423,0.507077,-0.357638,0.463092,0.278694,15.6426,-41.8537,21.724,0.375924,-0.672794,0.640314,0.75578,-0.648625,0.726447,0.517361,1
0.426591,-0.929418,-2.18868,-1.9353,2.61534,1.82847,-1.06034,0.423173,-0.926655,-2.19127,-1.93514,2.61564,1.82862,-1.05811,0.385721,-0.860409,-2.25413,-2.01072,2.68062,1.75594,-1.11015,0,0,0,0,0,0,0,0,0,0,0,0,0,0,-0.248873,-0.484142,0.440082,0.899256,0.270243,-0.25108,0.235086,0,0,0,1.47263,-1.3383,0.50963,-0.304504,0.389464,0.248386,22.1021,-50,19.4644,0.408696,-0.690089,0.654537,0.754182,-0.652818,0.725283,0.498097,1
0.43009,-0.931063,-2.18766,-1.93561,2.61495,1.82829,-1.06194,0.423804,-0.927323,-2.19064,-1.93519,2.61557,1.82859,-1.05853,0.385721,-0.860409,-2.25413,-2.01072,2.68062,1.75594,-1.11015,0,0,0,0,0,0,0,0,0,0,0,0,0,0,-0.248873,-0.484142,0.440082,0.899256,0.270243,-0.25108,0.235086,0,0,0,1.46988,-1.33445,0.51191,-0.290257,0.406176,0.240606,25.8033,-50,13.0536,0.443684,-0.706543,0.664735,0.751142,-0.656648,0.723497,0.482165,1
0.429634,-0.93097,-2.18797,-1.93562,2.61461,1.82837,-1.06133,0.426388,-0.929107,-2.18911,-1.93534,2.61533,1.82847,-1.06003,0.385721,-0.860409,-2.25413,-2.01072,2.68062,1.75594,-1.11015,0,0,0,0,0,0,0,0,0,0,0,0,0,0,-0.248873,-0.484142,0.440082,0.899256,0.270243,-0.25108,0.235086,0,0,0,1.46771,-1.33121,0.5139,-0.217777,0.3251,0.199579,21.3266,-44.5804,10.8478,0.439124,-0.705615,0.661657,0.75095,-0.660123,0.724245,0.488277,1
0.429885,-0.930873,-2.18814,-1.93571,2.61455,1.8283,-1.06113,0.428665,-0.930406,-2.18817,-1.93551,2.61499,1.82837,-1.06112,0.385721,-0.860409,-2.25413,-2.01072,2.68062,1.75594,-1.11015,0,0,0,0,0,0,0,0,0,0,0,0,0,0,-0.248873,-0.484142,0.440082,0.899256,0.270243,-0.25108,0.235086,0,0,0,1.46771,-1.33121,0.5139,0,0,0,12.6304,-26.4735,6.4371,0.441638,-0.704644,0.659958,0.750137,-0.660673,0.723573,0.490291,1
0.439488,-0.920016,-2.18746,-1.94444,2.61745,1.81797,-1.04743,0.430236,-0.930188,-2.18795,-1.93617,2.6149,1.82769,-1.0605,0.385721,-0.860409,-2.25413,-2.01072,2.68062,1.75594,-1.11015,0,0,0,0,0,0,0,0,0,0,0,0,0,0,-0.248873,-0.484142,0.440082,0.899256,0.270243,-0.25108,0.235086,0,0,0,1.46771,-1.33121,0.5139,0,0,0,-0.200708,0.274384,-0.13224,0.537661,-0.596072,0.66677,0.662751,-0.631648,0.620302,0.627292,1
0.439055,-0.923036,-2.1864,-1.94386,2.61774,1.81781,-1.04753,0.432809,-0.927705,-2.18779,-1.93837,2.61552,1.82508,-1.05695,0.385721,-0.860409,-2.25413,-2.01072,2.68062,1.75594,-1.11015,0,0,0,0,0,0,0,0,0,0,0,0,0,0,-0.248873,-0.484142,0.440082,0.899256,0.270243,-0.25108,0.235086,0,0,0,1.46771,-1.33121,0.5139,0,0,0,-0.1292,0.181115,-0.18927,0.533334,-0.626274,0.677338,0.668573,-0.628808,0.618688,0.626233,1
0.439317,-0.92498,-2.18594,-1.94377,2.61684,1.81862,-1.04827,0.436352,-0.92448,-2.1873,-1.94152,2.61658,1.8212,-1.0518,0.385721,-0.860409,-2.25413,-2.01072,2.68062,1.75594,-1.11015,0,0,0,0,0,0,0,0,0,0,0,0,0,0,-0.248873,-0.484142,0.440082,0.899256,0.270243,-0.25108,0.235086,0,0,0,1.46771,-1.33121,0.5139,0,0,0,-0.0687775,0.0998959,-0.23957,0.535957,-0.645711,0.681953,0.66954,-0.637795,0.626764,0.618847,1
0.439608,-0.925677,-2.18551,-1.94352,2.61673,1.81893,-1.04876,0.43869,-0.923422,-2.1866,-1.94345,2.61718,1.81878,-1.04862,0.385721,-0.860409,-2.25413,-2.01072,2.68062,1.75594,-1.11015,0,0,0,0,0,0,0,0,0,0,0,0,0,0,-0.248873,-0.484142,0.440082,0.899256,0.270243,-0.25108,0.235086,0,0,0,1.46771,-1.33121,0.5139,0,0,0,-0.023236,0.0346898,-0.278705,0.538862,-0.652677,0.686221,0.671993,-0.638881,0.629864,0.613942,1
0.439727,-0.925987,-2.18532,-1.94339,2.61679,1.81903,-1.049,0.43936,-0.924421,-2.186,-1.94375,2.61707,1.81848,-1.0482,0.385721,-0.860409,-2.25413,-2.01072,2.68062,1.75594,-1.11015,0,0,0,0,0,0,0,0,0,0,0,0,0,0,-0.248873,-0.484142,0.440082,0.899256,0.270243,-0.25108,0.235086,0,0,0,1.46771,-1.33121,0.5139,0,0,0,0,-8.48666e-07,-0.3,0.540053,-0.655783,0.688161,0.673304,-0.638303,0.630916,0.611534,1
0.439743,-0.925961,-2.18529,-1.94336,2.61682,1.81904,-1.04902,0.439539,-0.925433,-2.18561,-1.94356,2.61684,1.81881,-1.04864,0.385721,-0.860409,-2.25413,-2.01072,2.68062,1.75594,-1.11015,0,0,0,0,0,0,0,0,0,0,0,0,0,0,-0.248873,-0.484142,0.440082,0.899256,0.270243,-0.25108,0.235086,0,0,0,1.46771,-1.33121,0.5139,0,0,0,0,-8.49299e-07,-0.3,0.540214,-0.655521,0.688438,0.673565,-0.637964,0.631019,0.611369,1
0.439752,-0.925949,-2.18528,-1.94336,2.61684,1.81904,-1.04902,0.439677,-0.925838,-2.1854,-1.94344,2.61679,1.81898,-1.0489,0.385721,-0.860409,-2.25413,-2.01072,2.68062,1.75594,-1.11015,0,0,0,0,0,0,0,0,0,0,0,0,0,0,-0.248873,-0.484142,0.440082,0.899256,0.270243,-0.25108,0.235086,0,0,0,1.46771,-1.33121,0.5139,0,0,0,0,-8.49841e-07,-0.3,0.54031,-0.655399,0.688582,0.673634,-0.637747,0.630992,0.611367,1
0.439755,-0.925947,-2.18527,-1.94336,2.61685,1.81904,-1.04902,0.439734,-0.925946,-2.18531,-1.94338,2.61682,1.81903,-1.049,0.385721,-0.860409,-2.25413,-2.01072,2.68062,1.75594,-1.11015,0,0,0,0,0,0,0,0,0,0,0,0,0,0,-0.248873,-0.484142,0.440082,0.899256,0.270243,-0.25108,0.235086,0,0,0,1.46771,-1.33121,0.5139,0,0,0,0,-8.52085e-07,-0.3,0.540331,-0.655378,0.688602,0.67362,-0.63772,0.630986,0.611379,1
0.439755,-0.925946,-2.18527,-1.94336,2.61685,1.81904,-1.04902,0.439749,-0.925954,-2.18528,-1.94336,2.61684,1.81904,-1.04902,0.385721,-0.860409,-2.25413,-2.01072,2.68062,1.75594,-1.11015,0,0,0,0,0,0,0,0,0,0,0,0,0,0,-0.248873,-0.484142,0.440082,0.899256,0.270243,-0.25108,0.235086,0,0,0,1.46771,-1.33121,0.5139,0,0,0,0,-8.51645e-07,-0.3,0.540333,-0.655375,0.688606,0.673615,-0.637719,0.630988,0.611383,1
0.439755,-0.925946,-2.18527,-1.94336,2.61685,1.81904,-1.04902,0.439753,-0.925948,-2.18528,-1.94336,2.61684,1.81904,-1.04902,0.385721,-0.860409,-2.25413,-2.01072,2.68062,1.75594,-1.11015,0,0,0,0,0,0,0,0,0,0,0,0,0,0,-0.248873,-0.484142,0.440082,0.899256,0.270243,-0.25108,0.235086,0,0,0,1.46771,-1.33121,0.5139,0,0,0,0,-8.56656e-07,-0.3,0.540333,-0.655376,0.688607,0.673615,-0.63772,0.630989,0.611383,1
0.439755,-0.925947,-2.18527,-1.94336,2.61685,1.81904,-1.04902,0.439755,-0.925947,-2.18527,-1.94336,2.61685,1.81904,-1.04902,0.385721,-0.860409,-2.25413,-2.01072,2.68062,1.75594,-1.11015,0,0,0,0,0,0,0,0,0,0,0,0,0,0,-0.248873,-0.484142,0.440082,0.899256,0.270243,-0.25108,0.235086,0,0,0,1.46771,-1.33121,0.5139,0,0,0,0,-8.55986e-07,-0.3,0.540332,-0.655377,0.688606,0.673615,-0.63772,0.630989,0.611383,1
0.439755,-0.925947,-2.18527,-1.94336,2.61685,1.81904,-1.04902,0.439755,-0.925946,-2.18527,-1.94336,2.61685,1.81904,-1.04902,0.385721,-0.860409,-2.25413,-2.01072,2.68062,1.75594,-1.11015,0,0,0,0,0,0,0,0,0,0,0,0,0,0,-0.248873,-0.484142,0.440082,0.899256,0.270243,-0.25108,0.235086,0,0,0,1.46771,-1.33121,0.5139,0,0,0,0,-8.54705e-07,-0.3,0.540333,-0.655377,0.688606,0.673615,-0.63772,0.630989,0.611383,1
0.439755,-0.925947,-2.18527,-1.94336,2.61685,1.81904,-1.04902,0.439755,-0.925947,-2.18527,-1.94336,2.61685,1.81904,-1.04902,0.385721,-0.860409,-2.25413,-2.01072,2.68062,1.75594,-1.11015,0,0,0,0,0,0,0,0,0,0,0,0,0,0,-0.248873,-0.484142,0.440082,0.899256,0.270243,-0.25108,0.235086,0,0,0,1.46771,-1.33121,0.5139,0,0,0,0,-8.57259e-07,-0.3,0.540332,-0.655377,0.688606,0.673615,-0.63772,0.630989,0.611383,1
0.439755,-0.925947,-2.18527,-1.94336,2.61685,1.81904,-1.04902,0.439755,-0.925947,-2.18527,-1.94336,2.61685,1.81904,-1.04902,0.385721,-0.860409,-2.25413,-2.01072,2.68062,1.75594,-1.11015,0,0,0,0,0,0,0,0,0,0,0,0,0,0,-0.248873,-0.484142,0.440082,0.899256,0.270243,-0.25108,0.235086,0,0,0,1.46771,-1.33121,0.5139,0,0,0,0,-8.61942e-07,-0.3,0.540333,-0.655377,0.688606,0.673615,-0.63772,0.630989,0.611383,1
0.439755,-0.925947,-2.18527,-1.94336,2.61685,1.81904,-1.04902,0.439755,-0.925947,-2.18527,-1.94336,2.61685,1.81904,-1.04902,0.385721,-0.860409,-2.25413,-2.01072,2.68062,1.75594,-1.11015,0,0,0,0,0,0,0,0,0,0,0,0,0,0,-0.248873,-0.484142,0.440082,0.899256,0.270243,-0.25108,0.235086,0,0,0,1.46771,-1.33121,0.5139,0,0,0,0,-8.56619e-07,-0.3,0.540332,-0.655377,0.688606,0.673615,-0.63772,0.630989,0.611383,1
0.439755,-0.925947,-2.18527,-1.94336,2.61685,1.81904,-1.04902,0.439755,-0.925947,-2.18527,-1.94336,2.61685,1.81904,-1.04902,0.385721,-0.860409,-2.25413,-2.01072,2.68062,1.75594,-1.11015,0,0,0,0,0,0,0,0,0,0,0,0,0,0,-0.248873,-0.484142,0.440082,0.899256,0.270243,-0.25108,0.235086,0,0,0,1.46771,-1.33121,0.5139,0,0,0,0,-8.53935e-07,-0.3,0.540333,-0.655377,0.688607,0.673615,-0.63772,0.630989,0.611383,1
0.439755,-0.925947,-2.18527,-1.94336,2.61685,1.81904,-1.04902,0.439755,-0.925947,-2.18527,-1.94336,2.61685,1.81904,-1.04902,0.385721,-0.860409,-2.25413,-2.01072,2.68062,1.75594,-1.11015,0,0,0,0,0,0,0,0,0,0,0,0,0,0,-0.248873,-0.484142,0.440082,0.899256,0.270243,-0.25108,0.235086,0,0,0,1.46771,-1.33121,0.5139,0,0,0,0,-8.47985e-07,-0.3,0.540332,-0.655377,0.688606,0.673615,-0.63772,0.630989,0.611383,1
0.439755,-0.925947,-2.18527,-1.94336,2.61685,1.81904,-1.04902,0.439755,-0.925947,-2.18527,-1.94336,2.61685,1.81904,-1.04902,0.385721,-0.860409,-2.25413,-2.01072,2.68062,1.75594,-1.11015,0,0,0,0,0,0,0,0,0,0,0,0,0,0,-0.248873,-0.484142,0.440082,0.899256,0.270243,-0.25108,0.235086,0,0,0,1.46771,-1.33121,0.5139,0,0,0,0,-8.4616e-07,-0.3,0.540333,-0.655377,0.688606,0.673615,-0.63772,0.630989,0.611383,1
0.439755,-0.925947,-2.18527,-1.94336,2.61685,1.81904,-1.04902,0.439755,-0.925947,-2.18527,-1.94336,2.61685,1.81904,-1.04902,0.385721,-0.860409,-2.25413,-2.01072,2.68062,1.75594,-1.11015,0,0,0,0,0,0,0,0,0,0,0,0,0,0,-0.248873,-0.484142,0.440082,0.899256,0.270243,-0.25108,0.235086,0,0,0,1.46771,-1.33121,0.5139,0,0,0,0,-8.49198e-07,-0.3,0.540333,-0.655377,0.688606,0.673615,-0.63772,0.630989,0.611383,1
0.439755,-0.925947,-2.18527,-1.94336,2.61685,1.81904,-1.04902,0.439755,-0.925947,-2.18527,-1.94336,2.61685,1.81904,-1.04902,0.385721,-0.860409,-2.25413,-2.01072,2.68062,1.75594,-1.11015,0,0,0,0,0,0,0,0,0,0,0,0,0,0,-0.248873,-0.484142,0.440082,0.899256,0.270243,-0.25108,0.235086,0,0,0,1.46771,-1.33121,0.5139,0,0,0,0,-8.48246e-07,-0.3,0.540332,-0.655377,0.688606,0.673615,-0.63772,0.630989,0.611383,1
0.439755,-0.925947,-2.18527,-1.94336,2.61685,1.81904,-1.04902,0.439755,-0.925947,-2.18527,-1.94336,2.61685,1.81904,-1.04902,0.385721,-0.860409,-2.25413,-2.01072,2.68062,1.75594,-1.11015,0,0,0,0,0,0,0,0,0,0,0,0,0,0,-0.248873,-0.484142,0.440082,0.899256,0.270243,-0.25108,0.235086,0,0,0,1.46771,-1.33121,0.5139,0,0,0,0,-8.50894e-07,-0.3,0.540333,-0.655377,0.688606,0.673615,-0.63772,0.630989,0.611383,1
0.439755,-0.925947,-2.18527,-1.94336,2.61685,1.81904,-1.04902,0.439755,-0.925947,-2.18527,-1.94336,2.61685,1.81904,-1.04902,0.385721,-0.860409,-2.25413,-2.01072,2.68062,1.75594,-1.11015,0,0,0,0,0,0,0,0,0,0,0,0,0,0,-0.248873,-0.484142,0.440082,0.899256,0.270243,-0.25108,0.235086,0,0,0,1.46771,-1.33121,0.5139,0,0,0,0,-8.41108e-07,-0.3,0.540332,-0.655377,0.688606,0.673615,-0.63772,0.630989,0.611383,1
0.439755,-0.925947,-2.18527,-1.94336,2.61685,1.81904,-1.04902,0.439755,-0.925947,-2.18527,-1.94336,2.61685,1.81904,-1.04902,0.385721,-0.860409,-2.25413,-2.01072,2.68062,1.75594,-1.11015,0,0,0,0,0,0,0,0,0,0,0,0,0,0,-0.248873,-0.484142,0.440082,0.899256,0.270243,-0.25108,0.235086,0,0,0,1.46771,-1.33121,0.5139,0,0,0,0,-8.53973e-07,-0.3,0.540333,-0.655377,0.688607,0.673615,-0.63772,0.630989,0.611383,1
0.439755,-0.925947,-2.18527,-1.94336,2.61685,1.81904,-1.04902,0.439755,-0.925947,-2.18527,-1.94336,2.61685,1.81904,-1.04902,0.385721,-0.860409,-2.25413,-2.01072,2.68062,1.75594,-1.11015,0,0,0,0,0,0,0,0,0,0,0,0,0,0,-0.248873,-0.484142,0.440082,0.899256,0.270243,-0.25108,0.235086,0,0,0,1.46771,-1.33121,0.5139,0,0,0,0,-8.57095e-07,-0.3,0.540332,-0.655377,0.688606,0.673615,-0.63772,0.630989,0.611383,1
0.439755,-0.925947,-2.18527,-1.94336,2.61685,1.81904,-1.04902,0.439755,-0.925947,-2.18527,-1.94336,2.61685,1.81904,-1.04902,0.385721,-0.860409,-2.25413,-2.01072,2.68062,1.75594,-1.11015,0,0,0,0,0,0,0,0,0,0,0,0,0,0,-0.248873,-0.484142,0.440082,0.899256,0.270243,-0.25108,0.235086,0,0,0,1.46771,-1.33121,0.5139,0,0,0,0,-8.54719e-07,-0.3,0.540332,-0.655377,0.688606,0.673615,-0.63772,0.630989,0.611383,1
0.439755,-0.925947,-2.18527,-1.94336,2.61685,1.81904,-1.04902,0.439755,-0.925947,-2.18527,-1.94336,2.61685,1.81904,-1.04902,0.385721,-0.860409,-2.25413,-2.01072,2.68062,1.75594,-1.11015,0,0,0,0,0,0,0,0,0,0,0,0,0,0,-0.248873,-0.484142,0.440082,0.899256,0.270243,-0.25108,0.235086,0,0,0,1.46771,-1.33121,0.5139,0,0,0,0,-8.52739e-07,-0.3,0.540332,-0.655377,0.688606,0.673615,-0.63772,0.630989,0.611383,1
0.439755,-0.925947,-2.18527,-1.94336,2.61685,1.81904,-1.04902,0.439755,-0.925947,-2.18527,-1.94336,2.61685,1.81904,-1.04902,0.385721,-0.860409,-2.25413,-2.01072,2.68062,1.75594,-1.11015,0,0,0,0,0,0,0,0,0,0,0,0,0,0,-0.248873,-0.484142,0.440082,0.899256,0.270243,-0.25108,0.235086,0,0,0,1.46771,-1.33121,0.5139,0,0,0,0,-8.54371e-07,-0.3,0.540332,-0.655377,0.688607,0.673615,-0.63772,0.630989,0.611383,1
0.439755,-0.925947,-2.18527,-1.94336,2.61685,1.81904,-1.04902,0.439755,-0.925947,-2.18527,-1.94336,2.61685,1.81904,-1.04902,0.385721,-0.860409,-2.25413,-2.01072,2.68062,1.75594,-1.11015,0,0,0,0,0,0,0,0,0,0,0,0,0,0,-0.248873,-0.484142,0.440082,0.899256,0.270243,-0.25108,0.235086,0,0,0,1.46771,-1.33121,0.5139,0,0,0,0,-8.5776e-07,-0.3,0.540333,-0.655377,0.688606,0.673615,-0.63772,0.630989,0.611383,1
0.439755,-0.925947,-2.18527,-1.94336,2.61685,1.81904,-1.04902,0.439755,-0.925947,-2.18527,-1.94336,2.61685,1.81904,-1.04902,0.385721,-0.860409,-2.25413,-2.01072,2.68062,1.75594,-1.11015,0,0,0,0,0,0,0,0,0,0,0,0,0,0,-0.248873,-0.484142,0.440082,0.899256,0.270243,-0.25108,0.235086,0,0,0,1.46771,-1.33121,0.5139,0,0,0,0,-8.50232e-07,-0.3,0.540333,-0.655377,0.688606,0.673615,-0.63772,0.630989,0.611383,1
0.439755,-0.925947,-2.18527,-1.94336,2.61685,1.81904,-1.04902,0.439755,-0.925947,-2.18527,-1.94336,2.61685,1.81904,-1.04902,0.385721,-0.860409,-2.25413,-2.01072,2.68062,1.75594,-1.11015,0,0,0,0,0,0,0,0,0,0,0,0,0,0,-0.248873,-0.484142,0.440082,0.899256,0.270243,-0.25108,0.235086,0,0,0,1.46771,-1.33121,0.5139,0,0,0,0,-8.47254e-07,-0.3,0.540332,-0.655377,0.688606,0.673615,-0.63772,0.630989,0.611383,1
