Afshin1997/kuka_rl_ros2/src/catch_and_throw/input_files/idealpd/trajectory_evaluator/4.csv
pure_target_joint_0,pure_target_joint_1,pure_target_joint_2,pure_target_joint_3,pure_target_joint_4,pure_target_joint_5,pure_target_joint_6,target_joint_0,target_joint_1,target_joint_2,target_joint_3,target_joint_4,target_joint_5,target_joint_6,pos_joint_0,pos_joint_1,pos_joint_2,pos_joint_3,pos_joint_4,pos_joint_5,pos_joint_6,vel_joint_0,vel_joint_1,vel_joint_2,vel_joint_3,vel_joint_4,vel_joint_5,vel_joint_6,vel_smooth_joint_0,vel_smooth_joint_1,vel_smooth_joint_2,vel_smooth_joint_3,vel_smooth_joint_4,vel_smooth_joint_5,vel_smooth_joint_6,ee_pos_x,ee_pos_y,ee_pos_z,ee_or_w,ee_or_x,ee_or_y,ee_or_z,ee_vel_x,ee_vel_y,ee_vel_z,ball_pos_x,ball_pos_y,ball_pos_z,ball_raw_vx,ball_raw_vy,ball_raw_vz,ball_ema_vx,ball_ema_vy,ball_ema_vz,action_0,action_1,action_2,action_3,action_4,action_5,action_6,command_published
1.70023,-1.00898,-1.88395,-1.0434,1.88549,1.18544,-0.941425,1.77524,-1.06121,-1.81947,-1.11247,1.93402,1.12117,-0.917807,1.78024,-1.06469,-1.81517,-1.11708,1.93726,1.11689,-0.916232,0,0,0,0,0,0,0,0,0,0,0,0,0,0,0.531064,-0.454438,0.694238,0.574497,0.175216,0.152598,0.784835,0,0,0,2.98561,-0.492933,0.423557,-4.0957,-0.284342,6.80817,-4.98313,-0.361332,6.2496,-0.800094,0.557145,-0.687735,0.736775,-0.517671,0.685581,-0.251926,1
1.70049,-1.00757,-1.88245,-1.043,1.88984,1.18521,-0.939596,1.75525,-1.0472,-1.83657,-1.09403,1.92135,1.1383,-0.923991,1.78024,-1.06469,-1.81517,-1.11708,1.93726,1.11689,-0.916232,0,0,0,0,0,0,0,0,0,0,0,0,0,0,0.531064,-0.454438,0.694238,0.574497,0.175216,0.152598,0.784835,0,0,0,2.95011,-0.49579,0.485981,-3.63209,-0.292299,6.38715,-4.75396,-0.334267,6.4842,-0.797466,0.571265,-0.672716,0.740776,-0.474203,0.683249,-0.233637,1
1.69967,-1.0075,-1.88226,-1.04279,1.89523,1.18457,-0.941589,1.72526,-1.02594,-1.86198,-1.06629,1.90336,1.16391,-0.933105,1.77986,-1.06443,-1.8155,-1.11672,1.93701,1.11721,-0.916353,-0.076765,0.0534542,-0.0659845,0.0706923,-0.0496703,0.065779,-0.0241713,-0.076765,0.0534542,-0.0659845,0.0706923,-0.0496703,0.065779,-0.0241713,0.530799,-0.454687,0.694367,0.574929,0.17499,0.152763,0.784537,-0.0518806,-0.0522679,0.0254318,2.91862,-0.498801,0.542508,-3.18123,-0.304214,5.71096,-4.35565,-0.311589,6.40154,-0.801834,0.569315,-0.667543,0.7393,-0.417821,0.673503,-0.252361,1
1.69616,-1.00739,-1.88194,-1.04079,1.89667,1.18367,-0.947106,1.70493,-1.01146,-1.87854,-1.04754,1.89349,1.18074,-0.939561,1.77701,-1.06244,-1.81794,-1.1141,1.93519,1.11965,-0.91724,-0.426799,0.29873,-0.365638,0.393641,-0.272138,0.365708,-0.132711,-0.426799,0.29873,-0.365638,0.393641,-0.272138,0.365708,-0.132711,0.528826,-0.456527,0.695337,0.578118,0.173319,0.153974,0.782325,-0.290342,-0.288603,0.143446,2.89274,-0.501929,0.58837,-2.49992,-0.302229,4.43058,-3.85013,-0.297692,6.00877,-0.808529,0.55054,-0.639976,0.733143,-0.385184,0.640232,-0.298658,1
1.68669,-1.00348,-1.87799,-1.03587,1.90155,1.18897,-0.963029,1.69822,-1.00733,-1.88207,-1.04195,1.89403,1.18483,-0.9438,1.76854,-1.05649,-1.82517,-1.10628,1.92989,1.1269,-0.919853,-1.0259,0.722422,-0.874167,0.947616,-0.6358,0.877736,-0.315372,-1.0259,0.722422,-0.874167,0.947616,-0.6358,0.877736,-0.315372,0.522886,-0.461929,0.698277,0.587516,0.168328,0.157575,0.775668,-0.709745,-0.67992,0.353393,2.87057,-0.505331,0.623657,-2.22421,-0.341128,3.53914,-3.38045,-0.302385,5.45053,-0.818483,0.530049,-0.528168,0.70409,-0.28336,0.620645,-0.431762,1
1.67316,-0.992071,-1.8749,-1.02849,1.93272,1.20028,-0.976789,1.6935,-1.00549,-1.88062,-1.03943,1.89936,1.18635,-0.951093,1.75471,-1.04672,-1.83688,-1.09351,1.92161,1.13868,-0.924105,-1.43687,1.01612,-1.21075,1.32728,-0.840915,1.22017,-0.443515,-1.43687,1.01612,-1.21075,1.32728,-0.840915,1.22017,-0.443515,0.513,-0.470499,0.703203,0.60254,0.160184,0.163417,0.76458,-1.01931,-0.921054,0.511494,2.84752,-0.509316,0.65339,-2.30443,-0.398538,2.97302,-2.94466,-0.31628,4.68635,-0.81555,0.546467,-0.380218,0.650191,0.111132,0.615982,-0.526834,1
1.66015,-0.980125,-1.86723,-1.02105,1.95322,1.21109,-0.986555,1.68483,-1.0004,-1.8778,-1.03476,1.91096,1.19158,-0.962619,1.74009,-1.03641,-1.84896,-1.08005,1.91368,1.15092,-0.928812,-1.39677,0.979742,-1.1369,1.28046,-0.722584,1.15588,-0.466756,-1.39677,0.979742,-1.1369,1.28046,-0.722584,1.15588,-0.466756,0.502312,-0.479249,0.708575,0.618014,0.151665,0.16937,0.752576,-1.014,-0.863538,0.513877,2.82322,-0.513099,0.676297,-2.42689,-0.37776,2.28754,-2.64392,-0.335959,3.89297,-0.799354,0.562815,-0.182743,0.589993,0.39543,0.601681,-0.577432,1
1.65229,-0.969107,-1.83877,-1.04978,1.96464,1.2221,-0.992057,1.67342,-0.991459,-1.87194,-1.03057,1.9298,1.20048,-0.97489,1.72786,-1.02802,-1.85823,-1.06906,1.90852,1.16065,-0.93362,-1.16048,0.783924,-0.838322,1.02881,-0.428951,0.904742,-0.501498,-1.16048,0.783924,-0.838322,1.02881,-0.428951,0.904742,-0.501498,0.493212,-0.48634,0.713238,0.630683,0.144751,0.173664,0.742379,-0.85474,-0.691176,0.445387,2.7943,-0.517367,0.697793,-2.81045,-0.414829,2.08912,-2.49059,-0.35659,3.12735,-0.75567,0.589159,0.194604,0.192765,0.561264,0.614478,-0.584368,1
1.65414,-0.957998,-1.81756,-1.10901,1.96879,1.22532,-0.991513,1.66272,-0.980434,-1.8596,-1.03652,1.9487,1.21065,-0.984328,1.71745,-1.02124,-1.86436,-1.0603,1.90681,1.16834,-0.939458,-1.02602,0.663791,-0.538594,0.841576,-0.0600038,0.748254,-0.631047,-1.02602,0.663791,-0.538594,0.841576,-0.0600038,0.748254,-0.631047,0.485309,-0.492147,0.717577,0.641319,0.139016,0.175828,0.733804,-0.76695,-0.575805,0.438774,2.76101,-0.521383,0.719131,-3.48235,-0.420076,2.2324,-2.55308,-0.378802,2.55323,-0.633177,0.632474,0.468044,-0.487123,0.619747,0.569797,-0.520553,1
1.67169,-0.944148,-1.80822,-1.11498,1.97231,1.23069,-0.990291,1.65723,-0.968959,-1.84093,-1.06015,1.96131,1.21932,-0.989481,1.70733,-1.01465,-1.86772,-1.05274,1.90943,1.17561,-0.946965,-1.02304,0.679068,-0.259232,0.728015,0.396988,0.740723,-0.790346,-1.02304,0.679068,-0.259232,0.728015,0.396988,0.740723,-0.790346,0.477325,-0.497359,0.722641,0.651341,0.133262,0.175551,0.72607,-0.781243,-0.506093,0.526389,2.72125,-0.526069,0.744521,-3.9779,-0.468839,2.53992,-2.81803,-0.403203,2.22076,-0.356354,0.705007,0.595049,-0.622412,0.628803,0.550796,-0.433255,1
1.66468,-0.933152,-1.81159,-1.09695,1.97829,1.24254,-0.994842,1.6591,-0.957143,-1.82326,-1.08944,1.96825,1.22604,-0.991242,1.6969,-1.00723,-1.86797,-1.04691,1.91666,1.18344,-0.955605,-1.04556,0.771979,0.0798134,0.484867,0.819421,0.802477,-0.870681,-1.04556,0.771979,0.0798134,0.484867,0.819421,0.802477,-0.870681,0.468879,-0.501593,0.728998,0.660642,0.126773,0.172797,0.719459,-0.789159,-0.361763,0.640994,2.67589,-0.530832,0.776118,-4.43938,-0.466169,3.09265,-3.2058,-0.421946,2.13434,-0.322125,0.740772,0.563777,-0.500425,0.6163,0.590992,-0.392364,1
1.63792,-0.921411,-1.81314,-1.05255,1.98554,1.25679,-0.993414,1.66223,-0.945,-1.81361,-1.101,1.97327,1.2334,-0.99204,1.68679,-0.998753,-1.86416,-1.04578,1.92671,1.19182,-0.964143,-0.972494,0.872586,0.504118,-0.0926084,1.02638,0.840331,-0.825634,-0.972494,0.872586,0.504118,-0.0926084,1.02638,0.840331,-0.825634,0.461068,-0.503135,0.736163,0.667493,0.11961,0.168588,0.71535,-0.659558,-0.0382384,0.686139,2.62686,-0.535366,0.814242,-5.06879,-0.468676,3.9413,-3.6929,-0.438686,2.31429,-0.488684,0.773418,0.510264,-0.067695,0.588348,0.649767,-0.292705,1
1.61788,-0.910758,-1.81621,-0.996285,1.97837,1.26955,-0.998098,1.65616,-0.933119,-1.8118,-1.08482,1.97802,1.24375,-0.993342,1.67855,-0.9894,-1.85622,-1.0521,1.93705,1.20013,-0.971461,-0.739488,0.955765,0.875171,-0.823232,1.00595,0.818043,-0.685584,-0.739488,0.955765,0.875171,-0.823232,1.00595,0.818043,-0.685584,0.455662,-0.500274,0.74311,0.670077,0.112376,0.164539,0.715049,-0.389737,0.395855,0.649054,2.5742,-0.53965,0.859509,-5.30224,-0.431294,4.55713,-4.19134,-0.449272,2.71502,-0.606718,0.786419,0.400119,0.558164,0.413218,0.694222,-0.266374,1
1.60418,-0.901727,-1.80773,-0.99472,1.94505,1.27768,-0.99384,1.6396,-0.921874,-1.81287,-1.04987,1.97858,1.25609,-0.994773,1.67328,-0.979324,-1.84614,-1.06357,1.94628,1.20804,-0.977129,-0.457588,1.02481,1.00483,-1.14805,0.888093,0.786469,-0.526376,-0.457588,1.02481,1.00483,-1.14805,0.888093,0.786469,-0.526376,0.452946,-0.493587,0.749588,0.668967,0.105266,0.161571,0.717842,-0.174001,0.684455,0.626389,2.52118,-0.543658,0.910063,-5.20367,-0.393366,4.9619,-4.63131,-0.448602,3.2517,-0.69101,0.775971,0.384064,0.688539,-0.0122849,0.69642,-0.167112,1
1.5922,-0.893465,-1.81337,-1.00153,1.93246,1.28397,-0.995367,1.62079,-0.911482,-1.81286,-1.01658,1.96896,1.26761,-0.995488,1.66968,-0.968682,-1.83678,-1.07294,1.9543,1.21602,-0.981456,-0.380358,1.07451,0.873225,-0.724396,0.774428,0.818069,-0.407534,-0.380358,1.07451,0.873225,-0.724396,0.774428,0.818069,-0.407534,0.450656,-0.486434,0.756514,0.667594,0.0975751,0.159282,0.720712,-0.223071,0.607768,0.707544,2.46996,-0.547183,0.963334,-4.92383,-0.338946,5.12172,-4.87744,-0.430618,3.769,-0.77479,0.752177,0.234127,0.714099,-0.218359,0.679482,-0.139114,1
1.58455,-0.886397,-1.82619,-1.00152,1.93689,1.29019,-0.987702,1.60549,-0.902191,-1.81275,-1.00085,1.95225,1.2767,-0.994876,1.66458,-0.957738,-1.82978,-1.07363,1.96106,1.22483,-0.984935,-0.605586,1.09696,0.632756,0.227807,0.625162,0.910136,-0.330906,-0.605586,1.09696,0.632756,0.227807,0.625162,0.910136,-0.330906,0.445716,-0.482552,0.765028,0.669729,0.0883377,0.156805,0.720466,-0.532513,0.226125,0.881856,2.42466,-0.550434,1.01509,-4.63076,-0.332303,5.29027,-5.00974,-0.406128,4.26353,-0.8003,0.71341,0.0358789,0.721085,-0.241718,0.653629,-0.0276728,1
1.57558,-0.879452,-1.84419,-0.992145,1.92959,1.29981,-0.994278,1.59385,-0.893969,-1.81727,-0.998911,1.93941,1.28404,-0.993172,1.65605,-0.946774,-1.82499,-1.06434,1.96529,1.23458,-0.987779,-0.937994,1.09167,0.43966,1.12852,0.307543,0.9893,-0.266675,-0.937994,1.09167,0.43966,1.12852,0.307543,0.9893,-0.266675,0.436942,-0.482917,0.775359,0.676516,0.07715,0.154322,0.715932,-0.881101,-0.151836,1.04085,2.38339,-0.55332,1.06501,-4.05345,-0.283436,4.90218,-4.9373,-0.374472,4.58755,-0.804749,0.673218,-0.192078,0.721929,-0.356972,0.652334,-0.0649916,1
1.56374,-0.870254,-1.85351,-0.977895,1.92404,1.30911,-0.999851,1.58415,-0.886377,-1.82804,-0.997277,1.93367,1.29144,-0.992405,1.64488,-0.936057,-1.82154,-1.04959,1.96505,1.24464,-0.989917,-1.15144,1.05989,0.316874,1.4827,-0.161096,0.998062,-0.190977,-1.15144,1.05989,0.316874,1.4827,-0.161096,0.998062,-0.190977,0.425873,-0.485385,0.786333,0.685948,0.0647462,0.153272,0.708372,-1.04572,-0.292636,1.05834,2.348,-0.555897,1.10856,-3.51122,-0.255737,4.32161,-4.65155,-0.338634,4.64964,-0.811427,0.658027,-0.31972,0.716978,-0.410095,0.644744,-0.0993406,1
1.55069,-0.859451,-1.86253,-0.964925,1.92423,1.31756,-0.998424,1.57435,-0.878515,-1.84124,-0.989811,1.92987,1.29985,-0.994355,1.63282,-0.925826,-1.81939,-1.03563,1.96043,1.25429,-0.991192,-1.20254,1.00643,0.159069,1.29658,-0.529764,0.946044,-0.102723,-1.20254,1.00643,0.159069,1.29658,-0.529764,0.946044,-0.102723,0.414993,-0.48757,0.796134,0.695211,0.0528373,0.154684,0.699973,-1.00095,-0.250813,0.913915,2.31924,-0.558552,1.1433,-2.95199,-0.272504,3.56575,-4.25122,-0.309932,4.49155,-0.821284,0.663744,-0.431362,0.707025,-0.362068,0.632707,-0.0723167,1
1.53795,-0.848264,-1.86796,-0.95693,1.92967,1.32756,-1.00381,1.56313,-0.869488,-1.85263,-0.978381,1.92663,1.30887,-0.997589,1.62103,-0.916213,-1.81962,-1.02509,1.95403,1.26329,-0.991695,-1.16193,0.944542,-0.110083,0.97937,-0.634685,0.88692,-0.0396894,-1.16193,0.944542,-0.110083,0.97937,-0.634685,0.88692,-0.0396894,0.405529,-0.489044,0.803777,0.70317,0.0427907,0.158099,0.6919,-0.883587,-0.203849,0.70873,2.29446,-0.561692,1.17092,-2.5141,-0.31843,2.80128,-3.77664,-0.293717,4.11072,-0.830816,0.679488,-0.483426,0.681644,-0.24365,0.642644,-0.12116,1
1.52629,-0.837669,-1.86949,-0.954657,1.93605,1.33764,-1.00769,1.5508,-0.859244,-1.86092,-0.967228,1.92661,1.31809,-1.00045,1.60982,-0.907152,-1.82302,-1.01664,1.94797,1.27192,-0.992046,-1.10911,0.896151,-0.421543,0.837603,-0.587599,0.860747,-0.0484018,-1.10911,0.896151,-0.421543,0.837603,-0.587599,0.860747,-0.0484018,0.397168,-0.490558,0.809565,0.710465,0.0346056,0.162544,0.683829,-0.812673,-0.221871,0.554403,2.272,-0.564912,1.19044,-2.17141,-0.311434,1.8884,-3.28097,-0.289122,3.52691,-0.835348,0.694831,-0.46472,0.619789,-0.119134,0.657265,-0.15649,1
1.5159,-0.828534,-1.85686,-0.959464,1.94969,1.34819,-1.01552,1.53845,-0.848553,-1.86539,-0.959829,1.9308,1.32772,-1.00392,1.5989,-0.898341,-1.82906,-1.00815,1.94259,1.28053,-0.992948,-1.09425,0.88284,-0.648462,0.872629,-0.520089,0.864425,-0.109664,-1.09425,0.88284,-0.648462,0.872629,-0.520089,0.864425,-0.109664,0.389076,-0.492555,0.81445,0.718023,0.0273636,0.167443,0.675024,-0.814162,-0.266291,0.494341,2.25014,-0.56832,1.20248,-2.21969,-0.345928,1.22164,-2.8542,-0.294862,2.82358,-0.830035,0.698071,-0.277979,0.486902,0.0709622,0.67664,-0.22573,1
1.5093,-0.819669,-1.8082,-1.04002,1.97946,1.35769,-1.02926,1.52707,-0.83827,-1.86168,-0.962404,1.93984,1.33776,-1.00945,1.58782,-0.889376,-1.83638,-0.998859,1.93806,1.28927,-0.994483,-1.11909,0.907144,-0.739929,0.945012,-0.415026,0.878178,-0.164492,-1.11909,0.907144,-0.739929,0.945012,-0.415026,0.878178,-0.164492,0.380657,-0.494903,0.819298,0.726057,0.0202786,0.172328,0.665381,-0.854898,-0.288251,0.505872,2.22511,-0.571909,1.21098,-2.52948,-0.362895,0.85934,-2.57371,-0.311852,2.11273,-0.785131,0.697064,0.281749,-0.411574,0.413951,0.68421,-0.347747,1
1.51547,-0.810503,-1.78385,-1.06137,1.98445,1.35992,-1.01341,1.5182,-0.828708,-1.84398,-0.984611,1.95464,1.34737,-1.01614,1.57638,-0.880014,-1.84368,-0.989324,1.93514,1.29818,-0.996441,-1.15158,0.94723,-0.706477,0.935646,-0.233259,0.896834,-0.208304,-1.15158,0.94723,-0.706477,0.935646,-0.233259,0.896834,-0.208304,0.371809,-0.497176,0.824502,0.734168,0.0130655,0.176641,0.655457,-0.887737,-0.262862,0.541977,2.19647,-0.57567,1.21857,-2.90513,-0.38134,0.770066,-2.47292,-0.333453,1.48837,-0.609038,0.695103,0.598255,-0.720444,0.493056,0.617405,-0.169719,1
1.52862,-0.802375,-1.78348,-1.05409,1.98638,1.36405,-0.982113,1.51476,-0.819638,-1.81656,-1.02076,1.97098,1.35502,-1.01757,1.56475,-0.870306,-1.84955,-0.981161,1.9346,1.30732,-0.998985,-1.16033,0.975501,-0.507384,0.727045,0.0260074,0.921794,-0.279253,-1.16033,0.975501,-0.507384,0.727045,0.0260074,0.921794,-0.279253,0.36291,-0.498726,0.830033,0.741668,0.00567553,0.179822,0.646189,-0.862836,-0.160434,0.564625,2.16238,-0.579827,1.22739,-3.35199,-0.408794,0.867501,-2.5492,-0.352941,1.01534,-0.361286,0.679311,0.660712,-0.729308,0.51772,0.567229,0.168724,1
1.50949,-0.792068,-1.78612,-1.04497,1.99037,1.3741,-0.966663,1.51687,-0.810738,-1.79455,-1.04682,1.98188,1.36055,-1.00676,1.55339,-0.860491,-1.85163,-0.977548,1.93722,1.31669,-1.00246,-1.11552,0.979401,-0.0436761,0.146579,0.363304,0.938589,-0.374594,-1.11552,0.979401,-0.0436761,0.146579,0.363304,0.938589,-0.374594,0.354925,-0.498433,0.835555,0.74731,-0.00177601,0.181201,0.639289,-0.71377,0.0710474,0.542164,2.12291,-0.584239,1.23949,-3.97508,-0.444323,1.21879,-2.8107,-0.374102,0.755435,-0.439027,0.684226,0.655101,-0.674263,0.531427,0.574098,0.358017,1
1.51194,-0.778657,-1.78073,-1.04635,1.99464,1.38247,-0.959618,1.5183,-0.801429,-1.7856,-1.05227,1.98698,1.36628,-0.987616,1.54315,-0.850785,-1.84736,-0.982325,1.94342,1.32597,-1.00645,-0.967315,0.965265,0.619655,-0.738508,0.703518,0.914844,-0.377297,-0.967315,0.965265,0.619655,-0.738508,0.703518,0.914844,-0.377297,0.349315,-0.494929,0.840551,0.749319,-0.00889821,0.180317,0.637125,-0.422881,0.420024,0.472645,2.07797,-0.588702,1.25714,-4.51255,-0.448198,1.77226,-3.22992,-0.399132,0.743581,-0.312088,0.721286,0.666319,-0.640232,0.512253,0.564961,0.468318,1
1.51447,-0.765991,-1.77047,-1.03671,1.99341,1.39418,-0.951797,1.51557,-0.790815,-1.78299,-1.04811,1.99026,1.37405,-0.970757,1.53527,-0.841273,-1.83694,-0.995221,1.95207,1.33463,-1.00877,-0.705416,0.946136,1.13824,-1.39893,0.883709,0.839741,-0.123028,-0.705416,0.946136,1.13824,-1.39893,0.883709,0.839741,-0.123028,0.346808,-0.487957,0.844877,0.746801,-0.015348,0.177729,0.640675,-0.12006,0.733256,0.413272,2.02806,-0.59325,1.28134,-4.98605,-0.454351,2.41716,-3.70419,-0.418921,0.953196,-0.207987,0.752821,0.66466,-0.414934,0.413466,0.595491,0.569746,1
1.48099,-0.757028,-1.77761,-0.942493,1.93977,1.41303,-0.951778,1.51107,-0.778974,-1.77949,-1.03759,1.98932,1.38406,-0.96034,1.53016,-0.831903,-1.82424,-1.01027,1.96091,1.34242,-1.00673,-0.456113,0.936496,1.23897,-1.42465,0.853052,0.761586,0.346186,-0.456113,0.936496,1.23897,-1.42465,0.853052,0.761586,0.346186,0.346278,-0.47918,0.84903,0.74099,-0.0212664,0.174837,0.648008,0.0190166,0.845481,0.414399,1.97648,-0.597347,1.3108,-5.11292,-0.406058,2.92039,-4.16709,-0.429689,1.32368,-0.491752,0.748742,0.46622,0.677717,-0.211363,0.706077,0.549539,1
1.45308,-0.755709,-1.80652,-0.955883,1.94349,1.41626,-0.946361,1.50132,-0.767904,-1.77805,-1.01103,1.977,1.39609,-0.954337,1.52659,-0.82245,-1.81308,-1.02185,1.96855,1.34978,-1.00002,-0.350153,0.954939,1.04414,-1.02774,0.727859,0.739421,0.755625,-0.350153,0.954939,1.04414,-1.02774,0.727859,0.739421,0.755625,0.345756,-0.470712,0.853572,0.734281,-0.0271573,0.172646,0.655963,-0.0204657,0.781517,0.464812,1.92568,-0.601444,1.34443,-4.85669,-0.391694,3.21472,-4.52151,-0.42907,1.77243,-0.735081,0.667408,0.0656451,0.659688,-0.250573,0.664823,0.536579,1
1.44349,-0.744095,-1.82292,-0.964021,1.96922,1.41932,-0.93772,1.48197,-0.759483,-1.78608,-0.977232,1.95938,1.40761,-0.95004,1.52312,-0.812573,-1.80429,-1.02849,1.97463,1.35743,-0.990924,-0.355513,1.00395,0.835897,-0.520876,0.549787,0.784478,0.920424,-0.355513,1.00395,0.835897,-0.520876,0.549787,0.784478,0.920424,0.344141,-0.463252,0.858848,0.728396,-0.0337493,0.171387,0.662516,-0.142148,0.679079,0.554781,1.87769,-0.604858,1.37845,-4.98571,-0.354669,3.53455,-4.81581,-0.421452,2.2566,-0.796264,0.684782,-0.186373,0.644661,-0.0540838,0.618938,0.532045,1
1.43827,-0.733103,-1.82145,-0.962419,1.96912,1.42715,-0.93087,1.46057,-0.752365,-1.80207,-0.960031,1.95372,1.41552,-0.944926,1.51896,-0.802199,-1.79715,-1.02903,1.97785,1.3659,-0.981794,-0.462924,1.04317,0.666505,0.17113,0.19261,0.876873,0.887033,-0.462924,1.04317,0.666505,0.17113,0.19261,0.876873,0.887033,0.340787,-0.456841,0.865322,0.724583,-0.042114,0.171298,0.66623,-0.351435,0.535208,0.694359,1.83212,-0.608202,1.41273,-4.60579,-0.338007,3.46519,-4.90885,-0.401162,2.64612,-0.806815,0.690956,-0.243028,0.666092,-0.0873237,0.61254,0.509243,1
1.43119,-0.724639,-1.8226,-0.953591,1.95321,1.43704,-0.926753,1.44616,-0.743843,-1.8156,-0.959589,1.95992,1.42123,-0.938361,1.51247,-0.791831,-1.79235,-1.02133,1.97626,1.37534,-0.973681,-0.755385,1.02059,0.372972,0.9866,-0.292536,0.961401,0.779559,-0.755385,1.02059,0.372972,0.9866,-0.292536,0.961401,0.779559,0.334563,-0.452532,0.873075,0.724478,-0.052622,0.173025,0.66515,-0.668388,0.268279,0.803805,1.79246,-0.611257,1.44329,-3.86135,-0.297436,2.97476,-4.78368,-0.373113,2.8562,-0.812784,0.671923,-0.302467,0.677415,-0.230429,0.616996,0.469277,1
1.42045,-0.717508,-1.82076,-0.939884,1.94172,1.44823,-0.924121,1.43762,-0.734173,-1.82113,-0.958796,1.96185,1.4283,-0.932099,1.50218,-0.782115,-1.7918,-1.00751,1.97104,1.3851,-0.966587,-1.12117,0.949986,-0.0826076,1.41022,-0.525519,0.959992,0.692914,-1.12117,0.949986,-0.0826076,1.41022,-0.525519,0.959992,0.692914,0.32547,-0.45132,0.880828,0.728302,-0.0633382,0.17672,0.65904,-0.925538,-0.0263761,0.757721,1.75939,-0.614036,1.46776,-3.43549,-0.288725,2.54212,-4.52984,-0.346403,2.88948,-0.817299,0.646068,-0.289597,0.676277,-0.293232,0.631301,0.424657,1
1.40708,-0.709235,-1.82337,-0.927927,1.94039,1.45809,-0.91813,1.42954,-0.725225,-1.82192,-0.951419,1.95451,1.43757,-0.927271,1.48928,-0.773028,-1.79575,-0.994018,1.9666,1.39416,-0.959943,-1.30274,0.904056,-0.474695,1.24084,-0.354923,0.878372,0.663766,-1.30274,0.904056,-0.474695,1.24084,-0.354923,0.878372,0.663766,0.315583,-0.452244,0.887068,0.733693,-0.0716997,0.181365,0.650892,-0.962785,-0.164361,0.60003,1.73025,-0.616949,1.48585,-2.94546,-0.29442,1.82853,-4.14629,-0.324068,2.69952,-0.822023,0.637928,-0.276174,0.660909,-0.262143,0.639323,0.418131,1
1.39405,-0.699031,-1.82688,-0.921098,1.95049,1.46705,-0.908675,1.41926,-0.717042,-1.8223,-0.940556,1.94652,1.44775,-0.922738,1.4764,-0.764012,-1.8018,-0.984198,1.96486,1.40237,-0.953344,-1.25185,0.906983,-0.600768,0.907017,-0.144021,0.812214,0.657058,-1.25185,0.906983,-0.600768,0.907017,-0.144021,0.812214,0.657058,0.306753,-0.453256,0.891887,0.738331,-0.0777692,0.185982,0.643607,-0.853812,-0.121698,0.488584,1.70485,-0.6199,1.49585,-2.51056,-0.291712,0.989287,-3.71445,-0.307894,2.3111,-0.823569,0.649808,-0.250765,0.630992,-0.143726,0.646731,0.446694,1
1.38282,-0.689353,-1.82569,-0.919732,1.95605,1.47668,-0.898996,1.40715,-0.708472,-1.82369,-0.930301,1.94503,1.45771,-0.916607,1.46479,-0.754867,-1.80734,-0.976431,1.96344,1.41044,-0.946951,-1.13203,0.912909,-0.514434,0.773458,-0.190783,0.816239,0.626303,-1.13203,0.912909,-0.514434,0.773458,-0.190783,0.816239,0.626303,0.299107,-0.453193,0.896315,0.741857,-0.0834904,0.190718,0.63742,-0.754674,-0.0164374,0.470782,1.68112,-0.622649,1.49891,-2.3058,-0.267155,0.297175,-3.23238,-0.294061,1.73334,-0.819707,0.655145,-0.183534,0.566992,-0.0739344,0.662434,0.479552,1
1.37309,-0.683433,-1.80014,-0.935141,1.96217,1.48702,-0.888752,1.39484,-0.699342,-1.82365,-0.924516,1.94954,1.46729,-0.908339,1.45401,-0.745836,-1.8115,-0.968507,1.9603,1.41891,-0.941025,-1.074,0.896036,-0.384687,0.816845,-0.354818,0.861631,0.58111,-1.074,0.896036,-0.384687,0.816845,-0.354818,0.861631,0.58111,0.291914,-0.45218,0.900906,0.744908,-0.090009,0.195919,0.631368,-0.727873,0.0537643,0.493877,1.65956,-0.625506,1.49563,-2.20417,-0.291973,-0.335323,-2.83979,-0.287804,1.08632,-0.809186,0.624031,0.113662,0.33366,0.0187097,0.681088,0.522731,1
1.36469,-0.678651,-1.77842,-0.983447,1.98501,1.49578,-0.881132,1.38358,-0.690866,-1.8165,-0.92842,1.95702,1.47689,-0.898934,1.44323,-0.737016,-1.81467,-0.959796,1.95628,1.42785,-0.93537,-1.08898,0.879948,-0.301955,0.883905,-0.381063,0.902518,0.569411,-1.08898,0.879948,-0.301955,0.883905,-0.381063,0.902518,0.569411,0.28454,-0.450791,0.905739,0.747902,-0.0972063,0.201218,0.625064,-0.751634,0.0781164,0.518237,1.63524,-0.628802,1.48954,-2.44828,-0.331821,-0.613149,-2.58838,-0.291997,0.445755,-0.78542,0.58365,0.362465,-0.236506,0.287305,0.679336,0.542378,1
1.35902,-0.680258,-1.76239,-1.00657,1.99645,1.50439,-0.877668,1.37385,-0.684494,-1.80041,-0.946952,1.96776,1.48646,-0.88996,1.43206,-0.728224,-1.81722,-0.950991,1.95343,1.43705,-0.929417,-1.12666,0.882044,-0.233869,0.855428,-0.223225,0.923095,0.6146,-1.12666,0.882044,-0.233869,0.855428,-0.223225,0.923095,0.6146,0.276844,-0.44927,0.910737,0.750681,-0.104545,0.205952,0.618977,-0.770584,0.0999711,0.529257,1.60635,-0.632348,1.48294,-2.78704,-0.342038,-0.636511,-2.46439,-0.298969,-0.112923,-0.730385,0.479661,0.548362,-0.555787,0.430143,0.673351,0.51749,1
1.35743,-0.697677,-1.75708,-1.00334,1.99034,1.51472,-0.865682,1.36605,-0.682106,-1.78146,-0.974412,1.98068,1.49573,-0.882322,1.42064,-0.719387,-1.8185,-0.943786,1.9529,1.44636,-0.92272,-1.14025,0.880786,-0.0572882,0.628181,0.0135643,0.933293,0.692212,-1.14025,0.880786,-0.0572882,0.628181,0.0135643,0.933293,0.692212,0.269279,-0.447299,0.915684,0.752559,-0.111671,0.209662,0.614188,-0.725469,0.168476,0.510552,1.57356,-0.636185,1.47767,-3.33972,-0.390833,-0.537536,-2.53332,-0.315367,-0.512274,-0.632077,0.217092,0.614134,-0.595511,0.37435,0.68361,0.570383,1
1.36601,-0.751767,-1.756,-0.994791,1.98073,1.52314,-0.854504,1.36136,-0.688879,-1.76703,-0.994781,1.98894,1.50491,-0.874782,1.40939,-0.710813,-1.8167,-0.940853,1.9549,1.45575,-0.915289,-1.11268,0.83909,0.29891,0.114869,0.271896,0.940482,0.755979,-1.11268,0.83909,0.29891,0.114869,0.271896,0.940482,0.755979,0.262743,-0.444277,0.920114,0.752517,-0.118361,0.211952,0.612197,-0.579777,0.292513,0.433252,1.5349,-0.640313,1.47605,-3.88018,-0.414352,-0.16229,-2.7721,-0.33895,-0.708236,-0.433742,-0.409545,0.606979,-0.539379,0.258323,0.673947,0.607846,1
1.44272,-0.771778,-1.7687,-0.970483,1.94782,1.52695,-0.846557,1.36576,-0.710287,-1.7602,-0.998712,1.98647,1.51382,-0.865654,1.39872,-0.703169,-1.81063,-0.944689,1.95953,1.46517,-0.907523,-1.04341,0.720699,0.714166,-0.580097,0.532769,0.940619,0.775568,-1.04341,0.720699,0.714166,-0.580097,0.532769,0.940619,0.775568,0.258085,-0.440042,0.923328,0.749831,-0.124158,0.21242,0.614178,-0.367155,0.408801,0.28542,1.49109,-0.644831,1.47921,-4.38817,-0.45255,0.316405,-3.15471,-0.370728,-0.694409,0.44001,-0.686091,0.419275,-0.257939,-0.117121,0.617859,0.609659,1
1.44172,-0.774489,-1.83478,-0.905052,1.93314,1.5423,-0.864327,1.38734,-0.740198,-1.76477,-0.985978,1.97291,1.52201,-0.857373,1.3891,-0.697718,-1.80125,-0.954678,1.96616,1.47453,-0.8998,-0.921073,0.443458,0.979514,-1.08521,0.676369,0.935274,0.770731,-0.921073,0.443458,0.979514,-1.08521,0.676369,0.935274,0.770731,0.25529,-0.435534,0.924768,0.744899,-0.128606,0.210999,0.61973,-0.195049,0.399477,0.0905026,1.44281,-0.649191,1.48801,-4.75036,-0.428975,0.866371,-3.59341,-0.395204,-0.479371,0.526238,-0.767709,-0.335268,0.496259,-0.330225,0.677638,0.354733,1
1.38232,-0.765518,-1.82315,-0.90588,1.9187,1.55314,-0.854013,1.41419,-0.762431,-1.78472,-0.958218,1.95322,1.53071,-0.854647,1.38157,-0.696856,-1.79103,-0.966348,1.97243,1.48383,-0.892008,-0.653384,-0.0989242,0.994307,-1.10264,0.554088,0.926257,0.790369,-0.653384,-0.0989242,0.994307,-1.10264,0.554088,0.926257,0.790369,0.253488,-0.432711,0.924118,0.739043,-0.131615,0.207925,0.627105,-0.111113,0.19071,-0.134879,1.39285,-0.653456,1.50181,-4.97748,-0.424904,1.37452,-4.03741,-0.413057,-0.127765,0.00747129,-0.68662,-0.321205,0.604679,-0.537307,0.693121,0.379952,1
1.32395,-0.75708,-1.8033,-0.907403,1.90859,1.56274,-0.849431,1.41503,-0.76906,-1.80846,-0.927373,1.93464,1.54125,-0.855761,1.37874,-0.702959,-1.78264,-0.974545,1.97537,1.49296,-0.883902,-0.0796468,-0.808292,0.73109,-0.645675,0.156825,0.905328,0.812079,-0.0796468,-0.808292,0.73109,-0.645675,0.156825,0.905328,0.812079,0.252356,-0.433166,0.921187,0.733299,-0.1334,0.203598,0.634842,-0.0243474,-0.130264,-0.363594,1.34314,-0.657522,1.51833,-5.058,-0.413731,1.6812,-4.45518,-0.426273,0.296422,-0.547952,-0.541212,-0.206593,0.671418,-0.667788,0.697855,0.344703,1
1.32167,-0.760742,-1.79801,-0.90776,1.90371,1.57215,-0.847756,1.38256,-0.765744,-1.81612,-0.910209,1.92067,1.55238,-0.854589,1.38324,-0.715222,-1.7791,-0.975655,1.97316,1.50186,-0.876172,0.635514,-1.30912,0.158144,0.12901,-0.366235,0.88858,0.731307,0.635514,-1.30912,0.158144,0.12901,-0.366235,0.88858,0.731307,0.252385,-0.436728,0.916467,0.728447,-0.134612,0.199311,0.641498,0.0757423,-0.406536,-0.503974,1.29405,-0.661516,1.53594,-4.7883,-0.389538,1.7176,-4.6975,-0.42352,0.703309,-0.615719,-0.455197,-0.189024,0.678944,-0.69454,0.702851,0.284169,1
1.32492,-0.75948,-1.80283,-0.899798,1.89439,1.58037,-0.84561,1.34539,-0.761343,-1.80888,-0.906489,1.91054,1.56252,-0.85085,1.39208,-0.729113,-1.78252,-0.968344,1.96608,1.51085,-0.870156,0.817129,-1.32871,-0.510385,0.926697,-0.803534,0.911553,0.542333,0.817129,-1.32871,-0.510385,0.926697,-0.803534,0.911553,0.542333,0.252533,-0.442234,0.911454,0.726205,-0.136154,0.197238,0.644349,-0.0227556,-0.589204,-0.476775,1.25059,-0.665001,1.55207,-4.40351,-0.35316,1.63373,-4.79881,-0.412518,1.025,-0.671609,-0.303675,-0.20316,0.685462,-0.716933,0.695248,0.245466,1
1.32513,-0.7505,-1.81105,-0.885345,1.88619,1.58862,-0.83663,1.32706,-0.759169,-1.80292,-0.904162,1.90244,1.5717,-0.847334,1.39609,-0.740182,-1.79046,-0.955413,1.9561,1.52032,-0.865986,0.098011,-0.987302,-0.791762,1.32832,-1.03167,0.961032,0.392122,0.098011,-0.987302,-0.791762,1.32832,-1.03167,0.961032,0.392122,0.249741,-0.448708,0.907681,0.728006,-0.13851,0.198558,0.641402,-0.417288,-0.675249,-0.3163,1.21154,-0.668225,1.56467,-3.91189,-0.322919,1.26259,-4.71059,-0.391488,1.19177,-0.70956,-0.103178,-0.205923,0.70068,-0.69903,0.682969,0.293557,1
1.31295,-0.728561,-1.82455,-0.872935,1.87854,1.59739,-0.833047,1.32335,-0.755468,-1.80507,-0.896972,1.89457,1.58034,-0.843355,1.3894,-0.74709,-1.79718,-0.942313,1.94528,1.53019,-0.862468,-0.922236,-0.596777,-0.55567,1.23192,-1.07621,0.988838,0.353597,-0.922236,-0.596777,-0.55567,1.23192,-1.07621,0.988838,0.353597,0.242526,-0.455009,0.905686,0.732775,-0.141638,0.202388,0.634049,-0.839048,-0.632689,-0.137814,1.17789,-0.671234,1.57178,-3.39455,-0.303607,0.717618,-4.47288,-0.369108,1.16992,-0.764536,0.1853,-0.273714,0.693789,-0.667336,0.672008,0.29421,1
1.29566,-0.72116,-1.83367,-0.865563,1.87405,1.60613,-0.831334,1.31997,-0.746067,-1.81297,-0.88602,1.88666,1.58882,-0.838344,1.37552,-0.750964,-1.80004,-0.93198,1.93481,1.54006,-0.858905,-1.42525,-0.337051,-0.212658,0.966776,-1.02706,0.981128,0.355927,-1.42525,-0.337051,-0.212658,0.966776,-1.02706,0.981128,0.355927,0.23292,-0.460008,0.904989,0.738052,-0.145329,0.207107,0.625512,-0.989901,-0.491168,-0.0249559,1.14886,-0.673965,1.57242,-2.86835,-0.269904,0.0633205,-4.09166,-0.341858,0.941732,-0.798601,0.298036,-0.336321,0.664167,-0.607604,0.660749,0.275703,1
1.28086,-0.719583,-1.83708,-0.86227,1.86609,1.61508,-0.822218,1.31042,-0.733567,-1.82288,-0.875207,1.87954,1.59742,-0.833623,1.3615,-0.753006,-1.80102,-0.923542,1.92503,1.54969,-0.855319,-1.31639,-0.15644,-0.107948,0.833351,-0.962099,0.954972,0.361804,-1.31639,-0.15644,-0.107948,0.833351,-0.962099,0.954972,0.361804,0.223845,-0.463305,0.904961,0.742322,-0.149413,0.212002,0.61781,-0.888374,-0.325305,0.0405313,1.12397,-0.676816,1.56556,-2.43111,-0.278428,-0.670344,-3.62225,-0.315936,0.53182,-0.806377,0.334226,-0.360569,0.612726,-0.58934,0.653875,0.331018,1
1.27069,-0.728227,-1.83477,-0.865992,1.85599,1.62533,-0.813207,1.29656,-0.724891,-1.8309,-0.867846,1.87281,1.60629,-0.828681,1.35043,-0.752982,-1.80277,-0.91517,1.91579,1.55903,-0.851543,-1.04324,0.0803303,-0.226529,0.85868,-0.913,0.926711,0.38788,-1.04324,0.0803303,-0.226529,0.85868,-0.913,0.926711,0.38788,0.216383,-0.464927,0.905597,0.745468,-0.153862,0.217536,0.610968,-0.740703,-0.167772,0.123574,1.10208,-0.679304,1.55215,-2.25155,-0.25584,-1.3794,-3.19321,-0.296241,-0.00153831,-0.797389,0.24755,-0.320009,0.491781,-0.597973,0.662984,0.383364,1
1.26341,-0.751321,-1.8135,-0.889003,1.85121,1.63392,-0.804692,1.28293,-0.724683,-1.83339,-0.866361,1.8654,1.61548,-0.821826,1.34106,-0.750062,-1.80642,-0.906077,1.90698,1.56813,-0.847439,-0.938141,0.371622,-0.417138,0.923587,-0.866192,0.906307,0.415519,-0.938141,0.371622,-0.417138,0.923587,-0.866192,0.906307,0.415519,0.209916,-0.465059,0.90719,0.748108,-0.15863,0.224397,0.604001,-0.676606,-0.0390078,0.225325,1.0812,-0.678983,1.52949,-2.13165,0.0327738,-2.31344,-2.80001,-0.249843,-0.654888,-0.776453,-0.012588,-0.070796,0.170738,-0.557775,0.657913,0.427473,1
1.26269,-0.792223,-1.76105,-0.944685,1.84168,1.64366,-0.796012,1.27247,-0.735398,-1.82536,-0.875706,1.85755,1.62486,-0.813389,1.33131,-0.74472,-1.8117,-0.896761,1.89869,1.57712,-0.843143,-1.00908,0.56189,-0.550729,0.915298,-0.816506,0.897333,0.434936,-1.00908,0.56189,-0.550729,0.915298,-0.816506,0.897333,0.434936,0.203569,-0.464292,0.909481,0.750752,-0.163365,0.232488,0.596349,-0.686734,0.0240129,0.277443,1.05641,-0.682861,1.51108,-2.38778,-0.373389,-1.77313,-2.51265,-0.230574,-1.24596,-0.686156,-0.475025,0.506511,-0.479243,-0.570114,0.665455,0.471312,1
1.34112,-0.808061,-1.75672,-0.943686,1.84381,1.65003,-0.784479,1.271,-0.757336,-1.80363,-0.898918,1.85049,1.63404,-0.804483,1.32041,-0.739084,-1.81734,-0.888451,1.89079,1.58609,-0.838518,-1.11231,0.518543,-0.537103,0.774287,-0.786252,0.899193,0.481107,-1.11231,0.518543,-0.537103,0.774287,-0.786252,0.899193,0.481107,0.197061,-0.463531,0.911559,0.753276,-0.167481,0.240885,0.588642,-0.699417,0.00651546,0.225322,1.02855,-0.686448,1.4911,-2.93274,-0.377658,-2.10375,-2.42298,-0.235229,-1.73726,0.207064,-0.689775,0.60618,-0.55236,-0.46974,0.63936,0.540383,1
1.35236,-0.815843,-1.81993,-0.905898,1.85637,1.66248,-0.797267,1.28858,-0.783433,-1.78137,-0.923172,1.84641,1.64285,-0.796452,1.30899,-0.735824,-1.82127,-0.882906,1.88299,1.59514,-0.833138,-1.1347,0.209775,-0.293915,0.430641,-0.780161,0.907757,0.563331,-1.1347,0.209775,-0.293915,0.430641,-0.780161,0.907757,0.563331,0.190796,-0.463521,0.912312,0.754946,-0.170488,0.248267,0.582541,-0.645139,-0.0692561,0.0540704,0.995131,-0.690295,1.47218,-3.32859,-0.383192,-1.88468,-2.50521,-0.257841,-2.06205,0.433786,-0.80019,0.0133956,-0.229915,-0.266223,0.673427,0.358713,1
1.33931,-0.819235,-1.87294,-0.896082,1.89814,1.67003,-0.820564,1.31936,-0.803199,-1.78442,-0.928096,1.85027,1.65179,-0.794078,1.29852,-0.737387,-1.82076,-0.882647,1.87524,1.60427,-0.826856,-0.971579,-0.325703,0.227311,-0.169202,-0.769481,0.913275,0.649999,-0.971579,-0.325703,0.227311,-0.169202,-0.769481,0.913275,0.649999,0.185765,-0.464579,0.910703,0.754643,-0.17218,0.253027,0.580383,-0.456503,-0.155785,-0.220856,0.957057,-0.694596,1.45676,-3.7533,-0.423975,-1.52012,-2.75946,-0.297732,-2.18721,0.407903,-0.818479,-0.521798,-0.134349,0.229002,0.657651,0.0629212,1
1.31439,-0.826258,-1.86755,-0.896143,1.89435,1.68022,-0.816119,1.33831,-0.81392,-1.81668,-0.914705,1.86513,1.66119,-0.800994,1.29207,-0.745045,-1.8142,-0.889121,1.86791,1.61338,-0.819898,-0.445356,-0.919096,0.786929,-0.79522,-0.705845,0.908923,0.704764,-0.445356,-0.919096,0.786929,-0.79522,-0.705845,0.908923,0.704764,0.18348,-0.46642,0.906261,0.751224,-0.172915,0.253803,0.584249,-0.0994928,-0.198334,-0.511326,0.913302,-0.699556,1.4468,-4.34466,-0.492513,-0.98885,-3.13186,-0.355473,-2.08934,0.223191,-0.812124,-0.533558,-0.0702181,0.264446,0.668314,0.037792,1
1.30306,-0.838375,-1.85438,-0.860914,1.88993,1.68942,-0.825729,1.33419,-0.82064,-1.84992,-0.899328,1.88284,1.67065,-0.811696,1.29344,-0.757444,-1.80513,-0.899151,1.86211,1.62242,-0.813069,0.381798,-1.30119,0.806405,-0.960614,-0.499455,0.903133,0.645818,0.381798,-1.30119,0.806405,-0.960614,-0.499455,0.903133,0.645818,0.18488,-0.468613,0.89972,0.744929,-0.173435,0.250833,0.593367,0.278694,-0.22776,-0.695631,0.876514,-0.713672,1.42462,-3.61824,-1.3883,-2.18114,-3.45306,-0.517381,-1.99684,0.096109,-0.809306,-0.492533,0.382369,0.278195,0.669936,-0.126595,1
1.26298,-0.84951,-1.85777,-0.847759,1.83393,1.69855,-0.807555,1.31695,-0.828334,-1.86202,-0.884906,1.88804,1.68001,-0.817919,1.30224,-0.771237,-1.80173,-0.906328,1.85989,1.63147,-0.808217,0.964485,-1.35379,0.0429548,-0.546718,-0.0795995,0.907601,0.38742,0.964485,-1.35379,0.0429548,-0.546718,-0.0795995,0.907601,0.38742,0.18839,-0.471817,0.892402,0.738769,-0.173708,0.246021,0.602926,0.39352,-0.359978,-0.755358,0.823326,-0.715923,1.43096,-5.42998,-0.229839,0.646903,-3.89395,-0.584531,-1.73073,-0.392601,-0.78273,-0.560388,0.585698,-0.259654,0.670799,0.0066128,1
1.2592,-0.856237,-1.86993,-0.85776,1.79251,1.70913,-0.768987,1.2954,-0.838049,-1.86065,-0.868433,1.87146,1.68942,-0.814914,1.31215,-0.783852,-1.80852,-0.907523,1.86274,1.64062,-0.806991,0.87418,-1.21253,-0.898752,0.0183489,0.407908,0.917713,0.0234239,0.87418,-1.21253,-0.898752,0.0183489,0.407908,0.917713,0.0234239,0.190558,-0.477246,0.88514,0.736366,-0.173009,0.241125,0.608023,0.157892,-0.578379,-0.739914,0.772115,-0.719331,1.43284,-5.0388,-0.335365,0.185582,-4.23542,-0.599687,-1.32684,-0.529476,-0.723845,-0.614146,0.497624,-0.702256,0.685059,0.380037,1
1.25748,-0.861934,-1.87654,-0.849388,1.79277,1.72231,-0.762618,1.27493,-0.847731,-1.86175,-0.856674,1.83878,1.69925,-0.800183,1.31708,-0.794871,-1.82118,-0.904093,1.86883,1.64985,-0.808802,0.308083,-1.07426,-1.26174,0.434393,0.602338,0.924183,-0.217829,0.308083,-1.07426,-1.26174,0.434393,0.602338,0.924183,-0.217829,0.189056,-0.484623,0.878502,0.738347,-0.171708,0.236814,0.607683,-0.246949,-0.729372,-0.656156,0.725439,-0.722748,1.43544,-4.85367,-0.355288,0.270051,-4.53511,-0.583251,-0.921409,-0.595983,-0.670625,-0.553531,0.547049,-0.760607,0.724559,0.46184,1
1.24607,-0.859022,-1.87495,-0.832393,1.79845,1.73154,-0.770546,1.26164,-0.855037,-1.86789,-0.851778,1.80939,1.70995,-0.780681,1.31539,-0.805102,-1.83265,-0.897389,1.87301,1.65912,-0.811156,-0.3342,-1.01887,-1.04036,0.75157,0.244622,0.928276,-0.190815,-0.3342,-1.01887,-1.04036,0.75157,0.244622,0.928276,-0.190815,0.183715,-0.492525,0.872986,0.742905,-0.171071,0.233913,0.603417,-0.625977,-0.762638,-0.534567,0.68055,-0.726007,1.43605,-4.40193,-0.319611,0.0598051,-4.6764,-0.522315,-0.573546,-0.693163,-0.539194,-0.42301,0.649964,-0.745606,0.724172,0.406097,1
1.23285,-0.842884,-1.86951,-0.817932,1.79908,1.73933,-0.77975,1.25386,-0.857814,-1.87288,-0.845164,1.79709,1.7209,-0.770072,1.30815,-0.815185,-1.84067,-0.888279,1.87006,1.66847,-0.81109,-0.833798,-1.00495,-0.744513,0.933126,-0.541931,0.938355,0.128475,-0.833798,-1.00495,-0.744513,0.933126,-0.541931,0.938355,0.128475,0.175736,-0.50005,0.868248,0.748025,-0.171049,0.234309,0.596909,-0.863469,-0.732243,-0.470614,0.640916,-0.727666,1.43413,-3.91525,-0.163826,-0.190034,-4.66283,-0.413223,-0.338063,-0.75301,-0.276985,-0.288329,0.703467,-0.709783,0.708672,0.313404,1
1.2192,-0.836106,-1.88028,-0.808991,1.79515,1.74656,-0.775438,1.24476,-0.854109,-1.87401,-0.833149,1.79661,1.73072,-0.771073,1.29771,-0.824972,-1.84712,-0.878944,1.85894,1.67801,-0.806502,-1.06747,-0.958058,-0.641929,0.896588,-1.26417,0.964321,0.582891,-1.06747,-0.958058,-0.641929,0.896588,-1.26417,0.964321,0.582891,0.167087,-0.506845,0.863351,0.75197,-0.170385,0.239112,0.5902,-0.907351,-0.664311,-0.483425,0.605898,-0.728031,1.42802,-3.53528,-0.0368627,-0.616761,-4.54447,-0.262438,-0.229282,-0.785063,-0.111345,-0.331609,0.69953,-0.637865,0.685453,0.310641,1
1.20763,-0.846377,-1.89464,-0.804273,1.78581,1.75335,-0.75861,1.23271,-0.846633,-1.87557,-0.820424,1.79672,1.739,-0.773979,1.28689,-0.833707,-1.85339,-0.870736,1.84395,1.68791,-0.798368,-1.05693,-0.824059,-0.616379,0.80759,-1.47653,0.998132,0.833974,-1.05693,-0.824059,-0.616379,0.80759,-1.47653,0.998132,0.833974,0.159137,-0.51259,0.858308,0.754169,-0.169056,0.246593,0.584672,-0.846838,-0.557786,-0.457103,0.57399,-0.727144,1.41652,-3.32647,0.0924748,-1.19823,-4.18866,-0.201275,-0.495116,-0.792537,-0.126695,-0.412514,0.664623,-0.581343,0.654438,0.397579,1
1.19814,-0.864133,-1.90472,-0.79835,1.7729,1.76263,-0.749706,1.22008,-0.843552,-1.88237,-0.810844,1.79261,1.74652,-0.770395,1.27683,-0.840257,-1.859,-0.862565,1.83063,1.69801,-0.790424,-0.998143,-0.56967,-0.523875,0.849074,-1.22521,1.00826,0.720059,-0.998143,-0.56967,-0.523875,0.849074,-1.22521,1.00826,0.720059,0.151584,-0.516935,0.854413,0.755807,-0.168666,0.253946,0.579499,-0.823421,-0.413417,-0.298795,0.54966,-0.72834,1.39241,-2.409,-0.118411,-2.38719,-3.76103,-0.1362,-0.901651,-0.786909,-0.238768,-0.457219,0.642151,-0.57729,0.646162,0.407181,1
1.19024,-0.895884,-1.91142,-0.794094,1.75919,1.77361,-0.742725,1.20864,-0.851124,-1.89305,-0.804189,1.78408,1.75436,-0.760919,1.26681,-0.843609,-1.86337,-0.85325,1.82099,1.70792,-0.785162,-1.01854,-0.245258,-0.414076,0.959886,-0.88255,0.977237,0.458321,-1.01854,-0.245258,-0.414076,0.959886,-0.88255,0.977237,0.458321,0.143644,-0.51964,0.852732,0.75812,-0.170228,0.260276,0.573177,-0.855983,-0.258615,-0.0765788,0.527132,-0.729975,1.36375,-2.16417,-0.157065,-2.75377,-3.28077,-0.0917251,-1.43648,-0.765748,-0.522748,-0.480494,0.59156,-0.618062,0.656933,0.424361,1
1.19019,-0.916228,-1.91914,-0.807358,1.75412,1.77865,-0.744,1.19936,-0.869136,-1.90325,-0.799995,1.77292,1.76305,-0.751438,1.25617,-0.84423,-1.86735,-0.843209,1.8138,1.71731,-0.781717,-1.0802,-0.0312853,-0.421422,1.00023,-0.693969,0.923222,0.345668,-1.0802,-0.0312853,-0.421422,1.00023,-0.693969,0.923222,0.345668,0.135279,-0.521134,0.852724,0.761062,-0.172822,0.26635,0.565664,-0.888131,-0.171439,0.0450021,0.506736,-0.731929,1.33032,-2.06193,-0.197579,-3.37989,-2.87488,-0.0810153,-2.0621,-0.659871,-0.719975,-0.517829,0.358512,-0.596758,0.613391,0.377167,1
1.20818,-0.926872,-1.92151,-0.893501,1.75771,1.78282,-0.745359,1.19441,-0.891875,-1.91126,-0.805323,1.76292,1.77143,-0.745947,1.24507,-0.844619,-1.87243,-0.833524,1.80714,1.72619,-0.77778,-1.1137,-0.098631,-0.554236,0.94336,-0.681506,0.879605,0.43973,-1.1137,-0.098631,-0.554236,0.94336,-0.681506,0.879605,0.43973,0.126801,-0.522744,0.852553,0.764005,-0.174527,0.272681,0.558106,-0.903137,-0.217438,-0.0278259,0.483709,-0.734712,1.29395,-2.32681,-0.281248,-3.67427,-2.5688,-0.113844,-2.6964,-0.368897,-0.822524,-0.490819,-0.59977,-0.494294,0.566293,0.324208,1
1.20576,-0.932252,-1.93241,-0.894587,1.82124,1.78359,-0.739885,1.19617,-0.911548,-1.91773,-0.830466,1.76165,1.77774,-0.74412,1.23403,-0.847846,-1.87906,-0.824887,1.79975,1.73484,-0.772273,-1.08921,-0.445575,-0.692462,0.826789,-0.770571,0.865595,0.583745,-1.08921,-0.445575,-0.692462,0.826789,-0.770571,0.865595,0.583745,0.118332,-0.525848,0.850456,0.766644,-0.174102,0.278852,0.551531,-0.90694,-0.373979,-0.258516,0.457459,-0.739289,1.25587,-2.5463,-0.44392,-3.69419,-2.38071,-0.186884,-3.23203,-0.28264,-0.844065,-0.533471,-0.697003,0.214926,0.487522,0.323877,1
1.18313,-0.940707,-1.94868,-0.886817,1.84314,1.78066,-0.76395,1.20039,-0.924484,-1.92471,-0.865606,1.77813,1.78126,-0.744648,1.22382,-0.855626,-1.88653,-0.818239,1.79137,1.74348,-0.765945,-0.977065,-0.902401,-0.751672,0.565131,-0.850714,0.861828,0.625781,-0.977065,-0.902401,-0.751672,0.565131,-0.850714,0.861828,0.625781,0.110216,-0.530954,0.845529,0.768882,-0.171414,0.283972,0.546624,-0.840342,-0.547097,-0.563952,0.428026,-0.744895,1.21958,-3.00445,-0.572263,-3.70439,-2.36171,-0.283417,-3.61246,-0.406899,-0.850804,-0.621509,-0.685774,0.517694,0.371769,0.0199528,1
1.17117,-0.952328,-1.95929,-0.882777,1.83882,1.792,-0.755984,1.19757,-0.933274,-1.9346,-0.886183,1.80774,1.78288,-0.748533,1.21562,-0.867412,-1.89404,-0.816508,1.78321,1.75189,-0.760136,-0.737386,-1.2441,-0.742024,-0.050296,-0.758928,0.823247,0.547789,-0.737386,-1.2441,-0.742024,-0.050296,-0.758928,0.823247,0.547789,0.103841,-0.537473,0.837592,0.770115,-0.166703,0.28714,0.544687,-0.593643,-0.637234,-0.874643,0.393652,-0.751089,1.18717,-3.35607,-0.604727,-3.16444,-2.53238,-0.373207,-3.76322,-0.444446,-0.84916,-0.652534,-0.662687,0.556053,0.401079,0.0415244,1
1.16563,-0.965324,-1.96589,-0.888966,1.8394,1.79771,-0.730894,1.18627,-0.942172,-1.94664,-0.888301,1.83101,1.78543,-0.752714,1.21043,-0.880916,-1.90129,-0.823162,1.77836,1.75949,-0.755637,-0.440683,-1.34566,-0.722923,-0.902217,-0.307385,0.725853,0.408137,-0.440683,-1.34566,-0.722923,-0.902217,-0.307385,0.725853,0.408137,0.100773,-0.54424,0.827236,0.769571,-0.160393,0.287332,0.547243,-0.237113,-0.620057,-1.09773,0.353253,-0.75718,1.16059,-4.11991,-0.621235,-2.71009,-2.8724,-0.465166,-3.76813,-0.448021,-0.84408,-0.645985,-0.658041,0.610315,0.382228,0.247424,1
1.15878,-0.97702,-1.97579,-0.903523,1.84092,1.80665,-0.717239,1.17416,-0.95296,-1.95764,-0.887369,1.83908,1.79098,-0.748275,1.20737,-0.893941,-1.90869,-0.836773,1.78057,1.76578,-0.75282,-0.304133,-1.26724,-0.760551,-1.41898,0.448363,0.590759,0.225947,-0.304133,-1.26724,-0.760551,-1.41898,0.448363,0.590759,0.225947,0.100033,-0.550637,0.816052,0.768093,-0.153454,0.28367,0.553187,-0.0713611,-0.574079,-1.14561,0.307668,-0.763872,1.13707,-4.54084,-0.666525,-2.34352,-3.2877,-0.544063,-3.56361,-0.48588,-0.830792,-0.670991,-0.667498,0.603476,0.408663,0.355806,1
1.1498,-0.985623,-1.9898,-0.916125,1.83637,1.82087,-0.703278,1.16541,-0.964729,-1.96713,-0.892621,1.83968,1.7989,-0.734093,1.20372,-0.905773,-1.91696,-0.850942,1.79006,1.77083,-0.751926,-0.428028,-1.15885,-0.858343,-1.31666,1.06335,0.483472,0.0472269,-0.428028,-1.15885,-0.858343,-1.31666,1.06335,0.483472,0.0472269,0.0983693,-0.557004,0.805669,0.76796,-0.146846,0.276851,0.558594,-0.221794,-0.574771,-1.05769,0.260414,-0.769464,1.11858,-4.80154,-0.568268,-1.87829,-3.72731,-0.591474,-3.23656,-0.539269,-0.798499,-0.728372,-0.651831,0.463091,0.500438,0.486477,1
1.13611,-0.991426,-2.00374,-0.905604,1.77407,1.83667,-0.700027,1.1576,-0.975604,-1.97753,-0.901868,1.83509,1.80893,-0.718508,1.19785,-0.916919,-1.92622,-0.861461,1.80229,1.77539,-0.751808,-0.639443,-1.11159,-0.94029,-0.95664,1.18818,0.464756,0.0476527,-0.639443,-1.11159,-0.94029,-0.95664,1.18818,0.464756,0.0476527,0.0941177,-0.563658,0.796354,0.769835,-0.140715,0.269299,0.561277,-0.463931,-0.595817,-0.969771,0.212351,-0.774328,1.1033,-4.77072,-0.48278,-1.51674,-4.1443,-0.598567,-2.84348,-0.617366,-0.74507,-0.775267,-0.44144,-0.282156,0.61282,0.51781,1
1.12112,-1.00022,-2.01727,-0.882622,1.74172,1.84512,-0.702419,1.14782,-0.984567,-1.99,-0.906553,1.8162,1.82133,-0.707628,1.19046,-0.928039,-1.93585,-0.869208,1.81276,1.78042,-0.749718,-0.749959,-1.11735,-0.962381,-0.753973,0.965379,0.526717,0.309549,-0.749959,-1.11735,-0.962381,-0.753973,0.965379,0.526717,0.309549,0.088348,-0.570314,0.787328,0.772006,-0.134621,0.26295,0.562797,-0.577731,-0.588125,-0.954668,0.164729,-0.778354,1.08864,-4.82259,-0.407669,-1.48522,-4.45668,-0.569511,-2.45644,-0.693431,-0.721778,-0.814135,-0.13414,-0.71044,0.647,0.472996,1
1.10456,-1.00981,-2.02802,-0.844315,1.74388,1.85201,-0.711335,1.13523,-0.992422,-2.00341,-0.898528,1.78385,1.83392,-0.70322,1.18276,-0.939274,-1.94552,-0.876555,1.82004,1.78643,-0.744093,-0.770956,-1.1205,-0.972573,-0.750446,0.629123,0.634294,0.64534,-0.770956,-1.1205,-0.972573,-0.750446,0.629123,0.634294,0.64534,0.0825439,-0.576583,0.77794,0.772923,-0.128209,0.2583,0.565184,-0.571359,-0.548828,-0.989069,0.120743,-0.781664,1.07324,-4.27697,-0.321895,-1.49654,-4.61723,-0.516865,-2.15767,-0.781942,-0.705348,-0.825035,0.322393,-0.761613,0.655831,0.327576,1
1.09296,-1.01592,-2.03642,-0.830894,1.75037,1.85622,-0.706633,1.12076,-1.00049,-2.01605,-0.877652,1.7568,1.84391,-0.704367,1.17488,-0.950261,-1.95555,-0.88409,1.82285,1.79376,-0.736005,-0.804034,-1.08178,-1.02347,-0.729802,0.101257,0.775262,0.831952,-0.804034,-1.08178,-1.02347,-0.729802,0.101257,0.775262,0.831952,0.0771581,-0.582215,0.768069,0.772514,-0.121474,0.256072,0.568237,-0.555032,-0.490817,-1.01704,0.0814409,-0.783599,1.05417,-3.91035,-0.192498,-1.8976,-4.57662,-0.440683,-1.99839,-0.819205,-0.656612,-0.808664,0.531957,-0.724854,0.624601,0.293724,1
1.08447,-1.02505,-2.04549,-0.833927,1.74759,1.86565,-0.693376,1.10652,-1.00874,-2.02701,-0.853718,1.74708,1.85123,-0.706101,1.16624,-0.960588,-1.96634,-0.889841,1.81849,1.80254,-0.727623,-0.89653,-1.01218,-1.1012,-0.460619,-0.6696,0.90983,0.805173,-0.89653,-1.01218,-1.1012,-0.460619,-0.6696,0.90983,0.805173,0.0717295,-0.587089,0.75809,0.771653,-0.114665,0.257843,0.570018,-0.617293,-0.435608,-0.98808,0.0478894,-0.784602,1.02975,-3.33707,-0.0997384,-2.42947,-4.37576,-0.348225,-2.01215,-0.817732,-0.644613,-0.791465,0.559141,-0.70897,0.631065,0.342468,1
1.0768,-1.04296,-2.05615,-0.838006,1.73804,1.87667,-0.686244,1.09449,-1.01738,-2.03662,-0.838685,1.74674,1.85811,-0.702956,1.15634,-0.970231,-1.97782,-0.890701,1.80659,1.8122,-0.720794,-1.02809,-0.951148,-1.15738,0.0947154,-1.31545,0.968822,0.616603,-1.02809,-0.951148,-1.15738,0.0947154,-1.31545,0.968822,0.616603,0.0651821,-0.591436,0.74875,0.771655,-0.108219,0.263891,0.568506,-0.793034,-0.412181,-0.881914,0.0193742,-0.785123,0.998957,-2.8967,-0.0529684,-3.1277,-4.04244,-0.2591,-2.22432,-0.795371,-0.727296,-0.78329,0.526949,-0.685502,0.644696,0.345496,1
1.07185,-1.05941,-2.06914,-0.846401,1.72439,1.88444,-0.685505,1.08514,-1.02844,-2.04627,-0.835618,1.74421,1.86637,-0.695538,1.14516,-0.979441,-1.9895,-0.885165,1.79173,1.82175,-0.71627,-1.14333,-0.913073,-1.16176,0.706571,-1.44325,0.936486,0.400293,-1.14333,-0.913073,-1.16176,0.706571,-1.44325,0.936486,0.400293,0.0565122,-0.595708,0.740752,0.773593,-0.102651,0.271922,0.563095,-1.02235,-0.41629,-0.730876,-0.00459272,-0.784959,0.961105,-2.53235,0.0172938,-3.99941,-3.64884,-0.173994,-2.6361,-0.733112,-0.7997,-0.796371,0.387645,-0.673409,0.626898,0.30765,1
1.06602,-1.07208,-2.08064,-0.926267,1.72747,1.87769,-0.713088,1.07782,-1.04273,-2.05703,-0.844157,1.73712,1.87464,-0.690794,1.13328,-0.988411,-2.00087,-0.875097,1.77905,1.83064,-0.713146,-1.18905,-0.894226,-1.12244,1.04812,-1.16574,0.871787,0.312579,-1.18905,-0.894226,-1.12244,1.04812,-1.16574,0.871787,0.312579,0.0459068,-0.600044,0.734114,0.777222,-0.0980509,0.279243,0.55528,-1.17222,-0.412652,-0.618368,-0.0269512,-0.785725,0.916655,-2.20293,-0.0753996,-4.37956,-3.17873,-0.108233,-3.1481,-0.672581,-0.836731,-0.797673,-0.511697,-0.515734,0.470572,0.000578248,1
1.05312,-1.08198,-2.08841,-0.93346,1.78069,1.85792,-0.73274,1.07125,-1.05773,-2.06849,-0.86893,1.73354,1.87798,-0.69603,1.12157,-0.997472,-2.01175,-0.86454,1.7697,1.83906,-0.709688,-1.15181,-0.922776,-1.0774,0.993463,-0.878456,0.84082,0.378735,-1.15181,-0.922776,-1.0774,0.993463,-0.878456,0.84082,0.378735,0.0347782,-0.604287,0.727877,0.781071,-0.0937685,0.284897,0.547694,-1.16875,-0.394575,-0.623508,-0.0471,-0.786632,0.868576,-2.06803,-0.0931483,-4.93472,-2.7923,-0.0705074,-3.76033,-0.684507,-0.845031,-0.766618,-0.6892,0.109925,0.18866,-0.23052,1
1.04118,-1.09158,-2.09924,-0.919587,1.79722,1.87349,-0.754887,1.06337,-1.07079,-2.07934,-0.902165,1.74503,1.87411,-0.71204,1.11068,-1.00735,-2.02236,-0.856997,1.76193,1.84743,-0.705313,-1.05922,-1.0242,-1.06254,0.620613,-0.771099,0.836859,0.440606,-1.05922,-1.0242,-1.06254,0.620613,-0.771099,0.836859,0.440606,0.024575,-0.608442,0.72066,0.783909,-0.0888653,0.289137,0.542208,-1.03705,-0.383144,-0.762796,-0.0702519,-0.788173,0.8167,-2.29368,-0.152652,-5.1394,-2.49632,-0.0663835,-4.33326,-0.694969,-0.842309,-0.768775,-0.625902,0.352895,0.26056,-0.495743,1
1.03333,-1.10258,-2.10972,-0.912539,1.79345,1.88628,-0.743586,1.05329,-1.08178,-2.0893,-0.921445,1.7688,1.87019,-0.73109,1.10086,-1.01853,-2.03307,-0.855259,1.75462,1.8554,-0.701599,-0.954968,-1.14985,-1.0771,-0.0466079,-0.699662,0.758398,0.296973,-0.954968,-1.14985,-1.0771,-0.0466079,-0.699662,0.758398,0.296973,0.0162891,-0.612677,0.711405,0.785533,-0.0825446,0.291869,0.539385,-0.813975,-0.38105,-0.991869,-0.0955629,-0.791913,0.765689,-2.52562,-0.37315,-5.09012,-2.35585,-0.107316,-4.81293,-0.675312,-0.840529,-0.766511,-0.572807,0.388239,0.308804,-0.419871,1
1.02902,-1.11575,-2.12041,-0.925522,1.8074,1.88168,-0.71674,1.04299,-1.09222,-2.09931,-0.922082,1.78842,1.87357,-0.741529,1.09074,-1.03249,-2.04548,-0.866396,1.75116,1.86096,-0.703519,-0.992822,-1.38902,-1.22815,-1.29745,-0.222355,0.477115,-0.309103,-0.992822,-1.38902,-1.22815,-1.29745,-0.222355,0.477115,-0.309103,0.0103296,-0.617881,0.697671,0.787148,-0.072731,0.28997,0.539468,-0.580737,-0.426718,-1.42613,-0.125514,-0.796905,0.716158,-3.16061,-0.526803,-5.22675,-2.39884,-0.187938,-5.16811,-0.617226,-0.832564,-0.749362,-0.59126,0.562466,0.207182,-0.132214,1
1.02612,-1.12821,-2.1295,-0.942697,1.8192,1.87536,-0.681768,1.035,-1.10344,-2.10968,-0.920739,1.79869,1.87948,-0.735159,1.08078,-1.04575,-2.05725,-0.880748,1.75461,1.86383,-0.710096,-0.997141,-1.30693,-1.16243,-1.4762,0.514493,0.230642,-0.76149,-0.997141,-1.30693,-1.16243,-1.4762,0.514493,0.230642,-0.76149,0.00461519,-0.62294,0.684345,0.790458,-0.0633905,0.284016,0.538973,-0.585895,-0.398066,-1.3612,-0.160774,-0.80236,0.668784,-3.54286,-0.548126,-4.76006,-2.57465,-0.287854,-5.27834,-0.54667,-0.824582,-0.722473,-0.619492,0.645915,0.115322,0.283282,1
1.01122,-1.1391,-2.14234,-0.956448,1.81986,1.88331,-0.683361,1.02902,-1.11552,-2.12006,-0.928132,1.80701,1.88084,-0.715007,1.07074,-1.05824,-2.06852,-0.892423,1.76292,1.86637,-0.718328,-1.00643,-1.2324,-1.11671,-1.07581,0.924953,0.261184,-0.841549,-1.00643,-1.2324,-1.11671,-1.07581,0.924953,0.261184,-0.841549,-0.00243704,-0.627704,0.672474,0.795398,-0.0557904,0.276171,0.536618,-0.735509,-0.36896,-1.1983,-0.200262,-0.808718,0.627849,-3.76509,-0.606244,-3.90301,-2.87701,-0.391354,-5.19888,-0.59519,-0.808559,-0.738121,-0.640252,0.569417,0.16934,0.349674,1
1.00832,-1.14916,-2.15649,-0.960867,1.7985,1.90612,-0.690295,1.02246,-1.12752,-2.13089,-0.941092,1.81351,1.88153,-0.695306,1.06226,-1.06874,-2.07805,-0.900727,1.77094,1.86887,-0.724416,-0.84386,-1.05524,-0.95929,-0.750238,0.820434,0.277831,-0.5052,-0.84386,-1.05524,-0.95929,-0.750238,0.820434,0.277831,-0.5052,-0.00900867,-0.63153,0.662823,0.799726,-0.0498696,0.269289,0.53426,-0.673859,-0.298662,-0.992546,-0.243462,-0.815298,0.591809,-4.11566,-0.626821,-3.43351,-3.23689,-0.486901,-4.91966,-0.539395,-0.804194,-0.784479,-0.601395,0.275678,0.372586,0.341207,1
0.992067,-1.16013,-2.17053,-0.958877,1.74269,1.91911,-0.715891,1.01414,-1.13875,-2.14306,-0.952334,1.80876,1.88916,-0.688816,1.05408,-1.0795,-2.08781,-0.906967,1.77944,1.87198,-0.725914,-0.80036,-1.08739,-0.98145,-0.633617,0.848994,0.296734,0.0301659,-0.80036,-1.08739,-0.98145,-0.633617,0.848994,0.296734,0.0301659,-0.016148,-0.635271,0.65337,0.803179,-0.0439666,0.262494,0.53298,-0.690058,-0.293523,-0.994271,-0.288011,-0.821325,0.560128,-4.36043,-0.589947,-3.10093,-3.61723,-0.558362,-4.56009,-0.620088,-0.806325,-0.827188,-0.519099,-0.367524,0.471311,0.100235,1
0.970711,-1.16897,-2.18344,-0.948544,1.72946,1.92389,-0.744909,1.00374,-1.14932,-2.15646,-0.957359,1.78687,1.90285,-0.697841,1.04647,-1.09063,-2.09778,-0.913962,1.78776,1.87454,-0.72131,-0.751952,-1.12047,-1.00443,-0.749038,0.816309,0.240928,0.585945,-0.751952,-1.12047,-1.00443,-0.749038,0.816309,0.240928,0.585945,-0.0227583,-0.638984,0.643421,0.804735,-0.0367972,0.255505,0.534569,-0.629155,-0.282756,-1.0527,-0.333209,-0.826539,0.530234,-4.52632,-0.522197,-2.99369,-3.96156,-0.585626,-4.17239,-0.757583,-0.78337,-0.856584,-0.345823,-0.582906,0.493456,-0.235985,1
0.957542,-1.17545,-2.19358,-0.914378,1.73396,1.91843,-0.736978,0.989831,-1.15924,-2.16993,-0.953858,1.75761,1.91478,-0.716031,1.03902,-1.10195,-2.1081,-0.922515,1.79469,1.87711,-0.713441,-0.751829,-1.13113,-1.04729,-0.87772,0.596441,0.298735,0.775508,-0.751829,-1.13113,-1.04729,-0.87772,0.596441,0.298735,0.775508,-0.0287354,-0.642454,0.632751,0.804835,-0.0286215,0.248794,0.538074,-0.58037,-0.246096,-1.11892,-0.377445,-0.830702,0.500232,-4.41962,-0.415922,-2.9976,-4.16465,-0.568965,-3.77844,-0.814819,-0.735005,-0.854754,0.0813762,-0.607361,0.413249,-0.235378,1
0.950914,-1.18694,-2.2047,-0.890767,1.72649,1.92783,-0.732787,0.973871,-1.16827,-2.18239,-0.939745,1.73802,1.92047,-0.731501,1.03117,-1.11319,-2.11904,-0.931354,1.797,1.88158,-0.707153,-0.806385,-1.11859,-1.11432,-0.852159,0.029521,0.523412,0.501461,-0.806385,-1.11859,-1.11432,-0.852159,0.029521,0.523412,0.501461,-0.0344173,-0.645243,0.621444,0.804489,-0.0205155,0.244316,0.541005,-0.580342,-0.181078,-1.16247,-0.417543,-0.833719,0.469649,-4.13905,-0.311343,-3.1568,-4.27427,-0.525426,-3.51766,-0.802579,-0.737514,-0.856659,0.405866,-0.705045,0.462567,-0.256337,1
0.946496,-1.19892,-2.21655,-0.89605,1.71637,1.94366,-0.718143,0.960645,-1.17721,-2.19382,-0.918652,1.73041,1.92377,-0.735418,1.02233,-1.12419,-2.13068,-0.938457,1.79188,1.88852,-0.70591,-0.9264,-1.09117,-1.17928,-0.622128,-0.712361,0.736031,-0.0372338,-0.9264,-1.09117,-1.17928,-0.622128,-0.712361,0.736031,-0.0372338,-0.040344,-0.64717,0.609832,0.80471,-0.0129691,0.243785,0.541149,-0.658849,-0.116131,-1.15688,-0.454372,-0.835449,0.4333,-3.69021,-0.173399,-3.64211,-4.25878,-0.44866,-3.45121,-0.758329,-0.747246,-0.858677,0.424065,-0.755115,0.55132,-0.122331,1
0.93921,-1.21113,-2.2282,-0.912378,1.7075,1.95288,-0.721722,0.951972,-1.18745,-2.20502,-0.902952,1.72483,1.93076,-0.73024,1.01189,-1.13482,-2.14276,-0.941739,1.78066,1.8964,-0.709966,-1.08961,-1.04939,-1.21134,-0.183621,-1.19134,0.769679,-0.500536,-1.08961,-1.04939,-1.21134,-0.183621,-1.19134,0.769679,-0.500536,-0.0475181,-0.64854,0.59867,0.806424,-0.00588383,0.246808,0.537337,-0.836817,-0.0841855,-1.06906,-0.488258,-0.836633,0.390706,-3.4179,-0.119401,-4.29629,-4.12653,-0.356348,-3.58831,-0.726817,-0.763044,-0.854418,0.293607,-0.731601,0.564813,-0.117562,1
