Afshin1997/kuka_rl_ros2/src/catch_and_throw/output_files/tm/idealpd/stiff500/tm_received_joint_pos_np.csv
joint_0,joint_1,joint_2,joint_3,joint_4,joint_5,joint_6
8.358528614044189453e-01,-8.000177145004272461e-02,1.350983142852783203e+00,1.307936191558837891e+00,1.541992545127868652e+00,-9.481354355812072754e-01,1.591986060142517090e+00
8.358527421951293945e-01,-8.000189065933227539e-02,1.350983262062072754e+00,1.307935953140258789e+00,1.541992545127868652e+00,-9.481354355812072754e-01,1.591986060142517090e+00
8.358525037765502930e-01,-8.000177145004272461e-02,1.350983262062072754e+00,1.307936072349548340e+00,1.541992545127868652e+00,-9.481353163719177246e-01,1.591985940933227539e+00
8.358526229858398438e-01,-8.000177145004272461e-02,1.350983381271362305e+00,1.307936191558837891e+00,1.541992545127868652e+00,-9.481353759765625000e-01,1.591986060142517090e+00
8.357675671577453613e-01,-7.997199147939682007e-02,1.350703716278076172e+00,1.307474374771118164e+00,1.541915535926818848e+00,-9.479508996009826660e-01,1.591441869735717773e+00
8.357787728309631348e-01,-7.986593246459960938e-02,1.350751280784606934e+00,1.307304263114929199e+00,1.542014002799987793e+00,-9.481837749481201172e-01,1.591162800788879395e+00
8.358247280120849609e-01,-7.967400550842285156e-02,1.351148009300231934e+00,1.307349801063537598e+00,1.542419195175170898e+00,-9.491251111030578613e-01,1.591385126113891602e+00
8.358240127563476562e-01,-7.944935560226440430e-02,1.351967930793762207e+00,1.307668805122375488e+00,1.543347954750061035e+00,-9.511735439300537109e-01,1.592545628547668457e+00
8.357280492782592773e-01,-7.928139716386795044e-02,1.353311896324157715e+00,1.308420538902282715e+00,1.544907093048095703e+00,-9.545345306396484375e-01,1.595034003257751465e+00
8.355230689048767090e-01,-7.922735065221786499e-02,1.355234026908874512e+00,1.309760570526123047e+00,1.547084689140319824e+00,-9.589083194732666016e-01,1.598955154418945312e+00
8.352117538452148438e-01,-7.938296347856521606e-02,1.357700824737548828e+00,1.311817169189453125e+00,1.549737334251403809e+00,-9.641027450561523438e-01,1.604097366333007812e+00
8.348457217216491699e-01,-7.979983836412429810e-02,1.360646724700927734e+00,1.314492821693420410e+00,1.552660822868347168e+00,-9.696018099784851074e-01,1.609972715377807617e+00
8.344749808311462402e-01,-8.047676831483840942e-02,1.363926172256469727e+00,1.317589879035949707e+00,1.555625081062316895e+00,-9.750608205795288086e-01,1.615986108779907227e+00
8.341626524925231934e-01,-8.140428364276885986e-02,1.367382526397705078e+00,1.321033954620361328e+00,1.558561682701110840e+00,-9.803472757339477539e-01,1.621809244155883789e+00
8.340023756027221680e-01,-8.250563591718673706e-02,1.370942354202270508e+00,1.324680685997009277e+00,1.561474084854125977e+00,-9.856227040290832520e-01,1.627419590950012207e+00
8.340293169021606445e-01,-8.367673307657241821e-02,1.374547243118286133e+00,1.328440189361572266e+00,1.564419269561767578e+00,-9.910105466842651367e-01,1.633003711700439453e+00
8.342381715774536133e-01,-8.487204462289810181e-02,1.378178119659423828e+00,1.332319974899291992e+00,1.567447423934936523e+00,-9.965488314628601074e-01,1.638663291931152344e+00
8.346084952354431152e-01,-8.611570298671722412e-02,1.381797313690185547e+00,1.336288690567016602e+00,1.570512056350708008e+00,-1.002232074737548828e+00,1.644443750381469727e+00
8.351232409477233887e-01,-8.740592747926712036e-02,1.385355830192565918e+00,1.340156555175781250e+00,1.573673605918884277e+00,-1.008072257041931152e+00,1.650387167930603027e+00
8.358271121978759766e-01,-8.875714987516403198e-02,1.388914585113525391e+00,1.343847990036010742e+00,1.576896429061889648e+00,-1.014080405235290527e+00,1.656512975692749023e+00
8.367977738380432129e-01,-9.021532535552978516e-02,1.392614722251892090e+00,1.347475171089172363e+00,1.580176830291748047e+00,-1.020210266113281250e+00,1.662779688835144043e+00
8.380340337753295898e-01,-9.182456880807876587e-02,1.396431326866149902e+00,1.351088881492614746e+00,1.583512902259826660e+00,-1.026418566703796387e+00,1.669156074523925781e+00
8.394380807876586914e-01,-9.363184869289398193e-02,1.400227069854736328e+00,1.354837417602539062e+00,1.586876988410949707e+00,-1.032757401466369629e+00,1.675638437271118164e+00
8.409374952316284180e-01,-9.570134431123733521e-02,1.403925776481628418e+00,1.358616590499877930e+00,1.590310692787170410e+00,-1.039105534553527832e+00,1.682186245918273926e+00
8.425263762474060059e-01,-9.802071005105972290e-02,1.407574653625488281e+00,1.362299084663391113e+00,1.593793988227844238e+00,-1.045459151268005371e+00,1.688790917396545410e+00
8.442504405975341797e-01,-1.004963517189025879e-01,1.411297678947448730e+00,1.365869045257568359e+00,1.597325086593627930e+00,-1.051946759223937988e+00,1.695465683937072754e+00
8.461399078369140625e-01,-1.030464172363281250e-01,1.415165424346923828e+00,1.369120597839355469e+00,1.600925683975219727e+00,-1.058507323265075684e+00,1.702196240425109863e+00
8.481642603874206543e-01,-1.055737137794494629e-01,1.419161915779113770e+00,1.371994256973266602e+00,1.604532957077026367e+00,-1.065145254135131836e+00,1.708986401557922363e+00
8.502636551856994629e-01,-1.080179512500762939e-01,1.423171401023864746e+00,1.374362587928771973e+00,1.608161449432373047e+00,-1.071898460388183594e+00,1.715869069099426270e+00
8.524193167686462402e-01,-1.104478761553764343e-01,1.427177906036376953e+00,1.376033306121826172e+00,1.611790299415588379e+00,-1.078718543052673340e+00,1.722821831703186035e+00
8.546954989433288574e-01,-1.129337027668952942e-01,1.431262493133544922e+00,1.376947283744812012e+00,1.615410208702087402e+00,-1.085588097572326660e+00,1.729843139648437500e+00
8.571301102638244629e-01,-1.154813095927238464e-01,1.435431718826293945e+00,1.377166032791137695e+00,1.619026064872741699e+00,-1.092575907707214355e+00,1.736957311630249023e+00
8.596975207328796387e-01,-1.181475594639778137e-01,1.439643621444702148e+00,1.376838922500610352e+00,1.622630357742309570e+00,-1.099581956863403320e+00,1.744125485420227051e+00
8.623288273811340332e-01,-1.209149584174156189e-01,1.443783760070800781e+00,1.375748753547668457e+00,1.626248121261596680e+00,-1.106541633605957031e+00,1.751360774040222168e+00
8.649735450744628906e-01,-1.237137541174888611e-01,1.447794079780578613e+00,1.373928308486938477e+00,1.629883289337158203e+00,-1.113537907600402832e+00,1.758663773536682129e+00
8.677329421043395996e-01,-1.265017092227935791e-01,1.451844096183776855e+00,1.371546149253845215e+00,1.633512496948242188e+00,-1.120473623275756836e+00,1.766009926795959473e+00
8.707196712493896484e-01,-1.292333900928497314e-01,1.456100821495056152e+00,1.369222760200500488e+00,1.637109398841857910e+00,-1.127443790435791016e+00,1.773416042327880859e+00
8.739069700241088867e-01,-1.319470405578613281e-01,1.460543751716613770e+00,1.366818785667419434e+00,1.640718221664428711e+00,-1.134450912475585938e+00,1.780867218971252441e+00
8.771468997001647949e-01,-1.346929222345352173e-01,1.464974164962768555e+00,1.364318370819091797e+00,1.644361257553100586e+00,-1.141379237174987793e+00,1.788362383842468262e+00
8.803161978721618652e-01,-1.374943554401397705e-01,1.469255805015563965e+00,1.362026929855346680e+00,1.648050904273986816e+00,-1.148328304290771484e+00,1.795903563499450684e+00
8.834015727043151855e-01,-1.402902752161026001e-01,1.473452448844909668e+00,1.360009193420410156e+00,1.651794433593750000e+00,-1.155289173126220703e+00,1.803479909896850586e+00
8.864689469337463379e-01,-1.429967880249023438e-01,1.477759718894958496e+00,1.358170628547668457e+00,1.655582785606384277e+00,-1.162231445312500000e+00,1.811111330986022949e+00
8.895585536956787109e-01,-1.456188857555389404e-01,1.482298493385314941e+00,1.356441020965576172e+00,1.659415602684020996e+00,-1.169342517852783203e+00,1.818781852722167969e+00
8.925871253013610840e-01,-1.481714546680450439e-01,1.486970901489257812e+00,1.354754447937011719e+00,1.663311719894409180e+00,-1.176565885543823242e+00,1.826492428779602051e+00
8.954868316650390625e-01,-1.507206857204437256e-01,1.491689205169677734e+00,1.352836251258850098e+00,1.667236447334289551e+00,-1.183862328529357910e+00,1.834262371063232422e+00
8.982306718826293945e-01,-1.533360630273818970e-01,1.496418356895446777e+00,1.350562572479248047e+00,1.671212196350097656e+00,-1.191404700279235840e+00,1.842073202133178711e+00
9.008075594902038574e-01,-1.560440212488174438e-01,1.501153588294982910e+00,1.347978830337524414e+00,1.675198197364807129e+00,-1.199060678482055664e+00,1.849925518035888672e+00
9.032204747200012207e-01,-1.588278263807296753e-01,1.505861759185791016e+00,1.344949722290039062e+00,1.679220438003540039e+00,-1.206841945648193359e+00,1.857824087142944336e+00
9.055486917495727539e-01,-1.615838408470153809e-01,1.510615706443786621e+00,1.341531395912170410e+00,1.683261752128601074e+00,-1.214786648750305176e+00,1.865750551223754883e+00
9.079292416572570801e-01,-1.642372161149978638e-01,1.515536785125732422e+00,1.337787508964538574e+00,1.687326312065124512e+00,-1.222719192504882812e+00,1.873729705810546875e+00
9.103829264640808105e-01,-1.667651087045669556e-01,1.520570635795593262e+00,1.333816647529602051e+00,1.691416740417480469e+00,-1.230795741081237793e+00,1.881738543510437012e+00
9.128586053848266602e-01,-1.692378669977188110e-01,1.525591254234313965e+00,1.329678177833557129e+00,1.695548653602600098e+00,-1.238812446594238281e+00,1.889779567718505859e+00
9.153772592544555664e-01,-1.717910468578338623e-01,1.530568003654479980e+00,1.325372338294982910e+00,1.699728131294250488e+00,-1.246846318244934082e+00,1.897856950759887695e+00
9.179825782775878906e-01,-1.744868457317352295e-01,1.535520076751708984e+00,1.321231126785278320e+00,1.703944087028503418e+00,-1.254910469055175781e+00,1.905967593193054199e+00
9.206714034080505371e-01,-1.773270368576049805e-01,1.540408611297607422e+00,1.317357182502746582e+00,1.708183884620666504e+00,-1.262894272804260254e+00,1.914123296737670898e+00
9.233438968658447266e-01,-1.802216470241546631e-01,1.545120716094970703e+00,1.313650846481323242e+00,1.712440133094787598e+00,-1.270928978919982910e+00,1.922296762466430664e+00
9.260139465332031250e-01,-1.831113398075103760e-01,1.549757480621337891e+00,1.309924483299255371e+00,1.716723680496215820e+00,-1.278885960578918457e+00,1.930504322052001953e+00
9.288113117218017578e-01,-1.859642565250396729e-01,1.554562807083129883e+00,1.306035876274108887e+00,1.721028208732604980e+00,-1.286933183670043945e+00,1.938737392425537109e+00
9.317445158958435059e-01,-1.887133121490478516e-01,1.559581637382507324e+00,1.302197098731994629e+00,1.725351452827453613e+00,-1.295057296752929688e+00,1.946995258331298828e+00
9.347169995307922363e-01,-1.914635747671127319e-01,1.564640879631042480e+00,1.298345804214477539e+00,1.729690790176391602e+00,-1.303163647651672363e+00,1.955287694931030273e+00
9.376286864280700684e-01,-1.942892074584960938e-01,1.569606781005859375e+00,1.294391393661499023e+00,1.734085679054260254e+00,-1.311422109603881836e+00,1.963598370552062988e+00
9.404725432395935059e-01,-1.971663236618041992e-01,1.574496626853942871e+00,1.290226936340332031e+00,1.738507390022277832e+00,-1.319608092308044434e+00,1.971953392028808594e+00
9.432989358901977539e-01,-1.999866366386413574e-01,1.579389572143554688e+00,1.285807132720947266e+00,1.742971897125244141e+00,-1.327869415283203125e+00,1.980329990386962891e+00
9.461316466331481934e-01,-2.026884108781814575e-01,1.584332823753356934e+00,1.281455755233764648e+00,1.747452139854431152e+00,-1.336118459701538086e+00,1.988742232322692871e+00
9.490375518798828125e-01,-2.053177505731582642e-01,1.589399099349975586e+00,1.277113795280456543e+00,1.751944065093994141e+00,-1.344407439231872559e+00,1.997170567512512207e+00
9.520312547683715820e-01,-2.078679352998733521e-01,1.594594478607177734e+00,1.272641658782958984e+00,1.756475806236267090e+00,-1.352773785591125488e+00,2.005622863769531250e+00
9.550662040710449219e-01,-2.103994935750961304e-01,1.599818706512451172e+00,1.268026113510131836e+00,1.761021256446838379e+00,-1.361059546470642090e+00,2.014104843139648438e+00
9.580491185188293457e-01,-2.130132466554641724e-01,1.604906797409057617e+00,1.263418793678283691e+00,1.765620350837707520e+00,-1.369457483291625977e+00,2.022602796554565430e+00
9.609690308570861816e-01,-2.157218009233474731e-01,1.609846591949462891e+00,1.258956670761108398e+00,1.770238637924194336e+00,-1.377764463424682617e+00,2.031135320663452148e+00
9.639059901237487793e-01,-2.184149026870727539e-01,1.614756822586059570e+00,1.254456162452697754e+00,1.774892210960388184e+00,-1.386109590530395508e+00,2.039672613143920898e+00
9.669103026390075684e-01,-2.210155278444290161e-01,1.619777917861938477e+00,1.249912738800048828e+00,1.779547214508056641e+00,-1.394470930099487305e+00,2.048237800598144531e+00
9.699732661247253418e-01,-2.235599011182785034e-01,1.624900579452514648e+00,1.245335459709167480e+00,1.784220695495605469e+00,-1.402800321578979492e+00,2.056823492050170898e+00
9.730616211891174316e-01,-2.260584384202957153e-01,1.630072236061096191e+00,1.240842819213867188e+00,1.788928151130676270e+00,-1.411254286766052246e+00,2.065430641174316406e+00
9.761677980422973633e-01,-2.285407930612564087e-01,1.635266542434692383e+00,1.236322879791259766e+00,1.793637752532958984e+00,-1.419606447219848633e+00,2.074056863784790039e+00
9.792420864105224609e-01,-2.310788035392761230e-01,1.640420794486999512e+00,1.231689929962158203e+00,1.798398137092590332e+00,-1.428104519844055176e+00,2.082697868347167969e+00
9.822093248367309570e-01,-2.337038964033126831e-01,1.645465373992919922e+00,1.226963520050048828e+00,1.803185105323791504e+00,-1.436522245407104492e+00,2.091362476348876953e+00
9.851222634315490723e-01,-2.363781034946441650e-01,1.650503873825073242e+00,1.222199201583862305e+00,1.808017134666442871e+00,-1.445023536682128906e+00,2.100038290023803711e+00
9.880842566490173340e-01,-2.389888167381286621e-01,1.655697226524353027e+00,1.217417001724243164e+00,1.812855839729309082e+00,-1.453568458557128906e+00,2.108740091323852539e+00
9.911035299301147461e-01,-2.414839267730712891e-01,1.661040663719177246e+00,1.212525367736816406e+00,1.817683339118957520e+00,-1.462087988853454590e+00,2.117460012435913086e+00
9.940877556800842285e-01,-2.439739555120468140e-01,1.666379809379577637e+00,1.207463145256042480e+00,1.822579264640808105e+00,-1.470718502998352051e+00,2.126198768615722656e+00
9.970136880874633789e-01,-2.464754134416580200e-01,1.671653151512145996e+00,1.202382802963256836e+00,1.827480673789978027e+00,-1.479271173477172852e+00,2.134956121444702148e+00
9.999004006385803223e-01,-2.489438652992248535e-01,1.676850199699401855e+00,1.197318553924560547e+00,1.832413911819458008e+00,-1.487940907478332520e+00,2.143728971481323242e+00
1.002762436866760254e+00,-2.514100968837738037e-01,1.681962609291076660e+00,1.192207813262939453e+00,1.837368488311767578e+00,-1.496507763862609863e+00,2.152522802352905273e+00
1.005628585815429688e+00,-2.539327740669250488e-01,1.686983704566955566e+00,1.187000751495361328e+00,1.842359900474548340e+00,-1.505169510841369629e+00,2.161323785781860352e+00
1.008530497550964355e+00,-2.565292119979858398e-01,1.691770076751708984e+00,1.181864380836486816e+00,1.847372055053710938e+00,-1.513834834098815918e+00,2.170154333114624023e+00
1.011476993560791016e+00,-2.591125369071960449e-01,1.696019291877746582e+00,1.176747798919677734e+00,1.852401137351989746e+00,-1.522507429122924805e+00,2.178990602493286133e+00
1.014480352401733398e+00,-2.616720199584960938e-01,1.699508309364318848e+00,1.171547293663024902e+00,1.857437372207641602e+00,-1.531192183494567871e+00,2.187861204147338867e+00
1.017571687698364258e+00,-2.642592787742614746e-01,1.702133774757385254e+00,1.166227340698242188e+00,1.862517833709716797e+00,-1.539836049079895020e+00,2.196744441986083984e+00
1.020740985870361328e+00,-2.666583657264709473e-01,1.703709125518798828e+00,1.160862445831298828e+00,1.867585897445678711e+00,-1.548545956611633301e+00,2.205654859542846680e+00
1.024051427841186523e+00,-2.687982618808746338e-01,1.704182505607604980e+00,1.155516147613525391e+00,1.872657179832458496e+00,-1.557092785835266113e+00,2.214587926864624023e+00
1.027597427368164062e+00,-2.707206308841705322e-01,1.703758716583251953e+00,1.150122046470642090e+00,1.877735733985900879e+00,-1.565791249275207520e+00,2.223531961441040039e+00
1.031302332878112793e+00,-2.722589969635009766e-01,1.702533125877380371e+00,1.144636869430541992e+00,1.882807493209838867e+00,-1.574344158172607422e+00,2.232489824295043945e+00
1.035056829452514648e+00,-2.734467089176177979e-01,1.700509071350097656e+00,1.139176011085510254e+00,1.887870669364929199e+00,-1.582903265953063965e+00,2.241456031799316406e+00
1.038784503936767578e+00,-2.744140028953552246e-01,1.697885274887084961e+00,1.133893609046936035e+00,1.892963528633117676e+00,-1.591294050216674805e+00,2.250428915023803711e+00
1.042448639869689941e+00,-2.752022147178649902e-01,1.695035696029663086e+00,1.128806829452514648e+00,1.898049592971801758e+00,-1.599418401718139648e+00,2.259397506713867188e+00
1.046028494834899902e+00,-2.759240865707397461e-01,1.692279458045959473e+00,1.124191999435424805e+00,1.903185844421386719e+00,-1.606912016868591309e+00,2.268374919891357422e+00
1.049439072608947754e+00,-2.767101824283599854e-01,1.689812302589416504e+00,1.120276093482971191e+00,1.908357858657836914e+00,-1.613086104393005371e+00,2.277339220046997070e+00
1.052586555480957031e+00,-2.775880098342895508e-01,1.687775969505310059e+00,1.117097496986389160e+00,1.913581132888793945e+00,-1.617509365081787109e+00,2.286307811737060547e+00
1.055429577827453613e+00,-2.786398828029632568e-01,1.686207413673400879e+00,1.114757299423217773e+00,1.918882012367248535e+00,-1.619766712188720703e+00,2.295261383056640625e+00
1.057953119277954102e+00,-2.799691557884216309e-01,1.685041904449462891e+00,1.113478183746337891e+00,1.924264073371887207e+00,-1.619845151901245117e+00,2.304230451583862305e+00
1.060138940811157227e+00,-2.815286219120025635e-01,1.684145808219909668e+00,1.113406538963317871e+00,1.929704785346984863e+00,-1.617969036102294922e+00,2.313207864761352539e+00
1.062023282051086426e+00,-2.833231985569000244e-01,1.683371543884277344e+00,1.114372849464416504e+00,1.935203075408935547e+00,-1.614654898643493652e+00,2.322198629379272461e+00
1.063642978668212891e+00,-2.853289246559143066e-01,1.682547211647033691e+00,1.116247534751892090e+00,1.940750360488891602e+00,-1.610522031784057617e+00,2.331199407577514648e+00
1.064972162246704102e+00,-2.873684763908386230e-01,1.681452512741088867e+00,1.118794798851013184e+00,1.946331739425659180e+00,-1.606347560882568359e+00,2.340204000473022461e+00
1.066019654273986816e+00,-2.893118262290954590e-01,1.680020809173583984e+00,1.121670961380004883e+00,1.951939582824707031e+00,-1.602677583694458008e+00,2.349220991134643555e+00
1.066794872283935547e+00,-2.910346984863281250e-01,1.678313493728637695e+00,1.124669551849365234e+00,1.957557320594787598e+00,-1.599881172180175781e+00,2.358246803283691406e+00
1.067355990409851074e+00,-2.923947870731353760e-01,1.676453113555908203e+00,1.127606391906738281e+00,1.963145732879638672e+00,-1.597932815551757812e+00,2.367287874221801758e+00
1.067745089530944824e+00,-2.935031950473785400e-01,1.674577713012695312e+00,1.130278706550598145e+00,1.968740582466125488e+00,-1.596542239189147949e+00,2.376327514648437500e+00
1.067923903465270996e+00,-2.944685816764831543e-01,1.672696471214294434e+00,1.132508039474487305e+00,1.974306344985961914e+00,-1.595302104949951172e+00,2.385382413864135742e+00
1.067880630493164062e+00,-2.954634428024291992e-01,1.670756340026855469e+00,1.134344696998596191e+00,1.979893088340759277e+00,-1.593586921691894531e+00,2.394440412521362305e+00
1.067684888839721680e+00,-2.966566085815429688e-01,1.668695211410522461e+00,1.135825395584106445e+00,1.985487341880798340e+00,-1.591307759284973145e+00,2.403507709503173828e+00
1.067378282546997070e+00,-2.980345487594604492e-01,1.666497111320495605e+00,1.137103199958801270e+00,1.991132140159606934e+00,-1.588285088539123535e+00,2.412563800811767578e+00
1.067019104957580566e+00,-2.995322644710540771e-01,1.664147496223449707e+00,1.138288021087646484e+00,1.996767401695251465e+00,-1.584738254547119141e+00,2.421617984771728516e+00
1.066694736480712891e+00,-3.011523783206939697e-01,1.661652445793151855e+00,1.139725923538208008e+00,2.002454757690429688e+00,-1.580801367759704590e+00,2.430671453475952148e+00
1.066410899162292480e+00,-3.028649687767028809e-01,1.658982872962951660e+00,1.141620159149169922e+00,2.008161306381225586e+00,-1.576753616333007812e+00,2.439723014831542969e+00
1.066117763519287109e+00,-3.045870959758758545e-01,1.656119942665100098e+00,1.143935561180114746e+00,2.013917684555053711e+00,-1.572530031204223633e+00,2.448772192001342773e+00
1.065781474113464355e+00,-3.063622117042541504e-01,1.653130888938903809e+00,1.146719217300415039e+00,2.019709110260009766e+00,-1.568169832229614258e+00,2.457805395126342773e+00
1.065376758575439453e+00,-3.082453012466430664e-01,1.650084018707275391e+00,1.150023698806762695e+00,2.025520563125610352e+00,-1.563629627227783203e+00,2.466835260391235352e+00
1.064810991287231445e+00,-3.102018237113952637e-01,1.646920800209045410e+00,1.153732419013977051e+00,2.031380414962768555e+00,-1.558919072151184082e+00,2.475859642028808594e+00
1.064036250114440918e+00,-3.121878504753112793e-01,1.643662571907043457e+00,1.157777905464172363e+00,2.037230491638183594e+00,-1.554076552391052246e+00,2.484887123107910156e+00
1.063065171241760254e+00,-3.141225278377532959e-01,1.640406370162963867e+00,1.162040710449218750e+00,2.043138980865478516e+00,-1.549040198326110840e+00,2.493897199630737305e+00
1.061926960945129395e+00,-3.159195184707641602e-01,1.637230873107910156e+00,1.166298985481262207e+00,2.049020767211914062e+00,-1.543867468833923340e+00,2.502911567687988281e+00
1.060628414154052734e+00,-3.175630271434783936e-01,1.634158492088317871e+00,1.170547246932983398e+00,2.054931879043579102e+00,-1.538555979728698730e+00,2.511909008026123047e+00
1.059160828590393066e+00,-3.190996348857879639e-01,1.631122231483459473e+00,1.174721598625183105e+00,2.060850143432617188e+00,-1.533199310302734375e+00,2.520907878875732422e+00
1.057523965835571289e+00,-3.205463290214538574e-01,1.628036856651306152e+00,1.178880214691162109e+00,2.066772699356079102e+00,-1.527696609497070312e+00,2.529892683029174805e+00
1.055763006210327148e+00,-3.219246268272399902e-01,1.624904274940490723e+00,1.182949542999267578e+00,2.072729349136352539e+00,-1.522066831588745117e+00,2.538862228393554688e+00
1.053929686546325684e+00,-3.232594728469848633e-01,1.621735215187072754e+00,1.186959981918334961e+00,2.078701972961425781e+00,-1.516337275505065918e+00,2.547814369201660156e+00
1.052041292190551758e+00,-3.245686888694763184e-01,1.618485808372497559e+00,1.191096067428588867e+00,2.084713459014892578e+00,-1.510488986968994141e+00,2.556747913360595703e+00
1.050127506256103516e+00,-3.258717358112335205e-01,1.615126729011535645e+00,1.195365548133850098e+00,2.090719461441040039e+00,-1.504470944404602051e+00,2.565664768218994141e+00
1.048221707344055176e+00,-3.271669447422027588e-01,1.611678242683410645e+00,1.199859619140625000e+00,2.096758842468261719e+00,-1.498299598693847656e+00,2.574554443359375000e+00
1.046323060989379883e+00,-3.284644186496734619e-01,1.608150839805603027e+00,1.204448103904724121e+00,2.102799177169799805e+00,-1.492039680480957031e+00,2.583435773849487305e+00
1.044430375099182129e+00,-3.297618925571441650e-01,1.604591250419616699e+00,1.209136843681335449e+00,2.108876466751098633e+00,-1.485591411590576172e+00,2.592300891876220703e+00
1.042566299438476562e+00,-3.310567736625671387e-01,1.601037621498107910e+00,1.213928103446960449e+00,2.114952802658081055e+00,-1.479051589965820312e+00,2.601138830184936523e+00
1.040763139724731445e+00,-3.324090838432312012e-01,1.597527146339416504e+00,1.218905091285705566e+00,2.121038913726806641e+00,-1.472443342208862305e+00,2.609926939010620117e+00
1.038982510566711426e+00,-3.338217139244079590e-01,1.594017863273620605e+00,1.223923683166503906e+00,2.127151012420654297e+00,-1.465717077255249023e+00,2.618663549423217773e+00
1.037146806716918945e+00,-3.352761864662170410e-01,1.590425491333007812e+00,1.228913664817810059e+00,2.133255243301391602e+00,-1.458878278732299805e+00,2.627333402633666992e+00
1.035202383995056152e+00,-3.367500007152557373e-01,1.586718201637268066e+00,1.233989953994750977e+00,2.139403820037841797e+00,-1.451980233192443848e+00,2.635931253433227539e+00
1.033202052116394043e+00,-3.381896018981933594e-01,1.582973718643188477e+00,1.239142656326293945e+00,2.145533323287963867e+00,-1.444983720779418945e+00,2.644442796707153320e+00
1.031210184097290039e+00,-3.395479023456573486e-01,1.579306364059448242e+00,1.244210839271545410e+00,2.151681184768676758e+00,-1.437882304191589355e+00,2.652833461761474609e+00
1.029222846031188965e+00,-3.408625125885009766e-01,1.575729012489318848e+00,1.249208927154541016e+00,2.157838106155395508e+00,-1.430817723274230957e+00,2.661079883575439453e+00
1.027191758155822754e+00,-3.421424925327301025e-01,1.572147727012634277e+00,1.254274010658264160e+00,2.163977384567260742e+00,-1.423568606376647949e+00,2.669046878814697266e+00
1.025073647499084473e+00,-3.433643281459808350e-01,1.568440198898315430e+00,1.259433984756469727e+00,2.170160293579101562e+00,-1.416312456130981445e+00,2.676388502120971680e+00
1.022890090942382812e+00,-3.445740342140197754e-01,1.564658284187316895e+00,1.264488935470581055e+00,2.176348447799682617e+00,-1.408957004547119141e+00,2.682506322860717773e+00
1.020697474479675293e+00,-3.457862436771392822e-01,1.560912847518920898e+00,1.269490361213684082e+00,2.182587385177612305e+00,-1.401494383811950684e+00,2.686839580535888672e+00
1.018493771553039551e+00,-3.469445705413818359e-01,1.557135701179504395e+00,1.274575352668762207e+00,2.188856124877929688e+00,-1.394050478935241699e+00,2.688939571380615234e+00
1.016263484954833984e+00,-3.480151891708374023e-01,1.553276538848876953e+00,1.279825329780578613e+00,2.195102930068969727e+00,-1.386422991752624512e+00,2.688708305358886719e+00
1.013979673385620117e+00,-3.490112423896789551e-01,1.549308538436889648e+00,1.284998178482055664e+00,2.201424360275268555e+00,-1.378747463226318359e+00,2.686404466629028320e+00
1.011619806289672852e+00,-3.499313294887542725e-01,1.545195221900939941e+00,1.290081024169921875e+00,2.207732439041137695e+00,-1.371017932891845703e+00,2.682458400726318359e+00
1.009249806404113770e+00,-3.507555425167083740e-01,1.541004896163940430e+00,1.295273780822753906e+00,2.214081764221191406e+00,-1.363093376159667969e+00,2.677547216415405273e+00
1.006943583488464355e+00,-3.514726161956787109e-01,1.536825180053710938e+00,1.300595164299011230e+00,2.220435619354248047e+00,-1.355237603187561035e+00,2.672475337982177734e+00
1.004698276519775391e+00,-3.520789146423339844e-01,1.532689213752746582e+00,1.305863976478576660e+00,2.226777791976928711e+00,-1.347210407257080078e+00,2.667954206466674805e+00
1.002434849739074707e+00,-3.525837957859039307e-01,1.528474330902099609e+00,1.311133742332458496e+00,2.233173370361328125e+00,-1.339185714721679688e+00,2.664368152618408203e+00
1.000121235847473145e+00,-3.530118763446807861e-01,1.524118185043334961e+00,1.316541910171508789e+00,2.239545583724975586e+00,-1.331117272377014160e+00,2.661785125732421875e+00
9.978266954421997070e-01,-3.533231019973754883e-01,1.519729733467102051e+00,1.321936607360839844e+00,2.245941162109375000e+00,-1.322904229164123535e+00,2.659970998764038086e+00
9.955764412879943848e-01,-3.534853756427764893e-01,1.515396595001220703e+00,1.327103495597839355e+00,2.252338886260986328e+00,-1.314810276031494141e+00,2.658440589904785156e+00
9.932743310928344727e-01,-3.535067141056060791e-01,1.510999798774719238e+00,1.332045078277587891e+00,2.258686542510986328e+00,-1.306548953056335449e+00,2.656551837921142578e+00
9.908311963081359863e-01,-3.533976078033447266e-01,1.506385087966918945e+00,1.336615324020385742e+00,2.265013694763183594e+00,-1.298320770263671875e+00,2.653945446014404297e+00
9.883029460906982422e-01,-3.531607389450073242e-01,1.501682996749877930e+00,1.340567350387573242e+00,2.271121978759765625e+00,-1.290044069290161133e+00,2.650487184524536133e+00
9.858213663101196289e-01,-3.527815937995910645e-01,1.497097373008728027e+00,1.343784570693969727e+00,2.276800870895385742e+00,-1.281794786453247070e+00,2.646276950836181641e+00
9.834030866622924805e-01,-3.522471785545349121e-01,1.492548108100891113e+00,1.346240043640136719e+00,2.281796693801879883e+00,-1.273872017860412598e+00,2.641590595245361328e+00
9.809703826904296875e-01,-3.515687286853790283e-01,1.487822651863098145e+00,1.347894310951232910e+00,2.285854339599609375e+00,-1.266367077827453613e+00,2.636729717254638672e+00
9.785212874412536621e-01,-3.508139252662658691e-01,1.482898950576782227e+00,1.348921298980712891e+00,2.288975715637207031e+00,-1.260069489479064941e+00,2.631848096847534180e+00
9.761684536933898926e-01,-3.500022888183593750e-01,1.477910876274108887e+00,1.349069237709045410e+00,2.291155815124511719e+00,-1.255421757698059082e+00,2.626963376998901367e+00
9.739444851875305176e-01,-3.490427136421203613e-01,1.472849011421203613e+00,1.348400712013244629e+00,2.292521238327026367e+00,-1.252742171287536621e+00,2.622014760971069336e+00
9.717920422554016113e-01,-3.480177521705627441e-01,1.467548608779907227e+00,1.347023367881774902e+00,2.293321132659912109e+00,-1.252115607261657715e+00,2.616950273513793945e+00
9.697578549385070801e-01,-3.470122218132019043e-01,1.462047934532165527e+00,1.345010757446289062e+00,2.293844461441040039e+00,-1.253298282623291016e+00,2.611728906631469727e+00
9.679871797561645508e-01,-3.459913432598114014e-01,1.456553459167480469e+00,1.343044519424438477e+00,2.294320821762084961e+00,-1.255786061286926270e+00,2.606349229812622070e+00
9.664925336837768555e-01,-3.449406921863555908e-01,1.451080679893493652e+00,1.341013312339782715e+00,2.294908523559570312e+00,-1.258962631225585938e+00,2.600794076919555664e+00
9.651003479957580566e-01,-3.438449203968048096e-01,1.445527315139770508e+00,1.339020013809204102e+00,2.295680522918701172e+00,-1.262167572975158691e+00,2.595075607299804688e+00
9.637292623519897461e-01,-3.426771163940429688e-01,1.439935445785522461e+00,1.337185978889465332e+00,2.296636819839477539e+00,-1.264910101890563965e+00,2.589209556579589844e+00
9.623740911483764648e-01,-3.413217365741729736e-01,1.434437155723571777e+00,1.335595011711120605e+00,2.297657251358032227e+00,-1.266968011856079102e+00,2.583214521408081055e+00
9.609270691871643066e-01,-3.397407233715057373e-01,1.429021477699279785e+00,1.334250807762145996e+00,2.298577785491943359e+00,-1.268419742584228516e+00,2.577102422714233398e+00
9.592661261558532715e-01,-3.380061388015747070e-01,1.423608183860778809e+00,1.333017468452453613e+00,2.299359798431396484e+00,-1.269590735435485840e+00,2.570876359939575195e+00
9.573555588722229004e-01,-3.361546993255615234e-01,1.418234825134277344e+00,1.331816911697387695e+00,2.300006151199340820e+00,-1.270951628684997559e+00,2.564543724060058594e+00
9.552028775215148926e-01,-3.342016339302062988e-01,1.412930488586425781e+00,1.330428481101989746e+00,2.300536155700683594e+00,-1.272860050201416016e+00,2.558110475540161133e+00
9.527834653854370117e-01,-3.322386741638183594e-01,1.407634258270263672e+00,1.328724741935729980e+00,2.300958395004272461e+00,-1.275383830070495605e+00,2.551557302474975586e+00
9.501441121101379395e-01,-3.303336501121520996e-01,1.402343034744262695e+00,1.326713919639587402e+00,2.301285266876220703e+00,-1.278508067131042480e+00,2.544899463653564453e+00
9.473972916603088379e-01,-3.284806609153747559e-01,1.397095084190368652e+00,1.324395418167114258e+00,2.301507711410522461e+00,-1.281946182250976562e+00,2.538141012191772461e+00
9.446146488189697266e-01,-3.266601860523223877e-01,1.391855001449584961e+00,1.321783423423767090e+00,2.301613807678222656e+00,-1.285554647445678711e+00,2.531280517578125000e+00
9.418373107910156250e-01,-3.248813748359680176e-01,1.386566758155822754e+00,1.318913102149963379e+00,2.301622629165649414e+00,-1.289151191711425781e+00,2.524329185485839844e+00
9.391407370567321777e-01,-3.232228159904479980e-01,1.381285071372985840e+00,1.315823316574096680e+00,2.301555395126342773e+00,-1.292802810668945312e+00,2.517281055450439453e+00
9.365949034690856934e-01,-3.217393457889556885e-01,1.376029133796691895e+00,1.312587738037109375e+00,2.301430702209472656e+00,-1.296523332595825195e+00,2.510133981704711914e+00
9.341628551483154297e-01,-3.204479813575744629e-01,1.370676636695861816e+00,1.309262156486511230e+00,2.301227807998657227e+00,-1.300299525260925293e+00,2.502885818481445312e+00
9.317819476127624512e-01,-3.193736076354980469e-01,1.365142345428466797e+00,1.305915951728820801e+00,2.300956487655639648e+00,-1.304228901863098145e+00,2.495545625686645508e+00
9.295157194137573242e-01,-3.185302615165710449e-01,1.359583139419555664e+00,1.302689075469970703e+00,2.300608873367309570e+00,-1.308191299438476562e+00,2.488119840621948242e+00
9.274357557296752930e-01,-3.178496956825256348e-01,1.354144573211669922e+00,1.299564838409423828e+00,2.300176858901977539e+00,-1.312324166297912598e+00,2.480617523193359375e+00
9.254577755928039551e-01,-3.172985911369323730e-01,1.348770737648010254e+00,1.296465992927551270e+00,2.299671888351440430e+00,-1.316509008407592773e+00,2.473023176193237305e+00
9.234793782234191895e-01,-3.169687986373901367e-01,1.343452572822570801e+00,1.293241858482360840e+00,2.299088716506958008e+00,-1.320873022079467773e+00,2.465349197387695312e+00
9.214769601821899414e-01,-3.168300092220306396e-01,1.338244795799255371e+00,1.289769411087036133e+00,2.298457860946655273e+00,-1.325439572334289551e+00,2.457595109939575195e+00
9.194070100784301758e-01,-3.167853057384490967e-01,1.333092689514160156e+00,1.286068558692932129e+00,2.297708034515380859e+00,-1.330117702484130859e+00,2.449763536453247070e+00
9.172518253326416016e-01,-3.168868124485015869e-01,1.327940583229064941e+00,1.282240271568298340e+00,2.296885728836059570e+00,-1.334917545318603516e+00,2.441865921020507812e+00
9.150363206863403320e-01,-3.171514272689819336e-01,1.322786450386047363e+00,1.278345346450805664e+00,2.296000003814697266e+00,-1.339853167533874512e+00,2.433901071548461914e+00
9.128000736236572266e-01,-3.175563216209411621e-01,1.317665696144104004e+00,1.274365067481994629e+00,2.295022010803222656e+00,-1.344928860664367676e+00,2.425862789154052734e+00
9.105548858642578125e-01,-3.180685043334960938e-01,1.312565803527832031e+00,1.270218372344970703e+00,2.293976068496704102e+00,-1.350101947784423828e+00,2.417755603790283203e+00
9.082996845245361328e-01,-3.186991214752197266e-01,1.307483434677124023e+00,1.265878438949584961e+00,2.292853832244873047e+00,-1.355336666107177734e+00,2.409585237503051758e+00
9.060893654823303223e-01,-3.194377720355987549e-01,1.302486062049865723e+00,1.261542201042175293e+00,2.291664123535156250e+00,-1.360680222511291504e+00,2.401355028152465820e+00
9.039829373359680176e-01,-3.202498853206634521e-01,1.297586202621459961e+00,1.257230162620544434e+00,2.290379762649536133e+00,-1.366159558296203613e+00,2.393049001693725586e+00
9.019533991813659668e-01,-3.211013078689575195e-01,1.292713403701782227e+00,1.252948045730590820e+00,2.289007186889648438e+00,-1.371662735939025879e+00,2.384682893753051758e+00
8.999640941619873047e-01,-3.220199048519134521e-01,1.287822365760803223e+00,1.248571872711181641e+00,2.287561178207397461e+00,-1.377196311950683594e+00,2.376254081726074219e+00
8.980455398559570312e-01,-3.230311870574951172e-01,1.283008694648742676e+00,1.244137048721313477e+00,2.286047458648681641e+00,-1.382860898971557617e+00,2.367769241333007812e+00
8.962091803550720215e-01,-3.240964710712432861e-01,1.278287410736083984e+00,1.239807844161987305e+00,2.284451961517333984e+00,-1.388614296913146973e+00,2.359238147735595703e+00
8.943926095962524414e-01,-3.252100348472595215e-01,1.273558855056762695e+00,1.235419034957885742e+00,2.282768964767456055e+00,-1.394423604011535645e+00,2.350653171539306641e+00
8.925298452377319336e-01,-3.264177441596984863e-01,1.268788337707519531e+00,1.230914831161499023e+00,2.281014204025268555e+00,-1.400307893753051758e+00,2.342020988464355469e+00
8.906272649765014648e-01,-3.278067111968994141e-01,1.264029264450073242e+00,1.226272940635681152e+00,2.279235124588012695e+00,-1.406353116035461426e+00,2.333332777023315430e+00
8.887004256248474121e-01,-3.292564451694488525e-01,1.259290814399719238e+00,1.221652626991271973e+00,2.277360200881958008e+00,-1.412440299987792969e+00,2.324601173400878906e+00
8.867807984352111816e-01,-3.307846188545227051e-01,1.254569292068481445e+00,1.216981649398803711e+00,2.275417804718017578e+00,-1.418561458587646484e+00,2.315823554992675781e+00
8.848412036895751953e-01,-3.324827253818511963e-01,1.249841570854187012e+00,1.212252616882324219e+00,2.273423910140991211e+00,-1.424829959869384766e+00,2.306997060775756836e+00
8.828488588333129883e-01,-3.342565596103668213e-01,1.245082497596740723e+00,1.207418322563171387e+00,2.271381855010986328e+00,-1.431127548217773438e+00,2.298125505447387695e+00
8.808425068855285645e-01,-3.360297679901123047e-01,1.240325450897216797e+00,1.202554941177368164e+00,2.269259691238403320e+00,-1.437452554702758789e+00,2.289204359054565430e+00
8.788719177246093750e-01,-3.378207981586456299e-01,1.235638856887817383e+00,1.197801351547241211e+00,2.267076730728149414e+00,-1.443871140480041504e+00,2.280244588851928711e+00
8.768931031227111816e-01,-3.396378457546234131e-01,1.230946302413940430e+00,1.192995190620422363e+00,2.264844894409179688e+00,-1.450329780578613281e+00,2.271237611770629883e+00
8.748666644096374512e-01,-3.414807915687561035e-01,1.226197719573974609e+00,1.188030362129211426e+00,2.262560606002807617e+00,-1.456756711006164551e+00,2.262194871902465820e+00
8.728373646736145020e-01,-3.433797955513000488e-01,1.221466183662414551e+00,1.183181166648864746e+00,2.260231971740722656e+00,-1.463287830352783203e+00,2.253109216690063477e+00
8.708342909812927246e-01,-3.453831374645233154e-01,1.216779947280883789e+00,1.178594827651977539e+00,2.257854700088500977e+00,-1.469870448112487793e+00,2.243987321853637695e+00
8.687880635261535645e-01,-3.474631309509277344e-01,1.212043166160583496e+00,1.174167513847351074e+00,2.255428552627563477e+00,-1.476415514945983887e+00,2.234823703765869141e+00
8.666783571243286133e-01,-3.496242463588714600e-01,1.207257151603698730e+00,1.169958591461181641e+00,2.252984523773193359e+00,-1.483056545257568359e+00,2.225622415542602539e+00
8.645696043968200684e-01,-3.518820703029632568e-01,1.202514290809631348e+00,1.166307806968688965e+00,2.250518560409545898e+00,-1.489723682403564453e+00,2.216390371322631836e+00
8.624699115753173828e-01,-3.541717231273651123e-01,1.197820305824279785e+00,1.163426518440246582e+00,2.248119115829467773e+00,-1.496348857879638672e+00,2.207127571105957031e+00
8.602865338325500488e-01,-3.564275801181793213e-01,1.193044066429138184e+00,1.161251187324523926e+00,2.246020793914794922e+00,-1.502989411354064941e+00,2.197826623916625977e+00
8.579644560813903809e-01,-3.586115241050720215e-01,1.188192963600158691e+00,1.159917712211608887e+00,2.244464397430419922e+00,-1.509519338607788086e+00,2.188490867614746094e+00
8.555509448051452637e-01,-3.607044816017150879e-01,1.183369278907775879e+00,1.159588575363159180e+00,2.243599891662597656e+00,-1.515578866004943848e+00,2.179123878479003906e+00
8.530734777450561523e-01,-3.626256883144378662e-01,1.178647875785827637e+00,1.160221338272094727e+00,2.243444681167602539e+00,-1.520722270011901855e+00,2.169736385345458984e+00
8.504298925399780273e-01,-3.643905520439147949e-01,1.173951268196105957e+00,1.161752343177795410e+00,2.243902683258056641e+00,-1.524362325668334961e+00,2.160339832305908203e+00
8.475210666656494141e-01,-3.660854697227478027e-01,1.169205069541931152e+00,1.164030551910400391e+00,2.244997978210449219e+00,-1.526157379150390625e+00,2.150927543640136719e+00
8.443512916564941406e-01,-3.677041828632354736e-01,1.164468407630920410e+00,1.166823029518127441e+00,2.246696472167968750e+00,-1.526114106178283691e+00,2.141497850418090820e+00
8.410262465476989746e-01,-3.692120313644409180e-01,1.159896016120910645e+00,1.169850945472717285e+00,2.248891592025756836e+00,-1.524400472640991211e+00,2.132060527801513672e+00
8.375400900840759277e-01,-3.706612288951873779e-01,1.155385732650756836e+00,1.172941207885742188e+00,2.251377582550048828e+00,-1.521207571029663086e+00,2.122617006301879883e+00
8.338159918785095215e-01,-3.721466660499572754e-01,1.150697588920593262e+00,1.175996541976928711e+00,2.253921508789062500e+00,-1.516986966133117676e+00,2.113146066665649414e+00
8.298938870429992676e-01,-3.737364411354064941e-01,1.145808935165405273e+00,1.178670406341552734e+00,2.256342411041259766e+00,-1.512369394302368164e+00,2.103652000427246094e+00
8.259822726249694824e-01,-3.753949403762817383e-01,1.140936017036437988e+00,1.180894851684570312e+00,2.258613824844360352e+00,-1.507987618446350098e+00,2.094139814376831055e+00
8.222584128379821777e-01,-3.771494925022125244e-01,1.136116504669189453e+00,1.182801127433776855e+00,2.260794401168823242e+00,-1.504155158996582031e+00,2.084534406661987305e+00
8.187822699546813965e-01,-3.790779411792755127e-01,1.131178975105285645e+00,1.184598207473754883e+00,2.263074398040771484e+00,-1.500887989997863770e+00,2.074696779251098633e+00
8.155906796455383301e-01,-3.811835050582885742e-01,1.126109957695007324e+00,1.186416387557983398e+00,2.265522956848144531e+00,-1.497962594032287598e+00,2.064720630645751953e+00
8.127352595329284668e-01,-3.833648562431335449e-01,1.121005177497863770e+00,1.188414931297302246e+00,2.268100500106811523e+00,-1.494863152503967285e+00,2.054785966873168945e+00
8.101961016654968262e-01,-3.856156170368194580e-01,1.115909814834594727e+00,1.190759420394897461e+00,2.270805597305297852e+00,-1.491306424140930176e+00,2.044948816299438477e+00
8.079125881195068359e-01,-3.878996372222900391e-01,1.110874772071838379e+00,1.193468689918518066e+00,2.273566007614135742e+00,-1.487119436264038086e+00,2.035196781158447266e+00
8.058496713638305664e-01,-3.901533782482147217e-01,1.105964541435241699e+00,1.196542263031005859e+00,2.276390075683593750e+00,-1.482356548309326172e+00,2.025517225265502930e+00
8.039464354515075684e-01,-3.923549652099609375e-01,1.101160645484924316e+00,1.199996113777160645e+00,2.279239416122436523e+00,-1.477226614952087402e+00,2.015879392623901367e+00
8.020445704460144043e-01,-3.944488465785980225e-01,1.096376299858093262e+00,1.203759431838989258e+00,2.282138347625732422e+00,-1.471843361854553223e+00,2.006256580352783203e+00
8.000000119209289551e-01,-3.963995575904846191e-01,1.091549396514892578e+00,1.207666993141174316e+00,2.285072803497314453e+00,-1.466406106948852539e+00,1.996616244316101074e+00
7.977730035781860352e-01,-3.982386589050292969e-01,1.086712241172790527e+00,1.211638092994689941e+00,2.288047552108764648e+00,-1.460917830467224121e+00,1.986944437026977539e+00
7.953980565071105957e-01,-4.000362455844879150e-01,1.081953167915344238e+00,1.215669155120849609e+00,2.291093587875366211e+00,-1.455527782440185547e+00,1.977236151695251465e+00
7.928725481033325195e-01,-4.018172323703765869e-01,1.077230334281921387e+00,1.219648957252502441e+00,2.294165134429931641e+00,-1.450101613998413086e+00,1.967499017715454102e+00
7.901613712310791016e-01,-4.036416411399841309e-01,1.072432398796081543e+00,1.223423004150390625e+00,2.297319650650024414e+00,-1.444588899612426758e+00,1.957729935646057129e+00
7.873137593269348145e-01,-4.055750668048858643e-01,1.067596316337585449e+00,1.227203488349914551e+00,2.300546646118164062e+00,-1.439020752906799316e+00,1.947931885719299316e+00
7.844638228416442871e-01,-4.075748026371002197e-01,1.062798738479614258e+00,1.231156587600708008e+00,2.303822994232177734e+00,-1.433308482170104980e+00,1.938112854957580566e+00
7.817056775093078613e-01,-4.095540642738342285e-01,1.058034420013427734e+00,1.235334992408752441e+00,2.307130575180053711e+00,-1.427456736564636230e+00,1.928284525871276855e+00
7.790492773056030273e-01,-4.114925563335418701e-01,1.053248047828674316e+00,1.239650487899780273e+00,2.310473442077636719e+00,-1.421402812004089355e+00,1.918442130088806152e+00
7.764738798141479492e-01,-4.134244918823242188e-01,1.048402905464172363e+00,1.243908524513244629e+00,2.313879728317260742e+00,-1.415267229080200195e+00,1.908588290214538574e+00
7.739973068237304688e-01,-4.153502881526947021e-01,1.043571114540100098e+00,1.248224854469299316e+00,2.317309141159057617e+00,-1.408966898918151855e+00,1.898727416992187500e+00
7.716382741928100586e-01,-4.173421263694763184e-01,1.038781762123107910e+00,1.252640008926391602e+00,2.320772171020507812e+00,-1.402520418167114258e+00,1.888866186141967773e+00
7.693575024604797363e-01,-4.194644689559936523e-01,1.033997058868408203e+00,1.257221579551696777e+00,2.324273347854614258e+00,-1.396072149276733398e+00,1.878987073898315430e+00
7.671058773994445801e-01,-4.217134416103363037e-01,1.029194235801696777e+00,1.261839628219604492e+00,2.327806949615478516e+00,-1.389507770538330078e+00,1.869101405143737793e+00
7.648560404777526855e-01,-4.240010976791381836e-01,1.024412393569946289e+00,1.266442298889160156e+00,2.331388711929321289e+00,-1.382927894592285156e+00,1.859205603599548340e+00
7.625584006309509277e-01,-4.263383150100708008e-01,1.019638895988464355e+00,1.271157860755920410e+00,2.335006952285766602e+00,-1.376394271850585938e+00,1.849312424659729004e+00
7.601612806320190430e-01,-4.287368953227996826e-01,1.014824151992797852e+00,1.275969505310058594e+00,2.338670492172241211e+00,-1.369923830032348633e+00,1.839401364326477051e+00
7.576539516448974609e-01,-4.311451315879821777e-01,1.009967803955078125e+00,1.280767679214477539e+00,2.342382669448852539e+00,-1.363623619079589844e+00,1.829477429389953613e+00
7.550786137580871582e-01,-4.335120916366577148e-01,1.005127310752868652e+00,1.285412311553955078e+00,2.346139192581176758e+00,-1.357892513275146484e+00,1.819543242454528809e+00
7.524690032005310059e-01,-4.357924461364746094e-01,1.000332355499267578e+00,1.290132641792297363e+00,2.349919795989990234e+00,-1.353222012519836426e+00,1.809603810310363770e+00
7.498006820678710938e-01,-4.380263090133666992e-01,9.954770803451538086e-01,1.294951796531677246e+00,2.353739738464355469e+00,-1.350125551223754883e+00,1.799635291099548340e+00
7.470802664756774902e-01,-4.402731657028198242e-01,9.905537962913513184e-01,1.299787282943725586e+00,2.357609510421752930e+00,-1.348899841308593750e+00,1.789645433425903320e+00
7.443952560424804688e-01,-4.425256550312042236e-01,9.856577515602111816e-01,1.304539680480957031e+00,2.361515998840332031e+00,-1.349541902542114258e+00,1.779620289802551270e+00
7.418410778045654297e-01,-4.447860121726989746e-01,9.808847904205322266e-01,1.309423446655273438e+00,2.365334272384643555e+00,-1.351833462715148926e+00,1.769568800926208496e+00
7.394405007362365723e-01,-4.470724761486053467e-01,9.763914346694946289e-01,1.314534664154052734e+00,2.368842840194702148e+00,-1.355406284332275391e+00,1.759483218193054199e+00
7.371367812156677246e-01,-4.494178891181945801e-01,9.723678827285766602e-01,1.319736838340759277e+00,2.371798753738403320e+00,-1.359701275825500488e+00,1.749386310577392578e+00
7.348501682281494141e-01,-4.518150389194488525e-01,9.689480066299438477e-01,1.324686408042907715e+00,2.374054431915283203e+00,-1.363990306854248047e+00,1.739284634590148926e+00
7.325108051300048828e-01,-4.542528688907623291e-01,9.662991166114807129e-01,1.329326748847961426e+00,2.375540971755981445e+00,-1.367835164070129395e+00,1.729183077812194824e+00
7.301220297813415527e-01,-4.568217694759368896e-01,9.646180868148803711e-01,1.333613395690917969e+00,2.376302242279052734e+00,-1.371067404747009277e+00,1.719085454940795898e+00
7.276882529258728027e-01,-4.595963954925537109e-01,9.640568494796752930e-01,1.337353587150573730e+00,2.376357316970825195e+00,-1.373834609985351562e+00,1.708993077278137207e+00
7.251524925231933594e-01,-4.626214504241943359e-01,9.645642638206481934e-01,1.340243101119995117e+00,2.375828981399536133e+00,-1.376476645469665527e+00,1.698907017707824707e+00
7.224296331405639648e-01,-4.660473763942718506e-01,9.658319950103759766e-01,1.342098593711853027e+00,2.374894380569458008e+00,-1.379401922225952148e+00,1.688820481300354004e+00
7.195467948913574219e-01,-4.699360430240631104e-01,9.676982760429382324e-01,1.343089580535888672e+00,2.373805761337280273e+00,-1.382793188095092773e+00,1.678722262382507324e+00
7.166626453399658203e-01,-4.742628037929534912e-01,9.700443148612976074e-01,1.343284726142883301e+00,2.372764587402343750e+00,-1.386663079261779785e+00,1.668624043464660645e+00
7.139837741851806641e-01,-4.788910746574401855e-01,9.727112650871276855e-01,1.342502355575561523e+00,2.371896505355834961e+00,-1.390890479087829590e+00,1.658517599105834961e+00
7.116373181343078613e-01,-4.836205840110778809e-01,9.754748940467834473e-01,1.340721845626831055e+00,2.371227741241455078e+00,-1.395378828048706055e+00,1.648414969444274902e+00
7.097074985504150391e-01,-4.884660542011260986e-01,9.780258536338806152e-01,1.338015675544738770e+00,2.370633840560913086e+00,-1.399933457374572754e+00,1.638309240341186523e+00
7.082732319831848145e-01,-4.933937788009643555e-01,9.801288843154907227e-01,1.335136294364929199e+00,2.369929313659667969e+00,-1.404578804969787598e+00,1.628209948539733887e+00
7.074553966522216797e-01,-4.982317984104156494e-01,9.818187355995178223e-01,1.331966638565063477e+00,2.369056224822998047e+00,-1.409207701683044434e+00,1.618111968040466309e+00
7.072167396545410156e-01,-5.026831626892089844e-01,9.832240343093872070e-01,1.328403115272521973e+00,2.368026256561279297e+00,-1.413914203643798828e+00,1.608019828796386719e+00
7.073890566825866699e-01,-5.067951679229736328e-01,9.843691587448120117e-01,1.324863910675048828e+00,2.366916894912719727e+00,-1.418727636337280273e+00,1.597921609878540039e+00
7.078286409378051758e-01,-5.106427669525146484e-01,9.853127002716064453e-01,1.321808099746704102e+00,2.365731716156005859e+00,-1.423681855201721191e+00,1.587810635566711426e+00
7.084746360778808594e-01,-5.141733288764953613e-01,9.863467812538146973e-01,1.319241046905517578e+00,2.364516258239746094e+00,-1.428731203079223633e+00,1.577687501907348633e+00
7.092283368110656738e-01,-5.174372792243957520e-01,9.877015948295593262e-01,1.316861629486083984e+00,2.363251447677612305e+00,-1.433898568153381348e+00,1.567555427551269531e+00
7.098793387413024902e-01,-5.206159353256225586e-01,9.893599152565002441e-01,1.314749479293823242e+00,2.361992597579956055e+00,-1.439184665679931641e+00,1.557407140731811523e+00
7.102645039558410645e-01,-5.238879323005676270e-01,9.911840558052062988e-01,1.313031792640686035e+00,2.360725164413452148e+00,-1.444664120674133301e+00,1.547249197959899902e+00
7.104197144508361816e-01,-5.273184776306152344e-01,9.931882023811340332e-01,1.311939954757690430e+00,2.359429836273193359e+00,-1.450254797935485840e+00,1.537084698677062988e+00
7.105183601379394531e-01,-5.309123992919921875e-01,9.954211115837097168e-01,1.311465144157409668e+00,2.358110904693603516e+00,-1.455939292907714844e+00,1.526912689208984375e+00
7.106484770774841309e-01,-5.345938205718994141e-01,9.977967143058776855e-01,1.311695098876953125e+00,2.356767892837524414e+00,-1.461785435676574707e+00,1.516744852066040039e+00
7.107920050621032715e-01,-5.381300449371337891e-01,1.000191211700439453e+00,1.312661647796630859e+00,2.355403900146484375e+00,-1.467734456062316895e+00,1.506577730178833008e+00
7.109460234642028809e-01,-5.414180159568786621e-01,1.002620697021484375e+00,1.314267635345458984e+00,2.353988647460937500e+00,-1.473776459693908691e+00,1.496421933174133301e+00
7.110925316810607910e-01,-5.444451570510864258e-01,1.005105376243591309e+00,1.316570043563842773e+00,2.352540254592895508e+00,-1.479930758476257324e+00,1.486257433891296387e+00
7.112090587615966797e-01,-5.472098588943481445e-01,1.007618069648742676e+00,1.319443583488464355e+00,2.351020097732543945e+00,-1.486236333847045898e+00,1.476106047630310059e+00
7.112738490104675293e-01,-5.498341321945190430e-01,1.010186553001403809e+00,1.322582602500915527e+00,2.349465370178222656e+00,-1.492585301399230957e+00,1.465952515602111816e+00
7.112801671028137207e-01,-5.524752140045166016e-01,1.012832045555114746e+00,1.325901269912719727e+00,2.347849130630493164e+00,-1.499059677124023438e+00,1.455805063247680664e+00
7.112704515457153320e-01,-5.552211999893188477e-01,1.015520215034484863e+00,1.329436063766479492e+00,2.346173763275146484e+00,-1.505664467811584473e+00,1.445646047592163086e+00
7.112734913825988770e-01,-5.581146478652954102e-01,1.018236517906188965e+00,1.332977890968322754e+00,2.344451427459716797e+00,-1.512331843376159668e+00,1.435486197471618652e+00
7.112816572189331055e-01,-5.611463189125061035e-01,1.020974397659301758e+00,1.336122870445251465e+00,2.342717647552490234e+00,-1.519053816795349121e+00,1.425325989723205566e+00
7.113175392150878906e-01,-5.643689632415771484e-01,1.023687839508056641e+00,1.338898420333862305e+00,2.340972661972045898e+00,-1.525916099548339844e+00,1.415173768997192383e+00
7.114650607109069824e-01,-5.677860379219055176e-01,1.026353716850280762e+00,1.341559767723083496e+00,2.339174032211303711e+00,-1.532730460166931152e+00,1.405029296875000000e+00
7.118471860885620117e-01,-5.713852047920227051e-01,1.029037117958068848e+00,1.344235777854919434e+00,2.337326049804687500e+00,-1.539581537246704102e+00,1.394892215728759766e+00
7.125387787818908691e-01,-5.751230716705322266e-01,1.031808853149414062e+00,1.347018361091613770e+00,2.335429191589355469e+00,-1.546509861946105957e+00,1.384761214256286621e+00
7.135424613952636719e-01,-5.788487792015075684e-01,1.034665465354919434e+00,1.349982261657714844e+00,2.333471298217773438e+00,-1.553400158882141113e+00,1.374636054039001465e+00
7.147945761680603027e-01,-5.824440121650695801e-01,1.037571787834167480e+00,1.353165507316589355e+00,2.331459760665893555e+00,-1.560343146324157715e+00,1.364505767822265625e+00
7.161926627159118652e-01,-5.859109759330749512e-01,1.040510773658752441e+00,1.356661081314086914e+00,2.329412698745727539e+00,-1.567357540130615234e+00,1.354374289512634277e+00
7.176703214645385742e-01,-5.892317891120910645e-01,1.043505668640136719e+00,1.360440015792846680e+00,2.327315568923950195e+00,-1.574346184730529785e+00,1.344231247901916504e+00
7.191726565361022949e-01,-5.924010276794433594e-01,1.046587705612182617e+00,1.364506721496582031e+00,2.325162887573242188e+00,-1.581461787223815918e+00,1.334083318710327148e+00
7.206346988677978516e-01,-5.954387784004211426e-01,1.049782156944274902e+00,1.368868947029113770e+00,2.322964668273925781e+00,-1.588660478591918945e+00,1.323925375938415527e+00
7.219870686531066895e-01,-5.984071493148803711e-01,1.053061962127685547e+00,1.373394727706909180e+00,2.320719242095947266e+00,-1.595909953117370605e+00,1.313768625259399414e+00
7.232010364532470703e-01,-6.013568639755249023e-01,1.056393623352050781e+00,1.377990961074829102e+00,2.318442344665527344e+00,-1.603323101997375488e+00,1.303607106208801270e+00
7.242726087570190430e-01,-6.043350696563720703e-01,1.059775710105895996e+00,1.382480621337890625e+00,2.316150665283203125e+00,-1.610784888267517090e+00,1.293453454971313477e+00
7.252410650253295898e-01,-6.073583960533142090e-01,1.063160777091979980e+00,1.386944770812988281e+00,2.313824653625488281e+00,-1.618314862251281738e+00,1.283295154571533203e+00
7.261443734169006348e-01,-6.104850769042968750e-01,1.066473603248596191e+00,1.391478180885314941e+00,2.311474323272705078e+00,-1.625951051712036133e+00,1.273149490356445312e+00
7.270730137825012207e-01,-6.136243343353271484e-01,1.069743871688842773e+00,1.396151661872863770e+00,2.309107542037963867e+00,-1.633538007736206055e+00,1.263006091117858887e+00
7.281254529953002930e-01,-6.166735291481018066e-01,1.073042631149291992e+00,1.400682568550109863e+00,2.306693792343139648e+00,-1.641203522682189941e+00,1.252864956855773926e+00
7.293428182601928711e-01,-6.196908354759216309e-01,1.076460242271423340e+00,1.405168771743774414e+00,2.304319858551025391e+00,-1.648873686790466309e+00,1.242722868919372559e+00
7.307000756263732910e-01,-6.228243112564086914e-01,1.079927563667297363e+00,1.409809708595275879e+00,2.302113771438598633e+00,-1.656527638435363770e+00,1.232574939727783203e+00
7.321327924728393555e-01,-6.260567903518676758e-01,1.083328008651733398e+00,1.414691925048828125e+00,2.300132036209106445e+00,-1.664289712905883789e+00,1.222433328628540039e+00
7.335952520370483398e-01,-6.293789744377136230e-01,1.086719989776611328e+00,1.419610142707824707e+00,2.298543214797973633e+00,-1.671986460685729980e+00,1.212281107902526855e+00
7.350524663925170898e-01,-6.327883601188659668e-01,1.090170383453369141e+00,1.424426078796386719e+00,2.297531127929687500e+00,-1.679790854454040527e+00,1.202129125595092773e+00
7.364677786827087402e-01,-6.361724138259887695e-01,1.093678712844848633e+00,1.429354906082153320e+00,2.297206401824951172e+00,-1.687638044357299805e+00,1.191974401473999023e+00
7.378734350204467773e-01,-6.395092606544494629e-01,1.097274303436279297e+00,1.434355378150939941e+00,2.297524929046630859e+00,-1.695465683937072754e+00,1.181833028793334961e+00
7.392863035202026367e-01,-6.428552269935607910e-01,1.100947380065917969e+00,1.439325094223022461e+00,2.298476457595825195e+00,-1.703441619873046875e+00,1.171683907508850098e+00
7.406735420227050781e-01,-6.461935639381408691e-01,1.104625344276428223e+00,1.444275379180908203e+00,2.300046682357788086e+00,-1.711369276046752930e+00,1.161547422409057617e+00
7.420395016670227051e-01,-6.495200991630554199e-01,1.108203649520874023e+00,1.449291825294494629e+00,2.302168369293212891e+00,-1.719368577003479004e+00,1.151411533355712891e+00
7.434467077255249023e-01,-6.528452038764953613e-01,1.111726522445678711e+00,1.454520344734191895e+00,2.304631471633911133e+00,-1.727381587028503418e+00,1.141286015510559082e+00
7.449879646301269531e-01,-6.561293601989746094e-01,1.115330934524536133e+00,1.459737539291381836e+00,2.307217121124267578e+00,-1.735333681106567383e+00,1.131163477897644043e+00
7.466589808464050293e-01,-6.593212485313415527e-01,1.119027733802795410e+00,1.464818716049194336e+00,2.309716224670410156e+00,-1.743407726287841797e+00,1.121047616004943848e+00
7.483941912651062012e-01,-6.625236868858337402e-01,1.122705698013305664e+00,1.470041155815124512e+00,2.312052011489868164e+00,-1.751373052597045898e+00,1.110938906669616699e+00
7.501637935638427734e-01,-6.658065915107727051e-01,1.126290440559387207e+00,1.475486397743225098e+00,2.314304590225219727e+00,-1.759432315826416016e+00,1.100834369659423828e+00
7.519575953483581543e-01,-6.691699028015136719e-01,1.129867553710937500e+00,1.480904579162597656e+00,2.316644906997680664e+00,-1.767454504966735840e+00,1.090723514556884766e+00
7.537903189659118652e-01,-6.725541949272155762e-01,1.133529543876647949e+00,1.486254572868347168e+00,2.319122552871704102e+00,-1.775467991828918457e+00,1.080612182617187500e+00
7.556867003440856934e-01,-6.759035587310791016e-01,1.137292146682739258e+00,1.491718769073486328e+00,2.321765899658203125e+00,-1.783576726913452148e+00,1.070502161979675293e+00
7.576420307159423828e-01,-6.792025566101074219e-01,1.141116857528686523e+00,1.497270226478576660e+00,2.324533700942993164e+00,-1.791621327400207520e+00,1.060397982597351074e+00
7.595790028572082520e-01,-6.824653148651123047e-01,1.144938826560974121e+00,1.502680540084838867e+00,2.327409744262695312e+00,-1.799763679504394531e+00,1.050289750099182129e+00
7.614390254020690918e-01,-6.857013702392578125e-01,1.148679852485656738e+00,1.508108496665954590e+00,2.330358505249023438e+00,-1.807890057563781738e+00,1.040181994438171387e+00
7.632707357406616211e-01,-6.890265345573425293e-01,1.152342081069946289e+00,1.513684988021850586e+00,2.333358526229858398e+00,-1.815993428230285645e+00,1.030070900917053223e+00
7.651540637016296387e-01,-6.923773288726806641e-01,1.156055450439453125e+00,1.519337534904479980e+00,2.336412906646728516e+00,-1.824187278747558594e+00,1.019961357116699219e+00
7.671009302139282227e-01,-6.956184506416320801e-01,1.159902334213256836e+00,1.524870753288269043e+00,2.339501857757568359e+00,-1.832271456718444824e+00,1.009842276573181152e+00
7.690674662590026855e-01,-6.988065838813781738e-01,1.163789629936218262e+00,1.530369997024536133e+00,2.342649936676025391e+00,-1.840483665466308594e+00,9.997255802154541016e-01
7.709904313087463379e-01,-7.020742297172546387e-01,1.167607784271240234e+00,1.536047339439392090e+00,2.345870733261108398e+00,-1.848597407341003418e+00,9.896135330200195312e-01
7.728835344314575195e-01,-7.053780555725097656e-01,1.171337485313415527e+00,1.541639328002929688e+00,2.349153518676757812e+00,-1.856733441352844238e+00,9.794986248016357422e-01
7.748192548751831055e-01,-7.086783051490783691e-01,1.175094604492187500e+00,1.547255873680114746e+00,2.352503061294555664e+00,-1.864863276481628418e+00,9.693840742111206055e-01
7.768784761428833008e-01,-7.120000720024108887e-01,1.178957462310791016e+00,1.553078055381774902e+00,2.355883359909057617e+00,-1.872902750968933105e+00,9.592686295509338379e-01
7.790384888648986816e-01,-7.152829766273498535e-01,1.182871460914611816e+00,1.558886170387268066e+00,2.359336376190185547e+00,-1.881027698516845703e+00,9.491633176803588867e-01
7.811766266822814941e-01,-7.184582352638244629e-01,1.186766147613525391e+00,1.564527630805969238e+00,2.362831354141235352e+00,-1.888988256454467773e+00,9.390575885772705078e-01
7.832435965538024902e-01,-7.216747999191284180e-01,1.190546274185180664e+00,1.570182681083679199e+00,2.366412639617919922e+00,-1.896979570388793945e+00,9.289479255676269531e-01
7.852938771247863770e-01,-7.249937653541564941e-01,1.194225430488586426e+00,1.576012849807739258e+00,2.370043277740478516e+00,-1.904871225357055664e+00,9.188370108604431152e-01
7.874227762222290039e-01,-7.283536195755004883e-01,1.197960376739501953e+00,1.581780910491943359e+00,2.373736381530761719e+00,-1.912597179412841797e+00,9.087322354316711426e-01
7.896344065666198730e-01,-7.316944599151611328e-01,1.201794743537902832e+00,1.587538361549377441e+00,2.377464056015014648e+00,-1.920318126678466797e+00,8.986296653747558594e-01
7.918815612792968750e-01,-7.349984049797058105e-01,1.205628156661987305e+00,1.593430995941162109e+00,2.381224632263183594e+00,-1.927682638168334961e+00,8.885365724563598633e-01
7.941267490386962891e-01,-7.382454872131347656e-01,1.209394454956054688e+00,1.599219083786010742e+00,2.385051250457763672e+00,-1.934668421745300293e+00,8.784523010253906250e-01
7.963425517082214355e-01,-7.414644360542297363e-01,1.213166952133178711e+00,1.604955911636352539e+00,2.388917922973632812e+00,-1.940639972686767578e+00,8.683903813362121582e-01
7.986113429069519043e-01,-7.446993589401245117e-01,1.216993451118469238e+00,1.610819697380065918e+00,2.392817974090576172e+00,-1.945034503936767578e+00,8.583568334579467773e-01
8.009735941886901855e-01,-7.480059862136840820e-01,1.220872044563293457e+00,1.616815328598022461e+00,2.396753072738647461e+00,-1.947474598884582520e+00,8.484167456626892090e-01
8.033264279365539551e-01,-7.513045072555541992e-01,1.224807620048522949e+00,1.622778415679931641e+00,2.400722265243530273e+00,-1.947813749313354492e+00,8.385728001594543457e-01
8.055779337882995605e-01,-7.545673251152038574e-01,1.228722333908081055e+00,1.628678202629089355e+00,2.404749631881713867e+00,-1.946226835250854492e+00,8.288195133209228516e-01
8.077437877655029297e-01,-7.578555941581726074e-01,1.232594251632690430e+00,1.634606838226318359e+00,2.408828496932983398e+00,-1.943079471588134766e+00,8.191052675247192383e-01
8.099070787429809570e-01,-7.611694931983947754e-01,1.236538648605346680e+00,1.640482783317565918e+00,2.412961483001708984e+00,-1.938970685005187988e+00,8.094139695167541504e-01
8.121138811111450195e-01,-7.644665241241455078e-01,1.240578413009643555e+00,1.646367549896240234e+00,2.417110204696655273e+00,-1.934633493423461914e+00,7.997134327888488770e-01
8.143725991249084473e-01,-7.677998542785644531e-01,1.244647383689880371e+00,1.652404665946960449e+00,2.421251058578491211e+00,-1.930665969848632812e+00,7.900220751762390137e-01
8.166456818580627441e-01,-7.710878252983093262e-01,1.248650908470153809e+00,1.658485293388366699e+00,2.425234556198120117e+00,-1.927364230155944824e+00,7.803328037261962891e-01
8.188921809196472168e-01,-7.742314934730529785e-01,1.252607941627502441e+00,1.664463400840759277e+00,2.428836345672607422e+00,-1.924757361412048340e+00,7.706506848335266113e-01
8.211469650268554688e-01,-7.773423194885253906e-01,1.256428241729736328e+00,1.670409798622131348e+00,2.431785821914672852e+00,-1.922632932662963867e+00,7.609729766845703125e-01
8.234503269195556641e-01,-7.805621027946472168e-01,1.259827733039855957e+00,1.676385164260864258e+00,2.433973550796508789e+00,-1.920557618141174316e+00,7.513035535812377930e-01
8.258101940155029297e-01,-7.838599681854248047e-01,1.262592554092407227e+00,1.682309150695800781e+00,2.435347318649291992e+00,-1.918057680130004883e+00,7.416554689407348633e-01
8.282968401908874512e-01,-7.872321605682373047e-01,1.264713764190673828e+00,1.688243508338928223e+00,2.435935497283935547e+00,-1.914998412132263184e+00,7.321221828460693359e-01
8.309873938560485840e-01,-7.906042933464050293e-01,1.266147375106811523e+00,1.694241285324096680e+00,2.435775518417358398e+00,-1.911308765411376953e+00,7.227654457092285156e-01
8.338612914085388184e-01,-7.937605977058410645e-01,1.266783714294433594e+00,1.700079560279846191e+00,2.434989213943481445e+00,-1.907175779342651367e+00,7.136064171791076660e-01
8.368541002273559570e-01,-7.966335415840148926e-01,1.266529798507690430e+00,1.705767989158630371e+00,2.433788299560546875e+00,-1.902848720550537109e+00,7.045760750770568848e-01
8.399604558944702148e-01,-7.993213534355163574e-01,1.265382766723632812e+00,1.711477041244506836e+00,2.432441234588623047e+00,-1.898499011993408203e+00,6.955733299255371094e-01
8.431684970855712891e-01,-8.017863035202026367e-01,1.263395667076110840e+00,1.717163562774658203e+00,2.431162118911743164e+00,-1.894239425659179688e+00,6.865134835243225098e-01
8.464298844337463379e-01,-8.039503693580627441e-01,1.260812759399414062e+00,1.722836017608642578e+00,2.430057048797607422e+00,-1.890120029449462891e+00,6.773221492767333984e-01
8.497378230094909668e-01,-8.059166073799133301e-01,1.257914781570434570e+00,1.728571772575378418e+00,2.429085016250610352e+00,-1.886373639106750488e+00,6.679762005805969238e-01
8.530774712562561035e-01,-8.077430129051208496e-01,1.254931092262268066e+00,1.734403491020202637e+00,2.428093910217285156e+00,-1.883345723152160645e+00,6.584478616714477539e-01
8.563577532768249512e-01,-8.094681501388549805e-01,1.251998066902160645e+00,1.740130662918090820e+00,2.426986455917358398e+00,-1.881478190422058105e+00,6.487621068954467773e-01
8.594931960105895996e-01,-8.112388849258422852e-01,1.249215245246887207e+00,1.745657086372375488e+00,2.425730943679809570e+00,-1.881152153015136719e+00,6.389206647872924805e-01
8.624692559242248535e-01,-8.132788538932800293e-01,1.246609091758728027e+00,1.750959873199462891e+00,2.424392223358154297e+00,-1.882303953170776367e+00,6.289603114128112793e-01
8.653274178504943848e-01,-8.156290054321289062e-01,1.244182944297790527e+00,1.755776643753051758e+00,2.423007249832153320e+00,-1.884866833686828613e+00,6.189155578613281250e-01
8.681877851486206055e-01,-8.182749152183532715e-01,1.242251038551330566e+00,1.760065793991088867e+00,2.421575069427490234e+00,-1.888762593269348145e+00,6.088314652442932129e-01
8.712081313133239746e-01,-8.212162852287292480e-01,1.241204857826232910e+00,1.763773798942565918e+00,2.420129060745239258e+00,-1.893846631050109863e+00,5.987379550933837891e-01
8.743903040885925293e-01,-8.244247436523437500e-01,1.241143345832824707e+00,1.766733884811401367e+00,2.418664932250976562e+00,-1.899553179740905762e+00,5.886515378952026367e-01
8.775693178176879883e-01,-8.278732299804687500e-01,1.241874575614929199e+00,1.768754243850708008e+00,2.417220354080200195e+00,-1.905210256576538086e+00,5.785715579986572266e-01
8.806392550468444824e-01,-8.315336704254150391e-01,1.243215084075927734e+00,1.769973397254943848e+00,2.415758371353149414e+00,-1.910481691360473633e+00,5.684999227523803711e-01
8.836346268653869629e-01,-8.353159427642822266e-01,1.245203256607055664e+00,1.770200252532958984e+00,2.414294481277465820e+00,-1.915211439132690430e+00,5.584378242492675781e-01
8.865779638290405273e-01,-8.391944766044616699e-01,1.247787952423095703e+00,1.769468784332275391e+00,2.412803649902343750e+00,-1.919592142105102539e+00,5.483694672584533691e-01
8.895574808120727539e-01,-8.432827591896057129e-01,1.250709533691406250e+00,1.767824888229370117e+00,2.411283493041992188e+00,-1.923867344856262207e+00,5.382992029190063477e-01
8.927220702171325684e-01,-8.475694656372070312e-01,1.253755092620849609e+00,1.765783309936523438e+00,2.409694910049438477e+00,-1.928506016731262207e+00,5.282240509986877441e-01
8.961491584777832031e-01,-8.518956899642944336e-01,1.256865143775939941e+00,1.763438105583190918e+00,2.408006191253662109e+00,-1.933548808097839355e+00,5.181428194046020508e-01
8.996911644935607910e-01,-8.560210466384887695e-01,1.259875774383544922e+00,1.760662198066711426e+00,2.406225919723510742e+00,-1.939067363739013672e+00,5.080519318580627441e-01
9.031129479408264160e-01,-8.599032759666442871e-01,1.262538075447082520e+00,1.757754206657409668e+00,2.404362916946411133e+00,-1.944869041442871094e+00,4.979542493820190430e-01
9.063048362731933594e-01,-8.635097742080688477e-01,1.264436841011047363e+00,1.755226016044616699e+00,2.402420520782470703e+00,-1.950935125350952148e+00,4.878427982330322266e-01
9.093923568725585938e-01,-8.668449521064758301e-01,1.265475630760192871e+00,1.753224849700927734e+00,2.400381803512573242e+00,-1.957066416740417480e+00,4.777352511882781982e-01
9.125995635986328125e-01,-8.698741197586059570e-01,1.265818476676940918e+00,1.751788496971130371e+00,2.398221969604492188e+00,-1.963130950927734375e+00,4.676420092582702637e-01
9.159644246101379395e-01,-8.725849390029907227e-01,1.265532732009887695e+00,1.751117348670959473e+00,2.395926713943481445e+00,-1.969071388244628906e+00,4.575647115707397461e-01
9.193398952484130859e-01,-8.749810457229614258e-01,1.264517188072204590e+00,1.751300930976867676e+00,2.393503904342651367e+00,-1.975074291229248047e+00,4.474999308586120605e-01
9.225210547447204590e-01,-8.770304322242736816e-01,1.262644648551940918e+00,1.752222061157226562e+00,2.390991210937500000e+00,-1.981030941009521484e+00,4.374434947967529297e-01
9.254536032676696777e-01,-8.787605762481689453e-01,1.260049819946289062e+00,1.753844141960144043e+00,2.388366222381591797e+00,-1.987010836601257324e+00,4.273856282234191895e-01
9.282649159431457520e-01,-8.803126215934753418e-01,1.257078170776367188e+00,1.756284475326538086e+00,2.385663986206054688e+00,-1.993084430694580078e+00,4.173258841037750244e-01
9.310365915298461914e-01,-8.818407058715820312e-01,1.254030585289001465e+00,1.759622573852539062e+00,2.382890939712524414e+00,-1.999222874641418457e+00,4.072559475898742676e-01
9.336931109428405762e-01,-8.834213018417358398e-01,1.251008749008178711e+00,1.763594746589660645e+00,2.380065441131591797e+00,-2.005444526672363281e+00,3.971851468086242676e-01
9.361440539360046387e-01,-8.850924968719482422e-01,1.248049855232238770e+00,1.767902731895446777e+00,2.377209663391113281e+00,-2.011788606643676758e+00,3.870976567268371582e-01
9.384509325027465820e-01,-8.870034217834472656e-01,1.245194673538208008e+00,1.772303342819213867e+00,2.374325513839721680e+00,-2.018166780471801758e+00,3.770155608654022217e-01
9.407553672790527344e-01,-8.893067836761474609e-01,1.242519140243530273e+00,1.776720881462097168e+00,2.371436357498168945e+00,-2.024279117584228516e+00,3.669144213199615479e-01
9.431561231613159180e-01,-8.919640779495239258e-01,1.239923954010009766e+00,1.781092286109924316e+00,2.368515491485595703e+00,-2.029812097549438477e+00,3.568297028541564941e-01
9.456712007522583008e-01,-8.949279189109802246e-01,1.237184405326843262e+00,1.785484313964843750e+00,2.365568876266479492e+00,-2.034646511077880859e+00,3.467459976673126221e-01
9.483152627944946289e-01,-8.981540799140930176e-01,1.234313964843750000e+00,1.789829492568969727e+00,2.362571716308593750e+00,-2.038799047470092773e+00,3.366872668266296387e-01
9.511293172836303711e-01,-9.014199376106262207e-01,1.231688380241394043e+00,1.793671965599060059e+00,2.359516859054565430e+00,-2.042361497879028320e+00,3.266311287879943848e-01
9.540702104568481445e-01,-9.045704007148742676e-01,1.229493975639343262e+00,1.796890139579772949e+00,2.356382131576538086e+00,-2.045432090759277344e+00,3.166072964668273926e-01
9.570397734642028809e-01,-9.076076745986938477e-01,1.227677464485168457e+00,1.799607872962951660e+00,2.353197813034057617e+00,-2.048068523406982422e+00,3.065697252750396729e-01
9.599460959434509277e-01,-9.105500578880310059e-01,1.226306915283203125e+00,1.801820158958435059e+00,2.349973917007446289e+00,-2.050299406051635742e+00,2.965478003025054932e-01
9.627052545547485352e-01,-9.135079979896545410e-01,1.225472450256347656e+00,1.803215146064758301e+00,2.346741914749145508e+00,-2.052173614501953125e+00,2.865098118782043457e-01
9.653134942054748535e-01,-9.166443943977355957e-01,1.225298643112182617e+00,1.803550243377685547e+00,2.343512058258056641e+00,-2.053669929504394531e+00,2.764796614646911621e-01
9.678752422332763672e-01,-9.200443625450134277e-01,1.225873112678527832e+00,1.803137779235839844e+00,2.340293645858764648e+00,-2.054912090301513672e+00,2.664327621459960938e-01
9.705139994621276855e-01,-9.237540960311889648e-01,1.227144718170166016e+00,1.801981806755065918e+00,2.337082624435424805e+00,-2.055817127227783203e+00,2.563765943050384521e-01
9.732737541198730469e-01,-9.277454614639282227e-01,1.229129076004028320e+00,1.799832820892333984e+00,2.333884716033935547e+00,-2.056497097015380859e+00,2.463120669126510620e-01
9.761281013488769531e-01,-9.318747520446777344e-01,1.231654405593872070e+00,1.797000408172607422e+00,2.330663204193115234e+00,-2.056928873062133789e+00,2.362373024225234985e-01
9.790628552436828613e-01,-9.360581040382385254e-01,1.234428405761718750e+00,1.793685317039489746e+00,2.327439546585083008e+00,-2.057119131088256836e+00,2.261475920677185059e-01
9.820305705070495605e-01,-9.403353929519653320e-01,1.237284183502197266e+00,1.790172696113586426e+00,2.324174880981445312e+00,-2.057144880294799805e+00,2.160490304231643677e-01
9.850579500198364258e-01,-9.445620179176330566e-01,1.240155339241027832e+00,1.786584973335266113e+00,2.320866346359252930e+00,-2.057049751281738281e+00,2.059388309717178345e-01
9.882197976112365723e-01,-9.485429525375366211e-01,1.242912530899047852e+00,1.783083438873291016e+00,2.317485809326171875e+00,-2.056873798370361328e+00,1.958164870738983154e-01
9.914950132369995117e-01,-9.520978331565856934e-01,1.245481252670288086e+00,1.780017137527465820e+00,2.314014911651611328e+00,-2.056611776351928711e+00,1.856876015663146973e-01
9.947513937950134277e-01,-9.552782177925109863e-01,1.247857093811035156e+00,1.777594566345214844e+00,2.310464143753051758e+00,-2.056347370147705078e+00,1.755433678627014160e-01
9.978252649307250977e-01,-9.582315087318420410e-01,1.249722599983215332e+00,1.775958657264709473e+00,2.306854486465454102e+00,-2.056105613708496094e+00,1.653929650783538818e-01
1.000676035881042480e+00,-9.609180092811584473e-01,1.250642418861389160e+00,1.775169253349304199e+00,2.303186416625976562e+00,-2.055870056152343750e+00,1.552450209856033325e-01
1.003426194190979004e+00,-9.633808732032775879e-01,1.250616431236267090e+00,1.775305390357971191e+00,2.299434185028076172e+00,-2.055563449859619141e+00,1.451174616813659668e-01
1.006257295608520508e+00,-9.656546115875244141e-01,1.249920725822448730e+00,1.776329040527343750e+00,2.295589685440063477e+00,-2.055182933807373047e+00,1.350109875202178955e-01
1.009221911430358887e+00,-9.676549434661865234e-01,1.248629093170166016e+00,1.778235673904418945e+00,2.291647195816040039e+00,-2.054695367813110352e+00,1.249297335743904114e-01
1.012217998504638672e+00,-9.693365097045898438e-01,1.246646881103515625e+00,1.781030297279357910e+00,2.287615537643432617e+00,-2.054148912429809570e+00,1.148720905184745789e-01
1.015108585357666016e+00,-9.707289338111877441e-01,1.244044184684753418e+00,1.784550786018371582e+00,2.283512115478515625e+00,-2.053563833236694336e+00,1.048375219106674194e-01
1.017808318138122559e+00,-9.720031619071960449e-01,1.241093039512634277e+00,1.788381457328796387e+00,2.279350757598876953e+00,-2.052969455718994141e+00,9.482158720493316650e-02
1.020295143127441406e+00,-9.733844399452209473e-01,1.238005161285400391e+00,1.792324781417846680e+00,2.275153636932373047e+00,-2.052322149276733398e+00,8.483417332172393799e-02
1.022588849067687988e+00,-9.750009775161743164e-01,1.234867811203002930e+00,1.796411037445068359e+00,2.270939350128173828e+00,-2.051702499389648438e+00,7.487425953149795532e-02
1.024772286415100098e+00,-9.769285321235656738e-01,1.231917977333068848e+00,1.800433039665222168e+00,2.266697168350219727e+00,-2.051060438156127930e+00,6.495276093482971191e-02
1.026968121528625488e+00,-9.792410731315612793e-01,1.229428887367248535e+00,1.804138302803039551e+00,2.262459993362426758e+00,-2.050429105758666992e+00,5.505295097827911377e-02
1.029313206672668457e+00,-9.819034934043884277e-01,1.227612257003784180e+00,1.807342290878295898e+00,2.258218288421630859e+00,-2.049788951873779297e+00,4.515613988041877747e-02
1.031862258911132812e+00,-9.848501086235046387e-01,1.226589679718017578e+00,1.809770703315734863e+00,2.254007577896118164e+00,-2.049150228500366211e+00,3.523967415094375610e-02
1.034538507461547852e+00,-9.880377054214477539e-01,1.226327419281005859e+00,1.811242699623107910e+00,2.249830007553100586e+00,-2.048501491546630859e+00,2.531182207167148590e-02
1.037214279174804688e+00,-9.914761185646057129e-01,1.226685047149658203e+00,1.811764717102050781e+00,2.245691299438476562e+00,-2.047863006591796875e+00,1.538367010653018951e-02
1.039819359779357910e+00,-9.952702522277832031e-01,1.227673053741455078e+00,1.811289548873901367e+00,2.241592884063720703e+00,-2.047268867492675781e+00,5.472656339406967163e-03
1.042400002479553223e+00,-9.994549155235290527e-01,1.229336023330688477e+00,1.809988141059875488e+00,2.237517118453979492e+00,-2.046727180480957031e+00,-4.419422708451747894e-03
1.045065879821777344e+00,-1.003925919532775879e+00,1.231632351875305176e+00,1.807702541351318359e+00,2.233425140380859375e+00,-2.046231508255004883e+00,-1.428789272904396057e-02
1.047864437103271484e+00,-1.008562922477722168e+00,1.234385251998901367e+00,1.804597616195678711e+00,2.229307651519775391e+00,-2.045816183090209961e+00,-2.415072917938232422e-02
1.050798177719116211e+00,-1.013120293617248535e+00,1.237386226654052734e+00,1.800904870033264160e+00,2.225145816802978516e+00,-2.045418262481689453e+00,-3.400295972824096680e-02
1.053825139999389648e+00,-1.017476677894592285e+00,1.240331649780273438e+00,1.796730637550354004e+00,2.220942497253417969e+00,-2.045051336288452148e+00,-4.386681690812110901e-02
1.056888103485107422e+00,-1.021570801734924316e+00,1.243024706840515137e+00,1.792407035827636719e+00,2.216687440872192383e+00,-2.044707059860229492e+00,-5.374427512288093567e-02
1.059986591339111328e+00,-1.025325179100036621e+00,1.245473384857177734e+00,1.788200497627258301e+00,2.212368488311767578e+00,-2.044436693191528320e+00,-6.364450603723526001e-02
1.063115715980529785e+00,-1.028695464134216309e+00,1.247767806053161621e+00,1.784251809120178223e+00,2.207985877990722656e+00,-2.044167041778564453e+00,-7.355503737926483154e-02
1.066209673881530762e+00,-1.031716704368591309e+00,1.250159621238708496e+00,1.780704379081726074e+00,2.203548669815063477e+00,-2.043927192687988281e+00,-8.348330855369567871e-02
1.069164276123046875e+00,-1.034478664398193359e+00,1.252846479415893555e+00,1.777541756629943848e+00,2.199076414108276367e+00,-2.043699502944946289e+00,-9.342973679304122925e-02
1.071920275688171387e+00,-1.037044763565063477e+00,1.255726695060729980e+00,1.774865269660949707e+00,2.194584131240844727e+00,-2.043465375900268555e+00,-1.034020483493804932e-01
1.074453711509704590e+00,-1.039603233337402344e+00,1.258603334426879883e+00,1.772552013397216797e+00,2.190097332000732422e+00,-2.043248176574707031e+00,-1.133746057748794556e-01
1.076790928840637207e+00,-1.042369484901428223e+00,1.261517047882080078e+00,1.770271182060241699e+00,2.185613155364990234e+00,-2.043054580688476562e+00,-1.233571022748947144e-01
1.079035162925720215e+00,-1.045306563377380371e+00,1.264539361000061035e+00,1.767839074134826660e+00,2.181133031845092773e+00,-2.042893409729003906e+00,-1.333254575729370117e-01
1.081375479698181152e+00,-1.048299074172973633e+00,1.267632484436035156e+00,1.765148758888244629e+00,2.176636457443237305e+00,-2.042748212814331055e+00,-1.432736217975616455e-01
1.083942532539367676e+00,-1.051340103149414062e+00,1.270848155021667480e+00,1.762184262275695801e+00,2.172112464904785156e+00,-2.042626380920410156e+00,-1.531656980514526367e-01
1.086761713027954102e+00,-1.054506540298461914e+00,1.274245262145996094e+00,1.758883237838745117e+00,2.167553901672363281e+00,-2.042529344558715820e+00,-1.630096137523651123e-01
1.089828372001647949e+00,-1.057788729667663574e+00,1.277761101722717285e+00,1.755214214324951172e+00,2.162967920303344727e+00,-2.042442798614501953e+00,-1.727712303400039673e-01
1.093092203140258789e+00,-1.061126708984375000e+00,1.281294822692871094e+00,1.751330971717834473e+00,2.158357381820678711e+00,-2.042345762252807617e+00,-1.824724674224853516e-01
1.096425890922546387e+00,-1.064520955085754395e+00,1.284808397293090820e+00,1.747255802154541016e+00,2.153709411621093750e+00,-2.042259931564331055e+00,-1.921058595180511475e-01
1.099655985832214355e+00,-1.067854404449462891e+00,1.288309097290039062e+00,1.742963552474975586e+00,2.149040699005126953e+00,-2.042194366455078125e+00,-2.017072141170501709e-01
1.102711439132690430e+00,-1.071031451225280762e+00,1.291851043701171875e+00,1.738363981246948242e+00,2.144339561462402344e+00,-2.042120695114135742e+00,-2.112818211317062378e-01
1.105667114257812500e+00,-1.074142336845397949e+00,1.295554518699645996e+00,1.733709335327148438e+00,2.139601469039916992e+00,-2.042052745819091797e+00,-2.208611220121383667e-01
1.108627200126647949e+00,-1.077286720275878906e+00,1.299434423446655273e+00,1.729134202003479004e+00,2.134832859039306641e+00,-2.041978836059570312e+00,-2.304345965385437012e-01
1.111601233482360840e+00,-1.080502271652221680e+00,1.303360462188720703e+00,1.724508166313171387e+00,2.130025386810302734e+00,-2.041891574859619141e+00,-2.400235384702682495e-01
1.114486455917358398e+00,-1.083803892135620117e+00,1.307168006896972656e+00,1.719778776168823242e+00,2.125230312347412109e+00,-2.041792869567871094e+00,-2.496151030063629150e-01
1.117181539535522461e+00,-1.087136507034301758e+00,1.310813069343566895e+00,1.714947700500488281e+00,2.120406389236450195e+00,-2.041698694229125977e+00,-2.592266201972961426e-01
1.119751930236816406e+00,-1.090410113334655762e+00,1.314396500587463379e+00,1.710060358047485352e+00,2.115577459335327148e+00,-2.041611671447753906e+00,-2.688382267951965332e-01
1.122357964515686035e+00,-1.093661785125732422e+00,1.318035364151000977e+00,1.705036878585815430e+00,2.110722303390502930e+00,-2.041509866714477539e+00,-2.784495651721954346e-01
1.125061988830566406e+00,-1.096917510032653809e+00,1.321773648262023926e+00,1.699972629547119141e+00,2.105835437774658203e+00,-2.041417121887207031e+00,-2.880322635173797607e-01
1.127834200859069824e+00,-1.100192070007324219e+00,1.325482249259948730e+00,1.694946408271789551e+00,2.100923299789428711e+00,-2.041332244873046875e+00,-2.975818514823913574e-01
1.130638480186462402e+00,-1.103541851043701172e+00,1.328891158103942871e+00,1.690053224563598633e+00,2.095997333526611328e+00,-2.041261672973632812e+00,-3.070138990879058838e-01
1.133483171463012695e+00,-1.106882095336914062e+00,1.331829547882080078e+00,1.685118794441223145e+00,2.091048240661621094e+00,-2.041202545166015625e+00,-3.160396516323089600e-01
1.136404752731323242e+00,-1.110104799270629883e+00,1.334275484085083008e+00,1.679901957511901855e+00,2.086045026779174805e+00,-2.041116476058959961e+00,-3.241054415702819824e-01
1.139422059059143066e+00,-1.113228082656860352e+00,1.336165189743041992e+00,1.674476504325866699e+00,2.080976247787475586e+00,-2.040826797485351562e+00,-3.306053876876831055e-01
1.142541289329528809e+00,-1.116274595260620117e+00,1.337275028228759766e+00,1.669103741645812988e+00,2.075819969177246094e+00,-2.039876222610473633e+00,-3.350463807582855225e-01
1.145778298377990723e+00,-1.119204521179199219e+00,1.337442874908447266e+00,1.663713097572326660e+00,2.070574283599853516e+00,-2.037783861160278320e+00,-3.370123505592346191e-01
1.149129986763000488e+00,-1.121960639953613281e+00,1.336779713630676270e+00,1.658270716667175293e+00,2.065237283706665039e+00,-2.034327745437622070e+00,-3.365498185157775879e-01
1.152550816535949707e+00,-1.124412655830383301e+00,1.335415720939636230e+00,1.652937531471252441e+00,2.059817314147949219e+00,-2.029628038406372070e+00,-3.340216279029846191e-01
1.155957102775573730e+00,-1.126499295234680176e+00,1.333361983299255371e+00,1.647583365440368652e+00,2.054318428039550781e+00,-2.023991584777832031e+00,-3.299511075019836426e-01
1.159240126609802246e+00,-1.128220438957214355e+00,1.330807328224182129e+00,1.642169117927551270e+00,2.048781394958496094e+00,-2.017952919006347656e+00,-3.250821530818939209e-01
1.162373542785644531e+00,-1.129621863365173340e+00,1.328059315681457520e+00,1.636815309524536133e+00,2.043186902999877930e+00,-2.011885404586791992e+00,-3.202417492866516113e-01
1.165459871292114258e+00,-1.130870103836059570e+00,1.325358986854553223e+00,1.631748199462890625e+00,2.037572860717773438e+00,-2.006088495254516602e+00,-3.161115050315856934e-01
1.168599009513854980e+00,-1.132191061973571777e+00,1.322847008705139160e+00,1.627128243446350098e+00,2.031944751739501953e+00,-2.000355482101440430e+00,-3.130327463150024414e-01
1.171764373779296875e+00,-1.133746504783630371e+00,1.320596575736999512e+00,1.623031258583068848e+00,2.026329517364501953e+00,-1.994617581367492676e+00,-3.110572695732116699e-01
1.174818277359008789e+00,-1.135606884956359863e+00,1.318480491638183594e+00,1.619406223297119141e+00,2.020732164382934570e+00,-1.988766193389892578e+00,-3.099897801876068115e-01
1.177665829658508301e+00,-1.137767910957336426e+00,1.316380739212036133e+00,1.616466760635375977e+00,2.015178680419921875e+00,-1.982783079147338867e+00,-3.093566000461578369e-01
1.180355906486511230e+00,-1.140180230140686035e+00,1.314318656921386719e+00,1.614342451095581055e+00,2.009658098220825195e+00,-1.976587414741516113e+00,-3.084511160850524902e-01
1.183033227920532227e+00,-1.142760157585144043e+00,1.312312722206115723e+00,1.613111257553100586e+00,2.004141092300415039e+00,-1.970146059989929199e+00,-3.068308532238006592e-01
1.185788512229919434e+00,-1.145370244979858398e+00,1.310240387916564941e+00,1.612888693809509277e+00,1.998645424842834473e+00,-1.963596224784851074e+00,-3.042903840541839600e-01
1.188602924346923828e+00,-1.147893667221069336e+00,1.308048844337463379e+00,1.613593220710754395e+00,1.993097305297851562e+00,-1.956844329833984375e+00,-3.009132742881774902e-01
1.191368222236633301e+00,-1.150223851203918457e+00,1.305754303932189941e+00,1.615153193473815918e+00,1.987536787986755371e+00,-1.950008392333984375e+00,-2.969687283039093018e-01
1.193930387496948242e+00,-1.152328968048095703e+00,1.303285360336303711e+00,1.617433428764343262e+00,1.981930613517761230e+00,-1.943179845809936523e+00,-2.928563356399536133e-01
1.196186661720275879e+00,-1.154226064682006836e+00,1.300633668899536133e+00,1.620143294334411621e+00,1.976298213005065918e+00,-1.936244964599609375e+00,-2.887723147869110107e-01
1.198147296905517578e+00,-1.156077980995178223e+00,1.297991156578063965e+00,1.622990250587463379e+00,1.970642566680908203e+00,-1.929356575012207031e+00,-2.846895754337310791e-01
1.199905753135681152e+00,-1.158011794090270996e+00,1.295572400093078613e+00,1.625874638557434082e+00,1.964973688125610352e+00,-1.922772169113159180e+00,-2.805472910404205322e-01
1.201590180397033691e+00,-1.160091519355773926e+00,1.293454527854919434e+00,1.628634214401245117e+00,1.959283709526062012e+00,-1.916895866394042969e+00,-2.762838900089263916e-01
1.203323006629943848e+00,-1.162326216697692871e+00,1.291681408882141113e+00,1.630997419357299805e+00,1.953615903854370117e+00,-1.912348508834838867e+00,-2.718560397624969482e-01
1.205191135406494141e+00,-1.164760470390319824e+00,1.290395975112915039e+00,1.632765173912048340e+00,1.947977066040039062e+00,-1.909620523452758789e+00,-2.672675549983978271e-01
1.207270503044128418e+00,-1.167394638061523438e+00,1.289806604385375977e+00,1.633727788925170898e+00,1.942381024360656738e+00,-1.908776164054870605e+00,-2.625217437744140625e-01
1.209599614143371582e+00,-1.170277833938598633e+00,1.289994955062866211e+00,1.633761167526245117e+00,1.936836838722229004e+00,-1.909722328186035156e+00,-2.576265633106231689e-01
1.212128758430480957e+00,-1.173607349395751953e+00,1.290831327438354492e+00,1.632898807525634766e+00,1.931322336196899414e+00,-1.912258625030517578e+00,-2.525894641876220703e-01
1.214806318283081055e+00,-1.177489638328552246e+00,1.292286276817321777e+00,1.631206750869750977e+00,1.925847291946411133e+00,-1.915993332862854004e+00,-2.474071979522705078e-01
1.217599153518676758e+00,-1.181781649589538574e+00,1.294365048408508301e+00,1.628643512725830078e+00,1.920381546020507812e+00,-1.920375943183898926e+00,-2.421147823333740234e-01
1.220460176467895508e+00,-1.186199426651000977e+00,1.296971797943115234e+00,1.625196218490600586e+00,1.914925813674926758e+00,-1.924632906913757324e+00,-2.366993427276611328e-01
1.223366975784301758e+00,-1.190529465675354004e+00,1.299935817718505859e+00,1.621068835258483887e+00,1.909440755844116211e+00,-1.928420543670654297e+00,-2.311574220657348633e-01
1.226342082023620605e+00,-1.194825172424316406e+00,1.303116202354431152e+00,1.616580963134765625e+00,1.903952479362487793e+00,-1.931584835052490234e+00,-2.255166918039321899e-01
1.229402899742126465e+00,-1.199051618576049805e+00,1.306308746337890625e+00,1.611943840980529785e+00,1.898413538932800293e+00,-1.934210300445556641e+00,-2.197699546813964844e-01
1.232502579689025879e+00,-1.203041791915893555e+00,1.309228181838989258e+00,1.607126712799072266e+00,1.892846465110778809e+00,-1.936714529991149902e+00,-2.139086425304412842e-01
1.235556840896606445e+00,-1.206659078598022461e+00,1.311833739280700684e+00,1.602176666259765625e+00,1.887228965759277344e+00,-1.939423918724060059e+00,-2.079379260540008545e-01
1.238481163978576660e+00,-1.209911346435546875e+00,1.314275741577148438e+00,1.597268581390380859e+00,1.881586551666259766e+00,-1.942705154418945312e+00,-2.018778026103973389e-01
1.241276860237121582e+00,-1.212888121604919434e+00,1.316588759422302246e+00,1.592509388923645020e+00,1.875912308692932129e+00,-1.946500420570373535e+00,-1.957248002290725708e-01
1.244013071060180664e+00,-1.215630173683166504e+00,1.318491458892822266e+00,1.587888240814208984e+00,1.870214223861694336e+00,-1.950770139694213867e+00,-1.894665807485580444e-01
1.246773004531860352e+00,-1.218338489532470703e+00,1.319749712944030762e+00,1.583384871482849121e+00,1.864473462104797363e+00,-1.955181837081909180e+00,-1.831226646900177002e-01
1.249630689620971680e+00,-1.221131443977355957e+00,1.320268630981445312e+00,1.578900933265686035e+00,1.858706712722778320e+00,-1.959532856941223145e+00,-1.766728758811950684e-01
1.252616405487060547e+00,-1.223867297172546387e+00,1.319994211196899414e+00,1.574470043182373047e+00,1.852878332138061523e+00,-1.963727831840515137e+00,-1.701223701238632202e-01
1.255750775337219238e+00,-1.226368308067321777e+00,1.318928241729736328e+00,1.569872140884399414e+00,1.846991419792175293e+00,-1.967905282974243164e+00,-1.634741723537445068e-01
1.259005904197692871e+00,-1.228599786758422852e+00,1.317132592201232910e+00,1.565089583396911621e+00,1.841062903404235840e+00,-1.972119569778442383e+00,-1.567382067441940308e-01
1.262369155883789062e+00,-1.230610370635986328e+00,1.314770817756652832e+00,1.560250878334045410e+00,1.835062742233276367e+00,-1.976357698440551758e+00,-1.499155163764953613e-01
1.265815734863281250e+00,-1.232400298118591309e+00,1.311954140663146973e+00,1.555574417114257812e+00,1.829012513160705566e+00,-1.980703711509704590e+00,-1.430240571498870850e-01
1.269298315048217773e+00,-1.234019160270690918e+00,1.308842420578002930e+00,1.551013231277465820e+00,1.822895288467407227e+00,-1.985109448432922363e+00,-1.360642760992050171e-01
1.272697687149047852e+00,-1.235554695129394531e+00,1.305668830871582031e+00,1.546447753906250000e+00,1.816779375076293945e+00,-1.989658355712890625e+00,-1.290189921855926514e-01
1.275904774665832520e+00,-1.237100958824157715e+00,1.302580118179321289e+00,1.541840314865112305e+00,1.810649991035461426e+00,-1.994326829910278320e+00,-1.219134256243705750e-01
1.278937220573425293e+00,-1.238720417022705078e+00,1.299640297889709473e+00,1.537267208099365234e+00,1.804539561271667480e+00,-1.999058246612548828e+00,-1.147440373897552490e-01
1.281913280487060547e+00,-1.240511059761047363e+00,1.296826481819152832e+00,1.532771110534667969e+00,1.798432707786560059e+00,-2.003775835037231445e+00,-1.075119227170944214e-01
1.284939050674438477e+00,-1.242610454559326172e+00,1.294180989265441895e+00,1.528161168098449707e+00,1.792332887649536133e+00,-2.008530616760253906e+00,-1.002307236194610596e-01
1.288066983222961426e+00,-1.245037436485290527e+00,1.291705250740051270e+00,1.523347854614257812e+00,1.786262392997741699e+00,-2.013186693191528320e+00,-9.287211298942565918e-02
1.291291952133178711e+00,-1.247764110565185547e+00,1.289155006408691406e+00,1.518393874168395996e+00,1.780162096023559570e+00,-2.017403841018676758e+00,-8.545513451099395752e-02
1.294565916061401367e+00,-1.250757813453674316e+00,1.286298274993896484e+00,1.513580322265625000e+00,1.774071455001831055e+00,-2.020592927932739258e+00,-7.796972990036010742e-02
1.297870159149169922e+00,-1.253878831863403320e+00,1.283233404159545898e+00,1.508971691131591797e+00,1.767923355102539062e+00,-2.022316455841064453e+00,-7.040882110595703125e-02
1.301207423210144043e+00,-1.256879806518554688e+00,1.280147910118103027e+00,1.504697442054748535e+00,1.761757612228393555e+00,-2.022335767745971680e+00,-6.277840584516525269e-02
1.304494023323059082e+00,-1.259604692459106445e+00,1.277056455612182617e+00,1.500971794128417969e+00,1.755566596984863281e+00,-2.020730257034301758e+00,-5.507656186819076538e-02
1.307590961456298828e+00,-1.261982798576354980e+00,1.273857235908508301e+00,1.498081326484680176e+00,1.749342322349548340e+00,-2.017592668533325195e+00,-4.730095714330673218e-02
1.310425996780395508e+00,-1.264073252677917480e+00,1.270514607429504395e+00,1.496001720428466797e+00,1.743159413337707520e+00,-2.013051986694335938e+00,-3.947250172495841980e-02
1.312987089157104492e+00,-1.265969038009643555e+00,1.267034530639648438e+00,1.494836568832397461e+00,1.736961483955383301e+00,-2.007518291473388672e+00,-3.158556297421455383e-02
1.315320611000061035e+00,-1.267737150192260742e+00,1.263482093811035156e+00,1.494726657867431641e+00,1.730807662010192871e+00,-2.001671075820922852e+00,-2.365739829838275909e-02
1.317464947700500488e+00,-1.269534349441528320e+00,1.259912133216857910e+00,1.495464920997619629e+00,1.724682688713073730e+00,-1.996020793914794922e+00,-1.568896882236003876e-02
1.319425106048583984e+00,-1.271465897560119629e+00,1.256319046020507812e+00,1.497019052505493164e+00,1.718584895133972168e+00,-1.990898728370666504e+00,-7.684165146201848984e-03
1.321197271347045898e+00,-1.273572206497192383e+00,1.252591013908386230e+00,1.499347925186157227e+00,1.712542772293090820e+00,-1.986363649368286133e+00,3.546131483744829893e-04
1.322811841964721680e+00,-1.275862216949462891e+00,1.248697876930236816e+00,1.502123594284057617e+00,1.706486463546752930e+00,-1.982054233551025391e+00,8.451814763247966766e-03
1.324365735054016113e+00,-1.278230309486389160e+00,1.244751572608947754e+00,1.505164384841918945e+00,1.700475931167602539e+00,-1.977615475654602051e+00,1.658778451383113861e-02
1.326004505157470703e+00,-1.280569672584533691e+00,1.240981817245483398e+00,1.508349061012268066e+00,1.694425821304321289e+00,-1.972760915756225586e+00,2.477942220866680145e-02
1.327796220779418945e+00,-1.282848000526428223e+00,1.237617731094360352e+00,1.511409163475036621e+00,1.688374638557434082e+00,-1.967416167259216309e+00,3.301396220922470093e-02
1.329655289649963379e+00,-1.285062551498413086e+00,1.234809994697570801e+00,1.514101743698120117e+00,1.682316064834594727e+00,-1.961611866950988770e+00,4.129638150334358215e-02
1.331467509269714355e+00,-1.287336349487304688e+00,1.232614636421203613e+00,1.516209483146667480e+00,1.676220297813415527e+00,-1.955463647842407227e+00,4.962068423628807068e-02
1.333220481872558594e+00,-1.289886236190795898e+00,1.231006622314453125e+00,1.517568826675415039e+00,1.670158386230468750e+00,-1.949152946472167969e+00,5.797416716814041138e-02
1.335022091865539551e+00,-1.292806744575500488e+00,1.230131983757019043e+00,1.518150329589843750e+00,1.664059996604919434e+00,-1.942818880081176758e+00,6.637384742498397827e-02
1.337025523185729980e+00,-1.296069622039794922e+00,1.230170965194702148e+00,1.517881751060485840e+00,1.657976627349853516e+00,-1.936468243598937988e+00,7.481092214584350586e-02
1.339332103729248047e+00,-1.299700379371643066e+00,1.231073975563049316e+00,1.516729235649108887e+00,1.651869297027587891e+00,-1.930080652236938477e+00,8.328832685947418213e-02
1.341903805732727051e+00,-1.303662061691284180e+00,1.232767820358276367e+00,1.514664649963378906e+00,1.645739078521728516e+00,-1.923765063285827637e+00,9.179364889860153198e-02
1.344645977020263672e+00,-1.307812452316284180e+00,1.235080838203430176e+00,1.511629819869995117e+00,1.639616012573242188e+00,-1.917311549186706543e+00,1.003296524286270142e-01
1.347493767738342285e+00,-1.312170743942260742e+00,1.237777948379516602e+00,1.507727503776550293e+00,1.633471012115478516e+00,-1.910758137702941895e+00,1.089049056172370911e-01
1.350434184074401855e+00,-1.316728591918945312e+00,1.240632057189941406e+00,1.503347039222717285e+00,1.627355337142944336e+00,-1.904182314872741699e+00,1.175131723284721375e-01
1.353437066078186035e+00,-1.321298241615295410e+00,1.243563055992126465e+00,1.498766660690307617e+00,1.621205329895019531e+00,-1.897438883781433105e+00,1.261569112539291382e-01
1.356406331062316895e+00,-1.325642108917236328e+00,1.246396183967590332e+00,1.494099378585815430e+00,1.615037918090820312e+00,-1.890682578086853027e+00,1.348207890987396240e-01
1.359246730804443359e+00,-1.329660296440124512e+00,1.248937845230102539e+00,1.489424109458923340e+00,1.608864307403564453e+00,-1.883877396583557129e+00,1.435066014528274536e-01
1.362005829811096191e+00,-1.333365440368652344e+00,1.251245498657226562e+00,1.484951734542846680e+00,1.602661728858947754e+00,-1.877051472663879395e+00,1.522147506475448608e-01
1.364782333374023438e+00,-1.336649775505065918e+00,1.253388643264770508e+00,1.480730533599853516e+00,1.596455931663513184e+00,-1.870142936706542969e+00,1.609426885843276978e-01
1.367670059204101562e+00,-1.339525818824768066e+00,1.255373358726501465e+00,1.477163553237915039e+00,1.590190529823303223e+00,-1.863251209259033203e+00,1.696861982345581055e-01
1.370649337768554688e+00,-1.342107295989990234e+00,1.257335662841796875e+00,1.474362134933471680e+00,1.583909988403320312e+00,-1.856222629547119141e+00,1.784430742263793945e-01
1.373532652854919434e+00,-1.344534158706665039e+00,1.259252548217773438e+00,1.472254633903503418e+00,1.577637791633605957e+00,-1.849156022071838379e+00,1.872287094593048096e-01
1.376137256622314453e+00,-1.346921324729919434e+00,1.260925769805908203e+00,1.470846772193908691e+00,1.571424722671508789e+00,-1.841991186141967773e+00,1.960339993238449097e-01
1.378523826599121094e+00,-1.349410533905029297e+00,1.262158989906311035e+00,1.470269918441772461e+00,1.565304160118103027e+00,-1.834524393081665039e+00,2.048614025115966797e-01
1.380872607231140137e+00,-1.352056384086608887e+00,1.262893438339233398e+00,1.470691561698913574e+00,1.559244394302368164e+00,-1.826966166496276855e+00,2.137000560760498047e-01
1.383304357528686523e+00,-1.354827761650085449e+00,1.263150691986083984e+00,1.472080349922180176e+00,1.553275346755981445e+00,-1.819209218025207520e+00,2.225561589002609253e-01
