Afshin1997/kuka_rl_ros2/src/catch_and_throw/output_files/tm/idealpd/stiff500/tm_received_joint_target_np.csv
joint_0,joint_1,joint_2,joint_3,joint_4,joint_5,joint_6
8.698705434799194336e-01,-1.141361445188522339e-01,1.385630488395690918e+00,1.351389050483703613e+00,1.590328812599182129e+00,-1.010227799415588379e+00,1.636761903762817383e+00
8.698924183845520020e-01,-1.141483634710311890e-01,1.385659575462341309e+00,1.352092981338500977e+00,1.590416789054870605e+00,-1.010280847549438477e+00,1.648899912834167480e+00
8.698903918266296387e-01,-1.141470372676849365e-01,1.385657072067260742e+00,1.352062582969665527e+00,1.590412020683288574e+00,-1.010279297828674316e+00,1.649949550628662109e+00
8.698892593383789062e-01,-1.141465976834297180e-01,1.385656118392944336e+00,1.352043986320495605e+00,1.590410947799682617e+00,-1.010278701782226562e+00,1.650055527687072754e+00
8.698034286499023438e-01,-1.141165196895599365e-01,1.385373115539550781e+00,1.351600289344787598e+00,1.590335488319396973e+00,-1.010091662406921387e+00,1.649407029151916504e+00
8.698130846023559570e-01,-1.140106767416000366e-01,1.385422706604003906e+00,1.351363658905029297e+00,1.590431928634643555e+00,-1.010327458381652832e+00,1.649272203445434570e+00
8.698570132255554199e-01,-1.138189658522605896e-01,1.385823726654052734e+00,1.351302742958068848e+00,1.590833902359008789e+00,-1.011272668838500977e+00,1.649767279624938965e+00
8.698536157608032227e-01,-1.135940179228782654e-01,1.386648654937744141e+00,1.351502776145935059e+00,1.591758847236633301e+00,-1.013323068618774414e+00,1.651250839233398438e+00
8.697542548179626465e-01,-1.134250387549400330e-01,1.387998223304748535e+00,1.352103710174560547e+00,1.593312382698059082e+00,-1.016683936119079590e+00,1.654094815254211426e+00
8.695455193519592285e-01,-1.133696585893630981e-01,1.389925360679626465e+00,1.353251457214355469e+00,1.595482587814331055e+00,-1.021054983139038086e+00,1.658340454101562500e+00
8.692299127578735352e-01,-1.135230883955955505e-01,1.392396450042724609e+00,1.355066299438476562e+00,1.598125815391540527e+00,-1.026244640350341797e+00,1.663751959800720215e+00
8.688602447509765625e-01,-1.139378696680068970e-01,1.395344734191894531e+00,1.357474088668823242e+00,1.601039528846740723e+00,-1.031738042831420898e+00,1.669811487197875977e+00
8.684866428375244141e-01,-1.146128848195075989e-01,1.398624897003173828e+00,1.360313892364501953e+00,1.603994727134704590e+00,-1.037191629409790039e+00,1.675929427146911621e+00
8.681719899177551270e-01,-1.155386120080947876e-01,1.402080893516540527e+00,1.363492846488952637e+00,1.606922745704650879e+00,-1.042473316192626953e+00,1.681813597679138184e+00
8.680100440979003906e-01,-1.166388764977455139e-01,1.405640721321105957e+00,1.366763949394226074e+00,1.609828352928161621e+00,-1.047747015953063965e+00,1.687464356422424316e+00
8.680358529090881348e-01,-1.178095936775207520e-01,1.409245729446411133e+00,1.370005607604980469e+00,1.612768292427062988e+00,-1.053134679794311523e+00,1.693079471588134766e+00
8.682436943054199219e-01,-1.190047413110733032e-01,1.412876844406127930e+00,1.373150825500488281e+00,1.615791559219360352e+00,-1.058672547340393066e+00,1.698770284652709961e+00
8.686128854751586914e-01,-1.202479898929595947e-01,1.416495919227600098e+00,1.376212000846862793e+00,1.618851423263549805e+00,-1.064355134963989258e+00,1.704576730728149414e+00
8.691267967224121094e-01,-1.215380579233169556e-01,1.420053362846374512e+00,1.379250884056091309e+00,1.622010111808776855e+00,-1.070194244384765625e+00,1.710527658462524414e+00
8.698300719261169434e-01,-1.228893697261810303e-01,1.423611164093017578e+00,1.381584405899047852e+00,1.625230669975280762e+00,-1.076202392578125000e+00,1.716663122177124023e+00
8.708005547523498535e-01,-1.243478432297706604e-01,1.427311778068542480e+00,1.380709767341613770e+00,1.628506779670715332e+00,-1.082333207130432129e+00,1.722964525222778320e+00
8.720375895500183105e-01,-1.259572803974151611e-01,1.431129097938537598e+00,1.353520512580871582e+00,1.631836056709289551e+00,-1.088542342185974121e+00,1.729380846023559570e+00
8.734509348869323730e-01,-1.277652233839035034e-01,1.434929370880126953e+00,1.315153956413269043e+00,1.635176420211791992e+00,-1.094882965087890625e+00,1.735933303833007812e+00
8.749620914459228516e-01,-1.298353970050811768e-01,1.438632488250732422e+00,1.316006898880004883e+00,1.638579010963439941e+00,-1.101227998733520508e+00,1.742524623870849609e+00
8.765501379966735840e-01,-1.321535110473632812e-01,1.442279458045959473e+00,1.319553017616271973e+00,1.642055630683898926e+00,-1.107577323913574219e+00,1.749135613441467285e+00
8.782727718353271484e-01,-1.346284449100494385e-01,1.446001410484313965e+00,1.322966933250427246e+00,1.645581364631652832e+00,-1.114062547683715820e+00,1.755827784538269043e+00
8.801615238189697266e-01,-1.371787488460540771e-01,1.449867844581604004e+00,1.326069951057434082e+00,1.649178743362426758e+00,-1.120621919631958008e+00,1.762568473815917969e+00
8.821851015090942383e-01,-1.397064924240112305e-01,1.453862905502319336e+00,1.328821778297424316e+00,1.652783870697021484e+00,-1.127258777618408203e+00,1.769361376762390137e+00
8.842834234237670898e-01,-1.421510577201843262e-01,1.457869768142700195e+00,1.331153988838195801e+00,1.656412720680236816e+00,-1.134009957313537598e+00,1.776226520538330078e+00
8.864378929138183594e-01,-1.445811092853546143e-01,1.461872100830078125e+00,1.332865357398986816e+00,1.660044550895690918e+00,-1.140827178955078125e+00,1.783145308494567871e+00
8.887129426002502441e-01,-1.470671743154525757e-01,1.465952396392822266e+00,1.333805918693542480e+00,1.663668036460876465e+00,-1.147694468498229980e+00,1.790137410163879395e+00
8.911463022232055664e-01,-1.496149748563766479e-01,1.470117449760437012e+00,1.334025859832763672e+00,1.667286872863769531e+00,-1.154679894447326660e+00,1.797228813171386719e+00
8.937119245529174805e-01,-1.522809118032455444e-01,1.474324584007263184e+00,1.333718299865722656e+00,1.670892357826232910e+00,-1.161681652069091797e+00,1.804376244544982910e+00
8.963412642478942871e-01,-1.550478786230087280e-01,1.478457093238830566e+00,1.332784414291381836e+00,1.674514889717102051e+00,-1.168634891510009766e+00,1.811555504798889160e+00
8.989835977554321289e-01,-1.578460335731506348e-01,1.482458949089050293e+00,1.331179857254028320e+00,1.678154826164245605e+00,-1.175623178482055664e+00,1.818791985511779785e+00
9.017409086227416992e-01,-1.606340259313583374e-01,1.486502647399902344e+00,1.328836679458618164e+00,1.681785821914672852e+00,-1.182552933692932129e+00,1.826105356216430664e+00
9.047253131866455078e-01,-1.633659899234771729e-01,1.490758895874023438e+00,1.326226234436035156e+00,1.685376167297363281e+00,-1.189521074295043945e+00,1.833558917045593262e+00
9.079104065895080566e-01,-1.660797744989395142e-01,1.495199918746948242e+00,1.323641061782836914e+00,1.688979864120483398e+00,-1.196524500846862793e+00,1.841044425964355469e+00
9.111471176147460938e-01,-1.688248068094253540e-01,1.499624729156494141e+00,1.321128010749816895e+00,1.692618966102600098e+00,-1.203444600105285645e+00,1.848540186882019043e+00
9.143117070198059082e-01,-1.716241389513015747e-01,1.503900647163391113e+00,1.318870902061462402e+00,1.696301341056823730e+00,-1.210383057594299316e+00,1.856085181236267090e+00
9.173923730850219727e-01,-1.744181811809539795e-01,1.508092522621154785e+00,1.316846251487731934e+00,1.700036287307739258e+00,-1.217333197593688965e+00,1.863676667213439941e+00
9.204559326171875000e-01,-1.771239638328552246e-01,1.512397170066833496e+00,1.314905643463134766e+00,1.703816056251525879e+00,-1.224266648292541504e+00,1.871342182159423828e+00
9.235419034957885742e-01,-1.797455251216888428e-01,1.516934752464294434e+00,1.313038468360900879e+00,1.707640290260314941e+00,-1.231369733810424805e+00,1.879060506820678711e+00
9.265663027763366699e-01,-1.822971105575561523e-01,1.521603345870971680e+00,1.311296463012695312e+00,1.711529135704040527e+00,-1.238582015037536621e+00,1.886798620223999023e+00
9.294613003730773926e-01,-1.848448067903518677e-01,1.526313543319702148e+00,1.309430956840515137e+00,1.715451121330261230e+00,-1.245864152908325195e+00,1.894562840461730957e+00
9.321997165679931641e-01,-1.874578893184661865e-01,1.531032323837280273e+00,1.307274580001831055e+00,1.719426274299621582e+00,-1.253389954566955566e+00,1.902355670928955078e+00
9.347708225250244141e-01,-1.901632994413375854e-01,1.535755872726440430e+00,1.304841279983520508e+00,1.723411202430725098e+00,-1.261027574539184570e+00,1.910188913345336914e+00
9.371779561042785645e-01,-1.929444968700408936e-01,1.540449619293212891e+00,1.302037239074707031e+00,1.727434515953063965e+00,-1.268788456916809082e+00,1.918053746223449707e+00
9.395008087158203125e-01,-1.956987679004669189e-01,1.545191168785095215e+00,1.298747420310974121e+00,1.731475591659545898e+00,-1.276715278625488281e+00,1.925961494445800781e+00
9.418772459030151367e-01,-1.983520835638046265e-01,1.550102829933166504e+00,1.294952511787414551e+00,1.735538125038146973e+00,-1.284633994102478027e+00,1.933945655822753906e+00
9.443262219429016113e-01,-2.008796930313110352e-01,1.555128097534179688e+00,1.290897369384765625e+00,1.739625215530395508e+00,-1.292697668075561523e+00,1.941964268684387207e+00
9.467964172363281250e-01,-2.033514380455017090e-01,1.560135602951049805e+00,1.286784052848815918e+00,1.743753910064697266e+00,-1.300697565078735352e+00,1.949998378753662109e+00
9.493086338043212891e-01,-2.059026211500167847e-01,1.565096616744995117e+00,1.282561063766479492e+00,1.747930645942687988e+00,-1.308713078498840332e+00,1.958066582679748535e+00
9.519063234329223633e-01,-2.085960209369659424e-01,1.570036768913269043e+00,1.278406023979187012e+00,1.752138972282409668e+00,-1.316761612892150879e+00,1.966196537017822266e+00
9.545869827270507812e-01,-2.114336788654327393e-01,1.574912786483764648e+00,1.274513959884643555e+00,1.756369471549987793e+00,-1.324729919433593750e+00,1.974371671676635742e+00
9.572501182556152344e-01,-2.143250703811645508e-01,1.579607844352722168e+00,1.270888328552246094e+00,1.760618329048156738e+00,-1.332745313644409180e+00,1.982539892196655273e+00
9.599119424819946289e-01,-2.172126173973083496e-01,1.584225416183471680e+00,1.267228007316589355e+00,1.764896512031555176e+00,-1.340681552886962891e+00,1.990739226341247559e+00
9.627026319503784180e-01,-2.200649082660675049e-01,1.589018106460571289e+00,1.263212323188781738e+00,1.769195795059204102e+00,-1.348712801933288574e+00,1.998993277549743652e+00
9.656288623809814453e-01,-2.228139787912368774e-01,1.594029903411865234e+00,1.259155154228210449e+00,1.773509740829467773e+00,-1.356823086738586426e+00,2.007293701171875000e+00
9.685924649238586426e-01,-2.255624830722808838e-01,1.599070310592651367e+00,1.255279302597045898e+00,1.777842283248901367e+00,-1.364907741546630859e+00,2.015597820281982422e+00
9.714924097061157227e-01,-2.283841371536254883e-01,1.604005813598632812e+00,1.251461029052734375e+00,1.782233119010925293e+00,-1.373136043548583984e+00,2.023895502090454102e+00
9.743250608444213867e-01,-2.312577664852142334e-01,1.608857035636901855e+00,1.247488617897033691e+00,1.786652445793151855e+00,-1.381288170814514160e+00,2.032227277755737305e+00
9.771406054496765137e-01,-2.340756505727767944e-01,1.613713264465332031e+00,1.243161201477050781e+00,1.791114211082458496e+00,-1.389517545700073242e+00,2.040591001510620117e+00
9.799615740776062012e-01,-2.367760986089706421e-01,1.618630409240722656e+00,1.238729715347290039e+00,1.795586109161376953e+00,-1.397740244865417480e+00,2.049019098281860352e+00
9.828560948371887207e-01,-2.394043356180191040e-01,1.623671412467956543e+00,1.234264135360717773e+00,1.800069689750671387e+00,-1.406003594398498535e+00,2.057471752166748047e+00
9.858384728431701660e-01,-2.419535368680953979e-01,1.628834247589111328e+00,1.229700565338134766e+00,1.804595112800598145e+00,-1.414340853691101074e+00,2.065941333770751953e+00
9.888606071472167969e-01,-2.444831132888793945e-01,1.634007334709167480e+00,1.225105047225952148e+00,1.809135794639587402e+00,-1.422590732574462891e+00,2.074422597885131836e+00
9.918243288993835449e-01,-2.470916211605072021e-01,1.639023661613464355e+00,1.220660209655761719e+00,1.813729405403137207e+00,-1.430944085121154785e+00,2.082908630371093750e+00
9.947232604026794434e-01,-2.497949004173278809e-01,1.643878936767578125e+00,1.216379046440124512e+00,1.818340659141540527e+00,-1.439204216003417969e+00,2.091432094573974609e+00
9.976411461830139160e-01,-2.524845898151397705e-01,1.648702859878540039e+00,1.211933612823486328e+00,1.822988271713256836e+00,-1.447505235671997070e+00,2.099967479705810547e+00
1.000627994537353516e+00,-2.550839185714721680e-01,1.653649926185607910e+00,1.207275748252868652e+00,1.827635288238525391e+00,-1.455826997756958008e+00,2.108549594879150391e+00
1.003672361373901367e+00,-2.576266527175903320e-01,1.658678054809570312e+00,1.202620863914489746e+00,1.832300901412963867e+00,-1.464111447334289551e+00,2.117150783538818359e+00
1.006736755371093750e+00,-2.601221799850463867e-01,1.663741946220397949e+00,1.198068261146545410e+00,1.836998701095581055e+00,-1.472516775131225586e+00,2.125775575637817383e+00
1.009819269180297852e+00,-2.626016736030578613e-01,1.668761372566223145e+00,1.193565011024475098e+00,1.841701388359069824e+00,-1.480811119079589844e+00,2.134405136108398438e+00
1.012863159179687500e+00,-2.651336193084716797e-01,1.673627376556396484e+00,1.189087390899658203e+00,1.846457362174987793e+00,-1.489234447479248047e+00,2.143038511276245117e+00
1.015795946121215820e+00,-2.677513360977172852e-01,1.678125619888305664e+00,1.184686064720153809e+00,1.851240873336791992e+00,-1.497556924819946289e+00,2.151683092117309570e+00
1.018669843673706055e+00,-2.704185545444488525e-01,1.682361960411071777e+00,1.180122375488281250e+00,1.856066584587097168e+00,-1.505961775779724121e+00,2.160358905792236328e+00
1.021595716476440430e+00,-2.730265259742736816e-01,1.686532855033874512e+00,1.175197601318359375e+00,1.860895276069641113e+00,-1.514423370361328125e+00,2.169084310531616211e+00
1.024580240249633789e+00,-2.755200862884521484e-01,1.689549803733825684e+00,1.170152306556701660e+00,1.865713357925415039e+00,-1.522850275039672852e+00,2.177822113037109375e+00
1.027513623237609863e+00,-2.780024707317352295e-01,1.653590321540832520e+00,1.165224194526672363e+00,1.870602011680603027e+00,-1.531330704689025879e+00,2.186564207077026367e+00
1.030259013175964355e+00,-2.804725766181945801e-01,1.638165950775146484e+00,1.159539818763732910e+00,1.875436186790466309e+00,-1.539090156555175781e+00,2.195494651794433594e+00
1.032979726791381836e+00,-2.829183340072631836e-01,1.642880082130432129e+00,1.154236793518066406e+00,1.880322813987731934e+00,-1.546874642372131348e+00,2.204351902008056641e+00
1.035742163658142090e+00,-2.853749692440032959e-01,1.647906064987182617e+00,1.149227976799011230e+00,1.885267972946166992e+00,-1.554971098899841309e+00,2.213142156600952148e+00
1.038480997085571289e+00,-2.878837883472442627e-01,1.652857780456542969e+00,1.144180893898010254e+00,1.890253901481628418e+00,-1.563067197799682617e+00,2.221934795379638672e+00
1.041211605072021484e+00,-2.904639542102813721e-01,1.657584547996520996e+00,1.139249205589294434e+00,1.895259618759155273e+00,-1.571092247962951660e+00,2.230751276016235352e+00
1.043926119804382324e+00,-2.930280864238739014e-01,1.661772727966308594e+00,1.134512782096862793e+00,1.900288343429565430e+00,-1.578945398330688477e+00,2.239546060562133789e+00
1.046616673469543457e+00,-2.955623269081115723e-01,1.665202736854553223e+00,1.130121469497680664e+00,1.905332922935485840e+00,-1.586409211158752441e+00,2.248349666595458984e+00
1.049266219139099121e+00,-2.981165647506713867e-01,1.667775630950927734e+00,1.126699328422546387e+00,1.910427212715148926e+00,-1.593015551567077637e+00,2.257151365280151367e+00
1.051558852195739746e+00,-3.004849553108215332e-01,1.669307947158813477e+00,1.125914812088012695e+00,1.915510296821594238e+00,-1.598567962646484375e+00,2.265961408615112305e+00
1.052446246147155762e+00,-3.026033937931060791e-01,1.669742226600646973e+00,1.157552003860473633e+00,1.920601367950439453e+00,-1.601021647453308105e+00,2.274781465530395508e+00
9.967565536499023438e-01,-3.044860064983367920e-01,1.669258356094360352e+00,1.190521717071533203e+00,1.925757884979248047e+00,-1.571305036544799805e+00,2.283612012863159180e+00
9.975284934043884277e-01,-3.055744767189025879e-01,1.667925953865051270e+00,1.187295556068420410e+00,1.930892825126647949e+00,-1.517128944396972656e+00,2.292144060134887695e+00
1.001269936561584473e+00,-3.067557513713836670e-01,1.665901064872741699e+00,1.182599186897277832e+00,1.935933709144592285e+00,-1.522954821586608887e+00,2.301450729370117188e+00
1.004984617233276367e+00,-3.076851367950439453e-01,1.663271188735961914e+00,1.177428245544433594e+00,1.941029667854309082e+00,-1.531149625778198242e+00,2.310378313064575195e+00
1.008640050888061523e+00,-3.084769845008850098e-01,1.660418510437011719e+00,1.172352910041809082e+00,1.946115732192993164e+00,-1.539158701896667480e+00,2.319306612014770508e+00
1.012213945388793945e+00,-3.092412352561950684e-01,1.657661914825439453e+00,1.167680025100708008e+00,1.951244711875915527e+00,-1.546560287475585938e+00,2.328287601470947266e+00
1.015621423721313477e+00,-3.100924491882324219e-01,1.655194640159606934e+00,1.163683891296386719e+00,1.956403374671936035e+00,-1.552637457847595215e+00,2.337281227111816406e+00
1.018769621849060059e+00,-3.110555410385131836e-01,1.653158187866210938e+00,1.160406708717346191e+00,1.961608529090881348e+00,-1.556961894035339355e+00,2.346286773681640625e+00
1.021615266799926758e+00,-3.121863603591918945e-01,1.651588678359985352e+00,1.157966494560241699e+00,1.966885805130004883e+00,-1.559125900268554688e+00,2.355279445648193359e+00
1.024139046669006348e+00,-3.135587573051452637e-01,1.650422334671020508e+00,1.156588077545166016e+00,1.972237348556518555e+00,-1.559130072593688965e+00,2.364286661148071289e+00
1.026323556900024414e+00,-3.151512145996093750e-01,1.649526476860046387e+00,1.156380295753479004e+00,1.977641105651855469e+00,-1.557209372520446777e+00,2.373281478881835938e+00
1.028203845024108887e+00,-3.169468939304351807e-01,1.648752093315124512e+00,1.157256960868835449e+00,1.983102083206176758e+00,-1.553864717483520508e+00,2.382267236709594727e+00
1.029816269874572754e+00,-3.189178705215454102e-01,1.647927761077880859e+00,1.159098625183105469e+00,1.988612771034240723e+00,-1.549714922904968262e+00,2.391239643096923828e+00
1.031136035919189453e+00,-3.208876848220825195e-01,1.646833777427673340e+00,1.161671638488769531e+00,1.994161248207092285e+00,-1.545531749725341797e+00,2.400177955627441406e+00
1.032174110412597656e+00,-3.227298259735107422e-01,1.645402789115905762e+00,1.164609313011169434e+00,1.999742627143859863e+00,-1.541857123374938965e+00,2.409103631973266602e+00
1.032941460609436035e+00,-3.243419528007507324e-01,1.643697500228881836e+00,1.167630314826965332e+00,2.005336999893188477e+00,-1.539065599441528320e+00,2.418027877807617188e+00
1.033499240875244141e+00,-3.256811797618865967e-01,1.641840577125549316e+00,1.170490026473999023e+00,2.010905981063842773e+00,-1.537139415740966797e+00,2.426963329315185547e+00
1.033886790275573730e+00,-3.267811536788940430e-01,1.639966487884521484e+00,1.173125147819519043e+00,2.016486406326293945e+00,-1.535754680633544922e+00,2.435911893844604492e+00
1.034064412117004395e+00,-3.277191519737243652e-01,1.638082861900329590e+00,1.175443291664123535e+00,2.022045135498046875e+00,-1.534490823745727539e+00,2.444870948791503906e+00
1.034020543098449707e+00,-3.286596536636352539e-01,1.636137127876281738e+00,1.177470922470092773e+00,2.027627944946289062e+00,-1.532725334167480469e+00,2.453828096389770508e+00
1.033822178840637207e+00,-3.296972513198852539e-01,1.634069204330444336e+00,1.179169058799743652e+00,2.033221006393432617e+00,-1.530394911766052246e+00,2.462793827056884766e+00
1.033514618873596191e+00,-3.309421539306640625e-01,1.631865620613098145e+00,1.180593252182006836e+00,2.038861513137817383e+00,-1.527335166931152344e+00,2.471742391586303711e+00
1.033154249191284180e+00,-3.323283493518829346e-01,1.629512786865234375e+00,1.181854724884033203e+00,2.044487714767456055e+00,-1.523777246475219727e+00,2.480681180953979492e+00
1.032827258110046387e+00,-3.338612914085388184e-01,1.627017021179199219e+00,1.183291912078857422e+00,2.050152778625488281e+00,-1.519854664802551270e+00,2.489634752273559570e+00
1.032539010047912598e+00,-3.354255557060241699e-01,1.624348878860473633e+00,1.185144662857055664e+00,2.055826663970947266e+00,-1.515837788581848145e+00,2.498581409454345703e+00
1.032243251800537109e+00,-3.370733559131622314e-01,1.621487498283386230e+00,1.187415719032287598e+00,2.061548709869384766e+00,-1.511643290519714355e+00,2.507498502731323242e+00
1.031904101371765137e+00,-3.386749625205993652e-01,1.618500828742980957e+00,1.190149188041687012e+00,2.067299365997314453e+00,-1.507311582565307617e+00,2.516403198242187500e+00
1.031496763229370117e+00,-3.402449488639831543e-01,1.615456819534301758e+00,1.193395614624023438e+00,2.073064088821411133e+00,-1.502797961235046387e+00,2.525315046310424805e+00
1.030928969383239746e+00,-3.415150642395019531e-01,1.612295746803283691e+00,1.197101116180419922e+00,2.078878879547119141e+00,-1.498096227645874023e+00,2.534175872802734375e+00
1.030153036117553711e+00,-3.422019183635711670e-01,1.609040021896362305e+00,1.201147317886352539e+00,2.084685325622558594e+00,-1.493262529373168945e+00,2.543008804321289062e+00
1.029183268547058105e+00,-3.431529402732849121e-01,1.605786561965942383e+00,1.205380201339721680e+00,2.090551614761352539e+00,-1.488242149353027344e+00,2.551817178726196289e+00
1.028048396110534668e+00,-3.455473482608795166e-01,1.602614045143127441e+00,1.209584951400756836e+00,2.096394300460815430e+00,-1.483102202415466309e+00,2.560612201690673828e+00
1.026753902435302734e+00,-3.483202457427978516e-01,1.599545001983642578e+00,1.213777542114257812e+00,2.102251529693603516e+00,-1.477827429771423340e+00,2.569367170333862305e+00
1.025289058685302734e+00,-3.501230478286743164e-01,1.596511244773864746e+00,1.217949271202087402e+00,2.108114242553710938e+00,-1.472498655319213867e+00,2.578071832656860352e+00
1.023654460906982422e+00,-3.514871299266815186e-01,1.593427658081054688e+00,1.222121953964233398e+00,2.113986730575561523e+00,-1.467018008232116699e+00,2.586696624755859375e+00
1.021895766258239746e+00,-3.526668846607208252e-01,1.590296149253845215e+00,1.226212620735168457e+00,2.119897842407226562e+00,-1.461411595344543457e+00,2.595261573791503906e+00
1.020064353942871094e+00,-3.538060784339904785e-01,1.587128520011901855e+00,1.230222225189208984e+00,2.125821352005004883e+00,-1.455716967582702637e+00,2.603774547576904297e+00
1.018177270889282227e+00,-3.547978699207305908e-01,1.583881497383117676e+00,1.234331965446472168e+00,2.131768941879272461e+00,-1.449910759925842285e+00,2.612209081649780273e+00
1.016264677047729492e+00,-3.556304574012756348e-01,1.580524802207946777e+00,1.238571047782897949e+00,2.137709140777587891e+00,-1.443941593170166016e+00,2.620530605316162109e+00
1.014360189437866211e+00,-3.566710352897644043e-01,1.577079772949218750e+00,1.242992997169494629e+00,2.143667459487915039e+00,-1.437834501266479492e+00,2.628745555877685547e+00
1.012462973594665527e+00,-3.573735058307647705e-01,1.573555231094360352e+00,1.247532963752746582e+00,2.149626255035400391e+00,-1.431639671325683594e+00,2.636784553527832031e+00
1.010572552680969238e+00,-3.583458662033081055e-01,1.569998621940612793e+00,1.252155542373657227e+00,2.155615806579589844e+00,-1.425258636474609375e+00,2.644635915756225586e+00
1.008710741996765137e+00,-3.597740232944488525e-01,1.566449046134948730e+00,1.256842970848083496e+00,2.161586999893188477e+00,-1.418808341026306152e+00,2.652201652526855469e+00
1.006909251213073730e+00,-3.610328733921051025e-01,1.562943458557128906e+00,1.261675834655761719e+00,2.167534112930297852e+00,-1.412306189537048340e+00,2.659401178359985352e+00
1.005130171775817871e+00,-3.609002530574798584e-01,1.559437274932861328e+00,1.266623973846435547e+00,2.173513174057006836e+00,-1.405661582946777344e+00,2.665585041046142578e+00
1.003295421600341797e+00,-3.336129784584045410e-01,1.555846691131591797e+00,1.271627306938171387e+00,2.179524183273315430e+00,-1.398870706558227539e+00,2.668601512908935547e+00
1.001349329948425293e+00,-3.039442896842956543e-01,1.552138566970825195e+00,1.276492714881896973e+00,2.186077356338500977e+00,-1.391947627067565918e+00,2.655954360961914062e+00
9.993479251861572266e-01,-3.046707510948181152e-01,1.548398971557617188e+00,1.281218051910400391e+00,2.192582607269287109e+00,-1.384896874427795410e+00,2.594746828079223633e+00
9.973499774932861328e-01,-3.059414029121398926e-01,1.544749259948730469e+00,1.285812735557556152e+00,2.198804616928100586e+00,-1.377618670463562012e+00,2.593625545501708984e+00
9.953648447990417480e-01,-3.072441816329956055e-01,1.541179418563842773e+00,1.290467739105224609e+00,2.204895257949829102e+00,-1.370605945587158203e+00,2.601503372192382812e+00
9.933373928070068359e-01,-3.085153400897979736e-01,1.537602901458740234e+00,1.295309424400329590e+00,2.210934400558471680e+00,-1.363441467285156250e+00,2.609380960464477539e+00
9.912216067314147949e-01,-3.097070455551147461e-01,1.533899664878845215e+00,1.300421357154846191e+00,2.216999053955078125e+00,-1.356270074844360352e+00,2.616614341735839844e+00
9.890395998954772949e-01,-3.108807802200317383e-01,1.530118465423583984e+00,1.305518269538879395e+00,2.223061323165893555e+00,-1.349004149436950684e+00,2.622620820999145508e+00
9.868478178977966309e-01,-3.120681047439575195e-01,1.526374101638793945e+00,1.310268878936767578e+00,2.229123353958129883e+00,-1.341686725616455078e+00,2.626854181289672852e+00
9.846444129943847656e-01,-3.132038414478302002e-01,1.522599458694458008e+00,1.314830899238586426e+00,2.235146522521972656e+00,-1.334450721740722656e+00,2.628849029541015625e+00
9.824158549308776855e-01,-3.142575323581695557e-01,1.518743276596069336e+00,1.319268584251403809e+00,2.241072177886962891e+00,-1.327059388160705566e+00,2.628525257110595703e+00
9.801347851753234863e-01,-3.152302801609039307e-01,1.514775753021240234e+00,1.324065327644348145e+00,2.247022628784179688e+00,-1.319570302963256836e+00,2.626139640808105469e+00
9.777778983116149902e-01,-3.161301016807556152e-01,1.510662674903869629e+00,1.328996658325195312e+00,2.252903699874877930e+00,-1.312018394470214844e+00,2.622126102447509766e+00
9.754125475883483887e-01,-3.169541358947753906e-01,1.506475806236267090e+00,1.333171367645263672e+00,2.258629083633422852e+00,-1.304335474967956543e+00,2.617177724838256836e+00
9.731124043464660645e-01,-3.176888525485992432e-01,1.502303600311279297e+00,1.335357308387756348e+00,2.264061450958251953e+00,-1.296862840652465820e+00,2.612087488174438477e+00
9.708776473999023438e-01,-3.183258175849914551e-01,1.498174309730529785e+00,1.331897497177124023e+00,2.269038438796997070e+00,-1.289207100868225098e+00,2.607562065124511719e+00
9.686313867568969727e-01,-3.188475966453552246e-01,1.493971109390258789e+00,1.288893342018127441e+00,2.271979093551635742e+00,-1.281510353088378906e+00,2.603972911834716797e+00
9.664046764373779297e-01,-3.192988038063049316e-01,1.489676117897033691e+00,1.274903059005737305e+00,2.204037189483642578e+00,-1.273970961570739746e+00,2.601433277130126953e+00
9.642208814620971680e-01,-3.198770284652709961e-01,1.485237002372741699e+00,1.278198480606079102e+00,2.198327779769897461e+00,-1.270530819892883301e+00,2.599394321441650391e+00
9.620023369789123535e-01,-3.202045559883117676e-01,1.480898380279541016e+00,1.283186435699462891e+00,2.204556941986083984e+00,-1.268314719200134277e+00,2.597796201705932617e+00
9.597125053405761719e-01,-3.202469348907470703e-01,1.476500272750854492e+00,1.288095593452453613e+00,2.210889577865600586e+00,-1.269615411758422852e+00,2.595851659774780273e+00
9.572752118110656738e-01,-3.200424611568450928e-01,1.471878528594970703e+00,1.292675971984863281e+00,2.217214107513427734e+00,-1.304119706153869629e+00,2.593161106109619141e+00
9.547412395477294922e-01,-3.197080790996551514e-01,1.467156171798706055e+00,1.296523690223693848e+00,2.223371028900146484e+00,-1.344323277473449707e+00,2.589509248733520508e+00
9.522652626037597656e-01,-3.193333745002746582e-01,1.462553739547729492e+00,1.299608111381530762e+00,2.229122400283813477e+00,-1.340344905853271484e+00,2.585134267807006836e+00
9.498656392097473145e-01,-3.188957870006561279e-01,1.458002686500549316e+00,1.302039623260498047e+00,2.234127283096313477e+00,-1.332937598228454590e+00,2.580412864685058594e+00
9.474519491195678711e-01,-3.182848095893859863e-01,1.453275561332702637e+00,1.303711175918579102e+00,2.238203287124633789e+00,-1.325725793838500977e+00,2.575520515441894531e+00
9.450132846832275391e-01,-3.175538778305053711e-01,1.448355317115783691e+00,1.304759860038757324e+00,2.241341829299926758e+00,-1.319716572761535645e+00,2.570609331130981445e+00
9.426692724227905273e-01,-3.168373405933380127e-01,1.443370819091796875e+00,1.304910540580749512e+00,2.243540287017822266e+00,-1.315360188484191895e+00,2.565698146820068359e+00
9.404505491256713867e-01,-3.160840868949890137e-01,1.438314437866210938e+00,1.304226756095886230e+00,2.244928836822509766e+00,-1.312927246093750000e+00,2.560725450515747070e+00
9.382994174957275391e-01,-3.150990903377532959e-01,1.433017611503601074e+00,1.302874565124511719e+00,2.245761632919311523e+00,-1.312437534332275391e+00,2.555635690689086914e+00
9.362635612487792969e-01,-3.140804469585418701e-01,1.427517771720886230e+00,1.300892591476440430e+00,2.246317148208618164e+00,-1.313701629638671875e+00,2.550395250320434570e+00
9.344765543937683105e-01,-3.133034408092498779e-01,1.422029614448547363e+00,1.298876643180847168e+00,2.246796846389770508e+00,-1.316305160522460938e+00,2.545015096664428711e+00
9.329723715782165527e-01,-3.127421438694000244e-01,1.416557669639587402e+00,1.296805024147033691e+00,2.247390270233154297e+00,-1.319550037384033203e+00,2.539462089538574219e+00
9.315755963325500488e-01,-3.121255636215209961e-01,1.411001086235046387e+00,1.294807314872741699e+00,2.248171329498291016e+00,-1.322756528854370117e+00,2.533744573593139648e+00
9.302023649215698242e-01,-3.118341863155364990e-01,1.405405402183532715e+00,1.292970895767211914e+00,2.249132394790649414e+00,-1.325479507446289062e+00,2.527882575988769531e+00
9.288466572761535645e-01,-3.204843997955322266e-01,1.399905800819396973e+00,1.291348576545715332e+00,2.250153064727783203e+00,-1.327541232109069824e+00,2.521896839141845703e+00
9.274044632911682129e-01,-3.712553381919860840e-01,1.394492030143737793e+00,1.289992809295654297e+00,2.251038074493408203e+00,-1.328999757766723633e+00,2.515795707702636719e+00
9.257801175117492676e-01,-3.715640604496002197e-01,1.389092206954956055e+00,1.288849472999572754e+00,2.251652240753173828e+00,-1.330170273780822754e+00,2.509600162506103516e+00
9.238713979721069336e-01,-3.697519302368164062e-01,1.383719682693481445e+00,1.287673354148864746e+00,2.252302169799804688e+00,-1.331500053405761719e+00,2.503269910812377930e+00
9.217172861099243164e-01,-3.678169846534729004e-01,1.378414034843444824e+00,1.286310672760009766e+00,2.252845525741577148e+00,-1.333372235298156738e+00,2.496836900711059570e+00
9.192949533462524414e-01,-3.658399283885955811e-01,1.373113036155700684e+00,1.284662365913391113e+00,2.253283739089965820e+00,-1.335831522941589355e+00,2.490280628204345703e+00
9.166511893272399902e-01,-3.639118373394012451e-01,1.367816567420959473e+00,1.282715797424316406e+00,2.253627061843872070e+00,-1.338888287544250488e+00,2.483620166778564453e+00
9.139016866683959961e-01,-3.620650470256805420e-01,1.362562894821166992e+00,1.280442714691162109e+00,2.253868579864501953e+00,-1.342279076576232910e+00,2.476861476898193359e+00
9.111173748970031738e-01,-3.602665662765502930e-01,1.357316851615905762e+00,1.277866601943969727e+00,2.253998041152954102e+00,-1.345854878425598145e+00,2.470000505447387695e+00
9.083397984504699707e-01,-3.585096001625061035e-01,1.352022051811218262e+00,1.275036334991455078e+00,2.254033088684082031e+00,-1.349421143531799316e+00,2.463047981262207031e+00
9.056388139724731445e-01,-3.568694293498992920e-01,1.346734642982482910e+00,1.271975755691528320e+00,2.253988981246948242e+00,-1.353063225746154785e+00,2.456000804901123047e+00
9.030849337577819824e-01,-3.554021120071411133e-01,1.341473817825317383e+00,1.268758296966552734e+00,2.253884315490722656e+00,-1.356794714927673340e+00,2.448856115341186523e+00
9.006461501121520996e-01,-3.541075885295867920e-01,1.336116433143615723e+00,1.265482902526855469e+00,2.253704547882080078e+00,-1.360567092895507812e+00,2.441606521606445312e+00
8.982592225074768066e-01,-3.530064821243286133e-01,1.330577850341796875e+00,1.262227416038513184e+00,2.253457069396972656e+00,-1.364471197128295898e+00,2.434262037277221680e+00
8.959820866584777832e-01,-3.521538376808166504e-01,1.325016260147094727e+00,1.259046673774719238e+00,2.253124713897705078e+00,-1.368443012237548828e+00,2.426838636398315430e+00
8.938868045806884766e-01,-3.515006899833679199e-01,1.319576740264892578e+00,1.255898118019104004e+00,2.252707481384277344e+00,-1.372622847557067871e+00,2.419344425201416016e+00
8.918985724449157715e-01,-3.509669899940490723e-01,1.314200401306152344e+00,1.252810597419738770e+00,2.252222776412963867e+00,-1.376816391944885254e+00,2.411755323410034180e+00
8.899121880531311035e-01,-3.506208658218383789e-01,1.308878064155578613e+00,1.249666690826416016e+00,2.251659631729125977e+00,-1.381137847900390625e+00,2.404084920883178711e+00
8.879027366638183594e-01,-3.504727482795715332e-01,1.303665399551391602e+00,1.246279954910278320e+00,2.251051664352416992e+00,-1.385639667510986328e+00,2.396335840225219727e+00
8.858280777931213379e-01,-3.504312038421630859e-01,1.298508644104003906e+00,1.242672085762023926e+00,2.250334978103637695e+00,-1.390242695808410645e+00,2.388508081436157227e+00
8.836685419082641602e-01,-3.505154550075531006e-01,1.293352365493774414e+00,1.238987803459167480e+00,2.249542474746704102e+00,-1.394950270652770996e+00,2.380613803863525391e+00
8.814475536346435547e-01,-3.507596254348754883e-01,1.288194775581359863e+00,1.235251784324645996e+00,2.248685359954833984e+00,-1.399798750877380371e+00,2.372653245925903320e+00
8.792044520378112793e-01,-3.511584699153900146e-01,1.283070802688598633e+00,1.231407284736633301e+00,2.247739791870117188e+00,-1.404802799224853516e+00,2.364620685577392578e+00
8.769545555114746094e-01,-3.516748547554016113e-01,1.277966976165771484e+00,1.227405667304992676e+00,2.246733427047729492e+00,-1.409892082214355469e+00,2.356518983840942383e+00
8.746955990791320801e-01,-3.523072004318237305e-01,1.272880673408508301e+00,1.223248243331909180e+00,2.245654582977294922e+00,-1.415029406547546387e+00,2.348354339599609375e+00
8.724744319915771484e-01,-3.530600666999816895e-01,1.267880797386169434e+00,1.219000935554504395e+00,2.244501590728759766e+00,-1.420328259468078613e+00,2.340133190155029297e+00
8.703545928001403809e-01,-3.539018929004669189e-01,1.262978672981262207e+00,1.214691042900085449e+00,2.243260622024536133e+00,-1.425802707672119141e+00,2.331836938858032227e+00
8.683151602745056152e-01,-3.547798097133636475e-01,1.258103370666503906e+00,1.210454821586608887e+00,2.241941213607788086e+00,-1.431282877922058105e+00,2.323478221893310547e+00
8.663200736045837402e-01,-3.557115197181701660e-01,1.253208994865417480e+00,1.206231474876403809e+00,2.240558385848999023e+00,-1.436744213104248047e+00,2.315055131912231445e+00
8.643911480903625488e-01,-3.567383885383605957e-01,1.248392581939697266e+00,1.201890468597412109e+00,2.239105701446533203e+00,-1.442357182502746582e+00,2.306579828262329102e+00
8.625416159629821777e-01,-3.578255474567413330e-01,1.243669390678405762e+00,1.197582244873046875e+00,2.237573385238647461e+00,-1.448096513748168945e+00,2.298058986663818359e+00
8.607186079025268555e-01,-3.589512109756469727e-01,1.238937973976135254e+00,1.193371295928955078e+00,2.235974550247192383e+00,-1.453821182250976562e+00,2.289480686187744141e+00
8.588525652885437012e-01,-3.601554930210113525e-01,1.234164357185363770e+00,1.189261436462402344e+00,2.234310150146484375e+00,-1.459547758102416992e+00,2.280854701995849609e+00
8.569453358650207520e-01,-3.615281879901885986e-01,1.229402065277099609e+00,1.185210704803466797e+00,2.232614040374755859e+00,-1.465392708778381348e+00,2.272176027297973633e+00
8.550106287002563477e-01,-3.629839420318603516e-01,1.224661111831665039e+00,1.181070804595947266e+00,2.230845928192138672e+00,-1.471340775489807129e+00,2.263453483581542969e+00
8.530842065811157227e-01,-3.645183444023132324e-01,1.219936847686767578e+00,1.176990866661071777e+00,2.229026079177856445e+00,-1.477307558059692383e+00,2.254685163497924805e+00
8.511387109756469727e-01,-3.662011623382568359e-01,1.215206503868103027e+00,1.173536539077758789e+00,2.227152585983276367e+00,-1.483349204063415527e+00,2.245868921279907227e+00
8.491416573524475098e-01,-3.679728507995605469e-01,1.210444331169128418e+00,1.170821547508239746e+00,2.225278854370117188e+00,-1.489358782768249512e+00,2.237006425857543945e+00
8.471255302429199219e-01,-3.697619736194610596e-01,1.205684423446655273e+00,1.168533325195312500e+00,2.223384141921997070e+00,-1.495463728904724121e+00,2.228095293045043945e+00
8.451395034790039062e-01,-3.715698122978210449e-01,1.200995445251464844e+00,1.166818022727966309e+00,2.221460819244384766e+00,-1.501748323440551758e+00,2.219148397445678711e+00
8.431501984596252441e-01,-3.733958303928375244e-01,1.196299552917480469e+00,1.174695849418640137e+00,2.219586849212646484e+00,-1.507919192314147949e+00,2.210152149200439453e+00
8.410996198654174805e-01,-3.752343952655792236e-01,1.191544413566589355e+00,1.221923828125000000e+00,2.218100547790527344e+00,-1.513847470283508301e+00,2.201121091842651367e+00
8.389891386032104492e-01,-3.770807981491088867e-01,1.186798214912414551e+00,1.225323438644409180e+00,2.221308946609497070e+00,-1.519536852836608887e+00,2.192065000534057617e+00
8.369674682617187500e-01,-3.790648877620697021e-01,1.182110309600830078e+00,1.221345663070678711e+00,2.267423152923583984e+00,-1.525441527366638184e+00,2.182964801788330078e+00
8.348953723907470703e-01,-3.810744285583496094e-01,1.177384257316589355e+00,1.217886686325073242e+00,2.302339792251586914e+00,-1.527953743934631348e+00,2.173864841461181641e+00
8.327681422233581543e-01,-3.831539154052734375e-01,1.172609090805053711e+00,1.214043259620666504e+00,2.300725698471069336e+00,-1.508673191070556641e+00,2.164780139923095703e+00
8.306527137756347656e-01,-3.854163885116577148e-01,1.167868137359619141e+00,1.210463881492614746e+00,2.298254013061523438e+00,-1.441229939460754395e+00,2.155685186386108398e+00
8.285474777221679688e-01,-3.877970874309539795e-01,1.163180589675903320e+00,1.207670927047729492e+00,2.295764207839965820e+00,-1.437592625617980957e+00,2.146888017654418945e+00
8.263608813285827637e-01,-3.900573253631591797e-01,1.158405423164367676e+00,1.205525398254394531e+00,2.293655872344970703e+00,-1.443734407424926758e+00,2.137702941894531250e+00
8.240365386009216309e-01,-3.922326862812042236e-01,1.153555035591125488e+00,1.204214692115783691e+00,2.292095184326171875e+00,-1.450089216232299805e+00,2.128406047821044922e+00
8.216206431388854980e-01,-3.943324685096740723e-01,1.148731946945190430e+00,1.203895092010498047e+00,2.291214227676391602e+00,-1.456014990806579590e+00,2.119082450866699219e+00
8.191429376602172852e-01,-3.962965607643127441e-01,1.144010782241821289e+00,1.204527139663696289e+00,2.291040658950805664e+00,-1.461056470870971680e+00,2.109734773635864258e+00
8.165041208267211914e-01,-3.980882465839385986e-01,1.139314174652099609e+00,1.206078648567199707e+00,2.291477203369140625e+00,-1.464560151100158691e+00,2.100374460220336914e+00
8.136050701141357422e-01,-3.997818827629089355e-01,1.134567618370056152e+00,1.208399653434753418e+00,2.292541503906250000e+00,-1.466178417205810547e+00,2.091004610061645508e+00
8.104473948478698730e-01,-4.014110565185546875e-01,1.129830241203308105e+00,1.211227297782897949e+00,2.294208049774169922e+00,-1.465996265411376953e+00,2.081616640090942383e+00
8.071339726448059082e-01,-4.029586017131805420e-01,1.125256657600402832e+00,1.214269638061523438e+00,2.296376943588256836e+00,-1.464218139648437500e+00,2.072216272354125977e+00
8.036610484123229980e-01,-4.044314920902252197e-01,1.120745182037353516e+00,1.217378973960876465e+00,2.298841476440429688e+00,-1.460981011390686035e+00,2.062798976898193359e+00
7.999527454376220703e-01,-4.059077501296997070e-01,1.116057157516479492e+00,1.220467925071716309e+00,2.301365852355957031e+00,-1.456713199615478516e+00,2.053337574005126953e+00
7.960460782051086426e-01,-4.074840247631072998e-01,1.111168622970581055e+00,1.223173856735229492e+00,2.303780078887939453e+00,-1.452070236206054688e+00,2.043839931488037109e+00
7.921414971351623535e-01,-4.091622233390808105e-01,1.106296062469482422e+00,1.225403070449829102e+00,2.306050539016723633e+00,-1.447744607925415039e+00,2.034322500228881836e+00
7.884173393249511719e-01,-4.109401106834411621e-01,1.101476788520812988e+00,1.227299332618713379e+00,2.308226346969604492e+00,-1.444023728370666504e+00,2.024716615676879883e+00
7.849398851394653320e-01,-4.128689765930175781e-01,1.096539616584777832e+00,1.229091048240661621e+00,2.310485124588012695e+00,-1.440862894058227539e+00,2.014884710311889648e+00
7.817466259002685547e-01,-4.149731695652008057e-01,1.091470837593078613e+00,1.230902314186096191e+00,2.312906026840209961e+00,-1.438049435615539551e+00,2.004923582077026367e+00
7.788886427879333496e-01,-4.171724915504455566e-01,1.086366057395935059e+00,1.232882380485534668e+00,2.315459966659545898e+00,-1.435110807418823242e+00,1.995007038116455078e+00
7.763471603393554688e-01,-4.194377958774566650e-01,1.081271171569824219e+00,1.235206127166748047e+00,2.318132638931274414e+00,-1.431737661361694336e+00,1.985194444656372070e+00
7.740628123283386230e-01,-4.217382073402404785e-01,1.076237082481384277e+00,1.237893462181091309e+00,2.320859670639038086e+00,-1.427758216857910156e+00,1.975463151931762695e+00
7.719994187355041504e-01,-4.240147173404693604e-01,1.071328282356262207e+00,1.240939140319824219e+00,2.323649406433105469e+00,-1.423253178596496582e+00,1.965797066688537598e+00
7.700964808464050293e-01,-4.262360930442810059e-01,1.066526889801025391e+00,1.244364857673645020e+00,2.326461791992187500e+00,-1.418429374694824219e+00,1.956162214279174805e+00
7.682001590728759766e-01,-4.283465445041656494e-01,1.061746001243591309e+00,1.248112320899963379e+00,2.329321622848510742e+00,-1.413310885429382324e+00,1.946529150009155273e+00
7.661659121513366699e-01,-4.303120374679565430e-01,1.056923031806945801e+00,1.252016901969909668e+00,2.332219839096069336e+00,-1.408076643943786621e+00,1.936868429183959961e+00
7.639509439468383789e-01,-4.321630895137786865e-01,1.052089810371398926e+00,1.255989670753479004e+00,2.335155725479125977e+00,-1.402758240699768066e+00,1.927182912826538086e+00
7.615856528282165527e-01,-4.339699745178222656e-01,1.047334671020507812e+00,1.260018467903137207e+00,2.338153362274169922e+00,-1.397571206092834473e+00,1.917472481727600098e+00
7.590721845626831055e-01,-4.357580542564392090e-01,1.042614936828613281e+00,1.264001965522766113e+00,2.341180086135864258e+00,-1.392326593399047852e+00,1.907733798027038574e+00
7.563782930374145508e-01,-4.375831782817840576e-01,1.037819266319274902e+00,1.267794489860534668e+00,2.344281435012817383e+00,-1.386868596076965332e+00,1.897965669631958008e+00
7.535455822944641113e-01,-4.395131766796112061e-01,1.032986760139465332e+00,1.271587133407592773e+00,2.347431659698486328e+00,-1.381416082382202148e+00,1.888179540634155273e+00
7.507050633430480957e-01,-4.415158033370971680e-01,1.028193235397338867e+00,1.275533199310302734e+00,2.350627899169921875e+00,-1.376058459281921387e+00,1.878372073173522949e+00
7.479536533355712891e-01,-4.435053467750549316e-01,1.023433208465576172e+00,1.279690146446228027e+00,2.353867292404174805e+00,-1.370863914489746094e+00,1.868541836738586426e+00
7.453063726425170898e-01,-4.454541802406311035e-01,1.018650531768798828e+00,1.283985257148742676e+00,2.357148170471191406e+00,-1.365669965744018555e+00,1.858688473701477051e+00
7.427425384521484375e-01,-4.473940730094909668e-01,1.013808250427246094e+00,1.288229942321777344e+00,2.360493659973144531e+00,-1.360551357269287109e+00,1.848819613456726074e+00
7.402752041816711426e-01,-4.493280053138732910e-01,1.008980035781860352e+00,1.292525410652160645e+00,2.363856792449951172e+00,-1.355833649635314941e+00,1.838945984840393066e+00
7.379235625267028809e-01,-4.513240754604339600e-01,1.004194378852844238e+00,1.296918392181396484e+00,2.367233753204345703e+00,-1.351927638053894043e+00,1.829072833061218262e+00
7.356514930725097656e-01,-4.534457325935363770e-01,9.994147419929504395e-01,1.301481723785400391e+00,2.370621204376220703e+00,-1.350007772445678711e+00,1.819173693656921387e+00
7.334134578704833984e-01,-4.556929171085357666e-01,9.946159720420837402e-01,1.306087136268615723e+00,2.374050617218017578e+00,-1.354741692543029785e+00,1.809247493743896484e+00
7.311778068542480469e-01,-4.579824805259704590e-01,9.898374080657958984e-01,1.310664296150207520e+00,2.377613306045532227e+00,-1.419415473937988281e+00,1.799238920211791992e+00
7.288964390754699707e-01,-4.603062868118286133e-01,9.850607514381408691e-01,1.315278291702270508e+00,2.381697893142700195e+00,-1.434678435325622559e+00,1.788807034492492676e+00
7.265254855155944824e-01,-4.627009928226470947e-01,9.802508950233459473e-01,1.320056438446044922e+00,2.385421514511108398e+00,-1.429156422615051270e+00,1.778774380683898926e+00
7.241490483283996582e-01,-4.651348888874053955e-01,9.753579497337341309e-01,1.325210332870483398e+00,2.387973546981811523e+00,-1.420631647109985352e+00,1.768469333648681641e+00
7.880631685256958008e-01,-4.675059616565704346e-01,9.760971665382385254e-01,1.329283475875854492e+00,2.305345773696899414e+00,-1.417124867439270020e+00,1.758561730384826660e+00
7.863167524337768555e-01,-4.698627889156341553e-01,1.026326894760131836e+00,1.331850767135620117e+00,2.302131891250610352e+00,-1.413590431213378906e+00,1.748991727828979492e+00
7.837194800376892090e-01,-4.721236824989318848e-01,1.029527902603149414e+00,1.337563633918762207e+00,2.305961132049560547e+00,-1.410953283309936523e+00,1.738784909248352051e+00
7.810065746307373047e-01,-4.743708074092864990e-01,1.024943113327026367e+00,1.335011720657348633e+00,2.310077667236328125e+00,-1.410044670104980469e+00,1.728997945785522461e+00
7.783278226852416992e-01,-4.766274392604827881e-01,1.020087242126464844e+00,1.309827566146850586e+00,2.313992977142333984e+00,-1.410740733146667480e+00,1.719021201133728027e+00
7.757885456085205078e-01,-4.788948893547058105e-01,1.015363454818725586e+00,1.268899679183959961e+00,2.317767858505249023e+00,-1.413081765174865723e+00,1.709013938903808594e+00
7.734058499336242676e-01,-4.811888635158538818e-01,1.010916233062744141e+00,1.271297931671142578e+00,2.321205377578735352e+00,-1.416682362556457520e+00,1.698971986770629883e+00
7.711008191108703613e-01,-4.835376441478729248e-01,1.006906032562255859e+00,1.276293754577636719e+00,2.324174165725708008e+00,-1.421024560928344727e+00,1.688917636871337891e+00
7.688130140304565430e-01,-4.859376549720764160e-01,1.003490447998046875e+00,1.281174302101135254e+00,2.326445579528808594e+00,-1.425348758697509766e+00,1.678841590881347656e+00
7.664721012115478516e-01,-4.883782863616943359e-01,1.000842332839965820e+00,1.285781502723693848e+00,2.327945947647094727e+00,-1.429219961166381836e+00,1.668762445449829102e+00
7.640800476074218750e-01,-4.909492135047912598e-01,9.991593360900878906e-01,1.290050983428955078e+00,2.328712701797485352e+00,-1.432474493980407715e+00,1.658693432807922363e+00
7.616412639617919922e-01,-4.937254190444946289e-01,9.985929727554321289e-01,1.293786883354187012e+00,2.328772783279418945e+00,-1.435263633728027344e+00,1.648637175559997559e+00
7.591012716293334961e-01,-4.967514872550964355e-01,9.990919232368469238e-01,1.296708941459655762e+00,2.328252077102661133e+00,-1.437914848327636719e+00,1.638592839241027832e+00
7.563776373863220215e-01,-5.001761317253112793e-01,1.000350832939147949e+00,1.298673272132873535e+00,2.327314376831054688e+00,-1.440824747085571289e+00,1.628545522689819336e+00
7.534945011138916016e-01,-5.040625333786010742e-01,1.002209663391113281e+00,1.299794197082519531e+00,2.326212644577026367e+00,-1.444188714027404785e+00,1.618493318557739258e+00
7.506088614463806152e-01,-5.083870887756347656e-01,1.004545927047729492e+00,1.300098776817321777e+00,2.325160264968872070e+00,-1.448035120964050293e+00,1.608436822891235352e+00
7.479273080825805664e-01,-5.130143761634826660e-01,1.007194757461547852e+00,1.299391627311706543e+00,2.324297904968261719e+00,-1.452248811721801758e+00,1.598348617553710938e+00
7.455784082412719727e-01,-5.177431702613830566e-01,1.009826302528381348e+00,1.300983667373657227e+00,2.323390483856201172e+00,-1.456555247306823730e+00,1.587922096252441406e+00
7.436457276344299316e-01,-5.225877761840820312e-01,1.012329697608947754e+00,1.299577236175537109e+00,2.322818756103515625e+00,-1.461102843284606934e+00,1.577780127525329590e+00
7.422097921371459961e-01,-5.275152325630187988e-01,1.014410018920898438e+00,1.297265172004699707e+00,2.322131872177124023e+00,-1.465787768363952637e+00,1.567644834518432617e+00
7.413879632949829102e-01,-5.323550701141357422e-01,1.016063451766967773e+00,1.293910384178161621e+00,2.321296453475952148e+00,-1.470473527908325195e+00,1.557497501373291016e+00
7.411427497863769531e-01,-5.368114113807678223e-01,1.017417550086975098e+00,1.289409518241882324e+00,2.320337533950805664e+00,-1.475236415863037109e+00,1.547356367111206055e+00
7.413107156753540039e-01,-5.409064888954162598e-01,1.018615126609802246e+00,1.326307058334350586e+00,2.319373130798339844e+00,-1.480177521705627441e+00,1.537133932113647461e+00
7.417131662368774414e-01,-5.447528362274169922e-01,1.019465565681457520e+00,1.361713171005249023e+00,2.318389892578125000e+00,-1.485138058662414551e+00,1.527042508125305176e+00
7.422805428504943848e-01,-5.482748746871948242e-01,1.020412206649780273e+00,1.356001615524291992e+00,2.317673206329345703e+00,-1.490059971809387207e+00,1.517193436622619629e+00
7.430259585380554199e-01,-5.515447854995727539e-01,1.021758913993835449e+00,1.351641535758972168e+00,2.316552400588989258e+00,-1.495239853858947754e+00,1.507074236869812012e+00
7.436745166778564453e-01,-5.547261834144592285e-01,1.023422479629516602e+00,1.349414467811584473e+00,2.315351963043212891e+00,-1.500509858131408691e+00,1.496954202651977539e+00
7.440625429153442383e-01,-5.579977035522460938e-01,1.025267839431762695e+00,1.349724173545837402e+00,2.314060926437377930e+00,-1.505951404571533203e+00,1.486837983131408691e+00
7.442171573638916016e-01,-5.614269375801086426e-01,1.027297854423522949e+00,1.350313901901245117e+00,2.312726497650146484e+00,-1.511510133743286133e+00,1.476720929145812988e+00
7.443102002143859863e-01,-5.650200843811035156e-01,1.029547452926635742e+00,1.350506544113159180e+00,2.311389923095703125e+00,-1.517181754112243652e+00,1.466589331626892090e+00
7.444351315498352051e-01,-5.687018632888793945e-01,1.031945466995239258e+00,1.350759506225585938e+00,2.310054063796997070e+00,-1.523030519485473633e+00,1.456453323364257812e+00
7.446120381355285645e-01,-5.722464919090270996e-01,1.034340977668762207e+00,1.355107903480529785e+00,2.308501958847045898e+00,-1.529115915298461914e+00,1.446018099784851074e+00
7.447613477706909180e-01,-5.755376815795898438e-01,1.036780476570129395e+00,1.356677293777465820e+00,2.307206392288208008e+00,-1.535161852836608887e+00,1.435874223709106445e+00
7.448744177818298340e-01,-5.785607695579528809e-01,1.039330482482910156e+00,1.354636669158935547e+00,2.306196212768554688e+00,-1.541198730468750000e+00,1.426026105880737305e+00
7.449936270713806152e-01,-5.813277363777160645e-01,1.041865468025207520e+00,1.356314182281494141e+00,2.304846286773681641e+00,-1.547512650489807129e+00,1.415891647338867188e+00
7.450610399246215820e-01,-5.839539766311645508e-01,1.044443964958190918e+00,1.358392834663391113e+00,2.303390741348266602e+00,-1.553848624229431152e+00,1.405768990516662598e+00
7.450695633888244629e-01,-5.865952968597412109e-01,1.047096967697143555e+00,1.361346125602722168e+00,2.301814079284667969e+00,-1.560304284095764160e+00,1.395654797554016113e+00
7.450606822967529297e-01,-5.893403291702270508e-01,1.049790978431701660e+00,1.365053534507751465e+00,2.300148725509643555e+00,-1.566892147064208984e+00,1.385525345802307129e+00
7.450630068778991699e-01,-5.922321081161499023e-01,1.052501201629638672e+00,1.369503736495971680e+00,2.298427343368530273e+00,-1.573539614677429199e+00,1.375386357307434082e+00
7.450684309005737305e-01,-5.952618122100830078e-01,1.055211663246154785e+00,1.374194502830505371e+00,2.296717643737792969e+00,-1.580230832099914551e+00,1.365239143371582031e+00
7.451350688934326172e-01,-5.984867811203002930e-01,1.057871341705322266e+00,1.381481766700744629e+00,2.294588565826416016e+00,-1.587217092514038086e+00,1.354763388633728027e+00
7.452772259712219238e-01,-6.019015908241271973e-01,1.060503244400024414e+00,1.384380817413330078e+00,2.292820692062377930e+00,-1.594010233879089355e+00,1.344617128372192383e+00
7.456536293029785156e-01,-6.054998040199279785e-01,1.063164949417114258e+00,1.387070536613464355e+00,2.290987730026245117e+00,-1.600861310958862305e+00,1.334485530853271484e+00
7.463359236717224121e-01,-6.092376708984375000e-01,1.065916776657104492e+00,1.389780282974243164e+00,2.289135456085205078e+00,-1.607801795005798340e+00,1.324362635612487793e+00
7.473306655883789062e-01,-6.129652261734008789e-01,1.068754076957702637e+00,1.392610907554626465e+00,2.287289381027221680e+00,-1.614710330963134766e+00,1.314239978790283203e+00
7.485756874084472656e-01,-6.165633797645568848e-01,1.071647763252258301e+00,1.395616888999938965e+00,2.285460710525512695e+00,-1.621668577194213867e+00,1.304114580154418945e+00
7.499703764915466309e-01,-6.200330257415771484e-01,1.074586272239685059e+00,1.398934125900268555e+00,2.283599615097045898e+00,-1.628687858581542969e+00,1.293997049331665039e+00
7.514469623565673828e-01,-6.233566403388977051e-01,1.077579855918884277e+00,1.402553558349609375e+00,2.281709671020507812e+00,-1.635673999786376953e+00,1.283869624137878418e+00
7.529486417770385742e-01,-6.265286803245544434e-01,1.080666899681091309e+00,1.406429409980773926e+00,2.279810667037963867e+00,-1.642782330513000488e+00,1.273747682571411133e+00
7.544120550155639648e-01,-6.295689940452575684e-01,1.083868622779846191e+00,1.410622239112854004e+00,2.277869939804077148e+00,-1.649964809417724609e+00,1.263622522354125977e+00
7.557681202888488770e-01,-6.325390934944152832e-01,1.087148427963256836e+00,1.415124177932739258e+00,2.275826930999755859e+00,-1.657185554504394531e+00,1.253498315811157227e+00
7.569860219955444336e-01,-6.354898214340209961e-01,1.090476274490356445e+00,1.419781565666198730e+00,2.273714780807495117e+00,-1.664561510086059570e+00,1.243372201919555664e+00
7.580695152282714844e-01,-6.384580135345458984e-01,1.093816041946411133e+00,1.425847411155700684e+00,2.275079488754272461e+00,-1.672024250030517578e+00,1.233050823211669922e+00
7.590368390083312988e-01,-6.414813399314880371e-01,1.097183704376220703e+00,1.430446028709411621e+00,2.276141405105590820e+00,-1.679504752159118652e+00,1.222905755043029785e+00
7.599415183067321777e-01,-6.446076035499572754e-01,1.100492119789123535e+00,1.435067892074584961e+00,2.279245853424072266e+00,-1.687092900276184082e+00,1.212778806686401367e+00
7.608684301376342773e-01,-6.477476358413696289e-01,1.103760719299316406e+00,1.439816236495971680e+00,2.329011917114257812e+00,-1.694639325141906738e+00,1.202648401260375977e+00
7.618650197982788086e-01,-6.507976651191711426e-01,1.107102394104003906e+00,1.444795727729797363e+00,2.353602886199951172e+00,-1.702076435089111328e+00,1.192547559738159180e+00
7.630435824394226074e-01,-6.538155078887939453e-01,1.110532760620117188e+00,1.449424147605895996e+00,2.351893424987792969e+00,-1.709549307823181152e+00,1.182482004165649414e+00
7.643977403640747070e-01,-6.569492220878601074e-01,1.113986492156982422e+00,1.454063892364501953e+00,2.349702358245849609e+00,-1.717157840728759766e+00,1.172369599342346191e+00
7.658345103263854980e-01,-6.601817607879638672e-01,1.117386102676391602e+00,1.458942890167236328e+00,2.347719907760620117e+00,-1.724865794181823730e+00,1.162267565727233887e+00
7.672762274742126465e-01,-6.635004281997680664e-01,1.120715618133544922e+00,1.463866829872131348e+00,2.346116065979003906e+00,-1.732472300529479980e+00,1.152176499366760254e+00
7.687290906906127930e-01,-6.669083833694458008e-01,1.124111890792846680e+00,1.468704581260681152e+00,2.345096588134765625e+00,-1.740156412124633789e+00,1.142073631286621094e+00
7.701495885848999023e-01,-6.702923178672790527e-01,1.127594470977783203e+00,1.473648786544799805e+00,2.344768524169921875e+00,-1.747871041297912598e+00,1.131972432136535645e+00
7.715576291084289551e-01,-6.736292839050292969e-01,1.131153583526611328e+00,1.478661656379699707e+00,2.345085382461547852e+00,-1.755564928054809570e+00,1.121880412101745605e+00
7.729690670967102051e-01,-6.769745349884033203e-01,1.134773731231689453e+00,1.483646273612976074e+00,2.346030712127685547e+00,-1.763385653495788574e+00,1.111783623695373535e+00
7.743599414825439453e-01,-6.803119182586669922e-01,1.138390898704528809e+00,1.488618373870849609e+00,2.347588300704956055e+00,-1.771122217178344727e+00,1.101688146591186523e+00
7.757315039634704590e-01,-6.836372017860412598e-01,1.141924500465393066e+00,1.493651628494262695e+00,2.349692821502685547e+00,-1.778917670249938965e+00,1.091594457626342773e+00
7.771415710449218750e-01,-6.869616508483886719e-01,1.145426988601684570e+00,1.498881101608276367e+00,2.352140188217163086e+00,-1.786774754524230957e+00,1.081514477729797363e+00
7.786757946014404297e-01,-6.902460455894470215e-01,1.148957371711730957e+00,1.504095554351806641e+00,2.354729652404785156e+00,-1.794639587402343750e+00,1.071414113044738770e+00
7.803347706794738770e-01,-6.934387087821960449e-01,1.152550697326660156e+00,1.509172320365905762e+00,2.357248306274414062e+00,-1.802657365798950195e+00,1.061310410499572754e+00
7.820689678192138672e-01,-6.966409087181091309e-01,1.156189680099487305e+00,1.514391064643859863e+00,2.359580993652343750e+00,-1.810534000396728516e+00,1.051221489906311035e+00
7.838406562805175781e-01,-6.999226212501525879e-01,1.159775614738464355e+00,1.519831776618957520e+00,2.361817598342895508e+00,-1.818461298942565918e+00,1.041157484054565430e+00
7.856341600418090820e-01,-7.032844424247741699e-01,1.163270354270935059e+00,1.525260090827941895e+00,2.364140987396240234e+00,-1.826273560523986816e+00,1.031075716018676758e+00
7.874629497528076172e-01,-7.066681385040283203e-01,1.166818141937255859e+00,1.530615806579589844e+00,2.366609811782836914e+00,-1.834068298339843750e+00,1.020998954772949219e+00
7.893559336662292480e-01,-7.100179791450500488e-01,1.170525670051574707e+00,1.536069869995117188e+00,2.369248628616333008e+00,-1.841993212699890137e+00,1.010945558547973633e+00
7.913112640380859375e-01,-7.133175730705261230e-01,1.174283027648925781e+00,1.541615128517150879e+00,2.372011184692382812e+00,-1.849841475486755371e+00,1.000882148742675781e+00
7.932484745979309082e-01,-7.165799140930175781e-01,1.177954554557800293e+00,1.547036051750183105e+00,2.374878644943237305e+00,-1.857645153999328613e+00,9.908005595207214355e-01
7.951191663742065430e-01,-7.198157906532287598e-01,1.181648135185241699e+00,1.552471995353698730e+00,2.377804279327392578e+00,-1.865326642990112305e+00,9.807260632514953613e-01
7.969651818275451660e-01,-7.231407761573791504e-01,1.185387730598449707e+00,1.558043599128723145e+00,2.380759000778198242e+00,-1.872966051101684570e+00,9.706723690032958984e-01
7.988529205322265625e-01,-7.264922261238098145e-01,1.189113855361938477e+00,1.563683867454528809e+00,2.383790493011474609e+00,-1.880798935890197754e+00,9.606257677078247070e-01
8.007971048355102539e-01,-7.297345995903015137e-01,1.192785859107971191e+00,1.569216847419738770e+00,2.386887788772583008e+00,-1.888536572456359863e+00,9.505280256271362305e-01
8.027610182762145996e-01,-7.329225540161132812e-01,1.196503043174743652e+00,1.574719429016113281e+00,2.390035867691040039e+00,-1.896197199821472168e+00,9.404516816139221191e-01
8.046904206275939941e-01,-7.361882925033569336e-01,1.200263500213623047e+00,1.580406665802001953e+00,2.393224477767944336e+00,-1.903349876403808594e+00,9.303905367851257324e-01
8.065823912620544434e-01,-7.394893169403076172e-01,1.203667998313903809e+00,1.586023211479187012e+00,2.396489381790161133e+00,-1.910082221031188965e+00,9.202967882156372070e-01
8.085057735443115234e-01,-7.427867054939270020e-01,1.206804037094116211e+00,1.591656923294067383e+00,2.399845123291015625e+00,-1.916584491729736328e+00,9.102215170860290527e-01
8.105518221855163574e-01,-7.461069822311401367e-01,1.210164546966552734e+00,1.597468137741088867e+00,2.403215408325195312e+00,-1.923200726509094238e+00,9.001996517181396484e-01
8.127028346061706543e-01,-7.493907809257507324e-01,1.213793635368347168e+00,1.603236913681030273e+00,2.406608104705810547e+00,-1.929494261741638184e+00,8.902375698089599609e-01
8.148428201675415039e-01,-7.525680065155029297e-01,1.217400074005126953e+00,1.608842015266418457e+00,2.410004615783691406e+00,-1.933172941207885742e+00,8.802643418312072754e-01
8.169320225715637207e-01,-7.557851672172546387e-01,1.221792340278625488e+00,1.614489555358886719e+00,2.413469791412353516e+00,-1.924603223800659180e+00,8.703058958053588867e-01
8.190113306045532227e-01,-7.591055631637573242e-01,1.226464033126831055e+00,1.620317101478576660e+00,2.416886329650878906e+00,-1.860400438308715820e+00,8.605887889862060547e-01
8.211846351623535156e-01,-7.624703049659729004e-01,1.231161832809448242e+00,1.626138925552368164e+00,2.419838190078735352e+00,-1.853889465332031250e+00,8.528649210929870605e-01
8.234028816223144531e-01,-7.658110260963439941e-01,1.234972834587097168e+00,1.631928324699401855e+00,2.423459053039550781e+00,-1.861011862754821777e+00,8.439056873321533203e-01
8.256542682647705078e-01,-7.691131234169006348e-01,1.238646030426025391e+00,1.637855172157287598e+00,2.427325725555419922e+00,-1.868265390396118164e+00,8.338351845741271973e-01
8.278964161872863770e-01,-7.723574638366699219e-01,1.242027640342712402e+00,1.643673658370971680e+00,2.431184053421020508e+00,-1.875104188919067383e+00,8.235611915588378906e-01
8.301150798797607422e-01,-7.755745649337768555e-01,1.245276808738708496e+00,1.649435758590698242e+00,2.434992551803588867e+00,-1.880941867828369141e+00,8.132549524307250977e-01
8.323883414268493652e-01,-7.788088321685791016e-01,1.248670935630798340e+00,1.655294418334960938e+00,2.438644409179687500e+00,-1.885284304618835449e+00,8.031660318374633789e-01
8.347672224044799805e-01,-7.821192741394042969e-01,1.252994060516357422e+00,1.661223411560058594e+00,2.441588401794433594e+00,-1.887739896774291992e+00,7.936348319053649902e-01
8.371378183364868164e-01,-7.854223847389221191e-01,1.257245063781738281e+00,1.667101025581359863e+00,2.442920446395874023e+00,-1.888085842132568359e+00,7.843433022499084473e-01
8.394096493721008301e-01,-7.886879444122314453e-01,1.261270999908447266e+00,1.672940135002136230e+00,2.434788703918457031e+00,-1.886502742767333984e+00,7.748020887374877930e-01
8.416036963462829590e-01,-7.919794917106628418e-01,1.265308976173400879e+00,1.678729891777038574e+00,2.365560770034790039e+00,-1.883552551269531250e+00,7.650178670883178711e-01
8.437922596931457520e-01,-7.952919602394104004e-01,1.259346008300781250e+00,1.683602809906005859e+00,2.365207433700561523e+00,-1.880830049514770508e+00,7.547820210456848145e-01
8.460054993629455566e-01,-7.985901832580566406e-01,1.214735150337219238e+00,1.689274907112121582e+00,2.369296550750732422e+00,-1.876785635948181152e+00,7.452408075332641602e-01
8.482608199119567871e-01,-8.019173741340637207e-01,1.211107134819030762e+00,1.695237874984741211e+00,2.373423814773559570e+00,-1.872044086456298828e+00,7.385123372077941895e-01
8.505354523658752441e-01,-8.052052259445190430e-01,1.215000271797180176e+00,1.701167821884155273e+00,2.377402782440185547e+00,-1.868830800056457520e+00,7.314819693565368652e-01
8.527861833572387695e-01,-8.083518147468566895e-01,1.219011306762695312e+00,1.707003712654113770e+00,2.381009578704833984e+00,-1.866569995880126953e+00,7.237146496772766113e-01
8.550384044647216797e-01,-8.114582300186157227e-01,1.222827434539794922e+00,1.713164329528808594e+00,2.383997678756713867e+00,-1.864976048469543457e+00,7.139433622360229492e-01
8.573406338691711426e-01,-8.146724700927734375e-01,1.226263523101806641e+00,1.719198942184448242e+00,2.386193513870239258e+00,-1.863533020019531250e+00,7.026837468147277832e-01
8.597095608711242676e-01,-8.179703950881958008e-01,1.229213595390319824e+00,1.724842071533203125e+00,2.387527942657470703e+00,-1.861826181411743164e+00,6.912136673927307129e-01
8.622053861618041992e-01,-8.213425278663635254e-01,1.231596350669860840e+00,1.730478048324584961e+00,2.388093948364257812e+00,-1.860116600990295410e+00,6.799394488334655762e-01
8.649047613143920898e-01,-8.247152566909790039e-01,1.233422040939331055e+00,1.736081242561340332e+00,2.387928724288940430e+00,-1.859161376953125000e+00,6.691290736198425293e-01
8.677855134010314941e-01,-8.278718590736389160e-01,1.234390974044799805e+00,1.741678714752197266e+00,2.387154579162597656e+00,-1.860854268074035645e+00,6.586281657218933105e-01
8.707841634750366211e-01,-8.307440280914306641e-01,1.234511494636535645e+00,1.747135996818542480e+00,2.385972499847412109e+00,-1.879154920578002930e+00,6.485037803649902344e-01
8.738921284675598145e-01,-8.334293365478515625e-01,1.233576893806457520e+00,1.751889944076538086e+00,2.384665012359619141e+00,-1.948813796043395996e+00,6.382814645767211914e-01
8.770877718925476074e-01,-8.358897566795349121e-01,1.230628728866577148e+00,1.748392701148986816e+00,2.383537292480468750e+00,-1.953440427780151367e+00,6.275641322135925293e-01
8.803569078445434570e-01,-8.380551338195800781e-01,1.228282451629638672e+00,1.709791302680969238e+00,2.382458925247192383e+00,-1.949672222137451172e+00,6.181520223617553711e-01
8.836901187896728516e-01,-8.400317430496215820e-01,1.227866411209106445e+00,1.687620997428894043e+00,2.381444454193115234e+00,-1.945980429649353027e+00,6.088273525238037109e-01
8.870463967323303223e-01,-8.418663740158081055e-01,1.278427839279174805e+00,1.691743373870849609e+00,2.380447149276733398e+00,-1.943055868148803711e+00,5.993437170982360840e-01
8.903444409370422363e-01,-8.436003923416137695e-01,1.285866141319274902e+00,1.697612166404724121e+00,2.379463195800781250e+00,-1.941782712936401367e+00,5.890874266624450684e-01
8.934818506240844727e-01,-8.453726172447204590e-01,1.283260107040405273e+00,1.703197598457336426e+00,2.378267049789428711e+00,-1.941564798355102539e+00,5.791994929313659668e-01
8.964574337005615234e-01,-8.474112153053283691e-01,1.280680298805236816e+00,1.708619117736816406e+00,2.376938819885253906e+00,-1.942707061767578125e+00,5.693074464797973633e-01
8.993123769760131836e-01,-8.497565388679504395e-01,1.278225541114807129e+00,1.714089393615722656e+00,2.375586986541748047e+00,-1.945239901542663574e+00,5.592664480209350586e-01
9.021667242050170898e-01,-8.523997068405151367e-01,1.276245594024658203e+00,1.718949198722839355e+00,2.374197006225585938e+00,-1.949142932891845703e+00,5.492194294929504395e-01
9.051767587661743164e-01,-8.553397655487060547e-01,1.275110960006713867e+00,1.723066926002502441e+00,2.372817039489746094e+00,-1.954277873039245605e+00,5.391876101493835449e-01
9.083456993103027344e-01,-8.585459589958190918e-01,1.274856090545654297e+00,1.727097153663635254e+00,2.371432542800903320e+00,-1.960014581680297852e+00,5.291089415550231934e-01
9.115086793899536133e-01,-8.619891405105590820e-01,1.275135874748229980e+00,1.732329249382019043e+00,2.370015859603881836e+00,-1.965615630149841309e+00,5.189869403839111328e-01
9.145672917366027832e-01,-8.656471371650695801e-01,1.275984764099121094e+00,1.734599947929382324e+00,2.368460655212402344e+00,-1.970795750617980957e+00,5.089564919471740723e-01
9.175513982772827148e-01,-8.694273829460144043e-01,1.276835083961486816e+00,1.736364126205444336e+00,2.366915225982666016e+00,-1.975421190261840820e+00,4.988914728164672852e-01
9.204817414283752441e-01,-8.733030557632446289e-01,1.274894356727600098e+00,1.740097403526306152e+00,2.365368843078613281e+00,-1.979674220085144043e+00,4.888142943382263184e-01
9.234446883201599121e-01,-8.773842453956604004e-01,1.222255945205688477e+00,1.781447410583496094e+00,2.363795995712280273e+00,-1.983761310577392578e+00,4.787436425685882568e-01
9.265347719192504883e-01,-8.816441893577575684e-01,1.219730734825134277e+00,1.806420683860778809e+00,2.362169981002807617e+00,-1.987106204032897949e+00,4.693818688392639160e-01
9.299030900001525879e-01,-8.859584927558898926e-01,1.222687721252441406e+00,1.805358767509460449e+00,2.360531568527221680e+00,-1.991746544837951660e+00,4.595089554786682129e-01
9.334269762039184570e-01,-8.900815844535827637e-01,1.225659251213073730e+00,1.802736639976501465e+00,2.358766317367553711e+00,-1.997043848037719727e+00,4.494080841541290283e-01
9.368497133255004883e-01,-8.939614295959472656e-01,1.228311777114868164e+00,1.800036907196044922e+00,2.356902837753295898e+00,-2.002451419830322266e+00,4.392890632152557373e-01
9.400637745857238770e-01,-8.975664377212524414e-01,1.230246424674987793e+00,1.797626495361328125e+00,2.354953289031982422e+00,-2.008166313171386719e+00,4.291857481002807617e-01
9.431818723678588867e-01,-9.009040594100952148e-01,1.231356143951416016e+00,1.795624613761901855e+00,2.352918148040771484e+00,-2.014231204986572266e+00,4.190679788589477539e-01
9.464086294174194336e-01,-9.039379954338073730e-01,1.231766223907470703e+00,1.794107794761657715e+00,2.350812673568725586e+00,-2.020654439926147461e+00,4.089379310607910156e-01
9.497921466827392578e-01,-9.066569805145263672e-01,1.231579422950744629e+00,1.793130397796630859e+00,2.348591804504394531e+00,-2.027087688446044922e+00,3.988650441169738770e-01
9.531902074813842773e-01,-9.090605378150939941e-01,1.230732440948486328e+00,1.792903780937194824e+00,2.346234560012817383e+00,-2.033373832702636719e+00,3.888401091098785400e-01
9.563922882080078125e-01,-9.111115336418151855e-01,1.229051351547241211e+00,1.793909311294555664e+00,2.343795061111450195e+00,-2.039289712905883789e+00,3.787697553634643555e-01
9.593425989151000977e-01,-9.128435254096984863e-01,1.226727724075317383e+00,1.795620799064636230e+00,2.341252088546752930e+00,-2.045139312744140625e+00,3.687303364276885986e-01
9.621662497520446777e-01,-9.143991470336914062e-01,1.224218726158142090e+00,1.797749400138854980e+00,2.338647127151489258e+00,-2.051239252090454102e+00,3.588009774684906006e-01
9.649466872215270996e-01,-9.159309864044189453e-01,1.222068071365356445e+00,1.800359606742858887e+00,2.335984706878662109e+00,-2.057501792907714844e+00,3.489657044410705566e-01
9.676107764244079590e-01,-9.175144433975219727e-01,1.221092581748962402e+00,1.803259253501892090e+00,2.333207845687866211e+00,-2.063691139221191406e+00,3.391871154308319092e-01
9.700704813003540039e-01,-9.191907644271850586e-01,1.239859938621520996e+00,1.804526209831237793e+00,2.330274105072021484e+00,-2.069848299026489258e+00,3.294977545738220215e-01
9.723889827728271484e-01,-9.211075305938720703e-01,1.277702808380126953e+00,1.804320693016052246e+00,2.327349662780761719e+00,-2.076567649841308594e+00,3.193680942058563232e-01
9.747033119201660156e-01,-9.234180450439453125e-01,1.276464343070983887e+00,1.760395288467407227e+00,2.324455738067626953e+00,-2.083312034606933594e+00,3.088795542716979980e-01
9.771279096603393555e-01,-9.260841012001037598e-01,1.274044990539550781e+00,1.739478349685668945e+00,2.321266651153564453e+00,-2.088703870773315430e+00,2.989150881767272949e-01
9.796556234359741211e-01,-9.290505051612854004e-01,1.271387815475463867e+00,1.742608308792114258e+00,2.318192720413208008e+00,-2.093394041061401367e+00,2.889170050621032715e-01
9.823018312454223633e-01,-9.322755336761474609e-01,1.268538117408752441e+00,1.746774911880493164e+00,2.315157413482666016e+00,-2.097547531127929688e+00,2.789330780506134033e-01
9.851132631301879883e-01,-9.355413317680358887e-01,1.265885114669799805e+00,1.750589489936828613e+00,2.312108278274536133e+00,-2.101225614547729492e+00,2.687942385673522949e-01
9.880498647689819336e-01,-9.386928677558898926e-01,1.263641834259033203e+00,1.753827571868896484e+00,2.309005498886108398e+00,-2.104429960250854492e+00,2.586446702480316162e-01
9.910161495208740234e-01,-9.417309761047363281e-01,1.261780500411987305e+00,1.756581902503967285e+00,2.305848360061645508e+00,-2.107115507125854492e+00,2.485256493091583252e-01
9.939191341400146484e-01,-9.446737170219421387e-01,1.260353803634643555e+00,1.758891820907592773e+00,2.302649021148681641e+00,-2.109326362609863281e+00,2.384399324655532837e-01
9.966723322868347168e-01,-9.476289153099060059e-01,1.259396076202392578e+00,1.760668277740478516e+00,2.299430370330810547e+00,-2.111051082611083984e+00,2.282415479421615601e-01
9.992717504501342773e-01,-9.507597684860229492e-01,1.258996963500976562e+00,1.761799573898315430e+00,2.296196699142456055e+00,-2.112290620803833008e+00,2.180121839046478271e-01
1.001824498176574707e+00,-9.541558623313903809e-01,1.259331703186035156e+00,1.762061238288879395e+00,2.292968034744262695e+00,-2.113363265991210938e+00,2.079219073057174683e-01
1.004454135894775391e+00,-9.578619599342346191e-01,1.260265946388244629e+00,1.761652469635009766e+00,2.289743661880493164e+00,-2.114183425903320312e+00,1.978099346160888672e-01
1.007203340530395508e+00,-9.618487358093261719e-01,1.261538386344909668e+00,1.761209011077880859e+00,2.286539316177368164e+00,-2.114745616912841797e+00,1.876068413257598877e-01
1.010048508644104004e+00,-9.659750461578369141e-01,1.262910723686218262e+00,1.760588645935058594e+00,2.283320903778076172e+00,-2.115098953247070312e+00,1.774569451808929443e-01
1.012973546981811523e+00,-9.701526761054992676e-01,1.261358022689819336e+00,1.770967602729797363e+00,2.280146598815917969e+00,-2.115206480026245117e+00,1.672386676073074341e-01
1.015926480293273926e+00,-9.744220972061157227e-01,1.211206793785095215e+00,1.825563311576843262e+00,2.276932716369628906e+00,-2.115041255950927734e+00,1.571404486894607544e-01
1.018881201744079590e+00,-9.786171317100524902e-01,1.206178307533264160e+00,1.829291939735412598e+00,2.273736238479614258e+00,-2.110366821289062500e+00,1.478469818830490112e-01
1.022031307220458984e+00,-9.825968146324157715e-01,1.208830833435058594e+00,1.826050400733947754e+00,2.270448684692382812e+00,-2.108606338500976562e+00,1.379519701004028320e-01
1.025312781333923340e+00,-9.861604571342468262e-01,1.211422920227050781e+00,1.822972893714904785e+00,2.267137765884399414e+00,-2.110120296478271484e+00,1.278379410505294800e-01
1.028584599494934082e+00,-9.893542528152465820e-01,1.213890671730041504e+00,1.820193171501159668e+00,2.263663291931152344e+00,-2.111384153366088867e+00,1.178534030914306641e-01
1.031681180000305176e+00,-9.923160672187805176e-01,1.215933918952941895e+00,1.818069815635681152e+00,2.260027170181274414e+00,-2.111803054809570312e+00,1.079627275466918945e-01
1.034557342529296875e+00,-9.950074553489685059e-01,1.217158913612365723e+00,1.816802620887756348e+00,2.256328344345092773e+00,-2.111945390701293945e+00,9.802242368459701538e-02
1.037329196929931641e+00,-9.974758028984069824e-01,1.217723608016967773e+00,1.815948128700256348e+00,2.252567529678344727e+00,-2.112226009368896484e+00,8.816244453191757202e-02
1.040175199508666992e+00,-9.997568726539611816e-01,1.218318223953247070e+00,1.813856959342956543e+00,2.248746871948242188e+00,-2.112612485885620117e+00,7.844988256692886353e-02
1.043151736259460449e+00,-1.001765489578247070e+00,1.222661733627319336e+00,1.773494720458984375e+00,2.244846343994140625e+00,-2.112796545028686523e+00,6.888654828071594238e-02
1.046180248260498047e+00,-1.003461599349975586e+00,1.278599977493286133e+00,1.739154338836669922e+00,2.240664720535278320e+00,-2.112745761871337891e+00,5.952131748199462891e-02
1.049103975296020508e+00,-1.004868984222412109e+00,1.278273701667785645e+00,1.741092324256896973e+00,2.236684560775756836e+00,-2.113199472427368164e+00,4.790503159165382385e-02
1.051808834075927734e+00,-1.006144285202026367e+00,1.275381565093994141e+00,1.744806051254272461e+00,2.232571363449096680e+00,-2.112601518630981445e+00,3.787758201360702515e-02
1.054298520088195801e+00,-1.007524967193603516e+00,1.272320389747619629e+00,1.748712062835693359e+00,2.228354454040527344e+00,-2.111864089965820312e+00,2.815048396587371826e-02
1.056594729423522949e+00,-1.009140491485595703e+00,1.269210577011108398e+00,1.752749800682067871e+00,2.224100589752197266e+00,-2.111151933670043945e+00,1.861781626939773560e-02
1.058779120445251465e+00,-1.011066913604736328e+00,1.266273379325866699e+00,1.756757974624633789e+00,2.219837665557861328e+00,-2.110466003417968750e+00,9.080786257982254028e-03
1.060973882675170898e+00,-1.013378262519836426e+00,1.263778090476989746e+00,1.760517358779907227e+00,2.215626239776611328e+00,-2.109861373901367188e+00,-6.598830223083496094e-04
1.063315391540527344e+00,-1.016039967536926270e+00,1.261940956115722656e+00,1.763770699501037598e+00,2.211435556411743164e+00,-2.109332561492919922e+00,-1.052549108862876892e-02
1.065858006477355957e+00,-1.018985390663146973e+00,1.260872364044189453e+00,1.766305685043334961e+00,2.207293033599853516e+00,-2.108811616897583008e+00,-2.066494897007942200e-02
1.068529248237609863e+00,-1.022171735763549805e+00,1.260577201843261719e+00,1.767804861068725586e+00,2.203053236007690430e+00,-2.108204126358032227e+00,-3.072794340550899506e-02
1.071194887161254883e+00,-1.025605797767639160e+00,1.260858654975891113e+00,1.768436431884765625e+00,2.198837041854858398e+00,-2.107500076293945312e+00,-4.078830778598785400e-02
1.073789834976196289e+00,-1.029393434524536133e+00,1.261740565299987793e+00,1.768263339996337891e+00,2.194685697555541992e+00,-2.106766223907470703e+00,-5.097605660557746887e-02
1.076360344886779785e+00,-1.033571958541870117e+00,1.263286113739013672e+00,1.767277717590332031e+00,2.190567255020141602e+00,-2.106106758117675781e+00,-6.101464107632637024e-02
1.079013109207153320e+00,-1.038036465644836426e+00,1.265388011932373047e+00,1.765377283096313477e+00,2.186446189880371094e+00,-2.105525970458984375e+00,-7.113567739725112915e-02
1.081799149513244629e+00,-1.042667865753173828e+00,1.267903447151184082e+00,1.762587547302246094e+00,2.182309150695800781e+00,-2.105069160461425781e+00,-8.119980990886688232e-02
1.084722757339477539e+00,-1.047222614288330078e+00,1.270630836486816406e+00,1.759094595909118652e+00,2.178160190582275391e+00,-2.104688882827758789e+00,-9.122139215469360352e-02
1.087740898132324219e+00,-1.051575899124145508e+00,1.273216009140014648e+00,1.755196094512939453e+00,2.173977613449096680e+00,-2.104321718215942383e+00,-1.012923121452331543e-01
1.090798616409301758e+00,-1.055668592453002930e+00,1.275653481483459473e+00,1.750928997993469238e+00,2.169739961624145508e+00,-2.103998422622680664e+00,-1.112461239099502563e-01
1.093896150588989258e+00,-1.059425473213195801e+00,1.278106689453125000e+00,1.746452927589416504e+00,2.165456533432006836e+00,-2.103816509246826172e+00,-1.210882812738418579e-01
1.097026586532592773e+00,-1.062800884246826172e+00,1.280538558959960938e+00,1.742107868194580078e+00,2.161128759384155273e+00,-2.103666305541992188e+00,-1.308462321758270264e-01
1.100122332572937012e+00,-1.065828800201416016e+00,1.283119916915893555e+00,1.738137960433959961e+00,2.156748533248901367e+00,-2.103525876998901367e+00,-1.404042541980743408e-01
1.103078126907348633e+00,-1.068596363067626953e+00,1.285932660102844238e+00,1.734699487686157227e+00,2.152313470840454102e+00,-2.103317260742187500e+00,-1.497996002435684204e-01
1.105837821960449219e+00,-1.071167111396789551e+00,1.288984060287475586e+00,1.731812000274658203e+00,2.147833347320556641e+00,-2.103062152862548828e+00,-1.590166687965393066e-01
1.108375906944274902e+00,-1.073726773262023926e+00,1.292007565498352051e+00,1.729419589042663574e+00,2.143312692642211914e+00,-2.102762937545776367e+00,-1.682400554418563843e-01
1.110714912414550781e+00,-1.076490879058837891e+00,1.294963955879211426e+00,1.727192401885986328e+00,2.138760089874267578e+00,-2.102425575256347656e+00,-1.776718795299530029e-01
1.112958788871765137e+00,-1.079425811767578125e+00,1.297966003417968750e+00,1.724839568138122559e+00,2.134235382080078125e+00,-2.102152585983276367e+00,-1.872995495796203613e-01
1.115296840667724609e+00,-1.082417130470275879e+00,1.300989627838134766e+00,1.722177147865295410e+00,2.129735231399536133e+00,-2.102020502090454102e+00,-1.971909552812576294e-01
1.117859005928039551e+00,-1.085457801818847656e+00,1.304099321365356445e+00,1.719167113304138184e+00,2.125227212905883789e+00,-2.102006196975708008e+00,-2.070572376251220703e-01
1.120671391487121582e+00,-1.088622927665710449e+00,1.307328701019287109e+00,1.715835094451904297e+00,2.120676994323730469e+00,-2.102010965347290039e+00,-2.168968617916107178e-01
1.123730897903442383e+00,-1.091903328895568848e+00,1.310613870620727539e+00,1.712165594100952148e+00,2.116097450256347656e+00,-2.102009296417236328e+00,-2.267700582742691040e-01
1.126990079879760742e+00,-1.095240235328674316e+00,1.313969492912292480e+00,1.708261728286743164e+00,2.111496210098266602e+00,-2.101989269256591797e+00,-2.365137338638305664e-01
1.130320310592651367e+00,-1.098632454872131348e+00,1.317298173904418945e+00,1.704237103462219238e+00,2.106846332550048828e+00,-2.101912975311279297e+00,-2.462006807327270508e-01
1.133547782897949219e+00,-1.101963400840759277e+00,1.320457816123962402e+00,1.700123667716979980e+00,2.102182865142822266e+00,-2.101757526397705078e+00,-2.559643983840942383e-01
1.136599540710449219e+00,-1.105137944221496582e+00,1.323238492012023926e+00,1.695849299430847168e+00,2.097505807876586914e+00,-2.101531028747558594e+00,-2.658423781394958496e-01
1.139552474021911621e+00,-1.108248472213745117e+00,1.326341629028320312e+00,1.691316843032836914e+00,2.092778921127319336e+00,-2.101380348205566406e+00,-2.752240300178527832e-01
1.142510414123535156e+00,-1.111393570899963379e+00,1.329999208450317383e+00,1.686666250228881836e+00,2.088004827499389648e+00,-2.101311922073364258e+00,-2.841990888118743896e-01
1.145482063293457031e+00,-1.114607691764831543e+00,1.333484649658203125e+00,1.682069063186645508e+00,2.083181381225585938e+00,-2.101211547851562500e+00,-2.933809161186218262e-01
1.148366451263427734e+00,-1.117905378341674805e+00,1.336541175842285156e+00,1.677580952644348145e+00,2.078351736068725586e+00,-2.100998401641845703e+00,-3.028670847415924072e-01
1.151000499725341797e+00,-1.121225476264953613e+00,1.325876832008361816e+00,1.671455264091491699e+00,2.073872566223144531e+00,-2.099533796310424805e+00,-3.071547746658325195e-01
1.153575897216796875e+00,-1.124495744705200195e+00,1.284909367561340332e+00,1.666701436042785645e+00,2.068914890289306641e+00,-2.098368883132934570e+00,-3.047110140323638916e-01
1.156188845634460449e+00,-1.127741575241088867e+00,1.284537315368652344e+00,1.661859512329101562e+00,2.063796281814575195e+00,-2.092202186584472656e+00,-2.291120588779449463e-01
1.158887505531311035e+00,-1.130984783172607422e+00,1.287907481193542480e+00,1.656594038009643555e+00,2.058468818664550781e+00,-2.003239631652832031e+00,-2.281114906072616577e-01
1.161682128906250000e+00,-1.134262681007385254e+00,1.291829228401184082e+00,1.652111887931823730e+00,2.053250551223754883e+00,-1.982698917388916016e+00,-2.369311302900314331e-01
1.164492845535278320e+00,-1.137609720230102539e+00,1.295343756675720215e+00,1.647469282150268555e+00,2.048271656036376953e+00,-1.981992125511169434e+00,-2.462601065635681152e-01
1.167338252067565918e+00,-1.140943527221679688e+00,1.298281073570251465e+00,1.642763137817382812e+00,2.043325424194335938e+00,-1.981970906257629395e+00,-2.552973628044128418e-01
1.170258879661560059e+00,-1.144159197807312012e+00,1.300665616989135742e+00,1.638023853302001953e+00,2.038341522216796875e+00,-1.981969356536865234e+00,-2.633996903896331787e-01
1.173277854919433594e+00,-1.147276043891906738e+00,1.302520990371704102e+00,1.633311510086059570e+00,2.033296823501586914e+00,-1.981812953948974609e+00,-2.699343562126159668e-01
1.176406145095825195e+00,-1.150318861007690430e+00,1.303673863410949707e+00,1.628731966018676758e+00,2.028162479400634766e+00,-1.981062650680541992e+00,-2.744031846523284912e-01
1.179654717445373535e+00,-1.153244733810424805e+00,1.303879737854003906e+00,1.625014781951904297e+00,2.022948980331420898e+00,-1.979207634925842285e+00,-2.764198780059814453e-01
1.183016657829284668e+00,-1.155999541282653809e+00,1.303223967552185059e+00,1.623394012451171875e+00,2.017659187316894531e+00,-1.976012825965881348e+00,-2.760164141654968262e-01
1.186445832252502441e+00,-1.158456921577453613e+00,1.301864743232727051e+00,1.626916885375976562e+00,2.012299537658691406e+00,-1.971603989601135254e+00,-2.735321521759033203e-01
1.189853191375732422e+00,-1.160546302795410156e+00,1.299734711647033691e+00,1.674290180206298828e+00,2.006864070892333984e+00,-1.966113924980163574e+00,-2.695086300373077393e-01
1.193085193634033203e+00,-1.162248373031616211e+00,1.296802043914794922e+00,1.683792352676391602e+00,2.001500129699707031e+00,-1.959959745407104492e+00,-2.646429836750030518e-01
1.196207761764526367e+00,-1.163651227951049805e+00,1.294009327888488770e+00,1.679169178009033203e+00,1.996008396148681641e+00,-1.953796982765197754e+00,-2.598239183425903320e-01
1.199295759201049805e+00,-1.164910912513732910e+00,1.291349172592163086e+00,1.673761010169982910e+00,1.990401148796081543e+00,-1.948089718818664551e+00,-2.556702494621276855e-01
1.202432513236999512e+00,-1.166240334510803223e+00,1.288889646530151367e+00,1.668161630630493164e+00,1.984739303588867188e+00,-1.942603111267089844e+00,-2.525345683097839355e-01
1.205596566200256348e+00,-1.167800426483154297e+00,1.286710619926452637e+00,1.662292599678039551e+00,1.979078531265258789e+00,-1.937130808830261230e+00,-2.504928112030029297e-01
1.208652019500732422e+00,-1.169657468795776367e+00,1.284664630889892578e+00,1.657639265060424805e+00,1.973451733589172363e+00,-1.931403875350952148e+00,-2.493838667869567871e-01
1.211506009101867676e+00,-1.171812891960144043e+00,1.282680511474609375e+00,1.654508352279663086e+00,1.967897415161132812e+00,-1.925549983978271484e+00,-2.487080842256546021e-01
1.214206695556640625e+00,-1.174229383468627930e+00,1.280849099159240723e+00,1.648902654647827148e+00,1.962368965148925781e+00,-1.919596552848815918e+00,-2.477325201034545898e-01
1.216900110244750977e+00,-1.176822543144226074e+00,1.279370427131652832e+00,1.590077519416809082e+00,1.956847667694091797e+00,-1.913804769515991211e+00,-2.460320889949798584e-01
1.219717979431152344e+00,-1.179462671279907227e+00,1.332389473915100098e+00,1.570502042770385742e+00,1.951239466667175293e+00,-1.908426046371459961e+00,-2.434448003768920898e-01
1.222550153732299805e+00,-1.182002305984497070e+00,1.342027544975280762e+00,1.570051431655883789e+00,1.945774435997009277e+00,-1.932077050209045410e+00,-2.401549369096755981e-01
1.225316882133483887e+00,-1.184340238571166992e+00,1.339891076087951660e+00,1.571258425712585449e+00,1.940459728240966797e+00,-2.003973484039306641e+00,-2.363270372152328491e-01
1.227874159812927246e+00,-1.186448454856872559e+00,1.337358117103576660e+00,1.573296904563903809e+00,1.935708045959472656e+00,-2.002819776535034180e+00,-2.326294481754302979e-01
1.230135679244995117e+00,-1.188348054885864258e+00,1.334745526313781738e+00,1.575991868972778320e+00,1.930336117744445801e+00,-1.995960354804992676e+00,-2.285677343606948853e-01
1.232099533081054688e+00,-1.190199971199035645e+00,1.332120180130004883e+00,1.578872084617614746e+00,1.924809098243713379e+00,-1.989002108573913574e+00,-2.244777530431747437e-01
1.233858942985534668e+00,-1.192133426666259766e+00,1.329713344573974609e+00,1.581785202026367188e+00,1.919262170791625977e+00,-1.982388138771057129e+00,-2.203113138675689697e-01
1.235541820526123047e+00,-1.194212198257446289e+00,1.327601075172424316e+00,1.584564208984375000e+00,1.913676619529724121e+00,-1.976534485816955566e+00,-2.160205841064453125e-01
1.237268686294555664e+00,-1.196444749832153320e+00,1.325816392898559570e+00,1.586944103240966797e+00,1.908051729202270508e+00,-1.972029447555541992e+00,-2.115698307752609253e-01
1.239127755165100098e+00,-1.198875308036804199e+00,1.324509739875793457e+00,1.588743448257446289e+00,1.902462124824523926e+00,-1.969358086585998535e+00,-2.069624215364456177e-01
1.241193771362304688e+00,-1.201504111289978027e+00,1.323865652084350586e+00,1.589784622192382812e+00,1.897019743919372559e+00,-1.968579888343811035e+00,-2.022189646959304810e-01
1.243500351905822754e+00,-1.204378843307495117e+00,1.323929071426391602e+00,1.589925289154052734e+00,1.891609668731689453e+00,-1.969556212425231934e+00,-1.973291188478469849e-01
1.246005535125732422e+00,-1.207694768905639648e+00,1.324614882469177246e+00,1.589217782020568848e+00,1.886061072349548340e+00,-1.972047090530395508e+00,-1.923016309738159180e-01
1.248658180236816406e+00,-1.211558938026428223e+00,1.325873851776123047e+00,1.587732672691345215e+00,1.880415320396423340e+00,-1.975669741630554199e+00,-1.871280819177627563e-01
1.251423835754394531e+00,-1.215831041336059570e+00,1.327588677406311035e+00,1.585470676422119141e+00,1.874806761741638184e+00,-1.979901313781738281e+00,-1.818688213825225830e-01
1.254257917404174805e+00,-1.220231056213378906e+00,1.329342484474182129e+00,1.582476139068603516e+00,1.869295120239257812e+00,-1.983981370925903320e+00,-1.765248477458953857e-01
1.257141232490539551e+00,-1.224548816680908203e+00,1.330021977424621582e+00,1.578891873359680176e+00,1.863833189010620117e+00,-1.987621545791625977e+00,-1.710574328899383545e-01
1.260102391242980957e+00,-1.228839397430419922e+00,1.325941562652587891e+00,1.574616551399230957e+00,1.858214974403381348e+00,-1.990638136863708496e+00,-1.654346883296966553e-01
1.263154149055480957e+00,-1.233062863349914551e+00,1.279305815696716309e+00,1.570055603981018066e+00,1.852488398551940918e+00,-1.993071317672729492e+00,-1.596582978963851929e-01
1.266255617141723633e+00,-1.237046241760253906e+00,1.275624394416809082e+00,1.565695524215698242e+00,1.846410751342773438e+00,-1.993308544158935547e+00,-1.535681337118148804e-01
1.269298315048217773e+00,-1.240657567977905273e+00,1.278019666671752930e+00,1.561219215393066406e+00,1.840729594230651855e+00,-1.994932651519775391e+00,-1.475853323936462402e-01
1.272212028503417969e+00,-1.243906497955322266e+00,1.280397057533264160e+00,1.557238459587097168e+00,1.835167527198791504e+00,-1.997549176216125488e+00,-1.415364444255828857e-01
1.274996042251586914e+00,-1.246880054473876953e+00,1.282667756080627441e+00,1.553395986557006836e+00,1.829563856124877930e+00,-2.000618696212768555e+00,-1.353755891323089600e-01
1.277725219726562500e+00,-1.249615907669067383e+00,1.284554719924926758e+00,1.549597978591918945e+00,1.823889017105102539e+00,-2.004186391830444336e+00,-1.291188895702362061e-01
1.280483841896057129e+00,-1.252310276031494141e+00,1.285825848579406738e+00,1.545565843582153320e+00,1.818076968193054199e+00,-2.008076906204223633e+00,-1.227825507521629333e-01
1.283341050148010254e+00,-1.255080342292785645e+00,1.286366939544677734e+00,1.541361689567565918e+00,1.812194466590881348e+00,-2.012049436569213867e+00,-1.163506954908370972e-01
1.286332130432128906e+00,-1.257800459861755371e+00,1.286135673522949219e+00,1.536523938179016113e+00,1.806298732757568359e+00,-2.016262292861938477e+00,-1.098279654979705811e-01
1.289465427398681641e+00,-1.260284543037414551e+00,1.285068035125732422e+00,1.532596468925476074e+00,1.800420880317687988e+00,-2.020392417907714844e+00,-1.032482832670211792e-01
1.292711019515991211e+00,-1.262494564056396484e+00,1.283235907554626465e+00,1.529859900474548340e+00,1.794547438621520996e+00,-2.024280309677124023e+00,-9.658592939376831055e-02
1.296062588691711426e+00,-1.264489173889160156e+00,1.280848741531372070e+00,1.526955842971801758e+00,1.788622140884399414e+00,-2.028214931488037109e+00,-8.980749547481536865e-02
1.299503922462463379e+00,-1.266283750534057617e+00,1.278049945831298828e+00,1.520207643508911133e+00,1.782631397247314453e+00,-2.032306432723999023e+00,-8.291560411453247070e-02
1.302995443344116211e+00,-1.267925977706909180e+00,1.275010585784912109e+00,1.511975526809692383e+00,1.776455402374267578e+00,-2.035602807998657227e+00,-7.593035697937011719e-02
1.306399941444396973e+00,-1.269463539123535156e+00,1.271867871284484863e+00,1.507254481315612793e+00,1.770326972007751465e+00,-2.036903619766235352e+00,-6.887376308441162109e-02
1.309602141380310059e+00,-1.270994186401367188e+00,1.268767118453979492e+00,1.504568576812744141e+00,1.764197826385498047e+00,-2.029722213745117188e+00,-6.173699349164962769e-02
1.312628746032714844e+00,-1.272593021392822266e+00,1.265835523605346680e+00,1.506056547164916992e+00,1.758013606071472168e+00,-1.960222244262695312e+00,-5.446829274296760559e-02
1.315624475479125977e+00,-1.274360895156860352e+00,1.263308882713317871e+00,1.569314479827880859e+00,1.751425862312316895e+00,-1.945193886756896973e+00,-4.682893306016921997e-02
1.318438410758972168e+00,-1.276227831840515137e+00,1.260203123092651367e+00,1.570905327796936035e+00,1.745575785636901855e+00,-1.948989868164062500e+00,-3.941035643219947815e-02
1.321503281593322754e+00,-1.278494358062744141e+00,1.257676124572753906e+00,1.566325426101684570e+00,1.739522814750671387e+00,-1.953484654426574707e+00,-3.203671425580978394e-02
1.324711203575134277e+00,-1.281040906906127930e+00,1.255120754241943359e+00,1.561448335647583008e+00,1.733379960060119629e+00,-1.957606554031372070e+00,-2.461996302008628845e-02
1.328012228012084961e+00,-1.283912539482116699e+00,1.252298593521118164e+00,1.556606531143188477e+00,1.727225422859191895e+00,-1.960730671882629395e+00,-1.713143289089202881e-02
1.331357479095458984e+00,-1.287099480628967285e+00,1.249275207519531250e+00,1.551911592483520508e+00,1.721052527427673340e+00,-1.962437510490417480e+00,-9.571205824613571167e-03
1.334739804267883301e+00,-1.290352463722229004e+00,1.246232509613037109e+00,1.547434091567993164e+00,1.714924931526184082e+00,-1.962509870529174805e+00,-1.940961927175521851e-03
1.338076829910278320e+00,-1.293282508850097656e+00,1.243211269378662109e+00,1.543372154235839844e+00,1.708806514739990234e+00,-1.960983872413635254e+00,5.767844617366790771e-03
1.341231226921081543e+00,-1.295796275138854980e+00,1.240148186683654785e+00,1.539911270141601562e+00,1.702660202980041504e+00,-1.957912445068359375e+00,1.356326788663864136e-02
1.344114184379577637e+00,-1.297959923744201660e+00,1.236979126930236816e+00,1.537194490432739258e+00,1.696532964706420898e+00,-1.953383803367614746e+00,2.141213789582252502e-02
1.346717596054077148e+00,-1.299905300140380859e+00,1.233830809593200684e+00,1.534827232360839844e+00,1.690382480621337891e+00,-1.947883367538452148e+00,2.933162823319435120e-02
1.349086403846740723e+00,-1.301711797714233398e+00,1.231062412261962891e+00,1.531115651130676270e+00,1.684283137321472168e+00,-1.942126393318176270e+00,3.730852156877517700e-02
1.351258516311645508e+00,-1.303529500961303711e+00,1.229782104492187500e+00,1.519073963165283203e+00,1.678190588951110840e+00,-1.936576604843139648e+00,4.531906545162200928e-02
1.353254675865173340e+00,-1.305483222007751465e+00,1.284013748168945312e+00,1.460478305816650391e+00,1.671966195106506348e+00,-1.931555509567260742e+00,5.337315425276756287e-02
1.355097889900207520e+00,-1.307634711265563965e+00,1.286794662475585938e+00,1.456253051757812500e+00,1.665554404258728027e+00,-1.928289771080017090e+00,6.136905029416084290e-02
1.356725215911865234e+00,-1.309929013252258301e+00,1.283010482788085938e+00,1.458675622940063477e+00,1.659441113471984863e+00,-1.924126744270324707e+00,6.948174536228179932e-02
1.358285546302795410e+00,-1.312299728393554688e+00,1.279096603393554688e+00,1.461597442626953125e+00,1.653426885604858398e+00,-1.919705748558044434e+00,7.763618230819702148e-02
1.359928727149963379e+00,-1.314645648002624512e+00,1.275344848632812500e+00,1.464669704437255859e+00,1.647423744201660156e+00,-1.915144920349121094e+00,8.584047108888626099e-02
1.361720204353332520e+00,-1.316929221153259277e+00,1.271978020668029785e+00,1.467676043510437012e+00,1.641446709632873535e+00,-1.910236477851867676e+00,9.407639503479003906e-02
1.363574743270874023e+00,-1.319145679473876953e+00,1.269147157669067383e+00,1.470404624938964844e+00,1.635472059249877930e+00,-1.904759049415588379e+00,1.023482829332351685e-01
1.365378618240356445e+00,-1.321415424346923828e+00,1.266911268234252930e+00,1.472656726837158203e+00,1.629437446594238281e+00,-1.898654818534851074e+00,1.106521189212799072e-01
1.367119550704956055e+00,-1.323953866958618164e+00,1.265250682830810547e+00,1.474270462989807129e+00,1.623388767242431641e+00,-1.892178416252136230e+00,1.189810335636138916e-01
1.368906021118164062e+00,-1.326861381530761719e+00,1.264315485954284668e+00,1.475130796432495117e+00,1.617308855056762695e+00,-1.885900616645812988e+00,1.273626536130905151e-01
1.370888948440551758e+00,-1.330112576484680176e+00,1.264264106750488281e+00,1.475148439407348633e+00,1.611277341842651367e+00,-1.879907488822937012e+00,1.357816904783248901e-01
1.373171448707580566e+00,-1.333731651306152344e+00,1.265055894851684570e+00,1.474196434020996094e+00,1.605206251144409180e+00,-1.874065041542053223e+00,1.442414075136184692e-01
1.375711679458618164e+00,-1.337675452232360840e+00,1.266570925712585449e+00,1.472525715827941895e+00,1.599126338958740234e+00,-1.868273258209228516e+00,1.527185440063476562e-01
1.378417372703552246e+00,-1.341801404953002930e+00,1.268545866012573242e+00,1.470494270324707031e+00,1.593084335327148438e+00,-1.862039685249328613e+00,1.612025499343872070e-01
1.381225585937500000e+00,-1.346121311187744141e+00,1.270666360855102539e+00,1.469201445579528809e+00,1.587024092674255371e+00,-1.855546236038208008e+00,1.697196960449218750e-01
1.384134292602539062e+00,-1.350646138191223145e+00,1.272902965545654297e+00,1.468038558959960938e+00,1.580910205841064453e+00,-1.849019885063171387e+00,1.783024519681930542e-01
1.387115597724914551e+00,-1.355198740959167480e+00,1.275048851966857910e+00,1.470100998878479004e+00,1.574833989143371582e+00,-1.842768073081970215e+00,1.869212687015533447e-01
1.390057325363159180e+00,-1.359525561332702637e+00,1.275593042373657227e+00,1.521548867225646973e+00,1.568870663642883301e+00,-1.836610317230224609e+00,1.955430209636688232e-01
1.392663240432739258e+00,-1.363439321517944336e+00,1.216873168945312500e+00,1.531536698341369629e+00,1.563569545745849609e+00,-1.829023718833923340e+00,2.042162716388702393e-01
1.395432829856872559e+00,-1.367072582244873047e+00,1.217273950576782227e+00,1.527778387069702148e+00,1.557745218276977539e+00,-1.818970799446105957e+00,2.130150496959686279e-01
1.398225307464599609e+00,-1.370409965515136719e+00,1.219413876533508301e+00,1.523574590682983398e+00,1.551978826522827148e+00,-1.812173008918762207e+00,2.217371910810470581e-01
1.401145219802856445e+00,-1.373369932174682617e+00,1.221469163894653320e+00,1.519600152969360352e+00,1.546452283859252930e+00,-1.806061983108520508e+00,2.304891496896743774e-01
1.404160261154174805e+00,-1.376019477844238281e+00,1.223541498184204102e+00,1.515840649604797363e+00,1.540922045707702637e+00,-1.800041913986206055e+00,2.392791658639907837e-01
1.407079219818115234e+00,-1.378480792045593262e+00,1.225595593452453613e+00,1.512577891349792480e+00,1.535184502601623535e+00,-1.793686747550964355e+00,2.480964660644531250e-01
1.409727692604064941e+00,-1.380887389183044434e+00,1.227496504783630371e+00,1.509334683418273926e+00,1.528627395629882812e+00,-1.786560297012329102e+00,2.569380700588226318e-01
1.412171840667724609e+00,-1.383393168449401855e+00,1.229284286499023438e+00,1.501126408576965332e+00,1.521647334098815918e+00,-1.779310941696166992e+00,2.658101916313171387e-01
1.414590239524841309e+00,-1.386063337326049805e+00,1.232906103134155273e+00,1.434336543083190918e+00,1.514733672142028809e+00,-1.773045778274536133e+00,2.747041285037994385e-01
1.417169213294982910e+00,-1.388883233070373535e+00,1.296281337738037109e+00,1.429034471511840820e+00,1.507257223129272461e+00,-1.769214630126953125e+00,2.835825979709625244e-01
