Afshin1997/kuka_rl_ros2/src/catch_and_throw/output_files/tm/nn_ema7.00_jvws1_realball_D25H16M18S50/recorded_data.csv
pure_target_joint_0,pure_target_joint_1,pure_target_joint_2,pure_target_joint_3,pure_target_joint_4,pure_target_joint_5,pure_target_joint_6,target_joint_0,target_joint_1,target_joint_2,target_joint_3,target_joint_4,target_joint_5,target_joint_6,pos_joint_0,pos_joint_1,pos_joint_2,pos_joint_3,pos_joint_4,pos_joint_5,pos_joint_6,vel_joint_0,vel_joint_1,vel_joint_2,vel_joint_3,vel_joint_4,vel_joint_5,vel_joint_6,vel_smooth_joint_0,vel_smooth_joint_1,vel_smooth_joint_2,vel_smooth_joint_3,vel_smooth_joint_4,vel_smooth_joint_5,vel_smooth_joint_6,ee_pos_x,ee_pos_y,ee_pos_z,ee_or_w,ee_or_x,ee_or_y,ee_or_z,ee_vel_x,ee_vel_y,ee_vel_z,ball_pos_x,ball_pos_y,ball_pos_z,ball_raw_vx,ball_raw_vy,ball_raw_vz,ball_ema_vx,ball_ema_vy,ball_ema_vz,action_0,action_1,action_2,action_3,action_4,action_5,action_6,command_published
1.71921,-1.02858,-1.83644,-1.0664,1.99467,1.18897,-0.918585,1.71921,-1.02858,-1.83644,-1.0664,1.99467,1.18897,-0.918585,1.78076,-1.07386,-1.81936,-1.1217,1.93724,1.11686,-0.916258,0,0,-1.1977e-05,1.19989e-05,0,7.19059e-05,0,0,0,-1.1977e-05,1.19989e-05,0,7.19059e-05,0,0.534387,-0.456316,0.688868,0.572165,0.180655,0.151599,0.785499,-8.92841e-06,-3.44049e-06,2.38005e-06,2.9767,-0.512204,0.445887,-3.0736,-0.134242,5.64503,-3.0736,-0.189659,5.64503,-0.615501,0.452819,-0.170806,0.553003,0.574253,0.721131,-0.0232667,1
1.72081,-1.03095,-1.83658,-1.06529,1.99733,1.18864,-0.915674,1.72081,-1.03095,-1.83658,-1.06529,1.99733,1.18864,-0.915674,1.78076,-1.07386,-1.81936,-1.1217,1.93724,1.11686,-0.916258,0,0,0,-2.39759e-05,0,0,2.39541e-05,0,0,0,-2.39759e-05,0,0,2.39541e-05,0.534387,-0.456316,0.688868,0.572165,0.180655,0.151599,0.785499,3.73623e-06,8.58099e-06,-5.70069e-06,2.94562,-0.513385,0.500794,-3.10817,-0.118071,5.49064,-3.10817,-0.186189,5.49064,-0.599554,0.429131,-0.172186,0.564101,0.600916,0.717755,0.00583398,1
1.72264,-1.03334,-1.83661,-1.06386,1.99725,1.18874,-0.918553,1.72264,-1.03334,-1.83661,-1.06386,1.99725,1.18874,-0.918553,1.78073,-1.07386,-1.81944,-1.12158,1.93733,1.11698,-0.916302,-0.00713044,-3.5953e-05,-0.0157349,0.0230451,0.0179472,0.0231171,-0.00877226,-0.00713044,-3.5953e-05,-0.0157349,0.0230451,0.0179472,0.0231171,-0.00877226,0.534336,-0.456399,0.688878,0.572248,0.18062,0.151545,0.785457,-0.00916959,-0.0157866,0.00143413,2.91502,-0.515154,0.554397,-3.06008,-0.17693,5.36034,-3.06008,-0.176602,5.36034,-0.580907,0.40519,-0.171728,0.577258,0.59918,0.71766,-0.0225146,1
1.71808,-1.01609,-1.81018,-1.07005,2.00498,1.18907,-0.923228,1.71808,-1.01609,-1.81018,-1.07005,2.00498,1.18907,-0.923228,1.78003,-1.07375,-1.82103,-1.11936,1.94067,1.12061,-0.916467,-0.0916053,0.0213554,-0.218611,0.306837,0.495369,0.540728,-0.0178561,-0.0916053,0.0213554,-0.218611,0.306837,0.495369,0.540728,-0.0178561,0.533066,-0.458128,0.689256,0.573543,0.179566,0.14958,0.785131,-0.155652,-0.220227,0.0455195,2.88331,-0.517082,0.607748,-3.17109,-0.192803,5.33506,-3.17109,-0.167856,5.33506,-0.619493,0.576555,0.108535,0.493052,0.643174,0.684592,-0.0676149,1
1.71518,-1.00735,-1.79018,-1.09539,2.02068,1.19032,-0.932258,1.71518,-1.00735,-1.79018,-1.09539,2.02068,1.19032,-0.932258,1.77975,-1.07304,-1.8247,-1.11422,1.95172,1.13276,-0.916494,0.00941939,0.0880581,-0.409791,0.579064,1.30347,1.43706,0.00748997,0.00941939,0.0880581,-0.409791,0.579064,1.30347,1.43706,0.00748997,0.529988,-0.461503,0.690723,0.575794,0.175626,0.143227,0.785559,-0.273821,-0.326723,0.141215,2.85263,-0.519252,0.659985,-3.06756,-0.216991,5.22376,-3.06756,-0.164745,5.22376,-0.645693,0.656925,0.345211,0.188367,0.689667,0.575584,-0.157639,1
1.71807,-1.00394,-1.78637,-1.12464,2.0404,1.20595,-0.926881,1.71807,-1.00394,-1.78637,-1.12464,2.0404,1.20595,-0.926881,1.78057,-1.07155,-1.8298,-1.10613,1.96859,1.15091,-0.916649,0.10287,0.168794,-0.526731,0.880784,1.76791,1.89249,-0.0296723,0.10287,0.168794,-0.526731,0.880784,1.76791,1.89249,-0.0296723,0.525724,-0.465837,0.693373,0.578869,0.169233,0.133662,0.786388,-0.351501,-0.409314,0.245792,2.82201,-0.520999,0.71085,-3.06251,-0.174701,5.08642,-3.06251,-0.172162,5.08642,-0.625041,0.67608,0.434265,-0.185098,0.718061,0.550486,-0.102324,1
1.72547,-1.00127,-1.78361,-1.09489,2.05748,1.22897,-0.94151,1.72547,-1.00127,-1.78361,-1.09489,2.05748,1.22897,-0.94151,1.78223,-1.06945,-1.83309,-1.09678,1.98589,1.16843,-0.917774,0.175529,0.216538,-0.237857,0.915562,1.68491,1.673,-0.143748,0.175529,0.216538,-0.237857,0.915562,1.68491,1.673,-0.143748,0.521394,-0.469696,0.697251,0.582249,0.161912,0.123635,0.787074,-0.320291,-0.31347,0.364899,2.79123,-0.52297,0.760799,-3.07708,-0.197083,4.99499,-3.07708,-0.184371,4.99499,-0.567604,0.681781,0.494744,0.0188458,0.715881,0.605352,-0.237354,1
1.72751,-1.00106,-1.78815,-1.06007,2.07161,1.24788,-0.938063,1.72751,-1.00106,-1.78815,-1.06007,2.07161,1.24788,-0.938063,1.7828,-1.06747,-1.83244,-1.08976,2.00133,1.18138,-0.920553,-0.000695061,0.194176,0.174966,0.620002,1.50835,1.17439,-0.324921,-0.000695061,0.194176,0.174966,0.620002,1.50835,1.17439,-0.324921,0.517387,-0.47257,0.701495,0.585199,0.155606,0.114334,0.787564,-0.314307,-0.232454,0.392538,2.76053,-0.525346,0.809234,-3.07038,-0.237614,4.84347,-3.07038,-0.197972,4.84347,-0.552971,0.664086,0.442907,0.29684,0.702854,0.665077,-0.175106,1
1.72093,-1.00165,-1.80114,-1.04376,2.08299,1.26069,-0.933465,1.72093,-1.00165,-1.80114,-1.04376,2.08299,1.26069,-0.933465,1.78073,-1.06535,-1.82698,-1.08742,2.01627,1.19102,-0.923739,-0.279214,0.219702,0.663084,0.0947451,1.50609,0.92135,-0.301624,-0.279214,0.219702,0.663084,0.0947451,1.50609,0.92135,-0.301624,0.513106,-0.474361,0.706087,0.586771,0.15026,0.104905,0.788744,-0.353868,-0.106182,0.431216,2.73061,-0.527657,0.856244,-2.99201,-0.231093,4.70098,-2.99201,-0.206265,4.70098,-0.597991,0.636958,0.258493,0.436624,0.667149,0.696692,-0.0972678,1
1.71027,-0.99899,-1.81465,-1.04017,2.09441,1.27125,-0.934671,1.71027,-0.99899,-1.81465,-1.04017,2.09441,1.27125,-0.934671,1.77512,-1.0627,-1.81801,-1.08991,2.03213,1.20039,-0.927867,-0.660555,0.27955,0.953527,-0.340104,1.61833,0.968866,-0.463347,-0.660555,0.27955,0.953527,-0.340104,1.61833,0.968866,-0.463347,0.507728,-0.475617,0.710957,0.58768,0.145004,0.09478,0.790331,-0.487331,-0.0848269,0.457622,2.70049,-0.529349,0.903242,-3.01242,-0.169176,4.69979,-3.01242,-0.206988,4.69979,-0.648434,0.637059,0.0335889,0.497354,0.62284,0.708562,-0.0680373,1
1.69883,-0.992875,-1.82878,-1.04426,2.10751,1.28201,-0.943444,1.69883,-0.992875,-1.82878,-1.04426,2.10751,1.28201,-0.943444,1.7665,-1.0595,-1.80856,-1.09445,2.04857,1.21129,-0.93306,-0.901241,0.329163,0.914208,-0.461478,1.64412,1.12927,-0.505171,-0.901241,0.329163,0.914208,-0.461478,1.64412,1.12927,-0.505171,0.500962,-0.477381,0.715806,0.589357,0.139285,0.0843808,0.791288,-0.60224,-0.144916,0.443543,2.66959,-0.531079,0.949581,-3.08933,-0.172997,4.63387,-3.08933,-0.203094,4.63387,-0.676645,0.666225,-0.202213,0.501846,0.589373,0.707192,-0.103846,1
1.69414,-0.985651,-1.81355,-1.05717,2.12554,1.29286,-0.954417,1.69414,-0.985651,-1.81355,-1.05717,2.12554,1.29286,-0.954417,1.75827,-1.05555,-1.80179,-1.09794,2.06421,1.22383,-0.936501,-0.777603,0.423705,0.580646,-0.275355,1.53136,1.30331,-0.278411,-0.777603,0.423705,0.580646,-0.275355,1.53136,1.30331,-0.278411,0.494112,-0.479254,0.720375,0.591146,0.133068,0.0748853,0.791979,-0.583555,-0.152307,0.426469,2.63899,-0.533215,0.994633,-3.06034,-0.213629,4.50524,-3.06034,-0.2031,4.50524,-0.641285,0.699018,-0.117608,0.407643,0.613244,0.690333,-0.17916,1
1.68486,-0.976389,-1.80936,-1.06442,2.14265,1.30147,-0.957951,1.68486,-0.976389,-1.80936,-1.06442,2.14265,1.30147,-0.957951,1.75131,-1.05036,-1.80002,-1.09684,2.07876,1.23813,-0.938001,-0.676538,0.548004,0.0430005,0.26354,1.43872,1.46593,-0.12114,-0.676538,0.548004,0.0430005,0.26354,1.43872,1.46593,-0.12114,0.487007,-0.482164,0.725011,0.594392,0.125962,0.0667419,0.79144,-0.634382,-0.314828,0.441196,2.60888,-0.5356,1.03857,-3.01087,-0.238448,4.39323,-3.01087,-0.203744,4.39323,-0.66444,0.739701,-0.0934042,0.324227,0.638913,0.63341,-0.199494,1
1.67701,-0.968449,-1.81243,-1.06701,2.15841,1.31115,-0.959737,1.67701,-0.968449,-1.81243,-1.06701,2.15841,1.31115,-0.959737,1.7456,-1.04451,-1.80285,-1.08986,2.09263,1.2539,-0.939555,-0.527427,0.592934,-0.390971,0.823924,1.37333,1.59872,-0.173883,-0.527427,0.592934,-0.390971,0.823924,1.37333,1.59872,-0.173883,0.479345,-0.486701,0.729855,0.60019,0.117827,0.0594518,0.788894,-0.671796,-0.466203,0.455175,2.57826,-0.537593,1.08219,-3.06251,-0.199395,4.36283,-3.06251,-0.201762,4.36283,-0.685985,0.760575,-0.0957491,0.228564,0.657729,0.572542,-0.201819,1
1.67366,-0.960401,-1.82449,-1.05164,2.16994,1.32622,-0.964941,1.67366,-0.960401,-1.82449,-1.05164,2.16994,1.32622,-0.964941,1.74191,-1.03752,-1.80916,-1.0798,2.10635,1.26962,-0.942424,-0.315457,0.743136,-0.67075,1.02571,1.37628,1.55294,-0.339078,-0.315457,0.743136,-0.67075,1.02571,1.37628,1.55294,-0.339078,0.472108,-0.491291,0.734882,0.607459,0.10941,0.0533978,0.784966,-0.609999,-0.41908,0.495785,2.54744,-0.539368,1.12396,-3.08197,-0.177419,4.17709,-3.08197,-0.200507,4.17709,-0.682555,0.771228,-0.153336,0.28163,0.635903,0.565987,-0.225168,1
1.67238,-0.951828,-1.83218,-1.0378,2.1828,1.34489,-0.970287,1.67238,-0.951828,-1.83218,-1.0378,2.1828,1.34489,-0.970287,1.73885,-1.02902,-1.81433,-1.07144,2.12067,1.28424,-0.947107,-0.334895,0.871934,-0.457389,0.736904,1.4572,1.42722,-0.499143,-0.334895,0.871934,-0.457389,0.736904,1.4572,1.42722,-0.499143,0.46539,-0.494236,0.740683,0.614331,0.100884,0.0478153,0.78111,-0.576206,-0.254714,0.565319,2.51694,-0.540907,1.16402,-3.04949,-0.153923,4.00553,-3.04949,-0.198681,4.00553,-0.664631,0.771942,-0.178459,0.336364,0.621256,0.606512,-0.2318,1
1.66458,-0.94368,-1.84535,-1.02958,2.19757,1.35823,-0.976818,1.66458,-0.94368,-1.84535,-1.02958,2.19757,1.35823,-0.976818,1.73356,-1.02078,-1.81738,-1.06746,2.1362,1.29751,-0.952339,-0.606477,0.813557,-0.269496,0.29277,1.58938,1.28783,-0.521303,-0.606477,0.813557,-0.269496,0.29277,1.58938,1.28783,-0.521303,0.458502,-0.496699,0.745889,0.620173,0.0936084,0.0417101,0.777742,-0.617364,-0.238184,0.48045,2.48619,-0.54273,1.20339,-3.07479,-0.182265,3.93689,-3.07479,-0.19323,3.93689,-0.689795,0.771038,-0.279621,0.378855,0.613738,0.607176,-0.244793,1
1.6551,-0.93437,-1.8545,-1.02623,2.21217,1.37023,-0.985385,1.6551,-0.93437,-1.8545,-1.02623,2.21217,1.37023,-0.985385,1.72524,-1.01161,-1.81983,-1.06653,2.15269,1.31028,-0.957549,-0.894297,0.964982,-0.228377,0.0528158,1.65849,1.2839,-0.520739,-0.894297,0.964982,-0.228377,0.0528158,1.65849,1.2839,-0.520739,0.450689,-0.499205,0.75101,0.62596,0.0869269,0.0356549,0.774175,-0.724961,-0.228943,0.516377,2.45573,-0.545094,1.24233,-3.04675,-0.236487,3.89376,-3.04675,-0.190042,3.89376,-0.701336,0.772412,-0.346617,0.402963,0.594799,0.599571,-0.278364,1
1.64328,-0.92424,-1.86444,-1.02004,2.22523,1.38275,-0.992068,1.64328,-0.92424,-1.86444,-1.02004,2.22523,1.38275,-0.992068,1.71525,-1.00133,-1.82232,-1.0657,2.16885,1.32388,-0.962828,-1.02864,1.02578,-0.285651,0.118251,1.59503,1.3933,-0.53131,-1.02864,1.02578,-0.285651,0.118251,1.59503,1.3933,-0.53131,0.441864,-0.501718,0.756679,0.632418,0.0794056,0.0299899,0.769962,-0.819303,-0.267607,0.54572,2.42544,-0.547026,1.27997,-3.02892,-0.193137,3.76388,-3.02892,-0.188009,3.76388,-0.719702,0.7709,-0.421188,0.45664,0.563802,0.588642,-0.292407,1
1.6309,-0.914247,-1.87386,-1.01327,2.23861,1.39425,-0.996249,1.6309,-0.914247,-1.87386,-1.01327,2.23861,1.39425,-0.996249,1.70501,-0.991326,-1.82721,-1.06183,2.18388,1.33817,-0.968322,-0.992798,0.982395,-0.543031,0.469973,1.47256,1.43903,-0.557364,-0.992798,0.982395,-0.543031,0.469973,1.47256,1.43903,-0.557364,0.432277,-0.505358,0.762164,0.640532,0.0713558,0.0249771,0.764201,-0.872959,-0.381739,0.528056,2.39474,-0.548838,1.3163,-3.06923,-0.18121,3.63387,-3.06923,-0.190132,3.63387,-0.741189,0.770792,-0.466508,0.485641,0.547283,0.560758,-0.279269,1
1.62199,-0.905327,-1.88338,-1.00332,2.25126,1.40725,-1.00178,1.62199,-0.905327,-1.88338,-1.00332,2.25126,1.40725,-1.00178,1.6968,-0.982277,-1.83441,-1.05481,2.19803,1.35269,-0.974381,-0.776933,0.882636,-0.798553,0.779258,1.40058,1.43615,-0.625724,-0.776933,0.882636,-0.798553,0.779258,1.40058,1.43615,-0.625724,0.42307,-0.509448,0.767186,0.649486,0.0631186,0.0204022,0.757475,-0.826421,-0.433815,0.474152,2.36458,-0.550854,1.35163,-3.01607,-0.201583,3.53281,-3.01607,-0.195059,3.53281,-0.748079,0.769493,-0.489723,0.514917,0.532334,0.545557,-0.27404,1
1.61505,-0.897438,-1.89506,-0.991417,2.2606,1.42206,-1.01081,1.61505,-0.897438,-1.89506,-0.991417,2.2606,1.42206,-1.01081,1.68993,-0.974094,-1.84419,-1.04533,2.21186,1.36655,-0.981139,-0.649933,0.806439,-1.01365,0.970411,1.38367,1.36899,-0.688019,-0.649933,0.806439,-1.01365,0.970411,1.38367,1.36899,-0.688019,0.41414,-0.514241,0.77158,0.65935,0.0553747,0.0162969,0.749617,-0.800374,-0.482796,0.420506,2.33403,-0.553081,1.38576,-3.05541,-0.222754,3.41275,-3.05541,-0.201839,3.41275,-0.748726,0.766567,-0.508754,0.539122,0.487401,0.555042,-0.296723,1
1.60982,-0.889529,-1.90643,-0.98015,2.26974,1.43722,-1.02061,1.60982,-0.889529,-1.90643,-0.98015,2.26974,1.43722,-1.02061,1.68433,-0.965982,-1.85489,-1.03608,2.22554,1.3799,-0.98796,-0.547237,0.819154,-1.09199,0.899618,1.35912,1.32632,-0.677857,-0.547237,0.819154,-1.09199,0.899618,1.35912,1.32632,-0.677857,0.405953,-0.518423,0.775644,0.668742,0.0480227,0.0126983,0.741834,-0.734983,-0.41281,0.393234,2.30406,-0.555376,1.41906,-2.99718,-0.229502,3.33055,-2.99718,-0.206221,3.33055,-0.745119,0.764529,-0.515447,0.559289,0.442037,0.573142,-0.326536,1
1.60348,-0.881011,-1.91877,-0.969845,2.27992,1.45,-1.03011,1.60348,-0.881011,-1.91877,-0.969845,2.27992,1.45,-1.03011,1.67845,-0.957324,-1.86606,-1.02739,2.23892,1.39313,-0.994557,-0.60861,0.884913,-1.1146,0.873827,1.32976,1.31367,-0.654631,-0.60861,0.884913,-1.1146,0.873827,1.32976,1.31367,-0.654631,0.39769,-0.522176,0.77979,0.677984,0.0406091,0.00968146,0.73389,-0.770934,-0.387311,0.423407,2.27388,-0.557096,1.45179,-3.01826,-0.171924,3.27257,-3.01826,-0.203384,3.27257,-0.749706,0.763131,-0.527136,0.575417,0.410048,0.56866,-0.355553,1
1.59583,-0.872284,-1.93094,-0.960728,2.29238,1.46195,-1.03715,1.59583,-0.872284,-1.93094,-0.960728,2.29238,1.46195,-1.03715,1.67151,-0.948368,-1.8772,-1.0186,2.2518,1.40633,-1.00124,-0.723711,0.89012,-1.11493,0.877381,1.26944,1.33366,-0.677333,-0.723711,0.89012,-1.11493,0.877381,1.26944,1.33366,-0.677333,0.388757,-0.525927,0.784187,0.687559,0.0328384,0.00701112,0.725352,-0.841881,-0.401319,0.433554,2.24343,-0.558829,1.48351,-3.0448,-0.173396,3.17152,-3.0448,-0.201603,3.17152,-0.756731,0.760844,-0.537402,0.578686,0.405764,0.556233,-0.359155,1
1.58792,-0.863556,-1.94253,-0.952321,2.30305,1.47527,-1.04378,1.58792,-0.863556,-1.94253,-0.952321,2.30305,1.47527,-1.04378,1.66385,-0.939471,-1.88822,-1.00985,2.26358,1.41968,-1.00851,-0.776105,0.896148,-1.10005,0.882858,1.14544,1.34422,-0.745366,-0.776105,0.896148,-1.10005,0.882858,1.14544,1.34422,-0.745366,0.37942,-0.529505,0.788625,0.697452,0.0246971,0.00485471,0.71619,-0.875226,-0.379647,0.448187,2.21346,-0.560874,1.51398,-2.99702,-0.204456,3.04749,-2.99702,-0.200265,3.04749,-0.759309,0.75915,-0.543118,0.575284,0.394668,0.555864,-0.352733,1
1.57957,-0.854709,-1.9537,-0.94318,2.31157,1.48793,-1.05191,1.57957,-0.854709,-1.9537,-0.94318,2.31157,1.48793,-1.05191,1.65565,-0.93044,-1.89918,-1.00035,2.27359,1.43272,-1.01607,-0.839056,0.898221,-1.09736,0.984877,0.959502,1.27981,-0.759495,-0.839056,0.898221,-1.09736,0.984877,0.959502,1.27981,-0.759495,0.369676,-0.532866,0.79339,0.70773,0.016056,0.00358799,0.706291,-0.92611,-0.382448,0.481938,2.18376,-0.562865,1.54376,-2.96943,-0.199133,2.97761,-2.96943,-0.196692,2.97761,-0.7608,0.757311,-0.545201,0.571667,0.379778,0.552025,-0.358333,1
1.57101,-0.846772,-1.96548,-0.931141,2.31383,1.50207,-1.06255,1.57101,-0.846772,-1.96548,-0.931141,2.31383,1.50207,-1.06255,1.647,-0.921841,-1.91024,-0.990286,2.28218,1.44505,-1.02385,-0.859765,0.842292,-1.10603,1.01343,0.837841,1.2155,-0.784338,-0.859765,0.842292,-1.10603,1.01343,0.837841,1.2155,-0.784338,0.359693,-0.536275,0.798076,0.718241,0.00747111,0.00297498,0.695748,-0.937625,-0.384474,0.461559,2.15328,-0.565131,1.57317,-3.04849,-0.226539,2.94119,-3.04849,-0.19609,2.94119,-0.759858,0.750694,-0.552447,0.591442,0.316511,0.570253,-0.386979,1
1.56302,-0.838875,-1.97675,-0.919804,2.3186,1.51606,-1.07202,1.56302,-0.838875,-1.97675,-0.919804,2.3186,1.51606,-1.07202,1.63865,-0.913472,-1.92152,-0.979745,2.29094,1.45729,-1.03213,-0.827564,0.837498,-1.14088,1.07779,0.90499,1.24355,-0.842616,-0.827564,0.837498,-1.14088,1.07779,0.90499,1.24355,-0.842616,0.349661,-0.539533,0.802748,0.728744,-0.00120861,0.0023039,0.684781,-0.954529,-0.371192,0.473278,2.12224,-0.567357,1.60076,-3.10354,-0.222582,2.75935,-3.10354,-0.200169,2.75935,-0.756367,0.74597,-0.55227,0.599418,0.276656,0.58765,-0.398849,1
1.55484,-0.830804,-1.98892,-0.90839,2.32824,1.52926,-1.08017,1.55484,-0.830804,-1.98892,-0.90839,2.32824,1.52926,-1.08017,1.6304,-0.905201,-1.93375,-0.968928,2.3008,1.47025,-1.04088,-0.818156,0.817965,-1.24826,1.08199,1.00959,1.3071,-0.881671,-0.818156,0.817965,-1.24826,1.08199,1.00959,1.3071,-0.881671,0.339336,-0.542794,0.807255,0.739346,-0.0100916,0.00132278,0.673249,-0.974377,-0.373857,0.443838,2.0916,-0.569011,1.62664,-3.06411,-0.165445,2.58791,-3.06411,-0.203777,2.58791,-0.75562,0.743968,-0.55167,0.605379,0.274476,0.590042,-0.39289,1
1.54772,-0.8225,-2.00125,-0.896864,2.33752,1.54318,-1.08941,1.54772,-0.8225,-2.00125,-0.896864,2.33752,1.54318,-1.08941,1.62285,-0.896888,-1.94622,-0.957842,2.31072,1.48355,-1.04995,-0.736546,0.842711,-1.24522,1.11695,0.968476,1.34102,-0.916736,-0.736546,0.842711,-1.24522,1.11695,0.968476,1.34102,-0.916736,0.329184,-0.54553,0.811849,0.749656,-0.0193409,0.00040262,0.661545,-0.949376,-0.305092,0.474308,2.06136,-0.570766,1.65161,-3.02436,-0.175512,2.49707,-3.02436,-0.202054,2.49707,-0.751254,0.743883,-0.550275,0.609775,0.268055,0.596322,-0.394628,1
1.5394,-0.815174,-2.01493,-0.884848,2.34587,1.55665,-1.09815,1.5394,-0.815174,-2.01493,-0.884848,2.34587,1.55665,-1.09815,1.61508,-0.888897,-1.95922,-0.94673,2.31903,1.49709,-1.05944,-0.799845,0.784937,-1.32006,1.12219,0.782888,1.35956,-0.957578,-0.799845,0.784937,-1.32006,1.12219,0.782888,1.35956,-0.957578,0.31899,-0.548011,0.816192,0.760057,-0.028788,0.000377807,0.649219,-0.980712,-0.315299,0.432015,2.03119,-0.573154,1.67608,-3.01683,-0.238776,2.4466,-3.01683,-0.201862,2.4466,-0.756821,0.737228,-0.557044,0.618821,0.268475,0.595635,-0.387162,1
1.5311,-0.808447,-2.02831,-0.872887,2.34722,1.5706,-1.10944,1.5311,-0.808447,-2.02831,-0.872887,2.34722,1.5706,-1.10944,1.60687,-0.881078,-1.97182,-0.935481,2.32525,1.51033,-1.06863,-0.826833,0.785548,-1.23376,1.115,0.579026,1.29627,-0.902631,-0.826833,0.785548,-1.23376,1.115,0.579026,1.29627,-0.902631,0.308719,-0.550078,0.820609,0.770214,-0.0385123,0.00129818,0.636621,-0.976317,-0.26108,0.456109,2.00054,-0.574991,1.69943,-3.06542,-0.183737,2.33539,-3.06542,-0.199406,2.33539,-0.757634,0.726317,-0.564888,0.625936,0.219771,0.60269,-0.40813,1
1.52204,-0.800885,-2.04065,-0.861592,2.35217,1.58364,-1.11867,1.52204,-0.800885,-2.04065,-0.861592,2.35217,1.58364,-1.11867,1.59811,-0.873211,-1.98405,-0.924255,2.33106,1.52353,-1.07772,-0.892241,0.785572,-1.22614,1.13511,0.59868,1.33114,-0.91531,-0.892241,0.785572,-1.22614,1.13511,0.59868,1.33114,-0.91531,0.298164,-0.551831,0.825162,0.780116,-0.0484875,0.00242166,0.623748,-1.0281,-0.250305,0.468004,1.96981,-0.576517,1.72152,-3.07283,-0.152582,2.20926,-3.07283,-0.191326,2.20926,-0.76069,0.723262,-0.565946,0.626628,0.211045,0.601066,-0.409464,1
1.5127,-0.792655,-2.05296,-0.850425,2.36266,1.5967,-1.12657,1.5127,-0.792655,-2.05296,-0.850425,2.36266,1.5967,-1.12657,1.58894,-0.865376,-1.99662,-0.912762,2.33784,1.537,-1.08709,-0.914232,0.778346,-1.25941,1.13646,0.700898,1.36122,-0.942646,-0.914232,0.778346,-1.25941,1.13646,0.700898,1.36122,-0.942646,0.287141,-0.553552,0.829727,0.78998,-0.0586426,0.00321655,0.610313,-1.05752,-0.240129,0.461982,1.94006,-0.57883,1.74279,-2.97506,-0.23132,2.12618,-2.97506,-0.191637,2.12618,-0.7624,0.727211,-0.563449,0.623368,0.248212,0.596951,-0.394768,1
1.50441,-0.784782,-2.0655,-0.838355,2.36747,1.61141,-1.13736,1.50441,-0.784782,-2.0655,-0.838355,2.36747,1.61141,-1.13736,1.58033,-0.857314,-2.00915,-0.901023,2.3449,1.55099,-1.09681,-0.854228,0.815064,-1.26229,1.19867,0.69227,1.3991,-0.983283,-0.854228,0.815064,-1.26229,1.19867,0.69227,1.3991,-0.983283,0.276234,-0.554633,0.834508,0.799437,-0.0693454,0.0039222,0.596721,-1.04831,-0.176645,0.502872,1.91004,-0.580972,1.76293,-3.00132,-0.214171,2.01395,-3.00132,-0.197766,2.01395,-0.759231,0.725319,-0.563484,0.626679,0.2257,0.604189,-0.405473,1
1.4952,-0.777561,-2.07938,-0.825777,2.37355,1.62548,-1.14639,1.4952,-0.777561,-2.07938,-0.825777,2.37355,1.62548,-1.14639,1.57144,-0.849441,-2.02249,-0.888788,2.35117,1.56529,-1.1069,-0.890563,0.779544,-1.34674,1.22289,0.599619,1.43449,-1.01454,-0.890563,0.779544,-1.34674,1.22289,0.599619,1.43449,-1.01454,0.26508,-0.555559,0.839163,0.808961,-0.0803239,0.00524689,0.582325,-1.07557,-0.173607,0.475797,1.88026,-0.583194,1.78208,-2.97803,-0.222182,1.91591,-2.97803,-0.202708,1.91591,-0.762425,0.718797,-0.568898,0.630112,0.22379,0.601884,-0.394927,1
1.48686,-0.769936,-2.09262,-0.81332,2.37755,1.63974,-1.15725,1.48686,-0.769936,-2.09262,-0.81332,2.37755,1.63974,-1.15725,1.56296,-0.841547,-2.0357,-0.876359,2.35696,1.57938,-1.11699,-0.844669,0.796359,-1.31803,1.24537,0.581067,1.4112,-1.00411,-0.844669,0.796359,-1.31803,1.24537,0.581067,1.4112,-1.00411,0.254194,-0.555948,0.843928,0.817984,-0.0914701,0.00685018,0.56788,-1.05277,-0.116198,0.501734,1.85056,-0.584962,1.80058,-2.97033,-0.176781,1.84937,-2.97033,-0.201012,1.84937,-0.760958,0.716109,-0.569187,0.630387,0.205846,0.603679,-0.402661,1
1.47782,-0.762832,-2.10652,-0.800114,2.38064,1.65376,-1.16762,1.47782,-0.762832,-2.10652,-0.800114,2.38064,1.65376,-1.16762,1.55415,-0.833836,-2.04919,-0.863727,2.36307,1.59338,-1.12695,-0.894537,0.762575,-1.36286,1.26781,0.617021,1.395,-0.993816,-0.894537,0.762575,-1.36286,1.26781,0.617021,1.395,-0.993816,0.243061,-0.556239,0.848614,0.826739,-0.102618,0.00844617,0.553083,-1.0916,-0.122463,0.485007,1.82047,-0.586609,1.81814,-3.00915,-0.164771,1.7566,-3.00915,-0.200382,1.7566,-0.763377,0.710045,-0.573355,0.636127,0.175696,0.603785,-0.406722,1
1.46907,-0.75575,-2.11974,-0.787636,2.38476,1.66792,-1.17798,1.46907,-0.75575,-2.11974,-0.787636,2.38476,1.66792,-1.17798,1.54532,-0.826248,-2.06249,-0.851194,2.36924,1.60748,-1.13686,-0.865498,0.753719,-1.31014,1.23532,0.612074,1.40346,-0.988675,-0.865498,0.753719,-1.31014,1.23532,0.612074,1.40346,-0.988675,0.231956,-0.556172,0.853249,0.835014,-0.113893,0.0100145,0.538218,-1.06343,-0.0713139,0.484305,1.79064,-0.588587,1.83465,-2.98309,-0.197744,1.65035,-2.98309,-0.199132,1.65035,-0.762546,0.70498,-0.572423,0.635582,0.155158,0.604432,-0.411193,1
1.46005,-0.748739,-2.13334,-0.774683,2.38873,1.68201,-1.18764,1.46005,-0.748739,-2.13334,-0.774683,2.38873,1.68201,-1.18764,1.53647,-0.818742,-2.07586,-0.83859,2.37512,1.62161,-1.14675,-0.91062,0.746708,-1.34973,1.28425,0.581911,1.42482,-0.991396,-0.91062,0.746708,-1.34973,1.28425,0.581911,1.42482,-0.991396,0.220904,-0.555748,0.857849,0.842885,-0.125301,0.0118218,0.523167,-1.1018,-0.054178,0.488869,1.7605,-0.591146,1.85016,-3.01352,-0.255954,1.55082,-3.01352,-0.198547,1.55082,-0.764174,0.700035,-0.574803,0.639067,0.136091,0.604006,-0.408953,1
1.45086,-0.742312,-2.14685,-0.76155,2.39038,1.69667,-1.19735,1.45086,-0.742312,-2.14685,-0.76155,2.39038,1.69667,-1.19735,1.52736,-0.811311,-2.08927,-0.826086,2.38032,1.63583,-1.15681,-0.894465,0.746324,-1.33179,1.23886,0.492669,1.42617,-1.01113,-0.894465,0.746324,-1.33179,1.23886,0.492669,1.42617,-1.01113,0.209886,-0.55496,0.862362,0.850422,-0.136836,0.0140713,0.507799,-1.06671,-0.00301715,0.481166,1.73042,-0.593696,1.86548,-3.00788,-0.254965,1.53255,-3.00788,-0.206079,1.53255,-0.765024,0.689981,-0.575713,0.645366,0.10063,0.608337,-0.405463,1
1.44156,-0.736362,-2.16008,-0.748557,2.39107,1.71158,-1.20731,1.44156,-0.736362,-2.16008,-0.748557,2.39107,1.71158,-1.20731,1.51836,-0.803871,-2.10256,-0.813497,2.38467,1.65013,-1.16702,-0.917631,0.74328,-1.34551,1.26114,0.418615,1.42456,-1.02377,-0.917631,0.74328,-1.34551,1.26114,0.418615,1.42456,-1.02377,0.19909,-0.553662,0.866906,0.857502,-0.148618,0.0167675,0.492262,-1.07463,0.0280823,0.484588,1.69941,-0.595461,1.87907,-3.10155,-0.176537,1.35841,-3.10155,-0.21003,1.35841,-0.768019,0.675086,-0.575236,0.649395,0.0639831,0.614586,-0.402905,1
1.43195,-0.72982,-2.17403,-0.736043,2.39804,1.72639,-1.2161,1.43195,-0.72982,-2.17403,-0.736043,2.39804,1.72639,-1.2161,1.50887,-0.796478,-2.11623,-0.800492,2.38853,1.66452,-1.17734,-0.947293,0.744071,-1.35338,1.31109,0.378001,1.43766,-1.03365,-0.947293,0.744071,-1.35338,1.31109,0.378001,1.43766,-1.03365,0.188047,-0.552112,0.871446,0.864363,-0.160626,0.0199315,0.476107,-1.09682,0.0608057,0.498136,1.66914,-0.597499,1.89118,-3.02691,-0.20377,1.21167,-3.02691,-0.215805,1.21167,-0.769105,0.666579,-0.578009,0.644489,0.0951381,0.618687,-0.387602,1
1.42308,-0.723493,-2.18706,-0.723301,2.40549,1.74117,-1.2256,1.42308,-0.723493,-2.18706,-0.723301,2.40549,1.74117,-1.2256,1.49981,-0.789003,-2.1296,-0.787805,2.39168,1.67885,-1.18761,-0.904052,0.732877,-1.34919,1.26938,0.29434,1.44449,-1.02337,-0.904052,0.732877,-1.34919,1.26938,0.29434,1.44449,-1.02337,0.177568,-0.549973,0.875968,0.870531,-0.172703,0.0234568,0.460217,-1.04472,0.105551,0.480887,1.63898,-0.598897,1.90217,-3.01555,-0.139827,1.09867,-3.01555,-0.210727,1.09867,-0.767355,0.655103,-0.574619,0.645035,0.138096,0.623118,-0.379949,1
1.41298,-0.717507,-2.20124,-0.710339,2.41045,1.75511,-1.23409,1.41298,-0.717507,-2.20124,-0.710339,2.41045,1.75511,-1.23409,1.49022,-0.781764,-2.1434,-0.774523,2.39399,1.69323,-1.19774,-0.963987,0.731104,-1.37676,1.32436,0.203737,1.43972,-1.0075,-0.963987,0.731104,-1.37676,1.32436,0.203737,1.43972,-1.0075,0.166849,-0.547667,0.880412,0.87643,-0.184945,0.0276183,0.443737,-1.07691,0.130818,0.490422,1.60878,-0.600761,1.91261,-3.0203,-0.186408,1.04454,-3.0203,-0.199389,1.04454,-0.772433,0.642571,-0.578418,0.641841,0.164665,0.618832,-0.363441,1
1.40394,-0.712534,-2.21434,-0.697627,2.41051,1.76953,-1.24386,1.40394,-0.712534,-2.21434,-0.697627,2.41051,1.76953,-1.24386,1.48116,-0.774537,-2.15644,-0.761712,2.39554,1.70727,-1.20713,-0.901152,0.720773,-1.28614,1.2798,0.155243,1.3766,-0.912502,-0.901152,0.720773,-1.28614,1.2798,0.155243,1.3766,-0.912502,0.156851,-0.544822,0.884816,0.881418,-0.197074,0.0320507,0.428063,-1.00546,0.178659,0.488192,1.57828,-0.602575,1.92185,-3.05021,-0.181401,0.92324,-3.05021,-0.185193,0.92324,-0.772233,0.620039,-0.579012,0.64085,0.149678,0.622618,-0.367285,1
1.39349,-0.70749,-2.22828,-0.685791,2.4138,1.78326,-1.25055,1.39349,-0.70749,-2.22828,-0.685791,2.4138,1.78326,-1.25055,1.47151,-0.767651,-2.16967,-0.748871,2.39821,1.72117,-1.21624,-0.978992,0.670294,-1.33156,1.2802,0.316526,1.40972,-0.918614,-0.978992,0.670294,-1.33156,1.2802,0.316526,1.40972,-0.918614,0.146499,-0.542067,0.889011,0.88608,-0.208962,0.0361057,0.412181,-1.06311,0.161101,0.454172,1.54758,-0.60432,1.92953,-3.07002,-0.174445,0.768423,-3.07002,-0.176293,0.768423,-0.780277,0.601602,-0.58611,0.630804,0.15591,0.620892,-0.343045,1
1.38419,-0.70032,-2.2415,-0.67233,2.41973,1.79848,-1.25837,1.38419,-0.70032,-2.2415,-0.67233,2.41973,1.79848,-1.25837,1.46203,-0.760633,-2.1827,-0.73594,2.40254,1.73566,-1.22559,-0.934673,0.714014,-1.29711,1.28457,0.461567,1.46556,-0.938855,-0.934673,0.714014,-1.29711,1.28457,0.461567,1.46556,-0.938855,0.136077,-0.538903,0.893275,0.890198,-0.221258,0.0393435,0.396289,-1.04303,0.225676,0.481871,1.51755,-0.606858,1.93695,-3.00273,-0.253791,0.741816,-3.00273,-0.18396,0.741816,-0.778393,0.60313,-0.588051,0.636105,0.171922,0.628251,-0.327821,1
1.37453,-0.695918,-2.25602,-0.660476,2.42856,1.81367,-1.26248,1.37453,-0.695918,-2.25602,-0.660476,2.42856,1.81367,-1.26248,1.4524,-0.753891,-2.19631,-0.722826,2.4074,1.7507,-1.23504,-0.975817,0.666344,-1.37292,1.33214,0.484535,1.5049,-0.944707,-0.975817,0.666344,-1.37292,1.33214,0.484535,1.5049,-0.944707,0.125546,-0.535601,0.897289,0.893934,-0.233715,0.0425515,0.380064,-1.07814,0.224629,0.455648,1.48864,-0.609478,1.94346,-2.89129,-0.261986,0.650632,-2.89129,-0.197911,0.650632,-0.77874,0.57973,-0.597144,0.6235,0.211531,0.629665,-0.274362,1
1.36557,-0.694108,-2.27007,-0.646209,2.42815,1.8301,-1.27369,1.36557,-0.694108,-2.27007,-0.646209,2.42815,1.8301,-1.27369,1.44303,-0.747168,-2.21003,-0.709813,2.41171,1.7657,-1.24428,-0.92135,0.664067,-1.37794,1.28584,0.416773,1.48217,-0.910876,-0.92135,0.664067,-1.37794,1.28584,0.416773,1.48217,-0.910876,0.115442,-0.531936,0.901198,0.897091,-0.246152,0.0461933,0.364011,-1.01343,0.26105,0.440267,1.45874,-0.611513,1.94851,-2.98996,-0.203574,0.505424,-2.98996,-0.212725,0.505424,-0.774593,0.530605,-0.600411,0.63604,0.164354,0.643942,-0.294068,1
1.35594,-0.694434,-2.28555,-0.633151,2.43026,1.84529,-1.28211,1.35594,-0.694434,-2.28555,-0.633151,2.43026,1.84529,-1.28211,1.43351,-0.740458,-2.224,-0.696493,2.41592,1.78061,-1.25298,-0.96478,0.678244,-1.40287,1.32904,0.422487,1.49684,-0.855618,-0.96478,0.678244,-1.40287,1.32904,0.422487,1.49684,-0.855618,0.105376,-0.527982,0.905103,0.899725,-0.258644,0.0501721,0.347967,-1.03613,0.297341,0.453716,1.42927,-0.613421,1.95286,-2.94725,-0.190812,0.435066,-2.94725,-0.217907,0.435066,-0.775609,0.460243,-0.61549,0.633416,0.143383,0.646801,-0.29131,1
1.34716,-0.694422,-2.29966,-0.6181,2.42502,1.86152,-1.29327,1.34716,-0.694422,-2.29966,-0.6181,2.42502,1.86152,-1.29327,1.42403,-0.733797,-2.23787,-0.683402,2.42066,1.79562,-1.26082,-0.940512,0.670526,-1.37582,1.3148,0.492953,1.51376,-0.75596,-0.940512,0.670526,-1.37582,1.3148,0.492953,1.51376,-0.75596,0.0955024,-0.523766,0.908885,0.901697,-0.271101,0.0540813,0.332448,-1.0112,0.328987,0.446959,1.39961,-0.615014,1.95654,-2.96606,-0.159293,0.367987,-2.96606,-0.214914,0.367987,-0.768637,0.393753,-0.617896,0.653019,0.0436076,0.658987,-0.3245,1
1.33822,-0.700578,-2.3147,-0.603862,2.41169,1.87747,-1.30389,1.33822,-0.700578,-2.3147,-0.603862,2.41169,1.87747,-1.30389,1.41439,-0.727452,-2.25195,-0.670377,2.42566,1.81078,-1.26805,-0.97819,0.60936,-1.42127,1.29822,0.491093,1.51939,-0.721937,-0.97819,0.60936,-1.42127,1.29822,0.491093,1.51939,-0.721937,0.085687,-0.519466,0.912404,0.903167,-0.283439,0.0581093,0.317136,-1.0187,0.318395,0.402426,1.36984,-0.617119,1.95921,-2.9765,-0.21044,0.266552,-2.9765,-0.209479,0.266552,-0.761602,0.268743,-0.627496,0.66515,-0.139695,0.666884,-0.358409,1
1.32978,-0.707702,-2.32808,-0.58861,2.4031,1.89356,-1.3142,1.32978,-0.707702,-2.32808,-0.58861,2.4031,1.89356,-1.3142,1.40475,-0.721266,-2.26593,-0.657107,2.4299,1.82627,-1.27545,-0.951993,0.622315,-1.39174,1.30907,0.390178,1.5391,-0.745246,-0.951993,0.622315,-1.39174,1.30907,0.390178,1.5391,-0.745246,0.0761139,-0.514829,0.915808,0.904123,-0.296014,0.0625517,0.301701,-0.976343,0.368443,0.409645,1.33932,-0.619844,1.96109,-3.05214,-0.272489,0.188172,-3.05214,-0.206219,0.188172,-0.749766,0.135636,-0.621535,0.68497,-0.268022,0.672947,-0.387461,1
1.32186,-0.72386,-2.34131,-0.573901,2.39957,1.91013,-1.32229,1.32186,-0.72386,-2.34131,-0.573901,2.39957,1.91013,-1.32229,1.39523,-0.715644,-2.27974,-0.644109,2.43241,1.84142,-1.2827,-0.960478,0.550591,-1.37035,1.31828,0.184936,1.50406,-0.719996,-0.960478,0.550591,-1.37035,1.31828,0.184936,1.50406,-0.719996,0.0671213,-0.510211,0.918814,0.904637,-0.308123,0.0678268,0.286516,-0.945965,0.364944,0.37325,1.30946,-0.622186,1.96201,-2.98556,-0.234228,0.0917435,-2.98556,-0.208868,0.0917435,-0.73367,-0.0821603,-0.615697,0.702081,-0.328367,0.687109,-0.395914,1
1.3147,-0.728581,-2.35416,-0.559292,2.39589,1.92564,-1.3292,1.3147,-0.728581,-2.35416,-0.559292,2.39589,1.92564,-1.3292,1.38547,-0.710618,-2.29344,-0.630947,2.43121,1.8565,-1.2907,-0.974055,0.478291,-1.37099,1.31475,-0.229977,1.5388,-0.837642,-0.974055,0.478291,-1.37099,1.31475,-0.229977,1.5388,-0.837642,0.0587211,-0.505519,0.921433,0.904794,-0.320015,0.0748396,0.270808,-0.894789,0.366116,0.321762,1.2793,-0.623876,1.96192,-3.0159,-0.168991,-0.00859499,-3.0159,-0.212307,-0.00859499,-0.707695,-0.179631,-0.607194,0.71655,-0.353171,0.691396,-0.384993,1
1.30951,-0.736085,-2.36927,-0.545297,2.38953,1.94234,-1.33516,1.30951,-0.736085,-2.36927,-0.545297,2.38953,1.94234,-1.33516,1.37562,-0.706048,-2.30732,-0.61714,2.42572,1.87232,-1.30009,-0.997113,0.445983,-1.40025,1.38156,-0.646328,1.60686,-0.964193,-0.997113,0.445983,-1.40025,1.38156,-0.646328,1.60686,-0.964193,0.050936,-0.500554,0.923706,0.904434,-0.332231,0.0838666,0.25414,-0.863061,0.392927,0.301786,1.24887,-0.626024,1.96022,-3.04314,-0.214791,-0.169468,-3.04314,-0.216418,-0.169468,-0.661056,-0.300372,-0.619581,0.718436,-0.361917,0.700197,-0.350676,1
1.30723,-0.740989,-2.38356,-0.532239,2.38482,1.95919,-1.34244,1.30723,-0.740989,-2.38356,-0.532239,2.38482,1.95919,-1.34244,1.36592,-0.701984,-2.32097,-0.603069,2.41759,1.88833,-1.30975,-0.95246,0.407958,-1.34721,1.42113,-0.853871,1.58034,-0.959543,-0.95246,0.407958,-1.34721,1.42113,-0.853871,1.58034,-0.959543,0.0437587,-0.495537,0.925635,0.903441,-0.344347,0.0940656,0.237425,-0.805734,0.40722,0.290058,1.21901,-0.627541,1.95729,-2.98586,-0.151676,-0.293708,-2.98586,-0.212217,-0.293708,-0.58692,-0.39005,-0.62589,0.708294,-0.327743,0.708615,-0.326851,1
1.30623,-0.746119,-2.39692,-0.518,2.37809,1.97549,-1.35345,1.30623,-0.746119,-2.39692,-0.518,2.37809,1.97549,-1.35345,1.35638,-0.698734,-2.33459,-0.588803,2.40882,1.90445,-1.31927,-0.956595,0.286021,-1.35963,1.43922,-0.869345,1.62181,-0.946936,-0.956595,0.286021,-1.35963,1.43922,-0.869345,1.62181,-0.946936,0.0368384,-0.490794,0.927098,0.90192,-0.356107,0.104524,0.220914,-0.807466,0.363624,0.222473,1.18973,-0.629512,1.95399,-2.92881,-0.19713,-0.329578,-2.92881,-0.201467,-0.329578,-0.50142,-0.473843,-0.623339,0.708027,-0.307294,0.710431,-0.341814,1
1.31006,-0.748976,-2.40932,-0.504807,2.37372,1.99142,-1.36397,1.31006,-0.748976,-2.40932,-0.504807,2.37372,1.99142,-1.36397,1.34713,-0.696323,-2.3477,-0.574427,2.40068,1.9208,-1.328,-0.912782,0.217676,-1.29966,1.42851,-0.794373,1.63235,-0.845012,-0.912782,0.217676,-1.29966,1.42851,-0.794373,1.63235,-0.845012,0.0300456,-0.486331,0.928134,0.899815,-0.367603,0.114518,0.205151,-0.7786,0.347779,0.186531,1.1594,-0.630983,1.94915,-3.03233,-0.147074,-0.48449,-3.03233,-0.184761,-0.48449,-0.370737,-0.526532,-0.616166,0.696199,-0.269589,0.706214,-0.35974,1
1.31224,-0.749769,-2.42046,-0.491082,2.38279,2.00645,-1.36954,1.31224,-0.749769,-2.42046,-0.491082,2.38279,2.00645,-1.36954,1.33791,-0.69491,-2.36088,-0.559519,2.39309,1.93734,-1.33607,-0.93053,0.119396,-1.33484,1.50727,-0.754299,1.6842,-0.800216,-0.93053,0.119396,-1.33484,1.50727,-0.754299,1.6842,-0.800216,0.0231364,-0.482241,0.928726,0.897259,-0.378788,0.12432,0.18971,-0.807303,0.323127,0.14524,1.12919,-0.633066,1.94335,-3.021,-0.208378,-0.580108,-3.021,-0.179795,-0.580108,-0.256704,-0.548591,-0.595782,0.684362,-0.102983,0.691123,-0.334743,1
1.31438,-0.751369,-2.43216,-0.477564,2.40119,2.02095,-1.37488,1.31438,-0.751369,-2.43216,-0.477564,2.40119,2.01062,-1.37488,1.32905,-0.69456,-2.37439,-0.544076,2.38578,1.95462,-1.34417,-0.85935,0.0198464,-1.34493,1.56311,-0.724153,1.76093,-0.820293,-0.85935,0.0198464,-1.34493,1.56311,-0.724153,1.76093,-0.820293,0.0162732,-0.478503,0.928752,0.894209,-0.3899,0.134,0.174393,-0.783768,0.30018,0.0976022,1.09957,-0.635751,1.93717,-2.96197,-0.268435,-0.618041,-2.96197,-0.189828,-0.618041,-0.146664,-0.568088,-0.577762,0.665124,0.154091,0.663259,-0.307052,1
1.30467,-0.75201,-2.44596,-0.464185,2.40909,2.03601,-1.38255,1.30467,-0.75201,-2.44596,-0.464185,2.40909,2.01062,-1.38255,1.32116,-0.695159,-2.3882,-0.528272,2.37885,1.9723,-1.35285,-0.775267,-0.0987525,-1.40038,1.59289,-0.67075,1.77642,-0.883667,-0.775267,-0.0987525,-1.40038,1.59289,-0.67075,1.77642,-0.883667,0.00979701,-0.475126,0.928277,0.890729,-0.400851,0.143305,0.159321,-0.754999,0.251444,0.036882,1.06982,-0.638175,1.92947,-2.97484,-0.242388,-0.769377,-2.97484,-0.201526,-0.769377,-0.164868,-0.568516,-0.577541,0.640869,0.302401,0.637091,-0.297034,1
1.29381,-0.754294,-2.45903,-0.449053,2.40714,2.05349,-1.39174,1.29381,-0.754294,-2.45903,-0.449053,2.40714,2.01062,-1.39174,1.31393,-0.697016,-2.40221,-0.51221,2.3746,1.99005,-1.36179,-0.695809,-0.212905,-1.40025,1.59997,-0.318558,1.75504,-0.886903,-0.695809,-0.212905,-1.40025,1.59997,-0.318558,1.75504,-0.886903,0.00317388,-0.472347,0.927284,0.887117,-0.411437,0.151099,0.144613,-0.754583,0.202614,-0.0100271,1.03984,-0.640097,1.92056,-2.9985,-0.192207,-0.891221,-2.9985,-0.213436,-0.891221,-0.20125,-0.572777,-0.56826,0.631568,0.325361,0.634439,-0.299476,1
1.29033,-0.754925,-2.47123,-0.434086,2.40422,2.07172,-1.40086,1.29033,-0.754925,-2.47123,-0.434086,2.40422,2.01062,-1.40086,1.30778,-0.700013,-2.41574,-0.496324,2.37559,2.00678,-1.3701,-0.592083,-0.3313,-1.33927,1.5802,0.242605,1.60702,-0.80826,-0.592083,-0.3313,-1.33927,1.5802,0.242605,1.60702,-0.80826,-0.00366598,-0.47021,0.926037,0.883725,-0.421335,0.155943,0.131106,-0.756193,0.14339,-0.0418032,1.01104,-0.641923,1.91147,-2.88042,-0.182587,-0.908816,-2.88042,-0.216316,-0.908816,-0.174536,-0.549117,-0.554874,0.622384,0.286338,0.649331,-0.307661,1
1.29259,-0.756642,-2.4837,-0.418619,2.40614,2.08591,-1.41273,1.29259,-0.756642,-2.4837,-0.418619,2.40614,2.01062,-1.41273,1.30212,-0.704306,-2.42906,-0.480431,2.38212,2.02038,-1.3776,-0.563932,-0.456694,-1.32306,1.58005,0.774986,1.24006,-0.730049,-0.563932,-0.456694,-1.32306,1.58005,0.774986,1.24006,-0.730049,-0.0110529,-0.468961,0.924792,0.881196,-0.429598,0.157877,0.118378,-0.795857,0.0676955,-0.0546374,0.981519,-0.643721,1.90153,-2.95166,-0.179797,-0.993884,-2.95166,-0.215257,-0.993884,-0.0952975,-0.523359,-0.546372,0.618122,0.24021,0.655282,-0.351335,1
1.30013,-0.759313,-2.49797,-0.40407,2.42463,2.09299,-1.4201,1.30013,-0.759313,-2.49797,-0.40407,2.42463,2.01062,-1.4201,1.29698,-0.709244,-2.44151,-0.464949,2.39179,2.02948,-1.3842,-0.502427,-0.496375,-1.21505,1.54548,0.99088,0.800566,-0.644096,-0.502427,-0.496375,-1.21505,1.54548,0.99088,0.800566,-0.644096,-0.0184219,-0.468374,0.923915,0.879665,-0.435781,0.157867,0.106589,-0.762753,0.0324881,-0.0271834,0.951574,-0.646261,1.89027,-2.99453,-0.254065,-1.12619,-2.99453,-0.211685,-1.12619,0.0314942,-0.500692,-0.564581,0.608799,0.328398,0.635077,-0.359011,1
1.30916,-0.762842,-2.51457,-0.391186,2.4325,2.09545,-1.42536,1.30916,-0.762842,-2.51457,-0.391186,2.4325,2.01062,-1.42536,1.29177,-0.714409,-2.45342,-0.449639,2.40009,2.03427,-1.39113,-0.524323,-0.52998,-1.17943,1.54454,0.764881,0.393847,-0.717693,-0.524323,-0.52998,-1.17943,1.54454,0.764881,0.393847,-0.717693,-0.0253918,-0.46819,0.923451,0.878881,-0.439972,0.15818,0.0947166,-0.734225,0.00273104,-0.00778891,0.921873,-0.64855,1.87828,-2.97002,-0.228834,-1.19951,-2.97002,-0.207833,-1.19951,0.17391,-0.484324,-0.611561,0.584528,0.324141,0.611858,-0.342304,1
1.31146,-0.767342,-2.53094,-0.376534,2.40069,2.0947,-1.43271,1.31146,-0.767342,-2.53094,-0.376534,2.40069,2.01062,-1.43271,1.28639,-0.719823,-2.46557,-0.434543,2.40596,2.03574,-1.39925,-0.534378,-0.562937,-1.22168,1.50824,0.532688,0.084383,-0.8422,-0.534378,-0.562937,-1.22168,1.50824,0.532688,0.084383,-0.8422,-0.0318884,-0.468415,0.92317,0.878656,-0.442449,0.159506,0.0822252,-0.698877,-0.0340286,-0.0103308,0.891976,-0.651095,1.8655,-2.98976,-0.254536,-1.27708,-2.98976,-0.214304,-1.27708,0.250742,-0.475195,-0.653722,0.580088,-0.0526878,0.589586,-0.334647,1
1.31047,-0.77537,-2.5435,-0.361464,2.37433,2.09228,-1.44023,1.31047,-0.77537,-2.5435,-0.361464,2.37433,2.01062,-1.44023,1.2816,-0.725782,-2.47762,-0.419822,2.41033,2.0351,-1.40788,-0.459582,-0.600652,-1.21142,1.44465,0.427301,-0.105656,-0.863521,-0.459582,-0.600652,-1.21142,1.44465,0.427301,-0.105656,-0.863521,-0.0377725,-0.469134,0.922807,0.878801,-0.443672,0.161177,0.0699051,-0.632751,-0.0711596,-0.0263923,0.86181,-0.653351,1.85155,-3.01656,-0.22561,-1.39571,-3.01656,-0.224773,-1.39571,0.288701,-0.495876,-0.658866,0.58358,-0.359987,0.571785,-0.32359,1
1.3081,-0.783904,-2.55598,-0.345977,2.36842,2.08901,-1.45047,1.3081,-0.783904,-2.55598,-0.345977,2.36842,2.01062,-1.45047,1.27764,-0.732345,-2.49007,-0.405488,2.41617,2.03351,-1.41654,-0.376434,-0.656057,-1.26945,1.4237,0.641987,-0.180739,-0.863461,-0.376434,-0.656057,-1.26945,1.4237,0.641987,-0.180739,-0.863461,-0.0434136,-0.470281,0.922238,0.879223,-0.444234,0.16203,0.0580506,-0.610755,-0.102491,-0.0497024,0.831772,-0.655322,1.83633,-3.00385,-0.197119,-1.52171,-3.00385,-0.229619,-1.52171,0.30463,-0.515593,-0.659127,0.595117,-0.477509,0.555046,-0.339285,1
1.30881,-0.79309,-2.56864,-0.331576,2.37455,2.08708,-1.46144,1.30881,-0.79309,-2.56864,-0.331576,2.37455,2.01062,-1.46144,1.2749,-0.738896,-2.50348,-0.391206,2.42175,2.03147,-1.425,-0.237377,-0.655014,-1.36304,1.44053,0.461816,-0.217507,-0.8396,-0.237377,-0.655014,-1.36304,1.44053,0.461816,-0.217507,-0.8396,-0.0483035,-0.471493,0.921654,0.879518,-0.444533,0.163254,0.0467507,-0.51411,-0.105686,-0.0513416,0.802087,-0.657171,1.81973,-2.96845,-0.1849,-1.65997,-2.96845,-0.225983,-1.65997,0.339083,-0.541935,-0.651588,0.596299,-0.472005,0.556185,-0.36441,1
1.31055,-0.803286,-2.58103,-0.318942,2.39041,2.08489,-1.4676,1.31055,-0.803286,-2.58103,-0.318942,2.39041,2.01062,-1.4676,1.27329,-0.745689,-2.51798,-0.376706,2.42022,2.0291,-1.43318,-0.132597,-0.69841,-1.47471,1.45385,-0.384559,-0.240769,-0.810633,-0.132597,-0.69841,-1.47471,1.45385,-0.384559,-0.240769,-0.810633,-0.0515384,-0.47303,0.920742,0.879311,-0.444081,0.168289,0.0358221,-0.368016,-0.147412,-0.0947942,0.77288,-0.658759,1.80227,-2.92076,-0.158751,-1.74558,-2.92076,-0.210582,-1.74558,0.372601,-0.575969,-0.630488,0.577646,-0.298051,0.557892,-0.344187,1
1.30862,-0.812826,-2.59613,-0.304945,2.38382,2.08424,-1.47688,1.30862,-0.812826,-2.59613,-0.304945,2.38382,2.01062,-1.47688,1.27268,-0.752845,-2.53311,-0.361913,2.40979,2.02654,-1.44141,-0.0357601,-0.716508,-1.5174,1.4769,-1.23797,-0.26457,-0.829972,-0.0357601,-0.716508,-1.5174,1.4769,-1.23797,-0.26457,-0.829972,-0.0529467,-0.475008,0.919388,0.87846,-0.442818,0.177735,0.0250993,-0.2212,-0.175548,-0.121792,0.742859,-0.660558,1.78368,-3.0021,-0.179893,-1.85951,-3.0021,-0.197043,-1.85951,0.359424,-0.599812,-0.630276,0.569685,-0.259729,0.576998,-0.354752,1
1.30619,-0.82093,-2.61101,-0.288464,2.3652,2.08282,-1.48631,1.30619,-0.82093,-2.61101,-0.288464,2.3652,2.01062,-1.48631,1.2729,-0.759981,-2.54833,-0.346824,2.39475,2.02409,-1.45008,0.0330997,-0.709342,-1.51593,1.51916,-1.50921,-0.237642,-0.881192,0.0330997,-0.709342,-1.51593,1.51916,-1.50921,-0.237642,-0.881192,-0.0532045,-0.477089,0.91787,0.876991,-0.441424,0.189265,0.014478,-0.150211,-0.169503,-0.121383,0.712901,-0.662823,1.76432,-2.99576,-0.226557,-1.93553,-2.99576,-0.189409,-1.93553,0.332896,-0.609489,-0.626795,0.583604,-0.29547,0.587273,-0.362314,1
1.30613,-0.829242,-2.62663,-0.27157,2.34907,2.08049,-1.49566,1.30613,-0.829242,-2.62663,-0.27157,2.34907,2.01062,-1.49566,1.27367,-0.767425,-2.56334,-0.332069,2.38377,2.02219,-1.45905,0.0917611,-0.753539,-1.49974,1.47525,-0.920118,-0.166984,-0.892613,0.0917611,-0.753539,-1.49974,1.47525,-0.920118,-0.166984,-0.892613,-0.0537142,-0.47926,0.916189,0.875536,-0.440451,0.198546,0.00429405,-0.172882,-0.183865,-0.145252,0.683212,-0.666199,1.74458,-2.96889,-0.337565,-1.97423,-2.96889,-0.203328,-1.97423,0.324611,-0.618172,-0.632857,0.604992,-0.347002,0.58298,-0.366096,1
1.30813,-0.839072,-2.64153,-0.255904,2.33734,2.07823,-1.50527,1.30813,-0.839072,-2.64153,-0.255904,2.33734,2.01062,-1.50527,1.2752,-0.774994,-2.5779,-0.317612,2.37884,2.02072,-1.46786,0.175637,-0.759555,-1.44488,1.43656,-0.403447,-0.138451,-0.880257,0.175637,-0.759555,-1.44488,1.43656,-0.403447,-0.138451,-0.880257,-0.0546335,-0.481302,0.914579,0.874282,-0.440169,0.204586,-0.00509161,-0.167798,-0.178425,-0.141964,0.654237,-0.668509,1.7232,-2.89755,-0.231028,-2.13815,-2.89755,-0.220288,-2.13815,0.329339,-0.640785,-0.636252,0.617078,-0.415024,0.575063,-0.374077,1
1.30773,-0.848318,-2.65604,-0.240922,2.32937,2.07683,-1.51417,1.30773,-0.848318,-2.65604,-0.240922,2.32937,2.01062,-1.51417,1.27697,-0.782424,-2.5921,-0.303046,2.37504,2.01958,-1.47667,0.173683,-0.742406,-1.41063,1.44278,-0.400839,-0.114626,-0.880832,0.173683,-0.742406,-1.41063,1.44278,-0.400839,-0.114626,-0.880832,-0.0554855,-0.483116,0.913064,0.872818,-0.440348,0.209957,-0.0141884,-0.154598,-0.159562,-0.13244,0.625149,-0.670371,1.70098,-2.90874,-0.186199,-2.22206,-2.90874,-0.231221,-2.22206,0.307658,-0.658939,-0.63935,0.621239,-0.456727,0.572568,-0.37505,1
1.3055,-0.858236,-2.67041,-0.227899,2.32371,2.07661,-1.52458,1.3055,-0.858236,-2.67041,-0.227899,2.32371,2.01062,-1.52458,1.27854,-0.789921,-2.60623,-0.288354,2.36914,2.01884,-1.48557,0.151501,-0.744563,-1.40694,1.48534,-0.658772,-0.0715322,-0.894206,0.151501,-0.744563,-1.40694,1.48534,-0.658772,-0.0715322,-0.894206,-0.0560432,-0.484936,0.911381,0.870931,-0.440573,0.216406,-0.0233132,-0.132349,-0.149748,-0.137001,0.596248,-0.672117,1.67807,-2.89016,-0.174612,-2.29083,-2.89016,-0.23353,-2.29083,0.269572,-0.683151,-0.641775,0.604551,-0.454287,0.577719,-0.390164,1
1.30492,-0.866674,-2.68452,-0.213587,2.31463,2.0769,-1.53402,1.30492,-0.866674,-2.68452,-0.213587,2.31463,2.01062,-1.53402,1.28015,-0.797454,-2.62045,-0.273391,2.35998,2.01823,-1.49471,0.164923,-0.757817,-1.42734,1.51251,-0.9981,-0.0596441,-0.920811,0.164923,-0.757817,-1.42734,1.51251,-0.9981,-0.0596441,-0.920811,-0.0560346,-0.486831,0.90954,0.868533,-0.440685,0.224473,-0.0325345,-0.0829148,-0.16023,-0.152899,0.56663,-0.673985,1.65414,-2.96178,-0.186801,-2.39347,-2.96178,-0.225154,-2.39347,0.247786,-0.692192,-0.640673,0.598037,-0.453576,0.586758,-0.39313,1
1.30622,-0.875332,-2.69858,-0.200225,2.30505,2.0775,-1.54303,1.30622,-0.875332,-2.69858,-0.200225,2.30505,2.01062,-1.54303,1.28182,-0.805318,-2.63485,-0.258432,2.34833,2.01766,-1.50403,0.171754,-0.8038,-1.44834,1.48957,-1.2085,-0.0562047,-0.934856,0.171754,-0.8038,-1.44834,1.48957,-1.2085,-0.0562047,-0.934856,-0.0555766,-0.48904,0.907365,0.865791,-0.440468,0.233781,-0.0417209,-0.0501741,-0.197547,-0.193595,0.537144,-0.6762,1.62937,-2.94861,-0.221461,-2.47654,-2.94861,-0.211824,-2.47654,0.244056,-0.70014,-0.637218,0.582071,-0.432778,0.59844,-0.389974,1
1.30728,-0.88475,-2.71284,-0.187796,2.29409,2.07798,-1.55378,1.30728,-0.88475,-2.71284,-0.187796,2.29409,2.01062,-1.55378,1.2837,-0.813404,-2.64934,-0.243507,2.33608,2.01718,-1.51351,0.19837,-0.808437,-1.44493,1.47436,-1.21465,-0.0494817,-0.95113,0.19837,-0.808437,-1.44493,1.47436,-1.21465,-0.0494817,-0.95113,-0.0548553,-0.491428,0.90498,0.862814,-0.440179,0.243354,-0.0507306,-0.0228912,-0.2045,-0.203217,0.507975,-0.678918,1.6036,-2.91687,-0.271809,-2.57753,-2.91687,-0.204117,-2.57753,0.235803,-0.713463,-0.634987,0.557107,-0.419854,0.607944,-0.402686,1
1.30475,-0.894636,-2.72652,-0.175616,2.28569,2.07814,-1.56537,1.30475,-0.894636,-2.72652,-0.175616,2.28569,2.01062,-1.56537,1.28607,-0.821538,-2.66352,-0.229191,2.32501,2.0168,-1.52257,0.242136,-0.808749,-1.40384,1.41227,-1.06379,-0.0385044,-0.889892,0.242136,-0.808749,-1.40384,1.41227,-1.06379,-0.0385044,-0.889892,-0.0539248,-0.493941,0.902468,0.859885,-0.439893,0.252219,-0.0589673,0.00206434,-0.213395,-0.21364,0.478534,-0.681585,1.57692,-2.94415,-0.266701,-2.66778,-2.94415,-0.215728,-2.66778,0.186809,-0.730975,-0.630049,0.535755,-0.393219,0.613338,-0.428033,1
1.30297,-0.904413,-2.73994,-0.165747,2.27605,2.07887,-1.57699,1.30297,-0.904413,-2.73994,-0.165747,2.27605,2.01062,-1.57699,1.28872,-0.82983,-2.67736,-0.215657,2.31493,2.01656,-1.53163,0.278579,-0.832082,-1.38392,1.34952,-1.00082,-0.017149,-0.918845,0.278579,-0.832082,-1.38392,1.34952,-1.00082,-0.017149,-0.918845,-0.0528596,-0.49667,0.89973,0.857061,-0.439541,0.2604,-0.0666439,0.0282058,-0.237464,-0.2418,0.448777,-0.683819,1.54935,-2.97565,-0.223446,-2.75654,-2.97565,-0.229332,-2.75654,0.142407,-0.745826,-0.625776,0.499097,-0.388826,0.623105,-0.453616,1
1.31302,-0.913318,-2.75337,-0.157542,2.26288,2.07956,-1.58829,1.31302,-0.913318,-2.75337,-0.157542,2.26288,2.01062,-1.58829,1.29172,-0.837972,-2.6912,-0.202247,2.30493,2.01615,-1.54125,0.301876,-0.821775,-1.38975,1.33131,-1.0064,-0.0417281,-0.976572,0.301876,-0.821775,-1.38975,1.33131,-1.0064,-0.0417281,-0.976572,-0.0515045,-0.499381,0.897025,0.854086,-0.439312,0.268377,-0.0742658,0.0558628,-0.239803,-0.241315,0.41952,-0.686063,1.52057,-2.92566,-0.224328,-2.87833,-2.92566,-0.238892,-2.87833,0.213079,-0.753453,-0.621679,0.447052,-0.420488,0.63408,-0.470402,1
1.31664,-0.923032,-2.76762,-0.149506,2.25406,2.07849,-1.59822,1.31664,-0.923032,-2.76762,-0.149506,2.25406,2.01062,-1.59822,1.29415,-0.846542,-2.70532,-0.18886,2.29482,2.01595,-1.55139,0.214477,-0.867854,-1.40952,1.33282,-1.00301,-0.0203727,-1.02997,0.214477,-0.867854,-1.40952,1.33282,-1.00301,-0.0203727,-1.02997,-0.0503669,-0.502305,0.894005,0.850923,-0.438978,0.276543,-0.082171,0.0134148,-0.254758,-0.271585,0.390248,-0.687539,1.49086,-2.92727,-0.147665,-2.97145,-2.92727,-0.233177,-2.97145,0.224957,-0.764897,-0.623044,0.39354,-0.407656,0.625467,-0.468306,1
1.31332,-0.933045,-2.78195,-0.146364,2.2462,2.07665,-1.6092,1.31332,-0.933045,-2.78195,-0.146364,2.2462,2.01062,-1.6092,1.29553,-0.855404,-2.7196,-0.175727,2.28485,2.01574,-1.56213,0.113733,-0.879041,-1.42683,1.32739,-0.992242,-0.022471,-1.08804,0.113733,-0.879041,-1.42683,1.32739,-0.992242,-0.022471,-1.08804,-0.0496943,-0.505404,0.890736,0.847625,-0.438415,0.284827,-0.0905395,-0.0316159,-0.253692,-0.28225,0.360504,-0.689234,1.45992,-2.97433,-0.16945,-3.09393,-2.97433,-0.217223,-3.09393,0.177938,-0.776415,-0.623498,0.29363,-0.38651,0.609065,-0.470656,1
1.31167,-0.943458,-2.79501,-0.148989,2.24164,2.07641,-1.62167,1.31167,-0.943458,-2.79501,-0.148989,2.24164,2.01062,-1.62167,1.29623,-0.864342,-2.73373,-0.163378,2.27488,2.01567,-1.5734,0.0597428,-0.909242,-1.42184,1.19288,-1.01322,0,-1.1371,0.0597428,-0.909242,-1.42184,1.19288,-1.01322,0,-1.1371,-0.0492496,-0.508691,0.887205,0.844247,-0.437657,0.293091,-0.0989981,-0.0437127,-0.296714,-0.33657,0.330717,-0.691802,1.42784,-2.97879,-0.256824,-3.20768,-2.97879,-0.205965,-3.20768,0.15443,-0.791161,-0.612723,0.143889,-0.332463,0.607345,-0.482636,1
1.31391,-0.953211,-2.80772,-0.16132,2.24044,2.07712,-1.63449,1.31391,-0.953211,-2.80772,-0.16132,2.24044,2.01062,-1.63449,1.29694,-0.873204,-2.74772,-0.151995,2.26453,2.01561,-1.58489,0.0848624,-0.86605,-1.38831,1.10648,-1.04079,-0.00862886,-1.14918,0.0848624,-0.86605,-1.38831,1.10648,-1.04079,-0.00862886,-1.14918,-0.0486196,-0.512206,0.883446,0.840828,-0.43666,0.301434,-0.107113,-0.00814191,-0.297673,-0.335905,0.301441,-0.694407,1.39466,-2.92758,-0.26052,-3.31808,-2.92758,-0.205727,-3.31808,0.169747,-0.800077,-0.599942,-0.0932507,-0.240957,0.615171,-0.496027,1
1.31971,-0.962467,-2.81791,-0.17256,2.26268,2.07778,-1.64685,1.31971,-0.962467,-2.81791,-0.17256,2.26268,2.01062,-1.64685,1.29819,-0.881756,-2.7616,-0.142216,2.25415,2.0156,-1.59631,0.135281,-0.857672,-1.37601,0.940809,-1.02028,0.00178569,-1.13876,0.135281,-0.857672,-1.37601,0.940809,-1.02028,0.00178569,-1.13876,-0.047518,-0.515996,0.879449,0.837532,-0.435394,0.309656,-0.114391,0.0361927,-0.335733,-0.374077,0.272761,-0.697224,1.36063,-2.86801,-0.281721,-3.40304,-2.86801,-0.218454,-3.40304,0.215228,-0.807105,-0.563114,-0.303437,0.085325,0.621823,-0.505417,1
1.31092,-0.971266,-2.83248,-0.181095,2.28941,2.07855,-1.65634,1.31092,-0.971266,-2.83248,-0.181095,2.28941,2.01062,-1.65634,1.29953,-0.890328,-2.77543,-0.134837,2.24473,2.01555,-1.60773,0.136108,-0.852279,-1.38582,0.643629,-0.907468,-0.0128714,-1.14536,0.136108,-0.852279,-1.38582,0.643629,-0.907468,-0.0128714,-1.14536,-0.0463113,-0.520361,0.874955,0.834756,-0.433438,0.317356,-0.120829,0.0520038,-0.402414,-0.440238,0.244134,-0.699286,1.32593,-2.86262,-0.206119,-3.46948,-2.86262,-0.229331,-3.46948,0.11382,-0.809379,-0.570539,-0.462582,0.446832,0.630041,-0.486092,1
1.25423,-0.980425,-2.85413,-0.183831,2.29835,2.07792,-1.6642,1.25423,-0.980425,-2.84842,-0.183831,2.29835,2.01062,-1.6642,1.30108,-0.898464,-2.78903,-0.131493,2.23753,2.01553,-1.61933,0.159993,-0.793915,-1.34542,0.232272,-0.637845,-0.000155796,-1.16649,0.159993,-0.793915,-1.34542,0.232272,-0.637845,-0.000155796,-1.16649,-0.0449876,-0.525368,0.869937,0.83295,-0.430639,0.32381,-0.126061,0.0750973,-0.458294,-0.497463,0.215387,-0.701571,1.29048,-2.8747,-0.22853,-3.54513,-2.8747,-0.241504,-3.54513,-0.468534,-0.819606,-0.650997,-0.523378,0.608149,0.623878,-0.448688,1
1.23679,-0.987527,-2.86627,-0.179704,2.30135,2.06982,-1.67378,1.23679,-0.987527,-2.84842,-0.179704,2.30135,2.01062,-1.67378,1.30216,-0.90587,-2.80238,-0.132747,2.23572,2.01549,-1.63129,0.0911782,-0.728899,-1.318,-0.231433,0.00945339,-0.00202537,-1.20546,0.0911782,-0.728899,-1.318,-0.231433,0.00945339,-0.00202537,-1.20546,-0.044231,-0.530739,0.86466,0.832589,-0.427139,0.327642,-0.130376,0.0148071,-0.496765,-0.543578,0.186608,-0.703509,1.25421,-2.87797,-0.193757,-3.62736,-2.87797,-0.240144,-3.62736,-0.653656,-0.816562,-0.638914,-0.46957,0.656252,0.543356,-0.424879,1
1.25357,-0.985258,-2.87202,-0.124238,2.31284,2.05593,-1.67707,1.25357,-0.985258,-2.84842,-0.124238,2.31284,2.01062,-1.67707,1.30266,-0.912426,-2.81535,-0.137815,2.24184,2.01543,-1.6434,0.0362652,-0.632963,-1.29321,-0.588128,0.819262,-0.0031759,-1.20524,0.0362652,-0.632963,-1.29321,-0.588128,0.819262,-0.0031759,-1.20524,-0.044455,-0.535995,0.859562,0.833875,-0.42345,0.327687,-0.134029,-0.0570539,-0.484945,-0.537397,0.157572,-0.705376,1.21695,-2.90356,-0.186759,-3.72628,-2.90356,-0.225969,-3.72628,-0.490918,-0.728321,-0.566665,0.135772,0.710061,0.404921,-0.3367,1
1.27677,-0.98984,-2.88421,-0.100705,2.32895,2.04537,-1.69467,1.27677,-0.98984,-2.84842,-0.100705,2.32895,2.01062,-1.69467,1.30266,-0.9187,-2.82814,-0.145798,2.25569,2.01544,-1.65502,-0.0114213,-0.630985,-1.28396,-0.856654,1.54807,0.00270849,-1.14276,-0.0114213,-0.630985,-1.28396,-0.856654,1.54807,0.00270849,-1.14276,-0.0457483,-0.541215,0.854506,0.836758,-0.41945,0.324213,-0.137053,-0.138328,-0.501325,-0.569307,0.128672,-0.707495,1.17856,-2.89006,-0.211906,-3.83872,-2.89006,-0.213536,-3.83872,-0.25894,-0.711395,-0.560658,0.450924,0.732572,0.299327,-0.396498,1
1.25063,-1.00324,-2.9014,-0.12932,2.34246,2.06672,-1.72031,1.25063,-1.00324,-2.84842,-0.12932,2.34246,2.01062,-1.72031,1.30237,-0.924941,-2.84068,-0.154011,2.2736,2.01543,-1.6657,-0.0323942,-0.61918,-1.22648,-0.772007,1.832,-0.00244485,-1.04353,-0.0323942,-0.61918,-1.22648,-0.772007,1.832,-0.00244485,-1.04353,-0.0477311,-0.546122,0.849689,0.840258,-0.415506,0.318984,-0.139895,-0.18475,-0.451258,-0.527117,0.100282,-0.709906,1.13939,-2.83897,-0.241119,-3.91659,-2.83897,-0.208107,-3.91659,-0.517372,-0.782943,-0.607237,0.246911,0.6886,0.512989,-0.546158,1
1.23135,-1.01319,-2.91859,-0.192266,2.35448,2.07224,-1.73256,1.23135,-1.01319,-2.84842,-0.192266,2.35448,2.01062,-1.73256,1.30216,-0.931492,-2.85136,-0.158594,2.29109,2.01543,-1.67502,-0.0173895,-0.685503,-1.00351,-0.335651,1.69601,-0.00284033,-0.884709,-0.0173895,-0.685503,-1.00351,-0.335651,1.69601,-0.00284033,-0.884709,-0.0499545,-0.550119,0.84559,0.843212,-0.412698,0.313414,-0.142988,-0.201142,-0.370262,-0.450737,0.0705825,-0.71238,1.09976,-2.96994,-0.247353,-3.96332,-2.96994,-0.214072,-3.96332,-0.70811,-0.816969,-0.672298,-0.336726,0.633936,0.568084,-0.57535,1
1.22888,-1.02034,-2.92289,-0.208751,2.37256,2.0701,-1.73461,1.22888,-1.02034,-2.84842,-0.208751,2.37256,2.01062,-1.73461,1.30215,-0.940059,-2.85862,-0.157437,2.30605,2.01542,-1.6824,0.00340361,-0.919596,-0.633754,0.27381,1.42244,0.00127037,-0.710035,0.00340361,-0.919596,-0.633754,0.27381,1.42244,0.00127037,-0.710035,-0.0524454,-0.553548,0.841752,0.84552,-0.411067,0.307831,-0.146149,-0.229403,-0.326187,-0.424178,0.0416898,-0.715558,1.05814,-2.88927,-0.317818,-4.16172,-2.88927,-0.229408,-4.16172,-0.732712,-0.802825,-0.642707,-0.513133,0.665191,0.54672,-0.522052,1
1.23099,-1.03263,-2.92712,-0.211686,2.38301,2.07451,-1.73945,1.23099,-1.03263,-2.84842,-0.211686,2.38301,2.01062,-1.73945,1.3026,-0.951205,-2.86221,-0.150517,2.31901,2.01535,-1.69014,0.0572953,-1.18158,-0.282366,0.806053,1.26073,-0.00766974,-0.818444,0.0572953,-1.18158,-0.282366,0.806053,1.26073,-0.00766974,-0.818444,-0.0551795,-0.556632,0.837936,0.847265,-0.410867,0.301317,-0.150129,-0.245366,-0.311708,-0.42894,0.0133491,-0.717705,1.01592,-2.83406,-0.214678,-4.22206,-2.83406,-0.242277,-4.22206,-0.716108,-0.814216,-0.649143,-0.611693,0.639962,0.591622,-0.49313,1
1.22888,-1.04668,-2.92898,-0.204746,2.38341,2.07743,-1.74627,1.22888,-1.04668,-2.84842,-0.204746,2.38341,2.01062,-1.74627,1.30311,-0.964464,-2.86316,-0.140484,2.33175,2.01507,-1.70103,0.0406855,-1.36459,-0.0404458,1.0359,1.28947,-0.0253461,-1.18696,0.0406855,-1.36459,-0.0404458,1.0359,1.28947,-0.0253461,-1.18696,-0.058371,-0.559749,0.83383,0.848809,-0.411585,0.292981,-0.155829,-0.295575,-0.321786,-0.464656,-0.0150633,-0.718946,0.973305,-2.84125,-0.124061,-4.26161,-2.84125,-0.238497,-4.26161,-0.742293,-0.822175,-0.658219,-0.642619,0.516609,0.623555,-0.452331,1
1.22642,-1.05939,-2.92832,-0.194117,2.35593,2.0789,-1.75391,1.22642,-1.05939,-2.84842,-0.194117,2.35593,2.01062,-1.75391,1.30298,-0.977652,-2.8624,-0.131572,2.34515,2.01468,-1.71495,-0.0381928,-1.27616,0.100186,0.812152,1.34828,-0.0482474,-1.43175,-0.0381928,-1.27616,0.100186,0.812152,1.34828,-0.0482474,-1.43175,-0.0620845,-0.562868,0.829625,0.850508,-0.412336,0.283016,-0.162843,-0.333822,-0.313936,-0.464293,-0.045988,-0.721601,0.928842,-3.09247,-0.265539,-4.44634,-3.09247,-0.234715,-4.44634,-0.765654,-0.817401,-0.659289,-0.625454,0.107837,0.642206,-0.389576,1
1.2253,-1.07121,-2.92529,-0.194558,2.37659,2.07512,-1.75754,1.2253,-1.07121,-2.84842,-0.194558,2.37659,2.01062,-1.75754,1.30176,-0.989434,-2.86058,-0.127629,2.35955,2.01424,-1.72877,-0.153946,-1.14399,0.203919,0.22283,1.47468,-0.0428905,-1.34319,-0.153946,-1.14399,0.203919,0.22283,1.47468,-0.0428905,-1.34319,-0.0663171,-0.566324,0.825131,0.85307,-0.411609,0.272307,-0.169405,-0.382274,-0.366077,-0.535484,-0.0749928,-0.724543,0.884093,-2.90048,-0.29425,-4.47492,-2.90047,-0.234787,-4.47492,-0.764549,-0.817749,-0.647089,-0.669291,0.170408,0.608867,-0.287715,1
1.22187,-1.08066,-2.9248,-0.198049,2.41141,2.06625,-1.75428,1.22187,-1.08066,-2.84842,-0.198049,2.41141,2.01062,-1.75428,1.2989,-0.9993,-2.85831,-0.131257,2.37431,2.01387,-1.74055,-0.324394,-0.939062,0.239403,-0.575194,1.45604,-0.0300198,-1.12334,-0.324394,-0.939062,0.239403,-0.575194,1.45604,-0.0300198,-1.12334,-0.0711284,-0.570571,0.819919,0.856931,-0.4082,0.261927,-0.174458,-0.431321,-0.437593,-0.631491,-0.104067,-0.727954,0.83953,-2.90745,-0.341076,-4.45622,-2.90745,-0.244961,-4.45622,-0.770339,-0.813577,-0.664864,-0.66793,0.370998,0.52381,-0.137345,1
1.23652,-1.08189,-2.85569,-0.213416,2.44682,2.03672,-1.76941,1.23652,-1.08189,-2.84842,-0.213416,2.44682,2.01062,-1.76941,1.29445,-1.00706,-2.85585,-0.143631,2.38421,2.01356,-1.75048,-0.492313,-0.715418,0.251795,-1.42749,0.774777,-0.0213075,-0.95602,-0.492313,-0.715418,0.251795,-1.42749,0.774777,-0.0213075,-0.95602,-0.0757658,-0.576128,0.813419,0.861698,-0.401393,0.254462,-0.177788,-0.411083,-0.538653,-0.767387,-0.117501,-0.743899,0.817263,-1.34342,-1.59453,-2.22676,-1.34342,-0.396858,-2.22676,-0.579256,-0.748324,0.00159848,-0.697847,0.626106,0.231582,-0.189269,1
1.30705,-1.07897,-2.79829,-0.206733,2.4623,2.01523,-1.79543,1.30705,-1.07897,-2.79829,-0.206733,2.4623,2.01062,-1.79543,1.28829,-1.01195,-2.85329,-0.160245,2.38594,2.01346,-1.75871,-0.638073,-0.418012,0.26022,-1.68726,0.0326922,-0.0247109,-0.766002,-0.638073,-0.418012,0.26022,-1.68726,0.0326922,-0.0247109,-0.766002,-0.0798758,-0.581648,0.80688,0.865773,-0.393223,0.251611,-0.180289,-0.384214,-0.473448,-0.701172,-0.122827,-0.776032,0.821181,-0.532544,-3.21324,0.391799,-0.532544,-0.825864,0.391799,0.187597,-0.670156,0.550011,-0.46488,0.763615,0.0177199,-0.367268,1
1.32099,-1.08865,-2.80053,-0.162896,2.45489,2.06505,-1.80853,1.32099,-1.08865,-2.80053,-0.162896,2.45489,2.01062,-1.80853,1.2813,-1.01589,-2.8511,-0.176725,2.38694,2.01345,-1.76393,-0.716437,-0.429709,0.204171,-1.57467,0.197802,0.0102942,-0.439595,-0.716437,-0.429709,0.204171,-1.57467,0.197802,0.0102942,-0.439595,-0.0842463,-0.586566,0.800745,0.86958,-0.384963,0.250048,-0.181962,-0.452371,-0.423229,-0.683665,-0.126748,-0.808242,0.825868,-0.392109,-3.22099,0.468713,-0.392109,-1.41467,0.468713,0.396988,-0.727615,0.505731,0.138288,0.679491,0.516059,-0.44605,1
1.31369,-1.10111,-2.83136,-0.172765,2.44044,2.07654,-1.80454,1.31369,-1.10111,-2.83136,-0.172765,2.44044,2.01062,-1.80454,1.27403,-1.02211,-2.84963,-0.190013,2.39413,2.01341,-1.76774,-0.712542,-0.711068,0.127929,-1.24529,0.92495,-0.0129546,-0.386698,-0.712542,-0.711068,0.127929,-1.24529,0.92495,-0.0129546,-0.386698,-0.0899427,-0.591274,0.794344,0.873778,-0.376997,0.24606,-0.183956,-0.566706,-0.429252,-0.741043,-0.130384,-0.840057,0.82719,-0.363559,-3.18156,0.132191,-0.363559,-2.03873,0.132191,0.396576,-0.789978,0.18268,0.172479,0.463031,0.631272,-0.368031,1
1.29851,-1.1096,-2.83611,-0.179437,2.42957,2.07968,-1.80644,1.29851,-1.1096,-2.83611,-0.179437,2.42957,2.01062,-1.80644,1.26759,-1.03098,-2.84787,-0.200134,2.40978,2.01331,-1.77224,-0.632944,-0.924969,0.206471,-0.981066,1.74559,-0.023872,-0.492588,-0.632944,-0.924969,0.206471,-0.981066,1.74559,-0.023872,-0.492588,-0.0967538,-0.595845,0.787675,0.878643,-0.369721,0.237451,-0.18684,-0.637859,-0.419083,-0.764574,-0.134182,-0.872726,0.827981,-0.37989,-3.26686,0.079149,-0.37989,-2.6182,0.079149,0.309264,-0.786165,0.117615,0.206976,0.197899,0.663729,-0.341971,1
1.24546,-1.1179,-2.85343,-0.177989,2.39216,2.08324,-1.82023,1.24546,-1.1179,-2.84842,-0.177989,2.39216,2.01062,-1.82023,1.26082,-1.04065,-2.84263,-0.208303,2.4304,2.01314,-1.77996,-0.705687,-0.960993,0.642208,-0.761568,2.10638,-0.00841273,-0.874852,-0.705687,-0.960993,0.642208,-0.761568,2.10638,-0.00841273,-0.874852,-0.104838,-0.59967,0.781493,0.883558,-0.36367,0.224169,-0.191881,-0.745442,-0.331268,-0.694952,-0.137815,-0.904876,0.830207,-0.363255,-3.21501,0.2226,-0.363255,-3.04444,0.2226,-0.153615,-0.772582,-0.107936,0.303136,-0.382437,0.701061,-0.402698,1
1.23473,-1.12613,-2.84774,-0.182374,2.38817,2.0857,-1.83926,1.23473,-1.12613,-2.84774,-0.182374,2.38817,2.01062,-1.83926,1.25327,-1.05032,-2.83332,-0.212622,2.44764,2.01284,-1.79092,-0.758308,-0.978561,0.998659,-0.302427,1.50599,-0.0410091,-1.13113,-0.758308,-0.978561,0.998659,-0.302427,1.50599,-0.0410091,-1.13113,-0.113384,-0.602382,0.776261,0.887076,-0.359453,0.210166,-0.199298,-0.755334,-0.237741,-0.587582,-0.142054,-0.937335,0.830607,-0.423932,-3.24588,0.0400126,-0.423932,-3.22314,0.0400126,-0.185359,-0.758147,-0.144298,0.302483,-0.594651,0.728614,-0.483427,1
1.2183,-1.13647,-2.84552,-0.177852,2.39238,2.0852,-1.85161,1.2183,-1.13647,-2.84552,-0.177852,2.39238,2.01062,-1.85161,1.24624,-1.06167,-2.82405,-0.211158,2.45502,2.01241,-1.80125,-0.678615,-1.21363,0.846618,0.282701,0.472551,-0.0407454,-0.982001,-0.678615,-1.21363,0.846618,0.282701,0.472551,-0.0407454,-0.982001,-0.120785,-0.604985,0.770842,0.888771,-0.356198,0.201031,-0.206872,-0.663154,-0.255099,-0.628608,-0.146468,-0.970073,0.829096,-0.441325,-3.27379,-0.151128,-0.441325,-3.2326,-0.151128,-0.279412,-0.748019,-0.214708,0.333056,-0.62638,0.727857,-0.503566,1
1.20646,-1.15104,-2.84588,-0.165113,2.39089,2.08399,-1.85845,1.20646,-1.15104,-2.84588,-0.165113,2.39089,2.01062,-1.85845,1.2406,-1.07564,-2.81994,-0.205223,2.45161,2.01196,-1.8103,-0.512482,-1.43175,0.245431,0.681584,-0.614605,-0.0470393,-0.893925,-0.512482,-1.43175,0.245431,0.681584,-0.614605,-0.0470393,-0.893925,-0.126153,-0.608596,0.763954,0.888893,-0.352632,0.199626,-0.213706,-0.487436,-0.336719,-0.737944,-0.15039,-1.00172,0.826357,-0.39221,-3.16493,-0.273913,-0.39221,-3.23243,-0.273913,-0.341389,-0.754028,-0.259313,0.401099,-0.607248,0.720258,-0.481572,1
1.19994,-1.16536,-2.85194,-0.153136,2.38033,2.08331,-1.8658,1.19994,-1.16536,-2.84842,-0.153136,2.38033,2.01062,-1.8658,1.23685,-1.08989,-2.82228,-0.198299,2.43845,2.01191,-1.82002,-0.340193,-1.39822,-0.376458,0.671337,-1.51586,0.00812552,-1.01116,-0.340193,-1.39822,-0.376458,0.671337,-1.51586,0.00812552,-1.01116,-0.128742,-0.613105,0.756033,0.887533,-0.348825,0.205684,-0.219773,-0.268615,-0.398655,-0.8041,-0.154887,-1.034,0.822415,-0.449729,-3.228,-0.394213,-0.449729,-3.23222,-0.394213,-0.369092,-0.75473,-0.296559,0.451629,-0.581236,0.713953,-0.457761,1
1.20073,-1.17704,-2.85888,-0.147189,2.36402,2.08331,-1.87573,1.20073,-1.17704,-2.84842,-0.147189,2.36402,2.01062,-1.87573,1.23341,-1.10176,-2.82887,-0.192419,2.42042,2.01202,-1.83147,-0.356468,-1.13396,-0.713283,0.548184,-1.83273,0.020889,-1.18449,-0.356468,-1.13396,-0.713283,0.548184,-1.83273,0.020889,-1.18449,-0.129871,-0.617384,0.748616,0.884857,-0.345419,0.215916,-0.226038,-0.20048,-0.344282,-0.710449,-0.158456,-1.06546,0.817614,-0.356895,-3.14618,-0.480062,-0.356895,-3.21733,-0.480062,-0.326854,-0.752792,-0.300082,0.452301,-0.564011,0.712922,-0.44268,1
1.19688,-1.18699,-2.86544,-0.143541,2.34722,2.08365,-1.88919,1.19688,-1.18699,-2.84842,-0.143541,2.34722,2.01062,-1.88919,1.22941,-1.11189,-2.83534,-0.18689,2.40404,2.01206,-1.84388,-0.406791,-0.978117,-0.593282,0.596422,-1.54161,0.00195349,-1.24653,-0.406791,-0.978117,-0.593282,0.596422,-1.54161,0.00195349,-1.24653,-0.131349,-0.620861,0.742211,0.881748,-0.342791,0.225289,-0.232937,-0.247964,-0.252189,-0.578431,-0.161847,-1.09817,0.812318,-0.339115,-3.27079,-0.529677,-0.339115,-3.21455,-0.529677,-0.325267,-0.751028,-0.300939,0.433488,-0.568172,0.715832,-0.453056,1
1.19472,-1.19805,-2.87185,-0.139763,2.33419,2.08373,-1.9011,1.19472,-1.19805,-2.84842,-0.139763,2.33419,2.01062,-1.9011,1.22559,-1.12255,-2.8403,-0.180343,2.3908,2.01222,-1.85572,-0.369854,-1.10602,-0.480711,0.681644,-1.25843,0.0158915,-1.15615,-0.369854,-1.10602,-0.480711,0.681644,-1.25843,0.0158915,-1.15615,-0.133343,-0.624018,0.735971,0.878902,-0.34063,0.232485,-0.239694,-0.273733,-0.262933,-0.62341,-0.165378,-1.13065,0.806889,-0.353104,-3.24739,-0.542897,-0.353104,-3.21383,-0.542897,-0.308671,-0.754993,-0.315456,0.405803,-0.566028,0.715184,-0.453836,1
1.19344,-1.20982,-2.87853,-0.133952,2.32305,2.08352,-1.91159,1.19344,-1.20982,-2.84842,-0.133952,2.32305,2.01062,-1.91159,1.22231,-1.13394,-2.84481,-0.172246,2.37913,2.01219,-1.86647,-0.310867,-1.1424,-0.429166,0.839036,-1.15807,-0.00536907,-1.05182,-0.310867,-1.1424,-0.429166,0.839036,-1.15807,-0.00536907,-1.05182,-0.135379,-0.627042,0.729796,0.876173,-0.338767,0.238816,-0.246017,-0.25673,-0.245117,-0.595484,-0.169032,-1.16288,0.799237,-0.365347,-3.22316,-0.765151,-0.365347,-3.21582,-0.765151,-0.288663,-0.758795,-0.337162,0.382935,-0.560804,0.713303,-0.451188,1
1.19157,-1.22186,-2.88274,-0.127553,2.3106,2.0836,-1.92195,1.19157,-1.22186,-2.84842,-0.127553,2.3106,2.01062,-1.92195,1.21958,-1.14565,-2.84787,-0.163591,2.36713,2.01234,-1.87675,-0.271294,-1.17082,-0.277621,0.872749,-1.23005,0.0126796,-1.02758,-0.271294,-1.17082,-0.277621,0.872749,-1.23005,0.0126796,-1.02758,-0.137181,-0.629995,0.723585,0.873524,-0.337199,0.244615,-0.251824,-0.233028,-0.244188,-0.604414,-0.172937,-1.19483,0.789899,-0.390565,-3.19556,-0.933826,-0.390565,-3.22237,-0.933826,-0.280124,-0.762072,-0.348645,0.36038,-0.565279,0.712536,-0.452046,1
1.19085,-1.23286,-2.88375,-0.119843,2.29625,2.08384,-1.93339,1.19085,-1.23286,-2.84842,-0.119843,2.29625,2.01062,-1.93339,1.21692,-1.1568,-2.84979,-0.154668,2.35391,2.01235,-1.88735,-0.261167,-1.10611,-0.165434,0.873132,-1.35437,0.00393093,-1.07421,-0.261167,-1.10611,-0.165434,0.873132,-1.35437,0.00393093,-1.07421,-0.138802,-0.632674,0.717769,0.870614,-0.336043,0.250417,-0.257676,-0.21086,-0.221158,-0.564044,-0.176994,-1.22697,0.781349,-0.405711,-3.21367,-0.854939,-0.405711,-3.22266,-0.854939,-0.260678,-0.760544,-0.339593,0.348246,-0.576596,0.714899,-0.460462,1
1.19124,-1.24409,-2.8844,-0.114093,2.28212,2.08389,-1.94335,1.19124,-1.24409,-2.84842,-0.114093,2.28212,2.01062,-1.94335,1.21431,-1.16784,-2.85082,-0.146889,2.33973,2.01244,-1.89837,-0.260795,-1.08975,-0.0817344,0.765715,-1.43101,0.00656751,-1.10804,-0.260795,-1.08975,-0.0817344,0.765715,-1.43101,0.00656751,-1.10804,-0.140293,-0.635502,0.711657,0.867796,-0.33462,0.256173,-0.263316,-0.20083,-0.230416,-0.588661,-0.179661,-1.25814,0.77254,-0.266647,-3.1166,-0.880915,-0.266647,-3.21356,-0.880915,-0.230724,-0.762483,-0.335746,0.327959,-0.576106,0.714566,-0.449859,1
1.18144,-1.25497,-2.88732,-0.108705,2.2675,2.08407,-1.95678,1.18144,-1.25497,-2.84842,-0.108705,2.2675,2.01062,-1.95678,1.21168,-1.17826,-2.85119,-0.139581,2.32534,2.01253,-1.90942,-0.262809,-1.04032,-0.0184921,0.711713,-1.42986,0.0163948,-1.10265,-0.262809,-1.04032,-0.0184921,0.711713,-1.42986,0.0163948,-1.10265,-0.141742,-0.638132,0.705804,0.864923,-0.333363,0.261722,-0.268847,-0.197323,-0.215799,-0.572185,-0.185346,-1.2909,0.761642,-0.568527,-3.27642,-1.08983,-0.568527,-3.20448,-1.08983,-0.3024,-0.767154,-0.361331,0.30876,-0.578428,0.715439,-0.473533,1
1.18262,-1.26557,-2.88836,-0.107033,2.25376,2.08424,-1.96671,1.18262,-1.26557,-2.84842,-0.107033,2.25376,2.01062,-1.96671,1.209,-1.18847,-2.85117,-0.132913,2.31116,2.01266,-1.92042,-0.265062,-1.00864,0.00933595,0.662337,-1.41385,0.00824536,-1.09939,-0.265062,-1.00864,0.00933595,0.662337,-1.41385,0.00824536,-1.09939,-0.143241,-0.640729,0.699904,0.862141,-0.332008,0.267007,-0.274208,-0.196533,-0.208737,-0.566149,-0.190195,-1.32347,0.74904,-0.484872,-3.25674,-1.26024,-0.484872,-3.20647,-1.26024,-0.263861,-0.771081,-0.371872,0.258797,-0.57393,0.715844,-0.462868,1
1.18223,-1.27566,-2.88844,-0.101194,2.24037,2.08435,-1.97586,1.18223,-1.27566,-2.84842,-0.101194,2.24037,2.01062,-1.97586,1.20648,-1.1985,-2.85098,-0.126457,2.29704,2.01289,-1.93139,-0.250189,-1.01099,0.0218718,0.631572,-1.41195,0.0273007,-1.09105,-0.250189,-1.01099,0.0218718,0.631572,-1.41195,0.0273007,-1.09105,-0.14465,-0.643259,0.694024,0.859348,-0.330749,0.272164,-0.27938,-0.187192,-0.210351,-0.581227,-0.19331,-1.35528,0.735546,-0.31153,-3.18096,-1.34932,-0.31153,-3.20856,-1.34932,-0.242474,-0.771626,-0.374628,0.252627,-0.566625,0.714683,-0.444713,1
1.1795,-1.28604,-2.88947,-0.0972179,2.22754,2.08448,-1.98702,1.1795,-1.28604,-2.84842,-0.0972179,2.22754,2.01062,-1.98702,1.20391,-1.20857,-2.85073,-0.12041,2.28344,2.01307,-1.94171,-0.266319,-0.989946,0.023848,0.604926,-1.33745,0.0159746,-1.0142,-0.266319,-0.989946,0.023848,0.604926,-1.33745,0.0159746,-1.0142,-0.146162,-0.645798,0.68802,0.856743,-0.329248,0.277153,-0.284205,-0.201698,-0.198835,-0.57318,-0.197847,-1.38719,0.72057,-0.453663,-3.19085,-1.4976,-0.453663,-3.21072,-1.4976,-0.244085,-0.774755,-0.387459,0.23192,-0.559009,0.714066,-0.453124,1
1.17624,-1.29607,-2.88978,-0.0950735,2.21454,2.08461,-1.99595,1.17624,-1.29607,-2.84842,-0.0950735,2.21454,2.01062,-1.99595,1.20084,-1.21832,-2.85035,-0.114722,2.27018,2.01323,-1.95212,-0.321853,-0.985572,0.0365391,0.544035,-1.33708,0.0195338,-1.05818,-0.321853,-0.985572,0.0365391,0.544035,-1.33708,0.0195338,-1.05818,-0.14801,-0.648162,0.682118,0.854069,-0.327721,0.281999,-0.289207,-0.237141,-0.192431,-0.591507,-0.201265,-1.41896,0.705445,-0.341833,-3.17745,-1.51251,-0.341833,-3.20874,-1.51251,-0.245981,-0.777496,-0.394322,0.196483,-0.556415,0.713862,-0.438264,1
1.17228,-1.30605,-2.8903,-0.0931907,2.20085,2.08476,-2.00672,1.17228,-1.30605,-2.84842,-0.0931907,2.20085,2.01062,-2.00672,1.19746,-1.22812,-2.85,-0.109497,2.25633,2.01326,-1.96318,-0.339925,-0.969346,0.0310145,0.522884,-1.40592,-0.0011984,-1.11693,-0.339925,-0.969346,0.0310145,0.522884,-1.40592,-0.0011984,-1.11693,-0.150002,-0.65059,0.675974,0.851255,-0.325978,0.287087,-0.294422,-0.241648,-0.188412,-0.593578,-0.204625,-1.45138,0.689642,-0.335962,-3.2425,-1.58035,-0.335962,-3.21281,-1.58035,-0.25173,-0.779235,-0.403045,0.163066,-0.554848,0.714944,-0.435467,1
1.16875,-1.31606,-2.891,-0.0909251,2.18707,2.08478,-2.01748,1.16875,-1.31606,-2.84842,-0.0909251,2.18707,2.01062,-2.01748,1.19414,-1.2379,-2.84964,-0.104489,2.24201,2.01327,-1.97435,-0.330146,-0.991109,0.0365151,0.483804,-1.43759,0.00128229,-1.11559,-0.330146,-0.991109,0.0365151,0.483804,-1.43759,0.00128229,-1.11559,-0.151902,-0.653045,0.669703,0.848364,-0.324186,0.292369,-0.299503,-0.234601,-0.198543,-0.626057,-0.20811,-1.483,0.673153,-0.348568,-3.16124,-1.64883,-0.348568,-3.19932,-1.64883,-0.253889,-0.781582,-0.413595,0.135635,-0.549346,0.715114,-0.431299,1
1.16367,-1.32624,-2.89227,-0.0912861,2.17329,2.0848,-2.0293,1.16367,-1.32624,-2.84842,-0.0912861,2.17329,2.01062,-2.0293,1.1907,-1.2478,-2.84937,-0.0999409,2.22764,2.01323,-1.98534,-0.347523,-0.976812,0.0310384,0.447852,-1.42969,-0.00708251,-1.09041,-0.347523,-0.976812,0.0310384,0.447852,-1.42969,-0.00708251,-1.09041,-0.153894,-0.655565,0.663168,0.84554,-0.322111,0.29776,-0.304377,-0.244651,-0.192366,-0.630323,-0.213047,-1.5155,0.654201,-0.493711,-3.25065,-1.89525,-0.493711,-3.19911,-1.89525,-0.270341,-0.784414,-0.429011,0.0865483,-0.543479,0.715693,-0.439542,1
1.16186,-1.33621,-2.89246,-0.0908549,2.16019,2.08476,-2.03842,1.16186,-1.33621,-2.84842,-0.0908549,2.16019,2.01062,-2.03842,1.18702,-1.25757,-2.84908,-0.0959311,2.21361,2.01325,-1.99602,-0.375925,-0.985272,0.0344898,0.37511,-1.38826,-0.000335554,-1.06173,-0.375925,-0.985272,0.0344898,0.37511,-1.38826,-0.000335554,-1.06173,-0.156073,-0.658015,0.656548,0.842799,-0.319873,0.303067,-0.309065,-0.266052,-0.192444,-0.659852,-0.21693,-1.54758,0.634295,-0.388271,-3.20737,-1.9906,-0.388271,-3.20563,-1.9906,-0.251578,-0.786387,-0.43383,0.0507621,-0.534227,0.715038,-0.423996,1
1.15707,-1.34574,-2.8918,-0.0838246,2.14625,2.08486,-2.04923,1.15707,-1.34574,-2.84842,-0.0838246,2.14625,2.01062,-2.04923,1.18305,-1.26734,-2.8489,-0.0926784,2.19984,2.01322,-2.00655,-0.394236,-0.963414,0.0225298,0.315717,-1.36676,-0.00663912,-1.04803,-0.394236,-0.963414,0.0225298,0.315717,-1.36676,-0.00663912,-1.04803,-0.158448,-0.660496,0.649683,0.84018,-0.317277,0.308362,-0.313601,-0.27559,-0.186397,-0.665784,-0.221013,-1.57903,0.615608,-0.408262,-3.14558,-1.86865,-0.408262,-3.20321,-1.86865,-0.259853,-0.783993,-0.429058,0.0885381,-0.535937,0.716402,-0.426794,1
1.15698,-1.35548,-2.89149,-0.0850746,2.13432,2.08475,-2.05759,1.15698,-1.35548,-2.84842,-0.0850746,2.13432,2.01062,-2.05759,1.17926,-1.2769,-2.8487,-0.0901785,2.18689,2.01326,-2.01646,-0.376548,-0.962994,0.0214153,0.212883,-1.26152,0.00143807,-0.972881,-0.376548,-0.962994,0.0214153,0.212883,-1.26152,0.00143807,-0.972881,-0.160763,-0.662945,0.642774,0.837859,-0.314508,0.313322,-0.317659,-0.267861,-0.193648,-0.694471,-0.224302,-1.61038,0.59612,-0.32894,-3.13455,-1.94886,-0.32894,-3.19333,-1.94886,-0.222872,-0.785861,-0.427937,0.0510398,-0.525741,0.714946,-0.411252,1
1.14789,-1.36521,-2.89249,-0.0862518,2.12225,2.08476,-2.06835,1.14789,-1.36521,-2.84842,-0.0862518,2.12225,2.01062,-2.06835,1.17532,-1.28644,-2.8486,-0.0886952,2.17443,2.01323,-2.02637,-0.398299,-0.934652,0.007466,0.137036,-1.25095,-0.0055246,-1.00107,-0.398299,-0.934652,0.007466,0.137036,-1.25095,-0.0055246,-1.00107,-0.163204,-0.665458,0.635577,0.835757,-0.31133,0.318107,-0.321546,-0.276876,-0.187627,-0.70175,-0.228959,-1.64255,0.574417,-0.465673,-3.21667,-2.17028,-0.465673,-3.18491,-2.17028,-0.274305,-0.787621,-0.438928,0.0244342,-0.521795,0.715351,-0.419758,1
1.14614,-1.37462,-2.89278,-0.0929118,2.10979,2.08478,-2.0769,1.14614,-1.37462,-2.84842,-0.0929118,2.10979,2.01062,-2.0769,1.17135,-1.2956,-2.8485,-0.0870553,2.16147,2.01324,-2.03681,-0.401474,-0.927558,0.00699863,0.160525,-1.31448,0.000227695,-1.05678,-0.401474,-0.927558,0.00699863,0.160525,-1.31448,0.000227695,-1.05678,-0.165584,-0.667781,0.628596,0.833337,-0.308501,0.323057,-0.325593,-0.274866,-0.176654,-0.697837,-0.232601,-1.67361,0.550804,-0.364208,-3.10671,-2.36128,-0.364208,-3.17404,-2.36128,-0.252077,-0.79027,-0.442799,-0.0585643,-0.51678,0.715421,-0.400832,1
1.13903,-1.38436,-2.89306,-0.0882584,2.09634,2.08486,-2.08825,1.13903,-1.38436,-2.84842,-0.0882584,2.09634,2.01062,-2.08825,1.1673,-1.30544,-2.84846,-0.0855647,2.14789,2.01319,-2.04749,-0.397915,-0.989011,0.00435018,0.140811,-1.36947,-0.00971899,-1.06415,-0.397915,-0.989011,0.00435018,0.140811,-1.36947,-0.00971899,-1.06415,-0.168027,-0.670273,0.620999,0.830916,-0.305315,0.32829,-0.329525,-0.273756,-0.190471,-0.75494,-0.237034,-1.70635,0.52653,-0.44331,-3.27327,-2.42738,-0.44331,-3.17181,-2.42738,-0.282695,-0.78922,-0.445971,-0.0269374,-0.515474,0.716654,-0.407588,1
1.13924,-1.39437,-2.89275,-0.093238,2.08358,2.08474,-2.097,1.13924,-1.39437,-2.84842,-0.093238,2.08358,2.01062,-2.097,1.1636,-1.31526,-2.84837,-0.0847045,2.13422,2.0132,-2.05799,-0.369046,-0.987202,0.00946732,0.0579903,-1.35929,0.00571635,-1.04535,-0.369046,-0.987202,0.00946732,0.0579903,-1.35929,0.00571635,-1.04535,-0.170216,-0.672831,0.613169,0.828674,-0.301986,0.333498,-0.33299,-0.250791,-0.197164,-0.783607,-0.240411,-1.73644,0.500542,-0.337672,-3.00972,-2.59881,-0.337672,-3.15876,-2.59881,-0.243633,-0.79106,-0.443797,-0.0853352,-0.506495,0.715336,-0.390139,1
1.13322,-1.40396,-2.89229,-0.0878,2.07019,2.08477,-2.1072,1.13322,-1.40396,-2.84842,-0.0878,2.07019,2.01062,-2.1072,1.15965,-1.32505,-2.84832,-0.0852519,2.12094,2.01317,-2.06823,-0.399533,-0.956391,0.00958716,-0.0716401,-1.31501,-0.00704656,-1.01502,-0.399533,-0.956391,0.00958716,-0.0716401,-1.31501,-0.00704656,-1.01502,-0.172559,-0.675455,0.604937,0.826762,-0.298079,0.338592,-0.336109,-0.265535,-0.192654,-0.802815,-0.243618,-1.76933,0.475785,-0.320697,-3.28865,-2.47573,-0.320697,-3.1672,-2.47573,-0.264374,-0.789032,-0.439655,-0.0254805,-0.507462,0.715917,-0.389655,1
1.13113,-1.41293,-2.89197,-0.0906463,2.05734,2.08479,-2.11794,1.13113,-1.41293,-2.84842,-0.0906463,2.05734,2.01062,-2.11794,1.15568,-1.33398,-2.84827,-0.0858417,2.10807,2.01318,-2.07825,-0.397263,-0.897245,0.00612408,-0.0597668,-1.27882,0.00296017,-0.999833,-0.397263,-0.897245,0.00612408,-0.0597668,-1.27882,0.00296017,-0.999833,-0.174875,-0.677745,0.597282,0.824731,-0.294563,0.343528,-0.339175,-0.261124,-0.167481,-0.758539,-0.247955,-1.80231,0.449501,-0.433707,-3.29829,-2.62837,-0.433707,-3.18642,-2.62837,-0.24545,-0.789496,-0.436959,-0.0480466,-0.507335,0.716074,-0.396985,1
1.12603,-1.42299,-2.89278,-0.0926239,2.04579,2.08465,-2.12733,1.12603,-1.42299,-2.84842,-0.0926239,2.04579,2.01062,-2.12733,1.15189,-1.34388,-2.8483,-0.08723,2.09529,2.01317,-2.08816,-0.370621,-1.00568,-0.00099471,-0.162858,-1.27665,-0.00858093,-0.986782,-0.370621,-1.00568,-0.00099471,-0.162858,-1.27665,-0.00858093,-0.986782,-0.177141,-0.680324,0.588666,0.823103,-0.290348,0.348415,-0.34177,-0.24642,-0.200793,-0.873044,-0.252394,-1.83424,0.421754,-0.443895,-3.19275,-2.77473,-0.443895,-3.19809,-2.77473,-0.258533,-0.791064,-0.444821,-0.0539387,-0.494984,0.714805,-0.39172,1
1.1237,-1.43244,-2.8926,-0.0966434,2.03354,2.08458,-2.13712,1.1237,-1.43244,-2.84842,-0.0966434,2.03354,2.01062,-2.13712,1.14812,-1.35325,-2.84828,-0.0883385,2.08256,2.01315,-2.09795,-0.388454,-0.929112,-0.00105464,-0.0939467,-1.27604,0.00412266,-0.978345,-0.388454,-0.929112,-0.00105464,-0.0939467,-1.27604,0.00412266,-0.978345,-0.17935,-0.682633,0.58047,0.821305,-0.286503,0.353276,-0.34434,-0.254521,-0.161379,-0.800286,-0.257057,-1.8663,0.391576,-0.466329,-3.20566,-3.01781,-0.466329,-3.21324,-3.01781,-0.244236,-0.791943,-0.443214,-0.0830489,-0.490244,0.714271,-0.391688,1
1.12067,-1.44242,-2.89218,-0.0990816,2.02147,2.08452,-2.14548,1.12067,-1.44242,-2.84842,-0.0990816,2.02147,2.01062,-2.14548,1.144,-1.3632,-2.84834,-0.0893269,2.06967,2.01315,-2.10774,-0.414293,-1.01077,-0.00799367,-0.100574,-1.2945,-0.00394291,-0.980514,-0.414293,-1.01077,-0.00799367,-0.100574,-1.2945,-0.00394291,-0.980514,-0.181842,-0.684896,0.571825,0.819473,-0.282414,0.358284,-0.346899,-0.276531,-0.163693,-0.866787,-0.26051,-1.89692,0.361963,-0.345331,-3.06256,-2.96128,-0.345331,-3.20124,-2.96128,-0.233319,-0.792129,-0.43846,-0.0975468,-0.481934,0.713636,-0.377397,1
1.11957,-1.45206,-2.89096,-0.0997808,2.00906,2.0844,-2.1542,1.11957,-1.45206,-2.84842,-0.0997808,2.00906,2.01062,-2.1542,1.14022,-1.37303,-2.84831,-0.0903681,2.05686,2.01304,-2.11762,-0.367769,-0.98611,0.00335568,-0.121283,-1.27646,-0.00790979,-0.991216,-0.367769,-0.98611,0.00335568,-0.121283,-1.27646,-0.00790979,-0.991216,-0.184095,-0.6871,0.563235,0.817666,-0.278434,0.363151,-0.349311,-0.241349,-0.160747,-0.856704,-0.262369,-1.92688,0.333909,-0.185823,-2.99591,-2.80542,-0.185823,-3.1803,-2.80542,-0.206505,-0.790339,-0.426445,-0.0941275,-0.47798,0.713572,-0.365717,1
1.11025,-1.46245,-2.89295,-0.100953,1.99665,2.08437,-2.16583,1.11025,-1.46245,-2.84842,-0.100953,1.99665,2.01062,-2.16583,1.1365,-1.38317,-2.84838,-0.092357,2.04423,2.01294,-2.12752,-0.380185,-1.00726,-0.00660346,-0.206062,-1.25799,-0.0125598,-0.987728,-0.380185,-1.00726,-0.00660346,-0.206062,-1.25799,-0.0125598,-0.987728,-0.186295,-0.689384,0.554099,0.816138,-0.27402,0.36792,-0.351377,-0.246003,-0.160567,-0.902509,-0.267501,-1.95956,0.303041,-0.513256,-3.26785,-3.08681,-0.513256,-3.15182,-3.08681,-0.262474,-0.792751,-0.445734,-0.0859634,-0.475874,0.714333,-0.383051,1
1.10825,-1.47217,-2.89276,-0.106699,1.98505,2.08414,-2.17488,1.10825,-1.47217,-2.84842,-0.106699,1.98505,2.01062,-2.17488,1.1326,-1.39275,-2.84837,-0.094492,2.03192,2.01279,-2.13724,-0.39187,-0.96002,0.00189355,-0.223092,-1.22284,-0.0122002,-0.963364,-0.39187,-0.96002,0.00189355,-0.223092,-1.22284,-0.0122002,-0.963364,-0.188582,-0.691414,0.545318,0.814556,-0.269765,0.372559,-0.353447,-0.25034,-0.139255,-0.873511,-0.272384,-1.99115,0.270079,-0.488245,-3.15946,-3.29623,-0.488245,-3.13482,-3.29623,-0.243488,-0.794221,-0.443927,-0.122068,-0.468667,0.713533,-0.376367,1
1.10921,-1.48179,-2.89154,-0.107984,1.97524,2.08388,-2.18379,1.10921,-1.48179,-2.84842,-0.107984,1.97524,2.01062,-2.18379,1.12871,-1.40253,-2.84843,-0.0969459,2.02035,2.01259,-2.14607,-0.386357,-0.978764,-0.010055,-0.246378,-1.13469,-0.0228545,-0.856126,-0.386357,-0.978764,-0.010055,-0.246378,-1.13469,-0.0228545,-0.856126,-0.190917,-0.693379,0.536331,0.813314,-0.265163,0.376984,-0.355093,-0.249919,-0.133073,-0.891378,-0.277089,-2.02358,0.235582,-0.470579,-3.24217,-3.44967,-0.470579,-3.14415,-3.44967,-0.194923,-0.79259,-0.431108,-0.110385,-0.451096,0.712877,-0.377119,1
1.09476,-1.49118,-2.89331,-0.0976449,1.95966,2.08419,-2.19881,1.09476,-1.49118,-2.84842,-0.0976449,1.95966,2.01062,-2.19881,1.1249,-1.41238,-2.84842,-0.0992773,2.00915,2.01239,-2.15473,-0.385578,-0.996897,0.000407479,-0.23528,-1.12724,-0.0159994,-0.881665,-0.385578,-0.996897,0.000407479,-0.23528,-1.12724,-0.0159994,-0.881665,-0.193222,-0.695218,0.527351,0.81214,-0.260602,0.38121,-0.356645,-0.249624,-0.121966,-0.902847,-0.28922,-2.04285,0.20763,-1.21302,-1.92719,-2.7952,-1.21302,-3.02584,-2.7952,-0.301451,-0.788056,-0.448863,0.0163246,-0.494957,0.71801,-0.440733,1
1.0797,-1.50026,-2.89438,-0.0849828,1.9412,2.08489,-2.21393,1.0797,-1.50026,-2.84842,-0.0849828,1.9412,2.01062,-2.21393,1.12095,-1.42264,-2.84843,-0.102044,1.99746,2.01218,-2.16413,-0.392002,-1.02003,0.00101869,-0.286286,-1.18547,-0.0208411,-0.955586,-0.392002,-1.02003,0.00101869,-0.286286,-1.18547,-0.0208411,-0.955586,-0.195573,-0.697049,0.517839,0.810905,-0.255838,0.385547,-0.358237,-0.245705,-0.119116,-0.94448,-0.309882,-2.03967,0.191923,-2.06621,0.317407,-1.57071,-2.06621,-2.58645,-1.57071,-0.412486,-0.776201,-0.459561,0.170609,-0.562582,0.727119,-0.498003,1
1.07143,-1.50934,-2.89595,-0.0861199,1.92722,2.08522,-2.22429,1.07143,-1.50934,-2.84842,-0.0861199,1.92722,2.01062,-2.22429,1.11736,-1.43235,-2.84841,-0.104821,1.9854,2.01204,-2.1739,-0.354059,-0.970135,0.000886867,-0.279982,-1.20791,-0.00953968,-0.98061,-0.354059,-0.970135,0.000886867,-0.279982,-1.20791,-0.00953968,-0.98061,-0.197576,-0.698742,0.508633,0.809493,-0.251518,0.389936,-0.359735,-0.211719,-0.108352,-0.911079,-0.332671,-2.03606,0.178951,-2.27892,0.361586,-1.2972,-2.27892,-1.92661,-1.2972,-0.459274,-0.769886,-0.475319,0.187006,-0.581828,0.731857,-0.503881,1
1.06086,-1.51896,-2.89867,-0.0904615,1.91565,2.08577,-2.236,1.06086,-1.51896,-2.84842,-0.0904615,1.91565,2.01062,-2.236,1.11342,-1.44213,-2.84848,-0.10637,1.97317,2.01196,-2.18411,-0.408972,-0.978896,-0.00746635,-0.104637,-1.23427,-0.0103906,-1.03895,-0.408972,-0.978896,-0.00746635,-0.104637,-1.23427,-0.0103906,-1.03895,-0.199847,-0.700127,0.499696,0.807609,-0.247712,0.394444,-0.36169,-0.258313,-0.0705511,-0.865418,-0.358292,-2.03536,0.16152,-2.56209,0.0696182,-1.74307,-2.56209,-1.1904,-1.74307,-0.525627,-0.768322,-0.501943,0.159087,-0.575246,0.738102,-0.518867,1
1.05465,-1.52904,-2.8963,-0.081642,1.9113,2.08535,-2.2445,1.05465,-1.52904,-2.84842,-0.081642,1.9113,2.01062,-2.2445,1.10926,-1.45244,-2.84847,-0.10536,1.96018,2.0119,-2.19527,-0.417041,-1.06137,0.00196537,0.159482,-1.32794,-0.00594404,-1.1448,-0.417041,-1.06137,0.00196537,0.159482,-1.32794,-0.00594404,-1.1448,-0.202377,-0.7012,0.491054,0.804904,-0.244802,0.399227,-0.364443,-0.279107,-0.0470034,-0.84906,-0.381993,-2.03461,0.143567,-2.37013,0.0749826,-1.79532,-2.37013,-0.525552,-1.79532,-0.546106,-0.766001,-0.478288,0.237178,-0.488806,0.734483,-0.492242,1
1.04726,-1.54111,-2.88668,-0.0647935,1.93216,2.08319,-2.24927,1.04726,-1.54111,-2.84842,-0.0647935,1.93216,2.01062,-2.24927,1.10524,-1.46408,-2.84847,-0.102427,1.94588,2.0118,-2.20753,-0.393733,-1.18364,0.00146205,0.328804,-1.46235,-0.0133981,-1.24426,-0.393733,-1.18364,0.00146205,0.328804,-1.46235,-0.0133981,-1.24426,-0.204883,-0.702248,0.481859,0.801626,-0.242269,0.404494,-0.367541,-0.270551,-0.0459286,-0.897981,-0.40565,-2.03365,0.124743,-2.36572,0.096488,-1.88236,-2.36572,-0.0336758,-1.88236,-0.579791,-0.770253,-0.382065,0.376335,-0.137216,0.713976,-0.417413,1
1.04946,-1.55145,-2.85817,-0.0513994,1.95477,2.08123,-2.26153,1.04946,-1.55145,-2.84842,-0.0513994,1.95477,2.01062,-2.26153,1.10133,-1.47598,-2.84843,-0.0993132,1.93077,2.01165,-2.22026,-0.394847,-1.19539,0.0124633,0.280904,-1.51027,-0.0122476,-1.27859,-0.394847,-1.19539,0.0124633,0.280904,-1.51027,-0.0122476,-1.27859,-0.207254,-0.703255,0.472411,0.798158,-0.239846,0.410014,-0.370547,-0.263488,-0.0404152,-0.928686,-0.427259,-2.02964,0.107036,-2.16084,0.400782,-1.77076,-2.16084,0.189734,-1.77076,-0.518677,-0.75474,-0.0973956,0.479138,0.240013,0.695788,-0.41272,1
