Afshin1997/kuka_rl_ros2/src/catch_and_throw/output_files/tm/nn_ema7.00_jvws1_realball_D29H10M16S49/recorded_data.csv
pure_target_joint_0,pure_target_joint_1,pure_target_joint_2,pure_target_joint_3,pure_target_joint_4,pure_target_joint_5,pure_target_joint_6,target_joint_0,target_joint_1,target_joint_2,target_joint_3,target_joint_4,target_joint_5,target_joint_6,pos_joint_0,pos_joint_1,pos_joint_2,pos_joint_3,pos_joint_4,pos_joint_5,pos_joint_6,vel_joint_0,vel_joint_1,vel_joint_2,vel_joint_3,vel_joint_4,vel_joint_5,vel_joint_6,vel_smooth_joint_0,vel_smooth_joint_1,vel_smooth_joint_2,vel_smooth_joint_3,vel_smooth_joint_4,vel_smooth_joint_5,vel_smooth_joint_6,ee_pos_x,ee_pos_y,ee_pos_z,ee_or_w,ee_or_x,ee_or_y,ee_or_z,eep_vel_x,eep_vel_y,eep_vel_z,ee_vel_offset_x,ee_vel_offset_y,ee_vel_offset_z,ball_pos_x,ball_pos_y,ball_pos_z,ball_raw_vx,ball_raw_vy,ball_raw_vz,ball_ema_vx,ball_ema_vy,ball_ema_vz,action_0,action_1,action_2,action_3,action_4,action_5,action_6,command_published
1.82657,-1.06425,-1.84628,-1.05476,1.99871,1.1864,-0.97291,1.82657,-1.06425,-1.84628,-1.05476,1.99871,1.1864,-0.97291,1.78086,-1.07185,-1.81829,-1.11953,1.93741,1.11701,-0.916287,0,2.39759e-05,2.39541e-05,2.39759e-05,0,-3.5953e-05,2.39541e-05,0,2.39759e-05,2.39541e-05,2.39759e-05,0,-3.5953e-05,2.39541e-05,0.533783,-0.456192,0.690944,0.573028,0.179154,0.151514,0.78523,-2.6219e-06,1.65038e-06,2.56531e-05,-2.76166e-06,1.81485e-06,2.57185e-05,2.98207,-0.523647,0.332218,-3.45371,0.12759,5.53459,-3.45371,0.114748,5.53459,0.457129,0.0760678,-0.279816,0.647748,0.612988,0.693892,-0.566235,1
1.80072,-1.03388,-1.85504,-1.05208,1.99741,1.18564,-0.969403,1.80072,-1.03388,-1.85504,-1.05208,1.99741,1.18564,-0.969403,1.78086,-1.07185,-1.81829,-1.11953,1.93741,1.11701,-0.916287,-1.1977e-05,-2.39541e-05,0,-1.1977e-05,0,-2.39759e-05,0,-1.1977e-05,-2.39541e-05,0,-1.1977e-05,0,-2.39759e-05,0,0.533783,-0.456191,0.690944,0.573028,0.179154,0.151514,0.78523,4.83008e-07,-1.01565e-05,-1.73963e-05,1.87998e-06,-1.1619e-05,-1.80569e-05,2.94637,-0.52187,0.386901,-3.56991,0.17764,5.46831,-3.56991,0.13486,5.46831,0.198624,0.37973,-0.367506,0.674525,0.600012,0.686318,-0.531163,1
1.79576,-1.03201,-1.87939,-1.05157,1.99587,1.17449,-0.950528,1.79576,-1.03201,-1.87939,-1.05157,1.99587,1.17449,-0.950528,1.78087,-1.07185,-1.81821,-1.11964,1.93731,1.11689,-0.916158,0.00312782,0.000886803,0.0172689,-0.0216071,-0.0194619,-0.0235604,0.0256936,0.00312782,0.000886803,0.0172689,-0.0216071,-0.0194619,-0.0235604,0.0256936,0.533824,-0.456118,0.690941,0.572922,0.179192,0.15156,0.78529,0.00709539,0.0138919,-0.000142815,0.00803975,0.0146848,-0.000654947,2.91024,-0.520526,0.440196,-3.61242,0.13442,5.32946,-3.61242,0.14431,5.32946,0.148903,0.398401,-0.611785,0.680669,0.585535,0.57602,-0.343696,1
1.78993,-1.04606,-1.87933,-1.06651,1.98688,1.17092,-0.87353,1.78993,-1.04606,-1.87933,-1.06651,1.98688,1.17092,-0.87353,1.78093,-1.07177,-1.81669,-1.12157,1.93468,1.1144,-0.913823,-0.00423034,0.00685482,0.192846,-0.256301,-0.367725,-0.338091,0.294745,-0.00423034,0.00685482,0.192846,-0.256301,-0.367725,-0.338091,0.294745,0.534539,-0.454818,0.690821,0.571153,0.179931,0.152831,0.786162,0.0763201,0.152495,-0.0139536,0.0919445,0.165332,-0.0225006,2.87562,-0.519606,0.491688,-3.46205,0.0920236,5.14923,-3.46205,0.142278,5.14923,0.0899744,0.257059,-0.626481,0.550578,0.522061,0.565131,0.402931,1
1.72142,-1.01577,-1.86825,-1.05847,1.98226,1.15582,-0.863978,1.72142,-1.01577,-1.86825,-1.05847,1.98226,1.15582,-0.863978,1.77947,-1.07205,-1.81521,-1.12473,1.9311,1.11179,-0.913621,-0.197196,-0.0427228,0.102403,-0.31972,-0.265718,-0.143304,-0.16249,-0.197196,-0.0427228,0.102403,-0.31972,-0.265718,-0.143304,-0.16249,0.534861,-0.453877,0.690144,0.57038,0.180888,0.154702,0.786138,-0.0186976,0.0419688,-0.0762642,-0.00673509,0.0483938,-0.0827493,2.84107,-0.518681,0.542472,-3.45554,0.0924945,5.07845,-3.45554,0.129822,5.07845,-0.580541,0.56283,-0.530425,0.66254,0.511528,0.440269,0.496431,1
1.70831,-1.01122,-1.84905,-1.05844,1.97883,1.17849,-0.939575,1.70831,-1.01122,-1.84905,-1.05844,1.97883,1.17849,-0.939575,1.7774,-1.07282,-1.81689,-1.12721,1.93622,1.11814,-0.922673,-0.181545,-0.076158,-0.272311,-0.218,0.808639,0.928385,-1.14323,-0.181545,-0.076158,-0.272311,-0.218,0.808639,0.928385,-1.14323,0.533396,-0.455019,0.689076,0.573748,0.17945,0.15273,0.784401,-0.1566,-0.135481,-0.125432,-0.18764,-0.157529,-0.108646,2.80658,-0.51771,0.593062,-3.44911,0.097096,5.05897,-3.44911,0.120835,5.05897,-0.690892,0.616006,-0.32166,0.687643,0.426125,0.603478,-0.169016,1
1.7012,-1.02928,-1.76871,-1.05549,2.00501,1.20343,-1.0049,1.7012,-1.02928,-1.76871,-1.05549,2.00501,1.20343,-1.0049,1.77709,-1.07282,-1.82365,-1.12693,1.95189,1.13451,-0.935866,0.0204326,0.0340704,-0.803356,0.148038,1.78083,1.81889,-1.25106,0.0204326,0.0340704,-0.803356,0.148038,1.78083,1.81889,-1.25106,0.530668,-0.45791,0.688213,0.579469,0.175489,0.1462,0.782333,-0.233842,-0.297146,-0.102925,-0.301477,-0.340912,-0.0681557,2.7715,-0.516228,0.642984,-3.50802,0.148171,4.99224,-3.50802,0.11579,4.99224,-0.75895,0.435439,0.54941,0.714485,0.5312,0.689122,-0.690306,1
1.70089,-1.0226,-1.8443,-1.05084,1.98584,1.22163,-1.00642,1.70089,-1.0226,-1.8443,-1.05084,1.98584,1.22163,-1.00642,1.77902,-1.0715,-1.83469,-1.12068,1.97022,1.15127,-0.940069,0.262389,0.159363,-1.18237,0.771323,1.73397,1.56877,-0.0752592,0.262389,0.159363,-1.18237,0.771323,1.73397,1.56877,-0.0752592,0.527915,-0.46254,0.688049,0.583743,0.172066,0.138408,0.781332,-0.191086,-0.431807,-0.031866,-0.249762,-0.474719,-0.00314587,2.7363,-0.514712,0.69123,-3.51915,0.151616,4.82453,-3.51915,0.114165,4.82452,-0.781361,0.489039,-0.0961201,0.698403,0.156153,0.703628,-0.663461,1
1.71903,-1.02329,-1.89836,-1.04841,2.00585,1.23097,-0.987814,1.71903,-1.02329,-1.89836,-1.04841,2.00585,1.23097,-0.987814,1.78349,-1.0698,-1.8462,-1.10944,1.98211,1.16331,-0.932136,0.4807,0.169333,-1.11707,1.21395,1.01459,1.11893,1.01311,0.4807,0.169333,-1.11707,1.21395,1.01459,1.11893,1.01311,0.526351,-0.46686,0.688712,0.584616,0.169417,0.132946,0.782207,-0.0982797,-0.395473,0.0729073,-0.142768,-0.414886,0.0937382,2.70201,-0.5131,0.738243,-3.42903,0.161237,4.70132,-3.42903,0.123283,4.70132,-0.644532,0.465134,-0.52152,0.610339,0.23735,0.676637,-0.556777,1
1.72135,-1.01718,-1.89374,-1.04048,2.03518,1.24135,-0.975431,1.72135,-1.01718,-1.89374,-1.04048,2.03518,1.24135,-0.975431,1.78756,-1.06863,-1.85578,-1.09594,1.98972,1.17345,-0.923263,0.37031,0.0943901,-0.857852,1.39092,0.714527,1.01626,0.709268,0.37031,0.0943901,-0.857852,1.39092,0.714527,1.01626,0.709268,0.524485,-0.471396,0.690167,0.586012,0.166056,0.128643,0.782602,-0.169558,-0.450419,0.157833,-0.219244,-0.464303,0.180316,2.66796,-0.511915,0.784501,-3.40517,0.118506,4.62584,-3.40517,0.132978,4.62584,-0.662089,0.51445,-0.379534,0.554595,0.454595,0.678909,-0.521674,1
1.71,-1.01105,-1.83613,-1.0097,2.041,1.25309,-0.988666,1.71,-1.01105,-1.83613,-1.0097,2.041,1.25309,-0.988666,1.79036,-1.06767,-1.85925,-1.0836,1.99473,1.18361,-0.92601,0.246006,0.087499,-0.17839,1.15775,0.395202,1.03472,-0.62709,0.246006,0.087499,-0.17839,1.15775,0.395202,1.03472,-0.62709,0.521869,-0.474654,0.693369,0.591218,0.159935,0.124836,0.780576,-0.208622,-0.269094,0.325349,-0.27487,-0.268645,0.354027,2.63273,-0.510566,0.829779,-3.52311,0.134897,4.52777,-3.52311,0.139517,4.52777,-0.803601,0.566217,0.231269,0.739003,0.46279,0.694792,-0.62656,1
1.70611,-1.00868,-1.82348,-0.994471,2.03769,1.25457,-1.00692,1.70611,-1.00868,-1.82348,-0.994471,2.03769,1.25457,-1.00692,1.79067,-1.0675,-1.85686,-1.0732,1.99682,1.1946,-0.941082,-0.0506586,-0.00218119,0.35455,1.00916,0.199403,1.10417,-1.73366,-0.0506586,-0.00218119,0.35455,1.00916,0.199403,1.10417,-1.73366,0.518051,-0.47719,0.697654,0.600653,0.151246,0.121368,0.775635,-0.343355,-0.270228,0.413728,-0.425513,-0.267596,0.447506,2.59774,-0.509289,0.873923,-3.4991,0.127691,4.41439,-3.4991,0.140665,4.41439,-0.845641,0.588199,0.333833,0.787283,0.408696,0.599711,-0.658336,1
1.70449,-1.01029,-1.80978,-0.98566,2.04599,1.26399,-1.02547,1.70449,-1.01029,-1.80978,-0.98566,2.04599,1.26399,-1.02547,1.78896,-1.06802,-1.85227,-1.06421,2.00099,1.20625,-0.958558,-0.191573,-0.0626311,0.456299,0.850841,0.511691,1.18558,-1.65921,-0.191573,-0.0626311,0.456299,0.850841,0.511691,1.18558,-1.65921,0.513152,-0.480368,0.70198,0.61071,0.142461,0.116096,0.770234,-0.410603,-0.315874,0.37756,-0.501102,-0.327534,0.412683,2.5632,-0.507807,0.916856,-3.45445,0.148195,4.29328,-3.45445,0.138018,4.29328,-0.844671,0.577305,0.424828,0.785513,0.450065,0.577431,-0.669158,1
1.70283,-1.00977,-1.8012,-0.978879,2.05837,1.27954,-1.03898,1.70283,-1.00977,-1.8012,-0.978879,2.05837,1.27954,-1.03898,1.78655,-1.06766,-1.84946,-1.05495,2.0092,1.21844,-0.971594,-0.258422,0.0802364,0.18304,0.950804,0.917267,1.22742,-1.21601,-0.258422,0.0802364,0.18304,0.950804,0.917267,1.22742,-1.21601,0.507544,-0.484526,0.706304,0.619473,0.134515,0.109164,0.765665,-0.48872,-0.42394,0.39532,-0.581468,-0.445776,0.429002,2.52913,-0.506127,0.958763,-3.40614,0.167954,4.19072,-3.40614,0.139164,4.19072,-0.837263,0.578933,0.482587,0.760756,0.491764,0.610918,-0.673871,1
1.70025,-1.006,-1.80642,-0.968502,2.06722,1.29122,-1.04984,1.70025,-1.006,-1.80642,-0.968502,2.06722,1.29122,-1.04984,1.78413,-1.06547,-1.85108,-1.04466,2.01974,1.23053,-0.983068,-0.226615,0.270994,-0.258614,1.0584,1.06697,1.19396,-1.13899,-0.226615,0.270994,-0.258614,1.0584,1.06697,1.19396,-1.13899,0.501706,-0.489443,0.710407,0.628616,0.127454,0.102754,0.760288,-0.499569,-0.47068,0.384623,-0.582114,-0.489155,0.412716,2.49475,-0.504783,1.00013,-3.43814,0.134444,4.1364,-3.43814,0.140301,4.1364,-0.838799,0.594719,0.446628,0.761631,0.474815,0.606894,-0.667762,1
1.69757,-0.998102,-1.81585,-0.956186,2.07603,1.3002,-1.05958,1.69757,-0.998102,-1.81585,-0.956186,2.07603,1.3002,-1.05958,1.78171,-1.0612,-1.85541,-1.03301,2.02978,1.24139,-0.994624,-0.260963,0.463178,-0.457641,1.1872,0.976959,1.06165,-1.1675,-0.260963,0.463178,-0.457641,1.1872,0.976959,1.06165,-1.1675,0.495743,-0.494408,0.715051,0.638729,0.120545,0.097985,0.753587,-0.538248,-0.486801,0.457751,-0.612274,-0.494591,0.481567,2.46089,-0.503541,1.04073,-3.38652,0.124162,4.06049,-3.38652,0.142312,4.06049,-0.841421,0.63101,0.395559,0.768276,0.462463,0.588087,-0.64955,1
1.69415,-0.989511,-1.82115,-0.943913,2.08686,1.3081,-1.06986,1.69415,-0.989511,-1.82115,-0.943913,2.08686,1.3081,-1.06986,1.77839,-1.05632,-1.85893,-1.02075,2.03889,1.25122,-1.00686,-0.351314,0.485337,-0.298007,1.23842,0.898379,0.950361,-1.24154,-0.351314,0.485337,-0.298007,1.23842,0.898379,0.950361,-1.24154,0.489177,-0.499428,0.720414,0.649466,0.113311,0.0935995,0.746052,-0.596977,-0.494277,0.530427,-0.673532,-0.499437,0.553642,2.4264,-0.502564,1.08012,-3.44925,0.0977635,3.93906,-3.44925,0.137591,3.93906,-0.842478,0.668063,0.377766,0.768373,0.479671,0.568776,-0.630053,1
1.69049,-0.984665,-1.81536,-0.933026,2.09871,1.31744,-1.0825,1.69049,-0.984665,-1.81536,-0.933026,2.09871,1.31744,-1.0825,1.77444,-1.05204,-1.8584,-1.00945,2.0476,1.26025,-1.01972,-0.407881,0.399312,0.196115,1.07634,0.857823,0.886579,-1.29784,-0.407881,0.399312,0.196115,1.07634,0.857823,0.886579,-1.29784,0.482274,-0.503826,0.726446,0.659534,0.105651,0.0881513,0.738974,-0.607335,-0.399998,0.591493,-0.695538,-0.407584,0.616396,2.39244,-0.501812,1.11867,-3.39601,0.0751376,3.85511,-3.39601,0.126794,3.85511,-0.839585,0.673756,0.430398,0.76423,0.511172,0.571887,-0.627856,1
1.68561,-0.980375,-1.80569,-0.923984,2.1093,1.32603,-1.09474,1.68561,-0.980375,-1.80569,-0.923984,2.1093,1.32603,-1.09474,1.76954,-1.04888,-1.8522,-0.999523,2.05584,1.26854,-1.03244,-0.533347,0.294256,0.74654,0.98212,0.813298,0.819382,-1.25552,-0.533347,0.294256,0.74654,0.98212,0.813298,0.819382,-1.25552,0.47488,-0.507572,0.733196,0.668347,0.0974839,0.0809594,0.732977,-0.667191,-0.359483,0.668151,-0.770435,-0.37203,0.694788,2.35792,-0.500374,1.15573,-3.45113,0.143862,3.70592,-3.45113,0.11839,3.70592,-0.839283,0.685096,0.465106,0.755396,0.534572,0.574881,-0.622989,1
1.67862,-0.976883,-1.79582,-0.91548,2.11652,1.33307,-1.10612,1.67862,-0.976883,-1.79582,-0.91548,2.11652,1.33307,-1.10612,1.76278,-1.04637,-1.8429,-0.990275,2.06392,1.27683,-1.04436,-0.716135,0.24814,0.951391,0.91328,0.808754,0.842776,-1.17086,-0.716135,0.24814,0.951391,0.91328,0.808754,0.842776,-1.17086,0.466399,-0.511578,0.740276,0.676649,0.0889871,0.0725508,0.727299,-0.765278,-0.392363,0.678662,-0.876104,-0.407174,0.704346,2.3233,-0.498887,1.19203,-3.4627,0.148714,3.62966,-3.4627,0.11525,3.62966,-0.841574,0.694901,0.470779,0.74795,0.526064,0.562429,-0.617614,1
1.67081,-0.971971,-1.78781,-0.906174,2.12363,1.34193,-1.11684,1.67081,-0.971971,-1.78781,-0.906174,2.12363,1.34193,-1.11684,1.75481,-1.04266,-1.83426,-0.980563,2.07248,1.28608,-1.05589,-0.822222,0.426745,0.811748,1.00725,0.883135,0.955981,-1.15753,-0.822222,0.426745,0.811748,1.00725,0.883135,0.955981,-1.15753,0.456835,-0.515786,0.747888,0.685396,0.0797823,0.064139,0.720939,-0.875657,-0.416762,0.757193,-0.991922,-0.423099,0.781186,2.28888,-0.497411,1.22715,-3.44162,0.147587,3.51206,-3.44162,0.120058,3.51206,-0.839998,0.706848,0.464516,0.743893,0.511528,0.558518,-0.60942,1
1.66237,-0.965286,-1.78079,-0.895691,2.13242,1.35306,-1.12773,1.66237,-0.965286,-1.78079,-0.895691,2.13242,1.35306,-1.12773,1.74619,-1.03664,-1.82736,-0.969918,2.08228,1.29641,-1.06777,-0.861442,0.658578,0.6688,1.08379,1.00993,1.05213,-1.19641,-0.861442,0.658578,0.6688,1.08379,1.00993,1.05213,-1.19641,0.446277,-0.519834,0.756468,0.694934,0.0695912,0.0560224,0.713502,-0.952728,-0.384657,0.861879,-1.0745,-0.380988,0.883866,2.25463,-0.496161,1.26115,-3.42515,0.124955,3.39966,-3.42515,0.12633,3.39966,-0.838123,0.713502,0.465721,0.742274,0.501482,0.566525,-0.599577,1
1.65389,-0.957776,-1.77373,-0.884183,2.14193,1.36418,-1.13935,1.65389,-0.957776,-1.77373,-0.884183,2.14193,1.36418,-1.13935,1.73769,-1.02941,-1.82056,-0.958435,2.09294,1.30697,-1.07997,-0.858626,0.713776,0.669244,1.16854,1.08013,1.04662,-1.22595,-0.858626,0.713776,0.669244,1.16854,1.08013,1.04662,-1.22595,0.435249,-0.523439,0.765801,0.704577,0.0587472,0.0476789,0.705582,-0.992125,-0.370727,0.903208,-1.11833,-0.364465,0.922468,2.22031,-0.495075,1.29409,-3.43227,0.108591,3.29467,-3.43227,0.131181,3.29467,-0.837993,0.716387,0.468283,0.742521,0.489949,0.572136,-0.593781,1
1.64447,-0.952181,-1.76854,-0.872162,2.15126,1.37405,-1.15236,1.64447,-0.952181,-1.76854,-0.872162,2.15126,1.37405,-1.15236,1.72853,-1.02352,-1.8144,-0.946358,2.10379,1.31692,-1.09221,-0.920152,0.554234,0.612835,1.22589,1.08479,0.98417,-1.2219,-0.920152,0.554234,0.612835,1.22589,1.08479,0.98417,-1.2219,0.423789,-0.527964,0.77415,0.714429,0.0487878,0.0389936,0.696915,-1.03379,-0.462254,0.794879,-1.15633,-0.461861,0.810165,2.18632,-0.493749,1.32645,-3.39825,0.132573,3.23586,-3.39825,0.133967,3.23586,-0.840571,0.713389,0.458519,0.741959,0.474624,0.571276,-0.601546,1
1.63594,-0.946374,-1.76444,-0.859478,2.15885,1.38401,-1.16401,1.63594,-0.946374,-1.76444,-0.859478,2.15885,1.38401,-1.16401,1.72009,-1.01788,-1.80736,-0.934271,2.11427,1.32644,-1.10431,-0.820026,0.578429,0.730074,1.1835,1.03321,0.947439,-1.20483,-0.820026,0.578429,0.730074,1.1835,1.03321,0.947439,-1.20483,0.412596,-0.531871,0.782446,0.723582,0.0388413,0.0301425,0.688485,-0.984234,-0.354897,0.820186,-1.10822,-0.349403,0.832366,2.15186,-0.492446,1.35789,-3.44601,0.130308,3.14389,-3.44601,0.129969,3.14389,-0.841563,0.715078,0.429142,0.747922,0.445847,0.575752,-0.596969,1
1.62732,-0.939876,-1.75791,-0.847486,2.16579,1.39357,-1.17536,1.62732,-0.939876,-1.75791,-0.847486,2.16579,1.39357,-1.17536,1.71156,-1.01188,-1.80012,-0.922277,2.12422,1.33608,-1.11622,-0.874553,0.607215,0.72292,1.22064,0.98556,0.968255,-1.18715,-0.874553,0.607215,0.72292,1.22064,0.98556,0.968255,-1.18715,0.401222,-0.53526,0.790841,0.732416,0.0285822,0.0215049,0.679917,-1.03642,-0.347157,0.831405,-1.16137,-0.335315,0.84037,2.11719,-0.49122,1.38786,-3.46773,0.122645,2.99658,-3.46773,0.126214,2.99658,-0.842413,0.720046,0.422056,0.747918,0.41574,0.574905,-0.591418,1
1.61875,-0.934261,-1.74946,-0.835924,2.17363,1.40387,-1.18736,1.61875,-0.934261,-1.74946,-0.835924,2.17363,1.40387,-1.18736,1.70282,-1.00575,-1.79243,-0.910306,2.1338,1.34616,-1.12805,-0.859453,0.601822,0.782157,1.17588,0.95235,1.01474,-1.18159,-0.859453,0.601822,0.782157,1.17588,0.95235,1.01474,-1.18159,0.389541,-0.538247,0.799269,0.740964,0.0179171,0.012807,0.671184,-1.03405,-0.292306,0.821716,-1.16126,-0.275991,0.827348,2.08393,-0.489878,1.4166,-3.32613,0.134152,2.87467,-3.32613,0.125385,2.87467,-0.840667,0.71494,0.429716,0.743824,0.398261,0.577174,-0.593145,1
1.60955,-0.92803,-1.74434,-0.823634,2.17873,1.41302,-1.19922,1.60955,-0.92803,-1.74434,-0.823634,2.17873,1.41302,-1.19922,1.69394,-0.99971,-1.78508,-0.898267,2.14305,1.35641,-1.13991,-0.916616,0.615412,0.710385,1.23532,0.917721,1.02856,-1.18892,-0.916616,0.615412,0.710385,1.23532,0.917721,1.02856,-1.18892,0.377686,-0.541067,0.807412,0.749394,0.00722396,0.00426464,0.662072,-1.08842,-0.306289,0.810754,-1.2141,-0.284332,0.812874,2.04994,-0.488375,1.44472,-3.39899,0.150347,2.81144,-3.39899,0.129577,2.81144,-0.843854,0.716796,0.407424,0.746339,0.35679,0.566045,-0.593045,1
1.60013,-0.921526,-1.7401,-0.811247,2.18292,1.42256,-1.21067,1.60013,-0.921526,-1.7401,-0.811247,2.18292,1.42256,-1.21067,1.68466,-0.99326,-1.77815,-0.885867,2.15194,1.36694,-1.15181,-0.911296,0.654012,0.700258,1.23185,0.877724,1.06221,-1.19003,-0.911296,0.654012,0.700258,1.23185,0.877724,1.06221,-1.19003,0.365405,-0.543646,0.815595,0.757875,-0.00379545,-0.00399746,0.652376,-1.09736,-0.256366,0.8168,-1.22276,-0.227327,0.815404,2.01608,-0.487225,1.47204,-3.38542,0.114951,2.73226,-3.38542,0.131665,2.73226,-0.8453,0.717335,0.380535,0.746199,0.309752,0.556155,-0.588567,1
1.59108,-0.914706,-1.73592,-0.799296,2.18858,1.43241,-1.22218,1.59108,-0.914706,-1.73592,-0.799296,2.18858,1.43241,-1.22218,1.67577,-0.986526,-1.77118,-0.873667,2.16026,1.3775,-1.1637,-0.898029,0.669184,0.680916,1.21243,0.817075,1.05878,-1.18718,-0.898029,0.669184,0.680916,1.21243,0.817075,1.05878,-1.18718,0.353341,-0.54552,0.823746,0.765899,-0.0149809,-0.0119466,0.642676,-1.08856,-0.211837,0.803508,-1.21057,-0.177192,0.79866,1.98219,-0.48591,1.49821,-3.38939,0.131556,2.61734,-3.38939,0.131449,2.61734,-0.846945,0.7182,0.352618,0.743713,0.283172,0.549052,-0.584792,1
1.58183,-0.907989,-1.73047,-0.787206,2.19498,1.4417,-1.23366,1.58183,-0.907989,-1.73047,-0.787206,2.19498,1.4417,-1.23366,1.66666,-0.979928,-1.76464,-0.861038,2.16811,1.38811,-1.17554,-0.904537,0.671293,0.660675,1.27689,0.769255,1.05416,-1.18451,-0.904537,0.671293,0.660675,1.27689,0.769255,1.05416,-1.18451,0.34102,-0.547344,0.831635,0.773904,-0.0261935,-0.0196816,0.632455,-1.11492,-0.200104,0.800062,-1.23561,-0.160251,0.791745,1.9485,-0.484402,1.52321,-3.36829,0.150803,2.49983,-3.36829,0.133595,2.49983,-0.848289,0.719385,0.341659,0.738322,0.268689,0.535881,-0.581198,1
1.57306,-0.900443,-1.72959,-0.775524,2.19804,1.44901,-1.24341,1.57306,-0.900443,-1.72959,-0.775524,2.19804,1.44901,-1.24341,1.65814,-0.972985,-1.75812,-0.848929,2.17492,1.39813,-1.18698,-0.843095,0.688058,0.636456,1.19659,0.647747,0.986483,-1.12481,-0.843095,0.688058,0.636456,1.19659,0.647747,0.986483,-1.12481,0.329294,-0.548317,0.83946,0.781239,-0.037271,-0.0267083,0.622546,-1.04713,-0.125354,0.775827,-1.1583,-0.0803232,0.764858,1.91436,-0.482575,1.54713,-3.41476,0.182667,2.39153,-3.41476,0.140545,2.39153,-0.850798,0.725426,0.285228,0.734041,0.231164,0.508791,-0.564344,1
1.5641,-0.893284,-1.73053,-0.76395,2.19902,1.45557,-1.25244,1.5641,-0.893284,-1.73053,-0.76395,2.19902,1.45557,-1.25244,1.64932,-0.96623,-1.75226,-0.836566,2.1807,1.40769,-1.19779,-0.893392,0.674649,0.57614,1.2294,0.554924,0.943652,-1.06958,-0.893392,0.674649,0.57614,1.2294,0.554924,0.943652,-1.06958,0.317511,-0.549264,0.846932,0.788458,-0.0480993,-0.0330615,0.612313,-1.07551,-0.133061,0.749799,-1.17983,-0.0831001,0.736357,1.88075,-0.481226,1.57038,-3.36071,0.134939,2.32575,-3.36071,0.144218,2.32575,-0.85221,0.729468,0.217382,0.72616,0.183268,0.478808,-0.546416,1
1.55547,-0.885932,-1.72932,-0.753057,2.20189,1.46304,-1.26153,1.55547,-0.885932,-1.72932,-0.753057,2.20189,1.46304,-1.26153,1.64064,-0.959317,-1.74662,-0.824679,2.18575,1.4169,-1.20827,-0.863276,0.703901,0.56176,1.18573,0.492397,0.918558,-1.04433,-0.863276,0.703901,0.56176,1.18573,0.492397,0.918558,-1.04433,0.306061,-0.549688,0.854223,0.795233,-0.0587639,-0.0388598,0.602197,-1.04274,-0.0743977,0.744029,-1.14167,-0.0198852,0.728211,1.84767,-0.480274,1.59288,-3.30838,0.0951856,2.24944,-3.30838,0.141561,2.24944,-0.851779,0.733846,0.172931,0.716223,0.161429,0.46144,-0.532602,1
1.54594,-0.878901,-1.72796,-0.740459,2.20439,1.47165,-1.27258,1.54594,-0.878901,-1.72796,-0.740459,2.20439,1.47165,-1.27258,1.63133,-0.952168,-1.74154,-0.812341,2.19065,1.42634,-1.21906,-0.951223,0.703527,0.487878,1.23568,0.491595,0.954435,-1.09372,-0.951223,0.703527,0.487878,1.23568,0.491595,0.954435,-1.09372,0.29411,-0.550035,0.861467,0.802219,-0.0696445,-0.0444453,0.591286,-1.10995,-0.0938013,0.725367,-1.20681,-0.0344628,0.706716,1.81378,-0.479018,1.61457,-3.38832,0.125641,2.16891,-3.38832,0.139542,2.16891,-0.853877,0.732668,0.135718,0.718819,0.137423,0.453067,-0.535106,1
1.53679,-0.871954,-1.73223,-0.728572,2.20677,1.48098,-1.28406,1.53679,-0.871954,-1.73223,-0.728572,2.20677,1.48098,-1.28406,1.62222,-0.945209,-1.73701,-0.799931,2.19528,1.43595,-1.23029,-0.891948,0.69859,0.439604,1.23426,0.446284,0.956269,-1.12903,-0.891948,0.69859,0.439604,1.23426,0.446284,0.956269,-1.12903,0.282294,-0.550177,0.868361,0.809119,-0.0804389,-0.0498408,0.579975,-1.07343,-0.0549339,0.701257,-1.1657,0.00788491,0.680284,1.7799,-0.477657,1.63504,-3.38848,0.136089,2.04679,-3.38848,0.135106,2.04679,-0.854262,0.732545,0.0477784,0.71359,0.114915,0.450307,-0.537699,1
1.52775,-0.864493,-1.74538,-0.716968,2.20537,1.48894,-1.29388,1.52775,-0.864493,-1.74538,-0.716968,2.20537,1.48894,-1.29388,1.61327,-0.938176,-1.73373,-0.787403,2.19918,1.44535,-1.24153,-0.901787,0.708908,0.290421,1.27357,0.377656,0.934733,-1.1168,-0.901787,0.708908,0.290421,1.27357,0.377656,0.934733,-1.1168,0.27075,-0.550074,0.874943,0.815995,-0.0910338,-0.0544392,0.568244,-1.0773,-0.0511174,0.67456,-1.16017,0.0176702,0.652156,1.74597,-0.476639,1.654,-3.39261,0.101733,1.89668,-3.39261,0.126189,1.89668,-0.855223,0.736826,-0.11645,0.704344,0.0618927,0.435863,-0.523524,1
1.51893,-0.856111,-1.75337,-0.704454,2.20096,1.49678,-1.30095,1.51893,-0.856111,-1.75337,-0.704454,2.20096,1.49678,-1.30095,1.60443,-0.930616,-1.7311,-0.774705,2.20246,1.45445,-1.25248,-0.870424,0.765236,0.257332,1.24057,0.309047,0.904712,-1.08865,-0.870424,0.765236,0.257332,1.24057,0.309047,0.904712,-1.08865,0.259363,-0.549448,0.881625,0.822646,-0.101702,-0.058376,0.556329,-1.04087,0.0166604,0.685537,-1.11692,0.090938,0.661359,1.71232,-0.47525,1.67268,-3.36533,0.13895,1.86815,-3.36533,0.120594,1.86815,-0.854932,0.745042,-0.222736,0.702507,-0.0149952,0.423324,-0.484783,1
1.50989,-0.848639,-1.76058,-0.691128,2.19269,1.50758,-1.30976,1.50989,-0.848639,-1.76058,-0.691128,2.19269,1.50758,-1.30976,1.59562,-0.923261,-1.72996,-0.762113,2.2052,1.46347,-1.26325,-0.901224,0.733033,0.0604859,1.29066,0.265232,0.895891,-1.07418,-0.901224,0.733033,0.0604859,1.29066,0.265232,0.895891,-1.07418,0.248275,-0.548775,0.887785,0.829254,-0.112008,-0.061548,0.544062,-1.05774,-0.0148908,0.630541,-1.12334,0.0634166,0.605737,1.67888,-0.47383,1.69015,-3.34407,0.141975,1.74664,-3.34407,0.12362,1.74664,-0.857325,0.74622,-0.306164,0.709854,-0.125113,0.441096,-0.465064,1
1.50058,-0.840885,-1.77053,-0.676862,2.18395,1.51935,-1.31904,1.50058,-0.840885,-1.77053,-0.676862,2.18395,1.51935,-1.31904,1.58653,-0.915471,-1.73078,-0.749271,2.20726,1.47235,-1.27392,-0.890546,0.794274,-0.121799,1.27736,0.178483,0.886195,-1.06364,-0.890546,0.794274,-0.121799,1.27736,0.178483,0.886195,-1.06364,0.23725,-0.547881,0.89379,0.836047,-0.122244,-0.0635775,0.531074,-1.02776,0.0293249,0.622118,-1.08072,0.115788,0.596816,1.6449,-0.4725,1.70652,-3.39781,0.133049,1.6374,-3.39781,0.128946,1.6374,-0.859439,0.745853,-0.397482,0.72409,-0.233139,0.470035,-0.451221,1
1.4917,-0.83286,-1.78278,-0.66382,2.17456,1.52797,-1.32616,1.4917,-0.83286,-1.78278,-0.66382,2.17456,1.52797,-1.32616,1.57772,-0.907298,-1.73357,-0.736649,2.20779,1.48116,-1.28426,-0.898252,0.8146,-0.344663,1.25857,0.0143431,0.880275,-1.01805,-0.898252,0.8146,-0.344663,1.25857,0.0143431,0.880275,-1.01805,0.226887,-0.54647,0.899558,0.842781,-0.13241,-0.0640002,0.517776,-0.995385,0.0504804,0.585268,-1.03118,0.146078,0.560423,1.61141,-0.471429,1.72181,-3.34861,0.107056,1.52842,-3.34861,0.128175,1.52842,-0.86015,0.744379,-0.492137,0.728295,-0.332266,0.468112,-0.419036,1
1.48258,-0.824916,-1.79541,-0.651945,2.1661,1.53448,-1.33118,1.48258,-0.824916,-1.79541,-0.651945,2.1661,1.53448,-1.33118,1.56851,-0.899184,-1.73841,-0.723901,2.20705,1.48951,-1.29364,-0.916792,0.829089,-0.510984,1.27594,-0.114534,0.820005,-0.910668,-0.916792,0.829089,-0.510984,1.27594,-0.114534,0.820005,-0.910668,0.216714,-0.545085,0.904937,0.849566,-0.142235,-0.0629362,0.504029,-0.982869,0.0619015,0.566623,-1.00332,0.163367,0.542239,1.57798,-0.470451,1.73601,-3.34315,0.0978202,1.42038,-3.34315,0.124244,1.42038,-0.859278,0.742673,-0.570005,0.719554,-0.409465,0.449616,-0.375466,1
1.47365,-0.817383,-1.80752,-0.640187,2.15713,1.54176,-1.33824,1.47365,-0.817383,-1.80752,-0.640187,2.15713,1.54176,-1.33824,1.55956,-0.890721,-1.74417,-0.711887,2.20442,1.49765,-1.30209,-0.896838,0.831618,-0.615213,1.18419,-0.312288,0.820868,-0.82873,-0.896838,0.831618,-0.615213,1.18419,-0.312288,0.820868,-0.82873,0.207363,-0.543004,0.91021,0.855897,-0.152043,-0.0603299,0.490595,-0.912127,0.108175,0.532013,-0.917113,0.21585,0.507809,1.54412,-0.469332,1.74946,-3.38637,0.111866,1.34516,-3.38637,0.121145,1.34516,-0.859104,0.733382,-0.633469,0.717,-0.472915,0.441135,-0.361469,1
1.46417,-0.810819,-1.82039,-0.628188,2.14789,1.55374,-1.35111,1.46417,-0.810819,-1.82039,-0.628188,2.14789,1.55374,-1.35111,1.54993,-0.882787,-1.75175,-0.699501,2.19948,1.50636,-1.31034,-0.976918,0.793651,-0.791829,1.2515,-0.557021,0.896107,-0.828119,-0.976918,0.793651,-0.791829,1.2515,-0.557021,0.896107,-0.828119,0.197982,-0.541037,0.914907,0.862539,-0.162009,-0.0560947,0.476059,-0.949366,0.0920732,0.489494,-0.938015,0.211764,0.463773,1.51008,-0.468202,1.76153,-3.40343,0.112966,1.2064,-3.40343,0.114952,1.2064,-0.857697,0.719685,-0.686413,0.713134,-0.515961,0.473775,-0.407697,1
1.45521,-0.803932,-1.83151,-0.617356,2.14073,1.56535,-1.3603,1.45521,-0.803932,-1.83151,-0.617356,2.14073,1.56535,-1.3603,1.54066,-0.874447,-1.76051,-0.687064,2.19214,1.51573,-1.31855,-0.911471,0.842452,-0.906557,1.24627,-0.786089,0.948731,-0.812778,-0.911471,0.842452,-0.906557,1.24627,-0.786089,0.948731,-0.812778,0.18922,-0.538315,0.919577,0.86899,-0.172554,-0.0502225,0.461041,-0.880673,0.16549,0.492699,-0.854414,0.295578,0.46435,1.47701,-0.467367,1.77276,-3.30774,0.0835121,1.12365,-3.30774,0.107425,1.12365,-0.854453,0.70515,-0.709991,0.697077,-0.514122,0.496281,-0.417453,1
1.44588,-0.797194,-1.84446,-0.607151,2.13079,1.57655,-1.36869,1.44588,-0.797194,-1.84446,-0.607151,2.13079,1.57655,-1.36869,1.53117,-0.866238,-1.77113,-0.674178,2.18321,1.52534,-1.32634,-0.960751,0.80512,-1.11455,1.2924,-0.927372,0.957024,-0.768148,-0.960751,0.80512,-1.11455,1.2924,-0.927372,0.957024,-0.768148,0.18065,-0.535538,0.923909,0.875427,-0.183161,-0.0428749,0.445242,-0.893094,0.139938,0.445405,-0.848736,0.274447,0.41588,1.44403,-0.465944,1.7832,-3.29732,0.142348,1.04316,-3.29732,0.107281,1.04316,-0.852881,0.690437,-0.733272,0.67027,-0.524168,0.512068,-0.423524,1
1.43675,-0.789704,-1.85722,-0.595727,2.12045,1.58555,-1.37605,1.43675,-0.789704,-1.85722,-0.595727,2.12045,1.58555,-1.37605,1.52201,-0.85792,-1.78286,-0.661156,2.17323,1.53488,-1.33409,-0.900138,0.851148,-1.18385,1.29557,-1.02078,0.953647,-0.784098,-0.900138,0.851148,-1.18385,1.29557,-1.02078,0.953647,-0.784098,0.17259,-0.532454,0.928119,0.881569,-0.193723,-0.0345353,0.429087,-0.838898,0.198264,0.459025,-0.783684,0.335401,0.426253,1.41064,-0.464466,1.79277,-3.33977,0.147751,0.957334,-3.33977,0.113809,0.957334,-0.852605,0.682164,-0.743601,0.654284,-0.527805,0.506727,-0.419556,1
1.42747,-0.783413,-1.87061,-0.582827,2.11013,1.5955,-1.38809,1.42747,-0.783413,-1.87061,-0.582827,2.11013,1.5955,-1.38809,1.51288,-0.849738,-1.79564,-0.64821,2.16274,1.54475,-1.34227,-0.926204,0.800192,-1.30993,1.30147,-1.04634,0.999318,-0.827767,-0.926204,0.800192,-1.30993,1.30147,-1.04634,0.999318,-0.827767,0.164843,-0.529261,0.932024,0.887465,-0.204225,-0.0255404,0.412367,-0.842306,0.177952,0.410148,-0.77641,0.31392,0.374819,1.37708,-0.463385,1.80127,-3.35609,0.108159,0.850427,-3.35609,0.118529,0.850427,-0.854103,0.66325,-0.74974,0.653829,-0.526083,0.507541,-0.458272,1
1.41827,-0.776981,-1.88438,-0.571029,2.10077,1.60497,-1.39818,1.41827,-0.776981,-1.88438,-0.571029,2.10077,1.60497,-1.39818,1.5037,-0.841775,-1.80888,-0.635449,2.1523,1.55496,-1.35085,-0.903158,0.803344,-1.32431,1.25015,-1.04774,1.02315,-0.86632,-0.903158,0.803344,-1.32431,1.25015,-1.04774,1.02315,-0.86632,0.15728,-0.526008,0.935653,0.892974,-0.214646,-0.0163888,0.395292,-0.803209,0.210306,0.398383,-0.731471,0.343545,0.359723,1.34413,-0.461772,1.80859,-3.29449,0.161302,0.73123,-3.29449,0.125777,0.73123,-0.854365,0.647939,-0.754965,0.644196,-0.515302,0.500138,-0.473303,1
1.40891,-0.770761,-1.89794,-0.558493,2.09131,1.61545,-1.40841,1.40891,-0.770761,-1.89794,-0.558493,2.09131,1.61545,-1.40841,1.49452,-0.833914,-1.82238,-0.6229,2.14195,1.56549,-1.3596,-0.935108,0.771359,-1.35651,1.26415,-1.02728,1.05611,-0.873378,-0.935108,0.771359,-1.35651,1.26415,-1.02728,1.05611,-0.873378,0.14991,-0.522612,0.939091,0.897978,-0.225054,-0.00711959,0.378068,-0.820287,0.20642,0.376985,-0.743173,0.336694,0.334869,1.31176,-0.460142,1.81506,-3.23688,0.163022,0.647187,-3.23688,0.135475,0.647187,-0.856062,0.631535,-0.755542,0.644075,-0.506379,0.499578,-0.488148,1
1.39928,-0.765154,-1.91182,-0.546122,2.08085,1.62581,-1.41859,1.39928,-0.765154,-1.91182,-0.546122,2.08085,1.62581,-1.41859,1.48517,-0.82645,-1.83605,-0.610923,2.13164,1.57605,-1.36843,-0.92461,0.736761,-1.36235,1.18564,-1.02899,1.05425,-0.8903,-0.92461,0.736761,-1.36235,1.18564,-1.02899,1.05425,-0.8903,0.142801,-0.519299,0.942161,0.902508,-0.235101,0.00228916,0.360835,-0.778184,0.212085,0.342585,-0.69496,0.336196,0.298629,1.27862,-0.458975,1.82089,-3.31458,0.116637,0.583005,-3.31458,0.140985,0.583005,-0.858906,0.612955,-0.75771,0.648007,-0.507901,0.497622,-0.501531,1
1.38965,-0.759037,-1.92549,-0.534082,2.07146,1.6349,-1.4279,1.38965,-0.759037,-1.92549,-0.534082,2.07146,1.6349,-1.4279,1.47566,-0.819063,-1.84972,-0.598977,2.12133,1.58646,-1.37766,-0.963737,0.736893,-1.37257,1.18924,-1.02937,1.03598,-0.931704,-0.963737,0.736893,-1.37257,1.18924,-1.02937,1.03598,-0.931704,0.135776,-0.515899,0.945155,0.906629,-0.245009,0.0117653,0.343302,-0.789219,0.223696,0.342082,-0.699472,0.344074,0.295167,1.24587,-0.458116,1.8258,-3.27488,0.085929,0.491297,-3.27488,0.134677,0.491297,-0.860087,0.600257,-0.757614,0.648949,-0.498689,0.484411,-0.502431,1
1.37988,-0.753084,-1.93911,-0.520863,2.0619,1.64516,-1.43919,1.37988,-0.753084,-1.93911,-0.520863,2.0619,1.64516,-1.43919,1.46607,-0.811959,-1.86346,-0.587219,2.11112,1.59686,-1.38725,-0.950711,0.71386,-1.36786,1.1753,-1.0185,1.03394,-0.967956,-0.950711,0.71386,-1.36786,1.1753,-1.0185,1.03394,-0.967956,0.128898,-0.512532,0.947926,0.910317,-0.254695,0.0212379,0.325579,-0.769977,0.232466,0.3275,-0.676379,0.34752,0.277994,1.21249,-0.457302,1.82999,-3.33788,0.0813723,0.41914,-3.33788,0.124382,0.41914,-0.861963,0.588753,-0.756566,0.663565,-0.492218,0.482983,-0.519424,1
1.37021,-0.747922,-1.95305,-0.509781,2.05331,1.65427,-1.45013,1.37021,-0.747922,-1.95305,-0.509781,2.05331,1.65427,-1.45013,1.45649,-0.805085,-1.87735,-0.575698,2.10092,1.60721,-1.39714,-0.968016,0.668501,-1.40478,1.16081,-1.01365,1.024,-0.993302,-0.968016,0.668501,-1.40478,1.16081,-1.01365,1.024,-0.993302,0.122254,-0.509181,0.950483,0.913553,-0.264136,0.0308007,0.307741,-0.765547,0.217397,0.296133,-0.665523,0.326065,0.245035,1.17899,-0.456724,1.83265,-3.3499,0.0578314,0.265384,-3.3499,0.110527,0.265384,-0.862795,0.571632,-0.756984,0.659171,-0.476054,0.470617,-0.529901,1
1.36063,-0.741149,-1.96688,-0.498399,2.04516,1.66353,-1.45917,1.36063,-0.741149,-1.96688,-0.498399,2.04516,1.66353,-1.45917,1.44687,-0.798155,-1.89125,-0.563833,2.09083,1.61756,-1.40706,-0.949309,0.710684,-1.37722,1.18798,-1.00844,1.0345,-0.991564,-0.949309,0.710684,-1.37722,1.18798,-1.00844,1.0345,-0.991564,0.115598,-0.505653,0.953092,0.916274,-0.273642,0.0403525,0.289712,-0.754051,0.267365,0.325121,-0.651867,0.374173,0.269143,1.14657,-0.455136,1.83437,-3.24171,0.158823,0.1719,-3.24171,0.101489,0.1719,-0.862333,0.570065,-0.756333,0.654348,-0.456736,0.459789,-0.521076,1
1.3511,-0.735453,-1.98078,-0.487292,2.03723,1.67129,-1.47002,1.3511,-0.735453,-1.98078,-0.487292,2.03723,1.67129,-1.47002,1.43741,-0.791391,-1.90523,-0.552309,2.08075,1.62777,-1.41704,-0.953443,0.663108,-1.40853,1.17044,-1.00241,1.01717,-0.999821,-0.953443,0.663108,-1.40853,1.17044,-1.00241,1.01717,-0.999821,0.109296,-0.502105,0.955515,0.91847,-0.282877,0.0500025,0.271835,-0.741761,0.251509,0.293575,-0.634089,0.351008,0.236402,1.11346,-0.453764,1.83552,-3.31166,0.137129,0.115561,-3.31166,0.100724,0.115561,-0.863068,0.559371,-0.755432,0.650169,-0.435185,0.435165,-0.529731,1
1.34151,-0.729801,-1.99468,-0.477081,2.03134,1.67726,-1.48032,1.34151,-0.729801,-1.99468,-0.477081,2.03134,1.67726,-1.48032,1.42779,-0.784956,-1.91929,-0.5403,2.07088,1.63791,-1.42711,-0.955504,0.639871,-1.40133,1.18156,-0.979233,1.00882,-1.00873,-0.955504,0.639871,-1.40133,1.18156,-0.979233,1.00882,-1.00873,0.102836,-0.498651,0.957832,0.920251,-0.291981,0.0595406,0.253653,-0.740442,0.255811,0.285097,-0.630261,0.349393,0.225673,1.0803,-0.451882,1.83521,-3.31572,0.188255,-0.0306845,-3.31572,0.114821,-0.0306845,-0.862803,0.551547,-0.753945,0.632183,-0.39541,0.39349,-0.532065,1
1.33215,-0.721972,-2.0081,-0.465896,2.02893,1.67753,-1.48948,1.33215,-0.721972,-2.0081,-0.465896,2.02893,1.67753,-1.48948,1.41845,-0.778483,-1.93332,-0.528367,2.06124,1.64774,-1.4373,-0.93959,0.649314,-1.40602,1.22184,-0.95352,0.964732,-1.02031,-0.93959,0.649314,-1.40602,1.22184,-0.95352,0.964732,-1.02031,0.0966712,-0.49506,0.960153,0.921513,-0.300901,0.0689988,0.23561,-0.735072,0.276601,0.299895,-0.622108,0.364609,0.238101,1.04706,-0.450677,1.83414,-3.32435,0.1205,-0.10699,-3.32435,0.128991,-0.10699,-0.862938,0.565112,-0.747805,0.624709,-0.323106,0.297902,-0.521806,1
1.32281,-0.714769,-2.02147,-0.457541,2.03086,1.6729,-1.49799,1.32281,-0.714769,-2.02147,-0.457541,2.03086,1.6729,-1.49799,1.40899,-0.772362,-1.94716,-0.516727,2.05237,1.65717,-1.44726,-0.933214,0.602745,-1.37445,1.14218,-0.868213,0.928073,-0.988304,-0.933214,0.602745,-1.37445,1.14218,-0.868213,0.928073,-0.988304,0.0905418,-0.491651,0.962306,0.922355,-0.309328,0.0781123,0.21789,-0.707905,0.261786,0.269043,-0.59646,0.339852,0.208474,1.01411,-0.449951,1.83187,-3.29415,0.0725329,-0.227904,-3.29415,0.133572,-0.227904,-0.861806,0.575931,-0.743155,0.591858,-0.2151,0.157261,-0.507312,1
1.31343,-0.706165,-2.03332,-0.446714,2.04347,1.65221,-1.50483,1.31343,-0.706165,-2.03332,-0.446714,2.04347,1.65221,-1.50483,1.39965,-0.766434,-1.96075,-0.505306,2.04416,1.66594,-1.45726,-0.951319,0.589291,-1.36435,1.15023,-0.805532,0.864276,-1.00737,-0.951319,0.589291,-1.36435,1.15023,-0.805532,0.864276,-1.00737,0.0845665,-0.488318,0.964415,0.922829,-0.317278,0.0868614,0.200441,-0.716154,0.26325,0.271053,-0.603789,0.333618,0.210588,0.981203,-0.449084,1.82901,-3.29107,0.0867486,-0.285435,-3.29107,0.129913,-0.285435,-0.862225,0.602694,-0.725753,0.585917,-0.00689749,-0.137334,-0.475662,1
1.30384,-0.696914,-2.04427,-0.434746,2.06133,1.63629,-1.51358,1.30384,-0.696914,-2.04427,-0.434746,2.06133,1.63629,-1.51358,1.38999,-0.760559,-1.97443,-0.494011,2.03665,1.67394,-1.46759,-0.959025,0.596661,-1.36282,1.12387,-0.724114,0.771743,-1.03889,-0.959025,0.596661,-1.36282,1.12387,-0.724114,0.771743,-1.03889,0.0785393,-0.485067,0.966544,0.923053,-0.324728,0.0954021,0.182819,-0.706503,0.271782,0.278797,-0.593679,0.333548,0.219571,0.948087,-0.447852,1.825,-3.31162,0.1232,-0.400722,-3.31162,0.118364,-0.400722,-0.861543,0.63645,-0.698342,0.592643,0.246754,-0.376507,-0.459886,1
1.29438,-0.689302,-2.05463,-0.4252,2.07159,1.6288,-1.52281,1.29438,-0.689302,-2.05463,-0.4252,2.07159,1.6288,-1.52281,1.38047,-0.754499,-1.9881,-0.482846,2.03069,1.67991,-1.47797,-0.960188,0.598399,-1.38094,1.09839,-0.546494,0.524563,-1.03335,-0.960188,0.598399,-1.38094,1.09839,-0.546494,0.524563,-1.03335,0.0726112,-0.481877,0.968989,0.923179,-0.331207,0.103322,0.165431,-0.700297,0.258982,0.297134,-0.589089,0.306135,0.24514,0.914547,-0.447161,1.81954,-3.35392,0.0691026,-0.546396,-3.35392,0.105224,-0.546396,-0.860914,0.651966,-0.665345,0.57646,0.408968,-0.511082,-0.4484,1
1.28457,-0.684337,-2.06511,-0.414902,2.07595,1.62449,-1.53197,1.28457,-0.684337,-2.06511,-0.414902,2.07595,1.62449,-1.53197,1.3707,-0.748871,-2.00209,-0.471948,2.02831,1.68193,-1.488,-0.972316,0.565142,-1.39031,1.09251,-0.122031,0.0773121,-0.991192,-0.972316,0.565142,-1.39031,1.09251,-0.122031,0.0773121,-0.991192,0.0663386,-0.479497,0.971713,0.923806,-0.335377,0.109872,0.148431,-0.735231,0.206906,0.328394,-0.635326,0.230989,0.293711,0.882677,-0.44594,1.81343,-3.18702,0.122118,-0.611019,-3.18702,0.0962758,-0.611019,-0.861349,0.645338,-0.630234,0.570459,0.476411,-0.574426,-0.439697,1
1.27484,-0.678846,-2.07429,-0.404773,2.08002,1.6189,-1.53851,1.27484,-0.678846,-2.07429,-0.404773,2.08002,1.6189,-1.53851,1.36107,-0.742878,-2.01592,-0.461498,2.03041,1.67955,-1.49746,-0.969584,0.595631,-1.38786,1.02899,0.320054,-0.340312,-0.929867,-0.969584,0.595631,-1.38786,1.02899,0.320054,-0.340312,-0.929867,0.0598537,-0.477396,0.975216,0.924939,-0.337441,0.114525,0.132305,-0.742486,0.194758,0.380539,-0.656809,0.199728,0.362103,0.850475,-0.445157,1.80659,-3.22024,0.0782281,-0.683939,-3.22024,0.0946582,-0.683939,-0.862241,0.640319,-0.583737,0.56725,0.496129,-0.606471,-0.410443,1
1.26515,-0.671475,-2.08424,-0.396234,2.08572,1.60986,-1.53838,1.26515,-0.671475,-2.08424,-0.396234,2.08572,1.60986,-1.53838,1.35129,-0.73686,-2.02943,-0.451002,2.03688,1.67336,-1.50649,-0.975001,0.608023,-1.3353,1.0581,0.745495,-0.704366,-0.896119,-0.975001,0.608023,-1.3353,1.0581,0.745495,-0.704366,-0.896119,0.0527688,-0.475595,0.979396,0.92661,-0.337728,0.11711,0.116701,-0.788548,0.196084,0.44325,-0.720362,0.186571,0.438939,0.817658,-0.444385,1.79864,-3.28166,0.0772655,-0.7954,-3.28166,0.0945181,-0.7954,-0.861385,0.653847,-0.548048,0.54768,0.488341,-0.635036,-0.318882,1
1.2558,-0.665234,-2.09401,-0.391484,2.0958,1.59866,-1.5381,1.2558,-0.665234,-2.09401,-0.391484,2.0958,1.59866,-1.5381,1.34169,-0.731018,-2.04242,-0.441008,2.04633,1.66453,-1.5153,-0.959373,0.569996,-1.29188,0.986446,0.991532,-0.92638,-0.875637,-0.959373,0.569996,-1.29188,0.986446,0.991532,-0.92638,-0.875637,0.045521,-0.474042,0.983899,0.928622,-0.336664,0.118098,0.101836,-0.782935,0.172052,0.443259,-0.727177,0.151462,0.449916,0.785096,-0.442953,1.78973,-3.25624,0.143218,-0.890791,-3.25624,0.0976133,-0.890791,-0.858831,0.657835,-0.515939,0.495233,0.49468,-0.658615,-0.228005,1
1.24638,-0.659092,-2.10301,-0.384817,2.1057,1.58666,-1.53415,1.24638,-0.659092,-2.10301,-0.384817,2.1057,1.58666,-1.53415,1.33199,-0.725408,-2.05479,-0.430757,2.0568,1.65425,-1.52387,-0.974222,0.567275,-1.21727,1.03911,1.05036,-1.0489,-0.849763,-0.974222,0.567275,-1.21727,1.03911,1.05036,-1.0489,-0.849763,0.0379878,-0.472476,0.988625,0.930678,-0.335042,0.1183,0.0871243,-0.808239,0.198648,0.473652,-0.758314,0.174853,0.483353,0.753345,-0.441086,1.77992,-3.1751,0.186706,-0.981319,-3.1751,0.10811,-0.981319,-0.8561,0.66316,-0.482211,0.459395,0.489018,-0.675896,-0.10277,1
1.23684,-0.653597,-2.11569,-0.379181,2.11583,1.57539,-1.53656,1.23684,-0.653597,-2.11569,-0.379181,2.11583,1.57539,-1.53656,1.3224,-0.719529,-2.0663,-0.420899,2.06687,1.64357,-1.53163,-0.955694,0.586942,-1.13652,0.976547,0.983728,-1.07534,-0.74165,-0.955694,0.586942,-1.13652,0.976547,0.983728,-1.07534,-0.74165,0.0307309,-0.47049,0.993526,0.932438,-0.333429,0.118471,0.0731368,-0.764197,0.233361,0.480171,-0.716405,0.209292,0.489717,0.721333,-0.439923,1.76937,-3.20115,0.116286,-1.05461,-3.20115,0.120099,-1.05461,-0.855597,0.659322,-0.493864,0.41718,0.489655,-0.681761,-0.0492704,1
1.22717,-0.648517,-2.1281,-0.376368,2.1253,1.56424,-1.53714,1.22717,-0.648517,-2.1281,-0.376368,2.1253,1.56424,-1.53714,1.31264,-0.713828,-2.07715,-0.411004,2.07641,1.63248,-1.53754,-0.980514,0.568006,-1.0654,0.993253,0.945934,-1.11239,-0.537889,-0.980514,0.568006,-1.0654,0.993253,0.945934,-1.11239,-0.537889,0.0234507,-0.468349,0.998449,0.93397,-0.331621,0.118863,0.0599942,-0.774731,0.252173,0.483997,-0.728987,0.226994,0.494133,0.68865,-0.439202,1.75772,-3.26834,0.0720233,-1.16526,-3.26834,0.121359,-1.16526,-0.854666,0.653113,-0.509528,0.346358,0.488892,-0.682367,0.00400461,1
1.21762,-0.644597,-2.13895,-0.385658,2.13569,1.55201,-1.54097,1.21762,-0.644597,-2.13895,-0.385658,2.13569,1.55201,-1.54097,1.30291,-0.708174,-2.08738,-0.402029,2.08561,1.62103,-1.54098,-0.97578,0.565118,-1.01843,0.873887,0.913642,-1.16509,-0.280749,-0.97578,0.565118,-1.01843,0.873887,0.913642,-1.16509,-0.280749,0.0165316,-0.466148,1.00327,0.935333,-0.32939,0.119599,0.048489,-0.726555,0.252669,0.467129,-0.682518,0.2239,0.479874,0.656681,-0.438011,1.74488,-3.19685,0.119191,-1.28335,-3.19685,0.124412,-1.28335,-0.852877,0.635775,-0.515673,0.16371,0.500723,-0.690191,3.53369e-05,1
1.20765,-0.638516,-2.14742,-0.397225,2.14512,1.5394,-1.5399,1.20765,-0.638516,-2.14742,-0.397225,2.14512,1.5394,-1.5399,1.29284,-0.702272,-2.09726,-0.393393,2.09495,1.60915,-1.54255,-1.01061,0.605314,-0.973467,0.856833,0.945397,-1.18692,-0.120325,-1.01061,0.605314,-0.973467,0.856833,0.945397,-1.18692,-0.120325,0.00961431,-0.463661,1.00822,0.936557,-0.32696,0.120498,0.037929,-0.72956,0.297689,0.48976,-0.68883,0.269403,0.502173,0.624001,-0.437293,1.73163,-3.26802,0.0717312,-1.32486,-3.26802,0.118007,-1.32486,-0.851888,0.637565,-0.50159,-0.0383228,0.501689,-0.697516,0.0264713,1
1.19775,-0.633717,-2.1558,-0.406499,2.15636,1.52681,-1.54647,1.19775,-0.633717,-2.1558,-0.406499,2.15636,1.52681,-1.54647,1.28274,-0.695964,-2.10701,-0.385898,2.10447,1.59702,-1.54307,-1.01405,0.628954,-0.986375,0.713908,0.956569,-1.22879,-0.0367188,-1.01405,0.628954,-0.986375,0.713908,0.956569,-1.22879,-0.0367188,0.00311893,-0.460956,1.01318,0.937691,-0.324279,0.121549,0.0283521,-0.67818,0.299567,0.475114,-0.638049,0.267669,0.48986,0.591824,-0.436504,1.71708,-3.2177,0.0789374,-1.45532,-3.2177,0.103011,-1.45532,-0.849851,0.622473,-0.487894,-0.20601,0.518885,-0.702009,-0.0339995,1
1.18788,-0.632132,-2.16758,-0.414448,2.16811,1.51439,-1.56035,1.18788,-0.632132,-2.16758,-0.414448,2.16811,1.51439,-1.56035,1.27254,-0.689978,-2.11706,-0.38034,2.11436,1.58473,-1.54337,-1.01305,0.597196,-1.0073,0.477297,0.999212,-1.2245,-0.0295404,-1.01305,0.597196,-1.0073,0.477297,0.999212,-1.2245,-0.0295404,-0.00289689,-0.458747,1.01765,0.938953,-0.320813,0.122734,0.0195636,-0.613351,0.248602,0.412572,-0.575655,0.210992,0.431712,0.55958,-0.435544,1.70142,-3.22442,0.0959933,-1.56574,-3.22442,0.0906134,-1.56574,-0.846614,0.578463,-0.505147,-0.341081,0.537528,-0.703465,-0.169881,1
1.17826,-0.628382,-2.17993,-0.415941,2.17957,1.50221,-1.56785,1.17826,-0.628382,-2.17993,-0.415941,2.17957,1.50221,-1.56785,1.26234,-0.683297,-2.12721,-0.37786,2.1246,1.57216,-1.54346,-1.03949,0.695932,-1.02205,0.174702,1.03167,-1.26281,-0.00551261,-1.03949,0.695932,-1.02205,0.174702,1.03167,-1.26281,-0.00551261,-0.00788944,-0.456674,1.0219,0.940304,-0.31662,0.124242,0.0120286,-0.518483,0.254651,0.400802,-0.480488,0.212411,0.422515,0.526714,-0.434764,1.68507,-3.28663,0.0780225,-1.63572,-3.28663,0.0867883,-1.63572,-0.840823,0.549145,-0.527216,-0.380807,0.549723,-0.699503,-0.243887,1
1.16748,-0.625045,-2.19294,-0.421674,2.19102,1.49062,-1.58153,1.16748,-0.625045,-2.19294,-0.421674,2.19102,1.49062,-1.58153,1.25122,-0.675903,-2.13728,-0.378268,2.13521,1.55962,-1.54401,-1.12968,0.753527,-0.993446,-0.110983,1.07411,-1.25731,-0.0764816,-1.12968,0.753527,-0.993446,-0.110983,1.07411,-1.25731,-0.0764816,-0.0123591,-0.454681,1.02592,0.941712,-0.311883,0.126025,0.00496705,-0.470869,0.243758,0.37197,-0.433598,0.197072,0.396206,0.494316,-0.433616,1.6675,-3.23972,0.114742,-1.75664,-3.23972,0.0892912,-1.75664,-0.837386,0.508588,-0.556564,-0.434063,0.558122,-0.689967,-0.375177,1
1.1555,-0.620398,-2.20557,-0.425395,2.20191,1.47993,-1.59389,1.1555,-0.620398,-2.20557,-0.425395,2.20191,1.47993,-1.59389,1.23932,-0.668266,-2.14721,-0.381165,2.14614,1.54699,-1.54603,-1.21315,0.753143,-0.997916,-0.340488,1.10502,-1.26338,-0.253664,-1.21315,0.753143,-0.997916,-0.340488,1.10502,-1.26338,-0.253664,-0.0164627,-0.453042,1.02959,0.94325,-0.306507,0.127784,-0.00220679,-0.44799,0.199609,0.323616,-0.410371,0.146308,0.351418,0.46175,-0.432097,1.64916,-3.25662,0.151962,-1.83395,-3.25662,0.0958418,-1.83395,-0.838261,0.478689,-0.583537,-0.442295,0.557669,-0.670575,-0.478612,1
1.14326,-0.613345,-2.21672,-0.42869,2.21477,1.46864,-1.60233,1.14326,-0.613345,-2.21672,-0.42869,2.21477,1.46864,-1.60233,1.22698,-0.660679,-2.15709,-0.3858,2.15748,1.53423,-1.55009,-1.22827,0.774439,-0.983523,-0.504153,1.13974,-1.2726,-0.454096,-1.22827,0.774439,-0.983523,-0.504153,1.13974,-1.2726,-0.454096,-0.0203584,-0.451829,1.03291,0.944904,-0.30059,0.129243,-0.00991587,-0.408909,0.180045,0.299083,-0.373623,0.122908,0.328962,0.429981,-0.431399,1.62982,-3.17694,0.0697196,-1.93397,-3.17694,0.101512,-1.93397,-0.837215,0.473345,-0.596345,-0.428897,0.572986,-0.655954,-0.522402,1
1.1311,-0.60453,-2.22888,-0.428974,2.2283,1.45767,-1.6121,1.1311,-0.60453,-2.22888,-0.428974,2.2283,1.45767,-1.6121,1.21481,-0.653003,-2.16724,-0.391803,2.16896,1.52162,-1.55617,-1.21817,0.75397,-1.02834,-0.620098,1.15577,-1.26621,-0.660759,-1.21817,0.75397,-1.02834,-0.620098,1.15577,-1.26621,-0.660759,-0.0238085,-0.450913,1.03592,0.946546,-0.294408,0.130555,-0.0181472,-0.380176,0.136844,0.257517,-0.345195,0.0750214,0.289241,0.398184,-0.43033,1.61,-3.17966,0.106984,-1.98214,-3.17966,0.105281,-1.98214,-0.83706,0.484731,-0.61637,-0.37171,0.593391,-0.639472,-0.55927,1
1.11934,-0.596682,-2.2427,-0.430962,2.24115,1.44641,-1.62415,1.11934,-0.596682,-2.2427,-0.430962,2.24115,1.44641,-1.62415,1.20291,-0.645526,-2.17785,-0.398423,2.18052,1.50922,-1.56434,-1.17293,0.756211,-1.07278,-0.671125,1.15136,-1.23098,-0.867758,-1.17293,0.756211,-1.07278,-0.671125,1.15136,-1.23098,-0.867758,-0.0270416,-0.450331,1.03863,0.948122,-0.288077,0.131668,-0.027215,-0.346949,0.122716,0.236749,-0.312211,0.0596871,0.267725,0.365291,-0.429007,1.58878,-3.28934,0.132301,-2.12163,-3.28934,0.109632,-2.12163,-0.835718,0.48844,-0.648487,-0.325392,0.606337,-0.628086,-0.598082,1
1.10846,-0.58904,-2.25522,-0.438951,2.25358,1.43434,-1.63584,1.10846,-0.58904,-2.25522,-0.438951,2.25358,1.43434,-1.63584,1.19163,-0.637838,-2.18884,-0.404916,2.19208,1.49709,-1.57417,-1.11557,0.764552,-1.11065,-0.639548,1.15978,-1.20669,-1.01279,-1.11557,0.764552,-1.11065,-0.639548,1.15978,-1.20669,-1.01279,-0.0300076,-0.449623,1.04134,0.949471,-0.282055,0.132587,-0.0370182,-0.33044,0.131048,0.238028,-0.297189,0.0688529,0.267362,0.333055,-0.428279,1.56586,-3.22355,0.0727504,-2.29268,-3.22355,0.108715,-2.29268,-0.831774,0.487982,-0.663749,-0.340354,0.61506,-0.627533,-0.616729,1
1.09773,-0.582403,-2.26766,-0.446404,2.26536,1.42325,-1.6476,1.09773,-0.582403,-2.26766,-0.446404,2.26536,1.42325,-1.6476,1.18077,-0.630539,-2.20037,-0.411096,2.20377,1.48535,-1.58484,-1.07389,0.717395,-1.16317,-0.599126,1.17502,-1.16117,-1.08234,-1.07389,0.717395,-1.16317,-0.599126,1.17502,-1.16117,-1.08234,-0.0330251,-0.449124,1.04382,0.950654,-0.276107,0.133347,-0.0473395,-0.339303,0.109221,0.214106,-0.307718,0.0466451,0.242711,0.301368,-0.428135,1.54288,-3.16875,0.0144154,-2.29732,-3.16875,0.0945428,-2.29732,-0.830402,0.481361,-0.672898,-0.353079,0.615903,-0.620986,-0.627607,1
1.08812,-0.577969,-2.28038,-0.457076,2.27773,1.41187,-1.66049,1.08812,-0.577969,-2.28038,-0.457076,2.27773,1.41187,-1.66049,1.17061,-0.623465,-2.21215,-0.416553,2.21569,1.47368,-1.59596,-0.989946,0.703745,-1.18053,-0.532315,1.19897,-1.16268,-1.11873,-0.989946,0.703745,-1.18053,-0.532315,1.19897,-1.16268,-1.11873,-0.0360554,-0.44862,1.0463,0.951665,-0.270343,0.133776,-0.0579015,-0.327089,0.112605,0.218298,-0.299577,0.0510702,0.246222,0.269942,-0.426693,1.51853,-3.14257,0.144246,-2.43486,-3.14257,0.0885431,-2.43486,-0.824915,0.454952,-0.682309,-0.405235,0.620372,-0.61816,-0.645285,1
1.07925,-0.577382,-2.29373,-0.468144,2.28897,1.40238,-1.67351,1.07925,-0.577382,-2.29373,-0.468144,2.28897,1.40238,-1.67351,1.16138,-0.616884,-2.22407,-0.421658,2.22744,1.46251,-1.60698,-0.908324,0.636935,-1.19988,-0.508227,1.16285,-1.11451,-1.09339,-0.908324,0.636935,-1.19988,-0.508227,1.16285,-1.11451,-1.09339,-0.0389215,-0.448325,1.04853,0.952521,-0.264713,0.13408,-0.0682219,-0.312713,0.0765474,0.184377,-0.287044,0.0147647,0.211738,0.238421,-0.425466,1.49326,-3.15214,0.122669,-2.52728,-3.15214,0.0926677,-2.52728,-0.821278,0.395016,-0.696533,-0.464869,0.61528,-0.601328,-0.665247,1
1.0714,-0.583261,-2.30765,-0.477108,2.29908,1.39494,-1.68714,1.0714,-0.583261,-2.30765,-0.477108,2.29908,1.39494,-1.68714,1.15281,-0.611003,-2.23584,-0.426681,2.2388,1.45176,-1.61777,-0.836396,0.581509,-1.16654,-0.517479,1.12363,-1.0641,-1.0766,-0.836396,0.581509,-1.16654,-0.517479,1.12363,-1.0641,-1.0766,-0.0417023,-0.448418,1.05041,0.953285,-0.259019,0.134313,-0.0782073,-0.291056,0.0450956,0.152544,-0.268561,-0.0163011,0.179491,0.175493,-0.423116,1.44047,-3.14001,0.116146,-2.68698,-3.14001,0.101237,-2.68698,-0.814118,0.277413,-0.71811,-0.504268,0.602843,-0.56822,-0.693679,1
1.06365,-0.584635,-2.31916,-0.476481,2.31143,1.38946,-1.70081,1.06365,-0.584635,-2.31916,-0.476481,2.31143,1.38946,-1.70081,1.14476,-0.605165,-2.24759,-0.43251,2.25017,1.44092,-1.629,-0.807913,0.587757,-1.18533,-0.59961,1.15266,-1.10068,-1.14471,-0.807913,0.587757,-1.18533,-0.59961,1.15266,-1.10068,-1.14471,-0.0441466,-0.448811,1.05207,0.954018,-0.253022,0.134487,-0.0879905,-0.2676,0.0197664,0.134896,-0.247243,-0.0455592,0.163445,0.143554,-0.422605,1.4127,-3.19387,0.0510693,-2.77716,-3.19387,0.105274,-2.77716,-0.811095,0.205297,-0.715743,-0.439708,0.612541,-0.514607,-0.718059,1
1.0554,-0.580695,-2.33055,-0.47488,2.32455,1.38294,-1.71454,1.0554,-0.580695,-2.33055,-0.47488,2.32455,1.38294,-1.71454,1.13635,-0.599124,-2.25978,-0.43924,2.26229,1.42977,-1.64121,-0.843411,0.607975,-1.22505,-0.702748,1.23212,-1.10816,-1.24512,-0.843411,0.607975,-1.22505,-0.702748,1.23212,-1.10816,-1.24512,-0.046691,-0.449421,1.0536,0.954694,-0.24659,0.134534,-0.0982528,-0.274227,0.0023727,0.115767,-0.255838,-0.0668034,0.145603,0.112464,-0.421489,1.3839,-3.10901,0.111631,-2.87948,-3.10901,0.108802,-2.87948,-0.809518,0.18429,-0.707695,-0.3564,0.622571,-0.468285,-0.733294,1
1.04621,-0.57285,-2.34228,-0.469106,2.33711,1.37538,-1.72845,1.04621,-0.57285,-2.34228,-0.469106,2.33711,1.37538,-1.72845,1.12775,-0.593177,-2.27243,-0.447073,2.27489,1.41859,-1.6543,-0.872449,0.582256,-1.28166,-0.805875,1.26915,-1.11348,-1.32648,-0.872449,0.582256,-1.28166,-0.805875,1.26915,-1.11348,-1.32648,-0.0492884,-0.450476,1.05478,0.955307,-0.239653,0.134554,-0.108856,-0.289493,-0.0466253,0.0719725,-0.27167,-0.122026,0.103547,0.112464,-0.421489,1.3839,-3.10901,0.111631,-2.87948,-3.10901,0.108802,-2.87948,-0.815408,0.203277,-0.6985,-0.220323,0.622218,-0.432149,-0.741529,1
1.03666,-0.572959,-2.35682,-0.475285,2.34727,1.36762,-1.74256,1.03666,-0.572959,-2.35682,-0.475285,2.34727,1.36762,-1.74256,1.11858,-0.587617,-2.28565,-0.455538,2.28751,1.40803,-1.66798,-0.929747,0.556393,-1.33171,-0.853214,1.25475,-1.03522,-1.38063,-0.929747,0.556393,-1.33171,-0.853214,1.25475,-1.03522,-1.38063,-0.0522527,-0.451943,1.0555,0.955706,-0.23247,0.134781,-0.120074,-0.32603,-0.069093,0.0348451,-0.306399,-0.146645,0.0649957,0.0490881,-0.420013,1.32372,-3.15858,0.103363,-3.04872,-3.15858,0.0873151,-3.04872,-0.819272,0.146582,-0.711756,-0.197467,0.597658,-0.404131,-0.745865,1
1.02702,-0.57132,-2.36991,-0.47903,2.35842,1.36005,-1.75656,1.02702,-0.57132,-2.36991,-0.47903,2.35842,1.36005,-1.75656,1.10929,-0.581891,-2.29878,-0.463397,2.29996,1.39837,-1.682,-0.927926,0.575856,-1.30885,-0.745449,1.23678,-0.942007,-1.40824,-0.927926,0.575856,-1.30885,-0.745449,1.23678,-0.942007,-1.40824,-0.0554419,-0.452968,1.05631,0.955696,-0.226002,0.134956,-0.131741,-0.348314,-0.0132096,0.0618704,-0.330086,-0.0837034,0.0875926,0.017516,-0.419313,1.2918,-3.15721,0.0699908,-3.19217,-3.15721,0.0809203,-3.19217,-0.822712,0.105713,-0.711326,-0.156333,0.584623,-0.383185,-0.745581,1
1.01686,-0.569884,-2.38347,-0.478816,2.36772,1.35211,-1.77059,1.01686,-0.569884,-2.38347,-0.478816,2.36772,1.35211,-1.77059,1.09976,-0.576606,-2.31198,-0.469104,2.31226,1.38958,-1.69621,-0.956089,0.493127,-1.31739,-0.519098,1.23143,-0.858152,-1.42443,-0.956089,0.493127,-1.31739,-0.519098,1.23143,-0.858152,-1.42443,-0.0593995,-0.453447,1.05732,0.95518,-0.220506,0.134856,-0.144296,-0.439381,0.0160481,0.0726456,-0.423548,-0.0485951,0.095301,-0.0141649,-0.417805,1.25878,-3.16809,0.1508,-3.302,-3.16809,0.0856896,-3.302,-0.828951,0.0672207,-0.714911,-0.097113,0.554602,-0.374727,-0.743727,1
1.00792,-0.580021,-2.39716,-0.478959,2.37901,1.34826,-1.78542,1.00792,-0.580021,-2.39716,-0.478959,2.37901,1.34826,-1.78542,1.09105,-0.57252,-2.32497,-0.473992,2.3242,1.3815,-1.7105,-0.836004,0.391271,-1.29349,-0.467588,1.18077,-0.795712,-1.43186,-0.836004,0.391271,-1.29349,-0.467588,1.18077,-0.795712,-1.43186,-0.0635573,-0.454321,1.05793,0.954496,-0.215186,0.134436,-0.156714,-0.423892,-0.0268143,0.0346578,-0.412066,-0.0895833,0.0568186,-0.0457498,-0.416981,1.22534,-3.15849,0.0823498,-3.34309,-3.15849,0.0927587,-3.34309,-0.831307,-0.0750073,-0.721842,-0.0496752,0.548108,-0.332461,-0.749237,1
1.00008,-0.588427,-2.41046,-0.468828,2.39083,1.34974,-1.80071,1.00008,-0.588427,-2.41046,-0.468828,2.39083,1.34974,-1.80071,1.0831,-0.569044,-2.33781,-0.477956,2.33589,1.37392,-1.72489,-0.793244,0.340229,-1.2891,-0.38378,1.16031,-0.74316,-1.44262,-0.793244,0.340229,-1.2891,-0.38378,1.16031,-0.74316,-1.44262,-0.067786,-0.4552,1.05845,0.953583,-0.210245,0.133755,-0.169076,-0.439103,-0.0253118,0.0285583,-0.429573,-0.0849182,0.0492199,-0.0772289,-0.416488,1.19098,-3.14791,0.0492722,-3.43658,-3.14791,0.090494,-3.43658,-0.830173,-0.193834,-0.726516,0.091282,0.549326,-0.241871,-0.758199,1
0.992681,-0.590412,-2.42351,-0.460062,2.40144,1.35827,-1.81536,0.992681,-0.590412,-2.42351,-0.460062,2.40144,1.35827,-1.81536,1.07526,-0.565579,-2.35052,-0.480991,2.34725,1.36666,-1.73933,-0.780959,0.349349,-1.26262,-0.270994,1.12877,-0.727556,-1.44351,-0.780959,0.349349,-1.26262,-0.270994,1.12877,-0.727556,-1.44351,-0.0721496,-0.455685,1.05915,0.952327,-0.205834,0.133029,-0.181685,-0.450312,0.0220204,0.0614955,-0.441803,-0.0328106,0.0797403,-0.107297,-0.415775,1.15501,-3.0068,0.0713348,-3.59708,-3.0068,0.0899752,-3.59708,-0.825814,-0.248327,-0.729905,0.209284,0.541905,-0.0839731,-0.760337,1
0.982959,-0.588342,-2.43521,-0.446225,2.40981,1.34742,-1.82816,0.982959,-0.588342,-2.43521,-0.446225,2.40981,1.34742,-1.82816,1.06742,-0.562844,-2.3632,-0.483023,2.35852,1.36,-1.75371,-0.785442,0.231205,-1.26524,-0.179133,1.15728,-0.680505,-1.43662,-0.785442,0.231205,-1.26524,-0.179133,1.15728,-0.680505,-1.43662,-0.0769757,-0.456142,1.05974,0.950795,-0.201765,0.13209,-0.194506,-0.513867,-0.00727312,0.0295485,-0.509835,-0.061282,0.0483527,-0.132892,-0.41195,1.12483,-2.55952,0.382534,-3.01791,-2.55952,0.116356,-3.01791,-0.844606,-0.254979,-0.72017,0.367984,0.51298,-0.125755,-0.744488,1
0.973653,-0.600661,-2.44859,-0.432593,2.42312,1.32064,-1.83756,0.973653,-0.600661,-2.44859,-0.432593,2.42312,1.32064,-1.83756,1.05928,-0.561752,-2.37581,-0.483119,2.3708,1.35477,-1.76837,-0.813557,0.0794694,-1.25935,0.0253113,1.24706,-0.466569,-1.46605,-0.813557,0.0794694,-1.25935,0.0253113,1.24706,-0.466569,-1.46605,-0.0830025,-0.456597,1.06004,0.948962,-0.1984,0.130179,-0.207754,-0.619182,0.005452,0.00648703,-0.6215,-0.0373961,0.0229178,-0.147259,-0.414834,1.10407,-1.43667,-0.288466,-2.07566,-1.43667,0.0941093,-2.07566,-0.85624,-0.389097,-0.727814,0.505261,0.523199,-0.341267,-0.691862,1
1.0318,-0.604325,-2.38751,-0.537418,2.43469,1.312,-1.76256,1.0318,-0.604325,-2.38751,-0.537418,2.43469,1.312,-1.76256,1.05126,-0.561618,-2.38868,-0.481803,2.38229,1.35172,-1.78314,-0.785849,0.000515343,-1.28122,0.191824,1.14127,-0.287389,-1.48027,-0.785849,0.000515343,-1.28122,0.191824,1.14127,-0.287389,-1.48027,-0.0893876,-0.4568,1.06008,0.946578,-0.19621,0.128388,-0.221379,-0.645247,0.0334954,0.00127026,-0.643852,-0.000292898,0.0126968,-0.133618,-0.408091,1.10882,1.36406,0.67437,0.474954,1.36406,0.135622,0.474954,-0.194649,-0.427072,0.0116839,-0.556153,0.523949,-0.397271,0.205867,1
0.985791,-0.611644,-2.42119,-0.532319,2.46253,1.28802,-1.82369,0.985791,-0.611644,-2.42119,-0.532319,2.46253,1.28802,-1.82369,1.04326,-0.562327,-2.40191,-0.478457,2.39266,1.34971,-1.79794,-0.796681,-0.0911379,-1.3258,0.390006,1.018,-0.182887,-1.47545,-0.796681,-0.0911379,-1.3258,0.390006,1.018,-0.182887,-1.47545,-0.0961921,-0.456642,1.06012,0.943587,-0.194924,0.126853,-0.235703,-0.696383,0.0590731,0.000502599,-0.689723,0.0304105,0.00792933,-0.125798,-0.402489,1.11503,0.782049,0.560135,0.621009,0.782049,0.218613,0.621009,-0.574672,-0.493167,-0.192781,-0.538613,0.698663,-0.616871,-0.257534,1
0.984366,-0.566217,-2.45689,-0.523307,2.46725,1.29252,-1.85201,0.984366,-0.566217,-2.45689,-0.523307,2.46725,1.29252,-1.85201,1.03563,-0.563954,-2.41458,-0.473171,2.40213,1.34781,-1.81194,-0.747607,-0.179819,-1.24384,0.57463,0.921786,-0.222123,-1.35938,-0.747607,-0.179819,-1.24384,0.57463,0.921786,-0.222123,-1.35938,-0.10323,-0.456244,1.06026,0.940327,-0.194128,0.125226,-0.249836,-0.708576,0.0724414,0.0146272,-0.703492,0.0469017,0.0213842,-0.118418,-0.397222,1.12225,0.737989,0.526783,0.722003,0.737989,0.315111,0.722003,-0.512673,-0.0226322,-0.423088,-0.501351,0.651166,-0.552865,-0.400724,1
0.984944,-0.595777,-2.43522,-0.523353,2.46712,1.30586,-1.8525,0.984944,-0.595777,-2.43522,-0.523353,2.46712,1.30586,-1.8525,1.02872,-0.566742,-2.42482,-0.468069,2.41124,1.34328,-1.82057,-0.675152,-0.318629,-0.91996,0.452214,0.918853,-0.542178,-0.627276,-0.675152,-0.318629,-0.91996,0.452214,0.918853,-0.542178,-0.627276,-0.110221,-0.45674,1.06019,0.938238,-0.191484,0.123274,-0.260474,-0.684773,-0.0546049,-0.0436498,-0.697273,-0.093021,-0.0263839,-0.110115,-0.392151,1.12734,0.830323,0.507087,0.508976,0.830323,0.40241,0.508976,-0.437786,-0.290347,-0.103963,-0.55284,0.558778,-0.374228,-0.319364,1
1.00741,-0.575613,-2.44266,-0.502882,2.41698,1.37482,-1.83927,1.00741,-0.575613,-2.44266,-0.502882,2.41698,1.37482,-1.83927,1.02209,-0.570421,-2.42941,-0.466583,2.42146,1.3354,-1.82038,-0.660531,-0.374007,-0.290755,0.0271197,1.07238,-0.863408,0.16442,-0.660531,-0.374007,-0.290755,0.0271197,1.07238,-0.863408,0.16442,-0.116951,-0.458867,1.05946,0.938826,-0.185515,0.120057,-0.264151,-0.618027,-0.198232,-0.120574,-0.662357,-0.247997,-0.0889715,-0.100961,-0.387409,1.13071,0.915408,0.474209,0.336456,0.915408,0.463786,0.336456,-0.146865,-0.0519233,-0.132497,-0.362989,-0.0448551,0.39416,-0.188908,1
1.01373,-0.557211,-2.47105,-0.512082,2.42183,1.37076,-1.83606,1.01373,-0.557211,-2.47105,-0.512082,2.42183,1.37076,-1.83606,1.01496,-0.573767,-2.42855,-0.470159,2.43411,1.32514,-1.82026,-0.745198,-0.311367,0.175685,-0.487663,1.33204,-1.08021,-0.107232,-0.745198,-0.311367,0.175685,-0.487663,1.33204,-1.08021,-0.107232,-0.123369,-0.462158,1.05819,0.940934,-0.177127,0.114583,-0.264838,-0.570355,-0.291208,-0.183845,-0.641233,-0.35157,-0.141704,-0.0921311,-0.382999,1.13375,0.882953,0.440931,0.304782,0.882953,0.525744,0.304782,-0.0122573,0.165565,-0.424917,-0.419226,-0.122722,0.456152,-0.158009,1
0.944188,-0.58887,-2.47642,-0.535898,2.51129,1.31084,-1.86218,0.944188,-0.58887,-2.47642,-0.535898,2.51129,1.31084,-1.86218,1.00561,-0.575976,-2.42737,-0.478269,2.44844,1.31563,-1.82608,-0.998011,-0.187585,0.0577387,-0.898029,1.4555,-0.88716,-0.731872,-0.998011,-0.187585,0.0577387,-0.898029,1.4555,-0.88716,-0.731872,-0.130076,-0.465828,1.05622,0.942469,-0.168014,0.108599,-0.267826,-0.618336,-0.295184,-0.256715,-0.684476,-0.362184,-0.216699,-0.0841865,-0.378087,1.13611,0.794458,0.49122,0.23551,0.794458,0.495729,0.23551,-0.614242,-0.128941,-0.49057,-0.576288,0.628471,-0.0478744,-0.36102,1
0.924398,-0.60229,-2.46555,-0.539161,2.52661,1.28823,-1.86412,0.924398,-0.60229,-2.46555,-0.539161,2.52661,1.28823,-1.86412,0.995079,-0.576922,-2.42935,-0.487942,2.46081,1.31098,-1.83511,-1.04061,-0.0677692,-0.278171,-0.976692,1.1017,-0.296471,-0.894386,-1.04061,-0.0677692,-0.278171,-0.976692,1.1017,-0.296471,-0.894386,-0.136421,-0.468735,1.05375,0.942471,-0.160922,0.104763,-0.273639,-0.565503,-0.210283,-0.284087,-0.598282,-0.264504,-0.259582,-0.075446,-0.372909,1.13763,0.874054,0.517827,0.15229,0.874054,0.486293,0.15229,-0.70681,-0.253686,-0.361992,-0.512195,0.657969,-0.227537,-0.290028,1
0.913605,-0.634809,-2.46196,-0.551494,2.52663,1.31913,-1.8544,0.913605,-0.634809,-2.46196,-0.551494,2.52663,1.31913,-1.8544,0.98569,-0.577643,-2.43514,-0.496879,2.46445,1.31307,-1.8416,-0.898389,-0.0900115,-0.673426,-0.846115,0.110559,0.36877,-0.572605,-0.898389,-0.0900115,-0.673426,-0.846115,0.110559,0.36877,-0.572605,-0.140934,-0.471104,1.05058,0.941002,-0.15702,0.106202,-0.280322,-0.434825,-0.185876,-0.342473,-0.409951,-0.230253,-0.338906,-0.0661867,-0.36793,1.13776,0.925928,0.497904,0.0123382,0.925928,0.484574,0.0123382,-0.720851,-0.571656,-0.268222,-0.546148,0.621821,0.0605386,-0.128035,1
0.906832,-0.639527,-2.43553,-0.54974,2.52267,1.33906,-1.85999,0.906832,-0.639527,-2.43553,-0.54974,2.52267,1.33906,-1.85999,0.978433,-0.579446,-2.44402,-0.503704,2.46127,1.31959,-1.84698,-0.65992,-0.205417,-0.938475,-0.623537,-0.35344,0.672443,-0.548649,-0.65992,-0.205417,-0.938475,-0.623537,-0.35344,0.672443,-0.548649,-0.144173,-0.473568,1.04672,0.938411,-0.155345,0.111265,-0.287878,-0.3608,-0.212142,-0.383635,-0.311009,-0.250858,-0.390155,-0.0575319,-0.362674,1.1373,0.865483,0.525615,-0.0454426,0.865483,0.490998,-0.0454426,-0.716013,-0.600808,0.0848486,-0.460368,0.613981,0.194608,-0.130118,1
0.906862,-0.621723,-2.40629,-0.540769,2.52139,1.34074,-1.86544,0.906862,-0.621723,-2.40629,-0.540769,2.52139,1.34074,-1.86544,0.973308,-0.581941,-2.45423,-0.510122,2.46225,1.32308,-1.8528,-0.475463,-0.251867,-1.02712,-0.672803,0.314785,0.205081,-0.586339,-0.475463,-0.251867,-1.02712,-0.672803,0.314785,0.205081,-0.586339,-0.147684,-0.476916,1.04281,0.93648,-0.151959,0.114467,-0.294637,-0.390657,-0.308404,-0.395346,-0.375776,-0.360198,-0.388096,-0.0492601,-0.357695,1.1368,0.827181,0.497875,-0.0496268,0.827181,0.499821,-0.0496268,-0.664466,-0.397822,0.479351,-0.306465,0.591361,0.176631,-0.126448,1
0.919888,-0.592844,-2.40214,-0.562931,2.53572,1.29479,-1.86282,0.919888,-0.592844,-2.40214,-0.562931,2.53572,1.29479,-1.86282,0.96837,-0.583486,-2.46283,-0.517793,2.47266,1.3226,-1.85743,-0.521194,-0.116029,-0.781198,-0.809336,1.26447,-0.0770209,-0.408533,-0.521194,-0.116029,-0.781198,-0.809336,1.26447,-0.0770209,-0.408533,-0.152184,-0.480047,1.03964,0.936219,-0.14665,0.113121,-0.29865,-0.444654,-0.239509,-0.31633,-0.476869,-0.282971,-0.296314,-0.040463,-0.352424,1.13536,0.879711,0.527063,-0.144696,0.879711,0.509803,-0.144696,-0.484815,-0.0935816,0.606897,-0.451379,0.630616,-0.278149,-0.0538581,1
0.917851,-0.612231,-2.40728,-0.5837,2.55698,1.28539,-1.8795,0.917851,-0.612231,-2.40728,-0.5837,2.55698,1.28539,-1.8795,0.962332,-0.584456,-2.46688,-0.526157,2.4902,1.32341,-1.86056,-0.632046,-0.103278,-0.279526,-0.832501,1.854,0.132519,-0.29091,-0.632046,-0.103278,-0.279526,-0.832501,1.854,0.132519,-0.29091,-0.157636,-0.481838,1.03707,0.937273,-0.142325,0.10736,-0.299561,-0.499704,-0.134567,-0.27459,-0.566835,-0.149375,-0.250848,-0.0304687,-0.346388,1.13237,0.999427,0.603676,-0.298917,0.999427,0.52251,-0.298917,-0.444816,-0.27775,0.596008,-0.575434,0.667856,-0.380173,-0.189356,1
0.914185,-0.620459,-2.40482,-0.590345,2.5835,1.27866,-1.91391,0.914185,-0.620459,-2.40482,-0.590345,2.5835,1.27866,-1.91391,0.955692,-0.586307,-2.46553,-0.53381,2.50789,1.32549,-1.86343,-0.664079,-0.219103,0.276805,-0.729906,1.68425,0.223477,-0.279837,-0.664079,-0.219103,0.276805,-0.729906,1.68425,0.223477,-0.279837,-0.163342,-0.48306,1.0346,0.938825,-0.139121,0.0996101,-0.298882,-0.485866,-0.116805,-0.271349,-0.563053,-0.117769,-0.24899,-0.021366,-0.341866,1.12815,0.91027,0.452194,-0.421691,0.91027,0.523085,-0.421691,-0.415073,-0.341524,0.607083,-0.565347,0.756177,-0.468303,-0.504869,1
0.902784,-0.632705,-2.40463,-0.601721,2.5947,1.3114,-1.90557,0.902784,-0.632705,-2.40463,-0.601721,2.5947,1.3114,-1.90557,0.949578,-0.590254,-2.45857,-0.540464,2.52167,1.32562,-1.8655,-0.587661,-0.446867,0.826752,-0.650724,1.2903,-0.0879904,-0.183735,-0.587661,-0.446867,0.826752,-0.650724,1.2903,-0.0879904,-0.183735,-0.168747,-0.485228,1.03174,0.940943,-0.135085,0.0914139,-0.296685,-0.444575,-0.241834,-0.322504,-0.531375,-0.253627,-0.296893,-0.0120336,-0.337803,1.12234,0.933242,0.406253,-0.58068,0.933242,0.511799,-0.58068,-0.46794,-0.424509,0.539371,-0.612568,0.730297,-0.14224,-0.400676,1
0.905973,-0.630253,-2.39113,-0.607368,2.60277,1.36248,-1.89881,0.905973,-0.630253,-2.39113,-0.607368,2.60277,1.36248,-1.89881,0.944439,-0.595218,-2.4473,-0.54784,2.53296,1.3215,-1.86797,-0.491653,-0.495716,1.20721,-0.778371,1.09891,-0.517192,-0.285567,-0.491653,-0.495716,1.20721,-0.778371,1.09891,-0.517192,-0.285567,-0.17344,-0.488817,1.02859,0.943701,-0.128751,0.0827784,-0.293257,-0.347532,-0.356783,-0.349031,-0.445341,-0.387341,-0.319014,-0.00298171,-0.333459,1.11606,0.905186,0.434434,-0.628769,0.905186,0.492812,-0.628769,-0.384662,-0.350341,0.561732,-0.595277,0.698109,0.409835,-0.308327,1
0.896985,-0.628352,-2.37576,-0.608433,2.61622,1.36879,-1.88014,0.896985,-0.628352,-2.37576,-0.608433,2.61622,1.36879,-1.88014,0.939361,-0.599318,-2.43456,-0.557135,2.54433,1.31408,-1.87327,-0.521063,-0.378447,1.27617,-0.972496,1.17876,-0.799284,-0.628001,-0.521063,-0.378447,1.27617,-0.972496,1.17876,-0.799284,-0.628001,-0.177543,-0.492992,1.02552,0.946415,-0.120632,0.0738035,-0.290345,-0.301072,-0.374161,-0.335488,-0.405042,-0.419246,-0.304061,0.0063944,-0.328062,1.1094,0.937611,0.539631,-0.665855,0.937611,0.483618,-0.665855,-0.423764,-0.290338,0.588065,-0.512973,0.718861,0.547151,-0.0687045,1
0.872457,-0.640372,-2.3682,-0.629586,2.63496,1.32038,-1.86342,0.872457,-0.640372,-2.3682,-0.629586,2.63496,1.32038,-1.86342,0.93335,-0.602142,-2.42312,-0.56759,2.55766,1.30761,-1.882,-0.634029,-0.253976,1.08347,-1.05749,1.38727,-0.544744,-0.930586,-0.634029,-0.253976,1.08347,-1.05749,1.38727,-0.544744,-0.930586,-0.181788,-0.496545,1.02258,0.948366,-0.112921,0.0645714,-0.289277,-0.334497,-0.286513,-0.321328,-0.434936,-0.323476,-0.295039,0.0153896,-0.322684,1.1016,0.899518,0.537795,-0.779712,0.899518,0.479559,-0.779712,-0.608927,-0.382301,0.549178,-0.619961,0.772954,0.127644,0.185804,1
0.860666,-0.637236,-2.34742,-0.640867,2.65136,1.28618,-1.87542,0.860666,-0.637236,-2.34742,-0.640867,2.65136,1.28618,-1.87542,0.926734,-0.604627,-2.41325,-0.578942,2.57243,1.30705,-1.89055,-0.658046,-0.251519,0.965629,-1.16863,1.49195,0.120768,-0.78984,-0.658046,-0.251519,0.965629,-1.16863,1.49195,0.120768,-0.78984,-0.186166,-0.499199,1.01915,0.949883,-0.107586,0.0553527,-0.288242,-0.333988,-0.23568,-0.384196,-0.428304,-0.250392,-0.365339,0.0244463,-0.317153,1.09256,0.905675,0.553149,-0.903881,0.905675,0.485024,-0.903881,-0.660675,-0.326089,0.658325,-0.619246,0.789242,-0.208749,0.151299,1
0.860653,-0.657125,-2.33496,-0.658791,2.66479,1.29727,-1.92782,0.860653,-0.657125,-2.33496,-0.658791,2.66479,1.29727,-1.92782,0.920237,-0.607308,-2.40386,-0.589975,2.58737,1.31357,-1.89475,-0.651491,-0.273343,0.934577,-1.08197,1.48681,0.823876,-0.290265,-0.651491,-0.273343,0.934577,-1.08197,1.48681,0.823876,-0.290265,-0.190344,-0.500724,1.01537,0.951562,-0.10557,0.0462484,-0.285037,-0.328574,-0.135942,-0.393671,-0.414977,-0.118735,-0.383602,0.0328519,-0.312611,1.0823,0.840557,0.454226,-1.02615,0.840557,0.499425,-1.02615,-0.595838,-0.498178,0.688978,-0.688151,0.774237,-0.163036,-0.330648,1
0.869235,-0.668715,-2.32982,-0.669173,2.67279,1.31322,-1.94548,0.869235,-0.668715,-2.32982,-0.669173,2.67279,1.31322,-1.94548,0.913996,-0.610624,-2.39448,-0.600423,2.60147,1.32469,-1.89454,-0.608814,-0.354047,0.945795,-1.02861,1.3806,1.14523,0.115171,-0.608814,-0.354047,0.945795,-1.02861,1.3806,1.14523,0.115171,-0.194395,-0.501691,1.01121,0.953491,-0.105697,0.0374202,-0.279792,-0.319258,-0.128475,-0.431104,-0.401349,-0.0993518,-0.425511,0.0419398,-0.308161,1.07077,0.908792,0.444934,-1.15353,0.908792,0.505466,-1.15353,-0.44761,-0.580914,0.646529,-0.68751,0.713184,-0.114703,-0.509446,1
0.881787,-0.658295,-2.32485,-0.68156,2.68241,1.36153,-1.93927,0.881787,-0.658295,-2.32485,-0.68156,2.68241,1.36153,-1.93927,0.908009,-0.614698,-2.38454,-0.610035,2.61517,1.33203,-1.89195,-0.604823,-0.42418,1.01334,-0.958055,1.37983,0.542623,0.272552,-0.604823,-0.42418,1.01334,-0.958055,1.37983,0.542623,0.272552,-0.198748,-0.503383,1.00704,0.95579,-0.104016,0.028477,-0.273562,-0.358982,-0.206932,-0.427821,-0.451868,-0.203591,-0.417859,0.0506806,-0.303715,1.05848,0.874084,0.444612,-1.22894,0.874084,0.496808,-1.22894,-0.26222,-0.435969,0.596885,-0.715249,0.672397,0.294972,-0.47328,1
0.883369,-0.648976,-2.31999,-0.689211,2.69429,1.38537,-1.9159,0.883369,-0.648976,-2.31999,-0.689211,2.69429,1.38537,-1.9159,0.901802,-0.61941,-2.37339,-0.620293,2.62955,1.33172,-1.89194,-0.624394,-0.478734,1.15333,-1.04074,1.45715,-0.19941,-0.11806,-0.624394,-0.478734,1.15333,-1.04074,1.45715,-0.19941,-0.11806,-0.203637,-0.506688,1.00268,0.958148,-0.0981393,0.0187581,-0.268272,-0.385158,-0.328667,-0.454227,-0.49483,-0.361151,-0.438412,0.0591422,-0.298925,1.0456,0.846153,0.478986,-1.28747,0.846153,0.479789,-1.28747,-0.184331,-0.295662,0.534019,-0.689182,0.647324,0.5365,-0.239641,1
0.842491,-0.667601,-2.31739,-0.699631,2.71812,1.36967,-1.88529,0.842491,-0.667601,-2.31739,-0.699631,2.71812,1.36967,-1.88529,0.895136,-0.624281,-2.36127,-0.631197,2.64455,1.32784,-1.89769,-0.68422,-0.499155,1.21983,-1.12261,1.50639,-0.38438,-0.734543,-0.68422,-0.499155,1.21983,-1.12261,1.50639,-0.38438,-0.734543,-0.208811,-0.510658,0.998184,0.959851,-0.0902589,0.00830395,-0.265463,-0.407926,-0.362283,-0.484923,-0.523692,-0.406912,-0.469744,0.0685651,-0.293615,1.03182,0.942296,0.53103,-1.37783,0.942296,0.473424,-1.37783,-0.526453,-0.433199,0.438831,-0.684342,0.735712,0.418235,0.123985,1
0.8192,-0.680734,-2.30132,-0.708769,2.73683,1.30973,-1.8906,0.8192,-0.680734,-2.30132,-0.708769,2.73683,1.30973,-1.8906,0.88834,-0.629609,-2.3489,-0.643324,2.65932,1.32685,-1.9083,-0.670522,-0.535181,1.23424,-1.22739,1.45855,0.0234417,-1.12766,-0.670522,-0.535181,1.23424,-1.22739,1.45855,0.0234417,-1.12766,-0.213837,-0.514704,0.992926,0.960747,-0.083051,-0.00234954,-0.264692,-0.374548,-0.356711,-0.549075,-0.486234,-0.390113,-0.53916,0.0777506,-0.288797,1.01688,0.918543,0.481772,-1.49417,0.918543,0.472479,-1.49417,-0.691392,-0.511248,0.475837,-0.65445,0.775078,-0.171146,0.177043,1
0.813045,-0.682837,-2.2773,-0.724535,2.74958,1.31096,-1.93882,0.813045,-0.682837,-2.2773,-0.724535,2.74958,1.31096,-1.93882,0.881864,-0.634614,-2.33719,-0.655856,2.67316,1.33135,-1.91732,-0.630566,-0.49399,1.15048,-1.26708,1.35724,0.616771,-0.774668,-0.630566,-0.49399,1.15048,-1.26708,1.35724,0.616771,-0.774668,-0.218181,-0.517889,0.987433,0.961452,-0.078411,-0.0123893,-0.263264,-0.311374,-0.284105,-0.562278,-0.4106,-0.29441,-0.558881,0.0867046,-0.283631,1.00149,0.895399,0.516596,-1.53875,0.895399,0.484879,-1.53875,-0.688193,-0.482227,0.598937,-0.686788,0.764155,-0.203889,-0.215041,1
0.82213,-0.693353,-2.26877,-0.742173,2.75594,1.34029,-1.96426,0.82213,-0.693353,-2.26877,-0.742173,2.75594,1.34029,-1.96426,0.876013,-0.639464,-2.32697,-0.668627,2.68627,1.34096,-1.92,-0.583906,-0.485877,0.963186,-1.25731,1.31302,1.03787,-0.0914256,-0.583906,-0.485877,0.963186,-1.25731,1.31302,1.03787,-0.0914256,-0.221949,-0.52041,0.981627,0.96259,-0.0761177,-0.021614,-0.25915,-0.293056,-0.238831,-0.584062,-0.382506,-0.233923,-0.585041,0.095561,-0.278634,0.985669,0.885642,0.499704,-1.5825,0.885642,0.495988,-1.5825,-0.538827,-0.538885,0.582002,-0.735467,0.696672,-0.00664923,-0.44257,1
0.84374,-0.679735,-2.26525,-0.75654,2.76031,1.38184,-1.96704,0.84374,-0.679735,-2.26525,-0.75654,2.76031,1.38184,-1.96704,0.870098,-0.645068,-2.31856,-0.68122,2.70003,1.3487,-1.91718,-0.586255,-0.58085,0.824568,-1.25624,1.40134,0.623357,0.367704,-0.586255,-0.58085,0.824568,-1.25624,1.40134,0.623357,0.367704,-0.226429,-0.52357,0.975286,0.964222,-0.072465,-0.0305783,-0.253158,-0.366735,-0.328204,-0.646168,-0.46309,-0.347765,-0.645268,0.104326,-0.273589,0.968508,0.876492,0.504491,-1.71608,0.876492,0.503368,-1.71608,-0.263585,-0.346671,0.533061,-0.753192,0.60284,0.331461,-0.49862,1
0.842337,-0.673698,-2.26213,-0.765799,2.77337,1.401,-1.95155,0.842337,-0.673698,-2.26213,-0.765799,2.77337,1.401,-1.95155,0.86412,-0.650881,-2.31008,-0.693025,2.7149,1.34946,-1.91524,-0.610355,-0.585296,0.853329,-1.17952,1.50958,-0.100905,0.0870155,-0.610355,-0.585296,0.853329,-1.17952,1.50958,-0.100905,0.0870155,-0.231482,-0.52763,0.969176,0.965798,-0.0655814,-0.0400198,-0.247652,-0.411486,-0.381295,-0.615045,-0.518845,-0.430208,-0.612663,0.113744,-0.268269,0.950477,0.941855,0.532091,-1.80314,0.941855,0.507803,-1.80314,-0.217839,-0.228173,0.479576,-0.727741,0.584716,0.515368,-0.363042,1
0.805794,-0.691626,-2.27719,-0.778844,2.79938,1.38423,-1.93391,0.805794,-0.691626,-2.27719,-0.778844,2.79938,1.38423,-1.93391,0.857811,-0.65698,-2.30071,-0.704917,2.73022,1.34666,-1.91878,-0.634263,-0.603775,0.975362,-1.17952,1.52332,-0.276158,-0.513488,-0.634263,-0.603775,0.975362,-1.17952,1.52332,-0.276158,-0.513488,-0.236805,-0.53224,0.962958,0.966688,-0.0567495,-0.0500384,-0.24452,-0.410295,-0.391638,-0.616397,-0.522865,-0.448017,-0.6166,0.123156,-0.263915,0.930712,0.941128,0.435358,-1.97646,0.941128,0.500714,-1.97646,-0.520168,-0.346467,0.235177,-0.739267,0.691613,0.37563,-0.151276,1
0.783428,-0.710984,-2.26498,-0.789318,2.82021,1.32993,-1.94184,0.783428,-0.710984,-2.26498,-0.789318,2.82021,1.32993,-1.94184,0.85153,-0.662872,-2.29016,-0.717322,2.74449,1.3467,-1.92793,-0.627132,-0.596525,1.06585,-1.27314,1.37792,0.137672,-1.02349,-0.627132,-0.596525,1.06585,-1.27314,1.37792,0.137672,-1.02349,-0.241465,-0.536316,0.956685,0.96673,-0.0491891,-0.0600962,-0.243725,-0.340627,-0.353476,-0.641143,-0.445963,-0.395127,-0.645731,0.132814,-0.259818,0.909382,0.965792,0.409734,-2.13305,0.965792,0.48835,-2.13305,-0.681018,-0.481122,0.251825,-0.719959,0.757222,-0.167728,-0.139054,1
0.776884,-0.714677,-2.23621,-0.803988,2.83241,1.33569,-1.97428,0.776884,-0.714677,-2.23621,-0.803988,2.83241,1.33569,-1.97428,0.845399,-0.668748,-2.27952,-0.730303,2.7571,1.35179,-1.93837,-0.603524,-0.578118,1.05673,-1.31427,1.22363,0.654156,-0.992954,-0.603524,-0.578118,1.05673,-1.31427,1.22363,0.654156,-0.992954,-0.245453,-0.53969,0.950125,0.966354,-0.0438497,-0.0696174,-0.243703,-0.280304,-0.29105,-0.652019,-0.374884,-0.312008,-0.660349,0.142089,-0.255109,0.887919,0.927573,0.470847,-2.14632,0.927573,0.474553,-2.14632,-0.685155,-0.459285,0.433129,-0.736845,0.753107,-0.161011,-0.359065,1
0.78566,-0.725967,-2.22592,-0.820797,2.83848,1.36001,-1.98841,0.78566,-0.725967,-2.22592,-0.820797,2.83848,1.36001,-1.98841,0.839868,-0.67454,-2.27114,-0.743944,2.76884,1.36093,-1.94456,-0.541866,-0.582408,0.73053,-1.35199,1.17665,0.958812,-0.484008,-0.541866,-0.582408,0.73053,-1.35199,1.17665,0.958812,-0.484008,-0.248986,-0.542731,0.943068,0.966198,-0.0401173,-0.0781814,-0.242364,-0.279347,-0.283787,-0.709169,-0.362527,-0.298341,-0.718583,0.151735,-0.249713,0.865594,0.964552,0.539638,-2.23244,0.964552,0.472058,-2.23244,-0.542077,-0.514268,0.452134,-0.76853,0.696404,-0.00926367,-0.438502,1
0.794514,-0.714733,-2.21642,-0.8345,2.84862,1.39938,-1.99818,0.794514,-0.714733,-2.21642,-0.8345,2.84842,1.39938,-1.99818,0.834777,-0.680051,-2.26668,-0.757445,2.78145,1.36738,-1.94728,-0.493499,-0.545833,0.373971,-1.36345,1.29885,0.489964,-0.229037,-0.493499,-0.545833,0.373971,-1.36345,1.29885,0.489964,-0.229037,-0.252905,-0.546281,0.935753,0.966209,-0.0348265,-0.0857826,-0.240557,-0.315263,-0.3445,-0.734787,-0.396914,-0.384907,-0.742703,0.160758,-0.24493,0.842951,0.902319,0.478275,-2.26434,0.902319,0.471056,-2.26434,-0.402624,-0.346818,0.502556,-0.770552,0.671774,0.32006,-0.509003,1
0.787133,-0.710469,-2.21795,-0.846613,2.86572,1.40852,-1.99323,0.787133,-0.710469,-2.21795,-0.846613,2.84842,1.40852,-1.99323,0.829783,-0.685141,-2.26307,-0.770765,2.79573,1.36735,-1.9506,-0.514711,-0.49296,0.386375,-1.3225,1.46601,-0.146552,-0.394104,-0.514711,-0.49296,0.386375,-1.3225,1.46601,-0.146552,-0.394104,-0.257123,-0.550641,0.928616,0.966155,-0.0263638,-0.0934879,-0.238974,-0.337491,-0.374936,-0.693327,-0.428424,-0.440356,-0.702526,0.169551,-0.240418,0.818681,0.879312,0.451203,-2.42695,0.879312,0.470094,-2.42695,-0.426494,-0.25328,0.451179,-0.758479,0.699968,0.411736,-0.426333,1
0.765733,-0.725759,-2.23248,-0.860817,2.88503,1.38697,-1.98335,0.765733,-0.725759,-2.23248,-0.860817,2.84842,1.38697,-1.98335,0.824158,-0.69048,-2.25747,-0.784555,2.81101,1.36468,-1.95689,-0.575745,-0.546336,0.632381,-1.37951,1.53444,-0.256409,-0.711619,-0.575745,-0.546336,0.632381,-1.37951,1.53444,-0.256409,-0.711619,-0.261557,-0.555318,0.921316,0.965727,-0.0163121,-0.102104,-0.238074,-0.339652,-0.388399,-0.720826,-0.44118,-0.459646,-0.734646,0.178534,-0.235548,0.793093,0.898236,0.486973,-2.55887,0.898236,0.478852,-2.55887,-0.584251,-0.352791,0.249973,-0.762616,0.740203,0.222938,-0.264588,1
0.753367,-0.735027,-2.2297,-0.87435,2.90045,1.3763,-1.99143,0.753367,-0.735027,-2.2297,-0.87435,2.84842,1.3763,-1.99143,0.818054,-0.696171,-2.24916,-0.798506,2.82549,1.36395,-1.96582,-0.619498,-0.585728,0.890731,-1.40707,1.40749,0.00811313,-0.939674,-0.619498,-0.585728,0.890731,-1.40707,1.40749,0.00811313,-0.939674,-0.265688,-0.559517,0.913991,0.964892,-0.00718154,-0.111292,-0.237793,-0.298923,-0.347732,-0.724411,-0.400203,-0.40667,-0.742326,0.187947,-0.230861,0.766673,0.941384,0.468726,-2.64199,0.941384,0.483166,-2.64199,-0.646866,-0.388567,0.194572,-0.758443,0.749561,0.123542,-0.256051,1
0.746134,-0.744017,-2.20527,-0.888963,2.91179,1.37699,-2.01134,0.746134,-0.744017,-2.20527,-0.888963,2.84842,1.37699,-2.01134,0.811324,-0.702067,-2.23943,-0.812258,2.83811,1.36716,-1.97555,-0.688981,-0.587969,0.986123,-1.38113,1.21163,0.427623,-0.960633,-0.688981,-0.587969,0.986123,-1.38113,1.21163,0.427623,-0.960633,-0.269598,-0.562759,0.906752,0.963751,-0.000198908,-0.120314,-0.238135,-0.289357,-0.259788,-0.70416,-0.381862,-0.297425,-0.724007,0.196928,-0.226271,0.739434,0.898105,0.459047,-2.72387,0.898105,0.477147,-2.72387,-0.651909,-0.419508,0.341538,-0.767052,0.736792,0.0982327,-0.357905,1
0.741987,-0.75498,-2.19506,-0.90354,2.91754,1.38353,-2.02409,0.741987,-0.75498,-2.19506,-0.90354,2.84842,1.38353,-2.02409,0.804313,-0.708121,-2.23098,-0.826069,2.84798,1.37353,-1.98311,-0.702835,-0.609995,0.765858,-1.36186,0.908882,0.663959,-0.672396,-0.702835,-0.609995,0.765858,-1.36186,0.908882,0.663959,-0.672396,-0.273351,-0.565446,0.899297,0.962635,0.00519274,-0.127939,-0.238617,-0.30473,-0.228544,-0.732747,-0.378465,-0.258466,-0.750134,0.205719,-0.221794,0.71096,0.879037,0.447644,-2.84742,0.879037,0.466543,-2.84742,-0.623263,-0.468597,0.359129,-0.774706,0.695684,0.0999954,-0.409808,1
0.737822,-0.757857,-2.18531,-0.916204,2.92547,1.39663,-2.03844,0.737822,-0.757857,-2.18531,-0.916204,2.84842,1.39663,-2.03844,0.797927,-0.71422,-2.22563,-0.839836,2.85437,1.37841,-1.98839,-0.608023,-0.598303,0.474419,-1.37921,0.552381,0.41929,-0.490622,-0.608023,-0.598303,0.474419,-1.37921,0.552381,0.41929,-0.490622,-0.276686,-0.568615,0.891565,0.961737,0.011318,-0.132953,-0.239286,-0.253161,-0.283448,-0.760073,-0.305381,-0.330378,-0.772176,0.214727,-0.217257,0.682151,0.900829,0.453755,-2.88091,0.900829,0.462664,-2.88091,-0.601051,-0.436365,0.403117,-0.763683,0.710955,0.182146,-0.500493,1
0.731253,-0.764614,-2.18161,-0.927623,2.93012,1.3988,-2.04326,0.731253,-0.764614,-2.18161,-0.927623,2.84842,1.3988,-2.04326,0.791905,-0.719534,-2.22151,-0.853607,2.85751,1.38124,-1.99342,-0.613272,-0.522597,0.407042,-1.40042,0.244197,0.244424,-0.527714,-0.613272,-0.522597,0.407042,-1.40042,0.244197,0.244424,-0.527714,-0.279166,-0.571892,0.884269,0.960982,0.0180224,-0.135705,-0.240361,-0.198385,-0.273829,-0.722422,-0.23387,-0.32872,-0.730612,0.224018,-0.212202,0.65254,0.929046,0.505458,-2.96109,0.929046,0.465352,-2.96109,-0.606521,-0.450804,0.398994,-0.740162,0.726097,0.175533,-0.498407,1
0.719968,-0.773407,-2.17841,-0.939471,2.93238,1.38981,-2.04665,0.719968,-0.773407,-2.17841,-0.939471,2.84842,1.38981,-2.04665,0.785262,-0.724934,-2.21659,-0.867931,2.85824,1.38323,-1.99999,-0.678851,-0.541712,0.535504,-1.42774,0.0228952,0.191549,-0.70282,-0.678851,-0.541712,0.535504,-1.42774,0.0228952,0.191549,-0.70282,-0.281352,-0.575182,0.876936,0.960109,0.0251965,-0.137402,-0.242231,-0.180522,-0.260742,-0.71788,-0.209876,-0.317935,-0.725229,0.232988,-0.207079,0.622156,0.897053,0.51229,-3.03845,0.897053,0.470499,-3.03845,-0.652934,-0.48473,0.381823,-0.715407,0.74141,0.0658108,-0.46661,1
0.710194,-0.784051,-2.17178,-0.951825,2.93191,1.37985,-2.05416,0.710194,-0.784051,-2.17178,-0.951825,2.84842,1.37985,-2.05416,0.778268,-0.730916,-2.2099,-0.882581,2.85748,1.38562,-2.00852,-0.708861,-0.618941,0.707602,-1.45835,-0.103335,0.269939,-0.903118,-0.708861,-0.618941,0.707602,-1.45835,-0.103335,0.269939,-0.903118,-0.283267,-0.578415,0.869449,0.959065,0.0323272,-0.138982,-0.244607,-0.161235,-0.258016,-0.743767,-0.190919,-0.312947,-0.752163,0.242193,-0.202269,0.590982,0.920472,0.48098,-3.1174,0.920472,0.47768,-3.1174,-0.680744,-0.531349,0.38117,-0.692443,0.744265,-0.0577301,-0.456357,1
0.700614,-0.794686,-2.16584,-0.964825,2.93013,1.37278,-2.06329,0.700614,-0.794686,-2.16584,-0.964825,2.84842,1.37278,-2.06329,0.770641,-0.737288,-2.20224,-0.897116,2.85595,1.38875,-2.01858,-0.773433,-0.645055,0.7806,-1.4565,-0.16437,0.329802,-1.03006,-0.773433,-0.645055,0.7806,-1.4565,-0.16437,0.329802,-1.03006,-0.285338,-0.581281,0.861948,0.957774,0.0390567,-0.140597,-0.247741,-0.178086,-0.225543,-0.74326,-0.207262,-0.276368,-0.752331,0.250977,-0.197365,0.558681,0.878392,0.490457,-3.23004,0.878392,0.485517,-3.23004,-0.70027,-0.573984,0.364051,-0.677085,0.74176,-0.159762,-0.447055,1
0.695679,-0.799413,-2.15154,-0.981077,2.92852,1.38369,-2.07142,0.695679,-0.799413,-2.15154,-0.981077,2.84842,1.38369,-2.07142,0.762983,-0.743637,-2.19395,-0.911249,2.85427,1.39127,-2.0288,-0.760418,-0.63506,0.830755,-1.41043,-0.168474,0.21245,-1.00683,-0.760418,-0.63506,0.830755,-1.41043,-0.168474,0.21245,-1.00683,-0.287295,-0.58397,0.854711,0.956459,0.0457701,-0.142262,-0.250704,-0.159341,-0.216522,-0.711371,-0.189227,-0.269469,-0.721501,0.260802,-0.192309,0.525239,0.982499,0.505534,-3.34426,0.982499,0.493466,-3.34426,-0.673039,-0.55776,0.424185,-0.698282,0.742441,-0.0757542,-0.426212,1
0.69067,-0.806807,-2.14176,-0.995925,2.92656,1.40011,-2.07712,0.69067,-0.806807,-2.14176,-0.995925,2.84842,1.40011,-2.07712,0.755503,-0.75056,-2.18612,-0.925005,2.8527,1.39163,-2.03824,-0.750375,-0.706128,0.764876,-1.35248,-0.153996,-0.0222553,-0.924091,-0.750375,-0.706128,0.764876,-1.35248,-0.153996,-0.0222553,-0.924091,-0.289486,-0.587072,0.847181,0.95515,0.0535739,-0.143821,-0.253246,-0.199487,-0.248794,-0.74451,-0.231318,-0.312503,-0.756566,0.270435,-0.187758,0.489975,0.963303,0.455102,-3.52634,0.963303,0.492836,-3.52634,-0.648326,-0.562478,0.443608,-0.709202,0.738576,0.0848083,-0.388862,1
0.686506,-0.812723,-2.13398,-1.00972,2.92518,1.41038,-2.08257,0.686506,-0.812723,-2.13398,-1.00972,2.84842,1.41038,-2.08257,0.748083,-0.757742,-2.17882,-0.938413,2.85134,1.39001,-2.04703,-0.735969,-0.716111,0.725675,-1.33135,-0.131638,-0.201304,-0.86696,-0.735969,-0.716111,0.725675,-1.33135,-0.131638,-0.201304,-0.86696,-0.291888,-0.590417,0.839505,0.95381,0.0622819,-0.145226,-0.255494,-0.203275,-0.261763,-0.750288,-0.235733,-0.33314,-0.764191,0.279585,-0.183533,0.453624,0.915051,0.422499,-3.6351,0.915051,0.48074,-3.6351,-0.615772,-0.549815,0.448399,-0.713109,0.738331,0.203751,-0.355386,1
0.680222,-0.818885,-2.12613,-1.023,2.92401,1.41102,-2.09042,0.680222,-0.818885,-2.12613,-1.023,2.84842,1.41102,-2.09042,0.74071,-0.764711,-2.17155,-0.951663,2.85017,1.38837,-2.05549,-0.738522,-0.703228,0.725423,-1.34235,-0.111466,-0.140411,-0.840055,-0.738522,-0.703228,0.725423,-1.34235,-0.111466,-0.140411,-0.840055,-0.294174,-0.593531,0.832005,0.952458,0.0707851,-0.146648,-0.257504,-0.192493,-0.237927,-0.744639,-0.225035,-0.305891,-0.759748,0.288701,-0.178681,0.41728,0.911531,0.485285,-3.6344,0.911531,0.472407,-3.6344,-0.60488,-0.541731,0.454126,-0.713409,0.738388,0.22653,-0.349245,1
0.671779,-0.826764,-2.12002,-1.03662,2.92248,1.40766,-2.09994,0.671779,-0.826764,-2.12002,-1.03662,2.84842,1.40766,-2.09994,0.733251,-0.771873,-2.16415,-0.965003,2.84933,1.38841,-2.06362,-0.750147,-0.711102,0.750039,-1.32156,-0.0742465,0.056483,-0.801765,-0.750147,-0.711102,0.750039,-1.32156,-0.0742465,0.056483,-0.801765,-0.296503,-0.596266,0.824391,0.951063,0.0785283,-0.148472,-0.259363,-0.197404,-0.19451,-0.735008,-0.231846,-0.251479,-0.751172,0.297888,-0.174075,0.380388,0.918725,0.460559,-3.68918,0.918725,0.466884,-3.68918,-0.614718,-0.548917,0.441321,-0.716219,0.731593,0.192513,-0.363175,1
0.66431,-0.833998,-2.11313,-1.05071,2.92093,1.40962,-2.1098,0.66431,-0.833998,-2.11313,-1.05071,2.84842,1.40962,-2.1098,0.725963,-0.779022,-2.15605,-0.97852,2.8488,1.39041,-2.07116,-0.720569,-0.717909,0.830108,-1.34912,-0.0454069,0.25062,-0.735934,-0.720569,-0.717909,0.830108,-1.34912,-0.0454069,0.25062,-0.735934,-0.298505,-0.59858,0.816883,0.94977,0.0852516,-0.150821,-0.260619,-0.152997,-0.169602,-0.728894,-0.189787,-0.217815,-0.74612,0.307335,-0.169471,0.342746,0.944734,0.46044,-3.76423,0.944734,0.461533,-3.76423,-0.616525,-0.549764,0.429239,-0.721909,0.721303,0.19206,-0.38644,1
0.657697,-0.842707,-2.11026,-1.06566,2.91853,1.41051,-2.11609,0.657697,-0.842707,-2.11026,-1.06566,2.84842,1.41051,-2.11609,0.71859,-0.786507,-2.14785,-0.992007,2.84855,1.39402,-2.07788,-0.739948,-0.768543,0.80838,-1.35864,-0.0206326,0.387699,-0.655002,-0.739948,-0.768543,0.80838,-1.35864,-0.0206326,0.387699,-0.655002,-0.300625,-0.600545,0.809242,0.948502,0.0912218,-0.153648,-0.261561,-0.1781,-0.149763,-0.761145,-0.217053,-0.192791,-0.779518,0.316391,-0.164598,0.303328,0.905579,0.487231,-3.94181,0.905579,0.461313,-3.94181,-0.608935,-0.562002,0.375932,-0.736552,0.699791,0.164892,-0.382119,1
0.652495,-0.850313,-2.10468,-1.07948,2.9179,1.41474,-2.12168,0.652495,-0.850313,-2.10468,-1.07948,2.84842,1.41474,-2.12168,0.711357,-0.794367,-2.13963,-1.00529,2.84843,1.398,-2.08454,-0.718797,-0.778418,0.829709,-1.31388,-0.0119456,0.396573,-0.676758,-0.718797,-0.778418,0.829709,-1.31388,-0.0119456,0.396573,-0.676758,-0.302775,-0.60242,0.801485,0.947183,0.0970421,-0.156711,-0.262427,-0.167727,-0.136373,-0.743365,-0.207596,-0.176707,-0.762639,0.325849,-0.159837,0.262831,0.945765,0.476095,-4.04966,0.945765,0.467298,-4.04966,-0.588622,-0.559466,0.349547,-0.741951,0.694734,0.167361,-0.371414,1
0.645545,-0.859356,-2.10022,-1.09278,2.91777,1.41333,-2.128,0.645545,-0.859356,-2.10022,-1.09278,2.84842,1.41333,-2.128,0.704117,-0.802346,-2.13153,-1.01864,2.84836,1.40161,-2.09182,-0.730985,-0.808989,0.797939,-1.33947,-0.00759306,0.35663,-0.74539,-0.730985,-0.808989,0.797939,-1.33947,-0.00759306,0.35663,-0.74539,-0.304906,-0.604268,0.793643,0.945727,0.103137,-0.159721,-0.26354,-0.177891,-0.137146,-0.7718,-0.218287,-0.180835,-0.792545,0.334849,-0.155621,0.221458,0.900045,0.421581,-4.13733,0.900045,0.467496,-4.13733,-0.585714,-0.5701,0.313151,-0.74144,0.694158,0.117222,-0.361731,1
0.638562,-0.867936,-2.09886,-1.10689,2.91743,1.4125,-2.13499,0.638562,-0.867936,-2.09886,-1.10689,2.84842,1.4125,-2.13499,0.696687,-0.810485,-2.12395,-1.03237,2.84827,1.40481,-2.09967,-0.738187,-0.814669,0.743233,-1.3944,-0.0104116,0.305639,-0.792223,-0.738187,-0.814669,0.743233,-1.3944,-0.0104116,0.305639,-0.792223,-0.307131,-0.606122,0.785514,0.944091,0.109703,-0.162518,-0.265039,-0.173764,-0.138054,-0.799394,-0.213088,-0.186541,-0.821298,0.343332,-0.151693,0.178292,0.848258,0.392814,-4.31657,0.848258,0.455363,-4.31657,-0.581248,-0.574507,0.25091,-0.745209,0.691689,0.0769302,-0.353232,1
0.634529,-0.874379,-2.09232,-1.12097,2.91729,1.42045,-2.1422,0.634529,-0.874379,-2.09232,-1.12097,2.84842,1.42045,-2.1422,0.689374,-0.818166,-2.11673,-1.04611,2.8482,1.40768,-2.10755,-0.734928,-0.754761,0.710996,-1.37367,-0.00324044,0.283696,-0.781941,-0.734928,-0.754761,0.710996,-1.37367,-0.00324044,0.283696,-0.781941,-0.309123,-0.607806,0.777634,0.94244,0.116256,-0.165055,-0.266548,-0.15858,-0.110757,-0.758128,-0.195572,-0.157468,-0.779823,0.352239,-0.146925,0.135366,0.89075,0.476827,-4.29267,0.89075,0.449931,-4.29267,-0.548451,-0.562129,0.244155,-0.748562,0.690865,0.1277,-0.346517,1
