Afshin1997/kuka_rl_ros2/src/catch_and_throw/input_files/idealpd/polynomial_regressor/optimizer_files/env_40_data.csv
torque0,torque1,torque2,torque3,torque4,torque5,torque6,action0,action1,action2,action3,action4,action5,action6,set_target_0,set_target_1,set_target_2,set_target_3,set_target_4,set_target_5,set_target_6,joint_pos_0,joint_pos_1,joint_pos_2,joint_pos_3,joint_pos_4,joint_pos_5,joint_pos_6,joint_vel_0,joint_vel_1,joint_vel_2,joint_vel_3,joint_vel_4,joint_vel_5,joint_vel_6,tennisball_pos_0,tennisball_pos_1,tennisball_pos_2,tennisball_lin_vel_0,tennisball_lin_vel_1,tennisball_lin_vel_2,end_effector_pos_0,end_effector_pos_1,end_effector_pos_2,end_effector_rot_0,end_effector_rot_1,end_effector_rot_2,end_effector_rot_3,end_effector_lin_vel_0,end_effector_lin_vel_1,end_effector_lin_vel_2,obs_task_0,obs_task_1,obs_task_2,obs_task_3,obs_task_4,obs_task_5,obs_task_6,to_final_target_0,to_final_target_1,to_final_target_2,joint_acc_0,joint_acc_1,joint_acc_2,joint_acc_3,joint_acc_4,joint_acc_5,joint_acc_6
0.0,0.0,0.0,0.0,0.0,0.0,0.0,0.0,0.0,0.0,0.0,0.0,0.0,0.0,1.7802359,-1.0646509,-1.8151424,-1.1170107,1.9373155,1.1170107,-0.91629785,1.7802359,-1.0646509,-1.8151424,-1.1170107,1.9373155,1.1170107,-0.91629785,0.0,0.0,0.0,0.0,0.0,0.0,0.0,3.0901794,-0.67868805,0.32583445,-3.7764165,0.034561004,4.716356,0.5304184,-0.45449448,0.693097,0.5745483,0.17512383,0.15255436,0.7848268,0.0,0.0,0.0,1.0,0.0,0.0,0.0,0.0,0.0,0.0,-3.7401795,0.27868804,0.22416556,0.0,0.0,0.0,0.0,0.0,0.0,0.0
0.0,0.0,0.0,0.0,0.0,0.0,0.0,0.0,0.0,0.0,0.0,0.0,0.0,0.0,1.7802359,-1.0646509,-1.8151424,-1.1170107,1.9373155,1.1170107,-0.91629785,1.7802359,-1.0646509,-1.8151424,-1.1170107,1.9373155,1.1170107,-0.91629785,0.0,0.0,0.0,0.0,0.0,0.0,0.0,3.0901794,-0.67868805,0.32583445,-3.7764165,0.034561004,4.716356,0.5304184,-0.45449448,0.693097,0.5745483,0.17512383,0.15255436,0.7848268,0.0,0.0,0.0,1.0,0.0,0.0,0.0,0.0,0.0,0.0,-3.7401795,0.27868804,0.22416556,0.0,0.0,0.0,0.0,0.0,0.0,0.0
0.0,0.0,0.0,0.0,0.0,0.0,0.0,0.0,0.0,0.0,0.0,0.0,0.0,0.0,1.7802359,-1.0646509,-1.8151424,-1.1170107,1.9373155,1.1170107,-0.91629785,1.7802359,-1.0646509,-1.8151424,-1.1170107,1.9373155,1.1170107,-0.91629785,0.0,0.0,0.0,0.0,0.0,0.0,0.0,3.0901794,-0.67868805,0.32583445,-3.7764165,0.034561004,4.716356,0.5304184,-0.45449448,0.693097,0.5745483,0.17512383,0.15255436,0.7848268,0.0,0.0,0.0,1.0,0.0,0.0,0.0,0.0,0.0,0.0,-3.7401795,0.27868804,0.22416556,0.0,0.0,0.0,0.0,0.0,0.0,0.0
-176.0,40.965904,-17.072136,110.0,10.670917,3.747242,-3.8019366,-0.79120076,0.20672607,-0.5584669,0.7462477,0.050344363,0.6970853,-0.5879091,1.7011158,-1.0439783,-1.8709891,-1.0423859,1.9423499,1.1867193,-0.9750888,1.7792345,-1.0630888,-1.8211448,-1.11159,1.9418721,1.1224982,-0.9180326,-0.13321097,0.20770991,-0.79993004,0.7234,0.60682255,0.7302496,-0.23057386,3.0524445,-0.6783447,0.37222618,-3.772641,0.03452645,4.6134543,0.52838135,-0.45793915,0.69360626,0.57851607,0.17360511,0.15104401,0.78253824,-0.2713978,-0.45958483,0.06777628,1.0,0.0,0.0,0.0,0.0,0.0,0.0,-3.7024446,0.27834472,0.17777383,-13.206814,20.588919,-79.91468,72.49595,60.47684,72.553734,-22.852026
-176.0,-36.08846,-48.231754,110.0,11.395924,1.1213393,-3.094332,-0.78543913,-0.19264947,-0.55922085,0.71266747,0.22499225,0.6732472,-0.55435663,1.7006906,-1.0823537,-1.8770669,-1.0403233,1.9643713,1.1898229,-0.97346824,1.7782084,-1.0614122,-1.8361576,-1.0964705,1.9503751,1.1358763,-0.9188661,-0.09473159,0.14381692,-1.7104235,1.7761376,0.9180277,1.5110908,-0.039816067,3.0147476,-0.6780014,0.41758966,-3.7688692,0.03449193,4.510656,0.52386475,-0.46660614,0.6939963,0.5870385,0.17005154,0.14757974,0.7776171,-0.5115508,-1.0000372,0.0323606,1.0,0.0,0.0,0.0,0.0,0.0,0.0,-3.6647477,0.2780014,0.13241035,3.2151997,-9.566868,-83.64823,105.63624,27.145863,69.30571,17.421352
-146.041,132.43695,40.889156,91.88804,7.429955,8.300579,-1.7019513,-0.72961897,0.28760538,0.19810057,0.6690422,0.22578576,0.7123062,-0.43890116,1.7052464,-1.0326517,-1.8163475,-1.0295663,1.9729537,1.207107,-0.9627562,1.7741,-1.0590891,-1.8506477,-1.0769812,1.9591908,1.1508509,-0.9194345,-0.5164872,0.2582967,-1.3544627,2.0075302,0.8637672,1.4864076,-0.06444291,2.977089,-0.6776581,0.46192595,-3.7651012,0.034457445,4.40796,0.51649475,-0.47781754,0.6962705,0.59826756,0.16457291,0.14301546,0.77106297,-0.81884813,-1.1540776,0.29617202,1.0,0.0,0.0,0.0,0.0,0.0,0.0,-3.627089,0.27765808,0.08807406,-42.251102,10.392219,37.78608,23.442793,-7.1136713,-4.3491364,-3.0643144
-98.52885,116.43856,43.46219,56.59165,4.72522,7.5783324,-0.29385635,-0.75389606,0.0758122,0.18775478,0.66502017,0.27380928,0.6811446,-0.51788664,1.6987103,-1.0515078,-1.8318722,-1.0104792,1.9865718,1.2189653,-0.9712232,1.7656542,-1.0566267,-1.8592556,-1.0577513,1.9667745,1.1647669,-0.92039675,-0.954726,0.23998511,-0.6884966,1.8952624,0.717063,1.3563912,-0.10859081,2.9394684,-0.67731476,0.505236,-3.761337,0.034422994,4.3053665,0.50657654,-0.48957062,0.70063543,0.610342,0.15758744,0.13745081,0.7640392,-1.0637937,-1.1707531,0.4872433,1.0,0.0,0.0,0.0,0.0,0.0,0.0,-3.5894685,0.27731475,0.044763982,-44.117428,-2.5294006,68.89987,-11.090708,-16.474247,-14.053202,-4.9426885
-45.8118,134.18147,52.265873,32.081196,2.106566,6.7716403,0.32234943,-0.76819366,0.23361309,0.14841892,0.66535264,0.42808187,0.6905006,-0.53312945,1.6888348,-1.0332654,-1.8444136,-0.99121606,2.0095828,1.233817,-0.9737097,1.7535654,-1.0537676,-1.8615463,-1.0408026,1.973309,1.1772486,-0.92184156,-1.2947685,0.29933912,-0.06974104,1.6276567,0.627784,1.2102134,-0.15828437,2.9018784,-0.67697144,0.54752094,-3.7575765,0.03438858,4.202876,0.4947586,-0.5006523,0.70675004,0.6221711,0.14948519,0.13113229,0.7572063,-1.229791,-1.0748405,0.6542376,1.0,0.0,0.0,0.0,0.0,0.0,0.0,-3.5518785,0.27697143,0.0024790764,-34.373497,5.402243,63.750984,-26.885271,-10.282909,-15.143156,-5.5359364
-18.648376,106.9123,37.166904,15.718656,0.3316441,3.925333,0.21081942,-0.79596174,0.27445066,-0.042577256,0.6676913,0.43960893,0.6774634,-0.56516254,1.6739693,-1.0263225,-1.865804,-0.9740335,2.0172698,1.2449949,-0.9783578,1.7390906,-1.0501474,-1.8601367,-1.0264517,1.9792829,1.1883932,-0.9237556,-1.4993356,0.38170278,0.21437001,1.3703443,0.5851315,1.0821016,-0.20376194,2.864334,-0.6766281,0.5887817,-3.7538195,0.0343542,4.1004877,0.4819641,-0.510746,0.7137823,0.63351685,0.14100151,0.124787256,0.75046855,-1.3101743,-0.97389805,0.71856064,1.0,0.0,0.0,0.0,0.0,0.0,0.0,-3.5143342,0.2766281,-0.038781703,-20.724535,7.9375925,29.352358,-25.881577,-4.8675537,-12.881327,-4.9220233
3.9090927,117.91878,36.83908,10.163124,-1.1062644,2.725472,-0.15368263,-0.8088863,0.47529647,-0.15296328,0.650903,0.4478516,0.6721737,-0.5624817,1.6582019,-1.0026177,-1.8754331,-0.9613614,2.024068,1.2556106,-0.9800038,1.7234656,-1.044866,-1.8580787,-1.014155,1.9850926,1.1984087,-0.926073,-1.5845959,0.57617116,0.20477279,1.1821707,0.57872164,0.9750611,-0.24246384,2.8268204,-0.6762848,0.6290194,-3.7500663,0.03431985,3.998202,0.46875763,-0.5196724,0.72136253,0.6445699,0.13253939,0.11935897,0.743449,-1.3321378,-0.85221666,0.7693786,1.0,0.0,0.0,0.0,0.0,0.0,0.0,-3.4768205,0.27628478,-0.07901937,-8.80661,19.193697,-0.37793517,-18.98942,-0.8871436,-10.623777,-4.266712
16.308876,119.721115,35.719173,8.178812,-1.5926453,1.9810737,-0.328474,-0.8190736,0.574046,-0.18302257,0.62644196,0.48160675,0.65370977,-0.5541856,1.6415582,-0.9874614,-1.8763809,-0.95151085,2.0332534,1.2637796,-0.98149157,1.7075659,-1.0373739,-1.8572357,-1.0031744,1.9910626,1.2074801,-0.9287223,-1.5926385,0.80612916,0.04558929,1.0693066,0.60276264,0.88471144,-0.2736329,2.7893524,-0.67594147,0.668235,-3.746317,0.034285538,3.896019,0.4555664,-0.52739334,0.72941154,0.65552074,0.12423695,0.115328565,0.7359055,-1.3213074,-0.7318565,0.8151081,1.0,0.0,0.0,0.0,0.0,0.0,0.0,-3.4393525,0.27594146,-0.11823499,-1.077795,22.784065,-15.466656,-11.491179,2.278483,-8.974302,-3.4997702
23.391575,116.09892,35.100994,7.6376343,-1.5253813,1.6921482,-0.3136935,-0.8127838,0.63048744,-0.17122848,0.61324495,0.4874275,0.6594023,-0.538884,1.6262876,-0.9743252,-1.8743585,-0.94184995,2.0398054,1.2734203,-0.9826107,1.691918,-1.0277532,-1.8580997,-0.9928476,1.9973264,1.2157656,-0.93162817,-1.556256,1.013501,-0.12903577,1.0196488,0.6339996,0.8099115,-0.2975465,2.751915,-0.67559814,0.70642954,-3.7425714,0.034251258,3.793938,0.44259644,-0.5339699,0.7379265,0.66642475,0.116062686,0.11265658,0.7278158,-1.2972965,-0.6192099,0.8625673,1.0,0.0,0.0,0.0,0.0,0.0,0.0,-3.401915,0.27559814,-0.15642953,3.3887386,20.554852,-17.024782,-5.214596,3.02037,-7.503307,-2.7677119
24.437016,108.59058,33.85788,8.232073,-1.0988333,1.6433622,-0.20614125,-0.8081895,0.6749819,-0.15605365,0.60164976,0.50343144,0.6642231,-0.5305226,1.611099,-0.960255,-1.873705,-0.93268263,2.0476694,1.2821879,-0.9846804,1.6767298,-1.0164293,-1.8603199,-0.9827272,2.003916,1.2234007,-0.9347314,-1.5071803,1.1714805,-0.25129935,1.0085787,0.6671207,0.74785614,-0.31591797,2.7145157,-0.6752548,0.743604,-3.7388296,0.034217015,3.691959,0.4298172,-0.5395317,0.74691623,0.6772457,0.10790854,0.111007445,0.7192853,-1.275129,-0.5193854,0.91057926,1.0,0.0,0.0,0.0,0.0,0.0,0.0,-3.3645158,0.27525482,-0.19360399,4.6792984,15.633631,-11.75605,-1.3782263,3.2012105,-6.324923,-2.2088468
22.333462,96.83556,31.013588,8.2591,-0.6032581,1.5666071,-0.052999683,-0.8048479,0.6991926,-0.14435065,0.57964253,0.5373148,0.6699138,-0.53784215,1.596245,-0.9465101,-1.8747549,-0.92476296,2.0576475,1.290392,-0.9885156,1.6619822,-1.0039705,-1.8632572,-0.97264975,2.0108778,1.2305018,-0.9379968,-1.4646684,1.2703487,-0.30625772,1.0065727,0.70554894,0.69706845,-0.33127588,2.6771545,-0.6749115,0.77975947,-3.7350917,0.034182806,3.590082,0.4172287,-0.5442047,0.7563134,0.6878921,0.09970948,0.10993889,0.71047574,-1.2594744,-0.43449804,0.9492472,1.0,0.0,0.0,0.0,0.0,0.0,0.0,-3.3271546,0.2749115,-0.22975945,4.039097,9.749055,-5.003172,-0.47783852,3.7266612,-5.2284718,-1.8928409
18.7739,87.16483,28.440777,8.616599,-0.20077112,1.5469925,0.064714245,-0.80424017,0.719854,-0.12381824,0.56368977,0.54987717,0.6709054,-0.5389028,1.5815581,-0.9319851,-1.875639,-0.91628075,2.0658655,1.2975923,-0.9918871,1.6475416,-0.99087137,-1.8662899,-0.96261233,2.0181944,1.2371641,-0.9413957,-1.4377995,1.3226968,-0.30057496,1.0019135,0.7397573,0.6554591,-0.34387627,2.6398315,-0.6745682,0.8148969,-3.7313573,0.03414863,3.4883068,0.40470886,-0.5481148,0.76603085,0.6982772,0.09142136,0.1090914,0.7015341,-1.2518946,-0.36095345,0.9790657,1.0,0.0,0.0,0.0,0.0,0.0,0.0,-3.2898316,0.27456817,-0.26489687,2.4816036,5.1154137,1.0943472,-0.7336855,3.2913685,-4.3132067,-1.6067922
16.93935,80.32332,26.455107,8.383688,-0.014921844,1.4962952,0.14893855,-0.79722697,0.7357157,-0.10341034,0.5496268,0.5550536,0.679072,-0.53282154,1.567819,-0.9172998,-1.8766309,-0.90764964,2.0736997,1.3050714,-0.99467784,1.633288,-0.9774713,-1.8689811,-0.95267504,2.0257895,1.2434756,-0.94489855,-1.4219208,1.34541,-0.25688002,0.9900386,0.7656607,0.62239844,-0.35357934,2.6025467,-0.67422485,0.8490173,-3.7276266,0.034114487,3.3866334,0.39224243,-0.55132675,0.77598417,0.70833135,0.08301344,0.108250976,0.6925728,-1.2476379,-0.2930087,1.0003765,1.0,0.0,0.0,0.0,0.0,0.0,0.0,-3.2525468,0.27422485,-0.2990173,1.3873577,2.1692276,4.9109936,-1.4480829,2.4652362,-3.4326315,-1.3139367
17.614765,73.80672,24.422544,6.3918324,-0.033717513,1.3281989,0.260665,-0.7931274,0.73904526,-0.075534254,0.5066829,0.5831623,0.6823134,-0.5305886,1.5539753,-0.9035668,-1.8765346,-0.90200675,2.0841057,1.3117069,-0.9979574,1.6191317,-0.9639949,-1.8710792,-0.9430477,2.0336516,1.2495066,-0.94848245,-1.4142219,1.3480306,-0.19241771,0.9526437,0.7929659,0.59651184,-0.36115566,2.5653,-0.67388153,0.8821218,-3.7238996,0.03408038,3.2850616,0.37984467,-0.5538826,0.78605276,0.7179627,0.07452035,0.107292004,0.68371385,-1.239746,-0.22677037,1.0082911,1.0,0.0,0.0,0.0,0.0,0.0,0.0,-3.2153,0.27388152,-0.3321218,0.570035,0.18367767,6.9886627,-4.008317,2.614987,-2.6441574,-1.0958791
16.260271,72.3412,23.67545,7.076448,0.04097712,1.3031766,0.26065916,-0.79050463,0.74820304,-0.042796794,0.5050709,0.5853936,0.6823072,-0.52521956,1.5400813,-0.88917464,-1.8753589,-0.89254063,2.092191,1.3177373,-1.0010045,1.6050154,-0.95052904,-1.8724716,-0.9337751,2.041735,1.2553164,-0.95212644,-1.4113283,1.3459153,-0.11962798,0.91793835,0.8134771,0.57567966,-0.36663422,2.5280914,-0.6735382,0.91421133,-3.7201765,0.034046307,3.1835914,0.36750793,-0.55579376,0.7961911,0.72715384,0.065931626,0.10617115,0.67500216,-1.2331916,-0.16326669,1.014735,1.0,0.0,0.0,0.0,0.0,0.0,0.0,-3.1780915,0.2735382,-0.36421132,0.09922981,-0.28271675,7.8035207,-3.720355,1.9475937,-2.1244645,-0.8722663
13.5110035,70.211426,21.799423,8.094771,0.0080935955,1.1509546,0.1693603,-0.7887817,0.76234865,-0.062673174,0.5004188,0.57601786,0.6974481,-0.51473904,1.5261372,-0.87429416,-1.8787389,-0.8837333,2.0993366,1.3250612,-1.0036004,1.5909125,-0.9370374,-1.8733871,-0.9247896,2.0499442,1.2609583,-0.9558076,-1.4106205,1.3500583,-0.08066742,0.89128184,0.8231309,0.5604724,-0.36970872,2.4909134,-0.6731949,0.9452869,-3.7164571,0.034012266,3.0822227,0.35523224,-0.5571022,0.80635524,0.73596936,0.057261787,0.10499621,0.6663677,-1.226226,-0.105181195,1.0155119,1.0,0.0,0.0,0.0,0.0,0.0,0.0,-3.1409135,0.27319488,-0.39528692,-0.105166435,0.35164356,4.356727,-2.9048562,0.8997679,-1.5432596,-0.6065309
14.417036,63.071667,18.633144,5.2359924,-0.24950877,0.7500939,0.20285654,-0.79183483,0.7569988,-0.077176794,0.42889747,0.60457826,0.6912006,-0.5139279,1.511729,-0.86133754,-1.8811048,-0.88189983,2.110402,1.3300784,-1.0072004,1.5767905,-0.9235248,-1.8741691,-0.9163143,2.0582907,1.2664744,-0.95951265,-1.4132038,1.3515157,-0.076067895,0.8320432,0.8383709,0.5487483,-0.37165365,2.4537811,-0.67285156,0.9753496,-3.7127416,0.03397826,2.9809554,0.34308624,-0.55786514,0.81637776,0.7444061,0.048661515,0.10388413,0.6577991,-1.2081994,-0.051397424,0.99593693,1.0,0.0,0.0,0.0,0.0,0.0,0.0,-3.1037812,0.27285156,-0.4253496,-0.43241978,0.112080574,0.86124986,-6.1930537,1.4942884,-1.093781,-0.47052503
17.583164,65.01002,19.555136,4.0857463,-0.38597023,0.7399513,0.27722576,-0.7904168,0.7640422,-0.025809001,0.38818842,0.61392164,0.68566024,-0.5011536,1.4977487,-0.8471206,-1.87675,-0.87749547,2.1196828,1.3350403,-1.009628,1.5626475,-0.9099712,-1.874789,-0.9085466,2.0667899,1.2718855,-0.96322435,-1.415426,1.3565419,-0.055901416,0.75743294,0.8538223,0.53911674,-0.37185088,2.4166794,-0.67251205,1.0044004,-3.7090294,0.03394429,2.879789,0.33119202,-0.55804443,0.82621664,0.7524066,0.040168073,0.102851,0.6493785,-1.1836056,0.008027782,0.9778297,1.0,0.0,0.0,0.0,0.0,0.0,0.0,-3.0666795,0.27251205,-0.45440036,-0.4020691,0.47581196,2.4328918,-7.7279806,1.5155077,-0.8552432,-0.297755
22.03757,65.25486,20.000505,1.6634364,-0.61430585,0.632002,0.38102603,-0.7891935,0.76669616,0.0037417652,0.31763282,0.63037467,0.681226,-0.5025431,1.4837282,-0.83330154,-1.8744148,-0.8767834,2.1298273,1.3400081,-1.0134786,1.5484911,-0.89636034,-1.8751037,-0.90172213,2.0754645,1.2772146,-0.96693605,-1.4162241,1.3626488,-0.021966007,0.6565721,0.8720879,0.5314304,-0.37184346,2.3796158,-0.67217636,1.0324402,-3.705321,0.033910353,2.778724,0.3196106,-0.5575905,0.83584726,0.7598892,0.031799857,0.101881124,0.6412311,-1.1480734,0.07289125,0.95593184,1.0,0.0,0.0,0.0,0.0,0.0,0.0,-3.0296159,0.27217636,-0.48244017,-0.2605915,0.5995512,3.8070388,-10.354435,1.8049836,-0.5984068,-0.27230382
25.939533,65.8515,20.522528,-0.12068701,-0.8087946,0.53704864,0.4613123,-0.7845894,0.77078086,0.03362867,0.25253034,0.6334491,0.6830266,-0.48570696,1.4700322,-0.81928223,-1.8717408,-0.8764691,2.1388094,1.3455173,-1.0155067,1.5343558,-0.8826789,-1.8749816,-0.8960249,2.0842993,1.2824827,-0.9706344,-1.4133093,1.3700341,0.024706779,0.5398985,0.8875646,0.52594143,-0.37002465,2.3425903,-0.67184067,1.05947,-3.7016165,0.03387645,2.67776,0.30846405,-0.55644226,0.8452496,0.7667844,0.02356646,0.10097438,0.6334749,-1.1027386,0.14165574,0.9323591,1.0,0.0,0.0,0.0,0.0,0.0,0.0,-2.9925904,0.27184066,-0.50947005,0.12071133,0.74346066,5.0541434,-11.925304,1.5518904,-0.32417774,-0.08234978
37.914375,63.349236,20.580673,-8.811407,-1.6342267,0.13760513,0.7469609,-0.7833381,0.77735597,0.07282241,0.049911123,0.6597285,0.67687136,-0.48857674,1.4560219,-0.8049433,-1.8676994,-0.89103377,2.1502721,1.3501699,-1.019492,1.5202585,-0.868905,-1.8742912,-0.8921978,2.0933325,1.2877089,-0.9743156,-1.4091041,1.3799155,0.08496676,0.32946882,0.9088333,0.5229842,-0.36834157,2.305603,-0.671505,1.0854912,-3.6979158,0.03384258,2.576897,0.29800415,-0.55449677,0.85425496,0.77288735,0.015640128,0.10018329,0.6263895,-1.0235674,0.22382584,0.88692427,1.0,0.0,0.0,0.0,0.0,0.0,0.0,-2.9556031,0.27150497,-0.53549117,0.25377274,1.0320187,6.3903913,-21.314537,2.1510363,0.12848377,-0.07432699
46.91408,60.257202,20.265219,-15.570131,-2.2622695,-0.25025523,0.9701966,-0.7806697,0.7804375,0.119484656,-0.12764129,0.6712593,0.67376196,-0.47188684,1.4421916,-0.79086125,-1.8623427,-0.90496194,2.1604586,1.3550851,-1.0215043,1.5062128,-0.85503477,-1.8728988,-0.8910095,2.1025832,1.2929178,-0.97796816,-1.4035667,1.389635,0.15816419,0.047836516,0.93072724,0.52211493,-0.36478192,2.2686539,-0.6711693,1.1105044,-3.6942186,0.033808745,2.4761348,0.28852844,-0.5516815,0.86267346,0.77800256,0.008216701,0.099566445,0.6202668,-0.9165906,0.31157452,0.8234948,1.0,0.0,0.0,0.0,0.0,0.0,0.0,-2.918654,0.27116928,-0.5605044,0.426507,1.0540962,7.590674,-28.404406,2.2642136,0.49067736,0.16326308
47.09078,60.23984,20.304316,-15.098274,-2.221489,-0.3683511,0.9716305,-0.77479064,0.78729105,0.165883,-0.22036932,0.67572737,0.6561271,-0.4462894,1.4287338,-0.7763057,-1.8563105,-0.9130464,2.170156,1.3585305,-1.0225971,1.4922434,-0.8410587,-1.8707149,-0.89257735,2.1120284,1.2981097,-0.98156446,-1.3950591,1.4006532,0.23883516,-0.22557339,0.949741,0.5201683,-0.35839418,2.2317352,-0.6708336,1.1345108,-3.690525,0.033774942,2.3754735,0.280159,-0.5480232,0.87047994,0.78211194,0.0013374123,0.099131756,0.6152007,-0.8070138,0.39341635,0.76260984,1.0,0.0,0.0,0.0,0.0,0.0,0.0,-2.8817353,0.27083358,-0.58451074,0.7861614,1.2093782,8.175412,-27.511389,2.0659208,0.39123297,0.5105376
40.341316,66.18858,22.295753,-7.375293,-1.491385,-0.02098161,0.81893724,-0.764167,0.79278636,0.25722307,-0.22809383,0.6705046,0.65364265,-0.37891096,1.4158267,-0.76178,-1.8449926,-0.91538674,2.1790788,1.3634739,-1.0194556,1.478396,-0.826971,-1.8674896,-0.8962185,2.1216109,1.3032767,-0.9850492,-1.3812248,1.4119033,0.35020077,-0.41074187,0.9619706,0.5172285,-0.34543562,2.1948624,-0.6704979,1.1575112,-3.6868353,0.033741176,2.2749128,0.27268982,-0.54358673,0.8779013,0.78535134,-0.0052300477,0.09875549,0.6111001,-0.7219471,0.46743244,0.7308837,1.0,0.0,0.0,0.0,0.0,0.0,0.0,-2.8448625,0.2704979,-0.6075112,1.3674021,1.2494326,11.063009,-18.61754,1.5278816,0.19180775,1.2045562
25.401184,66.815056,21.438734,4.001192,-0.38048548,0.29562056,0.48484173,-0.7638859,0.78993523,0.29205662,-0.18510278,0.6672882,0.65529317,-0.31761384,1.4020075,-0.7479775,-1.8382839,-0.91472876,2.1883397,1.368806,-1.0168105,1.4646689,-0.8128118,-1.8632,-0.9007866,2.1312659,1.3084093,-0.98836416,-1.3698696,1.4177182,0.45453158,-0.4725324,0.968284,0.51314366,-0.3271807,2.15802,-0.6701622,1.1795068,-3.6831493,0.03370744,2.1744525,0.26574707,-0.5385742,0.8852124,0.7880021,-0.011780945,0.09830566,0.6076593,-0.6778173,0.5200068,0.72638726,1.0,0.0,0.0,0.0,0.0,0.0,0.0,-2.80802,0.2701622,-0.62950677,1.1206627,0.7110357,10.250396,-6.276292,1.019144,-0.07842779,1.7408788
15.128679,67.056915,20.978409,11.84152,0.392977,0.55512875,0.27425778,-0.7654549,0.78690547,0.35707247,-0.17074113,0.66527003,0.6538432,-0.2648095,1.3881234,-0.73412126,-1.8274927,-0.9178607,2.1977928,1.3737936,-1.0148451,1.4510161,-0.79863733,-1.8578384,-0.90536135,2.1409552,1.3134981,-0.9914703,-1.3639014,1.4177567,0.56260943,-0.4528618,0.9703745,0.50826097,-0.30533597,2.1212158,-0.6698265,1.2004986,-3.679467,0.03367374,2.0740929,0.25902557,-0.53310776,0.8926241,0.7902899,-0.018551892,0.09766857,0.6046143,-0.6631027,0.56037325,0.74080276,1.0,0.0,0.0,0.0,0.0,0.0,0.0,-2.771216,0.2698265,-0.65049857,0.5684376,0.1354456,10.582256,1.8614113,0.6406903,-0.25804043,2.0935595
14.5722475,66.433784,20.868677,12.438673,0.3996362,0.5409347,0.26644254,-0.75666285,0.7893077,0.4150389,-0.20669357,0.65463847,0.6537941,-0.20135385,1.3753498,-0.71970654,-1.8163345,-0.9260307,2.206419,1.3788775,-1.0116056,1.4374319,-0.7844705,-1.8514049,-0.90966433,2.150614,1.3185431,-0.9943275,-1.3565409,1.4168007,0.6695568,-0.42308092,0.96614516,0.5038271,-0.2795022,2.0844498,-0.6694908,1.2204876,-3.6757882,0.03364007,1.9738333,0.25243378,-0.5272484,0.9001862,0.79226524,-0.025614662,0.09684211,0.601898,-0.64946663,0.6009972,0.7559216,1.0,0.0,0.0,0.0,0.0,0.0,0.0,-2.7344499,0.2694908,-0.6704876,0.717926,0.03643036,10.459412,2.886045,0.0055909157,-0.2150774,2.4979174
8.149198,63.86941,19.307234,16.167797,0.71643794,0.5654675,0.13172007,-0.76267505,0.78913695,0.4403236,-0.14929718,0.6433348,0.6564371,-0.12191059,1.3611645,-0.7055568,-1.8073726,-0.92459404,2.2149475,1.3841867,-1.0065186,1.4238726,-0.770318,-1.8440635,-0.9133989,2.160189,1.323546,-0.99688905,-1.3557098,1.4151903,0.7548954,-0.35732263,0.95628357,0.49972165,-0.24866576,2.0477142,-0.6691551,1.2394748,-3.6721132,0.03360644,1.8736739,0.24590302,-0.52103806,0.90792745,0.7940156,-0.03300884,0.09586414,0.59938264,-0.6498205,0.6327562,0.7744445,1.0,0.0,0.0,0.0,0.0,0.0,0.0,-2.6977143,0.2691551,-0.68947476,0.04813671,-0.03066063,8.310116,6.4709067,-0.5719662,-0.23634434,2.999887
-0.45679283,59.27678,16.968939,21.04756,1.198611,0.6099841,-0.038453303,-0.7726695,0.7778667,0.46483356,-0.056092884,0.622279,0.6630647,-0.021380054,1.3466057,-0.6925313,-1.7975801,-0.9190082,2.2224169,1.3898525,-0.9990271,1.410256,-0.7562322,-1.8360336,-0.9161131,2.1696074,1.3285147,-0.99909395,-1.3637905,1.4067748,0.8182247,-0.24311844,0.9387117,0.4961179,-0.21134773,2.0110245,-0.6688194,1.2574611,-3.668442,0.033572838,1.7736146,0.23918915,-0.5146141,0.9158867,0.79567844,-0.040796876,0.09475724,0.59686875,-0.67031413,0.6516153,0.7970697,1.0,0.0,0.0,0.0,0.0,0.0,0.0,-2.6610246,0.26881942,-0.70746106,-0.8692026,-0.71423054,6.128812,11.28633,-1.3571143,-0.26265383,3.6411257
-13.56325,56.508038,14.66581,30.156254,2.0468829,0.8249137,-0.35748383,-0.78216827,0.77620727,0.45018312,0.1264587,0.6121558,0.66945994,0.071124576,1.3320392,-0.67861146,-1.7910153,-0.9034672,2.230823,1.3954607,-0.9919815,1.396506,-0.7422342,-1.8276794,-0.91697997,2.178839,1.333449,-1.0008869,-1.3790169,1.3978491,0.84053224,-0.035032764,0.91955596,0.4923519,-0.16894475,1.9743652,-0.66848373,1.2744474,-3.6647742,0.033539273,1.6736554,0.23202515,-0.5081291,0.92419267,0.7974926,-0.049129575,0.09351864,0.59400845,-0.7261322,0.65423435,0.83563036,1.0,0.0,0.0,0.0,0.0,0.0,0.0,-2.6243653,0.26848373,-0.7244474,-1.6177416,-0.7628441,2.0182252,20.642971,-1.5041709,-0.41656494,4.1464596
-22.926327,53.641666,12.529316,36.364536,2.6070578,0.94287884,-0.6280877,-0.7949438,0.77747226,0.4168653,0.28244823,0.6169334,0.6715093,0.05219969,1.3170116,-0.66448694,-1.7859929,-0.8887352,2.2405324,1.4006,-0.9956669,1.3825575,-0.7283029,-1.8194377,-0.91530246,2.1879256,1.3383433,-1.002306,-1.4003836,1.3919615,0.817892,0.23480396,0.90663916,0.48803198,-0.13328137,1.9377441,-0.66814804,1.290435,-3.6611102,0.033505738,1.573796,0.2240982,-0.50169754,0.9329488,0.79969054,-0.05812426,0.09215436,0.59044397,-0.80683225,0.64625245,0.8825606,1.0,0.0,0.0,0.0,0.0,0.0,0.0,-2.5877442,0.26814803,-0.74043494,-2.247262,-0.4680872,-2.479124,26.816315,-0.886178,-0.5940497,3.4823565
-23.269405,52.240833,11.790768,36.33207,2.522386,0.90424246,-0.6729378,-0.8005678,0.7793893,0.3924068,0.38826105,0.6051413,0.66928506,0.08910843,1.3025007,-0.650364,-1.780197,-0.87647635,2.2484398,1.4052718,-0.99339515,1.368405,-0.71440023,-1.8116233,-0.91091365,2.19689,1.3431937,-1.0033836,-1.4204441,1.390095,0.76883084,0.5064347,0.89399207,0.48345757,-0.09953664,1.9011612,-0.66781235,1.3054247,-3.65745,0.03347224,1.4740366,0.21536255,-0.49534225,0.94214565,0.8023395,-0.067781076,0.09072313,0.58602583,-0.88756734,0.6410789,0.9256001,1.0,0.0,0.0,0.0,0.0,0.0,0.0,-2.5511613,0.26781234,-0.7554247,-2.101326,-0.090789795,-5.1005006,27.028488,-0.8850217,-0.6685674,3.297825
-15.496531,49.905003,11.593895,29.613636,1.8265598,0.6382015,-0.50544953,-0.8040242,0.77325857,0.38082114,0.42520878,0.5841429,0.6737095,0.07982483,1.2880026,-0.63707435,-1.7735412,-0.86839277,2.2553043,1.4105647,-0.99540114,1.3540903,-0.7005281,-1.8043201,-0.9043018,2.2056868,1.3480097,-1.0041714,-1.4355623,1.3864088,0.7173393,0.7123126,0.87620103,0.48049685,-0.07193248,1.8646088,-0.66747665,1.3194176,-3.653793,0.033438772,1.3743768,0.20601654,-0.4889717,0.95162433,0.8053215,-0.07795562,0.08933087,0.58086145,-0.9431554,0.64615834,0.94869006,1.0,0.0,0.0,0.0,0.0,0.0,0.0,-2.5146089,0.26747665,-0.7694176,-1.5905857,-0.30517578,-5.257368,20.475447,-1.4811039,-0.4439652,2.6771948
-4.756856,47.311768,11.402987,19.954603,0.88981,0.22210611,-0.26016882,-0.80999815,0.77164155,0.3578214,0.4151621,0.58619773,0.6699174,0.013419868,1.2730905,-0.6233639,-1.768538,-0.86278564,2.2643065,1.4150014,-1.0028294,1.3396479,-0.68669504,-1.7975204,-0.8963911,2.2143347,1.3528048,-1.0047665,-1.4473635,1.382457,0.6677256,0.81692106,0.8616708,0.4791645,-0.055849545,1.8281021,-0.66714096,1.3324146,-3.65014,0.03340534,1.2748166,0.19639587,-0.4824791,0.96113026,0.8084396,-0.0883773,0.08808604,0.5752006,-0.9619085,0.66077447,0.9445589,1.0,0.0,0.0,0.0,0.0,0.0,0.0,-2.4781022,0.26714095,-0.7824146,-1.2676477,-0.35729408,-4.940605,10.340059,-1.2543797,-0.14019608,1.508525
10.256501,44.550407,11.432901,6.367463,-0.3750859,-0.3817801,0.13191591,-0.81525844,0.76989305,0.35014683,0.30627453,0.5931144,0.6697824,-0.009178381,1.2581221,-0.60970575,-1.7625058,-0.86576366,2.273646,1.419783,-1.0056843,1.3251044,-0.67290205,-1.7911098,-0.88852996,2.2228873,1.3576018,-1.005249,-1.4570255,1.3783094,0.63296056,0.77535915,0.85337675,0.48064718,-0.046309385,1.791626,-0.66680527,1.3444167,-3.6464908,0.03337194,1.1753561,0.18695831,-0.47577667,0.97032803,0.81141406,-0.09865757,0.087115616,0.5694601,-0.92771244,0.6842196,0.9048128,1.0,0.0,0.0,0.0,0.0,0.0,0.0,-2.441626,0.26680526,-0.7944167,-1.0782957,-0.39384365,-3.2812476,-4.307425,-0.75496435,0.37680268,0.82883465
22.803658,44.043343,12.318436,-3.9628325,-1.3223851,-0.834136,0.49474454,-0.81282574,0.7633305,0.37329713,0.20868775,0.5797156,0.6699239,0.06987547,1.2438217,-0.596569,-1.7537801,-0.8676612,2.2808588,1.4245942,-0.99826145,1.3105093,-0.65917104,-1.7848003,-0.88188285,2.2313445,1.3624235,-1.0055981,-1.4605813,1.3713813,0.63134605,0.6274027,0.8429333,0.4842002,-0.03171159,1.755188,-0.6664696,1.3554251,-3.642845,0.033338577,1.075995,0.17819977,-0.46879578,0.97896147,0.8139656,-0.108486846,0.08649774,0.56409985,-0.85133034,0.7136216,0.84300435,1.0,0.0,0.0,0.0,0.0,0.0,0.0,-2.405188,0.26646957,-0.8054251,-0.45633316,-0.67641735,0.13890266,-14.941168,-1.0662079,0.75948834,1.3219975
24.452671,44.192783,12.514258,-4.839834,-1.4249165,-0.9567519,0.57084495,-0.8113814,0.76006454,0.36928186,0.19915557,0.54697645,0.66875696,0.22223634,1.2293712,-0.5831646,-1.7478721,-0.86196727,2.2860422,1.4292992,-0.9833744,1.2959143,-0.6455135,-1.778424,-0.8767454,2.2396185,1.3672796,-1.0056992,-1.459336,1.3639078,0.64037025,0.4755451,0.8221957,0.48769033,-0.003364941,1.7187881,-0.6661339,1.3654405,-3.6392028,0.033305243,0.9767332,0.17024994,-0.46152496,0.9869866,0.81599486,-0.117795765,0.086273365,0.55931515,-0.7686185,0.7407386,0.7825948,1.0,0.0,0.0,0.0,0.0,0.0,0.0,-2.3687882,0.26613387,-0.8154405,0.059485435,-0.7213831,1.1555314,-15.299892,-2.0828366,0.75978637,2.713157
14.85615,43.43488,11.80187,4.3517923,-0.5583643,-0.6880247,0.3157767,-0.8019918,0.7476253,0.34869304,0.30807754,0.50682485,0.6757554,0.34059775,1.2157152,-0.57075095,-1.7435547,-0.84593767,2.290301,1.4348552,-0.9716394,1.2813917,-0.63197225,-1.7720363,-0.8722965,2.2475874,1.3721682,-1.0054417,-1.4501141,1.351031,0.63855433,0.43437967,0.7890699,0.49001658,0.03501743,1.6824188,-0.6657982,1.374464,-3.6355643,0.033271946,0.8775706,0.1628418,-0.45404053,0.9945932,0.8176397,-0.12681651,0.086389065,0.55490506,-0.72087806,0.75930554,0.74712235,1.0,0.0,0.0,0.0,0.0,0.0,0.0,-2.332419,0.26579818,-0.824464,0.8873701,-1.2413979,-0.0795722,-4.21887,-3.221798,0.49026608,3.7321742
8.244532,35.00462,8.213708,7.3296638,-0.19466585,-0.8571108,0.12837644,-0.8030019,0.72960377,0.2824617,0.2819451,0.4785685,0.66980374,0.37297127,1.2010915,-0.5590119,-1.7437901,-0.844102,2.2954443,1.4391485,-0.96814454,1.266955,-0.6186237,-1.7659996,-0.86798686,2.2551825,1.3770701,-1.0048027,-1.4415233,1.3296297,0.5921876,0.4293564,0.750211,0.49098507,0.07331233,1.6460953,-0.6654625,1.3824967,-3.6319294,0.03323868,0.77850723,0.15582275,-0.44649506,1.0018371,0.81908435,-0.13559997,0.086860254,0.5506076,-0.6873004,0.7603327,0.71071804,1.0,0.0,0.0,0.0,0.0,0.0,0.0,-2.2960954,0.2654625,-0.8324967,0.8242607,-2.076888,-4.616773,-0.64118505,-3.751552,0.3257513,3.743063
10.361294,30.462124,6.794491,3.6042795,-0.51687163,-1.1398681,0.21303052,-0.80750495,0.7125236,0.28723815,0.17147394,0.42429987,0.66904455,0.4215489,1.1862046,-0.5473713,-1.7372757,-0.85083944,2.2976124,1.4439745,-0.9626478,1.252566,-0.60553926,-1.7604053,-0.8640644,2.2622893,1.3819815,-1.0037823,-1.438247,1.301619,0.54867077,0.3793378,0.6978683,0.49203646,0.11146127,1.6098022,-0.6651268,1.3895395,-3.6282983,0.03320545,0.67954284,0.14924622,-0.4389763,1.008622,0.8203446,-0.14401053,0.08776801,0.54643613,-0.6397739,0.7555338,0.661909,1.0,0.0,0.0,0.0,0.0,0.0,0.0,-2.2598023,0.2651268,-0.83953947,0.29644966,-2.738285,-4.3060184,-5.1457286,-5.133283,0.3947258,3.732711
13.952391,26.203777,5.408445,-1.193531,-0.986607,-1.5068469,0.30279595,-0.7976895,0.69479036,0.25513688,0.08583253,0.35261327,0.6665051,0.4596978,1.1727971,-0.5360602,-1.7348917,-0.85548115,2.2975507,1.448632,-0.9578125,1.2382342,-0.5927667,-1.755305,-0.8610069,2.2687361,1.3869025,-1.0023918,-1.4315468,1.2692958,0.49738157,0.28074816,0.6269516,0.49334,0.14812237,1.5735474,-0.6647949,1.3955933,-3.6246707,0.03317225,0.5806774,0.14328766,-0.4315529,1.0148131,0.82139146,-0.15185292,0.08924445,0.542487,-0.5721334,0.74351466,0.59929115,1.0,0.0,0.0,0.0,0.0,0.0,0.0,-2.2235475,0.26479492,-0.8455933,0.6680012,-3.1665325,-5.083132,-9.9948225,-7.028818,0.4880488,3.5915284
16.417109,23.89766,4.6493654,-4.446101,-1.2689185,-1.7779344,0.3712767,-0.79366195,0.68005514,0.22550884,0.003693266,0.31330234,0.66292185,0.4823129,1.158868,-0.5247612,-1.7327541,-0.8606376,2.3000665,1.4531946,-0.9541605,1.2239767,-0.58031744,-1.7507408,-0.8592178,2.2744582,1.3918349,-1.000658,-1.4237233,1.2370474,0.44296512,0.14455827,0.553733,0.49442136,0.18172745,1.5373306,-0.66446686,1.4006593,-3.6210468,0.033139084,0.48191085,0.13811493,-0.42429733,1.0203148,0.8222075,-0.15896486,0.091366634,0.538848,-0.49110124,0.725182,0.528744,1.0,0.0,0.0,0.0,0.0,0.0,0.0,-2.1873307,0.26446685,-0.8506593,0.80764294,-3.1549215,-5.406374,-13.736701,-7.28575,0.49099922,3.2934637
15.00459,22.691557,4.2487316,-3.3406057,-1.0750728,-1.8310919,0.3424546,-0.78803974,0.66231906,0.19721068,-0.031069335,0.29498014,0.65912426,0.5107134,1.1451727,-0.51408553,-1.7310197,-0.8623248,2.3039563,1.4577472,-0.9495867,1.2098109,-0.56819147,-1.7467239,-0.8587267,2.2795317,1.396773,-0.9986048,-1.4142339,1.2046844,0.38780564,0.017013308,0.49174798,0.49457738,0.21296178,1.5011444,-0.6641388,1.4047383,-3.6174266,0.03310595,0.3832431,0.13369751,-0.4172554,1.02514,0.8228165,-0.1653185,0.09409066,0.5355275,-0.41559038,0.70130473,0.46242204,1.0,0.0,0.0,0.0,0.0,0.0,0.0,-2.1511445,0.2641388,-0.8547383,0.9893656,-3.1605482,-5.5160284,-12.863037,-6.155741,0.35499334,3.05956
3.9472303,20.251938,2.4811413,6.1816998,-0.15065229,-1.5885135,0.0019279122,-0.7940451,0.65494883,0.09677951,0.04763082,0.28437945,0.65724206,0.5233846,1.1304064,-0.5026966,-1.7370459,-0.8539636,2.3079696,1.4624972,-0.9462663,1.1956869,-0.55633825,-1.7435901,-0.85881156,2.2841055,1.4017035,-0.99626637,-1.4116944,1.1790688,0.2883245,-0.017485963,0.44642225,0.49315557,0.24054386,1.4649963,-0.66381073,1.4078314,-3.6138098,0.03307285,0.284674,0.12976074,-0.41049576,1.029458,0.82342374,-0.17108105,0.097339064,0.53219324,-0.37937084,0.6696277,0.41723508,1.0,0.0,0.0,0.0,0.0,0.0,0.0,-2.1149964,0.26381072,-0.8578314,0.23465157,-2.4816751,-9.980005,-3.6125596,-4.4306993,0.07202029,2.6887388
-4.220426,14.60667,-0.04608774,12.3314085,0.4987471,-1.520795,-0.25963432,-0.78924775,0.6321174,-0.0036751872,0.07982889,0.24923442,0.6536534,0.52959025,1.1167622,-0.4931265,-1.7439576,-0.85082865,2.3090289,1.4670688,-0.94330734,1.1815878,-0.5447635,-1.74178,-0.8587515,2.288256,1.406613,-0.9936819,-1.4096477,1.1504662,0.14503592,0.0130856875,0.40548995,0.49061757,0.2641233,1.4288864,-0.66348267,1.4099395,-3.6101968,0.033039786,0.18620344,0.12596893,-0.40412903,1.0334027,0.8242456,-0.1763879,0.1010688,0.52848035,-0.37034783,0.6274476,0.3828907,1.0,0.0,0.0,0.0,0.0,0.0,0.0,-2.0788865,0.26348266,-0.8599395,0.15659332,-2.7832747,-14.380288,2.8463337,-3.9637983,-0.10880232,2.2744358
-10.277151,9.649786,-1.9867313,16.858692,1.0107641,-1.4534428,-0.43765327,-0.7905947,0.6065256,-0.09042817,0.1194479,0.21626462,0.6552506,0.5375669,1.1025283,-0.48411095,-1.7508229,-0.8468067,2.3098824,1.472138,-0.9399252,1.1674906,-0.53352445,-1.7415779,-0.8580505,2.2920058,1.4114958,-0.9908867,-1.4100451,1.1153028,-0.02166044,0.08831503,0.36554956,0.48785022,0.28440687,1.392807,-0.6631546,1.4110637,-3.6065874,0.03300675,0.087831326,0.12212372,-0.39823914,1.03706,0.82543,-0.18133199,0.1052356,0.5241274,-0.38266122,0.5781329,0.35641718,1.0,0.0,0.0,0.0,0.0,0.0,0.0,-2.042807,0.2631546,-0.86106366,-0.10113716,-3.4501076,-16.732529,7.285923,-3.848052,-0.1824379,1.9321561
-12.314255,6.8795,-2.937041,17.959354,1.1049571,-1.4546311,-0.4851183,-0.7973736,0.5824976,-0.16820413,0.13449182,0.15091561,0.65331584,0.55701864,1.0877533,-0.47527468,-1.7583983,-0.84460133,2.3070974,1.4768274,-0.93518484,1.1533495,-0.5226764,-1.7430599,-0.85656375,2.295252,1.4163519,-0.9878998,-1.415457,1.0747364,-0.19063061,0.1679579,0.31130725,0.48504007,0.3031654,1.3567734,-0.66282654,1.4112048,-3.6029816,0.03297375,-0.010442439,0.11811066,-0.39286423,1.0404558,0.82703286,-0.1859359,0.10985933,0.5190139,-0.40029743,0.52695274,0.33087036,1.0,0.0,0.0,0.0,0.0,0.0,0.0,-2.0067735,0.26282653,-0.8612048,-0.59342384,-4.003167,-16.961489,7.7362356,-5.2824736,-0.20186901,1.7720759
-6.3956666,3.3895407,-3.3334641,10.976807,0.341478,-1.7449728,-0.28227332,-0.7924655,0.5348801,-0.19999245,0.054198574,-0.032600693,0.66134393,0.56088156,1.074103,-0.4691884,-1.7630591,-0.8511439,2.291992,1.4824862,-0.93181163,1.1391817,-0.5123691,-1.745961,-0.85482234,2.2974875,1.4211928,-0.9847441,-1.4170916,1.0162324,-0.32337627,0.17557499,0.19449507,0.48431852,0.31937194,1.3207703,-0.6624985,1.410364,-3.5993793,0.032940783,-0.108617954,0.11414337,-0.38801193,1.0434523,0.8289628,-0.19003974,0.11511125,0.51327866,-0.38891995,0.47350767,0.28663275,1.0,0.0,0.0,0.0,0.0,0.0,0.0,-1.9707702,0.26249847,-0.860364,-0.13782978,-5.7890177,-13.359774,0.5930275,-11.579904,0.097328424,1.51245
4.5771337,1.9801183,-1.5510614,0.76729345,-0.5696415,-2.0046775,0.15406051,-0.7790765,0.45563006,-0.10510272,-0.06557685,-0.24682978,0.66754895,0.5612464,1.061274,-0.46680608,-1.7564713,-0.86138004,2.2728045,1.4879477,-0.92861944,1.1250769,-0.50291437,-1.7493026,-0.8537676,2.298014,1.4260393,-0.98144627,-1.4078938,0.9221272,-0.33799788,0.08175902,0.005615255,0.48569018,0.3329081,1.2847977,-0.6621704,1.4085423,-3.5957806,0.03290785,-0.20669532,0.1105957,-0.38368225,1.0458404,0.83093953,-0.19345915,0.12106567,0.5074013,-0.3380332,0.42152894,0.22075933,1.0,0.0,0.0,0.0,0.0,0.0,0.0,-1.9347976,0.2621704,-0.85854226,1.0383129,-9.324265,-1.5620351,-9.456942,-18.837612,0.41490793,1.240325
13.203353,1.7654617,0.77108586,-6.426198,-0.9631268,-2.121491,0.5563273,-0.76747,0.37285838,0.017912725,-0.17179778,-0.3749605,0.6739468,0.5438704,1.0483298,-0.46562853,-1.7475114,-0.87094736,2.2605178,1.4934341,-0.92705923,1.1111284,-0.4946462,-1.7518413,-0.85421294,2.2964766,1.4309069,-0.97804356,-1.38992,0.7953405,-0.2262577,-0.086617716,-0.20644882,0.48800045,0.34236002,1.2488708,-0.66184235,1.4057404,-3.5921857,0.03287495,-0.30467463,0.10772705,-0.3798561,1.0474752,0.8326461,-0.19610552,0.12754823,0.5019707,-0.2642098,0.3701618,0.14255452,1.0,0.0,0.0,0.0,0.0,0.0,0.0,-1.8988708,0.26184234,-0.85574037,1.9742966,-12.579929,11.0550375,-16.839342,-21.182995,0.5148947,0.83640814
0.44529986,-10.09415,-1.7874794,5.890853,0.85837185,-1.6532435,0.29548576,-0.74854267,0.23818234,0.082473926,0.026640825,-0.47923267,0.6822522,0.53644204,1.0362742,-0.47082797,-1.7435939,-0.85154885,2.2485533,1.4991322,-0.9243994,1.0974318,-0.48805583,-1.7528484,-0.8552324,2.2928717,1.4357973,-0.9745674,-1.3623443,0.6138318,-0.059581276,-0.10719272,-0.41160005,0.4897613,0.34911725,1.2129745,-0.6615143,1.4019595,-3.5885942,0.03284208,-0.40255597,0.10510254,-0.37660217,1.0485404,0.83407867,-0.19837159,0.13407852,0.49697524,-0.25750247,0.31031376,0.092816524,1.0,0.0,0.0,0.0,0.0,0.0,0.0,-1.8629745,0.26151428,-0.8519595,2.9312134,-18.091547,16.467058,-2.0854802,-20.416653,0.32713413,0.5783379
-23.494741,-80.05818,-24.62687,6.042218,2.9691725,-2.9075663,-0.10772828,-0.73160756,-0.059396397,-0.07987772,0.0069107735,-0.48935503,0.67871946,0.51234025,1.024271,-0.49399546,-1.7608361,-0.85454136,2.2439363,1.5036693,-0.9233334,1.0840594,-0.48436558,-1.7531707,-0.8561575,2.2876189,1.4406954,-0.971056,-1.3275052,0.28754887,-0.02425206,-0.08778999,-0.56287587,0.49003667,0.35130012,1.1771164,-0.6611862,1.3972005,-3.5850065,0.032809246,-0.5003395,0.101989746,-0.37485886,1.0487806,0.8356219,-0.19999245,0.14004438,0.49206364,-0.3262848,0.13001706,-0.00022373868,1.0,0.0,0.0,0.0,0.0,0.0,0.0,-1.8271164,0.2611862,-0.84720045,3.8724184,-32.60153,3.1579733,1.8925011,-15.016013,0.093227625,0.054454803
-34.25076,-105.7413,-31.774666,9.604076,4.620183,-3.0886106,-0.19510832,-0.7102638,-0.26728186,0.02476927,0.037194937,-0.40778777,0.6567728,0.45975173,1.013033,-0.5110938,-1.7506938,-0.852438,2.24684,1.5063727,-0.92508084,1.071076,-0.48447287,-1.7530563,-0.85659045,2.2815344,1.4455687,-0.9675646,-1.2871416,-0.11017003,0.021841656,-0.028216524,-0.6235309,0.48589814,0.34822783,1.1412964,-0.66085815,1.3914644,-3.581422,0.03277644,-0.5980253,0.09777069,-0.3752098,1.048071,0.83746886,-0.20086083,0.14467943,0.4872048,-0.45183563,-0.08934998,-0.09517016,1.0,0.0,0.0,0.0,0.0,0.0,0.0,-1.7912964,0.26085815,-0.84146434,4.5239925,-39.76894,4.1333017,6.0240927,-5.942619,-0.5416572,-0.37086606
-22.308716,-144.87996,-43.890575,-19.643806,2.8057382,-5.0419836,0.3706808,-0.6254244,-0.53944725,-0.08477632,-0.4054324,-0.49566418,0.6404423,0.4038309,1.0085336,-0.5384176,-1.761534,-0.8971337,2.231968,1.5096129,-0.9271815,1.0588042,-0.48907483,-1.7531593,-0.85852355,2.274912,1.4503657,-0.96415424,-1.2056968,-0.57702625,-0.021572024,-0.24802616,-0.67544174,0.47581416,0.3380141,1.1055069,-0.6605301,1.3847522,-3.5778415,0.032743674,-0.69561344,0.09285736,-0.37843323,1.045664,0.8395887,-0.19993955,0.14782326,0.48297325,-0.5055696,-0.39826876,-0.28938282,1.0,0.0,0.0,0.0,0.0,0.0,0.0,-1.7555069,0.26053008,-0.83475214,8.572078,-46.73748,-4.5220103,-21.858454,-5.2886844,-1.560688,-1.1958063
2.1680992,-118.14697,-32.97519,-34.01026,1.0271238,-4.944959,1.0898665,-0.513247,-0.6983329,0.09968324,-0.6002335,-0.542182,0.65133893,0.42138407,1.0074794,-0.5589081,-1.743191,-0.9185469,2.2206938,1.5154996,-0.92201585,1.0477511,-0.4980985,-1.7529209,-0.86369914,2.267794,1.4550482,-0.96083164,-1.0718813,-1.0113322,0.040191777,-0.60716665,-0.7250366,0.46252945,0.3298053,1.0697556,-0.660202,1.3770648,-3.5742643,0.032710936,-0.79310393,0.08795166,-0.3844452,1.0411937,0.84156775,-0.19681214,0.14943524,0.48031014,-0.48543096,-0.6675158,-0.5000603,1.0,0.0,0.0,0.0,0.0,0.0,0.0,-1.7197555,0.26020202,-0.8270648,13.395643,-43.589176,6.5166206,-35.829247,-5.2881002,-2.352953,-0.99542737
35.773323,-36.86504,-4.4037194,-34.73219,-0.9753611,-3.3685808,1.6517417,-0.32084915,-0.7249746,0.31368515,-0.6470312,-0.6349003,0.66472787,0.40827942,1.0156661,-0.570596,-1.7215524,-0.92840225,2.204304,1.521521,-0.9200037,1.0387217,-0.5104095,-1.7509944,-0.8723051,2.2600234,1.4596239,-0.9575863,-0.84840286,-1.3047434,0.24522746,-0.9456639,-0.79476047,0.45288408,0.32263002,1.0340424,-0.65987396,1.3684033,-3.5706909,0.03267823,-0.890497,0.08393097,-0.39212036,1.0350549,0.8427635,-0.19216517,0.14967555,0.48002028,-0.37943548,-0.7956916,-0.653457,1.0,0.0,0.0,0.0,0.0,0.0,0.0,-1.6840423,0.25987396,-0.8184033,21.791876,-29.477428,21.039501,-34.02903,-7.104385,-1.8744111,-0.7584572
53.812378,28.714352,17.261988,-25.19618,-1.7914145,-1.8969408,1.629762,-0.124694385,-0.76018316,0.35450745,-0.60223514,-0.6627618,0.6772098,0.3364827,1.0262523,-0.5864278,-1.7155437,-0.9325286,2.1937473,1.527345,-0.92393804,1.0325152,-0.5246526,-1.746928,-0.88324374,2.2515929,1.4641482,-0.95444965,-0.5475963,-1.464267,0.46167162,-1.144438,-0.8582052,0.45103693,0.3110541,0.9983597,-0.6595459,1.3587686,-3.5671208,0.03264556,-0.9877927,0.08124542,-0.4002266,1.0279425,0.84281206,-0.18701452,0.14882784,0.4822277,-0.23638315,-0.81006587,-0.732943,1.0,0.0,0.0,0.0,0.0,0.0,0.0,-1.6483597,0.2595459,-0.8087686,29.262674,-15.976834,21.970755,-20.2353,-6.115544,-0.60493946,-1.022923
47.175808,57.219006,23.563158,-10.2396345,-1.5140399,-1.0582592,1.072967,-0.06385776,-0.7777453,0.26940444,-0.58570635,-0.6508651,0.66886854,0.27862608,1.0261294,-0.6024271,-1.7199875,-0.94181436,2.1865063,1.5310351,-0.92658705,1.02908,-0.5397073,-1.7415531,-0.8951866,2.2427046,1.46868,-0.95146275,-0.27757317,-1.5189903,0.56302196,-1.2117581,-0.89810777,0.4538372,0.29532665,0.96271515,-0.65921783,1.3481616,-3.5635545,0.03261292,-1.0849911,0.07980347,-0.4081192,1.0204155,0.84186834,-0.18197635,0.14733675,0.48624483,-0.113636255,-0.7756216,-0.7618185,1.0,0.0,0.0,0.0,0.0,0.0,0.0,-1.6127151,0.25921783,-0.79816157,26.386648,-5.42624,10.184336,-6.985259,-3.7031531,0.25714636,-1.3621867
39.526257,60.539948,21.3807,-3.8934884,-1.382116,-1.1357182,0.61812484,0.063294426,-0.7894151,0.11267807,-0.6229457,-0.5976168,0.65677136,0.2637079,1.0354095,-0.6186488,-1.7302853,-0.95748115,2.1829429,1.5343572,-0.925092,1.0282046,-0.55485547,-1.7364547,-0.9073593,2.2337096,1.4732405,-0.948637,-0.025864912,-1.5133389,0.4923969,-1.2196268,-0.8997752,0.45693603,0.27891812,0.92710876,-0.6588898,1.3365833,-3.5599916,0.032580316,-1.1820923,0.0794754,-0.41571045,1.0126835,0.8402739,-0.17708354,0.1456311,0.4912968,-0.0052112523,-0.7459812,-0.77943116,1.0,0.0,0.0,0.0,0.0,0.0,0.0,-1.5771087,0.25888976,-0.78658324,24.657265,0.6145716,-6.922221,-0.93238354,-0.030112267,0.36650896,-1.4875352
22.52485,45.41897,12.475728,2.510271,-0.8238082,-1.421109,0.12472905,0.10321612,-0.7959407,-0.063694365,-0.6391733,-0.5736593,0.6576622,0.31279913,1.0385262,-0.63444954,-1.7428242,-0.97127664,2.1763437,1.5390067,-0.9173571,1.0293146,-0.5697671,-1.7332294,-0.91941565,2.2248518,1.4778277,-0.9459286,0.15570208,-1.4838097,0.2668302,-1.2008846,-0.8812405,0.45923108,0.2683701,0.8915329,-0.6585617,1.3240348,-3.5564325,0.032547742,-1.2790965,0.079956055,-0.42324448,1.0047035,0.83846116,-0.17202772,0.1440963,0.49661407,0.0676499,-0.74747497,-0.8065401,1.0,0.0,0.0,0.0,0.0,0.0,0.0,-1.5415329,0.2585617,-0.7740348,17.834476,2.9571295,-22.307295,1.8893003,1.7721176,0.20836592,-1.0073841
8.977063,24.204739,2.09758,4.2246175,-0.46790096,-1.9468739,-0.21166635,0.16756071,-0.80114114,-0.3008443,-0.6592725,-0.54678506,0.65367836,0.34546784,1.0460707,-0.64988124,-1.7633138,-0.9853429,2.1701734,1.5431955,-0.9113818,1.0318781,-0.58438694,-1.7332885,-0.9313118,2.2162764,1.4824206,-0.94328976,0.28899917,-1.4549744,-0.09544796,-1.185496,-0.85098857,0.45871466,0.26204672,0.8559952,-0.65823364,1.310517,-3.5528767,0.032515198,-1.3760036,0.08097839,-0.43110657,0.99626493,0.8368223,-0.1663372,0.14301956,0.50160325,0.11608136,-0.7912799,-0.85918665,1.0,0.0,0.0,0.0,0.0,0.0,0.0,-1.5059952,0.25823364,-0.76051694,13.11849,2.8166533,-35.79773,1.6706944,2.7413607,-0.27406216,-0.7121086
7.385494,20.704094,0.65901303,3.6904294,-0.43432084,-1.960607,-0.1886403,0.24563605,-0.7979966,-0.3882408,-0.6711394,-0.5511589,0.672377,0.37981528,1.0564417,-0.6641866,-1.7721126,-0.9984257,2.1611605,1.5496583,-0.90530825,1.0356222,-0.59876645,-1.7368915,-0.9431402,2.2079604,1.4870173,-0.9406767,0.40238336,-1.4325888,-0.4474931,-1.1814089,-0.8262322,0.4589886,0.26068273,0.8204956,-0.6579056,1.2960308,-3.5493245,0.03248269,-1.4728138,0.08245087,-0.43943405,0.98723793,0.8354469,-0.15981524,0.14247781,0.50614965,0.16115633,-0.83943707,-0.9209717,1.0,0.0,0.0,0.0,0.0,0.0,0.0,-1.4704956,0.25790557,-0.74603075,11.206186,2.158904,-34.848045,0.5596876,2.200079,-0.26707053,-0.22925735
-0.13310766,19.732994,0.16068745,7.561313,-0.03522572,-1.5718392,-0.22259578,0.21845797,-0.79208267,-0.46360895,-0.67626715,-0.579996,0.6770925,0.4063915,1.057468,-0.6779747,-1.7832524,-1.010767,2.1499608,1.5547265,-0.9000375,1.0399996,-0.6129714,-1.7435157,-0.9549896,2.1997435,1.4916197,-0.93805027,0.44979683,-1.416811,-0.73347414,-1.1855003,-0.8209767,0.4597514,0.2630754,0.78502655,-0.6575775,1.2805772,-3.545776,0.032450214,-1.5695273,0.084228516,-0.44817734,0.9776088,0.83433974,-0.15247945,0.14247228,0.51022434,0.18485616,-0.8792007,-0.9817717,1.0,0.0,0.0,0.0,0.0,0.0,0.0,-1.4350265,0.2575775,-0.7305772,4.7979593,1.4901161,-28.423965,-0.19443035,0.24204254,-0.21018982,0.15783906
-5.9855366,24.931108,2.651607,12.032894,0.39876574,-0.9402296,-0.175211,0.17468335,-0.7873749,-0.47696835,-0.6904883,-0.60795087,0.6753402,0.44123712,1.0574679,-0.6917089,-1.7912126,-1.0240384,2.1389484,1.5591537,-0.89392656,1.0443426,-0.62706006,-1.7521408,-0.966963,2.1914427,1.4962317,-0.93536854,0.43007618,-1.4064839,-0.905698,-1.2005354,-0.834073,0.46099648,0.26973918,0.74959564,-0.65725327,1.2641573,-3.5422308,0.03241777,-1.6661441,0.0860672,-0.45715714,0.967458,0.833434,-0.14450297,0.14292291,0.5138869,0.18756051,-0.8974896,-1.031945,1.0,0.0,0.0,0.0,0.0,0.0,0.0,-1.3995956,0.25725326,-0.7141573,-1.7604053,0.9477854,-17.244125,-1.2571812,-1.5859008,-0.09266734,0.62583685
-7.9465175,31.3357,5.9667654,14.569935,0.6970444,-0.42115143,-0.08107463,0.14943661,-0.7866744,-0.4861342,-0.7083053,-0.613296,0.675632,0.45046186,1.0592864,-0.7057275,-1.8007542,-1.0377935,2.1301131,1.5637949,-0.8903223,1.0482088,-0.64108765,-1.7617462,-0.97916526,2.182978,1.5008589,-0.93261147,0.3730341,-1.4017285,-0.979227,-1.2259948,-0.8517644,0.46288845,0.27769065,0.7142029,-0.65693283,1.2467718,-3.5386894,0.03238536,-1.7626643,0.08785248,-0.4661789,0.95689243,0.832616,-0.1361017,0.14367686,0.51728517,0.17826885,-0.896148,-1.0710326,1.0,0.0,0.0,0.0,0.0,0.0,0.0,-1.3642029,0.25693282,-0.6967718,-5.4303765,0.40113926,-7.508743,-2.3017645,-2.0153046,0.040382147,0.80835223
-17.445246,35.910355,7.610855,21.419504,1.3828676,0.21150425,-0.16459438,0.050021302,-0.7788601,-0.4761171,-0.69353396,-0.6339777,0.68331236,0.46676886,1.053211,-0.71897364,-1.8093579,-1.0485187,2.11958,1.5691901,-0.8859346,1.0510527,-0.6550628,-1.7715175,-0.9915182,2.174288,1.5055166,-0.92976665,0.2561124,-1.3962767,-0.97725976,-1.2375218,-0.8758261,0.46647063,0.28680032,0.67884064,-0.6566124,1.2284219,-3.5351512,0.03235298,-1.859088,0.08930969,-0.4750557,0.9460683,0.8318706,-0.12751797,0.144621,0.5203989,0.13867277,-0.87845016,-1.0926211,1.0,0.0,0.0,0.0,0.0,0.0,0.0,-1.3288406,0.2566124,-0.6784219,-11.312998,0.4595995,-0.0395298,-0.8723974,-2.698338,0.3139913,0.9537518
-29.648012,39.388065,8.239999,28.87807,2.1150784,0.8238744,-0.29589164,-0.08921182,-0.7671184,-0.43368545,-0.6935159,-0.6628664,0.6947905,0.48408952,1.0421315,-0.7317746,-1.8148861,-1.0608698,2.1080015,1.5749958,-0.8813577,1.0522066,-0.6689445,-1.7808158,-1.0039243,2.1653006,1.5102202,-0.9268255,0.07007568,-1.3858219,-0.9151716,-1.2404343,-0.907553,0.47191814,0.29683033,0.64351654,-0.65629196,1.2091086,-3.531617,0.032320634,-1.9554152,0.09013367,-0.4836731,0.93515205,0.83126163,-0.11895813,0.1457052,0.5230899,0.06522987,-0.84789664,-1.0975786,1.0,0.0,0.0,0.0,0.0,0.0,0.0,-1.2935165,0.25629196,-0.6591086,-18.102936,0.940156,5.9008,0.04837513,-3.5364509,0.59317946,1.067996
-39.42511,40.44825,7.7929826,33.52152,2.6608212,1.1852696,-0.3877234,-0.22836211,-0.7561476,-0.3959264,-0.71523184,-0.6603557,0.6839831,0.48685813,1.0293704,-0.7445592,-1.8204085,-1.0754474,2.099265,1.5786185,-0.87813973,1.0511194,-0.682685,-1.7892768,-1.0164174,2.15605,1.5149695,-0.923789,-0.16626467,-1.3705466,-0.8242513,-1.2509611,-0.9324639,0.47615662,0.30626652,0.6082306,-0.6559715,1.1888326,-3.528086,0.03228832,-2.051646,0.090034485,-0.49194717,0.92424405,0.8308653,-0.11051174,0.14687374,0.52524084,-0.03296487,-0.81306255,-1.0943213,1.0,0.0,0.0,0.0,0.0,0.0,0.0,-1.2582306,0.25597152,-0.6388326,-23.04511,1.4022827,8.726227,-0.6444454,-2.905345,0.5020797,1.0402322
-34.11224,48.8158,12.103506,32.646374,2.564956,1.3768761,-0.26552624,-0.28078476,-0.74789906,-0.30983415,-0.7130504,-0.6746264,0.6970361,0.5026618,1.023041,-0.7574749,-1.8202603,-1.0877224,2.0885873,1.584673,-0.8735228,1.0478636,-0.69625676,-1.7965534,-1.0289944,2.1465743,1.5197703,-0.9206524,-0.37702152,-1.3530055,-0.69683206,-1.2587899,-0.95352846,0.4817775,0.316712,0.57297516,-0.6556511,1.1675951,-3.5245585,0.032256037,-2.1477804,0.08904266,-0.49977493,0.91345435,0.8306109,-0.10232446,0.14802621,0.52697575,-0.12198421,-0.7652867,-1.0790253,1.0,0.0,0.0,0.0,0.0,0.0,0.0,-1.2229751,0.2556511,-0.61759514,-20.566963,1.6670704,12.30073,-0.42693615,-2.3997188,0.7119894,1.2133062
-20.772682,49.52483,13.682134,25.677513,1.8989072,0.9380739,-0.09688129,-0.2702935,-0.75255215,-0.33131203,-0.7170035,-0.69107383,0.6905,0.4995387,1.0208342,-0.771512,-1.8296846,-1.1006948,2.077467,1.5888202,-0.8706985,1.0431296,-0.70971024,-1.8028743,-1.0416497,2.1369002,1.5246149,-0.9174223,-0.50439256,-1.3429124,-0.6117287,-1.2667632,-0.97255796,0.4857556,0.32568154,0.53775024,-0.65533066,1.145397,-3.5210347,0.032223787,-2.243819,0.08740997,-0.50717926,0.9027474,0.83037966,-0.094375975,0.1491155,0.5285141,-0.17703068,-0.7243415,-1.0723845,1.0,0.0,0.0,0.0,0.0,0.0,0.0,-1.1877502,0.25533065,-0.59539694,-12.389648,0.9622097,8.110976,-0.5134344,-2.0725965,0.5133033,1.0787666
-7.6067915,44.352207,12.370886,17.274225,1.1252077,0.22086447,0.033328936,-0.2455689,-0.7571931,-0.41118374,-0.72537833,-0.69113237,0.67861867,0.50631106,1.0185727,-0.78542954,-1.8439927,-1.1141875,2.067787,1.5924768,-0.8667912,1.0377985,-0.7231275,-1.8090236,-1.0544041,2.127085,1.5294806,-0.91411114,-0.54192495,-1.3414465,-0.6166738,-1.2776015,-0.9848155,0.48670998,0.3334959,0.5025711,-0.6550102,1.1222391,-3.5175145,0.03219157,-2.3397613,0.085510254,-0.5143204,0.89193916,0.8300927,-0.08644384,0.15016715,0.5300221,-0.19585323,-0.70256084,-1.0875255,1.0,0.0,0.0,0.0,0.0,0.0,0.0,-1.1525711,0.25501022,-0.5722391,-3.5576344,0.117492676,-0.7606745,-0.85668564,-1.3463259,0.099772215,0.91855526
-1.0369896,39.104225,10.440717,12.371822,0.7109512,-0.24813944,0.080118015,-0.2462256,-0.7606626,-0.46676177,-0.72947496,-0.68805254,0.6778748,0.5046276,1.013176,-0.79919374,-1.8556998,-1.1273516,2.0582798,1.5972681,-0.86364836,1.0324751,-0.73657715,-1.815728,-1.0672673,2.1171973,1.5343443,-0.91073513,-0.52889776,-1.3463017,-0.68875086,-1.2884393,-0.99032724,0.48603466,0.33940843,0.4674225,-0.6546898,1.0981226,-3.5139978,0.032159384,-2.4356077,0.08356476,-0.5213661,0.8808477,0.8297229,-0.07829865,0.15121165,0.5315678,-0.19614513,-0.6960465,-1.1200392,1.0,0.0,0.0,0.0,0.0,0.0,0.0,-1.1174225,0.25468978,-0.5481226,1.42169,-0.51596165,-7.3689938,-0.8742094,-0.675869,-0.15751123,0.6863296
-5.8140244,33.550934,7.1906533,12.818559,0.8249509,-0.34805298,-0.0033477247,-0.2953139,-0.76209134,-0.51831096,-0.73426366,-0.7015089,0.6724114,0.51469976,1.0029438,-0.8127863,-1.8675591,-1.1406937,2.0470464,1.6015855,-0.85926515,1.0272089,-0.7500936,-1.8234355,-1.0802315,2.107241,1.5391909,-0.9073019,-0.5253663,-1.3536441,-0.7984391,-1.2982516,-0.9979849,0.4837432,0.34483632,0.43230438,-0.65436935,1.0730484,-3.5104845,0.03212723,-2.5313582,0.08154297,-0.52840805,0.8693515,0.8293289,-0.06976926,0.15229757,0.5330584,-0.20490146,-0.69966984,-1.1631887,1.0,0.0,0.0,0.0,0.0,0.0,0.0,-1.0823044,0.25436935,-0.52304834,0.50115585,-0.7971287,-11.069071,-0.7169485,-0.96200705,-0.39741993,0.6034851
-15.416349,29.685038,4.194803,15.784457,1.1937565,-0.2031768,-0.12907484,-0.3544645,-0.76323783,-0.56933457,-0.74061936,-0.71495503,0.6679681,0.5131154,0.99176246,-0.8264174,-1.880369,-1.1542935,2.0357454,1.6059877,-0.85599035,1.0217024,-0.76368344,-1.8323314,-1.0932912,2.0971777,1.5440089,-0.9038229,-0.55837953,-1.36103,-0.9202111,-1.3074265,-1.0099597,0.480444,0.34897926,0.39723206,-0.6540489,1.0470173,-3.5069747,0.032095112,-2.6270132,0.0792923,-0.5355377,0.8573915,0.8290097,-0.06075056,0.15346715,0.5343219,-0.23448142,-0.7073795,-1.2108774,1.0,0.0,0.0,0.0,0.0,0.0,0.0,-1.047232,0.2540489,-0.49701732,-3.084004,-0.84733963,-12.240434,-0.5726576,-1.4909267,-0.55835843,0.45339465
-25.648409,25.813545,1.3301123,18.812729,1.6681368,-5.763769e-05,-0.23194876,-0.41679955,-0.77350056,-0.6218376,-0.75285333,-0.70469964,0.6453326,0.50631785,0.98002243,-0.8410335,-1.8945152,-1.1685765,2.026708,1.6085421,-0.85319114,1.0155607,-0.7773801,-1.842427,-1.106469,2.0870345,1.5487753,-0.9003134,-0.63162774,-1.373014,-1.0394156,-1.3197736,-1.0168955,0.4744853,0.35167024,0.36219025,-0.6537285,1.0200305,-3.5034685,0.032063022,-2.7225723,0.076545715,-0.5427551,0.8449292,0.82886004,-0.051172588,0.15468271,0.5352061,-0.28825945,-0.7180069,-1.2621759,1.0,0.0,0.0,0.0,0.0,0.0,0.0,-1.0121902,0.25372848,-0.4700305,-7.034707,-1.358819,-11.958015,-0.79631805,-1.0864258,-0.8894861,0.30959845
-40.536915,24.826115,-0.58766603,24.394436,2.4576297,0.5080302,-0.35903385,-0.5396347,-0.7816982,-0.6263696,-0.7682658,-0.6806728,0.62849164,0.49906692,0.96159726,-0.85554993,-1.905064,-1.1832956,2.0189672,1.6116245,-0.8504067,1.0081812,-0.7912179,-1.8534248,-1.1198109,2.0769103,1.5534712,-0.89678574,-0.7722102,-1.3882215,-1.1198466,-1.3372116,-1.0124902,0.4668523,0.35340896,0.32717896,-0.65340805,0.9920888,-3.4999657,0.032030966,-2.818036,0.073013306,-0.55005646,0.8320005,0.8289795,-0.041062415,0.15581548,0.5355635,-0.3790696,-0.72345227,-1.3075466,1.0,0.0,0.0,0.0,0.0,0.0,0.0,-0.97717893,0.25340804,-0.44208878,-13.665497,-1.7477989,-8.080149,-1.1849403,-0.07903576,-1.0979176,0.25271773
-47.331444,29.871317,0.9008033,28.10755,2.9435575,0.98510885,-0.41641033,-0.6222399,-0.7802198,-0.63366604,-0.7613836,-0.6518371,0.6418975,0.48995525,0.94595724,-0.8692399,-1.9167914,-1.1959493,2.0117266,1.617661,-0.84779024,0.9991766,-0.80517495,-1.8649433,-1.1332635,2.066931,1.558108,-0.8932476,-0.9419342,-1.3990409,-1.162897,-1.3458129,-0.99472356,0.4614414,0.35435626,0.2922058,-0.6530876,0.9631931,-3.4964664,0.031998944,-2.9134045,0.06840515,-0.55732346,0.8187231,0.8294189,-0.030561669,0.15672411,0.5353203,-0.48965746,-0.71715665,-1.3390136,1.0,0.0,0.0,0.0,0.0,0.0,0.0,-0.9422058,0.2530876,-0.4131931,-16.554117,-1.33605,-4.3479204,-0.26159286,1.2151241,-0.8617461,0.22320747
-50.48464,34.49376,1.9970692,30.132973,3.1323504,1.2364182,-0.48416722,-0.69567037,-0.77198136,-0.6878633,-0.74262416,-0.6442444,0.655655,0.47219443,0.9296096,-0.8823731,-1.9337296,-1.2075258,2.0025065,1.6236734,-0.84602815,0.98845446,-0.81916535,-1.8769081,-1.1466683,2.0571463,1.5627066,-0.88971424,-1.114319,-1.3999527,-1.2078778,-1.3368033,-0.97470427,0.45833236,0.35344806,0.2572708,-0.6527672,0.9333445,-3.4929707,0.03196695,-3.0086775,0.06264496,-0.564476,0.8051983,0.83021885,-0.019771682,0.15737717,0.53439504,-0.60835207,-0.70377594,-1.3615302,1.0,0.0,0.0,0.0,0.0,0.0,0.0,-0.9072708,0.25276718,-0.38334447,-16.829563,-0.36320686,-4.504752,1.5139341,1.415515,-0.63955784,0.048941374
-45.24005,37.703476,3.7544217,27.964417,2.9598985,1.2205573,-0.43729937,-0.7367143,-0.7750809,-0.7343284,-0.7379543,-0.59862214,0.645267,0.4262815,0.914783,-0.89667344,-1.9503409,-1.2204638,1.997284,1.6272333,-0.8470861,0.9762398,-0.83314717,-1.8894031,-1.1599358,2.0476744,1.5672709,-0.8862238,-1.2560234,-1.3984896,-1.2634884,-1.3213029,-0.94006485,0.45488727,0.34805992,0.22236633,-0.65244675,0.90254384,-3.4894783,0.031934988,-3.1038551,0.055786133,-0.57149124,0.79145336,0.8313592,-0.00872542,0.15771326,0.5328153,-0.71707326,-0.6871299,-1.3832144,1.0,0.0,0.0,0.0,0.0,0.0,0.0,-0.8723663,0.25244674,-0.35254383,-13.816023,-0.11153221,-5.549741,2.1331549,2.920568,-0.6872177,-0.38032532
-38.276646,40.97441,5.958661,24.958817,2.735714,1.1866492,-0.37015617,-0.7810081,-0.77533007,-0.76567525,-0.7370075,-0.52981365,0.6240406,0.3314005,0.898139,-0.9106802,-1.9659706,-1.2336366,1.994693,1.6296749,-0.8530837,0.9628483,-0.8471061,-1.9024837,-1.1730565,2.0387175,1.5717894,-0.88285637,-1.3658912,-1.3957635,-1.3230115,-1.3073702,-0.8826758,0.44982624,0.3335533,0.18749237,-0.6521263,0.87079215,-3.4859896,0.031903062,-3.1989377,0.047920227,-0.57831573,0.777493,0.8327931,0.0025543773,0.15761685,0.5306657,-0.8124478,-0.66663504,-1.4046558,1.0,0.0,0.0,0.0,0.0,0.0,0.0,-0.83749235,0.2521263,-0.32079214,-10.691929,0.04003048,-5.935669,1.9274235,5.263436,-0.8529961,-1.2683511
-29.655684,48.364178,10.48979,23.043604,2.4432487,1.3007115,-0.29234767,-0.80858624,-0.76827806,-0.7674106,-0.7047445,-0.51479214,0.6327964,0.3079825,0.88198966,-0.9239339,-1.9792248,-1.243531,1.9872383,1.635069,-0.8520581,0.9486166,-0.86100495,-1.9160316,-1.1859292,2.0303175,1.5762717,-0.8796463,-1.4415947,-1.3884555,-1.3650937,-1.2791253,-0.8269996,0.4468753,0.31741056,0.15266418,-0.6518059,0.83809036,-3.4825044,0.031871166,-3.293925,0.039253235,-0.5848503,0.7633978,0.83444506,0.013943198,0.15705043,0.5280551,-0.89008355,-0.6356006,-1.4151739,1.0,0.0,0.0,0.0,0.0,0.0,0.0,-0.80266416,0.25180587,-0.28809035,-7.359171,0.5458832,-4.195237,3.254056,5.197203,-0.5679786,-1.4271021
-20.633606,54.061718,14.440548,20.509342,2.0586984,1.343209,-0.23173705,-0.82171893,-0.7648429,-0.7749741,-0.68331915,-0.50531757,0.62422043,0.18705785,0.8664447,-0.9374893,-1.993529,-1.2542611,1.9797858,1.6386937,-0.8609405,0.9338709,-0.874817,-1.9298809,-1.1984624,2.022402,1.5807272,-0.8766756,-1.4850556,-1.3792948,-1.3915387,-1.243657,-0.7808444,0.44445375,0.29085916,0.117866516,-0.65148544,0.8044393,-3.4790225,0.0318393,-3.3888175,0.029945374,-0.5910301,0.7492518,0.8362446,0.025305782,0.15603575,0.5250785,-0.9471313,-0.59674114,-1.4184264,1.0,0.0,0.0,0.0,0.0,0.0,0.0,-0.7678665,0.25148544,-0.2544393,-4.208708,0.7819176,-2.6447296,3.8737059,4.357457,-0.44122934,-2.4763584
-12.984807,54.53045,16.16614,17.025097,1.7601764,1.2547127,-0.15932573,-0.82707864,-0.77592796,-0.7862255,-0.68053114,-0.4456606,0.59672856,0.040793933,0.851163,-0.9524098,-2.0085034,-1.2665155,1.977836,1.6404,-0.8725962,0.9188839,-0.8886043,-1.9439247,-1.2106961,2.015013,1.5851446,-0.87406254,-1.5029013,-1.3788011,-1.4089187,-1.2156464,-0.72560465,0.44009492,0.2520641,0.083099365,-0.651165,0.76984006,-3.4755442,0.031807467,-3.4836152,0.020202637,-0.59682846,0.7350542,0.8381389,0.03658758,0.15451343,0.5218334,-0.9879456,-0.55713665,-1.4239684,0.0,1.0,0.0,0.0,0.0,0.0,0.0,-0.73309934,0.251165,-0.21984005,-1.6912699,-0.048422813,-1.7639875,3.0757666,5.34904,-0.6047964,-3.686446
-11.232686,56.499947,17.379475,17.0882,1.7932247,1.2984816,-0.21870016,-0.840046,-0.7722653,-0.79663885,-0.63894147,-0.39186788,0.57265574,-0.14227311,0.83487934,-0.9658308,-2.0235887,-1.2745903,1.9758261,1.6424102,-0.88828987,0.9037579,-0.90235364,-1.958392,-1.2226903,2.0084434,1.5893143,-0.87202793,-1.5221041,-1.3660824,-1.5191336,-1.2254847,-0.61578524,0.330614,0.18360285,0.054016113,-0.6508217,0.7451603,-1.7918892,0.19460535,0.32071483,0.010040283,-0.60230255,0.7207457,0.8402007,0.047944516,0.15236929,0.5182158,-1.0278322,-0.5482841,-1.4590645,0.0,1.0,0.0,0.0,0.0,0.0,0.0,-0.7040161,0.25082168,-0.19516027,-2.9512644,2.4713516,-20.734644,-5.905199,15.471899,-21.42607,-8.126884
44.14326,176.0,110.0,110.0,5.622169,11.946366,-1.8552014,-0.79492486,0.5588012,0.6979611,0.6597713,-0.28942364,0.6426418,-0.395152,0.8242654,-0.8464735,-1.8885959,-1.1567132,1.979501,1.6535785,-0.91154313,0.8926047,-0.91854703,-1.96638,-1.220844,1.9936829,1.6017255,-0.869309,-0.9777981,-1.6762154,-0.59947455,0.64260334,-1.7207474,1.5733395,0.31133592,0.036109924,-0.6488762,0.74762857,-1.7900977,0.19441079,0.22220823,-0.00075531006,-0.60586166,0.7105762,0.8424676,0.049590833,0.15368484,0.5139747,-1.0991657,-0.2752223,-0.87206507,0.0,1.0,0.0,0.0,0.0,0.0,0.0,-0.6861099,0.24887618,-0.19762856,55.012608,-22.745872,79.75996,183.23499,-97.922874,132.82365,15.782118
-39.75378,162.91096,64.32637,92.20869,8.15596,4.752967,-2.1826851,-0.81707716,-0.6216145,-0.14197499,0.73910224,-0.43134212,0.5743179,-0.27953207,0.810897,-0.9807085,-1.9805775,-1.1469338,1.9505486,1.6591573,-0.8972622,0.8829869,-0.93463075,-1.9692067,-1.2077825,1.9765205,1.6175183,-0.8665815,-0.9551388,-1.5869014,-0.17472501,1.5288309,-1.71738,1.585958,0.26208448,0.018218994,-0.6469307,0.74911255,-1.7883079,0.19421642,0.12380012,-0.012939453,-0.60816574,0.7047968,0.84587914,0.04464475,0.15674455,0.5078645,-1.2554334,-0.20559655,-0.48454916,1.0,0.0,0.0,0.0,0.0,0.0,0.0,-0.668219,0.24693069,-0.19911253,2.657342,8.588862,43.18559,89.07687,-0.48983097,2.623701,-4.253846
-56.342663,160.05557,46.362774,71.41115,5.715724,3.085725,-1.7619832,-0.8074995,-0.3768046,-0.40599158,0.72399235,-0.5635565,0.57454926,0.13206641,0.802237,-0.9723112,-2.009806,-1.1353832,1.920165,1.6749732,-0.85337484,0.87260425,-0.94803655,-1.9707593,-1.1895616,1.9607296,1.6325463,-0.864142,-1.0643333,-1.2599956,-0.14868459,1.9214572,-1.5350945,1.4777948,0.23785439,0.00035095215,-0.6449928,0.74961317,-1.78652,0.19402224,0.025490396,-0.026405334,-0.609745,0.70190424,0.8504716,0.03792301,0.16071479,0.4994303,-1.377039,-0.13241942,-0.23160283,1.0,0.0,0.0,0.0,0.0,0.0,0.0,-0.6503509,0.24499282,-0.19961315,-10.406661,32.25093,2.626297,39.74681,17.644835,-9.98528,-2.440697
-45.81439,120.46799,31.377895,43.015934,3.7802238,1.8508136,-0.8675055,-0.7897488,-0.49015442,-0.1624815,0.78385633,-0.5304249,0.544864,0.06943634,0.79362935,-0.997052,-1.9870074,-1.111176,1.9076871,1.6870327,-0.85719836,0.86079586,-0.95872915,-1.9722699,-1.1700895,1.9473686,1.6460885,-0.8619924,-1.2187177,-1.0069511,-0.15212397,1.9565594,-1.2716072,1.3140713,0.20713106,-0.017501831,-0.64305496,0.74913144,-1.7847338,0.19382825,-0.07272104,-0.040756226,-0.61065674,0.7005826,0.85574305,0.03128305,0.16491504,0.4894161,-1.4529032,-0.068444066,-0.10662956,1.0,0.0,0.0,0.0,0.0,0.0,0.0,-0.63249815,0.24305496,-0.19913143,-15.179634,24.947334,-0.4255861,3.7561178,25.830387,-16.063572,-3.1266153
-36.07307,74.331924,13.209309,20.599806,1.9334984,0.5717679,-0.33808953,-0.8025647,-0.49560487,-0.27675214,0.7619285,-0.48371696,0.5497578,-0.12831067,0.7805394,-1.0082896,-1.9999452,-1.0938966,1.898997,1.7010642,-0.8748235,0.847576,-0.9676117,-1.9746903,-1.1517332,1.9365082,1.6580666,-0.8602701,-1.356199,-0.8494024,-0.2726194,1.7957356,-1.0250181,1.1593469,0.1602765,-0.035331726,-0.6411171,0.7476683,-1.7829494,0.19363447,-0.17083429,-0.055610657,-0.6111641,0.6995563,0.86132187,0.025850063,0.16880913,0.4784974,-1.4957901,-0.033576533,-0.10751743,1.0,0.0,0.0,0.0,0.0,0.0,0.0,-0.61466825,0.24111709,-0.19766831,-13.67507,15.5620575,-12.236205,-16.00051,24.42236,-15.385938,-4.791534
-14.920895,68.16725,15.48525,10.219904,0.7405976,0.34377587,0.017216245,-0.7960716,-0.41965604,-0.21449493,0.7734726,-0.47684023,0.5733969,-0.20788877,0.7679689,-1.0095773,-1.9961398,-1.0743859,1.8888241,1.7154063,-0.88105893,0.8333787,-0.97527444,-1.9780205,-1.1352651,1.9276161,1.6686696,-0.8590465,-1.4412551,-0.739066,-0.35298768,1.5968702,-0.84535944,1.0273038,0.10932821,-0.053146362,-0.6391792,0.7452248,-1.7811668,0.19344087,-0.26884943,-0.07053375,-0.61130905,0.6983702,0.8669272,0.021769077,0.17230938,0.46719655,-1.4916718,0.0029785743,-0.12697542,0.0,1.0,0.0,0.0,0.0,0.0,0.0,-0.5968536,0.23917922,-0.19522476,-8.586192,10.869932,-7.956523,-19.951843,17.5668,-13.17184,-5.2255573
-2.6437967,57.522766,14.464388,5.430848,0.22175771,0.037338495,0.16841428,-0.7894066,-0.41542545,-0.23920657,0.77311003,-0.47820887,0.5918173,-0.17141186,0.75443804,-1.016817,-2.0019412,-1.0579541,1.8797952,1.7278513,-0.8761877,0.81873024,-0.98228586,-1.982026,-1.1204965,1.9199905,1.67813,-0.8582588,-1.4730505,-0.6890086,-0.41593277,1.4367043,-0.73612636,0.9188808,0.06823117,-0.07094574,-0.637249,0.7418018,-1.779386,0.19324747,-0.36676657,-0.08528137,-0.6111908,0.696866,0.87240005,0.018857973,0.17546526,0.45582289,-1.4687939,0.02720903,-0.16178118,0.0,1.0,0.0,0.0,0.0,0.0,0.0,-0.57905424,0.23724899,-0.19180179,-3.290844,4.885626,-6.1127424,-16.095543,10.539699,-10.826456,-4.218279
-2.1260355,48.97942,10.813013,6.0208597,0.14453721,-0.2734872,0.10785301,-0.7896099,-0.3925429,-0.36617878,0.7745774,-0.4729021,0.5824619,-0.10864643,0.7397692,-1.0215402,-2.0186439,-1.0430387,1.8727003,1.7363762,-0.8691234,0.8040217,-0.98900926,-1.9870194,-1.1068227,1.9130669,1.6866425,-0.85778195,-1.4702991,-0.66711634,-0.5268447,1.3442034,-0.6786874,0.8285906,0.040365987,-0.08872986,-0.63531876,0.7374005,-1.777607,0.19305426,-0.4645858,-0.09983826,-0.61094666,0.6949141,0.87772346,0.017084874,0.17846343,0.4443651,-1.4503075,0.035682093,-0.20894296,0.0,1.0,0.0,0.0,0.0,0.0,0.0,-0.5612701,0.23531875,-0.18740046,0.20973682,2.09198,-10.955292,-9.264064,5.481422,-9.035624,-2.895681
-1.8604589,52.402554,12.468297,9.41364,0.38224772,-0.20225966,0.038234398,-0.7846229,-0.37266055,-0.38628653,0.7884163,-0.4751296,0.58205754,-0.03835349,0.7255594,-1.0262753,-2.025648,-1.027981,1.8655539,1.7448483,-0.86161727,0.7894839,-0.9955925,-1.9930371,-1.0935609,1.9064445,1.6943692,-0.8574863,-1.4484535,-0.6557815,-0.6261171,1.3201979,-0.6575947,0.7539573,0.025646435,-0.10649109,-0.6333885,0.73201364,-1.7758298,0.19286124,-0.5633725,-0.11425018,-0.6106186,0.6925936,0.88290775,0.016276987,0.18149067,0.43274695,-1.4365659,0.0436399,-0.24191219,0.0,1.0,0.0,0.0,0.0,0.0,0.0,-0.5435089,0.23338851,-0.18201363,2.1380663,1.0180235,-9.73488,-2.3784637,1.8475652,-7.503402,-1.5782032
-4.9044757,45.58643,9.711146,10.526866,0.5764839,-0.24724722,-0.022836559,-0.778357,-0.40249494,-0.4471078,0.78745216,-0.47645468,0.6052237,-0.061545417,0.7116482,-1.035842,-2.0377479,-1.0148157,1.8587991,1.7548915,-0.86364084,0.7752112,-1.0022783,-2.0000734,-1.0802534,1.8998852,1.7014664,-0.8573213,-1.4202017,-0.67313474,-0.72905517,1.3345429,-0.65607053,0.6945669,0.01324682,-0.12423706,-0.6314583,0.7256397,-1.7740543,0.19266842,-0.6620604,-0.12861633,-0.61024857,0.68988854,0.887978,0.016316503,0.18459418,0.42089623,-1.4352366,0.045966577,-0.2818689,0.0,1.0,0.0,0.0,0.0,0.0,0.0,-0.5257629,0.23145828,-0.17563969,2.8174162,-1.8465519,-10.125685,1.5198946,-0.048553944,-6.0163975,-1.317074
-9.49152,40.750706,7.177984,11.363661,0.6849514,-0.2142052,-0.019882761,-0.7812733,-0.4197318,-0.51307017,0.7844374,-0.4961676,0.6051046,0.0460779,0.6970839,-1.0442516,-2.0513804,-1.0018096,1.8502684,1.761977,-0.8527135,0.76117116,-1.0092505,-2.0082796,-1.0667591,1.8930715,1.7078558,-0.8571307,-1.3987012,-0.70555085,-0.84911406,1.3558453,-0.6872291,0.6239446,0.019750882,-0.14295197,-0.62802887,0.7229549,-1.8807168,0.3652377,-0.21544972,-0.14300537,-0.60990524,0.6866808,0.8929112,0.017371606,0.18784623,0.40880513,-1.4406703,0.04283998,-0.3345527,0.0,1.0,0.0,0.0,0.0,0.0,0.0,-0.507048,0.22802886,-0.17295492,2.1085024,-3.419304,-10.831821,2.8242588,-1.8106818,-5.0816417,0.041636452
-6.561887,81.198616,21.130852,18.408335,0.6817668,0.550063,-0.06770127,-0.78566176,-0.24682587,-0.51869124,0.7971245,-0.56477916,0.61108553,0.07010364,0.68260497,-1.0339332,-2.0601487,-0.98704666,1.8365936,1.7689644,-0.85012037,0.7472437,-1.0157183,-2.0173557,-1.052969,1.8858927,1.7137936,-0.8568971,-1.39104,-0.6279784,-0.9257529,1.3865917,-0.72981477,0.58329004,0.023772188,-0.16143036,-0.62418365,0.7209962,-1.8376893,0.39053127,-0.19074166,-0.15730286,-0.60928726,0.6834938,0.89763945,0.019078014,0.19165798,0.3964171,-1.4231325,0.079804085,-0.31506047,0.0,1.0,0.0,0.0,0.0,0.0,0.0,-0.48856962,0.22418365,-0.17099619,0.66719055,7.521355,-7.1985006,3.0366898,-4.734063,-4.192281,0.17680041
-9.310127,83.6111,21.360882,19.633476,0.86302733,0.6951868,-0.0721542,-0.79347026,-0.25842994,-0.5676512,0.795869,-0.5708862,0.6058204,0.069476895,0.6678967,-1.0415614,-2.0741208,-0.97338206,1.8288041,1.7743757,-0.8499494,0.73329526,-1.0213908,-2.0271215,-1.0389272,1.8783234,1.7193944,-0.85662615,-1.3965073,-0.54783636,-0.9915676,1.4098613,-0.76788306,0.5517726,0.02744677,-0.17946625,-0.6200752,0.7193363,-1.7931851,0.4169425,-0.16079322,-0.1714325,-0.60826874,0.6805335,0.9021266,0.021295298,0.19615032,0.38371748,-1.4096042,0.12113446,-0.29095,0.0,1.0,0.0,0.0,0.0,0.0,0.0,-0.47053373,0.22007522,-0.16933626,-0.6592035,7.7594757,-6.052518,2.2797585,-4.349482,-3.3287048,0.13791956
-12.534488,82.71938,19.926514,20.05358,0.924962,0.72177976,-0.058193438,-0.80443496,-0.22906458,-0.63628423,0.7937326,-0.59072506,0.6020684,0.10810542,0.65285176,-1.0442972,-2.09075,-0.95955396,1.819251,1.7796013,-0.8458156,0.7192114,-1.0262564,-2.0376356,-1.0247406,1.8703915,1.7247254,-0.85629416,-1.4127738,-0.46710128,-1.0695176,1.4214629,-0.80368215,0.526082,0.034345496,-0.19706726,-0.6157112,0.71793854,-1.7498274,0.44250083,-0.13502793,-0.18546295,-0.60681915,0.6777794,0.9063504,0.024061577,0.20130633,0.37070975,-1.4003841,0.1633856,-0.2712345,0.0,1.0,0.0,0.0,0.0,0.0,0.0,-0.45293272,0.2157112,-0.16793853,-1.7411709,7.810533,-7.245779,1.1124134,-4.1443825,-2.784741,0.44837147
-15.772408,63.69494,12.961972,16.770073,0.89641577,0.46592587,0.025863443,-0.81252587,-0.27231187,-0.6914696,0.78837293,-0.60987765,0.59265596,0.1952716,0.6379588,-1.0534877,-2.1067824,-0.9459033,1.8094038,1.783991,-0.836767,0.7049349,-1.0307254,-2.0490074,-1.0105217,1.8621223,1.7298295,-0.85582954,-1.4328547,-0.4408187,-1.1580081,1.4220488,-0.8362724,0.50446665,0.04986832,-0.21433258,-0.611145,0.7165402,-1.7197198,0.46078262,-0.14422332,-0.19955444,-0.60504913,0.6749663,0.9102996,0.027516766,0.2069146,0.3574686,-1.4053867,0.1937252,-0.28518727,0.0,1.0,0.0,0.0,0.0,0.0,0.0,-0.4356674,0.21114501,-0.1665402,-2.0675182,2.4130344,-8.420014,0.09191036,-3.6979437,-2.379334,1.3647951
-16.957453,41.99831,5.9594927,12.18244,0.79104865,0.19667828,0.12868348,-0.81864655,-0.33314145,-0.7288364,0.7781993,-0.6268983,0.59916216,0.24536926,0.62307024,-1.0640395,-2.121891,-0.9327017,1.7994325,1.7897458,-0.8312926,0.6904667,-1.0354251,-2.0612411,-0.99637496,1.8535475,1.7347529,-0.85517687,-1.4514338,-0.48021397,-1.2440921,1.4125508,-0.86559284,0.4876749,0.070068486,-0.23140717,-0.60645676,0.71475434,-1.7043152,0.47150415,-0.19182274,-0.21375275,-0.6030655,0.6717344,0.91397375,0.031775456,0.212648,0.3441264,-1.4233024,0.21168968,-0.3362425,0.0,1.0,0.0,0.0,0.0,0.0,0.0,-0.4185928,0.20645675,-0.16475433,-1.8527746,-4.0911436,-8.334184,-0.8196831,-3.209114,-1.8720806,1.9031972
-13.098073,37.52826,5.7445326,9.824458,0.77948946,0.1999824,0.21514475,-0.8162381,-0.35101065,-0.7279736,0.7753706,-0.6219416,0.62407494,0.30577165,0.6088429,-1.0705261,-2.1340384,-0.9188379,1.7913533,1.7971604,-0.8245997,0.67587453,-1.0407046,-2.0741045,-0.98234475,1.844765,1.7395527,-0.854289,-1.4618446,-0.54445547,-1.2994113,1.4003004,-0.88342226,0.47664776,0.09478941,-0.24833679,-0.6016731,0.71245044,-1.6897357,0.4806068,-0.24514587,-0.22812653,-0.6009064,0.6679512,0.91736346,0.036759652,0.21825835,0.3308416,-1.4394289,0.22883691,-0.392768,0.0,1.0,0.0,0.0,0.0,0.0,0.0,-0.40166318,0.20167312,-0.16245043,-1.0433435,-6.5537453,-5.252552,-1.0858297,-2.0512938,-1.3000011,2.3928359
-9.500822,39.417564,7.4554377,9.251837,0.8766952,0.29065484,0.24127513,-0.81527025,-0.37646502,-0.72269213,0.78145075,-0.617395,0.63862205,0.32304206,0.5943475,-1.0783511,-2.1463737,-0.90419966,1.7830255,1.803415,-0.82198477,0.6612318,-1.046686,-2.0872662,-0.96839076,1.8358846,1.7442718,-0.853159,-1.4651786,-0.6165076,-1.3208805,1.3942043,-0.8908025,0.46958914,0.11889361,-0.26509094,-0.59679794,0.70965123,-1.6719867,0.48989052,-0.2932686,-0.24263,-0.5985565,0.66365296,0.9204725,0.042288154,0.22359875,0.31771946,-1.451612,0.24885175,-0.44276407,0.0,1.0,0.0,0.0,0.0,0.0,0.0,-0.38490903,0.19679794,-0.15965122,-0.3607273,-7.332742,-1.8123627,-0.48234463,-1.0468125,-0.92108846,2.358605
-6.676819,47.125313,10.258243,9.934673,0.9011071,0.42761058,0.26213348,-0.8155437,-0.38335547,-0.7330402,0.7797645,-0.6357851,0.6409232,0.39577886,0.57967746,-1.0850216,-2.1605701,-0.8904143,1.7723061,1.808364,-0.8135811,0.6465853,-1.0532702,-2.100526,-0.95447856,1.8269219,1.7489352,-0.8517581,-1.4647257,-0.672731,-1.3262385,1.3905346,-0.8995726,0.46452066,0.14690773,-0.2816162,-0.59181976,0.70645905,-1.6467748,0.5002933,-0.32854694,-0.2571869,-0.59597397,0.65895134,0.9232882,0.04823251,0.22868128,0.30482328,-1.4549583,0.2740778,-0.47980148,0.0,1.0,0.0,0.0,0.0,0.0,0.0,-0.36838377,0.19181976,-0.15645903,-0.023293495,-5.766511,-0.10561943,-0.28648376,-1.2764096,-0.740242,2.733502
-2.586472,49.473324,11.788,9.176556,0.9397635,0.465352,0.2847256,-0.804487,-0.42497694,-0.71910167,0.7775623,-0.6108102,0.6559416,0.41196775,0.5661366,-1.095768,-2.1724362,-0.87672234,1.7658409,1.8145294,-0.81056136,0.63200647,-1.0604266,-2.1136947,-0.940595,1.8179693,1.75357,-0.8500892,-1.455857,-0.73034054,-1.3121573,1.387798,-0.89537406,0.46222478,0.17329936,-0.29786682,-0.5867462,0.7029435,-1.6180475,0.50978106,-0.3602673,-0.2717514,-0.59313583,0.653919,0.9258186,0.054459337,0.23345587,0.2922198,-1.4522586,0.29964417,-0.5117559,0.0,1.0,0.0,0.0,0.0,0.0,0.0,-0.35213315,0.18674621,-0.15294349,0.7906914,-5.8989525,1.8830299,-0.22463799,-0.011968613,-0.47123432,2.5854647
-4.397644,53.61255,12.3316965,10.531307,1.0184169,0.5519551,0.26295263,-0.8158605,-0.43852752,-0.72603,0.77482814,-0.62908566,0.6433477,0.45354223,0.5504204,-1.1042794,-2.1862977,-0.86311215,1.7550608,1.8179047,-0.80473495,0.61746484,-1.0680655,-2.1267262,-0.92674094,1.8090204,1.7581764,-0.84815425,-1.4540085,-0.775487,-1.2987071,1.3847592,-0.89632845,0.45937017,0.20000806,-0.31381226,-0.5815735,0.69913703,-1.5872154,0.51940423,-0.38791698,-0.28627777,-0.5900154,0.6486118,0.92807233,0.06093405,0.23795263,0.27990562,-1.4487393,0.32913145,-0.5379228,0.0,1.0,0.0,0.0,0.0,0.0,0.0,-0.33618772,0.18157348,-0.14913702,0.0828743,-4.668677,1.8595457,-0.2560377,-0.5763054,-0.5394757,2.6085794
-3.4132297,57.741673,13.530222,11.209524,1.1360438,0.6114259,0.25126553,-0.8098225,-0.45692044,-0.7105845,0.777503,-0.60296893,0.6406529,0.4936845,0.5364826,-1.1137576,-2.1977847,-0.8489906,1.7487235,1.8222418,-0.7987858,0.6029509,-1.0760916,-2.1395779,-0.9128985,1.8001388,1.7627579,-0.845951,-1.4509304,-0.81217295,-1.2784837,1.38411,-0.8870989,0.45662156,0.22704397,-0.32942963,-0.57632065,0.69509244,-1.5533906,0.52855575,-0.41070038,-0.3007431,-0.58657837,0.6431002,0.93006593,0.067601725,0.2421794,0.26787382,-1.4425129,0.36070865,-0.55644965,0.0,1.0,0.0,0.0,0.0,0.0,0.0,-0.32057035,0.17632064,-0.14509243,0.18713474,-3.829515,2.5856972,-0.039958954,0.39705038,-0.54379106,2.6454866
-0.2761178,57.827736,14.033347,10.312504,1.1323533,0.59674335,0.26655906,-0.79628205,-0.49106693,-0.6849601,0.77853376,-0.58742744,0.63924676,0.52089775,0.52332264,-1.1251984,-2.2080739,-0.8350451,1.7413961,1.8266826,-0.79386127,0.5885208,-1.0845183,-2.1521401,-0.89905113,1.791398,1.7673153,-0.8434848,-1.4408233,-0.85320896,-1.2468956,1.3849703,-0.87163436,0.45417598,0.2532015,-0.34470367,-0.5709915,0.69081944,-1.5183347,0.5366385,-0.43419302,-0.31511688,-0.5828476,0.63741213,0.93182087,0.07438055,0.24608488,0.25616306,-1.4320154,0.3902952,-0.57389957,0.0,1.0,0.0,0.0,0.0,0.0,0.0,-0.3052963,0.17099151,-0.14081943,0.8767843,-4.2539,3.7388086,0.09388924,1.0120034,-0.5242646,2.5797725
-0.49817324,56.12454,13.261956,9.943727,1.1340485,0.57199514,0.26056102,-0.7965167,-0.5203555,-0.6739668,0.7768067,-0.58132905,0.6258278,0.5332065,0.5088692,-1.1365539,-2.2195368,-0.8213705,1.7332652,1.829898,-0.7901642,0.5741833,-1.0933913,-2.1643813,-0.8851989,1.7828132,1.7718414,-0.84077615,-1.4317603,-0.8989533,-1.2147253,1.3853604,-0.8558372,0.4510902,0.27669802,-0.3596573,-0.56559753,0.6862578,-1.4863373,0.54081345,-0.46223822,-0.32940674,-0.5788193,0.631526,0.93336135,0.081252016,0.24963488,0.24477962,-1.4220495,0.4188836,-0.5945254,0.0,1.0,0.0,0.0,0.0,0.0,0.0,-0.2903427,0.16559753,-0.13625777,0.78094006,-4.7198772,3.7835598,0.0631094,1.0491252,-0.57517886,2.319628
-0.8771007,56.13495,12.766714,9.880019,1.0879369,0.5589974,0.2602006,-0.7939639,-0.53872323,-0.6689596,0.77340007,-0.5839687,0.6057071,0.56096643,0.4947869,-1.1472636,-2.2312772,-0.8078589,1.7244164,1.8324121,-0.78467953,0.5599268,-1.1027011,-2.1763518,-0.87135917,1.7743505,1.7763219,-0.8378386,-1.4239893,-0.9421524,-1.1896007,1.3835615,-0.8449461,0.4458834,0.2995444,-0.3742752,-0.5601616,0.6814036,-1.4531537,0.54687923,-0.49380997,-0.34357452,-0.5745163,0.6254222,0.93469745,0.08824586,0.252845,0.23371522,-1.4108616,0.44671884,-0.617018,0.0,1.0,0.0,0.0,0.0,0.0,0.0,-0.27572477,0.16016158,-0.13140357,0.6564617,-4.463756,3.069353,-0.15025139,0.5579591,-0.78213215,2.2509694
-1.281177,53.301785,11.568636,9.344652,1.0269426,0.49834424,0.25972348,-0.7870864,-0.57396823,-0.66326696,0.7787121,-0.58219457,0.58239,0.5882605,0.48121816,-1.1600978,-2.2426784,-0.79348797,1.7161311,1.8345609,-0.77901256,0.54575616,-1.1124915,-2.1881313,-0.8575127,1.7659667,1.780739,-0.8346792,-1.41503,-0.99169666,-1.1723253,1.3852032,-0.8379288,0.43925306,0.3214069,-0.38859558,-0.5546875,0.67618054,-1.4247779,0.5483457,-0.5311091,-0.3576584,-0.56993866,0.61904866,0.9358392,0.095412605,0.25571638,0.22295839,-1.400815,0.47241879,-0.6453672,0.0,1.0,0.0,0.0,0.0,0.0,0.0,-0.2614044,0.1546875,-0.12618053,0.7904768,-5.0922036,2.2481441,0.21855831,0.20375252,-0.92002153,2.1613955
0.0075736046,55.044,11.993254,9.182403,1.0269005,0.5038281,0.26407224,-0.7804243,-0.59076047,-0.6459279,0.77246284,-0.56540126,0.54034555,0.60624045,0.4677137,-1.1715676,-2.2527242,-0.7802664,1.7094265,1.8347735,-0.7740551,0.53168494,-1.1227416,-2.1997275,-0.8436766,1.7576777,1.7850599,-0.83131003,-1.4048564,-1.0364534,-1.1534767,1.3832136,-0.8276438,0.4288098,0.3419938,-0.4026184,-0.54919434,0.67057914,-1.3941015,0.55006504,-0.5677828,-0.37161255,-0.5651169,0.6124083,0.9367989,0.10275358,0.25823954,0.21251348,-1.3873321,0.49738953,-0.6715431,0.0,1.0,0.0,0.0,0.0,0.0,0.0,-0.24738157,0.14919433,-0.12057912,0.8996725,-4.613018,2.4330854,-0.16307831,0.4885316,-1.2798905,2.0123303
2.3596764,58.58833,13.17673,9.207591,1.1061021,0.53672266,0.25955272,-0.7710491,-0.6052442,-0.62286013,0.7665217,-0.529068,0.5068534,0.61242,0.45458,-1.183266,-2.2620134,-0.76702446,1.7047709,1.8357452,-0.77006805,0.51773643,-1.1333808,-2.211076,-0.8298921,1.749586,1.7892575,-0.82775307,-1.392048,-1.0734407,-1.1265334,1.3768749,-0.80510455,0.41586936,0.36010635,-0.41630554,-0.54369354,0.66464555,-1.360552,0.5504569,-0.60023904,-0.3853836,-0.56004715,0.60555595,0.93759906,0.11020399,0.26038322,0.20239435,-1.3693248,0.5220156,-0.69119525,0.0,1.0,0.0,0.0,0.0,0.0,0.0,-0.23369443,0.14369354,-0.11464554,1.1403084,-3.8359404,3.295803,-0.63426495,1.6566873,-1.5366554,1.7608047
9.297907,71.70279,17.902452,10.415063,1.3336785,0.71876276,0.23867726,-0.75047165,-0.588401,-0.55512583,0.765623,-0.5011029,0.50629497,0.6227432,0.44268927,-1.1922209,-2.2665887,-0.7533298,1.6994756,1.839887,-0.76547873,0.5039825,-1.1441897,-2.221882,-0.81618,1.7417885,1.7933354,-0.82402843,-1.3705938,-1.0839183,-1.0624352,1.3689097,-0.7736851,0.4043865,0.37633127,-0.4295578,-0.5382004,0.6585444,-1.3122603,0.5483997,-0.6102357,-0.39887238,-0.554718,0.59870505,0.93826205,0.11754539,0.26217857,0.19263905,-1.3361009,0.5476827,-0.68446803,0.0,1.0,0.0,0.0,0.0,0.0,0.0,-0.22044218,0.13820037,-0.10854441,1.9267797,-1.1953831,7.21612,-0.91781616,2.360797,-1.3980687,1.5434682
12.022155,72.39784,19.146584,9.881151,1.7721982,0.7772308,0.21225235,-0.75005573,-0.62207055,-0.4655663,0.74052835,-0.34730375,0.47719225,0.6092022,0.4289769,-1.2063968,-2.2684388,-0.7421272,1.7070582,1.8410547,-0.7631082,0.49041235,-1.1551589,-2.2316895,-0.80265206,1.7347211,1.7972901,-0.82016915,-1.3532639,-1.1016943,-0.9505742,1.3469436,-0.6871659,0.391475,0.38919148,-0.44234467,-0.53273773,0.6523588,-1.266718,0.5459843,-0.6201879,-0.4120636,-0.5491257,0.59199387,0.93890387,0.12444182,0.2633975,0.18329068,-1.3051394,0.574666,-0.66806245,0.0,1.0,0.0,0.0,0.0,0.0,0.0,-0.20765531,0.13273773,-0.10235876,1.5062332,-1.9123793,12.035381,-2.328968,7.83211,-1.5609741,1.2873292
16.16506,76.69608,22.21439,9.834648,2.8108177,0.8623741,0.14158733,-0.750104,-0.6339661,-0.31740987,0.6899335,0.04382088,0.33974233,0.6117603,0.41540194,-1.2185555,-2.2634304,-0.73365873,1.7391032,1.8312644,-0.75899315,0.47696313,-1.1663169,-2.239822,-0.7895646,1.7296201,1.8010222,-0.81619215,-1.3429329,-1.1208175,-0.76441437,1.2954892,-0.45387056,0.36583564,0.40116516,-0.45470428,-0.52729034,0.6460949,-1.2249473,0.54514194,-0.62680674,-0.4249878,-0.5432091,0.5856329,0.93979955,0.13028575,0.26342475,0.1743842,-1.2823695,0.6074716,-0.6267956,0.0,1.0,0.0,0.0,0.0,0.0,0.0,-0.19529569,0.12729034,-0.09609491,0.79066753,-2.0326614,19.53559,-5.313611,22.441107,-2.8846025,1.338464
34.433105,91.578606,31.994074,7.6160717,4.069245,1.220788,0.14854746,-0.7519443,-0.6474042,0.0938877,0.5725565,0.409855,0.11531566,0.5853551,0.40176868,-1.2310573,-2.2304332,-0.732309,1.7706056,1.8125538,-0.75765663,0.46355727,-1.1776847,-2.244418,-0.77750325,1.7277951,1.8043449,-0.81212264,-1.3409035,-1.1425397,-0.3539317,1.1753652,-0.095618024,0.3199842,0.40990448,-0.46655273,-0.52186966,0.63996786,-1.1693158,0.54140186,-0.6051109,-0.43756104,-0.53692627,0.5800708,0.941331,0.13393359,0.2614363,0.16615841,-1.2422463,0.6444923,-0.534075,0.0,1.0,0.0,0.0,0.0,0.0,0.0,-0.18344724,0.12186965,-0.08996785,-0.11639595,-2.2733927,42.293816,-12.325382,34.63966,-4.881954,1.1316776
44.839455,90.887344,33.055973,1.8761634,3.5097046,1.0749576,0.3496826,-0.7578434,-0.6291816,0.23927955,0.38592708,0.51374996,-0.28366813,0.578754,0.38777292,-1.2406029,-2.22049,-0.73891056,1.7791702,1.7759781,-0.75424725,0.4501142,-1.1891345,-2.2446768,-0.76740277,1.7294669,1.8069447,-0.8079878,-1.3463659,-1.1461185,0.08689833,0.9538852,0.25150183,0.23954517,0.41534746,-0.47779083,-0.5165405,0.63408005,-1.1063092,0.5303948,-0.5810309,-0.44957733,-0.5303879,0.5753776,0.9436118,0.13509266,0.2570961,0.1588967,-1.1812251,0.66648585,-0.4495634,0.0,1.0,0.0,0.0,0.0,0.0,0.0,-0.17220914,0.11654052,-0.08408004,-0.82347393,-0.4453659,45.17046,-22.476746,33.644794,-8.150583,0.70286393
27.876865,90.06374,26.594286,7.1599956,2.8905182,0.638573,0.22320136,-0.7590075,-0.58014417,0.12685324,0.38919383,0.5511275,-0.509484,0.60600287,0.37421343,-1.2471489,-2.2319915,-0.7284834,1.7845796,1.7559963,-0.7473875,0.43660635,-1.2003344,-2.2420065,-0.7592212,1.7340523,1.8086195,-0.8037938,-1.3526651,-1.1117744,0.3288912,0.77254695,0.5255908,0.14333121,0.4209255,-0.48843384,-0.51132584,0.62837493,-1.050629,0.51890844,-0.5669301,-0.4611206,-0.52366257,0.5713412,0.94643915,0.13454963,0.25088587,0.15233386,-1.1395437,0.6834074,-0.3905767,0.0,1.0,0.0,0.0,0.0,0.0,0.0,-0.16156614,0.11132583,-0.07837492,-0.76429844,3.3388376,24.776834,-18.258274,26.838415,-9.605903,0.6167829
21.13659,99.73542,26.50713,13.11046,2.8746426,0.5746756,0.054488085,-0.7468362,-0.54778886,0.276298,0.38805568,0.60812014,-0.56566507,0.62012184,0.36192274,-1.2551134,-2.2143767,-0.72041565,1.7948643,1.752053,-0.7417816,0.4231066,-1.2110194,-2.2373717,-0.7523388,1.7408336,1.8093674,-0.79954314,-1.3493047,-1.0543118,0.5099303,0.66004246,0.7277934,0.052306857,0.42651954,-0.49847412,-0.50624084,0.6229387,-0.9892374,0.50501335,-0.53643537,-0.47227478,-0.5167618,0.5679618,0.94960904,0.13279293,0.24342385,0.14612786,-1.1036483,0.7010191,-0.32265446,0.0,1.0,0.0,0.0,0.0,0.0,0.0,-0.15152586,0.10624084,-0.07293868,0.27439594,5.6527853,18.48461,-11.269724,19.89361,-9.022067,0.56860447
11.298732,93.86853,21.7885,14.096514,2.2115583,0.4557906,0.07250117,-0.76575994,-0.5226362,0.28672627,0.28857267,0.6217101,-0.5717253,0.6214523,0.34653062,-1.263283,-2.208699,-0.72348154,1.8030046,1.7521949,-0.7373979,0.4095711,-1.2210749,-2.2316544,-0.74653894,1.7490715,1.8093008,-0.79524153,-1.3549931,-0.98966366,0.5927838,0.5535625,0.8551965,-0.026086891,0.43135586,-0.5079346,-0.501297,0.61773896,-0.93413675,0.49144277,-0.51730305,-0.48309326,-0.5096817,0.5650666,0.95292044,0.13034473,0.23519485,0.14012878,-1.073765,0.71780825,-0.28096455,0.0,1.0,0.0,0.0,0.0,0.0,0.0,-0.1420654,0.10129699,-0.06773895,-0.5768776,6.3916326,8.4126,-10.578453,12.65403,-7.708273,0.49828887
14.36996,108.14842,24.668056,16.204006,1.9252796,0.57154435,0.09310267,-0.75120246,-0.42570317,0.34702885,0.21533424,0.64684176,-0.56780523,0.61930656,0.33445087,-1.2636453,-2.1969516,-0.7250055,1.8137556,1.7525202,-0.7333109,0.39604563,-1.2301654,-2.2253537,-0.7418071,1.7582195,1.8085533,-0.7908993,-1.3517846,-0.8823806,0.64282095,0.446642,0.9345321,-0.0902438,0.4351093,-0.5167389,-0.49653244,0.61292213,-0.864528,0.4720081,-0.47241595,-0.4935074,-0.50247955,0.56270254,0.95620793,0.12748206,0.2266473,0.13433371,-1.0275338,0.73044515,-0.22393481,0.0,1.0,0.0,0.0,0.0,0.0,0.0,-0.13326108,0.096532434,-0.06292212,0.31762123,10.662592,5.057037,-10.6161,7.967961,-6.1952324,0.35629869
17.074322,97.12863,21.984537,12.153045,1.2779756,0.4167925,0.20699757,-0.74302447,-0.42275855,0.36521775,0.13526314,0.67338794,-0.56868726,0.6175625,0.3217432,-1.2724413,-2.188832,-0.7282808,1.8255583,1.7516847,-0.729143,0.38259977,-1.2383326,-2.2187517,-0.7382339,1.7679322,1.8072492,-0.78652644,-1.3421847,-0.7951275,0.66602707,0.3278664,0.98349607,-0.1429206,0.43799576,-0.5248871,-0.4919777,0.6084644,-0.8004812,0.45087478,-0.44101235,-0.5034332,-0.49521255,0.56072617,0.95938927,0.124392286,0.21793686,0.12884931,-0.9782055,0.7326237,-0.19119602,0.0,1.0,0.0,0.0,0.0,0.0,0.0,-0.12511289,0.091977686,-0.058464408,0.9625912,8.675003,2.3032308,-11.788893,4.9951434,-5.0256786,0.29258132
29.53349,80.282166,19.110104,1.0799499,-0.06698293,0.23510647,0.59161675,-0.73951304,-0.38800007,0.35103804,-0.10315543,0.7005143,-0.5695279,0.6062818,0.30864847,-1.2771326,-2.1836479,-0.74854946,1.8379836,1.7502964,-0.72589827,0.36926216,-1.2457179,-2.2121377,-0.7366853,1.778026,1.8054963,-0.78213745,-1.3310487,-0.71981955,0.6597787,0.09746864,1.0180035,-0.18503878,0.43921667,-0.53240967,-0.4876709,0.60414284,-0.7389578,0.4249082,-0.43348753,-0.51270294,-0.48809433,0.5587626,0.96240294,0.12133127,0.20894629,0.12409904,-0.90602314,0.71172017,-0.20012003,0.0,1.0,0.0,0.0,0.0,0.0,0.0,-0.11759031,0.08767089,-0.054142833,1.0891199,7.4913025,-0.7182598,-22.980402,3.5932064,-3.8653584,0.14615059
26.521149,91.06784,21.753042,5.8006935,0.46227384,0.3746307,0.437751,-0.7386505,-0.32475618,0.42484516,-0.093653016,0.71281564,-0.54190224,0.58425087,0.2953971,-1.2781935,-2.1696532,-0.7460506,1.8493075,1.751306,-0.7237124,0.35602185,-1.2522944,-2.20533,-0.73709077,1.7883917,1.8033984,-0.777756,-1.3215815,-0.6370006,0.6871033,-0.08623018,1.04351,-0.21693648,0.43795902,-0.539299,-0.4836235,0.600041,-0.6745528,0.3992089,-0.40594643,-0.5212784,-0.4811287,0.55689687,0.96525055,0.11819017,0.19975494,0.12008464,-0.83964175,0.6974142,-0.18380547,0.0,1.0,0.0,0.0,0.0,0.0,0.0,-0.110700965,0.0836235,-0.05004096,0.9783983,8.271397,2.4952292,-18.27476,2.8702736,-2.845782,-0.0803709
39.6028,78.48618,21.189768,-2.8429906,-0.25765184,0.28196636,0.6877832,-0.7226956,-0.32682827,0.49263912,-0.31198314,0.7349715,-0.50770015,0.5653354,0.2837523,-1.2849772,-2.156066,-0.7682891,1.8618889,1.7526283,-0.72122246,0.34292287,-1.2582587,-2.1979349,-0.7398242,1.7990018,1.801058,-0.77340245,-1.3058453,-0.58276993,0.7557202,-0.3353459,1.0679703,-0.23842315,0.43462798,-0.5455551,-0.4798584,0.59610903,-0.611434,0.3700212,-0.3918864,-0.52908325,-0.47442627,0.55502474,0.9679567,0.114803664,0.19020303,0.11705865,-0.7579017,0.66587347,-0.18973084,0.0,1.0,0.0,0.0,0.0,0.0,0.0,-0.10444486,0.07985839,-0.04610902,1.6159534,5.4201007,6.524682,-24.817478,2.859068,-1.7330438,-0.26474595
42.647198,55.483852,16.361258,-9.289616,-0.815763,-0.011285752,0.78965974,-0.70594,-0.37303916,0.49034932,-0.4303302,0.7511989,-0.46842805,0.5589863,0.27232885,-1.2955626,-2.1489,-0.7828572,1.8741217,1.7542152,-0.71750385,0.33003494,-1.2641104,-2.1899097,-0.7450859,1.8098319,1.798567,-0.769087,-1.2828951,-0.5857905,0.8168411,-0.5893157,1.0892599,-0.25140244,0.43088004,-0.5512924,-0.47636795,0.5920556,-0.5626373,0.34278473,-0.41300344,-0.5361252,-0.4681244,0.5527955,0.9705391,0.11118834,0.18005142,0.11520572,-0.6832475,0.62251484,-0.235014,0.0,1.0,0.0,0.0,0.0,0.0,0.0,-0.09870756,0.076367944,-0.042055607,2.3566484,-0.31141043,5.730164,-25.265783,2.5345325,-0.9210825,-0.2543509
43.83975,40.245754,13.797536,-10.858619,-0.73333704,-0.23484379,0.6874921,-0.66127306,-0.44297993,0.56536376,-0.43188363,0.7531868,-0.39185846,0.5841591,0.26390764,-1.3084085,-2.1333733,-0.7882743,1.8851506,1.7593812,-0.7106711,0.31754944,-1.2704791,-2.1810715,-0.75228155,1.8208158,1.7960263,-0.7647888,-1.236797,-0.65399176,0.90509534,-0.762512,1.1025856,-0.25404143,0.42983288,-0.556633,-0.47312927,0.58764505,-0.5255961,0.31820005,-0.45317382,-0.5425415,-0.4622841,0.54998606,0.9730289,0.107217036,0.16917475,0.114451766,-0.62511665,0.5754238,-0.29709995,0.0,1.0,0.0,0.0,0.0,0.0,0.0,-0.09336698,0.07312927,-0.037645042,4.691839,-6.8335414,8.451855,-17.179298,1.708746,0.02539754,0.028043985
31.359423,45.471382,13.511755,-3.2234144,-0.029775921,-0.18527856,0.3947139,-0.6474147,-0.44774303,0.5728177,-0.40889055,0.74393797,-0.31248403,0.59608215,0.25280797,-1.3152534,-2.1237898,-0.7931706,1.8952096,1.7647779,-0.7051806,0.3055361,-1.277582,-2.1714852,-0.76043737,1.8318527,1.7935295,-0.76048774,-1.1890914,-0.72882277,0.9753811,-0.832664,1.1053877,-0.24749255,0.43063676,-0.56165314,-0.4700966,0.5828815,-0.4950369,0.29865307,-0.48618862,-0.5485382,-0.4567871,0.54666054,0.9754216,0.102822036,0.15774842,0.11443666,-0.5900133,0.54400027,-0.34472713,0.0,1.0,0.0,0.0,0.0,0.0,0.0,-0.08834684,0.07009658,-0.0328815,4.8853397,-7.468891,6.602347,-6.849253,0.7088423,0.8835852,0.2382636
28.19236,59.193073,16.320282,2.2654214,0.31431025,-0.066412985,0.22202139,-0.60479635,-0.43664667,0.5831788,-0.41735715,0.7412322,-0.19880286,0.5914197,0.24505645,-1.3212467,-2.1131673,-0.8021731,1.9059759,1.7736492,-0.70134574,0.29409587,-1.285242,-2.1613688,-0.7688269,1.8428849,1.7911875,-0.75618,-1.1285183,-0.77820265,1.0222323,-0.8404216,1.1042536,-0.22871621,0.43137667,-0.5663452,-0.46726227,0.57795614,-0.46126315,0.27878416,-0.49601614,-0.5542221,-0.4515648,0.5430431,0.9776824,0.09797888,0.14609036,0.114868894,-0.55849236,0.5184642,-0.36770794,0.0,1.0,0.0,0.0,0.0,0.0,0.0,-0.08365476,0.06726226,-0.027956128,6.201577,-4.883015,4.180789,-0.59148073,0.43344498,2.151823,0.24704337
26.573088,61.320942,16.49202,3.3693628,0.29395106,0.0017665625,0.18017936,-0.5716913,-0.466188,0.5859082,-0.44595072,0.74748963,-0.0048671626,0.59478,0.23692675,-1.3318608,-2.102778,-0.81342196,1.9176339,1.7907008,-0.696702,0.2832927,-1.2933406,-2.1509662,-0.77717537,1.8539109,1.7891736,-0.7518617,-1.0637411,-0.8202624,1.0446975,-0.83227974,1.1037848,-0.19132367,0.43264958,-0.5707092,-0.46461868,0.572954,-0.4289466,0.25989208,-0.5028589,-0.5595856,-0.44657516,0.53921074,0.97978145,0.09269973,0.13439499,0.115641385,-0.5280001,0.4951442,-0.3887351,0.0,1.0,0.0,0.0,0.0,0.0,0.0,-0.07929075,0.06461868,-0.022953987,6.625843,-4.1437984,1.7566442,1.0159969,0.49233437,4.0169864,0.3280878
26.24243,64.11717,17.149307,3.9217765,0.24991405,0.033103213,0.16254805,-0.5368585,-0.48376685,0.5998253,-0.45201144,0.7450782,0.06961842,0.5897761,0.22960687,-1.3417172,-2.0909836,-0.8223765,1.9284188,1.7961354,-0.6928841,0.2731505,-1.3017958,-2.1404114,-0.7854085,1.864926,1.7875731,-0.74753475,-0.99720997,-0.85376185,1.0572164,-0.8196229,1.102411,-0.1486888,0.43343475,-0.5747528,-0.46216202,0.5679224,-0.39727956,0.24117164,-0.5047759,-0.5646515,-0.44182205,0.5351972,0.98170143,0.08700859,0.12275831,0.11671372,-0.4967434,0.4717607,-0.40584207,0.0,1.0,0.0,0.0,0.0,0.0,0.0,-0.07524717,0.06216201,-0.017922401,6.805408,-3.2835126,0.76465607,1.4823914,0.40643215,4.55409,0.29393435
31.105312,70.26151,19.485273,4.275958,0.15487373,0.054606616,0.13441259,-0.4681001,-0.4921152,0.611634,-0.40357307,0.73713475,0.23742554,0.59544957,0.22634049,-1.3510073,-2.079248,-0.8257658,1.9386394,1.8113157,-0.6879898,0.2638293,-1.3105105,-2.129757,-0.79329926,1.8759077,1.7864915,-0.7431965,-0.909941,-0.8769822,1.066828,-0.7782001,1.0986141,-0.09357707,0.43459705,-0.5784683,-0.45990753,0.56297016,-0.36352658,0.2203658,-0.4929744,-0.5693588,-0.43733215,0.531099,0.9834271,0.08086783,0.11132869,0.11805622,-0.46057627,0.44325122,-0.4112314,0.0,1.0,0.0,0.0,0.0,0.0,0.0,-0.07153165,0.059907526,-0.0129701495,8.884549,-2.2431016,0.48968792,4.361105,0.18744469,5.8438764,0.3304243
38.41735,86.05915,24.235329,5.478659,-0.059199214,0.056271613,0.1251818,-0.39159235,-0.4457291,0.5930893,-0.3670995,0.7270531,0.28543586,0.58688474,0.22467005,-1.3550835,-2.070448,-0.8300092,1.9486129,1.8150351,-0.684508,0.25556666,-1.3191432,-2.1191406,-0.80063605,1.8868355,1.7859573,-0.7388553,-0.7977855,-0.85843474,1.0582675,-0.7180161,1.09303,-0.03860827,0.4346801,-0.58180237,-0.4578972,0.5583579,-0.3236251,0.19482277,-0.45252913,-0.573616,-0.43320847,0.52714556,0.9849325,0.07429834,0.100352235,0.119653754,-0.41258886,0.4043667,-0.3903325,0.0,1.0,0.0,0.0,0.0,0.0,0.0,-0.06819761,0.05789718,-0.0083578825,11.391628,1.9599438,-1.3619661,6.2574983,0.10535717,5.936005,0.214082
64.364815,101.197334,31.387209,1.2044199,-0.87466806,-0.22961119,0.237123,-0.22772324,-0.4074461,0.5924802,-0.29129067,0.71662956,0.30519238,0.5860999,0.23279433,-1.3598878,-2.0598927,-0.82976514,1.9584984,1.8164766,-0.6802453,0.24897867,-1.3273429,-2.108644,-0.80710673,1.8976988,1.7859406,-0.73451775,-0.611897,-0.806841,1.0455416,-0.622484,1.0862614,0.012527597,0.43400905,-0.58465576,-0.45623398,0.5543934,-0.27343163,0.15690552,-0.37892205,-0.5771866,-0.4297371,0.523605,0.98618436,0.067296766,0.090083465,0.12164105,-0.33783996,0.3291388,-0.34221926,0.0,1.0,0.0,0.0,0.0,0.0,0.0,-0.065344214,0.056233972,-0.0043933988,18.768574,5.264628,-1.6929388,9.808135,-0.0077724457,5.677283,0.09471178
67.62849,106.44732,33.264652,1.5426624,-0.9805551,-0.34436375,0.22382548,-0.14529787,-0.3848168,0.59365857,-0.2265732,0.70826584,0.30956814,0.5769767,0.23444888,-1.3658246,-2.0492783,-0.82976407,1.9685253,1.8168975,-0.6768201,0.24435788,-1.3349437,-2.0982566,-0.81246257,1.9084758,1.7863791,-0.7301947,-0.4115596,-0.7441626,1.0355308,-0.5056631,1.0768749,0.05607142,0.43224746,-0.5870209,-0.45495224,0.55122757,-0.22531778,0.118414074,-0.2964699,-0.58000946,-0.42707443,0.520631,0.98718023,0.059879176,0.08064244,0.12404221,-0.26311922,0.24719627,-0.28292572,0.0,1.0,0.0,0.0,0.0,0.0,0.0,-0.0629791,0.054952234,-0.0012275577,20.212358,6.3525558,-1.3352871,11.966574,-0.3437996,4.8936853,-0.022351742
70.66535,111.69593,34.810146,0.30797428,-1.2882653,-0.41526523,0.30464086,-0.053277913,-0.32305583,0.577958,-0.22695714,0.70916605,0.28606683,0.5573902,0.2390301,-1.3672493,-2.0404608,-0.8351583,1.9793924,1.8149858,-0.67445564,0.24173194,-1.3417434,-2.0880103,-0.81687695,1.9191742,1.7871778,-0.72590405,-0.21232046,-0.65835524,1.0202963,-0.4189054,1.0692958,0.08950516,0.4286046,-0.58890533,-0.4540558,0.5489205,-0.1766106,0.07974279,-0.20933662,-0.58203125,-0.42528534,0.51830566,0.9879173,0.05213621,0.072044596,0.12692758,-0.18137802,0.15818736,-0.21636657,0.0,1.0,0.0,0.0,0.0,0.0,0.0,-0.06109464,0.05405578,0.0010794997,20.103386,8.632541,-1.8053293,9.011948,-0.22275448,3.8509607,-0.19881725
59.876205,112.44849,33.860046,3.1379285,-1.0059123,-0.29136357,0.25000134,0.008948116,-0.28266504,0.5857008,-0.18047495,0.6930064,0.34339178,0.5342969,0.24262676,-1.3700099,-2.0294402,-0.83492446,1.9884748,1.821517,-0.6724744,0.24087363,-1.3476523,-2.077848,-0.82049805,1.9297577,1.7883011,-0.7216641,-0.043033585,-0.56840575,1.0140194,-0.34194285,1.0563639,0.12119306,0.42294806,-0.59036255,-0.45350266,0.54745996,-0.13435791,0.048650514,-0.12522066,-0.58330536,-0.424263,0.5166675,0.98841083,0.04411603,0.06427805,0.13025387,-0.109781034,0.08351043,-0.14726114,0.0,1.0,0.0,0.0,0.0,0.0,0.0,-0.059637427,0.05350265,0.002540052,17.110256,9.032524,-0.9018421,8.052534,-0.79512596,3.5864294,-0.3840387
38.726482,116.46503,32.246826,9.294345,-0.4348685,-0.013184693,0.14139524,0.027459601,-0.2032963,0.5584085,-0.17083131,0.69062823,0.34963942,0.5208409,0.24361959,-1.3679819,-2.022007,-0.83758116,1.9988205,1.8232651,-0.66958,0.24127156,-1.3524989,-2.067842,-0.8235517,1.9402152,1.7897048,-0.71748704,0.068017885,-0.45675346,0.9950121,-0.29200667,1.0441792,0.14785184,0.41652638,-0.59145355,-0.45319748,0.54683053,-0.10022497,0.02512981,-0.041937564,-0.58397675,-0.4237938,0.51576465,0.9886871,0.0359289,0.057345986,0.13385934,-0.05464276,0.036794964,-0.07248276,0.0,1.0,0.0,0.0,0.0,0.0,0.0,-0.058546424,0.053197473,0.003169477,11.289175,11.216015,-2.253282,5.346423,-0.66490173,3.046602,-0.44710636
27.460567,101.72349,26.729208,9.8952,-0.24970572,-0.11806061,0.06500116,0.09250804,-0.20299232,0.5104901,-0.115952894,0.6812165,0.36744574,0.5095094,0.25052235,-1.3727981,-2.016793,-0.835147,2.0083368,1.8264494,-0.6665361,0.24261886,-1.3564624,-2.0582173,-0.82605886,1.9505302,1.7913488,-0.71337765,0.15744749,-0.37620744,0.950799,-0.23587176,1.0288815,0.17091408,0.4096389,-0.59228516,-0.45306778,0.5468027,-0.07627557,0.008968266,0.010353275,-0.5842438,-0.4236946,0.515411,0.9887781,0.027743684,0.051141113,0.1375959,-0.016906748,0.0006837236,-0.024213957,0.0,0.0,1.0,0.0,0.0,0.0,0.0,-0.05771482,0.053067774,0.0031973124,9.088701,8.096242,-4.6976924,5.914503,-1.0866404,2.6075335,-0.4987657
-0.24449915,85.65844,18.803995,16.481285,0.5961376,-0.068401314,-0.20063579,0.0824515,-0.19716674,0.4274003,-0.027687524,0.6622636,0.36231396,0.49965942,0.250864,-1.376179,-2.0154772,-0.8288276,2.0167565,1.8275802,-0.66341174,0.24448091,-1.3598709,-2.0493746,-0.82774305,1.9606414,1.793187,-0.7093379,0.19613384,-0.3290127,0.8614897,-0.14529121,1.006633,0.18877938,0.40257138,-0.59298706,-0.45300674,0.5470358,-0.06754939,0.0041087535,0.028247058,-0.584404,-0.42372894,0.5153276,0.98874617,0.019806618,0.045570735,0.14110981,-0.016489994,-0.0036117248,-0.004335776,0.0,0.0,1.0,0.0,0.0,0.0,0.0,-0.057012916,0.05300674,0.0029641986,3.9681792,4.7836485,-9.191966,9.255632,-1.8327475,2.0120234,-0.5351007
-14.172722,76.58076,13.918248,20.052622,0.8803966,-0.168695,-0.37594408,0.111505836,-0.16437991,0.29933354,0.061249625,0.6399702,0.3565431,0.48654106,0.2556315,-1.3763089,-2.0194411,-0.8216181,2.0246384,1.8288413,-0.6606838,0.24661475,-1.3628864,-2.0419168,-0.82825035,1.97048,1.7951707,-0.7053725,0.21935876,-0.29224452,0.70672256,-0.018753568,0.97743803,0.20212327,0.39503646,-0.5936661,-0.45294952,0.54729855,-0.06795439,0.00592111,0.025778787,-0.58470917,-0.42370605,0.51530695,0.9886514,0.012438843,0.04066009,0.14408453,-0.035506625,0.003576013,-0.0025606432,0.0,0.0,1.0,0.0,0.0,0.0,0.0,-0.0563339,0.052949518,0.0027014613,2.3846984,3.7421525,-15.684462,12.791376,-2.599299,1.4941633,-0.6047547
-18.088387,69.90054,10.000147,19.33961,0.45442018,-0.39015952,-0.38751036,0.13467485,-0.11335685,0.09643656,0.08980578,0.59535074,0.33475903,0.4803508,0.26008224,-1.3742222,-2.0322733,-0.8192698,2.030015,1.8286465,-0.6573374,0.24895269,-1.3654423,-2.0367439,-0.8275744,1.9799329,1.797253,-0.7014797,0.23869303,-0.2432583,0.45369506,0.09664097,0.9354286,0.21053192,0.38773724,-0.59436035,-0.4528885,0.5473815,-0.0696364,0.0052984264,0.0024714984,-0.5851822,-0.4236679,0.51515937,0.9885288,0.0061340514,0.036513634,0.14642388,-0.0536492,0.004404008,-0.020083783,0.0,0.0,1.0,0.0,0.0,0.0,0.0,-0.055639625,0.052888483,0.0026184916,1.9624382,4.941237,-25.45359,11.641399,-3.9515138,0.9444058,-0.6011665
