Afshin1997/kuka_rl_ros2/src/catch_and_throw/input_files/idealpd/polynomial_regressor/optimizer_files/env_373_data.csv
torque0,torque1,torque2,torque3,torque4,torque5,torque6,action0,action1,action2,action3,action4,action5,action6,set_target_0,set_target_1,set_target_2,set_target_3,set_target_4,set_target_5,set_target_6,joint_pos_0,joint_pos_1,joint_pos_2,joint_pos_3,joint_pos_4,joint_pos_5,joint_pos_6,joint_vel_0,joint_vel_1,joint_vel_2,joint_vel_3,joint_vel_4,joint_vel_5,joint_vel_6,tennisball_pos_0,tennisball_pos_1,tennisball_pos_2,tennisball_lin_vel_0,tennisball_lin_vel_1,tennisball_lin_vel_2,end_effector_pos_0,end_effector_pos_1,end_effector_pos_2,end_effector_rot_0,end_effector_rot_1,end_effector_rot_2,end_effector_rot_3,end_effector_lin_vel_0,end_effector_lin_vel_1,end_effector_lin_vel_2,obs_task_0,obs_task_1,obs_task_2,obs_task_3,obs_task_4,obs_task_5,obs_task_6,to_final_target_0,to_final_target_1,to_final_target_2,joint_acc_0,joint_acc_1,joint_acc_2,joint_acc_3,joint_acc_4,joint_acc_5,joint_acc_6
0.0,0.0,0.0,0.0,0.0,0.0,0.0,0.0,0.0,0.0,0.0,0.0,0.0,0.0,1.7802359,-1.0646509,-1.8151424,-1.1170107,1.9373155,1.1170107,-0.91629785,1.7802359,-1.0646509,-1.8151424,-1.1170107,1.9373155,1.1170107,-0.91629785,0.0,0.0,0.0,0.0,0.0,0.0,0.0,2.7787132,-0.6669464,0.39645493,-3.1138985,0.19559719,4.9123964,0.5304184,-0.45448303,0.693097,0.5745483,0.17512383,0.15255436,0.7848268,0.0,0.0,0.0,1.0,0.0,0.0,0.0,0.0,0.0,0.0,-3.4287133,0.2669464,0.15354508,0.0,0.0,0.0,0.0,0.0,0.0,0.0
0.0,0.0,0.0,0.0,0.0,0.0,0.0,0.0,0.0,0.0,0.0,0.0,0.0,0.0,1.7802359,-1.0646509,-1.8151424,-1.1170107,1.9373155,1.1170107,-0.91629785,1.7802359,-1.0646509,-1.8151424,-1.1170107,1.9373155,1.1170107,-0.91629785,0.0,0.0,0.0,0.0,0.0,0.0,0.0,2.7787132,-0.6669464,0.39645493,-3.1138985,0.19559719,4.9123964,0.5304184,-0.45448303,0.693097,0.5745483,0.17512383,0.15255436,0.7848268,0.0,0.0,0.0,1.0,0.0,0.0,0.0,0.0,0.0,0.0,-3.4287133,0.2669464,0.15354508,0.0,0.0,0.0,0.0,0.0,0.0,0.0
0.0,0.0,0.0,0.0,0.0,0.0,0.0,0.0,0.0,0.0,0.0,0.0,0.0,0.0,1.7802359,-1.0646509,-1.8151424,-1.1170107,1.9373155,1.1170107,-0.91629785,1.7802359,-1.0646509,-1.8151424,-1.1170107,1.9373155,1.1170107,-0.91629785,0.0,0.0,0.0,0.0,0.0,0.0,0.0,2.7787132,-0.6669464,0.39645493,-3.1138985,0.19559719,4.9123964,0.5304184,-0.45448303,0.693097,0.5745483,0.17512383,0.15255436,0.7848268,0.0,0.0,0.0,1.0,0.0,0.0,0.0,0.0,0.0,0.0,-3.4287133,0.2669464,0.15354508,0.0,0.0,0.0,0.0,0.0,0.0,0.0
-176.0,78.67587,-1.8043232,110.0,11.221853,5.21623,-3.7718618,-0.8197276,0.39627537,-0.52961135,0.7370472,0.41621652,0.6542218,-0.5867445,1.6982632,-1.0250233,-1.8681035,-1.043306,1.9789371,1.1824329,-0.9749723,1.7785727,-1.0617212,-1.8213184,-1.113053,1.945231,1.1226965,-0.91922754,-0.22176099,0.3897877,-0.8222876,0.5279364,1.0541024,0.75560373,-0.38986927,2.7476006,-0.6649933,0.4448056,-3.1107852,0.19540164,4.8092985,0.52807236,-0.45777893,0.69404674,0.57862103,0.17381097,0.15025333,0.78256714,-0.31252068,-0.43862772,0.1264626,1.0,0.0,0.0,0.0,0.0,0.0,0.0,-3.3976007,0.26499328,0.10519442,-22.137993,38.731415,-81.91476,52.838093,105.01495,74.791534,-38.774937
-176.0,7.161428,-29.573849,110.0,11.231838,2.6783323,-3.1805847,-0.7981492,0.0258758,-0.52313936,0.69964355,0.49233797,0.6514486,-0.5812554,1.6987578,-1.0591336,-1.8736323,-1.0430886,1.9944648,1.1878414,-0.9773531,1.7758719,-1.057052,-1.8360412,-1.1013361,1.9599214,1.1357752,-0.9226789,-0.28422326,0.49047795,-1.6891972,1.388393,1.6060318,1.4845531,-0.32705837,2.7165184,-0.66304016,0.49212605,-3.107675,0.19520627,4.7063036,0.5229149,-0.46592712,0.69552684,0.58738434,0.17069471,0.1454638,0.77761376,-0.585102,-0.9380977,0.15568925,1.0,0.0,0.0,0.0,0.0,0.0,0.0,-3.3665185,0.26304016,0.057873964,-5.685389,9.447789,-86.77318,86.75157,54.777027,70.7027,7.2147846
-155.19966,117.05759,31.7468,96.397255,7.630889,7.4687967,-2.094392,-0.77722144,0.394383,-0.03267248,0.6564016,0.50996757,0.6909788,-0.54246944,1.6981497,-1.0176138,-1.8393085,-1.0356959,2.0109181,1.2048731,-0.97692585,1.7698141,-1.0511259,-1.8513553,-1.0853983,1.9757771,1.150416,-0.9260768,-0.71324307,0.62311924,-1.4715618,1.6633072,1.5738254,1.4488932,-0.34631842,2.6854668,-0.66108704,0.53841734,-3.104568,0.19501111,4.6034117,0.51478195,-0.47685242,0.69884753,0.5991854,0.16591068,0.13961719,0.7706863,-0.8973309,-1.1369249,0.39524987,1.0,0.0,0.0,0.0,0.0,0.0,0.0,-3.3354669,0.26108703,0.011582673,-43.045616,12.138319,23.936844,27.813864,-4.6521187,-6.0530663,-2.634555
-94.905975,120.93903,44.149044,61.377666,4.2919493,7.4679966,-0.7047989,-0.78734773,0.31576526,0.041417036,0.6368134,0.5124884,0.65605813,-0.5694321,1.6910794,-1.0195494,-1.8472136,-1.021717,2.027026,1.2160218,-0.98302007,1.7596785,-1.044681,-1.8618896,-1.0688502,1.9898953,1.1639487,-0.92964166,-1.1151129,0.64869624,-0.9060621,1.652406,1.3532095,1.31644,-0.36297625,2.6544456,-0.6591339,0.5836805,-3.101464,0.19481613,4.5006227,0.50408554,-0.48844147,0.70433635,0.61218977,0.1595298,0.13324898,0.7629014,-1.1392939,-1.1564567,0.6053857,1.0,0.0,0.0,0.0,0.0,0.0,0.0,-3.3044457,0.2591339,-0.0336805,-40.614487,1.7267704,58.965992,-0.96673965,-23.465872,-14.708877,-2.605009
-36.684082,131.4708,53.076912,33.515343,1.3847275,6.6612616,0.102352925,-0.79988235,0.41715506,0.06553043,0.63498515,0.551224,0.65583456,-0.5665856,1.6796902,-1.0029655,-1.8553365,-1.0053517,2.0450177,1.2295321,-0.98630023,1.7463423,-1.037824,-1.8665187,-1.0535399,2.001698,1.1760317,-0.9333753,-1.4080967,0.6960676,-0.30820057,1.4901035,1.1190888,1.1700354,-0.38000193,2.623455,-0.6571808,0.6279166,-3.0983632,0.19462135,4.397937,0.49163437,-0.4992981,0.7117142,0.6251314,0.15170512,0.12667674,0.75508225,-1.292965,-1.0480181,0.7853574,1.0,0.0,0.0,0.0,0.0,0.0,0.0,-3.2734551,0.25718078,-0.07791656,-29.803776,4.1464806,61.86587,-16.358925,-24.454927,-15.307856,-2.6434183
2.0530336,120.37519,47.808395,13.971635,-0.5851224,4.6206045,0.32956773,-0.80938447,0.49247214,0.004817541,0.6227195,0.5713162,0.6435469,-0.5793122,1.6654038,-0.9885768,-1.866037,-0.9912679,2.0588295,1.2403864,-0.99130654,1.7311083,-1.0302671,-1.8667438,-1.0400759,2.0116048,1.1867853,-0.9372615,-1.5634068,0.77448756,0.07739516,1.2977856,0.94627345,1.0431403,-0.3937929,2.592495,-0.6552429,0.6711265,-3.0952654,0.19442677,4.295354,0.47830582,-0.50875854,0.7203914,0.63746434,0.1429283,0.12038763,0.7474741,-1.3583369,-0.89667857,0.8961219,1.0,0.0,0.0,0.0,0.0,0.0,0.0,-3.242495,0.2552429,-0.12112647,-15.948629,7.4631095,39.941185,-19.45932,-17.865349,-12.833047,-2.1021903
20.966259,110.88952,41.1465,5.5562234,-1.5387317,2.963202,0.2085062,-0.8180373,0.5797622,-0.043912914,0.6215149,0.5815736,0.64409435,-0.55994684,1.6493046,-0.9722909,-1.8711351,-0.9779244,2.0697622,1.2511947,-0.9932562,1.7151228,-1.0216173,-1.8649166,-1.028216,2.0203176,1.1964327,-0.941245,-1.6112807,0.8942495,0.22077797,1.147902,0.84553844,0.9387143,-0.40171155,2.5615654,-0.65330505,0.7133114,-3.0921707,0.19423239,4.192873,0.46473312,-0.51673126,0.7298389,0.6491553,0.13370635,0.11485709,0.7399512,-1.3660532,-0.74652106,0.9600388,1.0,0.0,0.0,0.0,0.0,0.0,0.0,-3.2115655,0.25330505,-0.16331136,-5.122924,11.71701,15.214952,-15.229964,-10.346484,-10.373688,-1.3525009
26.625349,96.9255,33.27836,2.6289508,-1.711242,1.7040088,0.05255098,-0.8201069,0.6252081,-0.07031094,0.6100418,0.5942412,0.6407433,-0.55119497,1.6331121,-0.9590965,-1.8719476,-0.96721184,2.0797417,1.260507,-0.99636453,1.6991507,-1.0117353,-1.8629501,-1.0174242,2.0284696,1.205176,-0.9452781,-1.5932891,1.0188165,0.19024146,1.0554236,0.8046354,0.85320914,-0.40536016,2.5306664,-0.6513672,0.75447226,-3.0890791,0.1940382,4.0904946,0.45129776,-0.52337646,0.7396528,0.6603537,0.12443464,0.11031561,0.73231095,-1.3427444,-0.6217755,0.98672825,1.0,0.0,0.0,0.0,0.0,0.0,0.0,-3.1806664,0.25136718,-0.20447224,1.5370607,12.287617,-2.50428,-9.493947,-4.1995764,-8.417606,-0.7947564
25.785225,87.37747,28.73719,3.3667297,-1.4121969,1.1734787,-0.021396648,-0.8194546,0.6577981,-0.05063654,0.60000163,0.59670866,0.65474933,-0.54452026,1.6172053,-0.9459555,-1.8680137,-0.95742404,2.0881405,1.270651,-0.9997301,1.6835619,-1.0007395,-1.8617446,-1.0071837,2.0364728,1.2131888,-0.9493293,-1.5480385,1.1259581,0.09873226,1.0128173,0.79885375,0.784229,-0.4063345,2.4997978,-0.6494293,0.7946101,-3.0859907,0.1938442,3.988219,0.43814468,-0.5289612,0.7496302,0.6711986,0.11528557,0.10670625,0.7244414,-1.3125112,-0.5220217,0.99966234,1.0,0.0,0.0,0.0,0.0,0.0,0.0,-3.149798,0.24942932,-0.24461007,4.3178797,10.591316,-8.746326,-4.5062304,-0.62133074,-6.802404,-0.45961738
20.145266,80.25796,25.76387,6.1484113,-0.87139153,1.0537189,-0.054906517,-0.8227277,0.6839511,-0.03873576,0.5948425,0.60404813,0.6538768,-0.5471061,1.6012892,-0.9323443,-1.8656182,-0.9476994,2.0968776,1.2785765,-1.0040399,1.66841,-0.98887277,-1.8614376,-0.9971129,2.04456,1.2206026,-0.9533853,-1.5049525,1.2065017,0.009307168,1.0044785,0.81191546,0.7270451,-0.4064786,2.4689598,-0.64749146,0.8337259,-3.0829053,0.1936504,3.886046,0.42521286,-0.5337219,0.75971067,0.68178934,0.10627685,0.10380163,0.7163057,-1.2907485,-0.4450791,1.0093142,1.0,0.0,0.0,0.0,0.0,0.0,0.0,-3.11896,0.24749145,-0.28372592,4.1363955,7.9502106,-8.587358,-1.0684252,1.2803078,-5.701041,-0.33518076
16.445719,75.39594,24.26655,7.756829,-0.48298365,1.0870988,-0.017305966,-0.81650376,0.7030306,-0.029291745,0.5824762,0.6070469,0.6589223,-0.5516428,1.5867596,-0.9185697,-1.8643668,-0.93886524,2.1052647,1.2864949,-1.0085496,1.6536165,-0.9764044,-1.861779,-0.98703825,2.052815,1.2275225,-0.95744413,-1.4712968,1.2600479,-0.04739464,1.0077273,0.83027625,0.6801026,-0.40673298,2.4381523,-0.6455536,0.8718208,-3.079823,0.19345678,3.783975,0.41243744,-0.53780365,0.7698809,0.69215107,0.09735939,0.101353675,0.70793736,-1.2774132,-0.37970012,1.0182267,1.0,0.0,0.0,0.0,0.0,0.0,0.0,-3.0881524,0.24555358,-0.3218208,3.2033682,5.2573442,-5.2978573,0.09291172,1.8013597,-4.726577,-0.33630133
14.469877,72.29734,23.545824,8.380782,-0.24336284,1.1537409,0.052969363,-0.81018734,0.71831334,-0.019681657,0.56718665,0.61764354,0.6613538,-0.5517518,1.5725979,-0.9045731,-1.8637471,-0.9303196,2.1145792,1.2936579,-1.0126193,1.639073,-0.9635575,-1.8624046,-0.9769579,2.0612721,1.2340361,-0.96150583,-1.4490261,1.2926978,-0.0662062,1.0073534,0.8503671,0.64156854,-0.4069667,2.4073753,-0.6436157,0.90889573,-3.0767438,0.19326337,3.682006,0.39974213,-0.5412674,0.7801343,0.7022505,0.08847591,0.099149056,0.69941807,-1.269926,-0.3187836,1.0264276,1.0,0.0,0.0,0.0,0.0,0.0,0.0,-3.0573754,0.24361572,-0.35889572,2.0604372,3.1710863,-1.4655709,-0.26996136,1.9572139,-3.9080977,-0.3369391
12.460959,68.20086,22.033175,8.271969,-0.11683893,1.1119568,0.10938768,-0.81152254,0.7281543,-0.025389124,0.54359955,0.63429207,0.6630394,-0.544571,1.5579208,-0.89074206,-1.8649435,-0.92259794,2.1247013,1.30034,-1.015963,1.6246535,-0.950495,-1.8630741,-0.966993,2.0699391,1.2402178,-0.9655637,-1.4402189,1.3105311,-0.065647565,0.9920329,0.87234664,0.6102187,-0.40639827,2.3766289,-0.64167786,0.9449517,-3.0736678,0.19307014,3.580139,0.3870964,-0.5441513,0.7904194,0.71204364,0.07961888,0.097062126,0.6908209,-1.2652415,-0.26180825,1.0279363,1.0,0.0,0.0,0.0,0.0,0.0,0.0,-3.026629,0.24167785,-0.3949517,0.7062912,1.6986132,0.49505085,-1.7716885,2.1383762,-3.1799078,-0.25102496
11.411682,64.04716,20.407656,7.689427,-0.10380393,1.0135959,0.14526105,-0.81234574,0.7300401,-0.025278527,0.5211215,0.6324073,0.67345613,-0.5423738,1.5434189,-0.877491,-1.8656019,-0.9148808,2.13318,1.3075634,-1.0198011,1.6102511,-0.93734384,-1.8636615,-0.9572884,2.0787816,1.2461382,-0.96961397,-1.4407033,1.3164359,-0.05507424,0.96237695,0.8880108,0.58595973,-0.40551534,2.345913,-0.63975525,0.97998977,-3.0705948,0.19287711,3.4783738,0.37449265,-0.5464783,0.8006601,0.72149915,0.07080643,0.09504025,0.682197,-1.2599429,-0.20753404,1.021248,1.0,0.0,0.0,0.0,0.0,0.0,0.0,-2.995913,0.23975524,-0.42998976,-0.22594929,0.52022934,1.4961534,-3.2139063,1.516664,-2.4348736,-0.21228194
13.453677,62.669243,19.788975,5.9961367,-0.275334,0.8834686,0.19735418,-0.8084416,0.74288917,-0.031782623,0.4798675,0.6485337,0.67743516,-0.5402229,1.5294069,-0.86305493,-1.8668398,-0.90930164,2.143635,1.3138818,-1.0236362,1.5958296,-0.9241288,-1.8641632,-0.9480454,2.0877843,1.2518564,-0.97365373,-1.443172,1.322958,-0.04702183,0.9108262,0.9043246,0.56725585,-0.40445182,2.3152275,-0.63783264,1.0140109,-3.0675247,0.19268428,3.3767104,0.36199188,-0.5482483,0.81078386,0.7305715,0.062076904,0.09310304,0.6736048,-1.2475045,-0.1501779,1.0077586,1.0,0.0,0.0,0.0,0.0,0.0,0.0,-2.9652276,0.23783264,-0.4640109,-0.4328966,0.59497356,1.2448691,-5.4184556,1.5889764,-1.8285632,-0.19011497
16.542637,63.30477,20.276651,4.456504,-0.44027793,0.83933467,0.2754807,-0.8085733,0.7477708,-0.0023226137,0.43506494,0.65284145,0.6759195,-0.53446347,1.5149723,-0.8493517,-1.8643954,-0.90453887,2.1530685,1.3194484,-1.0271001,1.5813776,-0.9108479,-1.8644664,-0.9394585,2.0969281,1.2574164,-0.97768015,-1.4463992,1.3295225,-0.023258982,0.8403461,0.9174502,0.5524904,-0.40297496,2.2845726,-0.63591003,1.0470163,-3.064458,0.19249164,3.2751486,0.3496666,-0.5493927,0.8207639,0.73919725,0.053434785,0.09125267,0.6651353,-1.227846,-0.087083556,0.99273896,1.0,0.0,0.0,0.0,0.0,0.0,0.0,-2.9345727,0.23591003,-0.49701625,-0.51636696,0.6088257,2.832647,-7.3156,1.27033,-1.3919473,-0.1513958
18.60788,61.44817,19.260193,2.7627444,-0.6637472,0.62185514,0.29047704,-0.8060279,0.7572407,-0.02537236,0.38341826,0.6549937,0.67903084,-0.52917296,1.5007749,-0.83512384,-1.8670037,-0.90111667,2.1624274,1.3253194,-1.0305974,1.5669123,-0.8974736,-1.8646648,-0.93169844,2.106175,1.2628542,-0.9816875,-1.4473197,1.339965,-0.01733236,0.7536577,0.92722,0.54148,-0.40097076,2.2539482,-0.6339874,1.0790067,-3.061394,0.19229919,3.1736884,0.33761215,-0.54989624,0.8305342,0.7473501,0.04493421,0.08956411,0.6568309,-1.1982392,-0.02374705,0.9696733,1.0,0.0,0.0,0.0,0.0,0.0,0.0,-2.9039483,0.23398742,-0.52900666,-0.28090477,1.0162115,1.0064818,-8.945131,0.9618163,-0.9554744,-0.08012056
23.369534,61.95227,19.851534,0.32059336,-0.89586717,0.5032989,0.3951126,-0.8013634,0.7623335,0.006781355,0.3091958,0.6704658,0.6791609,-0.52178776,1.486776,-0.82124025,-1.8639866,-0.9007789,2.1732216,1.3307703,-1.0338663,1.552466,-0.8839867,-1.8647068,-0.92498076,2.1155362,1.2682024,-0.985671,-1.4442408,1.3514612,0.0016801712,0.6435287,0.9393466,0.5333157,-0.39842027,2.2233543,-0.6320648,1.1099833,-3.0583332,0.19210692,3.0723295,0.32592773,-0.54972076,0.8400534,0.7549638,0.036609787,0.08805395,0.6487956,-1.1569117,0.045109123,0.9435777,1.0,0.0,0.0,0.0,0.0,0.0,0.0,-2.8733544,0.23206481,-0.5599833,0.120568275,1.1390686,2.3080907,-11.291099,1.2092233,-0.6097317,-0.021588802
25.42366,60.679886,19.557695,-0.98836756,-1.0009418,0.3617152,0.45085427,-0.80210346,0.7632841,0.028188394,0.24076739,0.673208,0.67025894,-0.51717275,1.4722557,-0.8076583,-1.8618879,-0.900904,2.182857,1.3352283,-1.0373882,1.5380522,-0.8704045,-1.8644855,-0.91946757,2.125008,1.2734782,-0.9896278,-1.4410313,1.3604746,0.03001254,0.5196707,0.94994247,0.5264544,-0.39554003,2.192791,-0.6301422,1.1399472,-3.0552754,0.19191486,2.9710722,0.3147087,-0.54885864,0.8492853,0.76199067,0.028492438,0.08671024,0.64112383,-1.1081804,0.11324416,0.91368586,1.0,0.0,0.0,0.0,0.0,0.0,0.0,-2.842791,0.2301422,-0.58994716,0.14612675,0.91028214,3.2012541,-12.654507,1.0817647,-0.431633,0.030732155
27.65432,60.066372,19.512838,-2.1239624,-1.1033819,0.23454495,0.49992305,-0.79708946,0.76837265,0.049590696,0.16674495,0.6794146,0.67622304,-0.5102988,1.4583433,-0.79356724,-1.8595264,-0.90279305,2.1929495,1.3411005,-1.0406576,1.5236899,-0.8567374,-1.8639266,-0.9152657,2.1345792,1.2787005,-0.99355215,-1.4351662,1.3689227,0.06572197,0.3862053,0.96009624,0.52186924,-0.39213696,2.1622581,-0.6282196,1.1688992,-3.0522208,0.19172297,2.869916,0.30402756,-0.5473175,0.8582025,0.7684036,0.020605372,0.08552949,0.6338896,-1.0522614,0.18083146,0.8816079,1.0,0.0,0.0,0.0,0.0,0.0,0.0,-2.8122582,0.2282196,-0.61889917,0.4304886,0.8731127,3.8865037,-13.5984,1.065588,-0.16226768,0.106441975
31.285728,59.319714,19.62807,-4.8027296,-1.3301928,0.07360348,0.6160412,-0.80229217,0.7736781,0.09351646,0.04258042,0.69060946,0.6669811,-0.50364804,1.4434607,-0.7793696,-1.854575,-0.91100764,2.2036402,1.3453985,-1.043917,1.5093542,-0.8429854,-1.8628738,-0.9126631,2.1442685,1.2838808,-0.9974384,-1.4335552,1.3775759,0.11925014,0.21747522,0.9719194,0.5181082,-0.38821894,2.1317558,-0.626297,1.1968403,-3.0491693,0.1915313,2.7688608,0.29398727,-0.54506683,0.8667537,0.7741309,0.013005954,0.08450045,0.6272256,-0.98466396,0.25127745,0.8431285,1.0,0.0,0.0,0.0,0.0,0.0,0.0,-2.781756,0.22629699,-0.6468403,0.018143654,0.9163618,5.6263523,-17.107306,1.2615204,-0.0072717667,0.18747449
40.623585,56.719215,19.538292,-11.844303,-1.9884005,-0.3206255,0.83938825,-0.7947086,0.7773256,0.13417216,-0.14634982,0.6876278,0.66310835,-0.49396756,1.4298834,-0.7652528,-1.8494565,-0.92729807,2.2130313,1.3501917,-1.0468352,1.4950587,-0.8291495,-1.8611877,-0.9122883,2.1540494,1.2890345,-1.0012808,-1.4286486,1.3858954,0.18564564,-0.023196252,0.98010117,0.5162369,-0.38342372,2.101284,-0.62438965,1.2237717,-3.0461206,0.1913398,2.6679068,0.2848282,-0.54203796,0.8747853,0.7790141,0.005857252,0.083687715,0.6213687,-0.887938,0.32966882,0.7862194,1.0,0.0,0.0,0.0,0.0,0.0,0.0,-2.7512841,0.22438964,-0.6737717,0.38335323,0.91876984,6.8407745,-24.27779,0.9305954,0.33361912,0.32016635
42.992382,59.389877,21.177134,-11.828278,-1.9695196,-0.29094315,0.92073464,-0.78825504,0.77961445,0.22476485,-0.23179546,0.688775,0.66035473,-0.45958623,1.4162332,-0.75118804,-1.8387113,-0.93546784,2.2229269,1.35507,-1.0472394,1.4808375,-0.81524014,-1.8585498,-0.91429675,2.1638913,1.2941729,-1.0050516,-1.420092,1.3929077,0.29002374,-0.26058465,0.98631084,0.5148774,-0.375378,2.0708427,-0.6224823,1.2496943,-3.0430753,0.1911485,2.5670538,0.2766571,-0.53821564,0.8823058,0.78297615,-0.000853208,0.08304164,0.61648333,-0.78813183,0.40970734,0.73662746,1.0,0.0,0.0,0.0,0.0,0.0,0.0,-2.7208428,0.2224823,-0.69969434,0.8030176,0.81140995,10.504854,-23.879501,0.8218169,0.4030943,0.69165826
36.69512,62.146,21.886492,-5.875189,-1.4138229,-0.0667198,0.79221153,-0.7886247,0.7846968,0.28860888,-0.2574028,0.69294983,0.65973574,-0.4217488,1.401975,-0.73677045,-1.8296889,-0.940037,2.2331862,1.3601464,-1.0472265,1.4666907,-0.8012583,-1.8547447,-0.9182116,2.1737943,1.299296,-1.0087175,-1.4127973,1.4003108,0.4106513,-0.43545532,0.99265915,0.5130893,-0.36390185,2.040432,-0.62057495,1.2746092,-3.0400329,0.1909574,2.4663014,0.2693367,-0.53362274,0.8894761,0.786113,-0.007291185,0.082445905,0.6125158,-0.7081445,0.48076192,0.7061294,1.0,0.0,0.0,0.0,0.0,0.0,0.0,-2.690432,0.22057495,-0.7246092,0.7135153,0.8655548,11.981744,-17.573828,0.9396076,0.28476715,1.0734081
30.804163,63.612724,22.170416,-0.36980152,-0.9139448,0.1168952,0.6567576,-0.7805457,0.78536975,0.35469246,-0.288229,0.6876116,0.6585198,-0.375846,1.3886361,-0.72272134,-1.8192754,-0.9470345,2.2425554,1.365148,-1.0463021,1.4526373,-0.78721833,-1.8496788,-0.9233929,2.1837392,1.3044001,-1.0122404,-1.4028096,1.4057168,0.53805745,-0.54591715,0.99602944,0.51083934,-0.34873763,2.0100517,-0.6186676,1.2985173,-3.0369933,0.19076647,2.36565,0.2626648,-0.5283966,0.8964683,0.78856057,-0.013643994,0.08180218,0.6093393,-0.6466625,0.5434852,0.6919609,1.0,0.0,0.0,0.0,0.0,0.0,0.0,-2.6600518,0.2186676,-0.74851733,1.0072231,0.68097115,12.539566,-11.10757,0.7293105,0.18240213,1.4629543
21.650291,64.75404,22.027346,7.2424364,-0.21752787,0.3955994,0.45745596,-0.7804037,0.785789,0.42233232,-0.26414058,0.684928,0.65748024,-0.30788642,1.374597,-0.70863944,-1.8074455,-0.9498069,2.252232,1.3701481,-1.0430291,1.4386641,-0.7731402,-1.8433311,-0.9290663,2.1936955,1.3094774,-1.0155745,-1.3953965,1.4089544,0.6661426,-0.57462656,0.99728316,0.50781864,-0.3283268,1.979702,-0.61676025,1.3214196,-3.033957,0.19057575,2.265099,0.25639725,-0.5226059,0.9034734,0.7904914,-0.020126589,0.081018634,0.60675704,-0.61294013,0.59521085,0.69789135,1.0,0.0,0.0,0.0,0.0,0.0,0.0,-2.629702,0.21676025,-0.7714196,0.743556,0.47454834,12.5346775,-2.9356122,0.5850673,0.017082691,1.9883215
9.498972,61.688377,19.661758,15.36788,0.52147675,0.5507441,0.1567477,-0.78472656,0.7861458,0.43496487,-0.19792737,0.68029547,0.6581543,-0.2640764,1.3601915,-0.6945256,-1.7998346,-0.94885904,2.2617252,1.3752929,-1.041982,1.4247195,-0.759043,-1.8359745,-0.9343859,2.2036443,1.3145224,-1.0186853,-1.3943174,1.410419,0.757955,-0.51804566,0.99553776,0.5040145,-0.30569357,1.9493828,-0.6148529,1.3433172,-3.0309236,0.19038521,2.1646488,0.2502365,-0.5164566,0.91063935,0.79215103,-0.02690502,0.08006189,0.6044526,-0.6098597,0.6284071,0.7171383,1.0,0.0,0.0,0.0,0.0,0.0,0.0,-2.5993829,0.2148529,-0.79331714,0.07388592,0.30093193,8.904446,5.551219,0.28887987,-0.17248392,2.2009134
2.9981542,56.463192,16.999968,18.497688,0.8226208,0.4854042,-0.011223499,-0.78886217,0.78306234,0.44977883,-0.17354143,0.67694885,0.663497,-0.2501894,1.3458332,-0.6807367,-1.7909966,-0.95174,2.2713392,1.3808721,-1.0437043,1.4107443,-0.74495625,-1.8279655,-0.9388977,2.2135625,1.319533,-1.0215807,-1.3988818,1.4085656,0.81455237,-0.42930388,0.9916917,0.50053775,-0.28437692,1.9190941,-0.61294556,1.364211,-3.0278933,0.19019486,2.0642986,0.24401093,-0.5100479,0.91799015,0.7937177,-0.03401305,0.07896845,0.6021787,-0.61962765,0.64879215,0.73511153,1.0,0.0,0.0,0.0,0.0,0.0,0.0,-2.5690942,0.21294555,-0.81421095,-0.51584244,-0.036668777,5.4223537,8.737105,0.035083294,-0.19671917,2.0650685
-3.4168139,50.393402,13.991183,21.126335,1.1001307,0.39311844,-0.16909087,-0.8016703,0.77856517,0.44745198,-0.11713688,0.6746567,0.6666236,-0.23251912,1.3305773,-0.6670997,-1.7832203,-0.9506114,2.2810283,1.3861953,-1.0448326,1.3966528,-0.73091435,-1.8196628,-0.94235194,2.223431,1.3245112,-1.024272,-1.4127874,1.4031487,0.8348921,-0.31804729,0.9867229,0.4972439,-0.26445666,1.8888359,-0.6110382,1.384102,-3.024866,0.1900047,1.964049,0.23758698,-0.5035553,0.92549455,0.7953323,-0.041423917,0.07779513,0.599732,-0.6412847,0.65595657,0.7493443,1.0,0.0,0.0,0.0,0.0,0.0,0.0,-2.538836,0.2110382,-0.834102,-1.483345,-0.4017353,1.8480778,10.953432,-0.119149685,-0.23569465,1.92132
-2.0591621,49.196075,13.643066,20.172844,0.9686922,0.28705084,-0.16744277,-0.7947817,0.78108764,0.46090722,-0.078985676,0.6735766,0.6655262,-0.21869329,1.3171747,-0.65280557,-1.7735721,-0.9502505,2.2907887,1.3910638,-1.0461413,1.3824621,-0.7169125,-1.8112628,-0.9447266,2.233254,1.3294588,-1.0267763,-1.4212399,1.3995886,0.8410321,-0.21111868,0.981859,0.494329,-0.24613859,1.8586082,-0.6091461,1.4029913,-3.0218418,0.18981473,1.8638994,0.230999,-0.49697876,0.9331151,0.7970238,-0.049103066,0.07658764,0.59705627,-0.6581154,0.66409546,0.76003265,1.0,0.0,0.0,0.0,0.0,0.0,0.0,-2.5086083,0.20914611,-0.8529913,-0.929904,-0.2247572,0.4501462,10.530999,-0.14064312,-0.19596219,1.7622083
0.45839977,45.602486,12.376239,16.845291,0.6606676,0.027331226,-0.12421851,-0.80266374,0.7796543,0.44846797,-0.078068234,0.67452294,0.6689801,-0.24229912,1.3021958,-0.63894707,-1.7664161,-0.9525334,2.3007061,1.3963568,-1.0510062,1.3681818,-0.70294213,-1.8029354,-0.9463049,2.2430387,1.3343855,-1.0291376,-1.4305446,1.3965596,0.8296335,-0.14060968,0.9782347,0.49250123,-0.23296386,1.8284111,-0.607254,1.4208798,-3.0188205,0.18962497,1.7638499,0.22431946,-0.49032593,0.9407406,0.7987653,-0.056927964,0.07542528,0.5941752,-0.66246194,0.6717446,0.7571078,1.0,0.0,0.0,0.0,0.0,0.0,0.0,-2.4784112,0.20725402,-0.8708798,-1.0148048,-0.18584728,-1.2522817,6.8918676,-0.06992817,-0.057536364,1.2532741
6.390796,43.30937,11.923274,11.070246,0.12409258,-0.30093038,0.014713611,-0.80830795,0.780731,0.44641292,-0.119540885,0.67917705,0.6694727,-0.2690884,1.287351,-0.62486905,-1.7582941,-0.958259,2.3109565,1.4013327,-1.0560465,1.35381,-0.688988,-1.7947547,-0.9476553,2.252808,1.3393008,-1.0314074,-1.4398075,1.3954614,0.8141051,-0.13365376,0.9771814,0.4918518,-0.22498535,1.7982445,-0.60536194,1.4377687,-3.0158024,0.18943538,1.6639004,0.21776962,-0.48355865,0.948205,0.80046487,-0.06470661,0.07439868,0.59121394,-0.6442597,0.6833528,0.73671246,1.0,0.0,0.0,0.0,0.0,0.0,0.0,-2.4482446,0.20536193,-0.8877687,-1.0006666,-0.007033348,-1.6097665,0.5520195,0.12925863,0.13093948,0.7422924
11.957578,43.844673,12.722691,7.1011534,-0.26685864,-0.4873973,0.15788364,-0.80351144,0.78125525,0.460055,-0.13612562,0.67681557,0.6656829,-0.23551984,1.2734588,-0.61086243,-1.7487493,-0.9612679,2.3204896,1.405869,-1.0549593,1.3393923,-0.6750338,-1.7866447,-0.94922125,2.262566,1.3442122,-1.0335855,-1.4426931,1.3957362,0.80980086,-0.1646768,0.9760092,0.49162638,-0.21562885,1.7681084,-0.60346985,1.4536588,-3.012787,0.18924597,1.5640508,0.2115326,-0.47664642,0.95540917,0.8020071,-0.07232108,0.07355505,0.58834,-0.6088724,0.7008087,0.7087651,1.0,0.0,0.0,0.0,0.0,0.0,0.0,-2.4181085,0.20346984,-0.9036588,-0.33876896,0.1247406,-0.47168732,-3.2200665,0.092577934,0.22400618,0.88314414
14.65288,43.251755,12.811007,4.7435937,-0.4830024,-0.63730377,0.24470402,-0.8082053,0.7808555,0.4631933,-0.16497955,0.6749541,0.6626286,-0.1981066,1.2585717,-0.59694827,-1.7403253,-0.9657192,2.3300614,1.410475,-1.0533962,1.324948,-0.6610739,-1.7785251,-0.95129263,2.2723088,1.3491217,-1.0356512,-1.4451762,1.3963242,0.8126465,-0.22155243,0.9743988,0.49155164,-0.20375471,1.7380028,-0.60157776,1.4685512,-3.009775,0.18905677,1.4643011,0.205719,-0.46954346,0.9622912,0.8033156,-0.07969147,0.072920986,0.58567554,-0.5634334,0.71963567,0.67517596,1.0,0.0,0.0,0.0,0.0,0.0,0.0,-2.3880029,0.20157775,-0.91855115,-0.2853632,0.15575886,0.24780035,-5.7895956,0.036227703,0.2681136,1.1433572
15.74347,41.943394,12.5640545,3.7135553,-0.55042475,-0.7527647,0.2951371,-0.8063561,0.7769579,0.4653768,-0.19001095,0.6709817,0.66287285,-0.13304384,1.2443123,-0.58337814,-1.7319875,-0.9702937,2.339407,1.415409,-1.0489556,1.3104998,-0.6471274,-1.7703483,-0.9539925,2.2820249,1.3540312,-1.0375586,-1.4447366,1.3945093,0.8191842,-0.28644082,0.97151476,0.49167427,-0.18663691,1.7079277,-0.59968567,1.4824468,-3.0067658,0.18886775,1.3646511,0.20039368,-0.46224213,0.9688184,0.80434984,-0.08677452,0.07250298,0.58329654,-0.513442,0.7366956,0.6390278,1.0,0.0,0.0,0.0,0.0,0.0,0.0,-2.3579278,0.19968566,-0.9324468,0.023269653,-0.08106232,0.60260296,-6.5823317,-0.09205341,0.29899478,1.67346
13.650478,41.30644,12.45994,5.990864,-0.31758904,-0.6956647,0.27093247,-0.80279845,0.7715034,0.47450775,-0.17312972,0.6636039,0.6624324,-0.02978803,1.23022,-0.56997705,-1.7228975,-0.97130543,2.3483853,1.4202745,-1.0405374,1.2960802,-0.6332257,-1.7620666,-0.9571291,2.291699,1.3589388,-1.0392313,-1.4411097,1.389174,0.83075273,-0.3231429,0.9663888,0.49149126,-0.16083962,1.6778831,-0.5977936,1.4953465,-3.0037596,0.18867892,1.2651007,0.19549942,-0.45481873,0.9750392,0.8051161,-0.093627155,0.07226034,0.58120596,-0.47188953,0.7506559,0.61014175,1.0,0.0,0.0,0.0,0.0,0.0,0.0,-2.3278832,0.19779357,-0.94534653,0.34470558,-0.42409897,1.0713577,-3.769511,-0.28841496,0.23865104,2.538869
10.53387,40.31399,11.864115,8.241336,-0.119834125,-0.64564294,0.21941774,-0.81488836,0.7742141,0.4710603,-0.181777,0.66033095,0.66870904,0.06286254,1.2145914,-0.55580425,-1.7149606,-0.9753068,2.357732,1.4258097,-1.032945,1.2816397,-0.6193602,-1.753701,-0.96050894,2.301312,1.3638502,-1.0405931,-1.4451724,1.3860506,0.8381948,-0.34338596,0.96087027,0.4916188,-0.12800018,1.6478691,-0.5959015,1.5072516,-3.0007565,0.18849029,1.1656499,0.19095993,-0.44726562,0.9810052,0.8056542,-0.100305334,0.072188735,0.57935214,-0.4390404,0.7615503,0.5857959,1.0,0.0,0.0,0.0,0.0,0.0,0.0,-2.2978692,0.19590148,-0.9572516,-0.4510641,-0.1978159,0.66177845,-2.1370828,-0.31104088,0.23736954,3.2465577
8.82568,40.204094,11.9622345,10.515217,0.076978326,-0.56977177,0.19989344,-0.8061083,0.7692684,0.4801087,-0.15960744,0.6484321,0.6687455,0.20351274,1.2010288,-0.5424334,-1.7056901,-0.9764697,2.3661551,1.4307247,-1.0202419,1.2671934,-0.6055367,-1.7452476,-0.9638735,2.3108487,1.3687598,-1.0415449,-1.4447794,1.3814763,0.84738994,-0.3345672,0.95203465,0.4915207,-0.08447734,1.6178856,-0.59402466,1.518163,-2.9977565,0.18830183,1.0662985,0.18669128,-0.43959045,0.986785,0.8059814,-0.10688834,0.072261326,0.57770854,-0.4139935,0.77156574,0.5690926,1.0,0.0,0.0,0.0,0.0,0.0,0.0,-2.2678857,0.19402465,-0.96816295,-0.008583069,-0.33566952,0.8139491,0.7608354,-0.6163478,0.18870234,4.30865
4.936346,37.228012,10.563424,13.347343,0.347867,-0.5492448,0.0893783,-0.80776227,0.76464283,0.45509598,-0.12274407,0.63553435,0.6667748,0.27104482,1.1864172,-0.5290724,-1.699738,-0.9761479,2.374402,1.4354372,-1.0144404,1.2527453,-0.59177136,-1.7368419,-0.9669148,2.320271,1.3736655,-1.0420446,-1.4449394,1.3753126,0.8380551,-0.29450312,0.9398287,0.49079365,-0.038648315,1.5879326,-0.5921478,1.5280815,-2.9947593,0.18811357,0.9670463,0.18257904,-0.4318695,0.99243337,0.8061712,-0.11344317,0.072479635,0.5761643,-0.4001658,0.77497965,0.5571248,1.0,0.0,0.0,0.0,0.0,0.0,0.0,-2.2379327,0.19214782,-0.9780815,-0.08933544,-0.49123764,-1.03513,3.8547695,-0.94578266,0.08779764,4.533022
1.4938374,36.45519,10.1597395,16.90405,0.6577947,-0.42669573,-0.0181043,-0.80707777,0.7636345,0.4457565,-0.060630426,0.6341985,0.6669836,0.32174224,1.1720375,-0.5154079,-1.6922662,-0.9729778,2.3836908,1.4403638,-1.0098704,1.2383009,-0.57806134,-1.7285964,-0.9692694,2.3295827,1.3785635,-1.0420904,-1.4447488,1.370026,0.81980413,-0.2163738,0.92945623,0.48966348,0.006413636,1.5580101,-0.590271,1.5370083,-2.991765,0.1879255,0.8678935,0.1785202,-0.4241333,0.9980336,0.80630445,-0.120071344,0.07281554,0.57459,-0.3998107,0.7762547,0.55471003,1.0,0.0,0.0,0.0,0.0,0.0,0.0,-2.2080102,0.19027099,-0.9870083,-0.08196831,-0.3995657,-1.9279003,7.639283,-0.7399082,0.0024676323,4.4485016
1.7837262,34.273624,9.395246,16.04137,0.61073345,-0.538064,-0.02140461,-0.80622125,0.7584479,0.43051112,-0.058244333,0.63285595,0.6648953,0.33645242,1.1576788,-0.5022166,-1.6855453,-0.97509384,2.3928683,1.4450531,-1.0084451,1.2238623,-0.56441426,-1.7205913,-0.9709164,2.3388104,1.3834463,-1.0417242,-1.4439224,1.3634566,0.7939025,-0.14804424,0.9215171,0.48838127,0.046615593,1.5281181,-0.58839417,1.5449442,-2.988774,0.18773761,0.7688398,0.174469,-0.4163971,1.0035785,0.8064098,-0.12676007,0.07326488,0.57294613,-0.3964707,0.775054,0.5482758,1.0,0.0,0.0,0.0,0.0,0.0,0.0,-2.1781182,0.18839416,-0.99494416,-0.014948845,-0.5354881,-2.6725292,6.66205,-0.52068233,-0.011962652,3.9625123
-3.0992575,32.36641,8.5946245,20.867424,1.0616963,-0.35301185,-0.16943675,-0.80886567,0.75074756,0.40957704,0.0612652,0.6248865,0.6611535,0.372732,1.1429757,-0.4893395,-1.6796336,-0.96478987,2.401299,1.4495617,-1.004451,1.209416,-0.55085397,-1.712899,-0.97150195,2.347962,1.3883139,-1.0409765,-1.4452671,1.3540432,0.76049304,-0.029374482,0.9138231,0.48621354,0.083983265,1.4982529,-0.58651733,1.5518904,-2.985786,0.1875499,0.6698851,0.17031479,-0.40870667,1.0091496,0.8065662,-0.13362008,0.07377879,0.5710983,-0.4127419,0.7706814,0.5539111,1.0,0.0,0.0,0.0,0.0,0.0,0.0,-2.148253,0.18651733,-1.0018904,-0.27036667,-0.8165121,-3.426993,11.664266,-0.4631877,-0.16204119,3.6686108
-1.4439688,31.146095,8.228351,18.996265,0.89027697,-0.49043143,-0.14078511,-0.8035314,0.7482722,0.383682,0.06974285,0.6225528,0.65941805,0.3829732,1.1290629,-0.47602674,-1.6745307,-0.96452767,2.4102173,1.4542557,-1.0026792,1.1949793,-0.53738236,-1.7055995,-0.9710461,2.3570447,1.3931586,-1.0398893,-1.4432962,1.3451717,0.7194966,0.070001096,0.9072342,0.48419708,0.116651684,1.4684143,-0.5846405,1.5578477,-2.9828007,0.1873624,0.5710293,0.16605377,-0.401062,1.0147336,0.80678695,-0.14063287,0.07436868,0.5690223,-0.4213169,0.7663221,0.5537719,1.0,0.0,0.0,0.0,0.0,0.0,0.0,-2.1184144,0.1846405,-1.0078478,0.07956028,-0.7736206,-4.1677117,9.752728,-0.38455725,-0.13498068,3.2012
1.4875336,27.090263,6.737311,13.832378,0.5251397,-0.8365558,-0.048676677,-0.81201226,0.7374424,0.35577828,0.030270576,0.62511784,0.6597821,0.36521965,1.1137781,-0.46363813,-1.6700218,-0.968019,2.4195564,1.4591367,-1.0033674,1.1805273,-0.52402806,-1.698756,-0.97005904,2.3660817,1.397988,-1.0385294,-1.4461366,1.3324196,0.672459,0.10772141,0.90316075,0.4829983,0.14231975,1.4386063,-0.5827637,1.5628173,-2.9798183,0.18717508,0.47227243,0.16184616,-0.39348602,1.0201786,0.8070355,-0.1476007,0.07509117,0.5668059,-0.4120084,0.75610954,0.53547794,1.0,0.0,0.0,0.0,0.0,0.0,0.0,-2.0886064,0.18276367,-1.0128174,-0.3791809,-1.1764765,-4.7273993,3.6040976,-0.19825697,0.0041365623,2.511239
8.552379,25.904572,6.350222,4.99442,-0.24022058,-1.342669,0.16119072,-0.812471,0.7378972,0.33107197,-0.07161239,0.62637067,0.6594079,0.36778423,1.0992802,-0.45023835,-1.6656488,-0.9772203,2.4287188,1.4639287,-1.001751,1.1660448,-0.51077676,-1.692395,-0.96944296,2.3750882,1.4028116,-1.0369444,-1.4490204,1.3228933,0.6241934,0.045818284,0.90055305,0.48312524,0.16368282,1.4088287,-0.58088684,1.5668001,-2.9768393,0.18698794,0.3736143,0.15798569,-0.38604736,1.0252507,0.80721456,-0.1541947,0.07607009,0.56466097,-0.36767846,0.74326813,0.49210045,1.0,0.0,0.0,0.0,0.0,0.0,0.0,-2.0588288,0.18088683,-1.0168002,-0.325799,-0.8699894,-4.8047185,-6.307809,-0.14812946,0.24071336,2.099702
11.888347,23.130436,5.1332855,-0.5658059,-0.6782387,-1.740345,0.26210263,-0.8161345,0.73330015,0.28969872,-0.14444588,0.6219383,0.6604873,0.37863746,1.0844314,-0.43744674,-1.6634251,-0.98388755,2.437282,1.4688604,-0.99908066,1.1515242,-0.49761224,-1.686589,-0.9699255,2.3840642,1.407643,-1.0351667,-1.453167,1.3145567,0.56610453,-0.07987656,0.89682376,0.48413503,0.18248178,1.3790817,-0.57902527,1.569797,-2.9738631,0.18680099,0.27505484,0.15473557,-0.3787918,1.0297585,0.8072713,-0.1601323,0.07741629,0.562741,-0.3020712,0.72274566,0.43158707,1.0,0.0,0.0,0.0,0.0,0.0,0.0,-2.0290818,0.17902526,-1.0197971,-0.40307045,-0.75502396,-5.7795763,-12.655178,-0.32390356,0.38363934,1.8630147
12.834153,22.359316,4.9936395,-1.7221231,-0.7414837,-1.8625419,0.30278742,-0.8106903,0.7254151,0.27131394,-0.18413822,0.6164304,0.6532831,0.417769,1.0704552,-0.42507073,-1.6594576,-0.98833936,2.4457073,1.4729713,-0.99338984,1.1369978,-0.48454118,-1.6813247,-0.9717518,2.3929944,1.41248,-1.0331945,-1.4523914,1.3049492,0.51304334,-0.21714899,0.8916416,0.4844845,0.20209627,1.3493652,-0.5771637,1.571809,-2.9708898,0.18661423,0.1765939,0.15217972,-0.3717575,1.0336472,0.8071874,-0.16531362,0.079150766,0.5611194,-0.23173574,0.6990072,0.36942586,1.0,0.0,0.0,0.0,0.0,0.0,0.0,-1.9993652,0.17716369,-1.0218091,0.13384819,-0.87656975,-5.314517,-13.788891,-0.4803419,0.3132224,1.9542247
9.928459,20.725473,4.61724,1.7820296,-0.3909313,-1.7342741,0.22630173,-0.8034069,0.7107143,0.24994528,-0.1803296,0.5952298,0.65744585,0.4574025,1.0566571,-0.41346973,-1.6563302,-0.9897848,2.4525173,1.4782246,-0.9874543,1.122523,-0.47161174,-1.6765487,-0.9746462,2.401814,1.4173189,-1.0310183,-1.445721,1.2892853,0.46560887,-0.31375828,0.87921536,0.48464108,0.22284397,1.3196793,-0.5753021,1.5728372,-2.9679193,0.18642765,0.0782314,0.15021133,-0.36496735,1.0369929,0.80699646,-0.16983718,0.08122042,0.5597458,-0.1756949,0.6732181,0.31799755,1.0,0.0,0.0,0.0,0.0,0.0,0.0,-1.9696792,0.17530212,-1.0228372,0.7236004,-1.4724731,-4.7965646,-9.740144,-1.1671305,0.24111271,2.0590453
7.2697334,17.709276,3.5343108,3.8557725,-0.17951238,-1.6938994,0.15841791,-0.80446035,0.6958077,0.21946354,-0.22251485,0.5554238,0.6622998,0.49082032,1.042077,-0.40203097,-1.6546024,-0.9968977,2.4573565,1.4835489,-0.9819362,1.108111,-0.458884,-1.6722476,-0.9783522,2.4104009,1.4221617,-1.0286303,-1.4395895,1.2675964,0.417964,-0.3898865,0.8522771,0.48487452,0.24408516,1.2900238,-0.57344055,1.5728825,-2.9649522,0.18624125,-0.020032763,0.14874268,-0.35845947,1.0398557,0.8067494,-0.17378896,0.08360623,0.5585361,-0.12879477,0.6436757,0.27093178,1.0,0.0,0.0,0.0,0.0,0.0,0.0,-1.9400238,0.17344055,-1.0228825,0.6611824,-2.0727158,-4.829735,-7.7108145,-2.6061773,0.2138853,2.0996094
6.6491776,18.849365,4.0856137,5.228586,-0.08628753,-1.6154156,0.1410555,-0.80649245,0.6942691,0.2088162,-0.2702693,0.55524796,0.66210103,0.48891175,1.0274618,-0.38945708,-1.651366,-1.0053791,2.4659257,1.4883718,-0.97973907,1.0937372,-0.44634318,-1.6683452,-0.98276293,2.4187436,1.4270064,-1.0260534,-1.4367342,1.2499231,0.3808245,-0.45847744,0.8285077,0.4847936,0.26225066,1.2603989,-0.571579,1.5719459,-2.961988,0.18605505,-0.11819867,0.14772415,-0.352211,1.0422865,0.8064669,-0.17722635,0.08628091,0.5574564,-0.0862442,0.6170625,0.22925659,1.0,0.0,0.0,0.0,0.0,0.0,0.0,-1.9103988,0.17157897,-1.021946,0.31285286,-1.6688585,-3.772527,-6.957465,-2.2759676,0.15375614,1.7920196
8.117907,17.614151,3.7300088,2.5192876,-0.25057942,-1.7868043,0.21297443,-0.80771613,0.681571,0.19442071,-0.37347892,0.54806226,0.6648365,0.49574447,1.0129657,-0.37818608,-1.6489031,-1.0201108,2.4735498,1.49349,-0.976479,1.0793711,-0.43398547,-1.6647594,-0.98812926,2.4268727,1.431851,-1.0233107,-1.4363695,1.2313535,0.35114253,-0.5628116,0.8080466,0.48501956,0.27823776,1.2308044,-0.5697174,1.5700283,-2.9590266,0.18586904,-0.21626644,0.14719772,-0.34625244,1.0442371,0.8061262,-0.18006308,0.08923614,0.556574,-0.03452865,0.5864666,0.17926711,1.0,0.0,0.0,0.0,0.0,0.0,0.0,-1.8808044,0.1697174,-1.0200284,0.111079216,-1.7602682,-3.043741,-10.496319,-1.979208,0.19140244,1.5868187
11.185799,18.822598,4.656132,-0.6277695,-0.53405815,-1.9124004,0.3410082,-0.80051863,0.66750336,0.21436563,-0.47185373,0.51242495,0.66778296,0.5034356,0.99931926,-0.36723512,-1.6433228,-1.0353147,2.4781153,1.4986293,-0.9729671,1.0650355,-0.42183042,-1.6612747,-0.99481165,2.4347386,1.4367014,-1.020421,-1.4320352,1.2105775,0.34721234,-0.7033906,0.7800672,0.48566753,0.2924972,1.2012329,-0.56785583,1.5671308,-2.956068,0.1856832,-0.31423616,0.14727783,-0.34059906,1.0456325,0.80565375,-0.18219711,0.092475496,0.5560346,0.030245446,0.55728245,0.122009374,1.0,0.0,0.0,0.0,0.0,0.0,0.0,-1.8512329,0.16785583,-1.0171309,0.58817863,-1.9763708,-0.53518414,-14.063978,-2.741623,0.24679303,1.432097
10.03526,16.367563,3.7363734,-0.46230555,-0.41131166,-1.963035,0.32022873,-0.79972917,0.6541529,0.19196378,-0.52818877,0.5117903,0.6641851,0.50162035,0.98506254,-0.35641512,-1.6420783,-1.0476305,2.4859176,1.50312,-0.970259,1.0507475,-0.40989804,-1.657851,-1.0029131,2.4423718,1.4415537,-1.0174093,-1.4272107,1.1878488,0.34012514,-0.84566504,0.75771445,0.4856648,0.3042207,1.1716919,-0.56599426,1.5632544,-2.9531124,0.18549755,-0.4121079,0.14799881,-0.3352661,1.0464457,0.8050459,-0.18357997,0.09596125,0.5558694,0.09174249,0.52257687,0.06351219,1.0,0.0,0.0,0.0,0.0,0.0,0.0,-1.8216919,0.16599426,-1.0132544,0.6629467,-2.1732569,-0.8742392,-14.227319,-2.1894455,0.15009642,1.1803985
7.6020136,11.593038,1.8806903,0.43399,-0.266164,-1.9950485,0.2554029,-0.7913263,0.6286405,0.16979998,-0.5839511,0.44213074,0.67027587,0.51500916,0.9716149,-0.34703398,-1.6408709,-1.0613083,2.486585,1.5085813,-0.9659084,1.0365397,-0.39825892,-1.654578,-1.0123545,2.4496274,1.4464098,-1.0142851,-1.4179304,1.156193,0.32250717,-0.97684294,0.7147289,0.4858381,0.314978,1.1421814,-0.5641403,1.5583999,-2.95016,0.18531209,-0.5098818,0.14928436,-0.3303299,1.0466673,0.80435485,-0.18420595,0.09971525,0.5560021,0.14703357,0.4808764,0.004059694,1.0,0.0,0.0,0.0,0.0,0.0,0.0,-1.7921814,0.16414031,-1.0084,1.1350632,-3.0733585,-1.9485533,-13.129723,-4.266989,0.12972951,1.0635614
0.8545306,1.3486803,-2.9880629,3.3637838,0.28431165,-2.085439,0.025587102,-0.7910105,0.6088853,0.06766572,-0.617507,0.4514783,0.66058743,0.50119156,0.95743865,-0.3373704,-1.6478114,-1.0741051,2.4947753,1.5124686,-0.9641659,1.0224138,-0.3869722,-1.6519382,-1.0228945,2.4565244,1.4512545,-1.0110807,-1.4104615,1.1197048,0.24414049,-1.0799521,0.6811946,0.48421395,0.32215044,1.1127014,-0.562294,1.5525684,-2.9472106,0.18512683,-0.607558,0.15098572,-0.325943,1.0462981,0.80375373,-0.18404235,0.10373062,0.5561907,0.18189016,0.41897568,-0.054906424,1.0,0.0,0.0,0.0,0.0,0.0,0.0,-1.7627014,0.162294,-1.0025685,0.91922283,-3.5844088,-7.9280825,-10.386062,-3.4029841,-0.1329124,0.6595135
-2.1860747,-0.52430964,-4.0091915,6.5555105,0.4548767,-1.9522132,-0.09862128,-0.7831067,0.5943737,0.03372384,-0.6408362,0.35366172,0.66242707,0.5060477,0.9441032,-0.32753482,-1.6485658,-1.0869781,2.4918904,1.5174972,-0.960476,1.0083758,-0.37604165,-1.6501987,-1.0342261,2.4628682,1.456082,-1.0078154,-1.4013186,1.0843287,0.15027916,-1.1511209,0.6190982,0.48228157,0.32785615,1.083252,-0.5604477,1.5457609,-2.944264,0.18494174,-0.7051366,0.15295029,-0.32218933,1.0453918,0.8033602,-0.18315981,0.10808016,0.5562224,0.2057742,0.3581805,-0.10674994,1.0,0.0,0.0,0.0,0.0,0.0,0.0,-1.7332519,0.16044769,-0.99576086,1.0398626,-3.4811497,-9.433278,-7.2299957,-6.261122,-0.21045804,0.4759729
-5.9866953,-7.4988,-6.883804,8.150161,0.6296112,-1.9403151,-0.2011717,-0.77717996,0.54925907,-0.021161072,-0.676839,0.211266,0.66461784,0.5040712,0.93065774,-0.32111573,-1.6523148,-1.10191,2.4839947,1.5225438,-0.95740825,0.99443495,-0.36558557,-1.6494873,-1.0461489,2.4682393,1.4608904,-1.0045061,-1.3912276,1.0328474,0.04448444,-1.206539,0.5097515,0.48034924,0.3316771,1.053833,-0.5586014,1.5379784,-2.9413202,0.18475683,-0.80261755,0.15509033,-0.31908417,1.0439596,0.8032572,-0.18160434,0.1128803,0.5559277,0.2199673,0.28979686,-0.1594909,1.0,0.0,0.0,0.0,0.0,0.0,0.0,-1.703833,0.15860137,-0.9879784,1.1455536,-5.115533,-10.606407,-5.6750536,-11.021221,-0.25091767,0.23021102
-14.196773,-26.684542,-15.041723,8.74014,0.9683198,-2.1621962,-0.40555713,-0.7653609,0.45941174,-0.14739543,-0.70163643,-0.053835414,0.666708,0.49277157,0.9178989,-0.3196444,-1.6642268,-1.1163125,2.4628558,1.5275612,-0.9552289,0.9806324,-0.35597444,-1.6501911,-1.0585352,2.4718366,1.4656817,-1.0011778,-1.3757,0.93703467,-0.10863994,-1.2498422,0.30866602,0.478284,0.33223435,1.0244446,-0.55675507,1.5292218,-2.9383793,0.1845721,-0.9000011,0.1572609,-0.31687927,1.0419075,0.8036107,-0.17930701,0.11835817,0.55502254,0.21797208,0.19230722,-0.224276,1.0,0.0,0.0,0.0,0.0,0.0,0.0,-1.6744446,0.15675506,-0.97922176,1.800704,-9.612727,-15.3342085,-4.4727564,-20.316536,-0.3249526,-0.22609234
-26.832157,-57.403286,-27.49775,9.4820175,1.8998756,-2.4677262,-0.6182357,-0.75908357,0.30358514,-0.27057827,-0.7185186,-0.32059038,0.6672351,0.48070222,0.90472406,-0.3256159,-1.677249,-1.1303871,2.4397776,1.5324051,-0.9531076,0.96699965,-0.34793305,-1.6527355,-1.0712763,2.472817,1.47045,-0.99786663,-1.3576328,0.759364,-0.30311006,-1.2826318,0.026642466,0.47569564,0.32927155,0.99508286,-0.55490875,1.519492,-2.9354415,0.18438756,-0.99728733,0.15916061,-0.31602478,1.0390784,0.8046227,-0.1761191,0.12460048,0.553208,0.18126747,0.04529267,-0.3059258,1.0,0.0,0.0,0.0,0.0,0.0,0.0,-1.6450828,0.15490875,-0.969492,2.256298,-17.90539,-19.503578,-3.3842325,-28.56228,-0.46459436,-0.7524729
-44.94706,-102.58723,-44.536,11.774647,3.9787161,-2.7448034,-0.77473193,-0.7518182,0.031646304,-0.3515325,-0.70900524,-0.496238,0.6599288,0.46118703,0.8918178,-0.34476843,-1.6878887,-1.1421769,2.4231932,1.5364429,-0.95174795,0.9535614,-0.3427298,-1.6572368,-1.0841719,2.470818,1.4751822,-0.9946089,-1.3367642,0.43966565,-0.4998786,-1.2918385,-0.27720648,0.47120392,0.32245338,0.96574783,-0.55306244,1.5087901,-2.9325068,0.18420322,-1.0944762,0.16019058,-0.31719208,1.0353119,0.8064522,-0.1718925,0.13115859,0.55035,0.07563942,-0.17537417,-0.40302274,1.0,0.0,0.0,0.0,0.0,0.0,0.0,-1.6157478,0.15306243,-0.9587901,2.8458357,-32.271774,-19.857962,-0.8842468,-30.873697,-0.8001566,-1.3091743
-56.357956,-134.81804,-55.15209,12.917106,5.912067,-2.7841065,-0.6401716,-0.72950643,-0.26543236,-0.34653437,-0.7207205,-0.56280476,0.6500766,0.4850557,0.88061076,-0.36927304,-1.6918902,-1.1562439,2.4145377,1.5401899,-0.94610333,0.94040644,-0.34170985,-1.6632125,-1.0971056,2.4661298,1.4798552,-0.9913988,-1.3048306,-0.012012561,-0.6316768,-1.2928756,-0.5343621,0.46407205,0.3185352,0.9364433,-0.5512161,1.4971172,-2.929575,0.18401906,-1.1915679,0.15972519,-0.32095337,1.030506,0.8090523,-0.16655351,0.13716055,0.54670036,-0.09053352,-0.4451971,-0.5084982,1.0,0.0,0.0,0.0,0.0,0.0,0.0,-1.5864433,0.15121612,-0.94711715,4.257679,-45.59454,-13.618315,0.2401352,-26.203228,-1.2664974,-1.0024846
-47.939198,-122.34841,-45.265774,13.958828,6.3380184,-2.001584,-0.0257503,-0.6953284,-0.50994796,-0.10733119,-0.7295575,-0.5853129,0.6442167,0.51776165,0.8708736,-0.39270464,-1.6739457,-1.1700613,2.4075985,1.5442768,-0.93962264,0.9276768,-0.34560657,-1.6688831,-1.1100394,2.4594388,1.48445,-0.98818016,-1.2591186,-0.51693654,-0.5477331,-1.2916106,-0.7145521,0.4559362,0.32205185,0.90716934,-0.54937744,1.484474,-2.926646,0.18383507,-1.2885625,0.15755081,-0.32712555,1.0247716,0.81194323,-0.16039704,0.1416684,0.5430939,-0.26600325,-0.6738814,-0.59682673,1.0,0.0,0.0,0.0,0.0,0.0,0.0,-1.5571693,0.14937744,-0.93447393,5.557251,-50.895603,7.73232,0.7117748,-18.251156,-1.4647126,0.07247925
-24.277521,-72.03768,-21.111412,12.563071,4.842359,-0.98700446,0.6570343,-0.65372354,-0.62687427,0.1170242,-0.7733326,-0.5742251,0.6257444,0.5124509,0.86230445,-0.408294,-1.6571807,-1.1873726,2.4020164,1.5470244,-0.93693507,0.915506,-0.35399508,-1.6722782,-1.12316,2.4515576,1.4889628,-0.98490524,-1.2010452,-0.9469878,-0.27254596,-1.3170832,-0.81227386,0.44802302,0.32975453,0.8779259,-0.5475464,1.4708616,-2.92372,0.18365127,-1.3854603,0.15402603,-0.3348236,1.0183506,0.8144822,-0.15389928,0.14423308,0.540491,-0.3862455,-0.8004512,-0.65930176,1.0,0.0,0.0,0.0,0.0,0.0,0.0,-1.5279258,0.14754638,-0.92086154,6.4198494,-43.256344,26.802904,-2.0340443,-9.725868,-1.3221741,0.8925855
5.0827093,-10.3968935,6.6866074,10.214589,2.4554462,-0.1639669,1.1894696,-0.50504,-0.6938917,0.25783852,-0.77442497,-0.5967936,0.6029954,0.4782488,0.86500204,-0.42338425,-1.6464943,-1.2006025,2.3918784,1.5492623,-0.9370804,0.90447485,-0.36569715,-1.6723373,-1.1365553,2.4430661,1.4934069,-0.9815664,-1.0701425,-1.2447708,0.081027955,-1.3462888,-0.8603387,0.44256136,0.33663663,0.8487129,-0.54571533,1.4562808,-2.9207966,0.18346764,-1.4822612,0.14997482,-0.34298706,1.0115441,0.81609803,-0.14757897,0.14495924,0.5396214,-0.4182235,-0.8153336,-0.69037634,1.0,0.0,0.0,0.0,0.0,0.0,0.0,-1.4987129,0.14571533,-0.9062808,13.181257,-29.82459,34.753246,-2.7132034,-4.49121,-0.7157445,1.0877728
36.486206,44.668972,31.774813,4.5074854,-0.115096845,0.06819707,1.6350151,-0.18887106,-0.74606216,0.30525917,-0.7542381,-0.6018833,0.62053573,0.4162661,0.88558775,-0.44030336,-1.6418114,-1.2119792,2.3828778,1.5554605,-0.9399398,0.8960501,-0.3794334,-1.6692111,-1.1501166,2.434338,1.4978358,-0.9782057,-0.7687586,-1.4160639,0.38931555,-1.3600802,-0.87519133,0.44349816,0.33756214,0.8195267,-0.5438843,1.4407328,-2.9178762,0.18328422,-1.5789653,0.14635849,-0.35066223,1.004615,0.8163133,-0.14187185,0.1441866,0.54103154,-0.34630498,-0.74576616,-0.6964535,1.0,0.0,0.0,0.0,0.0,0.0,0.0,-1.4695266,0.14388427,-0.8907328,29.473341,-16.98966,30.702103,-1.546979,-0.9693146,0.27424693,0.6078422
48.005455,66.79805,39.10042,2.0983632,-1.4297438,-0.27719402,1.4907343,0.03540774,-0.770638,0.2028188,-0.7216707,-0.6002954,0.638084,0.37504134,0.89959085,-0.4564972,-1.6489292,-1.2222836,2.3743086,1.5616442,-0.94070154,0.8913733,-0.39412618,-1.664336,-1.1635977,2.4255872,1.502297,-0.9748802,-0.37073025,-1.486447,0.5215409,-1.3451599,-0.8735451,0.4477757,0.33226615,0.7903671,-0.5420532,1.4242185,-2.914959,0.18310098,-1.6755726,0.14383698,-0.35753632,0.99768764,0.81509113,-0.13687526,0.14242509,0.54461616,-0.22300418,-0.65862435,-0.6935568,1.0,0.0,0.0,0.0,0.0,0.0,0.0,-1.4403671,0.14205322,-0.8742185,38.774986,-6.871319,13.572812,1.1982918,0.5660176,0.67358613,-0.11520982
30.1068,40.970577,19.916737,2.335643,-0.80186814,-1.4311779,0.60225034,0.14968686,-0.78987247,-0.18069805,-0.7160717,-0.52117795,0.6307258,0.31675518,0.90634197,-0.47311342,-1.6824058,-1.2352049,2.3734694,1.5653696,-0.9432047,0.89052737,-0.40908647,-1.6607444,-1.1768538,2.4171224,1.5067812,-0.9716692,0.0071803136,-1.4991417,0.30778846,-1.3194369,-0.83766544,0.44848052,0.31774572,0.7612381,-0.54022217,1.4067389,-2.9120448,0.18291792,-1.7720834,0.14231491,-0.36413574,0.9905674,0.8131086,-0.132026,0.14022078,0.5493284,-0.12835692,-0.650945,-0.7198685,1.0,0.0,0.0,0.0,0.0,0.0,0.0,-1.4112381,0.14022216,-0.85673887,36.733273,-1.2527943,-20.501661,2.4282694,3.5916924,0.014585257,-1.3277829
15.35479,19.265875,4.930632,2.0815406,-0.020872772,-2.1808977,0.06554408,0.25484523,-0.7991446,-0.38052863,-0.7443312,-0.37877887,0.61475646,0.35367444,0.91601187,-0.48900092,-1.6987973,-1.2512869,2.3792446,1.5682569,-0.93630177,0.8929764,-0.42397094,-1.6606815,-1.1899973,2.4094357,1.5112482,-0.96858025,0.32115698,-1.4851894,-0.090956785,-1.3128003,-0.74621236,0.44507512,0.30596218,0.7321396,-0.5383911,1.3882949,-2.9091334,0.18273504,-1.8684977,0.14149475,-0.37108612,0.98297405,0.8110099,-0.12666179,0.13781865,0.5542795,-0.06498681,-0.7039687,-0.774754,1.0,0.0,0.0,0.0,0.0,0.0,0.0,-1.3821396,0.1383911,-0.8382949,30.493567,1.3079405,-38.88983,0.65784454,8.948887,-0.6015837,-1.1907578
12.462807,14.66508,1.5416696,0.7910967,0.17919984,-2.3607874,-0.01112242,0.39113986,-0.8021906,-0.46774992,-0.77274966,-0.26756075,0.5985838,0.35657614,0.9320904,-0.50418997,-1.7074565,-1.2672722,2.3826797,1.5711067,-0.9329226,0.89820826,-0.43866134,-1.6646888,-1.2032648,2.4029393,1.5156618,-0.9655943,0.58829755,-1.4639872,-0.5012235,-1.33125,-0.6183035,0.4389694,0.2962153,0.7030716,-0.53656006,1.3688875,-2.906225,0.18255234,-1.9648156,0.1412468,-0.378685,0.9747405,0.80901456,-0.120437875,0.13519178,0.55920774,-0.008673589,-0.7713241,-0.8430202,1.0,0.0,0.0,0.0,0.0,0.0,0.0,-1.3530716,0.13656005,-0.81888753,26.017212,2.012539,-40.23788,-1.7953634,12.593889,-0.9493649,-0.97100735
12.889447,20.21013,4.584688,2.1822243,-0.09272498,-1.9472663,0.03540744,0.46001527,-0.7972231,-0.5023189,-0.780891,-0.33588386,0.6105673,0.34289095,0.9442098,-0.5183836,-1.7149208,-1.281354,2.369351,1.5767186,-0.93130517,0.905584,-0.45313478,-1.6720512,-1.2167822,2.3973546,1.5200278,-0.96270084,0.7860822,-1.4420947,-0.8132699,-1.3584812,-0.5388914,0.43472832,0.2871702,0.6740341,-0.534729,1.3485177,-2.9033194,0.18236981,-2.0610368,0.14155579,-0.3867874,0.9658614,0.80708337,-0.11338642,0.1324563,0.56410575,0.048474785,-0.815543,-0.9078019,1.0,0.0,0.0,0.0,0.0,0.0,0.0,-1.3240341,0.134729,-0.79851764,19.374407,2.1062374,-30.785679,-2.6489735,7.8082204,-0.72265863,-0.86404085
11.457361,26.479235,8.153029,6.1388416,-0.25777066,-1.3205514,0.040665634,0.4897011,-0.78803164,-0.55012745,-0.77069116,-0.42167586,0.6303983,0.3548609,0.9545541,-0.53193796,-1.7270639,-1.2938514,2.355187,1.5830675,-0.92721474,0.91436064,-0.4673965,-1.6817062,-1.2304922,2.392056,1.5243765,-0.95987797,0.90767246,-1.4210554,-1.015714,-1.3748305,-0.52682585,0.43409157,0.28074506,0.64501953,-0.5329132,1.3271862,-2.9004166,0.18218747,-2.157162,0.14236832,-0.3950882,0.9564407,0.8051408,-0.10573243,0.12983987,0.56895554,0.09875165,-0.8303469,-0.9593639,1.0,0.0,0.0,0.0,0.0,0.0,0.0,-1.2950195,0.1329132,-0.7771862,12.020588,2.041006,-20.12515,-1.5440226,1.1039495,-0.2769351,-0.60265064
10.190586,32.26907,11.981292,9.953666,-0.27246302,-0.68849814,0.08938568,0.4997054,-0.78751457,-0.5518432,-0.77288467,-0.46528894,0.6404488,0.3656468,0.9643312,-0.54614794,-1.7368906,-1.3077807,2.3455272,1.5884213,-0.92331326,0.9238459,-0.48150134,-1.6925228,-1.2443091,2.386559,1.5287348,-0.9571018,0.9623306,-1.4071292,-1.1039474,-1.3837727,-0.557546,0.43601128,0.27672598,0.61603546,-0.5310974,1.3048943,-2.8975167,0.18200533,-2.253191,0.14361572,-0.40335083,0.94662577,0.8030944,-0.09775182,0.12746541,0.5737913,0.13937795,-0.8183353,-0.99546933,1.0,0.0,0.0,0.0,0.0,0.0,0.0,-1.2660354,0.1310974,-0.7548943,5.5127263,1.3459206,-8.919692,-0.8000374,-3.1564474,0.065761805,-0.35747886
5.6002245,33.05374,12.900191,14.046633,0.06487417,-0.1698523,0.07107299,0.46883154,-0.7936085,-0.54392534,-0.77574563,-0.47703505,0.63769686,0.3800183,0.97072905,-0.5608622,-1.7469153,-1.3218837,2.3388555,1.5925045,-0.9191,0.9333731,-0.49555135,-1.7035911,-1.2581774,2.3806577,1.533116,-0.95434856,0.9502727,-1.4044676,-1.1083932,-1.3874305,-0.6012487,0.43853658,0.27510402,0.5870819,-0.5292816,1.2816429,-2.8946197,0.18182337,-2.349124,0.14512253,-0.41140747,0.9365447,0.800908,-0.08965653,0.1253184,0.5786218,0.15995201,-0.7936897,-1.0189945,1.0,0.0,0.0,0.0,0.0,0.0,0.0,-1.2370819,0.12928161,-0.7316429,-0.9973526,0.2150774,-0.6820202,-0.23851395,-4.483056,0.18975139,-0.118768215
0.53062725,31.879179,12.468192,17.4684,0.59300625,0.18547787,0.029939607,0.4297876,-0.7984855,-0.5312945,-0.77558064,-0.42714253,0.628419,0.39315656,0.97635186,-0.5753999,-1.7567205,-1.3357354,2.3379433,1.5959579,-0.9150329,0.9424168,-0.5096397,-1.7143428,-1.2720515,2.3745122,1.5375162,-0.9515953,0.8900923,-1.4104524,-1.0650407,-1.386874,-0.6197928,0.4405096,0.2756013,0.5581589,-0.5274658,1.2574328,-2.8917255,0.1816416,-2.444961,0.14665604,-0.41921234,0.92629963,0.79860115,-0.081576355,0.12323391,0.58343375,0.15825406,-0.76734143,-1.0328441,1.0,0.0,0.0,0.0,0.0,0.0,0.0,-1.2081589,0.12746581,-0.7074328,-5.701506,-0.6602287,4.02236,0.22017956,-2.0034552,0.185287,0.10960102
-7.665817,27.366238,9.241404,20.862947,1.1998718,0.4167873,-0.11704916,0.3470437,-0.8002221,-0.5299316,-0.7783658,-0.4043472,0.612151,0.3887759,0.9771212,-0.5896619,-1.767336,-1.3498881,2.3340774,1.5987313,-0.9127177,0.9504658,-0.5238113,-1.7245891,-1.285916,2.3683286,1.5419222,-0.9488392,0.777977,-1.4196808,-1.0125543,-1.3856076,-0.6185128,0.44074577,0.27586317,0.52926636,-0.52565,1.2322651,-2.8888342,0.18146,-2.5407023,0.14798355,-0.42679596,0.91593945,0.79628795,-0.073534876,0.12108274,0.588096,0.13020384,-0.74901193,-1.0433775,1.0,0.0,0.0,0.0,0.0,0.0,0.0,-1.1792663,0.12565002,-0.6822651,-10.770214,-1.0085106,4.8828125,0.35600662,-0.082850456,0.03273487,0.074738264
-9.304262,26.930773,8.688899,21.115389,1.4110833,0.44403613,-0.12833327,0.3153023,-0.7998152,-0.5245819,-0.78640056,-0.35111254,0.5878593,0.4100408,0.98199606,-0.6037928,-1.7770473,-1.3645561,2.3332174,1.6007081,-0.9078351,0.9573723,-0.538063,-1.73437,-1.2998034,2.36237,1.546311,-0.94606304,0.66297436,-1.4273547,-0.9677807,-1.389002,-0.58914864,0.43828282,0.2784495,0.5003967,-0.5238342,1.2061408,-2.8859458,0.18127857,-2.6363478,0.14899445,-0.43424225,0.9054709,0.79402405,-0.06549706,0.118735485,0.5925689,0.09558632,-0.73547465,-1.053894,1.0,0.0,0.0,0.0,0.0,0.0,0.0,-1.1503967,0.12383422,-0.65614074,-11.056316,-0.8571625,4.114032,-0.09407997,2.7210355,-0.23759604,0.32528043
-12.913601,25.079811,6.965231,22.053446,1.5535119,0.5039074,-0.20909068,0.24345437,-0.8039789,-0.52120095,-0.78282404,-0.3787913,0.5906137,0.40882015,0.98171777,-0.6184609,-1.7864901,-1.3780857,2.3244908,1.6053724,-0.90518105,0.96305335,-0.55239004,-1.743819,-1.313708,2.356629,1.550677,-0.9432621,0.53804195,-1.4348341,-0.9385026,-1.3901929,-0.56998336,0.43590465,0.28075686,0.47155762,-0.52201843,1.1790606,-2.8830602,0.18109733,-2.7318978,0.14959335,-0.4416046,0.8948833,0.79187286,-0.05743113,0.11620124,0.5967714,0.05281319,-0.7265006,-1.0659108,1.0,0.0,0.0,0.0,0.0,0.0,0.0,-1.1215576,0.12201843,-0.62906057,-12.033343,-0.84939003,2.5727034,0.15628338,1.6824126,-0.2404511,0.2837658
-17.760458,21.839212,3.855817,22.83662,1.6542416,0.48133343,-0.34133112,0.16544159,-0.8019289,-0.5576504,-0.779644,-0.4248334,0.5745509,0.40599498,0.9795975,-0.6325829,-1.799584,-1.3916724,2.3141456,1.608132,-0.9026626,0.9674202,-0.56676286,-1.7532661,-1.327603,2.3508916,1.5550066,-0.94044495,0.40452105,-1.438454,-0.9479815,-1.3881599,-0.57596046,0.43177956,0.28213504,0.44274902,-0.52020264,1.1510257,-2.880178,0.18091626,-2.827352,0.14970398,-0.44891357,0.8841297,0.7899478,-0.049255114,0.11362058,0.60053873,0.0019566102,-0.72570366,-1.0837075,1.0,0.0,0.0,0.0,0.0,0.0,0.0,-1.092749,0.12020263,-0.60102564,-12.874168,-0.48589706,-1.2719393,0.52216053,-0.8738518,-0.4536271,0.15125275
-18.483208,23.604406,4.295988,22.811825,1.4647783,0.5852948,-0.3475103,0.09366754,-0.79914606,-0.5425976,-0.7828016,-0.49509522,0.5862408,0.4253117,0.976787,-0.6466775,-1.8075259,-1.4058832,2.301382,1.6136307,-0.89791375,0.9704367,-0.58113855,-1.7628257,-1.3414866,2.3448377,1.5593058,-0.93760204,0.2690028,-1.4377229,-0.9596597,-1.3874258,-0.6161901,0.4290577,0.28494203,0.41397095,-0.5183945,1.1220369,-2.8772986,0.18073538,-2.922711,0.14933395,-0.45619202,0.8731923,0.7882769,-0.04095387,0.11116822,0.6038077,-0.047226544,-0.7195472,-1.1020786,1.0,0.0,0.0,0.0,0.0,0.0,0.0,-1.0639709,0.118394464,-0.5720369,-13.077086,-0.053048134,-1.4915705,0.39966106,-4.3055654,-0.3227532,0.27396083
-42.788,7.159797,-9.090651,29.149757,2.720924,0.79097354,-0.8394869,-0.15644398,-0.8056346,-0.63550824,-0.78665733,-0.52570146,0.51599354,0.38479117,0.9547923,-0.66170204,-1.8263766,-1.4201523,2.2922676,1.6109052,-0.89912295,0.97128356,-0.5955314,-1.7729404,-1.355374,2.3382802,1.5635229,-0.9347677,0.025676336,-1.4405514,-1.0298429,-1.3872975,-0.6708115,0.4187647,0.28257442,0.38521957,-0.51659393,1.0920953,-2.874422,0.18055467,-3.0179744,0.14802933,-0.4636383,0.8619661,0.7872179,-0.032322463,0.10896932,0.60610956,-0.15623389,-0.74628574,-1.1342092,1.0,0.0,0.0,0.0,0.0,0.0,0.0,-1.0352196,0.11659393,-0.54209524,-23.606508,-0.51937103,-7.379639,0.55294037,-5.9503913,-1.1860013,-0.33761263
-55.430004,2.3154283,-14.050016,32.739937,3.500617,1.1239779,-1.024187,-0.33055022,-0.80415326,-0.6456764,-0.7959874,-0.48327148,0.4911067,0.38134608,0.93822855,-0.6759467,-1.8375081,-1.4349728,2.289953,1.6126336,-0.8966331,0.9692427,-0.6099481,-1.783776,-1.3692995,2.3313603,1.567618,-0.931962,-0.27773196,-1.4431252,-1.1028733,-1.3920578,-0.70078045,0.4056556,0.27953383,0.3564949,-0.5147934,1.0612017,-2.8715484,0.18037415,-3.113143,0.14535904,-0.47144318,0.85040396,0.78702915,-0.023239397,0.10694414,0.6071309,-0.30185974,-0.78253865,-1.1683378,1.0,0.0,0.0,0.0,0.0,0.0,0.0,-1.0064949,0.11479339,-0.5112017,-29.46798,-0.5704403,-7.7088833,0.19860268,-3.6060095,-1.545155,-0.41291118
-52.758106,5.722868,-11.799086,31.159395,3.450274,1.221026,-0.917491,-0.40850896,-0.8104752,-0.6648608,-0.8002193,-0.4564178,0.4882095,0.35554004,0.9283918,-0.69099563,-1.8502622,-1.4493215,2.2857184,1.616439,-0.896408,0.9643694,-0.6244163,-1.795285,-1.3832918,2.3243299,1.5715853,-0.9292021,-0.5544328,-1.4492291,-1.1682436,-1.3990983,-0.70589477,0.39284828,0.27470753,0.32780075,-0.51299286,1.0293572,-2.8686776,0.1801938,-3.2082162,0.14126968,-0.47956085,0.8385016,0.78768456,-0.013705833,0.1049031,0.606927,-0.44485152,-0.81225544,-1.2023727,1.0,0.0,0.0,0.0,0.0,0.0,0.0,-0.9778007,0.11299285,-0.47935718,-26.848185,-0.94065666,-6.921935,-0.006198883,-1.1209846,-1.5732169,-0.5379319
-45.778816,11.6848545,-7.4520636,28.476192,3.121966,1.2531357,-0.74114287,-0.4907123,-0.8151854,-0.69362897,-0.7966241,-0.44458157,0.47078478,0.36770037,0.91529816,-0.7059348,-1.8646479,-1.4629543,2.2798717,1.6186638,-0.89243203,0.9570967,-0.63896173,-1.8073928,-1.397328,2.3173604,1.5754248,-0.9264736,-0.78256065,-1.4573202,-1.2258545,-1.4028652,-0.69559383,0.37980166,0.27213222,0.29913712,-0.5111923,0.9965626,-2.8658097,0.18001363,-3.3031945,0.13586807,-0.48791504,0.82627463,0.7890319,-0.0037763463,0.10269127,0.605697,-0.5729594,-0.83026534,-1.2342178,1.0,0.0,0.0,0.0,0.0,0.0,0.0,-0.9491371,0.111192316,-0.4465626,-22.103273,-1.1265755,-6.096697,0.2903223,0.47305822,-1.6201138,-0.26202202
-41.79556,18.005865,-3.6698823,27.132473,2.878965,1.4203104,-0.65139467,-0.6121508,-0.8085766,-0.71066886,-0.79975575,-0.42586198,0.46353903,0.31926247,0.8958816,-0.71981937,-1.8784597,-1.4773036,2.2747743,1.6217787,-0.89454734,0.94771254,-0.65354246,-1.8199775,-1.4114004,2.3105779,1.5791403,-0.92380047,-0.9881434,-1.4593875,-1.2702461,-1.406516,-0.6744169,0.36778307,0.2658016,0.27050018,-0.5093918,0.962819,-2.8629446,0.17983364,-3.3980777,0.1292572,-0.4963379,0.813768,0.79095614,0.006475208,0.100211665,0.60357594,-0.6929064,-0.83469594,-1.260943,1.0,0.0,0.0,0.0,0.0,0.0,0.0,-0.92050016,0.10939178,-0.41281897,-19.918072,-0.5146742,-4.7452927,0.27563572,1.5897393,-1.5229821,-0.6031096
-35.95498,24.82459,0.9879885,25.528334,2.608907,1.5754211,-0.5558657,-0.69418484,-0.808432,-0.7155485,-0.79472774,-0.37672076,0.48299634,0.20091185,0.87829405,-0.73438567,-1.8915324,-1.4908732,2.2729058,1.62744,-0.9037093,0.93651354,-0.6681213,-1.8328693,-1.4254767,2.3041425,1.5827643,-0.9212723,-1.1620127,-1.458389,-1.2963157,-1.4060655,-0.63465273,0.3597764,0.2486361,0.24188995,-0.50759125,0.9281272,-2.8600824,0.17965385,-3.492866,0.121543884,-0.50471497,0.80105036,0.793358,0.016929572,0.0973525,0.6006819,-0.8013016,-0.8251132,-1.2801538,1.0,0.0,0.0,0.0,0.0,0.0,0.0,-0.8918899,0.10759124,-0.37812722,-16.846561,-0.18053055,-2.8727055,0.6280422,3.5130024,-1.0958135,-1.6398072
-29.407007,31.408941,5.859453,24.058876,2.4651008,1.6962463,-0.50448084,-0.7537886,-0.80827945,-0.71106774,-0.7848319,-0.2519047,0.49667972,-0.07032029,0.8611347,-0.7489492,-1.9039761,-1.5039599,2.2789521,1.6324322,-0.9283043,0.92384493,-0.6826791,-1.8458717,-1.4394957,2.2984471,1.5863348,-0.9191103,-1.3003812,-1.4556786,-1.3023715,-1.3989806,-0.54928005,0.35526282,0.20582882,0.21331024,-0.5057907,0.8924883,-2.857223,0.17947425,-3.5875597,0.112831116,-0.5129242,0.7882115,0.796182,0.027433528,0.093889214,0.5970984,-0.8986959,-0.8050362,-1.2897481,1.0,0.0,0.0,0.0,0.0,0.0,0.0,-0.8633102,0.105790704,-0.3424883,-13.411331,0.029039383,-0.81932545,1.2095451,8.166683,-0.7087827,-4.141301
-22.658821,36.995712,10.35804,22.807892,2.4256608,1.7475945,-0.4494841,-0.7902367,-0.8086092,-0.70664424,-0.76433647,-0.078591466,0.49850774,-0.28108138,0.8448213,-0.76354,-1.9165361,-1.5159293,2.290588,1.6361856,-0.9472184,0.910092,-0.6972093,-1.8588321,-1.4533526,2.2940526,1.589873,-0.91751575,-1.3991722,-1.4528004,-1.2942964,-1.3798662,-0.4032715,0.35265964,0.14465871,0.18476105,-0.5039902,0.85590315,-2.8543665,0.17929482,-3.6821587,0.10321808,-0.5208893,0.77534926,0.79939014,0.037834454,0.08953181,0.5928979,-0.9858785,-0.7794742,-1.2893358,1.0,0.0,0.0,0.0,0.0,0.0,0.0,-0.834761,0.10399017,-0.30590314,-9.569836,0.08993149,0.6555319,2.320981,14.336067,-0.47373772,-5.91681
-15.52508,42.797188,14.863327,21.531683,2.3807938,1.7675132,-0.37164646,-0.80689114,-0.7980911,-0.70317185,-0.7429657,0.14411542,0.53891355,-0.38569495,0.82940286,-0.7770184,-1.9291493,-1.5276492,2.308464,1.6437643,-0.95608526,0.8956543,-0.7116651,-1.871661,-1.4669386,2.2916417,1.5934225,-0.9165697,-1.4580398,-1.4436013,-1.2794802,-1.3504516,-0.18785532,0.35528103,0.07872936,0.15623856,-0.5022049,0.8183727,-2.851513,0.17911558,-3.776663,0.09282303,-0.52858734,0.76256335,0.8029333,0.047982328,0.08397157,0.58817047,-1.0619606,-0.7500305,-1.2791574,1.0,0.0,0.0,0.0,0.0,0.0,0.0,-0.80623853,0.10220489,-0.2683727,-5.6878805,0.7701397,1.3998032,3.2454014,21.385845,0.092339516,-6.3423767
-10.568124,45.98736,17.2498,19.83542,2.1403816,1.7047092,-0.31685254,-0.8222976,-0.78810745,-0.7123252,-0.7299131,0.2759076,0.5417917,-0.42788818,0.8134246,-0.79047585,-1.9428935,-1.5399299,2.3192325,1.6476017,-0.9593585,0.8808361,-0.7259874,-1.8843944,-1.4802138,2.2915082,1.5970064,-0.916255,-1.4892547,-1.4288278,-1.271358,-1.3191886,0.04450512,0.35883978,0.016546525,0.12774277,-0.5004196,0.779898,-2.8486621,0.17893651,-3.8710728,0.08175659,-0.5359802,0.749887,0.8067567,0.057815097,0.07711424,0.5829704,-1.1257824,-0.7178433,-1.2678063,0.0,1.0,0.0,0.0,0.0,0.0,0.0,-0.77774274,0.10041961,-0.22989798,-2.9895544,1.3576746,0.7805824,3.3663034,23.151308,0.20621419,-5.9718227
-6.489746,46.695606,17.896442,17.031364,1.489697,1.5545497,-0.2696727,-0.8247246,-0.7819556,-0.7368843,-0.7240506,0.25022173,0.552549,-0.44852304,0.7983637,-0.80418295,-1.9580828,-1.5526189,2.3165305,1.6522614,-0.9611073,0.86592615,-0.74008155,-1.897996,-1.4935672,2.2919917,1.6020367,-0.9161011,-1.4904029,-1.4035672,-1.3893127,-1.3386137,0.0474146,0.5352656,0.0072443327,0.1085701,-0.500618,0.774889,-1.6986556,-0.022598334,0.58590096,0.07021332,-0.54281616,0.7369576,0.8106496,0.067108095,0.069901355,0.57745785,-1.1662636,-0.6569806,-1.3047959,0.0,1.0,0.0,0.0,0.0,0.0,0.0,-0.7585701,0.100617975,-0.22488898,-0.50382614,1.4596224,-1.5830278,3.166914,16.480225,0.050127506,-5.4662824
67.74907,176.0,110.0,110.0,-3.7095203,11.30339,-0.93615204,-0.797347,0.55917406,0.64006424,0.73327154,-0.25103253,0.6780176,-0.41793594,0.78619146,-0.68416417,-1.8339895,-1.42024,2.2668884,1.6698384,-0.9578947,0.8565887,-0.7537534,-1.9108629,-1.494004,2.2821155,1.6174786,-0.9149786,-0.7533946,-1.354001,-1.2449323,0.38278252,-1.3268957,1.8898495,0.14247966,0.09159851,-0.50084686,0.7800071,-1.6969573,-0.022575742,0.4871292,0.0591774,-0.54722595,0.72830343,0.81467,0.06635642,0.068872474,0.5719843,-1.0847048,-0.35115957,-0.72045803,1.0,0.0,0.0,0.0,0.0,0.0,0.0,-0.7415985,0.10084686,-0.23000711,72.14427,5.2574635,16.677929,170.58032,-135.74815,138.29126,12.104614
-24.52491,134.68027,60.192112,97.6787,3.539135,5.4023757,-1.7676003,-0.83056116,-0.5203006,-0.298304,0.77128863,-0.5925799,0.51820755,-0.16186199,0.7735326,-0.8057835,-1.9406934,-1.4168751,2.2228575,1.6692994,-0.9311648,0.84909,-0.7660577,-1.9211035,-1.4830463,2.2669368,1.6363137,-0.91370165,-0.7475922,-1.1908739,-0.9477898,1.334057,-1.5837225,1.8863972,0.12163746,0.07464218,-0.50107574,0.7841383,-1.6952608,-0.022553172,0.38845623,0.047657013,-0.5502701,0.7242006,0.8196934,0.05904285,0.07190335,0.5651959,-1.1723887,-0.27850077,-0.31169686,1.0,0.0,0.0,0.0,0.0,0.0,0.0,-0.72464216,0.10107574,-0.23413831,0.88608265,15.81471,30.460907,95.315445,-26.320124,1.1861801,-2.3994656
-42.006165,137.92738,46.623627,77.17139,2.992917,4.060776,-1.6805004,-0.8097864,-0.17085151,-0.54351693,0.75408286,-0.6412364,0.5787111,0.26864842,0.76811135,-0.78314286,-1.9754552,-1.407638,2.2028131,1.6941848,-0.8868368,0.8403009,-0.77521014,-1.9297495,-1.4660442,2.2512126,1.6540368,-0.912418,-0.92046416,-0.8254735,-0.83713394,1.8231654,-1.5709702,1.737647,0.12907858,0.05770111,-0.5013046,0.78727555,-1.6935658,-0.022530625,0.2888167,0.035255432,-0.55249786,0.7233442,0.8258414,0.04954224,0.07721992,0.5563889,-1.2612022,-0.19438303,-0.017675474,1.0,0.0,0.0,0.0,0.0,0.0,0.0,-0.7077011,0.10130462,-0.23727554,-16.642262,35.906063,11.060274,49.170258,0.52280426,-13.886833,0.28223395
-49.246025,97.91267,23.625492,49.442142,2.7344768,2.385024,-1.2109084,-0.81233853,-0.2160707,-0.5619151,0.7928992,-0.65096,0.570781,0.1486578,0.75906706,-0.7968172,-1.985941,-1.3867543,2.1861167,1.7111149,-0.89755225,0.8292793,-0.78127265,-1.938077,-1.4469631,2.236713,1.6698811,-0.91115725,-1.1611415,-0.53485763,-0.83203906,1.9372052,-1.4113119,1.5345347,0.123978086,0.0407753,-0.5015335,0.78941715,-1.6918726,-0.0225081,0.18927677,0.021961212,-0.5540619,0.7242151,0.83278453,0.040088475,0.08374965,0.5457552,-1.350852,-0.13578929,0.114907406,1.0,0.0,0.0,0.0,0.0,0.0,0.0,-0.6907753,0.1015335,-0.23941714,-23.60797,28.56263,0.28856993,11.613965,15.436792,-19.924522,-0.8337125
-42.715134,59.18858,6.9693303,25.969542,1.9176369,0.97142184,-0.68758345,-0.8210954,-0.23772593,-0.6226738,0.7923398,-0.66600794,0.60799474,0.08281819,0.74716973,-0.80504525,-2.0003443,-1.3677291,2.1701121,1.7306806,-0.9028754,0.81613576,-0.78534865,-1.947053,-1.4283359,2.223888,1.6838219,-0.9099928,-1.3646455,-0.36616635,-0.919959,1.8382628,-1.2403104,1.3474965,0.113159925,0.023872375,-0.5017624,0.79056406,-1.690181,-0.022485597,0.08983638,0.007938385,-0.55526733,0.7254349,0.8401381,0.032014363,0.090624526,0.53378856,-1.4186996,-0.10428453,0.11891278,1.0,0.0,0.0,0.0,0.0,0.0,0.0,-0.67387235,0.101762384,-0.24056405,-20.142197,16.563808,-8.937872,-9.791279,16.776203,-18.641258,-1.3267905
-29.796486,30.59723,-0.9408223,10.752296,1.2908231,0.025107026,-0.23614159,-0.8250344,-0.280662,-0.62648135,0.7904539,-0.6449885,0.60021544,-0.026700586,0.7336323,-0.8134149,-2.009701,-1.3492905,2.159389,1.7438434,-0.91266286,0.8015188,-0.7887418,-1.9570055,-1.4112537,2.212585,1.6960785,-0.9090096,-1.4938091,-0.33088794,-1.0202423,1.6649827,-1.0945112,1.1847802,0.09297102,0.0069847107,-0.5019913,0.7907173,-1.6884912,-0.022463117,-0.009504592,-0.006587982,-0.55636597,0.726133,0.8475817,0.02581027,0.09721365,0.52104574,-1.463131,-0.097589195,0.049635418,1.0,0.0,0.0,0.0,0.0,0.0,0.0,-0.6569847,0.101991266,-0.24071729,-12.842202,3.3804297,-10.05932,-17.26463,14.322948,-16.335869,-2.1476195
-19.075188,13.336239,-3.7106352,3.9445398,1.0390708,-0.44741678,0.036296327,-0.83024466,-0.33762464,-0.6310413,0.7927425,-0.62352765,0.6085801,-0.065422624,0.71849436,-0.8225043,-2.0201097,-1.3319794,2.1502323,1.7569366,-0.91555184,0.78614175,-0.79256606,-1.9678087,-1.3957736,2.202457,1.7069142,-0.90824187,-1.5522077,-0.3998034,-1.1002101,1.5094491,-0.9864446,1.0493798,0.07137583,-0.009887695,-0.50222015,0.7898779,-1.6868031,-0.022440659,-0.108746246,-0.02147293,-0.55752563,0.7259068,0.85491866,0.02140817,0.103104666,0.50796163,-1.4953649,-0.10887749,-0.04929482,1.0,0.0,0.0,0.0,0.0,0.0,0.0,-0.6401123,0.10222015,-0.23987788,-5.7907104,-6.944835,-7.9817057,-15.44807,10.608673,-13.6289835,-2.1801143
-9.741586,13.312141,-0.22084284,3.3293004,0.73676723,-0.49550557,0.16718079,-0.82428104,-0.35362956,-0.64445066,0.79619384,-0.6362656,0.59507465,-0.030498892,0.70371366,-0.827929,-2.0322537,-1.3161542,2.1388304,1.7664217,-0.9112918,0.770594,-0.7973325,-1.9792147,-1.3814266,2.19305,1.7165635,-0.90764296,-1.5555998,-0.5024629,-1.1537808,1.4103128,-0.9260327,0.93652666,0.056036938,-0.026744843,-0.50244904,0.7880468,-1.6851166,-0.022418223,-0.20788868,-0.03656006,-0.55882263,0.72475356,0.862039,0.018481044,0.1082647,0.4947987,-1.5121105,-0.12084695,-0.13951086,1.0,0.0,0.0,0.0,0.0,0.0,0.0,-0.62325513,0.10244903,-0.23804677,-0.31952858,-10.303253,-5.282259,-9.792662,5.8521867,-11.349428,-1.531636
-5.600188,17.260597,3.252882,5.4209557,0.73632824,-0.34335858,0.1517769,-0.8238164,-0.39212564,-0.65082264,0.79355294,-0.6096913,0.5969727,-0.11390146,0.68821234,-0.8365451,-2.044297,-1.3020713,2.1320808,1.7762607,-0.9190331,0.75521314,-0.8031938,-1.9909601,-1.3676612,2.1840777,1.7252343,-0.9072367,-1.5322546,-0.6142298,-1.1810738,1.3658143,-0.88790435,0.8438623,0.035501648,-0.04358673,-0.5026779,0.78522503,-1.6834319,-0.02239581,-0.306932,-0.05177307,-0.5601883,0.72283006,0.8689284,0.016647935,0.11276752,0.48163244,-1.524447,-0.12888962,-0.21207474,1.0,0.0,0.0,0.0,0.0,0.0,0.0,-0.60641325,0.10267791,-0.23522502,2.338338,-11.227476,-2.6054382,-4.3084145,3.625071,-9.325671,-2.0366304
-6.2723184,20.614975,4.79414,8.158951,0.8934738,-0.13555121,0.086720794,-0.8280478,-0.4429891,-0.66122967,0.79257125,-0.59163314,0.5969149,-0.14570281,0.67240834,-0.8474927,-2.0570831,-1.2884041,2.1249144,1.7849257,-0.921807,0.7400907,-0.81016517,-2.0028667,-1.3540466,2.1753917,1.733104,-0.9070412,-1.5054784,-0.7250564,-1.1935543,1.360751,-0.862698,0.76774424,0.014232582,-0.06040573,-0.5029068,0.7814136,-1.6817487,-0.02237342,-0.4058763,-0.0671463,-0.56160736,0.72028697,0.87562114,0.015608875,0.11669378,0.46842968,-1.541412,-0.13175637,-0.27071446,1.0,0.0,0.0,0.0,0.0,0.0,0.0,-0.58959424,0.10290679,-0.2314136,2.691269,-11.158514,-1.1015415,-0.32606125,2.339518,-7.680917,-2.0999024
-6.42817,26.039822,6.795892,9.840383,0.875947,0.07003236,0.05414468,-0.8226271,-0.47773543,-0.6684224,0.78464043,-0.583178,0.5921919,-0.15830404,0.65782803,-0.8579387,-2.069709,-1.2755826,2.1170738,1.7923232,-0.9228716,0.7252172,-0.8181217,-2.014845,-1.3403671,2.1668887,1.7403119,-0.9070488,-1.4812336,-0.819543,-1.1983474,1.3711233,-0.8465158,0.7048729,-0.005775844,-0.07720947,-0.5031357,0.7766135,-1.6800673,-0.02235105,-0.5047217,-0.082675934,-0.562973,0.7172444,0.8821357,0.015179547,0.120161474,0.45515648,-1.5570297,-0.12599273,-0.3178639,1.0,0.0,0.0,0.0,0.0,0.0,0.0,-0.5727905,0.103135675,-0.22661346,2.430129,-9.551001,-0.3021717,1.2202263,1.4162302,-6.3574314,-1.9905928
-8.052029,29.713165,7.506401,11.086887,0.8712407,0.24813151,0.025066897,-0.8212248,-0.51622015,-0.6782961,0.7858817,-0.58761066,0.60604876,-0.14874549,0.6430947,-0.8697437,-2.0826745,-1.261779,2.1081276,1.8009168,-0.9219234,0.7105259,-0.8269136,-2.0268726,-1.3265369,2.1584773,1.7469857,-0.90722907,-1.4650934,-0.899452,-1.203576,1.3876724,-0.840219,0.65458477,-0.022033,-0.093997955,-0.50336456,0.77082556,-1.6783875,-0.022328705,-0.60346824,-0.09837723,-0.56427,0.7137797,0.888479,0.015254861,0.12329066,0.4417824,-1.5736221,-0.11281344,-0.35888746,1.0,0.0,0.0,0.0,0.0,0.0,0.0,-0.556002,0.10336456,-0.22082555,1.6260147,-8.115697,-0.33578873,1.8503666,0.41903257,-5.103433,-1.6305245
-7.390832,35.718884,9.455092,11.472445,0.6562825,0.40750045,0.05656339,-0.8130665,-0.5322941,-0.686609,0.78177905,-0.6112037,0.61865956,-0.08235038,0.62921923,-0.880143,-2.0955336,-1.248359,2.097357,1.8088516,-0.9154641,0.6959671,-0.83632255,-2.0389729,-1.3125789,2.1500163,1.753236,-0.9075018,-1.4527715,-0.9551247,-1.2111921,1.3990916,-0.8488298,0.6149561,-0.029228913,-0.11077118,-0.50359344,0.76405096,-1.6767095,-0.02230638,-0.7021161,-0.11418915,-0.5653305,0.70995677,0.89461917,0.015792854,0.12625009,0.42833158,-1.5822778,-0.09059523,-0.39312586,1.0,0.0,0.0,0.0,0.0,0.0,0.0,-0.5392288,0.10359344,-0.21405095,1.2235165,-5.712056,-0.5436897,1.3075352,-1.1051655,-4.0263534,-0.7665094
-6.3368044,37.90528,10.291894,10.947765,0.5362267,0.47220907,0.089937985,-0.8033116,-0.5692373,-0.68477345,0.7792412,-0.61633265,0.62953556,-0.08740667,0.61563593,-0.8932463,-2.1074502,-1.2346548,2.088383,1.8161896,-0.9162425,0.6815294,-0.8462417,-2.0511265,-1.2985599,2.1414332,1.7591546,-0.9078337,-1.4408877,-1.0046793,-1.2157513,1.4035064,-0.8622084,0.5839144,-0.034625318,-0.12752533,-0.5038223,0.75628763,-1.6750332,-0.02228408,-0.801059,-0.1300354,-0.5661545,0.70579726,0.90052545,0.016763335,0.1291132,0.4148524,-1.5858383,-0.06472934,-0.42684454,1.0,0.0,0.0,0.0,0.0,0.0,0.0,-0.52247465,0.10382232,-0.20628762,1.1637211,-5.1035643,-0.22041798,0.5925894,-1.5970111,-3.167212,-0.59709847
-5.1077757,34.117596,9.158547,8.829362,0.47276542,0.41614652,0.14029676,-0.79098886,-0.62887686,-0.68209547,0.7682304,-0.6130497,0.6500637,-0.11412664,0.6024305,-0.9091294,-2.1193361,-1.2217369,2.0801282,1.8241609,-0.9192464,0.6672329,-0.85677314,-2.0632915,-1.284581,2.1327395,1.7648213,-0.9082285,-1.4259856,-1.069722,-1.216237,1.3966988,-0.8726566,0.56078184,-0.041129436,-0.1442604,-0.5040512,0.74753565,-1.6733586,-0.0222618,-0.899903,-0.1459198,-0.5667267,0.7012276,0.9061798,0.01815194,0.13180503,0.40141743,-1.5881433,-0.041199505,-0.47056627,1.0,0.0,0.0,0.0,0.0,0.0,0.0,-0.50573957,0.1040512,-0.19753563,1.4611244,-6.6334486,0.17342567,-0.51651,-1.2811065,-2.3850799,-0.6798543
0.61558723,34.18001,11.058897,6.365184,0.30460596,0.40285724,0.23864792,-0.7653346,-0.6763908,-0.6389893,0.7556681,-0.59297425,0.6754768,-0.15371343,0.59069943,-0.92441225,-2.1271906,-1.2090142,2.0734422,1.832369,-0.92359984,0.65317094,-0.8680427,-2.0752468,-1.270747,2.124023,1.7703106,-0.9087101,-1.3997701,-1.1463885,-1.1875389,1.3794986,-0.8718508,0.54488254,-0.05053962,-0.16098022,-0.5042801,0.73779595,-1.6716856,-0.022239543,-0.9986481,-0.1617508,-0.56707764,0.6962112,0.91155034,0.019858688,0.13418855,0.38816866,-1.5796691,-0.018074207,-0.51561725,0.0,1.0,0.0,0.0,0.0,0.0,0.0,-0.48901975,0.104280084,-0.18779594,2.5442362,-7.774472,3.129387,-1.596427,-0.17476082,-1.6588569,-0.94612765
3.5531588,36.478157,12.676403,5.738062,0.23511267,0.4213286,0.28569835,-0.7501399,-0.7066167,-0.61714685,0.7516105,-0.5830644,0.66466284,-0.119972505,0.57815695,-0.9387044,-2.1369615,-1.1955858,2.0657165,1.836777,-0.92070735,0.63940465,-0.88005996,-2.0868053,-1.2570922,2.1153674,1.7756608,-0.9092537,-1.3692323,-1.2204899,-1.1445514,1.3609188,-0.86421674,0.5314473,-0.055659853,-0.17768478,-0.504509,0.72706956,-1.6700143,-0.02221731,-1.0972946,-0.17744827,-0.5671997,0.69077516,0.91662,0.021779072,0.13619307,0.37521303,-1.5647622,0.005493767,-0.55698484,0.0,1.0,0.0,0.0,0.0,0.0,0.0,-0.4723152,0.104508966,-0.17706954,2.952981,-7.5155497,4.582572,-1.7592669,0.48599243,-1.4116883,-0.51039755
6.133801,37.276863,13.071115,4.7965326,0.115680456,0.32995307,0.31928414,-0.71884745,-0.7372151,-0.6292926,0.7434803,-0.5694743,0.65511066,-0.052480392,0.5675199,-0.9537815,-2.1497345,-1.1827443,2.05842,1.8411719,-0.9145017,0.6260284,-0.89276767,-2.0980473,-1.2436264,2.106834,1.7808869,-0.9097897,-1.3274947,-1.2878367,-1.1165047,1.3421639,-0.8504282,0.5194867,-0.05290748,-0.19437408,-0.50473785,0.7153574,-1.6683446,-0.022195097,-1.1958425,-0.19295883,-0.5670929,0.6849135,0.92138344,0.023914548,0.13781689,0.36261144,-1.5443575,0.025529748,-0.6000091,0.0,1.0,0.0,0.0,0.0,0.0,0.0,-0.4556259,0.10473785,-0.16535741,4.0581465,-6.836033,3.0885696,-1.7937183,1.1107206,-1.2705803,0.27169436
12.201518,41.77808,15.927324,3.7651482,-0.11489582,0.29239017,0.37670368,-0.6747326,-0.75960046,-0.602767,0.73400337,-0.5533229,0.66687095,-0.03600599,0.5585551,-0.9687277,-2.158324,-1.170226,2.0515018,1.847574,-0.9133903,0.6132485,-0.90606636,-2.109172,-1.2303977,2.0984206,1.7863437,-0.9104557,-1.2623855,-1.3440552,-1.1092432,1.3169819,-0.8341301,0.55806327,-0.0657269,-0.21063995,-0.5026932,0.71115077,-1.5739844,0.22667794,-0.22301686,-0.20815659,-0.5667801,0.67859656,0.9258379,0.026147269,0.13916679,0.35038975,-1.5095812,0.047578078,-0.6460101,0.0,1.0,0.0,0.0,0.0,0.0,0.0,-0.43936002,0.10269317,-0.16115075,5.6895494,-5.616045,3.4094334,-1.8388271,1.6717434,-0.959003,0.4651606
6.3677135,78.13114,28.497677,16.421488,0.44590378,1.3520021,0.20225388,-0.75188005,-0.65718555,-0.40299094,0.78216213,-0.5978551,0.6485317,-0.051289182,0.53806055,-0.9717849,-2.1494713,-1.1521815,2.038635,1.8511969,-0.9155846,0.6006028,-0.91926235,-2.1191742,-1.2171016,2.0900512,1.7918636,-0.91109276,-1.2659534,-1.312138,-0.9621191,1.3335258,-0.84017694,0.5501026,-0.063550584,-0.22636795,-0.5004349,0.7081749,-1.5724107,0.22645131,-0.3224388,-0.22296143,-0.5659714,0.672519,0.92998666,0.028012391,0.14053912,0.3385098,-1.467364,0.104339905,-0.59955806,0.0,1.0,0.0,0.0,0.0,0.0,0.0,-0.42363203,0.10043487,-0.15817487,-0.5385399,2.9809713,15.257978,1.5594244,-1.2056351,-0.774312,0.07772446
1.6853743,83.70534,28.564508,19.513351,0.680728,1.4314139,0.13278708,-0.74352753,-0.654951,-0.4121745,0.7761185,-0.5985173,0.64356905,0.018502198,0.52625006,-0.9847574,-2.1603918,-1.1394898,2.0301995,1.8562205,-0.9092425,0.58780545,-0.9319739,-2.127784,-1.2036033,2.0815902,1.7972766,-0.911643,-1.2847818,-1.2582915,-0.8251229,1.3548529,-0.8498949,0.5385056,-0.052729703,-0.24208069,-0.49817657,0.7042055,-1.5708387,0.2262249,-0.42176136,-0.23739243,-0.5645752,0.6669868,0.93386215,0.029428685,0.14214349,0.32684943,-1.4311008,0.16378674,-0.5419763,0.0,1.0,0.0,0.0,0.0,0.0,0.0,-0.4079193,0.09817657,-0.1542055,-2.0255566,5.1582813,14.217318,2.0637512,-1.5771508,-1.1273146,0.9292498
-3.504993,82.24189,25.128664,20.644346,0.7517476,1.2678751,0.048593197,-0.73529434,-0.62586635,-0.45431554,0.78462446,-0.61279994,0.6529069,0.08013906,0.514276,-0.9945605,-2.1732156,-1.1251408,2.0203102,1.8625673,-0.9036291,0.57482594,-0.94403785,-2.1355164,-1.1898685,2.0729842,1.8025733,-0.9120426,-1.3027254,-1.1898715,-0.7545548,1.3796872,-0.8657493,0.5268583,-0.036316786,-0.25777817,-0.49591827,0.69924366,-1.5692681,0.22599873,-0.5209846,-0.25152206,-0.56261444,0.66196525,0.93749404,0.030600771,0.14412607,0.31527156,-1.4033371,0.21836096,-0.4928121,0.0,1.0,0.0,0.0,0.0,0.0,0.0,-0.3922218,0.09591827,-0.14924365,-1.8936634,6.6142797,7.4959636,2.4699926,-2.1110296,-1.1407614,1.4734663
-3.5073192,72.66254,20.423529,17.713646,0.5440728,0.89906883,0.06900101,-0.7117257,-0.6178494,-0.4847757,0.78786,-0.6295815,0.6626514,0.15315841,0.50365335,-1.0058228,-2.183994,-1.1110824,2.010026,1.8688384,-0.8967268,0.5618178,-0.9555058,-2.1430542,-1.1759219,2.0641952,1.8077708,-0.9122324,-1.3005223,-1.133124,-0.7524968,1.3997838,-0.88468486,0.51741564,-0.013814922,-0.2734604,-0.49365997,0.69329876,-1.5676992,0.22577277,-0.6189854,-0.26538467,-0.5602112,0.6572476,0.94088477,0.03182704,0.14653529,0.3037271,-1.3785056,0.2595463,-0.4684011,0.0,1.0,0.0,0.0,0.0,0.0,0.0,-0.3765396,0.09365997,-0.14329875,0.13194084,5.4742575,0.57132244,2.0282984,-2.3140192,-0.94577074,2.0829968
-3.4128046,59.740967,15.041795,13.946198,0.3593698,0.5138648,0.1224189,-0.6946243,-0.6275174,-0.5222244,0.7902169,-0.6438202,0.66455853,0.24713847,0.4923554,-1.0182575,-2.1952767,-1.0969002,1.9998131,1.8742267,-0.8875185,0.54896426,-0.9666211,-2.151,-1.1618243,2.0552366,1.8129029,-0.91212964,-1.2790898,-1.1052603,-0.81305563,1.4118439,-0.8917466,0.5270301,0.020003844,-0.28890228,-0.49115753,0.6870036,-1.4607244,0.28498918,-0.39759627,-0.279068,-0.5574951,0.6525376,0.94402754,0.0333956,0.14929393,0.29224646,-1.3612671,0.28838837,-0.47693583,0.0,1.0,0.0,0.0,0.0,0.0,0.0,-0.3610977,0.091157526,-0.1370036,2.2715569,2.568221,-6.540978,1.1018515,0.22239685,2.6839375,3.6183357
-11.255545,56.59496,11.426206,15.170449,0.6207264,0.5153562,0.060611006,-0.7280508,-0.5938083,-0.557196,0.79330313,-0.63100725,0.63117546,0.31640646,0.4761592,-1.0260019,-2.2067196,-1.082494,1.9921359,1.8760204,-0.880489,0.53617835,-0.97745675,-2.1597664,-1.147647,2.0462804,1.8181449,-0.91167,-1.2785691,-1.0769343,-0.8971409,1.4201592,-0.89764136,0.52273333,0.054104976,-0.30331802,-0.48827362,0.6829602,-1.4365768,0.2910612,-0.40782058,-0.29268265,-0.55446625,0.6476799,0.94694585,0.03542116,0.15233746,0.2807705,-1.357845,0.3190951,-0.49179718,0.0,1.0,0.0,0.0,0.0,0.0,0.0,-0.34668195,0.088273615,-0.1329602,0.029158592,2.651143,-8.174717,0.95562935,-0.8710027,-0.56271553,3.2625408
-13.702784,53.027912,9.531251,14.770004,0.74529415,0.47904003,0.06543427,-0.73001474,-0.5996579,-0.5825944,0.79588735,-0.6248385,0.61972404,0.36149192,0.46317688,-1.0374225,-2.218026,-1.0680583,1.9837966,1.8801173,-0.8755208,0.5233476,-0.9881293,-2.1693838,-1.1334125,2.0373182,1.823331,-0.91086894,-1.2845753,-1.0646136,-0.98267585,1.4251806,-0.8967697,0.5166287,0.08849299,-0.31754303,-0.4853058,0.6787435,-1.4177265,0.30076003,-0.42730457,-0.3063202,-0.5511093,0.64260656,0.94965816,0.03803165,0.15557712,0.26925555,-1.3614621,0.3495604,-0.51543206,0.0,1.0,0.0,0.0,0.0,0.0,0.0,-0.33245695,0.08530578,-0.12874347,-0.6086588,1.0507345,-8.331251,0.6622076,-0.13161898,-0.7498145,3.3581793
-14.19156,53.524464,9.716321,14.738794,0.7937405,0.541679,0.08028531,-0.73660785,-0.5932277,-0.60079473,0.7959145,-0.62914354,0.61969435,0.3884351,0.44968683,-1.0474521,-2.2294633,-1.0538211,1.9744039,1.8853004,-0.87202543,0.51040816,-0.99872273,-2.1797254,-1.1191474,2.02835,1.8284416,-0.9097415,-1.2971627,-1.0581267,-1.0504655,1.4274088,-0.8979403,0.508603,0.12061706,-0.33158112,-0.48223114,0.67432874,-1.3986154,0.31052506,-0.44691658,-0.31999207,-0.5474396,0.63730556,0.95216495,0.041209273,0.15894389,0.25772193,-1.3647704,0.38260186,-0.5377279,0.0,1.0,0.0,0.0,0.0,0.0,0.0,-0.31841886,0.082231134,-0.12432873,-1.275754,0.46186447,-6.5176964,0.3802538,-0.38729906,-0.9402871,3.1169786
-7.8019447,56.74678,12.60795,13.358692,0.6334052,0.57528126,0.16769737,-0.72128147,-0.5901856,-0.59540987,0.7949049,-0.63547516,0.622779,0.4339212,0.43828002,-1.0577413,-2.2392664,-1.0396569,1.9648026,1.8907195,-0.8663494,0.4974239,-1.0092798,-2.1904905,-1.1048843,2.0193512,1.833483,-0.9082921,-1.2991349,-1.0553995,-1.0843352,1.426299,-0.9015,0.5020892,0.15269633,-0.34539032,-0.47907257,0.6697573,-1.3745862,0.31889635,-0.46078432,-0.33360672,-0.54346466,0.63182974,0.9544419,0.0448357,0.16238812,0.2462934,-1.3548869,0.41376042,-0.5534824,0.0,1.0,0.0,0.0,0.0,0.0,0.0,-0.30460966,0.079072565,-0.119757295,-0.27031898,0.09229183,-3.0310392,-0.022244453,-0.7240057,-0.77958107,3.073746
-2.981977,62.281055,15.525105,13.091057,0.5277727,0.63251364,0.21737781,-0.71546894,-0.5724912,-0.6009966,0.7921389,-0.64237905,0.61903244,0.4636531,0.42587698,-1.0665289,-2.25059,-1.0256704,1.9551133,1.8953862,-0.8619268,0.484473,-1.0197474,-2.2014308,-1.0906554,2.010299,1.83847,-0.90653354,-1.2941269,-1.0444106,-1.0957111,1.4216523,-0.9076025,0.49686736,0.1832009,-0.35892105,-0.4758377,0.6651133,-1.3447739,0.3261124,-0.4654176,-0.34703064,-0.5391922,0.62626976,0.9564683,0.04879489,0.16591176,0.23507608,-1.3332578,0.44394714,-0.55929625,0.0,1.0,0.0,0.0,0.0,0.0,0.0,-0.29107893,0.0758377,-0.11511326,0.37751198,0.91774464,-0.6937742,-0.4440546,-1.05443,-0.64406395,2.8910966
-4.780285,61.001034,14.3018875,13.172258,0.5801561,0.6055546,0.20489186,-0.7243627,-0.57472694,-0.63825285,0.7899437,-0.6462613,0.60020953,0.4991704,0.41203672,-1.0772201,-2.2652562,-1.011661,1.9456729,1.8984909,-0.8566165,0.47154298,-1.0301253,-2.2125466,-1.0764819,2.0011814,1.8433938,-0.9044776,-1.2930387,-1.0360854,-1.1155449,1.415897,-0.9144406,0.49015763,0.21266787,-0.37216568,-0.4725418,0.6603827,-1.3165592,0.33242732,-0.474593,-0.36027145,-0.53461456,0.62062323,0.95824754,0.053099338,0.1695037,0.22407682,-1.3149959,0.47356513,-0.5687218,0.0,1.0,0.0,0.0,0.0,0.0,0.0,-0.2778343,0.0725418,-0.110382676,-0.0030755997,0.6508589,-1.5508652,-0.53391457,-1.0956287,-0.8483887,2.8292508
-3.208084,63.72538,15.469597,13.366682,0.6360519,0.6458281,0.21589524,-0.72154385,-0.5661366,-0.6252868,0.7867311,-0.63547766,0.5994261,0.534696,0.3993886,-1.086739,-2.2750752,-0.9978088,1.9376336,1.9033364,-0.851008,0.45862687,-1.040402,-2.223754,-1.0623748,1.99204,1.8482552,-0.90213263,-1.2915659,-1.0255365,-1.120754,1.4090338,-0.915574,0.48408762,0.24138348,-0.38511276,-0.4691925,0.6555863,-1.2862151,0.33786017,-0.4802752,-0.37330246,-0.5297241,0.61492413,0.95978826,0.057702653,0.17313227,0.21331194,-1.2935137,0.503273,-0.57250315,0.0,1.0,0.0,0.0,0.0,0.0,0.0,-0.2648872,0.0691925,-0.10558629,0.012850761,0.87394714,-0.039219856,-0.6756544,-0.6018996,-0.74151754,2.700439
-4.2236753,62.093613,14.49713,13.19906,0.69846785,0.6227431,0.20702428,-0.72517794,-0.5711815,-0.63570917,0.7823109,-0.63563484,0.5869163,0.5560231,0.38610905,-1.0975202,-2.287325,-0.98414373,1.9284766,1.9069468,-0.8465303,0.4457031,-1.0506197,-2.2350144,-1.0483423,1.9828993,1.8530486,-0.89951575,-1.2930549,-1.0212218,-1.1263067,1.4015125,-0.9150592,0.47703576,0.2680821,-0.39776993,-0.4657898,0.650693,-1.2576269,0.34242672,-0.49105152,-0.38614273,-0.5245514,0.6091619,0.9611043,0.06258957,0.17675097,0.20278072,-1.2748334,0.5323783,-0.57958114,0.0,1.0,0.0,0.0,0.0,0.0,0.0,-0.25223005,0.06578979,-0.10069299,-0.27446747,0.25479794,-0.08354187,-0.72352886,-0.40484667,-0.8975804,2.553016
-0.2349391,60.516838,14.720038,11.5424,0.54109085,0.53770095,0.25294024,-0.7064083,-0.5779706,-0.63753355,0.77708006,-0.6488991,0.586351,0.58169067,0.37506226,-1.1084168,-2.2987678,-0.97063434,1.9180094,1.9116837,-0.8413467,0.43284792,-1.0608526,-2.246317,-1.034392,1.9737297,1.8577758,-0.8966426,-1.2835019,-1.0245241,-1.1296207,1.3928148,-0.9190499,0.47061428,0.29336795,-0.41013718,-0.46235657,0.6456573,-1.2281792,0.34445,-0.505632,-0.39875793,-0.5191269,0.6032963,0.9621966,0.067761935,0.18032774,0.19253044,-1.2503822,0.5554615,-0.5907507,0.0,1.0,0.0,0.0,0.0,0.0,0.0,-0.2398628,0.06235656,-0.09565729,0.8127928,-0.49123764,0.15261173,-0.86591244,-0.860703,-0.8480191,2.4105787
-1.0278852,59.399525,13.924106,11.441809,0.59219676,0.50075865,0.24208236,-0.71049625,-0.58026946,-0.6444767,0.771328,-0.641893,0.5431475,0.59553075,0.3617983,-1.1188796,-2.3107646,-0.9572592,1.9095404,1.9120905,-0.83708954,0.42007098,-1.0711446,-2.257669,-1.0205368,1.9645392,1.8624097,-0.89353484,-1.2761934,-1.0312892,-1.1354238,1.3832705,-0.9203968,0.4603164,0.3162232,-0.42222214,-0.45890808,0.6404444,-1.2001334,0.34554774,-0.52427375,-0.41113663,-0.5134735,0.5972996,0.9630763,0.07323414,0.18382168,0.1825658,-1.2283382,0.57744366,-0.6044763,0.0,1.0,0.0,0.0,0.0,0.0,0.0,-0.22777784,0.058908075,-0.090444386,0.5960703,-0.8340359,-0.10643005,-0.93820095,-0.5946398,-1.2591839,2.1795988
-1.5006051,53.38359,12.023387,10.034607,0.60204697,0.4202814,0.24910372,-0.70912945,-0.6139398,-0.6394487,0.767162,-0.641999,0.52037233,0.6090197,0.34915802,-1.1325386,-2.3216138,-0.9438206,1.9003392,1.914447,-0.8326329,0.40735602,-1.081656,-2.269044,-1.0067713,1.9553387,1.8669235,-0.89021456,-1.2702749,-1.0583811,-1.1367993,1.3744515,-0.92114884,0.44780922,0.3370349,-0.43406296,-0.45545197,0.63495034,-1.176769,0.34585568,-0.5551479,-0.42333603,-0.507637,0.5910879,0.9637676,0.07901547,0.18713474,0.17288467,-1.2109058,0.5970443,-0.6286506,0.0,1.0,0.0,0.0,0.0,0.0,0.0,-0.21593702,0.05545196,-0.08495033,0.47938824,-2.8501987,0.28853416,-0.8285284,-0.4910469,-1.4627695,1.9994915
7.9261885,55.56382,14.771238,7.965434,0.39188772,0.3362245,0.31503588,-0.66710424,-0.61758137,-0.6187424,0.7627707,-0.6266097,0.50417286,0.6178496,0.3406456,-1.1434141,-2.330918,-0.93049425,1.8926778,1.9173408,-0.8284296,0.39487463,-1.09244,-2.2803197,-0.9930937,1.9461857,1.8713132,-0.88670343,-1.2413472,-1.0855049,-1.1230104,1.365347,-0.9148549,0.435422,0.35554382,-0.4456253,-0.45202637,0.62917924,-1.1480331,0.34205228,-0.58131844,-0.43527222,-0.5016556,0.58466494,0.9642792,0.0850164,0.19020729,0.16358145,-1.1800053,0.6065084,-0.6487003,0.0,1.0,0.0,0.0,0.0,0.0,0.0,-0.20437467,0.05202636,-0.07917923,2.7273893,-2.8351307,1.872921,-0.94151497,0.15724897,-1.4560044,1.7481208
30.052021,63.64216,22.548725,4.259326,-0.01882863,0.21587676,0.46146768,-0.58373255,-0.6224204,-0.5332063,0.7616556,-0.6042285,0.49076152,0.62382716,0.3365014,-1.154682,-2.3336403,-0.9169282,1.8857628,1.9203894,-0.82432073,0.38305086,-1.1034588,-2.291046,-0.97950083,1.9371718,1.8755922,-0.8830219,-1.1636993,-1.10767,-1.0536762,1.3565067,-0.8986208,0.42508212,0.37190726,-0.4567871,-0.44869995,0.62329954,-1.103811,0.3291217,-0.5867662,-0.44665146,-0.49575806,0.5781768,0.96461487,0.09094059,0.1930063,0.15490791,-1.1172354,0.59356016,-0.6507012,0.0,1.0,0.0,0.0,0.0,0.0,0.0,-0.19321287,0.048699945,-0.07329953,7.4686527,-2.305603,7.624173,-1.1214256,0.982213,-1.2137711,1.4748037
36.2455,60.472027,23.405922,2.0513191,-0.024225771,0.0828076,0.48815468,-0.55932266,-0.6658012,-0.469865,0.7487726,-0.57188463,0.40057418,0.6018816,0.3271186,-1.1700389,-2.3380325,-0.90462357,1.8799833,1.9156497,-0.8228337,0.3720559,-1.1148303,-2.300807,-0.9660338,1.928409,1.8797132,-0.8792113,-1.0790576,-1.1472236,-0.9480422,1.3426524,-0.8708596,0.40736583,0.38378182,-0.4675026,-0.44552612,0.6173479,-1.0592974,0.31264865,-0.59466195,-0.4573822,-0.4900589,0.57165563,0.9648267,0.09656606,0.19539204,0.14699063,-1.052251,0.5705882,-0.6544304,0.0,1.0,0.0,0.0,0.0,0.0,0.0,-0.18249738,0.045526117,-0.067347884,8.161545,-4.026985,11.272467,-1.6290188,2.104187,-1.9364297,1.0543287
57.55622,72.95152,31.920572,0.12245464,-0.29782492,0.0076244473,0.5919409,-0.45207292,-0.64835405,-0.34700167,0.7477493,-0.5536097,0.3860584,0.61376697,0.3268486,-1.1796657,-2.3355072,-0.8912589,1.8730481,1.918319,-0.8178346,0.36223248,-1.1264536,-2.3090765,-0.95269746,1.9199598,1.8836718,-0.87528795,-0.9514448,-1.1677071,-0.78334033,1.3292749,-0.8391086,0.39159057,0.39460397,-0.47763062,-0.44260406,0.6115447,-0.9959477,0.2855559,-0.5724128,-0.46723557,-0.48473358,0.56529856,0.9649456,0.101564676,0.19737245,0.14003111,-0.9567827,0.5252411,-0.6313318,0.0,1.0,0.0,0.0,0.0,0.0,0.0,-0.17236936,0.04260406,-0.061544716,12.342585,-2.1206856,17.427004,-1.7460108,2.2706032,-1.7347455,0.8969307
58.39108,84.958984,36.991093,3.7769482,0.54144955,0.33920592,0.5001731,-0.45989102,-0.6602456,-0.07443493,0.72305244,-0.47950453,0.33093214,0.60480684,0.31624338,-1.1924782,-2.31652,-0.8803922,1.8720093,1.916765,-0.8148073,0.35343236,-1.1382486,-2.314672,-0.93957764,1.9119952,1.8874502,-0.8712735,-0.8575596,-1.1836421,-0.48111087,1.3050151,-0.78588307,0.37283403,0.40348452,-0.48706818,-0.43995667,0.6061548,-0.92533517,0.25787288,-0.5254475,-0.4761467,-0.47978973,0.5594473,0.9650905,0.10533066,0.19881445,0.13408358,-0.8628528,0.48877048,-0.57144237,0.0,1.0,0.0,0.0,0.0,0.0,0.0,-0.1629318,0.03995666,-0.056154788,8.977914,-1.6987801,31.340563,-2.8015137,4.2016983,-2.0205498,0.78217983
43.883453,95.18396,37.38862,11.053019,1.671715,0.7210828,0.2750629,-0.49524215,-0.65491676,0.1552864,0.70755,-0.44012648,0.22973576,0.5857437,0.30390814,-1.2037402,-2.2991433,-0.86882263,1.8679825,1.9104238,-0.81269914,0.3451039,-1.1501123,-2.316564,-0.92673177,1.904611,1.8909808,-0.867195,-0.8255595,-1.1878823,-0.088312835,1.2769991,-0.7264577,0.3460317,0.4093258,-0.49580383,-0.43754578,0.60135925,-0.8560591,0.23554724,-0.46349594,-0.48426437,-0.475029,0.5544199,0.9653986,0.10739797,0.19961013,0.1289452,-0.7898797,0.47682503,-0.48185995,0.0,1.0,0.0,0.0,0.0,0.0,0.0,-0.15419614,0.03754577,-0.051359236,2.907002,-0.57332516,40.34889,-3.027296,4.7931075,-2.7818203,0.5815208
34.530758,98.6111,36.862137,14.603993,2.536395,0.92320925,0.104546756,-0.50203735,-0.66275185,0.4022942,0.66961133,-0.30781302,0.17655237,0.5528096,0.29490015,-1.2163875,-2.2763348,-0.85977066,1.8738297,1.9086361,-0.811914,0.3368012,-1.1620122,-2.3140805,-0.9142815,1.8981143,1.8942187,-0.8630915,-0.8323478,-1.1911899,0.3636618,1.234036,-0.627606,0.31611052,0.41098416,-0.50388336,-0.435318,0.5972078,-0.7915416,0.21803676,-0.39833486,-0.49177933,-0.470253,0.5503977,0.96600604,0.107400194,0.1995573,0.12439564,-0.7353594,0.48246107,-0.37771723,0.0,1.0,0.0,0.0,0.0,0.0,0.0,-0.14611661,0.035317987,-0.047207773,-0.8434653,-0.49934387,46.110416,-4.397702,8.835709,-3.050828,0.26210546
18.587055,91.75111,31.203873,17.085228,3.3380013,0.9324519,-0.11180514,-0.52498144,-0.6769893,0.5507782,0.6360289,-0.052399427,0.18481424,0.5344145,0.28430307,-1.2297112,-2.2590027,-0.8506786,1.8928744,1.9127,-0.80965006,0.3282067,-1.1739923,-2.3073666,-0.9023386,1.8932474,1.8971795,-0.8589938,-0.86850506,-1.2007568,0.7757796,1.1811609,-0.44203097,0.2893409,0.40983468,-0.51143646,-0.43320465,0.5935696,-0.74370193,0.20975569,-0.352904,-0.49900055,-0.46525574,0.5473373,0.96703875,0.10519747,0.19834284,0.120122716,-0.71505773,0.5093335,-0.28440267,0.0,1.0,0.0,0.0,0.0,0.0,0.0,-0.13856351,0.033204645,-0.043569565,-3.623104,-1.1077166,41.7588,-5.2514553,17.859495,-2.6765883,0.045126677
9.793067,73.78845,22.276318,13.490333,3.0936878,0.4519331,-0.15115562,-0.5040492,-0.67981285,0.5186091,0.55948305,0.23457946,0.04887851,0.5145556,0.27780178,-1.2419735,-2.2555058,-0.8463903,1.9167054,1.9020673,-0.8075383,0.31934336,-1.1860696,-2.297842,-0.89117396,1.8909099,1.8997916,-0.8549303,-0.8921202,-1.2102708,1.0121388,1.0952817,-0.165483,0.25194383,0.40564957,-0.51865387,-0.43113708,0.5900978,-0.7151375,0.20613405,-0.34718987,-0.50619125,-0.4600067,0.5448532,0.9685266,0.101226635,0.1956561,0.11587934,-0.71892625,0.53550637,-0.23867926,0.0,1.0,0.0,0.0,0.0,0.0,0.0,-0.1313461,0.031137079,-0.040097773,-2.3171544,-1.0559797,23.828089,-8.48062,27.345652,-3.7060976,-0.2664745
3.3857045,67.242035,16.62713,13.689861,2.775725,-0.003181845,-0.21184395,-0.47456917,-0.65310585,0.46488103,0.563769,0.44511297,-0.113487415,0.5716347,0.27188644,-1.2513802,-2.251354,-0.8347971,1.9354212,1.8884429,-0.7977668,0.31045854,-1.1980916,-2.287323,-0.88071054,1.8916323,1.9019363,-0.8508684,-0.8870861,-1.1998549,1.0651689,1.0306555,0.15113638,0.20217405,0.40675554,-0.5256462,-0.42910004,0.5865626,-0.6957167,0.20290509,-0.35874858,-0.51353073,-0.45454407,0.5426224,0.97038984,0.09615975,0.19151478,0.111439615,-0.7380877,0.55608696,-0.22049865,0.0,1.0,0.0,0.0,0.0,0.0,0.0,-0.12435377,0.02910003,-0.036562562,0.5560279,0.9759903,5.2835226,-6.2861204,31.629028,-4.90337,0.24379492
-3.7177777,70.84654,14.255896,16.964712,2.4896898,-0.20347232,-0.26275158,-0.47366548,-0.6119755,0.44303867,0.57463115,0.5166782,-0.30321506,0.6082285,0.26309198,-1.2592891,-2.243019,-0.82324743,1.9433001,1.8716148,-0.79004556,0.3016996,-1.2097913,-2.2771213,-0.8706355,1.8952134,1.9034803,-0.84676474,-0.8719541,-1.1600769,1.0047976,1.0005175,0.42729858,0.13876086,0.41189483,-0.5324402,-0.42710876,0.5829506,-0.67607754,0.19876422,-0.3666401,-0.52109146,-0.44887543,0.54052883,0.97248226,0.090628855,0.18627031,0.10662093,-0.76186264,0.574994,-0.20841646,0.0,1.0,0.0,0.0,0.0,0.0,0.0,-0.11755979,0.027108759,-0.03295058,1.5782595,3.9363623,-6.179929,-2.7894735,27.754503,-6.2248287,0.63221455
4.071769,75.72006,16.35988,15.22159,1.8143473,-0.28157198,-0.12227313,-0.44715244,-0.5785402,0.4733004,0.5220465,0.56901234,-0.40324697,0.6127193,0.25698435,-1.2676454,-2.2297912,-0.81843084,1.9521146,1.8631556,-0.78549284,0.29322028,-1.2209531,-2.2676404,-0.86092603,1.9010792,1.9043682,-0.84260476,-0.8398547,-1.1015536,0.9289823,0.96178097,0.6396078,0.07247436,0.41756356,-0.53896713,-0.42520142,0.57936275,-0.64695936,0.18891181,-0.3613084,-0.52874374,-0.44313812,0.5385638,0.97466874,0.0849583,0.18026355,0.10152762,-0.76545507,0.58003825,-0.19537938,0.0,1.0,0.0,0.0,0.0,0.0,0.0,-0.11103284,0.02520141,-0.029362738,3.2362103,5.7899714,-7.628298,-3.67105,21.308708,-6.48956,0.6385386
10.95129,83.34498,19.733137,14.776746,1.4177774,-0.18384549,-0.01936628,-0.42953658,-0.54206544,0.5146737,0.49933988,0.5949063,-0.39873475,0.6163987,0.2502666,-1.2751596,-2.216173,-0.81099206,1.9605699,1.8644947,-0.7809649,0.28511083,-1.2314435,-2.2586422,-0.8516108,1.9085523,1.904661,-0.8383881,-0.80128187,-1.0317556,0.890569,0.92208505,0.78292376,0.015376151,0.4230952,-0.54512405,-0.42342377,0.57598,-0.60780656,0.17504534,-0.33628127,-0.536293,-0.4373932,0.53682053,0.9768521,0.07917689,0.17380337,0.096350156,-0.7505712,0.5774264,-0.17033426,0.0,1.0,0.0,0.0,0.0,0.0,0.0,-0.10487592,0.023423761,-0.025979996,3.865862,6.894541,-3.7792563,-3.7929177,14.338577,-5.555353,0.58921576
11.002291,88.08452,21.028095,15.216767,1.2167329,-0.03341028,0.046570905,-0.43326822,-0.49835622,0.5219954,0.458775,0.61416626,-0.39700907,0.6139964,0.241784,-1.2812791,-2.2064426,-0.80573326,1.9699689,1.8649602,-0.77698845,0.27729657,-1.2411729,-2.2498055,-0.8427877,1.9170402,1.9044522,-0.834123,-0.7747659,-0.95350045,0.881641,0.86962926,0.8704532,-0.03242537,0.42767146,-0.55085754,-0.42178345,0.57293475,-0.56432074,0.16090465,-0.29994208,-0.54362106,-0.43167877,0.53537846,0.97896904,0.07326928,0.16712229,0.09122157,-0.72662246,0.57571447,-0.13852756,0.0,1.0,0.0,0.0,0.0,0.0,0.0,-0.09914243,0.021783441,-0.022934735,2.664578,7.7367544,-0.8258343,-5.0842166,8.770121,-4.6037583,0.4841566
26.29027,83.40954,22.838793,8.919522,0.5026802,-0.14046508,0.23645787,-0.37085447,-0.4928739,0.5582355,0.40687585,0.6359811,-0.3510956,0.5838824,0.24021113,-1.2904603,-2.193982,-0.8021001,1.9806384,1.8693427,-0.7757348,0.26994097,-1.250271,-2.2407548,-0.83463013,1.9261305,1.9038632,-0.82984036,-0.72259396,-0.8955622,0.9136926,0.79830194,0.9211331,-0.06730493,0.42847657,-0.55612564,-0.42032623,0.57025284,-0.51650536,0.14142124,-0.26378167,-0.5505791,-0.42612457,0.53418857,0.9809881,0.06713972,0.1602764,0.08640563,-0.6830297,0.553502,-0.11550663,0.0,1.0,0.0,0.0,0.0,0.0,0.0,-0.093874335,0.020326227,-0.020252824,5.191076,5.6794524,3.4303904,-6.999576,4.9608946,-3.3106134,0.08636713
29.477444,74.732414,21.282818,4.7529163,0.15306264,-0.18378216,0.35528684,-0.36285168,-0.48514384,0.5817773,0.32637027,0.66907364,-0.34951302,0.58269566,0.23365581,-1.2987853,-2.1825771,-0.80199313,1.9930379,1.8689119,-0.7715708,0.26306695,-1.2589532,-2.231231,-0.8274334,1.9356086,1.9029753,-0.8255551,-0.67579657,-0.85937,0.9662432,0.69393927,0.9560076,-0.09534598,0.4285561,-0.5609436,-0.41905975,0.56783825,-0.47246763,0.12229295,-0.24090226,-0.5570526,-0.4208374,0.5331001,0.98290783,0.060744606,0.15316537,0.08211272,-0.6362029,0.5253965,-0.10946757,0.0,1.0,0.0,0.0,0.0,0.0,0.0,-0.08905637,0.019059747,-0.01783824,4.6541333,3.5087466,5.462134,-10.310019,3.384447,-2.6168332,0.031518936
32.42565,71.21556,20.824768,2.9524746,-0.053228237,-0.23704371,0.38990906,-0.3266305,-0.47048628,0.602195,0.2939927,0.67968136,-0.29408643,0.56904244,0.2304039,-1.3060019,-2.1710114,-0.79803413,2.0035768,1.8735666,-0.7686508,0.25671077,-1.2673703,-2.221142,-0.82125604,1.9453381,1.9018868,-0.8212806,-0.6223151,-0.8360926,1.0239936,0.592897,0.9781024,-0.112767674,0.42715317,-0.5653343,-0.41799164,0.56561494,-0.4303228,0.10304548,-0.22242834,-0.56306076,-0.41587067,0.5320218,0.98472214,0.054057285,0.14577094,0.07842834,-0.5881049,0.4919086,-0.11008665,0.0,1.0,0.0,0.0,0.0,0.0,0.0,-0.084665656,0.017991632,-0.015614927,5.3349376,2.2180676,5.965984,-9.957695,2.1296024,-1.5535579,-0.092452765
