Afshin1997/kuka_rl_ros2/src/catch_and_throw/input_files/idealpd/polynomial_regressor/optimizer_files/env_178_data.csv
torque0,torque1,torque2,torque3,torque4,torque5,torque6,action0,action1,action2,action3,action4,action5,action6,set_target_0,set_target_1,set_target_2,set_target_3,set_target_4,set_target_5,set_target_6,joint_pos_0,joint_pos_1,joint_pos_2,joint_pos_3,joint_pos_4,joint_pos_5,joint_pos_6,joint_vel_0,joint_vel_1,joint_vel_2,joint_vel_3,joint_vel_4,joint_vel_5,joint_vel_6,tennisball_pos_0,tennisball_pos_1,tennisball_pos_2,tennisball_lin_vel_0,tennisball_lin_vel_1,tennisball_lin_vel_2,end_effector_pos_0,end_effector_pos_1,end_effector_pos_2,end_effector_rot_0,end_effector_rot_1,end_effector_rot_2,end_effector_rot_3,end_effector_lin_vel_0,end_effector_lin_vel_1,end_effector_lin_vel_2,obs_task_0,obs_task_1,obs_task_2,obs_task_3,obs_task_4,obs_task_5,obs_task_6,to_final_target_0,to_final_target_1,to_final_target_2,joint_acc_0,joint_acc_1,joint_acc_2,joint_acc_3,joint_acc_4,joint_acc_5,joint_acc_6
0.0,0.0,0.0,0.0,0.0,0.0,0.0,0.0,0.0,0.0,0.0,0.0,0.0,0.0,1.7802359,-1.0646509,-1.8151424,-1.1170107,1.9373155,1.1170107,-0.91629785,1.7802359,-1.0646509,-1.8151424,-1.1170107,1.9373155,1.1170107,-0.91629785,0.0,0.0,0.0,0.0,0.0,0.0,0.0,3.0776272,-0.36005402,0.40595856,-3.6050382,-0.007330416,4.919005,0.5304146,-0.45449448,0.693097,0.5745483,0.17512383,0.15255436,0.7848268,0.0,0.0,0.0,1.0,0.0,0.0,0.0,0.0,0.0,0.0,-3.7276273,-0.03994599,0.14404145,0.0,0.0,0.0,0.0,0.0,0.0,0.0
0.0,0.0,0.0,0.0,0.0,0.0,0.0,0.0,0.0,0.0,0.0,0.0,0.0,0.0,1.7802359,-1.0646509,-1.8151424,-1.1170107,1.9373155,1.1170107,-0.91629785,1.7802359,-1.0646509,-1.8151424,-1.1170107,1.9373155,1.1170107,-0.91629785,0.0,0.0,0.0,0.0,0.0,0.0,0.0,3.0776272,-0.36005402,0.40595856,-3.6050382,-0.007330416,4.919005,0.5304146,-0.45449448,0.693097,0.5745483,0.17512383,0.15255436,0.7848268,0.0,0.0,0.0,1.0,0.0,0.0,0.0,0.0,0.0,0.0,-3.7276273,-0.03994599,0.14404145,0.0,0.0,0.0,0.0,0.0,0.0,0.0
0.0,0.0,0.0,0.0,0.0,0.0,0.0,0.0,0.0,0.0,0.0,0.0,0.0,0.0,1.7802359,-1.0646509,-1.8151424,-1.1170107,1.9373155,1.1170107,-0.91629785,1.7802359,-1.0646509,-1.8151424,-1.1170107,1.9373155,1.1170107,-0.91629785,0.0,0.0,0.0,0.0,0.0,0.0,0.0,3.0776272,-0.36005402,0.40595856,-3.6050382,-0.007330416,4.919005,0.5304146,-0.45449448,0.693097,0.5745483,0.17512383,0.15255436,0.7848268,0.0,0.0,0.0,1.0,0.0,0.0,0.0,0.0,0.0,0.0,-3.7276273,-0.03994599,0.14404145,0.0,0.0,0.0,0.0,0.0,0.0,0.0
-176.0,84.726685,0.06912041,110.0,11.046783,5.3577824,-3.8295639,-0.82723546,0.43755755,-0.54997075,0.72433734,0.3981859,0.6134324,-0.5707625,1.6975124,-1.0208951,-1.8701395,-1.044577,1.9771341,1.1783539,-0.9733741,1.7784983,-1.0618223,-1.8209255,-1.1128374,1.9438176,1.1221148,-0.91789335,-0.23142001,0.37641802,-0.7700143,0.5563779,0.86576605,0.6782777,-0.21231915,3.041603,-0.3601303,0.45437527,-3.6014338,-0.007323087,4.8159003,0.52812386,-0.4576912,0.6941094,0.5782273,0.1738432,0.15068164,0.7827686,-0.3056017,-0.42646337,0.13478275,1.0,0.0,0.0,0.0,0.0,0.0,0.0,-3.6916032,-0.039869696,0.095624745,-23.105053,37.427498,-76.75232,55.67978,86.27419,67.16078,-21.08607
-176.0,30.102972,-21.553593,110.0,11.313292,3.4243107,-3.7099857,-0.8234007,0.1562697,-0.5612198,0.6937072,0.5265794,0.6013707,-0.6034684,1.6961582,-1.0461953,-1.8770474,-1.0434667,1.9964756,1.1822518,-0.9782402,1.7753702,-1.0567259,-1.8350132,-1.1013552,1.9571099,1.1342055,-0.92014307,-0.33844554,0.55201596,-1.6217419,1.3473717,1.4825733,1.3789045,-0.22652118,3.0056152,-0.3602066,0.5017617,-3.5978332,-0.0073157656,4.7128987,0.5229416,-0.46556473,0.695895,0.5866143,0.17078833,0.14653149,0.777974,-0.59024143,-0.9062724,0.19372992,1.0,0.0,0.0,0.0,0.0,0.0,0.0,-3.6556153,-0.039793402,0.048238337,-10.234261,16.96375,-85.18384,79.65578,61.28385,67.939995,-0.6454885
-149.65657,117.233,29.702187,89.14139,7.106001,7.153367,-2.2806435,-0.78162754,0.44389153,-0.13345186,0.55046237,0.5201084,0.64803517,-0.57067686,1.6972075,-1.0123367,-1.8483584,-1.046309,2.0091207,1.199009,-0.97721076,1.7687689,-1.0499166,-1.8502433,-1.0863882,1.9720654,1.1478277,-0.92269033,-0.76775706,0.7207237,-1.4837742,1.547312,1.4957803,1.3490579,-0.26611358,2.9696636,-0.3602829,0.5481189,-3.594236,-0.007308451,4.61,0.5148735,-0.47604752,0.6994061,0.59803087,0.16630396,0.14153163,0.77114904,-0.8862877,-1.0890634,0.40792853,1.0,0.0,0.0,0.0,0.0,0.0,0.0,-3.6196637,-0.039717108,0.0018811226,-43.08925,15.903354,15.677595,20.194744,0.064086914,-5.2767515,-4.547331
-88.73447,127.10954,44.195137,56.334682,3.6576567,7.3109713,-0.87242526,-0.78897333,0.43756267,-0.08941439,0.5483951,0.51559705,0.6229745,-0.57653385,1.6898715,-1.0061604,-1.8591847,-1.0315487,2.0236251,1.2101252,-0.9803437,1.7581908,-1.0420336,-1.8616912,-1.0713583,1.9857163,1.1604449,-0.9255819,-1.1561359,0.8083432,-1.0245583,1.4879731,1.3176305,1.2279062,-0.29987243,2.9337482,-0.3603592,0.59344786,-3.5906425,-0.007301144,4.5072045,0.5044174,-0.48703003,0.7049389,0.6106606,0.1604497,0.13635352,0.76338524,-1.1103854,-1.0907415,0.60736674,1.0,0.0,0.0,0.0,0.0,0.0,0.0,-3.5837483,-0.039640814,-0.043447852,-39.310337,8.01853,48.10879,-5.9492826,-19.01555,-13.503265,-4.267168
-29.93139,138.93356,55.44914,30.49012,1.0542614,6.847292,0.13397683,-0.8057436,0.5196458,0.01967637,0.5456845,0.5805471,0.61441374,-0.56876105,1.6776164,-0.990069,-1.8597236,-1.0167899,2.043771,1.2218863,-0.982458,1.744557,-1.0333284,-1.8677471,-1.05786,1.9974465,1.1717192,-0.9287748,-1.4344926,0.88951606,-0.45919508,1.3030823,1.1220086,1.0919267,-0.3287986,2.897869,-0.3604355,0.6377496,-3.5870526,-0.007293844,4.404512,0.4923458,-0.49710846,0.71238315,0.62322426,0.15321568,0.13111481,0.755596,-1.251687,-0.9666329,0.79434276,1.0,0.0,0.0,0.0,0.0,0.0,0.0,-3.5478692,-0.03956452,-0.0877496,-28.414822,7.592714,58.52429,-18.693375,-20.453596,-14.237475,-3.8063824
7.9733167,128.80695,52.491814,13.536625,-0.50408,5.176364,0.49634823,-0.8202051,0.5704572,0.050778057,0.54735863,0.5992221,0.6060957,-0.57836455,1.6625365,-0.9762827,-1.8626692,-1.0031241,2.0573688,1.2323288,-0.98661125,1.7291209,-1.023847,-1.8690269,-1.0462195,2.0075707,1.1817576,-0.9322185,-1.5814621,0.9668145,-0.012844889,1.1167604,0.97456163,0.9739633,-0.35196897,2.8620243,-0.36051178,0.6810252,-3.5834663,-0.007286552,4.3019223,0.47943115,-0.50566864,0.7213264,0.63512766,0.14488189,0.1259542,0.7481695,-1.3153459,-0.803833,0.9295127,1.0,0.0,0.0,0.0,0.0,0.0,0.0,-3.5120244,-0.039488226,-0.1310252,-15.15317,7.399261,46.019768,-18.86425,-15.220869,-11.956633,-3.040135
29.353495,121.691284,48.947475,6.1693735,-1.1921043,3.879119,0.5142549,-0.8187461,0.631704,0.1262393,0.5638985,0.6060571,0.6074783,-0.57054526,1.6472462,-0.9606766,-1.856403,-0.9898296,2.0681765,1.2425054,-0.989273,1.7130305,-1.013513,-1.866925,-1.0359617,2.0166574,1.1907679,-0.9358501,-1.6192241,1.0546265,0.28753862,0.9948139,0.8860897,0.8768277,-0.36879486,2.8262177,-0.36058807,0.7232757,-3.5798836,-0.007279267,4.1994348,0.4662323,-0.5125809,0.73141426,0.64624625,0.13572207,0.1210045,0.74114984,-1.3287945,-0.6389022,1.0345701,1.0,0.0,0.0,0.0,0.0,0.0,0.0,-3.4762177,-0.039411932,-0.17327571,-4.097843,8.550286,30.985647,-12.383842,-9.079385,-9.683561,-2.2652984
34.426857,108.84902,41.780365,4.070739,-1.2790308,2.7220397,0.36326322,-0.8205838,0.6733196,0.16189654,0.5633923,0.6133729,0.6143174,-0.5506184,1.630972,-0.946181,-1.8507353,-0.97962254,2.0779946,1.2521996,-0.9909119,1.6970335,-1.0023073,-1.8629234,-1.0264364,2.0252252,1.1989447,-0.9396028,-1.5939596,1.1419817,0.43983287,0.9380405,0.8468305,0.79827124,-0.37889755,2.7904453,-0.36066437,0.7645021,-3.5763044,-0.0072719892,4.09705,0.45308495,-0.5180435,0.74230903,0.6566915,0.12601443,0.11637111,0.73439384,-1.3166243,-0.49852735,1.1059847,1.0,0.0,0.0,0.0,0.0,0.0,0.0,-3.4404454,-0.03933564,-0.2145021,2.3135424,8.574343,15.857315,-5.819893,-4.028201,-7.765317,-1.4642894
32.17816,93.79508,33.970882,3.4545975,-1.133224,1.811791,0.23255377,-0.8162291,0.69794965,0.18275233,0.5450141,0.6233345,0.6182739,-0.53947026,1.6154106,-0.93251234,-1.8446481,-0.97193503,2.0875585,1.2607721,-0.9935498,1.6814848,-0.9903343,-1.8581989,-1.0172011,2.0336556,1.2064482,-0.9434232,-1.5424503,1.2154272,0.4847673,0.91822237,0.84134394,0.73477113,-0.38439217,2.7547092,-0.36074066,0.8047054,-3.5727289,-0.0072647184,3.994768,0.44012642,-0.522316,0.7536756,0.6666098,0.11603334,0.112101756,0.7277367,-1.2932966,-0.38734376,1.1441638,1.0,0.0,0.0,0.0,0.0,0.0,0.0,-3.4047093,-0.039259344,-0.25470537,5.0005436,7.236862,4.9187183,-2.1201015,-0.5792022,-6.2319994,-0.9117842
28.113297,82.64293,28.38006,3.5293312,-0.938061,1.2777462,0.16689286,-0.8053978,0.7234699,0.19850618,0.5249261,0.6371871,0.6280652,-0.5236869,1.600945,-0.9179873,-1.8383483,-0.96470845,2.0973744,1.2692547,-0.9957919,1.6664778,-0.9777334,-1.8534553,-1.0080668,2.0421815,1.2134119,-0.94727224,-1.4871757,1.2746462,0.4720056,0.9113401,0.85632795,0.68400365,-0.38610327,2.7190094,-0.36081696,0.8438867,-3.569157,-0.007257455,3.8925881,0.42741394,-0.5256424,0.765259,0.6761015,0.10597507,0.108190194,0.72107613,-1.2673637,-0.29777515,1.1598449,1.0,0.0,0.0,0.0,0.0,0.0,0.0,-3.3690095,-0.03918305,-0.29388666,5.4038763,5.847454,-0.9560764,-0.8408189,1.5064836,-4.949951,-0.47852397
19.154377,69.99754,22.239983,4.97038,-0.5698047,0.88185906,0.08444275,-0.810494,0.731204,0.18447226,0.5103954,0.64895284,0.63166076,-0.5176648,1.5854284,-0.90461296,-1.835008,-0.95702726,2.107077,1.276578,-0.9990387,1.6518828,-0.9647052,-1.8490989,-0.9989954,2.0509248,1.2199427,-0.9511251,-1.4506773,1.3121473,0.42436787,0.9052488,0.8802692,0.6430057,-0.3857674,2.683344,-0.36089325,0.8820469,-3.5655885,-0.007250199,3.7905104,0.41490364,-0.52825546,0.77683353,0.68526334,0.09600662,0.10459277,0.71432287,-1.2481177,-0.23382655,1.1533835,1.0,0.0,0.0,0.0,0.0,0.0,0.0,-3.333344,-0.039106756,-0.33204687,3.5360813,3.7063599,-4.524523,-0.78903437,2.4415255,-3.9746404,-0.22104383
17.215803,64.36286,20.126402,4.046721,-0.5120953,0.74859595,0.16035973,-0.80524343,0.7413678,0.20595211,0.46343082,0.66021764,0.6337075,-0.5195852,1.5713584,-0.89056844,-1.8285037,-0.95265234,2.1169465,1.2833134,-1.0030836,1.6375338,-0.9514177,-1.8451221,-0.99017966,2.0599198,1.2261206,-0.95497125,-1.4299822,1.3341458,0.38965672,0.8730559,0.9060998,0.61002374,-0.38518694,2.6477146,-0.3609619,0.9191871,-3.5620236,-0.0072429506,3.6885347,0.40257835,-0.5302658,0.7882622,0.69408035,0.08621296,0.101241484,0.7075096,-1.2291933,-0.17434375,1.135993,1.0,0.0,0.0,0.0,0.0,0.0,0.0,-3.2977147,-0.039038092,-0.36918712,1.9432068,2.168417,-3.2155454,-3.4278274,2.6349425,-3.1481028,-0.19099116
15.421019,60.26605,18.675262,3.8605652,-0.43495417,0.6723255,0.20572174,-0.801301,0.74318475,0.21125026,0.43817672,0.6616555,0.6348128,-0.51610786,1.5574037,-0.8770992,-1.823997,-0.94636196,2.1260853,1.2896019,-1.006582,1.6233011,-0.9380138,-1.8413646,-0.9817873,2.0691323,1.2320162,-0.95880884,-1.4212846,1.3424302,0.37188765,0.8271594,0.92648375,0.58338076,-0.38417,2.6121216,-0.36103058,0.9553084,-3.5584624,-0.007235709,3.586661,0.39042854,-0.5317192,0.79947144,0.70252115,0.07661484,0.09807035,0.700697,-1.2111876,-0.11930915,1.1124895,1.0,0.0,0.0,0.0,0.0,0.0,0.0,-3.2621217,-0.038969427,-0.40530837,0.739336,0.8076191,-1.5139759,-4.810548,2.0964384,-2.4981856,-0.1411438
17.290306,60.854225,19.011927,2.7552438,-0.57584655,0.64426404,0.2721705,-0.79347867,0.7598261,0.20799322,0.39397717,0.6700322,0.6417957,-0.50462157,1.5439533,-0.86203116,-1.8205653,-0.9423896,2.1361356,1.2961957,-1.009271,1.6091276,-0.92451644,-1.8377006,-0.97399485,2.0785203,1.2376906,-0.96262926,-1.4163893,1.3520728,0.36556286,0.762562,0.94318306,0.562642,-0.3821402,2.576563,-0.36109924,0.99041164,-3.5549047,-0.0072284746,3.4848895,0.37849426,-0.5325775,0.81043833,0.7105381,0.06720544,0.09507368,0.6939597,-1.1882647,-0.059331954,1.0879396,1.0,0.0,0.0,0.0,0.0,0.0,0.0,-3.226563,-0.038900763,-0.44041163,0.35111904,0.9472132,-0.35031438,-6.682956,1.7291069,-1.8818498,-0.041019917
19.329884,60.22109,18.942768,1.1636171,-0.73487157,0.5584272,0.35462165,-0.7947654,0.76366097,0.21630284,0.33205202,0.6760323,0.6453443,-0.49597734,1.529651,-0.8481504,-1.8160703,-0.94078964,2.1461234,1.302225,-1.0122269,1.5949675,-0.91093516,-1.8340023,-0.9670273,2.0880456,1.2431914,-0.9664239,-1.416433,1.360117,0.3722333,0.6740427,0.95621383,0.5466298,-0.37936437,2.5410404,-0.3611679,1.024498,-3.5513504,-0.0072212475,3.3832195,0.36682892,-0.53279495,0.8211303,0.7180683,0.057994727,0.09225962,0.68738824,-1.1587892,0.004598355,1.0593622,1.0,0.0,0.0,0.0,0.0,0.0,0.0,-3.1910405,-0.0388321,-0.47449797,-0.14901161,0.7951975,0.9614408,-9.079266,1.3640046,-1.3678908,0.03761053
21.942366,60.226444,19.121769,-0.30015373,-0.90963966,0.4607715,0.42327517,-0.7916907,0.7684493,0.22834049,0.27208167,0.67307925,0.6438029,-0.48360923,1.5157984,-0.83409023,-1.8111682,-0.93981916,2.1553535,1.3075716,-1.0147848,1.5808073,-0.89727473,-1.830157,-0.9610678,2.0976586,1.2485567,-0.9701833,-1.4165856,1.3679832,0.38962144,0.5690956,0.96325004,0.5339698,-0.37556103,2.5055542,-0.36123657,1.0575683,-3.5477998,-0.007214028,3.2816513,0.35551453,-0.53234863,0.83152044,0.7250573,0.04899214,0.08964469,0.6810693,-1.1215091,0.072196744,1.0284983,1.0,0.0,0.0,0.0,0.0,0.0,0.0,-3.1555543,-0.038763434,-0.5075683,-0.15616417,0.7875681,2.0253778,-10.71651,0.77426434,-0.9925008,0.14835
24.470493,59.549026,18.845697,-2.066494,-1.1091206,0.29110137,0.4813945,-0.7910976,0.77671903,0.23011671,0.19346014,0.6807476,0.6441037,-0.47868425,1.5016975,-0.81960285,-1.8071454,-0.9417218,2.1657333,1.3129671,-1.0180517,1.5666434,-0.883518,-1.8261402,-0.9563099,2.1073365,1.2538153,-0.9739036,-1.4167752,1.3782129,0.40669063,0.44393972,0.9696514,0.5242458,-0.37150702,2.4701023,-0.36130524,1.0896238,-3.5442526,-0.0072068158,3.1801846,0.34463692,-0.5312042,0.8415658,0.7314644,0.040237375,0.087269515,0.675074,-1.0748674,0.14178689,0.9926286,1.0,0.0,0.0,0.0,0.0,0.0,0.0,-3.1201024,-0.03869477,-0.5396238,-0.15397072,1.03724,1.9706786,-12.732082,0.724864,-0.65203905,0.191015
26.631083,58.758396,18.67458,-3.381319,-1.2364953,0.13895124,0.5358269,-0.78913367,0.77985126,0.2481686,0.11636564,0.6846646,0.6365394,-0.47306895,1.48773,-0.8055329,-1.8013233,-0.94467336,2.175803,1.3174692,-1.0212104,1.552487,-0.8696649,-1.8219078,-0.9529005,2.1170716,1.258988,-0.9775819,-1.4155874,1.3877765,0.4295441,0.30602068,0.9753617,0.5160406,-0.36725888,2.4346867,-0.3613739,1.1206653,-3.5407093,-0.00719961,3.0788193,0.33427048,-0.5293503,0.8512312,0.7372558,0.031765573,0.08514946,0.6694732,-1.0204535,0.21145003,0.95371264,1.0,0.0,0.0,0.0,0.0,0.0,0.0,-3.0846868,-0.038626105,-0.5706653,-0.0014066696,0.9854078,2.5132656,-13.994908,0.67533255,-0.46311617,0.22960901
26.987228,56.69092,17.9224,-3.9388647,-1.2662362,-0.016234487,0.55685073,-0.7915177,0.7797274,0.26376393,0.038416967,0.68431044,0.6377007,-0.46684036,1.4733353,-0.79169214,-1.7955314,-0.94905883,2.1855028,1.3227581,-1.024266,1.5383326,-0.85574126,-1.8174217,-0.9509188,2.1268525,1.2640902,-0.9812164,-1.4155802,1.3940476,0.45565268,0.16159208,0.9793294,0.50967765,-0.36274993,2.3993073,-0.36144257,1.150694,-3.5371692,-0.007192412,2.9775553,0.32448006,-0.5268326,0.8604824,0.74242646,0.023610903,0.083285965,0.6643108,-0.9616291,0.27709064,0.9112707,1.0,0.0,0.0,0.0,0.0,0.0,0.0,-3.0493073,-0.03855744,-0.600694,-0.10201931,0.6718397,2.790463,-14.631283,0.5222082,-0.2568245,0.2813995
31.316936,55.333885,17.788275,-7.038034,-1.5514096,-0.24589309,0.6736318,-0.7872081,0.7820569,0.29134092,-0.086550795,0.68625706,0.63676304,-0.46441868,1.4596118,-0.77753556,-1.7882876,-0.95957386,2.1954782,1.3277665,-1.0276582,1.5241991,-0.841769,-1.8126037,-0.9506117,2.1366677,1.2691408,-0.9848079,-1.4129167,1.39856,0.49107325,-0.013551246,0.98262846,0.5050553,-0.35842425,2.3639622,-0.36151123,1.1797109,-3.5336328,-0.007185221,2.8763924,0.31537437,-0.5236168,0.8692533,0.7469131,0.015839398,0.081697434,0.6596935,-0.8890438,0.34588096,0.8611602,1.0,0.0,0.0,0.0,0.0,0.0,0.0,-3.0139623,-0.038488775,-0.62971085,0.18639565,0.5117893,3.6836565,-17.684082,0.47073364,-0.020563602,0.28668642
35.047173,53.287815,17.318525,-10.174953,-1.8248514,-0.5095103,0.7897318,-0.7866941,0.7829588,0.31683242,-0.22073853,0.6899112,0.6302776,-0.4482003,1.4455297,-0.7634731,-1.7809205,-0.9726856,2.205659,1.3321686,-1.0296279,1.5100962,-0.8277643,-1.8073814,-0.9523102,2.1465173,1.2741514,-0.98834795,-1.4096955,1.4013267,0.53302956,-0.22230947,0.9862701,0.50133735,-0.35283658,2.3286514,-0.3615799,1.2077168,-3.5300999,-0.0071780374,2.775331,0.30709267,-0.5197067,0.87745506,0.7506347,0.008549789,0.080413565,0.6557501,-0.8026671,0.4158227,0.80170214,1.0,0.0,0.0,0.0,0.0,0.0,0.0,-2.9786515,-0.03842011,-0.6577168,0.27222633,0.35333633,4.2856574,-21.017826,0.5210757,0.12499094,0.44712424
36.082684,54.92965,18.239422,-9.926535,-1.8156288,-0.51963836,0.8265495,-0.7813073,0.7876371,0.36555138,-0.3081628,0.689333,0.63021296,-0.42381707,1.4319655,-0.74900055,-1.7708262,-0.98312646,2.2154505,1.3371727,-1.0307297,1.4960467,-0.8137224,-1.8016021,-0.95606387,2.1563973,1.2791296,-0.9918174,-1.4034586,1.4054923,0.5929265,-0.42661265,0.98923147,0.49834126,-0.34517574,2.293377,-0.36164856,1.2347128,-3.5265703,-0.0071708607,2.6743703,0.29968452,-0.5150795,0.8851017,0.7535639,0.0017370026,0.079411715,0.65255815,-0.7144333,0.48582923,0.74732584,1.0,0.0,0.0,0.0,0.0,0.0,0.0,-2.943377,-0.038351446,-0.6847128,0.61182976,0.5110979,5.9906006,-20.524996,0.50429106,0.19619465,0.6883085
32.87936,56.346527,18.91159,-6.3140516,-1.4552177,-0.38951007,0.75401247,-0.77333367,0.78707296,0.41173884,-0.35133275,0.6936571,0.6361249,-0.38509056,1.4187133,-0.7350151,-1.7604282,-0.99119717,2.225763,1.3427421,-1.0303265,1.4820887,-0.799649,-1.795119,-0.96153414,2.1663156,1.284083,-0.9951858,-1.3930038,1.4083695,0.66645265,-0.5873766,0.99368316,0.49607652,-0.3342347,2.2581387,-0.36171722,1.2607001,-3.5230446,-0.0071636913,2.5735106,0.29306793,-0.5098038,0.8923056,0.75576055,-0.0047122003,0.07860389,0.6500963,-0.637544,0.5488906,0.7060359,1.0,0.0,0.0,0.0,0.0,0.0,0.0,-2.9081388,-0.03828278,-0.7107001,1.0635138,0.40221214,7.245457,-16.139389,0.7256031,0.22566319,1.0397911
30.92114,56.862904,19.07051,-4.146562,-1.2899758,-0.36918435,0.6876472,-0.7624779,0.79206526,0.44103125,-0.4202359,0.6883177,0.63051826,-0.35060975,1.4058409,-0.7204425,-1.7510159,-1.0035577,2.2351472,1.3471348,-1.0302467,1.4682738,-0.7855327,-1.7879131,-0.9683949,2.1762605,1.2890135,-0.9984254,-1.3774017,1.4132296,0.73800564,-0.7190608,0.99558693,0.4935032,-0.32071486,2.2229347,-0.3617859,1.2856795,-3.5195222,-0.0071565295,2.4727519,0.28717804,-0.5039177,0.8991513,0.7572948,-0.010881823,0.077953495,0.64831275,-0.5659919,0.60737485,0.6716615,1.0,0.0,0.0,0.0,0.0,0.0,0.0,-2.8729348,-0.038214117,-0.73567945,1.6011953,0.6169081,6.9699764,-13.210869,0.5154371,0.17348528,1.3190985
27.946108,56.160793,18.779709,-1.3847718,-1.0186908,-0.3492835,0.5946493,-0.7470487,0.79212546,0.4709849,-0.45651844,0.6963556,0.62539303,-0.32582188,1.3935689,-0.70632017,-1.7408146,-1.0140467,2.245896,1.3515528,-1.0310076,1.4546648,-0.77137446,-1.7800395,-0.9762913,2.1862397,1.2939154,-1.0015221,-1.3552115,1.4171728,0.8030209,-0.81330484,0.9999715,0.490487,-0.3061166,2.1877651,-0.36185455,1.309652,-3.5160034,-0.007149374,2.372094,0.28193474,-0.49750137,0.90570843,0.7582517,-0.016838968,0.077425055,0.6471292,-0.5028692,0.6579885,0.6442851,1.0,0.0,0.0,0.0,0.0,0.0,0.0,-2.8377652,-0.038145453,-0.75965196,2.2746801,0.53987503,6.254244,-9.463919,0.79704523,0.100553036,1.4371872
20.686817,52.66885,16.91543,2.7829533,-0.605778,-0.3172011,0.41752627,-0.75360453,0.7919237,0.48324087,-0.47569853,0.69123274,0.6252459,-0.29932764,1.3793044,-0.69218206,-1.7317154,-1.0238612,2.255363,1.35644,-1.0314548,1.4412085,-0.7571895,-1.7716491,-0.98485625,2.1962419,1.2987868,-1.004467,-1.3424026,1.4195441,0.8503967,-0.87114495,1.0015366,0.4871769,-0.2906976,2.1526318,-0.36192322,1.3326186,-3.5124881,-0.007142226,2.2715366,0.27721024,-0.49068832,0.9120234,0.7587743,-0.022629017,0.077005394,0.64638966,-0.4553512,0.6946511,0.6209376,1.0,0.0,0.0,0.0,0.0,0.0,0.0,-2.8026319,-0.03807679,-0.7826186,1.3086557,0.3882408,4.4909596,-5.851364,0.5131364,0.010573864,1.524198
18.054604,51.876884,16.535524,4.917344,-0.4341985,-0.293535,0.33642,-0.73999166,0.7961367,0.5080498,-0.49477494,0.6876451,0.62558067,-0.2690012,1.3672093,-0.6775758,-1.7208441,-1.0343337,2.2650063,1.3613448,-1.0313672,1.4278895,-0.7429712,-1.7628429,-0.993817,2.206244,1.3036276,-1.0072498,-1.32836,1.4231594,0.88977826,-0.90474397,1.0007968,0.4840602,-0.27428064,2.1175327,-0.36199188,1.3545805,-3.5089762,-0.0071350858,2.1710796,0.27290535,-0.48352814,0.9181422,0.7589564,-0.028297326,0.07669567,0.64598924,-0.41439107,0.7265025,0.6021554,1.0,0.0,0.0,0.0,0.0,0.0,0.0,-2.7675328,-0.038008124,-0.8045805,1.4254808,0.5205631,3.678441,-3.4360886,0.29181242,0.0053167343,1.626128
11.299533,49.286297,15.043019,8.939993,-0.0631212,-0.20712934,0.17271566,-0.7528247,0.79979426,0.51461476,-0.48414427,0.68116826,0.62594825,-0.23712909,1.352607,-0.66299176,-1.7113814,-1.0422314,2.274361,1.3662224,-1.0309627,1.4146067,-0.7287061,-1.7537467,-1.0028912,2.2162118,1.308436,-1.009861,-1.3281661,1.4281524,0.91550016,-0.9086465,0.99675477,0.48083112,-0.2568556,2.08247,-0.36206055,1.3755386,-3.505468,-0.007127952,2.0707233,0.2688923,-0.47613144,0.92411125,0.7589245,-0.033889193,0.07650871,0.6457798,-0.3888293,0.7478606,0.58831835,1.0,0.0,0.0,0.0,0.0,0.0,0.0,-2.73247,-0.03793946,-0.8255386,-0.008201599,0.6610155,2.34555,-0.50115585,-0.04566908,-0.06392598,1.7258644
8.359019,44.606106,13.063832,9.557474,0.07080293,-0.3268493,0.11775555,-0.7586461,0.79492587,0.51676804,-0.50748056,0.6866111,0.61718893,-0.21723703,1.3387421,-0.64921355,-1.70207,-1.0536393,2.284873,1.370155,-1.0315847,1.4012629,-0.7144239,-1.7444904,-1.0120121,2.2261567,1.3132082,-1.0123024,-1.336654,1.4288526,0.9284855,-0.91351,0.99450415,0.47688666,-0.23975642,2.0474415,-0.3621292,1.3954937,-3.5019631,-0.0071208254,1.9704671,0.26511383,-0.46858215,0.9299018,0.7587553,-0.039366867,0.07645246,0.64567447,-0.36656567,0.76040876,0.5691105,1.0,0.0,0.0,0.0,0.0,0.0,0.0,-2.6974416,-0.037870795,-0.84549373,-0.90010166,0.22354126,1.118958,-0.62003136,0.09447336,-0.16232729,1.6912907
4.9968452,42.2646,12.11683,11.811469,0.30399418,-0.29411587,0.04096793,-0.76438236,0.793663,0.52500623,-0.48123375,0.67710584,0.61766386,-0.16257991,1.3248247,-0.63505757,-1.6919898,-1.0601355,2.2938673,1.3749746,-1.0285604,1.3877951,-0.70015216,-1.7351406,-1.0210301,2.2360559,1.3179442,-1.0145493,-1.3502684,1.4271332,0.936672,-0.8982479,0.9893962,0.47313446,-0.21969041,2.0124474,-0.36219788,1.4144472,-3.498462,-0.0071137063,1.870311,0.26149178,-0.4609642,0.9355259,0.7585136,-0.044744723,0.07652174,0.64559996,-0.3527517,0.76638997,0.5531834,1.0,0.0,0.0,0.0,0.0,0.0,0.0,-2.6624475,-0.03780213,-0.8644472,-1.4401197,-0.017809868,0.65888166,1.367414,-0.19340515,-0.17447472,1.9802809
5.6754565,41.775375,12.257202,11.845772,0.31811577,-0.32113183,0.063148744,-0.7603368,0.79325914,0.53670156,-0.47726944,0.6828511,0.624311,-0.11456242,1.3117614,-0.62082624,-1.6814704,-1.068757,2.3043408,1.3803753,-1.0260055,1.3742281,-0.6859033,-1.7256973,-1.029863,2.2459245,1.3226515,-1.0165768,-1.3591568,1.4245663,0.9465374,-0.8788447,0.98722756,0.47055072,-0.19723302,1.9774895,-0.36226654,1.4323999,-3.4949644,-0.007106594,1.7702551,0.25800705,-0.4532776,0.9410005,0.7582021,-0.05004525,0.0766924,0.64555657,-0.33819807,0.7724879,0.5384493,1.0,0.0,0.0,0.0,0.0,0.0,0.0,-2.6274896,-0.037733465,-0.88239986,-0.9613991,-0.1019001,0.82422495,1.7844081,0.10006428,-0.058287382,2.216992
5.2728186,39.4708,11.403549,11.530106,0.31400025,-0.4150823,0.05948343,-0.7719356,0.79077685,0.5331877,-0.48235366,0.6814157,0.621562,-0.090771206,1.2970345,-0.60682565,-1.6723785,-1.0780984,2.314066,1.3848077,-1.0256538,1.3605505,-0.67168975,-1.716193,-1.0385529,2.2557778,1.327334,-1.018383,-1.3710221,1.4207548,0.9512065,-0.866258,0.9855483,0.46811405,-0.1751302,1.9425659,-0.3623352,1.4493526,-3.49147,-0.0070994888,1.6702992,0.25468636,-0.44555283,0.94630176,0.75782144,-0.05524042,0.07696668,0.6455473,-0.32235673,0.7758326,0.5201496,1.0,0.0,0.0,0.0,0.0,0.0,0.0,-2.592566,-0.0376648,-0.8993526,-1.2657404,-0.23229122,0.33156872,1.0994434,0.12670755,-0.05235672,2.1817088
4.484208,37.90933,10.873989,12.050379,0.36680287,-0.44655222,0.033139713,-0.7788582,0.7883627,0.5326594,-0.46526572,0.6762378,0.62627214,-0.06716923,1.2826647,-0.5928535,-1.662927,-1.0850794,2.3234017,1.3899612,-1.0251,1.3467451,-0.65752006,-1.7066677,-1.0470864,2.2656045,1.3319994,-1.0199738,-1.3838285,1.4162158,0.9524245,-0.84952897,0.98255366,0.4664323,-0.15376589,1.9076767,-0.36240387,1.4653066,-3.4879794,-0.0070923907,1.5704432,0.251503,-0.43780136,0.9514208,0.7573928,-0.06032322,0.07735189,0.6455492,-0.30787987,0.7767542,0.5019904,1.0,0.0,0.0,0.0,0.0,0.0,0.0,-2.5576768,-0.037596136,-0.9153066,-1.3685226,-0.30696392,0.0012993813,1.5074611,-0.015258789,0.011080503,2.1062226
2.7186065,34.996933,9.680463,12.836468,0.48088115,-0.49594063,-0.0137656,-0.7903648,0.78272843,0.5222634,-0.44900596,0.6736903,0.63623905,-0.036532562,1.2677087,-0.57924724,-1.6544414,-1.0919869,2.3329735,1.3956233,-1.023627,1.3327872,-0.6434133,-1.6971939,-1.0554138,2.2753968,1.3366553,-1.0213509,-1.40012,1.4093451,0.9452729,-0.82780224,0.9788006,0.46590516,-0.13248384,1.8728237,-0.36247253,1.4802629,-3.484492,-0.0070852996,1.470687,0.24844742,-0.43009186,0.95635056,0.7569552,-0.06528692,0.077850886,0.6455196,-0.29647967,0.7721959,0.48278844,1.0,0.0,0.0,0.0,0.0,0.0,0.0,-2.5228238,-0.03752747,-0.93026286,-1.7336607,-0.54450035,-0.80946684,1.9914746,-0.10821819,0.10724664,2.0939708
2.4043941,34.533985,9.700924,13.780405,0.5609397,-0.48493636,-0.0054191537,-0.790447,0.78098005,0.5191324,-0.41882995,0.6684466,0.64090425,0.09333332,1.2537425,-0.5653153,-1.6452806,-1.0972968,2.3422415,1.4007456,-1.0120175,1.3186976,-0.62937236,-1.6878135,-1.0634247,2.2851396,1.3413111,-1.0224419,-1.4120125,1.4029349,0.9354078,-0.79273355,0.97377694,0.4659953,-0.101286754,1.8380051,-0.3625412,1.4942223,-3.4810083,-0.007078216,1.3710306,0.24548149,-0.42242813,0.9611154,0.7565141,-0.070160694,0.07845953,0.64545184,-0.28723955,0.76671,0.46731913,1.0,0.0,0.0,0.0,0.0,0.0,0.0,-2.4880052,-0.037458807,-0.9442223,-1.2960196,-0.49660206,-1.083386,3.3213854,-0.227952,0.15962124,3.0803308
1.9425058,30.748245,8.14421,12.801293,0.5472138,-0.6424321,-0.011798639,-0.806509,0.770928,0.5033703,-0.4328077,0.66843235,0.6398863,0.084927455,1.2380466,-0.55227953,-1.6374764,-1.1067054,2.3519828,1.4052998,-1.0139492,1.3044554,-0.6154258,-1.6785896,-1.0712048,2.2948403,1.3459688,-1.0232487,-1.4286314,1.3923314,0.91784894,-0.7736549,0.9693397,0.46605712,-0.07392434,1.8032207,-0.36260986,1.5071858,-3.4775279,-0.007071139,1.2714738,0.24263763,-0.41485214,0.9656716,0.7560756,-0.07489049,0.079186454,0.64534533,-0.2750853,0.75602835,0.44467437,1.0,0.0,0.0,0.0,0.0,0.0,0.0,-2.4532208,-0.037390143,-0.9571858,-1.7715216,-0.927186,-1.8175721,1.718092,-0.20682812,0.15053749,2.6969268
1.2811208,31.864996,8.953296,14.919891,0.694481,-0.5133672,-0.026237883,-0.80675,0.7701687,0.50775164,-0.3751303,0.66066223,0.65057474,0.19056481,1.2237804,-0.53840894,-1.6278144,-1.1087178,2.3609066,1.4110264,-1.0041922,1.2900797,-0.6015718,-1.6694973,-1.0786072,2.304484,1.3506323,-1.0237331,-1.4408944,1.3836257,0.9061471,-0.72964823,0.96350074,0.46703824,-0.040062226,1.7684708,-0.36267853,1.5191545,-3.474051,-0.007064069,1.1720166,0.23986244,-0.40738297,0.9700719,0.755648,-0.079537936,0.080008306,0.6451887,-0.2691431,0.74694043,0.43156525,1.0,0.0,0.0,0.0,0.0,0.0,0.0,-2.4184709,-0.037321478,-0.96915454,-1.3459921,-0.73029995,-1.2474537,4.2070866,-0.31580925,0.22696853,3.3413687
-0.71838665,31.849102,9.069059,17.932825,0.9319518,-0.3863461,-0.11661425,-0.80820686,0.76931775,0.4884994,-0.30607715,0.65742075,0.6581577,0.23444594,1.209259,-0.52464,-1.6206473,-1.1092149,2.370226,1.4164481,-1.0002885,1.2756144,-0.5877836,-1.6605728,-1.0853077,2.3140664,1.355311,-1.0238762,-1.448944,1.3777529,0.8878293,-0.6507179,0.9577728,0.4684836,-0.005850268,1.733757,-0.3627472,1.5301296,-3.4705777,-0.0070570065,1.0726588,0.23707962,-0.40000534,0.9744177,0.7552816,-0.084222786,0.08088875,0.64491326,-0.272656,0.7360785,0.4288257,1.0,0.0,0.0,0.0,0.0,0.0,0.0,-2.383757,-0.037252814,-0.98012954,-0.9463787,-0.44090748,-1.9150853,7.683933,-0.28196573,0.24650693,3.370503
2.7861276,32.282448,9.477143,14.803064,0.6127861,-0.5608032,-0.015986137,-0.8114484,0.7677097,0.48703292,-0.34086516,0.65793365,0.65652984,0.2377334,1.1944696,-0.5110126,-1.6118695,-1.1193942,2.3798597,1.420964,-1.0001029,1.261088,-0.5740373,-1.6518028,-1.091478,2.323607,1.3600031,-1.0237064,-1.4540305,1.3740156,0.8733306,-0.60640246,0.95356506,0.46991926,0.024262337,1.6990776,-0.36281586,1.5401115,-3.4671078,-0.007049951,0.97340035,0.23435783,-0.39269638,0.97867465,0.75493467,-0.08889982,0.08184928,0.6445704,-0.26311556,0.7306584,0.41793677,1.0,0.0,0.0,0.0,0.0,0.0,0.0,-2.3490777,-0.03718415,-0.99011153,-0.61843395,-0.23691654,-1.5206575,4.2572618,-0.15922785,0.26916862,2.9680192
4.653572,32.709377,9.842258,13.3937,0.4346248,-0.6482736,0.03732211,-0.8127455,0.76777095,0.4821042,-0.32657674,0.64798915,0.653225,0.27719405,1.1798135,-0.4972602,-1.6035924,-1.1241356,2.3884058,1.4253256,-0.99598706,1.2465311,-0.5603111,-1.6431549,-1.0973221,2.3330865,1.3647047,-1.023243,-1.4566418,1.3725756,0.8617001,-0.5775298,0.946964,0.47090927,0.053571194,1.6644325,-0.36288452,1.5491017,-3.4636414,-0.0070429025,0.8742411,0.23178291,-0.38541794,0.9827993,0.75455433,-0.09351661,0.0829308,0.64422417,-0.24667646,0.72882235,0.40397477,1.0,0.0,0.0,0.0,0.0,0.0,0.0,-2.3144326,-0.037115484,-0.9991017,-0.35612583,-0.0114917755,-1.2267113,2.7325034,-0.41155815,0.23437738,2.8908856
7.3799686,32.788296,10.232331,10.937124,0.21716654,-0.7796912,0.14078888,-0.8103656,0.7633346,0.488624,-0.33969402,0.65097874,0.6618917,0.30776238,1.1654946,-0.48397762,-1.5942924,-1.1312915,2.3981843,1.4308939,-0.9924667,1.2319762,-0.5466087,-1.6345527,-1.1030766,2.3425164,1.3694235,-1.0224953,-1.4553087,1.3697801,0.85954696,-0.5751476,0.9425544,0.47279054,0.08158295,1.6298218,-0.3629532,1.557101,-3.4601786,-0.007035861,0.77518106,0.22944641,-0.37812042,0.98673606,0.754069,-0.098012745,0.08414636,0.64396656,-0.22048986,0.73054224,0.3836884,1.0,0.0,0.0,0.0,0.0,0.0,0.0,-2.2798219,-0.03704682,-1.007101,0.070381165,-0.15211105,-0.27977228,0.11019707,-0.21094084,0.34445524,2.764608
7.797136,31.156813,9.520998,9.743254,0.12515867,-0.910061,0.16086827,-0.8139264,0.76216716,0.47487476,-0.34639022,0.6424726,0.6568886,0.34123662,1.1505835,-0.47039196,-1.5870652,-1.1377156,2.4067638,1.4351124,-0.9883716,1.2174269,-0.5329349,-1.6260021,-1.1089226,2.3518891,1.3741575,-1.0214748,-1.4550463,1.3669068,0.8532104,-0.5882875,0.9362253,0.47406235,0.10884736,1.5952454,-0.36302185,1.5641106,-3.4567192,-0.0070288265,0.67622,0.22740746,-0.37082672,0.9904306,0.75345254,-0.10231814,0.08552421,0.6438368,-0.18943791,0.7304918,0.35804036,1.0,0.0,0.0,0.0,0.0,0.0,0.0,-2.2452455,-0.036978155,-1.0141106,-0.028157234,-0.16469955,-0.68445206,-1.4341831,-0.42592287,0.28552413,2.693753
7.1991196,28.974354,8.707743,9.923017,0.18338704,-0.9683174,0.1483808,-0.8091063,0.75607234,0.4647052,-0.3371811,0.63298804,0.6635034,0.3840127,1.1365162,-0.45732766,-1.5795316,-1.1426407,2.4151878,1.4405079,-0.9830736,1.2029024,-0.5193126,-1.6175525,-1.1148812,2.3611817,1.3789068,-1.0201797,-1.4517642,1.3610502,0.8420872,-0.59884906,0.9274185,0.4756945,0.13636312,1.5607033,-0.36309052,1.5701313,-3.453263,-0.007021799,0.5773579,0.22567368,-0.36354828,0.99386185,0.7527151,-0.10640575,0.08707288,0.6438292,-0.15892148,0.726769,0.3315726,1.0,0.0,0.0,0.0,0.0,0.0,0.0,-2.2107034,-0.03690949,-1.0201313,0.28107166,-0.46372414,-1.1664987,-1.1803865,-0.6813288,0.31477213,2.716571
7.771785,25.51193,7.0837145,7.0979123,0.035066724,-1.2191521,0.19057767,-0.81766146,0.74819493,0.45379877,-0.40283147,0.63234675,0.6575967,0.37439364,1.1211363,-0.44449311,-1.5721726,-1.1551644,2.4244163,1.4446665,-0.9827404,1.1883703,-0.505779,-1.6092498,-1.1212288,2.3703904,1.3836657,-1.0186443,-1.4537777,1.3511518,0.8261796,-0.64709175,0.91946024,0.47660542,0.1591362,1.5261974,-0.36315918,1.5751641,-3.4498105,-0.007014779,0.4785947,0.22431755,-0.35634995,0.99693185,0.7518504,-0.11014757,0.08882476,0.643971,-0.11941628,0.71767354,0.29231903,1.0,0.0,0.0,0.0,0.0,0.0,0.0,-2.1761975,-0.036840826,-1.0251641,-0.22351742,-0.87981224,-1.6220689,-4.9339294,-0.6466389,0.25022626,2.248335
8.053168,25.072077,6.835072,6.480131,-0.03504163,-1.2978171,0.1958392,-0.81672066,0.750164,0.4442596,-0.424631,0.6230595,0.6548851,0.3977683,1.1066983,-0.43076262,-1.5648239,-1.1636919,2.4326963,1.4491541,-0.97886753,1.1738154,-0.49232173,-1.6011245,-1.1281315,2.3795114,1.3884302,-1.0168934,-1.4559757,1.3442786,0.8078735,-0.7049027,0.9099053,0.47697204,0.1804259,1.4917259,-0.36322784,1.5792099,-3.4463615,-0.0070077656,0.37993023,0.22337723,-0.34923935,0.9995914,0.7508605,-0.11347123,0.09081175,0.64427155,-0.07664113,0.708072,0.25073242,1.0,0.0,0.0,0.0,0.0,0.0,0.0,-2.141726,-0.03677216,-1.0292099,-0.23272038,-0.5779743,-1.8594742,-5.879259,-0.81926584,0.18850565,2.105236
8.078644,23.805988,6.578973,6.416089,0.027147055,-1.3307974,0.21859011,-0.80996066,0.73985165,0.4426557,-0.4482278,0.6274083,0.6636674,0.42924637,1.0928193,-0.41833657,-1.5568589,-1.1729543,2.4422522,1.454797,-0.97396874,1.1592737,-0.47895837,-1.5931518,-1.1356198,2.3885636,1.3932043,-1.0149307,-1.4534643,1.334074,0.79351145,-0.76378214,0.9044273,0.47801697,0.20146872,1.4572887,-0.3632965,1.5822699,-3.442916,-0.0070007592,0.28136444,0.22286606,-0.342247,1.0018333,0.74973285,-0.11636203,0.0930074,0.6447559,-0.03405245,0.69639254,0.20891559,1.0,0.0,0.0,0.0,0.0,0.0,0.0,-2.1072888,-0.036703497,-1.03227,0.25959015,-0.9099722,-1.4845252,-5.9801936,-0.41337013,0.24818778,2.0804257
5.9416404,22.43005,5.985692,8.810936,0.24162608,-1.253917,0.12309307,-0.80980664,0.7394667,0.41917127,-0.44024253,0.61846983,0.66197556,0.43443173,1.0782931,-0.40501168,-1.5512347,-1.179644,2.4504106,1.4594018,-0.9714875,1.1447626,-0.46567845,-1.585387,-1.1435143,2.3975549,1.3979841,-1.0127754,-1.4503505,1.3263481,0.7707468,-0.798447,0.8979675,0.47854006,0.21995902,1.4228859,-0.36336517,1.584345,-3.4394736,-0.00699376,0.1828972,0.22272491,-0.33538437,1.0037076,0.74852103,-0.118870564,0.09538345,0.6453588,0.0003762656,0.68149734,0.17387885,1.0,0.0,0.0,0.0,0.0,0.0,0.0,-2.072886,-0.036634833,-1.0343449,0.29001236,-0.65710545,-2.3180127,-3.5792947,-0.49815178,0.1672566,1.8228918
3.9793124,19.02439,4.339672,9.513997,0.3985592,-1.3051748,0.054290924,-0.81313545,0.732128,0.38930157,-0.46815047,0.6173967,0.66758525,0.43321082,1.0634491,-0.39246565,-1.5464568,-1.1903293,2.4592946,1.4647427,-0.96945435,1.130263,-0.4524858,-1.5779483,-1.151733,2.4064927,1.4027716,-1.0104599,-1.4498894,1.3172766,0.7348505,-0.83019435,0.8928124,0.4792672,0.23531836,1.3885174,-0.36343384,1.5854361,-3.436035,-0.0069867675,0.08452839,0.22289848,-0.3287201,1.005224,0.747296,-0.12099652,0.097929485,0.64600176,0.0309644,0.6593452,0.13788524,1.0,0.0,0.0,0.0,0.0,0.0,0.0,-2.0385175,-0.036566168,-1.0354362,0.013923645,-0.796175,-3.6116242,-3.3011436,-0.38701296,0.16406178,1.5072256
3.0834484,16.414822,3.1035028,9.290265,0.44478282,-1.386131,0.026209088,-0.81180876,0.72471416,0.3639411,-0.5006482,0.60716414,0.66957927,0.43326303,1.049082,-0.3800144,-1.5415542,-1.2017978,2.467209,1.4697295,-0.9671336,1.1157671,-0.4393971,-1.5709331,-1.1603142,2.415358,1.4075667,-1.0080109,-1.4495465,1.3064393,0.6904325,-0.86803174,0.88506293,0.4799746,0.24795201,1.3541832,-0.3635025,1.5855443,-3.4325995,-0.006979782,-0.0137420725,0.22337914,-0.3223114,1.0063571,0.74610054,-0.12269891,0.10065519,0.64664316,0.061597776,0.6322014,0.09885016,1.0,0.0,0.0,0.0,0.0,0.0,0.0,-2.0041833,-0.036497504,-1.0355444,0.013947487,-0.9778738,-4.4587374,-3.9101124,-0.66792965,0.14683008,1.232332
1.616384,14.332526,2.0608563,10.182968,0.57409936,-1.4004157,-0.03560096,-0.8125053,0.72206736,0.3288116,-0.5098851,0.6057425,0.6661433,0.4269864,1.0345166,-0.36719036,-1.538052,-1.2113028,2.4759324,1.4741809,-0.96531224,1.1012694,-0.42640615,-1.5644405,-1.169233,2.4241548,1.4123656,-1.0054569,-1.4501476,1.2969735,0.6356317,-0.9003847,0.8781345,0.48000693,0.2576834,1.3198833,-0.36357117,1.5846705,-3.4291677,-0.0069728037,-0.111914285,0.22414017,-0.3162117,1.0071075,0.7449862,-0.123963855,0.10355791,0.6472281,0.088551156,0.60053176,0.06096443,1.0,0.0,0.0,0.0,0.0,0.0,0.0,-1.9698833,-0.03642884,-1.0346706,-0.09171963,-0.84335804,-5.4813623,-3.3709288,-0.5969763,0.05531907,0.93966126
1.1136422,12.564243,1.1712554,9.815823,0.6028877,-1.4715679,-0.047082726,-0.8115792,0.71691304,0.29333225,-0.5432387,0.60404116,0.66701984,0.4311051,1.0201114,-0.35471484,-1.5351073,-1.2235569,2.4845588,1.4790676,-0.96234643,1.0867697,-0.41350722,-1.5585506,-1.178537,2.4328904,1.4171644,-1.0028172,-1.4501224,1.2878798,0.5734824,-0.94083494,0.8723556,0.47987926,0.26595664,1.2856178,-0.36363983,1.5828158,-3.4257393,-0.0069658323,-0.20998834,0.22518158,-0.31044388,1.0074568,0.74398327,-0.124753945,0.10663908,0.64772946,0.11615671,0.5651411,0.02033116,1.0,0.0,0.0,0.0,0.0,0.0,0.0,-1.9356178,-0.036360174,-1.0328157,-0.011372566,-0.8103609,-6.2158465,-4.17428,-0.50257444,0.023680925,0.79375505
0.6875665,10.529748,0.12960398,9.151747,0.6151836,-1.5651945,-0.055228945,-0.8070334,0.71048194,0.24887267,-0.57859397,0.5973849,0.6667932,0.4284623,1.0060663,-0.34245902,-1.5336633,-1.2363964,2.4926288,1.4838438,-0.95997095,1.0722929,-0.40070415,-1.553355,-1.1883217,2.441565,1.4219595,-1.0001087,-1.4468307,1.2781359,0.5017128,-0.99146515,0.86559665,0.4795314,0.2724749,1.2513866,-0.3637085,1.579981,-3.4223142,-0.006958868,-0.30796435,0.226511,-0.30506897,1.0073689,0.7431117,-0.12501064,0.109905384,0.64813423,0.145228,0.52531356,-0.024292052,1.0,0.0,0.0,0.0,0.0,0.0,0.0,-1.9013866,-0.03629151,-1.0299809,0.3506422,-0.88038445,-7.1905613,-5.1823616,-0.62521696,-0.01450181,0.61588883
-1.5356824,6.8177958,-1.7078359,9.929909,0.8080323,-1.5866625,-0.12100495,-0.8140594,0.70141226,0.19742055,-0.59823704,0.5919622,0.66657823,0.42642465,0.990887,-0.33056292,-1.533613,-1.2481455,2.5007613,1.4886173,-0.95746624,1.0578161,-0.38801742,-1.5489566,-1.1986042,2.4501634,1.4267489,-0.99734503,-1.4478948,1.2658567,0.41907546,-1.040989,0.85814816,0.47884673,0.27751106,1.2171898,-0.36377716,1.5761672,-3.4188926,-0.0069519104,-0.4058424,0.22809601,-0.300148,1.0068281,0.7424232,-0.12470102,0.11335184,0.64838946,0.16872658,0.4777732,-0.06968153,1.0,0.0,0.0,0.0,0.0,0.0,0.0,-1.8671898,-0.036222845,-1.0261672,-0.0885725,-1.1423826,-8.258027,-5.082059,-0.71783066,-0.081670284,0.45976043
-2.3536077,5.3711386,-2.1626523,10.774006,0.93845963,-1.5459324,-0.13714279,-0.80794185,0.692735,0.15912415,-0.6171351,0.58804566,0.66161615,0.42589653,0.97702193,-0.3187439,-1.5330442,-1.2603177,2.5089679,1.4929105,-0.95475537,1.0433527,-0.3754685,-1.5453823,-1.2093464,2.4586892,1.4315287,-0.99453837,-1.4458499,1.2514845,0.3367125,-1.0855169,0.8508514,0.47751853,0.2815006,1.1830273,-0.36384583,1.5713755,-3.4154744,-0.00694496,-0.5036226,0.22988892,-0.29570007,1.0058485,0.74194205,-0.12383412,0.11694423,0.64846826,0.18811357,0.42830402,-0.112801425,1.0,0.0,0.0,0.0,0.0,0.0,0.0,-1.8330272,-0.03615418,-1.0213754,0.2304554,-1.353836,-8.239865,-4.584241,-0.70244074,-0.16818643,0.35080314
-2.6752224,6.363386,-1.3941655,12.5936165,0.99682224,-1.3852288,-0.15526877,-0.80854875,0.6921609,0.12912878,-0.62121177,0.5625008,0.6672327,0.44476214,0.96249783,-0.3062524,-1.5324694,-1.2714676,2.5149393,1.4982519,-0.95006216,1.0289046,-0.36303592,-1.5425632,-1.2204224,2.4670815,1.436299,-0.991684,-1.4446018,1.2408558,0.2637183,-1.1152626,0.8357382,0.4766525,0.28657722,1.1488972,-0.3639145,1.5656065,-3.4120595,-0.0069380165,-0.60130507,0.23184776,-0.2917137,1.0044882,0.7416713,-0.122488074,0.120677374,0.6483496,0.20258562,0.38403523,-0.14889212,1.0,0.0,0.0,0.0,0.0,0.0,0.0,-1.7988971,-0.036085516,-1.0156064,0.10843277,-0.97618103,-7.2820187,-3.1155348,-1.4582396,-0.14196038,0.4555881
-4.1880445,4.589617,-2.3213732,13.971136,1.1372231,-1.3318439,-0.2269456,-0.8074135,0.68752694,0.06562826,-0.62960285,0.54635054,0.67221594,0.42785403,0.9481632,-0.2942832,-1.5360004,-1.2833827,2.5217166,1.5035206,-0.9488986,1.0144678,-0.3506949,-1.5405548,-1.2317139,2.4752908,1.4410635,-0.9887963,-1.4432963,1.2321011,0.18009743,-1.1342951,0.8161423,0.476152,0.28927472,1.1148014,-0.36398315,1.5588614,-3.4086483,-0.00693108,-0.6988899,0.23391151,-0.28819656,1.0027896,0.7416537,-0.12071505,0.12455897,0.6479681,0.21160218,0.33716056,-0.18190065,1.0,0.0,0.0,0.0,0.0,0.0,0.0,-1.7648014,-0.03601685,-1.0088613,0.09512901,-0.79381466,-8.322644,-2.0573854,-1.9124627,-0.1337409,0.20746589
-5.819414,1.5579016,-3.8692796,14.327248,1.2450838,-1.3431625,-0.27464217,-0.811982,0.67655486,0.010022062,-0.6526951,0.5169344,0.6689031,0.41781446,0.9332696,-0.2830394,-1.5395526,-1.2969834,2.5269842,1.5079539,-0.94701487,1.0000197,-0.33846307,-1.5394447,-1.2432171,2.4832406,1.4458205,-0.98589426,-1.445278,1.2204612,0.088246636,-1.156084,0.7882872,0.47519928,0.29020885,1.08074,-0.36405182,1.5511413,-3.4052403,-0.00692415,-0.7963772,0.23604584,-0.2851715,1.0007468,0.7419357,-0.1185059,0.12860844,0.6472616,0.21689071,0.28513777,-0.21649094,1.0,0.0,0.0,0.0,0.0,0.0,0.0,-1.73074,-0.035948187,-1.0011413,-0.22389889,-1.0920048,-9.1370325,-2.3336887,-2.7625084,-0.2060175,0.019544363
-7.6800857,-2.257936,-6.149744,13.891162,1.3649497,-1.4433763,-0.33395582,-0.8120154,0.6695928,-0.070426285,-0.6818365,0.5035036,0.6669632,0.39181966,0.9188181,-0.27150378,-1.5464873,-1.3114008,2.533591,1.5125167,-0.9467123,0.98555243,-0.32635665,-1.5394161,-1.255016,2.490912,1.4505659,-0.98300654,-1.4471346,1.2075437,-0.025674537,-1.1884507,0.75974554,0.4738085,0.28799132,1.0467129,-0.36412048,1.5424471,-3.4018357,-0.0069172275,-0.89376694,0.2382145,-0.28273392,0.99831885,0.74257714,-0.11579127,0.13283673,0.64616245,0.21956185,0.22377913,-0.25619465,1.0,0.0,0.0,0.0,0.0,0.0,0.0,-1.6967129,-0.035879523,-0.9924471,-0.15730858,-1.2325287,-11.360526,-3.3822775,-2.876532,-0.2839744,-0.3070593
-9.314213,-4.820134,-7.670146,14.501085,1.4936452,-1.446044,-0.39319995,-0.80782086,0.6642516,-0.1493618,-0.6900068,0.47086117,0.66527367,0.38801676,0.9047704,-0.25993147,-1.5543523,-1.3240167,2.537998,1.5170933,-0.94420487,0.9710909,-0.31437612,-1.5406616,-1.2671219,2.4982514,1.4552943,-0.9801455,-1.4456452,1.1950052,-0.15760267,-1.2185153,0.7251772,0.4720263,0.28507406,1.0127201,-0.36418915,1.5327797,-3.3984346,-0.0069103115,-0.99105936,0.24038315,-0.28095245,0.9954902,0.74363244,-0.11253663,0.13726439,0.64459664,0.21741942,0.15726791,-0.29610085,1.0,0.0,0.0,0.0,0.0,0.0,0.0,-1.6627201,-0.035810858,-0.9827797,0.20897388,-1.2047052,-13.173029,-3.1522274,-3.5036802,-0.35812855,-0.39260387
-12.098853,-8.891131,-10.07445,15.588076,1.7885423,-1.439863,-0.48490915,-0.8132336,0.65667856,-0.24482964,-0.700647,0.4684103,0.66264343,0.3713573,0.8897675,-0.24870825,-1.5651445,-1.3371866,2.5450926,1.5215586,-0.9430098,0.9566246,-0.3025248,-1.543391,-1.2795025,2.5052972,1.4600016,-0.9773255,-1.4466528,1.1819423,-0.3112523,-1.2449384,0.6970626,0.46962786,0.28056675,0.9787617,-0.3642578,1.52214,-3.395037,-0.0069034025,-1.0882545,0.24246407,-0.27991104,0.9922642,0.7451758,-0.108716875,0.14186224,0.64247084,0.20567644,0.08129738,-0.33534557,1.0,0.0,0.0,0.0,0.0,0.0,0.0,-1.6287616,-0.035742193,-0.97214,-0.019574165,-1.2747288,-15.336135,-2.7937412,-2.8962612,-0.47326088,-0.56836605
-14.126785,-12.4929285,-11.623613,16.74707,1.9910595,-1.3436753,-0.52698326,-0.8144476,0.63414043,-0.31628987,-0.71050626,0.40925932,0.66355157,0.34404132,0.8751799,-0.23911077,-1.57502,-1.3505532,2.5462232,1.5263567,-0.94292134,0.9421421,-0.29087758,-1.5476577,-1.292112,2.51195,1.464686,-0.9745694,-1.448371,1.1590335,-0.46511567,-1.2667459,0.6544646,0.4672324,0.27352464,0.94483757,-0.36432648,1.5105292,-3.3916426,-0.0068965005,-1.1853524,0.24437332,-0.27965164,0.9886555,0.7472436,-0.10434948,0.14661445,0.63972056,0.18489133,0.0016895888,-0.37284076,1.0,0.0,0.0,0.0,0.0,0.0,0.0,-1.5948375,-0.03567353,-0.96052915,-0.06659031,-2.2753954,-15.372515,-2.3292065,-4.3576,-0.50807,-0.84504485
-15.960808,-15.979438,-13.078713,17.727667,2.1572008,-1.2486383,-0.5583621,-0.8125772,0.60871,-0.39857402,-0.72022766,0.34014007,0.65522677,0.3100837,0.8608844,-0.23000658,-1.5875151,-1.3641348,2.545964,1.5302087,-0.943561,0.92765486,-0.27954555,-1.5534599,-1.3049122,2.5180306,1.4693419,-0.97190577,-1.4483689,1.1245718,-0.61875516,-1.2849114,0.59234,0.4640117,0.2634542,0.9109459,-0.36439514,1.497948,-3.3882515,-0.0068896054,-1.2823533,0.24601746,-0.28020477,0.984679,0.74984837,-0.09946317,0.15152127,0.6362985,0.15585208,-0.08053318,-0.4090535,1.0,0.0,0.0,0.0,0.0,0.0,0.0,-1.5609459,-0.035604864,-0.94794804,0.1431942,-3.448367,-15.379167,-1.9545078,-6.3221335,-0.62150955,-1.174581
-16.660198,-16.663052,-13.277777,18.669462,2.2771668,-1.1221162,-0.5759028,-0.8171851,0.5941541,-0.47422177,-0.7314611,0.3130585,0.6437774,0.23780513,0.84593636,-0.22013013,-1.600882,-1.3780583,2.5493364,1.5337197,-0.94812524,0.9131504,-0.26857352,-1.5607498,-1.317886,2.5234933,1.4739577,-0.96939,-1.4507408,1.0880091,-0.7657113,-1.3019873,0.53033334,0.45963928,0.24701467,0.87708855,-0.3644638,1.4843976,-3.384864,-0.0068827174,-1.3792572,0.24733734,-0.28157425,0.98035806,0.7529904,-0.09408261,0.1565506,0.6321754,0.120254256,-0.161006,-0.4423926,1.0,0.0,0.0,0.0,0.0,0.0,0.0,-1.5270885,-0.0355362,-0.93439764,-0.10111332,-3.6726713,-14.695525,-1.8355608,-6.3171625,-0.7716477,-1.8215418
-16.294237,-16.346508,-12.548864,19.321655,2.2622917,-0.95526326,-0.5410745,-0.8134478,0.5656821,-0.53018874,-0.7414513,0.23505093,0.63852155,0.1724424,0.83180565,-0.21200532,-1.6137687,-1.3920311,2.5469985,1.5378098,-0.95214576,0.8986403,-0.25801873,-1.5693672,-1.3310257,2.5282197,1.4785277,-0.96707827,-1.4507012,1.0445787,-0.893889,-1.3184645,0.4532662,0.4550625,0.22528766,0.84326553,-0.36453247,1.4698789,-3.38148,-0.006875836,-1.4760643,0.24828339,-0.28369904,0.9757192,0.7566251,-0.08825708,0.16169356,0.6273629,0.08130505,-0.23466128,-0.47324264,1.0,0.0,0.0,0.0,0.0,0.0,0.0,-1.4932655,-0.035467535,-0.9198789,0.13024807,-4.3694735,-12.816167,-1.7590046,-7.812804,-0.802207,-2.3617177
-14.31238,-14.48233,-10.2158165,19.672518,1.946832,-0.69546133,-0.4007276,-0.81209946,0.5197318,-0.53648835,-0.7514081,0.044357806,0.6403928,0.19246776,0.8174303,-0.20604555,-1.623016,-1.4061666,2.5326555,1.5425669,-0.9478315,0.8841387,-0.24801935,-1.5789058,-1.3443314,2.5317369,1.4830595,-0.9649535,-1.4497923,0.9849964,-0.9737283,-1.3348427,0.31766012,0.45168233,0.20743579,0.80947685,-0.36460114,1.4543929,-3.3780992,-0.0068689613,-1.5727746,0.24887085,-0.28643036,0.97077966,0.7606059,-0.082087845,0.16706526,0.6219561,0.045418903,-0.29122257,-0.50252753,1.0,0.0,0.0,0.0,0.0,0.0,0.0,-1.4594768,-0.03539887,-0.9043929,0.15909672,-5.987704,-7.962024,-1.7243385,-13.624775,-0.6397128,-2.0003648
-13.309177,-14.442167,-8.93721,19.98591,1.6375693,-0.47710913,-0.2877131,-0.8156301,0.46380806,-0.5445857,-0.7579544,-0.19142166,0.64224106,0.20900969,0.8025757,-0.20163855,-1.6333644,-1.4201268,2.5125947,1.5472836,-0.9440525,0.86962855,-0.23876847,-1.5889308,-1.3577858,2.5333467,1.4875685,-0.96297556,-1.4513314,0.90499187,-1.0120485,-1.349199,0.108621225,0.4496528,0.19376116,0.7757206,-0.3646698,1.4379405,-3.3747218,-0.0068620937,-1.6693882,0.24913025,-0.28963852,0.96554357,0.76477224,-0.075681664,0.1728709,0.6160448,0.012465404,-0.33409664,-0.5321218,1.0,0.0,0.0,0.0,0.0,0.0,0.0,-1.4257206,-0.035330206,-0.88794047,-0.13046265,-8.037079,-3.7982464,-1.4915705,-20.944023,-0.4538715,-1.6207576
-12.733524,-14.202229,-8.023986,20.74622,1.4729574,-0.28956193,-0.2208991,-0.81775117,0.41310346,-0.5556332,-0.7548785,-0.39117903,0.65489703,0.19327791,0.7878534,-0.19745812,-1.6444942,-1.4332737,2.4942288,1.5530581,-0.94364774,0.85508883,-0.23041,-1.5991466,-1.3713261,2.5325189,1.4920717,-0.96112734,-1.4549655,0.8126431,-1.0247661,-1.3556149,-0.14633411,0.44973797,0.18091887,0.7419987,-0.36473846,1.4205227,-3.3713477,-0.006855233,-1.7659051,0.24906921,-0.29319763,0.9600228,0.76900434,-0.06912428,0.17927256,0.60968465,-0.01974244,-0.3669944,-0.5599155,1.0,0.0,0.0,0.0,0.0,0.0,0.0,-1.3919986,-0.03526154,-0.8705227,-0.38740635,-9.280872,-1.2112379,-0.6763458,-25.526445,-0.21234155,-1.5618801
-12.6549835,-14.443798,-7.7169714,21.280869,1.5553498,-0.17680763,-0.14881228,-0.8246479,0.36043966,-0.5591533,-0.75835276,-0.51588535,0.6600868,0.20960592,0.772624,-0.19436602,-1.655062,-1.4471613,2.4809303,1.5580804,-0.9401668,0.8404814,-0.22302593,-1.6093795,-1.3849064,2.5291734,1.4965807,-0.95937926,-1.4627861,0.71346974,-1.0225401,-1.3587763,-0.39786616,0.45069286,0.17187469,0.7083111,-0.36480713,1.4021404,-3.367977,-0.0068483795,-1.8623257,0.24866295,-0.29706955,0.9542392,0.7732176,-0.062443506,0.18625726,0.6029457,-0.054946847,-0.39693785,-0.58572483,1.0,0.0,0.0,0.0,0.0,0.0,0.0,-1.358311,-0.035192877,-0.85214037,-0.82423687,-9.974217,0.29575825,-0.32880306,-25.198305,-0.12353063,-1.1734754
-15.873636,-22.577496,-11.092683,21.217577,2.2504132,-0.20259398,-0.06027013,-0.81912315,0.2575452,-0.5687335,-0.769865,-0.5566932,0.6604239,0.24281229,0.75856906,-0.1972714,-1.6662529,-1.461893,2.473504,1.5626231,-0.93509805,0.8258368,-0.21688284,-1.6195934,-1.3985459,2.5236993,1.5011011,-0.95768076,-1.4645894,0.5809546,-1.0211571,-1.3655673,-0.59766394,0.45148143,0.16833878,0.6746559,-0.3648758,1.3827946,-3.3646097,-0.0068415324,-1.9586496,0.24777412,-0.3013687,0.948195,0.7773667,-0.05558154,0.19350632,0.59595877,-0.108093545,-0.44351804,-0.6119057,1.0,0.0,0.0,0.0,0.0,0.0,0.0,-1.3246559,-0.035124213,-0.8327946,-0.07007122,-13.335264,0.058984756,-0.635314,-20.048267,-0.16925931,-0.5870253
-18.70963,-29.883823,-13.755728,21.817583,2.9480026,-0.12889823,0.051250905,-0.82205117,0.14602917,-0.5473825,-0.7673543,-0.608043,0.6731217,0.32041767,0.74363166,-0.20227993,-1.6743317,-1.4752812,2.462895,1.5684133,-0.925639,0.8111845,-0.21233334,-1.6296947,-1.4122273,2.5166001,1.5056349,-0.955947,-1.4646219,0.41256422,-1.0072085,-1.3687782,-0.7475836,0.45327726,0.17448641,0.6410351,-0.36494446,1.3624864,-3.3612459,-0.0068346923,-2.054877,0.24621391,-0.30623627,0.9419154,0.7814102,-0.048504584,0.2005995,0.58890176,-0.18054469,-0.50139934,-0.6345172,1.0,0.0,0.0,0.0,0.0,0.0,0.0,-1.291035,-0.035055548,-0.81248635,0.22940636,-16.951406,1.1788845,-0.21641254,-15.069998,-0.08806586,0.43241978
-37.10362,-73.40549,-32.599316,21.470161,5.5978165,-0.37736678,0.14565384,-0.8133124,-0.21432345,-0.5342359,-0.7799988,-0.58505005,0.67378986,0.33710915,0.7298533,-0.23376568,-1.6831183,-1.4902271,2.458095,1.5730139,-0.9222361,0.7966181,-0.21083678,-1.6396358,-1.4259716,2.5085168,1.510182,-0.95413023,-1.4510037,0.061279006,-0.99295586,-1.3752471,-0.8287623,0.45384544,0.18365966,0.6074486,-0.36501312,1.3412166,-3.3578854,-0.006827859,-2.1510084,0.24332428,-0.3122368,0.9353611,0.785428,-0.041087236,0.20651643,0.5820358,-0.33285525,-0.6344932,-0.6634436,1.0,0.0,0.0,0.0,0.0,0.0,0.0,-1.2574486,-0.034986883,-0.79121655,2.2825718,-35.352264,0.48644543,-0.284791,-8.201265,-0.32553077,0.8010775
-40.16272,-83.66483,-35.584686,20.663357,6.3825326,-0.2670734,0.35887975,-0.7996873,-0.41047812,-0.47589818,-0.79251575,-0.55282694,0.66762334,0.41908008,0.71664935,-0.25188458,-1.6872256,-1.5052232,2.4532342,1.5769444,-0.9122222,0.78226626,-0.21335615,-1.6492069,-1.4398209,2.5000596,1.5147253,-0.9521571,-1.425926,-0.35722274,-0.94942725,-1.3860925,-0.8515737,0.45301947,0.20204641,0.5738945,-0.3650818,1.3189862,-3.3545282,-0.0068210326,-2.2470436,0.23873329,-0.31966782,0.9285137,0.7894112,-0.033292517,0.21048647,0.5756883,-0.51005423,-0.77627057,-0.6928071,1.0,0.0,0.0,0.0,0.0,0.0,0.0,-1.2238945,-0.03491822,-0.76898617,3.6953926,-42.114693,3.0925512,-0.52526,-2.3610115,-0.5260885,1.872924
-24.724709,-66.1334,-20.125366,18.948744,5.5298486,0.4271838,1.0379901,-0.7387248,-0.62566787,-0.20139712,-0.80725896,-0.49691033,0.65168566,0.4789426,0.70839375,-0.27592295,-1.6693466,-1.5205468,2.4503686,1.579894,-0.90426284,0.768417,-0.2202648,-1.6570976,-1.4538265,2.491755,1.5192572,-0.9499493,-1.3681475,-0.80274445,-0.7395867,-1.403514,-0.82328945,0.45224643,0.22813301,0.54037476,-0.36515045,1.2957962,-3.3511744,-0.006814213,-2.3429828,0.23262405,-0.3280983,0.9214487,0.7929668,-0.025401864,0.21203265,0.5706141,-0.6529524,-0.8595395,-0.7126379,1.0,0.0,0.0,0.0,0.0,0.0,0.0,-1.1903747,-0.034849554,-0.74579614,6.7250013,-44.756233,19.763433,-1.1401892,2.8749108,-0.3395915,2.9317765
-9.880321,-37.633286,-4.8916926,18.209524,4.072775,0.8413045,1.1971211,-0.70094424,-0.7166856,-0.12292069,-0.8074817,-0.4409373,0.60749537,0.4612042,0.6983226,-0.29193336,-1.6693896,-1.5345747,2.4476612,1.5800067,-0.9038289,0.75525534,-0.23099746,-1.6626098,-1.4679867,2.4839807,1.5237566,-0.947506,-1.2964467,-1.1638925,-0.4920766,-1.4185797,-0.7619867,0.4490754,0.2512083,0.50688744,-0.36521912,1.2716475,-3.3478239,-0.0068074004,-2.438826,0.22545815,-0.3369484,0.9142506,0.7958494,-0.017686147,0.21123803,0.56717676,-0.74439645,-0.88606787,-0.72459275,1.0,0.0,0.0,0.0,0.0,0.0,0.0,-1.1568874,-0.03478089,-0.72164744,7.899189,-36.250973,23.692554,-1.0233164,6.205094,-0.38300157,2.7348309
-7.1118793,-21.385622,-2.0962558,17.535261,3.2942765,0.58518106,0.80188143,-0.638391,-0.7724615,-0.27486354,-0.80848324,-0.36319518,0.5549009,0.4654499,0.69141626,-0.3082436,-1.6900961,-1.548835,2.4476612,1.5792468,-0.90096104,0.74296534,-0.24445023,-1.6667888,-1.4822632,2.4770112,1.5281874,-0.94485766,-1.2044713,-1.4061226,-0.39606547,-1.4293967,-0.67490256,0.441116,0.2704934,0.47343445,-0.36528778,1.246541,-3.3444767,-0.0068005943,-2.5345736,0.21754646,-0.34602356,0.9068994,0.7982319,-0.010098507,0.20854406,0.56500727,-0.81241304,-0.9051541,-0.74170345,1.0,0.0,0.0,0.0,0.0,0.0,0.0,-1.1234344,-0.034712225,-0.696541,9.804273,-24.346088,8.774614,-0.65932274,8.69025,-0.8299768,2.274102
-11.088835,-12.156178,-5.226619,18.14751,3.1245987,0.23130143,0.17283878,-0.64096403,-0.79073995,-0.41670164,-0.81032956,-0.22406791,0.52069515,0.40869337,0.67886895,-0.32352424,-1.708459,-1.5632962,2.4546044,1.5802569,-0.9039883,0.73140585,-0.25940812,-1.6712921,-1.496616,2.4712129,1.5325152,-0.94209105,-1.1376057,-1.5261652,-0.4708024,-1.4357725,-0.54852235,0.42980638,0.27949712,0.4400139,-0.36535645,1.2204778,-3.3411329,-0.006793795,-2.6302252,0.20893478,-0.35539627,0.89933103,0.80053926,-0.0024013494,0.20440026,0.5633396,-0.8814529,-0.93605584,-0.76560116,1.0,0.0,0.0,0.0,0.0,0.0,0.0,-1.0900139,-0.03464356,-0.6704778,7.351041,-12.151623,-8.183604,-0.19698143,12.477922,-1.2029707,1.1227787
-14.0679655,-4.405008,-6.845253,19.222658,2.8610616,0.13264346,-0.29770434,-0.65990484,-0.8038202,-0.48789755,-0.8047998,-0.18440938,0.5032224,0.336663,0.66541535,-0.33979014,-1.7200818,-1.577096,2.452772,1.5828375,-0.90842474,0.720204,-0.27491438,-1.6772277,-1.5109745,2.4666238,1.5367228,-0.9393149,-1.1115829,-1.5593967,-0.63693553,-1.434396,-0.42982358,0.41750658,0.27734858,0.40662766,-0.3654251,1.1934588,-3.3377924,-0.006787003,-2.7257812,0.1996212,-0.36508942,0.8914982,0.8031179,0.0055828923,0.19926152,0.5614848,-0.95137435,-0.9677079,-0.79374456,1.0,0.0,0.0,0.0,0.0,0.0,0.0,-1.0566276,-0.034574896,-0.6434588,3.4183502,-3.4927607,-17.346977,0.6002426,11.615414,-1.323098,-0.099402666
-14.068858,3.1488843,-5.669031,19.476576,2.3611307,0.21398497,-0.5300405,-0.66765946,-0.80709606,-0.5454079,-0.80497456,-0.20518163,0.48864385,0.2458322,0.65343803,-0.355624,-1.7317685,-1.591472,2.4461057,1.5855871,-0.9147317,0.7090384,-0.29037392,-1.6850097,-1.5253006,2.462912,1.5408083,-0.93664557,-1.1151339,-1.5421011,-0.8278745,-1.4305948,-0.35265285,0.4051168,0.26368853,0.37327576,-0.36549377,1.165485,-3.3344553,-0.0067802174,-2.8212416,0.18966103,-0.37501144,0.8833626,0.80611753,0.013926672,0.19356492,0.5590287,-1.0141972,-0.98819524,-0.8255591,1.0,0.0,0.0,0.0,0.0,0.0,0.0,-1.0232757,-0.03450623,-0.615485,0.5461216,1.5496731,-19.84999,0.8289337,7.4235797,-1.340872,-1.3319254
-10.82557,11.13331,-1.1584673,19.685448,1.8355198,0.5319878,-0.5203787,-0.6844195,-0.8105663,-0.5476444,-0.80279315,-0.20250723,0.49204472,0.13429934,0.64059645,-0.37143055,-1.7397741,-1.60558,2.4426613,1.5900128,-0.9232156,0.6976658,-0.30553305,-1.6943367,-1.539581,2.4597268,1.544787,-0.93419844,-1.1415988,-1.5077323,-0.9701403,-1.4257568,-0.30803147,0.39529753,0.23849395,0.33995628,-0.36556244,1.1365573,-3.3311214,-0.0067734383,-2.9166067,0.17916107,-0.38498306,0.8749386,0.80950534,0.02256188,0.1875823,0.55588204,-1.0646731,-0.98651063,-0.8539474,1.0,0.0,0.0,0.0,0.0,0.0,0.0,-0.98995626,-0.034437567,-0.5865573,-1.7366171,3.2624245,-14.990961,0.87993145,4.1942654,-1.0306537,-2.5166035
-8.39781,16.850647,2.9390411,20.766565,1.640832,0.92695343,-0.48778296,-0.72148883,-0.8061338,-0.5446194,-0.79090476,-0.14464593,0.511282,-0.039106037,0.62551695,-0.38614643,-1.7487986,-1.6186714,2.4452622,1.5959152,-0.93810904,0.685845,-0.32033932,-1.7045867,-1.5537659,2.4569764,1.548699,-0.9321204,-1.1925317,-1.4721931,-1.0459545,-1.4150579,-0.26444986,0.38978896,0.19756371,0.30666924,-0.3656311,1.1066767,-3.327791,-0.006766666,-3.0118763,0.16820717,-0.39479828,0.86630887,0.81321913,0.03131541,0.18136661,0.55208695,-1.109807,-0.96583116,-0.87235034,1.0,0.0,0.0,0.0,0.0,0.0,0.0,-0.9566692,-0.034368902,-0.5566767,-4.185796,3.3834696,-8.353448,1.4226198,4.1290283,-0.5330682,-4.085484
-7.8237047,18.68607,4.714739,21.430347,1.9341744,1.160945,-0.45489833,-0.7454125,-0.8005506,-0.57071,-0.7873127,0.050016984,0.5247019,-0.20365945,0.61130375,-0.40039438,-1.7616577,-1.6324972,2.4619782,1.6011692,-0.95248634,0.6734539,-0.33484328,-1.7153099,-1.5678402,2.4551415,1.5525767,-0.9305497,-1.2517706,-1.443701,-1.0834557,-1.4038973,-0.1574123,0.3871279,0.14389722,0.27341652,-0.36569977,1.075844,-3.3244638,-0.006759901,-3.1070507,0.15675354,-0.40437317,0.85755813,0.8172541,0.04004829,0.17464983,0.5477127,-1.1610546,-0.94036925,-0.8823679,1.0,0.0,0.0,0.0,0.0,0.0,0.0,-0.9234165,-0.034300238,-0.52584404,-5.0754547,2.6769161,-4.4688225,1.4507532,10.50832,-0.24796724,-5.3043723
-6.044376,21.508018,7.4103036,21.888632,2.1319513,1.3851707,-0.37685937,-0.76430506,-0.79225075,-0.56386554,-0.7783412,0.23666884,0.54014325,-0.32779258,0.5970234,-0.41406834,-1.7716964,-1.6456743,2.4788084,1.606591,-0.96332896,0.66049445,-0.3491155,-1.7261283,-1.5817887,2.4548478,1.5564467,-0.92956644,-1.3082529,-1.4222871,-1.083384,-1.3908162,0.012633174,0.38716012,0.08360068,0.24019623,-0.36576843,1.0440603,-3.32114,-0.0067531425,-3.20213,0.1447773,-0.4136505,0.84877205,0.82159114,0.048616815,0.16709222,0.542867,-1.2138165,-0.9085797,-0.8835783,1.0,0.0,0.0,0.0,0.0,0.0,0.0,-0.8901962,-0.034231573,-0.49406034,-4.9116373,1.9777298,-0.6137848,1.6077995,16.864103,0.042504072,-5.9119043
-4.1328897,24.521658,9.926835,21.928532,1.9752451,1.5562108,-0.30996025,-0.7840981,-0.7830957,-0.55271226,-0.7656331,0.3020375,0.55928546,-0.3889847,0.58208466,-0.42742506,-1.7813996,-1.658352,2.4850516,1.6123753,-0.9684649,0.64702094,-0.36320937,-1.7367656,-1.5955769,2.4562593,1.5603377,-0.92917734,-1.3582755,-1.4055922,-1.0588317,-1.3740264,0.18370654,0.38996932,0.024390494,0.20701027,-0.3658371,1.0113266,-3.3178196,-0.006746391,-3.2971144,0.1323185,-0.42255783,0.84000754,0.8261707,0.056894474,0.15859795,0.5376353,-1.2603153,-0.8683575,-0.8802721,1.0,0.0,0.0,0.0,0.0,0.0,0.0,-0.85701025,-0.03416291,-0.46132654,-4.3781996,1.5198708,1.9294739,1.942277,17.022865,0.3585875,-5.7986145
-0.7792978,29.181576,13.356257,21.356041,1.2117813,1.6932483,-0.22944903,-0.7892827,-0.7709346,-0.53699607,-0.74609476,0.18313073,0.60042715,-0.3914068,0.56809264,-0.44030282,-1.7904652,-1.6701864,2.4745724,1.6203804,-0.96831805,0.633165,-0.37713873,-1.747052,-1.609142,2.4587045,1.5642916,-0.92932326,-1.3930358,-1.3891373,-1.0200486,-1.3500043,0.26462248,0.39786133,-0.027415927,0.17385674,-0.36590576,0.97764367,-3.3145025,-0.0067396457,-3.3920038,0.11956024,-0.43095016,0.8312798,0.83085924,0.0647875,0.14950934,0.5320925,-1.2850903,-0.8133997,-0.87626565,1.0,0.0,0.0,0.0,0.0,0.0,0.0,-0.8238567,-0.034094244,-0.42764366,-2.990508,1.5228271,3.459549,2.6079655,8.0675125,0.9536624,-5.1209135
0.34792912,30.234684,13.84133,19.848503,0.11793029,1.6291451,-0.23925264,-0.78805536,-0.7703999,-0.5642929,-0.7264552,-0.16748424,0.61905795,-0.42035082,0.55435944,-0.45417872,-1.8034812,-1.6817875,2.441956,1.6261973,-0.97135836,0.6190983,-0.39094698,-1.7571228,-1.6224171,2.4605508,1.568339,-0.9299527,-1.409999,-1.3784095,-1.0040723,-1.3194705,0.15759619,0.40782654,-0.07496065,0.14073753,-0.36597443,0.9430126,-3.3111887,-0.0067329076,-3.4867983,0.106739044,-0.4387169,0.8225156,0.83551294,0.07232934,0.14062864,0.5262226,-1.2845112,-0.7489985,-0.88216853,1.0,0.0,0.0,0.0,0.0,0.0,0.0,-0.7907375,-0.03402558,-0.39301258,-1.3063908,0.9680271,1.2383461,3.2435894,-10.719332,1.2124836,-4.8143954
-0.011848658,28.063894,12.363094,17.384151,-0.44918224,1.4199072,-0.19847333,-0.784127,-0.7789004,-0.5951408,-0.73085314,-0.35246232,0.62601686,-0.39975607,0.5406856,-0.46883702,-1.8166368,-1.6955024,2.4253047,1.6309407,-0.96992826,0.60497725,-0.40473092,-1.7672698,-1.6354653,2.4605508,1.5724837,-0.9309874,-1.4116981,-1.3787037,-1.0193875,-1.2992789,-0.052746885,0.41729492,-0.11338555,0.10765076,-0.3660431,0.9074343,-3.3078783,-0.006726176,-3.581498,0.0940094,-0.44586182,0.81358516,0.8400294,0.07967784,0.1325294,0.5200366,-1.2719889,-0.68680656,-0.901855,1.0,0.0,0.0,0.0,0.0,0.0,0.0,-0.75765073,-0.033956915,-0.35743427,0.16298294,-0.12934208,-1.8642664,2.2314787,-21.091242,1.1327446,-3.9482102
-0.6505145,26.376408,11.311229,16.484322,-0.45871603,1.2963516,-0.17128833,-0.77725554,-0.78625935,-0.6131666,-0.71522343,-0.42064348,0.6152517,-0.44173998,0.5272517,-0.48335686,-1.8285865,-1.7069876,2.4184864,1.6340089,-0.97516143,0.59092486,-0.418584,-1.7777107,-1.6483151,2.4583688,1.5767027,-0.9323874,-1.4021724,-1.3878438,-1.0531187,-1.2792689,-0.27382693,0.4239748,-0.1491696,0.074596405,-0.36611176,0.8709097,-3.3045712,-0.006719451,-3.6761029,0.08139992,-0.45243073,0.8044255,0.84438163,0.086947046,0.12533396,0.51356715,-1.2590954,-0.6305114,-0.92529196,1.0,0.0,0.0,0.0,0.0,0.0,0.0,-0.7245964,-0.03388825,-0.32090968,1.2413025,-1.0146856,-3.6673546,2.233553,-22.192871,0.8141756,-3.6789894
-1.975448,23.582886,9.645022,15.269224,-0.11865711,1.165112,-0.116454944,-0.77381873,-0.8021813,-0.636319,-0.71942496,-0.41992766,0.60878956,-0.45209375,0.513543,-0.49880213,-1.8413426,-1.7202575,2.416376,1.6375817,-0.97759676,0.5769974,-0.43261015,-1.7885749,-1.6610409,2.4543633,1.5809714,-0.93410784,-1.3887436,-1.4078656,-1.0985515,-1.2694919,-0.44320303,0.42794713,-0.17981042,0.041576385,-0.36618042,0.83343977,-3.3012671,-0.006712733,-3.7706132,0.068847656,-0.45850372,0.7949925,0.8485788,0.09422457,0.118809715,0.5068727,-1.2551798,-0.5837945,-0.95374304,0.0,1.0,0.0,0.0,0.0,0.0,0.0,-0.69157636,-0.033819586,-0.28343976,1.617384,-2.1107912,-4.8285723,1.2444496,-17.055178,0.47386885,-3.1157494
-3.5478034,22.680702,8.521555,15.029703,0.2637152,1.1295038,-0.116203025,-0.77757484,-0.8056323,-0.6663313,-0.714411,-0.4219715,0.59126085,-0.4729,0.49923992,-0.5131734,-1.855208,-1.732482,2.412166,1.6400975,-0.98139787,0.5636858,-0.44680583,-1.8012414,-1.674366,2.4495766,1.5913358,-0.9355297,-1.320575,-1.4245125,-1.2992036,-1.3384346,-0.50509363,1.1108009,-0.14551833,0.027582169,-0.3694191,0.8409374,-1.2011311,-0.34549287,1.3598527,0.055755615,-0.46348953,0.7849865,0.85260516,0.09917583,0.11264381,0.50053966,-1.3159406,-0.46767733,-1.014538,0.0,1.0,0.0,0.0,0.0,0.0,0.0,-0.67758214,-0.030580908,-0.29093736,1.3878107,-2.1110058,-6.301427,1.2818575,-10.692347,-0.37915707,-1.5683383
79.071175,176.0,110.0,101.37513,-4.510135,9.497868,-0.3072936,-0.7915931,0.09248922,0.69250953,0.7672155,-0.4548195,0.6042252,-0.4958181,0.48452646,-0.43755692,-1.7319905,-1.5976444,2.4040947,1.6517583,-0.98511153,0.5554708,-0.45821226,-1.8143163,-1.6785107,2.440513,1.607779,-0.93609524,-0.66230446,-1.0454754,-1.2996484,-0.111366846,-1.0372971,1.8311715,-0.030594626,0.015579224,-0.3728714,0.8537892,-1.1999302,-0.34514743,1.2603071,0.0445652,-0.4661064,0.77880216,0.8562443,0.09738698,0.11112024,0.4949886,-1.0518814,-0.17746714,-0.48933867,1.0,0.0,0.0,0.0,0.0,0.0,0.0,-0.6655792,-0.027128607,-0.3037892,63.67942,38.063908,3.1535149,121.23227,-52.386105,74.745056,10.395754
46.97488,153.31203,98.040474,101.793304,-0.66194475,7.3645563,-0.3278426,-0.779231,-0.4219963,0.52378374,0.79178715,-0.6246495,0.6376202,-0.3326179,0.4775477,-0.50041187,-1.7619379,-1.599332,2.378048,1.6715411,-0.969357,0.5486959,-0.4669336,-1.8215013,-1.6724358,2.4292367,1.6255879,-0.9365139,-0.6820812,-0.815276,-0.5226322,0.845806,-1.1605395,1.7716612,-0.046683285,0.0035896301,-0.3763199,0.86564636,-1.1987305,-0.34480235,1.160861,0.035346985,-0.4664116,0.77789366,0.8596871,0.08924837,0.113300584,0.49003658,-0.8766281,0.0273368,0.03768032,1.0,0.0,0.0,0.0,0.0,0.0,0.0,-0.6535896,-0.02368012,-0.31564635,-1.84412,22.730648,78.327705,95.31089,-13.0701065,-3.7533283,-1.9435711
22.90926,120.31015,69.488495,78.662125,0.3774591,5.1259284,-0.33916497,-0.74332553,-0.29853806,0.3023202,0.7393522,-0.6812867,0.65073794,0.13283855,0.47436336,-0.49678743,-1.7912692,-1.5985005,2.361108,1.6906618,-0.92323005,0.5405916,-0.4735068,-1.8219075,-1.6594162,2.4174454,1.6421304,-0.9368191,-0.8503056,-0.60571754,0.11841439,1.4543848,-1.1884516,1.6197793,-0.025280716,-0.008388519,-0.37976456,0.8765098,-1.1975319,-0.34445763,1.0615144,0.027334213,-0.46503448,0.7810681,0.8630067,0.07723255,0.11763296,0.485198,-0.77516925,0.17926632,0.40546173,1.0,0.0,0.0,0.0,0.0,0.0,0.0,-0.64161146,-0.02023545,-0.32650977,-15.937984,20.647228,63.547314,61.004543,-3.723812,-13.827753,2.0931776
2.8874907,85.241615,40.685585,53.118195,0.93650675,2.9604273,-0.45569378,-0.7420145,-0.19171594,0.23625018,0.7767486,-0.6969785,0.6260178,0.10470448,0.46639013,-0.4926784,-1.7982825,-1.5817413,2.3477476,1.7047322,-0.9263486,0.53042734,-0.47818315,-1.8177686,-1.6428146,2.4058106,1.6569695,-0.9369421,-1.0692773,-0.42227608,0.50970596,1.7294582,-1.1570013,1.4415208,-0.007780244,-0.020355225,-0.3832054,0.8863725,-1.1963346,-0.34411326,0.9612019,0.019889832,-0.46253967,0.7866233,0.8662535,0.06353066,0.12322929,0.47998255,-0.7345279,0.27782798,0.5999424,1.0,0.0,0.0,0.0,0.0,0.0,0.0,-0.62964475,-0.016794592,-0.3363725,-21.128952,18.144262,38.34197,27.737236,2.5749683,-16.932487,1.7941852
-8.914763,52.262005,17.193428,30.777733,1.0792538,1.1043053,-0.4896259,-0.74999386,-0.1530478,0.19540402,0.7756923,-0.6952717,0.65189326,-0.06337908,0.45542794,-0.49348792,-1.7982281,-1.5652454,2.3362834,1.7221589,-0.94328,0.5183624,-0.48140132,-1.8116746,-1.6252975,2.394626,1.6701646,-0.93702793,-1.2511806,-0.28860593,0.6410132,1.7594706,-1.1063433,1.2809973,-0.008858391,-0.032310486,-0.38664627,0.89523286,-1.1951385,-0.3437692,0.86098975,0.01256752,-0.45947266,0.79302937,0.8695045,0.049882032,0.12942138,0.4740504,-0.7321463,0.3227145,0.6487134,1.0,0.0,0.0,0.0,0.0,0.0,0.0,-0.6176895,-0.013353735,-0.34523284,-17.869902,13.2916155,12.624288,3.0985832,4.902196,-15.414047,-0.08815564
-14.137426,27.142693,2.012583,16.49163,1.1687399,-0.1812675,-0.41729495,-0.75826484,-0.14817554,0.15961957,0.7680432,-0.6822723,0.64093316,-0.13333397,0.4425359,-0.4962189,-1.7957126,-1.5484933,2.3263986,1.7342579,-0.9503613,0.5049652,-0.48375452,-1.805615,-1.6084614,2.3839638,1.6819177,-0.93719864,-1.3690981,-0.21748583,0.5936658,1.6580889,-1.0526936,1.141554,-0.01982706,-0.044252396,-0.3900795,0.90309185,-1.1939435,-0.34342548,0.7608778,0.0051021576,-0.45628738,0.7992386,0.8728144,0.037360843,0.1357209,0.4673103,-0.7521796,0.32302913,0.60670424,1.0,0.0,0.0,0.0,0.0,0.0,0.0,-0.6057476,-0.009920508,-0.35309184,-11.766028,7.1165414,-4.9620748,-10.164738,5.4160595,-13.47537,-1.1179109
-13.1037655,13.188835,-3.5447335,10.216166,1.1679219,-0.7961761,-0.23180449,-0.7537405,-0.16781671,0.15583926,0.76842093,-0.67919487,0.6375855,-0.112521306,0.42959112,-0.5005362,-1.7900311,-1.5316193,2.3160443,1.7456763,-0.94845074,0.49090564,-0.48586977,-1.8005528,-1.5928822,2.3737557,1.6924386,-0.9374676,-1.4184043,-0.20939884,0.47697565,1.524521,-1.0102445,1.0235173,-0.029341498,-0.05618286,-0.39351273,0.90995044,-1.1927499,-0.34308213,0.6608659,-0.002620697,-0.45329666,0.80476004,0.8761662,0.026344523,0.14180952,0.45992246,-0.7778535,0.29871324,0.5297698,1.0,0.0,0.0,0.0,0.0,0.0,0.0,-0.5938171,-0.00648728,-0.35995042,-4.9794674,0.8417517,-11.752314,-13.4215355,4.3122053,-11.46791,-0.9881899
-17.861025,-0.3701272,-10.862303,9.979156,1.7486386,-1.1228485,-0.29397812,-0.763832,-0.198472,0.03485845,0.76978153,-0.6799508,0.634468,-0.06666133,0.41452244,-0.505717,-1.797067,-1.515904,2.3057606,1.7558854,-0.9441337,0.47665918,-0.4882735,-1.797215,-1.5784492,2.3638604,1.7019238,-0.93778706,-1.4266115,-0.25049055,0.28553036,1.4160793,-0.98201513,0.9243785,-0.03285557,-0.06810188,-0.39693832,0.9158097,-1.1915574,-0.34273914,0.56095403,-0.010803223,-0.45070267,0.809407,0.8796249,0.01689448,0.1475167,0.45189968,-0.83040947,0.25264218,0.4393716,1.0,0.0,0.0,0.0,0.0,0.0,0.0,-0.5818981,-0.003061682,-0.36580968,-0.792408,-4.0500584,-19.262754,-10.865116,2.9619098,-9.682012,-0.3683228
-22.581778,-9.042633,-15.415315,12.786028,2.3828957,-1.1455989,-0.4146393,-0.76898664,-0.24251504,-0.07637726,0.77789277,-0.67120904,0.63182867,-0.07288343,0.3997605,-0.512525,-1.8048527,-1.50066,2.2967396,1.7651067,-0.9450754,0.46248662,-0.49135673,-1.7960553,-1.5647278,2.3541787,1.7105432,-0.9381342,-1.41362,-0.32739976,0.058633085,1.3575851,-0.9626264,0.84144264,-0.035243675,-0.08000755,-0.40036392,0.92067057,-1.1903661,-0.34239647,0.46114203,-0.019695282,-0.44863892,0.81317896,0.8832962,0.008888915,0.1527519,0.44314298,-0.9084491,0.1973439,0.3534337,1.0,0.0,0.0,0.0,0.0,0.0,0.0,-0.5699924,0.00036391616,-0.37067056,1.4509678,-7.627553,-22.893063,-5.782366,2.1157265,-8.146262,-0.22199303
-22.656847,-13.793044,-15.31101,14.616516,2.677292,-0.9737879,-0.33814126,-0.7523943,-0.33441454,-0.112879515,0.77582306,-0.67307013,0.63168675,-0.06644819,0.3872472,-0.52479815,-1.8073432,-1.4871454,2.2868717,1.7737118,-0.94477904,0.4485749,-0.49556482,-1.796885,-1.5512962,2.3446229,1.7184377,-0.9384928,-1.3828862,-0.45178327,-0.13089277,1.3387719,-0.9531421,0.77242714,-0.035798263,-0.09190178,-0.4037857,0.9245341,-1.1891761,-0.34205413,0.3614298,-0.02944374,-0.4471054,0.8161654,0.8871823,0.0020409836,0.1573939,0.43374008,-0.99578303,0.14506431,0.27767512,1.0,0.0,0.0,0.0,0.0,0.0,0.0,-0.5580982,0.0037856996,-0.37453407,3.307891,-12.3879795,-19.173073,-1.7292976,1.0860443,-6.816423,0.004439801
-18.188515,-9.012333,-9.925288,16.21039,2.4818203,-0.64322805,-0.19544162,-0.7310017,-0.39550704,-0.12246202,0.7827012,-0.6838533,0.6479401,-0.076379485,0.37547472,-0.53511554,-1.8091313,-1.4730262,2.2762375,1.7832317,-0.94613075,0.4350518,-0.50112665,-1.7990804,-1.5378323,2.3350747,1.7257447,-0.938859,-1.3413657,-0.5908832,-0.24965543,1.3496407,-0.954874,0.71716374,-0.03669733,-0.10378456,-0.40720367,0.92740124,-1.1879871,-0.34171215,0.26181728,-0.039966583,-0.4459839,0.8185319,0.89119357,-0.0040212628,0.16143286,0.42390707,-1.0702896,0.108715564,0.2203309,1.0,0.0,0.0,0.0,0.0,0.0,0.0,-0.5462154,0.0072036684,-0.37740123,4.386592,-13.891066,-12.045395,1.2868166,-0.1260519,-5.445516,-0.008261949
-11.78879,-1.5150372,-2.6794658,16.54118,2.1391416,-0.29144686,0.010236816,-0.71583366,-0.47289053,-0.07617566,0.7787922,-0.66335183,0.62651646,-0.11009311,0.36346844,-0.5484157,-1.806698,-1.4599531,2.2687395,1.7883964,-0.9498683,0.42194402,-0.50814855,-1.8017201,-1.5242004,2.3255417,1.7325616,-0.9392576,-1.2999533,-0.7393076,-0.2689511,1.3682543,-0.95319915,0.6701172,-0.04057479,-0.1156559,-0.41061783,0.929273,-1.1867993,-0.34137052,0.16230436,-0.05107498,-0.44508362,0.8204573,0.89520293,-0.009680132,0.16483246,0.41394237,-1.1238439,0.09115753,0.18035302,1.0,0.0,0.0,0.0,0.0,0.0,0.0,-0.5343441,0.010617822,-0.379273,4.329705,-14.856636,-2.0074844,2.0651102,0.08960962,-4.605806,-0.2855651
-7.801805,4.357481,1.3677111,15.913506,1.7729343,-0.15492582,0.12927353,-0.68686634,-0.5311151,-0.098716184,0.7760375,-0.67824554,0.63285697,-0.04915144,0.3532574,-0.56126004,-1.8115917,-1.4465967,2.2577171,1.7958473,-0.94417274,0.4092816,-0.5165733,-1.804297,-1.5104046,2.3159745,1.7389741,-0.9396486,-1.2545279,-0.87694144,-0.25395766,1.383911,-0.9582946,0.6321639,-0.03828899,-0.1275158,-0.41402817,0.9301504,-1.1856127,-0.3410292,0.062890925,-0.06259537,-0.44428635,0.822027,0.89911425,-0.015128514,0.16764331,0.40405473,-1.1613321,0.0836144,0.14582242,1.0,0.0,0.0,0.0,0.0,0.0,0.0,-0.5224842,0.014028162,-0.38015038,4.681921,-13.798105,1.4802098,1.7591715,-0.64475536,-3.6749125,0.32667518
-3.6309533,12.129319,5.48652,14.913563,1.3258983,-0.082639456,0.20977408,-0.6592245,-0.56828696,-0.0972155,0.7671348,-0.6796348,0.63280433,-0.022338742,0.34335917,-0.573402,-1.8140185,-1.4336911,2.248011,1.8022546,-0.9418825,0.39709127,-0.5261663,-1.8065972,-1.4965401,2.3063462,1.7450604,-0.9399948,-1.2069528,-0.98691076,-0.2219752,1.3878037,-0.96490496,0.60135186,-0.033114377,-0.13936234,-0.4174385,0.9300344,-1.1844273,-0.34068823,-0.036423113,-0.07434273,-0.44350815,0.82328254,0.9028642,-0.020433415,0.16998006,0.39436698,-1.17974,0.08441726,0.11507834,1.0,0.0,0.0,0.0,0.0,0.0,0.0,-0.51063764,0.017438501,-0.3800344,4.8377514,-11.052788,3.2298775,0.5500078,-0.8471608,-2.933681,0.5921528
-2.6826105,14.391608,5.312284,13.412766,1.0676779,-0.24017411,0.22582048,-0.61538905,-0.6083604,-0.15925618,0.7575592,-0.6951749,0.62984794,0.104345575,0.33555236,-0.58700234,-1.8225229,-1.4207841,2.2368288,1.8080453,-0.92956024,0.38546264,-0.5366787,-1.8088841,-1.4827251,2.296615,1.7508798,-0.94019604,-1.1480734,-1.0728676,-0.23074904,1.3798587,-0.9765644,0.57591623,-0.015645048,-0.15119743,-0.42084122,0.9289231,-1.183243,-0.34034762,-0.1360316,-0.08623123,-0.44274902,0.8241756,0.906436,-0.025491418,0.17196779,0.38490364,-1.1920582,0.08178343,0.076661594,1.0,0.0,0.0,0.0,0.0,0.0,0.0,-0.49880254,0.020841211,-0.37892306,5.9176445,-8.656216,-0.8224964,-0.6451607,-1.3296127,-2.3958445,1.797295
-4.1583004,14.524781,3.2278543,12.810963,1.0388986,-0.42510688,0.11783001,-0.57611495,-0.63407874,-0.24226652,0.75743157,-0.68713796,0.6389345,0.119250126,0.32785115,-0.60008657,-1.8331108,-1.406982,2.227901,1.8147732,-0.928271,0.37448204,-0.5478653,-1.8117223,-1.4690075,2.2868073,1.7564855,-0.940217,-1.0813684,-1.134017,-0.30122015,1.3695554,-0.9827614,0.55579156,0.0024650863,-0.16302109,-0.42424393,0.92681634,-1.18206,-0.34000736,-0.23554048,-0.09826851,-0.44205475,0.82462865,0.9098836,-0.030131072,0.17370875,0.3755385,-1.2080014,0.073011875,0.030461287,1.0,0.0,0.0,0.0,0.0,0.0,0.0,-0.4869789,0.024243921,-0.37681633,6.680393,-6.1764956,-7.0052385,-0.8687258,-0.7282257,-1.8823504,1.841915
-5.7642584,9.983836,-0.51419413,11.057905,1.0586851,-0.7005245,0.038892183,-0.5156888,-0.6821646,-0.3459001,0.7474433,-0.6930158,0.65367454,0.11129223,0.32291317,-0.6160817,-1.8463123,-1.3942631,2.2175057,1.8218529,-0.9290878,0.36430252,-0.55964696,-1.8157525,-1.4554253,2.2769425,1.7619271,-0.94007874,-0.9969224,-1.1929601,-0.43681198,1.3549949,-0.987764,0.5404306,0.01770469,-0.1748333,-0.427639,0.9237153,-1.1808782,-0.3396674,-0.3349499,-0.11052704,-0.44153595,0.82450706,0.9132747,-0.03415599,0.17523222,0.36613697,-1.2322869,0.052723672,-0.03103314,1.0,0.0,0.0,0.0,0.0,0.0,0.0,-0.47516668,0.027639002,-0.37371528,8.418059,-5.9476852,-13.505578,-1.2695551,-0.54216385,-1.4525294,1.5518993
-6.8863606,6.10991,-3.4900317,9.550684,1.0682566,-0.91169983,-0.021976948,-0.45765686,-0.7204048,-0.4560949,0.739142,-0.6920315,0.6736447,0.09722495,0.31853682,-0.63168746,-1.861362,-1.3815111,2.2077394,1.8292916,-0.93035626,0.3550681,-0.572019,-1.8215089,-1.4420013,2.267051,1.7672486,-0.9398174,-0.8991167,-1.2521766,-0.62192446,1.3389568,-0.9896983,0.5295879,0.029019795,-0.18663406,-0.4310341,0.91962093,-1.1796975,-0.3393278,-0.43425995,-0.12308502,-0.44127655,0.8236795,0.9166673,-0.037401453,0.17652674,0.35659558,-1.2635858,0.023542235,-0.10517075,1.0,0.0,0.0,0.0,0.0,0.0,0.0,-0.4633659,0.031034082,-0.36962092,9.731209,-5.9720755,-18.452274,-1.3868093,-0.18123388,-1.0499835,1.1607037
-3.2980556,6.531331,-2.3096282,7.514809,0.8494142,-1.0003276,0.031638727,-0.38473898,-0.7652317,-0.51438904,0.72627467,-0.6877442,0.68539494,-0.0032057066,0.31659418,-0.64854217,-1.8729478,-1.3693739,2.1982765,1.8357881,-0.940138,0.34693992,-0.58503854,-1.8290753,-1.4287624,2.2571633,1.7724862,-0.93953514,-0.78443944,-1.318647,-0.80103225,1.3195429,-0.98850334,0.5218743,0.02812665,-0.19842148,-0.43442535,0.91453415,-1.178518,-0.33898857,-0.53347063,-0.13589859,-0.4413452,0.82207894,0.92006296,-0.039849043,0.17754477,0.34694943,-1.2869537,-0.008655962,-0.18385872,1.0,0.0,0.0,0.0,0.0,0.0,0.0,-0.4515785,0.034425348,-0.36453414,11.35211,-6.7037344,-17.78109,-1.7318964,0.11303425,-0.77410936,-0.05365424
5.9878216,12.848376,2.714942,3.7675862,0.16569594,-1.1137103,0.25145686,-0.28418353,-0.7877083,-0.57424796,0.6904302,-0.6982536,0.68024945,-0.0012621586,0.31852156,-0.66380936,-1.8865001,-1.3597194,2.1873379,1.8405112,-0.9396614,0.34017456,-0.5986732,-1.8382516,-1.4158478,2.2472603,1.777657,-0.93927383,-0.6414792,-1.3786031,-0.95570487,1.282453,-0.99143803,0.5151921,0.025511956,-0.21019745,-0.4378128,0.908456,-1.1773398,-0.33864963,-0.6325821,-0.14873505,-0.44174194,0.8196839,0.9233771,-0.041527893,0.17828241,0.3374395,-1.2817283,-0.043631285,-0.26432258,1.0,0.0,0.0,0.0,0.0,0.0,0.0,-0.43980253,0.0378128,-0.35845602,14.031994,-6.0620785,-15.19512,-3.5811424,-0.3668189,-0.6873369,-0.24450831
17.489809,23.911173,10.465612,0.9554372,-0.553751,-1.1452168,0.48320675,-0.17987536,-0.7967951,-0.60143584,0.6629978,-0.6872791,0.6758936,-0.028322285,0.322187,-0.6783527,-1.8983952,-1.349548,2.1785324,1.8452464,-0.94210607,0.33502996,-0.6127809,-1.8486199,-1.403389,2.2373536,1.7827649,-0.9390621,-0.47354287,-1.4217423,-1.0625035,1.2335125,-0.9911177,0.50924426,0.01959275,-0.22196198,-0.44119644,0.9013875,-1.1761627,-0.33831105,-0.73159456,-0.16125298,-0.4424858,0.8165569,0.9264967,-0.04254812,0.1787695,0.32838225,-1.2405342,-0.07828527,-0.3356264,1.0,0.0,0.0,0.0,0.0,0.0,0.0,-0.428038,0.041196436,-0.3513875,16.380096,-4.3970585,-10.256815,-4.884529,-0.14346838,-0.6168127,-0.6019473
23.958601,31.946918,15.394732,-0.20969582,-0.9472821,-1.1327949,0.60307944,-0.10293514,-0.8043794,-0.6335123,0.6304649,-0.67684954,0.6627043,-0.036938947,0.32473645,-0.6932189,-1.9119712,-1.3403425,2.1696687,1.8490354,-0.942756,0.33156526,-0.62719476,-1.8597817,-1.3914909,2.2274811,1.7878098,-0.9389162,-0.30566064,-1.4482479,-1.1325556,1.1749133,-0.9868552,0.5028317,0.012842241,-0.23371506,-0.44457626,0.8933297,-1.1749868,-0.33797282,-0.83050793,-0.17320824,-0.44356918,0.81278616,0.9293546,-0.043018572,0.17904088,0.3199902,-1.1783915,-0.11194285,-0.39802364,1.0,0.0,0.0,0.0,0.0,0.0,0.0,-0.41628492,0.044576257,-0.34332967,16.330559,-2.7492285,-6.537175,-5.918169,0.18588305,-0.67305565,-0.70498866
27.417053,38.011486,18.755278,0.21287489,-1.0700014,-1.090224,0.63379115,-0.02479218,-0.81078136,-0.6531964,0.610876,-0.66290486,0.6487816,-0.059723254,0.32908604,-0.7082729,-1.9251014,-1.3304033,2.1611907,1.852688,-0.94488853,0.32972085,-0.64178026,-1.8714223,-1.3801537,2.2176926,1.792788,-0.9388504,-0.14554712,-1.4623513,-1.1731735,1.1197438,-0.97734904,0.49579975,0.004335135,-0.2454567,-0.4479561,0.8842834,-1.1738122,-0.3376349,-0.9293225,-0.18446732,-0.44495392,0.80847555,0.9319302,-0.043052867,0.17912847,0.31235477,-1.1057925,-0.14374621,-0.44924623,1.0,0.0,0.0,0.0,0.0,0.0,0.0,-0.40454328,0.04795608,-0.3342834,15.565848,-1.5243292,-3.5924196,-5.6037664,0.667119,-0.74706674,-0.8899283
39.073032,46.601257,25.17505,-1.6409941,-1.5969038,-1.2469509,0.81686926,0.13845964,-0.812612,-0.6604093,0.6037915,-0.6640471,0.6401315,-0.019012665,0.3435668,-0.7230415,-1.9374632,-1.3197745,2.1512878,1.8568012,-0.9407517,0.32979524,-0.6564354,-1.8832898,-1.3692589,2.2079842,1.7976937,-0.9388342,0.056590214,-1.4669464,-1.1892613,1.0788794,-0.9698947,0.48853135,0.00065596885,-0.2571869,-0.45132828,0.87425816,-1.1726385,-0.33729732,-1.026915,-0.19478607,-0.4467163,0.80374867,0.93415654,-0.04280727,0.17908724,0.3056908,-1.0046414,-0.18314126,-0.4877026,0.0,1.0,0.0,0.0,0.0,0.0,0.0,-0.3928131,0.05132827,-0.32425815,19.647264,-0.5797386,-1.0125875,-4.262972,0.3996849,-0.7967949,-0.41523623
41.214207,46.747425,25.096004,-2.7550344,-1.7092829,-1.3996366,0.7992262,0.22692396,-0.8179771,-0.69839895,0.55946153,-0.66574204,0.60876006,-0.1208117,0.35248762,-0.7382331,-1.9531298,-1.3133128,2.14141,1.8585697,-0.95091534,0.33188188,-0.67111623,-1.8953729,-1.3588333,2.1983292,1.8025079,-0.9389229,0.25757134,-1.4689183,-1.212712,1.0300896,-0.9653641,0.47858885,-0.012154934,-0.26890373,-0.45470047,0.86325777,-1.1714661,-0.3369601,-1.1244099,-0.20408249,-0.44890594,0.798616,0.9360368,-0.04228223,0.1789373,0.30004758,-0.900771,-0.23000403,-0.5288513,0.0,1.0,0.0,0.0,0.0,0.0,0.0,-0.38109624,0.054700464,-0.31325775,19.558352,-0.32083988,-1.7859697,-5.040312,0.11880398,-1.1113465,-1.3250365
30.549004,41.11199,19.428595,-0.67564917,-1.2314051,-1.2827356,0.55621195,0.2286829,-0.8183186,-0.73469746,0.5063725,-0.6682987,0.5904025,-0.274304,0.35475016,-0.7529481,-1.9688426,-1.3081961,2.1314993,1.8615482,-0.9663533,0.33549297,-0.68579996,-1.9078107,-1.3490219,2.188697,1.8072152,-0.93925,0.39450252,-1.4686899,-1.2529458,0.9646921,-0.96342903,0.4676383,-0.03970029,-0.28060913,-0.45806503,0.8512831,-1.1702949,-0.3366232,-1.2218075,-0.21253586,-0.45152664,0.7930151,0.9376794,-0.041341778,0.17868645,0.29515973,-0.8230305,-0.2712974,-0.5774953,0.0,1.0,0.0,0.0,0.0,0.0,0.0,-0.36939085,0.058065027,-0.30128306,13.35451,-0.10318756,-3.6680937,-6.5929055,-0.07261038,-1.2310088,-2.7959223
23.925627,38.505356,16.26325,0.5859351,-0.916985,-1.1982896,0.41366524,0.27019906,-0.8188913,-0.755055,0.45159426,-0.65494204,0.55639344,-0.4030464,0.3625129,-0.7676891,-1.9833162,-1.3038625,2.1232028,1.8628546,-0.97955465,0.34016794,-0.70047146,-1.9208473,-1.3402039,2.1796863,1.8117485,-0.9398412,0.49092725,-1.4670547,-1.3191756,0.8561318,-0.87980986,0.44965786,-0.06648941,-0.29146767,-0.4590721,0.84776837,-1.0212246,-0.05201328,-0.14151259,-0.22040367,-0.45455933,0.7868225,0.9392201,-0.03981698,0.17801192,0.29084697,-0.7709875,-0.31281736,-0.6393156,0.0,1.0,0.0,0.0,0.0,0.0,0.0,-0.3585323,0.059072107,-0.29776835,9.1689825,-0.057387352,-4.5014143,-8.199453,0.40830374,-1.5785933,-3.840187
-41.12889,32.893475,-0.18750757,32.50626,3.0300183,0.6256001,-0.8949446,-0.111322,-0.7917905,-0.70695686,0.67232287,-0.6733286,0.60604423,-0.29024038,0.32903573,-0.7796505,-1.9915429,-1.2729716,2.1123536,1.872353,-0.9688653,0.34363502,-0.7150102,-1.9341015,-1.3310467,2.170882,1.8162117,-0.94069093,0.30049637,-1.4501457,-1.3281921,0.93706375,-0.88118607,0.44538924,-0.091340594,-0.30167198,-0.4595909,0.84560215,-1.0202036,-0.05196128,-0.24165031,-0.22878075,-0.45729065,0.78053534,0.9409732,-0.038045317,0.17743707,0.28572378,-0.8549146,-0.26121116,-0.6319219,0.0,1.0,0.0,0.0,0.0,0.0,0.0,-0.348328,0.059590906,-0.29560214,-18.488914,1.4750242,-1.1548519,8.508194,-0.31712055,-0.3318727,-2.5649638
-60.46914,36.117725,-3.2067423,42.788746,3.9339185,1.2802031,-1.1717193,-0.16594164,-0.7720578,-0.72001946,0.7197038,-0.7474962,0.65118873,-0.08098669,0.32704085,-0.792216,-2.0061035,-1.2590764,2.0961323,1.8813306,-0.9487896,0.34467214,-0.7292934,-1.9473518,-1.3205906,2.1617076,1.8206863,-0.94160455,0.040607058,-1.4219038,-1.3252406,1.0836655,-0.92974484,0.44861424,-0.0917899,-0.31186676,-0.4601097,0.8424353,-1.0191836,-0.05190933,-0.34168792,-0.23824501,-0.4592743,0.7744983,0.9430354,-0.036206745,0.17748359,0.279057,-0.97233194,-0.17699566,-0.60101926,0.0,1.0,0.0,0.0,0.0,0.0,0.0,-0.33813322,0.060109705,-0.2924353,-25.243462,2.5513887,-0.041413307,15.204525,-5.0495386,0.47079325,-0.15878826
-47.904408,41.723194,2.4373145,37.388554,3.2494686,1.1519595,-0.79849124,-0.14233218,-0.7752657,-0.68758744,0.6981344,-0.6996901,0.6406052,0.07940797,0.3304389,-0.80682,-2.0161107,-1.2507771,2.0917387,1.8847469,-0.9336638,0.34352964,-0.7433439,-1.960358,-1.3088604,2.1521518,1.8251896,-0.94237226,-0.16391443,-1.4003575,-1.2929943,1.2041883,-0.9654973,0.45120817,-0.07214198,-0.3220501,-0.4606285,0.8382688,-1.0181646,-0.051857434,-0.4416255,-0.2486496,-0.46048737,0.768754,0.9452892,-0.034380555,0.17813823,0.27113265,-1.0582113,-0.09970602,-0.5721954,0.0,1.0,0.0,0.0,0.0,0.0,0.0,-0.32794988,0.060628504,-0.2882688,-19.87326,1.877737,3.0279636,12.524819,-3.8270235,0.3519237,1.8790692
-29.704914,43.65709,7.221974,28.008179,2.2080884,0.72103,-0.39802462,-0.14445075,-0.77772033,-0.69487715,0.694507,-0.683506,0.6232607,0.07713208,0.32908458,-0.8211159,-2.0298457,-1.2394097,2.0838013,1.8875157,-0.93465906,0.34095854,-0.7572561,-1.9730686,-1.296291,2.1423595,1.8297024,-0.94293684,-0.28704035,-1.3889897,-1.2638261,1.2757436,-0.98463625,0.45128748,-0.051524695,-0.3322239,-0.4611473,0.8331037,-1.0171466,-0.051805586,-0.5414632,-0.2596035,-0.4610901,0.763167,0.9475928,-0.032521766,0.17919765,0.262485,-1.1042656,-0.044643566,-0.5605437,0.0,1.0,0.0,0.0,0.0,0.0,0.0,-0.31777608,0.061147302,-0.2831037,-11.966735,0.89013577,2.8805256,7.5050116,-2.191186,0.03849864,1.9954317
-6.0036845,44.86782,13.125895,16.635239,0.9739649,0.16332026,0.05198168,-0.10780774,-0.7917103,-0.67804945,0.68122256,-0.6583195,0.6114088,0.029730527,0.33017775,-0.8364271,-2.0408735,-1.2281687,2.0765276,1.8908433,-0.93996376,0.33788627,-0.7711788,-1.9854625,-1.2834107,2.132529,1.8342018,-0.943345,-0.31377977,-1.3939936,-1.2306983,1.2926531,-0.9834078,0.44926137,-0.037472796,-0.34238815,-0.4616661,0.82694095,-1.0161297,-0.05175379,-0.641201,-0.27066803,-0.46138763,0.75755,0.9498187,-0.030589664,0.18038385,0.25371325,-1.1029276,-0.02013741,-0.5683679,0.0,1.0,0.0,0.0,0.0,0.0,0.0,-0.30761182,0.0616661,-0.27694094,-2.6083708,-0.69532394,3.4748793,1.8660307,-0.19540787,-0.22419095,1.3551607
5.3053303,42.704975,14.449576,9.671228,0.32583165,-0.18631798,0.27690664,-0.11799351,-0.7999088,-0.6814381,0.6576405,-0.6364156,0.5902111,0.0069256364,0.3260869,-0.85116965,-2.0536063,-1.2176466,2.0688875,1.8932229,-0.94265246,0.33486742,-0.7852245,-1.9976143,-1.2706963,2.1228282,1.8386612,-0.94365114,-0.29811704,-1.4085946,-1.2094105,1.264659,-0.9667348,0.44461882,-0.028456183,-0.35254097,-0.4621849,0.8197816,-1.0151138,-0.051702045,-0.7408391,-0.2815628,-0.46158218,0.75171757,0.95191175,-0.028493268,0.18146522,0.2451989,-1.0810415,-0.014747545,-0.5943098,0.0,1.0,0.0,0.0,0.0,0.0,0.0,-0.297459,0.0621849,-0.2697816,1.5085459,-1.6184092,2.3534536,-2.7033567,1.3547659,-0.5223453,0.86109376
1.4087305,40.161194,12.01446,9.244396,0.41302598,-0.179425,0.26034927,-0.17684878,-0.798905,-0.687458,0.64200056,-0.6246185,0.56606954,0.06790073,0.31718254,-0.865115,-2.06636,-1.2064962,2.0603664,1.8952682,-0.93686104,0.33186287,-0.7994085,-2.0096695,-1.2584149,2.113341,1.8430557,-0.9438371,-0.30124694,-1.4221493,-1.2036003,1.2163405,-0.9439364,0.4376169,-0.015512581,-0.36268425,-0.4627037,0.8116266,-1.0140989,-0.051650353,-0.8403776,-0.29230118,-0.46170807,0.7455629,0.9538892,-0.026108565,0.18234509,0.23698947,-1.0671088,-0.008174728,-0.6284989,0.0,1.0,0.0,0.0,0.0,0.0,0.0,-0.28731573,0.0627037,-0.2616266,-0.32559633,-1.5086651,0.7425785,-4.7028065,2.001822,-0.77213645,1.259323
13.757352,44.69647,16.599674,5.9741154,-0.049371123,-0.38329974,0.43368074,-0.09705991,-0.8072983,-0.65727603,0.6392351,-0.5966384,0.56299657,0.11606806,0.32215688,-0.88013834,-2.0753973,-1.1944914,2.0536773,1.8993554,-0.9322303,0.32918113,-0.81373364,-2.0215828,-1.2465912,2.1041324,1.8473816,-0.94386953,-0.2575476,-1.4365072,-1.186296,1.1712084,-0.91401064,0.430715,0.000765644,-0.372818,-0.4632225,0.80247694,-1.0130849,-0.051598713,-0.9398166,-0.30272675,-0.46187592,0.7390962,0.9557208,-0.023497002,0.18297695,0.22927044,-1.0304673,-0.014580926,-0.65860015,0.0,1.0,0.0,0.0,0.0,0.0,0.0,-0.27718198,0.0632225,-0.25247693,4.240334,-1.5752792,2.0029306,-4.4737577,2.6719809,-0.7786572,1.5909
16.179373,45.593464,17.029724,5.2077785,-0.1476649,-0.47926953,0.42649716,-0.08069665,-0.8102995,-0.6688698,0.61577666,-0.5796123,0.53413457,0.06903875,0.32111147,-0.8947636,-2.0884697,-1.1850135,2.0461712,1.9007951,-0.93696564,0.32700866,-0.82818085,-2.0334008,-1.2352158,2.095229,1.8516235,-0.9437875,-0.20424262,-1.4478639,-1.1795553,1.1264719,-0.8831712,0.42170337,0.010572978,-0.3829403,-0.4637413,0.79233366,-1.0120721,-0.051547125,-1.0391562,-0.3127613,-0.4621277,0.7323218,0.957406,-0.020675661,0.18335229,0.22209965,-0.99040294,-0.026318973,-0.6893875,0.0,1.0,0.0,0.0,0.0,0.0,0.0,-0.26705968,0.0637413,-0.24233365,5.1888285,-1.271534,0.9524822,-4.4442415,2.77313,-1.0033906,0.94103116
1.5783634,41.818626,12.001915,9.014226,0.4946372,-0.22754887,0.21214287,-0.15874872,-0.8196025,-0.6696418,0.58057654,-0.5535127,0.49811643,0.038677808,0.3111338,-0.9101411,-2.100365,-1.1771581,2.0398777,1.9014351,-0.9399197,0.32493395,-0.84274554,-2.0452673,-1.2244062,2.0868635,1.8557134,-0.94357914,-0.2087788,-1.4599667,-1.1870204,1.0682184,-0.82516474,0.40566278,0.022602957,-0.39281845,-0.46339035,0.78500104,-0.97481954,0.039613523,-0.7229809,-0.32263184,-0.46240616,0.7251927,0.9590276,-0.017546777,0.18334226,0.21527593,-0.98118657,-0.023464363,-0.72570395,0.0,1.0,0.0,0.0,0.0,0.0,0.0,-0.25718153,0.063390344,-0.23500103,-0.5315453,-1.3809681,0.017499924,-4.9298763,3.6508083,-1.2940466,0.544275
-15.895305,45.14668,9.393342,17.08142,1.4728189,0.2364546,-0.053944245,-0.23259266,-0.8110447,-0.6402368,0.6113445,-0.5196822,0.47789198,0.17372648,0.3016747,-0.92385,-2.109291,-1.1632718,2.0348952,1.9035026,-0.92620647,0.32233375,-0.8573634,-2.0570433,-1.2138438,2.0789497,1.8596731,-0.94321656,-0.2766539,-1.4630066,-1.1740195,1.0531166,-0.78128207,0.39253852,0.040774137,-0.4024601,-0.46287918,0.77757305,-0.9615579,0.05448376,-0.7517713,-0.33262634,-0.46243286,0.71785766,0.9606429,-0.014199876,0.1830792,0.20843622,-1.000116,0.008313619,-0.74159986,0.0,1.0,0.0,0.0,0.0,0.0,0.0,-0.24753988,0.062879175,-0.22757304,-6.6566944,-0.4872322,1.3813257,-1.2652397,4.125333,-1.3930738,1.8145174
-8.243981,52.96165,14.3723755,17.14439,1.3394855,0.25638974,0.010670118,-0.18134177,-0.81226116,-0.59332556,0.6191979,-0.48024723,0.4657086,0.21372548,0.30419958,-0.9385895,-2.116376,-1.151924,2.030925,1.906244,-0.921844,0.31926626,-0.87198704,-2.0684533,-1.2032527,2.071491,1.8635104,-0.9426537,-0.31665832,-1.4626862,-1.1293751,1.0616667,-0.73513496,0.3805239,0.06132897,-0.41190147,-0.46222305,0.76998943,-0.93912333,0.06893888,-0.7626276,-0.3426876,-0.4621582,0.71048564,0.96223307,-0.010840828,0.18262434,0.20158939,-1.003577,0.03761319,-0.7410344,0.0,1.0,0.0,0.0,0.0,0.0,0.0,-0.2380985,0.062223047,-0.21998942,-3.9470255,-0.15172958,4.6515465,1.0289431,4.29374,-1.2752116,2.0480468
-6.5856895,54.55647,15.210132,16.53481,1.2057681,0.27351394,0.03343444,-0.2041654,-0.81671107,-0.575031,0.6016257,-0.48829532,0.45177,0.18835205,0.29884973,-0.95365816,-2.1259563,-1.1430901,2.0226614,1.9086874,-0.9238185,0.31582874,-0.88661355,-2.0793557,-1.1925946,2.0643811,1.8672299,-0.9419208,-0.35271087,-1.463233,-1.0763731,1.0677047,-0.70453423,0.36898467,0.077186,-0.42110062,-0.4614296,0.7623143,-0.914209,0.08240305,-0.77098185,-0.35274696,-0.46160126,0.70312417,0.9637781,-0.007540669,0.18202312,0.19478817,-1.0011544,0.0655538,-0.73965514,0.0,1.0,0.0,0.0,0.0,0.0,0.0,-0.22889936,0.06142959,-0.21231431,-3.5698533,-0.23326874,5.5063963,0.7626772,2.730465,-1.2222171,1.573363
-12.106777,53.694427,13.417141,17.445614,1.4533958,0.37115762,-0.024152406,-0.2636804,-0.81611097,-0.55861425,0.58543146,-0.42548653,0.41296622,0.22552232,0.2894607,-0.96822464,-2.1352172,-1.1340516,2.0218325,1.9085265,-0.91936857,0.31187582,-0.901241,-2.089747,-1.1819575,2.0576608,1.8708171,-0.9410213,-0.4092314,-1.4632074,-1.0262399,1.0630895,-0.6623684,0.3549786,0.09417039,-0.43008423,-0.460495,0.754516,-0.8936896,0.09700108,-0.7844007,-0.36284637,-0.46072388,0.6957604,0.9652969,-0.004282313,0.1812345,0.18798243,-1.0082765,0.10020565,-0.74030685,0.0,1.0,0.0,0.0,0.0,0.0,0.0,-0.21991575,0.06049499,-0.204516,-5.5786133,-0.17592907,5.1754475,-0.26788712,3.9060235,-1.473999,1.7036617
-3.8409073,55.51328,16.038422,14.716337,1.2381647,0.26675674,0.059698813,-0.24161099,-0.82288235,-0.5080219,0.5763052,-0.34837976,0.40114033,0.20286766,0.28771472,-0.9835292,-2.1405492,-1.124327,2.0228229,1.9109311,-0.9207346,0.3075552,-0.91589814,-2.099532,-1.171429,2.051524,1.8742688,-0.9399876,-0.43963033,-1.4671481,-0.9618306,1.0498786,-0.5987721,0.34162316,0.10646677,-0.43883705,-0.45943832,0.7465885,-0.8696997,0.10809154,-0.7970803,-0.3729267,-0.45955276,0.6883975,0.96679705,-0.0011568441,0.18013401,0.18125635,-1.0032284,0.12644479,-0.73981965,0.0,1.0,0.0,0.0,0.0,0.0,0.0,-0.21116292,0.059438318,-0.19658852,-3.0283988,-0.5564213,6.653571,-1.1838913,6.0361147,-1.4143407,1.2444987
-0.94184697,58.979954,18.119286,14.533691,1.2480837,0.3196176,0.062012885,-0.2627723,-0.8224726,-0.44112593,0.5756042,-0.3050436,0.39974982,0.17053092,0.28127795,-0.9981454,-2.1436446,-1.1138686,2.0210195,1.9142437,-0.92293453,0.30296576,-0.93059236,-2.1084929,-1.161034,2.0460768,1.8775989,-0.9388716,-0.46540332,-1.4707328,-0.8734363,1.036572,-0.5282678,0.3300112,0.113383576,-0.44732475,-0.45827484,0.73858714,-0.8423666,0.118862614,-0.8026598,-0.3829193,-0.45812607,0.6810917,0.9682817,0.0016842919,0.17865683,0.17466968,-0.9924964,0.15248404,-0.73212546,0.0,1.0,0.0,0.0,0.0,0.0,0.0,-0.20267522,0.058274835,-0.18858713,-2.5859654,-0.5147457,9.078717,-1.2214899,6.7102194,-1.2272537,0.7132873
3.0448728,62.332733,20.274328,13.629862,1.1622988,0.33529216,0.09793231,-0.27379203,-0.8200912,-0.37273085,0.55528253,-0.25105363,0.37655076,0.15300368,0.27558655,-1.0126015,-2.145766,-1.1055057,2.0209713,1.915254,-0.9235712,0.29816258,-0.9453037,-2.1164095,-1.1508394,2.0413775,1.880811,-0.93771285,-0.48539808,-1.4716936,-0.7635131,1.0139334,-0.4519836,0.31809926,0.11673429,-0.4555111,-0.457016,0.73057634,-0.81123376,0.12843259,-0.8020082,-0.39273643,-0.45645905,0.67390233,0.96975225,0.0041137086,0.17676292,0.16828112,-0.9736731,0.17612047,-0.7190015,0.0,1.0,0.0,0.0,0.0,0.0,0.0,-0.19448888,0.057015985,-0.18057632,-2.029699,-0.24337769,11.251664,-2.1900654,7.2737637,-1.2406886,0.3564477
1.3358383,62.010017,19.677002,13.4469795,1.3198117,0.3497275,0.07051801,-0.30500683,-0.8219204,-0.32001385,0.5218474,-0.1466233,0.31054556,0.15118569,0.2676619,-1.0274957,-2.148411,-1.0986547,2.0267153,1.9118655,-0.9225943,0.29308474,-0.9600227,-2.1231997,-1.140992,2.0376027,1.883867,-0.9365303,-0.51529366,-1.4724113,-0.64983934,0.97529,-0.3536777,0.30123773,0.118896365,-0.4634056,-0.45565796,0.7225459,-0.78281087,0.13798486,-0.8047471,-0.40240288,-0.45454025,0.6668344,0.97123533,0.0060823,0.17433576,0.16208641,-0.9594899,0.20176263,-0.7069381,0.0,1.0,0.0,0.0,0.0,0.0,0.0,-0.18659437,0.055657953,-0.17254591,-2.999127,-0.21004677,11.58464,-3.7782907,9.505129,-1.7290533,0.2592638
-8.089083,54.689884,13.881626,13.771637,1.4565376,0.26488402,-0.039952196,-0.34576693,-0.8236436,-0.36191577,0.49031863,-0.09700485,0.23404913,0.12646122,0.25850806,-1.042387,-2.1593912,-1.0919602,2.0279021,1.907272,-0.92388415,0.28757584,-0.9747522,-2.1293235,-1.1316195,2.0347922,1.8867072,-0.93535036,-0.5626009,-1.4735471,-0.5996059,0.9251817,-0.2578911,0.2781691,0.11788261,-0.47109413,-0.45420456,0.7143429,-0.764947,0.1479128,-0.827304,-0.4120617,-0.45233917,0.6597435,0.9727647,0.007828215,0.17133634,0.15592085,-0.9629115,0.23068854,-0.71397966,0.0,1.0,0.0,0.0,0.0,0.0,0.0,-0.17890584,0.054204553,-0.16434288,-4.678273,-0.24468899,5.122435,-4.8423767,9.362245,-2.3671865,-0.035232306
-19.106976,51.386574,9.682032,16.379417,2.002342,0.3013822,-0.21863407,-0.39574948,-0.8196056,-0.36753988,0.47943553,0.06753441,0.15294439,0.15297425,0.24800089,-1.0567127,-2.1660774,-1.0836759,2.0415456,1.9020016,-0.92005295,0.28143427,-0.98947215,-2.1352706,-1.1227014,2.0332255,1.88927,-0.9341625,-0.630973,-1.4719278,-0.5928109,0.8814068,-0.12357837,0.24857585,0.1194629,-0.47868156,-0.45262527,0.7058311,-0.7572742,0.16116405,-0.8608475,-0.42192078,-0.44976044,0.6525356,0.9743899,0.009521948,0.16766964,0.14953446,-0.9895074,0.27097723,-0.7270254,0.0,1.0,0.0,0.0,0.0,0.0,0.0,-0.17131841,0.05262527,-0.1558311,-6.726742,0.028276443,0.69628954,-4.1329503,13.289947,-3.0548067,0.263156
-19.961218,53.305305,9.517856,17.692612,1.818167,0.31909406,-0.23418699,-0.39982653,-0.8141951,-0.37222636,0.5073956,0.010975871,0.1977842,0.21577422,0.24145162,-1.0708916,-2.1724932,-1.0719619,2.0343232,1.9090483,-0.9125851,0.2747028,-1.0041487,-2.1413445,-1.1139663,2.0326357,1.891591,-0.9329111,-0.6868553,-1.4666129,-0.61224467,0.8717335,-0.038184457,0.22630517,0.1272373,-0.4861679,-0.4509163,0.69704473,-0.74658513,0.17416489,-0.8866784,-0.4320259,-0.44679642,0.6452057,0.97607625,0.011275395,0.16354859,0.14282764,-1.0129356,0.3110891,-0.73891664,0.0,1.0,0.0,0.0,0.0,0.0,0.0,-0.16383207,0.050916284,-0.14704472,-5.4842234,0.391984,-1.9030213,-0.7113457,8.414573,-2.32929,0.8590892
-8.980829,57.749603,12.461704,15.182045,0.7312814,0.18033156,-0.01233596,-0.36887315,-0.8008203,-0.3913633,0.51840204,-0.20675868,0.21859655,0.29739556,0.23781547,-1.0842308,-2.180481,-1.0621262,2.0119598,1.9134506,-0.90317154,0.26772046,-1.0187113,-2.1477497,-1.1051623,2.0319998,1.893738,-0.93152535,-0.7019262,-1.4532373,-0.64942527,0.88392043,-0.072652675,0.21057908,0.14219849,-0.49344826,-0.44912338,0.6881121,-0.7225797,0.18060116,-0.89766604,-0.44213676,-0.44356155,0.6377524,0.97769576,0.013318471,0.15951213,0.13597614,-1.0051874,0.33250296,-0.75126517,0.0,1.0,0.0,0.0,0.0,0.0,0.0,-0.15655172,0.049123377,-0.13811207,-1.4731646,1.199913,-3.5869002,1.403141,-3.6080508,-1.6412586,1.486823
-8.413283,57.522198,12.228718,13.918695,0.4383489,0.14915437,0.073174335,-0.4088707,-0.79858255,-0.39509174,0.48331288,-0.22453815,0.06801164,0.3187153,0.22683339,-1.0985696,-2.1872587,-1.056831,2.009546,1.9005392,-0.8996538,0.26055408,-1.0331404,-2.1545095,-1.0963541,2.0307608,1.8956397,-0.92998314,-0.7214322,-1.4399704,-0.68441486,0.88056415,-0.14197278,0.18323062,0.15805407,-0.50048065,-0.4472847,0.67905265,-0.6976726,0.18492779,-0.9108112,-0.45212173,-0.4401512,0.63014424,0.97919214,0.015840977,0.15576164,0.12911281,-0.990977,0.3499287,-0.76767296,0.0,1.0,0.0,0.0,0.0,0.0,0.0,-0.14951932,0.047284693,-0.12905264,-1.9242406,1.1902571,-3.3600926,-0.16056299,-7.1223154,-2.803421,1.5537858
0.36754394,58.032257,14.747569,10.586445,0.29426622,0.051006526,0.18660352,-0.39738885,-0.80433786,-0.36299127,0.45183262,-0.13160166,-0.029294282,0.33265427,0.22081518,-1.1135743,-2.1908088,-1.0511708,2.0176005,1.8927102,-0.8967177,0.25330997,-1.0474951,-2.1613798,-1.0877463,2.0291133,1.8972151,-0.92828816,-0.72543645,-1.4341488,-0.68732053,0.8546009,-0.17316201,0.1487222,0.17326815,-0.50725365,-0.44543076,0.669847,-0.67114216,0.18557446,-0.9251361,-0.46189117,-0.43662643,0.62237984,0.9805774,0.018751616,0.15210111,0.12239858,-0.9675623,0.35800603,-0.78278434,0.0,1.0,0.0,0.0,0.0,0.0,0.0,-0.14274633,0.04543075,-0.119847,-0.41860342,0.45967102,-0.10597706,-2.4793386,-3.350666,-3.5269709,1.4938265
2.4541416,59.07126,16.08143,10.391807,0.5301505,0.07394111,0.17131898,-0.40490738,-0.80999446,-0.33481812,0.4548663,-0.079428464,-0.083436035,0.35174614,0.21281922,-1.1284946,-2.1948617,-1.0422597,2.0211704,1.8888716,-0.89311355,0.24603851,-1.0618517,-2.1680522,-1.0793864,2.0274353,1.89843,-0.9264418,-0.7277855,-1.4364717,-0.66008765,0.83026737,-0.167043,0.11202729,0.18835858,-0.51376915,-0.44356918,0.66051817,-0.64553815,0.18592942,-0.9368687,-0.47145462,-0.43302155,0.6145088,0.98188597,0.021831498,0.1482969,0.11589344,-0.9468084,0.36647353,-0.79194105,0.0,1.0,0.0,0.0,0.0,0.0,0.0,-0.13623083,0.043569177,-0.11051816,-0.26210546,-0.3485918,2.925694,-2.3289084,0.3676355,-3.758624,1.5044093
