Afshin1997/kuka_rl_ros2/src/catch_and_throw/input_files/idealpd/polynomial_regressor/optimizer_files/env_444_data.csv
torque0,torque1,torque2,torque3,torque4,torque5,torque6,action0,action1,action2,action3,action4,action5,action6,set_target_0,set_target_1,set_target_2,set_target_3,set_target_4,set_target_5,set_target_6,joint_pos_0,joint_pos_1,joint_pos_2,joint_pos_3,joint_pos_4,joint_pos_5,joint_pos_6,joint_vel_0,joint_vel_1,joint_vel_2,joint_vel_3,joint_vel_4,joint_vel_5,joint_vel_6,tennisball_pos_0,tennisball_pos_1,tennisball_pos_2,tennisball_lin_vel_0,tennisball_lin_vel_1,tennisball_lin_vel_2,end_effector_pos_0,end_effector_pos_1,end_effector_pos_2,end_effector_rot_0,end_effector_rot_1,end_effector_rot_2,end_effector_rot_3,end_effector_lin_vel_0,end_effector_lin_vel_1,end_effector_lin_vel_2,obs_task_0,obs_task_1,obs_task_2,obs_task_3,obs_task_4,obs_task_5,obs_task_6,to_final_target_0,to_final_target_1,to_final_target_2,joint_acc_0,joint_acc_1,joint_acc_2,joint_acc_3,joint_acc_4,joint_acc_5,joint_acc_6
0.0,0.0,0.0,0.0,0.0,0.0,0.0,0.0,0.0,0.0,0.0,0.0,0.0,0.0,1.7802359,-1.0646509,-1.8151424,-1.1170107,1.9373155,1.1170107,-0.91629785,1.7802359,-1.0646509,-1.8151424,-1.1170107,1.9373155,1.1170107,-0.91629785,0.0,0.0,0.0,0.0,0.0,0.0,0.0,2.868164,-0.6344147,0.09793371,-3.787795,0.064639874,4.8171687,0.5304184,-0.45449448,0.693097,0.5745483,0.17512383,0.15255436,0.7848268,0.0,0.0,0.0,1.0,0.0,0.0,0.0,0.0,0.0,0.0,-3.5181642,0.23441467,0.4520663,0.0,0.0,0.0,0.0,0.0,0.0,0.0
0.0,0.0,0.0,0.0,0.0,0.0,0.0,0.0,0.0,0.0,0.0,0.0,0.0,0.0,1.7802359,-1.0646509,-1.8151424,-1.1170107,1.9373155,1.1170107,-0.91629785,1.7802359,-1.0646509,-1.8151424,-1.1170107,1.9373155,1.1170107,-0.91629785,0.0,0.0,0.0,0.0,0.0,0.0,0.0,2.868164,-0.6344147,0.09793371,-3.787795,0.064639874,4.8171687,0.5304184,-0.45449448,0.693097,0.5745483,0.17512383,0.15255436,0.7848268,0.0,0.0,0.0,1.0,0.0,0.0,0.0,0.0,0.0,0.0,-3.5181642,0.23441467,0.4520663,0.0,0.0,0.0,0.0,0.0,0.0,0.0
0.0,0.0,0.0,0.0,0.0,0.0,0.0,0.0,0.0,0.0,0.0,0.0,0.0,0.0,1.7802359,-1.0646509,-1.8151424,-1.1170107,1.9373155,1.1170107,-0.91629785,1.7802359,-1.0646509,-1.8151424,-1.1170107,1.9373155,1.1170107,-0.91629785,0.0,0.0,0.0,0.0,0.0,0.0,0.0,2.868164,-0.6344147,0.09793371,-3.787795,0.064639874,4.8171687,0.5304184,-0.45449448,0.693097,0.5745483,0.17512383,0.15255436,0.7848268,0.0,0.0,0.0,1.0,0.0,0.0,0.0,0.0,0.0,0.0,-3.5181642,0.23441467,0.4520663,0.0,0.0,0.0,0.0,0.0,0.0,0.0
-176.0,40.961746,-17.98596,110.0,11.076762,3.7413728,-3.8069186,-0.8134898,0.22380732,-0.5885133,0.7439999,0.17874482,0.6582515,-0.57632035,1.6988869,-1.0422702,-1.8739938,-1.0426108,1.95519,1.1828358,-0.9739299,1.7792975,-1.0630239,-1.8214557,-1.1114546,1.9426198,1.12283,-0.9175109,-0.12485656,0.2161249,-0.84149873,0.74133897,0.7065277,0.77417576,-0.16096562,2.8303146,-0.6337662,0.14533281,-3.784008,0.06457525,4.714166,0.5283203,-0.4580803,0.6936058,0.5783463,0.17365147,0.15070046,0.7827197,-0.2789255,-0.47829735,0.067481615,1.0,0.0,0.0,0.0,0.0,0.0,0.0,-3.4803147,0.23376617,0.4046672,-12.365894,21.42639,-84.075874,74.2931,70.42979,76.88513,-15.84985
-176.0,-54.380753,-55.108044,108.99598,11.37565,0.55393517,-3.2699976,-0.8002842,-0.29265332,-0.54752326,0.7063113,0.17708457,0.6557491,-0.5449128,1.699269,-1.0922892,-1.8762081,-1.0408235,1.9603282,1.1884049,-0.9720022,1.7784868,-1.0618681,-1.8366992,-1.0956808,1.951405,1.1365057,-0.9172744,-0.07127635,0.066060185,-1.7104229,1.856308,0.9138867,1.5201099,0.07437522,2.7925034,-0.6331177,0.19170266,-3.7802248,0.06451068,4.6112666,0.52379227,-0.46710968,0.69381285,0.5865911,0.17019892,0.14678906,0.778072,-0.5121194,-1.0413457,0.009754163,1.0,0.0,0.0,0.0,0.0,0.0,0.0,-3.4425035,0.23311767,0.35829735,3.8847818,-19.812521,-74.41957,111.520096,14.203668,61.062218,20.282646
-153.98358,105.08972,27.374542,87.961655,7.249839,7.096508,-1.9060168,-0.7491333,0.20636828,0.071241185,0.64255625,0.2357392,0.69344795,-0.44099838,1.7035735,-1.0412313,-1.8295752,-1.0314252,1.9749789,1.2058505,-0.9613743,1.7745119,-1.0607122,-1.8517215,-1.0755411,1.9600587,1.1515318,-0.91674703,-0.5059078,0.12893228,-1.4267712,2.0678647,0.8442765,1.4910092,0.044306632,2.7547302,-0.632473,0.2370443,-3.7764454,0.06444619,4.50847,0.51647186,-0.47894287,0.69539213,0.59757346,0.16519797,0.14190459,0.77167267,-0.81273395,-1.2238646,0.21079496,1.0,0.0,0.0,0.0,0.0,0.0,0.0,-3.4047303,0.23247299,0.3129557,-43.3863,5.3747206,30.16529,21.604897,-8.48639,-4.578924,-3.3973827
-101.22633,89.03205,33.145428,50.88895,4.69309,6.6804676,-0.15745723,-0.7556984,-0.086588524,0.20586294,0.64837784,0.268779,0.6666269,-0.50641286,1.6989421,-1.0693711,-1.8311353,-1.0107033,1.9869366,1.2181945,-0.96738833,1.7661139,-1.060161,-1.8609169,-1.0559527,1.9673734,1.165465,-0.91671556,-0.95183146,0.02870681,-0.74362284,1.9233016,0.68781495,1.3578749,-0.011654066,2.7169952,-0.6318321,0.28135875,-3.7726698,0.064381756,4.4057765,0.5066414,-0.4915352,0.69852334,0.60932,0.15903448,0.13592061,0.7648285,-1.0513551,-1.2585785,0.35085163,1.0,0.0,0.0,0.0,0.0,0.0,0.0,-3.3669953,0.23183212,0.26864126,-44.787407,-10.584721,70.3967,-14.219737,-17.43238,-14.115953,-5.918729
-44.97374,131.88892,52.527466,29.956154,2.113034,6.905005,0.48950303,-0.7755638,0.1258373,0.23720305,0.66373557,0.39656276,0.6845653,-0.50762194,1.6885575,-1.0475773,-1.8371966,-0.9895791,2.0070295,1.2339215,-0.96747774,1.753987,-1.0596136,-1.8632038,-1.038901,1.9735494,1.1779562,-0.9172849,-1.3006997,0.061808627,-0.050874557,1.6318979,0.589391,1.2116972,-0.073822744,2.6792984,-0.63119125,0.32464704,-3.768898,0.06431738,4.3031855,0.49494934,-0.5034561,0.70329785,0.62071294,0.15176126,0.1289777,0.75831956,-1.2209108,-1.157028,0.52057,1.0,0.0,0.0,0.0,0.0,0.0,0.0,-3.3292985,0.23119125,0.22535297,-35.210896,2.801948,71.138374,-29.267597,-11.301958,-15.013528,-6.747421
-16.98252,104.283485,37.533108,14.067176,0.4341096,4.036126,0.37122276,-0.7953857,0.11734847,0.046099983,0.6686297,0.406165,0.6713217,-0.5448758,1.6744484,-1.0478787,-1.8585938,-0.97203803,2.0141659,1.2450883,-0.9717725,1.7394453,-1.0586046,-1.861037,-1.0245959,1.9790902,1.1891123,-0.91844267,-1.506012,0.113052204,0.308852,1.3628356,0.5402771,1.0836183,-0.13084504,2.641636,-0.6305504,0.36691016,-3.76513,0.064253084,4.200697,0.48220444,-0.51434326,0.70902324,0.6315262,0.14400183,0.12175478,0.752073,-1.3036511,-1.0538108,0.5883598,1.0,0.0,0.0,0.0,0.0,0.0,0.0,-3.291636,0.23055038,0.18308985,-20.742846,4.842827,36.87826,-27.0355,-5.571246,-12.790871,-6.036945
3.0430346,127.69699,39.417027,11.792088,-1.2162051,3.019874,-0.27693343,-0.81059855,0.38839823,-0.14086418,0.666136,0.36836413,0.6733531,-0.52239794,1.6583855,-1.0197648,-1.8751234,-0.95798224,2.0159266,1.2564476,-0.97068244,1.7237555,-1.0558103,-1.8579834,-1.0123278,1.9842896,1.1991469,-0.92009443,-1.5906023,0.33401802,0.3059148,1.1811441,0.5123009,0.97730553,-0.17797422,2.6040115,-0.6299095,0.40814915,-3.761366,0.064188845,4.098311,0.46904373,-0.5240021,0.71544397,0.6421015,0.13611208,0.11549859,0.74554616,-1.3298193,-0.92482764,0.6576615,1.0,0.0,0.0,0.0,0.0,0.0,0.0,-3.2540116,0.22990951,0.14185086,-8.699417,21.832552,0.21320581,-18.285107,-3.0200005,-10.47802,-5.1205664
12.233366,124.89976,34.68147,10.090139,-1.8276334,1.8962858,-0.61765015,-0.8197498,0.48666602,-0.24525686,0.6431218,0.3884312,0.64547724,-0.5305358,1.6417805,-1.0071437,-1.882509,-0.94801563,2.0231328,1.2636946,-0.973148,1.707812,-1.050464,-1.8566253,-1.0012652,1.9894109,1.2082354,-0.9221601,-1.5964388,0.600776,0.08001413,1.0808225,0.51185924,0.8866347,-0.21739566,2.5664253,-0.62926865,0.44836506,-3.757605,0.064124666,3.9960275,0.4559059,-0.53245926,0.7223977,0.6527687,0.12835133,0.11099355,0.7383084,-1.3185958,-0.8061707,0.70588267,1.0,0.0,0.0,0.0,0.0,0.0,0.0,-3.2164254,0.22926864,0.10163495,-0.8282423,26.465405,-22.268124,-10.185766,-0.099527836,-8.941174,-4.322219
17.970673,124.49716,34.39454,10.116697,-1.7707326,1.6211064,-0.63821894,-0.82282495,0.5834592,-0.26865333,0.61658466,0.43662485,0.63700336,-0.5261364,1.6255294,-0.9921181,-1.8834907,-0.9396067,2.0330734,1.2719357,-0.9747737,1.6920973,-1.0424646,-1.857867,-0.99079937,1.9947438,1.2165228,-0.92456526,-1.5640082,0.865672,-0.19128717,1.0344104,0.5402684,0.8093625,-0.24940385,2.5288773,-0.6286278,0.4875589,-3.753848,0.064060554,3.8938465,0.44294357,-0.53977966,0.72985476,0.6636343,0.120789774,0.108317636,0.730251,-1.2950957,-0.6948962,0.75780505,1.0,0.0,0.0,0.0,0.0,0.0,0.0,-3.1788774,0.22862777,0.06244111,2.9988527,26.29323,-26.785023,-4.8743963,2.7797341,-7.7481747,-3.5787554
20.949522,115.179436,33.174377,9.298568,-1.306788,1.5505912,-0.4195812,-0.8179759,0.6313697,-0.2569841,0.5876607,0.48609525,0.64452106,-0.54202074,1.6102997,-0.9793276,-1.8835654,-0.9320333,2.0433533,1.2809749,-0.97876734,1.6767946,-1.0322603,-1.8613193,-0.98061985,2.000525,1.224137,-0.9272575,-1.5196037,1.0714011,-0.39519367,1.0114094,0.59034073,0.74489546,-0.2770937,2.4913673,-0.6279869,0.52573174,-3.750095,0.06399651,3.7917678,0.4302101,-0.5460892,0.7378081,0.67460173,0.113371156,0.10703982,0.7215275,-1.2718494,-0.59538114,0.807563,1.0,0.0,0.0,0.0,0.0,0.0,0.0,-3.1413674,0.2279869,0.02426827,4.2030334,20.39894,-19.973827,-2.6028156,4.9079776,-6.587684,-3.1397402
21.293888,103.61915,31.495136,8.6964,-0.79279727,1.583758,-0.17542621,-0.81066686,0.6645819,-0.24087004,0.5693461,0.49594647,0.6549978,-0.54978037,1.5957279,-0.96580213,-1.8854063,-0.92368525,2.0501196,1.2896367,-0.9822355,1.6619116,-1.0205377,-1.8660495,-0.9706015,2.0067887,1.231196,-0.9301967,-1.4785912,1.2052716,-0.49726784,0.99763346,0.63819504,0.6922008,-0.30076125,2.4538956,-0.62734604,0.5628845,-3.7463455,0.06393252,3.6897912,0.41765976,-0.5514908,0.7462161,0.6855038,0.10598609,0.106603675,0.71238124,-1.2544153,-0.506911,0.8522466,1.0,0.0,0.0,0.0,0.0,0.0,0.0,-3.1038957,0.22734603,-0.012884498,3.8692713,13.23843,-9.716445,-1.7015219,4.6587944,-5.4599285,-2.7355015
19.777996,93.87077,30.021502,8.641485,-0.29317206,1.6749758,0.04061495,-0.8082666,0.6905822,-0.20787618,0.55178773,0.5190388,0.6568471,-0.554595,1.581085,-0.9514795,-1.8868371,-0.91542274,2.0586927,1.2968807,-0.9856562,1.6473433,-1.007934,-1.8710601,-0.96072716,2.0135102,1.2377993,-0.93334574,-1.450492,1.278419,-0.5006214,0.9830484,0.68249536,0.64902455,-0.32084593,2.4164581,-0.62670517,0.5990183,-3.7426,0.063868605,3.5879164,0.40520096,-0.55607605,0.7550346,0.69618213,0.098519236,0.1064914,0.7030533,-1.2456504,-0.4275967,0.8924221,1.0,0.0,0.0,0.0,0.0,0.0,0.0,-3.0664582,0.22670516,-0.049018264,2.5787115,7.1864605,0.22679567,-1.7676711,4.277134,-4.5173883,-2.3733974
17.328676,83.8309,27.266075,8.588619,0.00094014406,1.5862412,0.13826662,-0.8002092,0.70513314,-0.2003959,0.5456628,0.51913744,0.66511315,-0.55825156,1.5673224,-0.93742067,-1.8910997,-0.9061609,2.065424,1.3043106,-0.9891709,1.6329829,-0.99492776,-1.875735,-0.95098346,2.0205712,1.2440382,-0.93667215,-1.431875,1.3077636,-0.45460033,0.9705088,0.7134507,0.6148055,-0.33772027,2.3790588,-0.6260643,0.6341341,-3.7388582,0.06380475,3.4861434,0.3928032,-0.55994415,0.7641712,0.70655346,0.09091087,0.106399044,0.6936834,-1.2415037,-0.35839513,0.92145044,1.0,0.0,0.0,0.0,0.0,0.0,0.0,-3.029059,0.2260643,-0.0841341,1.6474962,2.8304815,5.161047,-1.5398145,2.9550552,-3.585446,-2.0396829
15.628591,77.47287,25.249306,8.280229,0.14630133,1.4984875,0.21104845,-0.7987431,0.71720266,-0.17440137,0.52362853,0.53913957,0.6697825,-0.5576764,1.5531086,-0.9232075,-1.8931751,-0.8986206,2.0744853,1.3110164,-0.9924398,1.618733,-0.9818014,-1.8797557,-0.94142956,2.027903,1.2499872,-0.9401445,-1.4232717,1.3139763,-0.38252842,0.9493866,0.73964953,0.5878206,-0.35150352,2.3416977,-0.62542343,0.6682329,-3.7351203,0.06374096,3.3844721,0.38042068,-0.56316376,0.7735298,0.71656245,0.08315228,0.10616569,0.68436307,-1.2394034,-0.29450023,0.9410896,1.0,0.0,0.0,0.0,0.0,0.0,0.0,-2.9916978,0.22542343,-0.118232906,0.65464973,0.5338907,7.765436,-2.3833036,2.4858832,-2.8232098,-1.7193496
15.351389,74.25275,23.962217,7.541672,0.114492476,1.4033144,0.2627235,-0.7994044,0.728042,-0.14326824,0.49183634,0.55016124,0.6704595,-0.5487464,1.5387926,-0.9089972,-1.8940825,-0.89224595,2.0829191,1.3170332,-0.99501914,1.6045119,-0.9686674,-1.8829982,-0.9322018,2.03546,1.2557074,-0.9437284,-1.4223276,1.3130237,-0.30285928,0.9130191,0.7608942,0.56649524,-0.36184222,2.3043747,-0.6247864,0.7013158,-3.731386,0.06367723,3.2829025,0.36807632,-0.5657425,0.7830295,0.7261625,0.075260304,0.1057465,0.67516035,-1.2351929,-0.2310083,0.9529429,1.0,0.0,0.0,0.0,0.0,0.0,0.0,-2.9543748,0.22478637,-0.15131581,-0.10821819,-0.16829967,8.514577,-3.902781,2.0058513,-2.20778,-1.3658226
16.739965,74.56098,24.056513,6.963573,0.050403357,1.3895245,0.3139053,-0.7973849,0.73570335,-0.08918686,0.46415263,0.564898,0.67522883,-0.55126566,1.5247734,-0.8950971,-1.8919169,-0.88578653,2.0919497,1.3232303,-0.99885494,1.5902811,-0.9555372,-1.8853614,-0.92341655,2.043219,1.2612501,-0.9474029,-1.4239833,1.3127341,-0.21230206,0.8660934,0.780514,0.55004257,-0.37036452,2.2670898,-0.62415314,0.7333838,-3.7276552,0.063613564,3.1814344,0.35578156,-0.5676689,0.79264283,0.7353113,0.067223094,0.1051272,0.66614306,-1.2275976,-0.1639902,0.9635293,1.0,0.0,0.0,0.0,0.0,0.0,0.0,-2.91709,0.22415313,-0.18338376,-0.36723614,-0.09419918,9.602594,-4.9486995,1.8507957,-1.6866565,-1.1787593
16.48825,74.12104,23.323973,7.1876717,0.00030696392,1.2930236,0.28797847,-0.79568833,0.74426407,-0.068217896,0.4483915,0.57288927,0.677037,-0.54469055,1.5107123,-0.8811108,-1.8921832,-0.8785774,2.100508,1.3289539,-1.001872,1.5760351,-0.9423717,-1.8869274,-0.9150881,2.0511537,1.2666537,-0.9511451,-1.4254568,1.3176185,-0.1363403,0.8208738,0.79729325,0.53723854,-0.3765184,2.2298431,-0.6235199,0.7644378,-3.7239282,0.063549966,3.0800679,0.34358597,-0.56892776,0.80234504,0.74401706,0.05904528,0.1043563,0.65731424,-1.2174059,-0.09818765,0.9713681,1.0,0.0,0.0,0.0,0.0,0.0,0.0,-2.8798432,0.22351989,-0.21443778,-0.3367424,0.43201447,8.097395,-4.764247,1.594305,-1.2951255,-0.9234965
20.068966,73.2484,23.104313,4.962366,-0.20976835,1.1500221,0.37809417,-0.7943849,0.746198,-0.015585561,0.385951,0.598966,0.6692281,-0.5449471,1.4965967,-0.86775196,-1.8884859,-0.87649304,2.1110504,1.3335764,-1.0056398,1.5617815,-0.9291462,-1.8877189,-0.9073891,2.0592904,1.2719465,-0.9549398,-1.4257638,1.3240072,-0.05843001,0.7520917,0.81900674,0.52681935,-0.3813948,2.1926308,-0.62288666,0.7944789,-3.720205,0.06348643,2.9788027,0.33155823,-0.56949615,0.8120797,0.7522296,0.050768316,0.10345633,0.6487448,-1.1973258,-0.028072909,0.97260964,1.0,0.0,0.0,0.0,0.0,0.0,0.0,-2.8426309,0.22288665,-0.24447888,-0.21841526,0.5984783,8.275749,-7.123244,2.1049023,-0.9880781,-0.7888973
20.091702,71.07505,21.802673,4.6894293,-0.30413687,0.96320224,0.347818,-0.79088897,0.7518476,-0.0046074255,0.36296025,0.5983225,0.6740516,-0.5321077,1.4826926,-0.8539614,-1.8881797,-0.8710931,2.1191227,1.3393517,-1.0081506,1.547547,-0.91583955,-1.8878925,-0.9003653,2.0676103,1.2771555,-0.958765,-1.4231699,1.3328459,-0.0022564398,0.6850294,0.83593696,0.51924014,-0.38384196,2.1554565,-0.6222534,0.82350814,-3.7164857,0.06342295,2.8776388,0.319767,-0.5693855,0.82178575,0.7599521,0.042440318,0.10249411,0.6404425,-1.1723711,0.038208548,0.9679313,1.0,0.0,0.0,0.0,0.0,0.0,0.0,-2.8054566,0.22225341,-0.27350813,0.08983612,0.8587122,6.0333858,-6.9415927,1.6662598,-0.663054,-0.5216837
21.81945,67.30535,19.85258,2.321807,-0.63149345,0.6406609,0.35679203,-0.790838,0.7644209,-0.017612936,0.28722775,0.6036501,0.67980254,-0.52706975,1.4684632,-0.83939743,-1.8896538,-0.87164253,2.1279752,1.3451358,-1.011472,1.533341,-0.9023994,-1.8877723,-0.8942017,2.076075,1.2823092,-0.96260446,-1.4202094,1.347666,0.018062167,0.5925339,0.8497021,0.5146284,-0.38483864,2.1183205,-0.6216202,0.8515265,-3.71277,0.06335954,2.776576,0.30830383,-0.5686188,0.83134127,0.7671875,0.034182068,0.10161948,0.63239896,-1.1349524,0.10268128,0.9489766,1.0,0.0,0.0,0.0,0.0,0.0,0.0,-2.7683206,0.22162017,-0.3015265,0.13318062,1.4793634,2.38596,-9.498286,1.3869166,-0.28184652,-0.35101175
23.619488,63.963413,18.76539,0.5078068,-0.7618149,0.42380184,0.41821373,-0.7907545,0.7626458,0.014926307,0.21882688,0.6245817,0.67781055,-0.52230346,1.4542656,-0.82613486,-1.8862797,-0.872319,2.1385334,1.3500903,-1.0148348,1.5191599,-0.8888401,-1.8874595,-0.88910717,2.0847,1.2874266,-0.96644586,-1.4177618,1.3587424,0.036669694,0.48090577,0.8669648,0.5115803,-0.3848002,2.0812187,-0.62098694,0.878535,-3.7090578,0.0632962,2.6756144,0.29727554,-0.5672264,0.84064543,0.77390534,0.026093306,0.10087548,0.6246708,-1.0893698,0.16410139,0.9215162,1.0,0.0,0.0,0.0,0.0,0.0,0.0,-2.7312188,0.22098693,-0.32853496,0.09205341,1.1253595,2.1729093,-11.413407,1.7619014,-0.06694794,-0.22951365
26.761425,61.49813,18.130472,-2.082931,-0.99712414,0.20851797,0.5092571,-0.7914846,0.76752704,0.038357534,0.12292362,0.633713,0.6704947,-0.5225719,1.4400115,-0.81208736,-1.8836237,-0.8768148,2.1480713,1.3544761,-1.0187031,1.504994,-0.87518156,-1.8869312,-0.88535255,2.0934968,1.2925173,-0.9702863,-1.4166696,1.3684162,0.059244096,0.33946788,0.8840778,0.509304,-0.38443878,2.0441551,-0.6203537,0.9045346,-3.7053494,0.06323291,2.5747535,0.28678513,-0.56521225,0.8496105,0.7800518,0.018262707,0.100277595,0.61735713,-1.0321974,0.22544514,0.8852451,1.0,0.0,0.0,0.0,0.0,0.0,0.0,-2.6941552,0.2203537,-0.35453457,-0.033402443,1.0071754,2.5298014,-14.3926735,1.7729163,0.08265972,-0.17659664
38.85145,57.241764,17.767462,-11.403621,-1.8675191,-0.24988556,0.8378436,-0.7903897,0.7725555,0.07266232,-0.10088469,0.6481476,0.6709005,-0.51369137,1.425955,-0.797926,-1.8796649,-0.895441,2.1583116,1.3596073,-1.0216554,1.4908377,-0.8614315,-1.8860672,-0.8837809,2.1024728,1.2976004,-0.9741153,-1.4156164,1.3774508,0.096208125,0.09551759,0.90267247,0.5095624,-0.38294643,2.0071297,-0.61972046,0.9295264,-3.701645,0.06316969,2.4739935,0.2771454,-0.5625038,0.8580224,0.78541577,0.010910919,0.0998931,0.6107571,-0.93843234,0.29742116,0.8232946,1.0,0.0,0.0,0.0,0.0,0.0,0.0,-2.6571298,0.21972045,-0.37952638,-0.022983551,0.9824276,3.9378777,-24.649548,1.940763,0.5340457,-0.03504753
46.93739,56.12675,18.228653,-16.336237,-2.3510537,-0.5414752,1.0205826,-0.7756223,0.77828956,0.11010911,-0.2465065,0.6485676,0.6650928,-0.49771783,1.4132755,-0.78360254,-1.8750563,-0.90843153,2.1673295,1.3641096,-1.023887,1.4767615,-0.84758794,-1.8847206,-0.88497776,2.1116052,1.3026892,-0.9779157,-1.405288,1.38694,0.14782733,-0.19204712,0.9172599,0.51063925,-0.37947598,1.9701424,-0.6190872,0.95351136,-3.6979442,0.06310654,2.3733342,0.26859665,-0.5590286,0.86574364,0.7898395,0.004185448,0.099766746,0.6051302,-0.821521,0.37296644,0.7515001,1.0,0.0,0.0,0.0,0.0,0.0,0.0,-2.6201425,0.21908721,-0.40351135,0.9621382,1.062274,5.2830667,-28.961962,1.6037703,0.7168174,0.21325946
40.546673,54.803993,17.133667,-12.165755,-1.9213682,-0.5846163,0.87573785,-0.7803181,0.7835243,0.1158958,-0.3025082,0.6643874,0.655263,-0.4709055,1.3987297,-0.7692355,-1.873131,-0.9152286,2.1780438,1.3682154,-1.0250063,1.4627653,-0.83364904,-1.8829257,-0.88873714,2.1208978,1.307778,-0.9816608,-1.3977772,1.3966453,0.18991649,-0.43767506,0.9338371,0.5101333,-0.37305716,1.9331894,-0.618454,0.97649044,-3.6942468,0.063043445,2.2727757,0.26111984,-0.55490494,0.872806,0.7934138,-0.0019229145,0.09988122,0.60042864,-0.7181683,0.43306497,0.6872182,1.0,0.0,0.0,0.0,0.0,0.0,0.0,-2.5831895,0.21845397,-0.42649043,0.72505474,1.0989189,4.1906714,-24.716228,1.8716812,0.48600435,0.5643368
38.37772,56.266052,17.712753,-9.248404,-1.6436385,-0.5353847,0.8032688,-0.7643907,0.7875281,0.16029648,-0.3942413,0.66552055,0.6568016,-0.44783202,1.3863263,-0.7548962,-1.8668962,-0.92816126,2.18745,1.3734581,-1.026444,1.4488989,-0.8196186,-1.8806369,-0.89465374,2.1303315,1.3128611,-0.98532575,-1.3826874,1.405772,0.24154185,-0.6433195,0.9473164,0.50936043,-0.3645034,1.8962746,-0.61782074,0.9984647,-3.6905532,0.06298041,2.1723175,0.25460815,-0.55020905,0.87931204,0.7962414,-0.0075113815,0.10018179,0.59657913,-0.62281233,0.48751056,0.6341,1.0,0.0,0.0,0.0,0.0,0.0,0.0,-2.5462747,0.21782073,-0.4484647,1.5253782,1.0602474,5.012104,-20.677269,1.6452074,0.42344332,0.81222653
31.628242,59.486523,18.741766,-2.694684,-1.0037447,-0.25268105,0.6481461,-0.7587162,0.787964,0.224377,-0.42241013,0.6606003,0.65786433,-0.40783164,1.3730273,-0.7408222,-1.8581992,-0.9368948,2.1963916,1.3786476,-1.0261089,1.4351908,-0.8055185,-1.8776519,-0.90208477,2.139853,1.3179346,-0.98888105,-1.3667513,1.4119551,0.31643695,-0.77670044,0.95529234,0.5079422,-0.35271457,1.8593979,-0.6171913,1.019435,-3.6868634,0.06291744,2.0719597,0.24887466,-0.5450096,0.8854564,0.7984513,-0.01279428,0.10055492,0.5934649,-0.5506587,0.53529924,0.6030563,1.0,0.0,0.0,0.0,0.0,0.0,0.0,-2.509398,0.21719131,-0.46943504,1.6200304,0.7781744,7.2302284,-13.433874,1.1905789,0.28229952,1.1472523
25.207249,61.949196,19.603085,3.278582,-0.39780694,0.021794781,0.5131642,-0.7556631,0.7864573,0.2916233,-0.44356692,0.6674761,0.64822036,-0.38751414,1.3596245,-0.7268728,-1.8484896,-0.9464415,2.2066007,1.3827567,-1.0276325,1.4216219,-0.79138696,-1.8737361,-0.9103827,2.1494508,1.3229834,-0.9923124,-1.3535118,1.4140708,0.41537613,-0.84778166,0.96281344,0.5050333,-0.340107,1.8225555,-0.6165657,1.0394026,-3.6831775,0.062854536,1.9717025,0.24369049,-0.5393677,0.89143866,0.8001695,-0.017993648,0.10085828,0.5909591,-0.5007337,0.5780417,0.5914462,1.0,0.0,0.0,0.0,0.0,0.0,0.0,-2.4725556,0.2165657,-0.4894026,1.3436317,0.37927628,9.565842,-7.2025776,1.2204766,0.0718832,1.2283802
22.118465,64.83214,20.799242,7.019635,-0.09389949,0.23701638,0.4462152,-0.7470682,0.7896235,0.36263725,-0.46341833,0.65315425,0.6476106,-0.3364127,1.3469151,-0.71242464,-1.8374724,-0.9567245,2.2147663,1.3877444,-1.0259537,1.4081846,-0.7772373,-1.8686855,-0.9190859,2.1590638,1.3280016,-0.99559206,-1.3404344,1.4158248,0.5337516,-0.87817127,0.9627529,0.5019471,-0.3239668,1.7857513,-0.6159401,1.0583683,-3.6794949,0.0627917,1.8715452,0.23891449,-0.53328323,0.89741397,0.801465,-0.023291364,0.10101753,0.5889878,-0.46294665,0.62188107,0.5940423,1.0,0.0,0.0,0.0,0.0,0.0,0.0,-2.4357514,0.21594009,-0.5083683,1.3279438,0.3525257,11.452365,-3.1245232,0.52354336,0.029051304,1.5838206
21.162153,65.316414,21.26019,8.554178,-0.0020712018,0.29746163,0.43092754,-0.73357266,0.7883146,0.42517126,-0.4757612,0.6374616,0.6504629,-0.25409728,1.3348274,-0.69840586,-1.8261683,-0.96666205,2.22281,1.3930479,-1.0210018,1.3949057,-0.76308477,-1.8624027,-0.92792267,2.1686158,1.3329931,-0.99866194,-1.3236673,1.4157115,0.6582879,-0.88581717,0.95451504,0.4994334,-0.30136973,1.7489853,-0.6153145,1.0763333,-3.675816,0.06272892,1.7714881,0.23448563,-0.5267563,0.9034572,0.8023556,-0.028789287,0.10101966,0.58753014,-0.42906874,0.66639537,0.6020741,1.0,0.0,0.0,0.0,0.0,0.0,0.0,-2.3989854,0.21531448,-0.5263333,1.7096281,0.17075539,12.035036,-0.8387208,-0.26973486,0.08071065,2.2310674
16.57597,61.707657,19.666813,10.754498,0.19531524,0.25517544,0.35979143,-0.7338329,0.782763,0.46211454,-0.46134955,0.61895764,0.6461876,-0.11762131,1.3215224,-0.6848085,-1.8161912,-0.9740576,2.2305117,1.3976119,-1.010424,1.3817564,-0.7489637,-1.8549984,-0.9366631,2.1780267,1.3379599,-1.0014199,-1.3117863,1.4114525,0.7664297,-0.8704107,0.9381342,0.49657074,-0.26733232,1.7122536,-0.6146889,1.0932984,-3.672141,0.0626662,1.671531,0.23033142,-0.51984024,0.90958047,0.8028853,-0.034510456,0.10090551,0.58651716,-0.4040456,0.70310545,0.60970014,1.0,0.0,0.0,0.0,0.0,0.0,0.0,-2.3622537,0.21468887,-0.5432984,1.209259,-0.24831295,10.420537,1.4522791,-1.1147976,0.011593103,3.3719301
10.954328,57.894493,17.826832,13.28423,0.4349283,0.23979104,0.2765956,-0.742918,0.77843577,0.5044646,-0.438533,0.60010767,0.6519483,0.018435722,1.3074646,-0.67112017,-1.8045518,-0.9805164,2.2380373,1.4031547,-0.99957633,1.3686415,-0.73490655,-1.8466365,-0.94510883,2.1872277,1.3428999,-1.0037583,-1.3114218,1.4043244,0.85840744,-0.83629,0.91553026,0.49419066,-0.22270912,1.67556,-0.61406326,1.1092647,-3.6684697,0.06260354,1.5716738,0.22633743,-0.51262665,0.91577697,0.8031173,-0.0404495,0.10072857,0.58584994,-0.39023417,0.73163515,0.616778,1.0,0.0,0.0,0.0,0.0,0.0,0.0,-2.32556,0.21406326,-0.5592647,0.027799606,-0.5419493,8.854353,3.3017635,-1.7758965,0.013774633,4.4267983
3.9533,52.944267,15.12081,16.292181,0.7136375,0.17734325,0.12944087,-0.75587875,0.7772301,0.5100559,-0.39720094,0.5835242,0.6536638,0.13637602,1.2930536,-0.6571835,-1.7956309,-0.98482895,2.2455802,1.4082663,-0.9901207,1.3554331,-0.720919,-1.8376186,-0.95304626,2.196177,1.347819,-1.0055951,-1.3241702,1.3974738,0.91537255,-0.7800903,0.8896783,0.4917698,-0.17073661,1.6389008,-0.61343765,1.1242332,-3.6648018,0.062540956,1.4719164,0.2223854,-0.50520706,0.9220315,0.80315816,-0.046580963,0.100567915,0.5853658,-0.3895267,0.7483478,0.62202615,1.0,0.0,0.0,0.0,0.0,0.0,0.0,-2.2889009,0.21343765,-0.57423323,-1.3308287,-0.5215168,5.428493,5.471587,-2.1574616,-0.04556179,5.157587
-7.3004456,48.842194,12.262648,23.395588,1.3612466,0.28580782,-0.16391335,-0.7722456,0.7747891,0.4939429,-0.26926276,0.5519484,0.65816784,0.2720556,1.2782085,-0.6434401,-1.7882243,-0.97997254,2.2513719,1.4136357,-0.9783895,1.3420073,-0.7069944,-1.8283546,-0.9599032,2.2048173,1.3527132,-1.0068558,-1.349084,1.3913454,0.92938435,-0.6549211,0.8567714,0.48923323,-0.111246645,1.6022797,-0.61281204,1.1382049,-3.6611378,0.06247843,1.3722588,0.21822739,-0.49773788,0.9284161,0.80321276,-0.0529713,0.10049072,0.5847604,-0.41684648,0.7495478,0.6375569,1.0,0.0,0.0,0.0,0.0,0.0,0.0,-2.2522798,0.21281204,-0.5882049,-2.6207447,-0.44825077,1.196444,12.300992,-2.893412,-0.15053749,5.8936715
-24.442247,43.56598,8.596046,35.609753,2.542107,0.59122044,-0.64911866,-0.7965568,0.76159614,0.4523629,-0.035591956,0.5106479,0.6673653,0.36667684,1.2623516,-0.6308348,-1.7831182,-0.96346235,2.255882,1.4194498,-0.97018814,1.32824,-0.6931747,-1.8193157,-0.9645514,2.2130609,1.3575846,-1.0075043,-1.3868254,1.3794453,0.89481336,-0.40244377,0.81444603,0.4863624,-0.049575046,1.5656967,-0.61218643,1.1511807,-3.6574776,0.062415965,1.2727008,0.21342087,-0.49043274,0.93513227,0.803621,-0.05985105,0.10049878,0.58353335,-0.4930696,0.72854966,0.67652565,1.0,0.0,0.0,0.0,0.0,0.0,0.0,-2.2156968,0.21218643,-0.60118073,-3.9937973,-1.0216713,-3.6253095,24.937904,-3.8312912,-0.33783317,6.084563
-32.988483,37.22487,5.60048,41.990013,3.1573756,0.6642103,-0.94864625,-0.7971569,0.738396,0.39813983,0.16146062,0.44382504,0.6759734,0.4457773,1.2485243,-0.6193351,-1.7795017,-0.9484053,2.2574434,1.425182,-0.9629266,1.3141485,-0.67956674,-1.8109424,-0.9660353,2.2207398,1.3624312,-1.0075368,-1.4172118,1.3551465,0.8173721,-0.06480183,0.7540734,0.483707,0.0119708385,1.5291481,-0.6115608,1.1631618,-3.6538208,0.06235356,1.1732423,0.20767212,-0.48343658,0.9423155,0.8046437,-0.067407936,0.10061158,0.5812761,-0.5946042,0.69337183,0.7258578,1.0,0.0,0.0,0.0,0.0,0.0,0.0,-2.1791482,0.21156082,-0.61316174,-3.2458544,-2.2717,-7.9501867,33.438072,-5.635059,-0.4137218,6.067202
-34.453987,33.57675,3.9352298,42.58621,3.2233963,0.5675988,-1.0634496,-0.8090854,0.73395395,0.32279208,0.30079657,0.43932515,0.67269397,0.42071006,1.23324,-0.60617137,-1.7786632,-0.93595564,2.2646723,1.4297006,-0.9654658,1.29979,-0.6661962,-1.8036392,-0.9640669,2.2278848,1.3672491,-1.0070332,-1.4426067,1.3314824,0.70038116,0.28313616,0.70289767,0.48052981,0.06282876,1.4926376,-0.6109352,1.1741489,-3.6501677,0.06229122,1.0738833,0.20087433,-0.47684097,0.94996524,0.80639267,-0.07565121,0.100853436,0.57778573,-0.6997201,0.6546523,0.7718548,1.0,0.0,0.0,0.0,0.0,0.0,0.0,-2.1426377,0.2109352,-0.6241489,-2.6964188,-2.2341728,-11.94005,34.52093,-4.7291517,-0.51505566,5.026058
-24.863678,30.322191,3.2354374,33.212906,2.287725,0.09340511,-0.8515722,-0.8163525,0.7295564,0.24463938,0.31770334,0.4154504,0.6675816,0.38403904,1.2181548,-0.5932406,-1.7791753,-0.9322966,2.26943,1.4340073,-0.9686293,1.2852312,-0.65302885,-1.7976978,-0.95936817,2.2345643,1.3720385,-1.006112,-1.460645,1.3121256,0.5582298,0.5314364,0.6573507,0.47804922,0.1016974,1.4561615,-0.6103096,1.1841433,-3.6465185,0.06222894,0.9746237,0.19329834,-0.47058105,0.9578481,0.80876446,-0.084305175,0.101354346,0.57316667,-0.7689252,0.62331384,0.7879609,1.0,0.0,0.0,0.0,0.0,0.0,0.0,-2.1061616,0.2103096,-0.6341433,-1.9051552,-1.8387079,-14.419186,24.613459,-4.2320967,-0.35710335,3.8446114
-8.601807,29.581846,4.409242,18.644703,0.9203738,-0.48221678,-0.37626582,-0.82389563,0.72116977,0.21167904,0.25057587,0.41713834,0.66781574,0.36919117,1.2028416,-0.5809119,-1.7765299,-0.93431056,2.276278,1.43882,-0.96919286,1.2705275,-0.6400341,-1.793042,-0.9534058,2.2409005,1.3768164,-1.0048703,-1.4739156,1.2955567,0.43435675,0.61712444,0.6263627,0.47786,0.13147113,1.4197235,-0.6096878,1.1931459,-3.6428726,0.062166724,0.87546325,0.18544388,-0.46453476,0.9655978,0.81145084,-0.09293601,0.10222963,0.56785524,-0.7821568,0.60603493,0.76512516,1.0,0.0,0.0,0.0,0.0,0.0,0.0,-2.0697236,0.2096878,-0.64314586,-1.4142036,-1.5877485,-12.450695,8.370865,-2.8859138,0.059974194,2.9145942
13.168009,26.275814,5.1818714,-1.8917332,-1.0339148,-1.3777691,0.30489075,-0.8219564,0.7009196,0.18872565,0.049979836,0.3531272,0.67539173,0.42402458,1.1883318,-0.5699421,-1.7741693,-0.9484078,2.2762132,1.4443556,-0.96246785,1.2557532,-0.62724626,-1.7893665,-0.9482445,2.2468247,1.3816153,-1.0033349,-1.4788564,1.2734137,0.3456539,0.48174387,0.5813249,0.4819704,0.16057126,1.3833237,-0.6090698,1.2011576,-3.6392305,0.06210457,0.776402,0.17808151,-0.45858765,0.9726967,0.8140059,-0.10093804,0.10368194,0.56254417,-0.71442914,0.5991676,0.686459,1.0,0.0,0.0,0.0,0.0,0.0,0.0,-2.0333238,0.20906982,-0.65115756,-0.5702257,-2.1475077,-8.750314,-13.748753,-4.440677,0.8037865,2.8125496
26.146898,25.943571,6.392265,-13.46801,-2.0143132,-1.9136289,0.7420978,-0.8221593,0.6903479,0.1736231,-0.087412916,0.37103948,0.67542416,0.45899442,1.1735373,-0.55821145,-1.7720041,-0.95698583,2.2839286,1.4491577,-0.9574354,1.2409674,-0.6146835,-1.786309,-0.94541115,2.252421,1.3864638,-1.0015172,-1.478441,1.2508081,0.2931132,0.2166046,0.55221903,0.48761818,0.18860634,1.3469582,-0.60845184,1.2081794,-3.635592,0.06204248,0.67743975,0.17171478,-0.45269012,0.97880334,0.816102,-0.10787795,0.105759345,0.55781233,-0.60124177,0.5935661,0.5808333,1.0,0.0,0.0,0.0,0.0,0.0,0.0,-1.9969581,0.20845184,-0.65817934,0.0061273575,-2.183032,-5.0745487,-26.691256,-2.9338598,1.0925651,2.7035594
26.948486,26.8837,7.059443,-13.343814,-1.8760085,-1.9789333,0.79565144,-0.8221094,0.68114245,0.14959615,-0.13732754,0.3935517,0.67011553,0.49391365,1.1587565,-0.5465693,-1.7713494,-0.9591439,2.2917762,1.4534754,-0.9521258,1.2262083,-0.60233533,-1.7836368,-0.94525,2.2578797,1.3913599,-0.99942154,-1.4749827,1.229797,0.25915664,-0.05114356,0.54370713,0.49187177,0.21618584,1.3106308,-0.60783386,1.2142122,-3.631957,0.06198045,0.57857645,0.16649246,-0.44687653,0.98389053,0.81766135,-0.11367382,0.108348675,0.5538671,-0.48867664,0.5832108,0.48054567,1.0,0.0,0.0,0.0,0.0,0.0,0.0,-1.9606308,0.20783386,-0.66421217,0.36399364,-2.012682,-3.2878637,-26.898357,-0.8700013,0.8927047,2.6850371
17.858862,27.654232,6.672041,-3.81779,-1.02287,-1.6650845,0.47935364,-0.81482637,0.67058504,0.09888088,-0.09541774,0.34046957,0.6706021,0.52561045,1.1447257,-0.53527683,-1.7737488,-0.9547917,2.2919266,1.4584202,-0.9468605,1.2115217,-0.59018743,-1.7813842,-0.94695896,2.263167,1.3962866,-0.9970574,-1.4664563,1.2101139,0.2140849,-0.21115743,0.5238211,0.49398872,0.24298778,1.2743378,-0.6072159,1.2192571,-3.628326,0.061918482,0.479812,0.16213226,-0.4411888,0.98818916,0.81885266,-0.11857587,0.1113624,0.550471,-0.41097882,0.5673074,0.40904716,1.0,0.0,0.0,0.0,0.0,0.0,0.0,-1.9243377,0.20721588,-0.6692571,0.8818388,-1.8746853,-4.5043736,-16.119844,-1.9401789,0.5264759,2.618748
2.604413,20.621239,2.2723243,7.755092,0.008036137,-1.4750632,-0.05958806,-0.8153985,0.6553501,-0.03662285,-0.0365262,0.257919,0.6765487,0.53927666,1.1299819,-0.5246524,-1.7850465,-0.9506116,2.2889588,1.4639415,-0.9431297,1.1969095,-0.5782522,-1.7801158,-0.94929355,2.2680383,1.4012285,-0.99444526,-1.4596251,1.1883295,0.09747245,-0.24151114,0.47509244,0.4945782,0.2669655,1.2380829,-0.6065979,1.2233151,-3.6246982,0.061856575,0.38114634,0.15821075,-0.43579102,0.99194425,0.82003355,-0.12285414,0.11486552,0.5470444,-0.37913343,0.5330945,0.36053666,1.0,0.0,0.0,0.0,0.0,0.0,0.0,-1.8880829,0.2065979,-0.6733151,0.67162514,-2.0935059,-11.692463,-3.2219262,-4.7918615,0.22581816,2.3132205
-9.943808,13.356651,-1.709201,16.96709,0.93114763,-1.3265673,-0.47936335,-0.81739765,0.6342746,-0.14794727,0.017617945,0.21372387,0.67703265,0.542066,1.1151698,-0.51482475,-1.7949106,-0.94753176,2.2894106,1.4689318,-0.94023865,1.1823355,-0.56658113,-1.7804267,-0.9511904,2.272326,1.4061667,-0.99162143,-1.4569633,1.160173,-0.07397065,-0.17315936,0.413596,0.49369422,0.28713652,1.2018623,-0.6059799,1.2263873,-3.6210742,0.06179473,0.28257933,0.15430832,-0.43085098,0.9953433,0.8215343,-0.12670577,0.11890325,0.5430368,-0.38676316,0.48309162,0.32954857,1.0,0.0,0.0,0.0,0.0,0.0,0.0,-1.8518623,0.20597991,-0.67638725,0.21634102,-2.7511835,-17.170914,6.5896273,-6.06032,-0.032627583,1.9001961
-10.824132,8.781797,-3.1949973,16.323896,0.9498806,-1.4335033,-0.4794173,-0.8151519,0.6050906,-0.20369431,-0.035107,0.1567065,0.6790427,0.54188675,1.1008203,-0.50607204,-1.8007962,-0.9547011,2.2879965,1.4740709,-0.93743277,1.1677786,-0.5552734,-1.7824562,-0.9524855,2.2759156,1.4110953,-0.9886221,-1.455201,1.1211137,-0.24587828,-0.115716495,0.3408092,0.49281663,0.30375308,1.1656799,-0.60536194,1.2284745,-3.6174538,0.06173295,0.18411086,0.15032959,-0.426445,0.99839306,0.8234319,-0.13012744,0.123484194,0.53831065,-0.39511403,0.42744946,0.2937511,1.0,0.0,0.0,0.0,0.0,0.0,0.0,-1.8156799,0.20536193,-0.6784745,0.15656948,-3.8516283,-17.226452,5.514039,-7.204902,-0.031167269,1.5332758
-6.8049397,9.982108,-2.1872005,12.741876,0.4617785,-1.5054995,-0.3349463,-0.82035804,0.5874941,-0.24405113,-0.089514054,0.03462936,0.6799769,0.5324626,1.0857428,-0.496524,-1.8068613,-0.9614369,2.2793787,1.479093,-0.93537587,1.1532065,-0.54437006,-1.7859771,-0.95357364,2.2785287,1.4160181,-0.98548645,-1.4578104,1.0802896,-0.38754937,-0.10722009,0.2353276,0.4924486,0.31643525,1.1295319,-0.60474396,1.2295778,-3.613837,0.06167123,0.08574086,0.14640427,-0.4225464,1.0010165,0.82564235,-0.13302928,0.12870815,0.5329655,-0.38662815,0.37846223,0.24933542,1.0,0.0,0.0,0.0,0.0,0.0,0.0,-1.7795318,0.20474395,-0.67957777,-0.258708,-4.0288687,-14.186419,0.6577343,-10.498148,0.054728985,1.1319995
-4.558071,8.325279,-2.5920856,9.802946,-0.1476748,-1.6366506,-0.28617498,-0.81692934,0.55630976,-0.32469425,-0.10274294,-0.21762156,0.68453,0.5355505,1.0715135,-0.48873907,-1.8184465,-0.96384794,2.2567666,1.4844711,-0.9319314,1.1386229,-0.5339254,-1.7908428,-0.95479625,2.2794785,1.4209448,-0.9822411,-1.4584868,1.0327089,-0.5195563,-0.12773047,0.04834598,0.4931573,0.3266889,1.0934219,-0.604126,1.2296981,-3.610224,0.06160957,-0.012530816,0.14268875,-0.41911697,1.0031108,0.82810134,-0.13530952,0.13486812,0.5270199,-0.36074525,0.3318356,0.19400859,1.0,0.0,0.0,0.0,0.0,0.0,0.0,-1.7434219,0.20412597,-0.67969805,-0.026273727,-4.7024727,-13.230026,-2.2103457,-18.666258,0.20949244,0.8579433
-10.592461,6.492148,-3.9120736,15.456308,0.22297785,-1.4707613,-0.5077409,-0.8130961,0.5276081,-0.43846864,0.012728883,-0.39578387,0.67937964,0.5552541,1.0573133,-0.4811646,-1.8346896,-0.95352334,2.2399,1.4888828,-0.9267157,1.1240546,-0.5239862,-1.7971675,-0.9557366,2.2782311,1.4258715,-0.97889465,-1.4562588,0.9810523,-0.6704042,-0.08332659,-0.18248983,0.49304017,0.33658794,1.0573463,-0.603508,1.2288364,-3.6066144,0.061547976,-0.110704236,0.13910294,-0.4161682,1.0047493,0.83088225,-0.13705643,0.14216065,0.5202313,-0.35410824,0.28371438,0.15184155,1.0,0.0,0.0,0.0,0.0,0.0,0.0,-1.7073463,0.20350799,-0.6788364,0.26159286,-5.1386356,-15.10955,4.28015,-23.050142,0.08576512,0.77880025
-13.00858,-3.38723,-6.6148205,15.204569,0.56191707,-1.6030489,-0.45828387,-0.8056152,0.44569522,-0.48148394,0.01283859,-0.5287582,0.6791267,0.5871237,1.043493,-0.4794167,-1.8453159,-0.9544527,2.2253554,1.4937842,-0.9201823,1.1095511,-0.5148281,-1.8048542,-0.95619434,2.2746263,1.4308001,-0.9754366,-1.448241,0.8941688,-0.8016695,-0.033633694,-0.41979223,0.493068,0.34802556,1.0213051,-0.60289,1.2269937,-3.6030085,0.06148644,-0.20877951,0.13550949,-0.41381454,1.0059196,0.8339701,-0.13827227,0.15049447,0.5125681,-0.3578116,0.2207631,0.10378001,1.0,0.0,0.0,0.0,0.0,0.0,0.0,-1.6713051,0.20289001,-0.67699367,0.91211796,-8.669531,-13.213121,4.861205,-23.687965,0.121080875,0.9165764
-11.32913,-10.189257,-6.9236217,12.840054,0.98339766,-1.6726482,-0.2052221,-0.7960119,0.35244945,-0.44542637,-0.010280341,-0.5690035,0.67339844,0.57452023,1.0299499,-0.47958314,-1.8493968,-0.9572224,2.217726,1.49814,-0.9179846,1.0951697,-0.506843,-1.8133037,-0.9563336,2.268992,1.435723,-0.9718823,-1.4341819,0.766761,-0.8598961,-0.0075154076,-0.6114495,0.4925928,0.3571678,0.985302,-0.60227203,1.224171,-3.5994062,0.061424967,-0.30675673,0.13183212,-0.41215134,1.0065682,0.8372086,-0.13892946,0.15943821,0.5043409,-0.36865753,0.14803816,0.05055279,1.0,0.0,0.0,0.0,0.0,0.0,0.0,-1.635302,0.20227203,-0.67417103,1.5737295,-12.715328,-5.9675336,2.5799465,-19.107365,0.0759542,0.72053075
-11.445131,-22.303997,-9.12413,9.898833,1.5569413,-1.8573664,0.035421886,-0.7886788,0.22704594,-0.41531947,-0.02923978,-0.5849856,0.6718533,0.55655986,1.0163018,-0.48413837,-1.8548356,-0.95925754,2.2104933,1.5029082,-0.91622627,1.0809504,-0.50051343,-1.821841,-0.9564232,2.261889,1.4406401,-0.9682593,-1.4170499,0.5883856,-0.85246867,-0.0092738215,-0.7432356,0.49173722,0.36348957,0.949337,-0.6016617,1.2203693,-3.5958076,0.06136355,-0.404636,0.12794876,-0.4113655,1.006608,0.84044623,-0.13897827,0.168409,0.4959571,-0.3926376,0.05623921,-0.012671852,1.0,0.0,0.0,0.0,0.0,0.0,0.0,-1.599337,0.20166168,-0.6703693,1.9569874,-17.80492,0.5147219,-0.12120772,-13.098097,0.015991926,0.49001575
-20.754583,-77.24828,-25.337622,-0.39836338,2.7115216,-3.0365744,0.32038513,-0.7782189,-0.09449804,-0.38200644,-0.124160886,-0.5741017,0.66388005,0.52739537,1.0031285,-0.5099632,-1.8600416,-0.9688393,2.2044787,1.5070281,-0.9155197,1.0669352,-0.497167,-1.8299644,-0.9570479,2.2539315,1.4455401,-0.9646029,-1.3944849,0.250256,-0.80083686,-0.079334155,-0.81282234,0.4896063,0.3660406,0.9134064,-0.60105133,1.2155895,-3.5922124,0.061302204,-0.5024174,0.12355423,-0.41217804,1.0055842,0.843644,-0.13800836,0.17650123,0.48791963,-0.45455667,-0.12640205,-0.1330179,1.0,0.0,0.0,0.0,0.0,0.0,0.0,-1.5634063,0.20105132,-0.6655895,2.8168201,-33.76519,4.604101,-6.734329,-6.7763925,-0.16973615,0.16228557
-20.035055,-110.46569,-31.627022,-10.15248,3.4573042,-3.518567,0.8701702,-0.7503334,-0.4143151,-0.11542382,-0.22964472,-0.57273465,0.6725692,0.47557443,0.9919018,-0.5385985,-1.8415068,-0.98001236,2.1966581,1.512797,-0.9170455,1.0532385,-0.49826705,-1.8363044,-0.9588713,2.2455888,1.4504133,-0.96095985,-1.3591708,-0.23003359,-0.5805611,-0.21513295,-0.8406813,0.48582342,0.36389512,0.8775101,-0.600441,1.2098327,-3.588621,0.061240915,-0.60010105,0.11839676,-0.41513062,1.0030956,0.84662056,-0.13582541,0.18265446,0.4810638,-0.53701234,-0.35100546,-0.2878842,1.0,0.0,0.0,0.0,0.0,0.0,0.0,-1.52751,0.20044097,-0.65983266,4.190421,-48.00394,21.367264,-13.116825,-2.5938392,-0.59987307,-0.16056299
-6.5378404,-121.03387,-32.92512,-29.44714,2.0275605,-4.2979956,1.5141665,-0.7077209,-0.6154837,-0.061879415,-0.57931226,-0.53698164,0.67434263,0.42950284,0.9824664,-0.5598154,-1.8424923,-1.0168025,2.1918907,1.5178477,-0.9180096,1.040032,-0.504334,-1.8402851,-0.96355194,2.237246,1.4552256,-0.9573769,-1.3061311,-0.73247117,-0.33853048,-0.55092376,-0.83257324,0.47730216,0.35660985,0.8416519,-0.5998306,1.2030997,-3.5850332,0.061179686,-0.6976871,0.11280441,-0.4204979,0.99859625,0.8491369,-0.13191488,0.18643203,0.47624356,-0.5693636,-0.5963195,-0.5046182,1.0,0.0,0.0,0.0,0.0,0.0,0.0,-1.4916519,0.19983062,-0.6530997,5.785179,-50.30294,23.826223,-33.13555,0.78577995,-1.5951991,-0.6736338
20.15215,-54.96048,-7.7595296,-28.800945,0.2996033,-2.7306724,1.967802,-0.6537986,-0.6482233,0.2517598,-0.69559675,-0.62608683,0.68380326,0.467102,0.9746522,-0.5691563,-1.8151091,-1.0331116,2.1746373,1.523606,-0.9106667,1.0275046,-0.51441336,-1.8408325,-0.97183365,2.2287927,1.4599615,-0.9538321,-1.2347357,-1.1002125,0.0391565,-0.91989046,-0.8499012,0.4695532,0.35429695,0.8058281,-0.5992203,1.1953917,-3.5814488,0.061118517,-0.79517555,0.10746002,-0.42741013,0.99228317,0.8507802,-0.12663834,0.18808123,0.47408995,-0.5268052,-0.7191544,-0.67499095,1.0,0.0,0.0,0.0,0.0,0.0,0.0,-1.4558281,0.19922027,-0.64539164,7.199025,-36.88183,37.60377,-36.70188,-1.8049002,-1.5807927,-0.05825758
30.769161,5.446152,11.647049,-15.543269,-0.31094256,-1.1165798,1.690733,-0.59772325,-0.6820702,0.35649565,-0.68025005,-0.678423,0.70096105,0.42725095,0.96773225,-0.5826204,-1.8051829,-1.0398587,2.1609504,1.5300577,-0.911107,1.0158182,-0.52702284,-1.8377426,-0.9829907,2.220015,1.4646574,-0.95033115,-1.1466068,-1.3147889,0.39776707,-1.1808963,-0.8864183,0.46819514,0.3496326,0.7700386,-0.5986099,1.1867094,-3.5778682,0.06105741,-0.89256656,0.10276413,-0.4347725,0.9848306,0.85140556,-0.12082824,0.18819943,0.47443655,-0.4549103,-0.73595715,-0.770617,1.0,0.0,0.0,0.0,0.0,0.0,0.0,-1.4200386,0.19860992,-0.6367094,8.754969,-21.519207,35.50788,-26.072025,-3.5391212,-0.5648911,-0.19230247
27.532316,43.03068,21.843834,1.820116,0.17950115,0.064982235,1.0921686,-0.5521067,-0.7334238,0.41940305,-0.62162215,-0.66405934,0.7019865,0.37526363,0.9606076,-0.6003652,-1.7958022,-1.0451529,2.153609,1.5348561,-0.9128048,1.0050551,-0.5409608,-1.8316867,-0.9955382,2.2109475,1.4693743,-0.9469084,-1.0529209,-1.4199768,0.67284745,-1.2793391,-0.9123799,0.47307754,0.3410931,0.73428726,-0.5979996,1.1770539,-3.574291,0.06099637,-0.9898602,0.098667145,-0.44185257,0.97696275,0.85117227,-0.115271695,0.18729818,0.4765894,-0.39830986,-0.69060177,-0.7937853,1.0,0.0,0.0,0.0,0.0,0.0,0.0,-1.3842872,0.19799957,-0.6270539,9.39095,-10.477114,26.892435,-9.829426,-2.3048282,0.5643606,-0.4816234
15.551706,55.963394,22.082275,15.025239,0.8250563,0.47554678,0.42242056,-0.54008794,-0.7561505,0.39665824,-0.604818,-0.64138824,0.69240314,0.31498215,0.9510463,-0.61657584,-1.7920209,-1.05602,2.1468086,1.5386146,-0.9154102,0.99507004,-0.5553899,-1.8239429,-1.0082322,2.201758,1.4741522,-0.9436125,-0.9799861,-1.4501965,0.805885,-1.2657278,-0.9204601,0.4804669,0.32699165,0.69857025,-0.5973892,1.1664263,-3.5707176,0.060935386,-1.0870565,0.09489441,-0.44838715,0.9691426,0.85042846,-0.11032493,0.18582469,0.47965518,-0.37296695,-0.6324748,-0.77890116,1.0,0.0,0.0,0.0,0.0,0.0,0.0,-1.3485702,0.19738922,-0.6164263,7.4333906,-2.9196978,12.640297,1.4667034,-0.53828955,1.1064768,-1.0403991
8.470131,56.682724,19.472015,19.962263,1.0653954,0.33243543,0.022740386,-0.4833407,-0.76876944,0.35442817,-0.6003962,-0.61500573,0.6836524,0.26294494,0.946736,-0.6322668,-1.7885001,-1.0682719,2.1402574,1.5425174,-0.91731805,0.98583657,-0.5698314,-1.8158386,-1.0204011,2.1926217,1.4789969,-0.9404921,-0.9040741,-1.4416865,0.81040335,-1.200184,-0.91089165,0.4872795,0.30809122,0.6628876,-0.59677887,1.1548275,-3.5671475,0.060874462,-1.1841557,0.091259,-0.45444107,0.9615312,0.8494798,-0.10597372,0.18410596,0.48296857,-0.36255872,-0.5857825,-0.7553566,1.0,0.0,0.0,0.0,0.0,0.0,0.0,-1.3128875,0.19677886,-0.60482746,7.713449,0.96452236,-0.041604042,6.7101955,1.1268735,1.1099696,-1.5848339
3.6356623,47.79412,14.210214,19.365864,1.036694,-0.1488508,-0.17513083,-0.43037137,-0.7802553,0.2731896,-0.6024239,-0.6036974,0.6720211,0.25890142,0.94279945,-0.6478569,-1.7885196,-1.0806435,2.132252,1.546199,-0.9146019,0.9774032,-0.58411455,-1.8084991,-1.0318853,2.1836305,1.4838892,-0.93755573,-0.8229246,-1.42357,0.70754087,-1.1305034,-0.894804,0.49080753,0.28953934,0.62724304,-0.5961685,1.1422583,-3.5635812,0.0608136,-1.2811577,0.08768082,-0.4602089,0.9540453,0.84853476,-0.10195443,0.182358,0.4861477,-0.3579734,-0.5656764,-0.74617225,1.0,0.0,0.0,0.0,0.0,0.0,0.0,-1.277243,0.19616851,-0.5922583,8.174383,1.8843889,-10.532141,7.151675,1.6376138,0.6566942,-1.6523182
1.2230124,32.88755,7.0347214,14.320423,0.7123104,-0.8790276,-0.22228365,-0.37123853,-0.7901063,0.12127645,-0.6282838,-0.5978269,0.66320014,0.28937066,0.94027936,-0.66312516,-1.7963715,-1.0947137,2.1238477,1.5502093,-0.9086187,0.9698568,-0.5982623,-1.802983,-1.0429307,2.1747994,1.4887911,-0.9347691,-0.7319715,-1.4118868,0.49982867,-1.095231,-0.8793954,0.4900561,0.275263,0.59163284,-0.59555817,1.1287199,-3.5600183,0.060752794,-1.3780628,0.08417511,-0.4660492,0.94640183,0.84772605,-0.097798035,0.18074727,0.48900563,-0.3495379,-0.58140415,-0.7703291,1.0,0.0,0.0,0.0,0.0,0.0,0.0,-1.2416328,0.19555816,-0.5787199,9.070373,1.1701107,-20.746786,3.724885,1.4165521,-0.016516447,-1.3496399
-9.140937,11.374262,-4.322381,11.415943,0.62783384,-1.6098063,-0.4004935,-0.3699174,-0.79462874,-0.124937445,-0.64829665,-0.625625,0.6606626,0.34956864,0.9328651,-0.6777252,-1.8154768,-1.1077604,2.112237,1.5548574,-0.8998122,0.96301705,-0.6123605,-1.8004882,-1.0538923,2.165999,1.4936644,-0.93206733,-0.6678899,-1.4094341,0.16683967,-1.0955124,-0.8808456,0.48556146,0.26828766,0.556057,-0.5949478,1.1142131,-3.556459,0.060692057,-1.4748712,0.080646515,-0.4723549,0.9382073,0.84724236,-0.092886865,0.17951052,0.49125165,-0.3548767,-0.64013284,-0.83633274,1.0,0.0,0.0,0.0,0.0,0.0,0.0,-1.206057,0.19494781,-0.5642131,6.414449,0.1611948,-33.09265,0.26185513,-0.4381776,-0.6735146,-0.7513046
-7.413966,5.5575085,-7.2992554,6.905039,0.17307428,-1.9597383,-0.3284388,-0.30003747,-0.7884152,-0.30799443,-0.666265,-0.65403897,0.6769717,0.3948243,0.9330133,-0.691202,-1.8312876,-1.1205188,2.100595,1.5613616,-0.8925849,0.9569126,-0.62644243,-1.8016975,-1.065056,2.157065,1.4984957,-0.9293894,-0.59121454,-1.4081988,-0.21591075,-1.12219,-0.8987274,0.4809664,0.26723015,0.52051926,-0.5943413,1.098739,-3.5529032,0.06063138,-1.5715827,0.07714844,-0.47935486,0.9291763,0.8471173,-0.0868228,0.17881551,0.49282756,-0.34910202,-0.71177435,-0.92683524,1.0,0.0,0.0,0.0,0.0,0.0,0.0,-1.1705192,0.19434127,-0.548739,7.670307,0.0042438507,-37.989082,-2.3586512,-2.1415353,-0.8458197,-0.23375154
-3.8907957,12.896731,-3.5723073,6.147405,-0.017899036,-1.6362786,-0.16609341,-0.27936688,-0.7793817,-0.37738988,-0.68072367,-0.6890511,0.6852881,0.43917847,0.9289759,-0.70438063,-1.8394365,-1.1331283,2.0881598,1.5670245,-0.8854716,0.95148903,-0.6404824,-1.8062732,-1.0765744,2.1478448,1.5032908,-0.9266791,-0.52578485,-1.4029578,-0.5374284,-1.1609674,-0.93102276,0.47775006,0.27197838,0.48501587,-0.59373856,1.0822985,-3.549351,0.06057076,-1.6681974,0.073768616,-0.48693466,0.9192746,0.84722984,-0.07960374,0.17868428,0.49389952,-0.33552736,-0.76467985,-1.0140171,1.0,0.0,0.0,0.0,0.0,0.0,0.0,-1.1350158,0.19373855,-0.5322985,6.6029787,0.41549206,-31.98319,-3.581071,-3.5411596,-0.69657564,0.36244392
-9.069645,19.151217,-0.979561,10.176263,0.40530872,-1.0260993,-0.14552933,-0.33136815,-0.77297676,-0.4448471,-0.69744414,-0.69513994,0.68201566,0.4594217,0.91835225,-0.7177801,-1.850758,-1.1463189,2.0783308,1.5714923,-0.8807369,0.94629055,-0.6544442,-1.8134143,-1.0885068,2.138308,1.5080572,-0.92390007,-0.5172405,-1.3943601,-0.77298594,-1.2027442,-0.9620397,0.4753297,0.2795344,0.4495468,-0.59313583,1.0648925,-3.5458024,0.060510203,-1.7647156,0.07038498,-0.49487686,0.90861094,0.8474993,-0.07140455,0.17902356,0.49456733,-0.33979213,-0.79606247,-1.087643,1.0,0.0,0.0,0.0,0.0,0.0,0.0,-1.0995468,0.19313583,-0.5148925,1.0497212,0.7441759,-23.542297,-3.8433552,-3.4184456,-0.56636333,0.6874919
-16.251595,29.367046,3.7818794,16.866978,1.1507012,-0.09405929,-0.13512519,-0.41362083,-0.76966345,-0.41376063,-0.70868385,-0.6926909,0.67823666,0.46435708,0.90492845,-0.73141056,-1.8547904,-1.1593752,2.0690389,1.5758809,-0.87746435,0.94061905,-0.6683154,-1.8218887,-1.1008149,2.128531,1.5128065,-0.9210419,-0.58268636,-1.3852108,-0.87298816,-1.2388852,-0.9840598,0.47435308,0.28805858,0.4141159,-0.5925331,1.0465221,-3.5422573,0.060449705,-1.8611373,0.06676102,-0.50289536,0.89743066,0.8478701,-0.06258256,0.17961723,0.49491146,-0.370753,-0.7952314,-1.1327676,1.0,0.0,0.0,0.0,0.0,0.0,0.0,-1.0641159,0.1925331,-0.49652213,-6.224084,0.7950306,-10.159063,-3.2553434,-2.5203824,-0.29307604,0.87639093
-24.233807,36.220573,6.772364,22.86765,1.8850156,0.6540046,-0.16637924,-0.5009716,-0.7676153,-0.3958774,-0.72107315,-0.68296653,0.6774063,0.47853565,0.8905219,-0.74507695,-1.8614764,-1.1729223,2.0602343,1.5805472,-0.8731883,0.9338289,-0.68210745,-1.8306129,-1.113432,2.118628,1.5175539,-0.9180903,-0.7097394,-1.377642,-0.8731244,-1.2679402,-0.99348,0.47469756,0.29788002,0.37871933,-0.5919304,1.0271883,-3.5387158,0.060389265,-1.9574624,0.0626297,-0.5107384,0.88597965,0.84832364,-0.053482942,0.18023981,0.49497497,-0.42829704,-0.771713,-1.1539757,1.0,0.0,0.0,0.0,0.0,0.0,0.0,-1.0287193,0.19193038,-0.4771883,-12.298357,0.62503815,-0.28361082,-2.5124073,-1.2772799,-0.06222129,1.0889232
-32.378548,33.634727,4.8156633,25.79469,2.4085655,0.856279,-0.26331043,-0.57703424,-0.7723448,-0.4571392,-0.7373478,-0.65765595,0.6686709,0.47264174,0.87612545,-0.75934196,-1.8763268,-1.1871668,2.0528624,1.584421,-0.8708261,0.9255386,-0.69587183,-1.8392761,-1.1263124,2.1087556,1.5222994,-0.9150519,-0.86721575,-1.3765422,-0.86497205,-1.2932441,-0.98658454,0.47412354,0.30635384,0.3433571,-0.59132767,1.006892,-3.5351777,0.060328886,-2.0536914,0.05775833,-0.5183563,0.87433493,0.8489216,-0.044199385,0.1807313,0.4946864,-0.50862676,-0.74920076,-1.1726104,1.0,0.0,0.0,0.0,0.0,0.0,0.0,-0.99335706,0.19132766,-0.45689195,-15.284788,-0.055885315,0.536263,-2.060175,0.30002594,-0.18353462,0.9869993
-39.315266,28.53383,1.1756792,27.408129,2.747066,0.80523705,-0.40676755,-0.64728254,-0.7727513,-0.54352623,-0.73257905,-0.63738203,0.67416245,0.4553213,0.86081034,-0.773147,-1.8936287,-1.1995703,2.0450175,1.5897156,-0.86951977,0.91563946,-0.70964956,-1.8481929,-1.1393377,2.0990357,1.5270411,-0.9119515,-1.0292109,-1.378879,-0.9014328,-1.3039727,-0.96872157,0.47328818,0.31175086,0.308033,-0.59072495,0.985634,-3.5316434,0.060268566,-2.149824,0.051948547,-0.5258293,0.8624574,0.84977305,-0.03465646,0.18103017,0.49387512,-0.6067857,-0.7364526,-1.1972766,1.0,0.0,0.0,0.0,0.0,0.0,0.0,-0.95803297,0.19072494,-0.43563402,-15.71349,-0.44059753,-3.8619518,-0.52461624,1.3299942,-0.29449463,0.67209005
-43.439396,23.970108,-2.312942,27.36998,2.8203013,0.6444907,-0.52151847,-0.7127481,-0.77002233,-0.6410034,-0.7284723,-0.63192654,0.6764339,0.43137765,0.84436464,-0.7866518,-1.9122933,-1.2121849,2.0358431,1.5946845,-0.8688137,0.9042068,-0.7234473,-1.8579433,-1.1523801,2.0895028,1.5317694,-0.90882534,-1.1796007,-1.3808842,-1.0000155,-1.3022649,-0.9502402,0.47156504,0.31326643,0.27274323,-0.5901222,0.9634155,-3.5281124,0.060208313,-2.2458603,0.04510498,-0.53326416,0.8502468,0.8509743,-0.024691856,0.18115877,0.49235594,-0.71379644,-0.7338632,-1.2332554,1.0,0.0,0.0,0.0,0.0,0.0,0.0,-0.9227432,0.19012222,-0.4134155,-14.551401,-0.44782162,-9.981036,0.78475475,1.3208985,-0.49896836,0.25129318
-39.281406,32.563553,1.5111427,27.475075,2.6862931,0.8471346,-0.50378585,-0.75754046,-0.7488038,-0.6546117,-0.69885355,-0.62679696,0.6928597,0.42506182,0.82845277,-0.7983277,-1.9234045,-1.2222655,2.026823,1.6010554,-0.8663192,0.8914791,-0.7371621,-1.868676,-1.1652318,2.0801377,1.5364939,-0.9056944,-1.3024374,-1.3690087,-1.0976927,-1.2776212,-0.93361497,0.47192642,0.31332102,0.2374878,-0.5895195,0.94023734,-3.524585,0.06014812,-2.3418007,0.037261963,-0.54058075,0.83776045,0.8525111,-0.014356999,0.18115665,0.49010295,-0.8115051,-0.7189284,-1.2579997,1.0,0.0,0.0,0.0,0.0,0.0,0.0,-0.88748777,0.1895195,-0.39023733,-11.872292,0.9558201,-9.838438,3.0135155,1.1713743,-0.25377274,0.10224581
-30.704134,38.658207,5.319477,24.635489,2.2984798,0.8853953,-0.38977095,-0.77526253,-0.74652433,-0.69210106,-0.6876117,-0.6272811,0.69558537,0.38829434,0.8139528,-0.81181455,-1.937886,-1.233993,2.0174096,1.6060524,-0.866865,0.87783676,-0.7507396,-1.8803394,-1.1777841,2.0709023,1.5412279,-0.9025931,-1.3836877,-1.3546648,-1.1892864,-1.2462339,-0.9216048,0.47308132,0.30937493,0.20227051,-0.5889168,0.9161005,-3.5210612,0.060087986,-2.4376452,0.02859497,-0.5477028,0.8250549,0.8542927,-0.0037483522,0.181032,0.48723444,-0.8887105,-0.6959988,-1.2791119,1.0,0.0,0.0,0.0,0.0,0.0,0.0,-0.8522705,0.18891677,-0.3661005,-7.814646,1.2373447,-9.196997,3.599739,0.7906318,-0.14258027,-0.3007412
-24.007673,43.815845,8.734291,22.426987,2.0645976,0.9659593,-0.2852561,-0.80451006,-0.74203956,-0.71757364,-0.6760799,-0.59968716,0.6750378,0.3410116,0.79738575,-0.82494354,-1.9520967,-1.2453921,2.0109336,1.6087317,-0.8684919,0.86358124,-0.76417303,-1.8927791,-1.1900216,2.0618386,1.5459601,-0.8995661,-1.4386512,-1.3401247,-1.2622861,-1.2150524,-0.9025864,0.47258565,0.30083114,0.16708374,-0.58831406,0.8910059,-3.5175407,0.060027912,-2.5333939,0.019275665,-0.5545349,0.81217504,0.85623103,0.0070486474,0.18072835,0.48389652,-0.9507645,-0.6657021,-1.2954199,1.0,0.0,0.0,0.0,0.0,0.0,0.0,-0.8170837,0.18831405,-0.34100586,-5.2620173,1.2870073,-7.3250294,3.5056353,1.5582204,-0.27374625,-0.74587464
-16.09555,52.778484,14.458774,21.309319,1.8590122,1.223239,-0.17254743,-0.8186917,-0.7317517,-0.69257474,-0.6451655,-0.5943783,0.6763323,0.3015668,0.78171206,-0.8373482,-1.9620366,-1.2545382,2.0024009,1.6135933,-0.86940944,0.84894615,-0.77744627,-1.905587,-1.2018872,2.052958,1.5506922,-0.8966498,-1.4713846,-1.3234888,-1.2871332,-1.176168,-0.884077,0.47315782,0.28902796,0.13193512,-0.58771133,0.86495453,-3.514024,0.059967898,-2.6290467,0.009468079,-0.5609703,0.7992514,0.858232,0.017833758,0.18019356,0.4802603,-0.9946754,-0.6213144,-1.2958587,1.0,0.0,0.0,0.0,0.0,0.0,0.0,-0.7819351,0.18771133,-0.31495452,-3.1305313,1.5440226,-2.5152445,4.1622877,1.6074419,-0.060623884,-1.048547
-11.438701,50.580143,14.627822,18.046175,1.5843799,1.1090958,-0.07889184,-0.8231774,-0.74798685,-0.72793376,-0.64557767,-0.5986297,0.66712874,0.24848485,0.7666284,-0.852245,-1.9783803,-1.266445,1.993095,1.617405,-0.8718013,0.8341213,-0.7906661,-1.9186065,-1.2134496,2.0442185,1.5554224,-0.8938822,-1.4857708,-1.3218595,-1.3070409,-1.148667,-0.87162066,0.47275108,0.27306122,0.09682083,-0.5871086,0.83794737,-3.5105107,0.059907943,-2.724604,-0.0006866455,-0.5669861,0.7862612,0.86022985,0.02856913,0.17937963,0.476457,-1.0267481,-0.5797808,-1.3042542,1.0,0.0,0.0,0.0,0.0,0.0,0.0,-0.7468208,0.1871086,-0.28794736,-1.3267994,0.06146431,-2.034545,3.0130148,1.048255,-0.16710758,-1.4571071
-7.996589,49.20431,14.807987,15.520206,1.379502,1.0323639,-0.011248499,-0.8247619,-0.75417644,-0.7454259,-0.6411416,-0.5864674,0.6519494,0.1972343,0.7516451,-0.86608374,-1.9931492,-1.2775638,1.9855719,1.6206174,-0.8741588,0.81924397,-0.8039403,-1.9318111,-1.2248136,2.0356011,1.5601374,-0.8913006,-1.4880562,-1.3295743,-1.325104,-1.1314776,-0.85913956,0.47076455,0.2536175,0.061740875,-0.5865135,0.80998534,-3.507001,0.059848048,-2.8200657,-0.011108398,-0.5726013,0.77314025,0.86218196,0.039279915,0.17824298,0.47257665,-1.0499473,-0.5399175,-1.3187487,1.0,0.0,0.0,0.0,0.0,0.0,0.0,-0.71174085,0.18651351,-0.25998533,-0.13594627,-0.85983276,-1.8606663,1.9752502,1.0803103,-0.33144355,-1.7962098
-7.1596828,47.198593,14.264515,14.181262,1.3564804,0.98878217,-0.014344215,-0.82919043,-0.7658613,-0.75759566,-0.63209885,-0.55386573,0.6317207,0.067903064,0.7363249,-0.8805264,-2.0075707,-1.2880235,1.9802146,1.6233095,-0.88451034,0.8043724,-0.8173604,-1.9451988,-1.2360421,2.0271745,1.564818,-0.88899463,-1.486493,-1.346456,-1.3434283,-1.1190927,-0.8374539,0.46660823,0.22350782,0.026699066,-0.5859184,0.7810694,-3.5034947,0.059788212,-2.9154322,-0.021751404,-0.5778389,0.7598387,0.86409295,0.04998116,0.17670782,0.46863598,-1.071839,-0.5024968,-1.337824,0.0,1.0,0.0,0.0,0.0,0.0,0.0,-0.67669904,0.18591842,-0.23106939,0.2464056,-1.7760515,-1.8930912,1.5105724,2.0136237,-0.5660236,-2.8448403
-9.986314,52.079407,15.577367,17.695107,1.6166973,1.195326,-0.19476183,-0.8346494,-0.75242114,-0.77057546,-0.5571735,-0.56107885,0.63417643,-0.07590488,0.72090745,-0.8926025,-2.0222564,-1.2917595,1.9710666,1.6282357,-0.8965851,0.7894865,-0.83078706,-1.9596844,-1.2471381,2.0189488,1.5701301,-0.88689005,-1.4882032,-1.3421096,-1.4815617,-1.1047757,-0.83139074,0.53657997,0.20408377,0.005168915,-0.5849457,0.7754162,-1.822919,0.1532823,0.20446077,-0.032764435,-0.58271027,0.74616265,0.8660098,0.0607036,0.17497575,0.46446267,-1.1113803,-0.46664548,-1.3815519,0.0,1.0,0.0,0.0,0.0,0.0,0.0,-0.6551689,0.18494567,-0.22541618,0.37429333,-0.8727312,-2.0751715,5.944395,1.0291696,-1.1347294,-4.1811647
52.898525,176.0,110.0,110.0,5.2958636,11.911728,-1.9163508,-0.7967598,0.52288353,0.6950733,0.68970174,-0.35330835,0.6428498,-0.3751881,0.70981055,-0.7784987,-1.890177,-1.1781679,1.9836179,1.6344151,-0.92440885,0.778813,-0.8467277,-1.967516,-1.2442638,2.0019772,1.5840404,-0.88404524,-0.93077326,-1.6762147,-0.5478873,0.7481244,-1.9806424,1.6875631,0.3117674,-0.013046265,-0.5834122,0.77672285,-1.8210965,0.15312904,0.106070414,-0.04385376,-0.58529663,0.7368272,0.8677945,0.061474126,0.17744522,0.46007264,-1.108355,-0.17407723,-0.7860502,1.0,0.0,0.0,0.0,0.0,0.0,0.0,-0.6369537,0.18341216,-0.22672284,54.622604,-32.85692,94.16387,184.24881,-113.35511,118.61627,10.94572
-43.11638,142.07999,51.61334,90.40338,8.05929,4.2019687,-2.3937085,-0.82724345,-0.59968007,-0.34365138,0.7383227,-0.5111133,0.59810776,-0.16282801,0.6960887,-0.9066957,-2.0018811,-1.1704315,1.9508659,1.6438512,-0.90032804,0.7695614,-0.8627924,-1.9707813,-1.2303783,1.9823315,1.6008785,-0.8812319,-0.92154455,-1.5842756,-0.251474,1.6039419,-1.9616089,1.6871871,0.27352947,-0.031246185,-0.58187866,0.7770463,-1.8192757,0.15297595,0.007778415,-0.05608368,-0.5865631,0.73162335,0.8705196,0.05622332,0.18199202,0.45377684,-1.2585249,-0.10039347,-0.43739128,1.0,0.0,0.0,0.0,0.0,0.0,0.0,-0.6187538,0.18187866,-0.22704631,1.4474988,8.872461,30.058914,86.18853,1.1915445,1.3905048,-3.119713
-58.77915,132.08905,32.756287,67.689644,5.9800153,2.41198,-1.8636706,-0.806819,-0.43984303,-0.48798418,0.7367999,-0.5961495,0.58168244,0.19845732,0.6888795,-0.90677667,-2.0195796,-1.1566982,1.9227166,1.6590468,-0.8613862,0.75939715,-0.876531,-1.9735413,-1.2116138,1.9644749,1.6167667,-0.878636,-1.046009,-1.3050452,-0.28512043,1.9693112,-1.7281653,1.5585613,0.2551707,-0.049423218,-0.5803528,0.7763876,-1.8174568,0.152823,-0.090415314,-0.06966019,-0.5871506,0.72885746,0.87431246,0.049745012,0.18718167,0.44504604,-1.3886596,-0.036589365,-0.23139411,1.0,0.0,0.0,0.0,0.0,0.0,0.0,-0.60057676,0.18035278,-0.22638756,-11.823856,27.540707,-3.6409497,37.094116,22.982811,-12.047744,-1.7539263
-38.38231,104.57026,26.80832,38.09395,3.8462384,1.5531955,-0.6855868,-0.7684626,-0.5682393,-0.12245745,0.7845433,-0.5802713,0.5876442,0.22046669,0.6825509,-0.9333549,-1.985787,-1.1331594,1.9064478,1.6755311,-0.8565893,0.7477776,-0.88804376,-1.9761162,-1.1918784,1.9495537,1.6310375,-0.8762032,-1.1997374,-1.1010967,-0.24875197,1.9756054,-1.4151694,1.3841826,0.23950413,-0.06758499,-0.5788269,0.77474767,-1.8156397,0.1526702,-0.18851085,-0.084049225,-0.5871048,0.72737664,0.8786654,0.043509807,0.1920756,0.43492642,-1.4542435,0.026597532,-0.12863012,1.0,0.0,0.0,0.0,0.0,0.0,0.0,-0.582415,0.1788269,-0.22474766,-15.096879,20.075726,3.4970522,0.8359909,30.767845,-17.158772,-1.5048504
-26.39469,66.76516,13.51816,16.693913,1.909854,0.48592618,-0.060788687,-0.7788793,-0.58595604,-0.20336832,0.76591206,-0.5912037,0.5884113,0.12630148,0.6698896,-0.94663936,-1.996453,-1.1152872,1.8904333,1.6898786,-0.863573,0.7348,-0.89820325,-1.978838,-1.1734573,1.9373639,1.6436546,-0.8739773,-1.330124,-0.9882199,-0.2804939,1.7978805,-1.154792,1.2212315,0.21681185,-0.08572769,-0.577301,0.7721275,-1.8138244,0.15251757,-0.28650835,-0.09882355,-0.58664703,0.72609955,0.8831964,0.03834508,0.19618236,0.4242713,-1.4839035,0.063015066,-0.13440715,1.0,0.0,0.0,0.0,0.0,0.0,0.0,-0.5642723,0.17730102,-0.2221275,-12.97195,11.1101265,-3.2992244,-17.72697,25.693417,-16.213942,-2.2826643
-12.756895,48.962936,9.428678,6.3098245,0.702936,-0.052360237,0.2536262,-0.77452457,-0.56607145,-0.22692777,0.7735461,-0.6146236,0.573004,0.12686603,0.6573475,-0.9548104,-2.0015306,-1.0961027,1.8759015,1.700955,-0.8612907,0.7209164,-0.9077219,-1.9820309,-1.157035,1.9270928,1.6547992,-0.8719622,-1.4079018,-0.9401617,-0.33225927,1.5903552,-0.98574185,1.0790172,0.1962027,-0.10385132,-0.57577515,0.76852816,-1.812011,0.15236509,-0.38440785,-0.113658905,-0.58595276,0.72442,0.88768214,0.03455762,0.19951831,0.41354382,-1.4825274,0.08222735,-0.18475088,0.0,1.0,0.0,0.0,0.0,0.0,0.0,-0.54614866,0.17577514,-0.21852815,-7.816291,4.694724,-5.1845074,-20.76726,16.587425,-14.182496,-2.101347
-6.7330084,35.634033,5.2411494,3.0798488,0.22023183,-0.49929935,0.27868232,-0.76434755,-0.5661321,-0.31480345,0.7801088,-0.60600775,0.5869859,0.13448118,0.64448166,-0.9643351,-2.0135112,-1.0790241,1.866492,1.7134978,-0.8585141,0.70665896,-0.9171146,-1.9861145,-1.1423084,1.917968,1.6647041,-0.8701273,-1.4317671,-0.93911517,-0.43367425,1.4334153,-0.8887165,0.96105933,0.17918025,-0.12195969,-0.57424927,0.76395047,-1.8101994,0.15221275,-0.48220944,-0.12843704,-0.58522415,0.7220448,0.8920486,0.032206655,0.20227389,0.40286118,-1.4751443,0.081653714,-0.25943837,0.0,1.0,0.0,0.0,0.0,0.0,0.0,-0.5280403,0.17424926,-0.21395046,-2.4233341,0.033068657,-10.136682,-15.661144,9.48838,-11.791754,-1.7468572
-10.943529,28.438519,1.0535519,5.7489967,0.3008464,-0.7237727,0.11135523,-0.77505916,-0.56062156,-0.44243646,0.79170346,-0.60626996,0.5700392,0.1784044,0.629153,-0.9731768,-2.030358,-1.063138,1.857341,1.721708,-0.8522869,0.69235384,-0.92663896,-1.9916897,-1.1285659,1.9094174,1.6735713,-0.86840785,-1.4299126,-0.9570373,-0.59891534,1.3548257,-0.84430134,0.8615782,0.16940683,-0.14004517,-0.572731,0.7583955,-1.8083895,0.15206057,-0.5799134,-0.14326096,-0.5845947,0.7188547,0.89632887,0.031337325,0.20472243,0.3920474,-1.4828184,0.069173925,-0.34261808,0.0,1.0,0.0,0.0,0.0,0.0,0.0,-0.5099548,0.17273101,-0.20839548,0.21893978,-1.8615723,-16.574574,-7.712841,4.351139,-9.993708,-1.0277867
-8.034356,37.55645,5.2188277,9.067068,0.43960428,-0.502084,0.006576199,-0.75793666,-0.53903204,-0.47431448,0.80023986,-0.59377813,0.6043007,0.14285895,0.61656016,-0.9805422,-2.0391212,-1.0485419,1.8500396,1.7340014,-0.8541219,0.6782452,-0.93627584,-1.998827,-1.1151267,1.9011052,1.6815975,-0.8667952,-1.4043747,-0.96619606,-0.75186986,1.3409371,-0.82743883,0.78268635,0.15837051,-0.15811539,-0.57121277,0.75186425,-1.8065816,0.15190853,-0.67751956,-0.15813446,-0.5840225,0.71500576,0.9005322,0.031736568,0.20711052,0.38097224,-1.486399,0.064040676,-0.40233228,0.0,1.0,0.0,0.0,0.0,0.0,0.0,-0.4918846,0.17121276,-0.20186424,2.576971,-1.0171175,-15.243757,-1.2414217,1.5506029,-7.9592943,-1.1757612
-13.567164,32.353085,2.7921095,10.891115,0.749563,-0.42137623,-0.054482073,-0.7729848,-0.58464193,-0.54915774,0.7913425,-0.5763584,0.59522706,0.17257267,0.6009467,-0.99474,-2.0537426,-1.0359925,1.8434694,1.7411202,-0.8495379,0.6643388,-0.9461836,-2.0074751,-1.1016117,1.8928783,1.6889316,-0.8652645,-1.3846453,-0.9988767,-0.9128073,1.3513653,-0.82540095,0.7183942,0.14758441,-0.17618561,-0.5695114,0.7450201,-1.7900794,0.2599541,-0.34736466,-0.17315292,-0.58351135,0.7105262,0.9046774,0.03327171,0.2094729,0.36955777,-1.5058976,0.058106303,-0.47048327,0.0,1.0,0.0,0.0,0.0,0.0,0.0,-0.47381437,0.16951141,-0.19502008,2.188921,-3.3310652,-17.384434,0.73325634,-0.50457716,-6.4050794,-1.5842944
-13.634638,55.495968,11.265979,16.194498,1.0102737,0.21734643,-0.13327822,-0.7860951,-0.50629485,-0.5587955,0.80336195,-0.58682805,0.60237706,0.14647542,0.5857293,-0.9968131,-2.0633547,-1.0212755,1.8341955,1.7491693,-0.85061693,0.65051436,-0.9560246,-2.0173557,-1.0878603,1.8845901,1.6957229,-0.86385155,-1.3816725,-0.9797972,-1.0125002,1.3834424,-0.8309982,0.6654738,0.1388487,-0.19404602,-0.5667534,0.74145263,-1.7848567,0.28058693,-0.36180556,-0.1883049,-0.58285904,0.7056964,0.90873253,0.035707228,0.21203338,0.35773167,-1.5149387,0.080215745,-0.49040008,0.0,1.0,0.0,0.0,0.0,0.0,0.0,-0.45595396,0.16675338,-0.19145262,0.31712055,1.7219067,-9.746874,3.354597,-0.8393526,-5.4233313,-0.97599924
-10.196305,62.269005,15.030872,16.209837,1.0803517,0.515617,-0.06835648,-0.77933013,-0.52129734,-0.5555565,0.798038,-0.58153164,0.6235719,0.13089977,0.57258135,-1.0081543,-2.0729113,-1.0080565,1.826437,1.7580801,-0.8507616,0.63669574,-0.9656748,-2.0278203,-1.0738382,1.8762397,1.7020745,-0.862531,-1.3819923,-0.9607522,-1.0566605,1.4087104,-0.837714,0.6245657,0.12950042,-0.21184158,-0.5637512,0.737894,-1.7775438,0.30631512,-0.3570229,-0.20346832,-0.5819092,0.7007757,0.91264755,0.038703177,0.21479365,0.34560108,-1.5147175,0.11272225,-0.49563146,0.0,1.0,0.0,0.0,0.0,0.0,0.0,-0.4381584,0.16375121,-0.18789399,-0.0641346,1.7038226,-4.06754,2.61662,-1.0550022,-4.2353153,-1.0327041
-5.50763,76.89707,20.955952,17.403343,1.0771854,0.83738935,-0.0053610206,-0.7741525,-0.46930933,-0.564541,0.8026368,-0.5964593,0.6271228,0.1949345,0.5592805,-1.0126058,-2.0842745,-0.99357456,1.8165938,1.7647868,-0.84303755,0.6228742,-0.9749102,-2.038445,-1.0596133,1.8677844,1.7080772,-0.8612485,-1.3825916,-0.9118383,-1.062694,1.4270748,-0.84973013,0.5917824,0.12742355,-0.22953033,-0.5604172,0.7346191,-1.765998,0.3418211,-0.32072446,-0.21851349,-0.58054733,0.6959863,0.9163491,0.042032234,0.21783157,0.3332969,-1.4968421,0.15704104,-0.47612476,0.0,1.0,0.0,0.0,0.0,0.0,0.0,-0.42046964,0.16041717,-0.18461907,-0.16999245,4.661131,-0.0910759,1.8158674,-1.7313361,-3.4326315,-0.3526777
-4.1899757,78.6228,21.24719,16.855158,0.9923781,0.84106004,0.065294586,-0.7723705,-0.454097,-0.60208946,0.8005992,-0.61289537,0.63095397,0.2737443,0.54563713,-1.0203199,-2.098654,-0.9795534,1.8064948,1.7711726,-0.83387405,0.6090526,-0.9836344,-2.0491514,-1.0452873,1.8591808,1.7137996,-0.85991627,-1.382454,-0.8601027,-1.0715466,1.4344217,-0.86588967,0.5650661,0.13463698,-0.24707031,-0.5567055,0.7317019,-1.7505125,0.38118386,-0.28413433,-0.23332977,-0.5787506,0.6913812,0.9197828,0.045658518,0.2211895,0.3209207,-1.4739872,0.2004788,-0.45785597,0.0,1.0,0.0,0.0,0.0,0.0,0.0,-0.40292966,0.15670547,-0.1817019,-0.11661053,4.944241,-0.34091473,0.6884098,-2.1659732,-2.8460383,0.5658001
-6.296239,76.404526,19.479298,16.642397,0.9757503,0.8011063,0.088773,-0.7819633,-0.43419528,-0.63695717,0.79670244,-0.62522656,0.63842005,0.31252134,0.53085625,-1.027054,-2.112847,-0.965617,1.7966582,1.7776417,-0.8286641,0.5951881,-0.991857,-2.060067,-1.0309573,1.8504215,1.7192998,-0.85847235,-1.3881544,-0.81042576,-1.096656,1.4325843,-0.8805996,0.54477745,0.14723586,-0.26435852,-0.5526352,0.7290591,-1.7186893,0.41275182,-0.26189265,-0.24794006,-0.57652664,0.686905,0.92292696,0.04965098,0.224862,0.3085089,-1.4547597,0.24238071,-0.44640106,0.0,1.0,0.0,0.0,0.0,0.0,0.0,-0.38564146,0.15263519,-0.17905909,-0.69491863,4.7436237,-1.990509,-0.20895004,-1.7957568,-2.0428061,1.1351556
-7.264493,76.82679,18.568367,16.653774,0.9076558,0.7540995,0.12795594,-0.7831423,-0.3936225,-0.68168026,0.79213154,-0.6403843,0.63152325,0.41732442,0.51687384,-1.0312192,-2.1282349,-0.9517442,1.7863832,1.7824521,-0.8167399,0.5812606,-0.9995266,-2.0714238,-1.0166923,1.8415318,1.724641,-0.8568244,-1.3946773,-0.753307,-1.1468726,1.4243615,-0.89373267,0.5298582,0.16997787,-0.2811737,-0.5483818,0.7265449,-1.6700369,0.42934597,-0.24952948,-0.26237488,-0.5738907,0.68251544,0.925755,0.054104924,0.22886999,0.29608917,-1.4355824,0.28311062,-0.43845922,0.0,1.0,0.0,0.0,0.0,0.0,0.0,-0.36882627,0.1483818,-0.1765449,-0.7785082,5.4837465,-4.487562,-0.8700609,-1.8595219,-1.6879201,2.0768733
-12.09396,64.18011,13.460605,15.28333,0.9642153,0.6042365,0.14995238,-0.80216396,-0.42194554,-0.70854086,0.7808914,-0.6442534,0.6328043,0.43987513,0.5010442,-1.0417212,-2.142278,-0.93860316,1.7771064,1.7879214,-0.8128369,0.5671929,-1.006889,-2.0833497,-1.002557,1.8325243,1.7298492,-0.85494363,-1.4111515,-0.73122466,-1.2065217,1.4100742,-0.9048516,0.51702,0.19366129,-0.29759598,-0.5439873,0.7239777,-1.6339155,0.44239953,-0.2611849,-0.27672577,-0.5708809,0.67804056,0.92827976,0.059126146,0.2330828,0.2836778,-1.4316136,0.31868213,-0.45222723,0.0,1.0,0.0,0.0,0.0,0.0,0.0,-0.352404,0.14398727,-0.17397767,-1.7204762,2.0054817,-5.5252314,-1.3911963,-1.5706182,-1.4996052,2.2186608
-10.40055,65.12755,14.038859,14.98666,1.0021179,0.6416075,0.17499068,-0.79936343,-0.39819455,-0.7144848,0.78017306,-0.6474805,0.65115386,0.47165936,0.48725656,-1.0467085,-2.1547983,-0.92453974,1.7677763,1.7949646,-0.8077777,0.5529889,-1.0140644,-2.0957856,-0.9885524,1.8234245,1.7349591,-0.85282284,-1.423867,-0.7136504,-1.2540256,1.3973851,-0.9134044,0.5081792,0.21772848,-0.31365204,-0.5394745,0.721288,-1.5962939,0.4543142,-0.27207148,-0.29101944,-0.5675163,0.673441,0.9305029,0.06468761,0.23741797,0.2713163,-1.4249215,0.35498655,-0.46388024,0.0,1.0,0.0,0.0,0.0,0.0,0.0,-0.33634794,0.13947448,-0.17128801,-1.3643265,1.5557647,-4.263687,-1.2501001,-1.3471365,-1.1172652,2.2580326
-7.9656806,60.29027,13.179814,13.251074,1.0022501,0.5827448,0.21576495,-0.79611534,-0.41745758,-0.7191478,0.77458125,-0.6402726,0.6584206,0.48065802,0.47337735,-1.0558102,-2.1677003,-0.91109425,1.7593971,1.8008012,-0.80475706,0.53870857,-1.0212342,-2.1085649,-0.9746652,1.8142844,1.7399985,-0.85047776,-1.4297031,-0.71866196,-1.2842722,1.3859048,-0.9158507,0.501685,0.23969686,-0.32935333,-0.5348587,0.7184251,-1.5616804,0.4636874,-0.29139265,-0.3052559,-0.56380844,0.66867685,0.93243647,0.07070276,0.24174802,0.25907776,-1.4185269,0.3876362,-0.4818502,0.0,1.0,0.0,0.0,0.0,0.0,0.0,-0.32064664,0.1348587,-0.16842508,-0.6786108,-0.68079233,-2.5439024,-1.1210203,-0.7175565,-0.88676214,2.07991
-8.520626,46.51813,9.150067,10.469011,0.95467263,0.4039359,0.26437306,-0.8009919,-0.4790513,-0.73111165,0.7701479,-0.64194375,0.6476808,0.513381,0.45860937,-1.0691392,-2.181676,-0.8976504,1.7500901,1.8047665,-0.7991397,0.5243853,-1.0287892,-2.1215653,-0.9608731,1.8051236,1.7449691,-0.8479125,-1.4334433,-0.76835304,-1.3042426,1.3773444,-0.9172982,0.4947091,0.26197964,-0.34480286,-0.53017426,0.71518725,-1.5392921,0.4699198,-0.3344758,-0.31949997,-0.5598259,0.66357446,0.9341158,0.07715165,0.24586336,0.24703489,-1.4219729,0.41356188,-0.52094,0.0,1.0,0.0,0.0,0.0,0.0,0.0,-0.30519712,0.13017425,-0.16518724,-0.42157173,-5.1114798,-1.6236782,-0.74460506,-0.5071163,-0.923121,2.1802664
-5.652132,46.229515,9.719677,9.485376,0.93877244,0.4202922,0.29585427,-0.7954509,-0.49165425,-0.7215371,0.76751876,-0.6424498,0.64606833,0.54525447,0.4448402,-1.0779545,-2.1937191,-0.88412124,1.7408786,1.8095759,-0.79338706,0.5100687,-1.0369011,-2.1346304,-0.9471488,1.7959572,1.7498777,-0.845124,-1.4311954,-0.8260308,-1.3059946,1.3711717,-0.9177584,0.48869842,0.2844097,-0.3600235,-0.52544785,0.7115096,-1.5165911,0.47426283,-0.37850836,-0.33374786,-0.5555954,0.65808547,0.93556124,0.08396228,0.24966009,0.23525575,-1.4211421,0.43884242,-0.5594977,0.0,1.0,0.0,0.0,0.0,0.0,0.0,-0.28997648,0.12544784,-0.16150957,0.16345978,-5.900693,0.21862984,-0.5146265,-0.42586327,-0.81299543,2.203089
-2.7859664,51.277218,11.829236,9.823941,1.0272894,0.52283925,0.29850748,-0.79123896,-0.50356936,-0.6981057,0.76971066,-0.6384969,0.64786446,0.5791408,0.4309448,-1.0872581,-2.204441,-0.87017775,1.7321075,1.8146641,-0.7872099,0.4958049,-1.0455452,-2.1475432,-0.93345296,1.7868068,1.7547348,-0.8421064,-1.4250987,-0.8777206,-1.2849689,1.369248,-0.9156352,0.4838748,0.3074114,-0.3749771,-0.52067566,0.70744044,-1.4884665,0.47873658,-0.41540378,-0.34793854,-0.55109024,0.6522886,0.9367838,0.09100519,0.2531239,0.22379102,-1.4133424,0.4661473,-0.5878524,0.0,1.0,0.0,0.0,0.0,0.0,0.0,-0.27502286,0.12067565,-0.15744042,0.5164623,-5.3064585,2.5697231,-0.12552738,-0.23659468,-0.6913543,2.256316
1.1508512,51.88137,12.777707,8.85955,1.0303459,0.5182138,0.31471115,-0.77595186,-0.542441,-0.67623967,0.77222496,-0.6219104,0.6433074,0.5963902,0.41820973,-1.0997894,-2.215167,-0.8562305,1.7246158,1.8190655,-0.78246737,0.4816705,-1.0547425,-2.1601274,-0.9197485,1.7777305,1.7595482,-0.8388695,-1.409878,-0.93411046,-1.2478229,1.3710259,-0.9064713,0.47967786,0.32913783,-0.38964462,-0.51587296,0.7030023,-1.4588746,0.48090196,-0.45178288,-0.3620186,-0.5463333,0.6462275,0.9378071,0.09815917,0.2562128,0.21269105,-1.4002142,0.49088758,-0.61360556,0.0,1.0,0.0,0.0,0.0,0.0,0.0,-0.26035535,0.11587295,-0.15300226,1.4098644,-5.7662725,4.2077065,0.22242069,0.45120716,-0.62537193,2.1453798
3.697569,59.430088,15.222855,9.944305,1.1389062,0.61610913,0.286066,-0.7673648,-0.54656637,-0.6457591,0.77810144,-0.6209556,0.6289756,0.60613,0.40493402,-1.1093991,-2.2247033,-0.8419383,1.715635,1.8224458,-0.77825654,0.4677138,-1.0643841,-2.1722348,-0.9059945,1.7687511,1.7643158,-0.8354312,-1.3914534,-0.9745651,-1.1965754,1.3768246,-0.8968028,0.4750223,0.348654,-0.403965,-0.5110588,0.6982796,-1.422269,0.48208943,-0.47723588,-0.37590027,-0.5413208,0.6400109,0.93864626,0.105312765,0.2589632,0.20196632,-1.3790599,0.5169213,-0.6259245,0.0,1.0,0.0,0.0,0.0,0.0,0.0,-0.24603498,0.1110588,-0.1482796,1.6947031,-4.1837573,5.7079077,0.5748749,0.4126191,-0.6699443,1.905793
8.07029,65.72075,17.460768,9.994675,1.145309,0.64927316,0.29016536,-0.74773806,-0.55440336,-0.6145625,0.77368045,-0.6091234,0.6036208,0.6142107,0.39293998,-1.1198244,-2.233691,-0.82862645,1.7078388,1.824678,-0.7740101,0.45399752,-1.0743214,-2.18377,-0.8922098,1.7598957,1.7690248,-0.8318143,-1.365654,-1.0005866,-1.136984,1.3788111,-0.8837188,0.46882844,0.3658646,-0.41786575,-0.5062485,0.6933631,-1.3784381,0.4805312,-0.49427742,-0.3895111,-0.53606415,0.633744,0.93930936,0.112384886,0.261423,0.19163878,-1.3479036,0.5403911,-0.6286326,0.0,1.0,0.0,0.0,0.0,0.0,0.0,-0.23213422,0.10624847,-0.14336306,2.3931265,-2.7432442,6.6244125,0.13201237,0.6742239,-0.8211374,1.6538918
7.280347,63.33506,16.198435,9.651002,1.1440544,0.55815876,0.2795149,-0.7395367,-0.58367336,-0.6065818,0.7724345,-0.5832993,0.5583498,0.6253464,0.38004386,-1.1326888,-2.2444282,-0.8149664,1.7015657,1.8248599,-0.76927966,0.44053158,-1.084539,-2.1947975,-0.8784216,1.7512244,1.7736402,-0.8280388,-1.3408039,-1.0292933,-1.0892326,1.3785899,-0.8633942,0.45834634,0.38138548,-0.43135834,-0.501461,0.688225,-1.3383427,0.4779542,-0.51796013,-0.4028244,-0.53058624,0.62741363,0.93982106,0.11939247,0.2635702,0.18169302,-1.3200122,0.5608066,-0.63624716,0.0,1.0,0.0,0.0,0.0,0.0,0.0,-0.21864164,0.10146102,-0.13822496,2.3161888,-3.0062914,5.4003,-0.06599426,1.4329314,-1.2572587,1.5033424
13.404716,71.80714,19.737337,10.098902,1.346817,0.65847886,0.2596011,-0.711038,-0.5792833,-0.52256286,0.7766398,-0.5375037,0.5590843,0.6210708,0.36942777,-1.1424674,-2.2470539,-0.80075765,1.697474,1.8295486,-0.7659317,0.4273823,-1.0949455,-2.2051039,-0.8646294,1.7428759,1.7781603,-0.82412934,-1.307036,-1.0449407,-1.0083938,1.3789587,-0.82751626,0.44926056,0.39404884,-0.44438553,-0.496727,0.68295693,-1.2896544,0.47182223,-0.5275912,-0.41578293,-0.5249176,0.621142,0.9402217,0.1261626,0.26538435,0.17215475,-1.2812958,0.5797973,-0.6257905,0.0,1.0,0.0,0.0,0.0,0.0,0.0,-0.20561445,0.096726984,-0.13295692,3.1562328,-1.7035961,8.838296,-0.08254051,2.8698802,-1.1164546,1.2148976
21.301113,75.54465,22.573805,8.898548,1.4822587,0.6933683,0.27070725,-0.6805819,-0.5991377,-0.4150138,0.77010757,-0.49108097,0.53486186,0.6092617,0.3593241,-1.1548593,-2.2466052,-0.78761864,1.6937678,1.8316466,-0.76320314,0.41464588,-1.1055275,-2.2142274,-0.85086924,1.7349913,1.7825825,-0.8201158,-1.2633588,-1.0630882,-0.8775133,1.3744698,-0.7777461,0.43924513,0.40380597,-0.45687866,-0.49207306,0.6776433,-1.2340689,0.46276578,-0.52942777,-0.42827606,-0.51908875,0.6150656,0.94057685,0.1324112,0.26679206,0.16310872,-1.2323734,0.5933179,-0.6033344,0.0,1.0,0.0,0.0,0.0,0.0,0.0,-0.19312131,0.09207305,-0.12764329,4.1089773,-1.9439697,13.948059,-0.62212944,4.162526,-1.1984766,0.9528041
28.246315,79.32815,25.875187,7.944272,1.9396226,0.79319036,0.2681479,-0.6656615,-0.62237215,-0.23590273,0.74375296,-0.36394078,0.4649322,0.6114585,0.34807974,-1.1677648,-2.2378178,-0.77649397,1.6985972,1.8290757,-0.75896996,0.40233198,-1.1163498,-2.2213871,-0.83728105,1.7279191,1.7868645,-0.8160136,-1.2216496,-1.0890702,-0.6591672,1.3529481,-0.6866704,0.4237788,0.41258043,-0.46878815,-0.48753357,0.67238456,-1.1751937,0.4509158,-0.5229141,-0.44024277,-0.5131302,0.6093499,0.94102883,0.13768929,0.2675523,0.15466808,-1.1776977,0.6055387,-0.56281763,0.0,1.0,0.0,0.0,0.0,0.0,0.0,-0.18121183,0.08753356,-0.12238455,3.8902998,-2.7200937,22.812008,-2.353859,8.165884,-1.7394125,0.9367049
44.10437,96.83156,35.56007,7.9238853,3.0751934,1.1048269,0.23247415,-0.6371601,-0.61738896,0.1086077,0.6961074,-0.074039966,0.31707728,0.6303062,0.33861595,-1.1780887,-2.2105265,-0.76767033,1.7205151,1.8185723,-0.752983,0.39045817,-1.1273628,-2.225056,-0.8241306,1.7225378,1.7908943,-0.81181306,-1.1771327,-1.1059389,-0.2652928,1.3013103,-0.4923232,0.39536735,0.423186,-0.4799881,-0.48314285,0.6674272,-1.0990213,0.43507707,-0.48352107,-0.45153046,-0.50704193,0.6044462,0.9418566,0.14105767,0.26719412,0.14702386,-1.1058825,0.6191508,-0.46806708,0.0,1.0,0.0,0.0,0.0,0.0,0.0,-0.17001188,0.08314285,-0.11742717,4.1071177,-1.8232346,40.680004,-5.464053,18.173033,-3.025186,1.2259662
55.005028,99.10919,40.071037,4.866578,4.054177,1.1544718,0.22584291,-0.62742746,-0.6535525,0.44582114,0.588593,0.3329479,0.0535997,0.59430915,0.32771543,-1.1927181,-2.1804738,-0.7652713,1.7558326,1.7962543,-0.75238216,0.3789667,-1.1386524,-2.2237206,-0.81195575,1.720147,1.7944559,-0.80753976,-1.1408306,-1.1371348,0.2709224,1.1886888,-0.15900551,0.34257892,0.42966086,-0.49041748,-0.47891998,0.66292995,-1.0234764,0.41832027,-0.43722516,-0.46208954,-0.5008011,0.60068685,0.9434316,0.1415262,0.26496065,0.14036733,-1.0340087,0.6325238,-0.34721383,0.0,1.0,0.0,0.0,0.0,0.0,0.0,-0.1595825,0.07891998,-0.11292994,3.3354044,-3.271246,54.9746,-11.532903,31.987312,-5.445176,0.91433525
23.474714,85.89743,28.820911,9.900654,4.1940494,0.78249145,0.05954534,-0.70352584,-0.64182043,0.411837,0.5143258,0.50623685,-0.33715606,0.60444915,0.3086141,-1.2028345,-2.1825368,-0.7605232,1.7707707,1.7607403,-0.74709487,0.36737618,-1.1501464,-2.2181165,-0.80112386,1.7212306,1.797214,-0.80321306,-1.1653692,-1.1541367,0.659039,1.0479157,0.19506255,0.25338948,0.43442672,-0.5003319,-0.47477722,0.65861994,-0.98028535,0.41286665,-0.42816696,-0.47229767,-0.4942932,0.5978612,0.94582695,0.13945386,0.2605935,0.13436835,-1.0126806,0.6638524,-0.2636506,0.0,1.0,0.0,0.0,0.0,0.0,0.0,-0.1496681,0.074777216,-0.10861993,-2.5235415,-1.8356323,39.49585,-14.107513,34.6606,-9.003329,0.7030368
15.285717,91.16326,25.972368,14.320459,3.741146,0.49591625,-0.07518534,-0.654827,-0.5945764,0.45563886,0.5373627,0.5574672,-0.4454085,0.6251464,0.30189347,-1.209604,-2.1725526,-0.7473876,1.7769773,1.7526731,-0.7406984,0.35567185,-1.161518,-2.2097595,-0.79133064,1.7254052,1.7990551,-0.7988355,-1.172119,-1.1318108,0.8960174,0.956793,0.48987257,0.1609928,0.43921638,-0.50977707,-0.47071075,0.65446824,-0.93408567,0.40484548,-0.41286215,-0.48233795,-0.48749924,0.59579414,0.9488333,0.13557719,0.25453153,0.12863836,-0.99920505,0.6917701,-0.19055218,0.0,1.0,0.0,0.0,0.0,0.0,0.0,-0.1402229,0.07071075,-0.10446823,-0.67186356,2.1075249,24.08495,-9.026587,29.071259,-9.214062,0.59769154
6.6551356,89.19962,21.661257,16.134579,2.9842784,0.3186601,-0.09697647,-0.65410626,-0.56738555,0.48625597,0.49522045,0.59188294,-0.45733902,0.6213245,0.2902612,-1.2182565,-2.1611338,-0.7418086,1.7845935,1.7533212,-0.73670304,0.34393084,-1.1724814,-2.200022,-0.7822886,1.7319154,1.8000497,-0.79442036,-1.1746056,-1.0850595,1.0002699,0.88722336,0.7036506,0.07918023,0.44249198,-0.5187607,-0.46673965,0.65046173,-0.8886748,0.39551264,-0.40036523,-0.49227524,-0.48046112,0.5942872,0.9521715,0.1306277,0.24736522,0.12294815,-0.9896466,0.7168931,-0.1407677,0.0,1.0,0.0,0.0,0.0,0.0,0.0,-0.1312393,0.06673965,-0.10046172,-0.20873547,4.576683,10.561884,-6.7925096,21.235466,-8.077195,0.40249825
9.235085,90.819305,20.429289,14.506172,1.9885349,0.19680977,0.031019911,-0.6354555,-0.5137187,0.4854862,0.41710505,0.61805356,-0.46198657,0.6222593,0.2803853,-1.2238533,-2.1514733,-0.7405781,1.7937207,1.753851,-0.7321944,0.33228132,-1.1827582,-2.1899762,-0.7740359,1.7400124,1.8003231,-0.78997695,-1.161671,-1.0089629,1.0063021,0.8053565,0.8443445,0.010738775,0.44505382,-0.5272217,-0.4629097,0.6466288,-0.83506185,0.38005862,-0.3826589,-0.5019989,-0.4732628,0.5931481,0.95558566,0.12522732,0.23960902,0.11730967,-0.9645562,0.7287839,-0.1083545,0.0,1.0,0.0,0.0,0.0,0.0,0.0,-0.1227783,0.06290969,-0.096628785,1.3115883,7.518697,0.65340996,-8.004295,14.042318,-6.649649,0.2993822
14.900755,85.899376,19.243774,10.97564,1.1969694,0.062631756,0.16054153,-0.61239403,-0.49910927,0.50916135,0.36729622,0.6356915,-0.46577597,0.61805105,0.27104193,-1.2326691,-2.13906,-0.73730624,1.8035816,1.7537456,-0.7281718,0.3208778,-1.192314,-2.180122,-0.76663727,1.7490842,1.8000011,-0.785516,-1.1332761,-0.9379824,0.9788575,0.71863633,0.92738205,-0.045914575,0.44658077,-0.53512955,-0.45926666,0.64296,-0.77903736,0.36005178,-0.36714146,-0.5113869,-0.46605682,0.59220153,0.95892215,0.11972532,0.23156856,0.11184856,-0.9280992,0.72609055,-0.09338805,0.0,1.0,0.0,0.0,0.0,0.0,0.0,-0.11487043,0.059266657,-0.09296,2.8362036,7.010114,-2.679956,-8.500326,8.283413,-5.4415307,0.18911958
29.523193,71.34854,17.638481,1.860857,0.17890377,-0.19073585,0.43585268,-0.56867576,-0.5189398,0.53696233,0.26207387,0.66989326,-0.4835088,0.613332,0.26401022,-1.244208,-2.1264257,-0.7404299,1.8160735,1.7516502,-0.72418284,0.30993637,-1.2014312,-2.170485,-0.76039255,1.758752,1.7991775,-0.7810476,-1.0812458,-0.90348196,0.95945215,0.59353864,0.97871894,-0.09377564,0.44692773,-0.5424843,-0.45586777,0.63932616,-0.72491276,0.33425155,-0.36890692,-0.52028275,-0.45906067,0.5911671,0.9621298,0.114244856,0.22322863,0.10688019,-0.8762162,0.69797724,-0.11009403,0.0,1.0,0.0,0.0,0.0,0.0,0.0,-0.10751569,0.05586776,-0.08932614,5.155897,3.3563733,-1.7760038,-12.3901005,5.026388,-4.5404434,0.06350875
33.694565,70.76604,17.55793,-1.9384743,-0.3975706,-0.15972552,0.64989066,-0.57701373,-0.4557897,0.51910436,0.09717622,0.6918896,-0.49981675,0.6174367,0.252235,-1.2470101,-2.1185746,-0.7506749,1.827941,1.7491958,-0.7193039,0.29941124,-1.2100981,-2.16108,-0.7559478,1.7688001,1.7979268,-0.77657443,-1.0430945,-0.85471237,0.93465227,0.39524904,1.0127465,-0.13452135,0.44750085,-0.5492859,-0.45274734,0.6356569,-0.6680226,0.30585384,-0.37216842,-0.52856445,-0.45240402,0.58989334,0.9651702,0.10890309,0.21456234,0.102711275,-0.81017107,0.66069543,-0.13612635,0.0,1.0,0.0,0.0,0.0,0.0,0.0,-0.10071409,0.05274734,-0.08565688,3.7635803,4.7866225,-2.4022222,-19.721895,3.373611,-3.7570834,0.09396076
36.740673,62.377155,16.43311,-6.315234,-0.6782942,-0.13883108,0.80963105,-0.5783156,-0.4666432,0.5786359,-0.055620484,0.72048604,-0.4890727,0.6078259,0.24157968,-1.2567625,-2.1032164,-0.7615099,1.8408487,1.7490195,-0.7157918,0.28914118,-1.2184428,-2.1515875,-0.7538971,1.7791442,1.7963268,-0.772104,-1.0217389,-0.8280011,0.9542267,0.1420509,1.0412184,-0.16736445,0.44706866,-0.5555496,-0.4499054,0.6318673,-0.6155064,0.278125,-0.3870806,-0.5361519,-0.44616318,0.5882549,0.9680632,0.10363164,0.20541345,0.09959614,-0.7404125,0.61855733,-0.17573942,0.0,1.0,0.0,0.0,0.0,0.0,0.0,-0.094450355,0.04990539,-0.08186728,2.1059275,2.5891304,1.9414306,-25.213638,2.8906345,-2.9520214,0.019747019
46.77767,44.18333,13.520299,-15.585614,-1.4938424,-0.31069568,1.0941395,-0.5564035,-0.50331295,0.59673715,-0.27749282,0.74581605,-0.46255758,0.58820343,0.23350082,-1.268774,-2.0919137,-0.7816464,1.8537258,1.750071,-0.71328366,0.27907804,-1.2268103,-2.1417506,-0.75494266,1.7897608,1.7944638,-0.76765376,-1.0012369,-0.8400854,0.99367404,-0.18626276,1.0682892,-0.19139948,0.44466603,-0.56134415,-0.44735336,0.62771654,-0.5700777,0.24860525,-0.42971537,-0.54296875,-0.44046402,0.5859573,0.970835,0.09838229,0.19549406,0.09788917,-0.66175336,0.5578973,-0.24995255,0.0,1.0,0.0,0.0,0.0,0.0,0.0,-0.08865583,0.047353357,-0.07771653,2.0269632,-1.3016105,3.8633466,-32.71244,2.7780771,-2.0656347,-0.1351893
46.951553,35.657482,11.914195,-15.81607,-1.3888065,-0.4475499,0.98864317,-0.5168227,-0.54976004,0.61702627,-0.3157664,0.7549763,-0.37002087,0.5951351,0.22739577,-1.2817863,-2.0800478,-0.7865193,1.8652585,1.7574617,-0.70814025,0.26934102,-1.2356013,-2.131442,-0.7588178,1.8006032,1.792463,-0.76322174,-0.96448964,-0.8924296,1.0427272,-0.45399204,1.0896108,-0.20207419,0.44320318,-0.5667534,-0.4450798,0.6230424,-0.53304034,0.22132061,-0.48415408,-0.5491028,-0.43539047,0.58285433,0.97349817,0.09304472,0.18471576,0.09759135,-0.5956419,0.49536794,-0.3322647,0.0,1.0,0.0,0.0,0.0,0.0,0.0,-0.08324659,0.045079798,-0.07304239,3.6970377,-5.3221464,4.7590256,-26.59893,2.2524595,-0.8140385,0.0088095665
33.631817,42.43034,11.946543,-6.9765754,-0.5703939,-0.41662294,0.6085529,-0.49805936,-0.5582613,0.59977996,-0.2926768,0.7488474,-0.30978358,0.6000449,0.21953508,-1.2914274,-2.071464,-0.78808546,1.8754879,1.7614846,-0.70321727,0.2600079,-1.2449473,-2.12082,-0.76444757,1.8115752,1.790422,-0.7587985,-0.92270356,-0.9488439,1.0677814,-0.59856373,1.100342,-0.20406352,0.44264984,-0.5718422,-0.4430275,0.61788374,-0.50227875,0.20016147,-0.5294657,-0.5547638,-0.43079376,0.57906663,0.9760328,0.08757195,0.17330147,0.09827273,-0.55437803,0.45095164,-0.39561236,0.0,1.0,0.0,0.0,0.0,0.0,0.0,-0.07815778,0.04302749,-0.06788373,4.2558193,-5.6859255,2.2546768,-14.234018,1.304245,-0.009447336,0.13994575
34.10857,60.00717,16.379913,-0.66238964,-0.1222534,-0.35614344,0.3406812,-0.42603177,-0.5426755,0.60074115,-0.276934,0.7450383,-0.20591079,0.59662026,0.21740471,-1.2992148,-2.060746,-0.79214096,1.886079,1.769831,-0.69913644,0.25134614,-1.2546691,-2.110082,-0.7707094,1.8226118,1.7884552,-0.75438094,-0.846937,-0.9801116,1.0749171,-0.6345077,1.1057352,-0.193516,0.44205323,-0.57658005,-0.44119644,0.61250633,-0.46507797,0.17792232,-0.54247135,-0.56002045,-0.42660904,0.574906,0.97839594,0.08188271,0.16163911,0.09954538,-0.515907,0.40993166,-0.4239319,0.0,1.0,0.0,0.0,0.0,0.0,0.0,-0.07341993,0.041196436,-0.06250632,7.689023,-3.1157374,0.39174557,-3.3579707,0.91502666,1.3025761,0.12756586
39.32284,63.335472,17.857388,-1.1681933,-0.26909322,-0.39817667,0.31918216,-0.3696725,-0.567136,0.60580117,-0.33370653,0.75091875,-0.123734765,0.5821881,0.2143789,-1.3113827,-2.049502,-0.80408007,1.8977036,1.7760818,-0.6961621,0.2436004,-1.2646731,-2.0993323,-0.77713543,1.8336957,1.7866602,-0.74997973,-0.7500591,-1.0071497,1.0741425,-0.64451444,1.11032,-0.17405644,0.44010702,-0.58093643,-0.4396019,0.6070545,-0.4266249,0.15385297,-0.5480267,-0.5648689,-0.4228859,0.5705053,0.9805593,0.075929366,0.14991748,0.10130618,-0.47345567,0.36201397,-0.44632718,0.0,1.0,0.0,0.0,0.0,0.0,0.0,-0.069063544,0.039601892,-0.05705446,9.802604,-2.6852012,-0.37879944,-0.7573366,0.8435488,2.2120447,-0.0034630299
52.02869,65.09343,20.00256,-4.7199078,-0.68977165,-0.4845754,0.39484394,-0.27750626,-0.5901628,0.6237921,-0.34861085,0.7530076,0.0154332,0.5822674,0.21584977,-1.3236893,-2.0369532,-0.8119965,1.9089965,1.7882035,-0.691753,0.23707901,-1.2749556,-2.0885336,-0.7835653,1.8448234,1.7851577,-0.7455983,-0.61911714,-1.0354912,1.0807614,-0.64168274,1.1147697,-0.14137167,0.4382022,-0.58488464,-0.4382782,0.60159564,-0.38466927,0.12527424,-0.54658884,-0.5691948,-0.41976166,0.5659072,0.9825008,0.06962497,0.13821444,0.103640534,-0.4186523,0.29801401,-0.46533462,0.0,1.0,0.0,0.0,0.0,0.0,0.0,-0.06511533,0.038278192,-0.05159563,13.205338,-2.823472,0.41816235,0.5334258,0.81276894,3.5591035,0.0063061714
50.15242,73.06584,22.333847,-0.9384866,-0.3341389,-0.35100323,0.22885925,-0.20673995,-0.6002841,0.65679747,-0.25428498,0.7350043,0.22296408,0.5690451,0.21640502,-1.3349841,-2.0228539,-0.80899376,1.9183238,1.8074541,-0.6886938,0.23195921,-1.2854956,-2.0775244,-0.78948295,1.8559322,1.7841166,-0.7412441,-0.47582757,-1.0600722,1.1070937,-0.5742883,1.1108636,-0.090660594,0.43516457,-0.58841705,-0.43722153,0.59627527,-0.34335703,0.098914206,-0.5281957,-0.57302856,-0.41722488,0.5612646,0.98421216,0.06280463,0.12671006,0.10642543,-0.36947492,0.2414952,-0.46468407,0.0,1.0,0.0,0.0,0.0,0.0,0.0,-0.061582923,0.03722152,-0.046275258,14.457357,-2.4291754,2.3963451,6.9971204,0.00667572,5.373414,-0.10085702
53.061893,69.810486,21.401108,-4.4039593,-0.8115979,-0.428517,0.36002314,-0.14915983,-0.6056059,0.6313456,-0.3376121,0.7394483,0.24119896,0.53123534,0.21704322,-1.3460562,-2.0143898,-0.82324415,1.929877,1.8082365,-0.68812054,0.22822057,-1.296234,-2.0663745,-0.79511344,1.867001,1.7835653,-0.73694557,-0.33946958,-1.0785588,1.1166775,-0.558271,1.1066806,-0.04236887,0.42886302,-0.59155273,-0.4364357,0.59105676,-0.30411807,0.07193227,-0.5204345,-0.5763016,-0.4153099,0.5565468,0.9856769,0.055539932,0.11540164,0.10972168,-0.31254575,0.17648391,-0.4753054,0.0,1.0,0.0,0.0,0.0,0.0,0.0,-0.05844724,0.036435694,-0.041056752,13.759154,-1.8521547,0.7650852,1.9008875,-0.0893116,5.109296,-0.39638877
26.19591,80.60332,20.64428,5.1493697,-0.044354912,-0.07069263,0.16094321,-0.18249461,-0.5519313,0.59237355,-0.3373996,0.7364681,0.23403263,0.53734076,0.2099711,-1.3514272,-2.0071373,-0.8288534,1.9406478,1.8069686,-0.6832115,0.22532307,-1.306837,-2.0553806,-0.80071723,1.8780181,1.7834373,-0.7326998,-0.2726432,-1.0540147,1.0924848,-0.5599945,1.1017005,-0.0020242748,0.42393467,-0.5943489,-0.4358406,0.58597225,-0.27180487,0.05580485,-0.50461984,-0.5791359,-0.4137802,0.55184156,0.9868899,0.048063572,0.10437445,0.11333163,-0.27447134,0.14614312,-0.46993825,0.0,1.0,0.0,0.0,0.0,0.0,0.0,-0.05565107,0.0358406,-0.035972238,6.8409147,2.4972916,-2.8103113,0.14755726,-0.008177757,4.3438287,-0.22822022
26.04796,81.37115,20.691376,4.2827225,-0.22680737,-0.12926254,0.21020654,-0.116073646,-0.54912454,0.58583194,-0.3561437,0.73550326,0.182531,0.5439012,0.2137157,-1.3617494,-1.9967974,-0.8363316,1.9515685,1.8016903,-0.6783097,0.22304267,-1.317129,-2.0446956,-0.80650127,1.8889909,1.7836221,-0.728494,-0.21264593,-1.0207697,1.0592259,-0.5834189,1.0975026,0.026328815,0.4203704,-0.5968361,-0.4353981,0.5810346,-0.24126719,0.040107504,-0.48998392,-0.58159256,-0.4125824,0.54718786,0.98785156,0.04052802,0.0936331,0.117215976,-0.23420192,0.11278622,-0.46482852,0.0,1.0,0.0,0.0,0.0,0.0,0.0,-0.053163886,0.035398096,-0.031034589,6.1585426,3.3673525,-3.7308931,-2.01751,0.076413155,3.148994,-0.094771385
4.5475917,88.28111,20.171183,13.107837,0.5743934,0.10432399,-0.050419543,-0.13297492,-0.5119914,0.54756534,-0.29465693,0.72588474,0.18642087,0.54673284,0.20974517,-1.3683281,-1.9899391,-0.83596694,1.9615793,1.8022642,-0.67382073,0.22106282,-1.326948,-2.0344872,-0.8122404,1.8998969,1.7840437,-0.724315,-0.19254997,-0.9685587,1.0064586,-0.5698112,1.0902295,0.04845443,0.4178686,-0.59907913,-0.43504715,0.57630813,-0.21858548,0.0340104,-0.46619263,-0.58380127,-0.4114914,0.5426937,0.9885876,0.033049896,0.08328275,0.12110346,-0.21686293,0.108410604,-0.44524574,0.0,1.0,0.0,0.0,0.0,0.0,0.0,-0.050920844,0.035047144,-0.02630812,2.1779923,5.3125143,-5.7727575,1.6585469,-0.14190674,2.5298872,0.0
9.582203,96.31342,22.853157,12.877878,0.35646206,0.03809215,-0.03430399,-0.072616495,-0.46070534,0.5200289,-0.2846217,0.72030306,0.15712199,0.5520085,0.21380118,-1.3730186,-1.9824843,-0.8407026,1.9719272,1.7997558,-0.6691141,0.21940462,-1.3360842,-2.0248587,-0.8177508,1.9107305,1.7846326,-0.7201541,-0.15634422,-0.8950818,0.9468726,-0.5438671,1.0831012,0.0635169,0.41621408,-0.60108185,-0.43476868,0.57193977,-0.19420737,0.026068555,-0.42653778,-0.58579254,-0.41051483,0.538504,0.9891115,0.025690705,0.073446125,0.12491588,-0.19317716,0.09628419,-0.41115427,0.0,1.0,0.0,0.0,0.0,0.0,0.0,-0.048918128,0.03476867,-0.021939754,3.7872672,7.445979,-6.433475,2.886796,-0.11329651,1.8525027,0.05749464
1.6630466,105.84018,24.755884,17.885338,0.69715905,0.16830838,-0.18238686,-0.06701169,-0.39971387,0.48565105,-0.21794297,0.70097876,0.19139007,0.54655904,0.21270345,-1.3760556,-1.9762936,-0.83954513,1.9808284,1.8037716,-0.6654982,0.21805589,-1.344324,-2.0158637,-0.82270515,1.9214497,1.7853689,-0.71601135,-0.12716524,-0.79977775,0.88175,-0.4783761,1.0703453,0.0782645,0.41420543,-0.6028633,-0.43453217,0.5681137,-0.17309158,0.02281042,-0.36789605,-0.5876198,-0.4095497,0.5348032,0.98944974,0.01847148,0.064303376,0.12850283,-0.17816655,0.09607749,-0.357404,0.0,1.0,0.0,0.0,0.0,0.0,0.0,-0.047136664,0.03453216,-0.018113673,3.0827522,9.6523285,-6.9963455,6.8142533,-0.63660145,1.8386841,-0.0062048435
4.150548,137.0786,32.695454,22.195759,0.4068027,0.29378963,-0.20449293,-0.028456785,-0.21131779,0.38083473,-0.18051895,0.6794652,0.18824163,0.5426389,0.21521021,-1.3654557,-1.9777802,-0.8407571,1.9893962,1.8041931,-0.66174746,0.21709602,-1.3509043,-2.0078795,-0.8268937,1.9320183,1.7862308,-0.7118915,-0.08500398,-0.6102755,0.7687919,-0.39807326,1.0549041,0.09033092,0.41177627,-0.60437393,-0.4343338,0.5652825,-0.14460838,0.01901394,-0.25475156,-0.58917236,-0.40863037,0.53202933,0.98961157,0.011557295,0.056294642,0.13178141,-0.1470626,0.0915073,-0.25168362,0.0,1.0,0.0,0.0,0.0,0.0,0.0,-0.045626044,0.034333795,-0.015282512,4.3924317,19.0997,-11.823416,8.3030815,-0.78270435,1.6771004,-0.085926056
12.41135,173.13483,42.63381,25.348476,-0.10172957,0.3658289,-0.1768589,0.030971814,0.0071445294,0.28352764,-0.123220704,0.6586749,0.16854565,0.51898956,0.22019319,-1.3501899,-1.9795268,-0.83921576,1.9978858,1.8030853,-0.6599925,0.21675508,-1.3547992,-2.0013335,-0.8301629,1.9424229,1.7871767,-0.70781356,-0.016537834,-0.3154856,0.61478007,-0.30222642,1.0383208,0.09755276,0.4068789,-0.6055336,-0.43418503,0.5640656,-0.10746492,0.01395405,-0.07754799,-0.59023285,-0.40784454,0.530777,0.98960364,0.0051328978,0.049966943,0.134765,-0.09290288,0.07517106,-0.08415335,0.0,1.0,0.0,0.0,0.0,0.0,0.0,-0.044466376,0.034185022,-0.014065564,7.019602,29.632229,-15.913403,9.853822,-0.83699226,1.2279882,-0.37125945
-2.6719909,120.1275,23.199903,21.859373,-0.56978047,-0.49170578,-0.35356802,0.04921247,-0.03091687,-0.13405359,-0.027644133,0.61687505,0.10983706,0.47869444,0.22167632,-1.3578908,-2.0147388,-0.8329273,2.0041103,1.7981604,-0.6599441,0.21707574,-1.3563651,-1.99797,-0.832223,1.9525058,1.7881402,-0.7038129,0.048423603,-0.103441134,0.2430844,-0.17346217,0.99957865,0.09664837,0.3982429,-0.60647583,-0.43409348,0.5637469,-0.0904398,0.007433769,-0.016850626,-0.5910034,-0.4072876,0.5303976,0.9895035,0.00013594882,0.04529729,0.13722607,-0.0719673,0.048619505,-0.023364825,0.0,0.0,1.0,0.0,0.0,0.0,0.0,-0.043524146,0.03409347,-0.013746917,6.5490484,21.284967,-37.363792,13.012296,-3.50734,0.08818656,-0.7291019
3.5196662,102.07506,18.817577,15.246968,-1.0945183,-0.6894948,-0.17470069,0.08095248,0.05477528,-0.20575522,-0.056895792,0.57197434,0.11824714,0.4932811,0.22517098,-1.3508875,-2.0185454,-0.83791256,2.0097032,1.7999649,-0.6544848,0.21802989,-1.3561171,-1.9982637,-0.8333779,1.9620885,1.7890906,-0.6998866,0.11110516,0.06757132,-0.12046708,-0.09606289,0.94520664,0.09478376,0.39096665,-0.60726166,-0.43409348,0.5637783,-0.074805215,-0.0020702686,0.0093636345,-0.59150314,-0.40709305,0.53038305,0.98935586,-0.0030730614,0.042036545,0.1392785,-0.043747615,0.009473559,0.00512267,0.0,0.0,1.0,0.0,0.0,0.0,0.0,-0.04273832,0.03409347,-0.013778269,6.2787743,17.127895,-36.426197,7.7441587,-5.2317977,-0.14391094,-0.661242
-13.826344,84.273,13.585305,18.724808,-0.1949619,-0.44547114,-0.32825384,0.049310524,0.07863383,-0.27663827,0.035197206,0.50922376,0.17564227,0.49774933,0.22296093,-1.3482537,-2.0259275,-0.8298582,2.0130107,1.8066548,-0.6501117,0.2192873,-1.3546599,-2.0016775,-0.83364683,1.9709805,1.7900578,-0.6960252,0.13056281,0.17157175,-0.414799,-0.004155958,0.8707456,0.09715063,0.38461545,-0.6079674,-0.43412018,0.5638897,-0.069280334,-0.0028833689,0.011601578,-0.5919342,-0.4070816,0.53048295,0.9892158,-0.0046728635,0.039938662,0.14083695,-0.04273439,-0.00040166933,0.01114006,0.0,0.0,1.0,0.0,0.0,0.0,0.0,-0.0420326,0.034120172,-0.01388967,1.9285381,10.390109,-29.40492,9.104149,-7.374501,0.17143488,-0.6447375
-15.036003,75.71266,12.926211,16.82949,0.12681295,-0.19438523,-0.22738099,0.043164313,0.10570083,-0.30479825,0.017585682,0.46000358,0.23279257,0.5085227,0.22360374,-1.3440899,-2.0321574,-0.83188826,2.016981,1.8133371,-0.64517295,0.2205433,-1.3525141,-2.0071974,-0.8333178,1.9790772,1.7910889,-0.6922124,0.12382516,0.22878145,-0.59761214,0.04477325,0.7893075,0.10473457,0.37992683,-0.6086273,-0.43413162,0.5639747,-0.06476086,-0.00067707495,0.0073414305,-0.5923767,-0.40707016,0.5305824,0.9890992,-0.0050928877,0.038704984,0.14198169,-0.04386154,0.0011283275,0.009380209,0.0,0.0,1.0,0.0,0.0,0.0,0.0,-0.041372657,0.034131616,-0.013974667,-0.70899427,5.6910367,-18.173313,4.773492,-8.157408,0.6585255,-0.5336225
-11.417238,69.11881,12.7206335,15.097299,0.33206326,-0.16970162,-0.1919683,0.06794373,0.111215696,-0.363664,0.074848965,0.41976336,0.22969007,0.51380396,0.22733767,-1.3413926,-2.0435638,-0.8258329,2.0210536,1.814058,-0.640832,0.22176781,-1.350088,-2.013999,-0.8324643,1.9863808,1.792191,-0.68843687,0.12184469,0.24703667,-0.70749635,0.09844899,0.7105522,0.1117701,0.3764517,-0.6092491,-0.43412018,0.5639829,-0.06152475,0.0017041587,-0.0013142161,-0.5928421,-0.40704346,0.53062296,0.9890063,-0.004719117,0.038089544,0.1428059,-0.04853873,0.003929786,0.0024020341,0.0,0.0,1.0,0.0,0.0,0.0,0.0,-0.04075086,0.034120172,-0.013982892,-0.24424195,1.7890483,-10.85031,5.24292,-7.920456,0.59333146,-0.43666363
-7.374572,66.32613,13.278135,13.687465,0.47039714,-0.1527805,-0.14983931,0.0774223,0.11265965,-0.39458272,0.1095994,0.3922195,0.22719027,0.5247629,0.22951004,-1.338822,-2.0534573,-0.82150435,2.0256028,1.81491,-0.6359606,0.22301689,-1.3476523,-2.0214949,-0.8310681,1.9929802,1.7933547,-0.6846841,0.12574592,0.24206914,-0.76277447,0.15289542,0.64292145,0.11763963,0.37462127,-0.6098442,-0.43408585,0.56390536,-0.058536276,0.0039321827,-0.0096590975,-0.59337234,-0.40698624,0.5305892,0.9889339,-0.0038591868,0.037906375,0.14338027,-0.05424815,0.0064472468,-0.004977659,0.0,0.0,1.0,0.0,0.0,0.0,0.0,-0.04015577,0.03408584,-0.013905346,0.33485144,-0.5355567,-5.369532,5.321437,-6.8205237,0.47650635,-0.28110147
-3.3780537,70.30601,15.262743,13.242295,0.4743298,-0.113368705,-0.103052735,0.084614456,0.12899409,-0.4091965,0.13596119,0.3449957,0.20589194,0.531621,0.23147833,-1.3347529,-2.0624144,-0.817472,2.02748,1.813944,-0.631522,0.22434649,-1.3452644,-2.0292766,-0.8291435,1.9989325,1.7945529,-0.6809409,0.13512471,0.23747388,-0.7824186,0.20520355,0.5789935,0.12007979,0.3738649,-0.61039734,-0.43403244,0.56382084,-0.05375226,0.0055756248,-0.0074955365,-0.5939293,-0.4069214,0.5305524,0.988873,-0.002718804,0.038080845,0.14377946,-0.05602916,0.006982864,-0.0027051351,0.0,0.0,1.0,0.0,0.0,0.0,0.0,-0.039602637,0.034032434,-0.013820827,0.87028146,-0.5019158,-1.7747998,5.097422,-6.4763546,0.121189654,-0.19013882
-1.1864864,68.09173,14.905001,12.004209,0.3542164,-0.15096512,-0.05363065,0.087438434,0.11731658,-0.43185982,0.15076733,0.27391395,0.17573644,0.5328136,0.23309033,-1.3335328,-2.0724626,-0.81406677,2.0263238,1.8121265,-0.62765956,0.22577652,-1.3429813,-2.0371766,-0.82676786,2.004181,1.795748,-0.6772025,0.14539328,0.2252445,-0.7916774,0.2478663,0.50628823,0.11882895,0.3735122,-0.61089325,-0.4339714,0.5637287,-0.04820578,0.0058420235,-0.009264134,-0.5944824,-0.4068756,0.5305077,0.98881394,-0.0013374947,0.03857098,0.1440741,-0.054983173,0.0036805721,-0.0042861844,0.0,0.0,1.0,0.0,0.0,0.0,0.0,-0.039106727,0.0339714,-0.013728678,0.95798373,-1.2648344,-0.72563887,4.1375666,-7.3714375,-0.24257153,-0.15052557
-3.7630293,75.84922,16.891966,14.700797,0.5536161,-0.017369937,-0.095467746,0.0839923,0.13657449,-0.42069295,0.1995642,0.22230738,0.1737676,0.52916896,0.23417576,-1.3293239,-2.0792458,-0.80681145,2.0264115,1.8131248,-0.62428564,0.2272712,-1.3407173,-2.0450423,-0.8238783,2.008682,1.7969207,-0.6734689,0.15056007,0.22660266,-0.784007,0.3021692,0.43090993,0.116167955,0.372811,-0.61133194,-0.43389893,0.56374013,-0.042021018,0.007955207,0.0055003865,-0.5950279,-0.4068222,0.53056604,0.9887564,0.00022426645,0.03943755,0.1442404,-0.054982867,0.006733411,0.009909988,0.0,0.0,1.0,0.0,0.0,0.0,0.0,-0.038668036,0.03389892,-0.013740122,0.43373704,0.07972717,1.0228038,5.2911816,-7.6873183,-0.4072234,-0.20394325
