Afshin1997/kuka_rl_ros2/src/catch_and_throw/input_files/idealpd/polynomial_regressor/optimizer_files/env_295_data.csv
torque0,torque1,torque2,torque3,torque4,torque5,torque6,action0,action1,action2,action3,action4,action5,action6,set_target_0,set_target_1,set_target_2,set_target_3,set_target_4,set_target_5,set_target_6,joint_pos_0,joint_pos_1,joint_pos_2,joint_pos_3,joint_pos_4,joint_pos_5,joint_pos_6,joint_vel_0,joint_vel_1,joint_vel_2,joint_vel_3,joint_vel_4,joint_vel_5,joint_vel_6,tennisball_pos_0,tennisball_pos_1,tennisball_pos_2,tennisball_lin_vel_0,tennisball_lin_vel_1,tennisball_lin_vel_2,end_effector_pos_0,end_effector_pos_1,end_effector_pos_2,end_effector_rot_0,end_effector_rot_1,end_effector_rot_2,end_effector_rot_3,end_effector_lin_vel_0,end_effector_lin_vel_1,end_effector_lin_vel_2,obs_task_0,obs_task_1,obs_task_2,obs_task_3,obs_task_4,obs_task_5,obs_task_6,to_final_target_0,to_final_target_1,to_final_target_2,joint_acc_0,joint_acc_1,joint_acc_2,joint_acc_3,joint_acc_4,joint_acc_5,joint_acc_6
0.0,0.0,0.0,0.0,0.0,0.0,0.0,0.0,0.0,0.0,0.0,0.0,0.0,0.0,1.7802359,-1.0646509,-1.8151424,-1.1170107,1.9373155,1.1170107,-0.91629785,1.7802359,-1.0646509,-1.8151424,-1.1170107,1.9373155,1.1170107,-0.91629785,0.0,0.0,0.0,0.0,0.0,0.0,0.0,2.9394684,-0.603529,0.23596103,-2.7452345,-0.036959678,5.279218,0.5304165,-0.45449448,0.693097,0.5745483,0.17512383,0.15255436,0.7848268,0.0,0.0,0.0,1.0,0.0,0.0,0.0,0.0,0.0,0.0,-3.5894685,0.20352897,0.314039,0.0,0.0,0.0,0.0,0.0,0.0,0.0
0.0,0.0,0.0,0.0,0.0,0.0,0.0,0.0,0.0,0.0,0.0,0.0,0.0,0.0,1.7802359,-1.0646509,-1.8151424,-1.1170107,1.9373155,1.1170107,-0.91629785,1.7802359,-1.0646509,-1.8151424,-1.1170107,1.9373155,1.1170107,-0.91629785,0.0,0.0,0.0,0.0,0.0,0.0,0.0,2.9394684,-0.603529,0.23596103,-2.7452345,-0.036959678,5.279218,0.5304165,-0.45449448,0.693097,0.5745483,0.17512383,0.15255436,0.7848268,0.0,0.0,0.0,1.0,0.0,0.0,0.0,0.0,0.0,0.0,-3.5894685,0.20352897,0.314039,0.0,0.0,0.0,0.0,0.0,0.0,0.0
0.0,0.0,0.0,0.0,0.0,0.0,0.0,0.0,0.0,0.0,0.0,0.0,0.0,0.0,1.7802359,-1.0646509,-1.8151424,-1.1170107,1.9373155,1.1170107,-0.91629785,1.7802359,-1.0646509,-1.8151424,-1.1170107,1.9373155,1.1170107,-0.91629785,0.0,0.0,0.0,0.0,0.0,0.0,0.0,2.9394684,-0.603529,0.23596103,-2.7452345,-0.036959678,5.279218,0.5304165,-0.45449448,0.693097,0.5745483,0.17512383,0.15255436,0.7848268,0.0,0.0,0.0,1.0,0.0,0.0,0.0,0.0,0.0,0.0,-3.5894685,0.20352897,0.314039,0.0,0.0,0.0,0.0,0.0,0.0,0.0
-176.0,41.387253,-16.65982,110.0,11.293169,3.8520908,-3.6728506,-0.80484474,0.20757364,-0.54305375,0.74025226,0.2835126,0.6822915,-0.6193425,1.6997514,-1.0438936,-1.8694477,-1.0429854,1.9656668,1.1852399,-0.9782321,1.7792155,-1.062961,-1.8212478,-1.1118838,1.9416757,1.122275,-0.91689676,-0.1356585,0.22450188,-0.8137628,0.6840517,0.58070064,0.70038,-0.07931686,2.912036,-0.603899,0.28797716,-2.7424898,-0.036922727,5.175754,0.52846336,-0.45780468,0.693545,0.578002,0.17380506,0.15118198,0.782847,-0.26014256,-0.44153595,0.059386555,1.0,0.0,0.0,0.0,0.0,0.0,0.0,-3.562036,0.203899,0.26202285,-13.458792,22.261127,-81.27668,68.54637,57.864277,69.57125,-7.7612305
-176.0,-43.005394,-50.199123,110.0,13.108784,1.1495063,-3.1969137,-0.7858381,-0.22752409,-0.51981246,0.6942558,0.46721587,0.65803766,-0.59177804,1.7006316,-1.0857134,-1.873229,-1.0424582,1.9883972,1.1880788,-0.9760746,1.7782332,-1.061212,-1.8363578,-1.097531,1.9514432,1.1356894,-0.9167928,-0.08938097,0.14497918,-1.7104228,1.6862125,1.0907779,1.5185707,0.0325841,2.884632,-0.6042671,0.33895943,-2.7397478,-0.036885813,5.072393,0.5240555,-0.4663477,0.693787,0.5857956,0.17063585,0.14722708,0.77849287,-0.50153637,-0.98947585,0.016079389,1.0,0.0,0.0,0.0,0.0,0.0,0.0,-3.5346322,0.20426711,0.21104059,3.5362945,-11.994958,-79.778336,100.33898,45.59642,70.84467,8.8995
-161.09059,116.31777,35.285095,98.10853,9.3308325,8.718411,-1.8204353,-0.7687783,0.20986946,0.21150951,0.6611471,0.48607123,0.69406545,-0.53138864,1.7013553,-1.040225,-1.8152069,-1.0314163,2.0000503,1.2050959,-0.96993166,1.7740027,-1.059276,-1.8507583,-1.0788924,1.9628053,1.1507403,-0.9168157,-0.53434,0.20651892,-1.3427321,1.924486,1.1455708,1.4937483,-0.015238252,2.857255,-0.60463524,0.38890886,-2.7370086,-0.036848936,4.9691353,0.5166807,-0.47781086,0.69573385,0.5963572,0.16580743,0.14139606,0.7725757,-0.82353806,-1.1915171,0.257929,1.0,0.0,0.0,0.0,0.0,0.0,0.0,-3.507255,0.20463523,0.16109115,-44.51116,5.1100163,38.93409,24.283146,3.7404537,-4.507613,-5.1802745
-109.75032,90.78408,36.058987,59.921803,6.3453712,7.8136783,-0.1568641,-0.7712986,-0.095677055,0.29867423,0.6654164,0.4930162,0.6761145,-0.5736475,1.6968728,-1.0688437,-1.8208909,-1.0123507,2.012107,1.2183517,-0.97418046,1.7652918,-1.0581487,-1.85871,-1.0602785,1.9736009,1.164723,-0.91741747,-0.98374015,0.079308785,-0.6054597,1.8414123,1.051669,1.362879,-0.07620332,2.8299055,-0.60500336,0.43782648,-2.7342722,-0.036812093,4.865981,0.5065937,-0.49030304,0.69949037,0.60779774,0.1596666,0.13374947,0.76628935,-1.0818304,-1.257425,0.41829127,1.0,0.0,0.0,0.0,0.0,0.0,0.0,-3.4799056,0.20500335,0.11217353,-45.108677,-13.337524,75.889145,-7.961941,-11.132216,-14.123702,-6.429244
-47.26862,130.507,55.39067,34.413322,2.8879547,7.887091,0.56039286,-0.7866828,0.102135204,0.37832254,0.6533692,0.5964304,0.67052245,-0.57628804,1.6866236,-1.0479352,-1.8208778,-0.9949416,2.033244,1.2317753,-0.9750463,1.7528635,-1.0574106,-1.8591163,-1.043698,1.9834542,1.1772505,-0.9186315,-1.3300017,0.07011035,0.15395683,1.5970155,0.95885676,1.2145095,-0.13859296,2.8025837,-0.6053715,0.48571333,-2.7315385,-0.036775287,4.76293,0.49450302,-0.5023327,0.7050043,0.6189311,0.152255,0.124654025,0.7603972,-1.2640164,-1.1726955,0.59607697,1.0,0.0,0.0,0.0,0.0,0.0,0.0,-3.4525838,0.20537147,0.06428668,-34.889267,-1.4466836,77.82995,-24.473976,-10.580837,-15.275955,-6.8731575
-13.373631,93.74448,38.544315,13.46011,0.8785814,4.570969,0.6575084,-0.7978663,0.012486301,0.31840482,0.65944874,0.60276544,0.65057814,-0.6196706,1.6730769,-1.056162,-1.8272759,-0.9777531,2.0437307,1.2423084,-0.98059857,1.7381026,-1.0569605,-1.8539493,-1.0295264,1.9925504,1.1884161,-0.92042917,-1.525175,0.03579141,0.64085406,1.3567692,0.89126503,1.0842303,-0.19471937,2.7752886,-0.6057396,0.5325705,-2.7288074,-0.03673852,4.6599817,0.481287,-0.5134468,0.71146184,0.629343,0.14417829,0.114717916,0.7549701,-1.3531703,-1.0787884,0.659772,1.0,0.0,0.0,0.0,0.0,0.0,0.0,-3.4252887,0.20573959,0.01742953,-19.654919,-3.7003875,49.64821,-24.111675,-7.373011,-12.952685,-5.9943438
18.831417,145.93137,53.568165,9.881361,-1.4234998,4.551398,0.16201395,-0.8063409,0.36674285,0.28009683,0.6298907,0.6163888,0.66383165,-0.606706,1.6574684,-1.0202862,-1.8259397,-0.9665373,2.0541892,1.2547992,-0.9810998,1.7223231,-1.0550951,-1.8460853,-1.0173594,2.0012288,1.1984526,-0.92272276,-1.5961585,0.2357637,0.83741933,1.169862,0.85923177,0.9778227,-0.24289124,2.7480202,-0.60610676,0.5783989,-2.7260792,-0.036701787,4.5571365,0.4675913,-0.5230856,0.7189639,0.6391816,0.1355025,0.105130844,0.7496889,-1.386914,-0.9137046,0.77654576,1.0,0.0,0.0,0.0,0.0,0.0,0.0,-3.3980203,0.20610675,-0.028398871,-7.2990656,19.653585,20.389795,-18.713879,-3.4425616,-10.349094,-5.3845286
24.679474,135.03162,43.9139,7.203329,-2.2871084,2.8197412,-0.31673142,-0.8137551,0.42681146,0.1443085,0.6195871,0.5839073,0.66312313,-0.6142336,1.6409476,-1.012414,-1.8316544,-0.95540065,2.0596194,1.2647649,-0.9841461,1.70641,-1.0508665,-1.838372,-1.006476,2.0096593,1.2075697,-0.9254369,-1.5901903,0.48428875,0.7507939,1.0612334,0.8377523,0.8908923,-0.28226885,2.7207804,-0.60647297,0.62319964,-2.7233539,-0.036665093,4.4543943,0.45386887,-0.5312023,0.72731346,0.64880717,0.1265062,0.09686767,0.74408466,-1.3773907,-0.7660381,0.8504477,1.0,0.0,0.0,0.0,0.0,0.0,0.0,-3.3707805,0.20647296,-0.07319963,0.3900528,24.601782,-8.254183,-10.845804,-2.1560311,-8.352518,-4.3640375
28.410854,140.42732,43.612835,7.9028454,-2.6102886,2.417769,-0.5220945,-0.81693363,0.5742508,0.109409384,0.5888253,0.603254,0.6646931,-0.5993091,1.6247166,-0.9934414,-1.8274311,-0.9475935,2.0699847,1.274039,-0.98536783,1.6908098,-1.0438341,-1.8323982,-0.99629724,2.018025,1.2159334,-0.92847914,-1.5507095,0.7755782,0.5475349,1.0034688,0.83617,0.8188281,-0.31277966,2.6935673,-0.6068392,0.66697377,-2.720631,-0.036628436,4.3517547,0.44034863,-0.5378647,0.7364287,0.65845776,0.11734194,0.09037244,0.7379004,-1.351684,-0.62000203,0.928491,1.0,0.0,0.0,0.0,0.0,0.0,0.0,-3.3435674,0.20683917,-0.11697376,3.7266254,28.894007,-19.962215,-5.7661533,-0.12607574,-6.975794,-3.4343958
21.16151,114.76558,32.979652,8.01474,-2.0900478,1.456928,-0.5760602,-0.81833243,0.6044188,0.020082705,0.57974774,0.61289525,0.6611477,-0.5913037,1.6089766,-0.98339224,-1.8303899,-0.9383225,2.0793145,1.2820482,-0.9876095,1.675635,-1.0343641,-1.828841,-0.9864067,2.0264554,1.223662,-0.9317712,-1.507124,1.0037029,0.29261327,0.98395336,0.8457146,0.7581077,-0.33563662,2.666381,-0.6072054,0.7097222,-2.7179108,-0.036591817,4.2492175,0.42709732,-0.5433674,0.7460195,0.6682586,0.10823808,0.08559228,0.731019,-1.3224043,-0.5135637,0.966434,1.0,0.0,0.0,0.0,0.0,0.0,0.0,-3.316381,0.20720538,-0.15972221,4.1680336,22.648108,-25.24253,-2.0409465,1.0122418,-5.958414,-2.5743842
15.288194,96.699715,26.903488,8.64506,-1.473707,1.0901854,-0.49667472,-0.81453747,0.6556403,-0.030879809,0.5718627,0.61644846,0.67203635,-0.5869792,1.5941812,-0.96880007,-1.831929,-0.92922044,2.0881002,1.2908657,-0.99046916,1.660834,-1.023105,-1.8276145,-0.9765676,2.035008,1.230868,-0.9352531,-1.4718832,1.1660551,0.06662991,0.9833143,0.8584779,0.70806843,-0.3531997,2.6392221,-0.6075716,0.75144607,-2.7151935,-0.03655523,4.146783,0.41407967,-0.5480175,0.755831,0.6782198,0.09932081,0.08220472,0.72346085,-1.2994332,-0.4341412,0.9837258,1.0,0.0,0.0,0.0,0.0,0.0,0.0,-3.2892222,0.2075716,-0.20144606,3.3570766,16.106869,-22.36142,-0.23795366,1.326096,-4.986298,-2.0212293
12.109524,81.344986,22.795052,8.400209,-0.9014569,0.91039085,-0.32672656,-0.80459034,0.681526,-0.05927265,0.56467456,0.62278914,0.670873,-0.5956551,1.580375,-0.9549524,-1.8335419,-0.92010015,2.097287,1.2979553,-0.99481857,1.6463209,-1.0107397,-1.8281467,-0.96669614,2.043694,1.2376372,-0.9388904,-1.445155,1.2595385,-0.092194796,0.98768926,0.87180656,0.66642153,-0.36815825,2.612091,-0.60793686,0.7921463,-2.7124789,-0.03651868,4.0444508,0.40123272,-0.5520201,0.7656978,0.68825334,0.09061426,0.079777665,0.7153543,-1.283258,-0.37368402,0.98601794,1.0,0.0,0.0,0.0,0.0,0.0,0.0,-3.2620912,0.20793685,-0.24214631,2.5217772,9.247899,-15.61624,0.20586252,1.3623953,-4.1860104,-1.7664015
9.71553,70.94741,20.367275,8.153641,-0.46709123,0.8785206,-0.15693717,-0.8036831,0.69858885,-0.0815823,0.54998964,0.62739635,0.6760641,-0.59432095,1.5659527,-0.9408808,-1.8363049,-0.91169715,2.1064336,1.3052436,-0.9983225,1.6319796,-0.99782884,-1.8297565,-0.95683706,2.0524983,1.2440478,-0.94265646,-1.4309283,1.301244,-0.18285958,0.9844174,0.88335115,0.63254243,-0.38041806,2.5849867,-0.60830116,0.83182406,-2.7097669,-0.03648217,3.9422214,0.38849258,-0.5555029,0.77551335,0.69823915,0.08209461,0.077919535,0.70686,-1.2739524,-0.3243001,0.9789927,1.0,0.0,0.0,0.0,0.0,0.0,0.0,-3.2349868,0.20830116,-0.28182405,1.2734652,4.088402,-8.749801,-0.5855441,1.1602402,-3.4166574,-1.5077293
11.426328,67.62405,20.38421,6.93044,-0.34017935,0.9403219,0.02117668,-0.797207,0.71606565,-0.08604002,0.52435225,0.63513273,0.6797769,-0.5958503,1.5522588,-0.92622226,-1.8383605,-0.90440184,2.1160116,1.3120254,-1.0022415,1.6177355,-0.98470914,-1.8318279,-0.94714105,2.0614133,1.2501704,-0.94653124,-1.4228611,1.315235,-0.21401851,0.963836,0.89397633,0.60530597,-0.39087567,2.557909,-0.60866547,0.87048024,-2.7070577,-0.036445696,3.840094,0.37583542,-0.55848026,0.7852434,0.70803535,0.0737048,0.07634875,0.6981579,-1.2652719,-0.27357426,0.970113,1.0,0.0,0.0,0.0,0.0,0.0,0.0,-3.207909,0.20866546,-0.32048023,0.6450176,1.3254881,-2.726224,-2.3314,1.0392189,-2.737379,-1.3504505
11.348753,65.12021,19.844542,6.659926,-0.24770248,0.9348216,0.101201355,-0.79718,0.724344,-0.1032152,0.5083135,0.6392306,0.6853776,-0.59115577,1.5380175,-0.9122747,-1.8421494,-0.89630973,2.1253364,1.3187081,-1.0056468,1.6035258,-0.97155416,-1.834008,-0.93772256,2.0704198,1.2560622,-0.95049375,-1.4208306,1.3153907,-0.21793148,0.9336476,0.9028563,0.5838048,-0.39909607,2.530858,-0.60902977,0.9081159,-2.7043512,-0.03640926,3.7380688,0.3632555,-0.5609617,0.7948646,0.71756065,0.065409005,0.07491879,0.6893588,-1.2571694,-0.22411151,0.9586521,1.0,0.0,0.0,0.0,0.0,0.0,0.0,-3.1808581,0.20902976,-0.3581159,0.03681183,-0.049567223,0.024041533,-3.2937646,0.8567929,-2.148819,-1.1294007
14.181,65.70014,20.509571,5.414327,-0.32504016,0.94582903,0.21292911,-0.793983,0.7282587,-0.085832365,0.4725417,0.64927775,0.6831601,-0.5876277,1.5241275,-0.8987283,-1.8425912,-0.8904684,2.1353476,1.3243781,-1.0092565,1.5893255,-0.9584335,-1.8360221,-0.9287313,2.0795217,1.2617689,-0.95452493,-1.4203058,1.3107457,-0.19445556,0.8867802,0.9125373,0.5664083,-0.4055484,2.5038357,-0.6093941,0.9447321,-2.7016473,-0.036372855,3.6361456,0.35078526,-0.5629091,0.8043744,0.726728,0.057175376,0.07353862,0.68058026,-1.2448487,-0.16950902,0.94749403,1.0,0.0,0.0,0.0,0.0,0.0,0.0,-3.1538358,0.20939407,-0.39473212,-0.12369156,-0.5233288,2.79966,-4.9646735,0.9247422,-1.7093539,-0.96178055
19.209587,69.44925,22.30732,3.4869123,-0.55659056,0.99192816,0.34877825,-0.7910717,0.7378247,-0.048597503,0.41859114,0.65984726,0.6826172,-0.58063644,1.5102184,-0.88465106,-1.840882,-0.88687223,2.1455064,1.3300307,-1.0125886,1.5751349,-0.94532335,-1.8375957,-0.9203876,2.0887341,1.2673289,-0.9586076,-1.4193115,1.3108873,-0.14345366,0.8158917,0.9237563,0.55258477,-0.41022804,2.47684,-0.6097584,0.9803299,-2.6989462,-0.03633649,3.5343244,0.3384943,-0.56422424,0.81379867,0.73542815,0.048964564,0.072156206,0.6719683,-1.2242779,-0.10397128,0.93952286,1.0,0.0,0.0,0.0,0.0,0.0,0.0,-3.12684,0.20975837,-0.43032986,-0.09160042,-0.04041195,5.597308,-7.368517,1.0661602,-1.3127446,-0.7972717
23.6646,71.19382,22.899508,1.2823124,-0.8568659,0.88247585,0.43710828,-0.7873959,0.7484822,-0.03506327,0.35651138,0.6689554,0.68439466,-0.5734593,1.4963952,-0.8704751,-1.841102,-0.8847365,2.1556296,1.3357683,-1.0159535,1.560969,-0.93215215,-1.8386409,-0.9129318,2.098065,1.2727724,-0.9627237,-1.4163817,1.3190311,-0.08989781,0.72115034,0.9360916,0.54215,-0.41320026,2.449871,-0.6101208,1.0149101,-2.6962478,-0.03630016,3.432605,0.32648945,-0.5648279,0.8231274,0.74357754,0.040786576,0.070797436,0.66363895,-1.1924703,-0.031246008,0.9291483,1.0,0.0,0.0,0.0,0.0,0.0,0.0,-3.0998712,0.21012077,-0.4649101,0.0991106,0.77364445,5.8433,-9.754825,1.1926293,-0.9119749,-0.6194055
25.209887,71.14254,22.428537,0.545187,-1.0250647,0.71453947,0.436949,-0.78282475,0.75970364,-0.034354206,0.31058905,0.67099655,0.6834492,-0.558523,1.4826865,-0.8561818,-1.8420763,-0.8818729,2.1651645,1.3411174,-1.018576,1.5468527,-0.9188436,-1.8392646,-0.90646875,2.1075063,1.2781283,-0.9668521,-1.4108038,1.3347242,-0.051896553,0.6204733,0.9464947,0.53409886,-0.41376346,2.4229288,-0.61048317,1.048474,-2.693552,-0.03626387,3.3309875,0.3148508,-0.5646982,0.8323336,0.75116533,0.03267465,0.06953418,0.65562797,-1.1531808,0.041232575,0.9157683,1.0,0.0,0.0,0.0,0.0,0.0,0.0,-3.072929,0.21048316,-0.49847394,0.37629604,1.5454054,4.2304835,-10.33864,1.0347486,-0.63164234,-0.35357475
28.158794,69.38345,21.548597,-1.5596423,-1.2909406,0.4569065,0.47819245,-0.776506,0.7687212,-0.026826514,0.23175123,0.6753922,0.68789357,-0.5453203,1.4692022,-0.8419715,-1.8419473,-0.8832936,2.1750455,1.3469176,-1.0213841,1.5328146,-0.9053501,-1.8396156,-0.9011482,2.1170392,1.2834231,-0.970972,-1.402013,1.3541589,-0.028286953,0.50161517,0.955701,0.5288115,-0.41233006,2.3960133,-0.61084557,1.0810224,-2.690859,-0.036227614,3.2294714,0.3036871,-0.5638361,0.84135115,0.75817734,0.024699101,0.068452425,0.64797467,-1.102325,0.113749295,0.8947534,1.0,0.0,0.0,0.0,0.0,0.0,0.0,-3.0460134,0.21084556,-0.53102237,0.7106066,1.9437551,2.7310505,-12.155497,0.9508133,-0.2865076,-0.12734532
34.263016,67.040855,21.002,-6.1931114,-1.7442954,0.13943326,0.63787514,-0.7755622,0.7756599,0.0075077387,0.09634236,0.6856562,0.6809569,-0.5434193,1.4552584,-0.8277841,-1.8388648,-0.89151394,2.1856048,1.3515188,-1.025314,1.5188566,-0.89166486,-1.8396823,-0.8973907,2.1266713,1.2886759,-0.97507375,-1.3942796,1.3734379,0.0016233907,0.33286065,0.9661681,0.5251957,-0.4103214,2.3691244,-0.61120796,1.1125565,-2.6881688,-0.036191393,3.1280568,0.29316425,-0.56221104,0.850066,0.7645163,0.016981922,0.06760401,0.6408246,-1.0325844,0.19074582,0.861176,1.0,0.0,0.0,0.0,0.0,0.0,0.0,-3.0191245,0.21120796,-0.56255645,0.61359406,1.9596815,3.3206444,-17.146927,1.1021018,-0.006186962,-0.042301416
41.869156,64.40824,20.80936,-11.661231,-2.2271862,-0.1957506,0.8532719,-0.7708267,0.7769072,0.06160695,-0.056712113,0.689557,0.6692403,-0.5372383,1.441774,-0.81397414,-1.8335216,-0.9030619,2.195627,1.3555999,-1.0287976,1.5049807,-0.87782705,-1.8392723,-0.89573705,2.1364026,1.2938963,-0.97915167,-1.3860506,1.3873913,0.055119276,0.10863836,0.9760152,0.5225259,-0.40751144,2.3422623,-0.61157036,1.1430771,-2.685481,-0.03615521,3.0267437,0.28349876,-0.55976963,0.85835063,0.77003276,0.009655751,0.06699525,0.63440347,-0.9413366,0.27247298,0.8146059,1.0,0.0,0.0,0.0,0.0,0.0,0.0,-2.9922624,0.21157035,-0.5930771,0.6902456,1.4642715,5.6111617,-22.674053,1.0785341,0.21383762,0.07656813
47.518654,64.34528,21.456268,-15.157545,-2.540638,-0.39530256,1.0237099,-0.7672368,0.78556603,0.12535569,-0.20559874,0.69653904,0.66029835,-0.5266544,1.428257,-0.79927045,-1.8267367,-0.9162969,2.2060566,1.3599261,-1.0318171,1.4911829,-0.8638586,-1.8381088,-0.8966106,2.146237,1.2990919,-0.9831924,-1.3779297,1.4003742,0.13741195,-0.15337135,0.98652005,0.5203639,-0.4034556,2.3154268,-0.61193085,1.1725855,-2.6827962,-0.036119062,2.9255316,0.27485085,-0.5564747,0.86613244,0.7746023,0.002801403,0.06659864,0.62892604,-0.83505434,0.35789552,0.7626777,1.0,0.0,0.0,0.0,0.0,0.0,0.0,-2.965427,0.21193084,-0.6225855,0.7243395,1.39997,8.381303,-26.397919,1.2088418,0.34468174,0.2562225
46.47356,67.396126,23.0534,-12.516161,-2.2385273,-0.26227254,1.0330472,-0.75701046,0.7894913,0.21352445,-0.2740469,0.69759256,0.6523089,-0.48253137,1.4154819,-0.7849094,-1.8167564,-0.9240153,2.2159963,1.3643228,-1.0314455,1.4774958,-0.84978044,-1.8358428,-0.8998693,2.1561627,1.3042608,-0.9871606,-1.3657231,1.4107083,0.25644958,-0.38375884,0.99581313,0.51767224,-0.39495593,2.288618,-0.61229134,1.2010825,-2.680114,-0.03608295,2.824421,0.26720524,-0.55233574,0.8734975,0.77821356,-0.0036738354,0.066301875,0.624479,-0.7357513,0.44020626,0.7239076,1.0,0.0,0.0,0.0,0.0,0.0,0.0,-2.9386182,0.21229133,-0.65108246,1.1889219,1.1589766,11.889413,-23.160046,1.2027502,0.27160645,0.7500589
41.726616,72.55396,25.130564,-6.276489,-1.642842,0.06060126,0.9158884,-0.73812306,0.79629797,0.3024377,-0.29557896,0.69428706,0.6468813,-0.43748936,1.4036834,-0.77015066,-1.8055991,-0.9294272,2.2255914,1.3689489,-1.0309095,1.4640013,-0.83560026,-1.832175,-0.9048666,2.166161,1.3093992,-0.99101347,-1.3439866,1.42093,0.40289792,-0.5385543,1.0022477,0.5142113,-0.38229215,2.261838,-0.6126518,1.228569,-2.6774344,-0.036046874,2.7234113,0.2604046,-0.5474005,0.8806576,0.7809602,-0.0100071635,0.06595271,0.6210081,-0.6556784,0.51755124,0.70882803,1.0,0.0,0.0,0.0,0.0,0.0,0.0,-2.911838,0.21265182,-0.678569,2.1878004,1.1682749,14.452571,-15.542376,1.0527372,0.1360774,1.1973083
36.603146,76.58929,26.884771,-0.16926575,-1.0395668,0.3833983,0.8109962,-0.7202212,0.79764336,0.40777194,-0.31264672,0.6953618,0.63272995,-0.37125048,1.3919792,-0.7558359,-1.7913978,-0.93613124,2.2356973,1.3726722,-1.0281385,1.4507815,-0.821339,-1.8268459,-0.9108633,2.1762128,1.3144938,-0.9946975,-1.3146023,1.4283266,0.57516944,-0.62014675,1.0076671,0.50924134,-0.36399072,2.2350845,-0.6130123,1.2550462,-2.6747577,-0.036010835,2.6225026,0.25424957,-0.5417166,0.8878336,0.7829427,-0.016453214,0.0653981,0.61842793,-0.59585226,0.5905847,0.7153398,1.0,0.0,0.0,0.0,0.0,0.0,0.0,-2.8850846,0.21301231,-0.70504624,2.9853582,0.90272427,16.89384,-8.183885,1.0643005,-0.06197691,1.7750084
22.278467,75.07549,25.38964,9.666916,-0.06500077,0.6826373,0.4888097,-0.7231498,0.80006903,0.45432797,-0.25666434,0.69282657,0.6331751,-0.2975716,1.3784665,-0.7413321,-1.7814131,-0.9365297,2.2454956,1.3778113,-1.0244547,1.4377905,-0.8070196,-1.8199451,-0.9169582,2.186295,1.3195349,-0.9981565,-1.2940152,1.4337192,0.727047,-0.60609853,1.0103705,0.5035615,-0.34006804,2.2083578,-0.6133728,1.2805152,-2.6720834,-0.03597483,2.521695,0.24841881,-0.53543854,0.8952094,0.7843864,-0.023226114,0.06456079,0.61646605,-0.5720631,0.64540374,0.73936856,1.0,0.0,0.0,0.0,0.0,0.0,0.0,-2.858358,0.2133728,-0.7305152,2.0830154,0.70705414,14.813805,1.359868,0.8268833,-0.25078058,2.3335516
11.86985,69.20249,22.359625,15.086756,0.5105301,0.68394923,0.24528474,-0.72442555,0.7986233,0.48735732,-0.23364285,0.6993327,0.62605226,-0.27037674,1.365348,-0.72715724,-1.7712094,-0.9403225,2.2562282,1.3821402,-1.0251942,1.4249254,-0.7926744,-1.8118045,-0.9225439,2.1964116,1.324515,-1.0013742,-1.284141,1.4353348,0.8417496,-0.54301465,1.013778,0.49698502,-0.31588566,2.1816578,-0.61373234,1.3049768,-2.669412,-0.035938863,2.4209878,0.24266338,-0.5287399,0.9028374,0.78550977,-0.030391585,0.06344763,0.61483747,-0.56956726,0.68310446,0.76459414,1.0,0.0,0.0,0.0,0.0,0.0,0.0,-2.831658,0.21373233,-0.7549768,0.9814501,0.3252983,11.130535,6.2299967,0.8581877,-0.4192114,2.3554385
-5.5494127,62.262886,18.363668,25.599125,1.5899242,0.88309693,-0.17932263,-0.73309314,0.79319805,0.4908036,-0.077553615,0.68632704,0.63352865,-0.19091378,1.3516161,-0.7133546,-1.7627242,-0.9302992,2.2650442,1.3878678,-1.0204656,1.4120547,-0.77835405,-1.8029125,-0.9267458,2.2065167,1.329434,-1.0043154,-1.2883571,1.4315578,0.90395164,-0.37969798,1.0109178,0.49042487,-0.28713426,2.1549845,-0.6140909,1.3284321,-2.666743,-0.035902932,2.3203816,0.23662949,-0.5218611,0.9108022,0.7866206,-0.038062993,0.06208003,0.6131274,-0.60762286,0.69493335,0.8008127,1.0,0.0,0.0,0.0,0.0,0.0,0.0,-2.8049846,0.21409091,-0.7784321,-0.49374104,-0.21088123,5.9169173,16.177303,0.21107197,-0.56428313,2.7923882
-16.803566,55.921486,14.899424,31.233913,2.1511023,0.9401335,-0.45978653,-0.7570344,0.7944229,0.4885883,0.01619447,0.6836415,0.6417749,-0.1869414,1.3363512,-0.6989118,-1.7540536,-0.9251263,2.274881,1.3936116,-1.0230095,1.3989931,-0.7640718,-1.7937324,-0.92901075,2.216576,1.334294,-1.0069914,-1.3124837,1.4275575,0.9219697,-0.17600259,1.0056332,0.48449513,-0.26131788,2.1283379,-0.6144495,1.350882,-2.6640768,-0.035867035,2.219876,0.23003578,-0.51498127,0.9191319,0.7879723,-0.046286937,0.060516667,0.61097854,-0.66894495,0.6915532,0.8372473,1.0,0.0,0.0,0.0,0.0,0.0,0.0,-2.778338,0.2144495,-0.80088204,-2.5386095,-0.24216175,1.5581369,20.176823,-0.070142746,-0.6043911,2.500981
-27.79938,50.509544,12.101399,37.964813,2.8393579,1.1046708,-0.74585325,-0.77666366,0.7861964,0.47469547,0.19247653,0.6725705,0.6506435,-0.15743797,1.3213267,-0.68545216,-1.7462629,-0.9097631,2.2838333,1.3993583,-1.0227352,1.3855997,-0.7498621,-1.7846344,-0.92877614,2.2265515,1.3391024,-1.0094156,-1.3489743,1.419231,0.9050369,0.08920019,0.9962762,0.4790777,-0.23635049,2.101718,-0.6148081,1.3723277,-2.6614134,-0.035831176,2.1194708,0.22262573,-0.5082474,0.9278731,0.78978187,-0.05514605,0.05877969,0.6080695,-0.7576997,0.67431724,0.87982345,1.0,0.0,0.0,0.0,0.0,0.0,0.0,-2.751718,0.21480808,-0.8223277,-3.80435,-0.6801367,-1.9336104,26.304823,-0.47444105,-0.6742537,2.417785
-25.786491,45.759857,10.232429,35.09131,2.5322618,0.84615237,-0.75968826,-0.78539,0.78398114,0.43795902,0.25938046,0.6728375,0.6570325,-0.21564607,1.3070607,-0.67146397,-1.7408384,-0.9028381,2.2938352,1.4048057,-1.0309802,1.3718516,-0.7357372,-1.7759521,-0.9260839,2.236443,1.343865,-1.0116606,-1.3840708,1.4105955,0.8554408,0.32863227,0.9877748,0.47506812,-0.22069643,2.0751238,-0.61516666,1.39277,-2.6587524,-0.035795353,2.019166,0.21440029,-0.5016861,0.93693465,0.7921028,-0.06456064,0.05694966,0.6042862,-0.8367417,0.6575026,0.9082791,1.0,0.0,0.0,0.0,0.0,0.0,0.0,-2.725124,0.21516666,-0.84277004,-3.6472082,-0.7370472,-5.163002,23.74958,-0.44299364,-0.53711534,1.4992893
-16.041286,42.712227,9.520715,26.73489,1.6751235,0.38076097,-0.5707374,-0.7895288,0.78132826,0.4049792,0.2765778,0.67575717,0.65818673,-0.26957315,1.2928987,-0.6576044,-1.7354542,-0.8984261,2.3040187,1.4096837,-1.0386178,1.3578192,-0.72169435,-1.7678936,-0.92157114,2.2462697,1.3485991,-1.0138159,-1.409896,1.4025049,0.78891814,0.49152625,0.98194075,0.4727602,-0.21387552,2.0485554,-0.6155243,1.4122101,-2.6560943,-0.035759564,1.9189613,0.20561886,-0.4952383,0.9461075,0.7948181,-0.07430665,0.0551504,0.59975076,-0.8843419,0.64928573,0.9135687,1.0,0.0,0.0,0.0,0.0,0.0,0.0,-2.6985555,0.21552429,-0.8622101,-2.6954412,-0.7158041,-6.775105,16.116745,-0.26249886,-0.2785802,0.61531067
-2.2231188,43.1743,10.31781,15.691677,0.5085156,-0.12643541,-0.23682505,-0.7982454,0.78605944,0.38784382,0.23759857,0.6815394,0.6542552,-0.28793883,1.2779946,-0.6430884,-1.7291092,-0.8978113,2.3144236,1.4140246,-1.0426098,1.3435827,-0.70768964,-1.7604644,-0.91625726,2.2560658,1.3533198,-1.015933,-1.4287086,1.4000032,0.72760093,0.54415077,0.9797144,0.47217155,-0.21149102,2.0220137,-0.61588097,1.4306488,-2.6534388,-0.035723813,1.8188567,0.19668674,-0.48876476,0.955148,0.7976905,-0.08409356,0.053519785,0.59477186,-0.888623,0.65617335,0.8942942,1.0,0.0,0.0,0.0,0.0,0.0,0.0,-2.6720138,0.21588096,-0.8806488,-1.9894838,-0.19061565,-6.1195254,5.1015377,-0.008392334,0.041532516,0.15612543
9.700672,46.71345,12.518877,7.8565474,-0.33648688,-0.41721022,0.074967146,-0.7927154,0.7848734,0.3996041,0.22711845,0.67648965,0.64950943,-0.26353598,1.2643112,-0.6292023,-1.720504,-0.8935454,2.3237147,1.4182707,-1.0422866,1.3292586,-0.6936945,-1.7534244,-0.91094244,2.2658353,1.3580405,-1.0180216,-1.4339076,1.3994155,0.69648623,0.5267528,0.9764476,0.47255522,-0.20816179,1.9954987,-0.61623764,1.4480873,-2.650786,-0.035688095,1.7188523,0.1879549,-0.48211384,0.96391475,0.80047524,-0.09374974,0.052115455,0.5896899,-0.8602229,0.6774776,0.86430633,1.0,0.0,0.0,0.0,0.0,0.0,0.0,-2.6454988,0.21623763,-0.8980873,-0.606966,-0.020480156,-2.9980183,-1.8756986,-0.19710064,0.24346709,0.22424161
19.390337,47.050514,13.140897,-0.18717766,-1.1238632,-0.8294991,0.3498334,-0.8006832,0.78458154,0.39559028,0.13800634,0.68280184,0.6455459,-0.2749972,1.2491902,-0.61523634,-1.7138654,-0.8971418,2.3341155,1.422595,-1.0455213,1.3148981,-0.67969835,-1.7465446,-0.90642965,2.2755933,1.3627688,-1.0200872,-1.436854,1.399889,0.68569475,0.4257445,0.97584873,0.47397685,-0.20655003,1.9690104,-0.6165943,1.4645265,-2.6481357,-0.035652414,1.6189477,0.17974567,-0.47520256,0.97225624,0.8029665,-0.10307434,0.050989117,0.58482534,-0.79962605,0.70532304,0.8177748,1.0,0.0,0.0,0.0,0.0,0.0,0.0,-2.6190104,0.21659431,-0.9145265,-0.37276745,0.07669926,-0.8861065,-10.224485,-0.0021457672,0.47160983,0.050252676
28.548843,46.311924,13.223766,-8.260585,-1.8909277,-1.3183085,0.61628264,-0.79937893,0.7847474,0.3950834,0.007913834,0.6831481,0.64417386,-0.24811417,1.2349602,-0.6012236,-1.7070363,-0.9056383,2.343908,1.4271861,-1.0448986,1.3005415,-0.66569364,-1.7396724,-0.90353525,2.2853513,1.3675162,-1.0221205,-1.4355717,1.4008085,0.68848276,0.24368572,0.9755843,0.47649887,-0.20251556,1.9425488,-0.616951,1.4799674,-2.645488,-0.03561677,1.5191431,0.17238808,-0.46798706,0.9800016,0.80499053,-0.111829124,0.050215296,0.58048505,-0.7060917,0.735108,0.7539794,1.0,0.0,0.0,0.0,0.0,0.0,0.0,-2.5925488,0.21695098,-0.92996734,0.08420944,0.12230873,0.4993081,-18.30092,-0.024175644,0.70424676,0.31091273
34.245674,46.052273,13.505466,-13.141189,-2.3046007,-1.64783,0.81780416,-0.7970094,0.7820286,0.42094234,-0.115986854,0.68663317,0.6389503,-0.18695337,1.2208406,-0.5874908,-1.6975782,-0.91513395,2.3540146,1.4314111,-1.0408158,1.2862211,-0.65169275,-1.7326114,-0.9028295,2.295117,1.3722883,-1.0240698,-1.430967,1.4000893,0.7126234,0.012797502,0.9768989,0.4789904,-0.19245182,1.9161139,-0.61730766,1.494411,-2.6428432,-0.03558116,1.4194382,0.1661129,-0.46047306,0.9870436,0.8064163,-0.1198484,0.049819566,0.576929,-0.59250265,0.76392394,0.6816422,1.0,0.0,0.0,0.0,0.0,0.0,0.0,-2.566114,0.21730766,-0.944411,0.47330856,-0.03194809,2.5928378,-23.13101,0.120043755,0.75911283,0.945434
30.709892,48.174202,14.484517,-8.590849,-1.8367875,-1.4622289,0.79991657,-0.79012364,0.7822188,0.45272818,-0.12526296,0.6876269,0.6286035,0.013701512,1.2072088,-0.5734709,-1.6873386,-0.9153558,2.3638797,1.4351487,-1.0226996,1.271979,-0.63769853,-1.7251632,-0.9040493,2.3049054,1.377072,-1.0257692,-1.4218138,1.3994279,0.75559956,-0.16686086,0.9794947,0.4794125,-0.16266347,1.8897057,-0.61766243,1.5078583,-2.6402009,-0.035545588,1.319833,0.16084957,-0.45267296,0.9934855,0.8072215,-0.12723482,0.049719006,0.57422364,-0.49509132,0.7906751,0.6256665,1.0,0.0,0.0,0.0,0.0,0.0,0.0,-2.5397058,0.21766242,-0.95785826,0.96547604,-0.0020503998,4.346895,-17.970766,0.33669472,0.47291517,2.939874
18.482977,46.4325,13.862808,3.0408869,-0.6400638,-0.9774591,0.530445,-0.7808745,0.7697041,0.45962054,-0.041520923,0.6707231,0.63500595,0.24433072,1.1938915,-0.56072813,-1.6792011,-0.9082014,2.3719778,1.4405726,-1.0013362,1.2578608,-0.62376726,-1.7173107,-0.90610063,2.314671,1.3818537,-1.027009,-1.4084034,1.3913991,0.79495174,-0.21804152,0.9764733,0.47868246,-0.11120438,1.8633242,-0.6180172,1.5203103,-2.6375613,-0.03551005,1.2203275,0.15621471,-0.4446659,0.99958044,0.80754113,-0.13432156,0.049768813,0.5721521,-0.44351813,0.80837387,0.5980511,1.0,0.0,0.0,0.0,0.0,0.0,0.0,-2.5133243,0.21801719,-0.9703103,1.3652563,-0.70667267,3.852713,-5.170378,-0.08881092,0.21126866,5.0955667
4.807806,43.296745,12.404696,15.112347,0.53971237,-0.47641057,0.1544455,-0.78438777,0.76353824,0.4491958,0.04853964,0.6568232,0.6405331,0.3336774,1.179422,-0.5474134,-1.672391,-0.90124667,2.3803535,1.445907,-0.99364126,1.243836,-0.60994184,-1.7092178,-0.90774,2.3243642,1.386624,-1.0276937,-1.4007348,1.3799839,0.8137106,-0.1463728,0.9682975,0.47694546,-0.05459532,1.8369675,-0.61837196,1.531768,-2.6349242,-0.035474546,1.1209214,0.15173912,-0.4365387,1.0055935,0.8076059,-0.14147167,0.04984945,0.5703274,-0.43982238,0.817485,0.5962536,1.0,0.0,0.0,0.0,0.0,0.0,0.0,-2.4869676,0.21837196,-0.98176795,0.7100105,-1.0220289,1.7411828,7.031226,-0.4993081,-0.029999018,5.588798
-4.4534407,39.165897,10.904497,23.571575,1.4009626,-0.15563244,-0.13581604,-0.76987976,0.7473997,0.43909785,0.15413664,0.64133847,0.63823724,0.37359834,1.1668481,-0.53520185,-1.665308,-0.89232635,2.388498,1.4504477,-0.9903339,1.2299219,-0.59628904,-1.7010906,-0.90795267,2.333939,1.3913714,-1.027833,-1.3887315,1.3608063,0.81162554,0.019834261,0.95516235,0.4739881,-0.0006676592,1.8106375,-0.61872673,1.5422324,-2.63229,-0.035439078,1.0216147,0.14704323,-0.4283743,1.0117191,0.8076188,-0.14897095,0.04986223,0.56839526,-0.4703245,0.81951475,0.61179584,1.0,0.0,0.0,0.0,0.0,0.0,0.0,-2.4606376,0.21872672,-0.9922324,1.1042595,-1.7862082,-0.38115978,16.428734,-0.9359598,-0.2532184,5.299072
-5.455262,35.75902,9.371469,23.055298,1.3133649,-0.27976492,-0.20777923,-0.7731991,0.7442846,0.4135659,0.15973294,0.6258818,0.63743395,0.35997435,1.1526021,-0.5218606,-1.659734,-0.8919794,2.3965273,1.4551147,-0.99183553,1.2160879,-0.5828155,-1.6931674,-0.9065851,2.34335,1.3960882,-1.0275011,-1.3821458,1.3432578,0.78554684,0.17516106,0.9375225,0.47099072,0.04423324,1.7843342,-0.6190815,1.5517045,-2.629658,-0.035403647,0.92240727,0.14205647,-0.4202137,1.0179561,0.80767536,-0.15682639,0.04985602,0.566198,-0.4988905,0.8186605,0.6214739,1.0,0.0,0.0,0.0,0.0,0.0,0.0,-2.4343343,0.21908149,-1.0017045,0.55561066,-1.6362667,-2.7432203,15.345557,-1.4219046,-0.2677679,4.40554
2.152361,33.741524,8.478676,14.181037,0.4167279,-0.8082069,-0.012335122,-0.7703571,0.73930454,0.39940566,0.08507779,0.6030421,0.6385086,0.3620183,1.1390523,-0.5088851,-1.6532269,-0.8980773,2.403654,1.4599391,-0.9912993,1.2023054,-0.56949747,-1.6855743,-0.9043859,2.3525357,1.4007841,-1.0267744,-1.3772638,1.3283595,0.7502257,0.23433875,0.91295457,0.46939927,0.0818979,1.7580576,-0.6194353,1.5601853,-2.627029,-0.03536825,0.82329905,0.13705158,-0.4120655,1.0241086,0.80771774,-0.16476734,0.049998205,0.56386524,-0.4918501,0.8173414,0.60710067,1.0,0.0,0.0,0.0,0.0,0.0,0.0,-2.4080577,0.2194353,-1.0101852,0.42479038,-1.3990879,-3.5871148,5.775791,-2.225709,-0.028163195,3.6993504
11.47304,32.140045,7.836236,3.6262941,-0.5739512,-1.4399911,0.2581653,-0.7638737,0.73091495,0.3875463,-0.005561564,0.5877197,0.6337743,0.38024276,1.125918,-0.49640596,-1.6468197,-0.9049421,2.4113078,1.4641615,-0.9887501,1.1885821,-0.55632055,-1.678334,-0.9024328,2.3614583,1.4054705,-1.0257063,-1.3705733,1.3142624,0.71535367,0.18204023,0.88566285,0.46904296,0.114945844,1.7318077,-0.61978817,1.5676757,-2.6244023,-0.03533289,0.7242899,0.13243198,-0.4039545,1.0299197,0.8076189,-0.17241777,0.050461296,0.5616738,-0.44290426,0.8130826,0.5665469,1.0,0.0,0.0,0.0,0.0,0.0,0.0,-2.3818078,0.21978816,-1.0176756,0.66182613,-1.341939,-3.4709573,-5.3233595,-2.6178122,0.22360682,3.253746
20.381607,32.40461,8.426721,-5.109015,-1.2895998,-1.9224195,0.57208866,-0.7453729,0.7135382,0.4151199,-0.09869523,0.58469284,0.63033795,0.44239315,1.1140448,-0.48496673,-1.636822,-0.9123023,2.4199276,1.4685043,-0.98146695,1.1750056,-0.5433258,-1.6712253,-0.90165365,2.3701444,1.4101568,-1.0243025,-1.3532016,1.2946284,0.70937765,0.043096654,0.862561,0.46958807,0.14874701,1.7055826,-0.620141,1.5741767,-2.6217785,-0.03529756,0.62537974,0.12855434,-0.39589405,1.0351938,0.8071979,-0.17948523,0.051285043,0.5599879,-0.36028564,0.80699354,0.50856435,1.0,0.0,0.0,0.0,0.0,0.0,0.0,-2.3555827,0.22014102,-1.0241766,1.8217802,-1.9071579,-0.5704999,-13.921157,-2.28976,0.40771365,3.339541
20.091301,29.887756,7.7724113,-5.406586,-1.1652672,-2.0372968,0.58883244,-0.73528796,0.69532764,0.40895557,-0.11681313,0.581551,0.62708426,0.46562585,1.1014768,-0.47379303,-1.6303297,-0.91333497,2.4282994,1.4728652,-0.9777399,1.161635,-0.5305761,-1.6641147,-0.902284,2.3786397,1.414847,-1.0225801,-1.3312144,1.2686234,0.71135956,-0.0984036,0.84560806,0.46980786,0.18012574,1.6793842,-0.6204939,1.5796894,-2.619157,-0.03526227,0.5265685,0.12549782,-0.38793564,1.0398836,0.80640835,-0.18588808,0.052412372,0.5589311,-0.27864113,0.7942511,0.45035833,1.0,0.0,0.0,0.0,0.0,0.0,0.0,-2.3293843,0.22049388,-1.0296893,2.3210764,-2.5370598,0.17145872,-14.161976,-1.671493,0.35976768,3.1083763
19.150854,26.285654,6.8625193,-5.07796,-0.9411534,-2.1299798,0.5880271,-0.71253496,0.668258,0.4132253,-0.17030536,0.57444614,0.6179848,0.49023238,1.0903815,-0.4637503,-1.6227922,-0.91931456,2.4360843,1.4766455,-0.97355694,1.1485544,-0.518165,-1.6569355,-0.9042705,2.3869977,1.4195296,-1.0205584,-1.2997044,1.2321413,0.71994805,-0.23217934,0.8325231,0.46892178,0.20924786,1.6532125,-0.62084675,1.5842147,-2.6165385,-0.035227016,0.4278561,0.12322807,-0.38015842,1.0439957,0.80525243,-0.19162177,0.053739972,0.55853516,-0.20126222,0.77386373,0.39299044,1.0,0.0,0.0,0.0,0.0,0.0,0.0,-2.3032126,0.22084674,-1.0342147,3.3171892,-3.5780907,0.76568127,-13.383448,-1.2758136,0.22739768,2.8886616
15.472539,23.91277,6.129424,-1.7354202,-0.56822985,-2.034902,0.48071548,-0.6977452,0.6493499,0.40937266,-0.19671644,0.5543943,0.6172624,0.5099762,1.0787799,-0.45323,-1.6159981,-0.92394215,2.4424372,1.4812558,-0.96956074,1.1358057,-0.506143,-1.6496894,-0.9073509,2.395207,1.4242007,-1.0182657,-1.2662748,1.1925031,0.7256571,-0.33333522,0.81711775,0.46742502,0.23581684,1.6270676,-0.6211996,1.5877535,-2.6139224,-0.035191797,0.32924238,0.121629715,-0.37260437,1.04759,0.80378455,-0.19676335,0.05520118,0.5587193,-0.1380151,0.750029,0.3433184,1.0,0.0,0.0,0.0,0.0,0.0,0.0,-2.2770677,0.2211996,-1.0377536,3.497243,-3.8854122,0.4377842,-10.142899,-1.4714122,0.11564493,2.6340187
10.338047,19.395218,4.4384146,2.3490486,-0.1442306,-1.9415905,0.30316317,-0.68031806,0.6237507,0.38321453,-0.20724215,0.51783144,0.61541426,0.5136844,1.0677739,-0.4437679,-1.611368,-0.92807513,2.44699,1.4857421,-0.9668973,1.1233927,-0.4945482,-1.6425273,-0.91113794,2.4031796,1.4288546,-1.0157385,-1.2324637,1.1487728,0.7125064,-0.39405927,0.7912062,0.4653654,0.25841886,1.6009474,-0.62155056,1.590307,-2.611309,-0.03515661,0.23072726,0.12053871,-0.36532688,1.0507395,0.80212146,-0.20141126,0.056786243,0.5592941,-0.09179794,0.7203674,0.3007723,1.0,0.0,0.0,0.0,0.0,0.0,0.0,-2.2509475,0.22155055,-1.040307,3.4986734,-4.2888403,-1.4584064,-6.1456738,-2.4941683,0.008970499,2.2288709
7.5166545,10.93539,1.3522038,1.98107,0.03485763,-2.1401908,0.23332575,-0.6668915,0.5803281,0.36025682,-0.2836957,0.48378924,0.601587,0.5155882,1.0567036,-0.4365154,-1.6065017,-0.9395075,2.4515586,1.4890133,-0.96417964,1.1112944,-0.48349273,-1.6356208,-0.915604,2.4108205,1.433478,-1.013011,-1.2018441,1.0914143,0.6828512,-0.46451214,0.75546086,0.4619087,0.27730548,1.5748539,-0.6219015,1.5918761,-2.6086981,-0.03512146,0.13231063,0.11989117,-0.35844898,1.0534102,0.80035716,-0.20550786,0.05851174,0.56015295,-0.048807215,0.6762703,0.25142652,1.0,0.0,0.0,0.0,0.0,0.0,0.0,-2.224854,0.2219015,-1.0418761,3.1825066,-5.662465,-3.0904531,-7.1420074,-3.515792,-0.14975667,1.849854
6.6055317,1.3297691,-2.0319154,-0.76952505,0.038369745,-2.4730504,0.23647681,-0.639721,0.523895,0.3340827,-0.3692121,0.41880506,0.59442586,0.528926,1.0473223,-0.43110323,-1.6022125,-0.9525252,2.452701,1.4929206,-0.96011835,1.0995451,-0.47316396,-1.629113,-0.92099035,2.4179578,1.4380614,-1.0101099,-1.1654445,1.0135477,0.63975877,-0.56367195,0.6996844,0.4578601,0.29408514,1.5487871,-0.62225246,1.5924618,-2.60609,-0.035086345,0.033992402,0.11971474,-0.3521433,1.0554907,0.7985457,-0.20889214,0.060417924,0.56128275,-0.00059773715,0.61491996,0.18955202,1.0,0.0,0.0,0.0,0.0,0.0,0.0,-2.1987872,0.22225246,-1.0424619,3.8149357,-7.7323675,-4.4356227,-10.012341,-5.5850625,-0.22249818,1.6266406
4.8156095,-17.957167,-7.781609,-4.6400027,0.47400478,-2.9192069,0.31751913,-0.58696187,0.39864138,0.3409297,-0.4564488,0.3482869,0.596773,0.53763753,1.040849,-0.43329984,-1.5950199,-0.9666352,2.4527864,1.4977386,-0.95634615,1.0883299,-0.46406162,-1.622937,-0.9275993,2.4243894,1.4426085,-1.0070581,-1.1058884,0.87589467,0.6094822,-0.6936996,0.6241023,0.454199,0.30846706,1.5227451,-0.6226034,1.592065,-2.6034844,-0.035051268,-0.06422753,0.120015144,-0.3466959,1.0568037,0.7966747,-0.21137223,0.062370148,0.5627976,0.045849197,0.5201602,0.108349904,1.0,0.0,0.0,0.0,0.0,0.0,0.0,-2.1727452,0.22260341,-1.0420649,6.2498093,-13.748789,-3.1947374,-13.110674,-7.6550364,-0.21378994,1.3435245
-11.598474,-94.6707,-32.53333,-9.814449,3.0038767,-4.2771373,0.14567073,-0.43341824,0.028144104,0.21135263,-0.50163674,0.22540122,0.5875744,0.54348874,1.044988,-0.4612472,-1.6018018,-0.977763,2.4469295,1.5013659,-0.95270926,1.0783488,-0.45788896,-1.6175659,-0.9354881,2.4297872,1.4471079,-1.0038881,-0.9603977,0.53064346,0.51279557,-0.82142264,0.5102705,0.4485569,0.3189698,1.4967299,-0.62295437,1.5906868,-2.6008816,-0.035016224,-0.16234925,0.120456696,-0.34320164,1.0568818,0.79489446,-0.21249335,0.06377699,0.56473154,0.04785787,0.2911055,-0.028443005,1.0,0.0,0.0,0.0,0.0,0.0,0.0,-2.14673,0.22295436,-1.0406868,15.0613785,-34.656,-9.77248,-13.047242,-11.799133,-0.5774498,0.75591207
-16.849136,-159.37236,-53.20267,-20.616682,4.1700244,-5.860396,0.12739307,-0.096199706,-0.365267,0.02999718,-0.543456,-0.2181385,0.52995336,0.48157397,1.0687288,-0.49441567,-1.6145662,-0.9898337,2.4079733,1.5001032,-0.95573074,1.0712668,-0.45669925,-1.6139133,-0.94452894,2.4328542,1.4514929,-1.0006838,-0.6221414,-0.01926355,0.3161908,-0.9325476,0.23625065,0.4338633,0.31926465,1.4707413,-0.6233034,1.588328,-2.5982811,-0.034981214,-0.26037288,0.12092304,-0.34283924,1.0551704,0.7933315,-0.21177074,0.064282104,0.56713855,0.048458572,-0.049637422,-0.22015464,1.0,0.0,0.0,0.0,0.0,0.0,0.0,-2.1207414,0.2233034,-1.0383279,34.406853,-55.292095,-19.580948,-11.394048,-28.068737,-1.867801,-0.4551649
9.136055,-141.95409,-44.21643,-33.454876,2.6521683,-6.372902,0.80574703,0.41211334,-0.58931285,-0.036706395,-0.55580336,-0.50336295,0.54565656,0.46494415,1.1124781,-0.51563054,-1.617584,-1.0001093,2.3825178,1.5060586,-0.95418936,1.0695902,-0.46129072,-1.6123073,-0.9543985,2.4325566,1.4557291,-0.9974979,-0.016597528,-0.6068674,0.11056449,-1.0058099,-0.12005971,0.41767475,0.31709257,1.4447775,-0.62365246,1.5849898,-2.5956833,-0.03494624,-0.35829848,0.12194252,-0.345706,1.0515194,0.7915422,-0.20924154,0.06373203,0.57062864,0.119932905,-0.3654043,-0.41391215,1.0,0.0,0.0,0.0,0.0,0.0,0.0,-2.0947776,0.22365245,-1.0349898,60.413635,-59.083683,-20.03057,-7.5300813,-36.009907,-2.3980975,-0.6171346
3.8884425,-125.54495,-41.40654,-22.67749,2.7678726,-5.716828,0.24831985,0.5589289,-0.7276113,-0.36464933,-0.44189677,-0.5306929,0.6372488,0.2891339,1.1254832,-0.53405184,-1.6487722,-0.9985882,2.3794873,1.519454,-0.96858454,1.0738474,-0.4711007,-1.6138008,-0.9641603,2.4291043,1.4598719,-0.9944624,0.56967044,-1.1068927,-0.23108718,-0.96656686,-0.42126644,0.40951008,0.29809448,1.4188404,-0.6240015,1.5806731,-2.5930882,-0.0349113,-0.45612618,0.123547554,-0.35152626,1.0461274,0.7896531,-0.20521326,0.06228228,0.5748533,0.17302531,-0.65243423,-0.58162856,1.0,0.0,0.0,0.0,0.0,0.0,0.0,-2.0688405,0.2240015,-1.030673,57.53026,-50.366547,-32.749874,3.81912,-30.418468,-1.8761277,-2.168548
7.6511173,-74.16861,-26.375689,-13.343639,1.5261536,-4.4968796,-0.03312282,0.6530852,-0.77221364,-0.48877558,-0.43824703,-0.5516387,0.65835005,0.1295998,1.139156,-0.5483221,-1.6626784,-1.007985,2.3739405,1.5257069,-0.9815024,1.0829798,-0.48459804,-1.6187522,-0.973287,2.4232945,1.4639708,-0.9917253,1.0234302,-1.43165,-0.5783684,-0.8945447,-0.6351255,0.40699187,0.26527783,1.3929291,-0.62435055,1.5753789,-2.5904956,-0.034876395,-0.5538561,0.12572289,-0.35955524,1.039376,0.7878845,-0.20006573,0.060360428,0.5792826,0.23471862,-0.8493643,-0.7089081,1.0,0.0,0.0,0.0,0.0,0.0,0.0,-2.0429292,0.22435054,-1.025379,44.063877,-32.76062,-33.27906,7.2462797,-21.529615,-1.1712253,-3.3611119
15.185743,-21.663137,-10.024101,-9.480473,-0.048077464,-3.4290006,-0.07761339,0.71481323,-0.80076534,-0.53915256,-0.51883584,-0.5244198,0.64946944,-0.12929368,1.1544611,-0.56467456,-1.6726675,-1.0251706,2.3708525,1.5289177,-1.0046546,1.0953985,-0.5001019,-1.6266258,-0.982098,2.4160924,1.4680601,-0.9894899,1.3115882,-1.5905049,-0.8539817,-0.8764587,-0.7485468,0.40735948,0.20966874,1.3670435,-0.6246996,1.5691081,-2.5879056,-0.034841526,-0.65148836,0.12864113,-0.3688755,1.0315943,0.7862913,-0.19403583,0.05837855,0.58368486,0.31680396,-0.95495504,-0.80634594,1.0,0.0,0.0,0.0,0.0,0.0,0.0,-2.0170436,0.22469959,-1.019108,27.85456,-16.06102,-26.64479,1.873374,-11.363543,-0.6396055,-5.541858
21.354149,21.192762,4.534632,-5.6569157,-0.93702286,-2.4251885,0.014323838,0.76784945,-0.80972666,-0.5681329,-0.562396,-0.3848527,0.62700534,-0.29990166,1.1721835,-0.5810746,-1.683439,-1.0383376,2.377607,1.5307606,-1.0194801,1.1096922,-0.5162629,-1.6365135,-0.9911026,2.4086766,1.4721533,-0.98790395,1.4669958,-1.6249008,-1.032663,-0.9085456,-0.7395332,0.40873846,0.14181983,1.3411837,-0.6250477,1.5618618,-2.5853183,-0.03480669,-0.749023,0.13238716,-0.37870312,1.0230811,0.7847852,-0.18731146,0.056428928,0.5880837,0.4034007,-0.986272,-0.87347144,1.0,0.0,0.0,0.0,0.0,0.0,0.0,-1.9911836,0.22504768,-1.0118618,15.053368,-3.5149813,-17.551077,-3.2155275,0.9394765,-0.27669072,-6.702247
26.49922,49.732258,15.269187,-4.149559,-1.1416814,-1.714624,0.24970207,0.7965784,-0.80306095,-0.56220645,-0.6507332,-0.09902292,0.60385805,-0.40217376,1.18935,-0.596569,-1.6927341,-1.056176,2.3987744,1.5325391,-1.0281214,1.1248289,-0.53220546,-1.6474178,-1.0009294,2.4025006,1.4762541,-0.9870161,1.5290229,-1.5840577,-1.1102087,-1.0076835,-0.5766898,0.4097447,0.07175689,1.3153496,-0.6253948,1.5536407,-2.5827336,-0.03477189,-0.8464601,0.13695812,-0.38850784,1.014054,0.78315055,-0.17998649,0.054203585,0.59274113,0.48599392,-0.9718883,-0.9207454,1.0,0.0,0.0,0.0,0.0,0.0,0.0,-1.9653496,0.22539482,-1.0036407,6.084132,4.093623,-7.922411,-10.000027,16.374111,-0.134933,-6.8241253
31.399483,74.657455,25.792511,-1.1955528,-1.2338169,-0.94215506,0.48249078,0.819022,-0.7625572,-0.5001849,-0.70395607,0.1278777,0.59655833,-0.48697236,1.2067311,-0.6084612,-1.6974363,-1.071325,2.4152884,1.5359099,-1.0357133,1.1402098,-0.54737365,-1.6582954,-1.01195,2.398682,1.4803702,-0.9868187,1.5415989,-1.4940951,-1.0818802,-1.134139,-0.3162544,0.41217276,0.0033691777,1.2895422,-0.62574196,1.544446,-2.5801513,-0.034737125,-0.94379985,0.14228916,-0.39784908,1.0047512,0.7811181,-0.17224324,0.051310014,0.5979582,0.5604307,-0.91369736,-0.94189966,1.0,0.0,0.0,0.0,0.0,0.0,0.0,-1.9395422,0.22574195,-0.994446,1.35324,9.086537,2.3263693,-12.815523,26.22153,0.226295,-6.5475197
32.526035,92.19345,34.110344,4.2569733,-1.0470344,-0.15351973,0.6370259,0.81269777,-0.7151795,-0.38971996,-0.73207814,0.3173804,0.5535051,-0.48292848,1.2214795,-0.6188916,-1.6972674,-1.0851579,2.4304202,1.5357207,-1.0351115,1.1554743,-0.5614737,-1.6681144,-1.0241532,2.3977818,1.48449,-0.9872259,1.5220522,-1.3815278,-0.95117724,-1.2497027,-0.013660909,0.4126468,-0.05412727,1.2637596,-0.6260891,1.5342786,-2.5775716,-0.034702394,-1.0410422,0.14823818,-0.40635777,0.9954587,0.77845114,-0.16437526,0.047432255,0.6039409,0.61679864,-0.821635,-0.93308824,1.0,0.0,0.0,0.0,0.0,0.0,0.0,-1.9137596,0.22608909,-0.9842786,-1.7255783,11.41088,12.339544,-11.758232,30.549816,0.27604103,-5.381934
27.142193,101.13037,38.180367,12.96501,-0.97609794,0.6094563,0.4982546,0.7891772,-0.65598357,-0.31554458,-0.6971501,0.2812719,0.5817178,-0.4572118,1.234392,-0.6270721,-1.6996689,-1.0938683,2.425909,1.5426618,-1.0329471,1.1703726,-0.5743722,-1.6762893,-1.0370336,2.3993077,1.4886442,-0.9881195,1.4800109,-1.2587502,-0.7756254,-1.3015025,0.20910254,0.41774783,-0.10009444,1.2380037,-0.62643623,1.5231396,-2.5749946,-0.034667697,-1.1381873,0.15458679,-0.41376495,0.9864744,0.77513456,-0.15677825,0.042705387,0.61054343,0.6494912,-0.70491225,-0.89401764,1.0,0.0,0.0,0.0,0.0,0.0,0.0,-1.8880037,0.22643623,-0.9731396,-3.9001703,12.463427,16.768229,-5.368161,22.635752,0.9410262,-4.293406
16.078688,88.19448,32.4266,18.37969,-0.6346335,0.6598433,0.20465161,0.76392806,-0.6315138,-0.33542895,-0.68790424,0.22113967,0.5598594,-0.34965804,1.2467654,-0.63752353,-1.7098322,-1.105824,2.4214218,1.5446302,-1.0230852,1.1847616,-0.58621013,-1.6830738,-1.0500722,2.4022603,1.492829,-0.9893354,1.4262289,-1.1584258,-0.6479969,-1.3051707,0.32530367,0.42007896,-0.12810078,1.2122726,-0.6267834,1.5110297,-2.5724201,-0.034633037,-1.2352353,0.16111374,-0.42014217,0.977878,0.7713869,-0.14958392,0.037552428,0.617395,0.6618872,-0.6064664,-0.85413235,1.0,0.0,0.0,0.0,0.0,0.0,0.0,-1.8622726,0.22678337,-0.9610297,-5.0774097,10.18157,12.132729,-0.45924187,11.904353,0.61259866,-2.6182308
0.43665075,51.455772,17.058693,19.943892,0.21459699,0.10794483,-0.14537014,0.74781626,-0.68973047,-0.39675134,-0.67520213,0.08684586,0.5313254,-0.21606192,1.2595433,-0.6551832,-1.7227489,-1.1175925,2.410945,1.5459615,-1.0109416,1.1986281,-0.5976399,-1.6892841,-1.0629048,2.4054532,1.4970003,-0.9906858,1.3741693,-1.137678,-0.612862,-1.2757589,0.31765974,0.41642308,-0.1371676,1.1865683,-0.6271286,1.4979502,-2.5698483,-0.03459841,-1.3321863,0.16762924,-0.42598343,0.9694312,0.76755464,-0.1425983,0.032394346,0.6240803,0.6545946,-0.5682426,-0.8463361,1.0,0.0,0.0,0.0,0.0,0.0,0.0,-1.8365682,0.2271286,-0.9479502,-5.0076723,2.110386,3.221798,2.9928446,-0.69776773,-0.24983287,-0.8451611
-11.254805,18.572096,2.8599138,19.134716,0.63179815,-0.48164815,-0.44568408,0.7413518,-0.7444697,-0.47694442,-0.6452884,-0.16246243,0.57359743,-0.11935216,1.2727633,-0.6720869,-1.7369785,-1.1274337,2.389207,1.55436,-1.002621,1.212073,-0.6094016,-1.6958683,-1.0752568,2.4075131,1.5011488,-0.99202573,1.3348712,-1.1893108,-0.67363435,-1.2209595,0.16834037,0.41396135,-0.13313322,1.1608887,-0.62747383,1.4839019,-2.5672789,-0.034563817,-1.4290404,0.17403412,-0.43182087,0.9607859,0.76398444,-0.13557482,0.027737053,0.6302205,0.64151824,-0.5803348,-0.87501067,1.0,0.0,0.0,0.0,0.0,0.0,0.0,-1.8108886,0.22747383,-0.93390185,-3.833747,-5.232787,-6.081176,5.646801,-15.066367,-0.3905058,0.35502613
-10.615214,7.4624953,-1.9704022,15.50047,0.19504333,-0.8780531,-0.5039579,0.7653898,-0.77006084,-0.5246818,-0.6223944,-0.40590066,0.6120954,-0.13495804,1.2886119,-0.6864077,-1.7483364,-1.1374962,2.366923,1.5623584,-1.0055215,1.225371,-0.621909,-1.7034309,-1.0870042,2.4072957,1.5052973,-0.9933256,1.3281906,-1.2716165,-0.78337896,-1.1585132,-0.08550754,0.41421148,-0.12922469,1.1352358,-0.62781906,1.4688857,-2.564712,-0.03452926,-1.5257977,0.18043423,-0.4378643,0.95169926,0.76084167,-0.12839206,0.024052614,0.63565475,0.64518416,-0.6040959,-0.92424816,1.0,0.0,0.0,0.0,0.0,0.0,0.0,-1.7852358,0.22781906,-0.91888565,-0.6417513,-8.339095,-10.883784,6.466794,-25.565294,-0.25230646,0.2929598
-10.888855,6.603101,-2.4812517,16.634491,0.26828563,-0.8536342,-0.57842755,0.777112,-0.79612476,-0.5839014,-0.53008544,-0.5220959,0.6324128,-0.17598753,1.3030822,-0.7015215,-1.761821,-1.1400127,2.355086,1.5685385,-1.0109243,1.2387663,-0.6352757,-1.7122657,-1.0978189,2.4044309,1.5094668,-0.9946188,1.343194,-1.358796,-0.9162728,-1.0549623,-0.35428858,0.41700768,-0.12971067,1.1096077,-0.6281643,1.4529027,-2.5621479,-0.03449474,-1.6224582,0.18685532,-0.4441719,0.94214094,0.7582034,-0.12111388,0.02149037,0.6403103,0.6466623,-0.63049555,-0.9711011,1.0,0.0,0.0,0.0,0.0,0.0,0.0,-1.7596077,0.22816429,-0.90290266,1.487112,-8.846188,-13.122439,10.6013775,-27.082172,0.020766258,-0.16587377
-5.474226,15.149183,1.3592601,14.669747,0.098214805,-0.7846086,-0.43798175,0.7743237,-0.8096491,-0.6045623,-0.525681,-0.5290113,0.6430573,-0.24498497,1.3161987,-0.71624064,-1.772722,-1.1503869,2.3515298,1.5737725,-1.0191172,1.2523371,-0.6493815,-1.7222717,-1.1077352,2.3993382,1.5136744,-0.99597013,1.361812,-1.4281765,-1.0284636,-0.96986955,-0.5616997,0.42122906,-0.1370883,1.0840054,-0.6285095,1.4359539,-2.5595863,-0.03446025,-1.7190222,0.19333649,-0.45066166,0.9321432,0.7559901,-0.113770634,0.019890305,0.6443133,0.65495896,-0.6457561,-1.0146704,1.0,0.0,0.0,0.0,0.0,0.0,0.0,-1.7340053,0.22850952,-0.88595384,1.8703938,-7.0510626,-11.116838,8.751524,-20.914436,0.19878745,-0.80399513
0.46537018,30.089363,8.411141,14.5316925,-0.11137521,-0.4301927,-0.23562045,0.76956373,-0.8174018,-0.5803442,-0.49182004,-0.56129813,0.6675009,-0.26149184,1.3292935,-0.7311217,-1.7803061,-1.1569172,2.3432083,1.5804244,-1.0221193,1.266049,-0.66399086,-1.7329566,-1.1168904,2.392632,1.5179449,-0.99740446,1.3743261,-1.472035,-1.0818948,-0.89682597,-0.70758325,0.4284542,-0.14556655,1.0584288,-0.6288538,1.41804,-2.5570273,-0.0344258,-1.8154894,0.19990921,-0.45712852,0.92183566,0.75401187,-0.10647273,0.018986605,0.6478959,0.6645566,-0.6375895,-1.041915,1.0,0.0,0.0,0.0,0.0,0.0,0.0,-1.7084287,0.22885379,-0.86804,1.2877464,-4.4692755,-5.332756,7.4905276,-14.734817,0.5840421,-0.85406303
7.5350523,44.29203,15.150765,12.82102,-0.4707899,-0.18960366,0.0050025955,0.7692328,-0.81600744,-0.5615833,-0.4918397,-0.5724615,0.67975885,-0.23460658,1.3429723,-0.7455916,-1.789115,-1.1660744,2.3353858,1.5859208,-1.0208651,1.2798392,-0.67883575,-1.7437866,-1.1255555,2.3849034,1.5222937,-0.9988941,1.3807799,-1.4888242,-1.0836134,-0.8558667,-0.79529667,0.43682054,-0.14995666,1.0328779,-0.6291971,1.3991623,-2.5544708,-0.03439138,-1.9118603,0.20662689,-0.46334553,0.9113474,0.7520439,-0.099300526,0.018539336,0.6513261,0.681084,-0.60630673,-1.0571145,1.0,0.0,0.0,0.0,0.0,0.0,0.0,-1.6828779,0.22919711,-0.8491623,0.71070194,-1.7293215,-0.26257038,4.2196274,-8.895326,0.7432461,-0.38895905
7.701174,52.92802,18.9272,15.118185,-0.34801167,0.13682614,0.047136575,0.7593236,-0.81442195,-0.55783904,-0.43643287,-0.58749413,0.68827164,-0.20766762,1.3557715,-0.7602779,-1.7995704,-1.1691988,2.326154,1.5911208,-1.0196608,1.2936121,-0.69370925,-1.7544372,-1.1337514,2.3765912,1.5267302,-1.000398,1.3763639,-1.4868993,-1.059425,-0.8072724,-0.8440785,0.44591832,-0.15028727,1.0073528,-0.62954044,1.3793216,-2.5519168,-0.034356996,-2.0081348,0.21344471,-0.46917725,0.9008263,0.7499872,-0.09236673,0.018366868,0.6547138,0.68859446,-0.56539965,-1.0564142,1.0,0.0,0.0,0.0,0.0,0.0,0.0,-1.6573528,0.22954044,-0.82932156,-0.34985542,0.15208721,2.3078918,4.947555,-5.0276995,0.8929372,0.037887692
4.8571916,51.588795,17.862297,16.27525,-0.0076280236,0.15405723,-0.0022794008,0.7541425,-0.82194525,-0.5941265,-0.40357754,-0.5770842,0.6843266,-0.16595212,1.3690264,-0.77590376,-1.8138498,-1.1741091,2.3188827,1.5951629,-1.0169933,1.3072954,-0.708537,-1.7649772,-1.1414342,2.368031,1.5312468,-1.0018686,1.3661168,-1.4815387,-1.0525709,-0.7551108,-0.8603206,0.45363146,-0.14568266,0.98185253,-0.62988377,1.3585188,-2.5493655,-0.034322646,-2.104313,0.22027874,-0.47467327,0.89031214,0.747866,-0.08566372,0.018353522,0.6580436,0.6881989,-0.5338171,-1.0555793,1.0,0.0,0.0,0.0,0.0,0.0,0.0,-1.6318525,0.22988376,-0.8085188,-0.9184599,0.48491955,0.60145855,5.3234696,-1.7998099,0.76581836,0.5311817
0.3464365,48.365776,15.651642,17.910597,0.2829106,0.15866213,-0.097835794,0.74166477,-0.82359254,-0.62677217,-0.35889962,-0.6162941,0.6851738,-0.09138986,1.3814619,-0.79089624,-1.8276545,-1.1773242,2.3064017,1.5997641,-1.0110075,1.3208243,-0.7233113,-1.7756469,-1.1485085,2.3593144,1.535832,-1.0032362,1.3487753,-1.4763689,-1.0719546,-0.69117266,-0.8761668,0.4602226,-0.13369226,0.956378,-0.6302271,1.336755,-2.5468166,-0.03428833,-2.2003949,0.22705173,-0.47993088,0.87978977,0.7457611,-0.07914923,0.018504703,0.66123617,0.6798006,-0.51299256,-1.0567048,1.0,0.0,0.0,0.0,0.0,0.0,0.0,-1.606378,0.23022708,-0.786755,-1.6173601,0.4496336,-1.9784212,6.528902,-1.7871499,0.6565809,1.2428433
2.84938,45.3336,14.308534,14.144206,0.085100174,-0.10340308,-0.0077940673,0.7441111,-0.82680875,-0.6448519,-0.38721088,-0.61553764,0.66803277,-0.025395965,1.3952354,-0.8059922,-1.8401321,-1.1872296,2.2977607,1.6026354,-1.0057758,1.3342139,-0.7380618,-1.7866256,-1.155211,2.3504949,1.5404574,-1.0044378,1.3360885,-1.4748323,-1.1066635,-0.6626517,-0.88453585,0.46318492,-0.115567185,0.9309292,-0.6305704,1.3140311,-2.5442703,-0.034254048,-2.2963808,0.23382854,-0.48500633,0.8691457,0.7436487,-0.072661124,0.018848728,0.66434306,0.68271047,-0.49550882,-1.0723442,1.0,0.0,0.0,0.0,0.0,0.0,0.0,-1.5809292,0.2305704,-0.7640311,-1.1529922,0.08440018,-3.5269022,3.0109525,-1.0171413,0.21507144,1.8556803
4.8869147,47.609253,15.778058,13.586423,0.010781527,-0.04346828,0.038916923,0.74557215,-0.82744354,-0.62713975,-0.35318983,-0.62114066,0.68318087,-0.04787682,1.408771,-0.82080615,-1.8493396,-1.19053,2.2883809,1.6087755,-1.0092255,1.3475233,-0.7528132,-1.7978332,-1.1616292,2.3416104,1.545117,-1.0054868,1.3295493,-1.4755394,-1.1257392,-0.6342831,-0.890708,0.46667233,-0.101000085,0.9055052,-0.6309128,1.290348,-2.5417266,-0.0342198,-2.3922706,0.24064922,-0.4898739,0.85836434,0.74147505,-0.0661781,0.019345595,0.66742855,0.68750226,-0.47367704,-1.0854118,1.0,0.0,0.0,0.0,0.0,0.0,0.0,-1.5555052,0.23091277,-0.74034804,-0.55544376,-0.13756752,-1.961875,2.9838324,-0.7922888,0.2647519,1.5133798
6.4935703,49.4839,16.921291,12.91622,-0.053301275,-0.002278462,0.087855324,0.7421589,-0.82692885,-0.6261821,-0.34017706,-0.6157524,0.67950827,-0.02592265,1.4217392,-0.8355061,-1.8604515,-1.1956469,2.2800353,1.6130679,-1.008079,1.360787,-0.7675761,-1.8091457,-1.1677995,2.3326993,1.5498053,-1.0063909,1.3256752,-1.4767333,-1.1334386,-0.6108662,-0.8917978,0.46918014,-0.08646526,0.8801069,-0.6312542,1.2657068,-2.5391853,-0.03418559,-2.4880645,0.24753284,-0.4944992,0.8474625,0.73919314,-0.059714522,0.019948533,0.6705443,0.6940671,-0.448586,-1.0970889,1.0,0.0,0.0,0.0,0.0,0.0,0.0,-1.5301069,0.23125419,-0.71570677,-0.29637814,-0.18351078,-0.82833767,2.4820566,-0.28021336,0.16177297,1.5204713
8.597991,51.85918,18.32094,12.166657,-0.20682162,0.04880002,0.1300058,0.74469125,-0.8269341,-0.6204115,-0.32964385,-0.635897,0.68789923,-0.026020357,1.4352561,-0.8502695,-1.8711869,-1.2007638,2.2691095,1.6185952,-1.0089929,1.374045,-0.7823504,-1.8204486,-1.1737618,2.323731,1.5545202,-1.0071634,1.3260938,-1.4778533,-1.1295649,-0.5909021,-0.8990781,0.4719884,-0.074041024,0.8547344,-0.6315956,1.2401084,-2.5366466,-0.03415141,-2.5837626,0.25450897,-0.4988327,0.83645904,0.73675793,-0.053292625,0.020648483,0.67373675,0.70377374,-0.41796446,-1.1065933,1.0,0.0,0.0,0.0,0.0,0.0,0.0,-1.5047344,0.2315956,-0.69010836,0.12357235,-0.17163754,0.32417774,2.1278858,-0.8942723,0.18619299,1.3143003
3.0288377,55.473423,19.420258,17.76551,0.2816162,0.40914443,-0.022191763,0.7338588,-0.8224961,-0.6136424,-0.22752978,-0.639935,0.7007981,-0.020751158,1.4474308,-0.86460006,-1.8818129,-1.1965148,2.2597375,1.6246,-1.0092385,1.3872687,-0.79711235,-1.8316505,-1.179112,2.3146787,1.5592734,-1.0078253,1.3212233,-1.4759122,-1.11713,-0.51598334,-0.90765095,0.47663414,-0.06323266,0.8293867,-0.631937,1.2135537,-2.5341105,-0.034117263,-2.6793652,0.26144505,-0.5028982,0.8255031,0.7342584,-0.04709427,0.021411568,0.67689604,0.6949661,-0.39230826,-1.0969071,1.0,0.0,0.0,0.0,0.0,0.0,0.0,-1.4793867,0.23193702,-0.66355366,-0.41735172,0.12321472,1.2459993,7.604599,-1.0663509,0.46499372,1.1432216
5.164387,50.937218,17.115465,13.646941,0.027179599,0.09785877,0.024634182,0.7381484,-0.82599074,-0.6590601,-0.28032678,-0.63898504,0.68759644,0.00064601644,1.4610835,-0.8797114,-1.8975565,-1.2071446,2.25078,1.628033,-1.0077606,1.4004656,-0.81186855,-1.8429458,-1.1840138,2.3055577,1.564057,-1.0083765,1.3193434,-1.4757843,-1.1336116,-0.48098257,-0.913983,0.47872183,-0.05224391,0.80406475,-0.63227844,1.1860436,-2.5315769,-0.034083154,-2.774872,0.2683878,-0.5067301,0.8145031,0.73170453,-0.040998913,0.022288956,0.68002266,0.69832903,-0.3698912,-1.1058395,1.0,0.0,0.0,0.0,0.0,0.0,0.0,-1.4540647,0.23227844,-0.6360436,-0.10726452,-0.061058998,-1.6654968,3.648734,-0.8167982,0.12382865,1.1494048
8.108061,49.989372,16.86758,10.33004,-0.25318432,-0.031314045,0.102450415,0.7369649,-0.8257082,-0.658654,-0.3018364,-0.6393644,0.6853391,-0.010178787,1.4741621,-0.89443934,-1.9088112,-1.2141975,2.2416213,1.6325909,-1.0093944,1.4136473,-0.8266257,-1.85443,-1.1888261,2.2963948,1.568854,-1.008838,1.3180118,-1.4758722,-1.1536722,-0.4807287,-0.9179228,0.47947437,-0.0438913,0.77876854,-0.63261986,1.1575793,-2.5290458,-0.03404908,-2.8702834,0.27542877,-0.51030636,0.80333465,0.72903746,-0.034845553,0.023317397,0.6831884,0.710612,-0.34311384,-1.1252582,1.0,0.0,0.0,0.0,0.0,0.0,0.0,-1.4287685,0.23261985,-0.6075793,-0.043702126,-0.07839203,-2.0533085,0.18677711,-0.55868626,-0.06699562,0.8858584
8.904992,51.22036,17.59666,9.682955,-0.30685204,0.035771072,0.14078839,0.73294234,-0.8254894,-0.64998615,-0.29011607,-0.63575315,0.69038707,0.0054459716,1.4869416,-0.9091746,-1.9194286,-1.2178377,2.2328196,1.6378927,-1.0082935,1.4268042,-0.84138286,-1.8660514,-1.1936975,2.2872167,1.5736586,-1.0092157,1.315121,-1.4759905,-1.1651376,-0.4888518,-0.91847867,0.48023146,-0.035481434,0.7534971,-0.63295937,1.1281615,-2.5265174,-0.034015037,-2.9655993,0.28259468,-0.5135908,0.79197294,0.7262111,-0.02859611,0.024484217,0.6864402,0.72290593,-0.31293195,-1.1445124,1.0,0.0,0.0,0.0,0.0,0.0,0.0,-1.4034971,0.23295936,-0.57816154,-0.19755363,-0.077962875,-1.203537,-0.6523907,-0.21904707,-0.07407665,0.8975215
5.7764363,52.111977,17.730919,12.164942,-0.011157215,0.2074651,0.047841385,0.7287605,-0.82984316,-0.6542184,-0.2432021,-0.6318631,0.6861577,-0.04772593,1.4996803,-0.9243672,-1.9314733,-1.2180177,2.2240303,1.6422744,-1.0139883,1.4399153,-0.85616195,-1.8777549,-1.1984544,2.2780538,1.578467,-1.0095571,1.3100544,-1.4788514,-1.1723211,-0.47081956,-0.91644573,0.48076424,-0.033638015,0.7282505,-0.6332989,1.0977913,-2.5239913,-0.03398103,-3.0608199,0.28981876,-0.51661015,0.78047335,0.7232761,-0.022316454,0.025738645,0.68971825,0.72572535,-0.28760576,-1.1563895,1.0,0.0,0.0,0.0,0.0,0.0,0.0,-1.3782505,0.23329887,-0.5477913,-0.4247427,-0.35755634,-0.74386597,1.9602537,0.025451183,-0.058209896,0.2434589
1.7915025,55.313747,18.586914,15.943987,0.28834796,0.45790642,-0.05548369,0.72265977,-0.82420725,-0.6557675,-0.1845275,-0.6515356,0.6936882,-0.018805971,1.5121813,-0.93858266,-1.9433317,-1.2169071,2.2129002,1.6478359,-1.0114378,1.4529539,-0.8709439,-1.8895004,-1.2027421,2.268849,1.5832888,-1.009868,1.3019135,-1.4782636,-1.1751817,-0.41422528,-0.92212677,0.48254526,-0.030225378,0.70302963,-0.6336384,1.0664696,-2.521468,-0.033947054,-3.1559455,0.29698753,-0.5194092,0.7689546,0.7203241,-0.016152605,0.027081946,0.69292045,0.7172513,-0.26632246,-1.1547439,1.0,0.0,0.0,0.0,0.0,0.0,0.0,-1.3530296,0.23363838,-0.51646954,-0.7450342,-0.019979477,-0.26340485,5.7985725,-0.7733822,0.1268804,0.3863439
-1.3745928,53.3506,17.058636,16.483904,0.43945593,0.46979064,-0.14090763,0.70759267,-0.82947075,-0.6751168,-0.17829731,-0.6572919,0.6791482,-0.109238,1.5237132,-0.953891,-1.957012,-1.2205719,2.2031198,1.6512036,-1.0207918,1.4658514,-0.8857392,-1.9013431,-1.2064633,2.2595677,1.5881182,-1.010219,1.2860171,-1.480283,-1.1871122,-0.35758168,-0.93057597,0.4827652,-0.036493704,0.67783356,-0.6339779,1.0341973,-2.518947,-0.033913113,-3.2509758,0.30404186,-0.5220413,0.7574249,0.7174432,-0.010115372,0.028537596,0.69595855,0.7048122,-0.2513022,-1.1566541,1.0,0.0,0.0,0.0,0.0,0.0,0.0,-1.3278335,0.23397788,-0.48419732,-1.514554,-0.2891302,-1.155448,5.819851,-1.054585,-0.033980608,-0.5953863
1.1262379,50.128242,15.407277,12.043865,0.021733165,0.25585458,-0.079329,0.698129,-0.82688105,-0.70739585,-0.23302133,-0.6822044,0.6731215,-0.17844434,1.5356643,-0.9684273,-1.9720827,-1.2297654,2.1913474,1.6554303,-1.0280634,1.4785658,-0.9005412,-1.9134471,-1.2099977,2.2501378,1.59294,-1.0106882,1.2669624,-1.4805696,-1.2181202,-0.35129222,-0.94755983,0.48133895,-0.05028877,0.65266323,-0.6343174,1.0009755,-2.5164285,-0.033879206,-3.3459113,0.31105804,-0.52447987,0.7457395,0.7146116,-0.004034466,0.030214235,0.6988569,0.70353824,-0.23088606,-1.1767181,1.0,0.0,0.0,0.0,0.0,0.0,0.0,-1.3026632,0.23431739,-0.45097548,-1.8082619,-0.11432171,-3.1007767,0.8116543,-1.8831372,-0.28383136,-1.3676419
0.13319016,46.450344,13.490985,9.390568,-0.13771069,0.21794975,-0.03446491,0.66714174,-0.83543277,-0.7181216,-0.26647714,-0.70675844,0.67504793,-0.22833304,1.54528,-0.9840845,-1.9852593,-1.2366453,2.179462,1.6604447,-1.0335215,1.4909827,-0.9153832,-1.9258869,-1.2137704,2.2404828,1.5977446,-1.011329,1.2337399,-1.4857291,-1.2527684,-0.38542923,-0.9721241,0.4794343,-0.06860715,0.6275177,-0.63465595,0.96680504,-2.5139124,-0.033845335,-3.4407518,0.31807137,-0.526701,0.7337465,0.71178335,0.0022551934,0.032183167,0.7016578,0.70357186,-0.20812833,-1.2111448,1.0,0.0,0.0,0.0,0.0,0.0,0.0,-1.2775177,0.23465595,-0.41680503,-3.1991005,-0.6009579,-3.4995317,-3.1998873,-2.631557,-0.38843155,-1.8302977
0.034389496,47.669506,14.068226,8.491141,-0.18284285,0.34540704,0.016453296,0.6439849,-0.8324924,-0.71521664,-0.28759578,-0.6961178,0.6868189,-0.26033872,1.5553812,-0.99863243,-1.9974085,-1.24253,2.170871,1.6664264,-1.0373629,1.5030066,-0.93026054,-1.9385936,-1.2180352,2.2306447,1.6025397,-1.0121645,1.1925751,-1.4887797,-1.2766496,-0.43929103,-0.9883241,0.47867948,-0.08841037,0.60239697,-0.63499355,0.9316869,-2.511399,-0.033811495,-3.5354974,0.32507324,-0.5286598,0.7214004,0.7089067,0.00880822,0.034417395,0.70440686,0.70109844,-0.18076423,-1.2464322,1.0,0.0,0.0,0.0,0.0,0.0,0.0,-1.252397,0.23499355,-0.38168687,-3.981161,-0.38609505,-2.4429083,-5.1707687,-1.8018365,-0.28778315,-1.9729912
-7.378871,52.21778,15.070395,13.87059,0.36433554,0.7642612,-0.1025241,0.6054426,-0.8274797,-0.7107676,-0.23285006,-0.7055833,0.69036824,-0.23868935,1.5635508,-1.0130085,-2.0096705,-1.2413203,2.1600864,1.6715765,-1.0360334,1.5145174,-0.945135,-1.9514263,-1.2225194,2.2206616,1.6073347,-1.0131639,1.1376282,-1.48737,-1.2855144,-0.450842,-1.0024374,0.47936922,-0.10371428,0.577302,-0.63533115,0.89562196,-2.5088882,-0.03377769,-3.6301484,0.33190918,-0.5304079,0.7088394,0.7060512,0.0154782105,0.03685327,0.7070318,0.6792406,-0.16132756,-1.2632962,1.0,0.0,0.0,0.0,0.0,0.0,0.0,-1.227302,0.23533115,-0.34562194,-5.370116,0.052690506,-0.8930445,-0.9648502,-1.636684,-0.059384108,-1.5295833
-17.321777,50.654373,12.900241,18.255568,1.0678589,1.0047514,-0.26068813,0.55185676,-0.8399767,-0.7268589,-0.21401608,-0.6917855,0.6676725,-0.27918547,1.5697031,-1.0291327,-2.0241122,-1.243921,2.151483,1.674102,-1.0410825,1.5253302,-0.9600457,-1.9643505,-1.2269006,2.2106137,1.6121222,-1.0143255,1.0629216,-1.4927051,-1.2946488,-0.43325573,-1.0061897,0.478451,-0.12033989,0.5522318,-0.63566875,0.8586112,-2.5063798,-0.033743918,-3.7247047,0.33838558,-0.53209305,0.69614446,0.70336324,0.022179237,0.039405815,0.7093908,0.6381704,-0.15974368,-1.275396,1.0,0.0,0.0,0.0,0.0,0.0,0.0,-1.2022318,0.23566875,-0.3086112,-7.348132,-0.6384611,-0.8763313,1.9631445,-0.62975883,-0.16769171,-1.6625807
-28.276836,49.8225,10.529787,22.326536,1.6921269,1.2700477,-0.4142434,0.47876352,-0.8394135,-0.7408462,-0.20266165,-0.6867558,0.66091245,-0.30716237,1.5732065,-1.043987,-2.038435,-1.2471668,2.1419382,1.6782135,-1.0450417,1.5351893,-0.9750098,-1.9773967,-1.2309937,2.2005734,1.6168982,-1.0156587,0.9606058,-1.4979842,-1.3077573,-0.40072882,-1.0042125,0.47722968,-0.13760126,0.5271864,-0.63600636,0.82065564,-2.5038738,-0.03371018,-3.8191664,0.34430885,-0.53388023,0.6833497,0.7009989,0.02888572,0.042025257,0.71133673,0.57772225,-0.1739375,-1.2844361,1.0,0.0,0.0,0.0,0.0,0.0,0.0,-1.1771864,0.23600635,-0.27065563,-10.097445,-0.65238476,-1.2380362,3.4739912,-0.09138584,-0.16089082,-1.7430156
-28.254642,42.4856,6.950017,13.5959015,1.1004549,1.1360857,-0.13454491,0.3695976,-0.84312373,-0.73999244,-0.43146992,-0.66511744,0.6321542,-0.32205442,1.572149,-1.0593221,-2.051396,-1.2741407,2.1340618,1.6801136,-1.0478642,1.5436999,-0.990034,-1.9905517,-1.2358575,2.1906323,1.6216322,-1.0171579,0.8153731,-1.5043216,-1.3184209,-0.5139178,-0.9916893,0.4715981,-0.1540036,0.50216675,-0.63634396,0.7817482,-2.5013704,-0.03367648,-3.9145992,0.34967422,-0.53569794,0.67018294,0.698793,0.035954792,0.044690177,0.71302056,0.5232744,-0.17347236,-1.3309613,1.0,0.0,0.0,0.0,0.0,0.0,0.0,-1.1521667,0.23634395,-0.23174816,-14.301276,-0.7588625,-1.1232853,-11.008036,0.9702921,-0.766176,-1.6546756
-124.091606,22.076204,-19.25483,34.55008,5.064605,3.301204,-0.8873832,-0.25261223,-0.84056336,-0.73078275,-0.66544044,-0.6090431,0.5638488,-0.22258352,1.5184386,-1.0740904,-2.06363,-1.3024015,2.129728,1.6780171,-1.0394163,1.5481077,-1.0051049,-2.003736,-1.2430081,2.180962,1.6262594,-1.0187353,0.31768274,-1.5091019,-1.3186759,-0.77984077,-0.9610555,0.45905533,-0.15937427,0.4771719,-0.63667965,0.7418871,-2.4988697,-0.03364281,-4.0099363,0.35327625,-0.5381775,0.65629315,0.6972397,0.0439308,0.047267504,0.7139276,0.30543163,-0.26254556,-1.411541,1.0,0.0,0.0,0.0,0.0,0.0,0.0,-1.1271719,0.23667964,-0.19188708,-49.24275,-0.7941246,-0.044608116,-25.924063,2.3712516,-1.4832497,-0.685218
-176.0,19.527899,-32.689537,54.033306,8.301079,5.0319743,-1.428135,-0.6567196,-0.81554645,-0.72783816,-0.7452953,-0.4656285,0.53287905,0.0873474,1.4824358,-1.0866596,-2.0765197,-1.3175377,2.1343992,1.6795473,-1.0100006,1.5469099,-1.0198888,-2.0181212,-1.2521443,2.172665,1.6320578,-1.0196146,-0.26348397,-1.470355,-1.4773475,-0.95494634,-0.7897476,0.6182063,-0.064430065,0.45220184,-0.63701534,0.70107335,-2.4963713,-0.033609174,-4.105178,0.35386086,-0.5421076,0.6416288,0.69694704,0.052557055,0.049363412,0.71348846,-0.02562441,-0.42604735,-1.4873748,1.0,0.0,0.0,0.0,0.0,0.0,0.0,-1.1022018,0.23701534,-0.15107334,-57.537415,3.28331,-15.488577,-16.486395,15.949333,15.411592,9.3785305
-162.96088,33.0373,-21.126343,50.5187,8.020185,4.870311,-1.1114304,-0.7020344,-0.83048147,-0.65429735,-0.7444573,-0.21775132,0.51529247,0.25338817,1.4767065,-1.1029369,-2.083551,-1.3265901,2.1508899,1.6835871,-0.99427575,1.5398527,-1.0345601,-2.0324874,-1.2632451,2.166081,1.638106,-1.0198911,-0.85134465,-1.468293,-1.421802,-1.1578152,-0.6186148,0.5978614,-0.014603001,0.42725658,-0.63735104,0.6593079,-2.4938753,-0.033575572,-4.200324,0.3513155,-0.54750633,0.6264899,0.6978504,0.061994422,0.050400198,0.7117733,-0.33492994,-0.5672653,-1.5245669,1.0,0.0,0.0,0.0,0.0,0.0,0.0,-1.0772566,0.23735103,-0.109307885,-58.268536,-0.42858124,5.8499813,-19.077206,15.859079,-2.7728915,5.222381
-115.799416,46.536552,-5.827166,40.095875,6.468958,4.0788846,-0.7262583,-0.7322921,-0.83131105,-0.6757621,-0.7217301,-0.014687368,0.50239587,0.24841066,1.4666235,-1.1176912,-2.1000636,-1.3354181,2.1646123,1.6883456,-0.9950501,1.5281916,-1.0492386,-2.0463176,-1.2760576,2.162254,1.6432964,-1.0199001,-1.2775953,-1.4612473,-1.4114023,-1.3728307,-0.18283269,0.36750975,-0.009551309,0.4065218,-0.6388521,0.6298765,-1.389841,-0.30622458,-0.08468592,0.3462658,-0.55411434,0.61104715,0.6996709,0.07264465,0.04974543,0.70901954,-0.5562095,-0.7043006,-1.5763549,0.0,1.0,0.0,0.0,0.0,0.0,0.0,-1.0565218,0.23885211,-0.07987648,-43.67633,1.6247034,-6.04012,-29.8774,64.5169,-43.00942,-2.7209098
32.57162,176.0,110.0,110.0,0.95825696,13.443206,-1.097464,-0.4076408,0.60701174,0.75200933,0.5817076,-0.3972782,0.6552102,-0.44962794,1.4874275,-0.9885374,-1.9711167,-1.2178868,2.1225262,1.7088174,-1.0648628,1.518527,-1.0660003,-2.053802,-1.2762731,2.1500661,1.6569988,-1.0188663,-0.84872025,-1.6762145,-0.6350192,0.39934692,-1.4693048,1.7494922,0.17702973,0.3926344,-0.64191246,0.6282858,-1.3884513,-0.30591843,-0.18385243,0.33949375,-0.5602226,0.5997845,0.7026136,0.073028445,0.049427025,0.7060863,-0.7261237,-0.5661111,-0.9773853,0.0,1.0,0.0,0.0,0.0,0.0,0.0,-1.0426344,0.24191245,-0.07828581,47.095787,0.0,45.44964,168.37254,-100.184654,151.70152,29.425318
-48.104202,176.0,88.10813,103.49687,6.9739566,7.504589,-1.7032303,-0.78461814,-0.6694757,0.4308818,0.71949553,-0.5191189,0.501339,-0.332215,1.4400653,-1.1329479,-2.0107138,-1.2043235,2.0981543,1.7071327,-1.0520878,1.5092783,-1.0827621,-2.0533671,-1.2652677,2.1336439,1.6740695,-1.0176666,-0.94889617,-1.6762148,0.27080882,1.3346889,-1.7027863,1.6995647,0.10430878,0.37876034,-0.644969,0.6257042,-1.3870631,-0.30561256,-0.2829198,0.33097744,-0.5663862,0.59377503,0.70723706,0.06537653,0.04869259,0.70226115,-0.8963012,-0.6223114,-0.47810373,0.0,1.0,0.0,0.0,0.0,0.0,0.0,-1.0287603,0.24496898,-0.07570422,-9.560394,4.7683716e-05,90.94774,93.711296,-24.278164,-2.999711,-6.330751
-79.99831,143.18892,37.821213,72.81945,6.3247643,3.9804327,-1.9391357,-0.80196226,-0.6006151,-0.21339102,0.59848756,-0.41897935,0.64213955,-0.33634028,1.429082,-1.1428236,-2.0747063,-1.205419,2.0917459,1.7382835,-1.0513006,1.498599,-1.0979484,-2.0497088,-1.2490267,2.1179082,1.690158,-1.0169609,-1.1056279,-1.4667561,0.39648822,1.7227097,-1.5314552,1.5819865,0.060773436,0.36489964,-0.64802265,0.6221327,-1.3856764,-0.305307,-0.3818881,0.32076263,-0.5733347,0.5907085,0.7136688,0.05525919,0.047642574,0.6966731,-1.0662153,-0.7118262,-0.25569728,0.0,1.0,0.0,0.0,0.0,0.0,0.0,-1.0148996,0.24802265,-0.07213271,-15.050316,20.758034,12.284035,39.45234,16.88304,-10.724187,-3.9637306
-62.75407,120.6412,31.713234,45.798748,4.802596,2.927162,-1.0852134,-0.83407533,-0.6263906,0.23868144,0.65473616,-0.28884616,0.5318235,-0.34908867,1.4151915,-1.1605875,-2.0258408,-1.183553,2.0890236,1.7433404,-1.0518698,1.4860811,-1.1111606,-2.0447612,-1.2316011,2.1051633,1.70461,-1.0167186,-1.2991841,-1.2732416,0.5263836,1.7504239,-1.1895348,1.4015633,0.012929021,0.35105324,-0.65107346,0.61757225,-1.384291,-0.30500177,-0.48075745,0.30912971,-0.5808077,0.58920395,0.7212677,0.04495469,0.04591053,0.68966955,-1.2006978,-0.7519672,-0.12269471,0.0,1.0,0.0,0.0,0.0,0.0,0.0,-1.0010532,0.25107345,-0.067572236,-18.952656,19.180107,12.590897,3.1505585,33.938026,-17.470837,-4.491652
-44.401054,82.21056,17.235806,21.952005,3.777143,1.3860989,-0.601453,-0.84461194,-0.60944206,0.16974413,0.6015761,0.21281454,0.5161407,-0.41333503,1.4016199,-1.1721048,-2.0277867,-1.1714435,2.1264448,1.756224,-1.0580522,1.4719392,-1.1227541,-2.0397925,-1.2156451,2.097244,1.7167431,-1.0166646,-1.4521091,-1.1216704,0.4847556,1.5436858,-0.6578206,1.1497574,0.0035923962,0.33428478,-0.65433025,0.6185193,-1.769655,-0.33317134,0.32841924,0.2965498,-0.5886669,0.588094,0.7293669,0.036232382,0.04284028,0.681818,-1.2836568,-0.7894736,-0.11406697,0.0,1.0,0.0,0.0,0.0,0.0,0.0,-0.98428476,0.25433025,-0.068519294,-15.14802,14.934874,-3.2099068,-18.965172,52.485336,-16.904713,-4.6597996
-8.515001,148.73705,50.358234,24.389921,1.5007433,2.3338418,-0.27446282,-0.8291272,-0.24264781,0.40887418,0.7126316,0.16388533,0.559117,-0.48011392,1.3890265,-1.1470189,-1.9989051,-1.1443819,2.1136324,1.7726548,-1.064676,1.4568158,-1.1316519,-2.03433,-1.201443,2.0938146,1.727163,-1.0170118,-1.5325031,-0.8131701,0.56719947,1.3788936,-0.23937322,1.0075337,-0.048229508,0.31660175,-0.65765953,0.62105656,-1.7678857,-0.33283824,0.22883971,0.28342247,-0.59617233,0.58812934,0.73765856,0.028225243,0.03876051,0.6734691,-1.3298594,-0.72823733,0.037641577,0.0,1.0,0.0,0.0,0.0,0.0,0.0,-0.9666017,0.25765952,-0.071056545,-8.072424,30.617355,8.259392,-16.500711,41.44492,-13.778043,-5.3376617
1.4141397,127.850464,42.998405,18.002836,0.4316771,1.60607,-0.17234625,-0.8369404,-0.26233616,0.3117379,0.6953726,0.11052639,0.6044561,-0.4914709,1.3731217,-1.1578856,-2.0031562,-1.1319057,2.1048672,1.7876086,-1.0661589,1.4412767,-1.1379786,-2.0284972,-1.1885836,2.0934064,1.7364346,-1.0178682,-1.5613768,-0.5730997,0.5888654,1.2549555,0.024052374,0.90163285,-0.098661035,0.2989359,-0.660985,0.6225958,-1.7661182,-0.33250546,0.12896602,0.27006054,-0.6030359,0.58933294,0.7459822,0.02041946,0.0342951,0.6647686,-1.345609,-0.6626837,0.14381786,0.0,1.0,0.0,0.0,0.0,0.0,0.0,-0.94893587,0.260985,-0.072595775,-2.963996,23.827946,2.2485495,-12.395287,26.091797,-10.213804,-5.2129226
7.984386,135.24715,44.87132,19.237175,-1.1021075,1.4387058,-0.169182,-0.8278248,-0.07924004,0.24576914,0.7237225,-0.192264,0.64334255,-0.48607472,1.3584942,-1.1459025,-2.0039203,-1.1162114,2.0741801,1.8007689,-1.0664756,1.425749,-1.1417551,-2.0228858,-1.176369,2.0937803,1.7448593,-1.0191861,-1.5503734,-0.3130643,0.5527161,1.2104113,0.041113656,0.82432693,-0.14381613,0.28128815,-0.6643076,0.6231371,-1.7643524,-0.33217302,0.029192181,0.2567644,-0.60905266,0.5916744,0.754252,0.012472887,0.030666418,0.65574974,-1.331024,-0.57155246,0.2612356,0.0,1.0,0.0,0.0,0.0,0.0,0.0,-0.9312881,0.2643076,-0.073137105,1.0066509,25.812738,-3.4628153,-4.427552,1.5045152,-7.282746,-4.7751546
-0.4079671,88.16817,23.850157,14.020175,-1.1569768,0.42919523,-0.25406277,-0.82759726,-0.13592905,0.080977894,0.72570926,-0.29111254,0.6655615,-0.471151,1.3429892,-1.1553481,-2.014788,-1.103798,2.0646691,1.8114154,-1.0663012,1.4104389,-1.1438577,-2.0186007,-1.1642909,2.0937397,1.7526592,-1.0209708,-1.5246679,-0.17654397,0.3891168,1.2079839,-0.027896851,0.76407415,-0.1876482,0.26569557,-0.6667805,0.62645847,-1.5543957,-0.24248503,0.3612345,0.24361801,-0.61447334,0.59444535,0.7625586,0.004723684,0.02843592,0.64627653,-1.3136159,-0.5210952,0.2804762,0.0,1.0,0.0,0.0,0.0,0.0,0.0,-0.91569555,0.26678047,-0.076458454,2.5476933,13.470382,-15.538919,0.2519369,-10.107401,-6.182134,-3.6546946
4.0355015,118.8953,37.905746,19.961876,-0.97221315,1.0921546,-0.19088177,-0.8342663,0.09526929,0.22960931,0.73049223,-0.15465865,0.6580644,-0.4826755,1.3270123,-1.1343307,-1.9956398,-1.0912417,2.0782738,1.8184656,-1.0692384,1.3953537,-1.1441915,-2.0151253,-1.1520131,2.0929754,1.7598768,-1.0230694,-1.5034385,0.013695731,0.33436546,1.2345029,-0.093408324,0.70838714,-0.21799941,0.25024796,-0.6690073,0.63075024,-1.5415765,-0.2159416,0.45370576,0.23063087,-0.6192188,0.5979538,0.77083457,-0.0031508699,0.027641023,0.6364275,-1.2982929,-0.4488735,0.37239903,0.0,1.0,0.0,0.0,0.0,0.0,0.0,-0.90024793,0.2690073,-0.08075023,2.0406723,18.836773,-5.2438555,2.6877165,-6.7974553,-5.3331017,-3.2429636
0.8845303,89.11914,28.456316,16.010899,0.13424554,0.7813667,-0.15107843,-0.83580357,0.0047911066,0.23941004,0.7182899,0.04605538,0.65561706,-0.50518245,1.3117733,-1.1437124,-1.9911842,-1.0801841,2.097581,1.8254385,-1.0735877,1.3804183,-1.1434839,-2.0117946,-1.1394854,2.0922196,1.7666085,-1.0254346,-1.4904951,0.08921327,0.3333191,1.2587533,-0.07000355,0.66148907,-0.24304962,0.23487759,-0.6710453,0.6355563,-1.5364985,-0.19849133,0.49206445,0.21766567,-0.62348175,0.6020229,0.7790544,-0.011142147,0.027441364,0.62625635,-1.2999752,-0.40878296,0.4168518,0.0,1.0,0.0,0.0,0.0,0.0,0.0,-0.88487756,0.2710453,-0.08555627,1.239562,7.4178257,0.12456775,2.4382114,2.1137283,-4.598987,-2.6196985
6.311825,108.01276,37.645412,18.095781,0.2272498,1.1813071,-0.053583875,-0.8267292,0.15114486,0.32391286,0.72395533,0.08903485,0.6570473,-0.5250023,1.2977453,-1.1283693,-1.9794033,-1.0670898,2.101123,1.8323132,-1.0779349,1.3655944,-1.1418035,-2.0078688,-1.1267459,2.0919898,1.7729234,-1.0280329,-1.4800222,0.19384263,0.4138488,1.2789915,-0.008485414,0.6213732,-0.2657681,0.2195549,-0.6728525,0.64107966,-1.5317056,-0.17346527,0.5752185,0.204669,-0.62722874,0.6068402,0.78714156,-0.019477652,0.027323993,0.6158589,-1.3032753,-0.35259956,0.5021754,0.0,1.0,0.0,0.0,0.0,0.0,0.0,-0.8695549,0.2728525,-0.09107965,0.9629011,10.277298,8.423739,2.0407915,5.805621,-3.9770722,-2.4127066
5.41885,84.56448,29.384602,13.519543,0.5637386,0.8748613,-0.010827437,-0.8212353,0.090011545,0.3252341,0.7127976,0.14877266,0.67990315,-0.5539481,1.2834709,-1.1328024,-1.9753454,-1.0554662,2.106867,1.8409137,-1.0834277,1.350862,-1.1396329,-2.0030885,-1.1139187,2.092539,1.7789152,-1.0308499,-1.4711683,0.22428071,0.50082785,1.2838892,0.07514879,0.5916109,-0.2874055,0.20425701,-0.67444897,0.6470771,-1.5300015,-0.1536437,0.6108699,0.1916027,-0.6305332,0.61217993,0.7950423,-0.028095955,0.026881456,0.6053062,-1.3106992,-0.31249842,0.5433508,0.0,1.0,0.0,0.0,0.0,0.0,0.0,-0.854257,0.27444896,-0.09707707,0.8197546,2.9138355,9.024549,0.47504902,8.080614,-2.948618,-2.2765875
8.521069,89.60286,30.873882,12.856707,-0.06323293,0.87675786,0.07607616,-0.8078349,0.17124933,0.34632364,0.71878684,0.0040980913,0.6876822,-0.5459539,1.2700785,-1.122508,-1.9684561,-1.04204,2.092949,1.8476834,-1.0854453,1.3362517,-1.1370351,-1.997494,-1.1010704,2.093385,1.7846618,-1.0338542,-1.4579321,0.27133983,0.5801281,1.2850857,0.08697472,0.569074,-0.30521387,0.18899536,-0.67580414,0.65349805,-1.5255978,-0.12796186,0.6554687,0.17855644,-0.6333332,0.6179698,0.80268395,-0.037014753,0.02631875,0.59467274,-1.3054721,-0.25816473,0.58948064,0.0,1.0,0.0,0.0,0.0,0.0,0.0,-0.83899534,0.27580413,-0.10349804,1.247406,4.564267,8.279932,0.109148026,0.894022,-2.1668792,-1.9108057
0.09054494,73.843056,22.318817,12.149077,-0.08287075,0.62771744,0.0010578102,-0.82260174,0.16064474,0.28184724,0.7204424,-0.057291843,0.68136483,-0.5399052,1.2539916,-1.1209706,-1.9693092,-1.0290262,2.0876558,1.8527982,-1.0878447,1.3216815,-1.1341418,-1.9916341,-1.0882221,2.0939944,1.7902199,-1.0370073,-1.4569037,0.29502782,0.58870125,1.2847037,0.052056044,0.5517363,-0.31899056,0.1737585,-0.6769352,0.6600952,-1.5237179,-0.1067112,0.6638151,0.16553307,-0.6356802,0.6239572,0.8100989,-0.046041317,0.025999956,0.5839041,-1.3040644,-0.215703,0.6003001,0.0,1.0,0.0,0.0,0.0,0.0,0.0,-0.8237585,0.2769352,-0.1100952,0.04963875,2.2747636,1.0767102,-0.053334236,-3.652656,-1.599288,-1.4678359
0.57726765,77.32657,22.537737,12.2394495,-0.5602118,0.5734091,0.033825126,-0.81212604,0.21879447,0.27847648,0.7239245,-0.17280269,0.6823095,-0.52098686,1.2404689,-1.1122624,-1.9637865,-1.0158297,2.076714,1.8584509,-1.089106,1.307138,-1.1308516,-1.9859192,-1.0753664,2.0938523,1.7956339,-1.0402654,-1.4536966,0.34001645,0.5664916,1.285772,-0.036740635,0.53832567,-0.32832584,0.15855503,-0.677824,0.6668257,-1.5199306,-0.08151992,0.6786434,0.15259361,-0.6375408,0.63007903,0.81728745,-0.055100184,0.026335996,0.5729848,-1.2927457,-0.16523214,0.614433,0.0,1.0,0.0,0.0,0.0,0.0,0.0,-0.808555,0.277824,-0.1168257,0.25713444,4.3955684,-2.003491,0.09775162,-9.038896,-1.1725187,-1.0293841
-4.6526933,72.11837,18.877867,12.8971,-0.50778687,0.4457342,-0.026293468,-0.8222904,0.23387301,0.22016518,0.7279566,-0.2173691,0.67301625,-0.5054273,1.224909,-1.1074643,-1.9639027,-1.0025707,2.0721154,1.8629355,-1.0908082,1.2925677,-1.127119,-1.9807708,-1.0624801,2.0927374,1.8009287,-1.0435882,-1.4581821,0.38421255,0.49822244,1.2895101,-0.1367899,0.52699256,-0.33388168,0.1433773,-0.6784744,0.673614,-1.5177851,-0.057932988,0.6812911,0.13974094,-0.6389513,0.636246,0.8242882,-0.06406751,0.027581343,0.56185716,-1.2842966,-0.12147844,0.61589795,0.0,1.0,0.0,0.0,0.0,0.0,0.0,-0.7933773,0.27847442,-0.12361401,-0.5056858,4.3314576,-6.669408,0.36392212,-10.11104,-0.9592533,-0.63996315
-6.202667,77.38196,19.875679,14.430597,-0.48345554,0.4342858,-0.05343049,-0.8258072,0.29002202,0.1799629,0.73295903,-0.24420473,0.6575184,-0.49129602,1.209987,-1.0981168,-1.9627745,-0.9891842,2.068317,1.8666805,-1.0927178,1.2779288,-1.1227854,-1.9764559,-1.0495348,2.0907004,1.8061122,-1.0469449,-1.4658815,0.4494491,0.4098205,1.2960471,-0.2262631,0.5157691,-0.336577,0.12821293,-0.67886734,0.6805056,-1.5165774,-0.03147883,0.6939063,0.12696648,-0.6399069,0.6424868,0.83113253,-0.072891146,0.029857945,0.550467,-1.2761279,-0.07618514,0.6252966,0.0,1.0,0.0,0.0,0.0,0.0,0.0,-0.7782129,0.27886733,-0.13050556,-0.8359909,6.4185085,-8.668041,0.65181255,-9.075626,-0.9756565,-0.36578774
-5.8596325,79.726234,20.39871,14.813449,-0.40503502,0.3615112,-0.056369036,-0.825872,0.32239947,0.13496791,0.7342692,-0.26084256,0.64786947,-0.4818318,1.1953416,-1.0905455,-1.9629592,-0.9761079,2.0646162,1.8708991,-1.095128,1.2632194,-1.1177653,-1.9730856,-1.0365285,2.0879228,1.8111881,-1.0503154,-1.4728179,0.51931393,0.31337842,1.3020928,-0.29522422,0.50498414,-0.33757532,0.11305714,-0.67898273,0.68754417,-1.5156368,-0.0031663203,0.7091496,0.114274025,-0.640419,0.6488304,0.8378244,-0.08154012,0.033146217,0.5387974,-1.2670945,-0.031930633,0.63606924,0.0,1.0,0.0,0.0,0.0,0.0,0.0,-0.7630571,0.27898273,-0.13754416,-0.7730007,6.8694887,-9.436202,0.58596134,-7.0629478,-0.965178,-0.2179861
-8.643631,78.61164,18.942728,15.809389,-0.31816706,0.27612224,-0.10628304,-0.83293426,0.36215222,0.039502993,0.7519597,-0.31483945,0.64485455,-0.4659371,1.1799259,-1.0815501,-1.9691353,-0.9613325,2.056439,1.8756735,-1.096909,1.248426,-1.1120185,-1.970909,-1.0233943,2.084488,1.8161638,-1.0536802,-1.48178,0.59293777,0.18641785,1.3170316,-0.3599582,0.49530038,-0.3365712,0.09790325,-0.6788101,0.69472176,-1.515567,0.025636438,0.72254604,0.10165024,-0.6405201,0.6552551,0.84439224,-0.08994287,0.037502605,0.526788,-1.26006,0.008373046,0.64347005,0.0,1.0,0.0,0.0,0.0,0.0,0.0,-0.7479032,0.2788101,-0.14472175,-0.9770632,7.240665,-12.495271,1.4651775,-6.63597,-0.8827746,-0.030046701
-12.453292,65.86943,13.170207,14.6166,-0.11405662,0.02008444,-0.17078584,-0.83891296,0.36904508,-0.10501184,0.7489033,-0.2910085,0.630044,-0.4531569,1.1645347,-1.075114,-1.9814101,-0.94850403,2.055387,1.8791682,-1.0989959,1.2335334,-1.1056805,-1.9704318,-1.0101402,2.0806267,1.8210479,-1.0570251,-1.4919246,0.6470688,0.0020212913,1.327834,-0.39494824,0.48622593,-0.33432475,0.082743645,-0.6783972,0.70183206,-1.5161582,0.048025656,0.7087148,0.089063644,-0.6403322,0.66156006,0.850892,-0.09786153,0.042918548,0.51435775,-1.2572345,0.033500716,0.6251806,0.0,1.0,0.0,0.0,0.0,0.0,0.0,-0.7327436,0.27839717,-0.15183204,-1.0848999,5.319023,-18.320898,1.0085821,-3.5787463,-0.8299291,0.08068681
-12.568251,56.788414,10.040422,13.093449,0.15319726,-0.16500181,-0.18907292,-0.83763856,0.3730657,-0.19819938,0.7479304,-0.21951762,0.61099446,-0.44173586,1.1497695,-1.0683739,-1.9902518,-0.93534714,2.058675,1.8821473,-1.1011987,1.2185681,-1.0989742,-1.9719192,-0.99681675,2.076762,1.8258394,-1.0603403,-1.4982834,0.67839026,-0.19861838,1.333361,-0.38361478,0.47678027,-0.3312993,0.067575455,-0.67779636,0.70866865,-1.5171598,0.06555048,0.6771286,0.076473236,-0.6399832,0.6675614,0.8573501,-0.10510575,0.049179126,0.5014826,-1.2581719,0.04671232,0.5912307,0.0,1.0,0.0,0.0,0.0,0.0,0.0,-0.71757543,0.27779636,-0.15866864,-0.69921017,3.0522704,-19.966812,0.440979,1.083529,-0.91356635,0.13940334
-12.965252,46.843292,6.7396502,11.6916895,0.27980176,-0.31056702,-0.19273522,-0.83721507,0.35879186,-0.30540007,0.7581247,-0.22886913,0.609222,-0.43688762,1.1348466,-1.0630951,-2.0024593,-0.9210043,2.053875,1.8867615,-1.104029,1.2035687,-1.0921745,-1.9754665,-0.98342216,2.0730686,1.8305471,-1.0636268,-1.5007284,0.680228,-0.40662634,1.3410724,-0.36463922,0.46874505,-0.32827356,0.052396774,-0.67705154,0.7150576,-1.5181472,0.07824368,0.6282568,0.06385231,-0.6395769,0.6731015,0.8637745,-0.111556746,0.05612052,0.48815906,-1.2616173,0.049824085,0.5413614,0.0,1.0,0.0,0.0,0.0,0.0,0.0,-0.70239675,0.27705154,-0.1650576,-0.289011,0.11994839,-20.730417,0.637269,1.8665493,-0.7622838,0.12077689
-11.521457,37.31005,4.872182,9.77345,0.58557236,-0.36491746,-0.15954629,-0.8389089,0.31105727,-0.34680536,0.7534988,-0.16640788,0.59339744,-0.43471193,1.1196778,-1.0610688,-2.010147,-0.9080723,2.0564277,1.8898869,-1.107098,1.188556,-1.0856781,-1.9807684,-0.96998924,2.0697482,1.8351725,-1.066884,-1.5015578,0.63950586,-0.5712249,1.3436137,-0.32146332,0.46049213,-0.32547206,0.03720188,-0.6762142,0.7208438,-1.5200272,0.086287886,0.56481814,0.051148415,-0.6392069,0.6780512,0.87014097,-0.11719141,0.06339587,0.47444886,-1.2709321,0.044292822,0.47987866,0.0,1.0,0.0,0.0,0.0,0.0,0.0,-0.68720186,0.2762142,-0.17084378,-0.11341572,-4.1172266,-16.373861,0.11603832,4.2812943,-0.80605745,0.10012388
-7.902589,33.005558,5.704095,8.501688,0.9483613,-0.3059699,-0.11950786,-0.8343645,0.25008827,-0.32611892,0.76183826,-0.10353888,0.58951586,-0.46637124,1.1051195,-1.0606693,-2.0133803,-0.8938054,2.0593944,1.8941242,-1.1135212,1.1735642,-1.0798988,-1.9870754,-0.95650876,2.0670042,1.83972,-1.0701399,-1.4983648,0.55748224,-0.64993256,1.349077,-0.2587448,0.4526678,-0.32601908,0.021979332,-0.6753063,0.7259735,-1.5229689,0.093256935,0.49895406,0.03831005,-0.63891125,0.68238604,0.876404,-0.12215776,0.0705137,0.46045777,-1.2862176,0.036213137,0.4189704,0.0,1.0,0.0,0.0,0.0,0.0,0.0,-0.6719793,0.2753063,-0.17597347,0.28800964,-8.238995,-7.706523,0.42624474,6.1799884,-0.80789924,-0.21467209
-5.63218,28.470486,5.492131,7.264817,1.0947063,-0.30281413,-0.07484169,-0.8300034,0.18681048,-0.34453455,0.76476294,-0.07556673,0.5698872,-0.45744538,1.0905639,-1.0612178,-2.021529,-0.8800325,2.0594475,1.8967087,-1.1158844,1.1586297,-1.0751553,-1.9937909,-0.9429681,2.0648897,1.8441837,-1.0733957,-1.4919218,0.44663912,-0.67831206,1.3553724,-0.19577144,0.444114,-0.32583502,0.006726265,-0.67434406,0.7303956,-1.5260373,0.09839343,0.42728826,0.025302887,-0.63871,0.686087,0.88252485,-0.12657996,0.07714242,0.44629177,-1.3039366,0.026001185,0.35485852,0.0,1.0,0.0,0.0,0.0,0.0,0.0,-0.65672624,0.27434406,-0.1803956,0.6191015,-11.108637,-2.6459455,0.53601265,6.190953,-0.8881092,-0.11367798
-0.21042016,44.967567,12.397049,8.950432,1.2960956,-0.083152294,-0.018258117,-0.8249171,0.18550639,-0.2817847,0.76250786,0.048655834,0.5689765,-0.4428582,1.0761379,-1.0566046,-2.0219693,-0.8667173,2.0697553,1.9010813,-1.1176815,1.1437752,-1.0713387,-2.0002272,-0.9293912,2.063663,1.8485597,-1.0766367,-1.4836311,0.35961914,-0.63084364,1.3579825,-0.099286236,0.43505576,-0.3240168,-0.008547783,-0.67324543,0.7343399,-1.5276572,0.11507226,0.38765606,0.012127876,-0.6384945,0.6893886,0.88844365,-0.13074706,0.082982175,0.43207288,-1.3204185,0.031769298,0.32296845,0.0,1.0,0.0,0.0,0.0,0.0,0.0,-0.6414522,0.27324542,-0.18433988,0.7416487,-8.7761345,5.1627755,0.15320778,9.352679,-1.0393381,0.042772293
-0.501802,51.685673,14.008265,10.375422,1.356247,-0.043958604,-0.031207137,-0.82441825,0.1636857,-0.31603795,0.76148015,0.13563704,0.5531511,-0.43276525,1.0613334,-1.05497,-2.031831,-0.8532432,2.0772266,1.9038749,-1.1199132,1.1289912,-1.0682259,-2.0062423,-0.91581035,2.0635312,1.85284,-1.0798525,-1.4771451,0.29499778,-0.5902938,1.357719,0.014563741,0.42513177,-0.32106513,-0.023833275,-0.67194843,0.73796064,-1.5285734,0.1360402,0.35800216,-0.0012111664,-0.6381779,0.692449,0.8941531,-0.13479142,0.087970205,0.41783088,-1.3372686,0.04327341,0.30159473,0.0,1.0,0.0,0.0,0.0,0.0,0.0,-0.6261667,0.27194843,-0.18796062,0.5488157,-6.5587044,4.516411,-0.13167858,11.04953,-1.1561394,0.15859008
-1.6120182,59.423508,15.680662,12.24028,1.3524829,0.02901417,-0.044736918,-0.82769,0.15183833,-0.31288177,0.76049316,0.19762573,0.5457061,-0.43279794,1.0462222,-1.053042,-2.0375304,-0.839761,2.0832937,1.9074105,-1.1231322,1.1142341,-1.0655708,-2.0119066,-0.9022476,2.0645401,1.8570215,-1.0830381,-1.4756416,0.255163,-0.5572982,1.355398,0.12870649,0.41522488,-0.31824538,-0.03911972,-0.6704006,0.7413766,-1.5283443,0.16275805,0.3409052,-0.014719009,-0.6376877,0.69538623,0.8996601,-0.13877855,0.09220004,0.40354824,-1.3535414,0.062683396,0.29193258,0.0,1.0,0.0,0.0,0.0,0.0,0.0,-0.61088026,0.2704006,-0.19137657,0.036025047,-4.106551,3.8183808,-0.335598,11.034477,-1.1774421,0.13917089
-2.4786153,66.97061,16.739464,13.800109,1.0205919,0.062090755,-0.030658815,-0.8274187,0.1591216,-0.3365503,0.76197875,0.17029531,0.5471077,-0.44112816,1.0314922,-1.0496587,-2.0455616,-0.82604975,2.0815697,1.9117322,-1.1271509,1.0994731,-1.0630971,-2.0174675,-0.8887039,2.0663843,1.8611153,-1.0862046,-1.4765737,0.24427132,-0.55379134,1.3536036,0.20205437,0.40672058,-0.31672058,-0.054377556,-0.66854095,0.74471486,-1.5245678,0.19582374,0.33619344,-0.028324127,-0.63694,0.6982904,0.904957,-0.14271802,0.09600433,0.38918817,-1.3615714,0.09078281,0.2908736,0.0,1.0,0.0,0.0,0.0,0.0,0.0,-0.5956224,0.26854095,-0.19471484,-0.22258759,-1.2376398,0.9094715,-0.29058456,6.927681,-1.0265708,-0.013458729
-3.97468,58.737705,13.387402,12.425249,0.8241057,-0.05065769,-0.015197191,-0.8266631,0.11170481,-0.3644085,0.7541759,0.18933432,0.53943276,-0.42729434,1.0168068,-1.0519266,-2.0539083,-0.8132863,2.0853179,1.9150586,-1.128934,1.0847007,-1.0608331,-2.0232155,-0.8752073,2.0687778,1.8651338,-1.0893502,-1.4777349,0.21999523,-0.58052045,1.3479226,0.25103864,0.39965162,-0.31422347,-0.06959438,-0.6663885,0.7478812,-1.5202953,0.22352853,0.31515265,-0.04199791,-0.63595676,0.70106405,0.91005117,-0.14649439,0.09960138,0.37473425,-1.3675799,0.11269358,0.27361715,0.0,1.0,0.0,0.0,0.0,0.0,0.0,-0.5804056,0.2663885,-0.19788116,-0.22046566,-2.5513082,-2.2076845,-0.66764355,4.570916,-0.8310735,0.0991106
-7.425684,56.971012,11.64242,13.166476,0.71870977,-0.09390956,-0.027805004,-0.8362379,0.10756831,-0.407852,0.75485516,0.19126569,0.50798523,-0.41464952,1.0010769,-1.0500762,-2.0640008,-0.7997218,2.0879045,1.9159323,-1.1308151,1.069873,-1.0587846,-2.0294664,-0.86175805,2.0714915,1.8690686,-1.0924617,-1.4846098,0.19945505,-0.6383618,1.3435392,0.2775365,0.39084086,-0.3106974,-0.08476734,-0.6639662,0.7508069,-1.5158043,0.25043854,0.29033443,-0.05573845,-0.63476753,0.70362735,0.9149598,-0.14998063,0.10320267,0.36014363,-1.3741477,0.13325378,0.25160623,0.0,1.0,0.0,0.0,0.0,0.0,0.0,-0.56523263,0.26396617,-0.20080692,-0.77774525,-2.1795301,-5.3616405,-0.52189827,2.3546755,-0.99437237,0.20692945
-8.091377,52.66604,9.909853,12.627105,0.5688236,-0.16515952,-0.0135323,-0.8333846,0.07947169,-0.43911126,0.761685,0.16271822,0.48949146,-0.39831463,0.98653454,-1.0508374,-2.0733776,-0.7855896,2.0877633,1.9180177,-1.1322932,1.0549937,-1.0570184,-2.036393,-0.8483073,2.0742667,1.8729105,-1.0955293,-1.489162,0.16876398,-0.7093864,1.3453019,0.27720425,0.38162297,-0.30587322,-0.099889755,-0.661294,0.7534296,-1.5105215,0.27487236,0.2584166,-0.06953049,-0.63339806,0.705913,0.9196868,-0.1530887,0.106969215,0.34539476,-1.3787295,0.15038769,0.22196491,0.0,1.0,0.0,0.0,0.0,0.0,0.0,-0.5501102,0.26129398,-0.20342958,-0.5308151,-3.1866045,-6.7168593,0.10538101,-0.29982924,-1.0145903,0.34013987
-8.794709,43.804558,7.2547646,11.124163,0.505249,-0.254799,0.008749355,-0.8352885,0.027238838,-0.4662507,0.76203924,0.13732634,0.45331258,-0.36753818,0.9714649,-1.0542945,-2.083018,-0.77210337,2.0879993,1.9182417,-1.1322831,1.0400764,-1.0557443,-2.0440218,-0.83482176,2.0768924,1.8766454,-1.0985285,-1.4927015,0.113177955,-0.7800818,1.3494575,0.25734693,0.3705622,-0.29840773,-0.11496544,-0.6584234,0.7556201,-1.506016,0.29326007,0.21151768,-0.08337879,-0.6319113,0.70779943,0.92423433,-0.15572736,0.110935986,0.33050433,-1.3846612,0.16032645,0.17844683,0.0,1.0,0.0,0.0,0.0,0.0,0.0,-0.53503454,0.25842342,-0.20562011,-0.40142536,-5.6538014,-6.753361,0.37369728,-2.2010326,-1.1694312,0.62415004
-9.138034,33.96184,4.784402,9.414207,0.71398383,-0.3450678,-0.0051514283,-0.83403,-0.034870822,-0.49043927,0.762274,0.20944147,0.4236717,-0.33812132,0.9566734,-1.0592314,-2.0930657,-0.75859433,2.0978365,1.9190127,-1.1323407,1.0251437,-1.0552427,-2.052295,-0.8212896,2.079517,1.8802605,-1.1014353,-1.4933275,0.028899822,-0.8426186,1.3543919,0.26392475,0.3581739,-0.2884069,-0.1300211,-0.65542793,0.75720596,-1.5047368,0.3038752,0.14672926,-0.09734917,-0.6303921,0.70914525,0.9286259,-0.15783149,0.11490817,0.31549844,-1.398464,0.16141649,0.121124804,0.0,1.0,0.0,0.0,0.0,0.0,0.0,-0.5199789,0.25542793,-0.20720595,-0.07610321,-8.496641,-6.023526,0.49278736,0.50890446,-1.302731,0.91738105
-8.027501,42.16718,6.871668,10.616482,0.6314961,-0.31566572,0.027465638,-0.83544064,-0.029406896,-0.5264723,0.7613984,0.18735462,0.36555293,-0.3032693,0.94159967,-1.0581833,-2.104942,-0.74514973,2.0982523,1.9168158,-1.1317623,1.0102073,-1.0554315,-2.061178,-0.807723,2.0821762,1.8837171,-1.1042243,-1.4937934,-0.03502526,-0.90237254,1.3571767,0.26594573,0.34098482,-0.2760317,-0.14504147,-0.65228367,0.758246,-1.5003086,0.32029784,0.09575315,-0.11141586,-0.62881184,0.71000975,0.93284935,-0.15941775,0.11888584,0.30040672,-1.4071716,0.16930646,0.07619269,0.0,1.0,0.0,0.0,0.0,0.0,0.0,-0.5049585,0.25228366,-0.208246,-0.0903368,-6.490752,-5.6370854,0.26142597,-0.04093051,-1.8169403,1.1274457
-7.3107014,40.755096,6.527128,9.943674,0.5679148,-0.34109712,0.06166847,-0.83607846,-0.082021326,-0.5487558,0.75769275,0.166003,0.31412822,-0.27220196,0.92659944,-1.0636336,-2.1160536,-0.73195374,2.0987766,1.9151299,-1.1314446,0.9952677,-1.0563031,-2.0705917,-0.79415804,2.0847898,1.8869758,-1.1068757,-1.4941193,-0.10477811,-0.95332855,1.3561592,0.25921935,0.3204633,-0.26186073,-0.16001225,-0.6489849,0.7587549,-1.4950389,0.33557546,0.04212056,-0.1255598,-0.6271591,0.71040684,0.93689185,-0.16047648,0.12288006,0.2852743,-1.4142742,0.17633072,0.02889207,0.0,1.0,0.0,0.0,0.0,0.0,0.0,-0.48998773,0.2489849,-0.2087549,-0.07548332,-7.071124,-4.7459364,-0.10848045,-0.9325743,-2.1473587,1.3095319
-8.719034,39.14405,5.8350573,9.958884,0.5654224,-0.3476473,0.08589958,-0.8448681,-0.12915476,-0.5717762,0.7551638,0.13813931,0.2439282,-0.2143626,0.9107809,-1.0692186,-2.1277692,-0.71864164,2.0986037,1.9113686,-1.1283119,0.98028547,-1.057911,-2.0804625,-0.7806224,2.087243,1.889994,-1.1093543,-1.499706,-0.17984127,-0.9972673,1.3526778,0.24007095,0.29517776,-0.24348924,-0.17493153,-0.64554214,0.7587065,-1.4899487,0.34977734,-0.014123168,-0.13978767,-0.62543964,0.71031356,0.9407516,-0.16096888,0.12690036,0.27013278,-1.4230367,0.18287334,-0.020839388,0.0,1.0,0.0,0.0,0.0,0.0,0.0,-0.47506845,0.24554214,-0.2087065,-0.59144497,-7.603505,-4.0458083,-0.32663345,-2.1855383,-2.6272833,1.7396808
-6.7436714,42.916077,6.97036,10.056805,0.52751124,-0.3536206,0.113348916,-0.83952516,-0.15730713,-0.5840537,0.754265,0.13465413,0.1755162,-0.18348372,0.896333,-1.0736418,-2.1388679,-0.7051959,2.1007085,1.9075457,-1.1277026,0.9652719,-1.0602227,-2.0906882,-0.76712626,2.0895023,1.8927275,-1.1116402,-1.5020435,-0.2487036,-1.0297301,1.3484652,0.22065133,0.2656352,-0.22407827,-0.18978405,-0.6419401,0.7581419,-1.482499,0.3661908,-0.064358905,-0.15407467,-0.6236391,0.7097669,0.9444198,-0.16090655,0.13093284,0.25502342,-1.4279836,0.19184859,-0.064695254,0.0,1.0,0.0,0.0,0.0,0.0,0.0,-0.46021593,0.24194011,-0.20814186,-0.28693676,-6.993884,-2.824378,-0.4128933,-2.2797048,-3.0720294,1.8287271
-8.211956,28.513178,3.0917926,7.104144,0.496,-0.554142,0.14749345,-0.8461357,-0.25023234,-0.622299,0.7361084,0.13018027,-0.03494361,-0.09487032,0.8806583,-1.085246,-2.152918,-0.6935154,2.1025205,1.8892331,-1.1211272,0.95021814,-1.0634633,-2.1013007,-0.75374275,2.091581,1.8950397,-1.1136845,-1.5064265,-0.3494958,-1.0713133,1.3351059,0.20341444,0.21930586,-0.19796035,-0.20459747,-0.6382637,0.75688064,-1.4799634,0.37046012,-0.14033192,-0.16845894,-0.6218481,0.708615,0.9479319,-0.16011348,0.13487348,0.2399957,-1.4393966,0.18747634,-0.13089271,0.0,1.0,0.0,0.0,0.0,0.0,0.0,-0.4454025,0.2382637,-0.20688063,-0.42965412,-10.147465,-3.9285421,-1.2517214,-1.9241124,-4.724163,2.564952
-4.9368725,57.293118,9.805506,12.00491,0.19914196,-0.39387298,0.2389441,-0.8466576,-0.17570819,-0.6383177,0.7354265,0.018728739,-0.123756595,-0.0012633216,0.86555237,-1.0810342,-2.1651325,-0.6802001,2.093454,1.882664,-1.1138109,0.9351205,-1.0671827,-2.1123013,-0.7404985,2.0932064,1.8968427,-1.1154203,-1.5112556,-0.3798799,-1.1077387,1.3205556,0.1473597,0.16684243,-0.16601121,-0.21928215,-0.6343899,0.7552288,-1.4634095,0.39545745,-0.16728967,-0.1828022,-0.61994267,0.70711666,0.95123047,-0.15863778,0.13900334,0.2251057,-1.4299427,0.2040269,-0.15503538,0.0,1.0,0.0,0.0,0.0,0.0,0.0,-0.43071783,0.23438987,-0.2052288,-0.5997658,-3.1888783,-3.002262,-1.507473,-6.162414,-5.385372,3.0070395
-4.1553774,55.109406,8.819985,10.909914,-0.20746934,-0.47275287,0.35060877,-0.8500413,-0.23433685,-0.66746825,0.72208804,-0.1398408,-0.261351,0.12236344,0.8501164,-1.0906163,-2.179048,-0.66828966,2.0792224,1.8707076,-1.103184,0.9199695,-1.0712358,-2.1237025,-0.72743237,2.093833,1.8980668,-1.1167711,-1.5167696,-0.41431394,-1.1488793,1.3017018,0.03295405,0.10721106,-0.12533629,-0.23377895,-0.6302862,0.753288,-1.4437491,0.41782025,-0.19689213,-0.19698429,-0.6179085,0.705334,0.9542717,-0.15638673,0.14361763,0.21043456,-1.4118514,0.21594593,-0.1849304,0.0,1.0,0.0,0.0,0.0,0.0,0.0,-0.41622102,0.23028621,-0.20328796,-0.66530704,-3.5852015,-3.4813643,-1.9337654,-12.01066,-6.0600414,3.865686
-1.6343293,47.527138,6.8189034,7.9726458,-0.7333325,-0.6190324,0.48051402,-0.8440989,-0.28742987,-0.70369244,0.70499927,-0.3215556,-0.39614543,0.23799868,0.8355596,-1.0999788,-2.1940718,-0.6569325,2.0616775,1.8584522,-1.0929712,0.9048032,-1.0757562,-2.135584,-0.71459615,2.0928655,1.8986529,-1.1176622,-1.5168492,-0.46490964,-1.1996143,1.2774305,-0.14126796,0.042279564,-0.07764085,-0.24806595,-0.62600803,0.7509634,-1.4221671,0.4333266,-0.23841973,-0.21091747,-0.6158285,0.7031393,0.9570341,-0.1531398,0.1489385,0.19608957,-1.3843685,0.21726434,-0.22983423,0.0,1.0,0.0,0.0,0.0,0.0,0.0,-0.40193403,0.22600803,-0.20096338,-0.10223389,-5.1739035,-4.523468,-2.4573088,-17.940933,-6.525123,4.566616
-1.1168985,42.906574,5.6631174,6.676228,-0.7784028,-0.70540553,0.5036268,-0.8445725,-0.32311144,-0.7281081,0.6900527,-0.39402056,-0.5041702,0.29614866,0.820346,-1.1080674,-2.208395,-0.6455909,2.0534635,1.8482358,-1.0880473,0.88964933,-1.0808603,-2.1479845,-0.70202327,2.0901465,1.8985713,-1.1180744,-1.5151876,-0.52599305,-1.2518922,1.2504498,-0.31671447,-0.025137749,-0.029579379,-0.26214314,-0.6216068,0.7481701,-1.4016392,0.4443545,-0.28780797,-0.22458553,-0.6137829,0.70043623,0.95952344,-0.14876534,0.15496862,0.18212147,-1.3585521,0.2120452,-0.28298905,0.0,1.0,0.0,0.0,0.0,0.0,0.0,-0.38785684,0.22160682,-0.19817007,0.08947849,-6.2089624,-4.7302246,-2.7016878,-18.035307,-6.7780323,4.6141148
-1.1195157,44.670692,6.0684204,7.2011986,-0.57590127,-0.6838002,0.46337688,-0.84488416,-0.3447283,-0.7449409,0.6782389,-0.4441399,-0.543115,0.30113572,0.80516094,-1.1153331,-2.2224786,-0.6341994,2.0457325,1.8442597,-1.0879608,0.87451357,-1.0865556,-2.1608582,-0.6897156,2.0858564,1.8978506,-1.1180499,-1.5132587,-0.58428574,-1.2975396,1.2241051,-0.46793705,-0.08798086,0.012473993,-0.27601433,-0.6170893,0.74490726,-1.3810585,0.45595476,-0.33458003,-0.23802948,-0.61177826,0.69721967,0.9617515,-0.1432817,0.16157016,0.16852112,-1.3368115,0.20755701,-0.33380306,0.0,1.0,0.0,0.0,0.0,0.0,0.0,-0.37398565,0.21708927,-0.19490725,0.108766556,-5.9349895,-4.028487,-2.6362896,-15.657568,-6.3696885,4.00853
