Afshin1997/kuka_rl_ros2/src/catch_and_throw/input_files/idealpd/polynomial_regressor/optimizer_files/env_323_data.csv
torque0,torque1,torque2,torque3,torque4,torque5,torque6,action0,action1,action2,action3,action4,action5,action6,set_target_0,set_target_1,set_target_2,set_target_3,set_target_4,set_target_5,set_target_6,joint_pos_0,joint_pos_1,joint_pos_2,joint_pos_3,joint_pos_4,joint_pos_5,joint_pos_6,joint_vel_0,joint_vel_1,joint_vel_2,joint_vel_3,joint_vel_4,joint_vel_5,joint_vel_6,tennisball_pos_0,tennisball_pos_1,tennisball_pos_2,tennisball_lin_vel_0,tennisball_lin_vel_1,tennisball_lin_vel_2,end_effector_pos_0,end_effector_pos_1,end_effector_pos_2,end_effector_rot_0,end_effector_rot_1,end_effector_rot_2,end_effector_rot_3,end_effector_lin_vel_0,end_effector_lin_vel_1,end_effector_lin_vel_2,obs_task_0,obs_task_1,obs_task_2,obs_task_3,obs_task_4,obs_task_5,obs_task_6,to_final_target_0,to_final_target_1,to_final_target_2,joint_acc_0,joint_acc_1,joint_acc_2,joint_acc_3,joint_acc_4,joint_acc_5,joint_acc_6
0.0,0.0,0.0,0.0,0.0,0.0,0.0,0.0,0.0,0.0,0.0,0.0,0.0,0.0,1.7802359,-1.0646509,-1.8151424,-1.1170107,1.9373155,1.1170107,-0.91629785,1.7802359,-1.0646509,-1.8151424,-1.1170107,1.9373155,1.1170107,-0.91629785,0.0,0.0,0.0,0.0,0.0,0.0,0.0,3.214775,-0.46130562,0.39864093,-3.505551,-0.25363666,5.213604,0.5304146,-0.45449638,0.693097,0.5745483,0.17512383,0.15255436,0.7848268,0.0,0.0,0.0,1.0,0.0,0.0,0.0,0.0,0.0,0.0,-3.8647752,0.061305612,0.15135908,0.0,0.0,0.0,0.0,0.0,0.0,0.0
0.0,0.0,0.0,0.0,0.0,0.0,0.0,0.0,0.0,0.0,0.0,0.0,0.0,0.0,1.7802359,-1.0646509,-1.8151424,-1.1170107,1.9373155,1.1170107,-0.91629785,1.7802359,-1.0646509,-1.8151424,-1.1170107,1.9373155,1.1170107,-0.91629785,0.0,0.0,0.0,0.0,0.0,0.0,0.0,3.214775,-0.46130562,0.39864093,-3.505551,-0.25363666,5.213604,0.5304146,-0.45449638,0.693097,0.5745483,0.17512383,0.15255436,0.7848268,0.0,0.0,0.0,1.0,0.0,0.0,0.0,0.0,0.0,0.0,-3.8647752,0.061305612,0.15135908,0.0,0.0,0.0,0.0,0.0,0.0,0.0
0.0,0.0,0.0,0.0,0.0,0.0,0.0,0.0,0.0,0.0,0.0,0.0,0.0,0.0,1.7802359,-1.0646509,-1.8151424,-1.1170107,1.9373155,1.1170107,-0.91629785,1.7802359,-1.0646509,-1.8151424,-1.1170107,1.9373155,1.1170107,-0.91629785,0.0,0.0,0.0,0.0,0.0,0.0,0.0,3.214775,-0.46130562,0.39864093,-3.505551,-0.25363666,5.213604,0.5304146,-0.45449638,0.693097,0.5745483,0.17512383,0.15255436,0.7848268,0.0,0.0,0.0,1.0,0.0,0.0,0.0,0.0,0.0,0.0,-3.8647752,0.061305612,0.15135908,0.0,0.0,0.0,0.0,0.0,0.0,0.0
-176.0,56.22517,-10.448114,110.0,10.486012,4.39571,-3.85416,-0.7990488,0.26947898,-0.5174186,0.74352354,0.013837874,0.68502885,-0.59397656,1.700331,-1.037703,-1.8668842,-1.0426583,1.9386992,1.1855136,-0.9756955,1.778855,-1.0625948,-1.8210018,-1.1119047,1.9407258,1.1218306,-0.91646475,-0.18381312,0.27364242,-0.78067976,0.68114203,0.45398098,0.6411332,-0.021974837,3.1797466,-0.46384048,0.45000142,-3.5020463,-0.25338307,5.110205,0.5283623,-0.45770264,0.69377697,0.5780224,0.1737184,0.15166312,0.7827581,-0.27366573,-0.42812434,0.0905429,1.0,0.0,0.0,0.0,0.0,0.0,0.0,-3.8297467,0.06384048,0.09999859,-18.291227,27.165916,-77.9403,68.22768,45.20997,63.669426,-2.101738
-176.0,-41.68079,-49.627552,110.0,11.898188,0.92888755,-3.544989,-0.791461,-0.21181174,-0.58152866,0.71677554,0.14267501,0.65860295,-0.5780207,1.6997088,-1.083776,-1.8791547,-1.0402272,1.9549932,1.1876909,-0.9742668,1.7773348,-1.0603918,-1.8358982,-1.0969626,1.9470487,1.1342493,-0.9149446,-0.14200771,0.19476753,-1.7104232,1.7672153,0.6834946,1.4217687,0.20673227,3.1447525,-0.46637344,0.5003287,-3.498545,-0.25312975,5.00691,0.5238552,-0.46611404,0.69433683,0.58590597,0.17030814,0.14925213,0.7780958,-0.51063526,-0.97702765,0.04658885,1.0,0.0,0.0,0.0,0.0,0.0,0.0,-3.7947526,0.06637344,0.049671292,4.045758,-10.187745,-88.2942,109.22811,20.536459,71.94951,21.890703
-151.6931,95.559395,26.57088,90.28591,8.344064,7.49164,-1.9552193,-0.74900866,0.17863688,0.12475521,0.69042003,0.2402538,0.6973628,-0.48634306,1.702434,-1.0425282,-1.8234227,-1.0279206,1.9710741,1.2039856,-0.9635789,1.7727686,-1.0581945,-1.850785,-1.0773665,1.9538026,1.148398,-0.913227,-0.5611714,0.22472641,-1.4084458,2.0256026,0.66727567,1.4066938,0.15942506,3.1097927,-0.4689026,0.54962385,-3.495047,-0.25287667,4.9037175,0.51652336,-0.47748947,0.69631886,0.59661597,0.16529025,0.14558278,0.7717086,-0.8143478,-1.1834627,0.2526495,1.0,0.0,0.0,0.0,0.0,0.0,0.0,-3.7597928,0.06890258,0.0003761649,-41.84953,2.0277114,32.0745,26.404047,-3.2993197,-3.2147408,-4.923868
-98.90416,95.58514,37.455433,55.666233,5.599899,7.5657682,-0.2563165,-0.7712228,0.0025353897,0.22554693,0.6889218,0.3113624,0.67765754,-0.5607511,1.6956463,-1.057941,-1.8282304,-1.0084743,1.9849389,1.2161638,-0.9693021,1.76393,-1.0565466,-1.8597896,-1.0577894,1.9599843,1.1616141,-0.9122161,-0.9921825,0.14247978,-0.72361267,1.9360108,0.5954267,1.289765,0.08088315,3.0748692,-0.47142982,0.5978878,-3.4915528,-0.25262383,4.800628,0.5065918,-0.4897728,0.700092,0.60826373,0.15899314,0.1403921,0.76487017,-1.064047,-1.2320538,0.42294914,1.0,0.0,0.0,0.0,0.0,0.0,0.0,-3.7248693,0.07142982,-0.047887802,-43.318176,-8.894086,70.7187,-8.670497,-9.112763,-12.747073,-8.092657
-41.801395,129.65492,53.62681,31.45317,2.5340848,7.4648123,0.4661211,-0.78435737,0.18599422,0.23011766,0.6819928,0.44002557,0.6773451,-0.57852197,1.6854942,-1.0379472,-1.8367778,-0.98959017,2.0039868,1.2293485,-0.97006834,1.7515131,-1.0548548,-1.8619373,-1.0403811,1.9657636,1.1735026,-0.9120359,-1.3261238,0.17614935,-0.038707692,1.6753914,0.56669,1.153183,-0.0045114914,3.03998,-0.47395515,0.64512163,-3.488062,-0.25237125,4.697642,0.49473953,-0.5015011,0.7056538,0.6196927,0.1515273,0.13390425,0.75834686,-1.2379982,-1.1399761,0.60188264,1.0,0.0,0.0,0.0,0.0,0.0,0.0,-3.68998,0.07395515,-0.09512162,-33.745457,2.8008163,70.48665,-26.154947,-4.425037,-14.251637,-9.01786
-6.3402233,128.34096,49.115192,15.094427,0.14244705,5.37586,0.38258994,-0.8028937,0.29582733,0.09692091,0.6610508,0.45323408,0.66063154,-0.60058635,1.6712238,-1.025272,-1.8522452,-0.974276,2.011087,1.2395657,-0.97209454,1.7367922,-1.0521578,-1.8594444,-1.0256773,1.9714513,1.1841341,-0.91265196,-1.5217186,0.29932508,0.3492583,1.4016325,0.5666958,1.0326501,-0.082210034,3.005125,-0.47647667,0.6913263,-3.4845746,-0.25211895,4.5947585,0.48179054,-0.511961,0.71258336,0.63057625,0.14330783,0.12702316,0.75213134,-1.32559,-1.0015324,0.72207844,1.0,0.0,0.0,0.0,0.0,0.0,0.0,-3.6551251,0.07647666,-0.14132631,-19.872236,11.91305,40.01725,-27.541876,-0.8034587,-12.179232,-8.245709
16.689049,146.51637,51.23391,10.19458,-1.5487676,4.3673277,-0.051050596,-0.8166444,0.5128698,0.024290169,0.6468395,0.45722046,0.6681363,-0.5890642,1.6551278,-1.0008708,-1.8570154,-0.96099335,2.0171733,1.2509477,-0.9715584,1.7209917,-1.0472234,-1.855233,-1.0132033,1.9772553,1.1937147,-0.91395086,-1.6008046,0.557021,0.44802776,1.195353,0.5836935,0.9333092,-0.14744498,2.9703064,-0.47899628,0.73650295,-3.4810908,-0.25186688,4.491978,0.46839333,-0.5207901,0.72071207,0.6410739,0.13457198,0.120845325,0.74586254,-1.3548336,-0.83094054,0.84098107,1.0,0.0,0.0,0.0,0.0,0.0,0.0,-3.6203065,0.07899627,-0.18650293,-8.235288,25.404804,10.719442,-20.748974,1.3088822,-9.8742485,-7.0275292
29.290667,144.47264,48.63056,7.6772814,-2.0536675,3.3936226,-0.2200073,-0.81147134,0.6031845,0.047274843,0.63706064,0.5009326,0.64608705,-0.5550701,1.6398447,-0.986905,-1.8505055,-0.9494972,2.0273485,1.2583234,-0.96945786,1.7050291,-1.0395483,-1.8511512,-1.0021273,1.9833894,1.2024161,-0.9157905,-1.5957611,0.83663756,0.39696944,1.0779344,0.6223712,0.8493376,-0.19754289,2.935522,-0.48151398,0.7806526,-3.4776103,-0.25161505,4.389301,0.45496178,-0.5279579,0.72994107,0.65135455,0.12545295,0.11587048,0.7393057,-1.3474782,-0.664745,0.9477988,1.0,0.0,0.0,0.0,0.0,0.0,0.0,-3.5855222,0.08151397,-0.23065257,0.20284653,27.662766,-4.440987,-11.831903,3.636229,-8.339178,-5.453482
32.645374,134.61655,44.859215,7.509433,-1.8630885,2.8066235,-0.23722726,-0.80632234,0.672524,0.08647812,0.6312926,0.52192146,0.64903563,-0.51594216,1.6243969,-0.9722959,-1.8425034,-0.93899804,2.0355816,1.2673197,-0.9673847,1.689427,-1.0293363,-1.8478534,-0.991668,1.9899507,1.210385,-0.91802686,-1.5492334,1.0817981,0.30942965,1.0349733,0.66679066,0.7794499,-0.23360407,2.900772,-0.48402786,0.82377625,-3.4741335,-0.2513635,4.2867265,0.44168282,-0.5336075,0.7401493,0.6614936,0.116001874,0.112067215,0.7324006,-1.3275081,-0.51718444,1.0429236,1.0,0.0,0.0,0.0,0.0,0.0,0.0,-3.5507722,0.08402786,-0.27377623,4.3995857,24.269247,-8.174234,-4.38354,4.265845,-7.022679,-3.9931326
28.092403,112.20603,36.804726,7.5063667,-1.2828158,2.1159391,-0.18620348,-0.80159336,0.7017315,0.086998984,0.6258023,0.5465117,0.6536621,-0.51062405,1.6092677,-0.9591632,-1.8391535,-0.92908776,2.044602,1.2757511,-0.96908927,1.674357,-1.0172514,-1.8453987,-0.9812987,1.9969621,1.2177492,-0.9205598,-1.4935066,1.2498981,0.22575316,1.0371729,0.7123465,0.7218102,-0.2610188,2.8660564,-0.48653984,0.86587495,-3.4706602,-0.2511122,4.184254,0.42859268,-0.5380497,0.7510746,0.6715138,0.106316924,0.10913293,0.72515917,-1.3076764,-0.40389296,1.10673,1.0,0.0,0.0,0.0,0.0,0.0,0.0,-3.5160565,0.086539835,-0.31587493,5.3767204,16.625523,-7.8900576,0.09891987,4.4292808,-5.849421,-3.0741959
21.242382,91.17411,29.460207,7.7064214,-0.7017048,1.6361445,-0.10770923,-0.79863054,0.7242719,0.08930815,0.61893284,0.5557457,0.662216,-0.5068486,1.594494,-0.94482416,-1.8364679,-0.9194054,2.0525367,1.2839708,-0.9712447,1.6597658,-1.0040449,-1.8435657,-0.97077966,2.0043702,1.2246195,-0.92332166,-1.4481688,1.3437921,0.17033048,1.0562661,0.7500416,0.6752376,-0.2822025,2.8313751,-0.4890499,0.90694964,-3.4671903,-0.25086114,4.0818844,0.41564178,-0.5415859,0.76241744,0.6813995,0.09650747,0.106721245,0.717629,-1.2946028,-0.320402,1.1412628,1.0,0.0,0.0,0.0,0.0,0.0,0.0,-3.4813752,0.089049906,-0.35694963,4.375744,9.254837,-5.128929,1.7490387,3.681326,-4.746282,-2.4215162
14.325061,71.725685,22.340193,7.534691,-0.27199262,1.1602423,-0.054403823,-0.7926573,0.7318796,0.063778944,0.61631274,0.55983585,0.67002964,-0.49008805,1.5805001,-0.93085694,-1.8371878,-0.9091484,2.0603538,1.2916225,-0.97233045,1.645518,-0.990353,-1.8421905,-0.96006036,2.012076,1.2310969,-0.9262504,-1.4174676,1.3773537,0.12777267,1.0764424,0.7772487,0.6383926,-0.2973143,2.79673,-0.49155617,0.94700146,-3.4637237,-0.25061032,3.9796174,0.402771,-0.544487,0.77387947,0.6911292,0.08669812,0.10458687,0.7098488,-1.2870163,-0.2629581,1.1455963,1.0,0.0,0.0,0.0,0.0,0.0,0.0,-3.4467301,0.09155616,-0.39700145,2.9377937,3.268814,-3.9120615,1.814723,2.6790977,-3.7250638,-1.7901957
9.288788,60.195118,18.169657,7.487423,0.024505556,0.92545354,0.0057883784,-0.7946568,0.73694724,0.058947653,0.6033601,0.5814135,0.6643556,-0.5012612,1.5660523,-0.9166583,-1.8362957,-0.89972436,2.0702171,1.2975324,-0.97637653,1.6314436,-0.9765953,-1.8411014,-0.9492409,2.0200334,1.2372557,-0.9293136,-1.4047369,1.3750949,0.103806615,1.0830122,0.80217296,0.6082647,-0.3102103,2.7621193,-0.49406052,0.9860313,-3.4602606,-0.25035974,3.8774529,0.38993645,-0.5469265,0.7852499,0.70067066,0.07698377,0.10255469,0.7018665,-1.2848792,-0.22046585,1.1320453,1.0,0.0,0.0,0.0,0.0,0.0,0.0,-3.4121194,0.09406051,-0.43603128,1.1444092,-0.28645992,-2.068688,0.42717457,2.4697065,-3.0166507,-1.5558124
6.5596895,54.925434,16.008823,7.5708594,0.10630387,0.8015908,0.020296775,-0.79318035,0.7427394,0.039090116,0.59804344,0.58095306,0.6711141,-0.49634668,1.5521256,-0.90232134,-1.8371924,-0.8894366,2.0781286,1.3043671,-0.9789483,1.6174113,-0.96295965,-1.840224,-0.9384339,2.0281777,1.2431589,-0.93248457,-1.4031183,1.3595905,0.08337778,1.0791389,0.818706,0.58458376,-0.3201797,2.7275429,-0.49656296,1.0240402,-3.4568012,-0.25010943,3.7753904,0.3771038,-0.54898643,0.7964179,0.7100096,0.06740936,0.100571156,0.6937058,-1.2846097,-0.18407962,1.1094668,1.0,0.0,0.0,0.0,0.0,0.0,0.0,-3.377543,0.09656295,-0.4740402,0.03144741,-1.5985727,-1.7225921,-0.62816143,1.6430259,-2.3453832,-1.2530327
5.832017,54.3889,15.373041,7.8304234,0.056839645,0.7438948,-0.0011840425,-0.78807604,0.75121117,0.007566004,0.59859186,0.57953167,0.6765971,-0.49060404,1.5386037,-0.88783854,-1.8394674,-0.8785747,2.0861309,1.3108187,-0.981545,1.6033732,-0.9494556,-1.8396232,-0.92768884,2.0364327,1.2488657,-0.9357366,-1.4044139,1.3470875,0.053230345,1.072099,0.82769835,0.56597686,-0.3276397,2.6930008,-0.49906158,1.0610294,-3.453345,-0.24985938,3.67343,0.3642769,-0.55068016,0.8073474,0.7191532,0.057980105,0.09868404,0.68535995,-1.2832197,-0.14809978,1.0851245,1.0,0.0,0.0,0.0,0.0,0.0,0.0,-3.343001,0.09906158,-0.5110294,-0.26295185,-1.2974024,-2.6977062,-0.945282,0.8967519,-1.8319368,-0.9964347
5.352925,54.769203,15.2225895,8.1936,0.021678865,0.7379748,-0.012406472,-0.79156303,0.7487708,-0.0058530667,0.5926055,0.5734964,0.6811236,-0.49259716,1.5242169,-0.87457854,-1.8402085,-0.8684283,2.0937824,1.3169781,-0.9849963,1.589295,-0.93605745,-1.8393314,-0.91703916,2.044722,1.2544142,-0.9390525,-1.4094137,1.3373076,0.022241013,1.0617719,0.8290105,0.5513755,-0.33377898,2.658493,-0.5015583,1.0969998,-3.4498923,-0.24960957,3.5715716,0.35146713,-0.5520077,0.8180383,0.72811025,0.04868335,0.0969458,0.6768212,-1.2813169,-0.111101225,1.0614299,1.0,0.0,0.0,0.0,0.0,0.0,0.0,-3.3084931,0.1015583,-0.54699975,-0.6389141,-1.0274172,-2.7687874,-1.271987,0.12518167,-1.4344573,-0.86290836
6.0555973,56.975933,15.713164,8.337672,-0.07475805,0.75476086,-0.017941426,-0.79332554,0.7545711,-0.026394648,0.5826996,0.5696991,0.68391055,-0.4950789,1.5099624,-0.86060035,-1.8419708,-0.8587692,2.101692,1.3228053,-0.98856044,1.5751597,-0.92269456,-1.8393734,-0.906523,2.0529847,1.2598406,-0.94242376,-1.4154063,1.3356981,-0.011670844,1.0474368,0.8256257,0.5397327,-0.3390737,2.6240196,-0.5040531,1.1319523,-3.446443,-0.24936001,3.469815,0.3386879,-0.55293846,0.82851326,0.7368832,0.039492607,0.09541694,0.66808605,-1.2770225,-0.07014539,1.0406281,1.0,0.0,0.0,0.0,0.0,0.0,0.0,-3.2740197,0.10405311,-0.5819523,-0.74732304,-0.21634102,-3.0379138,-1.6713858,-0.3530264,-1.1461496,-0.7823944
7.310511,58.214836,15.985352,8.164749,-0.15243405,0.7258514,-0.007677879,-0.7919733,0.75573975,-0.047183532,0.5739101,0.57140094,0.68356127,-0.4954417,1.4959624,-0.8471206,-1.8440917,-0.849132,2.1101248,1.3281968,-0.9919679,1.5609823,-0.9093145,-1.8397701,-0.8961661,2.061213,1.2651659,-0.9458417,-1.4191988,1.3385061,-0.04760289,1.0309304,0.8219012,0.53026015,-0.34355897,2.5895805,-0.5065441,1.165888,-3.4429975,-0.2491107,3.3681602,0.32597733,-0.5534344,0.83879244,0.7454633,0.030393694,0.09412634,0.6591669,-1.2692974,-0.02668049,1.0214006,1.0,0.0,0.0,0.0,0.0,0.0,0.0,-3.2395806,0.10654411,-0.61588794,-0.5319834,0.22370815,-3.2247052,-1.8900394,-0.39367676,-0.9306073,-0.7059872
9.246799,60.78662,16.864279,7.821572,-0.25562268,0.75618535,0.02886879,-0.7937699,0.7628254,-0.053817693,0.55577534,0.5674548,0.69018257,-0.49672642,1.4816054,-0.83303195,-1.8451519,-0.84058857,2.1179585,1.3341842,-0.9955144,1.5467726,-0.89586484,-1.8404663,-0.88602376,2.0693955,1.270415,-0.9493007,-1.422222,1.34693,-0.07560243,1.0077504,0.8171725,0.52312255,-0.34751126,2.5551758,-0.5090332,1.1988078,-3.4395552,-0.24886164,3.266607,0.31336403,-0.55345917,0.84890586,0.75382304,0.0213559,0.09308761,0.65009946,-1.2577213,0.022250136,1.0056808,1.0,0.0,0.0,0.0,0.0,0.0,0.0,-3.2051759,0.1090332,-0.6488078,-0.46608448,0.78065395,-2.3923368,-2.558589,-0.5123019,-0.70103407,-0.6634712
11.98789,60.772514,17.044,6.356541,-0.3731619,0.6810391,0.11609931,-0.7947981,0.7612509,-0.054733247,0.5204566,0.57726234,0.6865494,-0.49453303,1.4672928,-0.81973976,-1.8459396,-0.8339781,2.1271217,1.3390698,-0.998754,1.532538,-0.8823427,-1.8413532,-0.8762381,2.0775666,1.275601,-0.95279306,-1.4244996,1.3538353,-0.091490224,0.9679784,0.8172146,0.5173421,-0.3506703,2.5208054,-0.5115204,1.2307129,-3.4361162,-0.24861282,3.1651554,0.30091476,-0.55296135,0.85884666,0.76190144,0.012385175,0.092272885,0.6409668,-1.2394409,0.07438045,0.9878748,1.0,0.0,0.0,0.0,0.0,0.0,0.0,-3.1708055,0.11152038,-0.6807129,-0.39947033,0.6356001,-1.1550575,-4.226935,-0.04733801,-0.5349517,-0.5911827
15.892,65.37508,19.125004,5.6948066,-0.440704,0.7928268,0.22724822,-0.7898113,0.7704984,-0.018677503,0.49764308,0.5866213,0.685293,-0.48433188,1.4535569,-0.80529284,-1.843221,-0.8264738,2.1362288,1.3441303,-1.0012263,1.518313,-0.8687271,-1.8421466,-0.8668997,2.0857759,1.2807356,-0.95630544,-1.4226115,1.3640331,-0.07372474,0.9215763,0.82196534,0.512427,-0.35244134,2.4864693,-0.51400375,1.2616042,-3.4326808,-0.24836427,3.063805,0.28867912,-0.55187607,0.8686702,0.7696133,0.0034210142,0.091598764,0.63189656,-1.2165318,0.13525479,0.97802854,1.0,0.0,0.0,0.0,0.0,0.0,0.0,-3.1364694,0.11400375,-0.7116042,0.008535385,0.9598732,2.273579,-4.878235,0.39120913,-0.45634508,-0.4710436
16.21413,68.10443,20.415186,6.840089,-0.27523518,0.93694556,0.2773917,-0.7931716,0.7694752,0.030387452,0.49290237,0.587086,0.68607044,-0.47587115,1.4389958,-0.7917796,-1.8391079,-0.8176095,2.1444845,1.3493427,-1.0038925,1.5040957,-0.8550333,-1.8424823,-0.8579533,2.0940347,1.2858282,-0.9598264,-1.4219302,1.3710117,-0.018279674,0.8849843,0.8270365,0.5081722,-0.35297534,2.4521675,-0.5164852,1.2914828,-3.4292488,-0.24811596,2.9625561,0.27663994,-0.55016327,0.8784612,0.7769129,-0.0056447377,0.090944566,0.6229794,-1.1972162,0.19887735,0.9767985,1.0,0.0,0.0,0.0,0.0,0.0,0.0,-3.1021676,0.11648521,-0.7414828,-0.10957718,0.6337166,6.0752254,-3.868413,0.40459633,-0.42009354,-0.3518939
16.45361,69.33397,20.905445,7.5850973,-0.18559414,0.97770154,0.2968743,-0.7903424,0.77213514,0.0648551,0.4840625,0.58743125,0.687925,-0.4661857,1.4250615,-0.77781975,-1.8359969,-0.80954707,2.152778,1.3546207,-1.0064449,1.4898974,-0.8412813,-1.8421257,-0.8492949,2.1023355,1.2908846,-0.96334356,-1.4196986,1.3763902,0.05540897,0.858797,0.8311517,0.50472444,-0.3522378,2.4179,-0.51896477,1.3203497,-3.4258204,-0.24786788,2.8614085,0.26478004,-0.54779816,0.8882756,0.7837824,-0.014893035,0.090228386,0.6142655,-1.1792462,0.26347125,0.97988474,1.0,0.0,0.0,0.0,0.0,0.0,0.0,-3.0679002,0.11896476,-0.7703497,0.0569582,0.47442913,7.8972144,-2.8005958,0.30671358,-0.34894943,-0.21907091
17.47192,67.305534,20.124771,6.671117,-0.2432378,0.82854605,0.33082944,-0.78689456,0.77194864,0.08879172,0.45342052,0.5979279,0.68695945,-0.45779556,1.4112079,-0.7640864,-1.8332465,-0.8039529,2.1621282,1.3595805,-1.0091231,1.4757372,-0.82749593,-1.8410404,-0.84093976,2.110705,1.2959105,-0.96684545,-1.4154373,1.3790296,0.12772034,0.8272872,0.83820003,0.5021485,-0.35043657,2.383667,-0.5214405,1.3482059,-3.4223952,-0.24762008,2.760362,0.25312614,-0.54480743,0.8980878,0.7902038,-0.024312068,0.08942357,0.6057972,-1.1566595,0.32594925,0.9780532,1.0,0.0,0.0,0.0,0.0,0.0,0.0,-3.033667,0.1214405,-0.7982059,0.274086,0.21176338,7.728511,-3.3219934,0.61284304,-0.2231121,-0.09877682
19.256351,68.45412,20.607471,5.7844324,-0.29830772,0.8073782,0.41666108,-0.791445,0.7784629,0.15738533,0.41244236,0.6215261,0.68345433,-0.45134744,1.3965927,-0.74964964,-1.8253019,-0.79969555,2.1728575,1.3642559,-1.0119802,1.4615923,-0.8136686,-1.839093,-0.8330138,2.119204,1.3009154,-0.9703254,-1.4146702,1.383737,0.21879397,0.78044075,0.8534243,0.4999776,-0.34802318,2.3494682,-0.52391434,1.3750523,-3.4189734,-0.24737251,2.6594164,0.24172592,-0.54115677,0.9078831,0.796128,-0.033896424,0.08848723,0.5976631,-1.1300869,0.39165244,0.9759496,1.0,0.0,0.0,0.0,0.0,0.0,0.0,-2.9994683,0.12391433,-0.8250523,-0.073599815,0.4216671,9.617746,-4.8364162,1.4222145,-0.15728474,-0.03154874
23.395485,66.24044,19.905678,2.2736554,-0.6401519,0.5496102,0.5384825,-0.7882272,0.7804082,0.19804978,0.33842504,0.63249594,0.6811748,-0.43506828,1.3827696,-0.7356278,-1.819288,-0.79917127,2.1824536,1.3690329,-1.0138322,1.4474608,-0.79979265,-1.8362377,-0.825824,2.1278749,1.3059031,-0.9737701,-1.4131162,1.3886536,0.3095235,0.69800127,0.87123364,0.49897864,-0.34408396,2.3153038,-0.52638626,1.4008901,-3.4155552,-0.24712518,2.5585718,0.23069954,-0.53684425,0.9175779,0.8014761,-0.043558974,0.08743516,0.58999455,-1.0883206,0.45825142,0.96283334,1.0,0.0,0.0,0.0,0.0,0.0,0.0,-2.965304,0.12638626,-0.8508901,0.016140938,0.45855045,9.558368,-8.390713,1.693666,0.057673454,0.13700128
31.092548,65.226494,20.129154,-3.3529549,-1.1578012,0.27944535,0.78841144,-0.78524053,0.78008103,0.2865491,0.22022769,0.64646274,0.677709,-0.39567268,1.3689368,-0.72178453,-1.8075827,-0.80380124,2.192521,1.3736739,-1.0133374,1.4333559,-0.78588045,-1.8322856,-0.81989884,2.1367364,1.3108889,-0.977148,-1.4100447,1.3920549,0.42531317,0.5568942,0.8909888,0.49926525,-0.3364406,2.2811737,-0.52885437,1.4257202,-3.4121404,-0.2468781,2.457828,0.22026443,-0.5318146,0.9270535,0.8060959,-0.05317917,0.086279914,0.5830413,-1.0232375,0.53013945,0.9375683,1.0,0.0,0.0,0.0,0.0,0.0,0.0,-2.9311738,0.12885436,-0.8757202,0.18620491,0.32260418,12.057447,-14.239418,1.8883824,0.32025576,0.52098036
34.961044,62.55496,19.320509,-7.0071726,-1.4994586,-0.027034104,0.9184668,-0.7867894,0.7816821,0.34528285,0.11629138,0.6578752,0.67179507,-0.37076277,1.354677,-0.70771223,-1.7977574,-0.8082697,2.202524,1.3780684,-1.0142243,1.4192721,-0.7719377,-1.8271434,-0.8156779,2.1457963,1.3158785,-0.9804334,-1.4080677,1.3949505,0.5451784,0.37691635,0.9109075,0.500242,-0.3264766,2.247078,-0.5313225,1.4495437,-3.4087288,-0.24663128,2.357185,0.21059227,-0.5260811,0.9361975,0.8098909,-0.06262684,0.08505762,0.5769919,-0.9420447,0.59941053,0.90138674,1.0,0.0,0.0,0.0,0.0,0.0,0.0,-2.897078,0.13132247,-0.8995437,0.11060238,0.29144287,12.380606,-18.095196,1.9465804,0.49313307,0.79481006
37.71493,60.424778,18.503767,-9.4153,-1.7724543,-0.3271765,0.97722864,-0.7755387,0.7858937,0.39156428,0.019366365,0.65919363,0.6629696,-0.3260758,1.3417182,-0.69334835,-1.787987,-0.81374127,2.2117157,1.3821754,-1.013041,1.4052569,-0.75795496,-1.8208797,-0.81337667,2.1550202,1.3208739,-0.98359007,-1.399454,1.3994076,0.6542884,0.18108694,0.9265885,0.50105786,-0.31257728,2.2130165,-0.5337868,1.4723613,-3.405321,-0.2463847,2.2566423,0.20182228,-0.5196762,0.94493204,0.8128332,-0.071796834,0.08384393,0.571942,-0.84798694,0.6639555,0.8584955,1.0,0.0,0.0,0.0,0.0,0.0,0.0,-2.8630166,0.13378677,-0.9223613,0.8278847,0.4672289,11.176718,-19.634708,1.5818715,0.5459547,1.2395382
31.870886,59.906666,17.616385,-5.068962,-1.4086139,-0.3418888,0.797363,-0.7702687,0.794303,0.419496,0.008684621,0.65758085,0.6589306,-0.24785648,1.32823,-0.6785247,-1.7789301,-0.8125082,2.2207782,1.3867669,-1.0083758,1.3913504,-0.7438959,-1.8137157,-0.8126347,2.1643624,1.325873,-0.9865579,-1.3879178,1.4082832,0.73755926,0.03858259,0.937039,0.5008558,-0.29179022,2.1789894,-0.53624916,1.4941744,-3.4019163,-0.24613835,2.1562004,0.19388962,-0.5126915,0.9533097,0.81503594,-0.08072471,0.082692236,0.56776917,-0.76822007,0.71856695,0.8250048,1.0,0.0,0.0,0.0,0.0,0.0,0.0,-2.8289895,0.13624915,-0.94417435,1.1560202,0.93204975,8.429993,-14.267927,1.1570454,0.3871739,1.9763649
15.443539,57.942566,15.953131,7.227674,-0.17300522,-0.022167355,0.34717625,-0.7704415,0.7881701,0.4365766,0.12189031,0.6460983,0.6584215,-0.14980008,1.3143063,-0.6650789,-1.770058,-0.8004457,2.2289722,1.3917152,-1.0015379,1.3775374,-0.7297853,-1.8059394,-0.81228375,2.1737428,1.3308588,-0.98925775,-1.3790307,1.412212,0.79075706,0.033737876,0.93951076,0.49869022,-0.26298696,2.1449966,-0.53870964,1.5149838,-3.398515,-0.24589227,2.0558589,0.18636703,-0.5052891,0.96154463,0.8167908,-0.08965497,0.0815586,0.56405926,-0.73825866,0.7552221,0.8167198,1.0,0.0,0.0,0.0,0.0,0.0,0.0,-2.7949967,0.13870963,-0.96498376,0.8770466,0.466156,5.273974,-0.53126365,0.48069954,0.0069856644,2.789241
-7.005683,54.949142,13.622243,23.653902,1.4689128,0.50619906,-0.26055786,-0.78717524,0.78366536,0.4228005,0.3074294,0.6336523,0.6686447,-0.0567043,1.2988199,-0.6514188,-1.7636594,-0.7815408,2.237108,1.3977233,-0.9949282,1.3637034,-0.7156757,-1.7979362,-0.8107064,2.1830926,1.3358198,-0.99162096,-1.3851072,1.4108992,0.8028998,0.19868423,0.9348508,0.49496686,-0.22766483,2.1110363,-0.5411663,1.5347905,-3.395117,-0.24564643,1.9556174,0.17863083,-0.49765968,0.9699301,0.81850046,-0.09895385,0.080346934,0.5601869,-0.7771857,0.77273494,0.8393488,1.0,0.0,0.0,0.0,0.0,0.0,0.0,-2.7610364,0.1411663,-0.9847905,-0.6893158,-0.033688545,1.0752678,16.37325,-0.11639595,-0.4011035,3.4308553
-16.764198,53.784206,12.592487,30.939,2.1132834,0.77420056,-0.56007755,-0.79574674,0.7879898,0.4166892,0.4031168,0.62057555,0.6711408,-0.048192654,1.2841287,-0.6368767,-1.7562673,-0.7703947,2.24515,1.402934,-0.99644023,1.3497435,-0.7015718,-1.7900035,-0.8069289,2.1923509,1.3407389,-0.9936523,-1.4001037,1.4104316,0.78969646,0.43701687,0.92416054,0.49020326,-0.19522756,2.0771103,-0.54362106,1.5535955,-3.3917227,-0.24540083,1.8554761,0.17027855,-0.48988533,0.97863704,0.82041585,-0.108847074,0.079034366,0.5557189,-0.84631807,0.78689635,0.8743831,1.0,0.0,0.0,0.0,0.0,0.0,0.0,-2.7271104,0.14362106,-1.0035956,-1.6101122,0.045204163,-1.469183,23.702276,-0.6930351,-0.65125823,3.1409144
-15.805875,51.062305,11.706736,29.486052,1.9159861,0.6807952,-0.5611628,-0.7978349,0.78457564,0.40705705,0.4512664,0.6049436,0.6732048,-0.048748143,1.26996,-0.6231142,-1.7492979,-0.76180226,2.2528453,1.4080594,-0.9985271,1.3356291,-0.68748987,-1.7823055,-0.80086255,2.2014604,1.3456122,-0.9953937,-1.4155725,1.4076236,0.76302063,0.6627197,0.9075767,0.48576936,-0.16747585,2.0432186,-0.5460739,1.5713999,-3.3883317,-0.24515547,1.755435,0.16127014,-0.4819584,0.9876347,0.82257277,-0.11933205,0.07767421,0.5505456,-0.91017455,0.80335593,0.90113115,1.0,0.0,0.0,0.0,0.0,0.0,0.0,-2.6932187,0.14607391,-1.0214,-1.6470432,-0.21288395,-2.767837,22.460615,-1.3329268,-0.63854456,2.6740253
-8.590151,48.000183,11.06137,22.750122,1.2251167,0.37215012,-0.3674028,-0.80145377,0.77867794,0.40199876,0.46461302,0.5884963,0.6790331,-0.053411573,1.2554837,-0.60962206,-1.7421056,-0.75440127,2.26031,1.4135154,-1.0007348,1.3213774,-0.6734642,-1.7748725,-0.79305387,2.2103677,1.3504549,-0.99689573,-1.4287602,1.4010416,0.7366997,0.81992126,0.88599926,0.48334613,-0.14482768,2.0093613,-0.54852295,1.5882046,-3.384944,-0.24491037,1.655494,0.15182877,-0.47384453,0.9967549,0.82485974,-0.13024147,0.076361634,0.5448048,-0.94705707,0.8240896,0.908224,1.0,0.0,0.0,0.0,0.0,0.0,0.0,-2.6593614,0.14852294,-1.0382047,-1.4046907,-0.61912537,-2.6284933,15.627754,-1.9312382,-0.3514588,2.1580517
1.3718328,47.134453,11.037263,14.203387,0.3239085,-0.021336257,-0.10657896,-0.8000956,0.7829231,0.38577646,0.45313555,0.5855654,0.67582315,-0.063595876,1.2413678,-0.59517187,-1.7362949,-0.7477403,2.2689242,1.4180373,-1.0032554,1.3070418,-0.65948045,-1.7677104,-0.78432775,2.2190766,1.3552824,-0.9982099,-1.4356018,1.3976088,0.70973,0.88996863,0.8662809,0.4825829,-0.12733482,1.9755363,-0.5509701,1.6040107,-3.3815596,-0.24466552,1.5556529,0.14229202,-0.46548462,1.0057955,0.82711214,-0.14133292,0.075212784,0.5387519,-0.94722867,0.84986585,0.8951009,1.0,0.0,0.0,0.0,0.0,0.0,0.0,-2.6255364,0.15097007,-1.0540106,-0.76072216,-0.33135414,-2.5661826,6.9259524,-1.8599749,-0.050133467,1.6306609
11.2952795,45.045612,10.664711,5.0729265,-0.5230445,-0.49733835,0.20104948,-0.80200875,0.7803934,0.37817,0.39563844,0.60198325,0.6756281,-0.038908068,1.2268409,-0.5814411,-1.7298934,-0.7447639,2.279275,1.4228452,-1.0021007,1.2926623,-0.6455282,-1.7607791,-0.7756274,2.227675,1.3601137,-0.9993562,-1.4387723,1.3944132,0.68842775,0.8630971,0.85777277,0.48389977,-0.11082394,1.9417458,-0.5534153,1.6188191,-3.3781788,-0.2444209,1.4559115,0.13303185,-0.45687675,1.0145459,0.8291496,-0.15232511,0.07431095,0.53271544,-0.9096554,0.8749262,0.86066806,1.0,0.0,0.0,0.0,0.0,0.0,0.0,-2.5917459,0.15341529,-1.068819,-0.3873825,-0.32262802,-1.885879,-2.7656078,-0.84176064,0.3256917,1.5217692
16.477272,43.846825,10.546243,0.48955536,-0.89884675,-0.7721244,0.39347014,-0.79926264,0.77386343,0.38355264,0.37468246,0.60218036,0.67878294,0.042967338,1.212736,-0.5681419,-1.7224239,-0.7381591,2.287893,1.427992,-0.9950595,1.2782885,-0.63162744,-1.7539642,-0.7675345,2.2362275,1.3649641,-1.0002965,-1.437058,1.3885884,0.68033224,0.7911638,0.85440296,0.48656228,-0.088797465,1.9079895,-0.5558567,1.6326308,-3.3748014,-0.24417652,1.3562698,0.12428856,-0.4480381,1.0228883,0.8308427,-0.1630509,0.07367173,0.5269603,-0.8533039,0.8972599,0.8177874,1.0,0.0,0.0,0.0,0.0,0.0,0.0,-2.5579896,0.1558567,-1.0826309,0.12419224,-0.5870819,-0.52934885,-7.2572827,-0.37802458,0.5415559,2.072236
17.204199,43.937786,10.570698,0.022248745,-0.9353667,-0.8625828,0.4537741,-0.7980263,0.7731213,0.38122368,0.3694977,0.5910735,0.67648816,0.1670009,1.1984859,-0.5543153,-1.7158418,-0.73058474,2.2953348,1.4326129,-0.9835964,1.263951,-0.6177801,-1.7471797,-0.7601769,2.244738,1.3698412,-1.0009412,-1.4328331,1.3834506,0.6786311,0.71709466,0.8497297,0.48897222,-0.05668038,1.8742676,-0.5582962,1.6454469,-3.3714273,-0.2439324,1.2567278,0.11612511,-0.4389801,1.0308126,0.83214146,-0.17348129,0.07329468,0.5216058,-0.7941429,0.9178558,0.77655405,1.0,0.0,0.0,0.0,0.0,0.0,0.0,-2.5242677,0.1582962,-1.0954468,0.3953457,-0.51329136,0.08696318,-7.4508786,-0.50427914,0.51862,3.090392
13.54026,41.033867,9.54306,2.7149363,-0.6354457,-0.8821211,0.35981357,-0.79281545,0.76181483,0.36014062,0.39351168,0.5687875,0.67507267,0.27326614,1.1846694,-0.5415986,-1.7111657,-0.72082573,2.301617,1.4373485,-0.9736146,1.2496783,-0.6040224,-1.7404869,-0.7532885,2.2531457,1.3747374,-1.0012063,-1.4254133,1.3732115,0.6669721,0.6792554,0.83797735,0.49055567,-0.016736692,1.8405781,-0.5607338,1.6572683,-3.3680565,-0.24368852,1.1572853,0.10846901,-0.42975998,1.0383639,0.8330942,-0.1836644,0.07318013,0.5165909,-0.74690056,0.9321395,0.74068046,1.0,0.0,0.0,0.0,0.0,0.0,0.0,-2.4905782,0.16073379,-1.1072683,0.72853565,-1.0070324,-0.99430084,-3.832376,-1.1570096,0.39343834,3.887694
9.675216,36.393913,7.825226,4.799468,-0.41823685,-0.97213924,0.23701575,-0.79116714,0.75140625,0.31991297,0.39482018,0.5443992,0.6729298,0.3519738,1.1705616,-0.5288818,-1.7084956,-0.7138065,2.3075857,1.4420303,-0.9660089,1.235478,-0.590402,-1.7340934,-0.74658036,2.261374,1.3796431,-1.0010422,-1.4182513,1.3584871,0.63047844,0.667753,0.8182077,0.49134448,0.027054928,1.8069229,-0.5631676,1.668096,-3.364689,-0.24344489,1.0579423,0.10120201,-0.4204483,1.0455658,0.83379394,-0.19362104,0.07336332,0.5117776,-0.7091899,0.9379115,0.70625854,1.0,0.0,0.0,0.0,0.0,0.0,0.0,-2.456923,0.16316757,-1.1180959,0.70068836,-1.4403582,-3.55407,-1.2204885,-1.9027352,0.29281378,4.2890306
9.4497795,33.629265,7.038337,4.47489,-0.44332176,-1.093141,0.23007423,-0.77987754,0.73618495,0.31413722,0.37373146,0.5004094,0.66057783,0.41938677,1.1574903,-0.51678354,-1.7026798,-0.70920724,2.311415,1.4457009,-0.9591036,1.2213866,-0.5769762,-1.72807,-0.7399628,2.2692933,1.384545,-1.00043,-1.4061003,1.3374408,0.5932916,0.65950614,0.78374934,0.4907197,0.07229979,1.7733002,-0.56560135,1.6779311,-3.361325,-0.2432015,0.9586986,0.09432793,-0.41111565,1.0524167,0.8342825,-0.20333792,0.073887154,0.50711644,-0.67027324,0.9393091,0.6710753,1.0,0.0,0.0,0.0,0.0,0.0,0.0,-2.4233003,0.16560134,-1.1279311,1.2198687,-2.0670176,-3.6527872,-0.89360476,-3.3699512,0.15982985,4.440588
5.842383,26.786133,4.520071,5.2739935,-0.3488347,-1.2927184,0.092207044,-0.7864448,0.72225547,0.23478375,0.37212756,0.47588947,0.6611683,0.45121187,1.142742,-0.5047506,-1.7045916,-0.7027501,2.3168824,1.4506618,-0.9553088,1.2073656,-0.5637888,-1.7227142,-0.7333901,2.2768388,1.389443,-0.99938667,-1.4007796,1.312628,0.51636124,0.6562028,0.74503726,0.4901506,0.114891104,1.7397118,-0.5680313,1.6867744,-3.3579643,-0.24295834,0.8595541,0.0878067,-0.40185356,1.0588846,0.8346646,-0.2127444,0.07483504,0.5024684,-0.63626117,0.92814666,0.6320308,1.0,0.0,0.0,0.0,0.0,0.0,0.0,-2.3897119,0.1680313,-1.1367743,0.5179167,-2.430272,-7.690656,-0.43551922,-3.7428975,0.17784238,4.196052
6.734853,21.504269,2.8385746,2.6411514,-0.5833176,-1.5906671,0.11012558,-0.7809679,0.7005578,0.19157457,0.32253942,0.4223481,0.6488637,0.491678,1.1292689,-0.493733,-1.7035568,-0.7011362,2.3190737,1.4543294,-0.95021886,1.1933962,-0.55089986,-1.7182357,-0.72705865,2.2838998,1.3943297,-0.9979323,-1.3956461,1.2811258,0.42512003,0.62503517,0.69350845,0.48899475,0.15536663,1.7061577,-0.57045937,1.694627,-3.354607,-0.24271542,0.7605087,0.081697464,-0.3927784,1.0648999,0.83500206,-0.22170046,0.07631208,0.49779195,-0.592053,0.90653276,0.58511984,1.0,0.0,0.0,0.0,0.0,0.0,0.0,-2.3561578,0.17045936,-1.1446271,0.51863194,-3.0927181,-9.14855,-3.2261372,-5.0311685,0.17740726,3.997898
9.131144,17.557991,1.7105107,-1.0983114,-0.9193508,-1.8956053,0.19248244,-0.77930874,0.67656463,0.15886761,0.25111893,0.36010736,0.6464573,0.5189991,1.1154653,-0.4832434,-1.702349,-0.70194674,2.3199105,1.4589754,-0.9460324,1.1794688,-0.5383762,-1.7146461,-0.72136235,2.2903352,1.3992049,-0.9960984,-1.3916383,1.243016,0.33676118,0.5509325,0.62723935,0.48829746,0.19260551,1.672636,-0.5728855,1.7014899,-3.3512533,-0.24247275,0.6615623,0.07614899,-0.38398552,1.07038,0.83530277,-0.2300453,0.07840793,0.49315378,-0.5329034,0.875664,0.52987087,1.0,0.0,0.0,0.0,0.0,0.0,0.0,-2.3226361,0.1728855,-1.15149,0.43673515,-3.7487984,-8.865839,-7.506311,-6.5380216,0.28657317,3.6833258
12.906435,15.941824,1.6358426,-5.284919,-1.1598427,-2.1540666,0.36687642,-0.77784675,0.6492755,0.16006155,0.15410027,0.34238648,0.6415981,0.53820616,1.1016841,-0.47344866,-1.69864,-0.70595235,2.3245738,1.4633646,-0.9422778,1.1655775,-0.52628267,-1.7117031,-0.71679616,2.2961526,1.4040743,-0.99392116,-1.3880858,1.1983254,0.2800204,0.42499533,0.56687135,0.48770928,0.22600394,1.6391487,-0.57530785,1.7073641,-3.3479028,-0.24223034,0.5627149,0.07130432,-0.37554932,1.0752568,0.8355054,-0.23764019,0.08108773,0.4887561,-0.4592475,0.8375144,0.46848634,1.0,0.0,0.0,0.0,0.0,0.0,0.0,-2.2891488,0.17530784,-1.1573641,0.43420792,-4.4038057,-5.688983,-12.654245,-6.0073495,0.3391564,3.3021688
11.434519,18.758507,2.5885534,-2.7270856,-0.89048195,-2.0370457,0.32661763,-0.7745378,0.6379456,0.13477728,0.15325464,0.3276354,0.6425564,0.5515778,1.0881238,-0.4624881,-1.6982254,-0.7014707,2.328916,1.4683299,-0.9387634,1.1517264,-0.5145935,-1.709214,-0.71332574,2.301455,1.4089361,-0.9914397,-1.3840038,1.159331,0.23851947,0.32085708,0.5182127,0.48665667,0.25532702,1.6056938,-0.5777283,1.7122506,-3.3445556,-0.24198817,0.46396634,0.06711578,-0.36745644,1.0795941,0.83559734,-0.24454363,0.08424714,0.4846419,-0.39608175,0.80363315,0.41759062,1.0,0.0,0.0,0.0,0.0,0.0,0.0,-2.255694,0.17772827,-1.1622505,0.47969818,-3.8346052,-4.1724296,-10.465222,-4.828453,0.21836162,2.8902113
6.9413543,18.068998,2.3511903,2.018948,-0.43767136,-1.8934278,0.15209964,-0.7662428,0.61567056,0.07908283,0.17540489,0.28291398,0.638205,0.5716029,1.0751021,-0.4530264,-1.7013057,-0.6957852,2.3297465,1.4727566,-0.93427944,1.137942,-0.50328577,-1.7072322,-0.71049714,2.3062692,1.4137808,-0.9886874,-1.376235,1.1214975,0.18444312,0.26986033,0.46946454,0.48451057,0.28173667,1.5722733,-0.5801468,1.7161503,-3.3412118,-0.24174623,0.36531654,0.06341553,-0.35968208,1.0835046,0.8356508,-0.25090215,0.0878192,0.4806491,-0.35294634,0.7713794,0.37806314,1.0,0.0,0.0,0.0,0.0,0.0,0.0,-2.2222733,0.18014678,-1.1661503,0.82502365,-3.715372,-5.470249,-5.1772,-4.7888336,0.033211708,2.592665
2.8966482,18.279705,2.3073397,6.3484845,-0.062063396,-1.7368128,-0.004911609,-0.7692816,0.5999671,0.037976477,0.18047486,0.25163305,0.6319712,0.5727691,1.0610138,-0.44328904,-1.7034346,-0.6924496,2.3314326,1.476978,-0.9314105,1.124211,-0.49232402,-1.7058647,-0.7078688,2.3106103,1.4185969,-0.9857024,-1.3722129,1.0879729,0.1205911,0.26009628,0.42296422,0.48124546,0.30389473,1.538887,-0.5825615,1.7190642,-3.3378713,-0.24150454,0.26676536,0.060022354,-0.35219955,1.0870922,0.8357482,-0.25685146,0.09176874,0.4765823,-0.32715222,0.74315804,0.34852982,1.0,0.0,0.0,0.0,0.0,0.0,0.0,-2.1888871,0.18256149,-1.1690643,0.40552616,-3.28722,-6.445809,-1.0829628,-4.531157,-0.14039278,2.1591127
-0.75697803,16.208487,1.6428542,9.757927,0.27176362,-1.6564258,-0.1495519,-0.76586014,0.57778573,-0.018455818,0.2019017,0.21899949,0.63007325,0.58455217,1.047625,-0.43454546,-1.7077103,-0.68767864,2.3325102,1.4816042,-0.92724717,1.1105162,-0.48170152,-1.7052677,-0.70507073,2.3144975,1.4233786,-0.98251617,-1.3686662,1.0539042,0.03914606,0.28591567,0.37736678,0.47764385,0.32336226,1.5055332,-0.5849743,1.7209935,-3.3345342,-0.24126308,0.1683127,0.056768417,-0.3449936,1.0904298,0.8359685,-0.26248896,0.096071854,0.47225675,-0.3163054,0.7150676,0.32537502,1.0,0.0,0.0,0.0,0.0,0.0,0.0,-2.1555333,0.18497428,-1.1709936,0.33011436,-3.344655,-8.214118,2.4481773,-4.4137,-0.21376014,1.8829465
-0.27836514,12.012962,1.3490312,9.241504,0.42232287,-1.6698023,-0.07926111,-0.7440787,0.51937723,0.024023058,0.19699332,0.11612756,0.63601506,0.60069364,1.0361084,-0.4297638,-1.7028654,-0.6853714,2.3261101,1.4869801,-0.9224468,1.0969473,-0.4716026,-1.7051265,-0.7019837,2.317717,1.4281336,-0.97914684,-1.3528442,0.995463,0.005367687,0.31591764,0.30377975,0.47514558,0.34119523,1.4722118,-0.5873852,1.7219388,-3.3312004,-0.24102186,0.06995847,0.053609848,-0.338089,1.0935254,0.83627605,-0.26788226,0.10064334,0.46770957,-0.30853483,0.6836599,0.30114686,1.0,0.0,0.0,0.0,0.0,0.0,0.0,-2.122212,0.18738517,-1.1719389,1.6107082,-5.779314,-3.4865658,2.89073,-7.222712,-0.09327531,1.7192066
0.25689316,7.3846607,0.4963795,7.6330624,0.4906081,-1.8119638,-0.019622099,-0.7357599,0.47781086,0.0082920175,0.17805266,0.089756355,0.63503534,0.58757335,1.0233713,-0.4238215,-1.7042973,-0.6841784,2.3266928,1.4916371,-0.92038953,1.0835673,-0.46219364,-1.7051952,-0.6987288,2.320212,1.4328657,-0.97563064,-1.3326954,0.9229417,-0.011517873,0.3283567,0.23217179,0.47320417,0.35499442,1.4389248,-0.58979416,1.7219014,-3.32787,-0.24078088,-0.028297422,0.050533295,-0.33156586,1.0963446,0.83663124,-0.27300474,0.10538044,0.46304578,-0.3002677,0.6436057,0.27260953,1.0,0.0,0.0,0.0,0.0,0.0,0.0,-2.088925,0.18979415,-1.1719015,2.0830154,-7.1847916,-1.8222427,1.1562645,-7.0445566,-0.020867586,1.3246953
2.146732,1.592094,-1.067559,3.304481,0.16048259,-2.1395936,0.07482919,-0.72927547,0.43141806,-0.017830594,0.115140595,0.0027022904,0.63218695,0.58815855,1.0106397,-0.41905183,-1.7069782,-0.68721473,2.320482,1.4960845,-0.9168148,1.0703894,-0.4535896,-1.7054374,-0.695719,2.3218713,1.4375826,-0.9719943,-1.3123804,0.8397986,-0.02900929,0.2916553,0.14410336,0.4718139,0.3663693,1.4056721,-0.59220123,1.7208822,-3.3245428,-0.24054013,-0.12645508,0.04764557,-0.32555008,1.0987923,0.83702946,-0.27768525,0.11031415,0.45837018,-0.27805763,0.5889895,0.23299,1.0,0.0,0.0,0.0,0.0,0.0,0.0,-2.0556722,0.19220123,-1.1708822,2.151513,-8.2421665,-1.90625,-3.7284255,-8.724546,0.079488754,1.0901392
4.132462,-4.855488,-2.5042627,-1.1614685,-0.15081266,-2.4373345,0.20191918,-0.7205408,0.36298206,0.013634763,0.043280568,-0.13388029,0.63545364,0.57933575,0.9983353,-0.41729137,-1.7040739,-0.69139093,2.3084834,1.501128,-0.9140607,1.057408,-0.44595638,-1.705653,-0.69345593,2.32239,1.4422919,-0.96826637,-1.292691,0.7380552,-0.01961007,0.20447595,0.02129179,0.47136652,0.3747692,1.3724518,-0.5946045,1.7188821,-3.321219,-0.24029963,-0.22451459,0.045087814,-0.32018852,1.1007569,0.83745664,-0.2817321,0.115512416,0.45381722,-0.24272537,0.5195074,0.1821583,1.0,0.0,0.0,0.0,0.0,0.0,0.0,-2.0224519,0.19460449,-1.1688821,2.1410704,-10.099983,0.7710017,-8.745485,-12.240492,0.2017498,0.79004765
6.644697,-25.63542,-6.9172673,-10.077631,-0.33367765,-3.089535,0.45958853,-0.69809765,0.21678469,0.108295836,-0.110233545,-0.32004654,0.6425471,0.5654327,0.9875982,-0.4242779,-1.6948234,-0.7044793,2.2903855,1.5065466,-0.9117231,1.0446821,-0.43981472,-1.7052867,-0.6927178,2.3212953,1.4470049,-0.9644784,-1.2647847,0.5731389,0.054446504,0.030308723,-0.15318447,0.47210172,0.3798496,1.3392639,-0.59700584,1.7159021,-3.3178985,-0.24005939,-0.3224761,0.042985916,-0.31584358,1.1020113,0.83786386,-0.28483653,0.120905235,0.44970444,-0.19382535,0.40734798,0.104863435,1.0,0.0,0.0,0.0,0.0,0.0,0.0,-1.9892639,0.19700584,-1.1659021,3.0889034,-16.41451,7.179302,-17.406698,-17.467354,0.34362078,0.43597817
0.19661379,-74.13466,-17.937038,-16.632309,0.72850883,-4.018281,0.5219275,-0.67177266,-0.044676278,0.19355007,-0.2316466,-0.4721257,0.6520035,0.5352561,0.97750485,-0.44428235,-1.6859317,-0.7158824,2.2740827,1.5122052,-0.91095275,1.0323149,-0.4362947,-1.7037895,-0.69409585,2.3182359,1.4517256,-0.960678,-1.2261851,0.27834287,0.18088464,-0.19405416,-0.35731348,0.47258598,0.37958378,1.3061104,-0.5994053,1.7119434,-3.3145814,-0.2398194,-0.4203396,0.041158676,-0.31323814,1.1022205,0.83830273,-0.2866207,0.12608351,0.44631827,-0.17588979,0.21157436,-0.008245655,1.0,0.0,0.0,0.0,0.0,0.0,0.0,-1.9561104,0.19940528,-1.1619434,4.268837,-29.44743,12.422724,-22.472097,-20.509506,0.18441081,-0.19800663
-14.390795,-119.49073,-27.944632,-11.164504,3.0720766,-4.3205023,0.23975793,-0.6161391,-0.32708552,0.26502624,-0.17796995,-0.5386706,0.64781463,0.49195513,0.970701,-0.46900326,-1.6772869,-0.71189284,2.2643688,1.516507,-0.91148245,1.0205256,-0.43666044,-1.700835,-0.6970713,2.3132691,1.456431,-0.9569243,-1.1621374,-0.14179242,0.3335092,-0.332496,-0.5437998,0.4690873,0.37302253,1.2729893,-0.6018009,1.7070067,-3.3112674,-0.23957963,-0.51810527,0.038894653,-0.31303596,1.1012232,0.8389138,-0.2870751,0.13030592,0.44365743,-0.24091901,-0.043731373,-0.13074055,1.0,0.0,0.0,0.0,0.0,0.0,0.0,-1.9229892,0.20180091,-1.1570067,6.774473,-42.08583,15.232629,-13.981432,-18.837166,-0.5706787,-0.93473196
-27.093828,-126.063385,-28.581553,4.715999,5.1592345,-3.539883,-0.20611899,-0.54026175,-0.52557313,0.33356366,0.005471797,-0.6000205,0.6656555,0.4490466,0.9664994,-0.48921776,-1.6674787,-0.69652414,2.253267,1.5229965,-0.91201967,1.0096327,-0.44147173,-1.6963298,-0.7000134,2.306666,1.4611021,-0.9532641,-1.0639037,-0.59458107,0.48961055,-0.28175497,-0.6992548,0.46482754,0.36308935,1.2399006,-0.60419464,1.7010931,-3.3079567,-0.23934011,-0.61577326,0.035383224,-0.3152485,1.0992155,0.83979374,-0.28676692,0.13295086,0.4414015,-0.38732916,-0.27923006,-0.22417326,1.0,0.0,0.0,0.0,0.0,0.0,0.0,-1.8899006,0.20419464,-1.151093,10.123134,-45.387928,15.608131,4.9818635,-15.675604,-0.89682937,-1.1620998
-29.253445,-99.89582,-21.963764,16.81196,5.6427703,-2.547511,-0.49235162,-0.45029727,-0.64667606,0.35071042,0.1347795,-0.637954,0.6753763,0.36973915,0.964603,-0.50613934,-1.6612588,-0.6865355,2.2428706,1.5286398,-0.9162902,0.99999297,-0.4503552,-1.6905754,-0.7014115,2.2988038,1.4657408,-0.9497441,-0.9296462,-0.9864287,0.6036357,-0.09213944,-0.8151938,0.46190813,0.34863615,1.2068462,-0.60658646,1.6942035,-3.3046494,-0.23910083,-0.7133436,0.030248642,-0.31935883,1.0965425,0.84095013,-0.28636953,0.13384588,0.43918177,-0.55768406,-0.45317605,-0.28191417,1.0,0.0,0.0,0.0,0.0,0.0,0.0,-1.8568462,0.20658645,-1.1442034,13.727498,-39.232338,11.226678,19.083607,-11.592555,-0.7516742,-1.3441205
-9.522146,-50.786514,-9.480692,10.855686,3.7461035,-2.1104796,-0.12477344,-0.25118577,-0.71913606,0.38700053,0.10086251,-0.67338264,0.67027664,0.26370716,0.9748744,-0.52226883,-1.6518753,-0.69132525,2.2314656,1.5327685,-0.9233734,0.992375,-0.4623281,-1.6838958,-0.70108247,2.2900147,1.4703528,-0.94643295,-0.70612186,-1.2676467,0.68988895,0.07505111,-0.90034455,0.4597135,0.32600608,1.1738243,-0.60897446,1.686339,-3.3013453,-0.23886178,-0.81081647,0.023975372,-0.32473755,1.0934243,0.8421457,-0.2862082,0.13317783,0.4371947,-0.65303123,-0.5626729,-0.32276773,1.0,0.0,0.0,0.0,0.0,0.0,0.0,-1.8238243,0.20897445,-1.136339,22.274494,-28.138494,8.835804,16.835577,-8.596886,-0.6058812,-2.059126
6.7467546,-6.565721,0.6406735,4.2444973,1.6998132,-1.8511286,0.15453304,-0.15986751,-0.75391847,0.3967755,0.064357795,-0.6698703,0.66784644,0.121285155,0.9763883,-0.53771996,-1.6442183,-0.6946467,2.2230277,1.5371374,-0.9343044,0.98707545,-0.47620884,-1.6766174,-0.69966245,2.280642,1.4749514,-0.9434422,-0.47255495,-1.4284433,0.7426912,0.16442533,-0.95074564,0.45883334,0.29061437,1.1408348,-0.61136246,1.6775005,-3.2980447,-0.23862298,-0.9081918,0.017320633,-0.330822,1.0899796,0.8431775,-0.28630617,0.13135885,0.4356895,-0.67207193,-0.6201511,-0.3537335,1.0,0.0,0.0,0.0,0.0,0.0,0.0,-1.7908348,0.21136245,-1.1275005,22.962553,-16.13438,5.9114456,8.958366,-5.308938,-0.3649652,-3.3876538
28.500702,21.139233,5.7374377,-14.257658,-1.1056697,-2.48383,0.69163233,-0.028948676,-0.7804512,0.33532357,-0.15549521,-0.6443053,0.66172296,0.011669937,0.98418057,-0.55425394,-1.643085,-0.715212,2.2162116,1.5411236,-0.9422752,0.9841677,-0.49101606,-1.6693103,-0.69885087,2.2710252,1.4795347,-0.94087875,-0.2332475,-1.4986637,0.7309837,0.052236833,-0.9668297,0.45712975,0.24444674,1.1078796,-0.61374664,1.667689,-3.2947474,-0.23838441,-1.0054697,0.0112838745,-0.33745003,1.0860826,0.84390116,-0.28616482,0.12890927,0.43511257,-0.58285743,-0.6737978,-0.40453336,1.0,0.0,0.0,0.0,0.0,0.0,0.0,-1.7578796,0.21374664,-1.1176889,23.005423,-7.1748257,0.09098053,-11.5682335,-2.0606995,-0.50614476,-4.73896
47.951397,43.01138,9.932733,-29.121477,-3.2517884,-3.011489,1.1432443,0.15997171,-0.78591913,0.2709075,-0.29961124,-0.6186887,0.66430765,-0.05177994,1.0001649,-0.569608,-1.6422195,-0.728812,2.2091563,1.5459656,-0.9460567,0.9839121,-0.50605315,-1.662564,-0.7001374,2.2614465,1.4841009,-0.9388007,0.0392257,-1.5060687,0.66120946,-0.19106038,-0.9564665,0.45514446,0.19459857,1.0749569,-0.6161289,1.6569053,-3.2914534,-0.23814608,-1.1026504,0.0067710876,-0.34458923,1.0815976,0.8441644,-0.2853043,0.1262214,0.4359542,-0.40810552,-0.7246012,-0.46630794,1.0,0.0,0.0,0.0,0.0,0.0,0.0,-1.7249569,0.21612892,-1.1069052,25.945728,-0.94788074,-5.3981185,-24.964846,0.57274103,-0.60878396,-5.281356
49.021175,39.997234,6.926086,-31.88443,-3.8603632,-3.4678469,0.99174726,0.2841241,-0.7944341,0.026883086,-0.35354555,-0.5659414,0.6561777,-0.049837995,1.0123246,-0.58549654,-1.6598758,-0.73549193,2.2048523,1.5497187,-0.9437845,0.9863373,-0.52096003,-1.6576774,-0.7039473,2.2521882,1.4886385,-0.93717754,0.30614907,-1.4861357,0.43568683,-0.446371,-0.91640764,0.4517624,0.15050425,1.0420666,-0.6185093,1.6451507,-3.2881625,-0.23790799,-1.199734,0.004125595,-0.3523655,1.0764332,0.84409285,-0.28334203,0.12366707,0.43809927,-0.21616998,-0.7928822,-0.5363648,1.0,0.0,0.0,0.0,0.0,0.0,0.0,-1.6920666,0.21850929,-1.0951507,25.447601,1.8090248,-21.19485,-26.127422,3.721571,-0.8307338,-4.7340126
34.234406,22.822592,0.0218333,-23.452644,-3.2417,-3.6080728,0.37549397,0.33313605,-0.795995,-0.2895085,-0.3553763,-0.51961315,0.64531815,-0.07617068,1.0196509,-0.60055953,-1.6866282,-0.7394849,2.2002268,1.5531703,-0.9447946,0.9909836,-0.53561133,-1.6564014,-0.7097552,2.243464,1.4931341,-0.9359635,0.51455426,-1.4586067,0.028351318,-0.62677306,-0.85803205,0.4472488,0.11069788,1.0092106,-0.62088585,1.6324259,-3.284875,-0.23767014,-1.2967205,0.0030937195,-0.36097908,1.0705376,0.8441053,-0.2799994,0.121649474,0.44078103,-0.06272031,-0.881316,-0.61073804,1.0,0.0,0.0,0.0,0.0,0.0,0.0,-1.6592106,0.22088584,-1.0824258,19.963282,2.6216745,-39.74679,-18.375755,5.640924,-0.9756267,-4.2794285
20.620283,14.314183,-2.9241416,-14.0754595,-2.4354053,-3.2618523,0.0409356,0.34285805,-0.79470915,-0.4183566,-0.41677535,-0.53548485,0.64162344,0.004548621,1.0252694,-0.61508226,-1.6982371,-0.7514327,2.1899154,1.5572965,-0.93550867,0.99707663,-0.5500137,-1.659333,-0.7169812,2.2352128,1.4975859,-0.93503654,0.6394316,-1.4344109,-0.39823222,-0.7550099,-0.8149115,0.443042,0.085756496,0.976387,-0.6232605,1.618732,-3.2815907,-0.23743252,-1.3936101,0.003271103,-0.37045288,1.0639111,0.84448034,-0.27522478,0.12042255,0.44339907,0.04890187,-0.9661952,-0.6841322,1.0,0.0,0.0,0.0,0.0,0.0,0.0,-1.626387,0.22326049,-1.068732,12.032831,2.3314238,-42.056446,-12.937773,4.1220665,-0.9207487,-2.7438595
8.5693035,11.830249,-3.1778376,-5.352044,-1.5256042,-2.6475253,-0.06585202,0.29952693,-0.793955,-0.47610575,-0.5096874,-0.5339537,0.6438206,0.114201434,1.0270293,-0.6294092,-1.7069435,-0.76794994,2.1818175,1.561968,-0.9236164,1.0036521,-0.5642368,-1.6658714,-0.7253926,2.227282,1.5020071,-0.9342326,0.6635616,-1.4184989,-0.7380063,-0.8695931,-0.7866795,0.44011468,0.07808124,0.9435959,-0.62563324,1.6040698,-3.2783098,-0.23719515,-1.4904027,0.0042438507,-0.38065338,1.0565828,0.8452757,-0.26913425,0.12002819,0.44572282,0.11895781,-1.0343715,-0.754256,1.0,0.0,0.0,0.0,0.0,0.0,0.0,-1.5935959,0.22563323,-1.0540698,2.365315,1.5233517,-33.727585,-11.393118,2.5770426,-0.7487774,-0.95721036
7.108719,18.622383,0.08495033,-2.537696,-1.0828152,-2.0772784,0.13841406,0.31247914,-0.79542714,-0.48626387,-0.6086287,-0.52954906,0.6379838,0.20736521,1.0349,-0.6437795,-1.7144978,-0.7862555,2.1743271,1.5658056,-0.9134961,1.0101581,-0.5783722,-1.6747596,-0.73503995,2.2195497,1.5064017,-0.933401,0.6465387,-1.4119543,-0.9392946,-0.9961432,-0.7693515,0.43777016,0.08458152,0.9108372,-0.62800217,1.5884405,-3.2750323,-0.23695801,-1.5870986,0.0058021545,-0.39135742,1.0486008,0.84631103,-0.26195535,0.12027865,0.44796205,0.17404653,-1.0787994,-0.819181,1.0,0.0,0.0,0.0,0.0,0.0,0.0,-1.5608371,0.22800216,-1.0384405,-1.6115665,0.61421394,-20.126677,-12.566364,1.5426517,-0.6382227,0.54546595
6.8418193,33.84296,6.252749,2.5437946,-0.57281744,-1.2441502,0.31460047,0.31240818,-0.78763825,-0.42941594,-0.6249638,-0.5756362,0.6582267,0.30591536,1.0413989,-0.657136,-1.7177012,-0.7975363,2.161986,1.5722244,-0.90280944,1.0163684,-0.5924503,-1.6844604,-0.74572015,2.2117906,1.5108,-0.9324111,0.612926,-1.4064386,-0.98131347,-1.0917917,-0.777916,0.43985403,0.10377702,0.8781109,-0.6303711,1.571845,-3.2717578,-0.23672111,-1.6836978,0.007795334,-0.4022026,1.0401266,0.8473043,-0.25413898,0.12091359,0.45040944,0.21301946,-1.0822513,-0.86401004,1.0,0.0,0.0,0.0,0.0,0.0,0.0,-1.5281109,0.23037109,-1.0218451,-3.2369733,0.549984,-4.452455,-9.514618,-0.89634657,-0.00020861626,1.929748
-0.9296293,40.258385,9.01851,10.612491,0.21847361,-0.557733,0.22115317,0.23937148,-0.7840096,-0.4185234,-0.6272037,-0.6054686,0.6691979,0.34818944,1.0403055,-0.6708513,-1.7263128,-0.8084405,2.1512437,1.5777198,-0.8975921,1.0219245,-0.60647887,-1.6939228,-0.7570393,2.2038178,1.5152384,-0.931198,0.53731287,-1.4017416,-0.9356072,-1.1450285,-0.8040829,0.44506472,0.12738752,0.84541893,-0.6327362,1.5542842,-3.2684867,-0.23648445,-1.7802005,0.009944916,-0.41288757,1.0313394,0.8481391,-0.24609287,0.1217719,0.45306706,0.22032204,-1.0593671,-0.8912339,1.0,0.0,0.0,0.0,0.0,0.0,0.0,-1.4954189,0.2327362,-1.0042841,-7.315743,0.46682358,4.186511,-5.218625,-2.6685119,0.47684312,2.4331927
-0.89992523,44.70619,11.109628,12.464338,0.5111274,-0.312688,0.25114474,0.23799719,-0.78699654,-0.39893398,-0.65154284,-0.59986156,0.66135377,0.37606683,1.0457243,-0.6851785,-1.7338161,-0.8221936,2.1438317,1.5813738,-0.89359134,1.026794,-0.6204893,-1.7026241,-0.7687352,2.1956086,1.5197264,-0.9297427,0.470906,-1.4007884,-0.84989387,-1.1774486,-0.82647794,0.4502742,0.15209496,0.8127575,-0.6350994,1.5357591,-3.265219,-0.23624802,-1.8766067,0.012113571,-0.4232731,1.0223482,0.84874135,-0.23805751,0.122696444,0.4559741,0.21983953,-1.0263623,-0.90925,1.0,0.0,0.0,0.0,0.0,0.0,0.0,-1.4627575,0.2350994,-0.9857591,-6.4235744,0.10507107,8.11975,-3.1492472,-2.2138119,0.5600631,2.5983632
-3.5331523,45.109646,11.495933,14.80553,0.82743204,-0.1743995,0.18998654,0.19727845,-0.78852844,-0.37721208,-0.65906113,-0.5982324,0.66285414,0.4012467,1.0465218,-0.69934213,-1.7403452,-0.8346413,2.1357853,1.5860118,-0.88961804,1.0309806,-0.6345102,-1.7104309,-0.7806208,2.187224,1.5242659,-0.92804325,0.40211195,-1.4025575,-0.75904053,-1.1919264,-0.8422998,0.4554961,0.17640235,0.7801304,-0.6374607,1.5162706,-3.2619543,-0.2360118,-1.9729164,0.014192581,-0.43331528,1.0132138,0.84910446,-0.230147,0.12358707,0.45910785,0.20837423,-0.9909441,-0.9220622,1.0,0.0,0.0,0.0,0.0,0.0,0.0,-1.4301304,0.2374607,-0.9662706,-6.645906,-0.17018318,8.62528,-1.327467,-1.5624762,0.60376525,2.581987
-8.976536,43.24949,10.798394,17.852484,1.1797047,-0.055489898,0.0722395,0.12449276,-0.78874886,-0.34620443,-0.6675841,-0.60252345,0.66831166,0.41387814,1.0434299,-0.7133851,-1.7450513,-0.8473792,2.1269715,1.591097,-0.88665545,1.0343223,-0.648555,-1.7173812,-0.7925904,2.1787171,1.5288588,-0.9261168,0.31250006,-1.4052294,-0.67535734,-1.1979412,-0.853849,0.46072578,0.1985976,0.7475357,-0.6398182,1.4958198,-3.258693,-0.23577583,-2.0691295,0.016048431,-0.44300652,1.0039651,0.8492917,-0.22239313,0.12441924,0.46234682,0.18196659,-0.9563949,-0.93253547,1.0,0.0,0.0,0.0,0.0,0.0,0.0,-1.3975357,0.23981819,-0.9458198,-8.663678,-0.27370453,7.9176664,-0.4208088,-1.1983395,0.6205261,2.374527
-10.833118,45.833527,11.673344,19.393486,1.3040923,0.086996496,0.046238966,0.07301425,-0.7835564,-0.28060067,-0.675184,-0.62182814,0.67483306,0.43908685,1.0416237,-0.7269106,-1.7454413,-0.8601088,2.1165342,1.5963421,-0.8822081,1.0367064,-0.66259974,-1.7234256,-0.8046038,2.170073,1.5335032,-0.9239739,0.21480931,-1.4042076,-0.5824292,-1.2019069,-0.868038,0.46628746,0.220068,0.71497345,-0.64217377,1.4744076,-3.255435,-0.23554009,-2.1652465,0.01761055,-0.452322,0.9946457,0.8493303,-0.2148366,0.12519461,0.46562806,0.15061377,-0.916926,-0.9380896,1.0,0.0,0.0,0.0,0.0,0.0,0.0,-1.3649734,0.24217376,-0.92440754,-9.452036,0.10364056,8.797991,-0.20029545,-1.4455199,0.69411993,2.319938
-15.172279,45.440777,11.523181,21.70713,1.5803808,0.20999318,-0.028317451,-0.0035751346,-0.7855998,-0.22525859,-0.67871827,-0.62630796,0.6708968,0.44116104,1.0363489,-0.74115974,-1.7459515,-0.8724756,2.1074421,1.6005929,-0.87985784,1.0379786,-0.6766378,-1.7285068,-0.8166497,2.1612992,1.5381953,-0.9216374,0.09926871,-1.4036667,-0.48513812,-1.2046992,-0.88078743,0.470904,0.23872167,0.6824436,-0.64452744,1.452035,-3.2521803,-0.2353046,-2.2612674,0.018777847,-0.46123505,0.9852897,0.8492595,-0.20750669,0.12589963,0.46887994,0.10796762,-0.87672925,-0.940638,1.0,0.0,0.0,0.0,0.0,0.0,0.0,-1.3324436,0.24452743,-0.90203494,-11.192576,0.05156994,9.20974,-0.03848076,-1.3203144,0.61970353,2.053955
-13.838987,45.8642,11.911078,20.888916,1.5992372,0.1706664,-0.009205617,-0.033630237,-0.78936404,-0.18337919,-0.6831312,-0.60587484,0.6658625,0.44044253,1.0346156,-0.7555742,-1.7468448,-0.8849628,2.1007118,1.6047815,-0.87759316,1.0382037,-0.69068736,-1.7326572,-0.8287327,2.1524873,1.5429255,-0.91913784,-0.0018630665,-1.4054106,-0.39342842,-1.208738,-0.88115597,0.47428563,0.25448987,0.6499462,-0.6468792,1.4287027,-3.2489288,-0.23506933,-2.3571925,0.019535065,-0.46977234,0.97590816,0.8490872,-0.2004102,0.12646799,0.4721149,0.06723203,-0.83920586,-0.9426084,1.0,0.0,0.0,0.0,0.0,0.0,0.0,-1.2999462,0.24687919,-0.8787027,-9.783666,-0.1702547,8.647555,-0.16551018,-0.04620552,0.49564838,1.7864943
-9.231587,46.55246,12.335894,18.231686,1.3315325,0.015692413,0.037617587,-0.043649353,-0.7911954,-0.16445386,-0.684562,-0.614721,0.6626531,0.4351188,1.0338387,-0.7698069,-1.7491026,-0.8971889,2.091015,1.6091908,-0.87562597,1.0376601,-0.70476454,-1.7360542,-0.84085584,2.1436753,1.5476805,-0.9165038,-0.071025096,-1.4084206,-0.3233185,-1.2128079,-0.8810134,0.4765036,0.26700607,0.61748123,-0.64922905,1.404412,-3.2456806,-0.23483431,-2.4530215,0.019989014,-0.4779663,0.9664877,0.84879714,-0.19351822,0.12687519,0.4753912,0.039153278,-0.8061366,-0.94661295,1.0,0.0,0.0,0.0,0.0,0.0,0.0,-1.2674812,0.24922904,-0.854412,-6.6555076,-0.28579235,6.5166416,-0.19586086,0.047039986,0.36219358,1.4599025
0.44739497,44.806927,11.764087,11.93159,0.66444373,-0.42663664,0.14311181,-0.008549427,-0.79370874,-0.21201643,-0.7008811,-0.60822123,0.65375257,0.43558064,1.0368052,-0.7841354,-1.7572558,-0.9109439,2.0828533,1.6130557,-0.8729457,1.036859,-0.71888083,-1.7392108,-0.8530886,2.134894,1.5524431,-0.9137639,-0.08279286,-1.4125443,-0.31434858,-1.226308,-0.8770553,0.4764179,0.27688292,0.5850487,-0.6515751,1.3791637,-3.2424355,-0.23459953,-2.5487547,0.02037239,-0.48593712,0.95693886,0.8483642,-0.18668137,0.12716451,0.47880837,0.039395668,-0.78663653,-0.962026,1.0,0.0,0.0,0.0,0.0,0.0,0.0,-1.2350487,0.25157508,-0.82916373,-1.0353833,-0.39172173,0.5196154,-1.1921644,0.44367313,0.04425049,1.1559069
6.827233,39.522766,9.53535,6.9039526,0.089282334,-0.8995555,0.16479233,0.022688013,-0.7975343,-0.30554652,-0.7052181,-0.61432564,0.6463613,0.44459257,1.0391278,-0.7986343,-1.7697655,-0.92361045,2.0734613,1.6170793,-0.8693046,1.0362849,-0.7330496,-1.7429073,-0.8654673,2.1261315,1.5571924,-0.9109353,-0.049006697,-1.4182106,-0.38853705,-1.2413538,-0.87607116,0.47407115,0.2850758,0.55264854,-0.6539192,1.3529588,-3.2391937,-0.23436499,-2.6443923,0.02092743,-0.49384117,0.9471162,0.8478099,-0.17965606,0.1274639,0.48238453,0.06147245,-0.78502643,-0.99312735,1.0,0.0,0.0,0.0,0.0,0.0,0.0,-1.2026485,0.2539192,-0.8029588,3.4327843,-0.55799484,-7.629335,-1.3704777,0.0936389,-0.29937625,0.91897845
5.4343147,34.549908,7.121458,5.9954205,-0.059673756,-1.0742656,0.10690881,0.0066202995,-0.796624,-0.37984365,-0.72006285,-0.6215951,0.65149575,0.46521315,1.036947,-0.81271195,-1.7808917,-0.9374736,2.063972,1.622342,-0.864414,1.0360408,-0.7472612,-1.74775,-0.8780358,2.1173463,1.561915,-0.9080237,-0.016146922,-1.4221549,-0.51659775,-1.2615242,-0.87971586,0.47125167,0.2933078,0.52028084,-0.65626144,1.3257983,-3.2359552,-0.23413068,-2.7399342,0.021713257,-0.50180817,0.9368943,0.8472004,-0.1722212,0.12792176,0.48603228,0.085767806,-0.79380333,-1.0361406,1.0,0.0,0.0,0.0,0.0,0.0,0.0,-1.1702808,0.25626144,-0.77579826,3.3505964,-0.4071951,-12.919706,-1.8515348,-0.45577288,-0.43517947,0.8711517
-1.6872153,34.866688,7.0104284,9.875807,0.3718574,-0.8050417,0.0016957447,-0.03248743,-0.7959458,-0.387418,-0.7125392,-0.6174103,0.64916146,0.47117823,1.0327921,-0.8268558,-1.7864919,-0.9492897,2.0556052,1.6268312,-0.8609059,1.0358844,-0.76149577,-1.7537677,-0.8907311,2.1085305,1.5666109,-0.9050349,-0.015059799,-1.423977,-0.63057923,-1.2714895,-0.88269454,0.46859586,0.3009143,0.48794556,-0.65859985,1.2976831,-3.23272,-0.2338966,-2.8353808,0.022602081,-0.5098362,0.9262732,0.8465943,-0.16436379,0.12856631,0.48962563,0.09128606,-0.7976587,-1.0753403,1.0,0.0,0.0,0.0,0.0,0.0,0.0,-1.1379455,0.25859985,-0.7476831,0.23481734,-0.20837784,-11.520934,-0.7914305,-0.43703318,-0.39889216,0.8124113
-4.086359,38.101585,8.185664,11.477461,0.5156959,-0.57481813,-0.0033526644,-0.040529326,-0.7907778,-0.41530424,-0.7251834,-0.62682265,0.6505324,0.48504147,1.0318315,-0.84057355,-1.7952981,-0.96324944,2.0458484,1.6316642,-0.8565307,1.0356174,-0.7757122,-1.7607563,-0.9035351,2.0996614,1.5712839,-0.9019679,-0.030295357,-1.4210551,-0.7221901,-1.2826738,-0.8888065,0.46670684,0.30882427,0.4556427,-0.66093826,1.268614,-3.229488,-0.23366274,-2.9307315,0.023500443,-0.5178356,0.9152967,0.8459917,-0.15614353,0.12938632,0.4931293,0.09038185,-0.7935848,-1.1100209,1.0,0.0,0.0,0.0,0.0,0.0,0.0,-1.1056427,0.26093826,-0.71861404,-1.3721201,0.26757717,-9.317279,-0.9091377,-0.7520795,-0.29762983,0.8510709
-11.723216,38.890152,8.331503,15.43349,0.9696488,-0.25770527,-0.09539949,-0.09053212,-0.79199654,-0.43913275,-0.72325504,-0.64003825,0.6472613,0.483039,1.0265641,-0.85491186,-1.8046695,-0.97586066,2.0356574,1.63601,-0.853664,1.0349422,-0.78990096,-1.7684658,-0.91640687,2.0906968,1.5759398,-0.89883125,-0.07932359,-1.418276,-0.7876142,-1.2878338,-0.8998529,0.46509132,0.31552753,0.42337227,-0.66327286,1.2385923,-3.226259,-0.23342912,-3.0259871,0.024244308,-0.5257549,0.90401506,0.8454216,-0.14763433,0.13035883,0.49646047,0.06996503,-0.78337324,-1.139219,1.0,0.0,0.0,0.0,0.0,0.0,0.0,-1.0733722,0.26327285,-0.68859226,-4.6982965,0.23539066,-6.7039013,-0.26865005,-1.296413,-0.24846196,0.73818564
-19.840952,39.86424,8.373528,19.280815,1.4249061,0.055779994,-0.17896849,-0.15578611,-0.78649926,-0.4588023,-0.7309866,-0.6407971,0.6438725,0.4958452,1.0193635,-0.8685509,-1.814346,-0.9895055,2.026617,1.640327,-0.84924674,1.0335021,-0.80404204,-1.7766654,-0.92933583,2.0816255,1.5805804,-0.895625,-0.1647188,-1.4129108,-0.8313217,-1.2935872,-0.9103488,0.46359453,0.3225134,0.39113426,-0.66560555,1.2076187,-3.2230334,-0.23319574,-3.1211476,0.024637222,-0.5335331,0.89248073,0.8449288,-0.13889527,0.13146015,0.49952123,0.029851416,-0.76749206,-1.1632818,1.0,0.0,0.0,0.0,0.0,0.0,0.0,-1.0411342,0.26560554,-0.6576187,-8.280481,0.47266483,-4.529989,-0.2845049,-1.3064742,-0.22361279,0.7751465
-25.256727,39.916473,8.256645,21.481562,1.7414601,0.26634467,-0.22284783,-0.21435139,-0.7877223,-0.471752,-0.7400741,-0.6463795,0.6348244,0.49572667,1.012067,-0.8828143,-1.8238406,-1.0033432,2.0169876,1.6440628,-0.84605235,1.0310435,-0.818144,-1.7851741,-0.94234586,2.072451,1.5852,-0.8923558,-0.27213868,-1.4094669,-0.8578408,-1.3022802,-0.9208117,0.4613706,0.32867292,0.35892677,-0.6679363,1.1756941,-3.219811,-0.2329626,-3.2162127,0.024534225,-0.54113007,0.8807215,0.84454405,-0.12995975,0.13264477,0.50225604,-0.023549242,-0.7488744,-1.1851445,1.0,0.0,0.0,0.0,0.0,0.0,0.0,-1.0089267,0.26793632,-0.6256941,-10.453719,0.2619028,-2.8071046,-0.5413532,-1.3446331,-0.30329227,0.7063925
-19.977945,37.307247,7.3112607,17.62991,1.354152,0.024452448,-0.14565161,-0.21107039,-0.79204273,-0.55044025,-0.75986004,-0.6627916,0.614837,0.4851782,1.0099365,-0.8973483,-1.8402182,-1.0183319,2.006172,1.6466837,-0.843838,1.0277247,-0.8322441,-1.7941844,-0.9555199,2.063147,1.5897814,-0.8890408,-0.35111994,-1.4104015,-0.9160185,-1.3213437,-0.9347648,0.45661044,0.33266112,0.32675362,-0.6702633,1.1428196,-3.2165918,-0.23272969,-3.311183,0.024009705,-0.54860306,0.86865807,0.84424824,-0.12072442,0.13391924,0.50471383,-0.062010493,-0.73787683,-1.2184435,1.0,0.0,0.0,0.0,0.0,0.0,0.0,-0.9767536,0.27026328,-0.59281963,-7.648057,-0.17671585,-5.9369802,-1.5789509,-1.6861677,-0.63276887,0.47227144
-25.92023,31.532007,4.3668556,18.58866,1.5385445,-3.6597252e-05,-0.22741257,-0.29009798,-0.7981846,-0.61742383,-0.76777315,-0.67630535,0.5916224,0.48687756,0.9987149,-0.9120625,-1.8559269,-1.0322973,1.9955165,1.6489437,-0.8403531,1.0235133,-0.84639376,-1.8040073,-0.9688971,2.053679,1.5942961,-0.8856925,-0.44350737,-1.4169836,-1.0043647,-1.3417665,-0.95232224,0.44889793,0.33571953,0.29461098,-0.67258835,1.1089963,-3.2133758,-0.232497,-3.4060583,0.02302742,-0.55602455,0.85618126,0.84409016,-0.11103059,0.13532057,0.50682575,-0.11147717,-0.73491406,-1.2624205,1.0,0.0,0.0,0.0,0.0,0.0,0.0,-0.94461095,0.27258834,-0.55899626,-8.954966,-0.7852793,-8.866346,-1.6399384,-2.1558285,-1.0216057,0.3556788
-34.057335,30.125868,2.9970174,21.408016,1.9129406,0.20298183,-0.3251242,-0.3800205,-0.79522085,-0.6560291,-0.7749356,-0.6792308,0.58200896,0.48177004,0.98551124,-0.92591584,-1.8696102,-1.0463907,1.9857559,1.652497,-0.8375155,1.0181842,-0.86059874,-1.814759,-0.982465,2.0440507,1.5987269,-0.8823222,-0.5615613,-1.4222224,-1.0986342,-1.3602376,-0.9684844,0.44024736,0.33760765,0.26250267,-0.6749115,1.0742247,-3.210163,-0.23226455,-3.5008388,0.02141571,-0.5634136,0.843254,0.84413755,-0.10080625,0.13685024,0.5084701,-0.17886911,-0.7312548,-1.3080075,1.0,0.0,0.0,0.0,0.0,0.0,0.0,-0.91250265,0.2749115,-0.5242247,-11.478912,-0.6947994,-9.394956,-1.3760328,-2.124107,-1.1681497,0.23407936
-39.18211,30.067196,2.6639435,23.41499,2.2729564,0.40110356,-0.38046747,-0.44840574,-0.80355394,-0.68676823,-0.7724032,-0.6718348,0.55239195,0.46775424,0.9733436,-0.94095415,-1.8834358,-1.0597054,1.9768672,1.6539661,-0.8355468,1.0115905,-0.87488383,-1.8263824,-0.99615026,2.0343118,1.6030546,-0.8789462,-0.69097865,-1.4312718,-1.1832781,-1.3695489,-0.97763056,0.4292605,0.33787334,0.23042488,-0.67723274,1.0385062,-3.2069535,-0.23203233,-3.5955245,0.019025803,-0.5707607,0.82988507,0.8444272,-0.09006505,0.13843203,0.50957584,-0.2605341,-0.7256155,-1.3517975,1.0,0.0,0.0,0.0,0.0,0.0,0.0,-0.88042486,0.27723274,-0.48850614,-12.601852,-1.1092901,-8.393502,-0.41320324,-1.4774203,-1.4345884,0.092458725
-41.65414,33.748066,4.003687,24.793074,2.541125,0.66916215,-0.38362283,-0.5205256,-0.80242336,-0.7064123,-0.7750812,-0.64745003,0.5556514,0.47537428,0.9595379,-0.95512617,-1.8970237,-1.0736583,1.9695668,1.6586198,-0.83140874,1.0036578,-0.8892395,-1.8387,-1.0098903,2.024588,1.6072851,-0.8755616,-0.82639605,-1.4378198,-1.2476501,-1.3737248,-0.97264206,0.41980746,0.33899662,0.19837952,-0.6795521,1.0018414,-3.2037473,-0.23180035,-3.6901155,0.01576233,-0.5779953,0.8161327,0.84495556,-0.07889378,0.13994166,0.51013935,-0.35107365,-0.712466,-1.3885326,1.0,0.0,0.0,0.0,0.0,0.0,0.0,-0.8483795,0.27955207,-0.4518414,-13.206446,-0.8729458,-6.363368,0.11372566,-0.07562637,-1.2798607,0.21364689
-47.159714,35.79724,4.478963,27.196745,3.0028608,0.96044844,-0.44564402,-0.61593145,-0.80748767,-0.72513366,-0.77162844,-0.5996285,0.5425304,0.4405561,0.94206464,-0.9699882,-1.9112134,-1.0870532,1.9646252,1.6615381,-0.831506,0.9942553,-0.9036657,-1.8515193,-1.0236232,2.015078,1.6114222,-0.87219036,-0.9770858,-1.4450309,-1.292996,-1.3712009,-0.94580555,0.41030207,0.33708477,0.16636658,-0.6818676,0.9642315,-3.200544,-0.2315686,-3.784612,0.011472702,-0.58506393,0.8020635,0.84574616,-0.06739073,0.14121479,0.51012766,-0.45792592,-0.6940003,-1.4184858,1.0,0.0,0.0,0.0,0.0,0.0,0.0,-0.81636655,0.2818676,-0.41423148,-14.724148,-0.96919537,-4.4395447,0.82736015,2.070856,-1.3050556,-0.042188168
-49.206234,38.634933,5.189233,28.122543,3.1929858,1.1532537,-0.49381042,-0.69057107,-0.8042683,-0.76386434,-0.7616781,-0.562775,0.5639324,0.3892418,0.9251982,-0.98409253,-1.9279058,-1.099791,1.9588006,1.6678154,-0.8332662,0.9833472,-0.91813105,-1.8647907,-1.0372684,2.0059419,1.6154867,-0.8688754,-1.1276606,-1.4479125,-1.3380092,-1.3603691,-0.9047714,0.40409344,0.33023354,0.13438416,-0.6841812,0.9256773,-3.1973443,-0.23133707,-3.879014,0.006067276,-0.59192467,0.78773016,0.84682846,-0.05562719,0.1421468,0.5094913,-0.57122034,-0.67056453,-1.4435878,1.0,0.0,0.0,0.0,0.0,0.0,0.0,-0.78438413,0.2841812,-0.3756773,-14.722633,-0.5512953,-4.382634,1.6751289,3.4791112,-0.99755526,-0.5108595
-47.430206,43.080833,6.7631364,27.889633,3.2182672,1.2485702,-0.54628354,-0.74901927,-0.7983659,-0.79886365,-0.74542445,-0.50787127,0.5585742,0.22244054,0.90844524,-0.99796766,-1.944677,-1.1118108,1.9551548,1.6713442,-0.84663135,0.9710429,-0.9325792,-1.8785446,-1.0507324,1.997341,1.619496,-0.86575115,-1.26365,-1.4445916,-1.3872169,-1.339837,-0.8474231,0.39857668,0.30714396,0.102436066,-0.6864929,0.8861718,-3.1941476,-0.23110577,-3.9743872,-0.00045013428,-0.5985184,0.7731832,0.84823275,-0.043669846,0.14265533,0.50817657,-0.68242407,-0.64271504,-1.4634672,1.0,0.0,0.0,0.0,0.0,0.0,0.0,-0.75243604,0.2864929,-0.3361718,-13.297105,0.07340908,-4.7901154,2.6243687,5.1444054,-0.9379804,-2.1158636
-40.738235,48.26503,9.63465,26.041214,3.0528862,1.3300015,-0.50347877,-0.7859907,-0.7999518,-0.8006498,-0.7193459,-0.46174705,0.56482416,0.13874796,0.8924438,-1.0125744,-1.9586096,-1.122667,1.9511664,1.6759784,-0.8518764,0.957598,-0.94698924,-1.8926799,-1.0638969,1.9893779,1.6234652,-0.862913,-1.3706836,-1.4405388,-1.4220285,-1.3067987,-0.78096443,0.39515984,0.27675456,0.07051849,-0.6888027,0.8457133,-3.190954,-0.23087472,-4.069664,-0.007987976,-0.60479546,0.7584976,0.8499345,-0.031640906,0.14265707,0.5062203,-0.7819957,-0.6086297,-1.475241,1.0,0.0,0.0,0.0,0.0,0.0,0.0,-0.72051847,0.2888027,-0.2957133,-10.464931,0.18224716,-3.3816576,3.8027525,6.169176,-0.6833494,-2.8250754
-30.55843,52.162827,12.426128,22.428999,2.7208638,1.2539983,-0.48995435,-0.8031491,-0.8017285,-0.81198335,-0.7043711,-0.38200054,0.50650936,-0.19297612,0.87728304,-1.0271621,-1.9738783,-1.134334,1.9511778,1.6741161,-0.8822106,0.94336534,-0.9613697,-1.9070938,-1.0767124,1.982212,1.6273638,-0.8606061,-1.4402614,-1.4376692,-1.4475048,-1.2716902,-0.69613886,0.38720122,0.21610276,0.03863144,-0.6911106,0.80430275,-3.1877637,-0.2306439,-4.1648455,-0.016376495,-0.6107178,0.74372244,0.85191953,-0.019642057,0.14203197,0.5036608,-0.8618736,-0.5722086,-1.4829062,1.0,0.0,0.0,0.0,0.0,0.0,0.0,-0.6886314,0.2911106,-0.25430274,-6.7879915,0.11677742,-2.495265,3.9150476,8.153259,-1.0869086,-5.8342514
-23.53003,57.11349,15.613841,20.862831,2.8274577,1.2905203,-0.42463797,-0.8233097,-0.7960178,-0.8087027,-0.6733913,-0.18172021,0.487115,-0.22099896,0.8610344,-1.0409715,-1.987964,-1.1440516,1.9640399,1.6760753,-0.882706,0.9286387,-0.97570246,-1.9216468,-1.089114,1.9763678,1.6311766,-0.8588942,-1.4831152,-1.4321408,-1.4578364,-1.2286568,-0.54790974,0.3784328,0.15721157,0.006778717,-0.6934147,0.7619411,-3.1845765,-0.2304133,-4.2599325,-0.02551651,-0.616272,0.72895384,0.8541687,-0.007827366,0.14051162,0.5005907,-0.9349298,-0.5341871,-1.4793111,0.0,1.0,0.0,0.0,0.0,0.0,0.0,-0.6567787,0.29341468,-0.21194106,-4.1752815,0.42512417,-1.006341,4.61185,14.610457,-1.111716,-5.6093187
-18.046412,59.89488,17.614092,19.428425,2.9360132,1.2555302,-0.40494758,-0.8327556,-0.7919012,-0.81781214,-0.64631766,0.024581581,0.43189088,-0.3291656,0.84536314,-1.0548925,-2.003428,-1.1537458,1.978826,1.6743656,-0.8918108,0.9134914,-0.9898404,-1.9373282,-1.1017174,1.9739329,1.6332368,-0.85824955,-1.5218263,-1.4102457,-1.588298,-1.2591864,-0.17432626,0.15894052,0.049241398,-0.010528564,-0.6921406,0.7578447,-1.5507549,0.24324353,0.3005818,-0.035442352,-0.6219139,0.7139407,0.85696274,0.004903148,0.13712198,0.49677792,-1.0128623,-0.5518904,-1.5091779,0.0,1.0,0.0,0.0,0.0,0.0,0.0,-0.6394714,0.29214057,-0.20784467,-1.7475128,0.4891634,-0.416708,5.5414677,20.002552,-2.699548,-5.4645934
17.348692,176.0,110.0,110.0,6.4828396,11.431759,-2.1221292,-0.7898847,0.56055355,0.69174397,0.64401865,-0.28570136,0.68680155,-0.3866158,0.83450294,-0.933785,-1.8681538,-1.0373155,1.9453627,1.7019169,-0.89691114,0.9018137,-1.0066022,-1.9435042,-1.0996174,1.9617907,1.6418637,-0.85628307,-1.0385622,-1.6762147,-0.44984204,0.66543734,-1.4134517,1.167461,0.27240834,-0.026023865,-0.6897106,0.7601038,-1.5492045,0.24300034,0.20103012,-0.046375275,-0.62543297,0.7033584,0.85977983,0.008054693,0.1371851,0.49182713,-1.1229159,-0.2676913,-0.91315943,1.0,0.0,0.0,0.0,0.0,0.0,0.0,-0.6239761,0.2897106,-0.21010381,51.68388,-4.7683716e-05,67.13373,182.17126,-79.70302,121.89967,30.296158
-40.75862,176.0,70.732056,86.67608,8.154401,4.9572434,-2.306711,-0.7853415,-0.6749291,0.03422787,0.7128314,-0.38234198,0.59580165,-0.39711583,0.82327956,-1.0740951,-1.9400815,-1.0283343,1.9235564,1.7014439,-0.89599466,0.89171046,-1.023034,-1.9433173,-1.0862144,1.9466387,1.6536893,-0.8539418,-0.9996293,-1.6334094,0.178281,1.5669552,-1.5528121,1.1912189,0.22364764,-0.041503906,-0.68728256,0.76136816,-1.5476556,0.2427574,0.10157798,-0.05881691,-0.6273689,0.69725555,0.8634761,0.004494191,0.13905211,0.48482305,-1.2832758,-0.15811858,-0.5133026,1.0,0.0,0.0,0.0,0.0,0.0,0.0,-0.60849607,0.28728256,-0.21136814,4.2850137,3.922081,63.82692,90.683105,-15.098166,3.46241,-4.1563272
-46.062733,166.74252,52.21157,62.404663,5.134703,3.1039474,-1.6701944,-0.77217376,-0.46221387,-0.17101794,0.680557,-0.4966667,0.6052005,-0.16412652,0.81449306,-1.0692554,-1.960419,-1.0181587,1.8969721,1.7142093,-0.8703545,0.88118094,-1.0371579,-1.9406966,-1.0678772,1.9321257,1.665181,-0.852023,-1.0692942,-1.3399355,0.29103914,1.9244244,-1.420483,1.1372318,0.18158078,-0.05696869,-0.6848564,0.76163876,-1.5461082,0.24251468,0.0022252693,-0.07240486,-0.62825584,0.69408077,0.86806756,-0.0013743558,0.1417588,0.4757743,-1.3827219,-0.056891624,-0.25861812,1.0,0.0,0.0,0.0,0.0,0.0,0.0,-0.5930313,0.2848564,-0.21163875,-6.544733,28.91209,11.629969,36.31773,12.311864,-4.7609806,-4.1059256
-26.648489,148.86421,48.256344,38.727394,3.4479275,2.5827832,-0.71432793,-0.75898486,-0.5020068,0.29772383,0.7633827,-0.46079677,0.6020437,-0.29574135,0.8052825,-1.0873586,-1.9109242,-0.9915389,1.886046,1.7253854,-0.88159716,0.86959,-1.0486192,-1.9364203,-1.0485595,1.9196669,1.6757783,-0.850665,-1.1883899,-1.082875,0.47471467,1.9350245,-1.1911646,1.0348492,0.120730475,-0.07241821,-0.6824341,0.7609166,-1.5445625,0.24227221,-0.097028114,-0.08651924,-0.628067,0.69293374,0.8730728,-0.008192553,0.1445521,0.4655978,-1.4214754,0.053325757,-0.07370276,1.0,0.0,0.0,0.0,0.0,0.0,0.0,-0.57758176,0.28243408,-0.21091658,-11.743927,25.271368,18.787558,1.3299465,21.843456,-9.925747,-6.043598
-15.243023,101.275894,29.266737,16.743954,1.4553568,1.2577682,-0.06747093,-0.773622,-0.50276923,0.20191585,0.6980525,-0.4331077,0.6104752,-0.28398174,0.7922278,-1.098896,-1.9162288,-0.9787543,1.8763561,1.7368258,-0.8790631,0.8568422,-1.0581101,-1.9314078,-1.0307487,1.9094759,1.6853894,-0.84986675,-1.3037039,-0.90529263,0.51045096,1.7299073,-0.9635387,0.9371789,0.06595551,-0.08785248,-0.68001366,0.7592026,-1.5430182,0.24202998,-0.19618228,-0.100717545,-0.6270561,0.692659,0.87812006,-0.014904423,0.14693116,0.455076,-1.4201192,0.12714691,-0.01840609,1.0,0.0,0.0,0.0,0.0,0.0,0.0,-0.5621475,0.28001365,-0.20920259,-11.564851,17.500889,3.707087,-20.460033,22.18765,-9.533321,-5.5474133
0.1269722,86.335396,24.962076,7.0040007,0.28856307,0.6147724,0.23676525,-0.75768256,-0.42375192,0.22965498,0.7085003,-0.43184465,0.59432405,-0.2603265,0.781074,-1.1004853,-1.9084423,-0.9598987,1.8662914,1.7448218,-0.8758994,0.84328955,-1.0661496,-1.92634,-1.0152019,1.901137,1.6941041,-0.84954154,-1.372856,-0.77097696,0.5062739,1.4960612,-0.7922104,0.8503112,0.021004891,-0.103271484,-0.67759514,0.7564978,-1.5414755,0.241788,-0.2952373,-0.114637375,-0.6254425,0.69264156,0.8829986,-0.021035695,0.14889504,0.444636,-1.3829168,0.182351,-0.0014433877,1.0,0.0,0.0,0.0,0.0,0.0,0.0,-0.5467285,0.27759513,-0.20649779,-7.0439816,13.228679,-0.21480322,-23.428392,16.631996,-8.465731,-4.605357
5.3983226,65.358765,18.009933,3.110063,-0.011323422,0.012016058,0.26981315,-0.75361323,-0.43003085,0.21937323,0.7070496,-0.41299486,0.6002482,-0.25211224,0.76792824,-1.1091527,-1.9044026,-0.944497,1.8598375,1.7541289,-0.87475276,0.82936877,-1.0733899,-1.9215564,-1.0016044,1.8940989,1.7020558,-0.84959877,-1.3987974,-0.7088446,0.46962947,1.3142009,-0.67542666,0.77734846,-0.014924666,-0.11867523,-0.6751785,0.7528003,-1.5399344,0.24154627,-0.39458704,-0.12817955,-0.62348366,0.69251484,0.8876677,-0.026461292,0.15048367,0.4343966,-1.3444184,0.20997839,-0.020442707,1.0,0.0,0.0,0.0,0.0,0.0,0.0,-0.53132474,0.27517852,-0.20280027,-2.7052402,6.0808897,-3.4891307,-18.215488,11.321152,-7.126975,-3.6641188
6.7269893,62.03689,17.14411,4.720472,0.07535592,-0.16625082,0.1726561,-0.7518764,-0.39048988,0.2173356,0.7039892,-0.40789,0.5950733,-0.23401311,0.75418115,-1.1124389,-1.8998228,-0.9312055,1.8533099,1.7615632,-0.8730001,0.8154108,-1.0802029,-1.9171618,-0.98924315,1.887858,1.7093667,-0.8499516,-1.3950878,-0.67263395,0.4299842,1.2101696,-0.6081206,0.7161032,-0.042208638,-0.13406372,-0.6727638,0.74811,-1.5383948,0.24130479,-0.49383745,-0.14136505,-0.6213207,0.69220454,0.89215994,-0.031262722,0.15184169,0.4242844,-1.310044,0.22780465,-0.037906386,0.0,1.0,0.0,0.0,0.0,0.0,0.0,-0.51593626,0.27276382,-0.19810998,0.29907227,3.5058498,-3.7686527,-10.383487,6.408918,-5.9894323,-2.7748358
4.5262547,52.57428,13.930751,6.208942,0.30014598,-0.34103715,0.054792907,-0.7433955,-0.41288486,0.20267941,0.7038597,-0.4251838,0.6005865,-0.24348772,0.7410712,-1.1214914,-1.8968939,-0.91885716,1.8453397,1.7694253,-0.8743004,0.8016283,-1.0869683,-1.9131583,-0.977409,1.8819662,1.7161473,-0.85054195,-1.3727309,-0.6781412,0.3909432,1.1747895,-0.58351433,0.6656089,-0.0647416,-0.14943695,-0.67035294,0.74242795,-1.5368567,0.24106354,-0.5929886,-0.15431595,-0.6190624,0.69164544,0.8965334,-0.03553534,0.15306866,0.4141678,-1.2890248,0.23412494,-0.06463786,0.0,1.0,0.0,0.0,0.0,0.0,0.0,-0.500563,0.27035293,-0.19242793,2.2099972,-0.6406784,-3.7268817,-3.4682512,2.2037864,-4.9644947,-2.2630863
0.38050604,49.23093,11.892996,8.365529,0.4478284,-0.43465924,-0.04138629,-0.7369972,-0.40156865,0.1374736,0.7035401,-0.42645034,0.58748436,-0.19481748,0.7279286,-1.1271251,-1.899411,-0.907055,1.8393213,1.7748958,-0.8700237,0.7881109,-1.0938481,-1.9097518,-0.9656025,1.8761545,1.7224797,-0.8512906,-1.3447663,-0.6914467,0.32439023,1.1829326,-0.5811297,0.6225191,-0.07817581,-0.16479492,-0.66794395,0.7357551,-1.5353202,0.24082252,-0.6920406,-0.16713524,-0.6167774,0.6907882,0.9008385,-0.03926528,0.15429664,0.4039067,-1.2785892,0.2351489,-0.09520079,0.0,1.0,0.0,0.0,0.0,0.0,0.0,-0.48520505,0.26794395,-0.18575507,2.8014421,-1.4121175,-6.515956,0.9294033,0.04259348,-4.2515516,-1.3432592
-9.122598,36.134636,5.852719,9.949584,0.7831302,-0.588377,-0.15054506,-0.7483195,-0.43848327,0.040234473,0.70057416,-0.37459376,0.5605666,-0.18303688,0.71327895,-1.1376964,-1.9057283,-0.8955451,1.8386952,1.7785363,-0.8695943,0.77476895,-1.1010294,-1.9076009,-0.95370895,1.8704627,1.7279431,-0.85197794,-1.3306867,-0.72707576,0.17793398,1.1927568,-0.5506646,0.53100157,-0.07310432,-0.18083,-0.6626549,0.73644215,-1.4976702,0.56663823,0.3048042,-0.17999649,-0.6146641,0.68938637,0.9051477,-0.041932266,0.15547557,0.39341673,-1.2909063,0.21342859,-0.15707126,0.0,1.0,0.0,0.0,0.0,0.0,0.0,-0.46916997,0.26265487,-0.18644214,1.5605211,-3.8310885,-11.546227,2.7040243,1.3355374,-3.861463,-0.8583531
-19.06895,90.1932,20.523306,22.486464,0.86106455,0.13757992,-0.38986266,-0.7878319,-0.14794354,-0.11348575,0.7426557,-0.41061333,0.55250496,-0.17055036,0.69598573,-1.1158237,-1.9189495,-0.8794434,1.8294014,1.7831936,-0.869033,0.7613193,-1.1071978,-1.9072404,-0.94139034,1.8649333,1.7330033,-0.8527552,-1.3496944,-0.5806576,-0.010630302,1.2454365,-0.5545617,0.49786857,-0.07960703,-0.19579506,-0.65699196,0.7387405,-1.4961728,0.5660717,0.20485456,-0.1928978,-0.61232567,0.6880922,0.90949714,-0.043805845,0.15737511,0.3822681,-1.2888727,0.24882072,-0.12237239,0.0,1.0,0.0,0.0,0.0,0.0,0.0,-0.45420492,0.25699195,-0.18874049,-1.8737555,14.447964,-18.692934,5.4501057,-0.64679384,-3.285879,-0.7552296
-30.537088,69.68724,11.158328,22.837599,0.9741094,-0.1350857,-0.47912416,-0.8056046,-0.21870269,-0.33146882,0.7514273,-0.38383523,0.51616436,-0.16377133,0.68075883,-1.129068,-1.9403872,-0.8662476,1.8265498,1.7846197,-0.86913234,0.74755204,-1.112153,-1.9094644,-0.9285262,1.8594286,1.7377926,-0.85359824,-1.3855261,-0.46769956,-0.29300743,1.3007796,-0.5493992,0.47237045,-0.086265855,-0.21074486,-0.65133667,0.74004006,-1.4946768,0.56550574,0.105004855,-0.20596313,-0.60975647,0.68683314,0.91391265,-0.04459465,0.16031913,0.37023327,-1.3110372,0.26935384,-0.12889515,0.0,1.0,0.0,0.0,0.0,0.0,0.0,-0.43925512,0.25133666,-0.19004005,-3.5135746,11.123985,-28.228653,5.740237,0.42443275,-2.6129603,-0.77348053
-27.2948,84.2136,15.693059,23.404112,0.71947885,0.02609557,-0.3797082,-0.8061221,-0.09701419,-0.44844106,0.7663041,-0.3853792,0.49961716,-0.05616052,0.66693985,-1.1218544,-1.9543085,-0.8518958,1.8208907,1.7877543,-0.8592143,0.7334491,-1.1156797,-1.9145799,-0.9151557,1.853926,1.7423512,-0.8544222,-1.4185361,-0.31491917,-0.5836878,1.3493638,-0.5514223,0.4498967,-0.08184016,-0.2256794,-0.6456852,0.74034196,-1.4931825,0.56494033,0.00525497,-0.21913338,-0.60689545,0.68566614,0.9183202,-0.044181872,0.16447133,0.3573304,-1.3166212,0.3008584,-0.11372747,0.0,1.0,0.0,0.0,0.0,0.0,0.0,-0.42432058,0.24568519,-0.19034195,-3.2936335,15.029144,-28.848118,4.947257,-0.5011678,-2.4092257,0.23521036
-21.314972,73.3339,13.166142,18.967136,0.4180014,-0.10481036,-0.19921221,-0.80150247,-0.10447788,-0.5507448,0.7767322,-0.43325776,0.46769944,0.022590358,0.65329885,-1.1261275,-1.9696543,-0.8374825,1.8106002,1.7891212,-0.8521632,0.71912014,-1.1180296,-1.9224,-0.901398,1.8482535,1.7466885,-0.85513747,-1.4378039,-0.20916559,-0.84708035,1.3845904,-0.5737189,0.4275776,-0.06887295,-0.24059868,-0.64004135,0.7396471,-1.4916897,0.5643755,-0.09439519,-0.23230934,-0.6037903,0.68450046,0.9226093,-0.042544134,0.16974717,0.34375563,-1.3155346,0.3235072,-0.11799118,0.0,1.0,0.0,0.0,0.0,0.0,0.0,-0.4094013,0.24004135,-0.18964708,-1.945138,10.33713,-26.045776,3.5342932,-2.577293,-2.4399638,1.0588453
-16.737265,50.830917,7.6631384,13.224436,0.3014925,-0.23985761,-0.022123694,-0.8056108,-0.162881,-0.6179258,0.77749985,-0.47045165,0.46575704,0.076054536,0.63855904,-1.1343176,-1.9841926,-0.82364804,1.8012084,1.7932642,-0.84753203,0.70466816,-1.1199675,-1.9324117,-0.88741714,1.8422511,1.7508255,-0.855682,-1.4476961,-0.18926847,-1.0517296,1.4026693,-0.61007094,0.40854734,-0.050438337,-0.2555027,-0.6344013,0.73796487,-1.4901983,0.56381124,-0.19282249,-0.24551773,-0.60055923,0.68302375,0.9267058,-0.039716836,0.17575793,0.32976973,-1.319684,0.33333027,-0.15735127,0.0,1.0,0.0,0.0,0.0,0.0,0.0,-0.39449728,0.23440132,-0.18796486,-0.9879112,1.8170565,-20.221758,1.8300533,-3.9006472,-2.0878494,1.6416438
-12.543214,31.743874,3.2985148,8.238819,0.25938368,-0.3505857,0.15653363,-0.80556935,-0.218835,-0.6721768,0.77485174,-0.495846,0.4418493,0.20336626,0.62411124,-1.141851,-1.9996294,-0.809932,1.7926664,1.7950104,-0.8353454,0.69017804,-1.1222754,-1.9440179,-0.87336665,1.83585,1.7547795,-0.8559557,-1.4493636,-0.24486217,-1.1963817,1.4060718,-0.6507655,0.39071226,-0.020218568,-0.27039528,-0.628767,0.7352991,-1.4887083,0.56324756,-0.2911514,-0.25881767,-0.5973091,0.68092686,0.93055975,-0.035783347,0.18204993,0.31565154,-1.3301368,0.3327687,-0.22647353,0.0,1.0,0.0,0.0,0.0,0.0,0.0,-0.3796047,0.22876701,-0.1852991,-0.13649464,-5.664435,-14.300132,0.4159689,-4.2322636,-1.9219518,2.877299
-8.734938,26.313562,2.8414311,5.721581,0.23147847,-0.31413925,0.26874906,-0.8041902,-0.24711113,-0.7123135,0.7725789,-0.5346942,0.42431182,0.2710355,0.60975903,-1.1469865,-2.0152493,-0.7961088,1.7823806,1.7972107,-0.8288522,0.67570984,-1.1253767,-1.9566827,-0.85934955,1.828995,1.7585636,-0.85589373,-1.4459082,-0.3323164,-1.2892004,1.4004843,-0.6977995,0.37402925,0.014673101,-0.2852726,-0.6231384,0.73165077,-1.4872199,0.5626844,-0.389382,-0.27221107,-0.59407616,0.6780845,0.9341332,-0.030873686,0.18834001,0.30161226,-1.339393,0.33123234,-0.30281833,0.0,1.0,0.0,0.0,0.0,0.0,0.0,-0.36472738,0.22313842,-0.18165076,0.37136078,-8.8269825,-9.096837,-0.4588127,-4.8719883,-1.7993987,3.375878
-5.6444035,25.965366,3.7170043,4.607712,0.32796082,-0.22325355,0.326084,-0.79770064,-0.29737586,-0.72892255,0.7750636,-0.5533462,0.47078848,0.31602147,0.59593976,-1.1551143,-2.0295749,-0.7818432,1.7736604,1.8056425,-0.8242916,0.66131604,-1.1294928,-1.9699311,-0.84539443,1.8216937,1.7622353,-0.855476,-1.4371938,-0.43818328,-1.3360729,1.3942052,-0.7414777,0.36438257,0.050550878,-0.30013466,-0.61751556,0.72700775,-1.485733,0.56212187,-0.4892719,-0.2856903,-0.5908413,0.67447907,0.93740875,-0.025177896,0.1944363,0.28779396,-1.3477944,0.33210394,-0.3790653,0.0,1.0,0.0,0.0,0.0,0.0,0.0,-0.34986532,0.21751556,-0.17700773,0.8840561,-10.662949,-4.4513226,-0.5088568,-4.571855,-1.1160195,3.5058222
-6.77338,16.589254,1.110116,3.055462,0.33260024,-0.23531151,0.3751079,-0.8037893,-0.3897738,-0.7586342,0.7637614,-0.59586823,0.46474075,0.3885815,0.5809371,-1.1684701,-2.0457945,-0.7690183,1.7621069,1.8087094,-0.81661785,0.6469766,-1.1348906,-1.9835153,-0.83154136,1.8139288,1.7658249,-0.8546778,-1.4326718,-0.5737704,-1.3653278,1.3829305,-0.7886215,0.35662743,0.08951029,-0.31498146,-0.6118984,0.7213665,-1.4842476,0.56155986,-0.589062,-0.29930687,-0.58761406,0.6699948,0.94039744,-0.018750008,0.20017014,0.2742864,-1.3629863,0.33102897,-0.47107646,0.0,1.0,0.0,0.0,0.0,0.0,0.0,-0.33501852,0.21189842,-0.17136651,0.5028486,-13.60929,-2.7761698,-0.91855526,-4.83526,-0.9173155,3.8707108
-7.312252,17.155598,1.4679971,3.160781,0.4509892,-0.13868928,0.3795515,-0.80522615,-0.4506055,-0.7609125,0.7596241,-0.60717064,0.4617684,0.42633814,0.566454,-1.1799511,-2.0596066,-0.75557894,1.7532117,1.8120017,-0.81204396,0.6326562,-1.1416616,-1.9972482,-0.8178037,1.8057501,1.769344,-0.85349715,-1.4316299,-0.71194804,-1.3753554,1.3716142,-0.8280829,0.34980538,0.12756744,-0.329813,-0.606287,0.7147282,-1.4827635,0.5609984,-0.6887522,-0.31308746,-0.58436203,0.6646071,0.9431181,-0.011660933,0.20543231,0.26113173,-1.3799771,0.33468217,-0.5613201,0.0,1.0,0.0,0.0,0.0,0.0,0.0,-0.32018697,0.206287,-0.16472816,0.15685558,-13.877047,-0.8310795,-0.885582,-4.095924,-0.8611977,3.8155704
-4.343878,21.437222,3.1375892,2.7729661,0.4629544,-0.040576935,0.40483811,-0.79092,-0.51028675,-0.7563459,0.7594028,-0.61393535,0.49552867,0.4887878,0.5535642,-1.1926904,-2.0728827,-0.74186337,1.7443566,1.8188969,-0.80461836,0.61839783,-1.1497602,-2.0109696,-0.80415374,1.797251,1.7728268,-0.8519293,-1.423799,-0.8426737,-1.370186,1.36357,-0.85785025,0.34719136,0.16660224,-0.3446293,-0.6006813,0.70709366,-1.4812812,0.5604375,-0.7883427,-0.32699776,-0.58104515,0.65837467,0.94557756,-0.00403113,0.21017316,0.24838267,-1.3910297,0.3423009,-0.64416325,0.0,1.0,0.0,0.0,0.0,0.0,0.0,-0.3053707,0.2006813,-0.15709364,0.8106947,-13.142788,0.74801445,-0.57485104,-3.1834722,-0.47457814,3.9242773
-2.5612063,29.437159,5.6745043,3.6345077,0.58526266,0.11510122,0.39263564,-0.78450465,-0.55992967,-0.73827785,0.763564,-0.61823,0.5260996,0.5356046,0.5399474,-1.2057532,-2.0847974,-0.7277973,1.735428,1.8254367,-0.7983689,0.6042415,-1.1590395,-2.024508,-0.7905362,1.788523,1.7763134,-0.84997714,-1.4129835,-0.9566091,-1.3473954,1.3618084,-0.87886924,0.34822583,0.20491447,-0.3594303,-0.5950813,0.698464,-1.4798002,0.55987716,-0.8878337,-0.34097672,-0.5776081,0.6514257,0.9477823,0.0039839703,0.21439679,0.23606503,-1.3961285,0.35666403,-0.7125369,0.0,1.0,0.0,0.0,0.0,0.0,0.0,-0.29056966,0.19508132,-0.14846396,1.0733128,-11.488831,2.622676,0.017380714,-2.4197936,-0.15155077,3.8523257
-4.9492087,29.648172,5.274186,4.048912,0.640494,0.17394507,0.3743168,-0.7967666,-0.6279487,-0.7399201,0.7465555,-0.63077307,0.48012623,0.53625244,0.52456486,-1.2218344,-2.0985,-0.7158807,1.7254456,1.824326,-0.7963519,0.59012043,-1.1694288,-2.037829,-0.7769912,1.7796137,1.7797772,-0.8476807,-1.4118505,-1.0665975,-1.3284729,1.3515981,-0.8975359,0.34323457,0.2384113,-0.37421608,-0.5894871,0.68884015,-1.4887236,0.5867318,-0.89657104,-0.35502243,-0.5739994,0.6437898,0.9497561,0.0123641705,0.21808772,0.22416086,-1.4023979,0.3738312,-0.7826507,0.0,1.0,0.0,0.0,0.0,0.0,0.0,-0.2757839,0.18948707,-0.13884014,0.1200676,-11.094761,1.9922018,-0.9166956,-2.3435354,-0.9493232,3.4300418
-4.8458457,40.26161,8.005977,6.0284734,0.8389788,0.3299594,0.32183456,-0.7918265,-0.6506985,-0.72280174,0.75538296,-0.6166132,0.4726756,0.552327,0.5109378,-1.2344986,-2.110109,-0.7014529,1.7179524,1.8270447,-0.792448,0.576006,-1.1807146,-2.050973,-0.7635238,1.770579,1.7831521,-0.8450669,-1.4115274,-1.1497477,-1.3068917,1.346197,-0.90598434,0.33530036,0.26880777,-0.38923836,-0.583107,0.6809182,-1.4987807,0.64200073,-0.7997934,-0.36908913,-0.5701771,0.63557523,0.95150757,0.02110357,0.22129929,0.21263713,-1.4032315,0.39783242,-0.8353759,0.0,1.0,0.0,0.0,0.0,0.0,0.0,-0.26076162,0.18310699,-0.1309182,-0.007867813,-8.463192,3.0017376,-0.1745224,-0.98018646,-0.86067915,2.950716
-2.9441073,53.51825,11.374705,7.749442,0.9130331,0.49246728,0.29647583,-0.78731346,-0.65620106,-0.70884925,0.7511332,-0.62890744,0.4651745,0.5611839,0.49727464,-1.2463347,-2.121858,-0.6884105,1.7076882,1.8296696,-0.78894854,0.5619021,-1.1925688,-2.0638516,-0.750099,1.7615035,1.7864685,-0.8421907,-1.4102522,-1.1979014,-1.2795812,1.3414484,-0.91037524,0.3290256,0.29383552,-0.40399933,-0.5766182,0.6727156,-1.468324,0.6524985,-0.8281055,-0.38308907,-0.566061,0.62700915,0.95303625,0.030052723,0.22413406,0.20145097,-1.3934717,0.428612,-0.86545426,0.0,1.0,0.0,0.0,0.0,0.0,0.0,-0.24600065,0.17661819,-0.12271559,0.034618378,-4.9847364,3.3849716,-0.40049553,-1.0782838,-1.0127127,2.4776459
0.26468086,68.31859,15.107886,9.468686,0.98550475,0.62369263,0.28177434,-0.7787293,-0.6429256,-0.70283973,0.7453013,-0.6299628,0.43596512,0.5888841,0.48402917,-1.2568613,-2.1341355,-0.6755689,1.6985072,1.830065,-0.78330225,0.547846,-1.204608,-2.0764744,-0.73673713,1.7524095,1.7897074,-0.83907956,-1.404539,-1.2066846,-1.2535756,1.3342586,-0.9120182,0.3208239,0.31658754,-0.41836357,-0.5700264,0.6644073,-1.4253494,0.66304976,-0.8325108,-0.39689827,-0.561615,0.61832124,0.9543216,0.03914235,0.22674492,0.19059092,-1.3704463,0.46245107,-0.87170464,0.0,1.0,0.0,0.0,0.0,0.0,0.0,-0.2316364,0.17002639,-0.1144073,0.40547848,-1.077652,3.460431,-0.7791519,-1.0411382,-1.1411428,2.1528244
1.309386,76.50457,16.8111,10.737316,1.0879804,0.65110266,0.2622213,-0.7770515,-0.63722295,-0.6999407,0.737963,-0.6124907,0.3613497,0.6063604,0.47014087,-1.2683302,-2.1464684,-0.66294086,1.6911604,1.8258424,-0.7784435,0.53385085,-1.2165594,-2.0888913,-0.7234745,1.7433596,1.7928147,-0.8357571,-1.3984963,-1.1921619,-1.2343962,1.3231763,-0.90587157,0.3059376,0.3370731,-0.4322567,-0.56334305,0.6561397,-1.3765018,0.6719196,-0.8254906,-0.41044235,-0.55683136,0.6096701,0.955359,0.048349075,0.22921185,0.18003757,-1.3421258,0.49631393,-0.86473024,0.0,1.0,0.0,0.0,0.0,0.0,0.0,-0.21774328,0.16334304,-0.10613966,0.4023075,1.2383223,2.8885603,-1.2382746,-0.38124323,-1.8154919,1.8859863
1.108274,75.83794,16.159044,10.486368,1.1358981,0.5575204,0.2721408,-0.7803659,-0.64321065,-0.7032198,0.71280116,-0.56717575,0.21552785,0.6224322,0.45581424,-1.2808805,-2.1592133,-0.6521944,1.6866419,1.8143675,-0.77351385,0.5198881,-1.2283468,-2.1011975,-0.7104244,1.7345098,1.7956743,-0.832242,-1.3961749,-1.1748196,-1.2262499,1.2985623,-0.8813195,0.27770528,0.35585806,-0.4456768,-0.5565891,0.6479043,-1.329697,0.6778778,-0.82308644,-0.42370987,-0.5517235,0.60107416,0.95617193,0.057716586,0.2314661,0.16978602,-1.3155215,0.52683574,-0.8594142,0.0,1.0,0.0,0.0,0.0,0.0,0.0,-0.20432317,0.15658912,-0.097904265,0.034236908,1.5291452,1.7683506,-2.5932074,1.4795065,-3.2425165,1.7524898
2.3052084,77.09663,16.085754,9.983545,1.1228343,0.3864087,0.308137,-0.782671,-0.6241248,-0.7055201,0.6727002,-0.5289249,-0.121928625,0.63813406,0.441621,-1.2907593,-2.1717496,-0.6431544,1.6816174,1.7834815,-0.7684286,0.50592154,-1.2398939,-2.1134882,-0.69778347,1.726009,1.7980132,-0.8285514,-1.3975402,-1.1485087,-1.2266412,1.252007,-0.8430158,0.21782528,0.37307864,-0.4586277,-0.5498009,0.63968205,-1.2828104,0.6800759,-0.8217808,-0.43670845,-0.54636,0.59253967,0.9567883,0.06735755,0.23338497,0.15984562,-1.2876655,0.5510306,-0.8528369,0.0,1.0,0.0,0.0,0.0,0.0,0.0,-0.19137228,0.14980087,-0.08968204,-0.34592152,2.4380445,0.9262562,-4.826474,2.802956,-6.402984,1.5849769
7.08231,79.31866,16.9874,8.809373,1.195164,0.27293903,0.33973017,-0.7711158,-0.6060953,-0.68547475,0.63438684,-0.44188818,-0.35634544,0.6500063,0.42880997,-1.3005035,-2.1820357,-0.6343448,1.6818202,1.7623787,-0.76355076,0.4919854,-1.2511356,-2.1257176,-0.6857356,1.718112,1.7996044,-0.8246997,-1.3930887,-1.1164817,-1.2181991,1.1882864,-0.7755079,0.13817725,0.38872856,-0.47109604,-0.54301643,0.6314879,-1.233882,0.67838585,-0.8177027,-0.44940186,-0.5407963,0.58411,0.9572501,0.077251844,0.23479047,0.1502591,-1.2563529,0.56895214,-0.84083796,0.0,1.0,0.0,0.0,0.0,0.0,0.0,-0.17890394,0.14301643,-0.081487894,0.20861626,3.0296803,1.8427134,-6.6093445,5.6789517,-8.373388,1.424402
10.905806,75.71338,16.580935,6.937276,1.2434677,0.20185375,0.35862154,-0.76276946,-0.611484,-0.6601047,0.59390455,-0.35634008,-0.4710321,0.6462364,0.41570845,-1.312284,-2.191728,-0.62634516,1.682478,1.7525012,-0.76007605,0.4781342,-1.2621429,-2.1377487,-0.6744068,1.7110733,1.8003696,-0.82071257,-1.3832499,-1.0959284,-1.1948313,1.1135881,-0.683188,0.05462504,0.4017131,-0.48309326,-0.53627014,0.6232862,-1.1875156,0.6737332,-0.8197296,-0.46178436,-0.5350895,0.5757728,0.957616,0.087275594,0.23548403,0.1410739,-1.2254791,0.58192396,-0.8325305,0.0,1.0,0.0,0.0,0.0,0.0,0.0,-0.16690671,0.13627014,-0.073286176,0.7514,1.9140244,3.276801,-7.7150345,8.227528,-8.751176,1.1839867
16.449947,70.64652,16.1851,4.019063,1.2669809,0.17558509,0.39589188,-0.7500207,-0.6171161,-0.62662697,0.5280237,-0.21534593,-0.52250904,0.6220911,0.40313214,-1.3238544,-2.2004113,-0.62160444,1.6895387,1.7481188,-0.75850344,0.46443367,-1.2730491,-2.1494062,-0.66397744,1.7052574,1.8003414,-0.8166291,-1.3664417,-1.0892005,-1.1533494,1.0184798,-0.5506704,-0.023280548,0.41024715,-0.49464798,-0.5295868,0.6150099,-1.1439114,0.6665299,-0.82934815,-0.47384262,-0.52928734,0.5674748,0.9579654,0.0972168,0.23522049,0.13237214,-1.1932757,0.59019923,-0.8300036,0.0,1.0,0.0,0.0,0.0,0.0,0.0,-0.155352,0.12958679,-0.06500989,1.4554739,0.57075024,4.9970627,-9.765053,12.355482,-8.169871,0.7716656
21.709156,71.3195,17.700533,3.2344604,1.7960544,0.25837386,0.32612494,-0.7278547,-0.6214906,-0.5385383,0.49343523,0.017740259,-0.5207732,0.60930383,0.3916482,-1.3351982,-2.20326,-0.6146339,1.7070315,1.7482641,-0.75569874,0.45098257,-1.2839687,-2.1602929,-0.6544741,1.7012867,1.7996225,-0.81248266,-1.3388038,-1.093187,-1.0640444,0.92672825,-0.3484804,-0.08942778,0.41603,-0.5057697,-0.52298546,0.6066649,-1.1009481,0.6583873,-0.8354623,-0.48560524,-0.5233841,0.5592823,0.95843416,0.10662151,0.23369929,0.12417898,-1.1641241,0.60041714,-0.81660575,0.0,1.0,0.0,0.0,0.0,0.0,0.0,-0.14423025,0.12298545,-0.056664884,2.5333166,-0.47779083,9.761667,-9.446979,19.386196,-7.0026217,0.54968596
22.578499,62.04281,15.811137,0.18056583,1.7843275,0.2900682,0.40281948,-0.7384337,-0.6403962,-0.5027919,0.36761475,0.21995024,-0.5443087,0.61010224,0.3771392,-1.3480083,-2.210572,-0.6177126,1.7232817,1.7451917,-0.7514724,0.43772078,-1.2950428,-2.1702185,-0.6462379,1.699688,1.7983096,-0.80828655,-1.3225827,-1.112185,-0.9666761,0.78859127,-0.09905543,-0.14638981,0.42088965,-0.51652145,-0.5164623,0.5981349,-1.0657557,0.6506756,-0.85787296,-0.4970932,-0.5173683,0.551114,0.9591394,0.11521371,0.23061919,0.11658476,-1.1377937,0.6108801,-0.81784713,0.0,1.0,0.0,0.0,0.0,0.0,0.0,-0.13347852,0.11646232,-0.048134863,1.4392376,-1.9444227,10.386252,-14.025593,24.290432,-6.0409503,0.5047202
18.651577,68.88979,16.320679,2.7249076,1.7028216,0.466747,0.3723622,-0.74795806,-0.6058283,-0.46452105,0.30626008,0.19130142,-0.5712794,0.60046816,0.36292496,-1.3556256,-2.2166705,-0.6156119,1.7188181,1.7411816,-0.74823976,0.4245119,-1.3061416,-2.179198,-0.6394267,1.7001168,1.7964808,-0.8040571,-1.320848,-1.1091623,-0.8730854,0.64463955,0.08821567,-0.19596635,0.4236221,-0.5268841,-0.51003075,0.5894522,-1.0255046,0.64137995,-0.87101305,-0.5082817,-0.51122475,0.542986,0.9600526,0.123035245,0.22617273,0.10957745,-1.1059307,0.624457,-0.81220096,0.0,1.0,0.0,0.0,0.0,0.0,0.0,-0.1231159,0.11003074,-0.039452195,0.009298325,0.25353432,9.976732,-14.589787,18.122604,-5.2552013,0.26296377
31.695862,74.41765,19.24494,-0.85190237,1.4133104,0.6169104,0.51031905,-0.7187535,-0.5957444,-0.32181138,0.16920866,0.30624607,-0.56426924,0.58909106,0.35263655,-1.3657161,-2.211379,-0.62250584,1.7307414,1.7400539,-0.745148,0.41140696,-1.3171203,-2.1868348,-0.6343694,1.7022831,1.7942307,-0.7998153,-1.3076626,-1.0940318,-0.7253512,0.4584637,0.25789854,-0.23524207,0.42424375,-0.5367527,-0.50374794,0.5807564,-0.9729843,0.6245442,-0.8685197,-0.51898,-0.5050297,0.5349913,0.9611667,0.12991157,0.22046393,0.1033309,-1.0514681,0.62660486,-0.7962931,0.0,1.0,0.0,0.0,0.0,0.0,0.0,-0.113247275,0.103747934,-0.030756414,1.13554,1.5056133,15.327871,-18.896872,16.463589,-4.105693,0.011479855
31.960733,90.44693,24.178429,4.130898,2.462354,0.9433379,0.30826974,-0.7209147,-0.5847163,-0.07138899,0.14845292,0.4295896,-0.57155436,0.6088128,0.33931547,-1.375592,-2.1939738,-0.61952406,1.7452421,1.7370752,-0.73893404,0.39841077,-1.3278892,-2.19208,-0.63089895,1.7061056,1.7916405,-0.79555523,-1.2974968,-1.0710908,-0.4558766,0.30896375,0.42232597,-0.26746875,0.42647305,-0.54603386,-0.49765396,0.57232463,-0.9123729,0.60546356,-0.83480275,-0.5291519,-0.4987259,0.52747536,0.96257585,0.1352756,0.21350175,0.09780184,-1.0004377,0.6395168,-0.7379089,0.0,1.0,0.0,0.0,0.0,0.0,0.0,-0.10396612,0.097653955,-0.022324622,0.8494377,2.293396,27.44751,-15.227896,16.045284,-3.3162653,0.17622113
35.58307,105.23533,28.571356,6.9549856,3.008638,1.1901345,0.2272181,-0.71521264,-0.54850376,0.143559,0.06346296,0.5039468,-0.589983,0.6260207,0.32688951,-1.3827395,-2.1777241,-0.62455267,1.7565002,1.7326422,-0.7329532,0.38551778,-1.33829,-2.193995,-0.628862,1.7114519,1.7887639,-0.7912624,-1.286948,-1.0296334,-0.101925835,0.16776733,0.57145584,-0.29436043,0.43014523,-0.5546322,-0.49179077,0.56445354,-0.84183717,0.58077776,-0.77143025,-0.5387764,-0.49226952,0.52079654,0.9643493,0.13863824,0.20535903,0.0929374,-0.9442497,0.65446246,-0.64582056,0.0,1.0,0.0,0.0,0.0,0.0,0.0,-0.09536779,0.091790766,-0.01445353,0.9313345,4.155135,35.723625,-14.372378,14.73577,-2.6537359,0.30890703
44.961735,110.064156,30.029741,3.4640744,2.3967946,1.2354108,0.450967,-0.70761234,-0.48564884,0.25299343,-0.14411661,0.5992191,-0.57656157,0.63280666,0.31475654,-1.3868549,-2.1686957,-0.6432737,1.7713737,1.7311077,-0.72798175,0.37274092,-1.3480346,-2.1925037,-0.6287901,1.7182559,1.7856753,-0.7869286,-1.2747399,-0.95609754,0.23266007,-0.046877913,0.71723014,-0.31305072,0.434267,-0.56245804,-0.4862404,0.55730814,-0.7628575,0.54734945,-0.6965181,-0.547678,-0.4857731,0.51504725,0.966456,0.1399344,0.19613455,0.08895075,-0.86814225,0.6543125,-0.5529133,0.0,1.0,0.0,0.0,0.0,0.0,0.0,-0.08754194,0.08624038,-0.0073081255,1.1677265,7.3770523,33.445747,-21.641464,14.74812,-1.6429305,0.35256147
45.57409,116.92142,29.923166,3.98396,1.7548289,1.1411796,0.5335876,-0.69502246,-0.3934404,0.26359388,-0.2634536,0.66407615,-0.5472213,0.6269633,0.3032387,-1.3873787,-2.1661444,-0.65513545,1.7846634,1.7309532,-0.72423226,0.36012313,-1.3567092,-2.1885176,-0.63104075,1.72642,1.7824609,-0.78256047,-1.2573678,-0.837604,0.4527572,-0.28459665,0.8513152,-0.32295558,0.43763775,-0.56946564,-0.4810753,0.5509804,-0.680151,0.50745565,-0.61305386,-0.5557499,-0.4793644,0.510207,0.96875674,0.13954194,0.18614964,0.085945316,-0.7831569,0.6420084,-0.46238998,0.0,1.0,0.0,0.0,0.0,0.0,0.0,-0.08053434,0.08107528,-0.0009803772,1.7740011,11.893904,21.585947,-23.81593,14.007652,-0.59144497,0.3119588
31.128403,141.61853,32.638245,14.859653,2.276687,1.3224609,0.26589143,-0.71130764,-0.2522926,0.33628306,-0.2892657,0.67002577,-0.5153575,0.6021423,0.28899235,-1.3819385,-2.1548893,-0.6599673,1.7934226,1.7309252,-0.72234625,0.34757754,-1.3637054,-2.182914,-0.63526934,1.7356657,1.7791989,-0.7781797,-1.2531545,-0.6532764,0.5935139,-0.46865085,0.95241517,-0.32567078,0.43832147,-0.5756111,-0.476326,0.545743,-0.59323525,0.46541145,-0.4958211,-0.5630398,-0.4729805,0.5065434,0.97109747,0.13782875,0.17599906,0.08364897,-0.70770544,0.6421123,-0.3355182,0.0,1.0,0.0,0.0,0.0,0.0,0.0,-0.07438886,0.07632598,0.0042570233,0.5643368,18.535782,13.210905,-18.322945,11.20894,0.2502799,0.09614825
33.804356,114.87035,27.17459,7.4705024,1.3657031,1.0032179,0.44511575,-0.6983128,-0.28959405,0.44899824,-0.44845757,0.7192556,-0.46700197,0.58638126,0.27774626,-1.3926648,-2.138014,-0.6801151,1.8075912,1.7324986,-0.71954155,0.3350949,-1.3693149,-2.1760218,-0.6414676,1.7457715,1.7759584,-0.77380604,-1.2460994,-0.52969587,0.71768594,-0.66970533,1.0337934,-0.32179573,0.43741822,-0.58099556,-0.4719677,0.5413859,-0.52124935,0.4265709,-0.41750154,-0.5695915,-0.46668243,0.5037733,0.97343016,0.1350351,0.16570808,0.08209803,-0.63569015,0.62936735,-0.25846162,0.0,1.0,0.0,0.0,0.0,0.0,0.0,-0.06900442,0.07196769,0.008614123,0.8791685,12.460196,11.436474,-19.939972,9.305418,0.9011686,0.004053116
35.357445,111.3869,27.252369,7.8397565,1.3942649,0.92431426,0.33276132,-0.6586534,-0.24537367,0.5772291,-0.4420233,0.73714757,-0.3515606,0.59809446,0.26922956,-1.3938522,-2.118299,-0.6856699,1.8194863,1.7408024,-0.7139966,0.32285163,-1.3739192,-2.1677215,-0.6491258,1.7565225,1.7728515,-0.76943344,-1.2163161,-0.43687162,0.86370873,-0.7971653,1.0933545,-0.3052748,0.43752083,-0.58569336,-0.4679985,0.5378285,-0.4538134,0.38758433,-0.33746257,-0.5754795,-0.46052933,0.5017668,0.97574526,0.13112912,0.15532897,0.08123506,-0.57093126,0.6139438,-0.18199335,0.0,1.0,0.0,0.0,0.0,0.0,0.0,-0.06430662,0.0679985,0.012171507,3.1986475,9.418374,13.452625,-12.54797,7.3203325,2.2066891,0.12319088
45.91589,62.64901,18.292168,-4.8853617,0.18912607,0.26972574,0.48536408,-0.58857334,-0.3865176,0.6576688,-0.4703597,0.74975294,-0.20252757,0.5986823,0.2639943,-1.412571,-2.1019547,-0.6961618,1.8314978,1.7525988,-0.7095652,0.31121495,-1.3786247,-2.1578836,-0.65767187,1.7676781,1.7700152,-0.76506084,-1.1455806,-0.4815132,1.0214301,-0.8732643,1.1258956,-0.27521634,0.4374811,-0.5898857,-0.46437073,0.5345441,-0.4087997,0.35493535,-0.32744774,-0.5807934,-0.45469284,0.49990582,0.97805715,0.12613626,0.14461008,0.08112815,-0.51627964,0.57587886,-0.18790944,0.0,1.0,0.0,0.0,0.0,0.0,0.0,-0.060114264,0.06437072,0.015455902,7.2335243,-4.4036093,15.020442,-7.4552655,4.125619,3.415227,0.10616183
