Afshin1997/kuka_rl_ros2/src/catch_and_throw/input_files/idealpd/polynomial_regressor/optimizer_files/env_407_data.csv
torque0,torque1,torque2,torque3,torque4,torque5,torque6,action0,action1,action2,action3,action4,action5,action6,set_target_0,set_target_1,set_target_2,set_target_3,set_target_4,set_target_5,set_target_6,joint_pos_0,joint_pos_1,joint_pos_2,joint_pos_3,joint_pos_4,joint_pos_5,joint_pos_6,joint_vel_0,joint_vel_1,joint_vel_2,joint_vel_3,joint_vel_4,joint_vel_5,joint_vel_6,tennisball_pos_0,tennisball_pos_1,tennisball_pos_2,tennisball_lin_vel_0,tennisball_lin_vel_1,tennisball_lin_vel_2,end_effector_pos_0,end_effector_pos_1,end_effector_pos_2,end_effector_rot_0,end_effector_rot_1,end_effector_rot_2,end_effector_rot_3,end_effector_lin_vel_0,end_effector_lin_vel_1,end_effector_lin_vel_2,obs_task_0,obs_task_1,obs_task_2,obs_task_3,obs_task_4,obs_task_5,obs_task_6,to_final_target_0,to_final_target_1,to_final_target_2,joint_acc_0,joint_acc_1,joint_acc_2,joint_acc_3,joint_acc_4,joint_acc_5,joint_acc_6
0.0,0.0,0.0,0.0,0.0,0.0,0.0,0.0,0.0,0.0,0.0,0.0,0.0,0.0,1.7802359,-1.0646509,-1.8151424,-1.1170107,1.9373155,1.1170107,-0.91629785,1.7802359,-1.0646509,-1.8151424,-1.1170107,1.9373155,1.1170107,-0.91629785,0.0,0.0,0.0,0.0,0.0,0.0,0.0,2.9180908,-0.6901109,0.16863623,-3.1831622,0.3201503,5.542467,0.5304184,-0.4544952,0.693097,0.5745483,0.17512383,0.15255436,0.7848268,0.0,0.0,0.0,1.0,0.0,0.0,0.0,0.0,0.0,0.0,-3.568091,0.29011092,0.38136378,0.0,0.0,0.0,0.0,0.0,0.0,0.0
0.0,0.0,0.0,0.0,0.0,0.0,0.0,0.0,0.0,0.0,0.0,0.0,0.0,0.0,1.7802359,-1.0646509,-1.8151424,-1.1170107,1.9373155,1.1170107,-0.91629785,1.7802359,-1.0646509,-1.8151424,-1.1170107,1.9373155,1.1170107,-0.91629785,0.0,0.0,0.0,0.0,0.0,0.0,0.0,2.9180908,-0.6901109,0.16863623,-3.1831622,0.3201503,5.542467,0.5304184,-0.4544952,0.693097,0.5745483,0.17512383,0.15255436,0.7848268,0.0,0.0,0.0,1.0,0.0,0.0,0.0,0.0,0.0,0.0,-3.568091,0.29011092,0.38136378,0.0,0.0,0.0,0.0,0.0,0.0,0.0
0.0,0.0,0.0,0.0,0.0,0.0,0.0,0.0,0.0,0.0,0.0,0.0,0.0,0.0,1.7802359,-1.0646509,-1.8151424,-1.1170107,1.9373155,1.1170107,-0.91629785,1.7802359,-1.0646509,-1.8151424,-1.1170107,1.9373155,1.1170107,-0.91629785,0.0,0.0,0.0,0.0,0.0,0.0,0.0,2.9180908,-0.6901109,0.16863623,-3.1831622,0.3201503,5.542467,0.5304184,-0.4544952,0.693097,0.5745483,0.17512383,0.15255436,0.7848268,0.0,0.0,0.0,1.0,0.0,0.0,0.0,0.0,0.0,0.0,-3.568091,0.29011092,0.38136378,0.0,0.0,0.0,0.0,0.0,0.0,0.0
-176.0,69.862404,-5.9331703,110.0,11.340554,4.861426,-3.7741807,-0.826439,0.36329806,-0.55623746,0.73487705,0.4186823,0.6425593,-0.5836076,1.697592,-1.028321,-1.8707662,-1.043523,1.9791837,1.1812667,-0.9746586,1.7788244,-1.0622247,-1.8211448,-1.1124941,1.9434514,1.1223685,-0.91783136,-0.18808594,0.32256076,-0.79949445,0.6024383,0.81722486,0.7120435,-0.20380622,2.8862839,-0.6869118,0.22328287,-3.1799796,0.3198302,5.43874,0.5282326,-0.457762,0.6938976,0.5782282,0.17380278,0.15071197,0.78277105,-0.29032308,-0.4357508,0.10639322,1.0,0.0,0.0,0.0,0.0,0.0,0.0,-3.536284,0.28691182,0.32671714,-18.74637,32.046474,-79.74519,60.319996,81.43334,70.57697,-20.204092
-176.0,-31.061745,-45.492504,110.0,12.470492,1.5087847,-3.2716253,-0.80887663,-0.17355779,-0.52203596,0.69644773,0.47561234,0.6280425,-0.5701099,1.6979368,-1.0795805,-1.8733485,-1.0428493,1.9910127,1.1851727,-0.97484237,1.7771517,-1.0592359,-1.8361347,-1.0989157,1.9553685,1.1357695,-0.9187631,-0.16222301,0.28144374,-1.7104225,1.6105719,1.3043689,1.521998,-0.060249466,2.8545074,-0.6837158,0.27689302,-3.1768003,0.31951046,5.335116,0.5234451,-0.4662459,0.69474864,0.5863711,0.17058314,0.14627503,0.77825046,-0.54300076,-0.98408496,0.08065484,1.0,0.0,0.0,0.0,0.0,0.0,0.0,-3.5045075,0.2837158,0.273107,2.0531535,-6.962085,-84.57847,101.11885,45.034885,72.787384,13.158563
-160.7075,115.78114,30.548996,95.73667,8.249775,7.8275156,-2.1624787,-0.7812117,0.33630902,0.0037624626,0.6415505,0.49888247,0.68860614,-0.5372359,1.6990305,-1.0256051,-1.8357584,-1.0347606,2.0052567,1.2046301,-0.9724867,1.7722346,-1.0555338,-1.8515441,-1.0809714,1.9685426,1.1508299,-0.91962713,-0.6014508,0.3962926,-1.477748,1.8571353,1.3170024,1.4934155,-0.09682367,2.8227615,-0.68052316,0.3294677,-3.173624,0.319191,5.2315955,0.5157089,-0.47765422,0.69722944,0.5974733,0.16577728,0.14054339,0.771875,-0.8577175,-1.1862524,0.30788916,1.0,0.0,0.0,0.0,0.0,0.0,0.0,-3.4727616,0.28052315,0.2205323,-43.956364,10.446548,25.274849,25.029278,-0.22842884,-5.0727844,-4.185006
-105.012535,110.55043,39.83855,60.15776,5.118609,7.689766,-0.5585824,-0.78669906,0.14514375,0.105229944,0.6454537,0.5159227,0.65806335,-0.5710911,1.6935647,-1.0410194,-1.8410212,-1.016426,2.020135,1.2166363,-0.97673625,1.7629572,-1.0517114,-1.8617771,-1.0629297,1.9806752,1.164786,-0.9209499,-1.0377854,0.37508306,-0.86414456,1.7870756,1.1735233,1.3586798,-0.14630292,2.7910461,-0.6773336,0.381008,-3.170451,0.3188719,5.128179,0.5053444,-0.4898901,0.7016583,0.6096894,0.15960425,0.13384992,0.7647806,-1.1094891,-1.2247154,0.49265724,1.0,0.0,0.0,0.0,0.0,0.0,0.0,-3.4410462,0.2773336,0.16899201,-43.949554,-2.8485715,63.664055,-6.8216324,-15.944958,-14.734292,-5.6143775
-43.768646,125.50055,50.57352,31.649338,1.9898931,6.985445,0.34646085,-0.7931828,0.23495147,0.15831545,0.6336301,0.57026464,0.6600085,-0.562359,1.6836389,-1.0282162,-1.8459455,-0.99956673,2.0377016,1.2307868,-0.9771858,1.7501303,-1.0478567,-1.8655326,-1.0468069,1.9912934,1.1772581,-0.9227714,-1.3656025,0.38714138,-0.20591605,1.5537834,1.0206198,1.2084242,-0.19667208,2.759369,-0.6741471,0.4315149,-3.1672812,0.3185531,5.0248656,0.49311447,-0.50152683,0.7077786,0.621726,0.1522228,0.1264179,0.75782806,-1.2736487,-1.1296732,0.6543719,1.0,0.0,0.0,0.0,0.0,0.0,0.0,-3.409369,0.27414712,0.11848512,-33.19714,0.6868124,67.807625,-23.448586,-16.482878,-15.533781,-5.7952347
-6.7212563,120.698425,45.99312,15.2652025,-0.15194604,4.9091706,0.33876976,-0.8059774,0.3400733,0.041113812,0.6509509,0.5681758,0.6616806,-0.5731771,1.6695325,-1.0138494,-1.8614212,-0.98171186,2.048111,1.2434262,-0.9800891,1.7351137,-1.0434126,-1.8646514,-1.0329634,2.0006258,1.1883684,-0.9250497,-1.5479285,0.46240002,0.19018574,1.327225,0.9020595,1.0783314,-0.24036379,2.7277222,-0.670964,0.4809894,-3.1641145,0.3182346,4.921655,0.4798813,-0.5119209,0.71510136,0.63319063,0.14404044,0.11895021,0.75111437,-1.3520916,-0.9951493,0.75807583,1.0,0.0,0.0,0.0,0.0,0.0,0.0,-3.3777223,0.270964,0.069010615,-18.560934,7.175559,40.830936,-22.844673,-12.446154,-13.063526,-4.991999
15.138555,121.36184,41.414993,7.6862845,-1.6122226,3.1958876,-0.0033525713,-0.81137705,0.48541299,-0.08538013,0.6357515,0.5762282,0.6475204,-0.56452537,1.6539761,-0.99487126,-1.8731894,-0.96938825,2.0582488,1.2531204,-0.98150223,1.7191836,-1.0375379,-1.862128,-1.0209547,2.0091326,1.1983324,-0.92770284,-1.6090752,0.62824935,0.2755542,1.1581904,0.83293015,0.96956277,-0.27535287,2.696106,-0.667784,0.5294326,-3.160951,0.31791642,4.8185487,0.46632767,-0.52089095,0.7232001,0.64420414,0.13550979,0.1123347,0.74432456,-1.3665586,-0.8500658,0.8255784,1.0,0.0,0.0,0.0,0.0,0.0,0.0,-3.346106,0.26778397,0.020567417,-6.411767,16.32259,9.264034,-17.10627,-7.124388,-10.734797,-4.032296
21.886803,113.634674,35.37082,5.9223814,-1.9740248,2.0067844,-0.27168342,-0.823038,0.5590151,-0.12984435,0.6233217,0.5819975,0.6378566,-0.56354725,1.6368798,-0.9816364,-1.8751124,-0.9586226,2.0673323,1.2621181,-0.98405755,1.7031637,-1.0298113,-1.8601882,-1.0100943,2.0172465,1.2073447,-0.9306516,-1.6004745,0.82017624,0.16817622,1.0611417,0.8037752,0.878977,-0.30285498,2.6645203,-0.66460705,0.5768455,-3.1577907,0.31759858,4.715545,0.45285797,-0.5285487,0.73177993,0.655003,0.12696213,0.10706438,0.7371492,-1.3489468,-0.7232079,0.8668698,1.0,0.0,0.0,0.0,0.0,0.0,0.0,-3.3145204,0.26460704,-0.026845515,0.60265064,19.001007,-10.277685,-9.909725,-2.9650688,-8.908855,-3.1819344
22.146454,104.56164,30.875158,6.561741,-1.7746022,1.4021025,-0.38041565,-0.82348645,0.6166655,-0.15674332,0.61268073,0.5858489,0.6416506,-0.5526845,1.620815,-0.9681447,-1.8758626,-0.9488262,2.0758314,1.2715098,-0.9859201,1.6874701,-1.0202688,-1.859885,-0.9997737,2.0252535,1.215571,-0.93382543,-1.5597792,0.99847615,-0.014622473,1.0214132,0.7998614,0.8040354,-0.32340884,2.632965,-0.66143346,0.6232292,-3.1546335,0.31728104,4.6126447,0.4396248,-0.5351093,0.7406695,0.66575104,0.11855618,0.10320322,0.7294306,-1.3213556,-0.6189639,0.8947126,1.0,0.0,0.0,0.0,0.0,0.0,0.0,-3.2829652,0.26143345,-0.07322919,3.8521528,17.680132,-17.93482,-4.202366,-0.3882885,-7.4237227,-2.4256408
18.402666,91.52356,26.485655,7.580958,-1.2312728,1.10453,-0.3317301,-0.8242982,0.6412197,-0.16717394,0.5979241,0.5951197,0.64524204,-0.557126,1.6050403,-0.95614684,-1.8766024,-0.9399813,2.0847654,1.2800952,-0.989538,1.6722056,-1.009313,-1.8613079,-0.98962086,2.033333,1.223147,-0.93717474,-1.5161054,1.1275963,-0.18383035,1.012366,0.81077313,0.74198914,-0.3398759,2.6014404,-0.65826297,0.6685846,-3.1514795,0.31696382,4.5098467,0.4266281,-0.54081297,0.74973845,0.6764901,0.110349014,0.100486666,0.7211703,-1.2977008,-0.5390129,0.91000116,1.0,0.0,0.0,0.0,0.0,0.0,0.0,-3.2514405,0.25826296,-0.11858457,4.185009,12.792635,-16.61012,-1.1620522,1.100707,-6.213951,-1.9791842
15.934782,83.695885,25.087849,8.572874,-0.68513495,1.1744123,-0.18121034,-0.8185779,0.663608,-0.14724839,0.58785903,0.60519326,0.6456906,-0.56436294,1.5903478,-0.94295216,-1.8760327,-0.93083495,2.0938523,1.2877162,-0.99361104,1.6573187,-0.99743634,-1.8638961,-0.97946423,2.0415728,1.2301813,-0.94066995,-1.4801786,1.2072543,-0.2827339,1.0158248,0.82844263,0.69035715,-0.35389084,2.5699463,-0.6550956,0.7129128,-3.1483288,0.31664693,4.407151,0.4137993,-0.5458157,0.75895154,0.6871592,0.10227856,0.09850062,0.7124948,-1.2832416,-0.47193524,0.9245029,1.0,0.0,0.0,0.0,0.0,0.0,0.0,-3.2199464,0.25509557,-0.16291279,3.4199715,7.8570366,-9.524685,0.07920265,1.7465115,-5.23659,-1.7330945
12.803959,77.980995,24.089018,9.777859,-0.22493762,1.3031684,-0.059381455,-0.8154034,0.6811052,-0.14105204,0.58578855,0.6117351,0.6545063,-0.5637941,1.5757784,-0.9293258,-1.8780013,-0.9208854,2.1027462,1.295632,-0.99704933,1.6426932,-0.9850529,-1.866988,-0.96923894,2.0499918,1.2367731,-0.94428724,-1.4572885,1.2484165,-0.31670812,1.023944,0.84642094,0.6483163,-0.36540583,2.5384865,-0.6519315,0.7562148,-3.145181,0.31633034,4.3045588,0.40102005,-0.55021405,0.76830673,0.69768006,0.09424412,0.096875735,0.70354503,-1.2789553,-0.41361508,0.93899804,1.0,0.0,0.0,0.0,0.0,0.0,0.0,-3.1884866,0.25193152,-0.20621479,2.1164417,4.011464,-2.9690146,0.553751,1.7474055,-4.3175817,-1.4852762
11.79424,75.80785,24.080181,9.908272,-0.012396395,1.4461055,0.070415765,-0.8170667,0.698329,-0.120063804,0.5641358,0.622894,0.65380293,-0.5664627,1.5609865,-0.91521996,-1.8789943,-0.91282535,2.1122813,1.3021535,-1.0009335,1.6281878,-0.97241765,-1.870013,-0.95903367,2.058594,1.2430006,-0.9480066,-1.4488168,1.2681241,-0.2959848,1.0184321,0.86404145,0.61370736,-0.3752554,2.507061,-0.6487706,0.79849166,-3.1420364,0.31601408,4.202069,0.38824463,-0.5540302,0.77781016,0.70796126,0.08616279,0.09535485,0.6944596,-1.2801505,-0.35496923,0.9539362,1.0,0.0,0.0,0.0,0.0,0.0,0.0,-3.157061,0.24877056,-0.24849164,0.6586313,1.8671274,2.5791883,-0.80566406,1.677227,-3.582716,-1.3298452
11.789276,73.40474,23.585056,9.542945,0.06407696,1.4651597,0.15650305,-0.8142256,0.7034425,-0.0994442,0.5519231,0.62697685,0.6614793,-0.5650273,1.5467652,-0.9020734,-1.8799574,-0.9038414,2.1212916,1.3091486,-1.0045093,1.6137129,-0.9596947,-1.8725994,-0.94896,2.067341,1.2489344,-0.9518098,-1.4477558,1.2733746,-0.24445829,1.0029368,0.8781829,0.5862841,-0.38327178,2.475666,-0.6456127,0.8397444,-3.138895,0.31569815,4.0996814,0.37545013,-0.55725455,0.7874415,0.71792495,0.0779837,0.09379773,0.6853497,-1.2822506,-0.29583526,0.96593785,1.0,0.0,0.0,0.0,0.0,0.0,0.0,-3.1256661,0.24561271,-0.28974438,-0.08645058,0.42994022,5.688727,-1.7987013,1.3201475,-2.8418422,-1.1474669
11.312094,72.94104,23.199673,9.723261,0.070016146,1.4625793,0.17508113,-0.8164973,0.7151051,-0.08323952,0.54242694,0.6285861,0.66242,-0.56350803,1.5320631,-0.8881842,-1.8809233,-0.89471734,2.1301997,1.3151764,-1.0081606,1.5992056,-0.9469307,-1.8746116,-0.93907994,2.0761988,1.2546335,-0.95568174,-1.4523318,1.277143,-0.18508235,0.982298,0.88784224,0.56419855,-0.3896657,2.4443016,-0.6424582,0.879974,-3.1357567,0.3153825,3.9973962,0.36262894,-0.5598824,0.7971844,0.7275446,0.06967839,0.09216585,0.6762612,-1.2843577,-0.23584573,0.9764818,1.0,0.0,0.0,0.0,0.0,0.0,0.0,-3.0943017,0.2424582,-0.329974,-0.6512642,0.28572083,6.479755,-2.3040771,0.8724928,-2.2935867,-0.9792268
11.971017,72.50864,22.697851,9.306259,-0.016308427,1.3855975,0.1881105,-0.81646764,0.7240173,-0.06705227,0.52475584,0.6336908,0.6645839,-0.5555352,1.5175588,-0.874529,-1.8813169,-0.88660437,2.1395679,1.3210919,-1.0112352,1.5846449,-0.9341095,-1.8760707,-0.9294545,2.0851367,1.2601458,-0.95960325,-1.4579439,1.2834859,-0.1310729,0.95525205,0.89559615,0.54672253,-0.39402246,2.4129677,-0.6393068,0.9191815,-3.1326218,0.3150672,3.8952138,0.3498001,-0.5618987,0.8070115,0.736807,0.061247226,0.09048798,0.6672152,-1.2829646,-0.1743321,0.98377943,1.0,0.0,0.0,0.0,0.0,0.0,0.0,-3.0629678,0.23930678,-0.3691815,-0.75354576,0.5505085,5.9306803,-2.941811,0.69350004,-1.8043399,-0.7669985
15.953638,72.59011,22.746613,7.1905227,-0.26257002,1.2544224,0.26626694,-0.81128764,0.7315249,-0.0373797,0.4843415,0.64725465,0.66315484,-0.5482781,1.5035162,-0.860957,-1.8798087,-0.88102037,2.149862,1.3264613,-1.014431,1.5700613,-0.9211996,-1.8770015,-0.9202382,2.0941699,1.2655092,-0.9635553,-1.4592136,1.2932106,-0.07864697,0.909637,0.90575767,0.5329779,-0.3967077,2.3816643,-0.63615847,0.957368,-3.1294897,0.3147522,3.7931337,0.33706284,-0.5632546,0.81687844,0.7456554,0.052717,0.08879381,0.65828145,-1.2714158,-0.10704901,0.98622656,1.0,0.0,0.0,0.0,0.0,0.0,0.0,-3.0316644,0.23615846,-0.407368,-0.32236576,0.90105534,5.7691083,-4.8074245,0.94248056,-1.3720155,-0.5990982
16.396505,71.03967,21.665592,6.6980724,-0.36874464,1.0842695,0.2481977,-0.81125206,0.7404026,-0.037198946,0.46527463,0.6501804,0.67037845,-0.54256296,1.4889361,-0.8471594,-1.8807214,-0.87371075,2.1591878,1.3325471,-1.0178115,1.5554796,-0.90816575,-1.8775547,-0.91150063,2.1032984,1.2707621,-0.96752447,-1.4585001,1.3066154,-0.045941256,0.8610382,0.91512316,0.5229295,-0.39796844,2.3503914,-0.63301325,0.9945345,-3.126361,0.3144375,3.6911557,0.32447433,-0.56395245,0.82673156,0.7540869,0.04412952,0.08714475,0.64947,-1.2546475,-0.041779224,0.98327523,1.0,0.0,0.0,0.0,0.0,0.0,0.0,-3.0003915,0.23301324,-0.44453448,-0.11484623,1.2823582,3.7501483,-5.10391,0.8908391,-0.96651316,-0.43745637
18.637808,68.93577,20.898785,5.0084043,-0.5160303,0.9007372,0.3042578,-0.8101562,0.74246216,-0.011798146,0.41748667,0.6649909,0.6733468,-0.54131377,1.474464,-0.8339195,-1.8787345,-0.869752,2.1697974,1.3380967,-1.0216558,1.540917,-0.89501077,-1.8778007,-0.90336484,2.1125453,1.2759348,-0.9715013,-1.4562591,1.3183701,-0.016097521,0.79684037,0.9278916,0.51581514,-0.39859092,2.319149,-0.62987113,1.0306818,-3.1232352,0.31412312,3.5892797,0.3121071,-0.5639944,0.8365067,0.76207453,0.035536166,0.08556456,0.64082617,-1.22988,0.023409761,0.97346026,1.0,0.0,0.0,0.0,0.0,0.0,0.0,-2.969149,0.22987112,-0.48068184,0.04198551,1.1340141,3.439473,-6.669092,1.2460709,-0.6175637,-0.3617406
18.88418,66.189545,19.598202,4.038064,-0.62893814,0.7065191,0.3165238,-0.8154179,0.74878556,-0.0062010316,0.369195,0.66364413,0.6744481,-0.5294074,1.4593753,-0.8201322,-1.8784208,-0.86644536,2.1789098,1.3433796,-1.0244421,1.5263506,-0.88173944,-1.8778236,-0.89597195,2.121899,1.2810522,-0.97547334,-1.4573249,1.3299041,0.003635385,0.71919316,0.93769157,0.5108367,-0.39761227,2.2879372,-0.62673235,1.0658113,-3.1201127,0.31380907,3.4875052,0.30002213,-0.5634036,0.8461305,0.76960796,0.02700344,0.08409772,0.63237804,-1.1993662,0.08561817,0.9561937,1.0,0.0,0.0,0.0,0.0,0.0,0.0,-2.9379373,0.22673234,-0.51581126,-0.28386116,1.1285782,2.3893416,-8.01661,0.97335577,-0.35630465,-0.18059015
23.481438,65.60073,19.63725,1.2673249,-0.9238573,0.5181018,0.41572848,-0.8084489,0.75772053,0.018000944,0.29370677,0.6728148,0.67514557,-0.5302676,1.4455057,-0.8059674,-1.8760235,-0.8666013,2.1891804,1.3485668,-1.0285001,1.5118014,-0.8683422,-1.8776176,-0.8895528,2.1313555,1.2861315,-0.9794349,-1.4546603,1.3429747,0.027541319,0.61539114,0.94800043,0.5078029,-0.396547,2.2567558,-0.62359667,1.0999237,-3.1169932,0.31349534,3.3858328,0.2883377,-0.5621586,0.85553765,0.77663064,0.018595615,0.08277902,0.6242168,-1.155523,0.15143114,0.93285674,1.0,0.0,0.0,0.0,0.0,0.0,0.0,-2.906756,0.22359666,-0.5499237,0.09331703,1.3014317,2.7860537,-10.636091,1.0394692,-0.08671284,-0.16106963
26.148972,63.64006,19.13655,-0.7893448,-1.1103019,0.32168505,0.49369892,-0.80987054,0.76047224,0.042335268,0.2166887,0.67539203,0.6713985,-0.52479184,1.4308143,-0.792295,-1.8733841,-0.8678839,2.1988947,1.3532714,-1.0319141,1.4972731,-0.8548315,-1.8771198,-0.8843371,2.1409,1.2911879,-0.9833812,-1.4526403,1.3539001,0.058451153,0.48951212,0.95656496,0.50581217,-0.3948394,2.2256126,-0.6204641,1.1330202,-3.1138768,0.3131819,3.284262,0.27716446,-0.5602546,0.86466384,0.7830896,0.0103755025,0.0816236,0.6164419,-1.1017724,0.21653327,0.9030204,1.0,0.0,0.0,0.0,0.0,0.0,0.0,-2.8756127,0.22046408,-0.58302015,0.039839745,1.1076927,3.4470298,-12.838501,0.886631,0.08151531,-0.07516146
35.023663,62.418858,19.58176,-6.9295554,-1.6816436,0.016306818,0.740846,-0.80807614,0.767429,0.09268066,0.05526821,0.6922538,0.6675338,-0.5226239,1.4164655,-0.7780886,-1.8678517,-0.8788103,2.2101252,1.3579413,-1.0356436,1.4827696,-0.8412102,-1.8761375,-0.880881,2.1505587,1.2962328,-0.9873094,-1.4499892,1.3650731,0.1125454,0.29686946,0.96918094,0.50540596,-0.39288658,2.1945,-0.6173346,1.1651016,-3.1107635,0.31286877,3.1827927,0.26670837,-0.5576327,0.8733932,0.7888349,0.0024700519,0.08063915,0.60928696,-1.0228707,0.28946534,0.85971975,1.0,0.0,0.0,0.0,0.0,0.0,0.0,-2.8445,0.2173346,-0.61510164,0.113773346,1.1631012,5.738452,-19.511026,1.311028,0.38306713,-0.026607513
44.84951,60.217575,19.73006,-13.930517,-2.3730102,-0.39198294,0.99320084,-0.8008072,0.7728925,0.13943414,-0.12468652,0.68519694,0.6572132,-0.50686115,1.4026889,-0.76392096,-1.8621941,-0.89334965,2.2190783,1.3619541,-1.0379955,1.4683233,-0.8274792,-1.8744762,-0.8798768,2.1603053,1.3012758,-0.9912061,-1.4431173,1.3760556,0.18476616,0.03419527,0.97693664,0.5058548,-0.38917425,2.1634178,-0.6142082,1.1961693,-3.1076534,0.31255597,3.0814247,0.25725555,-0.5542257,0.88156843,0.793688,-0.004945262,0.079876736,0.6030377,-0.91386855,0.3683596,0.7999177,1.0,0.0,0.0,0.0,0.0,0.0,0.0,-2.813418,0.21420822,-0.64616925,0.5768299,1.1808157,7.463434,-26.483477,0.86739063,0.6241441,0.19851327
43.00564,58.822968,19.372667,-12.686932,-2.1731677,-0.46399423,0.9910673,-0.8062024,0.77053034,0.1996112,-0.20700958,0.6881259,0.6556273,-0.4874426,1.3877031,-0.7504262,-1.8545151,-0.9005777,2.2291179,1.3668386,-1.0399504,1.4539171,-0.8136776,-1.8719451,-0.88141984,2.1701205,1.3063227,-0.9950513,-1.439949,1.3818992,0.27616265,-0.21769017,0.9834425,0.506199,-0.38329408,2.1323662,-0.6110852,1.226224,-3.1045463,0.3122435,2.9801583,0.24887085,-0.55007935,0.88916975,0.79763395,-0.011845959,0.07929453,0.59778935,-0.8081887,0.43880343,0.74293816,1.0,0.0,0.0,0.0,0.0,0.0,0.0,-2.7823663,0.21108517,-0.67622393,0.25963783,0.6879568,9.233776,-25.34019,0.82125664,0.6013751,0.47597885
34.638866,60.40555,19.16692,-5.717233,-1.5164468,-0.2916519,0.7614848,-0.80067366,0.7799137,0.2276802,-0.22143143,0.688284,0.6587129,-0.46137717,1.3738497,-0.73568624,-1.8491771,-0.90356296,2.2389488,1.3721939,-1.0411891,1.4395548,-0.79980165,-1.8685558,-0.8849036,2.179989,1.3113695,-0.99882025,-1.4349722,1.3899056,0.35980853,-0.39233112,0.9885047,0.50585455,-0.37496692,2.101345,-0.607965,1.2552668,-3.1014423,0.3119313,2.878993,0.24136353,-0.5453141,0.8963439,0.8008414,-0.018378755,0.07883095,0.59338087,-0.72586024,0.4964445,0.7045593,1.0,0.0,0.0,0.0,0.0,0.0,0.0,-2.7513452,0.20796499,-0.7052668,0.47564507,0.9178877,8.306705,-17.572826,0.77273846,0.42848587,0.7613182
22.361729,59.55694,17.880861,3.1648083,-0.62344193,-0.061909128,0.4557873,-0.80507934,0.77727365,0.2561341,-0.21324626,0.68317133,0.6593052,-0.4276274,1.3590469,-0.7220743,-1.8429424,-0.90622824,2.2483063,1.3773,-1.041583,1.4252115,-0.7858761,-1.8644283,-0.88942784,2.1898806,1.3164088,-1.0024861,-1.4341881,1.3938472,0.4299669,-0.4727386,0.9902049,0.50423634,-0.36400276,2.0703545,-0.60484815,1.2832987,-3.0983417,0.31161943,2.7779288,0.23442078,-0.54009056,0.9032809,0.8035573,-0.024750892,0.0784129,0.58952045,-0.676956,0.53708255,0.6853813,1.0,0.0,0.0,0.0,0.0,0.0,0.0,-2.7203546,0.20484814,-0.7332987,0.05221367,0.5169153,6.8757353,-8.154011,0.49766302,0.17211437,1.0329247
16.117323,60.009037,17.839836,8.380252,-0.08171034,0.1382443,0.31912804,-0.80602413,0.7747347,0.31746048,-0.23333403,0.68742895,0.6688482,-0.3961011,1.3446091,-0.70840263,-1.8326823,-0.9127613,2.2586236,1.3832936,-1.0420963,1.4108607,-0.77194196,-1.8595378,-0.8943402,2.1997912,1.3214346,-1.0060261,-1.4355963,1.3936505,0.50796944,-0.4978078,0.99255985,0.5029257,-0.35103554,2.0393944,-0.60173416,1.3103207,-3.095244,0.31130788,2.6769657,0.2278099,-0.534503,0.9101332,0.8059303,-0.031139988,0.07794428,0.5860301,-0.6480929,0.57130206,0.6800703,1.0,0.0,0.0,0.0,0.0,0.0,0.0,-2.6893945,0.20173416,-0.7603207,-0.1737833,0.10826588,7.616335,-2.623862,0.60822964,0.13781786,1.2308538
15.748494,61.022587,18.32476,9.292671,-0.05063659,0.17679904,0.31044382,-0.8049131,0.7804106,0.3687316,-0.27616277,0.6812036,0.66699684,-0.3711925,1.3303694,-0.6939009,-1.8226647,-0.9219565,2.2679114,1.3881342,-1.0431454,1.3964945,-0.7579964,-1.8538234,-0.89943,2.2097018,1.3264471,-1.0094289,-1.4369193,1.3953161,0.5919321,-0.51308167,0.99197,0.50151,-0.3369698,2.0084648,-0.5986235,1.3363339,-3.0921493,0.31099662,2.5761037,0.22148514,-0.52855945,0.9169626,0.8079954,-0.037622314,0.07740089,0.5828697,-0.620969,0.6072765,0.6786797,1.0,0.0,0.0,0.0,0.0,0.0,0.0,-2.658465,0.19862351,-0.78633386,-0.15950203,0.2993822,8.188152,-1.6298294,0.33289194,0.124788284,1.3496459
14.206713,59.076565,17.554398,9.923301,-0.00016367435,0.11305188,0.2708066,-0.8083163,0.78000224,0.39674252,-0.28752443,0.6823854,0.67214465,-0.3555823,1.3156629,-0.67999613,-1.8141491,-0.9281824,2.2779403,1.3936616,-1.0449871,1.3821017,-0.7440384,-1.8473384,-0.9046237,2.2196047,1.3314501,-1.0126923,-1.4401017,1.3964367,0.6666785,-0.52185255,0.99123514,0.500717,-0.32306343,1.9775658,-0.5955157,1.3613391,-3.0890577,0.3106857,2.4753423,0.2154007,-0.5222802,0.9237693,0.8097784,-0.04420239,0.07680011,0.5800059,-0.59596324,0.6398289,0.6758804,1.0,0.0,0.0,0.0,0.0,0.0,0.0,-2.6275659,0.19551572,-0.8113391,-0.34549236,0.24576187,7.2651863,-0.9778023,0.31038523,0.17943978,1.3416052
12.276316,56.03621,16.428518,10.621435,0.082805514,0.027148731,0.2273325,-0.8112844,0.7745967,0.42754304,-0.28240827,0.6758156,0.6678961,-0.32370895,1.3009732,-0.6665787,-1.8045841,-0.9328645,2.2871864,1.3982397,-1.0450633,1.3676668,-0.7300976,-1.8401763,-0.9098355,2.2294848,1.3364435,-1.015807,-1.4446207,1.3937786,0.7318604,-0.52127975,0.9877621,0.49958205,-0.3079047,1.9466972,-0.5924113,1.3853375,-3.0859692,0.31037506,2.3746817,0.20954895,-0.5157137,0.9305344,0.81131524,-0.050866198,0.07615969,0.5773905,-0.5739142,0.6671394,0.67100734,1.0,0.0,0.0,0.0,0.0,0.0,0.0,-2.5966973,0.19241127,-0.83533746,-0.48074722,-0.1322031,6.3118577,-0.049817562,0.025773048,0.13509989,1.4689445
10.900035,52.54068,15.031574,10.610739,0.08987892,-0.11913226,0.18413681,-0.81407833,0.77299154,0.44080013,-0.28608114,0.67444044,0.6647336,-0.30524924,1.286259,-0.6527984,-1.7960963,-0.93844366,2.296929,1.4029169,-1.046332,1.3531805,-0.716194,-1.8325031,-0.91503114,2.239323,1.3414236,-1.018773,-1.4499829,1.389665,0.7785156,-0.51944184,0.98367965,0.49819818,-0.29282993,1.9158592,-0.5893097,1.4083301,-3.0828838,0.31006476,2.2741218,0.20391464,-0.50891566,0.9372165,0.8126465,-0.057566743,0.075524665,0.57496756,-0.5519628,0.6887074,0.66143984,1.0,0.0,0.0,0.0,0.0,0.0,0.0,-2.5658593,0.18930969,-0.8583301,-0.56831837,-0.27968884,4.4754148,0.06891489,-0.062286854,0.10383129,1.4653683
9.052323,49.666916,13.803629,11.352341,0.15358448,-0.21927664,0.114632994,-0.8140149,0.7706815,0.4470036,-0.26880956,0.66766393,0.6682832,-0.2885189,1.2717791,-0.6391258,-1.7878027,-0.9419121,2.3060894,1.408252,-1.0476248,1.3386523,-0.70233804,-1.8245132,-0.92012376,2.2491038,1.3463923,-1.0215901,-1.4538853,1.3847088,0.8054475,-0.506294,0.977337,0.49715585,-0.27817893,1.8850517,-0.58621144,1.4303178,-3.0798016,0.30975476,2.1736624,0.19847488,-0.5019431,0.94379056,0.8138245,-0.06427451,0.07493846,0.57266283,-0.53252965,0.70466876,0.65020895,1.0,0.0,0.0,0.0,0.0,0.0,0.0,-2.5350518,0.18621144,-0.88031775,-0.42726994,-0.3639698,2.513206,1.1879444,-0.307405,0.12335777,1.4240265
8.050882,48.55906,13.275694,12.016083,0.18158865,-0.27421993,0.07106129,-0.81420517,0.77252173,0.45293403,-0.2540063,0.6632905,0.6676196,-0.257775,1.2572317,-0.6250859,-1.7792197,-0.9455244,2.3154328,1.4131542,-1.0473676,1.3240973,-0.6885126,-1.8163593,-0.9250199,2.258816,1.3513495,-1.0242528,-1.4561551,1.382207,0.81828374,-0.48450327,0.9703072,0.49610132,-0.26253417,1.8542747,-0.58311605,1.4513017,-3.0767224,0.30944508,2.0733035,0.19322586,-0.49482656,0.95025724,0.8148904,-0.07098419,0.07443947,0.5704153,-0.5145106,0.71831316,0.63945866,1.0,0.0,0.0,0.0,0.0,0.0,0.0,-2.5042748,0.18311605,-0.9013017,-0.26905537,-0.118255615,1.1125326,2.048093,-0.38757324,0.10892153,1.5253127
10.42715,47.370834,13.050513,9.733772,-0.05474174,-0.44557548,0.12646317,-0.8158997,0.7739265,0.4635018,-0.28910175,0.666458,0.6638744,-0.26478082,1.2425073,-0.61112,-1.770009,-0.9539301,2.3254619,1.4177369,-1.0507308,1.3095232,-0.6746939,-1.8081081,-0.9298894,2.2684786,1.3562971,-1.02678,-1.4579301,1.3822067,0.8268359,-0.48810875,0.96588975,0.49505612,-0.24959166,1.8235283,-0.580024,1.4712827,-3.0736463,0.3091357,1.9730448,0.18821335,-0.48756814,0.9565654,0.815827,-0.077627316,0.07406504,0.5682558,-0.48681554,0.73239887,0.62190366,1.0,0.0,0.0,0.0,0.0,0.0,0.0,-2.4735284,0.180024,-0.9212827,-0.21109581,0.1273632,0.7032752,-0.47712326,-0.15251637,0.13228059,1.2644559
11.847667,46.234993,12.82408,8.440653,-0.17894804,-0.57384497,0.16316226,-0.81304365,0.77394015,0.46575496,-0.29722753,0.6679841,0.6668218,-0.23753162,1.2282189,-0.5972999,-1.7615325,-0.95961213,2.335277,1.4229794,-1.0505332,1.294953,-0.6608675,-1.7998035,-0.9348838,2.2781146,1.3612391,-1.0291737,-1.4568895,1.3832775,0.83109623,-0.50358593,0.9638599,0.49458393,-0.23604535,1.7928123,-0.5769348,1.4902619,-3.0705733,0.30882663,1.8728861,0.18353653,-0.48017406,0.9626701,0.8166108,-0.084142715,0.07383873,0.5662283,-0.45337525,0.7455879,0.60059965,1.0,0.0,0.0,0.0,0.0,0.0,0.0,-2.4428124,0.17693481,-0.9402619,0.08003712,0.23400784,0.27803183,-1.6560137,0.071299076,0.20115972,1.3310075
13.434559,46.16235,13.036257,7.43083,-0.29554215,-0.6646941,0.20893094,-0.80816925,0.7767051,0.47216943,-0.30934885,0.6675497,0.6626732,-0.19668612,1.2141361,-0.583197,-1.7525866,-0.96581864,2.3448696,1.4275064,-1.0488423,1.2804209,-0.6470154,-1.7914531,-0.9400956,2.287739,1.3661734,-1.0314149,-1.4520054,1.3863232,0.8359052,-0.527443,0.96301013,0.49393338,-0.2202776,1.7621269,-0.57384896,1.5082403,-3.0675032,0.30851787,1.7728275,0.17921829,-0.4726398,0.96855056,0.8172149,-0.09049612,0.07377402,0.5643824,-0.41462582,0.75947595,0.5777637,1.0,0.0,0.0,0.0,0.0,0.0,0.0,-2.412127,0.17384896,-0.95824033,0.4772663,0.4328966,0.32719374,-2.4810553,0.18543005,0.19326806,1.558888
11.14055,45.47403,12.753011,9.312899,-0.13176793,-0.61267614,0.15993275,-0.8132703,0.7771458,0.47624162,-0.28901383,0.65597177,0.66842794,-0.1500039,1.1990938,-0.56930083,-1.743829,-0.968997,2.3533363,1.4330162,-1.0464152,1.2659117,-0.6331318,-1.7830493,-0.945419,2.2973254,1.3711039,-1.0334786,-1.450616,1.3894134,0.8414105,-0.5343295,0.95838815,0.49366683,-0.20176259,1.731472,-0.570766,1.5252188,-3.0644364,0.30820942,1.6728691,0.17524719,-0.46497464,0.974237,0.81765944,-0.09672392,0.07387164,0.5626903,-0.38279203,0.7718669,0.5593797,1.0,0.0,0.0,0.0,0.0,0.0,0.0,-2.381472,0.17076597,-0.97521883,0.11048317,0.44107437,0.39873123,-0.7952452,-0.18100739,0.20403862,1.8314838
9.688723,42.655117,11.83353,9.804144,-0.011303782,-0.67165995,0.14408895,-0.81557965,0.7716961,0.4773024,-0.29557744,0.6609308,0.664165,-0.11682915,1.1843537,-0.5559622,-1.7353191,-0.9749768,2.3634183,1.4375204,-1.0451615,1.2513949,-0.6192501,-1.774596,-0.95078534,2.306885,1.3760287,-1.0353478,-1.4520983,1.3881817,0.846115,-0.53783107,0.95600265,0.49295536,-0.18213068,1.7008476,-0.5676863,1.5411986,-3.0613725,0.30790126,1.5730106,0.17155838,-0.45721817,0.9797323,0.817965,-0.10283063,0.07410703,0.5611302,-0.3542685,0.77967244,0.5399774,1.0,0.0,0.0,0.0,0.0,0.0,0.0,-2.3508477,0.16768631,-0.9911986,-0.18606186,0.007534027,0.3322959,-0.4691124,0.03552437,0.14673471,1.9391865
10.776431,41.410908,11.633104,8.683393,-0.09805125,-0.77971834,0.19060367,-0.8120505,0.77187574,0.48322335,-0.32004446,0.66060513,0.6606561,-0.07177371,1.1701899,-0.5420625,-1.7262737,-0.98278975,2.3729455,1.4420943,-1.0425252,1.2368761,-0.60538846,-1.7660835,-0.9562718,2.3164256,1.3809458,-1.0370072,-1.4520625,1.3859464,0.85267055,-0.5526243,0.95443857,0.492033,-0.16045612,1.6702538,-0.5646095,1.5561805,-3.058312,0.30759344,1.4732518,0.16820526,-0.44938827,0.9850094,0.81811607,-0.10878017,0.07447808,0.55973744,-0.3211627,0.7864215,0.51740193,1.0,0.0,0.0,0.0,0.0,0.0,0.0,-2.3202538,0.16460952,-1.0061805,-0.023031235,-0.09422302,0.5191922,-1.5888453,0.10558367,0.13396144,2.1477103
7.017276,39.207123,10.730595,11.700924,0.21263027,-0.70391417,0.11314601,-0.8157901,0.76688164,0.47604883,-0.2713191,0.64586794,0.662157,0.0458548,1.1552972,-0.5287003,-1.7184786,-0.98340374,2.3810124,1.4471616,-1.0324217,1.2223383,-0.5915716,-1.7575519,-0.9616677,2.3259127,1.3858534,-1.0383824,-1.4543852,1.3806909,0.85308653,-0.53576547,0.9478883,0.490958,-0.12989162,1.6396904,-0.5615361,1.5701655,-3.0552542,0.3072859,1.373593,0.1650734,-0.44151974,0.99010926,0.81814533,-0.11462396,0.074977666,0.55846024,-0.30029407,0.7889919,0.5012068,1.0,0.0,0.0,0.0,0.0,0.0,0.0,-2.2896905,0.16153607,-1.0201654,-0.28777122,-0.3926754,-0.08691549,1.5459299,-0.37721395,0.07994771,3.0245662
8.069111,35.531258,9.503873,9.3524475,0.06857449,-0.92741334,0.16307211,-0.81752634,0.7605726,0.46727818,-0.32039812,0.6494587,0.6642113,0.08205099,1.1405857,-0.5155144,-1.7108241,-0.99370754,2.3908587,1.4522746,-1.0301774,1.2077719,-0.57783204,-1.7490699,-0.96709317,2.3353503,1.3907534,-1.0394467,-1.4575909,1.3721087,0.8461887,-0.5453101,0.94290555,0.49034807,-0.09861535,1.6091576,-0.5584655,1.5831547,-3.0521996,0.30697867,1.2740337,0.16221619,-0.43366313,0.9949766,0.8180505,-0.12028854,0.07562219,0.55731976,-0.27177665,0.7862621,0.4755527,1.0,0.0,0.0,0.0,0.0,0.0,0.0,-2.2591577,0.15846547,-1.0331547,-0.3625393,-0.733757,-0.7946968,-1.0878325,-0.2612114,0.14151931,3.1005397
9.384515,32.672783,8.363546,6.5649867,-0.16122139,-1.1785932,0.19742599,-0.8249007,0.7607616,0.4503073,-0.37174013,0.65042734,0.65668595,0.08053144,1.1252818,-0.5017559,-1.7040392,-1.0042672,2.400393,1.456422,-1.0313935,1.1931444,-0.56416684,-1.7407405,-0.97287816,2.3447459,1.3956438,-1.0402287,-1.4646232,1.3651271,0.8283182,-0.5899683,0.93933237,0.48926353,-0.071368665,1.5786552,-0.555398,1.5951489,-3.049148,0.30667177,1.1745739,0.15971756,-0.4258678,0.9995068,0.8178281,-0.12562396,0.07647155,0.5563522,-0.23301241,0.7786522,0.43936548,1.0,0.0,0.0,0.0,0.0,0.0,0.0,-2.2286553,0.15539798,-1.0451488,-0.7338047,-0.5821943,-1.862073,-4.584658,-0.16794205,0.10790825,2.7102022
12.777227,34.933025,9.670064,4.6867886,-0.39951786,-1.2522382,0.30570284,-0.8144638,0.76196074,0.47001147,-0.40102383,0.6461255,0.65735865,0.14994298,1.111698,-0.48797077,-1.6937394,-1.0129806,2.4093585,1.4613796,-1.0252345,1.1785055,-0.55054456,-1.7324874,-0.97923726,2.3541033,1.4005266,-1.0407189,-1.4637201,1.3616366,0.82414687,-0.65151286,0.93548197,0.4885548,-0.041445147,1.5481834,-0.5523336,1.6061494,-3.0460994,0.30636516,1.0752136,0.15768814,-0.41810942,1.0036668,0.8174209,-0.13057591,0.077543594,0.5556616,-0.18410648,0.77577007,0.40211183,1.0,0.0,0.0,0.0,0.0,0.0,0.0,-2.1981835,0.15233359,-1.0561495,0.10063648,-0.22909641,-0.5276084,-6.235385,-0.19071102,0.16452074,2.9897497
11.482989,32.726654,8.815513,5.0150337,-0.325606,-1.3072405,0.27235144,-0.8245841,0.7564222,0.45727852,-0.42305398,0.6440189,0.65865546,0.16247573,1.0960472,-0.47490233,-1.6867596,-1.0215427,2.4185052,1.4663922,-1.0244713,1.1638438,-0.53696424,-1.7242935,-0.986221,2.3634264,1.4054018,-1.0409287,-1.4670883,1.3572856,0.8174722,-0.7142979,0.9318697,0.48794165,-0.014241278,1.5177422,-0.54927206,1.616157,-3.043054,0.30605885,0.97595257,0.15612411,-0.41040516,1.007447,0.816835,-0.13512251,0.07883654,0.5552542,-0.1373914,0.7689438,0.3637906,1.0,0.0,0.0,0.0,0.0,0.0,0.0,-2.1677423,0.14927205,-1.0661571,-0.3350258,-0.3152609,-0.76663494,-6.3652873,-0.17662048,0.15610456,2.7200222
9.860109,30.373762,7.9555006,5.873309,-0.18354374,-1.3366115,0.22718088,-0.8288025,0.75037605,0.44956368,-0.44506449,0.6445281,0.652893,0.17577268,1.0809635,-0.46192664,-1.6793371,-1.0307275,2.4278793,1.4706911,-1.0233514,1.1491305,-0.523444,-1.7161815,-0.9937865,2.3727229,1.4102675,-1.0408868,-1.4727894,1.3506633,0.8087227,-0.77085984,0.9294899,0.48666063,0.010147803,1.4873314,-0.54621387,1.6251727,-3.0400116,0.30575287,0.8767908,0.15499878,-0.40279603,1.0108495,0.8161095,-0.1392591,0.08033499,0.55508405,-0.09511407,0.7579325,0.32625607,1.0,0.0,0.0,0.0,0.0,0.0,0.0,-2.1373315,0.14621386,-1.0751727,-0.5782366,-0.541687,-0.9665847,-5.7546973,-0.05773306,0.06816983,2.4365852
9.980063,30.525106,8.253321,6.465455,-0.14327306,-1.3249646,0.23371899,-0.8198071,0.74854934,0.45076734,-0.46493584,0.6382151,0.66041106,0.2374236,1.0671498,-0.44858906,-1.6711048,-1.0402801,2.4365444,1.4763086,-1.0171444,1.1344076,-0.5099867,-1.7081382,-1.0018451,2.381985,1.4151255,-1.0405873,-1.4719371,1.3444258,0.8025415,-0.8179409,0.92568296,0.4861677,0.036746312,1.4569511,-0.54315853,1.6331975,-3.0369723,0.3054472,0.7777282,0.15429688,-0.3952875,1.0139006,0.81525034,-0.14301759,0.082019895,0.5551446,-0.053817138,0.7477787,0.29186228,1.0,0.0,0.0,0.0,0.0,0.0,0.0,-2.1069512,0.14315853,-1.0831976,0.08983612,-0.49726963,-0.73524714,-4.8031807,-0.18709898,0.13861656,2.6578095
8.101278,30.04193,8.166227,8.781308,0.061632335,-1.2281044,0.16675198,-0.8216939,0.74570674,0.44771433,-0.45986736,0.63287514,0.66068596,0.2508575,1.0522382,-0.435416,-1.6633668,-1.0478319,2.4452724,1.4811941,-1.0155015,1.1196982,-0.49658948,-1.7001483,-1.0101993,2.3912013,1.4199797,-1.040038,-1.4707206,1.3385694,0.79735094,-0.8416895,0.9206928,0.4855896,0.06106623,1.4266014,-0.54010653,1.6402324,-3.033936,0.3051418,0.67876464,0.1539383,-0.3878746,1.0166589,0.814283,-0.14647503,0.08386361,0.5553873,-0.02074536,0.7379165,0.26424658,1.0,0.0,0.0,0.0,0.0,0.0,0.0,-2.0766015,0.14010653,-1.0902324,0.10008812,-0.45351982,-0.63340664,-2.4898052,-0.28523207,0.10430217,2.423586
6.5538883,27.923243,7.3688884,9.824797,0.18995273,-1.2322018,0.12138092,-0.8236145,0.740313,0.43478656,-0.47281653,0.6258769,0.6609548,0.28485265,1.0373367,-0.4225582,-1.6566697,-1.0574809,2.453789,1.4860752,-1.0115527,1.1049925,-0.48325998,-1.6922538,-1.0187232,2.4003527,1.4248263,-1.0392464,-1.4705359,1.3315331,0.78666043,-0.8564234,0.91381466,0.4849613,0.085095406,1.3962822,-0.5370574,1.6462786,-3.0309026,0.30483672,0.5799,0.15388489,-0.38057947,1.0191516,0.8132456,-0.14966273,0.08585966,0.5557524,0.007849281,0.7251821,0.23810741,1.0,0.0,0.0,0.0,0.0,0.0,0.0,-2.0462823,0.1370574,-1.0962787,-0.019788742,-0.57258606,-1.1657715,-1.6035795,-0.47941208,0.080007315,2.3884506
6.6965837,25.59623,6.6197176,8.752747,0.19280821,-1.3502977,0.14044744,-0.82413256,0.7331939,0.43075356,-0.5135831,0.6422046,0.65216464,0.28618655,1.0225792,-0.4099406,-1.6491785,-1.0700816,2.4645731,1.4900427,-1.0106277,1.090285,-0.47001868,-1.684468,-1.0275085,2.4094927,1.4296614,-1.0382413,-1.4709733,1.3220901,0.7753927,-0.8861896,0.91450346,0.4834747,0.105777614,1.3659935,-0.53401136,1.6513368,-3.0278723,0.30453193,0.48113424,0.15412903,-0.3734424,1.021349,0.8121451,-0.15253173,0.08798058,0.5562497,0.038795,0.7079486,0.20752233,1.0,0.0,0.0,0.0,0.0,0.0,0.0,-2.0159936,0.13401136,-1.1013367,-0.06527901,-0.8191347,-1.2162209,-3.0967236,0.25229454,-0.009930134,2.057445
6.2411523,25.248907,6.627077,9.376061,0.24556917,-1.3277192,0.13250108,-0.8264771,0.7312633,0.43191162,-0.5189215,0.6381969,0.65393114,0.3136137,1.0076373,-0.39689237,-1.6412768,-1.0794007,2.4733124,1.4950545,-1.0068799,1.0755602,-0.45686322,-1.6767662,-1.0365703,2.4186404,1.4344832,-1.037032,-1.4731187,1.3138202,0.76826465,-0.9133584,0.91545326,0.48215395,0.12579994,1.3357353,-0.5309684,1.6554081,-3.0248451,0.30422747,0.38246727,0.15467453,-0.36647177,1.0232543,0.81098616,-0.15507701,0.09021,0.5568793,0.067871615,0.69124734,0.17876934,1.0,0.0,0.0,0.0,0.0,0.0,0.0,-1.9857353,0.13096842,-1.1054082,-0.24733543,-0.70073605,-0.794518,-2.8379202,0.2830267,-0.0062167645,1.9924134
5.9574986,25.281952,6.7956696,10.290215,0.3072381,-1.2953283,0.116640046,-0.8201522,0.72939944,0.42492002,-0.5176724,0.63789713,0.65327454,0.33975735,0.993545,-0.3839233,-1.6342741,-1.0883375,2.48243,1.4998106,-1.0030563,1.0608431,-0.44377595,-1.6691387,-1.0458305,2.4277995,1.4392916,-1.0356263,-1.4712923,1.307508,0.76053154,-0.9306319,0.9167076,0.48082703,0.14542007,1.3055077,-0.52792835,1.6584935,-3.0218208,0.3039233,0.28389892,0.15549469,-0.35965633,1.024897,0.80977404,-0.15733437,0.092535004,0.557628,0.094871655,0.67569155,0.15339163,1.0,0.0,0.0,0.0,0.0,0.0,0.0,-1.9555076,0.12792835,-1.1084936,0.1447916,-0.5013466,-0.8590579,-1.8517017,0.32371283,-0.017946959,1.9515723
4.391683,22.748924,5.734135,11.192139,0.43858582,-1.3107152,0.061738834,-0.8213162,0.7237812,0.4024822,-0.5208328,0.6378057,0.6585692,0.35796466,0.9787115,-0.37139782,-1.6288904,-1.0979137,2.49158,1.5051485,-0.9998298,1.0461432,-0.43075544,-1.6616714,-1.055207,2.43697,1.4440905,-1.0340317,-1.4697638,1.300659,0.7419581,-0.94036156,0.9175938,0.48002872,0.16392197,1.2753105,-0.5248914,1.6605939,-3.0187995,0.30361944,0.18542914,0.15655899,-0.35302305,1.0262911,0.8085434,-0.15931752,0.094952896,0.5584437,0.11749062,0.6563647,0.12876889,1.0,0.0,0.0,0.0,0.0,0.0,0.0,-1.9253105,0.12489137,-1.1105938,0.09763241,-0.5578995,-1.9184828,-1.1135459,0.27489662,0.015223026,1.8332988
3.4546602,22.329237,5.6928563,12.710936,0.54440534,-1.2393928,0.020513792,-0.8195903,0.7219593,0.39804044,-0.50894284,0.6295013,0.66065717,0.37031353,0.96418417,-0.3585595,-1.6218673,-1.1061013,2.4999201,1.5101562,-0.9970004,1.0314642,-0.41779405,-1.654391,-1.0645721,2.4461215,1.4488856,-1.0322655,-1.467692,1.2950773,0.72336817,-0.93585217,0.9149637,0.479471,0.180846,1.2451439,-0.5218575,1.6617103,-3.0157814,0.30331588,0.0870578,0.15781021,-0.34656978,1.0274737,0.8073229,-0.16107789,0.09746261,0.55927145,0.1356327,0.6384688,0.10875999,1.0,0.0,0.0,0.0,0.0,0.0,0.0,-1.8951439,0.121857494,-1.1117103,0.124812126,-0.42905807,-1.904583,0.29679537,-0.06444454,0.022888184,1.6703576
2.0325441,19.68401,4.5383377,13.398896,0.6589054,-1.269034,-0.036342986,-0.8186341,0.7178194,0.36836052,-0.5071409,0.6295359,0.6621864,0.37385404,0.9496008,-0.34601212,-1.617555,-1.1152862,2.5090752,1.5151042,-0.99488014,1.0168043,-0.40489036,-1.6473911,-1.0738552,2.4552424,1.4536768,-1.0303468,-1.4657825,1.2891936,0.6921241,-0.9262846,0.9118644,0.47901922,0.19540632,1.2150078,-0.5188265,1.6618438,-3.0127661,0.30301264,-0.011215191,0.15922546,-0.34032273,1.0284564,0.8061526,-0.16262552,0.100068614,0.56005114,0.15019931,0.6165374,0.08894193,1.0,0.0,0.0,0.0,0.0,0.0,0.0,-1.8650078,0.11882648,-1.1118438,0.09248257,-0.46424866,-3.1412363,0.78861713,-0.12805462,0.01475811,1.4271289
1.7775874,16.891191,3.3541746,12.171106,0.6434161,-1.4043579,-0.036606617,-0.8186691,0.7121867,0.34375367,-0.53375405,0.63525164,0.65578693,0.37030765,0.9349374,-0.3336717,-1.6130158,-1.1272305,2.5187676,1.5192555,-0.993316,1.0021578,-0.39205724,-1.6407707,-1.0831687,2.464352,1.4584585,-1.028304,-1.4643724,1.2817714,0.6521159,-0.93363225,0.91124463,0.47791386,0.20722337,1.1849022,-0.5157988,1.6609952,-3.009754,0.3027097,-0.10938992,0.16080475,-0.33433962,1.0291984,0.8050609,-0.16389035,0.10277435,0.5607623,0.16729909,0.5886962,0.06347846,1.0,0.0,0.0,0.0,0.0,0.0,0.0,-1.8349022,0.1157988,-1.1109953,0.06802082,-0.62668324,-4.010546,-0.89108944,0.08537769,-0.05801916,1.1541247
2.1554523,16.572002,3.2972486,11.62405,0.59490246,-1.447253,-0.02229954,-0.81659466,0.71242434,0.3281828,-0.54450655,0.63558584,0.65743464,0.37466162,0.9204984,-0.3208148,-1.6079524,-1.1376194,2.5279105,1.524202,-0.9908378,0.98753226,-0.37928182,-1.6345489,-1.0926292,2.4734652,1.4632288,-1.0261544,-1.4621891,1.2764984,0.6121739,-0.95043594,0.911517,0.4769736,0.21738452,1.1548271,-0.512774,1.6591657,-3.0067449,0.30240706,-0.20746651,0.16257095,-0.32863522,1.0296706,0.8040471,-0.16482449,0.10558404,0.5614206,0.18685582,0.5604877,0.036217228,1.0,0.0,0.0,0.0,0.0,0.0,0.0,-1.8048271,0.112773985,-1.1091657,0.15940666,-0.41344166,-4.005742,-1.8232942,0.1645565,-0.047826767,0.9929061
0.9372678,12.288173,1.499841,10.8840065,0.6539322,-1.5601465,-0.035335217,-0.81652814,0.6987135,0.2913855,-0.5636229,0.6192543,0.6574778,0.40229017,0.90587944,-0.30941045,-1.6054103,-1.1489915,2.5353906,1.5289766,-0.9859254,0.97292674,-0.36660558,-1.6287982,-1.1023376,2.4825327,1.4679915,-1.0238961,-1.4601399,1.2650225,0.5625283,-0.9781033,0.9052374,0.4760408,0.22849636,1.1247826,-0.50975204,1.6563562,-3.0037386,0.3021047,-0.30544505,0.16453171,-0.32326746,1.0298306,0.803131,-0.16536918,0.10851197,0.56201303,0.20568478,0.52459,0.0037223215,1.0,0.0,0.0,0.0,0.0,0.0,0.0,-1.7747825,0.10975203,-1.1063561,0.1748085,-1.0439396,-4.9752235,-2.9081464,-0.52508116,-0.061255693,1.080364
0.06856775,8.720656,-0.09948599,9.890518,0.70558995,-1.6909269,-0.05204131,-0.8114999,0.6904915,0.2474081,-0.5938075,0.6246969,0.6518994,0.3929024,0.89177674,-0.29755643,-1.6040574,-1.1617184,2.5450025,1.5331814,-0.98460585,0.95836127,-0.35406762,-1.6236465,-1.1124237,2.4915507,1.4727408,-1.0215443,-1.4552264,1.2503324,0.49922907,-1.019402,0.9006547,0.47457084,0.23713928,1.0947685,-0.5067334,1.6525675,-3.0007355,0.30180266,-0.40332562,0.16668701,-0.31831598,1.029625,0.8023443,-0.16543804,0.1115583,0.56251985,0.22460866,0.48088685,-0.034132816,1.0,0.0,0.0,0.0,0.0,0.0,0.0,-1.7447685,0.10673341,-1.1025674,0.50640106,-1.3746262,-6.3527346,-4.26203,-0.3932953,-0.13033748,0.82990825
-1.6898668,5.7073116,-1.7644682,10.127249,0.78905046,-1.7500305,-0.121331096,-0.81321675,0.68863684,0.18840267,-0.61156046,0.61057884,0.6524652,0.39793003,0.8770396,-0.28520393,-1.6048062,-1.1735797,2.5526085,1.5379872,-0.9817513,0.94383204,-0.34165984,-1.6192806,-1.1229427,2.5004847,1.4774748,-1.0191163,-1.4520671,1.2378654,0.4157991,-1.0631764,0.8913736,0.4729694,0.24467711,1.064785,-0.50371766,1.6478008,-2.9977355,0.30150092,-0.50110835,0.16901398,-0.31384277,1.0290244,0.8017449,-0.16497424,0.11475719,0.56286716,0.24035943,0.4314491,-0.07395818,1.0,0.0,0.0,0.0,0.0,0.0,0.0,-1.714785,0.103717655,-1.0978007,0.33245087,-1.1609554,-8.340138,-4.5156717,-0.8969188,-0.17468333,0.7105291
-5.5220847,-0.570817,-5.044241,11.503973,1.0643009,-1.8057407,-0.26204717,-0.8107391,0.6773538,0.09455536,-0.61350137,0.58000255,0.6493868,0.4226283,0.86275816,-0.27392447,-1.609825,-1.1842928,2.558485,1.5424135,-0.97685343,0.92933524,-0.32939464,-1.6160285,-1.1338108,2.5092432,1.4821898,-1.0166062,-1.4488391,1.2230145,0.2951248,-1.0952615,0.8707697,0.47078145,0.25309142,1.034832,-0.50070477,1.6420571,-2.9947383,0.30119947,-0.5987933,0.17142868,-0.30994296,1.028022,0.80143774,-0.16395032,0.11816396,0.5628989,0.24587874,0.37102395,-0.11401491,1.0,0.0,0.0,0.0,0.0,0.0,0.0,-1.684832,0.10070476,-1.092057,0.33094883,-1.4162064,-12.020058,-3.3784628,-2.0781875,-0.28179288,0.76862276
-8.7542095,-5.963492,-8.126591,11.990932,1.2671616,-1.897604,-0.39136127,-0.8124827,0.6726076,-0.009339514,-0.6393067,0.56317323,0.64951277,0.4097165,0.84808695,-0.26213387,-1.6169626,-1.1977414,2.5655606,1.5471411,-0.9756346,0.9148537,-0.31726676,-1.6142623,-1.1450069,2.5177615,1.4868819,-1.0140294,-1.447775,1.2095655,0.13734101,-1.128437,0.8451831,0.46833837,0.2589286,1.0049095,-0.4976952,1.6353372,-2.991744,0.3008983,-0.6963807,0.1738472,-0.3067298,1.0265968,0.80154055,-0.16230871,0.12183372,0.56244576,0.2439011,0.29968113,-0.15681589,1.0,0.0,0.0,0.0,0.0,0.0,0.0,-1.6549095,0.0976952,-1.0853372,0.13344288,-1.2943506,-15.699569,-3.4992218,-2.637899,-0.3574252,0.48646927
-12.376539,-12.929167,-11.825722,12.2050705,1.480783,-2.0076892,-0.5100555,-0.8072648,0.65663296,-0.13366786,-0.6620322,0.5082458,0.64882123,0.42317557,0.8341272,-0.25160345,-1.6276292,-1.2112101,2.568586,1.551764,-0.9717118,0.90040267,-0.30531198,-1.6143653,-1.1565502,2.5258906,1.4915491,-1.0113934,-1.443854,1.1908902,-0.059317786,-1.1636375,0.80188257,0.46560666,0.26463723,0.97501755,-0.4946885,1.6276423,-2.988753,0.3005975,-0.79387045,0.1761818,-0.3043244,1.0247084,0.802162,-0.15997607,0.12584162,0.56134456,0.23358269,0.21538688,-0.20391534,1.0,0.0,0.0,0.0,0.0,0.0,0.0,-1.6250175,0.094688505,-1.0776422,0.49154758,-1.8396616,-19.603693,-3.7055254,-4.4767737,-0.43720007,0.43685436
-13.576191,-16.329273,-12.9883375,12.164298,1.6203443,-1.978312,-0.4954582,-0.80679274,0.62985766,-0.19837958,-0.69622123,0.4629104,0.645863,0.4067579,0.81972337,-0.2423262,-1.6342033,-1.2261723,2.5721817,1.5561354,-0.97071767,0.88599265,-0.29363424,-1.6163509,-1.1685188,2.533501,1.4961878,-1.0087193,-1.4394245,1.1601435,-0.24496627,-1.2084885,0.7470382,0.46265456,0.26762635,0.9451523,-0.49168468,1.6189731,-2.985765,0.30029696,-0.8912627,0.17839432,-0.30278683,1.0223308,0.80331504,-0.15691914,0.13017458,0.5595676,0.2176818,0.12780765,-0.25306365,1.0,0.0,0.0,0.0,0.0,0.0,0.0,-1.5951523,0.09168467,-1.0689731,0.6164551,-3.060484,-18.5588,-4.6470404,-5.6474566,-0.48632026,0.14510155
-14.4687605,-16.635487,-12.803535,14.100605,1.7704362,-1.777801,-0.49961796,-0.812705,0.61386347,-0.271665,-0.7001993,0.4064078,0.6476584,0.40219727,0.80472213,-0.23224789,-1.6435174,-1.2385387,2.5741417,1.5609536,-0.9684996,0.87159026,-0.2822941,-1.6200454,-1.1808631,2.540478,1.5007998,-1.0060261,-1.4401165,1.1253302,-0.4106711,-1.2436862,0.6806166,0.45992017,0.26916623,0.9153137,-0.48868394,1.6093308,-2.9827797,0.29999673,-0.98855764,0.18038559,-0.30208373,1.019501,0.80497384,-0.1532022,0.13480422,0.55711204,0.19377762,0.045716844,-0.29649428,1.0,0.0,0.0,0.0,0.0,0.0,0.0,-1.5653137,0.08868393,-1.0593307,0.067806244,-3.4793615,-16.533041,-3.6827803,-6.7946076,-0.49814582,-0.021779537
-14.491922,-15.4148445,-12.009978,15.606437,1.9038202,-1.5975145,-0.4820005,-0.81528825,0.60040075,-0.34832427,-0.7160889,0.38795766,0.6447633,0.38593268,0.7900614,-0.22225402,-1.6548779,-1.252472,2.5792737,1.5652761,-0.96743286,0.85715544,-0.27129298,-1.6252601,-1.1935222,2.5468447,1.5053831,-1.0033349,-1.4442912,1.0916932,-0.5579672,-1.2739073,0.6214478,0.45699975,0.26852936,0.8855057,-0.4856863,1.5987161,-2.9797974,0.2996968,-1.0857552,0.18211365,-0.3021567,1.0162741,0.80710167,-0.14889738,0.1396648,0.5539948,0.16400106,-0.030195927,-0.3345436,1.0,0.0,0.0,0.0,0.0,0.0,0.0,-1.5355057,0.085686296,-1.0487161,-0.3244877,-3.3717632,-14.649844,-3.1830788,-6.0610056,-0.548923,-0.24667382
-13.986403,-14.865979,-11.142824,16.36502,1.9804775,-1.4440312,-0.42290804,-0.8099456,0.57009494,-0.40297368,-0.73648584,0.33843488,0.6376066,0.35667276,0.7761609,-0.2142835,-1.6655575,-1.2671708,2.5806882,1.5691438,-0.9676676,0.84270155,-0.26068193,-1.6317546,-1.2064788,2.552605,1.5099341,-1.0006741,-1.4454296,1.050853,-0.67969424,-1.3035642,0.56041616,0.45364374,0.26472497,0.85572815,-0.48269153,1.5871302,-2.9768183,0.29939717,-1.1828557,0.18353271,-0.30294752,1.0126873,0.80963326,-0.14406231,0.14467415,0.55028105,0.13075906,-0.100320116,-0.36953285,1.0,0.0,0.0,0.0,0.0,0.0,0.0,-1.5057281,0.08269152,-1.0371301,-0.025081635,-4.099393,-12.102604,-3.1105757,-6.227815,-0.6040931,-0.5663812
-13.92384,-15.2378845,-10.731265,17.029507,2.0349097,-1.3008559,-0.3767806,-0.8134675,0.5352233,-0.44610408,-0.75470483,0.264697,0.6246325,0.31836316,0.7613548,-0.2071596,-1.676365,-1.2819493,2.5790746,1.5723974,-0.9688378,0.82822764,-0.25055438,-1.6392696,-1.2197349,2.5576594,1.514445,-0.99807966,-1.4477808,0.9999714,-0.7751146,-1.333414,0.48711634,0.44931445,0.25707817,0.82598114,-0.4796996,1.5745741,-2.9738421,0.29909784,-1.2798591,0.18458939,-0.30440378,1.0087614,0.8125066,-0.13874312,0.14978392,0.54602945,0.09402405,-0.16544166,-0.4026566,1.0,0.0,0.0,0.0,0.0,0.0,0.0,-1.4759811,0.079699606,-1.024574,-0.1616478,-5.114484,-9.466553,-3.11203,-7.4425697,-0.71116686,-0.9594321
-14.554336,-18.546843,-11.248647,17.400759,2.125822,-1.1787338,-0.3038752,-0.8069608,0.47350606,-0.47070268,-0.76920766,0.14299117,0.6157847,0.30714428,0.74753153,-0.20320377,-1.6863399,-1.2966557,2.5719585,1.5760235,-0.9673652,0.813768,-0.24112327,-1.6475189,-1.2332771,2.561745,1.51891,-0.9955677,-1.4450268,0.9240146,-0.8416799,-1.3615799,0.38230813,0.44467568,0.24859364,0.79626465,-0.47671103,1.5610486,-2.9708688,0.2987988,-1.3767655,0.18525696,-0.30649924,1.0045024,0.8156451,-0.13298479,0.1549692,0.5413157,0.052325487,-0.2285573,-0.43579602,1.0,0.0,0.0,0.0,0.0,0.0,0.0,-1.4462646,0.07671103,-1.0110486,0.38535595,-7.6371074,-6.6375256,-2.910328,-10.575878,-0.7319927,-1.0620683
-11.831924,-13.151786,-8.088637,18.40189,1.6668717,-0.9236103,-0.20377004,-0.80377805,0.44530916,-0.4692486,-0.7700977,-0.06474,0.61434,0.3204063,0.7333902,-0.19659236,-1.6944437,-1.3102869,2.555271,1.5803441,-0.963527,0.7993504,-0.23245652,-1.6561592,-1.2470272,2.5643122,1.5233351,-0.9931234,-1.4405268,0.8474137,-0.8711549,-1.3797219,0.2146647,0.44089007,0.24220131,0.7665787,-0.47372532,1.5465549,-2.9678984,0.29850006,-1.473575,0.18558884,-0.3090818,0.999938,0.8189301,-0.12688898,0.16041303,0.5362091,0.020838145,-0.27174795,-0.46513343,1.0,0.0,0.0,0.0,0.0,0.0,0.0,-1.4165787,0.07372531,-0.9965549,0.4648447,-7.6958776,-2.8814793,-1.8980503,-16.81118,-0.60492754,-0.8728713
-17.281832,-25.891045,-13.395765,19.008545,1.9984727,-0.912554,-0.23602842,-0.8044849,0.33048934,-0.50957775,-0.76855135,-0.3218728,0.6251978,0.349081,0.7189019,-0.19940758,-1.707117,-1.3238823,2.532125,1.5858549,-0.9582153,0.78497756,-0.22491367,-1.665097,-1.2608726,2.5646327,1.5277334,-0.99071634,-1.4355876,0.72298837,-0.90136695,-1.3863397,-0.028997177,0.43885076,0.23909214,0.7369232,-0.47074246,1.5310937,-2.9649312,0.29820162,-1.5702877,0.18548203,-0.3121934,0.9950464,0.8223265,-0.12048575,0.16627671,0.5306735,-0.026754431,-0.32719073,-0.4988407,1.0,0.0,0.0,0.0,0.0,0.0,0.0,-1.3869232,0.07074246,-0.9810937,0.6464243,-12.522101,-3.0779362,-0.6911278,-24.44527,-0.429821,-0.62089264
-18.321331,-27.689407,-13.78172,20.625813,2.265473,-0.73546284,-0.19657944,-0.8102436,0.26576573,-0.50155467,-0.75912553,-0.41824815,0.6380467,0.34808487,0.7039532,-0.1983371,-1.7152525,-1.3367852,2.5228078,1.5915381,-0.9559078,0.7706162,-0.21871884,-1.674195,-1.2746837,2.562546,1.5321261,-0.98833406,-1.4359169,0.58464664,-0.91275364,-1.379493,-0.26868537,0.43863142,0.23689577,0.7072983,-0.4677627,1.5146662,-2.961967,0.29790348,-1.6669037,0.18484497,-0.31583905,0.98985606,0.82579064,-0.11382853,0.17251217,0.52474016,-0.083787136,-0.37933913,-0.5273142,1.0,0.0,0.0,0.0,0.0,0.0,0.0,-1.3572983,0.0677627,-0.9646662,0.09884834,-13.935577,-1.1820674,0.6851196,-24.050179,-0.25202036,-0.52599907
-21.54216,-37.27679,-16.880302,20.811218,2.9195971,-0.67960495,-0.08389722,-0.8123072,0.12680236,-0.46576723,-0.76347214,-0.52542186,0.6435778,0.3864342,0.6893855,-0.20603861,-1.7207718,-1.351031,2.5100038,1.5964838,-0.94969064,0.7562367,-0.21426518,-1.6831691,-1.2884185,2.5582125,1.5365225,-0.9859394,-1.4376644,0.39847368,-0.89298785,-1.3712027,-0.48825547,0.43925485,0.23935671,0.67770386,-0.46478605,1.4972732,-2.9590056,0.29760563,-1.7634232,0.18348694,-0.32008982,0.9843786,0.8292572,-0.10693646,0.17883031,0.5185718,-0.16072105,-0.4416675,-0.5559712,1.0,0.0,0.0,0.0,0.0,0.0,0.0,-1.3277038,0.06478605,-0.9472732,0.10039806,-18.750578,1.7712712,0.9118557,-22.0339,-0.17756224,-0.032642484
-26.515097,-52.255356,-21.926264,20.395462,4.020953,-0.6859945,0.05588605,-0.80702215,-0.060734402,-0.41714162,-0.7677966,-0.5388176,0.65860355,0.40199587,0.6755345,-0.22033863,-1.7248833,-1.3651981,2.5043309,1.6023829,-0.9457398,0.74187434,-0.21220072,-1.6916893,-1.3020942,2.552151,1.5409361,-0.9835018,-1.4339114,0.1418573,-0.8401272,-1.3656199,-0.6456104,0.4410134,0.24447018,0.64813614,-0.46181226,1.4789157,-2.956047,0.2973081,-1.8598461,0.18112183,-0.32511902,0.9786051,0.8326787,-0.09980791,0.18464455,0.5124363,-0.26983678,-0.5235357,-0.58576643,1.0,0.0,0.0,0.0,0.0,0.0,0.0,-1.2981361,0.06181225,-0.9289157,0.9094,-25.83685,4.7922015,0.760746,-15.796316,-0.110298395,0.30589104
-30.265442,-69.49468,-26.054974,18.970726,5.228038,-0.636666,0.379187,-0.7893094,-0.3266215,-0.27222413,-0.7777333,-0.5226795,0.65547234,0.45815942,0.6629434,-0.24486287,-1.7189116,-1.3798676,2.499883,1.6064833,-0.93768585,0.72765315,-0.21349342,-1.6990554,-1.3157718,2.5450404,1.5453612,-0.980965,-1.4154812,-0.22033873,-0.70503366,-1.3672818,-0.73289186,0.4418732,0.25656754,0.6185951,-0.45884132,1.4595947,-2.9530916,0.29701084,-1.9561727,0.17740631,-0.3311093,0.9725197,0.8359451,-0.092486486,0.1891134,0.5068314,-0.4123835,-0.6226313,-0.61746174,1.0,0.0,0.0,0.0,0.0,0.0,0.0,-1.2685951,0.058841318,-0.9095947,2.673459,-36.42988,12.6181965,0.19965172,-8.716595,-0.25502443,1.157701
-29.31713,-75.046234,-25.618137,16.88031,5.6634216,-0.539766,0.6757106,-0.75198,-0.5581583,-0.1518357,-0.7945829,-0.50753856,0.64061284,0.49247178,0.65245515,-0.26930925,-1.714239,-1.39523,2.4942865,1.6094224,-0.9317178,0.71379435,-0.21886642,-1.7046402,-1.3295562,2.5374682,1.5497805,-0.97827756,-1.3726811,-0.6436967,-0.5133335,-1.3803493,-0.76525414,0.4404159,0.2732213,0.5890846,-0.45587325,1.4393113,-2.9501393,0.2967139,-2.0524025,0.17219162,-0.3381076,0.9660912,0.8389304,-0.085044265,0.19156486,0.50226086,-0.56467426,-0.72170913,-0.65272874,1.0,0.0,0.0,0.0,0.0,0.0,0.0,-1.2390846,0.055873245,-0.88931125,5.2733183,-42.555027,18.008781,-0.82211494,-3.1708717,-0.54749846,1.7881334
-15.340773,-51.585606,-12.595712,14.437215,4.4162374,-0.269444,1.0065917,-0.63598377,-0.679918,-0.06313856,-0.81099594,-0.49698794,0.59260815,0.5078819,0.65019596,-0.28685823,-1.710954,-1.4106559,2.4877694,1.6090413,-0.9274894,0.70085394,-0.22815903,-1.7081859,-1.3435485,2.5298235,1.5541502,-0.97541463,-1.2655017,-1.0249553,-0.30477902,-1.4041086,-0.7634752,0.4349788,0.29166022,0.55960464,-0.45290852,1.4180661,-2.9471898,0.29641724,-2.1485364,0.16580582,-0.3458171,0.959318,0.8414323,-0.07760904,0.19186191,0.49915677,-0.6685053,-0.78102934,-0.68754256,1.0,0.0,0.0,0.0,0.0,0.0,0.0,-1.2096046,0.05290851,-0.86806613,11.392546,-38.277317,19.880432,-1.9422293,0.30736923,-0.84890723,2.1351695
-2.9852173,-22.11162,-0.22631907,14.353755,2.9786625,-0.03107208,0.9889224,-0.5556305,-0.7345842,-0.05805995,-0.8095573,-0.45092803,0.5481746,0.48593304,0.6452909,-0.30161744,-1.7139919,-1.4245043,2.4847307,1.6089677,-0.92682135,0.68924963,-0.24044593,-1.7100723,-1.3577507,2.5224307,1.5584418,-0.97239816,-1.1243714,-1.2969189,-0.15207797,-1.4243566,-0.73058,0.4269489,0.30617204,0.5301552,-0.44994664,1.3958604,-2.9442432,0.29612088,-2.244574,0.15877151,-0.3538401,0.95224726,0.8433697,-0.07029112,0.19031282,0.4975617,-0.7205459,-0.8009399,-0.7161663,1.0,0.0,0.0,0.0,0.0,0.0,0.0,-1.1801552,0.049946636,-0.8458604,14.42914,-27.284956,14.632419,-1.704526,3.4057736,-0.9317577,1.789701
-1.1532016,-6.532463,1.8820043,14.752882,2.1691923,-0.17923093,0.58074874,-0.47862506,-0.7706418,-0.2101414,-0.8089367,-0.4310935,0.5308315,0.4826288,0.6413871,-0.3175101,-1.7310864,-1.4386443,2.4793212,1.6115249,-0.92413527,0.67916644,-0.25459218,-1.711663,-1.3720996,2.5154383,1.5626494,-0.9692625,-0.96933836,-1.4541315,-0.1624913,-1.4372456,-0.6889568,0.41859025,0.3168395,0.50073624,-0.44698763,1.3726951,-2.9412994,0.29582483,-2.3405159,0.15136719,-0.3620224,0.9448784,0.84492147,-0.06300195,0.18747249,0.49698332,-0.750727,-0.81425285,-0.7469527,1.0,0.0,0.0,0.0,0.0,0.0,0.0,-1.1507362,0.046987623,-0.8226951,15.612305,-15.801549,-1.3458937,-0.99978447,4.163623,-0.89328885,1.3095677
1.7108448,8.509556,5.037668,15.096513,1.4293797,-0.25907606,0.28993446,-0.39669085,-0.78213227,-0.2953225,-0.81158465,-0.38717705,0.51589155,0.47551095,0.63949734,-0.3328054,-1.7411952,-1.4532582,2.4767206,1.6142385,-0.9217114,0.6706587,-0.26957774,-1.7141807,-1.3865364,2.5089343,1.566775,-0.9660467,-0.81140566,-1.5135847,-0.2817125,-1.4448662,-0.6376087,0.4106241,0.3237723,0.4713478,-0.44403148,1.3485711,-2.9383585,0.29552907,-2.4363616,0.14379501,-0.37027717,0.93720263,0.84627044,-0.055612814,0.18385655,0.49692065,-0.7594545,-0.81892,-0.7781458,1.0,0.0,0.0,0.0,0.0,0.0,0.0,-1.1213478,0.04403147,-0.79857105,15.749311,-6.0125113,-11.975202,-0.51505566,5.062461,-0.7748842,0.8548796
2.9444318,16.102152,5.8995686,14.684701,0.8453665,-0.4238935,0.0767137,-0.28043917,-0.7951946,-0.43015534,-0.80501384,-0.4302312,0.51636064,0.46383336,0.6426148,-0.3490972,-1.7571962,-1.4670378,2.4659111,1.6184111,-0.91966337,0.6638676,-0.28473115,-1.7185886,-1.4009807,2.5027316,1.57083,-0.96278703,-0.63571507,-1.5161303,-0.49310833,-1.4435974,-0.615252,0.4038732,0.32693252,0.44198608,-0.44107842,1.3234893,-2.935421,0.2952336,-2.5321114,0.1362648,-0.3785746,0.9291871,0.8475358,-0.047998454,0.17992257,0.4969979,-0.752976,-0.8231621,-0.8138426,1.0,0.0,0.0,0.0,0.0,0.0,0.0,-1.0919861,0.04107842,-0.7734893,17.360867,-0.32258034,-20.949423,0.33812523,2.111125,-0.65414906,0.38735867
10.510157,27.365112,12.206532,12.974728,-0.034887612,-0.42478722,0.19812867,-0.1379027,-0.8017577,-0.48014498,-0.80691624,-0.47099683,0.5172979,0.44738334,0.65007734,-0.3649069,-1.7666031,-1.4816723,2.455632,1.6225598,-0.9180487,0.65907633,-0.2997191,-1.7250907,-1.4154041,2.496525,1.5748278,-0.95951784,-0.42842013,-1.4931266,-0.7012241,-1.4415325,-0.62247294,0.3986564,0.32707494,0.41265106,-0.43812847,1.2974508,-2.9324863,0.29493845,-2.6277654,0.12902069,-0.38680935,0.9208105,0.8486454,-0.040137514,0.1759825,0.49721232,-0.7147174,-0.81383365,-0.8506665,1.0,0.0,0.0,0.0,0.0,0.0,0.0,-1.062651,0.038128465,-0.74745077,20.28923,2.260065,-20.41557,0.30937195,-0.8056879,-0.47187805,0.061750412
12.896698,31.68053,14.963491,13.512178,-0.3779182,-0.2692793,0.2345054,-0.08127653,-0.8072691,-0.5100889,-0.7934589,-0.5394089,0.53518856,0.4172258,0.6509487,-0.38044602,-1.7760997,-1.49475,2.442584,1.6283467,-0.91779524,0.65617716,-0.31445813,-1.7333229,-1.4297435,2.489979,1.5787951,-0.9562763,-0.24499115,-1.4676561,-0.8628355,-1.4311597,-0.6653463,0.39636368,0.32338908,0.38334656,-0.43518138,1.2704564,-2.9295545,0.29464358,-2.723324,0.12223816,-0.39486957,0.91210353,0.84951884,-0.03210047,0.17223486,0.49761674,-0.6654006,-0.79443264,-0.88298935,1.0,0.0,0.0,0.0,0.0,0.0,0.0,-1.0333465,0.035181373,-0.7204564,17.987024,2.5106192,-15.861118,1.1035919,-4.3558717,-0.16474128,-0.33783913
10.304911,30.281784,13.965387,14.74162,-0.19427288,-0.091584146,0.18555179,-0.078739524,-0.8069372,-0.5327549,-0.79762065,-0.556653,0.54055554,0.39819032,0.6483032,-0.39515185,-1.7865983,-1.5095056,2.4343138,1.6328506,-0.9164573,0.6546122,-0.32898545,-1.7427394,-1.444001,2.4829524,1.582749,-0.95308626,-0.12722611,-1.4479595,-0.9678891,-1.4238169,-0.71527106,0.39520198,0.31754723,0.35407257,-0.43223715,1.2425072,-2.9266255,0.29434898,-2.8187869,0.11587143,-0.40271235,0.90310264,0.85016215,-0.023935996,0.16872792,0.49817902,-0.62532544,-0.7725435,-0.9118665,1.0,0.0,0.0,0.0,0.0,0.0,0.0,-1.0040725,0.032237142,-0.6925072,11.696768,1.9143343,-10.464692,0.8314848,-5.088067,-0.07201433,-0.5618155
2.2523203,22.787079,8.60594,17.037266,0.54945815,0.051825434,-0.0022629946,-0.109758385,-0.8135198,-0.5714146,-0.79552627,-0.54147786,0.5105763,0.35399377,0.64363635,-0.41033745,-1.7998809,-1.5235536,2.4288046,1.6338066,-0.9176869,0.6535994,-0.34341407,-1.7529495,-1.4581935,2.4755442,1.5866705,-0.9499868,-0.091653146,-1.4415041,-1.0394363,-1.4171488,-0.75023323,0.39106238,0.30754715,0.3248291,-0.42929578,1.2136041,-2.9236994,0.2940547,-2.9141543,0.10966873,-0.41039157,0.8938317,0.8506994,-0.015634686,0.16535728,0.4987214,-0.6157247,-0.7583527,-0.9383159,1.0,0.0,0.0,0.0,0.0,0.0,0.0,-0.9748291,0.029295772,-0.6636041,3.8204536,0.5487919,-7.40335,0.8596659,-3.6542654,-0.4103303,-0.9874284
-2.751192,19.603235,6.127013,18.867107,1.0399048,0.2868392,-0.09062956,-0.13727449,-0.8146067,-0.57044506,-0.79453814,-0.5328089,0.52640253,0.3441087,0.63987195,-0.42487475,-1.809994,-1.5376474,2.4222634,1.6393107,-0.9155759,0.652475,-0.3578403,-1.7635677,-1.4723346,2.467911,1.5905634,-0.94698846,-0.11775933,-1.443367,-1.0708784,-1.4121475,-0.7685997,0.38867044,0.29734176,0.29561615,-0.42635727,1.183748,-2.9207761,0.2937607,-3.0094264,0.10341644,-0.41792607,0.8843263,0.8512231,-0.0072235805,0.16199291,0.49912453,-0.62633055,-0.74381286,-0.960746,1.0,0.0,0.0,0.0,0.0,0.0,0.0,-0.9456161,0.026357263,-0.633748,-2.1253972,-0.30579567,-3.5893917,0.7517338,-2.0283818,-0.23805499,-1.0014951
-10.653624,14.79088,1.5567899,21.122059,1.6482971,0.5048721,-0.27284724,-0.22363949,-0.8129408,-0.5830589,-0.79561275,-0.53895545,0.5147338,0.33831373,0.63011104,-0.4391344,-1.8218735,-1.5518959,2.4140155,1.6420368,-0.9131571,0.6505524,-0.37230468,-1.7743633,-1.4864414,2.460152,1.5944258,-0.9440874,-0.2145546,-1.447988,-1.0845608,-1.4091902,-0.77933025,0.38543543,0.28769317,0.26643372,-0.42342186,1.1529398,-2.9178557,0.293467,-3.1046033,0.096847534,-0.4253378,0.8746108,0.85185695,0.0013020412,0.15855524,0.4991976,-0.6643991,-0.73200345,-0.98127663,1.0,0.0,0.0,0.0,0.0,0.0,0.0,-0.9164337,0.023421854,-0.6029398,-8.93248,-0.61597824,-2.0267487,0.6370783,-1.3236761,-0.33580065,-0.960052
-15.193487,11.717195,-1.300303,21.689674,2.0187163,0.5792136,-0.37634525,-0.2663275,-0.8197834,-0.6173034,-0.7978103,-0.52456063,0.48578396,0.28654197,0.62391967,-0.45428303,-1.8360937,-1.5662224,2.4076958,1.6430042,-0.91543317,0.6474949,-0.38684916,-1.7853515,-1.5005405,2.4523737,1.5982367,-0.94131124,-0.3334409,-1.4571964,-1.1058382,-1.4088426,-0.7782799,0.37940082,0.27433518,0.23727417,-0.42048955,1.1211805,-2.9149387,0.29317358,-3.199685,0.089775085,-0.43266416,0.8646734,0.8526995,0.009983149,0.15495689,0.49879077,-0.7188844,-0.72402376,-1.0038365,1.0,0.0,0.0,0.0,0.0,0.0,0.0,-0.88727415,0.020489544,-0.5711805,-11.0732975,-1.09725,-2.834487,0.43272972,-0.17356873,-0.6470978,-1.3291478
-19.933796,8.57999,-4.3093348,22.084892,2.4484577,0.6392339,-0.4586062,-0.34337422,-0.8282206,-0.64526707,-0.8030575,-0.47438318,0.4338495,0.29701927,0.6131575,-0.46967122,-1.8498782,-1.5808462,2.4049354,1.6416216,-0.9116093,0.6431004,-0.4015162,-1.7966373,-1.5146663,2.4447825,1.6019484,-0.9386486,-0.47190517,-1.4706129,-1.1387997,-1.4123366,-0.7539604,0.3681495,0.2635356,0.20814514,-0.4175601,1.0884712,-2.9120245,0.29288048,-3.2946718,0.08203125,-0.43994975,0.85448813,0.85383016,0.018884657,0.1510549,0.49779502,-0.7913304,-0.72061974,-1.0293518,1.0,0.0,0.0,0.0,0.0,0.0,0.0,-0.8581451,0.017560095,-0.53847116,-12.967384,-1.544857,-4.044938,0.11241436,2.1208763,-1.2149572,-1.0631859
-25.65385,7.5165715,-6.7248216,23.980356,2.8455327,0.908224,-0.6043424,-0.47193876,-0.8283815,-0.6461409,-0.7957921,-0.4634224,0.42060143,0.24556282,0.5959065,-0.48435435,-1.8612514,-1.5942456,2.3984404,1.6440085,-0.9140923,0.6370226,-0.4162991,-1.808213,-1.5287902,2.4374697,1.6055437,-0.9361204,-0.6497104,-1.4816362,-1.1665142,-1.4108495,-0.72512263,0.3561255,0.2493714,0.17904663,-0.4146335,1.0548127,-2.9091132,0.29258767,-3.3895636,0.07341766,-0.44718218,0.8440697,0.8553418,0.028008368,0.14678277,0.49604496,-0.88277346,-0.7136442,-1.0518688,1.0,0.0,0.0,0.0,0.0,0.0,0.0,-0.8290466,0.014633507,-0.50481266,-16.772509,-1.3362646,-3.6156654,0.6811619,2.5334477,-1.3106287,-1.4023215
-25.85631,10.442032,-5.308297,24.210627,2.860776,1.1443745,-0.6255642,-0.5508087,-0.83439296,-0.63855493,-0.7957897,-0.423322,0.4111427,0.0947903,0.5819417,-0.4997384,-1.8720685,-1.6083692,2.3951375,1.646658,-0.92664135,0.6291472,-0.43118882,-1.8199489,-1.5428932,2.430527,1.6090208,-0.9338325,-0.83024603,-1.4921827,-1.1789263,-1.4083247,-0.6854015,0.3445466,0.22203906,0.14997864,-0.4117098,1.020206,-2.9062047,0.29229513,-3.4843605,0.06388855,-0.454288,0.83345175,0.85726273,0.037291147,0.1420747,0.49348226,-0.97564465,-0.6979117,-1.0709478,1.0,0.0,0.0,0.0,0.0,0.0,0.0,-0.7999786,0.0117097795,-0.47020596,-17.069172,-1.2938023,-2.0712376,0.79495907,3.6303759,-1.2675524,-2.694869
-26.09696,14.5043545,-3.6082883,24.735188,3.0044966,1.4093118,-0.66131705,-0.65070933,-0.82669795,-0.6366182,-0.7958603,-0.29866505,0.42068577,-0.04074569,0.56407624,-0.5138586,-1.8836107,-1.6224792,2.4006605,1.6510894,-0.9379071,0.61943877,-0.44611764,-1.8317249,-1.5569732,2.4242938,1.6124026,-0.93190324,-1.014551,-1.4939177,-1.17972,-1.405914,-0.6035659,0.33550906,0.18350385,0.12094116,-0.40878892,0.98465204,-2.903299,0.2920029,-3.5790625,0.053398132,-0.46118164,0.82268685,0.85962015,0.046639424,0.13677752,0.49007124,-1.0722917,-0.6735518,-1.0838958,1.0,0.0,0.0,0.0,0.0,0.0,0.0,-0.77094114,0.0087889135,-0.43465203,-17.470837,-0.41770935,-0.8836746,0.7830858,7.848048,-1.0190845,-3.7765412
-22.993948,19.519293,-0.06958914,24.540913,3.221095,1.5688941,-0.62071705,-0.7068068,-0.82930636,-0.62781376,-0.7942608,-0.045631066,0.41289213,-0.2426553,0.5487581,-0.52904826,-1.8945062,-1.6363993,2.4197307,1.6536918,-0.9561688,0.6080891,-0.4610474,-1.8434169,-1.5710285,2.4195635,1.6156985,-0.93048036,-1.1723698,-1.4934145,-1.1682227,-1.4036647,-0.430376,0.32727784,0.12907714,0.091926575,-0.4058709,0.94814384,-2.9003963,0.29171094,-3.6747353,0.04195404,-0.46780348,0.8118465,0.8624311,0.055911347,0.13051243,0.48585275,-1.1680661,-0.644142,-1.0895815,1.0,0.0,0.0,0.0,0.0,0.0,0.0,-0.74192655,0.0058709085,-0.39814383,-14.959598,-0.18069744,0.4632473,0.72402954,17.035973,-0.94667673,-5.281031
-15.5775795,28.672073,7.137534,24.324896,3.0624974,1.8548038,-0.4374726,-0.7446484,-0.8221634,-0.574659,-0.7773367,0.19197993,0.49602094,-0.2683912,0.53362423,-0.54326373,-1.9008828,-1.6487621,2.4387615,1.6653006,-0.9573195,0.5954548,-0.47592568,-1.8547275,-1.5849922,2.4171336,1.6189867,-0.9295801,-1.2917514,-1.4866275,-1.1203902,-1.3928074,-0.18098883,0.32938054,0.07791306,0.062942505,-0.40295577,0.9106796,-2.8974965,0.2914193,-3.7703125,0.02967453,-0.47404528,0.8010616,0.86562115,0.06484541,0.12293142,0.48102272,-1.2475234,-0.6019326,-1.0802083,1.0,0.0,0.0,0.0,0.0,0.0,0.0,-0.7129425,0.0029557645,-0.36067957,-11.32257,0.49288273,4.268098,1.4676571,24.762497,0.15446544,-4.8818455
-8.363475,35.63614,12.384404,22.231115,1.7154086,1.8998139,-0.3334026,-0.7601995,-0.81583315,-0.5814975,-0.75748044,-0.069684245,0.54202265,-0.3561993,0.51943487,-0.557509,-1.9128772,-1.6607403,2.410165,1.673189,-0.9652,0.5819756,-0.49070382,-1.865607,-1.598767,2.4160998,1.6223475,-0.9292072,-1.3653072,-1.4753497,-1.0783328,-1.3713689,-0.0775602,0.3383019,0.024135344,0.033988953,-0.40004396,0.8722603,-2.8945994,0.29112795,-3.8657942,0.016914368,-0.4797666,0.79035515,0.8690151,0.07334728,0.114533484,0.4757257,-1.2858406,-0.5457763,-1.072514,1.0,0.0,0.0,0.0,0.0,0.0,0.0,-0.6839889,4.3958426e-05,-0.32226026,-6.929946,0.9919405,3.834772,2.429247,10.252526,0.9382367,-5.242072
-5.2985444,37.40105,13.5657215,20.051548,0.8217536,1.7743573,-0.29376554,-0.7764686,-0.8116494,-0.61464137,-0.74661934,-0.19892828,0.576097,-0.39348912,0.5043287,-0.5718688,-1.9270712,-1.673429,2.3962069,1.6799572,-0.9685561,0.5680157,-0.50536263,-1.8763168,-1.6123016,2.4152339,1.6258246,-0.9293493,-1.4051805,-1.463034,-1.0694615,-1.3466718,-0.090066284,0.3509631,-0.026800647,0.005065918,-0.39713502,0.8328869,-2.8917053,0.29083687,-3.9611802,0.0039482117,-0.4849112,0.7796607,0.8724786,0.08150013,0.1059573,0.4700125,-1.3000317,-0.48709875,-1.0731952,1.0,0.0,0.0,0.0,0.0,0.0,0.0,-0.6550659,-0.0028649867,-0.28288686,-3.672576,1.1181355,0.6045103,2.7225018,-1.3207406,1.335609,-5.0373545
-3.06177,37.903755,13.822003,17.738205,0.18997884,1.5780938,-0.2607712,-0.775645,-0.8036444,-0.65035343,-0.74006414,-0.29072586,0.58320636,-0.44073555,0.4904512,-0.5857271,-1.9413521,-1.686308,2.3861613,1.6841452,-0.9734229,0.554071,-0.5198778,-1.8877375,-1.6258439,2.4136505,1.6317567,-0.9297715,-1.3555361,-1.4469286,-1.2585717,-1.397673,-0.19895165,1.0651028,-0.02994119,-0.018070221,-0.3958807,0.80928606,-1.2400134,-0.13698034,1.1580739,-0.009178162,-0.48920226,0.7687524,0.8758968,0.08856235,0.09780061,0.46410817,-1.3372246,-0.3464615,-1.1262755,0.0,1.0,0.0,0.0,0.0,0.0,0.0,-0.63192976,-0.004119307,-0.25928605,11.22241,1.7261982,-35.25128,-12.165785,-13.015238,141.66252,4.2519116
83.97724,176.0,110.0,110.0,-5.110152,10.601317,-0.72082675,-0.79278666,0.3353889,0.6730354,0.7573902,-0.39329666,0.63814104,-0.48678136,0.47479233,-0.4863389,-1.820434,-1.5501049,2.3743207,1.6955707,-0.97844964,0.54689556,-0.5327047,-1.9013808,-1.62864,2.404068,1.6506871,-0.92980105,-0.51273096,-1.2269635,-1.388324,0.08815628,-1.2076337,2.1789014,0.0009688195,-0.030460358,-0.39724946,0.82011366,-1.2387736,-0.13684338,1.0576649,-0.020542145,-0.4907074,0.76159257,0.8789916,0.085895896,0.09666444,0.45896807,-1.06656,-0.06933196,-0.5817351,1.0,0.0,0.0,0.0,0.0,0.0,0.0,-0.6195396,-0.0027505457,-0.27011365,81.934044,22.274185,-9.6057415,147.10538,-99.70218,114.371346,1.5599291
22.972158,146.08134,80.30043,102.22761,1.2242587,6.6071734,-0.85906494,-0.7994162,-0.52271456,0.2714799,0.78159004,-0.6272851,0.585852,-0.1784426,0.46695393,-0.5849762,-1.8742328,-1.5504811,2.3413396,1.7092723,-0.9476453,0.5416923,-0.5436319,-1.9109595,-1.6205453,2.3904037,1.6724023,-0.9298964,-0.52205855,-1.0491803,-0.8123114,1.0492336,-1.4221462,2.176391,-0.014356711,-0.04283905,-0.3986168,0.82993793,-1.2375351,-0.13670656,0.9573563,-0.030548096,-0.49037027,0.7594036,0.8821634,0.07672601,0.10017453,0.45372453,-0.9742704,0.07710152,-0.103291765,1.0,0.0,0.0,0.0,0.0,0.0,0.0,-0.6071609,-0.0013832152,-0.27993792,-0.7071018,17.423582,58.255028,95.97011,-22.252893,1.9655704,-1.9298365
-8.423481,116.73631,49.34212,79.04725,2.5650737,4.2597275,-1.0240371,-0.76512116,-0.34280047,-0.08583939,0.7239758,-0.6540991,0.6107961,0.28650555,0.4651802,-0.577912,-1.9195434,-1.5481477,2.3249938,1.7334819,-0.90124583,0.5348173,-0.5523828,-1.91593,-1.6059121,2.376194,1.692706,-0.929823,-0.73946613,-0.818377,-0.3937905,1.6020511,-1.4228183,1.9865512,0.014117568,-0.055202484,-0.39998293,0.8387599,-1.2362978,-0.13656989,0.85714793,-0.04024124,-0.48885798,0.7608099,0.8856019,0.064592816,0.10587159,0.4475804,-0.96650535,0.18103725,0.21449675,1.0,0.0,0.0,0.0,0.0,0.0,0.0,-0.5947975,-1.707673e-05,-0.2887599,-20.773243,22.690403,41.311626,55.534767,-0.8208513,-17.533184,2.7174017
-29.913166,75.503365,19.911537,53.4386,3.2503028,2.3078725,-1.0273683,-0.7704628,-0.31896558,-0.16592278,0.78703713,-0.66654354,0.55902976,0.20726557,0.457771,-0.58427936,-1.9325223,-1.5272083,2.3095396,1.748609,-0.9090964,0.5252214,-0.55920637,-1.9181731,-1.588313,2.3628235,1.7107514,-0.9295092,-1.0300561,-0.6378442,-0.17056568,1.8134078,-1.3095046,1.7466979,0.037218597,-0.06755829,-0.40134764,0.8465805,-1.2350618,-0.13643335,0.7570398,-0.05033493,-0.48662114,0.7641395,0.8893634,0.051809266,0.11243221,0.44012198,-1.0215923,0.24347372,0.36473244,1.0,0.0,0.0,0.0,0.0,0.0,0.0,-0.5824417,0.0013476312,-0.2965805,-28.173233,17.7953,21.484247,21.422148,11.03878,-23.112345,2.3286622
-39.40525,35.364323,-3.818942,30.229443,3.1430774,0.5462558,-0.88685364,-0.7819411,-0.3272503,-0.29141554,0.78343385,-0.6684972,0.5829974,0.18992978,0.4470273,-0.5919314,-1.9473146,-1.5099696,2.2959738,1.7690512,-0.91051626,0.5130878,-0.56482637,-1.9199736,-1.5703381,2.3507118,1.7265424,-0.9289933,-1.2726746,-0.5371738,-0.18557392,1.7927412,-1.1776901,1.5248826,0.056400936,-0.079898834,-0.4027109,0.85340077,-1.233827,-0.13629694,0.6570317,-0.06121826,-0.48411894,0.76786786,0.8934517,0.04004024,0.118982725,0.4312586,-1.109308,0.2596964,0.3685902,1.0,0.0,0.0,0.0,0.0,0.0,0.0,-0.57010114,0.0027109087,-0.30340075,-23.713398,9.957981,-2.1904678,-1.8718958,13.287234,-21.721458,1.9407406
-35.44817,11.461117,-13.382286,15.167043,2.518545,-0.5600358,-0.58424467,-0.7792474,-0.3483249,-0.34559712,0.7841972,-0.6628252,0.5822175,0.16054504,0.43516308,-0.59965885,-1.9545333,-1.4919184,2.2844293,1.784764,-0.9129388,0.49924237,-0.57004106,-1.9228842,-1.5533494,2.3397636,1.7403401,-0.92833334,-1.4208212,-0.5163584,-0.32751852,1.6680971,-1.066506,1.3321737,0.06922865,-0.092227936,-0.40407276,0.8592217,-1.2325934,-0.13616067,0.55712366,-0.07295227,-0.48170233,0.77102214,0.8977894,0.030145524,0.1250453,0.42122334,-1.1934824,0.24433857,0.2920253,1.0,0.0,0.0,0.0,0.0,0.0,0.0,-0.55777204,0.0040727556,-0.30922168,-14.510965,2.0507336,-14.64594,-12.334394,11.283731,-19.060253,1.2886331
-23.127602,8.64229,-9.6234665,9.03194,1.620319,-0.88916063,-0.2507172,-0.7759213,-0.34921876,-0.33843464,0.7910005,-0.6642869,0.5853972,0.10725068,0.42165023,-0.60496294,-1.9567277,-1.4742494,2.273335,1.7988799,-0.91760826,0.48458964,-0.57536733,-1.9272845,-1.5376748,2.3296509,1.752446,-0.9276076,-1.4795849,-0.5381444,-0.47826692,1.5342128,-0.9925779,1.170538,0.07367436,-0.10454559,-0.40543342,0.8640413,-1.231361,-0.13602453,0.4569218,-0.085292816,-0.47949982,0.7732903,0.90222925,0.02220836,0.13051037,0.41043392,-1.2463541,0.22188844,0.20037942,1.0,0.0,0.0,0.0,0.0,0.0,0.0,-0.5454544,0.0054334104,-0.31404132,-5.724883,-2.2004604,-15.306658,-13.293195,7.416582,-16.041994,0.42086244
-16.079607,8.108557,-6.2578983,8.448148,1.3273561,-0.9101082,-0.09774846,-0.78248274,-0.38126087,-0.3768363,0.794884,-0.6512311,0.56953776,0.06736287,0.40634137,-0.61349344,-1.9649681,-1.4581864,2.2645278,1.8093998,-0.9208713,0.46976572,-0.58116853,-1.9330752,-1.5230607,2.3200684,1.7631329,-0.9268809,-1.4829584,-0.5941676,-0.6130767,1.437493,-0.9467288,1.0348788,0.07224226,-0.11684799,-0.40679264,0.8678597,-1.23013,-0.13588855,0.35682002,-0.09807205,-0.4775386,0.7746837,0.90667737,0.015962854,0.13538836,0.39918816,-1.2858069,0.19786017,0.11506284,1.0,0.0,0.0,0.0,0.0,0.0,0.0,-0.533152,0.0067926347,-0.3178597,-0.22861958,-5.6260824,-13.604951,-9.555125,4.537344,-13.486147,-0.15733391
-5.075608,17.967194,3.178846,9.776377,0.8132548,-0.62091285,0.12091997,-0.7640055,-0.40328294,-0.33681816,0.7914818,-0.6441917,0.5813451,0.03863069,0.39336517,-0.6214968,-1.966757,-1.4439125,2.255649,1.8212675,-0.9230178,0.4552017,-0.5876049,-1.9396269,-1.5090855,2.3107872,1.7726506,-0.92619807,-1.4474951,-0.6602686,-0.6691121,1.3843057,-0.92276204,0.92446697,0.0669681,-0.12914276,-0.40815043,0.8706778,-1.2289001,-0.13575268,0.25681835,-0.11101532,-0.47573352,0.7754269,0.91101456,0.010919811,0.1397655,0.38781267,-1.2948736,0.18524152,0.057077803,1.0,0.0,0.0,0.0,0.0,0.0,0.0,-0.5208572,0.0081504285,-0.32067782,3.5581112,-6.6555142,-5.565369,-5.2361965,2.2197008,-10.929644,-0.547567
-3.0147138,20.481815,5.9812927,11.841002,0.8843259,-0.39888453,0.14462665,-0.76380867,-0.45179683,-0.34841156,0.78695303,-0.6323838,0.5882853,-0.0023220377,0.3788208,-0.63278455,-1.9744681,-1.4303902,2.2475488,1.8314791,-0.9264303,0.4410382,-0.5948061,-1.9464266,-1.495385,2.3016663,1.7812184,-0.92559725,-1.4059442,-0.7401927,-0.6833226,1.3656343,-0.9091593,0.8346707,0.057789784,-0.14142227,-0.40950704,0.87249666,-1.2276714,-0.13561696,0.1569167,-0.12403107,-0.4740088,0.7757005,0.91519654,0.006672029,0.14369164,0.37646163,-1.3012778,0.1788135,0.014050569,1.0,0.0,0.0,0.0,0.0,0.0,0.0,-0.5085777,0.00950703,-0.32249665,4.1640043,-8.050287,-1.3422132,-1.7621517,1.1604548,-8.866798,-0.9161376
-1.555937,25.12902,8.644312,13.441328,0.84587646,-0.19973892,0.15609051,-0.7514571,-0.47673187,-0.35086524,0.7810194,-0.6311354,0.58802396,0.008880947,0.36589247,-0.64247924,-1.9815131,-1.417283,2.2385528,1.8400208,-0.92470914,0.42727953,-0.60275686,-1.9531786,-1.4817303,2.2926178,1.7890118,-0.9250756,-1.3658394,-0.8136363,-0.6721762,1.3656526,-0.90372014,0.76136214,0.050306663,-0.15369034,-0.4108622,0.87331724,-1.226444,-0.13548137,0.05711491,-0.13706207,-0.47229075,0.77563614,0.9192085,0.0029563203,0.14724627,0.36519232,-1.3022554,0.17986815,-0.016789109,1.0,0.0,0.0,0.0,0.0,0.0,0.0,-0.49630964,0.010862201,-0.32331723,4.012227,-7.419002,1.2194633,0.10988712,0.32297373,-7.2064996,-0.748945
-0.48358774,30.991926,11.206171,15.043073,0.77040446,-0.017265618,0.12665112,-0.7345149,-0.4920634,-0.34260553,0.7874701,-0.6397736,0.60242516,-0.037052546,0.35382804,-0.6519632,-1.9874392,-1.4029833,2.2286406,1.8492544,-0.92878085,0.41389567,-0.6113142,-1.9597151,-1.4679745,2.2835655,1.7961835,-0.924655,-1.329212,-0.8700677,-0.64703995,1.3792495,-0.90642625,0.70297915,0.039209064,-0.16594696,-0.41221595,0.8731406,-1.2252178,-0.13534592,-0.042587094,-0.15005493,-0.47050452,0.77535075,0.92304534,-0.00040787554,0.15055868,0.3540043,-1.2964694,0.1884244,-0.03610119,1.0,0.0,0.0,0.0,0.0,0.0,0.0,-0.48405302,0.012215942,-0.32314056,3.659606,-5.7356,2.6340008,1.4609575,-0.51084757,-5.6972623,-1.1255755
-1.5252936,29.590933,10.148408,14.514875,0.7972365,-0.008806229,0.12606505,-0.7177878,-0.539705,-0.3465544,0.77725434,-0.64828765,0.61476725,-0.0225271,0.3421169,-0.6652847,-1.9943706,-1.3902491,2.2187366,1.8576602,-0.9269077,0.40085083,-0.6204618,-1.9660323,-1.4541177,2.2744446,1.8028611,-0.924326,-1.2961867,-0.9300251,-0.62619257,1.3882447,-0.91438645,0.6565802,0.030747522,-0.17818832,-0.4135685,0.8719676,-1.2239928,-0.1352106,-0.14218941,-0.16301346,-0.4686284,0.77483875,0.9267121,-0.0034747412,0.15366836,0.3428975,-1.2939044,0.19725929,-0.05999795,1.0,0.0,0.0,0.0,0.0,0.0,0.0,-0.47181165,0.013568491,-0.3219676,3.3105373,-6.087005,2.1906018,1.0188103,-1.0174394,-4.5093536,-0.8530922
-3.8292446,27.088345,8.219933,14.02872,0.91127765,-0.008954287,0.08898962,-0.7103814,-0.58086455,-0.3473694,0.7715331,-0.64650625,0.6207007,-0.050796572,0.3298127,-0.6785483,-2.0007691,-1.3769643,2.209794,1.8649311,-0.9294057,0.38807446,-0.63024366,-1.9722025,-1.4402226,2.265255,1.8091439,-0.92409235,-1.2713885,-0.9944581,-0.61374354,1.3904201,-0.92124456,0.61930805,0.021015907,-0.19042206,-0.4149196,0.8697994,-1.2227691,-0.13507542,-0.24169216,-0.1760025,-0.46666193,0.7740408,0.9302345,-0.0062419856,0.15654579,0.3318405,-1.2985632,0.20630977,-0.090254076,1.0,0.0,0.0,0.0,0.0,0.0,0.0,-0.45957792,0.014919609,-0.31979936,2.5139093,-6.532812,1.31675,0.36611557,-0.8784652,-3.6150932,-0.96454585
2.3482237,26.240107,9.835976,10.68757,0.54429734,-0.19150847,0.25406748,-0.6393146,-0.6347095,-0.3324451,0.7610822,-0.65886843,0.634507,0.0017014774,0.324143,-0.6937146,-2.0054471,-1.3641144,2.1993682,1.8725946,-0.9239222,0.37578493,-0.64076555,-1.9782317,-1.4263829,2.25597,1.8151158,-0.92390543,-1.2149398,-1.0717361,-0.598775,1.3821505,-0.93133336,0.59024173,0.01785356,-0.20264053,-0.4162693,0.8666369,-1.2215466,-0.13494037,-0.34109542,-0.18893814,-0.4646597,0.7728789,0.9335744,-0.008726518,0.15913418,0.32099682,-1.2905854,0.2077803,-0.1289249,1.0,0.0,0.0,0.0,0.0,0.0,0.0,-0.44735944,0.016269296,-0.31663686,5.588889,-7.8028917,1.6562343,-0.71599483,-1.2217402,-2.8049707,-0.30290818
3.7771597,18.985407,6.582303,7.242956,0.40835863,-0.5422015,0.29004425,-0.57349706,-0.69166535,-0.40983632,0.75300044,-0.66710824,0.6336861,0.05131961,0.31843522,-0.7099321,-2.0192153,-1.3510828,2.1892593,1.8784844,-0.9187735,0.36429602,-0.65216005,-1.9845107,-1.4126729,2.2465782,1.820836,-0.92370325,-1.127221,-1.1622084,-0.63711977,1.3676357,-0.9422002,0.5661428,0.021085456,-0.21484756,-0.41761756,0.8624895,-1.2203254,-0.13480546,-0.43927607,-0.20183182,-0.46274757,0.7711849,0.9367316,-0.010808587,0.16136304,0.3104497,-1.2869622,0.19493878,-0.18724021,1.0,0.0,0.0,0.0,0.0,0.0,0.0,-0.4351524,0.017617553,-0.3124895,8.668876,-9.102011,-3.654778,-1.3266802,-1.2389541,-2.3572087,0.34943038
5.8652225,15.518297,4.3728914,4.588194,0.21233448,-0.8950257,0.28853285,-0.49090648,-0.72256434,-0.51510125,0.7448637,-0.6573107,0.6296564,0.08990931,0.31520537,-0.7244165,-2.0360208,-1.3381865,2.1808472,1.8838016,-0.9147123,0.35394055,-0.66441,-1.9917014,-1.3991326,2.2371292,1.8263425,-0.9234362,-1.00552,-1.2460133,-0.7459406,1.3500162,-0.945899,0.5455197,0.028696895,-0.22704315,-0.41896462,0.8573611,-1.2191052,-0.13467067,-0.5373586,-0.21469116,-0.46106172,0.7687916,0.9397322,-0.012282686,0.16321671,0.30018792,-1.2841755,0.16866413,-0.26131287,1.0,0.0,0.0,0.0,0.0,0.0,0.0,-0.42295682,0.018964618,-0.30736107,12.00738,-8.427739,-10.676634,-1.632905,-0.4630804,-2.0586967,0.7778436
10.555119,15.942394,5.084615,1.9616072,-0.14120933,-1.0924871,0.3393247,-0.407534,-0.75896454,-0.57239985,0.723567,-0.66084063,0.64575666,0.04994546,0.31318715,-0.74030644,-2.0489414,-1.3267759,2.171045,1.8909181,-0.91844165,0.34497887,-0.6774391,-2.0001814,-1.3858346,2.2276535,1.8316811,-0.9231253,-0.86046946,-1.3220454,-0.88128597,1.3233947,-0.9479765,0.52970374,0.031913307,-0.23922348,-0.42031026,0.85125256,-1.2178863,-0.13453603,-0.635343,-0.22745514,-0.45969772,0.7656,0.9425797,-0.013027493,0.16471018,0.2902485,-1.271766,0.1339676,-0.3434747,1.0,0.0,0.0,0.0,0.0,0.0,0.0,-0.4107765,0.020310253,-0.30125254,14.26878,-7.6523542,-13.27504,-2.5565147,-0.29569864,-1.612997,0.32380706
16.6807,23.29531,9.52539,1.1980734,-0.48601067,-1.0716085,0.4356827,-0.33482882,-0.78163546,-0.5852482,0.70301723,-0.65669787,0.65038013,0.043255523,0.311496,-0.75560266,-2.0587063,-1.3155328,2.1619837,1.8967191,-0.91879976,0.33750778,-0.69111097,-2.0098326,-1.372857,2.2181816,1.8368863,-0.9227963,-0.71025455,-1.382496,-0.99206495,1.2893659,-0.9474249,0.51727253,0.033282544,-0.25139618,-0.4216547,0.84415174,-1.2166687,-0.13440153,-0.73498696,-0.23996735,-0.45867968,0.7616429,0.9452463,-0.013085589,0.16587882,0.28075334,-1.2413524,0.09877075,-0.4186486,1.0,0.0,0.0,0.0,0.0,0.0,0.0,-0.3986038,0.021654695,-0.29415172,14.724863,-6.1130524,-10.750187,-3.348112,-0.09499788,-1.2837172,0.116775185
16.249943,28.918903,11.373841,2.5583472,-0.5291537,-0.901762,0.43089575,-0.29616013,-0.7958019,-0.62166214,0.68834764,-0.67494535,0.6475205,0.075761884,0.3078918,-0.77069116,-2.0719988,-1.3040222,2.150687,1.9016384,-0.91522014,0.3313561,-0.7052511,-2.0204222,-1.3602246,2.208664,1.8419827,-0.92243487,-0.5843003,-1.4247743,-1.0806702,1.2546302,-0.953766,0.506904,0.03702334,-0.26355362,-0.4229977,0.8360552,-1.2154523,-0.13426715,-0.8345313,-0.2521286,-0.4579594,0.7570113,0.9477191,-0.012519024,0.166821,0.2717399,-1.2060884,0.07001121,-0.48396778,1.0,0.0,0.0,0.0,0.0,0.0,0.0,-0.38644636,0.022997707,-0.2860552,12.334466,-4.3201923,-8.552742,-3.420806,-0.8175254,-1.0795116,0.3334254
25.836052,38.28874,17.486849,1.0903497,-1.0368645,-0.9214926,0.55811536,-0.18404442,-0.79980224,-0.6419958,0.6592748,-0.6723211,0.63830096,0.01953991,0.31295165,-0.78523135,-2.084622,-1.2942971,2.1414318,1.9058129,-0.92048085,0.32659394,-0.719664,-2.0316832,-1.3479966,2.199089,1.8469819,-0.922082,-0.4413315,-1.4471569,-1.1399935,1.2119519,-0.960037,0.4974335,0.03443333,-0.27569962,-0.4243393,0.82696396,-1.2142371,-0.13413292,-0.9339761,-0.26376343,-0.45755053,0.75181246,0.94995856,-0.011423795,0.16761857,0.26334816,-1.1445454,0.037260655,-0.5380295,1.0,0.0,0.0,0.0,0.0,0.0,0.0,-0.37430036,0.024339288,-0.27696395,13.947439,-2.3406267,-5.5247307,-4.314089,-0.8974433,-0.99626184,-0.3392905
35.37151,44.709747,22.569437,-0.99223137,-1.4405501,-1.0173845,0.7172555,-0.081307136,-0.81096804,-0.6481479,0.6216099,-0.64566594,0.6032297,0.05932333,0.31846324,-0.8007608,-2.096498,-1.2858356,2.1345224,1.9073049,-0.9161497,0.3233934,-0.7342304,-2.043318,-1.3362855,2.1895332,1.8518704,-0.9217301,-0.28107324,-1.4601456,-1.1695347,1.1570233,-0.9550817,0.485735,0.035151217,-0.28783417,-0.42567968,0.8168791,-1.2130231,-0.13399881,-1.0333216,-0.27461624,-0.45752025,0.7461296,0.95192105,-0.009909496,0.16825852,0.2558067,-1.0620872,-0.0032429707,-0.58452183,1.0,0.0,0.0,0.0,0.0,0.0,0.0,-0.3621658,0.025679678,-0.26687908,15.602409,-1.4028311,-2.4684906,-5.6186438,0.15382767,-1.2444258,-0.02264604
26.854807,45.75533,20.27287,3.2826405,-0.91461694,-0.8338958,0.52548057,-0.07209071,-0.81270057,-0.6830214,0.62959635,-0.6601684,0.5759754,0.03365183,0.31618434,-0.81550044,-2.1116202,-1.2733258,2.1235163,1.9094679,-0.91836494,0.32147986,-0.74886453,-2.055239,-1.3249768,2.1799965,1.8566312,-0.92138964,-0.16238162,-1.4649032,-1.1983865,1.1220465,-0.95408624,0.472616,0.033372004,-0.29995346,-0.42701864,0.80580145,-1.2118104,-0.13386485,-1.1325676,-0.2847824,-0.45781493,0.7400527,0.953651,-0.008021945,0.16879979,0.24898183,-0.9978245,-0.034094978,-0.6215275,1.0,0.0,0.0,0.0,0.0,0.0,0.0,-0.35004652,0.027018636,-0.25580144,11.57656,-0.6030321,-2.5008678,-3.5431147,-0.21734238,-1.3927996,-0.26772693
27.200924,49.694107,21.792772,5.0418515,-0.7461106,-0.7652707,0.47029108,0.0045991233,-0.8117418,-0.6802476,0.6249678,-0.6356084,0.5752175,-0.0020864052,0.32193977,-0.8300387,-2.1232638,-1.26248,2.1164358,1.9141529,-0.92159826,0.32070404,-0.7635025,-2.0673354,-1.3139027,2.1705399,1.8612717,-0.921094,-0.050220292,-1.4638035,-1.2123681,1.1022793,-0.9440162,0.46087468,0.027977496,-0.31206512,-0.4283564,0.7937321,-1.2105988,-0.13373101,-1.2317145,-0.29431152,-0.45839357,0.7336891,0.95518225,-0.0058667436,0.16928051,0.24276836,-0.9342418,-0.062636495,-0.6474434,1.0,0.0,0.0,0.0,0.0,0.0,0.0,-0.33793485,0.028356403,-0.2437321,10.9433365,-0.028848648,-1.0086775,-2.0212412,0.66883564,-1.265192,-0.6277066
6.877716,41.907494,12.902973,9.410576,0.16965938,-0.46274826,0.11540514,-0.059913393,-0.8242055,-0.7203927,0.5857705,-0.6455229,0.5300728,-0.22794467,0.3147127,-0.845923,-2.1393747,-1.2553257,2.1059875,1.914279,-0.9438885,0.32042032,-0.77817,-2.0796988,-1.3030957,2.1611557,1.8657731,-0.9210196,-0.021259362,-1.4682403,-1.2435399,1.073695,-0.93748116,0.44644907,0.00036086544,-0.32416153,-0.42969275,0.7806721,-1.2093885,-0.13359731,-1.3307621,-0.30353165,-0.4591055,0.7269999,0.9566273,-0.0033517524,0.16968492,0.23676996,-0.9121742,-0.071437135,-0.6820266,0.0,1.0,0.0,0.0,0.0,0.0,0.0,-0.32583845,0.02969274,-0.23067206,2.839921,-0.5941391,-2.9390574,-2.7436018,0.41230917,-1.5297472,-2.8232741
-30.497662,36.39415,0.68812627,20.425396,1.9520415,0.37438503,-0.39630634,-0.24247386,-0.81534034,-0.72401273,0.57934994,-0.6256691,0.511032,-0.19591026,0.29617295,-0.859704,-2.1521,-1.2451607,2.0985887,1.9168763,-0.94061065,0.31928927,-0.7928413,-2.0923598,-1.2925328,2.1518822,1.8701314,-0.9211913,-0.14272086,-1.4674009,-1.273799,1.0517058,-0.92431337,0.43234918,-0.023168946,-0.3362465,-0.43102765,0.76662225,-1.2081794,-0.13346374,-1.4297109,-0.31303406,-0.4595363,0.7200006,0.95814735,-0.0003724349,0.17001387,0.23032296,-0.95866185,-0.031174423,-0.71165675,0.0,1.0,0.0,0.0,0.0,0.0,0.0,-0.3137535,0.031027645,-0.21662223,-11.852397,-0.10621548,-3.1448364,-1.8445492,1.169002,-1.4436245,-2.3875208
-17.997877,42.724537,6.88053,17.553823,1.5441113,0.29950508,-0.17159924,-0.14327537,-0.8194122,-0.68906426,0.56436825,-0.5550894,0.5072865,-0.09675722,0.30496174,-0.87478256,-2.1612663,-1.236096,2.0963733,1.92086,-0.930867,0.3172906,-0.8075166,-2.1051493,-1.2822444,2.14299,1.8744062,-0.92151713,-0.21316786,-1.4684849,-1.3031948,1.0077116,-0.8369508,0.4517814,-0.031515136,-0.34809875,-0.4315734,0.754697,-0.96413964,0.11151715,-0.19361602,-0.3228264,-0.45963025,0.71273994,0.95973325,0.0029302833,0.17014638,0.2235029,-0.987567,0.0025565536,-0.7448293,0.0,1.0,0.0,0.0,0.0,0.0,0.0,-0.30190122,0.031573385,-0.20469701,-6.1271935,-0.33957958,-6.091714,-6.243825,13.386906,5.1031885,-0.6575141
-37.518986,59.099155,9.793679,32.31272,3.2725987,1.3272436,-0.5412116,-0.33811456,-0.8036734,-0.5055909,0.6910199,-0.47768143,0.5278901,-0.01725498,0.28347915,-0.8878839,-2.1557083,-1.2131424,2.095222,1.9271952,-0.9232426,0.3138855,-0.8221297,-2.1172266,-1.2716854,2.1351204,1.8788656,-0.92182136,-0.38190213,-1.459716,-1.1756911,1.0732193,-0.7715575,0.4439835,-0.029989894,-0.35773087,-0.43045902,0.75201017,-0.9631757,0.11140566,-0.29370165,-0.33314133,-0.45902705,0.7056365,0.96143794,0.0058527985,0.16998619,0.21611923,-1.0405272,0.08315711,-0.70431757,0.0,1.0,0.0,0.0,0.0,0.0,0.0,-0.2922691,0.030459017,-0.20201015,-16.572922,0.63414574,12.77914,6.88591,6.2080264,-0.75044036,0.17512143
-23.795153,71.17511,18.928675,31.268044,2.923353,1.422756,-0.35332578,-0.3294654,-0.80168414,-0.38539547,0.69185656,-0.43713662,0.5507758,-0.009126725,0.28093898,-0.90229815,-2.1557662,-1.2024997,2.0914068,1.9339432,-0.922734,0.3090561,-0.8366437,-2.1274233,-1.2604015,2.1279373,1.8832754,-0.92208743,-0.51607335,-1.4493792,-0.9672395,1.1476007,-0.7015531,0.44002837,-0.025335725,-0.36735535,-0.42934585,0.7483232,-0.96221274,0.11129428,-0.39368716,-0.34375,-0.45765615,0.69911903,0.9631935,0.007955105,0.16971348,0.2083084,-1.0625303,0.15950945,-0.6395195,0.0,1.0,0.0,0.0,0.0,0.0,0.0,-0.28264463,0.02934584,-0.19832319,-13.23781,0.80935955,21.007656,7.6478243,6.5773726,-0.32699704,0.49643293
4.9338837,75.76224,28.214045,20.84077,1.401639,0.90859175,0.14018138,-0.26435295,-0.804946,-0.29798034,0.6294261,-0.41521144,0.5105117,0.043901347,0.28262082,-0.9171383,-2.1572213,-1.1974589,2.0864162,1.9343265,-0.9176973,0.30354816,-0.8510833,-2.1353045,-1.2487457,2.1213036,1.8875955,-0.92227054,-0.5624956,-1.4427495,-0.7273447,1.17149,-0.6523408,0.42960143,-0.016051764,-0.3769722,-0.42823362,0.74363714,-0.9612507,0.11118301,-0.4935728,-0.35414124,-0.4557972,0.69319,0.96488166,0.009110802,0.16927242,0.20066679,-1.0277395,0.19951509,-0.5824149,0.0,1.0,0.0,0.0,0.0,0.0,0.0,-0.27302778,0.028233618,-0.19363713,-4.680431,0.48856735,24.327087,2.3991108,4.4061065,-0.9583652,0.9176098
3.992867,61.154667,20.725143,14.701147,0.92087924,0.40865916,0.18998545,-0.31010944,-0.8141672,-0.3651671,0.59226704,-0.39909998,0.4754903,0.048080854,0.2725372,-0.9325,-2.171821,-1.1895189,2.0813935,1.9351445,-0.91746247,0.29773647,-0.8655238,-2.1416025,-1.2372139,2.1150742,1.8917879,-0.9223621,-0.5874712,-1.4450262,-0.59654444,1.1473765,-0.6143885,0.415939,-0.0067992336,-0.3865776,-0.4271226,0.73795295,-0.96028966,0.11107185,-0.5933585,-0.3642578,-0.4536729,0.68750095,0.96648806,0.009749266,0.16858575,0.19335054,-1.0012662,0.22150525,-0.56909794,0.0,1.0,0.0,0.0,0.0,0.0,0.0,-0.26342237,0.027122587,-0.18795294,-2.5167584,-0.36993027,13.29186,-2.3422241,3.4345746,-1.3222873,0.9248483
1.461992,55.410553,16.63342,13.411766,0.7850163,0.16733935,0.16710663,-0.32775274,-0.8082561,-0.3499124,0.609816,-0.3939822,0.45818904,0.12573084,0.26496118,-0.94634944,-2.1765938,-1.1762322,2.075676,1.9376068,-0.909789,0.29177123,-0.87997866,-2.14713,-1.2259357,2.109127,1.8958391,-0.92231154,-0.5995594,-1.4460999,-0.53789437,1.1216407,-0.5888262,0.40161976,0.009031191,-0.39617157,-0.42601275,0.7312716,-0.95932955,0.1109608,-0.6930444,-0.37415314,-0.4513793,0.6818111,0.9680244,0.010254221,0.16768709,0.18629166,-0.98266506,0.23656654,-0.57350045,0.0,1.0,0.0,0.0,0.0,0.0,0.0,-0.2538284,0.026012748,-0.18127161,-1.2117028,-0.23880005,6.014025,-2.461934,2.2916675,-1.4055192,1.5827649
-6.430436,48.745754,10.821238,14.089547,0.84216714,0.022207528,0.06303451,-0.34577203,-0.80928516,-0.38834393,0.62534326,-0.4295286,0.4565175,0.18493849,0.25719404,-0.96090716,-2.1859643,-1.1634014,2.0661743,1.9414909,-0.9038177,0.28568298,-0.89444876,-2.1526728,-1.2148044,2.1032524,1.8997587,-0.9220674,-0.6118198,-1.4477524,-0.55949724,1.1107299,-0.587693,0.3886764,0.029520372,-0.4057579,-0.42490387,0.7235942,-0.9583704,0.11084986,-0.7926307,-0.38399887,-0.44893765,0.6759469,0.96950096,0.0109743485,0.16671441,0.17931423,-0.98048216,0.25131804,-0.5950765,0.0,1.0,0.0,0.0,0.0,0.0,0.0,-0.24424207,0.024903864,-0.17359418,-1.1831522,-0.2937317,-2.0932794,-0.90146065,-0.03914833,-1.2926936,2.0529854
-2.8014421,49.142365,11.469188,12.7192335,0.5893381,-0.07925668,0.11782495,-0.32700926,-0.80866134,-0.3688051,0.6146931,-0.433115,0.44970438,0.22200727,0.25298205,-0.9753149,-2.1895533,-1.1533351,2.0599408,1.9447291,-0.8998667,0.27959853,-0.9089284,-2.1585436,-1.2037685,2.0973167,1.9035581,-0.9216068,-0.6072984,-1.4485092,-0.5954853,1.1018568,-0.59600633,0.37688944,0.051537987,-0.4153366,-0.42379618,0.7149217,-0.9574122,0.11073903,-0.8921174,-0.3937683,-0.44639492,0.6698426,0.9709038,0.012049115,0.16575006,0.17241646,-0.97153705,0.2597955,-0.6196446,0.0,1.0,0.0,0.0,0.0,0.0,0.0,-0.23466337,0.023796171,-0.1649217,0.46316385,-0.20353794,-3.4947872,-0.7162094,-0.99487305,-1.1918485,2.18777
-4.5517187,41.374023,7.453619,9.330413,0.44397962,-0.26084942,0.13329959,-0.3352909,-0.8163951,-0.44704765,0.54710114,-0.37650844,0.3745056,0.20073715,0.24606945,-0.9905679,-2.2032483,-1.1490583,2.059666,1.9410087,-0.90153307,0.2735532,-0.92344713,-2.1651354,-1.1930969,2.0914574,1.9071935,-0.92096114,-0.60356784,-1.4534782,-0.6803793,1.0561404,-0.5831647,0.3589439,0.068802685,-0.42490387,-0.42268968,0.7052551,-0.95645493,0.110628314,-0.9915046,-0.40349197,-0.44380212,0.6633209,0.9722531,0.013693249,0.16465859,0.16560203,-0.9689627,0.263662,-0.66723716,0.0,1.0,0.0,0.0,0.0,0.0,0.0,-0.2250961,0.02268967,-0.15525508,0.39207935,-0.6158829,-8.439708,-4.374385,1.1740685,-1.856792,1.7224692
-14.601295,41.948215,5.299117,12.770937,0.9965781,-0.045697868,0.0053075626,-0.3885243,-0.8186198,-0.45299387,0.56123346,-0.34721383,0.3111839,0.2744844,0.23470077,-1.0053091,-2.2104347,-1.1369735,2.056736,1.9383119,-0.8935127,0.26730582,-0.9380259,-2.1725645,-1.1828133,2.0858984,1.9106421,-0.92009896,-0.63092834,-1.4597994,-0.76699275,1.0182256,-0.5418673,0.34210786,0.093145974,-0.43408203,-0.42138267,0.69628954,-0.875063,0.15121074,-0.737685,-0.41333008,-0.44105363,0.65634793,0.9735874,0.015940007,0.16332532,0.15873948,-0.9848045,0.28335902,-0.71246517,0.0,1.0,0.0,0.0,0.0,0.0,0.0,-0.21591794,0.02138266,-0.14628953,-2.5715709,-0.7687092,-9.187281,-3.7634373,5.6305885,-1.1061668,2.8457494
-15.608866,52.02699,9.404932,16.896992,1.4677675,0.2595753,-0.08960833,-0.4028913,-0.8119021,-0.40075192,0.59607834,-0.2938804,0.32657817,0.28060544,0.22701669,-1.0192161,-2.2126398,-1.1232054,2.0565104,1.9433,-0.8920384,0.26070118,-0.95262665,-2.180393,-1.172634,2.08084,1.9139317,-0.91901714,-0.67004776,-1.4606104,-0.7877363,1.0185808,-0.4946406,0.32427847,0.11330023,-0.44272995,-0.41979766,0.68872964,-0.86162126,0.16079141,-0.76360893,-0.42330933,-0.43802047,0.6491397,0.97492284,0.018479155,0.16174228,0.15173468,-0.998435,0.3148807,-0.7276061,0.0,1.0,0.0,0.0,0.0,0.0,0.0,-0.20727003,0.019797653,-0.13872963,-3.8369536,-0.23157597,-1.9935608,0.27434826,4.553187,-1.863569,2.0450802
-4.416617,61.993927,16.41934,16.208694,1.3134863,0.3490923,0.0055069737,-0.38193148,-0.80805695,-0.33993033,0.58254355,-0.23770888,0.32384512,0.2776708,0.22250803,-1.0334324,-2.214386,-1.1143796,2.0570693,1.9463162,-0.8912501,0.25385332,-0.9672007,-2.1879232,-1.1624203,2.0763662,1.9170672,-0.9177555,-0.6896713,-1.4568725,-0.74062616,1.022717,-0.43252024,0.30960414,0.13042843,-0.45116043,-0.41813374,0.6810737,-0.83729047,0.16815625,-0.76718026,-0.43328476,-0.43471336,0.6419422,0.9762422,0.020924509,0.15991005,0.14471388,-0.99165344,0.34102875,-0.7210958,0.0,1.0,0.0,0.0,0.0,0.0,0.0,-0.19883955,0.01813373,-0.13107371,-1.9647479,0.22850037,4.914212,0.544858,5.94182,-1.5290737,1.7230287
-0.8521475,61.13135,16.731672,13.674973,1.0553254,0.27188826,0.072336026,-0.39345586,-0.80921763,-0.36294785,0.5353697,-0.2017955,0.25407323,0.25797537,0.21450773,-1.0481224,-2.224218,-1.1088833,2.0561867,1.9424745,-0.89195794,0.2468481,-0.9817367,-2.194982,-1.152359,2.0725174,1.9200194,-0.9163609,-0.7041993,-1.4529655,-0.6938875,1.0008641,-0.3700614,0.2901196,0.14250767,-0.45934296,-0.41641498,0.6733496,-0.81225705,0.17305428,-0.7748898,-0.4431343,-0.43119168,0.6347628,0.97754174,0.023216132,0.15775754,0.13778883,-0.97802293,0.36099023,-0.7207559,0.0,1.0,0.0,0.0,0.0,0.0,0.0,-0.19065702,0.01641497,-0.12334961,-1.4732361,0.257349,4.8756123,-2.0789862,5.976659,-2.0102143,1.2134433
-7.4219604,57.741688,12.737794,13.984787,0.8181676,0.234278,0.0653585,-0.42238185,-0.79909194,-0.43222794,0.5346745,-0.30847302,0.20459762,0.3134302,0.20460992,-1.0616459,-2.238205,-1.0988915,2.04167,1.9404792,-0.8850179,0.23962736,-0.99619347,-2.2019784,-1.1425248,2.0688453,1.9227525,-0.91482514,-0.72798634,-1.443687,-0.70124197,0.9780698,-0.36687303,0.26741713,0.15724248,-0.46730042,-0.414649,0.6654741,-0.79077953,0.17773226,-0.7929074,-0.45288467,-0.427464,0.62748474,0.97878915,0.025673162,0.15547042,0.13092555,-0.96824443,0.38187203,-0.73389906,0.0,1.0,0.0,0.0,0.0,0.0,0.0,-0.18269956,0.014649004,-0.115474105,-2.363348,0.7918596,-0.59525967,-2.1198273,0.10467172,-2.3349822,1.457265
1.3096759,63.29975,17.038227,13.528025,0.6921824,0.19391394,0.1194682,-0.39146528,-0.79864305,-0.3560104,0.55788904,-0.2537513,0.19911668,0.33840492,0.20048083,-1.0760578,-2.2375796,-1.086736,2.0434701,1.9426641,-0.88098466,0.23235273,-1.0105653,-2.2088149,-1.1327746,2.0652444,1.9252763,-0.91313636,-0.72741675,-1.4354032,-0.6770578,0.9743344,-0.35884804,0.24720614,0.17265318,-0.47499847,-0.41285896,0.6575191,-0.7631362,0.17935033,-0.7970442,-0.46245193,-0.42359018,0.6201727,0.97996575,0.028227445,0.15312578,0.12418835,-0.94698334,0.39433867,-0.73387814,0.0,1.0,0.0,0.0,0.0,0.0,0.0,-0.1750015,0.012858957,-0.10751909,0.019609928,0.69818497,2.6439428,-0.27879477,0.5367458,-2.0775704,1.5077084
-8.363934,59.367947,12.935022,15.027151,1.1328663,0.20278266,-0.015584193,-0.43920025,-0.7969984,-0.39968124,0.53765357,-0.16615352,0.06588397,0.34053347,0.18843271,-1.0902652,-2.2487829,-1.0790093,2.048629,1.9318646,-0.87908304,0.22491868,-1.0248685,-2.2156317,-1.1230929,2.0619376,1.9275156,-0.9113082,-0.74869186,-1.428908,-0.6826756,0.96675366,-0.32185513,0.21584056,0.18619196,-0.4824829,-0.4110334,0.649436,-0.7439967,0.1835729,-0.8127691,-0.47194672,-0.419518,0.61280036,0.98110414,0.030914558,0.15061283,0.11745027,-0.9445647,0.4165507,-0.7416349,0.0,1.0,0.0,0.0,0.0,0.0,0.0,-0.16751707,0.011033386,-0.099435985,-2.1142125,0.51493645,-0.40763617,-0.59370995,3.4856975,-3.2280147,1.3563871
11.338086,66.04442,20.3844,10.8405,0.5430829,0.042245984,0.19422962,-0.36976525,-0.7931678,-0.3042474,0.52444196,-0.14689448,0.030557591,0.35855824,0.18794215,-1.1041852,-2.2460566,-1.0706487,2.0472481,1.9305714,-0.8754524,0.21760699,-1.0391088,-2.2220962,-1.1135352,2.0590544,1.929444,-0.9093455,-0.7256271,-1.4227897,-0.6336004,0.95231426,-0.27815285,0.1848516,0.19947812,-0.48968887,-0.40922165,0.6413269,-0.7131479,0.1803065,-0.81104213,-0.48120117,-0.4153912,0.6054469,0.9821993,0.03353977,0.14784582,0.11091103,-0.9140667,0.41642517,-0.73652595,0.0,1.0,0.0,0.0,0.0,0.0,0.0,-0.1603111,0.009221643,-0.09132689,2.2186995,0.4972458,5.191946,-1.4191866,4.067069,-3.1638832,1.2914062
6.7937107,60.36284,17.135258,9.53093,0.63296187,-0.0048710704,0.17531647,-0.4063378,-0.7988295,-0.32832444,0.47216836,-0.084185354,-0.10995403,0.3493395,0.17697321,-1.1189917,-2.2549286,-1.0663183,2.0506358,1.9184486,-0.8744116,0.21039769,-1.0533319,-2.2281885,-1.1043437,2.056728,1.9309815,-0.907273,-0.7195709,-1.4225339,-0.6005647,0.9082406,-0.2183123,0.14319703,0.20989385,-0.49663162,-0.40743876,0.6331277,-0.68846613,0.1776357,-0.8237204,-0.49022293,-0.41124558,0.598042,0.9832714,0.03612513,0.14466415,0.10461587,-0.89256144,0.41880152,-0.74507624,0.0,1.0,0.0,0.0,0.0,0.0,0.0,-0.15336835,0.007438749,-0.08312768,0.551641,-0.0818491,3.5157084,-4.3388367,5.727434,-4.250756,1.0355324
14.934784,61.13735,18.688448,7.5684233,0.03298521,-0.19510546,0.2990135,-0.3542145,-0.7956884,-0.329624,0.48732898,-0.19356367,-0.17312902,0.40555942,0.17497624,-1.1329007,-2.2611508,-1.0556108,2.0373716,1.9136686,-0.86671704,0.20345928,-1.067555,-2.2340517,-1.0954916,2.0545878,1.9320916,-0.9050681,-0.6855308,-1.4224366,-0.58052874,0.8776772,-0.21342091,0.10006338,0.22385393,-0.5032959,-0.40572166,0.624819,-0.6593725,0.16966869,-0.8336633,-0.49892044,-0.407197,0.59053266,0.9842858,0.038823545,0.14120363,0.098669134,-0.8574489,0.40482876,-0.7558598,0.0,1.0,0.0,0.0,0.0,0.0,0.0,-0.14670408,0.0057216585,-0.07481897,3.3183575,-0.09009838,2.249968,-3.0207872,0.23036897,-4.381475,1.3537586
