Afshin1997/kuka_rl_ros2/src/catch_and_throw/input_files/idealpd/polynomial_regressor/optimizer_files/env_356_data.csv
torque0,torque1,torque2,torque3,torque4,torque5,torque6,action0,action1,action2,action3,action4,action5,action6,set_target_0,set_target_1,set_target_2,set_target_3,set_target_4,set_target_5,set_target_6,joint_pos_0,joint_pos_1,joint_pos_2,joint_pos_3,joint_pos_4,joint_pos_5,joint_pos_6,joint_vel_0,joint_vel_1,joint_vel_2,joint_vel_3,joint_vel_4,joint_vel_5,joint_vel_6,tennisball_pos_0,tennisball_pos_1,tennisball_pos_2,tennisball_lin_vel_0,tennisball_lin_vel_1,tennisball_lin_vel_2,end_effector_pos_0,end_effector_pos_1,end_effector_pos_2,end_effector_rot_0,end_effector_rot_1,end_effector_rot_2,end_effector_rot_3,end_effector_lin_vel_0,end_effector_lin_vel_1,end_effector_lin_vel_2,obs_task_0,obs_task_1,obs_task_2,obs_task_3,obs_task_4,obs_task_5,obs_task_6,to_final_target_0,to_final_target_1,to_final_target_2,joint_acc_0,joint_acc_1,joint_acc_2,joint_acc_3,joint_acc_4,joint_acc_5,joint_acc_6
0.0,0.0,0.0,0.0,0.0,0.0,0.0,0.0,0.0,0.0,0.0,0.0,0.0,0.0,1.7802359,-1.0646509,-1.8151424,-1.1170107,1.9373155,1.1170107,-0.91629785,1.7802359,-1.0646509,-1.8151424,-1.1170107,1.9373155,1.1170107,-0.91629785,0.0,0.0,0.0,0.0,0.0,0.0,0.0,3.2585487,-0.30172348,0.07157828,-3.8451495,-0.4416785,5.1766477,0.5304184,-0.45449448,0.693097,0.5745483,0.17512383,0.15255436,0.7848268,0.0,0.0,0.0,1.0,0.0,0.0,0.0,0.0,0.0,0.0,-3.9085488,-0.098276526,0.47842175,0.0,0.0,0.0,0.0,0.0,0.0,0.0
0.0,0.0,0.0,0.0,0.0,0.0,0.0,0.0,0.0,0.0,0.0,0.0,0.0,0.0,1.7802359,-1.0646509,-1.8151424,-1.1170107,1.9373155,1.1170107,-0.91629785,1.7802359,-1.0646509,-1.8151424,-1.1170107,1.9373155,1.1170107,-0.91629785,0.0,0.0,0.0,0.0,0.0,0.0,0.0,3.2585487,-0.30172348,0.07157828,-3.8451495,-0.4416785,5.1766477,0.5304184,-0.45449448,0.693097,0.5745483,0.17512383,0.15255436,0.7848268,0.0,0.0,0.0,1.0,0.0,0.0,0.0,0.0,0.0,0.0,-3.9085488,-0.098276526,0.47842175,0.0,0.0,0.0,0.0,0.0,0.0,0.0
0.0,0.0,0.0,0.0,0.0,0.0,0.0,0.0,0.0,0.0,0.0,0.0,0.0,0.0,1.7802359,-1.0646509,-1.8151424,-1.1170107,1.9373155,1.1170107,-0.91629785,1.7802359,-1.0646509,-1.8151424,-1.1170107,1.9373155,1.1170107,-0.91629785,0.0,0.0,0.0,0.0,0.0,0.0,0.0,3.2585487,-0.30172348,0.07157828,-3.8451495,-0.4416785,5.1766477,0.5304184,-0.45449448,0.693097,0.5745483,0.17512383,0.15255436,0.7848268,0.0,0.0,0.0,1.0,0.0,0.0,0.0,0.0,0.0,0.0,-3.9085488,-0.098276526,0.47842175,0.0,0.0,0.0,0.0,0.0,0.0,0.0
-176.0,62.8836,-8.185768,110.0,9.789676,4.4328513,-3.9482374,-0.78378534,0.31407124,-0.5499834,0.72655964,-0.13363405,0.6656224,-0.56077194,1.7018573,-1.0332438,-1.8701408,-1.0443548,1.9239521,1.183573,-0.97237504,1.7788206,-1.0626329,-1.8205879,-1.1122748,1.940619,1.1216208,-0.9173526,-0.18830296,0.2684048,-0.7254776,0.63175946,0.4398197,0.61321974,-0.14031391,3.2201252,-0.30613708,0.12256948,-3.8413053,-0.4412369,5.0732856,0.5284195,-0.45752335,0.69379836,0.5781819,0.17368278,0.15174922,0.78263146,-0.26627207,-0.403378,0.09331179,1.0,0.0,0.0,0.0,0.0,0.0,0.0,-3.8701253,-0.09386292,0.42743054,-18.757032,26.657576,-72.410675,63.268044,43.797268,60.91134,-13.95147
-176.0,-42.23906,-51.50264,110.0,11.30638,0.925347,-3.493634,-0.7911902,-0.21658881,-0.56078684,0.7039666,-0.013519035,0.6500432,-0.6018193,1.6997017,-1.0842918,-1.8766665,-1.0418781,1.939267,1.1866251,-0.97753453,1.7773768,-1.0603346,-1.8352706,-1.0980784,1.947165,1.1342627,-0.91737837,-0.12856448,0.21302618,-1.7104235,1.6849517,0.7232737,1.4699985,0.04357645,3.1817398,-0.31054688,0.17252782,-3.8374648,-0.44079578,4.9700274,0.5240288,-0.46557617,0.6943198,0.5863225,0.1701206,0.14943056,0.7777887,-0.4979931,-0.93790555,0.039687846,1.0,0.0,0.0,0.0,0.0,0.0,0.0,-3.83174,-0.08945313,0.3774722,6.3373656,-6.7717495,-96.86799,106.13658,27.469122,82.351616,18.43177
-157.07703,78.018974,18.102829,88.81097,8.15322,6.401698,-1.7810249,-0.7378396,0.08904378,0.0990044,0.63840777,0.18629779,0.66006356,-0.52174336,1.7035928,-1.0514302,-1.8253702,-1.0342376,1.9657948,1.200269,-0.9695527,1.773009,-1.0583586,-1.8503978,-1.0794493,1.954186,1.1488959,-0.9172191,-0.5391699,0.18954119,-1.4413216,1.9242764,0.6900057,1.4560263,0.0064402646,3.1433926,-0.31494904,0.22145438,-3.8336282,-0.44035506,4.8668723,0.5169449,-0.47665405,0.69587624,0.59719855,0.16513889,0.14585584,0.77123857,-0.78501743,-1.1573954,0.19804215,1.0,0.0,0.0,0.0,0.0,0.0,0.0,-3.7933927,-0.08505097,0.32854563,-40.95607,-3.1948805,28.55711,24.547148,-4.8496723,-2.9139996,-3.7823904
-104.91209,74.128235,29.206932,54.783253,5.8827863,6.5637465,-0.057854973,-0.7571038,-0.12688534,0.26029277,0.6605517,0.27296254,0.63905525,-0.55339015,1.6972985,-1.0710471,-1.8243686,-1.0133941,1.9814823,1.2128013,-0.97255814,1.7644411,-1.0576891,-1.8596351,-1.0608183,1.9604402,1.162562,-0.91755956,-0.9632394,0.02432953,-0.7448089,1.8441898,0.5977823,1.334038,-0.047760304,3.1050835,-0.3193512,0.26935014,-3.8297954,-0.4399148,4.76382,0.50738144,-0.4888687,0.69878507,0.6088559,0.15916632,0.14058661,0.76432717,-1.0239428,-1.2326257,0.3256916,1.0,0.0,0.0,0.0,0.0,0.0,0.0,-3.7550836,-0.08064881,0.28064987,-42.545353,-17.064371,71.63043,-7.606864,-11.026514,-13.060689,-5.464355
-57.171005,80.47867,34.73774,29.962778,3.453988,5.6549096,0.65283746,-0.789616,-0.10044139,0.25222638,0.66772366,0.35508546,0.65097994,-0.55607843,1.6854795,-1.0677332,-1.8344125,-0.994046,1.9959487,1.2276601,-0.9731674,1.7522455,-1.058452,-1.8618553,-1.0441309,1.965939,1.1748339,-0.9184665,-1.3053447,-0.11108657,-0.042633947,1.610449,0.52933216,1.1903495,-0.10525898,3.0668125,-0.32374573,0.31621614,-3.8259664,-0.43947497,4.660871,0.49596405,-0.5011101,0.7027179,0.620174,0.15250544,0.13360988,0.7578091,-1.1928436,-1.2093164,0.41662905,1.0,0.0,0.0,0.0,0.0,0.0,0.0,-3.7168126,-0.07625428,0.23378387,-34.355545,-13.888675,71.71814,-23.272371,-8.221304,-14.732122,-5.844891
-20.113897,94.829185,37.22068,16.4941,1.2197764,4.348337,0.5138029,-0.804609,0.019729681,0.18375255,0.67804426,0.35891294,0.64880174,-0.56800497,1.6717846,-1.0564791,-1.84348,-0.97632647,2.0018303,1.239714,-0.975267,1.7376639,-1.0596613,-1.8589504,-1.0297419,1.9709554,1.185784,-0.9199104,-1.509574,-0.12494799,0.40451366,1.381641,0.48998258,1.0632325,-0.15819621,3.0285797,-0.32813644,0.36205345,-3.8221412,-0.43903556,4.558025,0.48340225,-0.5126953,0.70741385,0.63088673,0.1454201,0.12572856,0.7516828,-1.2885796,-1.1296449,0.4855008,1.0,0.0,0.0,0.0,0.0,0.0,0.0,-3.6785798,-0.07186356,0.18794656,-20.544434,-1.6635001,45.613625,-22.925615,-4.6956244,-12.750602,-5.510044
5.1019425,129.83247,44.08341,12.699311,-1.0071381,3.6816325,-0.1331718,-0.81628066,0.26617283,0.030653961,0.6629771,0.27350768,0.6509394,-0.5629735,1.6560358,-1.033044,-1.855885,-0.9634442,1.9983062,1.250878,-0.97620773,1.721934,-1.0594763,-1.8541515,-1.017203,1.9755044,1.195624,-0.9218301,-1.5948001,0.06517739,0.50706106,1.2113018,0.4419492,0.95807296,-0.2045587,2.990387,-0.33252335,0.40686306,-3.8183198,-0.43859664,4.4552817,0.4703331,-0.5230789,0.71294045,0.6412779,0.13798495,0.118416265,0.74545306,-1.3249189,-0.9977311,0.5720469,1.0,0.0,0.0,0.0,0.0,0.0,0.0,-3.640387,-0.06747666,0.14313695,-8.712244,18.716469,10.826307,-17.093777,-5.128932,-10.333288,-5.034381
21.841232,154.42693,48.760784,11.35748,-2.424114,3.189064,-0.5925827,-0.812171,0.46042433,-0.07891761,0.6393213,0.23885348,0.6441264,-0.5408393,1.6407169,-1.0134338,-1.8620433,-0.95327085,1.9993898,1.2600366,-0.97591406,1.7059942,-1.0563635,-1.8501899,-1.0058733,1.9795766,1.2045466,-0.92414373,-1.594703,0.39223677,0.36089674,1.1065654,0.3952692,0.87103,-0.24191426,2.9522324,-0.33690643,0.450646,-3.8145022,-0.43815812,4.352641,0.45721436,-0.5319214,0.71946657,0.6516811,0.1302222,0.11290152,0.73865217,-1.3175272,-0.8356537,0.6767586,1.0,0.0,0.0,0.0,0.0,0.0,0.0,-3.6022325,-0.06309357,0.099354,-0.25599003,32.4007,-14.130145,-10.539007,-4.8275948,-8.4926605,-4.205677
27.661324,156.77798,48.48284,11.248759,-2.3869715,2.7772493,-0.6202787,-0.81501067,0.57144237,-0.10762913,0.6121727,0.3702512,0.62012655,-0.5196896,1.6244931,-0.99921924,-1.8609529,-0.9446561,2.0166018,1.2665592,-0.9761127,1.6903425,-1.0498251,-1.8483188,-0.99523604,1.9836755,1.212689,-0.9267635,-1.5564067,0.7400376,0.13066027,1.0490942,0.41418692,0.7952836,-0.27000242,2.914116,-0.3412857,0.49340332,-3.8106885,-0.43772006,4.250103,0.44426727,-0.53920364,0.72705466,0.66221476,0.122217946,0.109413184,0.7311382,-1.2941217,-0.6808323,0.78413737,1.0,0.0,0.0,0.0,0.0,0.0,0.0,-3.564116,-0.0587143,0.056596696,3.5428524,34.49161,-22.52405,-5.8638573,1.7190099,-7.5472593,-3.2325208
31.730595,146.04536,46.53945,9.652163,-1.8280252,2.5450003,-0.3537711,-0.80181354,0.6363942,-0.06274692,0.5837719,0.46591243,0.6083928,-0.54372245,1.6101612,-0.98618567,-1.8545935,-0.93685883,2.0302668,1.2735283,-0.9811357,1.6751887,-1.0402731,-1.8483188,-0.9849926,1.9883485,1.2201506,-0.92963785,-1.5024749,1.026266,-0.04146699,1.0154568,0.48424965,0.72942615,-0.29454175,2.8760376,-0.34565735,0.53513604,-3.8068786,-0.43728244,4.1476674,0.43156433,-0.545063,0.7356602,0.67276716,0.11401043,0.10744749,0.7230774,-1.2678334,-0.5407814,0.88498735,1.0,0.0,0.0,0.0,0.0,0.0,0.0,-3.5260377,-0.054342657,0.014863968,5.1111937,28.366386,-16.641796,-3.5536528,6.778759,-6.736064,-2.836877
31.890755,127.51988,42.12035,7.6616316,-1.224544,2.3054547,-0.05848792,-0.7909342,0.68327886,-0.02870457,0.55324316,0.4993528,0.6301417,-0.55215967,1.5960952,-0.97194517,-1.8511893,-0.9296683,2.0382838,1.2831647,-0.9848538,1.6605517,-1.0285352,-1.8493278,-0.9750496,1.9938169,1.2270495,-0.9327306,-1.4516376,1.222362,-0.11873416,0.9865561,0.5669364,0.67601943,-0.31541398,2.8379974,-0.350029,0.5758451,-3.8030725,-0.43684524,4.0453343,0.4190941,-0.54966736,0.7451269,0.6831419,0.10558875,0.10634093,0.71474457,-1.2447985,-0.41890395,0.96652627,1.0,0.0,0.0,0.0,0.0,0.0,0.0,-3.4879975,-0.049971014,-0.02584511,4.820776,19.400358,-7.116963,-3.1209588,8.035957,-5.5547833,-2.4489045
26.855892,108.46315,36.664932,8.031186,-0.5581603,2.085456,0.08909938,-0.77978414,0.71749675,-0.008222254,0.5629122,0.5055433,0.6456354,-0.5487494,1.5825733,-0.95678556,-1.85015,-0.9187584,2.0443711,1.291613,-0.9876056,1.6463457,-1.0154642,-1.8505237,-0.96524584,2.000012,1.2334963,-0.9360027,-1.4108666,1.3348036,-0.11789044,0.97756505,0.6363507,0.6336127,-0.33219215,2.7999954,-0.354393,0.6155317,-3.7992702,-0.4364085,3.943104,0.4067688,-0.5532379,0.75526,0.69323254,0.09692518,0.10555744,0.7063227,-1.2314485,-0.32110614,1.0282565,1.0,0.0,0.0,0.0,0.0,0.0,0.0,-3.4499955,-0.045607,-0.06553167,3.8532019,11.0791445,0.6745115,-1.121664,6.7394257,-4.462135,-2.0197392
20.099901,85.60332,28.36112,7.382808,-0.18908513,1.5303023,0.12800333,-0.77029186,0.7301158,-0.041499868,0.5547236,0.5048821,0.65469944,-0.53439796,1.5693165,-0.9424526,-1.8546737,-0.90977347,2.0505002,1.2989663,-0.98944247,1.6324602,-1.0017809,-1.8516071,-0.95549166,2.0067334,1.2395903,-0.9394073,-1.3818184,1.3791907,-0.103560515,0.97386,0.6839715,0.6008763,-0.3442183,2.7620316,-0.3587532,0.6541967,-3.7954717,-0.43597218,3.8409758,0.3945465,-0.5560341,0.765746,0.7030121,0.088114634,0.1048315,0.6978683,-1.2218432,-0.25011164,1.0545006,1.0,0.0,0.0,0.0,0.0,0.0,0.0,-3.4120317,-0.0412468,-0.10419667,2.724719,4.330206,1.9196451,-0.6040096,4.6339273,-3.4055352,-1.5169442
12.046637,70.0229,22.259804,8.338606,0.19870263,1.1876671,0.11164032,-0.7752125,0.73782974,-0.045317966,0.55010027,0.5314975,0.6586091,-0.53726226,1.554939,-0.9279979,-1.8561388,-0.90048164,2.059883,1.3054512,-0.99313354,1.6187292,-0.98796594,-1.8525207,-0.94576037,2.013863,1.2454096,-0.94291395,-1.3706772,1.3820828,-0.085803986,0.97210366,0.72238535,0.5753811,-0.35374504,2.7241058,-0.3631096,0.6918412,-3.791677,-0.4355363,3.73895,0.38233566,-0.5582886,0.7763215,0.7125067,0.07927261,0.10401973,0.6893692,-1.2205235,-0.20174694,1.057489,1.0,0.0,0.0,0.0,0.0,0.0,0.0,-3.374106,-0.036890417,-0.14184117,0.95961094,0.21543503,2.189207,-0.41265488,3.763032,-2.6288748,-1.2377143
8.569263,63.002594,19.326832,8.604797,0.27190256,1.0139698,0.094809875,-0.772947,0.7452157,-0.039597444,0.54176885,0.5252039,0.6607895,-0.5345672,1.5414345,-0.9134444,-1.8564805,-0.8915835,2.0663834,1.3114885,-0.9963707,1.6050383,-0.9742464,-1.8532608,-0.93607295,2.0212483,1.2510153,-0.94649976,-1.3692533,1.368324,-0.06870508,0.96684885,0.74375725,0.5554273,-0.36102343,2.6862183,-0.36746216,0.7284662,-3.7878861,-0.43510085,3.637026,0.3701439,-0.5601196,0.78684217,0.7217383,0.070451796,0.10310877,0.68080753,-1.2212371,-0.16134852,1.0489203,1.0,0.0,0.0,0.0,0.0,0.0,0.0,-3.3362184,-0.032537848,-0.1784662,-0.0038385391,-1.4334917,2.094084,-0.76526403,2.081263,-2.0364165,-0.9993732
9.340912,63.246235,19.57564,8.398462,0.25467038,1.0507534,0.14197588,-0.769324,0.74714804,-0.0009131293,0.5287517,0.53826505,0.66788745,-0.53607464,1.5281059,-0.8995316,-1.8533521,-0.8831978,2.075075,1.3178041,-1.0001073,1.5913359,-0.96069086,-1.8536918,-0.9264933,2.0288014,1.2564551,-0.9501485,-1.3710161,1.3511679,-0.033083145,0.9543215,0.758825,0.54013824,-0.36707947,2.6483688,-0.3718109,0.7640727,-3.784099,-0.43466586,3.535204,0.35793686,-0.56152344,0.7972845,0.73068,0.061626993,0.102079846,0.6722264,-1.2212719,-0.11778445,1.0411757,1.0,0.0,0.0,0.0,0.0,0.0,0.0,-3.298369,-0.028189093,-0.2140727,-0.32687187,-1.7731905,3.97515,-1.4863968,1.4413595,-1.5592098,-0.8816421
8.830882,66.03544,20.423801,9.595012,0.3060413,1.1608171,0.13529113,-0.771649,0.74941534,0.02761605,0.5348369,0.5412427,0.66975206,-0.5302534,1.514171,-0.88574934,-1.8509302,-0.8730096,2.0829258,1.3234303,-1.0031738,1.5775954,-0.94727075,-1.8536766,-0.9169966,2.0364575,1.2617651,-0.95384496,-1.3756425,1.3386921,0.014504678,0.9473478,0.7678003,0.52782375,-0.37143937,2.6105576,-0.37615204,0.7986618,-3.7803159,-0.43423128,3.4334838,0.34571075,-0.56246567,0.80769897,0.7393272,0.052725807,0.10092628,0.6636483,-1.2236737,-0.07145658,1.039726,1.0,0.0,0.0,0.0,0.0,0.0,0.0,-3.2605577,-0.023847967,-0.24866182,-0.6141186,-1.3127327,5.192994,-0.9096384,0.82006454,-1.2820601,-0.7098794
13.537816,69.16108,21.546194,7.500737,0.02123499,1.1328323,0.22331667,-0.7679685,0.7577143,0.04864046,0.49054527,0.5648334,0.6648504,-0.5313362,1.5007985,-0.8714993,-1.8488125,-0.8679421,2.0929408,1.3282502,-1.0069786,1.5638262,-0.9338945,-1.8531654,-0.9077498,2.0442395,1.2669684,-0.9575805,-1.3776951,1.3371439,0.06475418,0.91642654,0.78138506,0.51772064,-0.37512386,2.5727844,-0.38049316,0.83223444,-3.7765365,-0.43379712,3.3318653,0.3335228,-0.5628662,0.81809783,0.7476175,0.04373547,0.09967505,0.65514886,-1.2163025,-0.0145289125,1.0378844,1.0,0.0,0.0,0.0,0.0,0.0,0.0,-3.2227845,-0.019506842,-0.28223443,-0.36940575,-0.22017956,5.493141,-3.308189,1.2688994,-1.0228992,-0.65059066
13.476384,71.85828,22.178577,8.760201,0.0370636,1.1786578,0.18537351,-0.7644418,0.7606944,0.07282217,0.5109244,0.5525086,0.6684109,-0.51748127,1.487382,-0.8578251,-1.8458831,-0.8566573,2.0994904,1.3338095,-1.0093286,1.5500666,-0.92048395,-1.8521564,-0.8986937,2.0521016,1.2720858,-0.96133703,-1.3761106,1.3421623,0.11439104,0.90139997,0.7872076,0.5096159,-0.37671387,2.5350456,-0.38482666,0.86479163,-3.7727609,-0.4333634,3.2303483,0.3214035,-0.56269073,0.8285268,0.7555534,0.034604434,0.098365106,0.6467348,-1.2093481,0.043893162,1.0420377,1.0,0.0,0.0,0.0,0.0,0.0,0.0,-3.1850457,-0.015173346,-0.31479162,0.004005432,0.43280125,5.4217367,-1.693511,0.49831867,-0.8401871,-0.43430328
16.064379,73.05885,22.445538,7.4703145,-0.14710695,1.1152585,0.2365907,-0.7649396,0.7683398,0.09877307,0.47306243,0.56601804,0.67291033,-0.5120259,1.4735726,-0.84365,-1.8422791,-0.85138744,2.1087034,1.3393768,-1.0125396,1.536326,-0.9069761,-1.850661,-0.88989985,2.0600324,1.2771384,-0.9651012,-1.3738749,1.3535312,0.16296707,0.87148774,0.7948748,0.5037774,-0.37720752,2.497345,-0.38915634,0.8963344,-3.768989,-0.43293014,3.128933,0.3094101,-0.56188583,0.8389832,0.76311004,0.02532826,0.09703632,0.6384398,-1.1954916,0.107597016,1.044199,1.0,0.0,0.0,0.0,0.0,0.0,0.0,-3.147345,-0.010843664,-0.3463344,0.065255165,1.0714293,5.323684,-3.1788588,0.6796241,-0.581038,-0.3219962
18.224255,70.70852,21.259262,5.4498787,-0.3743613,0.87888885,0.27363676,-0.7624251,0.77479726,0.09792237,0.4317221,0.5813188,0.6662518,-0.508718,1.4600835,-0.8294964,-1.8408688,-0.8467276,2.1181643,1.3437636,-1.015973,1.5226179,-0.8933319,-1.8488147,-0.8815495,2.06807,1.2821394,-0.96886533,-1.3703921,1.367877,0.19330607,0.8223203,0.8066209,0.49908397,-0.3769917,2.4596825,-0.3934822,0.9268638,-3.7652206,-0.4324973,3.027619,0.29761505,-0.5604439,0.8493948,0.77025276,0.015982965,0.09574772,0.6303074,-1.1718825,0.17113419,1.0370251,1.0,0.0,0.0,0.0,0.0,0.0,0.0,-3.1096826,-0.0065177977,-0.37686378,0.1909256,1.3832569,3.472075,-5.11384,1.1079073,-0.40510297,-0.2394855
20.870811,66.76306,19.728245,2.8306484,-0.6116255,0.59269637,0.33450472,-0.75803345,0.7765068,0.10288966,0.38065955,0.59503883,0.67285913,-0.49936548,1.4468145,-0.8156812,-1.8385258,-0.8434835,2.1275737,1.3494253,-1.0188019,1.5089594,-0.8795608,-1.84677,-0.87386096,2.0762563,1.2871081,-0.97261804,-1.3647832,1.3800875,0.2093541,0.75027895,0.82217747,0.49672425,-0.37564167,2.422058,-0.39780426,0.95638084,-3.761456,-0.4320649,2.9264061,0.28614044,-0.5583763,0.8596513,0.7769426,0.006676496,0.094549954,0.6223953,-1.1370009,0.232527,1.018253,1.0,0.0,0.0,0.0,0.0,0.0,0.0,-3.0720582,-0.0021957457,-0.40638083,0.40841103,1.1898279,2.0058155,-7.4153185,1.5136242,-0.095021725,-0.11318326
22.58267,64.103294,18.751709,0.9803877,-0.7665079,0.3899722,0.39502642,-0.7606568,0.7807849,0.12209542,0.32077214,0.6069197,0.66752595,-0.4962193,1.4328938,-0.8014823,-1.8345605,-0.84178376,2.1369483,1.3538606,-1.0222399,1.4953371,-0.865682,-1.8445709,-0.86705744,2.0846105,1.2920576,-0.9763555,-1.3619158,1.3903712,0.2248442,0.65628785,0.8397044,0.49513757,-0.37387916,2.384472,-0.4021225,0.9848865,-3.7576952,-0.4316329,2.8252947,0.27506256,-0.5557022,0.86966443,0.78314185,-0.0025033122,0.09347156,0.61477286,-1.0940086,0.29197153,0.99191034,1.0,0.0,0.0,0.0,0.0,0.0,0.0,-3.034472,0.0021224916,-0.43488652,0.13747215,1.0144472,1.9221246,-9.614695,1.7315865,0.040727854,-0.05760193
30.601357,61.425003,18.450167,-4.8997636,-1.2884923,0.07449037,0.61002594,-0.75417614,0.7813916,0.15795778,0.19098043,0.6208482,0.6612186,-0.48782152,1.4199195,-0.7875428,-1.828775,-0.8479594,2.1466954,1.3581795,-1.0251377,1.4817625,-0.8517307,-1.8421009,-0.8616291,2.0931516,1.2969977,-0.98007005,-1.3566694,1.3968302,0.25572982,0.5042636,0.8587096,0.49465746,-0.37141034,2.3469238,-0.4064331,1.0123818,-3.7539382,-0.43120137,2.7242844,0.2645874,-0.55239105,0.879309,0.7887193,-0.011431144,0.09252728,0.6076428,-1.0279852,0.35663617,0.95145756,1.0,0.0,0.0,0.0,0.0,0.0,0.0,-2.996924,0.0064330995,-0.46238178,0.381732,0.6556034,3.45397,-15.426243,1.8869042,0.27940273,0.02105236
37.618244,61.902924,19.288715,-9.352825,-1.6974218,-0.09852025,0.8132601,-0.75307727,0.78697956,0.2171853,0.06301851,0.62884605,0.66039497,-0.47498494,1.4064548,-0.7730327,-1.8203824,-0.85532725,2.1560361,1.3630371,-1.0275686,1.4682356,-0.8377155,-1.8390853,-0.8580872,2.101872,1.3019377,-0.98375124,-1.3518004,1.4032117,0.3179135,0.30351838,0.87644494,0.49530977,-0.367742,2.309414,-0.4107437,1.0388677,-3.750185,-0.43077025,2.623375,0.2549057,-0.5483818,0.88850355,0.7935273,-0.020022422,0.09171412,0.6012503,-0.94337326,0.42786446,0.904633,1.0,0.0,0.0,0.0,0.0,0.0,0.0,-2.959414,0.010743707,-0.4888677,0.36418438,0.6681204,6.5527916,-20.271088,1.7835498,0.4866302,0.16197562
47.463108,62.80243,20.359196,-15.390911,-2.2894583,-0.3734623,1.0570337,-0.73799956,0.7957655,0.27072978,-0.10347043,0.6419426,0.64913285,-0.44169205,1.3944356,-0.75813895,-1.8120123,-0.86843425,2.1660662,1.366851,-1.0279205,1.4548174,-0.8236126,-1.8352726,-0.8569685,2.1107717,1.3068835,-0.9873714,-1.3386594,1.4128088,0.40317905,0.04740604,0.89464533,0.49617016,-0.36073798,2.2719383,-0.4150467,1.0643454,-3.7464356,-0.43033957,2.5225663,0.2462616,-0.5435791,0.8971668,0.7974019,-0.028180558,0.09104848,0.5958743,-0.8324172,0.5070358,0.84904605,1.0,0.0,0.0,0.0,0.0,0.0,0.0,-2.9219384,0.015046686,-0.51434535,1.2428284,1.01583,8.771027,-25.753122,1.8769026,0.6264925,0.5387306
58.223816,62.686073,21.212822,-22.128357,-2.951428,-0.7207041,1.3137814,-0.71261364,0.7993724,0.33552206,-0.29516673,0.6410997,0.6481718,-0.38550353,1.383556,-0.74367535,-1.8017204,-0.8864852,2.1748817,1.3717006,-1.0259217,1.4416434,-0.80941236,-1.8304546,-0.858811,2.1198163,1.3118445,-0.99088186,-1.3103882,1.4227227,0.50822705,-0.26159647,0.908263,0.4981617,-0.34808093,2.234501,-0.41934586,1.0888157,-3.74269,-0.42990932,2.4218585,0.23894882,-0.53793335,0.90519434,0.8001664,-0.035787895,0.09057181,0.5918189,-0.6920043,0.5926868,0.7825245,1.0,0.0,0.0,0.0,0.0,0.0,0.0,-2.884501,0.01934585,-0.5388157,2.8487206,1.0774612,10.588092,-30.953705,1.4971137,0.86099505,1.1677563
55.80681,64.078865,21.668442,-19.520416,-2.7098436,-0.7205644,1.2690147,-0.69958985,0.8059507,0.39880025,-0.37928003,0.6401778,0.6307286,-0.3113366,1.3716843,-0.7288173,-1.7905746,-0.896739,2.183834,1.3749173,-1.0220156,1.4287859,-0.79510343,-1.8245113,-0.8634974,2.128964,1.3168093,-0.99421304,-1.276972,1.4339564,0.62269634,-0.5374583,0.9177729,0.49803695,-0.32831585,2.1971016,-0.4236412,1.1122797,-3.7389483,-0.4294795,2.3212514,0.23297882,-0.531456,0.9126298,0.801826,-0.04287351,0.090270594,0.5891419,-0.558338,0.6724522,0.72529525,1.0,0.0,0.0,0.0,0.0,0.0,0.0,-2.8471017,0.023641199,-0.56227964,3.4437418,1.2373209,11.308968,-27.55155,1.2157083,0.61848164,1.9500554
46.266575,61.879707,20.64723,-12.977781,-1.9882979,-0.6170414,1.1072834,-0.69128335,0.79701877,0.4646665,-0.43508932,0.63714695,0.61827075,-0.16918968,1.3596575,-0.71540153,-1.7780447,-0.9070063,2.1926787,1.3786364,-1.011132,1.4162413,-0.7807487,-1.8173854,-0.87042487,2.1381726,1.321757,-0.99725145,-1.2465636,1.4364293,0.7414366,-0.7443087,0.9231437,0.4956485,-0.29569417,2.1597404,-0.42793274,1.1347383,-3.73521,-0.42905012,2.2207448,0.22814941,-0.5242882,0.91959095,0.80250585,-0.049559172,0.090060815,0.5877221,-0.45013645,0.7372774,0.6806145,1.0,0.0,0.0,0.0,0.0,0.0,0.0,-2.8097405,0.027932733,-0.5847383,3.1770945,0.38380623,11.5658045,-20.626568,0.91620684,0.3102243,3.2697797
32.950695,59.919415,19.0776,-3.8922248,-1.1176789,-0.43429667,0.82922345,-0.6833865,0.80035603,0.4915682,-0.4482511,0.6284606,0.61185074,0.021207076,1.3479027,-0.7007131,-1.7682287,-0.91525,2.2010186,1.3829421,-0.9951307,1.4039522,-0.7663816,-1.8092449,-0.87873805,2.1473927,1.3266722,-0.9998407,-1.2225355,1.4373896,0.83676887,-0.8601951,0.9228331,0.49152634,-0.24661957,2.1224174,-0.43222046,1.1561927,-3.7314754,-0.42862114,2.120339,0.22415543,-0.5165825,0.9262308,0.80241513,-0.055999655,0.089900605,0.58729196,-0.37601468,0.78521335,0.65227133,1.0,0.0,0.0,0.0,0.0,0.0,0.0,-2.7724175,0.032220453,-0.60619265,2.515173,0.25310516,9.14278,-11.565733,0.41701794,0.031918287,4.9215584
13.800022,53.79498,15.533747,7.9854097,0.050560117,-0.22109255,0.40940094,-0.6938599,0.79357857,0.4892246,-0.3965744,0.6120915,0.61881953,0.20143522,1.3345662,-0.68702376,-1.7603225,-0.91839546,2.208602,1.3885541,-0.97969717,1.3917681,-0.7520479,-1.800473,-0.887385,2.1565442,1.3315455,-1.001836,-1.2170129,1.4326363,0.8896501,-0.86651105,0.9143081,0.48693967,-0.18404904,2.0851326,-0.43650436,1.1766436,-3.7277446,-0.42819262,2.0200331,0.22053528,-0.5085945,0.9327075,0.8018645,-0.06235816,0.08978768,0.5874206,-0.34867817,0.80749243,0.63973194,1.0,0.0,0.0,0.0,0.0,0.0,0.0,-2.7351327,0.036504358,-0.6266436,0.5633116,-0.30596256,4.938948,-0.72603226,-0.39958954,-0.1552701,6.239131
-5.59752,48.352833,12.120119,20.40688,1.1962259,0.06893036,-0.05798902,-0.71574855,0.7898029,0.47677326,-0.29718754,0.57289344,0.6305374,0.33147335,1.3201933,-0.6730676,-1.7527957,-0.91710377,2.2138336,1.3945992,-0.9686886,1.3794619,-0.7377819,-1.7914913,-0.8952719,2.1654897,1.3363787,-1.0031577,-1.2354336,1.4251784,0.9001011,-0.763536,0.8896902,0.48254773,-0.1152238,2.047882,-0.44078445,1.1960922,-3.7240176,-0.4277645,1.9198275,0.21684265,-0.5005493,0.9391942,0.8012157,-0.068828575,0.08974793,0.5875893,-0.3692754,0.80697566,0.6450588,1.0,0.0,0.0,0.0,0.0,0.0,0.0,-2.6978822,0.04078445,-0.64609224,-1.9628286,-0.5675316,0.7829547,10.0705385,-2.0181894,-0.27894974,6.824149
-16.215275,44.52291,10.014649,27.64845,1.8430139,0.22211957,-0.35169682,-0.7259423,0.78484917,0.46351603,-0.20576616,0.54051864,0.63749635,0.41782814,1.3068676,-0.659297,-1.7451397,-0.9158485,2.2195415,1.4001284,-0.96137494,1.3668944,-0.72360456,-1.7826297,-0.9016167,2.174107,1.3411719,-1.003791,-1.2646034,1.4157739,0.8807358,-0.59241885,0.8539029,0.47852743,-0.046296082,2.0106697,-0.44505692,1.2145398,-3.7202945,-0.42733684,1.8197219,0.21273804,-0.49260712,0.9458166,0.8007328,-0.075558424,0.08981414,0.5874107,-0.41699684,0.79378444,0.66128194,1.0,0.0,0.0,0.0,0.0,0.0,0.0,-2.6606698,0.04505691,-0.66453975,-3.1081676,-0.7641077,-2.1422982,16.817368,-3.1503558,-0.33242106,6.8124967
-32.77018,40.78188,7.668178,40.016228,3.0125914,0.60711706,-0.8204104,-0.75654,0.7760334,0.4217682,0.025526194,0.50866485,0.6484984,0.4631499,1.2912403,-0.6460012,-1.7404529,-0.89906406,2.2249737,1.4060217,-0.95747596,1.3539187,-0.7095455,-1.7742126,-0.90537035,2.1823163,1.3459288,-1.0037719,-1.3095009,1.403244,0.82814497,-0.30413988,0.81144196,0.47467622,0.01755738,1.9734955,-0.44932938,1.2319869,-3.7165751,-0.4269096,1.7197165,0.20779037,-0.48492813,0.9527729,0.8007405,-0.08279133,0.089951135,0.58640337,-0.5125083,0.7634813,0.70064044,1.0,0.0,0.0,0.0,0.0,0.0,0.0,-2.6234956,0.04932937,-0.68198687,-4.7683716,-1.0751247,-5.4445624,28.455084,-3.7893653,-0.46371818,6.283543
-40.40424,37.644207,6.4703293,46.65699,3.6012945,0.8408183,-1.0809191,-0.7705082,0.7555171,0.3947464,0.23318282,0.43362194,0.66124034,0.51153183,1.2768679,-0.6339938,-1.734738,-0.88205206,2.2256784,1.4120529,-0.9526187,1.3404986,-0.6956848,-1.7664192,-0.90567076,2.1899457,1.3506571,-1.0031501,-1.353812,1.3808565,0.76236427,0.060111392,0.74844426,0.47155797,0.07677534,1.9363556,-0.4535942,1.2484347,-3.7128592,-0.42648277,1.6198112,0.2016983,-0.4776039,0.9602219,0.8014616,-0.090761065,0.090130866,0.58420724,-0.6333159,0.7276361,0.7532743,1.0,0.0,0.0,0.0,0.0,0.0,0.0,-2.5863557,0.0535942,-0.69843465,-4.692173,-2.0747185,-6.815386,36.069763,-5.8157444,-0.49874783,5.8269143
-38.827972,38.76251,7.3919783,47.29383,3.5926678,0.94790065,-1.1054206,-0.7765849,0.74530613,0.37322733,0.4064772,0.39272,0.65712154,0.53237695,1.26284,-0.6211542,-1.7290964,-0.865023,2.2292178,1.4163692,-0.9499124,1.326718,-0.6820663,-1.7592704,-0.9021927,2.1969075,1.3553511,-1.0019866,-1.3867928,1.3559386,0.6981755,0.4429721,0.6804843,0.46785852,0.12936196,1.8992538,-0.45785522,1.2638842,-3.709147,-0.42605636,1.5200057,0.19438171,-0.47057343,0.96822923,0.80292743,-0.09959133,0.09033331,0.58071405,-0.75595397,0.70043874,0.81029224,1.0,0.0,0.0,0.0,0.0,0.0,0.0,-2.549254,0.05785522,-0.7138842,-3.474307,-2.3564816,-6.7088723,38.03146,-6.3177586,-0.6220162,5.192359
-25.832188,39.83339,8.960067,37.64238,2.7214794,0.6691114,-0.766035,-0.7814556,0.7310078,0.37141865,0.45097888,0.40128177,0.6547635,0.5179562,1.2485725,-0.6089655,-1.7221285,-0.8570948,2.2370358,1.4208274,-0.950191,1.3127047,-0.6687139,-1.7526042,-0.895578,2.2033315,1.3600127,-1.0003692,-1.4063993,1.3285722,0.65545917,0.73379904,0.6310983,0.46484372,0.17227978,1.8621902,-0.46211243,1.2783364,-3.7054386,-0.4256304,1.4203,0.18610764,-0.46370316,0.9766512,0.80491936,-0.10914999,0.09053377,0.5761898,-0.84371567,0.6901068,0.84661925,1.0,0.0,0.0,0.0,0.0,0.0,0.0,-2.5121903,0.06211242,-0.7283364,-2.0498276,-2.6468039,-4.485607,28.931618,-4.5716524,-0.4987538,4.233164
-13.031433,39.99158,9.623099,26.531872,1.6521264,0.2561212,-0.42607895,-0.79413515,0.7238021,0.34416816,0.47565526,0.39493898,0.6539599,0.49258775,1.2332911,-0.59633374,-1.7181875,-0.8480125,2.2428253,1.4254086,-0.9511104,1.2985331,-0.6556076,-1.7463157,-0.8869301,2.2093778,1.3646532,-0.99839854,-1.4211172,1.3047997,0.6197377,0.9081537,0.5965898,0.46336615,0.20503263,1.8251648,-0.4663658,1.2917923,-3.701734,-0.42520484,1.3206941,0.1772728,-0.45685196,0.98523045,0.8071682,-0.11914402,0.090791285,0.571,-0.8896469,0.6927606,0.85545325,1.0,0.0,0.0,0.0,0.0,0.0,0.0,-2.475165,0.06636581,-0.74179226,-1.5407562,-2.3254871,-3.640747,17.320883,-3.2133937,-0.22913218,3.2028646
-1.2547398,37.391457,8.798044,15.04199,0.48118806,-0.32323524,-0.13911748,-0.79443324,0.7142533,0.28825682,0.46877372,0.35252097,0.6566053,0.4865741,1.2190897,-0.58418226,-1.7174901,-0.8400527,2.2446299,1.4303137,-0.9497411,1.2842737,-0.64271486,-1.7405136,-0.8773943,2.2150617,1.3692919,-0.9961536,-1.427908,1.2841673,0.5672109,0.9682842,0.55916005,0.46430883,0.23069124,1.7881737,-0.4706154,1.3042529,-3.698033,-0.4247797,1.2211876,0.16831589,-0.44994736,0.99366635,0.809467,-0.1292078,0.09129429,0.5654501,-0.88961357,0.6999259,0.8332591,1.0,0.0,0.0,0.0,0.0,0.0,0.0,-2.4381738,0.07061538,-0.75425285,-0.7507801,-2.0319223,-5.197048,5.8852077,-3.6083221,0.18427372,2.4746685
9.068881,36.740265,8.58692,5.167043,-0.55763733,-0.8166592,0.12854865,-0.79768735,0.7096627,0.2576796,0.41817054,0.313706,0.6579441,0.49426666,1.204505,-0.5717486,-1.7147456,-0.83557725,2.2464323,1.4350863,-0.9467269,1.2699705,-0.62998617,-1.7352741,-0.86802924,2.220326,1.3739516,-0.99368453,-1.4313401,1.2691394,0.50999445,0.9254577,0.5158855,0.46722957,0.25197366,1.7512207,-0.47485733,1.3157191,-3.6943357,-0.42435503,1.1217806,0.15966797,-0.44293594,1.0017014,0.81164485,-0.13900508,0.09225106,0.55982137,-0.8482504,0.71066296,0.7873559,1.0,0.0,0.0,0.0,0.0,0.0,0.0,-2.4012208,0.074857324,-0.7657191,-0.42960644,-1.4851332,-5.546546,-4.4267893,-4.283583,0.537163,2.0159066
17.932869,35.780354,8.720009,-2.9020233,-1.25337,-1.2233781,0.40130758,-0.7928056,0.69197935,0.2613572,0.33720633,0.3000274,0.6640873,0.5029813,1.1906899,-0.5607882,-1.7091384,-0.8343086,2.2503288,1.4403603,-0.9433864,1.2556788,-0.61743486,-1.730458,-0.85970557,2.2251935,1.3786494,-0.9910257,-1.4285114,1.2505201,0.47290015,0.8009733,0.4764901,0.4719181,0.27008337,1.7143059,-0.47909927,1.3261921,-3.690642,-0.42393076,1.0224731,0.15167236,-0.43583298,1.0091507,0.81353384,-0.14828327,0.09372483,0.5544279,-0.775055,0.72066027,0.72494304,1.0,0.0,0.0,0.0,0.0,0.0,0.0,-2.364306,0.07909927,-0.7761921,0.21030903,-1.8456697,-3.455162,-12.5906105,-3.9768875,0.82567334,1.6807735
22.61694,35.386665,8.753386,-7.3314834,-1.5989866,-1.5031517,0.5655218,-0.7940112,0.6835069,0.25212643,0.24843413,0.29424554,0.66479737,0.52857316,1.1762776,-0.5490842,-1.7052454,-0.8348622,2.2546182,1.445129,-0.93816835,1.2414232,-0.60506666,-1.725909,-0.85299647,2.229733,1.3833948,-0.9881904,-1.4246812,1.2323998,0.4498597,0.62718457,0.4461847,0.4768481,0.28758904,1.6774254,-0.4833336,1.3356729,-3.6869524,-0.42350692,0.92326486,0.1445427,-0.42863464,1.0159166,0.81502885,-0.15688169,0.09571551,0.54950386,-0.6842117,0.7270881,0.655027,1.0,0.0,0.0,0.0,0.0,0.0,0.0,-2.3274255,0.08333358,-0.78567284,0.33211708,-1.7901897,-2.0373583,-17.501175,-3.1036496,0.8945823,1.623714
25.28381,32.533333,8.150569,-10.304586,-1.7681919,-1.7503176,0.67813337,-0.7874021,0.6577296,0.26345438,0.14498527,0.24804987,0.6611128,0.5460027,1.162683,-0.5392937,-1.6995635,-0.83849794,2.254538,1.4495062,-0.9335902,1.2272364,-0.5929531,-1.7214286,-0.8482348,2.233914,1.3881842,-0.9851873,-1.4166182,1.2045099,0.4482576,0.42549172,0.40840968,0.48111415,0.30424276,1.640583,-0.4875679,1.3441622,-3.6832662,-0.42308348,0.8241558,0.13839722,-0.42142868,1.0219405,0.81607056,-0.1647019,0.09819674,0.5452151,-0.58269554,0.72631735,0.5797628,1.0,0.0,0.0,0.0,0.0,0.0,0.0,-2.2905831,0.087567896,-0.7941622,0.80525875,-2.753687,0.059968233,-20.26214,-3.8612366,0.8499205,1.5526533
24.44703,31.730673,7.888225,-9.532158,-1.6576902,-1.8264823,0.65977013,-0.78066015,0.64615345,0.25812227,0.068560675,0.21819597,0.66284895,0.56077516,1.1491704,-0.5283377,-1.6956164,-0.8413787,2.2557335,1.4544691,-0.92910975,1.2131544,-0.5811237,-1.7169216,-0.84542334,2.237698,1.3930117,-0.98202395,-1.4052222,1.1759061,0.4518649,0.23285185,0.36813796,0.48452365,0.32002488,1.6037788,-0.4917946,1.3516612,-3.6795835,-0.4226605,0.7251458,0.13325119,-0.4142418,1.027241,0.81667095,-0.17173953,0.10113841,0.541595,-0.4837589,0.7205766,0.50875276,1.0,0.0,0.0,0.0,0.0,0.0,0.0,-2.253779,0.09179458,-0.8016612,1.1768103,-2.8136969,0.5006194,-19.326958,-4.0854034,0.72557926,1.4867961
21.52512,29.147018,6.5638647,-8.017341,-1.5187316,-1.9400148,0.5637549,-0.78156173,0.63771933,0.22212937,-0.021807574,0.18935844,0.6602959,0.5698671,1.1349983,-0.51735175,-1.6947086,-0.8476041,2.256634,1.4590412,-0.92503726,1.1991659,-0.5695528,-1.7125347,-0.84444964,2.2410703,1.397864,-0.9787128,-1.3966419,1.1510518,0.43466485,0.051982224,0.32670906,0.48668253,0.33446893,1.5670128,-0.49601746,1.3581707,-3.6759048,-0.42223793,0.6262348,0.12905884,-0.40717316,1.0318465,0.8169143,-0.17797977,0.1045638,0.53855413,-0.39022025,0.7066379,0.44008538,1.0,0.0,0.0,0.0,0.0,0.0,0.0,-2.217013,0.09601745,-0.80817074,0.9097576,-2.4277687,-1.6514361,-18.141705,-4.1677833,0.56002736,1.3721526
19.72047,29.658215,6.6079216,-6.0390863,-1.4116675,-1.9219954,0.4954209,-0.7728895,0.62727106,0.2236082,-0.09810691,0.1255957,0.6533013,0.5857511,1.121877,-0.5068257,-1.6901739,-0.8542603,2.25363,1.4631941,-0.9201377,1.1852766,-0.55820405,-1.7083213,-0.8451296,2.2439198,1.4027277,-0.97526336,-1.3861519,1.1297095,0.41685316,-0.108165145,0.27118537,0.48717296,0.3483062,1.5302811,-0.5002365,1.3636919,-3.6722298,-0.42181578,0.5274227,0.1257515,-0.4002304,1.0358137,0.8168689,-0.18346116,0.10851229,0.53599644,-0.30195636,0.69223565,0.37809843,1.0,0.0,0.0,0.0,0.0,0.0,0.0,-2.1802812,0.100236505,-0.8136919,1.1163712,-2.066803,-1.7727852,-16.0553,-5.547774,0.34726262,1.3240635
14.3505,23.401749,4.307078,-2.5457635,-1.0988132,-1.9601674,0.3086558,-0.7609546,0.5964405,0.18442874,-0.1305047,0.016445544,0.65534776,0.58710384,1.1091812,-0.49856,-1.6898785,-0.8581801,2.2455645,1.4682626,-0.91655296,1.1715246,-0.54714525,-1.7044418,-0.8470818,2.245976,1.4075934,-0.97168994,-1.3713902,1.0982254,0.3781767,-0.22449365,0.18386534,0.487099,0.36004743,1.4935875,-0.50445175,1.3682257,-3.6685581,-0.42139405,0.42870948,0.123233795,-0.39350128,1.0391892,0.8166576,-0.18824106,0.11305033,0.5337183,-0.22783464,0.66761863,0.32004914,1.0,0.0,0.0,0.0,0.0,0.0,0.0,-2.1435876,0.104451746,-0.8182257,1.5513897,-3.0726671,-3.917718,-11.699399,-8.695674,0.24638772,1.105243
3.8523521,15.320273,0.92388314,5.2898674,-0.61218774,-1.8477867,-0.08606616,-0.7562343,0.5673204,0.10606538,-0.07824416,-0.20960207,0.6589056,0.59461707,1.0959013,-0.49041322,-1.6938353,-0.8549062,2.2250159,1.4734839,-0.9122282,1.1579138,-0.53647935,-1.7012718,-0.84952223,2.246594,1.4124571,-0.96801066,-1.3575956,1.0563269,0.29642686,-0.25098252,0.02117008,0.4866809,0.37019533,1.4569283,-0.5086632,1.3717731,-3.6648903,-0.42097273,0.3300949,0.12125015,-0.38708496,1.0420626,0.8165277,-0.19245577,0.11840268,0.5312475,-0.18119968,0.63391924,0.27261066,1.0,0.0,0.0,0.0,0.0,0.0,0.0,-2.1069283,0.10866317,-0.8217731,1.4097214,-4.1130543,-8.242548,-2.7860224,-16.194101,0.15593767,0.90978146
-0.39507914,0.9831674,-3.997385,4.371319,-0.61216956,-2.163668,-0.17675625,-0.75878346,0.5056047,0.057543054,-0.16500908,-0.39921364,0.6692392,0.58642393,1.0820354,-0.48591888,-1.6955174,-0.8660231,2.2066727,1.4793811,-0.9093683,1.1443926,-0.52644575,-1.6990592,-0.85230124,2.2451825,1.4173228,-0.9642513,-1.3499429,0.9858736,0.19622833,-0.2873669,-0.19548197,0.48727953,0.37726474,1.4203072,-0.5128708,1.3743352,-3.6612263,-0.42055184,0.23157893,0.11972809,-0.38116455,1.044352,0.81662893,-0.19601823,0.12476806,0.52832466,-0.13642147,0.57821685,0.21073242,1.0,0.0,0.0,0.0,0.0,0.0,0.0,-2.0703073,0.11287078,-0.82433516,0.82116127,-6.9812536,-10.069018,-3.7948072,-21.626812,0.2570331,0.54976344
-5.713451,-5.5724797,-5.4857135,8.663559,0.031617105,-2.0309758,-0.2710192,-0.75166196,0.44449368,0.060464602,-0.12532242,-0.535521,0.67963207,0.5784483,1.0692264,-0.4819964,-1.6930128,-0.8648335,2.1916304,1.485286,-0.90640646,1.1309458,-0.51730096,-1.6976478,-0.8551308,2.2414937,1.4222018,-0.96043944,-1.3428262,0.8908784,0.12257909,-0.2820106,-0.42613608,0.48863912,0.3817769,1.3837242,-0.5170746,1.3759128,-3.6575656,-0.4201314,0.13316146,0.11847305,-0.3758545,1.0460738,0.8170074,-0.19899593,0.13206974,0.5248399,-0.11512064,0.5152015,0.15602693,1.0,0.0,0.0,0.0,0.0,0.0,0.0,-2.0337243,0.11707458,-0.8259128,0.76265335,-9.445095,-7.4263678,0.3642261,-23.00697,0.30043125,0.26551485
-13.726297,-21.474741,-8.746368,14.334656,1.5097022,-1.8871241,-0.3077436,-0.7396452,0.30949405,0.1152222,-0.050091263,-0.5898108,0.6860242,0.5781386,1.0569813,-0.48635155,-1.6861256,-0.8601399,2.1825125,1.4908042,-0.90262556,1.1176039,-0.50957334,-1.6964691,-0.85746634,2.2357678,1.427096,-0.9565923,-1.3310499,0.7334985,0.11599991,-0.21794347,-0.6211576,0.4903527,0.38515538,1.3471756,-0.52127075,1.3765069,-3.6539087,-0.41971135,0.034842372,0.11709595,-0.37132263,1.0473086,0.81764495,-0.20159243,0.13977171,0.5208464,-0.13952471,0.43090853,0.10965493,1.0,0.0,0.0,0.0,0.0,0.0,0.0,-1.9971756,0.121270746,-0.8265069,1.257062,-15.697443,-0.78673214,6.2199297,-19.396341,0.30810833,0.15168786
-22.16286,-53.73589,-17.662657,13.835655,2.8815632,-2.3399334,-0.25633377,-0.7355428,0.114498064,0.1217105,-0.06600402,-0.595669,0.6837521,0.56626064,1.0440496,-0.49812353,-1.684298,-0.8640667,2.1762009,1.4954712,-0.89996624,1.1043841,-0.50410116,-1.6951187,-0.8592211,2.2285542,1.4320036,-0.9527252,-1.3181884,0.4851684,0.14070453,-0.16189368,-0.7545818,0.4912717,0.38653156,1.3106651,-0.5254669,1.3761187,-3.6502557,-0.41929173,-0.06337841,0.11520386,-0.3680458,1.0479424,0.8185382,-0.2037445,0.1471632,0.51655227,-0.20184691,0.2931571,0.045631655,1.0,0.0,0.0,0.0,0.0,0.0,0.0,-1.9606651,0.12546691,-0.82611865,1.4779568,-24.811436,2.2611527,5.434492,-13.222063,0.18908978,-0.060510635
-28.190311,-89.68011,-27.815025,9.119585,3.910735,-3.0232282,-0.10643463,-0.7192508,-0.12443467,0.15110485,-0.11760045,-0.5964364,0.6793149,0.5199144,1.032459,-0.51654464,-1.6800082,-0.87098116,2.1689105,1.4999352,-0.9007337,1.0913492,-0.501861,-1.6933258,-0.8607842,2.220429,1.4369093,-0.9488828,-1.2974234,0.13688466,0.19115679,-0.1548086,-0.83133835,0.4902665,0.3828482,1.274189,-0.52965546,1.3747488,-3.6466062,-0.41887254,-0.16150099,0.11249542,-0.36660004,1.047708,0.819687,-0.20517214,0.15353882,0.5122923,-0.29063627,0.094494976,-0.04801768,1.0,0.0,0.0,0.0,0.0,0.0,0.0,-1.924189,0.12965545,-0.8247488,2.4072886,-34.82952,4.7606764,0.5953312,-7.561481,-0.132519,-0.5639851
-27.262774,-119.31207,-36.2413,-1.2313656,4.0789056,-3.8535259,0.20356151,-0.6687187,-0.38363722,0.17551957,-0.23910059,-0.60470235,0.6694052,0.4767095,1.0244774,-0.5402247,-1.6757739,-0.8846942,2.1599586,1.5038499,-0.90121186,1.0787321,-0.5037292,-1.6909568,-0.86299384,2.2118192,1.4417826,-0.94511104,-1.2486945,-0.29495108,0.25148112,-0.24323057,-0.87070405,0.4851502,0.37459233,1.237751,-0.5338402,1.3723986,-3.6429603,-0.41845375,-0.25952548,0.108932495,-0.36754227,1.046231,0.8210317,-0.20545268,0.15835512,0.5085467,-0.37725922,-0.15742262,-0.18154834,1.0,0.0,0.0,0.0,0.0,0.0,0.0,-1.887751,0.13384017,-0.8223986,5.2684307,-43.234737,5.8129015,-8.880314,-3.915155,-0.84100366,-1.0220051
-17.302046,-118.063156,-34.67866,-9.787355,3.5244198,-4.044917,0.5738075,-0.576392,-0.5910042,0.24191533,-0.33645338,-0.6120735,0.66610426,0.42370427,1.0210929,-0.5628296,-1.6667653,-0.89663917,2.1506119,1.508393,-0.9027406,1.0669771,-0.5100435,-1.6877773,-0.866593,2.2029805,1.4465834,-0.94145656,-1.1502072,-0.74398816,0.34029666,-0.39873987,-0.88906026,0.4760688,0.36193824,1.2013474,-0.5380211,1.3690689,-3.6393182,-0.4180354,-0.35745195,0.104701996,-0.37101364,1.043295,0.8223914,-0.20438848,0.16130628,0.5058437,-0.43912184,-0.40849963,-0.3311372,1.0,0.0,0.0,0.0,0.0,0.0,0.0,-1.8513473,0.13802108,-0.81906885,10.096335,-45.02772,8.914095,-15.543771,-1.9656777,-1.6096771,-1.4066458
1.5327164,-75.37496,-20.414276,-14.596086,2.014363,-3.3698282,0.9412914,-0.4927358,-0.68192416,0.34398788,-0.44512603,-0.64302,0.67269665,0.38503784,1.0177035,-0.5782359,-1.6533785,-0.91110563,2.1386786,1.5138531,-0.9029528,1.0564753,-0.5201973,-1.6833694,-0.8720881,2.1939588,1.4512964,-0.9379461,-1.0170599,-1.106473,0.47519895,-0.5998995,-0.90718013,0.46679115,0.34726816,1.1649818,-0.5421982,1.3647605,-3.6356795,-0.41761744,-0.45528048,0.1002655,-0.3764572,1.038985,0.82345384,-0.2021591,0.16251665,0.50462246,-0.44689488,-0.58714545,-0.46470076,1.0,0.0,0.0,0.0,0.0,0.0,0.0,-1.8149818,0.14219818,-0.8147605,13.260818,-36.415565,13.772559,-20.146746,-2.0296216,-1.7665684,-1.517868
23.546305,-10.824928,1.0991924,-13.640116,0.4315952,-2.149658,1.1736925,-0.3531726,-0.71489906,0.4565485,-0.465296,-0.69352955,0.6848581,0.37155512,1.021158,-0.5916872,-1.6377145,-0.91861767,2.124606,1.5197823,-0.9007906,1.0477186,-0.53296125,-1.6772964,-0.8793293,2.1846585,1.4559466,-0.93457484,-0.8296539,-1.333455,0.65222526,-0.76604337,-0.93802714,0.46256173,0.3340328,1.1286507,-0.54637146,1.3594747,-3.6320446,-0.4171999,-0.5530113,0.096191406,-0.38288116,1.0337083,0.8238564,-0.19934921,0.16236801,0.5051306,-0.3970466,-0.6558926,-0.54959565,1.0,0.0,0.0,0.0,0.0,0.0,0.0,-1.7786506,0.14637145,-0.80947465,18.406605,-22.81654,18.00437,-16.748178,-3.188336,-0.9851992,-1.2511969
27.96916,25.839527,11.153061,-7.033229,-0.25376096,-1.4830604,0.8771398,-0.27692094,-0.7459721,0.38821033,-0.45905,-0.6971737,0.6780263,0.275455,1.0200266,-0.6075585,-1.6384754,-0.9252343,2.1149411,1.5237492,-0.90702933,1.0408636,-0.54713,-1.6701038,-0.8877045,2.1750798,1.4605738,-0.9313915,-0.6387379,-1.4448748,0.7424858,-0.86168474,-0.964512,0.46208835,0.31353274,1.0923576,-0.5505409,1.3532122,-3.6284134,-0.4167828,-0.6506444,0.09275055,-0.3895645,1.0278648,0.82359064,-0.19639069,0.16138886,0.50703317,-0.32973585,-0.6675395,-0.5970651,1.0,0.0,0.0,0.0,0.0,0.0,0.0,-1.7423576,0.15054092,-0.8032122,18.728685,-11.20162,9.226072,-9.675133,-2.6765108,-0.29072165,-1.9320309
29.042933,42.871197,14.643426,-4.134231,-0.7142547,-1.3732482,0.62972486,-0.18817261,-0.7716265,0.31312367,-0.5081476,-0.6586702,0.65916383,0.21353753,1.0220463,-0.6242926,-1.6387914,-0.93851924,2.1092129,1.5264902,-0.9100377,1.0358759,-0.56184614,-1.6627967,-0.8968054,2.1654096,1.4651991,-0.9284456,-0.4533433,-1.4806331,0.727287,-0.9264821,-0.96784484,0.46224958,0.28855255,1.0561028,-0.5547066,1.3459742,-3.6247857,-0.4163661,-0.7481799,0.09005356,-0.39623642,1.0216607,0.8228078,-0.19337615,0.16001879,0.509889,-0.25091684,-0.6601836,-0.6294164,1.0,0.0,0.0,0.0,0.0,0.0,0.0,-1.7061027,0.15470657,-0.7959742,18.186314,-3.6026,-1.3424277,-6.550026,-0.36205053,-0.06380677,-2.3938239
28.390049,50.804604,15.814728,-1.6334319,-0.91278166,-1.3675281,0.43168315,-0.085698776,-0.78103304,0.25047186,-0.5167218,-0.65905446,0.6646267,0.20969644,1.0273061,-0.63994944,-1.6377496,-0.94847757,2.0995042,1.5316617,-0.90747595,1.032725,-0.57659376,-1.6562297,-0.90629447,2.1557622,1.4698359,-0.92573524,-0.27026466,-1.4728763,0.6337585,-0.9566086,-0.963671,0.4641961,0.2655262,1.0198822,-0.5588646,1.3377615,-3.6211617,-0.41594982,-0.8456179,0.08817291,-0.40278625,1.0152031,0.82165414,-0.1902958,0.15857206,0.5133485,-0.16884717,-0.6463624,-0.65248376,1.0,0.0,0.0,0.0,0.0,0.0,0.0,-1.6698822,0.15886459,-0.7877615,17.974632,0.7712841,-9.173096,-3.0489922,0.37738085,0.2065599,-2.2199988
15.1319065,37.280193,8.354498,3.1278398,-0.567745,-1.680356,0.03350164,-0.07559277,-0.78349245,0.05857751,-0.5316914,-0.64151585,0.6606862,0.23477167,1.0251657,-0.654943,-1.650372,-0.9594636,2.0916107,1.5359045,-0.90225804,1.0309664,-0.5911325,-1.6515262,-0.915959,2.1462216,1.474486,-0.9232147,-0.14490181,-1.4477488,0.4166922,-0.96956897,-0.95106834,0.46510506,0.2474882,0.983696,-0.5630226,1.3285751,-3.6175413,-0.41553396,-0.9429585,0.086933136,-0.40939713,1.0084355,0.8204487,-0.18688455,0.15736903,0.5168877,-0.11012103,-0.6610352,-0.68623656,1.0,0.0,0.0,0.0,0.0,0.0,0.0,-1.633696,0.16302261,-0.7785751,12.336016,2.4831533,-21.486986,-1.2202859,1.1065006,0.03604889,-1.799798
4.646981,25.112423,2.376781,6.488927,-0.23106346,-1.8685837,-0.20221719,-0.050158504,-0.7826588,-0.09204042,-0.54100853,-0.6437787,0.66956866,0.2990332,1.0259506,-0.6693984,-1.6607302,-0.9700599,2.0818439,1.5414429,-0.8933114,1.0301062,-0.60541,-1.6495025,-0.9256922,2.1367955,1.4791456,-0.92080474,-0.06677448,-1.4212662,0.13156576,-0.97399426,-0.94083714,0.46593407,0.23856618,0.9475479,-0.567173,1.3184162,-3.6139245,-0.41511852,-1.0402017,0.08610916,-0.41633606,1.001247,0.81946415,-0.18285899,0.15663758,0.52010167,-0.071688615,-0.69786996,-0.73154014,1.0,0.0,0.0,0.0,0.0,0.0,0.0,-1.5975479,0.167173,-0.7684162,7.7283816,2.5923967,-28.277578,-0.28922558,0.7861495,-0.053453445,-0.9476125
-2.9736004,13.667463,-2.953219,7.019395,-0.10398546,-2.040625,-0.28245962,-0.051054314,-0.781073,-0.25093305,-0.5943251,-0.64930654,0.6759044,0.3625964,1.0250008,-0.6835173,-1.6745958,-0.9851247,2.0718648,1.5467361,-0.8845451,1.0296637,-0.6194719,-1.6505878,-0.9356686,2.1274266,1.483811,-0.91842055,-0.03666611,-1.4014442,-0.18781677,-1.004875,-0.936597,0.46592358,0.23812364,0.911438,-0.5713234,1.3072855,-3.6103113,-0.4147035,-1.1373477,0.08559418,-0.42377472,0.99347323,0.8188555,-0.17793006,0.1565352,0.5227937,-0.044869754,-0.75351715,-0.79521203,1.0,0.0,0.0,0.0,0.0,0.0,0.0,-1.561438,0.17132339,-0.75728554,3.0540473,1.8929243,-31.723028,-2.8618813,0.10629892,-0.26751757,-0.15428066
-4.613557,23.071896,1.9975575,10.393066,0.23581043,-1.3528485,-0.15743047,-0.0703473,-0.77355087,-0.1983007,-0.603414,-0.67915154,0.68909276,0.39635286,1.0226289,-0.696827,-1.6704179,-0.99601,2.0595114,1.5527203,-0.87878525,1.0292021,-0.6333679,-1.6539276,-0.94597876,2.117989,1.4884897,-0.9159992,-0.048842393,-1.3858492,-0.38274217,-1.03897,-0.9468532,0.46805722,0.24334241,0.8753624,-0.57546616,1.2951841,-3.6067016,-0.41428888,-1.2343966,0.08523178,-0.4315529,0.9851761,0.81852263,-0.17224996,0.15697567,0.52508014,-0.032335997,-0.7808454,-0.8445581,1.0,0.0,0.0,0.0,0.0,0.0,0.0,-1.5253624,0.17546615,-0.7451841,-1.0527418,1.493001,-19.503815,-3.1767845,-1.281333,0.04031062,0.48351288
-4.78445,35.749035,8.71477,13.98083,0.6362076,-0.57284105,-0.006153196,-0.09986695,-0.76807725,-0.14544621,-0.61351424,-0.69172335,0.6990746,0.43005198,1.0192155,-0.71017563,-1.6684722,-1.0073302,2.0488167,1.5583972,-0.87299395,1.0283724,-0.64713705,-1.6581638,-0.9566151,2.1084065,1.4932047,-0.9134929,-0.0934537,-1.3740745,-0.43787354,-1.0710806,-0.9628497,0.47256863,0.25328487,0.83932114,-0.5796051,1.282113,-3.6030958,-0.4138747,-1.3313484,0.08488846,-0.4393654,0.97655314,0.8182636,-0.16620408,0.15773389,0.52720094,-0.033639528,-0.7745599,-0.87206507,1.0,0.0,0.0,0.0,0.0,0.0,0.0,-1.4893211,0.1796051,-0.73211294,-4.2329073,1.141882,-5.7320175,-2.9996872,-1.7683387,0.4223466,1.0542512
-7.6940556,37.76137,10.455567,16.18935,0.9949551,-0.21523455,0.033462096,-0.14356902,-0.77580905,-0.16696744,-0.6416018,-0.695096,0.6922254,0.43347713,1.0140156,-0.724718,-1.6748605,-1.0207753,2.038897,1.5624273,-0.8701452,1.0268999,-0.66086805,-1.662463,-0.9676157,2.0986676,1.4979597,-0.9108856,-0.16422911,-1.372909,-0.4284676,-1.108847,-0.97807956,0.476634,0.26357278,0.803318,-0.58374023,1.268073,-3.5994933,-0.41346088,-1.4282033,0.08443451,-0.4470253,0.9677107,0.8179779,-0.16000773,0.15862961,0.52928853,-0.048287567,-0.7585063,-0.8924421,1.0,0.0,0.0,0.0,0.0,0.0,0.0,-1.453318,0.18374023,-0.71807295,-6.801164,0.08432865,0.6289661,-3.5435915,-1.6735077,0.41965246,1.1415482
-3.4693804,49.52681,16.708426,17.205503,1.167021,0.2507272,0.16943116,-0.14752278,-0.77178717,-0.07655244,-0.6396225,-0.6900165,0.6937783,0.4436809,1.0121477,-0.73804677,-1.6701182,-1.031578,2.029666,1.5673375,-0.8665175,1.0247961,-0.6746,-1.6660163,-0.97890055,2.0888295,1.5027605,-0.90817237,-0.22498402,-1.3732561,-0.33240753,-1.134503,-0.98599255,0.4817605,0.27458343,0.76734924,-0.58787155,1.2530651,-3.5958946,-0.4130475,-1.5249614,0.08383179,-0.45436096,0.9588141,0.817521,-0.15395853,0.15944415,0.5315391,-0.063617386,-0.71834564,-0.89262867,1.0,0.0,0.0,0.0,0.0,0.0,0.0,-1.4173492,0.18787155,-0.7030651,-5.8384447,-0.025558472,9.171104,-2.38688,-0.8196473,0.6666839,1.3034463
-3.22981,45.63862,15.000352,16.15022,1.1308826,0.048921287,0.13358876,-0.15509248,-0.7784167,-0.1410444,-0.6517519,-0.6951175,0.6872347,0.4428726,1.0092869,-0.75244164,-1.6801208,-1.0440757,2.0193179,1.571484,-0.8638851,1.0222174,-0.6883768,-1.6688926,-0.9904028,2.0789266,1.5076014,-0.90536094,-0.26827413,-1.3791249,-0.27389652,-1.1548786,-0.9916894,0.48527378,0.28392833,0.7314186,-0.59199905,1.2370905,-3.5922995,-0.41263452,-1.6216227,0.083106995,-0.46136093,0.94987077,0.8168867,-0.14807312,0.16013116,0.5339741,-0.07635783,-0.6890484,-0.8983981,1.0,0.0,0.0,0.0,0.0,0.0,0.0,-1.3814186,0.19199905,-0.68709046,-4.1221085,-0.58231354,5.4724813,-1.847887,-0.6097555,0.46614408,1.1217773
-3.5884023,42.370884,12.990284,15.696598,1.0596062,-0.19385895,0.045329276,-0.15867098,-0.7721569,-0.1979623,-0.6417213,-0.6982834,0.6899777,0.45080236,1.0063503,-0.76559246,-1.6886889,-1.054575,2.0090983,1.5765991,-0.8602807,1.0193506,-0.7021831,-1.6716411,-1.0019877,2.0689778,1.5124727,-0.9024637,-0.2920653,-1.3811362,-0.2760586,-1.1590022,-0.9962393,0.48801896,0.29215303,0.6955223,-0.59612274,1.22015,-3.588708,-0.41222197,-1.7181873,0.08225632,-0.4681778,0.9408244,0.81615853,-0.14223228,0.1607631,0.53647953,-0.086424515,-0.671627,-0.9098359,1.0,0.0,0.0,0.0,0.0,0.0,0.0,-1.3455223,0.19612274,-0.67015,-2.2082984,-0.20554066,-0.49414635,-0.21915436,-0.5308747,0.34950972,0.9681463
-1.3294144,36.89294,9.979402,12.645004,0.7682935,-0.6020808,0.027855217,-0.14024243,-0.77491224,-0.27390668,-0.6563006,-0.696297,0.68618095,0.45498636,1.0053264,-0.77967435,-1.6990318,-1.0676178,1.9993482,1.5810908,-0.85696507,1.0164553,-0.7160114,-1.6749389,-1.0136244,2.0589986,1.5173594,-0.89949393,-0.28822884,-1.3834566,-0.34818226,-1.1646278,-0.99863315,0.48884907,0.29887497,0.65966415,-0.6002426,1.2022445,-3.58512,-0.41180983,-1.8146555,0.08140564,-0.47494125,0.93155175,0.8154004,-0.13622947,0.16143672,0.5389821,-0.08532844,-0.6707858,-0.9360355,1.0,0.0,0.0,0.0,0.0,0.0,0.0,-1.3096641,0.20024261,-0.6522445,0.50323606,-0.25200844,-7.3701143,-0.3693819,-0.36058426,0.06056428,0.76387525
0.6479853,34.999924,8.697599,10.607277,0.538427,-0.8060511,0.03498865,-0.12990834,-0.77223366,-0.33023474,-0.66346544,-0.702831,0.6947864,0.47024783,1.0034645,-0.79323477,-1.7079624,-1.079971,1.9887155,1.586838,-0.85246915,1.0137221,-0.7298435,-1.6792514,-1.0253298,2.048985,1.5222536,-0.8964565,-0.26813862,-1.3831389,-0.45934293,-1.1718879,-1.002557,0.4895351,0.3055598,0.62384033,-0.60435486,1.1833751,-3.5815356,-0.4113981,-1.9110272,0.08061981,-0.48174286,0.92195016,0.8146359,-0.12990402,0.16222884,0.5414564,-0.075932585,-0.6770982,-0.9712269,1.0,0.0,0.0,0.0,0.0,0.0,0.0,-1.2738403,0.20435485,-0.6333751,2.100134,0.004887581,-11.210382,-0.5375862,-0.5336642,-0.012147427,0.72461367
-0.5696237,30.178417,6.1919956,9.054565,0.46571517,-0.9574366,0.043966167,-0.14268935,-0.7778836,-0.40538567,-0.69880426,-0.6848966,0.6802495,0.47341427,0.9994531,-0.80763185,-1.71979,-1.0952103,1.9804953,1.5902786,-0.8491151,1.0111376,-0.74369276,-1.6848819,-1.0372584,2.0389943,1.5271384,-0.89335895,-0.2548113,-1.3857752,-0.59794635,-1.1990736,-0.9989117,0.4876723,0.3113239,0.58805084,-0.6084671,1.1635427,-3.5779548,-0.4109868,-2.0073025,0.07993698,-0.48868942,0.91189927,0.8138856,-0.12307993,0.16316034,0.54389346,-0.06589477,-0.6925664,-1.0197186,1.0,0.0,0.0,0.0,0.0,0.0,0.0,-1.2380508,0.2084671,-0.61354274,1.4463246,-0.30927658,-13.925552,-2.495408,0.17690659,-0.35606027,0.61113834
-5.403846,37.908676,10.023976,13.425248,0.8809028,-0.38783193,0.0087977275,-0.19085868,-0.767083,-0.35613596,-0.68645155,-0.6926735,0.69016373,0.48407423,0.9920517,-0.8204011,-1.7204955,-1.1059035,1.9697269,1.5961547,-0.8449515,1.0084196,-0.7575172,-1.691405,-1.0493834,2.0290227,1.5320154,-0.8902004,-0.27677223,-1.3814498,-0.6710663,-1.2161515,-0.9972919,0.4876652,0.31760743,0.5522995,-0.6125717,1.1427484,-3.5743775,-0.4105759,-2.1034813,0.07922363,-0.495636,0.9014996,0.81313866,-0.1158939,0.16417816,0.54627794,-0.072785445,-0.68874776,-1.0503591,1.0,0.0,0.0,0.0,0.0,0.0,0.0,-1.2022995,0.21257171,-0.59274834,-2.0332813,0.39510727,-7.4596286,-1.4863014,-0.013697147,-0.07483363,0.70423484
-11.026963,39.00954,10.581189,16.18451,1.190249,-0.088627696,-0.041664712,-0.23180243,-0.7684348,-0.3854841,-0.7019039,-0.69840455,0.6846649,0.4879286,0.9852394,-0.8343607,-1.7299535,-1.1195738,1.9591823,1.600482,-0.84140754,1.0052534,-0.7713007,-1.6984546,-1.0616915,2.0190434,1.5368925,-0.8869827,-0.32907706,-1.3774823,-0.7166479,-1.2347922,-0.9988988,0.48739514,0.32357913,0.5165825,-0.61667633,1.1209929,-3.5708039,-0.4101654,-2.199564,0.07834244,-0.50250626,0.89083374,0.8124092,-0.108458005,0.16524126,0.5485648,-0.0940164,-0.67920816,-1.0757093,1.0,0.0,0.0,0.0,0.0,0.0,0.0,-1.1665825,0.21667632,-0.5709929,-5.0223646,0.34816265,-4.731238,-1.6141415,-0.36604404,-0.08662939,0.68780184
-17.347649,44.475163,13.230956,20.776949,1.62844,0.39754224,-0.11910037,-0.29049867,-0.75921553,-0.35936937,-0.6892864,-0.7167541,0.69427466,0.50748444,0.97620356,-0.8472222,-1.7343916,-1.1306201,1.947368,1.60632,-0.8362342,1.0013262,-0.78500783,-1.7056034,-1.074074,2.008988,1.5417792,-0.8836944,-0.4130625,-1.3686358,-0.7150543,-1.238614,-1.0084343,0.48898658,0.33092865,0.4808998,-0.6207733,1.0982773,-3.5672338,-0.40975532,-2.2955506,0.077106476,-0.5091858,0.88003814,0.8117214,-0.10094307,0.16632374,0.5506862,-0.13333963,-0.65636593,-1.0846301,1.0,0.0,0.0,0.0,0.0,0.0,0.0,-1.1308998,0.22077331,-0.5482773,-8.157307,0.8347273,-0.053155422,-0.12655258,-1.1646986,0.17815232,0.8528471
-25.3995,35.600704,8.422015,22.144012,1.8737754,0.28863811,-0.23586084,-0.34932598,-0.76941735,-0.45574003,-0.7079357,-0.717701,0.6844421,0.50439537,0.9663936,-0.86194956,-1.7511773,-1.1448677,1.9372178,1.6102234,-0.8332549,0.99640375,-0.79868734,-1.7130458,-1.086529,1.9988294,1.5466677,-0.8803432,-0.5176601,-1.3680445,-0.75459665,-1.246825,-1.0191419,0.48856723,0.33692536,0.44525528,-0.6248703,1.0746026,-3.5636673,-0.40934566,-2.3914413,0.0753746,-0.5157509,0.8690497,0.81117785,-0.0932438,0.16744702,0.5525012,-0.18715785,-0.6489191,-1.1071258,1.0,0.0,0.0,0.0,0.0,0.0,0.0,-1.0952553,0.2248703,-0.5246026,-10.171854,-0.035095215,-4.0999293,-0.47955513,-1.3831377,-0.12595057,0.6943941
-24.754272,29.019402,4.844069,19.515259,1.7272227,-0.035942674,-0.2273205,-0.36287266,-0.77483064,-0.5487993,-0.7246185,-0.6970032,0.6589334,0.49762875,0.9601165,-0.8761704,-1.7679257,-1.1589909,1.929129,1.612561,-0.83058035,0.9905711,-0.8124069,-1.7212913,-1.0991232,1.9886403,1.5515276,-0.87694526,-0.6041892,-1.3737468,-0.8481106,-1.2624651,-1.019884,0.48433375,0.3410492,0.40964508,-0.62895966,1.0499697,-3.5601044,-0.40893638,-2.4872363,0.073135376,-0.5223541,0.85770375,0.81083333,-0.08512752,0.16860795,0.55396193,-0.23661974,-0.65611863,-1.1473023,1.0,0.0,0.0,0.0,0.0,0.0,0.0,-1.059645,0.22895965,-0.49996966,-8.375252,-0.6882429,-9.425699,-1.183033,-0.4323244,-0.6213486,0.48328638
-24.783768,27.235437,3.7054744,18.354923,1.6398373,-0.08472037,-0.20788553,-0.40693977,-0.7770318,-0.5957277,-0.73236483,-0.7126158,0.65766114,0.51966566,0.9498771,-0.8901101,-1.7808641,-1.1723597,1.9173788,1.6172937,-0.8249787,0.9839278,-0.8262018,-1.7306125,-1.111891,1.9784188,1.5563418,-0.8734958,-0.6834433,-1.3819481,-0.96033984,-1.2801567,-1.0242712,0.4793638,0.3464224,0.3740692,-0.6330452,1.0243795,-3.556545,-0.40852752,-2.5829353,0.070423126,-0.52905655,0.84589756,0.8106871,-0.076464765,0.16980729,0.555072,-0.2848363,-0.66604835,-1.195386,1.0,0.0,0.0,0.0,0.0,0.0,0.0,-1.0240692,0.23304519,-0.47437948,-7.64941,-0.95334053,-11.264658,-1.3628721,-0.8259773,-0.75498223,0.59810877
-21.722506,32.375847,6.258363,17.538885,1.5454031,0.06897509,-0.15033692,-0.43699312,-0.77134496,-0.6183622,-0.73161626,-0.71570766,0.6694481,0.53186035,0.94022846,-0.9033363,-1.7924488,-1.1850526,1.9068481,1.6232866,-0.82030976,0.9765883,-0.8400415,-1.7409523,-1.1247962,1.9681516,1.5611178,-0.8699882,-0.74991953,-1.3850902,-1.0586498,-1.2928095,-1.0287571,0.47619218,0.35247362,0.3385315,-0.6371269,0.997833,-3.5529892,-0.40811908,-2.6785388,0.06726074,-0.5357971,0.83365226,0.81068563,-0.06729603,0.17102268,0.55588776,-0.32809022,-0.66686,-1.2380779,1.0,0.0,0.0,0.0,0.0,0.0,0.0,-0.9885315,0.23712692,-0.447833,-6.401396,-0.43673515,-9.8775625,-0.88920593,-0.8081913,-0.555259,0.674665
-29.697847,30.885742,5.12662,20.212265,1.9531958,0.32806012,-0.23362006,-0.53085965,-0.7805274,-0.66241467,-0.7442621,-0.69787043,0.6505611,0.5036602,0.9235023,-0.9180943,-1.8071938,-1.1992223,1.8983645,1.6261739,-0.81962216,0.96835905,-0.85393846,-1.752198,-1.1378386,1.9578977,1.5658518,-0.8664453,-0.8462375,-1.3917397,-1.1465963,-1.3066157,-1.0259588,0.4713124,0.35522208,0.3030281,-0.64120483,0.97033125,-3.5494368,-0.40771106,-2.7740464,0.06353378,-0.5425339,0.8209843,0.8108619,-0.057643063,0.17217916,0.5563583,-0.39033988,-0.66663074,-1.2803202,1.0,0.0,0.0,0.0,0.0,0.0,0.0,-0.9530281,0.24120483,-0.42033124,-9.34031,-0.8276701,-8.81753,-0.9370327,-0.15614033,-0.7737756,0.36640167
-34.806236,34.40797,6.5203648,22.562096,2.2970088,0.69039404,-0.2774266,-0.60503703,-0.77615684,-0.679612,-0.750217,-0.6694588,0.6519355,0.49330437,0.90785533,-0.93155414,-1.8201592,-1.2128603,1.8909518,1.6310453,-0.8171149,0.95900255,-0.8678707,-1.7641361,-1.1510108,1.947762,1.5705401,-0.86288714,-0.9643769,-1.3943137,-1.2095606,-1.3190771,-1.0109102,0.46710208,0.3564885,0.26755905,-0.64527893,0.9418751,-3.5458882,-0.40730342,-2.8694587,0.0590744,-0.5492172,0.8079605,0.81125015,-0.047578342,0.17317782,0.55643415,-0.46653488,-0.6576529,-1.31378,1.0,0.0,0.0,0.0,0.0,0.0,0.0,-0.917559,0.24527892,-0.3918751,-11.50527,-0.44231415,-6.311822,-0.7765055,1.0290146,-0.7089317,0.2519667
-38.382248,38.270683,7.8862267,24.782154,2.542722,0.9626087,-0.35116112,-0.66603553,-0.7689856,-0.7164583,-0.7305061,-0.66566104,0.66952586,0.47571477,0.892399,-0.94476926,-1.8357819,-1.2240614,1.8811959,1.6374927,-0.81531566,0.94841295,-0.881781,-1.7766368,-1.1641772,1.9377847,1.5752054,-0.85933185,-1.0895594,-1.3905619,-1.2635515,-1.314346,-0.9949237,0.46528873,0.3556687,0.23212814,-0.6493492,0.9124656,-3.542343,-0.4068962,-2.9647756,0.05378723,-0.55575943,0.7946723,0.81188697,-0.03720407,0.17397761,0.55604595,-0.55230045,-0.6421388,-1.3378944,1.0,0.0,0.0,0.0,0.0,0.0,0.0,-0.8821281,0.2493492,-0.36246556,-12.215853,0.17461777,-5.385685,0.94935894,1.1021137,-0.4659295,0.056284666
-38.923378,38.090584,7.5806017,24.464556,2.6043594,1.0092314,-0.37623763,-0.71810406,-0.7764365,-0.7660288,-0.7277723,-0.64258957,0.6611912,0.41563597,0.87660253,-0.9594246,-1.8532398,-1.2369545,1.8735257,1.6413245,-0.8177683,0.9366227,-0.89567983,-1.789727,-1.1772482,1.9280114,1.5798479,-0.85582995,-1.2079452,-1.3903642,-1.3240411,-1.3031487,-0.9730608,0.46291122,0.34882915,0.19673157,-0.6534157,0.8821036,-3.5388014,-0.4064894,-3.059997,0.04763031,-0.5621567,0.78113174,0.8127993,-0.026540784,0.1745256,0.5551519,-0.6405117,-0.6267582,-1.3634303,1.0,0.0,0.0,0.0,0.0,0.0,0.0,-0.84673154,0.25341567,-0.3321036,-11.547661,-0.19381046,-6.011033,1.6178131,1.6857266,-0.56099296,-0.53026676
-35.305237,42.932198,10.164415,23.501463,2.5560527,1.1367636,-0.3567878,-0.7600981,-0.7699786,-0.7785561,-0.71409065,-0.6086061,0.66061336,0.34806687,0.86061287,-0.9726777,-1.8675826,-1.2486573,1.8671508,1.6459093,-0.8210233,0.9237729,-0.909551,-1.8033321,-1.1901476,1.9185281,1.5844713,-0.8524463,-1.3098437,-1.3867373,-1.3726702,-1.2840018,-0.941527,0.4610651,0.3355109,0.16136932,-0.65747833,0.85079014,-3.5352633,-0.406083,-3.1551235,0.040634155,-0.56834793,0.7673909,0.81397396,-0.015666554,0.17475018,0.55377185,-0.7231142,-0.6042238,-1.381587,1.0,0.0,0.0,0.0,0.0,0.0,0.0,-0.8113693,0.25747833,-0.30079013,-9.941506,0.16539097,-4.825759,2.372694,2.7041912,-0.48254132,-1.1594653
-30.202896,49.224148,13.509952,22.667948,2.379954,1.2488611,-0.34726936,-0.78931415,-0.75940853,-0.79406637,-0.677968,-0.62317705,0.66749257,0.2954224,0.8448415,-0.9854919,-1.8827387,-1.2579445,1.8562104,1.6512206,-0.82290405,0.91007906,-0.9233383,-1.8173416,-1.2027152,1.9092774,1.5890852,-0.8492296,-1.388552,-1.3766261,-1.4103093,-1.2463372,-0.92078555,0.46078384,0.31761104,0.12604523,-0.6615372,0.8185261,-3.5317287,-0.405677,-3.2501547,0.032894135,-0.57427216,0.7535445,0.81537867,-0.004702833,0.17467414,0.55192786,-0.79498845,-0.57359976,-1.3894378,1.0,0.0,0.0,0.0,0.0,0.0,0.0,-0.7760452,0.26153716,-0.26852608,-7.6799393,0.8417845,-3.721404,4.1523457,1.700747,-0.2716601,-1.6290963
-21.81286,54.249443,16.955853,19.973518,2.0798228,1.274827,-0.2726891,-0.8006544,-0.75842386,-0.7943494,-0.6593458,-0.61068237,0.6597415,0.20876454,0.83001363,-0.9991807,-1.8967766,-1.2686497,1.8482091,1.6550593,-0.8283531,0.8958197,-0.9370245,-1.8315971,-1.2148688,1.9002156,1.5936972,-0.8462436,-1.4378974,-1.3664294,-1.4303297,-1.2038854,-0.90214133,0.46066323,0.29273412,0.09075546,-0.6655884,0.7853124,-3.5281978,-0.4052714,-3.345091,0.024559021,-0.57982635,0.7396693,0.81695116,0.006227815,0.17430192,0.5497006,-0.8494966,-0.5364275,-1.3903415,1.0,0.0,0.0,0.0,0.0,0.0,0.0,-0.74075544,0.26558837,-0.2353124,-4.806924,0.89423656,-1.9825697,4.5467615,1.5939116,-0.18944144,-2.3283064
-15.529868,54.568,18.12672,17.495012,1.8418292,1.1991651,-0.22693944,-0.80664426,-0.7712083,-0.80425984,-0.62904286,-0.61406296,0.64486104,0.11040804,0.81515527,-1.0141453,-1.9120231,-1.277773,1.8388094,1.6581833,-0.8352028,0.8812018,-0.95065296,-1.8462579,-1.2266992,1.891728,1.5977732,-0.84382004,-1.4810328,-1.3540554,-1.5347248,-1.2101319,-0.76756716,0.24075179,0.20526761,0.06092453,-0.6684952,0.76076263,-1.9447637,0.09800258,0.022207515,0.015750885,-0.58517075,0.72570336,0.81877965,0.017407123,0.17340663,0.54701644,-0.8923396,-0.5521118,-1.4202943,0.0,1.0,0.0,0.0,0.0,0.0,0.0,-0.7109245,0.26849517,-0.21076262,-6.144476,2.4224281,-19.653368,-5.925131,25.567436,-44.012455,-14.100206
22.164099,176.0,110.0,110.0,6.9318557,10.7335,-2.3924675,-0.79071367,0.5452615,0.6801718,0.6803692,-0.4655464,0.6476263,-0.28290263,0.80213046,-0.8961268,-1.7782408,-1.1586623,1.8451734,1.6625358,-0.8721103,0.8703328,-0.96627414,-1.8544672,-1.2249883,1.8751208,1.6079699,-0.8402962,-0.9588035,-1.6307985,-0.57988656,0.6282301,-1.9537601,1.2889266,0.40103137,0.041492462,-0.6675186,0.7602481,-1.9428194,0.0979046,-0.07600064,0.0058670044,-0.5890198,0.7156179,0.82089835,0.020276567,0.17567044,0.5430052,-1.0220495,-0.31509438,-0.87282604,0.0,1.0,0.0,0.0,0.0,0.0,0.0,-0.69149244,0.2675186,-0.21024811,51.233803,-27.478647,96.40355,182.84065,-117.25564,107.70167,19.479496
-64.65545,128.18472,51.997753,91.15683,9.585186,3.4247491,-2.8093362,-0.8114428,-0.64367163,-0.38780525,0.7261453,-0.36802253,0.55922335,-0.3399598,0.7891885,-1.0306413,-1.8932477,-1.1523738,1.8383185,1.6638923,-0.8742922,0.8608046,-0.98203933,-1.8582056,-1.2121652,1.8562304,1.6208979,-0.8367571,-0.94914,-1.5595465,-0.30323407,1.5026798,-1.8695232,1.2974857,0.340414,0.022079468,-0.66654205,0.7587523,-1.940877,0.097806714,-0.1741106,-0.006011963,-0.59215164,0.7092691,0.8244583,0.017590912,0.17929535,0.5364814,-1.2419281,-0.30148804,-0.5601161,0.0,1.0,0.0,0.0,0.0,0.0,0.0,-0.67207944,0.26654205,-0.20875227,1.4838338,6.777954,28.255295,88.10461,7.7741146,1.8242836,-5.3738174
-70.003456,127.00169,38.035637,67.58982,6.6583986,2.088847,-2.010249,-0.8019348,-0.436551,-0.5368852,0.73238117,-0.49985525,0.53034985,0.17109135,0.78061116,-1.0256945,-1.9118941,-1.1389271,1.8062449,1.6739329,-0.81964797,0.8504363,-0.99560153,-1.8615987,-1.1941236,1.839501,1.6332194,-0.8335852,-1.0641451,-1.2899313,-0.35131976,1.9064204,-1.6092237,1.2117108,0.3096959,0.0026855469,-0.6655655,0.7562761,-1.9389365,0.097708926,-0.27212247,-0.019657135,-0.5950012,0.70517755,0.82951355,0.01375742,0.1832531,0.5273861,-1.4044632,-0.2706898,-0.3661439,0.0,1.0,0.0,0.0,0.0,0.0,0.0,-0.6526855,0.26556548,-0.20627606,-10.922313,26.529957,-4.7921124,40.971184,25.522327,-8.176446,-3.0027747
-51.87443,95.28482,24.415302,38.255905,4.127926,1.1018534,-0.9628925,-0.7587755,-0.534725,-0.384016,0.7961943,-0.48689514,0.5524645,0.1119848,0.7745587,-1.049074,-1.9000003,-1.1145042,1.7908115,1.6884658,-0.82238674,0.83875376,-1.0068861,-1.865936,-1.1746801,1.8258978,1.6443926,-0.830769,-1.2019192,-1.0758542,-0.4615367,1.958141,-1.278868,1.0855186,0.27214062,-0.0166893,-0.6645889,0.75282043,-1.9369979,0.09761124,-0.37003633,-0.034427643,-0.59753036,0.7021507,0.83544886,0.010405095,0.18703438,0.51665753,-1.5024503,-0.23722218,-0.28892076,0.0,1.0,0.0,0.0,0.0,0.0,0.0,-0.6333107,0.26458892,-0.20282042,-13.480258,21.054792,-11.126005,5.4734707,32.620094,-12.656856,-3.784877
-35.401474,59.42505,10.288489,16.5267,1.8774569,0.30084974,-0.2778918,-0.770595,-0.5661635,-0.45587054,0.78976125,-0.51098204,0.57893157,-0.05900952,0.76169425,-1.0635024,-1.9115231,-1.095704,1.7747996,1.7022858,-0.83667,0.82584864,-1.016749,-1.871805,-1.1561273,1.8150793,1.6543795,-0.8284201,-1.3196425,-0.9571027,-0.6289739,1.8213723,-1.01702,0.9693476,0.22227189,-0.036045074,-0.66361237,0.7483864,-1.9350612,0.097513646,-0.4678523,-0.049819946,-0.59981155,0.69911414,0.8417661,0.008368678,0.1903241,0.5051103,-1.5502781,-0.2138985,-0.3145873,0.0,1.0,0.0,0.0,0.0,0.0,0.0,-0.6139549,0.26361236,-0.19838637,-11.672115,11.6658325,-16.872263,-13.557577,25.93441,-11.770058,-5.0649137
-16.905853,51.358738,10.079578,6.0825744,0.5952186,0.110930264,0.1040799,-0.77082866,-0.5257422,-0.4585541,0.7992191,-0.5188163,0.5725707,-0.098456554,0.74876577,-1.0693233,-1.9176604,-1.0762054,1.7631977,1.7116365,-0.8382658,0.8121043,-1.0258299,-1.8791025,-1.1392721,1.8061949,1.6633211,-0.82656235,-1.392772,-0.8923197,-0.76325625,1.6402556,-0.846701,0.8687848,0.1733608,-0.055381775,-0.6626358,0.7429669,-1.9331264,0.097416155,-0.5666357,-0.06535339,-0.60185623,0.6956173,0.8481194,0.0077635865,0.1931528,0.4932801,-1.5553814,-0.1875602,-0.36606824,0.0,1.0,0.0,0.0,0.0,0.0,0.0,-0.5946182,0.2626358,-0.19296688,-7.3385954,6.318426,-13.379741,-18.112492,16.697586,-10.197949,-4.981026
-6.114966,45.000687,9.800386,2.186764,0.1284796,-0.046984196,0.2522161,-0.76980656,-0.5213646,-0.50316375,0.794658,-0.49101797,0.5549135,-0.054419108,0.73512363,-1.0779663,-1.9294188,-1.0598063,1.7570931,1.7188125,-0.83200425,0.7979527,-1.0346152,-1.8875463,-1.1240152,1.7985121,1.6713701,-0.8251099,-1.4227886,-0.8741932,-0.8709225,1.4873983,-0.7432043,0.7832613,0.13561271,-0.0746994,-0.66165924,0.73656034,-1.9311938,0.09731875,-0.6653204,-0.080818176,-0.6036835,0.6915288,0.85433275,0.008428226,0.19559646,0.48144215,-1.5433378,-0.1671769,-0.42663062,0.0,1.0,0.0,0.0,0.0,0.0,0.0,-0.5753006,0.26165923,-0.18656033,-3.0593157,1.690042,-10.63031,-15.294051,10.020435,-8.679449,-3.8420053
1.3363614,52.540478,14.71695,3.5267766,0.09185761,0.08738309,0.23814633,-0.7603427,-0.49085215,-0.51394594,0.8040241,-0.5081146,0.5792538,-0.011972279,0.72191846,-1.0837004,-1.9389409,-1.0436128,1.7477007,1.7292955,-0.8263071,0.7837635,-1.0432775,-1.8967652,-1.1098206,1.7913716,1.67861,-0.82389426,-1.4180787,-0.8637161,-0.9427542,1.3940213,-0.7091748,0.69245183,0.12414613,-0.09431076,-0.6603699,0.7305522,-2.005341,0.1849477,-0.37917265,-0.096069336,-0.6052933,0.6869797,0.8603124,0.01009719,0.19785833,0.4696942,-1.5168153,-0.1470754,-0.46932706,0.0,1.0,0.0,0.0,0.0,0.0,0.0,-0.5556892,0.26036987,-0.18055218,0.35698414,0.9907007,-7.7905416,-9.925628,2.2277474,-11.447597,0.30530244
7.8683233,90.81061,30.43922,10.060188,0.19146752,0.7134074,0.13056509,-0.76086503,-0.32555097,-0.49949875,0.80705315,-0.54409605,0.59497094,0.039836604,0.707677,-1.0758326,-1.9467151,-1.0291153,1.736962,1.7381071,-0.8199106,0.76972157,-1.0511434,-1.9063202,-1.0961336,1.7842077,1.6850501,-0.8227293,-1.4002451,-0.7617901,-0.95790756,1.3597134,-0.72100097,0.62759966,0.11312597,-0.11459732,-0.6581764,0.7273619,-2.0362728,0.23138452,-0.30249122,-0.11085892,-0.60647964,0.68254346,0.86596256,0.012423821,0.2004865,0.45799506,-1.467301,-0.09576269,-0.43765235,0.0,1.0,0.0,0.0,0.0,0.0,0.0,-0.53540266,0.25817642,-0.1773619,1.599288,9.94879,-0.9706259,-3.645873,-1.8060446,-6.6429973,-1.3286114
11.362655,124.57628,43.236336,16.276505,0.3843025,1.2132461,0.045410164,-0.75833637,-0.1767169,-0.49929425,0.80371904,-0.56978905,0.60109526,0.12940274,0.69388795,-1.0688151,-1.9562496,-1.0157617,1.7272288,1.7451596,-0.809789,0.75587416,-1.0573288,-1.9158307,-1.0825366,1.7768146,1.6909298,-0.8216175,-1.3804945,-0.57193476,-0.9458677,1.3585682,-0.7476002,0.57491505,0.108866915,-0.13452911,-0.65540695,0.725302,-1.9726655,0.2897644,-0.18020937,-0.12504196,-0.6069908,0.67888206,0.8712415,0.014941541,0.2039907,0.44620925,-1.400474,-0.022855792,-0.34422845,0.0,1.0,0.0,0.0,0.0,0.0,0.0,-0.51547086,0.25540695,-0.17530197,1.6971111,18.64668,1.986897,-0.47352314,-3.253305,-5.2735567,-0.91774017
-3.6701307,106.28578,33.050304,19.43781,0.82020664,0.9365762,-0.08687383,-0.7904016,-0.19373141,-0.6148968,0.8018614,-0.58750045,0.5695529,0.16463648,0.676834,-1.076702,-1.9773204,-1.0023504,1.7180645,1.7478851,-0.80515385,0.74204105,-1.0619044,-1.9256716,-1.0688133,1.7691239,1.6963693,-0.8205258,-1.3848183,-0.4205095,-0.9945807,1.3764105,-0.7788886,0.53300637,0.108351044,-0.153759,-0.65219116,0.72409403,-1.9077338,0.33114403,-0.10484529,-0.1388092,-0.60689163,0.6759146,0.876222,0.017772947,0.2084294,0.43413854,-1.3684591,0.03228257,-0.28223297,0.0,1.0,0.0,0.0,0.0,0.0,0.0,-0.49624097,0.25219116,-0.17409402,-0.600791,14.822382,-4.2221904,1.5888691,-3.8459182,-4.4350624,-0.32219887
-12.507574,83.545,22.728922,18.617016,0.93754965,0.63588077,-0.0756977,-0.7997216,-0.19502726,-0.67484254,0.7934074,-0.6173489,0.58181477,0.22267891,0.6620689,-1.0814072,-1.9931558,-0.98947257,1.707389,1.7545508,-0.79825795,0.7280745,-1.065412,-1.9362887,-1.0549166,1.7610673,1.7014714,-0.81938696,-1.4009451,-0.32838967,-1.0822409,1.3939255,-0.8167163,0.5018119,0.1150035,-0.17248535,-0.6486473,0.7232952,-1.8620608,0.36143824,-0.0751855,-0.15244293,-0.6063614,0.67325485,0.8809507,0.021182993,0.21363086,0.42170945,-1.3609222,0.071206935,-0.26122645,0.0,1.0,0.0,0.0,0.0,0.0,0.0,-0.47751462,0.2486473,-0.1732952,-1.7041683,8.936858,-8.2525015,1.681447,-4.346895,-3.3893108,0.44431388
-15.065483,67.80069,16.87411,16.727255,1.0672646,0.4973113,-0.030609079,-0.80275714,-0.19085746,-0.6850996,0.7918126,-0.61195326,0.5974748,0.21426144,0.6477988,-1.0844978,-2.0047987,-0.97573537,1.6998719,1.7612189,-0.7979608,0.71393055,-1.068399,-1.9477409,-1.0408804,1.7527049,1.7063285,-0.8181826,-1.4190952,-0.28969362,-1.1644806,1.4070218,-0.84473497,0.47937343,0.121641815,-0.19083786,-0.6448517,0.7225787,-1.8278245,0.38496283,-0.073826104,-0.16610718,-0.6055107,0.6706137,0.885443,0.025245802,0.21931027,0.40896973,-1.3675426,0.10149741,-0.26535636,0.0,1.0,0.0,0.0,0.0,0.0,0.0,-0.45916212,0.24485168,-0.17257869,-1.8723011,3.6337137,-7.771659,1.305294,-3.2791734,-2.523315,0.49376637
-14.502205,57.092075,13.640923,14.579585,1.181103,0.43975282,0.025447123,-0.8060996,-0.20072292,-0.6925629,0.7921342,-0.5967908,0.6100528,0.19929582,0.63332057,-1.0884713,-2.016997,-0.961667,1.6930258,1.7673337,-0.798253,0.69962543,-1.0713248,-1.9598427,-1.0267528,1.7441789,1.7110107,-0.81692564,-1.4345126,-0.29425317,-1.2239411,1.4148579,-0.85686785,0.46364015,0.12661429,-0.20890045,-0.6408539,0.7217386,-1.8004488,0.40407285,-0.090670906,-0.17989731,-0.60438156,0.66781545,0.88970786,0.029896984,0.22515808,0.3960176,-1.3816584,0.12735765,-0.28469372,0.0,1.0,0.0,0.0,0.0,0.0,0.0,-0.44109952,0.24085388,-0.17173856,-1.5857935,-0.657779,-5.5228233,0.8183718,-1.637125,-1.8523633,0.37715733
-14.683406,38.78681,7.6221704,10.958359,1.1329969,0.2684216,0.12029335,-0.8130336,-0.2699818,-0.71534437,0.7834977,-0.60107833,0.6175665,0.22211105,0.6183221,-1.098323,-2.031377,-0.94840306,1.6840711,1.7727673,-0.79471457,0.6851822,-1.0747542,-1.9724243,-1.0126158,1.7355729,1.7155766,-0.81560683,-1.447583,-0.35979083,-1.2684888,1.4137208,-0.8630362,0.45352095,0.13343674,-0.22679138,-0.63671875,0.72047496,-1.7864101,0.4159737,-0.1407566,-0.19390106,-0.6030693,0.6646026,0.8937561,0.03510978,0.2308408,0.38298813,-1.4059868,0.14443046,-0.33346266,0.0,1.0,0.0,0.0,0.0,0.0,0.0,-0.4232086,0.23671874,-0.17047495,-1.3048887,-6.694746,-4.1449547,0.008583069,-0.9053111,-1.2489974,0.62923133
-6.2439947,53.95916,14.209034,10.666296,1.0811019,0.48786956,0.1938678,-0.79754597,-0.2154922,-0.7011965,0.78621036,-0.60237,0.6230015,0.30026704,0.6054276,-1.0963035,-2.042544,-0.93399477,1.6753359,1.7778769,-0.78558016,0.6707188,-1.0786014,-1.9852153,-0.99851096,1.7269511,1.720059,-0.8141677,-1.446192,-0.39363775,-1.2808585,1.4095265,-0.8636544,0.44565603,0.1471318,-0.24441147,-0.63243484,0.71892625,-1.7549741,0.4321259,-0.1620654,-0.20800018,-0.6015167,0.661094,0.89753586,0.040722568,0.23633227,0.37002423,-1.409545,0.1711124,-0.35660532,0.0,1.0,0.0,0.0,0.0,0.0,0.0,-0.4055885,0.23243484,-0.16892624,0.05440712,-3.5541892,-0.7644415,-0.41348934,-0.5064368,-1.0542989,1.2873232
-4.349358,56.104355,15.22958,10.490908,1.1460229,0.5430516,0.2030246,-0.80068314,-0.24556261,-0.7020235,0.7873993,-0.59889555,0.62704605,0.29337853,0.5906505,-1.1031576,-2.0554175,-0.919771,1.6670616,1.7827636,-0.78482985,0.6562897,-1.0827974,-1.9980063,-0.98444545,1.718354,1.7244784,-0.8126025,-1.4420977,-0.42865783,-1.2766982,1.4055476,-0.8603928,0.4398483,0.15941569,-0.26169586,-0.62799454,0.7171839,-1.7206933,0.44771093,-0.18062751,-0.22211075,-0.59968567,0.6573865,0.9010335,0.04660524,0.24161974,0.35719222,-1.4098595,0.19932868,-0.3753923,0.0,1.0,0.0,0.0,0.0,0.0,0.0,-0.3883041,0.22799453,-0.16718388,0.30694008,-3.671956,0.9283304,-0.40607452,-0.1530528,-0.8570552,1.1570394
-4.5982237,47.277077,12.135025,8.818864,1.0834658,0.43439937,0.24533479,-0.80000985,-0.31196478,-0.7110723,0.78292006,-0.60001004,0.62938863,0.3356858,0.5762887,-1.1139939,-2.0691135,-0.90615344,1.658353,1.7874172,-0.77903396,0.6419121,-1.0875429,-2.0107434,-0.9704284,1.7097818,1.7288567,-0.81089497,-1.4365823,-0.49029788,-1.2710279,1.4006448,-0.85763234,0.43622172,0.17442615,-0.27869415,-0.62342834,0.7151188,-1.6937617,0.45920712,-0.21665767,-0.23625946,-0.59760666,0.65338105,0.90426344,0.05274824,0.24659957,0.34454864,-1.4145827,0.22273843,-0.4089988,0.0,1.0,0.0,0.0,0.0,0.0,0.0,-0.37130582,0.22342834,-0.16511881,0.4783392,-6.3041744,1.006341,-0.44677258,-0.12353659,-0.612849,1.4638811
-4.903806,45.567734,11.31358,8.603899,1.0644733,0.4265505,0.26036313,-0.7977271,-0.341097,-0.70905185,0.7867239,-0.61262816,0.63352716,0.39297563,0.5621394,-1.1216526,-2.0816486,-0.891756,1.6485189,1.7922094,-0.7715974,0.6275917,-1.09295,-2.0234122,-0.95643044,1.7011939,1.7332093,-0.8090074,-1.4307488,-0.5579057,-1.2640786,1.3997864,-0.8607495,0.43412873,0.1934837,-0.29543686,-0.61875916,0.71265745,-1.6684446,0.46915188,-0.2575154,-0.25046158,-0.59529877,0.6490152,0.9072338,0.059157334,0.25123584,0.332126,-1.4197965,0.2459724,-0.44599047,0.0,1.0,0.0,0.0,0.0,0.0,0.0,-0.35456312,0.21875915,-0.16265744,0.51915646,-6.897056,1.1219978,-0.019311905,-0.6994486,-0.4535675,1.880601
-1.4286687,53.48533,14.318939,9.064977,1.156465,0.5355974,0.2549071,-0.7844103,-0.34489477,-0.6831513,0.7893064,-0.5908747,0.6427327,0.4082326,0.5491507,-1.1274395,-2.0917273,-0.8774998,1.6421064,1.7974825,-0.7681841,0.61337626,-1.0989066,-2.0359025,-0.94242,1.6926403,1.7375501,-0.8069321,-1.4187858,-0.6087961,-1.242434,1.4015267,-0.85520273,0.4331869,0.21212728,-0.31187057,-0.61398697,0.7098782,-1.6351156,0.47968084,-0.28555393,-0.26465225,-0.59272766,0.64438665,0.909947,0.06573651,0.2555504,0.31995177,-1.416465,0.27293134,-0.46895766,0.0,1.0,0.0,0.0,0.0,0.0,0.0,-0.3381294,0.21398696,-0.1598782,1.0919809,-5.241227,2.680087,0.18815994,0.08054972,-0.35877228,1.8329531
2.250019,65.35466,18.423508,10.087456,1.2541869,0.7024049,0.25061318,-0.7759106,-0.33545446,-0.65542746,0.78335685,-0.58448356,0.6546755,0.4363646,0.5357852,-1.1324521,-2.1014452,-0.8640843,1.634192,1.8030177,-0.76329565,0.5993029,-1.1051567,-2.0480642,-0.928422,1.6841764,1.7418915,-0.804669,-1.4040582,-0.630846,-1.2052823,1.3991147,-0.84566206,0.4333501,0.23099259,-0.32787704,-0.6091156,0.7069665,-1.5895967,0.49076092,-0.29454434,-0.27872467,-0.5898514,0.6396757,0.91239405,0.07235823,0.25962064,0.30805606,-1.4008353,0.30510902,-0.4723182,0.0,1.0,0.0,0.0,0.0,0.0,0.0,-0.32212293,0.2091156,-0.1569665,1.3124943,-2.3817182,4.3619394,-0.30891895,0.34646988,-0.26641488,1.8269092
-0.19682646,59.219963,15.85196,9.780172,1.3100686,0.62017447,0.2303049,-0.77764356,-0.3915157,-0.6531641,0.78467506,-0.56252927,0.6502133,0.42665187,0.52153856,-1.1443082,-2.1133807,-0.8499545,1.6279235,1.8069128,-0.76200384,0.585343,-1.1117446,-2.0598931,-0.9144401,1.6758564,1.7462345,-0.8022434,-1.3937624,-0.6685781,-1.1731132,1.3978091,-0.8292396,0.43355876,0.24645998,-0.34349442,-0.60414505,0.7038496,-1.5530001,0.49954903,-0.31706247,-0.2926979,-0.5866699,0.6348577,0.91460913,0.07900956,0.26340017,0.2964252,-1.3925862,0.33459547,-0.4854083,0.0,1.0,0.0,0.0,0.0,0.0,0.0,-0.30650556,0.20414504,-0.1538496,0.90203285,-3.935051,3.7996054,-0.14548302,1.0904312,-0.24638772,1.5155435
-0.4705248,60.736546,15.782683,10.127325,1.303827,0.61308503,0.231463,-0.77081,-0.3976011,-0.64696133,0.78417486,-0.5616503,0.6361062,0.4796806,0.508262,-1.1515048,-2.1245892,-0.8360226,1.6196914,1.8098452,-0.7542753,0.5714804,-1.1186625,-2.0714517,-0.9004707,1.6676869,1.7505683,-0.7996426,-1.3841757,-0.6998853,-1.1485028,1.3966123,-0.814904,0.43234062,0.2645658,-0.35873795,-0.5990944,0.70050204,-1.5151284,0.5072494,-0.34041378,-0.3065796,-0.5831871,0.62991685,0.9166063,0.085718304,0.26689222,0.2850505,-1.3827631,0.3639399,-0.49764135,0.0,1.0,0.0,0.0,0.0,0.0,0.0,-0.29126203,0.19909438,-0.15050203,0.8300781,-3.2961607,3.0530214,-0.13763905,0.8551836,-0.38505793,1.7691016
-3.595375,53.797253,12.958815,9.643181,1.3021522,0.5419665,0.23425555,-0.77664506,-0.44446492,-0.63374376,0.77962816,-0.5482595,0.6156098,0.5041444,0.4938159,-1.163109,-2.134826,-0.82250786,1.612861,1.8121293,-0.7492282,0.55765784,-1.1260211,-2.0827928,-0.8865259,1.6596606,1.7548771,-0.79685885,-1.3818494,-0.74852586,-1.1274668,1.3939672,-0.800246,0.42938098,0.28302318,-0.3736725,-0.5939789,0.6968039,-1.4861677,0.5133419,-0.37890813,-0.32041168,-0.57943344,0.6247676,0.9184116,0.09253531,0.27004352,0.27392298,-1.3804576,0.39186493,-0.52152973,0.0,1.0,0.0,0.0,0.0,0.0,0.0,-0.2763275,0.19397888,-0.14680392,0.14078617,-5.0141454,2.6220322,-0.22118092,0.95682144,-0.5484879,1.8366337
-1.3257985,55.38893,13.849438,9.367708,1.4316298,0.5602783,0.23080531,-0.76443607,-0.46540737,-0.5925462,0.7827447,-0.5001358,0.5915499,0.53509283,0.48121423,-1.1725619,-2.1420474,-0.80825144,1.609647,1.8140321,-0.74334955,0.5438906,-1.1338794,-2.0938015,-0.87259007,1.6518931,1.7591385,-0.79388446,-1.3754299,-0.7986923,-1.0898674,1.3935626,-0.77065516,0.42403778,0.30239165,-0.3883133,-0.58880615,0.69272876,-1.4561827,0.5186534,-0.4162741,-0.33421707,-0.57538223,0.61941695,0.92006505,0.09938494,0.27276456,0.26306367,-1.3758193,0.41994846,-0.54023117,0.0,1.0,0.0,0.0,0.0,0.0,0.0,-0.26168668,0.18880615,-0.14272875,0.53691864,-5.164957,4.3129683,-0.008869171,2.427423,-0.7976651,1.9530535
8.462739,64.77782,18.56701,8.367095,1.5390433,0.6926963,0.23826969,-0.7351193,-0.4718451,-0.5005276,0.78427523,-0.48055276,0.59087217,0.540491,0.47037867,-1.1810639,-2.1438541,-0.7941625,1.6038378,1.8182256,-0.7398354,0.5303103,-1.1421535,-2.1040552,-0.858652,1.6444618,1.7633471,-0.7907309,-1.3527894,-0.8374506,-1.001555,1.3936726,-0.73612595,0.4188901,0.31979638,-0.40255356,-0.5835991,0.6884305,-1.4129926,0.52128184,-0.4332691,-0.34783936,-0.571064,0.6140406,0.9215933,0.1060057,0.27503264,0.25255778,-1.3532623,0.44749594,-0.53764904,0.0,1.0,0.0,0.0,0.0,0.0,0.0,-0.24744642,0.18359908,-0.13843048,2.0880938,-4.0267467,9.546471,-0.059103966,2.773261,-0.7692933,1.7512023
13.460717,63.408127,19.307594,6.556509,1.6327946,0.6734788,0.2552866,-0.72308123,-0.5211578,-0.42091948,0.77395797,-0.42314497,0.5495272,0.5525766,0.45800215,-1.1942693,-2.146147,-0.7812562,1.6021472,1.8182999,-0.7354732,0.51699793,-1.1509141,-2.113141,-0.8447586,1.637492,1.767479,-0.7874117,-1.3246579,-0.889387,-0.8748058,1.3875837,-0.6860706,0.41033167,0.33620837,-0.41636276,-0.57837296,0.68393695,-1.3689579,0.5228137,-0.45251647,-0.36120605,-0.566494,0.60871,0.92305833,0.11216692,0.27672648,0.24249622,-1.3264097,0.47142646,-0.53245264,0.0,1.0,0.0,0.0,0.0,0.0,0.0,-0.23363721,0.17837295,-0.13393694,2.6275873,-5.328524,13.421,-0.68895817,4.2993665,-1.0933936,1.695925
9.722658,65.7236,19.334768,8.146388,2.0254095,0.72008073,0.19531551,-0.7377018,-0.532221,-0.36147645,0.7542031,-0.3104863,0.46551204,0.5670627,0.44322777,-1.2041361,-2.1492887,-0.7693383,1.6064433,1.8140302,-0.73070544,0.5038496,-1.160138,-2.1208732,-0.8310181,1.6312828,1.7714669,-0.7839342,-1.3120079,-0.93376726,-0.7372272,1.369378,-0.60145956,0.39392197,0.35204875,-0.4297638,-0.57313156,0.6792517,-1.3297285,0.52486914,-0.47307056,-0.37435532,-0.5616379,0.60348797,0.9245547,0.11773311,0.27769408,0.2328592,-1.3066666,0.49979308,-0.5200338,0.0,1.0,0.0,0.0,0.0,0.0,0.0,-0.22023618,0.17313156,-0.12925166,1.099658,-4.581034,14.503992,-1.8713951,7.738948,-1.8968225,1.6884208
9.414351,70.26134,21.239542,9.373408,2.932806,0.77600443,0.10524468,-0.7376054,-0.5557805,-0.23690523,0.7233806,0.012159358,0.34994453,0.5719325,0.4300891,-1.215716,-2.1445637,-0.75868005,1.6324987,1.8064613,-0.72674096,0.49075875,-1.1697873,-2.1269531,-0.81759167,1.6267779,1.7752092,-0.7803061,-1.3086224,-0.97588104,-0.5622247,1.3335254,-0.40233275,0.3664113,0.3671957,-0.44282532,-0.56785583,0.67433965,-1.2972174,0.5289525,-0.49516147,-0.3874054,-0.5564575,0.5985266,0.92628753,0.1223486,0.27751872,0.2236191,-1.2978944,0.5346982,-0.48946887,0.0,1.0,0.0,0.0,0.0,0.0,0.0,-0.20717466,0.16785583,-0.12433964,0.17886162,-4.3578625,18.278742,-3.6308289,19.1558,-3.0527472,1.717174
26.796247,92.3768,33.783443,8.7327175,4.634322,1.3526826,0.02668922,-0.73563546,-0.58116233,0.2323603,0.64251906,0.39419276,0.17546014,0.5763471,0.4171952,-1.2279035,-2.103717,-0.75333977,1.6661972,1.7927552,-0.7226714,0.4776643,-1.1798562,-2.1294284,-0.80487424,1.625261,1.7785503,-0.77652705,-1.310573,-1.017794,-0.13865475,1.2505198,-0.07185597,0.32207566,0.3827217,-0.45541763,-0.56253433,0.66952044,-1.245159,0.53401756,-0.4756884,-0.4002304,-0.5508232,0.59440583,0.92861456,0.12479027,0.27546284,0.21499445,-1.2718971,0.5838204,-0.38772276,0.0,1.0,0.0,0.0,0.0,0.0,0.0,-0.19458234,0.16253433,-0.119520426,-0.43945312,-4.3578386,43.56001,-8.482337,31.89968,-4.753476,1.8763423
26.835659,86.383194,30.053246,4.003952,3.6952598,1.0309873,0.25602725,-0.77061474,-0.56009793,0.22197378,0.452472,0.46455118,-0.34566975,0.5644033,0.40060282,-1.235866,-2.107231,-0.75962704,1.6717161,1.7439833,-0.7200867,0.4643739,-1.190133,-2.1281617,-0.79379255,1.6269082,1.781094,-0.77262884,-1.3357853,-1.0314101,0.21796314,1.0601377,0.2406983,0.23121756,0.39297453,-0.4675026,-0.5572014,0.66478837,-1.1951199,0.5339438,-0.47101408,-0.41270828,-0.5447769,0.59108764,0.93156606,0.12512024,0.27131826,0.20716155,-1.2347503,0.6203616,-0.31518695,0.0,1.0,0.0,0.0,0.0,0.0,0.0,-0.18249738,0.15720138,-0.11478835,-2.7032137,-1.5034676,36.56525,-19.20483,30.338425,-9.241724,1.2182772
8.483255,92.35385,24.365105,11.443991,3.0353677,0.5591957,0.10903265,-0.7724751,-0.46010283,0.017385952,0.47319546,0.559478,-0.51754993,0.586923,0.3871264,-1.2361432,-2.1264231,-0.746473,1.682856,1.729339,-0.71393657,0.45082837,-1.1999673,-2.1252587,-0.7843235,1.6313576,1.7826486,-0.7686341,-1.3610499,-0.9677317,0.31588054,0.909126,0.5113945,0.13001563,0.40181628,-0.47911072,-0.55187225,0.6600846,-1.1490849,0.53233707,-0.46978244,-0.42493057,-0.5384102,0.5883412,0.93490535,0.12438002,0.26566887,0.19975345,-1.2145821,0.65142184,-0.2634352,0.0,1.0,0.0,0.0,0.0,0.0,0.0,-0.17088926,0.15187225,-0.11008459,-2.6093245,6.2365294,10.217285,-15.11594,26.620562,-10.167524,0.953871
-3.1849246,102.33935,22.50564,18.504534,2.5900187,0.37435544,-0.05220871,-0.77184534,-0.39021605,-0.009462168,0.48975745,0.5481457,-0.5671638,0.6116332,0.37364385,-1.2389889,-2.126205,-0.73534775,1.6861721,1.7259321,-0.7074708,0.43708688,-1.2087811,-2.122498,-0.77585435,1.6378365,1.7832357,-0.76454717,-1.3786429,-0.8530128,0.26361322,0.8264024,0.6922838,0.034983896,0.41096264,-0.49020004,-0.54657745,0.65550613,-1.09673,0.5287303,-0.45539948,-0.43699646,-0.5317459,0.5860925,0.93835795,0.12344838,0.2593358,0.19232745,-1.1997983,0.68070114,-0.21442483,0.0,1.0,0.0,0.0,0.0,0.0,0.0,-0.15979993,0.14657745,-0.10550612,-1.7997026,11.347437,-4.987973,-8.202278,17.85041,-9.510562,0.92036724
-4.6739225,99.55996,20.96267,19.346193,2.2585661,0.28482306,-0.104348585,-0.76816976,-0.3845607,0.04618809,0.47243595,0.57441217,-0.5925912,0.6093176,0.3602699,-1.2472372,-2.1178792,-0.72861075,1.6952777,1.7239765,-0.7036154,0.4232543,-1.2165382,-2.1204305,-0.76786953,1.6456147,1.7829553,-0.76038235,-1.3849362,-0.7501729,0.18877767,0.78940594,0.80546576,-0.04909941,0.41825855,-0.50077057,-0.54133606,0.651074,-1.0444418,0.523259,-0.44046152,-0.4489212,-0.5248108,0.5842674,0.94177777,0.12266552,0.25277123,0.18470073,-1.185978,0.7059133,-0.17394435,0.0,1.0,0.0,0.0,0.0,0.0,0.0,-0.1492294,0.14133605,-0.10107398,-0.66108704,10.16705,-7.247886,-3.6203146,11.1104965,-8.443253,0.7232249
2.5587027,96.696396,22.140343,16.50375,2.1272342,0.40865508,-0.051139742,-0.7674549,-0.37519318,0.16483079,0.42101365,0.60915637,-0.5952996,0.6069154,0.3465088,-1.2540575,-2.1039474,-0.72576815,1.7065303,1.7234254,-0.6996908,0.40941268,-1.2234886,-2.1185126,-0.76023644,1.6542048,1.7819315,-0.7561576,-1.3841038,-0.67713505,0.1937602,0.7547589,0.8758012,-0.12034553,0.42375252,-0.51078033,-0.53616333,0.6468341,-0.9878147,0.5151984,-0.41993323,-0.46062088,-0.51765823,0.58285296,0.9451414,0.12184968,0.24605447,0.17696783,-1.1622834,0.7283602,-0.13259453,0.0,1.0,0.0,0.0,0.0,0.0,0.0,-0.13921964,0.13616332,-0.09683406,0.034737587,7.1922183,0.830093,-3.4316897,6.771004,-7.1708384,0.52274466
4.5438786,105.35739,25.391653,18.87523,2.4625125,0.6164063,-0.15424341,-0.7617415,-0.3211994,0.23178233,0.45719996,0.6013733,-0.5689587,0.60767037,0.33323854,-1.2556086,-2.0953343,-0.71451646,1.7143421,1.7250357,-0.6953905,0.3956297,-1.2297332,-2.1160524,-0.7526557,1.6632102,1.7802968,-0.75188404,-1.376494,-0.607415,0.26486745,0.7593966,0.90768075,-0.17809361,0.42835304,-0.5201607,-0.53108597,0.64296687,-0.92245406,0.50563574,-0.37702513,-0.4720726,-0.51023865,0.58201045,0.94844794,0.12069764,0.23931861,0.16913077,-1.1350526,0.7553807,-0.06993362,0.0,1.0,0.0,0.0,0.0,0.0,0.0,-0.1298393,0.13108596,-0.092966855,0.7156372,6.8503976,7.528612,0.4952073,2.8968453,-5.8556886,0.41564703
8.917402,98.845535,24.670246,15.938813,2.26363,0.6434696,-0.08925977,-0.7544059,-0.31835878,0.28766206,0.42893705,0.6155835,-0.5533857,0.5985186,0.32018912,-1.2615691,-2.0872862,-0.709762,1.7247685,1.7249582,-0.69203216,0.38195974,-1.2354801,-2.1125813,-0.7450674,1.6724015,1.7781738,-0.7475794,-1.363946,-0.56408525,0.37638593,0.7588004,0.92172724,-0.22381715,0.43096763,-0.52889633,-0.52611923,0.6395092,-0.85874736,0.49431294,-0.33736765,-0.48321533,-0.5025749,0.5817285,0.9517049,0.11900819,0.23256308,0.16127329,-1.1040494,0.7790525,-0.015840335,0.0,1.0,0.0,0.0,0.0,0.0,0.0,-0.121103644,0.12611923,-0.08950919,1.2145758,4.2182207,11.585039,-0.025761127,1.1036396,-4.639122,0.2188623
22.81096,84.71524,22.397398,6.5017085,1.2532228,0.47943956,0.21746214,-0.72576714,-0.31680274,0.31337512,0.32147655,0.6389148,-0.5549756,0.5970798,0.30938303,-1.2671603,-2.0812438,-0.7129198,1.7362931,1.7226763,-0.6878714,0.36853296,-1.2409711,-2.108012,-0.7379752,1.6817133,1.7756668,-0.743262,-1.3358369,-0.5443215,0.4852478,0.69269174,0.93318874,-0.2594873,0.4318047,-0.53699875,-0.5213127,0.6363319,-0.79554087,0.47663915,-0.31358105,-0.49390793,-0.49481964,0.58176017,0.95488924,0.11676956,0.22564775,0.15373504,-1.0543457,0.78274834,0.0078020673,0.0,1.0,0.0,0.0,0.0,0.0,0.0,-0.11300123,0.12131271,-0.086331904,2.7436733,1.8785954,11.305851,-6.6233635,0.8561492,-3.5223007,0.028771162
26.271166,76.396935,20.111437,2.4008336,0.71270853,0.36950773,0.37374988,-0.7209484,-0.30178195,0.33472365,0.2576588,0.6529635,-0.5562801,0.6022853,0.2964381,-1.2711493,-2.0745397,-0.7122093,1.7470098,1.7200388,-0.68303347,0.35538033,-1.2463231,-2.102523,-0.73184335,1.6911402,1.7728596,-0.7389386,-1.3086364,-0.53245765,0.57153755,0.58670205,0.944789,-0.28741762,0.43239447,-0.5444908,-0.51670074,0.63331074,-0.7360448,0.45674765,-0.30184022,-0.5040741,-0.48709488,0.5818805,0.95797306,0.11408483,0.21848322,0.1467554,-0.9998449,0.77695405,0.011615493,0.0,1.0,0.0,0.0,0.0,0.0,0.0,-0.10550916,0.11670074,-0.08331072,2.657175,1.1031389,8.9568615,-10.607171,0.9444952,-2.6754498,0.021070242
51.161366,58.656902,18.238897,-13.311971,-0.8634089,0.16027045,0.91779435,-0.68175024,-0.32356155,0.41466206,0.005707931,0.6813424,-0.54230493,0.58044565,0.2872053,-1.2786793,-2.0610569,-0.7312726,1.7592744,1.7186291,-0.6808941,0.34261683,-1.2517266,-2.0960817,-0.727824,1.7007489,1.7698375,-0.7346374,-1.2659659,-0.5430825,0.6695436,0.34015164,0.96527046,-0.30589497,0.42914155,-0.55135345,-0.51236725,0.6302543,-0.67200094,0.42658135,-0.31112364,-0.5134201,-0.47968292,0.58173776,0.9609284,0.11098901,0.21079491,0.14093767,-0.9098059,0.7361729,-0.02466085,0.0,1.0,0.0,0.0,0.0,0.0,0.0,-0.09864652,0.11236724,-0.08025432,4.153228,-1.136291,10.104668,-24.746078,1.8544316,-1.5404522,-0.38799644
59.96761,43.072147,13.976674,-22.514347,-2.1127377,-0.122784734,1.2807131,-0.67522943,-0.32207027,0.36031824,-0.21822098,0.70727664,-0.53359133,0.57177335,0.27509388,-1.2839336,-2.06005,-0.74964607,1.7714766,1.7164783,-0.6774601,0.3302391,-1.2572656,-2.0891588,-0.7270623,1.7106167,1.7666837,-0.7303802,-1.228704,-0.55757964,0.7003653,-0.011953612,0.99353373,-0.31705102,0.42451653,-0.5576134,-0.50836563,0.626881,-0.6129385,0.39195296,-0.35001332,-0.5217476,-0.47285843,0.58092725,0.9637009,0.10775938,0.20238528,0.13677932,-0.8052697,0.6709861,-0.10156202,0.0,1.0,0.0,0.0,0.0,0.0,0.0,-0.0923866,0.108365625,-0.07688099,3.6227703,-1.5143871,3.1900883,-35.26777,2.7795434,-0.6886065,-0.46729445
56.49919,29.73183,9.068654,-26.140427,-2.761322,-0.34854463,1.4487776,-0.69215626,-0.33329132,0.30389664,-0.4446966,0.73621356,-0.5498777,0.55879813,0.26102346,-1.2905947,-2.0587692,-0.77153194,1.7842381,1.7116959,-0.67450035,0.31805542,-1.2629876,-2.0824451,-0.7303211,1.7208,1.7634345,-0.72617275,-1.215066,-0.5772865,0.66177416,-0.4302159,1.0265096,-0.32603332,0.41983324,-0.5634155,-0.50466156,0.62289935,-0.57141966,0.3646133,-0.41736335,-0.52905273,-0.4667511,0.57909876,0.96624666,0.10478514,0.19312981,0.13449241,-0.703462,0.5964568,-0.211339,0.0,1.0,0.0,0.0,0.0,0.0,0.0,-0.08658445,0.104661554,-0.07289934,1.315546,-2.0312786,-3.9559245,-41.77355,3.366685,-0.47441125,-0.36744475
43.095203,25.055923,6.653914,-20.674345,-2.1382577,-0.4392164,1.1958208,-0.68798614,-0.38175708,0.3200464,-0.51223063,0.7488499,-0.5265799,0.56385285,0.2492568,-1.3011633,-2.0504405,-0.78154415,1.795685,1.7107766,-0.66978747,0.3059304,-1.2690988,-2.0761666,-0.73721635,1.7312791,1.7601227,-0.7219971,-1.2115122,-0.6224527,0.6159795,-0.7754175,1.0550351,-0.33202738,0.417459,-0.56892395,-0.50115585,0.61814827,-0.5463638,0.34748074,-0.49662554,-0.53554916,-0.4612732,0.57615715,0.9685847,0.10216008,0.18300971,0.13384469,-0.6291121,0.53459036,-0.32278645,0.0,1.0,0.0,0.0,0.0,0.0,0.0,-0.081076026,0.10115585,-0.068148255,0.386405,-4.5656323,-4.796171,-34.354103,2.9825926,-0.32244325,-0.05876422
30.475693,21.068184,5.5602922,-14.117583,-1.108896,-0.44232672,0.8521674,-0.67985773,-0.46477106,0.391597,-0.561177,0.7562344,-0.5320903,0.5750675,0.23794463,-1.3155758,-2.0370069,-0.79333407,1.8069025,1.7069136,-0.66449034,0.29383063,-1.2760015,-2.0699563,-0.746735,1.7419853,1.75675,-0.71782887,-1.2092015,-0.7130517,0.62209314,-1.0099493,1.0762655,-0.338538,0.41733637,-0.5742645,-0.49777222,0.6125421,-0.53099835,0.33639917,-0.58310455,-0.5415306,-0.45627594,0.57215464,0.97078264,0.09966216,0.17198752,0.13442005,-0.58669126,0.4918823,-0.4266243,0.0,1.0,0.0,0.0,0.0,0.0,0.0,-0.07573545,0.09777221,-0.06254208,0.3077984,-9.103119,0.33386946,-23.2401,2.2830486,-0.5257547,0.18730164
17.639395,30.290016,6.6379275,-4.934797,-0.24500622,-0.41262335,0.47024792,-0.6639105,-0.47943592,0.33340067,-0.57358754,0.7549462,-0.53300714,0.5853715,0.22743958,-1.323945,-2.0366163,-0.8040937,1.81748,1.7034492,-0.65929174,0.28181434,-1.2837758,-2.0638452,-0.7577013,1.7528473,1.7533149,-0.71365356,-1.1987494,-0.798817,0.60623986,-1.1248314,1.0903332,-0.34486875,0.41833246,-0.5794182,-0.49453354,0.60611326,-0.50978476,0.31977412,-0.6626396,-0.54727554,-0.4515686,0.56727386,0.9728591,0.09720951,0.16024394,0.13571058,-0.5676338,0.46617964,-0.50890356,0.0,1.0,0.0,0.0,0.0,0.0,0.0,-0.070581794,0.09453353,-0.056113243,1.1453152,-8.582807,-1.9125342,-11.25927,1.6308546,-0.56536794,0.30807257
7.8237944,63.674248,14.487667,7.8852634,0.8557587,-0.052867413,0.048326336,-0.6441915,-0.42362502,0.3247197,-0.52800137,0.7392768,-0.48432848,0.5889362,0.21739519,-1.3261383,-2.0313733,-0.8105014,1.826775,1.704882,-0.65475994,0.26998973,-1.2919316,-2.0579438,-0.76892036,1.7638,1.7498552,-0.70947206,-1.1765361,-0.8207997,0.58299685,-1.1203756,1.0980588,-0.34590793,0.4190851,-0.58418655,-0.49157715,0.5992808,-0.47048903,0.2928921,-0.6876168,-0.5528946,-0.44696045,0.56203943,0.9747983,0.09470384,0.1482622,0.13717748,-0.55705845,0.46103638,-0.52853996,0.0,1.0,0.0,0.0,0.0,0.0,0.0,-0.06581342,0.09157714,-0.049280763,2.3594856,-2.0931602,-2.8750062,0.61564445,1.0763884,-0.0024437904,0.36998987
14.587754,72.92857,19.692167,9.958741,1.4544343,0.12173541,-0.10548933,-0.5885378,-0.5017348,0.48141992,-0.4764621,0.73858255,-0.4063339,0.60191053,0.21113595,-1.3421052,-2.0098019,-0.8165666,1.8376583,1.7092217,-0.649281,0.2586267,-1.3004422,-2.0515273,-0.77948135,1.7747847,1.7464374,-0.7052618,-1.1224228,-0.86061335,0.6590306,-1.0343603,1.1011789,-0.33953172,0.42200264,-0.5886574,-0.48875046,0.59252125,-0.43957075,0.27954984,-0.67183304,-0.5584259,-0.44238663,0.5568375,0.9766384,0.09168467,0.13623333,0.13860668,-0.54899716,0.45871314,-0.51764023,0.0,1.0,0.0,0.0,0.0,0.0,0.0,-0.061342597,0.08875045,-0.04252124,5.5541515,-3.8340807,6.9291353,8.710432,1.086545,0.8997679,0.3930092
46.48624,68.64096,23.266727,-0.7634628,0.54039717,-0.10322729,0.12535244,-0.4536516,-0.57802343,0.57203466,-0.46058288,0.7372054,-0.22090091,0.5970257,0.21326154,-1.3582445,-1.9943238,-0.82553965,1.8485053,1.7243474,-0.64555925,0.24838567,-1.3096089,-2.043868,-0.7890448,1.785792,1.7432309,-0.701035,-0.9908851,-0.9348734,0.7992446,-0.93012565,1.1031885,-0.313306,0.42306003,-0.59274673,-0.48614883,0.58601874,-0.39877114,0.25381884,-0.643458,-0.5636749,-0.43811417,0.5517309,0.9783821,0.08768418,0.12413862,0.1402482,-0.5138108,0.4202617,-0.5086718,0.0,1.0,0.0,0.0,0.0,0.0,0.0,-0.05725324,0.08614883,-0.03601873,13.28212,-7.294309,13.4305,10.483408,0.97284317,2.9789925,0.15503764
56.076775,73.177185,24.975704,-4.2844377,-0.14919412,-0.057299763,0.2656499,-0.39898318,-0.55665994,0.54050106,-0.4704995,0.73846495,0.08186531,0.5833375,0.20848735,-1.3652749,-1.989818,-0.83609474,1.8596385,1.7514175,-0.64270127,0.23959541,-1.319325,-2.0350907,-0.7977824,1.796819,1.7405088,-0.6968114,-0.84126866,-0.9835736,0.90232545,-0.85454196,1.1048757,-0.25724402,0.4224055,-0.59638596,-0.48383713,0.57986236,-0.35294023,0.22343008,-0.60724896,-0.56842804,-0.43431854,0.54671836,0.9799678,0.082664505,0.11212548,0.14232935,-0.45991504,0.3681907,-0.49914473,0.0,1.0,0.0,0.0,0.0,0.0,0.0,-0.05361402,0.08383712,-0.029862344,15.097833,-4.761946,9.813393,7.6785326,0.85794926,6.0111403,0.032699108
78.47294,89.321106,31.185972,-9.80783,-1.1812294,-0.10687694,0.46551126,-0.2575542,-0.5115976,0.5666657,-0.44871354,0.7288249,0.30644852,0.55658156,0.21384,-1.3704847,-1.9784241,-0.84265375,1.8697015,1.7711537,-0.6411532,0.23267075,-1.3291459,-2.025493,-0.805923,1.8078493,1.7384931,-0.69262093,-0.6423558,-0.9811188,0.97737783,-0.79988253,1.1048601,-0.18114439,0.41828158,-0.59946823,-0.48191833,0.57429624,-0.29351223,0.18170881,-0.5404025,-0.57237244,-0.4312744,0.5419607,0.9813083,0.0766924,0.10048512,0.14510338,-0.37101412,0.2857984,-0.4681107,0.0,1.0,0.0,0.0,0.0,0.0,0.0,-0.050531745,0.08191833,-0.024296224,20.048927,0.34954548,7.0432067,5.647671,0.7374525,8.149857,-0.2989471
71.87705,96.053116,32.015182,-6.1513352,-1.0627648,-0.07906456,0.3577775,-0.18611595,-0.5054044,0.5839092,-0.3686838,0.71891683,0.40626806,0.53468716,0.21405916,-1.3796864,-1.9671019,-0.8427914,1.879741,1.7791198,-0.6391522,0.22768995,-1.3387685,-2.0153534,-0.81335497,1.8188375,1.7372596,-0.6884855,-0.4494065,-0.95561033,1.0245179,-0.72352546,1.0990794,-0.10226035,0.41246077,-0.60199356,-0.48039627,0.56943655,-0.23933618,0.14282691,-0.46757832,-0.57547,-0.42900085,0.5375957,0.9823746,0.06989962,0.08943873,0.14850907,-0.28910986,0.20864648,-0.42635396,0.0,1.0,0.0,0.0,0.0,0.0,0.0,-0.048006415,0.080396265,-0.019436538,19.469845,2.6491046,4.305005,7.881391,0.08971691,8.426189,-0.4272461
57.564102,104.27619,32.122913,-1.550205,-0.8808874,0.039250866,0.3080309,-0.15007034,-0.44436973,0.56466794,-0.3937868,0.7293368,0.3512665,0.52858406,0.21268292,-1.3832054,-1.9588866,-0.8527337,1.8917712,1.7723863,-0.6356271,0.22431895,-1.3478209,-2.00505,-0.8202955,1.8297933,1.7366971,-0.6844066,-0.29901683,-0.8882475,1.03047,-0.68311846,1.096739,-0.03913175,0.40703723,-0.60401917,-0.47921753,0.56531745,-0.19097349,0.10956272,-0.39285532,-0.5778122,-0.4274025,0.5337202,0.98315775,0.06256513,0.07908233,0.15242203,-0.21445559,0.14498396,-0.37521338,0.0,1.0,0.0,0.0,0.0,0.0,0.0,-0.04598081,0.07921752,-0.01531744,15.234863,6.837654,0.13346672,4.353833,0.45335293,6.8547673,-0.3501594
56.720478,104.00927,31.73245,-2.2480288,-1.0941691,-0.08107473,0.34575155,-0.050278436,-0.4210451,0.5718641,-0.37970307,0.7232417,0.33306465,0.5208704,0.2192911,-1.3899254,-1.9478636,-0.8582658,1.9021175,1.7700036,-0.63231957,0.22240923,-1.3561445,-1.9947937,-0.82695013,1.8407115,1.7366724,-0.6803822,-0.15429316,-0.81339884,1.0225675,-0.65838695,1.0923549,0.011262222,0.4015802,-0.60559464,-0.47836304,0.56189543,-0.14662716,0.077508256,-0.32414022,-0.5793915,-0.4264679,0.5303413,0.9836525,0.0548939,0.069406174,0.15683466,-0.1397945,0.077835865,-0.32587758,0.0,1.0,0.0,0.0,0.0,0.0,0.0,-0.04440534,0.07836303,-0.011895418,14.668772,7.5718284,-1.2176752,2.8146148,0.19845963,5.535237,-0.34587383
34.424377,111.12901,31.29393,6.738008,-0.3533277,0.121876016,0.09958082,-0.02757189,-0.3476342,0.532696,-0.3079413,0.71501875,0.33863991,0.5165664,0.21965204,-1.390908,-1.941524,-0.8577443,1.9122133,1.7705364,-0.6287255,0.22163081,-1.3635222,-1.9848464,-0.8331508,1.8515614,1.7370809,-0.6764054,-0.05170949,-0.71225244,0.98389095,-0.6062285,1.0847149,0.052157972,0.3970548,-0.6068039,-0.4777565,0.5591934,-0.11249434,0.055192646,-0.25062114,-0.58041,-0.42599106,0.5275539,0.98389244,0.047083706,0.06050895,0.16148515,-0.088552214,0.03765603,-0.2635967,0.0,1.0,0.0,0.0,0.0,0.0,0.0,-0.043196082,0.077756494,-0.009193361,10.455985,10.238433,-4.355347,5.5478454,-0.07789135,4.5802307,-0.24659038
24.844604,120.929924,32.840622,11.246214,-0.16898933,0.21226186,0.0032357518,0.024167301,-0.25057068,0.48653626,-0.2795697,0.70437944,0.31207377,0.518551,0.22404754,-1.3885792,-1.9361928,-0.86110777,1.9219993,1.7682883,-0.6245503,0.2217367,-1.3696238,-1.9754922,-0.8387744,1.8623105,1.7378174,-0.6724665,0.032017887,-0.57573986,0.91745853,-0.54660976,1.0739088,0.08219502,0.39364198,-0.60770035,-0.4773407,0.5573199,-0.08335184,0.038489185,-0.16398735,-0.5809555,-0.4258499,0.52551144,0.98390937,0.039336737,0.052543268,0.16617505,-0.043644503,0.007351948,-0.18509413,0.0,1.0,0.0,0.0,0.0,0.0,0.0,-0.04229963,0.07734069,-0.0073198676,8.566988,13.793695,-7.155347,6.2862635,-0.38030148,3.4868941,-0.13517737
