Afshin1997/kuka_rl_ros2/src/catch_and_throw/input_files/idealpd/polynomial_regressor/optimizer_files/env_183_data.csv
torque0,torque1,torque2,torque3,torque4,torque5,torque6,action0,action1,action2,action3,action4,action5,action6,set_target_0,set_target_1,set_target_2,set_target_3,set_target_4,set_target_5,set_target_6,joint_pos_0,joint_pos_1,joint_pos_2,joint_pos_3,joint_pos_4,joint_pos_5,joint_pos_6,joint_vel_0,joint_vel_1,joint_vel_2,joint_vel_3,joint_vel_4,joint_vel_5,joint_vel_6,tennisball_pos_0,tennisball_pos_1,tennisball_pos_2,tennisball_lin_vel_0,tennisball_lin_vel_1,tennisball_lin_vel_2,end_effector_pos_0,end_effector_pos_1,end_effector_pos_2,end_effector_rot_0,end_effector_rot_1,end_effector_rot_2,end_effector_rot_3,end_effector_lin_vel_0,end_effector_lin_vel_1,end_effector_lin_vel_2,obs_task_0,obs_task_1,obs_task_2,obs_task_3,obs_task_4,obs_task_5,obs_task_6,to_final_target_0,to_final_target_1,to_final_target_2,joint_acc_0,joint_acc_1,joint_acc_2,joint_acc_3,joint_acc_4,joint_acc_5,joint_acc_6
0.0,0.0,0.0,0.0,0.0,0.0,0.0,0.0,0.0,0.0,0.0,0.0,0.0,0.0,1.7802359,-1.0646509,-1.8151424,-1.1170107,1.9373155,1.1170107,-0.91629785,1.7802359,-1.0646509,-1.8151424,-1.1170107,1.9373155,1.1170107,-0.91629785,0.0,0.0,0.0,0.0,0.0,0.0,0.0,2.8249187,-0.30488968,0.33588815,-2.959299,-0.09864902,5.048157,0.5304146,-0.45449638,0.693097,0.5745483,0.17512383,0.15255436,0.7848268,0.0,0.0,0.0,1.0,0.0,0.0,0.0,0.0,0.0,0.0,-3.4749188,-0.09511033,0.21411186,0.0,0.0,0.0,0.0,0.0,0.0,0.0
0.0,0.0,0.0,0.0,0.0,0.0,0.0,0.0,0.0,0.0,0.0,0.0,0.0,0.0,1.7802359,-1.0646509,-1.8151424,-1.1170107,1.9373155,1.1170107,-0.91629785,1.7802359,-1.0646509,-1.8151424,-1.1170107,1.9373155,1.1170107,-0.91629785,0.0,0.0,0.0,0.0,0.0,0.0,0.0,2.8249187,-0.30488968,0.33588815,-2.959299,-0.09864902,5.048157,0.5304146,-0.45449638,0.693097,0.5745483,0.17512383,0.15255436,0.7848268,0.0,0.0,0.0,1.0,0.0,0.0,0.0,0.0,0.0,0.0,-3.4749188,-0.09511033,0.21411186,0.0,0.0,0.0,0.0,0.0,0.0,0.0
0.0,0.0,0.0,0.0,0.0,0.0,0.0,0.0,0.0,0.0,0.0,0.0,0.0,0.0,1.7802359,-1.0646509,-1.8151424,-1.1170107,1.9373155,1.1170107,-0.91629785,1.7802359,-1.0646509,-1.8151424,-1.1170107,1.9373155,1.1170107,-0.91629785,0.0,0.0,0.0,0.0,0.0,0.0,0.0,2.8249187,-0.30488968,0.33588815,-2.959299,-0.09864902,5.048157,0.5304146,-0.45449638,0.693097,0.5745483,0.17512383,0.15255436,0.7848268,0.0,0.0,0.0,1.0,0.0,0.0,0.0,0.0,0.0,0.0,-3.4749188,-0.09511033,0.21411186,0.0,0.0,0.0,0.0,0.0,0.0,0.0
-176.0,83.17008,-0.30991936,110.0,11.183832,5.364458,-3.7982254,-0.83002317,0.4243,-0.5354096,0.7263277,0.42477494,0.62606215,-0.58100975,1.6972336,-1.0222208,-1.8686833,-1.0443779,1.979793,1.1796169,-0.97439885,1.7786165,-1.0621656,-1.8205364,-1.112681,1.9430699,1.1219889,-0.9189128,-0.21578327,0.33077115,-0.7185804,0.5775491,0.76623803,0.6619175,-0.3481834,2.7953472,-0.30587387,0.3855954,-2.9563406,-0.09855039,4.944924,0.5281944,-0.45763206,0.6940714,0.578598,0.17367324,0.15089661,0.78249097,-0.29611903,-0.41862172,0.12969257,1.0,0.0,0.0,0.0,0.0,0.0,0.0,-3.4453473,-0.094126135,0.1644046,-21.535662,32.88923,-71.65795,57.81146,76.364265,65.60043,-34.67442
-176.0,17.519377,-26.891865,110.0,12.118636,3.0699573,-3.173345,-0.8155577,0.07924978,-0.5537455,0.6961192,0.51610005,0.61777735,-0.61968535,1.6970608,-1.0542406,-1.8759109,-1.0430691,1.9946799,1.1837666,-0.98088133,1.7759787,-1.057855,-1.834441,-1.1005808,1.9553857,1.1344916,-0.92229646,-0.2782729,0.46269313,-1.6151545,1.4228231,1.3859277,1.4395012,-0.33214492,2.7658062,-0.30685806,0.4342711,-2.9533849,-0.09845185,4.8417935,0.52316284,-0.46554565,0.69563544,0.58743334,0.17028098,0.1468777,0.77740157,-0.57340246,-0.91394985,0.16567819,1.0,0.0,0.0,0.0,0.0,0.0,0.0,-3.4158063,-0.09314194,0.115728915,-5.7275114,12.678456,-89.884186,85.165955,61.74648,75.76241,2.4844587
-153.47957,114.10482,28.839575,88.977516,7.850066,7.2834754,-1.7911103,-0.77454704,0.36674517,-0.053146504,0.5483712,0.537398,0.6500795,-0.5789678,1.698524,-1.0211805,-1.8397557,-1.0457437,2.0091255,1.1994995,-0.98019326,1.7699839,-1.0522074,-1.8493354,-1.0849081,1.9695859,1.1487414,-0.9257936,-0.7068059,0.5959772,-1.4416707,1.616423,1.4275244,1.4128084,-0.35727566,2.7362957,-0.30784225,0.48191625,-2.950432,-0.09835342,4.738766,0.5152645,-0.4761486,0.69879836,0.5991332,0.16548252,0.14170565,0.7704378,-0.8693404,-1.1033272,0.37063497,1.0,0.0,0.0,0.0,0.0,0.0,0.0,-3.3862958,-0.09215775,0.06808376,-42.961998,12.438488,19.123173,19.605732,2.953267,-4.8422337,-3.0026972
-95.49758,126.34454,44.078793,57.93679,4.3971148,7.617712,-0.5920909,-0.78223133,0.34588793,-0.0009985538,0.5770432,0.521789,0.62868315,-0.5917871,1.6917608,-1.0176185,-1.8494353,-1.0272038,2.0217648,1.2116097,-0.9849723,1.7599207,-1.0457929,-1.8599994,-1.0692145,1.982779,1.1619593,-0.9294862,-1.1074343,0.654292,-0.93431234,1.5538924,1.2792099,1.2871763,-0.37590843,2.706812,-0.30882645,0.5285319,-2.947482,-0.09825509,4.635842,0.50491905,-0.48736763,0.70394635,0.61189085,0.15938047,0.13598779,0.7626891,-1.1010485,-1.1174631,0.567986,1.0,0.0,0.0,0.0,0.0,0.0,0.0,-3.356812,-0.09117356,0.021468103,-40.465904,5.136502,52.85232,-6.2143803,-16.0331,-13.8798,-2.6778579
-35.565586,137.31793,53.342472,30.052673,1.2642784,6.827248,0.21284984,-0.79863703,0.44052228,0.029993664,0.5351365,0.579998,0.6102089,-0.5841473,1.680057,-1.0017407,-1.857,-1.0157008,2.0407789,1.2229801,-0.987901,1.7466513,-1.0386919,-1.8651989,-1.0552908,1.9942861,1.1737639,-0.9333486,-1.4018136,0.7271027,-0.37566394,1.3378224,1.1049303,1.1432279,-0.39255387,2.6773586,-0.30980682,0.5741191,-2.944535,-0.098156855,4.5330205,0.49292183,-0.49777603,0.7108767,0.62446815,0.15206727,0.13005176,0.7549844,-1.2443122,-1.002115,0.738161,1.0,0.0,0.0,0.0,0.0,0.0,0.0,-3.3273587,-0.09019318,-0.02411908,-29.940796,6.799388,57.712437,-21.799301,-18.279194,-14.911628,-2.5256276
3.8152883,132.72514,52.007233,13.756771,-0.47450274,5.2372937,0.46298873,-0.8155214,0.5089673,0.062359918,0.53937835,0.6104113,0.6008188,-0.5873637,1.6650991,-0.9877952,-1.8589629,-1.001353,2.0553272,1.2338457,-0.992085,1.7314306,-1.0307344,-1.8657978,-1.0435148,2.0043721,1.1842543,-0.9373521,-1.5634556,0.8174935,0.049504504,1.1233166,0.975141,1.017249,-0.4052374,2.6479359,-0.3107872,0.61867887,-2.9415913,-0.098058715,4.430302,0.4800644,-0.5067177,0.7192097,0.6363266,0.14381838,0.12420044,0.74764895,-1.3105989,-0.8438008,0.8659824,1.0,0.0,0.0,0.0,0.0,0.0,0.0,-3.297936,-0.089212805,-0.068678856,-16.578125,8.719921,43.80469,-21.678616,-13.41914,-12.668157,-1.9727767
27.927288,128.31395,49.474495,5.719095,-1.3419785,3.9417348,0.47387788,-0.8191692,0.57735574,0.13608973,0.5322902,0.62649983,0.59996086,-0.58553916,1.6495137,-0.97299886,-1.8521888,-0.9902858,2.067022,1.2442504,-0.99590605,1.7154242,-1.0217279,-1.8632553,-1.0334517,2.013577,1.1936404,-0.9414577,-1.6141365,0.9275457,0.32544693,0.9666719,0.9015284,0.9129417,-0.41418216,2.6185436,-0.31176758,0.66221225,-2.9386504,-0.09796067,4.327687,0.46691895,-0.514019,0.7286341,0.64735615,0.13488278,0.118644044,0.740716,-1.3241141,-0.6772075,0.96711236,1.0,0.0,0.0,0.0,0.0,0.0,0.0,-3.2685437,-0.08823243,-0.11221224,-5.380416,10.780287,28.480541,-15.859043,-7.5502872,-10.3036995,-1.4745712
36.052635,120.705185,44.70879,3.7566833,-1.5229502,2.9379578,0.34020942,-0.8213377,0.63927394,0.1813077,0.52364284,0.6362912,0.610014,-0.57745206,1.6332904,-0.9578005,-1.8451245,-0.9810874,2.0772061,1.2546418,-0.9992029,1.6994177,-1.0115541,-1.8589637,-1.024428,2.0223775,1.2021319,-0.9456262,-1.5969757,1.0469409,0.46582937,0.88037705,0.8729573,0.82845527,-0.4192755,2.589178,-0.31274796,0.7047202,-2.9357123,-0.097862735,4.2251735,0.4538269,-0.5197773,0.73891085,0.6576694,0.12545355,0.11351672,0.7340614,-1.3107485,-0.52719235,1.0459993,1.0,0.0,0.0,0.0,0.0,0.0,0.0,-3.2391782,-0.08725205,-0.15472019,1.493907,11.775934,14.646137,-8.765829,-2.9143095,-8.27943,-0.97556114
35.88471,108.71322,38.483475,3.4470782,-1.4056716,2.1281946,0.22377974,-0.814708,0.6805774,0.20652667,0.5045649,0.64625794,0.6200266,-0.5653436,1.6179469,-0.9434964,-1.8383111,-0.97397155,2.0870032,1.2641345,-1.0021605,1.6838232,-1.0002645,-1.8539836,-1.0159079,2.0311131,1.2099005,-0.94982237,-1.5475565,1.1559134,0.5102061,0.8423386,0.8737021,0.76041603,-0.4209013,2.559843,-0.31372452,0.7462038,-2.9327772,-0.097764894,4.122763,0.44094086,-0.5242214,0.7497955,0.66741747,0.115717776,0.1088658,0.727538,-1.2853966,-0.40172887,1.0999756,1.0,0.0,0.0,0.0,0.0,0.0,0.0,-3.2098432,-0.08627549,-0.19620377,4.780817,10.781503,4.8644543,-3.9170384,0.08093119,-6.635678,-0.54019094
29.099848,94.59248,31.615257,4.8249598,-1.0402833,1.5309354,0.10865075,-0.81020427,0.7095587,0.20697404,0.4969676,0.6562534,0.6290426,-0.5571372,1.6028028,-0.92930865,-1.8332863,-0.96621114,2.0967386,1.2728047,-1.0055361,1.6687456,-0.98805463,-1.8490226,-1.0075308,2.0399747,1.2170893,-0.95401853,-1.4949439,1.2425212,0.4923776,0.8358841,0.8901917,0.70551604,-0.42014742,2.5305386,-0.31470108,0.786664,-2.9298449,-0.09766715,4.020455,0.42830086,-0.5276375,0.7610413,0.6767544,0.10584658,0.10466844,0.7210024,-1.2608896,-0.3058529,1.1297396,1.0,0.0,0.0,0.0,0.0,0.0,0.0,-3.1805387,-0.085298926,-0.236664,5.138135,8.582926,-1.4830232,-0.76363087,1.6960382,-5.3498745,-0.23004413
24.118809,79.73692,25.439203,3.7324743,-0.86277765,1.0308399,0.12911397,-0.80804706,0.7204832,0.2142705,0.44548038,0.666795,0.62829334,-0.5510729,1.5879409,-0.9160063,-1.8275956,-0.9629828,2.1066542,1.2799187,-1.0091258,1.6540972,-0.9752182,-1.8443878,-0.9993292,2.049046,1.223807,-0.95819753,-1.4553521,1.2972177,0.4545214,0.8143911,0.9128995,0.66097206,-0.418059,2.5012608,-0.31567764,0.82610196,-2.9269154,-0.0975695,3.9182494,0.41590118,-0.5302315,0.77237916,0.68571866,0.096021414,0.100856744,0.7144212,-1.2357132,-0.22885223,1.1316925,1.0,0.0,0.0,0.0,0.0,0.0,0.0,-3.1512609,-0.08432236,-0.27610195,3.8412094,5.4234505,-3.5352945,-2.3156166,2.3349762,-4.283035,-0.059735775
19.11481,70.988144,21.953276,4.471487,-0.59553826,0.8344011,0.12859656,-0.80001163,0.7339635,0.21957092,0.43686226,0.671893,0.63171524,-0.5400566,1.5740961,-0.90182185,-1.8224307,-0.955643,2.1162353,1.2869785,-1.0122032,1.6397463,-0.96201265,-1.8401039,-0.991346,2.0583348,1.2301413,-0.962347,-1.4287684,1.3283093,0.42040157,0.7923129,0.93427205,0.62483776,-0.41468287,2.4720135,-0.3166542,0.86451864,-2.9239893,-0.09747195,3.8161461,0.4037075,-0.53216934,0.7836474,0.6943318,0.08632834,0.09733487,0.70779705,-1.2150686,-0.16665924,1.1217647,1.0,0.0,0.0,0.0,0.0,0.0,0.0,-3.1220136,-0.0833458,-0.31451863,2.5465965,3.081274,-3.186679,-2.3946643,2.2155166,-3.4473777,0.09046793
16.991089,65.01927,19.760149,3.9401317,-0.5183557,0.68498635,0.17244148,-0.7954769,0.74271095,0.21898556,0.4003883,0.68170106,0.63049555,-0.5346642,1.5601987,-0.88774157,-1.8182054,-0.9513072,2.126505,1.2931908,-1.0158134,1.625569,-0.9486183,-1.8360775,-0.98370993,2.067822,1.2361647,-0.96646017,-1.4144195,1.3430637,0.39735967,0.7533696,0.953743,0.5953947,-0.4109403,2.4427967,-0.31762695,0.901915,-2.921066,-0.0973745,3.7141452,0.39171982,-0.5335274,0.79474217,0.7025786,0.07681267,0.09402829,0.7011717,-1.1947906,-0.11061887,1.101862,1.0,0.0,0.0,0.0,0.0,0.0,0.0,-3.0927968,-0.08237305,-0.351915,1.3183117,1.46029,-2.0766199,-4.1022778,2.029705,-2.7569175,0.13641715
16.47014,63.561916,19.366798,3.5065703,-0.52922225,0.6751616,0.22562805,-0.796885,0.75354743,0.2307092,0.3582095,0.686333,0.638427,-0.52797884,1.5458804,-0.87326354,-1.8130065,-0.947889,2.1364553,1.3000073,-1.019258,1.6114508,-0.93512285,-1.832135,-0.9766041,2.0774732,1.2419401,-0.97053427,-1.4114575,1.3517205,0.39413735,0.69566417,0.9689848,0.5722732,-0.40694264,2.4136066,-0.3185997,0.93829215,-2.9181457,-0.09727714,3.612246,0.3799286,-0.5343189,0.8056182,0.7104193,0.06748015,0.09089167,0.69461465,-1.1741657,-0.05389282,1.0793952,1.0,0.0,0.0,0.0,0.0,0.0,0.0,-3.0636067,-0.081400305,-0.38829213,0.17044544,0.8553982,-0.07420182,-5.9830546,1.6070962,-2.1092176,0.16496778
17.363684,62.85461,19.182228,2.7799997,-0.6179446,0.61253774,0.26473823,-0.7937654,0.7603699,0.23332107,0.3178631,0.68585473,0.6362994,-0.5197542,1.5320742,-0.85908586,-1.8088028,-0.9448178,2.1460586,1.3055701,-1.0225097,1.5973307,-0.9215578,-1.8281429,-0.9701735,2.087235,1.2475172,-0.97456545,-1.412639,1.3580964,0.40158948,0.6249022,0.97852534,0.5535361,-0.40260613,2.384447,-0.31957245,0.97365105,-2.9152281,-0.09717989,3.5104487,0.36836624,-0.5345249,0.81625557,0.7178196,0.058322746,0.08791826,0.68818885,-1.1498313,0.0044883806,1.0548027,1.0,0.0,0.0,0.0,0.0,0.0,0.0,-3.0344472,-0.08042756,-0.42365104,-0.24576187,0.63385963,0.9959936,-7.2879195,1.0413051,-1.6468883,0.20483732
20.927807,63.05224,19.404003,0.958807,-0.8440459,0.48351088,0.32560295,-0.78370994,0.76851285,0.23450394,0.26337054,0.6913131,0.637591,-0.5059498,1.5189596,-0.8447065,-1.8046925,-0.94383645,2.1563663,1.3112763,-1.0251604,1.5832316,-0.9079174,-1.8240497,-0.9645659,2.097073,1.252936,-0.97854704,-1.4095631,1.3661088,0.41265497,0.5386658,0.98571855,0.53884125,-0.39742467,2.355318,-0.3205433,1.0079927,-2.9123135,-0.09708273,3.4087532,0.35711098,-0.534111,0.8266272,0.7247315,0.049350962,0.08513364,0.68196845,-1.1162175,0.06754611,1.0274787,1.0,0.0,0.0,0.0,0.0,0.0,0.0,-3.0053182,-0.07945672,-0.45799273,0.18415451,0.80611706,1.3509214,-8.833146,0.8125901,-1.1990666,0.2946496
25.194221,62.394783,19.38025,-1.9634228,-1.1651917,0.2988506,0.42394644,-0.7836971,0.77293676,0.2496977,0.17417957,0.6914563,0.6372824,-0.4927097,1.5048618,-0.8306237,-1.7990799,-0.9471479,2.1662188,1.3166642,-1.027818,1.569163,-0.89419305,-1.8197887,-0.96006167,2.106957,1.2582308,-0.98247045,-1.4063993,1.3745615,0.43146023,0.42031413,0.9899019,0.52756923,-0.3914663,2.3262157,-0.32151222,1.0413182,-2.9094017,-0.09698567,3.3071594,0.34628105,-0.5330162,0.8366751,0.73107314,0.040611356,0.08257841,0.6760647,-1.0700518,0.13670492,0.9933198,1.0,0.0,0.0,0.0,0.0,0.0,0.0,-2.9762158,-0.07848778,-0.49131817,0.19414425,0.861454,2.1227002,-12.045354,0.5145192,-0.78971386,0.38272738
26.619795,60.456963,18.553968,-3.3179407,-1.3116829,0.09780079,0.45130223,-0.78351927,0.7767096,0.24960798,0.103701934,0.6917947,0.64386326,-0.48986095,1.490811,-0.8165221,-1.7948279,-0.9496915,2.1761365,1.3226172,-1.0314566,1.5551211,-0.88038576,-1.8153675,-0.95685446,2.1168714,1.2634379,-0.98633665,-1.4037457,1.3828862,0.44629723,0.28679582,0.99224937,0.5195716,-0.38573864,2.297144,-0.32248116,1.0736284,-2.9064927,-0.0968887,3.2056673,0.3359642,-0.531229,0.84633934,0.7368134,0.032157693,0.080292575,0.6705408,-1.016092,0.20433871,0.9532377,1.0,0.0,0.0,0.0,0.0,0.0,0.0,-2.947144,-0.07751885,-0.5236284,0.15428066,0.86386204,1.6884744,-13.554907,0.34730434,-0.42302608,0.38397312
27.360315,59.583122,18.25026,-3.843111,-1.3527507,-0.029639572,0.47589645,-0.7839619,0.78084975,0.26707262,0.02902354,0.698819,0.63799894,-0.4847011,1.4767249,-0.8023008,-1.7886602,-0.95395213,2.1867533,1.3272377,-1.0348067,1.5410963,-0.8664974,-1.8107631,-0.9550425,2.12682,1.2685744,-0.99014753,-1.4022949,1.390995,0.46578604,0.14539364,0.9963103,0.51289636,-0.38014394,2.2681007,-0.3234501,1.1049247,-2.9035866,-0.09679183,3.1042764,0.32621384,-0.52878,0.8555909,0.7419459,0.024024,0.07828419,0.66544014,-0.95773244,0.26972458,0.91150004,1.0,0.0,0.0,0.0,0.0,0.0,0.0,-2.9181008,-0.07654992,-0.55492467,0.0480175,0.8558035,2.114606,-14.326731,0.537014,-0.27436018,0.3941357
36.523037,58.095806,18.345558,-10.403935,-2.0103638,-0.40591127,0.6807195,-0.7750487,0.78375447,0.2971591,-0.14905281,0.6999739,0.6318545,-0.4859765,1.4635915,-0.78812194,-1.7810472,-0.96994776,2.1968174,1.3317598,-1.0387452,1.5271231,-0.8525356,-1.805865,-0.95513785,2.136807,1.2736536,-0.9939098,-1.3959738,1.398181,0.4982949,-0.06174575,0.9999493,0.50804776,-0.3753037,2.2390862,-0.3244171,1.1352077,-2.9006834,-0.09669506,3.0029871,0.31723785,-0.52558327,0.86431074,0.74632645,0.016337384,0.07660188,0.6609553,-0.87317514,0.34651992,0.85428506,1.0,0.0,0.0,0.0,0.0,0.0,0.0,-2.8890862,-0.07558289,-0.58520764,0.55828094,0.7801771,3.3989966,-20.884537,0.49182177,0.028574467,0.34328103
45.151897,57.166965,18.689167,-16.368803,-2.5961776,-0.76055723,0.8783032,-0.76401365,0.78665316,0.3341226,-0.32020786,0.70375,0.6307634,-0.4762923,1.4507217,-0.7738703,-1.7724528,-0.98715866,2.207182,1.33673,-1.041539,1.5132624,-0.838508,-1.8005188,-0.9577385,2.1468358,1.2786967,-0.9976205,-1.3828679,1.4045331,0.54689145,-0.32655683,1.0042915,0.5050491,-0.36996338,2.210102,-0.32538223,1.1644785,-2.8977835,-0.09659839,2.901799,0.30928612,-0.5215397,0.8723633,0.74977565,0.009241587,0.07529749,0.65732884,-0.76393247,0.43245414,0.7841062,1.0,0.0,0.0,0.0,0.0,0.0,0.0,-2.8601022,-0.07461777,-0.6144785,1.2853146,0.7161379,4.9473286,-26.605877,0.57759285,0.30920506,0.43397546
45.48597,60.05508,20.110558,-15.094835,-2.4917462,-0.7133732,0.89481604,-0.7544886,0.7943853,0.3886743,-0.40150645,0.703995,0.6197464,-0.44115773,1.4378135,-0.7590695,-1.7616513,-0.99788916,2.2172353,1.3406713,-1.0417362,1.4995676,-0.82439935,-1.7945163,-0.96286356,2.1569066,1.2837073,-1.0012556,-1.3650687,1.4133822,0.6179961,-0.5747315,1.0084484,0.50154406,-0.36146495,2.1811447,-0.32634735,1.1927383,-2.8948865,-0.096501805,2.8007119,0.30241203,-0.5166302,0.8797887,0.7522578,0.0027093953,0.07433216,0.65465677,-0.6559461,0.517394,0.72353774,1.0,0.0,0.0,0.0,0.0,0.0,0.0,-2.8311448,-0.073652655,-0.6427383,1.8085718,0.9893894,7.0678234,-24.874378,0.63779354,0.23607016,0.7951796
41.98712,62.542778,21.298874,-10.753583,-2.0616477,-0.5329623,0.82052994,-0.73724496,0.7968202,0.44379318,-0.45600834,0.7053286,0.6177043,-0.39627218,1.4258431,-0.74471736,-1.750137,-1.0084645,2.2274394,1.3454777,-1.0408828,1.4861017,-0.8102058,-1.787669,-0.97006667,2.1670194,1.2886816,-1.0047766,-1.3399997,1.4217056,0.70642537,-0.7688294,1.0129423,0.49782604,-0.34903714,2.1522179,-0.32731247,1.219988,-2.8919923,-0.09640533,2.6997259,0.2965145,-0.51091576,0.8867362,0.7538456,-0.00340565,0.07359963,0.6529076,-0.5612245,0.59540087,0.6795358,1.0,0.0,0.0,0.0,0.0,0.0,0.0,-2.802218,-0.07268754,-0.669988,2.5782585,0.9624481,8.657228,-19.422318,0.76982975,0.16146898,1.2172341
38.060406,63.392307,21.605675,-6.5243993,-1.6641588,-0.43303195,0.70225626,-0.7108852,0.80256927,0.47427562,-0.5054835,0.7086699,0.61441857,-0.37040624,1.4150132,-0.7299489,-1.7402414,-1.020615,2.2378864,1.3501235,-1.0418172,1.4729697,-0.79592264,-1.7799709,-0.9787785,2.1771817,1.2936159,-1.0081621,-1.3039714,1.4310143,0.7898377,-0.9053203,1.0182633,0.49381083,-0.33502108,2.1233196,-0.32827568,1.2462285,-2.889101,-0.09630894,2.598841,0.29146576,-0.5044842,0.8933446,0.75465786,-0.009244975,0.07302007,0.65197694,-0.478977,0.6644478,0.648477,1.0,0.0,0.0,0.0,0.0,0.0,0.0,-2.7733197,-0.071724325,-0.69622844,3.7031412,1.083827,8.045983,-13.645029,0.91962814,0.08829236,1.3938308
30.718912,62.328594,20.941168,-0.9916301,-1.1222878,-0.28266802,0.5381872,-0.69880545,0.80594665,0.50757015,-0.5264741,0.7045027,0.61197025,-0.3281728,1.403089,-0.715328,-1.7292138,-1.031426,2.247632,1.354813,-1.0409794,1.4601942,-0.7815517,-1.771508,-0.9884087,2.1873746,1.2985102,-1.0113875,-1.2684928,1.4396195,0.8639665,-0.98234916,1.0211318,0.48943356,-0.3184437,2.09445,-0.32923698,1.2714609,-2.8862126,-0.096212655,2.498057,0.28709412,-0.49745178,0.89973503,0.754854,-0.014936775,0.07254342,0.65169746,-0.41589895,0.7206055,0.62933695,1.0,0.0,0.0,0.0,0.0,0.0,0.0,-2.74445,-0.07076302,-0.7214609,3.639102,1.0290384,7.0664525,-7.714534,0.7138729,-0.011128187,1.6535699
21.137234,58.555397,18.983614,4.812048,-0.51444334,-0.16031685,0.3437254,-0.69774336,0.80661154,0.52766436,-0.52799666,0.7015552,0.6105016,-0.29392943,1.3904198,-0.70089054,-1.7187415,-1.0412084,2.2575302,1.3595604,-1.0407804,1.4476897,-0.767115,-1.7624328,-0.9984232,2.197579,1.3033606,-1.0144373,-1.2444683,1.4455646,0.92100567,-1.0079601,1.0214359,0.484713,-0.30047756,2.065611,-0.3301983,1.2956862,-2.883327,-0.09611646,2.3973737,0.28319168,-0.4899788,0.9059922,0.75462335,-0.020571103,0.072133295,0.6518566,-0.37472942,0.7599634,0.61765206,1.0,0.0,0.0,0.0,0.0,0.0,0.0,-2.715611,-0.06980172,-0.74568623,2.4500608,0.7690668,5.3707004,-2.6167035,0.4581213,-0.12154579,1.7861784
11.840357,53.100018,16.284678,9.779435,0.045250237,-0.1096676,0.15981789,-0.7007517,0.8059349,0.532018,-0.51566243,0.70325464,0.6089805,-0.253868,1.3776145,-0.68652153,-1.709231,-1.0499895,2.2679043,1.3642586,-1.0398241,1.4353129,-0.7526449,-1.7529647,-1.0083967,2.2077832,1.3081614,-1.0172945,-1.2353921,1.4479975,0.9545403,-0.99428046,1.0212746,0.4796697,-0.280911,2.0367985,-0.3311596,1.3189055,-2.8804443,-0.09602036,2.296791,0.27955437,-0.4822464,0.9121564,0.7541572,-0.026186612,0.07177734,0.6522339,-0.35305166,0.7814623,0.60886836,1.0,0.0,0.0,0.0,0.0,0.0,0.0,-2.6867986,-0.068840414,-0.76890546,0.8967161,0.41594505,3.075099,1.2559891,0.3827095,-0.2270639,1.9349813
7.3844376,47.24783,13.772207,11.058637,0.25760043,-0.21963483,0.08191708,-0.7031574,0.8005224,0.5390166,-0.5312972,0.70394105,0.6056648,-0.24108046,1.3649971,-0.67259264,-1.6990631,-1.0615264,2.2781773,1.3687278,-1.0414026,1.4229437,-0.73819387,-1.743285,-1.0182081,2.2179837,1.3129145,-1.0199648,-1.2376319,1.4446375,0.97163314,-0.97725326,1.020592,0.47453347,-0.26260814,2.0080166,-0.332119,1.3411198,-2.8775644,-0.09592436,2.1963089,0.2760868,-0.4743843,0.91819084,0.75356317,-0.031745084,0.07148624,0.65270543,-0.33737525,0.79166216,0.5943339,1.0,0.0,0.0,0.0,0.0,0.0,0.0,-2.6580167,-0.06788102,-0.79111975,-0.26819706,-0.17404556,1.4923334,1.5575528,0.2828598,-0.27390718,1.8025756
4.056132,45.33225,12.858578,12.9529705,0.4366933,-0.1971815,0.01703954,-0.7093575,0.8050893,0.54669154,-0.51116383,0.7011639,0.6073097,-0.19293903,1.352008,-0.6576849,-1.6886158,-1.0693245,2.2881,1.3736454,-1.0392587,1.4104868,-0.7237648,-1.7335002,-1.0277659,2.2281651,1.3176199,-1.0224367,-1.2485368,1.4429474,0.98011965,-0.9492632,1.0186781,0.46994618,-0.24221277,1.9792614,-0.33307648,1.36233,-2.8746874,-0.09582846,2.0959272,0.27272034,-0.46645737,0.9240927,0.7529139,-0.037239898,0.07127932,0.6531869,-0.32852426,0.79658675,0.58147275,1.0,0.0,0.0,0.0,0.0,0.0,0.0,-2.6292615,-0.06692353,-0.81232995,-1.1664152,-0.008654594,0.6665826,2.6353836,0.14736652,-0.25023222,2.0108163
2.4175186,41.498905,11.322226,12.824382,0.4835539,-0.30269712,0.002514094,-0.72326726,0.79915386,0.5467693,-0.5186829,0.70377934,0.6138261,-0.16555607,1.33816,-0.6438494,-1.6788234,-1.0796342,2.298543,1.3790026,-1.0389924,1.3978525,-0.7093748,-1.7236831,-1.0371233,2.2383351,1.3222891,-1.0247046,-1.2686003,1.4381144,0.9817203,-0.9317751,1.0175759,0.46649826,-0.22170301,1.9505367,-0.33403397,1.382537,-2.8718133,-0.09573265,1.9956458,0.2694416,-0.45851898,0.92982244,0.75224006,-0.042628706,0.071172014,0.6536452,-0.32010004,0.7963997,0.5628178,1.0,0.0,0.0,0.0,0.0,0.0,0.0,-2.6005368,-0.06596604,-0.832537,-2.102065,-0.3329754,0.025343895,1.5725255,0.19395351,-0.15443563,2.022204
0.8997936,39.062878,10.243875,13.021124,0.50949156,-0.3681076,-0.024537742,-0.74292773,0.79909235,0.5415143,-0.51626575,0.6987681,0.61493236,-0.14016818,1.3235598,-0.6294656,-1.6695317,-1.0887499,2.308212,1.3837824,-1.0387214,1.3849474,-0.69502866,-1.7139003,-1.0463606,2.2484822,1.3269278,-1.0267683,-1.298107,1.4339436,0.9767783,-0.9217361,1.014763,0.4636476,-0.20139992,1.9218388,-0.33499146,1.4017421,-2.868942,-0.095636934,1.8954644,0.26623726,-0.4506054,0.9353418,0.7515711,-0.047865823,0.07119853,0.65404916,-0.3124142,0.7929367,0.5409139,1.0,0.0,0.0,0.0,0.0,0.0,0.0,-2.5718389,-0.06500855,-0.8517421,-3.0690432,-0.27332306,-0.58784485,0.81955194,-0.0017166138,-0.11315942,2.005157
4.080783,39.655525,10.982871,11.688417,0.3625362,-0.4539034,0.047679298,-0.73560816,0.7967686,0.55145776,-0.51281595,0.7015653,0.6109969,-0.06405772,1.3113866,-0.6153518,-1.6587546,-1.0976422,2.3186388,1.3880274,-1.0331742,1.3718306,-0.6807245,-1.7041309,-1.055533,2.2586102,1.3315417,-1.0285937,-1.3165526,1.4296933,0.97674626,-0.91636646,1.0134134,0.46107385,-0.17635752,1.8931713,-0.33594704,1.4199461,-2.8660736,-0.09554132,1.7953833,0.2631626,-0.44269562,0.94064075,0.7508619,-0.052941628,0.071361,0.6544548,-0.29777226,0.79348963,0.51884234,1.0,0.0,0.0,0.0,0.0,0.0,0.0,-2.5431714,-0.06405297,-0.86994606,-1.9352198,-0.2806902,-0.11421442,0.37109852,0.14636517,-0.06965399,2.477798
4.869069,39.306683,11.159898,11.495757,0.33091706,-0.4827154,0.06657366,-0.747634,0.7935198,0.557144,-0.5082727,0.69784844,0.6143934,-0.0336255,1.2970672,-0.60137254,-1.6484165,-1.1063603,2.3283951,1.392981,-1.0319562,1.358544,-0.6664671,-1.6943252,-1.0646635,2.2687192,1.3361346,-1.0301672,-1.3329873,1.4249448,0.9814735,-0.9123,1.0112189,0.45926034,-0.15114187,1.8645325,-0.3369007,1.43715,-2.863208,-0.0954458,1.6954023,0.26024246,-0.43476868,0.94572157,0.7500802,-0.05786079,0.071649574,0.654903,-0.28151205,0.7952298,0.49720678,1.0,0.0,0.0,0.0,0.0,0.0,0.0,-2.5145326,-0.063099295,-0.88715,-1.7294407,-0.3307104,0.36183596,0.24712086,0.061440468,0.0052154064,2.494976
4.634568,38.37128,11.088577,12.149078,0.40224624,-0.4848386,0.07303606,-0.75525224,0.78823715,0.5599395,-0.49057248,0.693797,0.6159999,0.048417665,1.2830188,-0.5876434,-1.6383313,-1.1137208,2.338099,1.3977345,-1.0253254,1.3451124,-0.6522707,-1.6844566,-1.0736872,2.2787976,1.3407122,-1.0314528,-1.3467803,1.4183748,0.9883969,-0.89947593,1.0079892,0.45788422,-0.12111968,1.8359222,-0.3378544,1.4533548,-2.8603454,-0.09535037,1.5955212,0.2574768,-0.4268341,0.9506031,0.7492171,-0.06264875,0.07204854,0.6554066,-0.26681492,0.7957718,0.47784197,1.0,0.0,0.0,0.0,0.0,0.0,0.0,-2.4859223,-0.06214562,-0.9033548,-1.4661074,-0.51157475,0.57941675,1.1193633,-0.03745556,0.04144311,2.9710054
3.1442237,38.608265,11.562839,14.42984,0.59337777,-0.34992135,0.053810753,-0.764908,0.78533405,0.57486194,-0.4508307,0.6867363,0.6274208,0.14829537,1.2686217,-0.57373726,-1.6269704,-1.1187702,2.3474712,1.4034543,-1.0166233,1.3315417,-0.63814104,-1.6744583,-1.0824057,2.2888303,1.345286,-1.0323893,-1.3608443,1.4116888,1.0033115,-0.8633711,1.002738,0.45776907,-0.08470546,1.8073406,-0.33880806,1.4685616,-2.8574855,-0.09525504,1.49574,0.25479507,-0.41889,0.95535445,0.74827796,-0.0673915,0.0725174,0.6559571,-0.2597179,0.7960404,0.46681952,1.0,0.0,0.0,0.0,0.0,0.0,0.0,-2.4573407,-0.061191946,-0.91856164,-1.5110016,-0.5168438,1.3716698,3.4385443,-0.21307468,0.14968514,3.604573
3.0874367,36.795494,10.955531,14.30116,0.6008742,-0.42139244,0.05171292,-0.77197105,0.7801572,0.5704743,-0.4475915,0.6863509,0.6300851,0.18760134,1.2543446,-0.5601253,-1.6174108,-1.1271648,2.3574653,1.4082946,-1.0136292,1.3178335,-0.62408674,-1.6643455,-1.090777,2.2988133,1.3498617,-1.0329634,-1.3742527,1.4038626,1.013429,-0.828986,0.99803483,0.45808703,-0.048410013,1.7787876,-0.33975983,1.4827714,-2.8546286,-0.0951598,1.3960586,0.25220108,-0.41095924,0.9599825,0.74726987,-0.0720994,0.07305139,0.65654606,-0.25152382,0.7943953,0.4540616,1.0,0.0,0.0,0.0,0.0,0.0,0.0,-2.4287877,-0.06024018,-0.9327714,-1.4458418,-0.6349325,0.9066582,3.2661438,-0.17387867,0.18825531,3.5921156
3.6140285,35.944035,10.948557,14.34392,0.61449385,-0.44792414,0.07001451,-0.7725965,0.77348,0.5802386,-0.42588815,0.68540907,0.6429566,0.25318667,1.2405739,-0.54673874,-1.6063217,-1.1333659,2.3673542,1.4141574,-1.0076448,1.3040262,-0.610124,-1.6541221,-1.0987822,2.3087583,1.3544508,-1.0331618,-1.3830945,1.3941891,1.0250856,-0.7916798,0.99422866,0.4597401,-0.010486638,1.7502632,-0.3407097,1.495985,-2.8517745,-0.09506466,1.2964767,0.24968338,-0.40303993,0.9644883,0.7461784,-0.07677937,0.073634095,0.6571916,-0.24272054,0.79270655,0.4420666,1.0,0.0,0.0,0.0,0.0,0.0,0.0,-2.4002633,-0.05929032,-0.945985,-0.98080635,-0.8206129,1.0580778,3.5621405,-0.08535385,0.3211558,3.7516243
4.373337,33.79674,10.0269375,12.639919,0.47561723,-0.6127917,0.09143357,-0.78605866,0.7688673,0.5776428,-0.44351095,0.68241763,0.64037216,0.2706968,1.2254204,-0.5332373,-1.5963578,-1.1431333,2.377,1.418488,-1.0060921,1.2901045,-0.5962604,-1.6438205,-1.106589,2.318665,1.3590552,-1.0330073,-1.395493,1.3841692,1.0314157,-0.7774367,0.99026656,0.461136,0.024161192,1.7217674,-0.34165955,1.5082036,-2.8489232,-0.094969615,1.1969945,0.24730492,-0.39514732,0.9688167,0.7449886,-0.08136493,0.074296534,0.65791464,-0.22747529,0.7899682,0.42242914,1.0,0.0,0.0,0.0,0.0,0.0,0.0,-2.3717675,-0.05834046,-0.9582036,-1.3314009,-0.8652687,0.55544376,1.2660384,-0.13608932,0.298208,3.4300904
6.462928,34.35525,10.528362,11.421363,0.32092893,-0.69520926,0.13853857,-0.78144413,0.7663916,0.5882457,-0.43916786,0.68010855,0.6453544,0.3155999,1.2119601,-0.51962125,-1.584996,-1.1505058,2.3866758,1.4235907,-1.0014473,1.2761084,-0.5824846,-1.6334369,-1.114329,2.3285336,1.3636767,-1.0325114,-1.4013021,1.3757935,1.0404282,-0.7730928,0.9863742,0.46294966,0.05805223,1.6932983,-0.3426094,1.5194281,-2.8460748,-0.094874665,1.0976118,0.24512482,-0.3872509,0.9729352,0.74366444,-0.08581706,0.07506219,0.65875953,-0.20604426,0.79076505,0.40108642,1.0,0.0,0.0,0.0,0.0,0.0,0.0,-2.3432984,-0.0573906,-0.9694281,-0.6491661,-0.70209503,0.8163452,0.2965331,-0.13686419,0.3502667,3.3574216
5.9757657,32.905437,10.054569,11.98162,0.38061708,-0.7286147,0.11626965,-0.7820004,0.7596652,0.58423066,-0.4159006,0.67286706,0.64658,0.3558455,1.1979084,-0.50651807,-1.5750139,-1.1559191,2.3958204,1.4283347,-0.9969268,1.2620817,-0.5687984,-1.6230037,-1.121966,2.338345,1.3683153,-1.0316817,-1.4034427,1.3666869,1.0441953,-0.7611893,0.9806147,0.46458992,0.0909815,1.6648598,-0.34355736,1.5296596,-2.8432293,-0.09477981,0.9983284,0.24315262,-0.37936974,0.9768484,0.7422118,-0.09014119,0.075935565,0.65971947,-0.18559647,0.7892312,0.38083088,1.0,0.0,0.0,0.0,0.0,0.0,0.0,-2.3148599,-0.05644265,-0.9796596,-0.2814293,-0.7749319,0.29189587,1.0485053,-0.32775402,0.32430887,3.2589226
5.045699,31.912868,10.039871,13.797725,0.572445,-0.67030644,0.08937647,-0.7743839,0.7509448,0.5889102,-0.37483773,0.674223,0.6433719,0.41186976,1.1846434,-0.49370393,-1.5641127,-1.1594498,2.4057674,1.4326525,-0.99049467,1.2480894,-0.55522096,-1.6125324,-1.1293093,2.3481145,1.3729635,-1.0305182,-1.398228,1.3552548,1.047844,-0.7260549,0.9766397,0.465559,0.12464797,1.6364479,-0.3445034,1.538899,-2.8403866,-0.09468505,0.89914423,0.24134064,-0.37151146,0.9806085,0.74065065,-0.09439292,0.0768673,0.6607708,-0.17077464,0.7854049,0.3671456,1.0,0.0,0.0,0.0,0.0,0.0,0.0,-2.286448,-0.055496603,-0.98889893,0.4531622,-1.0020494,0.26273727,3.3619046,-0.13223886,0.24583936,3.326109
5.8455453,31.727257,9.951698,12.991301,0.46728963,-0.75628805,0.09677522,-0.77413493,0.7520617,0.58378404,-0.3859811,0.6735957,0.6435174,0.42192298,1.170676,-0.4800148,-1.5541539,-1.1679074,2.4154742,1.4373152,-0.9883259,1.2341582,-0.54172933,-1.6020591,-1.1363817,2.3578534,1.3776194,-1.0290438,-1.3917235,1.3476199,1.0466775,-0.70135415,0.97384804,0.466304,0.1546878,1.6080666,-0.34544945,1.5471472,-2.8375468,-0.09459038,0.80005926,0.23971176,-0.3636837,0.9842123,0.7389827,-0.09856132,0.077867456,0.6619116,-0.15169589,0.7827903,0.35097978,1.0,0.0,0.0,0.0,0.0,0.0,0.0,-2.2580667,-0.05455056,-0.99714714,0.58870316,-0.62611103,-0.20644665,2.3321629,-0.030875206,0.22349954,2.9690952
7.00375,30.802912,9.510103,11.067256,0.2871924,-0.9062114,0.12977614,-0.7755422,0.748147,0.5830732,-0.4098026,0.66995466,0.64313823,0.42902493,1.1566039,-0.46691462,-1.5437518,-1.177362,2.4248488,1.4419332,-0.9861413,1.2202765,-0.52830446,-1.5916107,-1.1433932,2.3675618,1.3822829,-1.0273005,-1.3871614,1.3412575,1.0439279,-0.70164496,0.9704769,0.46692306,0.18080889,1.5797119,-0.3463955,1.5544053,-2.83471,-0.09449581,0.70107335,0.23832703,-0.3558731,0.9876003,0.73719364,-0.10257026,0.07897901,0.6631644,-0.1251075,0.7808777,0.32764056,1.0,0.0,0.0,0.0,0.0,0.0,0.0,-2.229712,-0.053604513,-1.0044053,0.40831566,-0.50742626,-0.34508705,-0.14919043,-0.11874437,0.21523833,2.5832982
6.2398205,29.71925,9.290618,12.108685,0.39687687,-0.8838874,0.11090813,-0.7687243,0.7422583,0.58309007,-0.37791148,0.66906273,0.64126146,0.4702361,1.143404,-0.4540786,-1.5333017,-1.1811843,2.434468,1.446409,-0.9802769,1.2064558,-0.51494825,-1.5811908,-1.1503302,2.3772397,1.3869501,-1.0252978,-1.3805358,1.3342437,1.0410981,-0.6915341,0.96767896,0.46714422,0.206664,1.5513859,-0.34733963,1.5606744,-2.8318758,-0.09440133,0.60218644,0.23719025,-0.34809113,0.99077857,0.73528874,-0.10642077,0.08019496,0.66452515,-0.10170218,0.7773563,0.307466,1.0,0.0,0.0,0.0,0.0,0.0,0.0,-2.201386,-0.052660376,-1.0106745,0.6083727,-0.5699873,-0.35555363,0.8858681,-0.054121017,0.1645863,2.555418
4.2646637,28.552757,9.152775,15.043725,0.66190463,-0.75179857,0.041066665,-0.7594903,0.73776114,0.5780694,-0.3222554,0.66365457,0.64220536,0.49565423,1.1305068,-0.44117212,-1.5233839,-1.1825557,2.4436052,1.4511707,-0.9757323,1.1927305,-0.5016655,-1.5708168,-1.156922,2.3868794,1.3916193,-1.0230471,-1.3701278,1.3268365,1.0359262,-0.64897126,0.96384925,0.46715054,0.23122846,1.5230885,-0.34828186,1.5659553,-2.8290446,-0.09430695,0.50339836,0.23620796,-0.34036064,0.9938262,0.73331565,-0.110207826,0.08146918,0.66593176,-0.08794374,0.7715199,0.29691228,1.0,0.0,0.0,0.0,0.0,0.0,0.0,-2.1730886,-0.051718146,-1.0159552,0.96120834,-0.60117245,-0.5970478,4.1113615,-0.12984276,0.12243986,2.4214892
3.0567088,26.547394,8.364613,15.749495,0.7512337,-0.7530793,0.0071666166,-0.7627794,0.7331746,0.57073987,-0.31450716,0.6595126,0.6481366,0.5062627,1.1164526,-0.428348,-1.5137428,-1.1883727,2.4528308,1.4564329,-0.9724208,1.1790758,-0.48845994,-1.5605209,-1.1630732,2.3964772,1.3962923,-1.0205694,-1.3641104,1.3189386,1.027392,-0.6042402,0.95916635,0.46756923,0.25322482,1.4948196,-0.3492241,1.5702491,-2.8262162,-0.094212666,0.4047091,0.23534775,-0.33271027,0.9967709,0.7313153,-0.11396246,0.08278662,0.6673356,-0.07690326,0.76310676,0.28681067,1.0,0.0,0.0,0.0,0.0,0.0,0.0,-2.1448197,-0.050775915,-1.0202491,0.50222874,-0.65295696,-0.9115696,4.3212533,-0.22047758,0.15090704,2.1657586
2.221208,23.520348,7.0020714,15.091793,0.7768594,-0.8494541,7.434189e-05,-0.7691991,0.72454816,0.5619176,-0.3192804,0.6610415,0.65003705,0.5149626,1.1021559,-0.41600513,-1.5043291,-1.1950012,2.4625814,1.4612961,-0.9690732,1.1654269,-0.47535455,-1.5503376,-1.1688887,2.4060407,1.4009691,-1.0178896,-1.36553,1.3081335,1.0152452,-0.57459015,0.95591974,0.4680912,0.2726488,1.4665794,-0.35016632,1.5735568,-2.8233907,-0.09411847,0.30611852,0.23460579,-0.32517052,0.9995753,0.72930914,-0.11763253,0.08415477,0.66872174,-0.064738594,0.7501751,0.2715207,1.0,0.0,0.0,0.0,0.0,0.0,0.0,-2.1165795,-0.049833685,-1.0235567,-0.25024414,-0.9521961,-1.2430668,2.8118014,-0.1013875,0.15518665,1.9117653
2.2255518,23.554605,7.3369803,16.10559,0.8363414,-0.8079493,-0.011713289,-0.7564607,0.7222795,0.55866367,-0.2752785,0.6586317,0.64572203,0.53088146,1.0897808,-0.4031266,-1.4944712,-1.1964165,2.4719038,1.4655414,-0.9648015,1.1518046,-0.46234787,-1.5402706,-1.1743189,2.4155698,1.4056479,-1.0150286,-1.3614733,1.2986469,1.0037186,-0.53284144,0.95301604,0.46806434,0.29047993,1.4383659,-0.35110664,1.5758791,-2.820568,-0.094024375,0.2076265,0.23397255,-0.31775665,1.0022606,0.72730666,-0.121241316,0.085559115,0.6700785,-0.05470186,0.73857147,0.2609495,1.0,0.0,0.0,0.0,0.0,0.0,0.0,-2.088366,-0.048893362,-1.0258791,0.2957344,-0.8169651,-1.1894464,4.02354,-0.054121017,0.0936389,1.7520189
3.2054753,22.412128,6.4942465,13.501756,0.61893404,-1.012512,0.023069138,-0.76415336,0.72040737,0.5424291,-0.310962,0.6554322,0.64214694,0.53384024,1.0753893,-0.39030713,-1.4860277,-1.2054151,2.481113,1.4698626,-0.9616446,1.1381861,-0.4494189,-1.5303657,-1.1795851,2.4250646,1.4103228,-1.0120074,-1.3622482,1.2913741,0.98624915,-0.52493834,0.9493744,0.467697,0.30584586,1.410181,-0.35204506,1.5772175,-2.8177483,-0.09393037,0.10923297,0.23351479,-0.31045723,1.0047618,0.7252992,-0.12469828,0.08704859,0.67142683,-0.03512919,0.7260349,0.24007167,1.0,0.0,0.0,0.0,0.0,0.0,0.0,-2.0601811,-0.047954947,-1.0272174,-0.16987324,-0.6076336,-1.7572641,0.6596923,-0.17002821,0.066536665,1.5124738
4.1336327,21.46931,5.8761506,11.571953,0.4693247,-1.1785921,0.047195442,-0.75905544,0.7168107,0.52489454,-0.3249203,0.6538852,0.64668155,0.52440876,1.0622805,-0.37773782,-1.4778763,-1.2120771,2.490453,1.474991,-0.9595665,1.1245791,-0.43655384,-1.520684,-1.1849371,2.4345288,1.4149977,-1.0088583,-1.3604643,1.2852321,0.9619152,-0.53906953,0.9457674,0.46780178,0.31775516,1.3820248,-0.35298347,1.5775726,-2.814931,-0.09383646,0.010937811,0.23330688,-0.30329132,1.0070007,0.72327554,-0.12789896,0.08866811,0.67279434,-0.008106543,0.71220267,0.21205,1.0,0.0,0.0,0.0,0.0,0.0,0.0,-2.0320249,-0.04701653,-1.0275726,0.11651516,-0.50206184,-2.4415731,-1.5262961,-0.19762516,0.117725134,1.1697531
4.4174986,19.233517,5.0827484,10.4708605,0.4659695,-1.2889619,0.07892232,-0.74926865,0.7021716,0.5159764,-0.33565807,0.65242577,0.64278054,0.5312945,1.0496522,-0.36633667,-1.4690864,-1.2185029,2.4997714,1.4792757,-0.9557289,1.1110369,-0.42379892,-1.5112484,-1.1905237,2.443955,1.4196726,-1.0056025,-1.3522769,1.2726166,0.9374542,-0.56556857,0.9423638,0.46758705,0.32807913,1.3538971,-0.3539219,1.5769454,-2.8121164,-0.09374264,-0.08725908,0.23339081,-0.29629135,1.0089248,0.7212171,-0.13077703,0.09041405,0.67421687,0.02211081,0.6949661,0.17961425,1.0,0.0,0.0,0.0,0.0,0.0,0.0,-2.0038972,-0.046078116,-1.0269454,0.7986307,-1.1536837,-2.4770975,-2.7547956,-0.1950264,0.08664131,1.0091186
3.9960308,17.12285,4.009746,9.511745,0.43639445,-1.3907979,0.08087026,-0.75356334,0.69625705,0.49699795,-0.36577582,0.6424641,0.6487046,0.53928375,1.0356805,-0.3541732,-1.4615486,-1.2271013,2.5082014,1.4845431,-0.9516741,1.0975538,-0.41118133,-1.5020854,-1.1964937,2.4533238,1.4243494,-1.0022494,-1.3470385,1.2584805,0.9090103,-0.6078233,0.9356019,0.46789682,0.3374207,1.325798,-0.3548584,1.575337,-2.8093047,-0.09364892,-0.18535778,0.23380089,-0.28948402,1.0104852,0.71912545,-0.1332651,0.092301615,0.6757065,0.05498072,0.6742798,0.14199604,1.0,0.0,0.0,0.0,0.0,0.0,0.0,-1.975798,-0.045141608,-1.025337,0.5170107,-1.3117075,-2.8685808,-4.3241024,-0.5538106,0.13126135,0.9129882
3.6042516,14.151095,2.3564482,7.5627813,0.37552547,-1.5730289,0.08691911,-0.7554381,0.6849372,0.47107488,-0.4227697,0.63485014,0.6501439,0.5217379,1.0220101,-0.3426876,-1.454978,-1.2387707,2.5168087,1.4893638,-0.95007557,1.0840975,-0.39872968,-1.4932659,-1.2030913,2.4626088,1.4290301,-0.9988288,-1.344872,1.2410195,0.87297946,-0.6773598,0.9264513,0.46827334,0.34351233,1.2977257,-0.355793,1.5727484,-2.806496,-0.09355529,-0.2833584,0.234581,-0.28293037,1.0115964,0.71702033,-0.13524899,0.09436772,0.6772623,0.09320553,0.6475049,0.094891325,1.0,0.0,0.0,0.0,0.0,0.0,0.0,-1.9477257,-0.044207007,-1.0227485,0.24631023,-1.6546249,-3.626871,-7.0396543,-0.8339882,0.1289308,0.58941245
4.7178373,12.549739,1.3487785,3.8876781,0.15119782,-1.8227797,0.16022284,-0.7531397,0.67032796,0.4586033,-0.51795524,0.62773734,0.64802116,0.5096479,1.0087836,-0.33169687,-1.4474056,-1.2548867,2.5253825,1.4938322,-0.94786406,1.070664,-0.38648593,-1.4847934,-1.2107283,2.4717908,1.4337126,-0.99536604,-1.342461,1.2191076,0.83838075,-0.79258376,0.9155223,0.46838027,0.34704533,1.2696819,-0.3567276,1.5691805,-2.80369,-0.093461744,-0.38126105,0.23583412,-0.27666283,1.0121294,0.71486896,-0.13655676,0.09665218,0.6789499,0.1428257,0.6173208,0.03354782,1.0,0.0,0.0,0.0,0.0,0.0,0.0,-1.9196819,-0.043272406,-1.0191805,0.3579855,-2.1122217,-3.5155058,-11.570204,-1.0656953,0.09717941,0.33630133
3.3239777,9.143531,-0.23180938,3.7809572,0.23624969,-1.881005,0.13433918,-0.74812245,0.6519265,0.4276149,-0.56073254,0.5958727,0.6493864,0.51047397,0.9958518,-0.3212933,-1.442032,-1.2668016,2.531378,1.4986513,-0.94431865,1.0572726,-0.37450445,-1.4767234,-1.2195517,2.4807858,1.4383951,-0.9918756,-1.3374387,1.1914524,0.79613596,-0.9125551,0.89400125,0.4682924,0.3496234,1.2416668,-0.3576622,1.5646343,-2.8008869,-0.09336831,-0.4790658,0.23757553,-0.2707367,1.0120242,0.71268964,-0.1371132,0.09918139,0.68076175,0.19115132,0.5809878,-0.031019056,1.0,0.0,0.0,0.0,0.0,0.0,0.0,-1.8916668,-0.042337805,-1.0146344,0.6594658,-2.6914358,-4.3092847,-12.042832,-2.1447062,0.047558546,0.23397803
0.8172902,3.6804295,-2.3632622,4.699239,0.51354814,-1.861242,0.10037988,-0.7450699,0.6183795,0.4055607,-0.6139785,0.56930906,0.6506637,0.5102923,0.98276556,-0.3126665,-1.4361674,-1.2809496,2.5377169,1.5034615,-0.9408464,1.0439421,-0.36290205,-1.4690902,-1.2295538,2.4895062,1.4430758,-0.98836416,-1.3310009,1.1500337,0.75194514,-1.0295428,0.8646331,0.46795395,0.35144314,1.2136784,-0.3585968,1.5591108,-2.7980866,-0.09327496,-0.5767728,0.23974991,-0.26524162,1.0112673,0.71051747,-0.13690339,0.10192561,0.6826665,0.23214571,0.53551763,-0.0961954,1.0,0.0,0.0,0.0,0.0,0.0,0.0,-1.8636783,-0.041403204,-1.0091107,0.83117485,-4.074979,-4.5348406,-11.756945,-2.9404163,-0.01514554,0.14550686
-0.2352978,1.938057,-2.0550418,6.7912827,0.7588837,-1.6520791,0.11524064,-0.7433171,0.5857626,0.42529273,-0.65923834,0.554422,0.64596105,0.4988482,0.9696104,-0.3043258,-1.426561,-1.2954776,2.5449483,1.5076718,-0.93847936,1.0306708,-0.35179794,-1.4617031,-1.240626,2.497929,1.4477469,-0.984847,-1.3250718,1.0974331,0.733931,-1.1333874,0.83490574,0.46689442,0.3516945,1.1857185,-0.3595276,1.5526109,-2.7952893,-0.0931817,-0.67438215,0.24226189,-0.26019287,1.0099106,0.7083372,-0.13599704,0.10478301,0.6846778,0.26321387,0.49135625,-0.15434961,1.0,0.0,0.0,0.0,0.0,0.0,0.0,-1.8357185,-0.040472418,-1.0026109,0.7659912,-5.1906347,-1.940906,-10.45239,-2.9403806,-0.114911795,-0.013369322
0.28459227,2.7723408,-0.06929636,9.183279,0.86512184,-1.3611151,0.17640087,-0.7261693,0.54704493,0.46058956,-0.6914535,0.50903124,0.6380361,0.5069674,0.9580538,-0.29709345,-1.415644,-1.3097713,2.5488322,1.5115504,-0.9341503,1.0175234,-0.34130132,-1.4542186,-1.2525793,2.505982,1.4524027,-0.9813232,-1.3106966,1.0340155,0.75274897,-1.2161808,0.7954031,0.46502307,0.35247567,1.1577873,-0.36045837,1.5451356,-2.7924948,-0.09308854,-0.77189386,0.24503326,-0.25550842,1.00805,0.70606273,-0.13454165,0.107653156,0.6868659,0.28627384,0.4569092,-0.20195164,1.0,0.0,0.0,0.0,0.0,0.0,0.0,-1.8077873,-0.039541632,-0.9951356,1.5963793,-6.260991,1.6913295,-8.354712,-3.848803,-0.20296574,0.042396784
-2.1753423,-1.9498998,-1.2316499,12.165326,1.2829192,-1.1632566,0.14067622,-0.7122927,0.4946279,0.45268133,-0.7097162,0.48606068,0.62539136,0.5054765,0.9462941,-0.29183853,-1.4089504,-1.3235509,2.554588,1.5149418,-0.9307755,1.0045687,-0.3315543,-1.4465187,-1.2651678,2.5136304,1.4570299,-0.9777946,-1.2899463,0.95524603,0.7750663,-1.273278,0.7553139,0.4618162,0.35294828,1.1298828,-0.36138916,1.5366861,-2.7897027,-0.09299547,-0.8693081,0.24794006,-0.25120163,1.0057758,0.7036821,-0.13265556,0.11042247,0.6892321,0.295706,0.41750666,-0.2409564,1.0,0.0,0.0,0.0,0.0,0.0,0.0,-1.7798828,-0.038610846,-0.98668605,2.2104979,-7.7995777,2.0253181,-5.8195114,-3.8801193,-0.35876632,0.0058293343
-6.5581727,-12.0909,-5.062045,14.530111,1.8675034,-1.0675817,0.08243978,-0.68734574,0.412294,0.43546885,-0.73060346,0.43562463,0.61264026,0.5158527,0.9358341,-0.2903249,-1.4029717,-1.3382282,2.5571928,1.518294,-0.92620933,0.9919074,-0.32282197,-1.4387043,-1.278195,2.520802,1.4616171,-0.97425455,-1.2576205,0.8460876,0.7827494,-1.3129865,0.70530343,0.45723,0.35414922,1.1020069,-0.36231995,1.527263,-2.7869134,-0.0929025,-0.966625,0.2508278,-0.24741364,1.003134,0.7012414,-0.13039058,0.11296717,0.6917349,0.28957698,0.36178488,-0.27664775,1.0,0.0,0.0,0.0,0.0,0.0,0.0,-1.7520069,-0.03768006,-0.97726303,3.3999681,-10.858,0.515759,-4.1207314,-4.8822284,-0.5299032,0.05863309
-21.772432,-47.45511,-20.730858,18.170477,3.7773201,-1.1721971,-0.14998035,-0.6402024,0.21679161,0.32268748,-0.73488814,0.3893694,0.59261096,0.5245623,0.9278872,-0.3011428,-1.4064355,-1.3516839,2.5597389,1.5208782,-0.92179835,0.9797481,-0.31590545,-1.4314048,-1.2914759,2.5274167,1.4661394,-0.9707002,-1.200935,0.64014107,0.7112291,-1.3341079,0.64686495,0.4499605,0.3554152,1.0741596,-0.36324692,1.5168675,-2.784127,-0.09280961,-1.0638444,0.25334358,-0.24472046,1.0000889,0.69896615,-0.12764673,0.114950575,0.6942182,0.24143836,0.23466814,-0.31803712,1.0,0.0,0.0,0.0,0.0,0.0,0.0,-1.7241596,-0.03675309,-0.9668675,5.9993505,-20.62062,-7.5206876,-2.3587942,-5.8487773,-0.90765953,-0.0082194805
-50.108032,-118.8282,-50.832333,22.969524,7.424198,-1.3040955,-0.4143353,-0.53968173,-0.20996532,0.17863147,-0.75004244,0.24304487,0.54899454,0.5207172,0.9257799,-0.336902,-1.4135417,-1.3664801,2.551721,1.5210389,-0.91862845,0.9685691,-0.31279027,-1.4255416,-1.3049284,2.5330968,1.4705473,-0.967143,-1.0877433,0.20130965,0.54232264,-1.350041,0.5411989,0.43629813,0.35501423,1.046339,-0.3641739,1.5055007,-2.7813435,-0.09271681,-1.1609669,0.25477982,-0.24432755,0.9964854,0.6971805,-0.12417584,0.11561785,0.69652873,0.11239774,-0.028228432,-0.3775346,1.0,0.0,0.0,0.0,0.0,0.0,0.0,-1.696339,-0.035826117,-0.95550066,12.044764,-44.07729,-17.592693,-1.9096851,-10.774231,-1.8080354,-0.29041767
-68.58977,-163.43813,-73.28156,23.195692,8.6105385,-1.8012822,-0.8149053,-0.33070326,-0.51887876,-0.20119104,-0.7413787,-0.36684927,0.5197971,0.5464306,0.9354988,-0.36467814,-1.4456607,-1.3790663,2.4964118,1.522527,-0.91249996,0.9593757,-0.31504142,-1.4230125,-1.318421,2.5359998,1.4747854,-0.9635772,-0.86046505,-0.36834285,0.15413275,-1.3492957,0.20486458,0.41702846,0.35599974,1.018547,-0.36510086,1.4931632,-2.7785628,-0.09262412,-1.2579921,0.2547493,-0.24716759,0.99205273,0.69632584,-0.11979482,0.115143806,0.69822735,-0.042475812,-0.37051,-0.46653166,1.0,0.0,0.0,0.0,0.0,0.0,0.0,-1.668547,-0.034899145,-0.9431632,23.557472,-57.290756,-39.51109,-0.0037431717,-34.066372,-2.7312338,-0.25859475
-43.861797,-126.74916,-54.149998,14.867636,6.2571535,-1.9853278,-0.1805102,0.12988539,-0.66897047,-0.37590146,-0.73714083,-0.53086096,0.54126114,0.5242717,0.97236425,-0.38193846,-1.4606026,-1.3921351,2.4829137,1.5289116,-0.91115004,0.9543126,-0.32269132,-1.424773,-1.3318259,2.535252,1.4788615,-0.96000856,-0.38830483,-0.8980605,-0.28591695,-1.3367312,-0.16866224,0.40208802,0.35651535,0.9907818,-0.36602783,1.4798564,-2.775785,-0.09253152,-1.3549204,0.25369644,-0.25284958,0.9866911,0.6959532,-0.114627495,0.11383245,0.6996798,-0.1288235,-0.6320404,-0.5598931,1.0,0.0,0.0,0.0,0.0,0.0,0.0,-1.6407818,-0.033972174,-0.92985636,47.178818,-53.228855,-43.989807,1.4944792,-37.559666,-2.244234,-0.14032125
-10.07114,-63.312016,-23.379963,6.0583963,2.8058417,-1.9677749,0.49611115,0.4425834,-0.7420605,-0.47278637,-0.740245,-0.6123726,0.5938198,0.4907093,0.998571,-0.39689738,-1.4720516,-1.4058504,2.4740148,1.5382434,-0.9109376,0.9548486,-0.33456695,-1.4304569,-1.3451105,2.5311208,1.4828573,-0.95644945,0.19633192,-1.2846355,-0.65868753,-1.3249019,-0.49442843,0.3971434,0.3557556,0.9630451,-0.366951,1.4655808,-2.7730095,-0.092439,-1.4517518,0.2524624,-0.2601967,0.98045176,0.69526064,-0.108947605,0.11200047,0.70156884,-0.123825364,-0.7653859,-0.6468845,1.0,0.0,0.0,0.0,0.0,0.0,0.0,-1.6130451,-0.033049017,-0.9155808,57.08203,-38.815807,-36.147575,1.4016151,-32.521214,-1.011008,-0.05210638
8.048301,-15.487446,-3.1500876,3.5156975,0.64116144,-1.7593622,0.59588283,0.49329007,-0.7759793,-0.54596716,-0.74493796,-0.616551,0.6336405,0.3915391,1.0041776,-0.41216487,-1.4850535,-1.4196043,2.4694657,1.5462214,-0.9172955,0.9603713,-0.34904802,-1.4390743,-1.3583266,2.524487,1.4868609,-0.95296854,0.6653923,-1.5030003,-0.9249025,-1.3203685,-0.7193178,0.40002692,0.34592462,0.93533516,-0.36787415,1.4503378,-2.770237,-0.09234658,-1.5484865,0.25161934,-0.26823616,0.9734627,0.693937,-0.10294598,0.10999309,0.7040987,-0.070733,-0.8124501,-0.7202357,1.0,0.0,0.0,0.0,0.0,0.0,0.0,-1.5853351,-0.03212586,-0.90033776,45.257027,-21.951008,-25.276339,0.5432844,-22.399055,-0.07161498,-0.86512566
13.832096,13.412188,7.7302427,6.3407226,-0.2172997,-1.3569409,0.37224147,0.5072216,-0.79604,-0.60207033,-0.72463244,-0.58500606,0.6489465,0.21421787,1.0110935,-0.42865202,-1.4992813,-1.4307898,2.4659865,1.5517555,-0.93154675,0.969209,-0.36469638,-1.4496124,-1.3714377,2.5164075,1.4909197,-0.94971937,0.9531785,-1.5857983,-1.0939204,-1.308084,-0.83772403,0.4069713,0.31832612,0.9076538,-0.3687973,1.434128,-2.7674673,-0.09225425,-1.6451243,0.25134277,-0.2763958,0.96592057,0.69211835,-0.09675851,0.10802996,0.707064,-0.010049783,-0.81225884,-0.77164364,1.0,0.0,0.0,0.0,0.0,0.0,0.0,-1.5576538,-0.031202704,-0.88412803,27.730442,-8.375025,-16.062473,1.2453794,-11.837721,0.47490597,-2.6511133
18.013695,33.65759,16.187227,8.201969,-0.76650786,-0.990079,0.29076508,0.56393975,-0.80323535,-0.6071623,-0.73536813,-0.54615325,0.6317116,0.12930177,1.0256029,-0.44501993,-1.5103287,-1.4449744,2.4617922,1.5540909,-0.9367892,0.97991306,-0.38052118,-1.4611213,-1.3844973,2.5077786,1.4950377,-0.9468021,1.1080014,-1.5815928,-1.1689289,-1.3054777,-0.8710971,0.41319293,0.28315228,0.88000107,-0.36972046,1.4169526,-2.7647004,-0.09216202,-1.7416655,0.2516632,-0.28429222,0.9580035,0.68992126,-0.09046714,0.10618849,0.71031564,0.052051824,-0.77683854,-0.80572575,1.0,0.0,0.0,0.0,0.0,0.0,0.0,-1.530001,-0.030279547,-0.8669526,15.047932,0.35586357,-7.209778,0.2212286,-3.3920288,0.51330924,-3.4214497
18.956703,42.44626,20.561964,10.595165,-0.78656167,-0.6362041,0.2623511,0.62196004,-0.8132594,-0.6028918,-0.7319251,-0.4991763,0.63024527,0.08117558,1.042109,-0.46184713,-1.5214105,-1.4576898,2.457861,1.5580622,-0.9386845,0.9915851,-0.39604366,-1.4728725,-1.3975435,2.4992642,1.4992167,-0.94424814,1.1867608,-1.5426596,-1.1772286,-1.3045068,-0.84559,0.4191946,0.246359,0.85237503,-0.3706398,1.3988125,-2.7619364,-0.09206988,-1.8381102,0.25252914,-0.29171562,0.94986093,0.6873828,-0.084146805,0.10438758,0.7138119,0.1054487,-0.7254077,-0.824775,1.0,0.0,0.0,0.0,0.0,0.0,0.0,-1.502375,-0.029360205,-0.8488125,7.812047,3.842187,-0.8576155,0.04620552,2.4568558,0.56152344,-3.5843878
17.977985,43.680027,21.465704,12.205011,-0.5076275,-0.4497273,0.25016454,0.67092437,-0.8143607,-0.60954005,-0.7323072,-0.42188555,0.620148,0.052178912,1.0586776,-0.47747973,-1.5338265,-1.4707743,2.4570756,1.5612315,-0.93903023,1.0037916,-0.41113555,-1.4844882,-1.4105936,2.4913487,1.5034415,-0.9420499,1.2322872,-1.4982259,-1.1568794,-1.3054152,-0.7739617,0.4235939,0.21137133,0.8247757,-0.37155914,1.3797088,-2.759175,-0.09197783,-1.9344585,0.25386047,-0.2986374,0.9415856,0.6845193,-0.07781801,0.10245924,0.7175512,0.14879481,-0.6746974,-0.8359115,1.0,0.0,0.0,0.0,0.0,0.0,0.0,-1.4747757,-0.028440863,-0.82970876,4.6376467,4.3935776,1.8897533,-0.12555122,7.0519686,0.425148,-3.3943028
12.96204,38.161705,18.447432,14.172229,0.08245653,-0.3196317,0.17331536,0.6600608,-0.81089634,-0.61270267,-0.73818934,-0.33480033,0.60230744,0.09719692,1.0697976,-0.4922252,-1.5457585,-1.4844126,2.4578688,1.5636722,-0.93233025,1.0161569,-0.4258474,-1.495856,-1.4236819,2.484387,1.507691,-0.9401302,1.2384634,-1.4623361,-1.1308426,-1.3098959,-0.6710044,0.4253655,0.18585046,0.797205,-0.3724785,1.3596423,-2.7564163,-0.091885865,-2.0307105,0.25549507,-0.30516815,0.9332087,0.6814043,-0.07142952,0.100227214,0.72148496,0.17525229,-0.64000136,-0.8452434,1.0,0.0,0.0,0.0,0.0,0.0,0.0,-1.447205,-0.02752152,-0.80964226,0.8347511,3.52633,2.3772955,-0.42586327,10.15625,0.16390085,-2.456513
9.304838,33.337906,15.846452,15.050736,0.3144102,-0.24920842,0.12948258,0.6601656,-0.80808544,-0.61114645,-0.7426956,-0.3453997,0.5978115,0.16968492,1.0821735,-0.50665593,-1.5569707,-1.4979514,2.449847,1.5674722,-0.9231617,1.028444,-0.44030035,-1.5069911,-1.4368311,2.4782948,1.5119482,-0.93837446,1.2263515,-1.439849,-1.1087188,-1.3166279,-0.58918214,0.42588514,0.17233995,0.76966095,-0.37339783,1.338614,-2.7536604,-0.09179399,-2.1268659,0.25733185,-0.31142807,0.9247181,0.67809916,-0.06494438,0.097691625,0.72554815,0.19293492,-0.61477315,-0.85697716,1.0,0.0,0.0,0.0,0.0,0.0,0.0,-1.4196609,-0.026602179,-0.788614,-0.95875263,2.1771193,1.9716978,-0.60806274,8.032358,0.02271533,-1.2752235
8.198974,32.826763,15.919405,16.001545,0.06928784,-0.09161683,0.1121891,0.6585338,-0.80117553,-0.5848318,-0.7293736,-0.46336073,0.6105999,0.21982756,1.0942974,-0.5204179,-1.5654743,-1.5097685,2.4319587,1.5730082,-0.91639173,1.0405614,-0.45459545,-1.5178478,-1.4499747,2.472466,1.5162188,-0.9366903,1.2076346,-1.4263457,-1.0787708,-1.3135682,-0.5812618,0.42732537,0.1673597,0.74214554,-0.37431526,1.3166249,-2.7509074,-0.09170222,-2.2229252,0.25933456,-0.3173828,0.9161219,0.67461365,-0.058448646,0.09509189,0.7296832,0.20908259,-0.58265245,-0.8667178,1.0,0.0,0.0,0.0,0.0,0.0,0.0,-1.3921455,-0.025684744,-0.76662487,-1.6219139,1.2786865,2.759838,0.38387775,0.6425142,0.11366606,-0.4588306
5.533826,28.713963,13.414808,16.569334,0.13312012,-0.09524896,0.035574816,0.66096205,-0.8060761,-0.6112518,-0.7182386,-0.51775354,0.6200337,0.21359116,1.1066576,-0.53520304,-1.5789729,-1.5217985,2.4206905,1.5782222,-0.9153311,1.0525224,-0.46884716,-1.528588,-1.4630209,2.46637,1.5205103,-0.9350433,1.1928024,-1.4250752,-1.0730041,-1.3011208,-0.6195918,0.4293485,0.16378714,0.71465683,-0.3752308,1.2936759,-2.7481573,-0.09161054,-2.3188884,0.26148224,-0.32307625,0.907402,0.6710058,-0.05198648,0.09263102,0.7338039,0.22178695,-0.5579417,-0.87949777,1.0,0.0,0.0,0.0,0.0,0.0,0.0,-1.3646568,-0.024769217,-0.7436759,-1.2705326,0.044631958,0.38938522,1.3517857,-3.9963722,0.14671683,-0.34290552
3.4086094,25.327473,11.077044,16.535013,0.32642758,-0.15895891,-0.016259573,0.6580666,-0.8087616,-0.6365856,-0.7156623,-0.50992477,0.6145454,0.21368544,1.118329,-0.5497233,-1.5922467,-1.5345871,2.4153776,1.5819649,-0.9136747,1.0643632,-0.48314083,-1.53946,-1.4759299,2.4598584,1.5248133,-0.9334249,1.1818337,-1.4311075,-1.0924621,-1.2870052,-0.66228974,0.4303935,0.16117555,0.6871948,-0.37614632,1.269768,-2.7454095,-0.09151895,-2.4147558,0.2637291,-0.32860565,0.8985177,0.6673477,-0.045516297,0.090353206,0.7378425,0.2314946,-0.54389983,-0.8969414,1.0,0.0,0.0,0.0,0.0,0.0,0.0,-1.3371948,-0.02385369,-0.719768,-0.9110689,-0.69565773,-2.0976305,1.5444756,-4.4469714,0.024747849,-0.25099218
1.429419,23.32422,9.403753,16.447771,0.4526323,-0.16897497,-0.06510455,0.6386207,-0.8100584,-0.6538971,-0.71534944,-0.5344736,0.6189066,0.20917974,1.1282253,-0.56414664,-1.6048497,-1.5474648,2.4064112,1.586704,-0.91250694,1.0760458,-0.4975127,-1.5506389,-1.4887205,2.4529042,1.5291277,-0.9318332,1.164283,-1.4395348,-1.126805,-1.2758634,-0.7074733,0.43141174,0.1585616,0.6597614,-0.37706184,1.2449021,-2.7426646,-0.09142745,-2.5105274,0.26605225,-0.3340454,0.8894258,0.6637019,-0.038982373,0.088269114,0.7417471,0.2379034,-0.5367735,-0.918677,1.0,0.0,0.0,0.0,0.0,0.0,0.0,-1.3097614,-0.022938162,-0.6949021,-1.559639,-0.941658,-3.5856724,1.2707233,-4.710746,0.0050127506,-0.25837123
0.6948867,24.531013,9.906172,16.278048,0.47221446,-0.060694993,-0.051137723,0.6020085,-0.80704486,-0.63900125,-0.72556686,-0.53068906,0.61580884,0.23249696,1.1362466,-0.5782172,-1.614539,-1.5612773,2.3998353,1.5907086,-0.9085835,1.0874135,-0.5119437,-1.5620601,-1.5014826,2.4455953,1.5334479,-0.9302463,1.1285373,-1.444583,-1.1476786,-1.2758228,-0.7395734,0.43198755,0.15870588,0.63235474,-0.37797546,1.2190793,-2.7399225,-0.09133604,-2.606203,0.26841354,-0.33940887,0.8801132,0.6600757,-0.032348398,0.086352676,0.7455178,0.2407464,-0.5280828,-0.9408353,1.0,0.0,0.0,0.0,0.0,0.0,0.0,-1.2823547,-0.022024542,-0.66907924,-3.3310413,-0.6009102,-2.2838354,0.16975403,-3.4106493,-0.036799908,0.01950562
-1.1336432,25.369694,10.209243,17.10619,0.5123108,0.13067715,-0.08406004,0.55709547,-0.8070911,-0.6332395,-0.7219032,-0.5698273,0.6242104,0.21595763,1.1431231,-0.5926528,-1.6253841,-1.5736729,2.3886125,1.595869,-0.9086505,1.0982587,-0.52640426,-1.5735843,-1.514258,2.4379392,1.5377795,-0.92866796,1.0707682,-1.4469274,-1.1545618,-1.2775255,-0.77508533,0.43338385,0.1574693,0.60497665,-0.37888718,1.1923003,-2.7371833,-0.09124472,-2.7017832,0.27075768,-0.34466934,0.8705993,0.6564909,-0.025635535,0.08460744,0.74913555,0.23681362,-0.51755583,-0.9601562,1.0,0.0,0.0,0.0,0.0,0.0,0.0,-1.2549766,-0.02111283,-0.6423003,-5.482936,-0.33080578,-0.9209156,0.0059604645,-3.76724,0.05888939,-0.12902617
-5.0181923,23.276457,8.304815,18.041214,0.7755708,0.24338128,-0.16504759,0.5041857,-0.8097343,-0.65858495,-0.7233155,-0.5828355,0.6215333,0.21430174,1.1486773,-0.6073777,-1.6394428,-1.5865896,2.3796556,1.5999328,-0.90723777,1.108362,-0.54088676,-1.5852306,-1.527064,2.4299588,1.5421244,-0.92710394,0.9913887,-1.4489458,-1.1690032,-1.2808213,-0.80610067,0.4344485,0.15601936,0.5776253,-0.3797989,1.1645663,-2.7344465,-0.09115349,-2.7972677,0.27298737,-0.34988785,0.86088115,0.65303123,-0.0188269,0.083024055,0.75253093,0.22326809,-0.5154189,-0.98078376,1.0,0.0,0.0,0.0,0.0,0.0,0.0,-1.2276253,-0.020201117,-0.61456627,-7.599902,-0.30715466,-1.6966581,-0.12421608,-3.3418417,0.026988983,-0.16265213
-14.226715,17.660751,3.615971,20.325214,1.3897564,0.48520255,-0.36223388,0.38073426,-0.8118141,-0.6754042,-0.7370939,-0.58124536,0.61373585,0.16556187,1.1464354,-0.62206817,-1.652771,-1.6007733,2.3718343,1.603498,-0.91054773,1.1172369,-0.55539215,-1.5970771,-1.5399595,2.4217458,1.5464712,-0.9255914,0.8544039,-1.4514471,-1.1910571,-1.2916095,-0.82728624,0.43461344,0.14954141,0.5503006,-0.3807106,1.1358781,-2.7317126,-0.09106236,-2.8926566,0.27492332,-0.35523033,0.85092884,0.64990425,-0.011847865,0.081564255,0.7555338,0.1876465,-0.5321471,-1.0050277,1.0,0.0,0.0,0.0,0.0,0.0,0.0,-1.2003006,-0.019289404,-0.5858781,-13.234579,-0.37705898,-2.5288343,-0.8082628,-2.4123788,-0.059479475,-0.69485307
-39.448925,3.4280949,-8.275512,28.36409,2.9889278,1.2355767,-0.9036147,0.07472868,-0.80986387,-0.6883709,-0.7447814,-0.59670174,0.602208,0.09881161,1.1247097,-0.6363785,-1.6659142,-1.6144377,2.3620756,1.6066921,-0.9157103,1.1235216,-0.5699109,-1.6091831,-1.5529829,2.4133382,1.5508124,-0.92419714,0.55572075,-1.4526442,-1.2188717,-1.3044497,-0.8471598,0.43364233,0.13569857,0.52300453,-0.3816204,1.1062367,-2.7289815,-0.09097132,-2.98795,0.27605057,-0.36108398,0.84072316,0.64765984,-0.0046128933,0.08021159,0.7576816,0.09084489,-0.5946633,-1.0306369,1.0,0.0,0.0,0.0,0.0,0.0,0.0,-1.1730045,-0.018379599,-0.5562367,-29.046238,-0.31449795,-3.2984018,-0.84502697,-2.4404764,-0.15365481,-1.525119
-70.83941,-12.62797,-22.066336,37.607212,4.94898,2.2369785,-1.4885124,-0.32372943,-0.80785245,-0.68312865,-0.7782907,-0.56659466,0.5684225,0.0925109,1.0911486,-0.65069616,-1.677496,-1.630812,2.3566787,1.6076546,-0.914946,1.1252954,-0.5844325,-1.6215026,-1.5662543,2.404858,1.5551153,-0.92294306,0.05566139,-1.4529347,-1.2391502,-1.3325565,-0.85078794,0.4286065,0.12125955,0.49573517,-0.3825283,1.0756431,-2.7262533,-0.09088037,-3.0831485,0.27563286,-0.36795807,0.8302408,0.6469972,0.0030079812,0.07888831,0.7583945,-0.08360856,-0.7099949,-1.0588523,1.0,0.0,0.0,0.0,0.0,0.0,0.0,-1.1457351,-0.0174717,-0.52564305,-48.71781,-0.33829212,-2.8208017,-2.1176815,-1.048708,-0.6276548,-1.6658173
-74.57099,-9.383926,-20.458265,38.550163,5.1698303,2.655094,-1.4042159,-0.49957302,-0.80099255,-0.6539607,-0.79574853,-0.49831778,0.51991045,0.27427855,1.0753381,-0.6645317,-1.6868987,-1.6458291,2.3550262,1.6071064,-0.8955152,1.121927,-0.5989245,-1.6338241,-1.5798517,2.3965802,1.559323,-0.9216804,-0.46300235,-1.4491347,-1.2326443,-1.3661286,-0.8225371,0.41742998,0.12746991,0.4684925,-0.3834362,1.0440981,-2.7235274,-0.09078951,-3.1782517,0.2733612,-0.3759575,0.81952274,0.64802384,0.0110511305,0.07741492,0.7575948,-0.27484414,-0.8209447,-1.0805513,1.0,0.0,0.0,0.0,0.0,0.0,0.0,-1.1184925,-0.016563803,-0.49409813,-50.51545,0.005340576,-0.19640923,-2.5668383,2.049768,-1.3812304,0.46015084
-54.071495,8.331977,-6.1647406,32.711964,3.7564225,2.5884438,-0.8512104,-0.53897846,-0.80254483,-0.5910862,-0.79475373,-0.4879151,0.5282264,0.3875374,1.0680292,-0.679179,-1.6929327,-1.6593271,2.3477888,1.6121455,-0.88292664,1.1143548,-0.6133822,-1.6457202,-1.5937201,2.3886418,1.5634314,-0.920248,-0.85167587,-1.4457558,-1.1776717,-1.3917283,-0.78677857,0.40765685,0.14844756,0.44127846,-0.3843441,1.0116031,-2.7208045,-0.09069874,-3.2732599,0.26948547,-0.3846588,0.8087019,0.65021086,0.019329416,0.075632475,0.75573266,-0.42759603,-0.8772497,-1.0868772,1.0,0.0,0.0,0.0,0.0,0.0,0.0,-1.0912784,-0.015655905,-0.4616031,-37.843956,0.009059906,4.8184395,-1.9023418,2.9316664,-1.2396753,2.0650625
-41.09532,15.433892,-0.8891566,27.299246,2.9984586,2.1468267,-0.6012978,-0.63769597,-0.80296963,-0.6591803,-0.7999109,-0.45258206,0.5152338,0.3808195,1.0505853,-0.6936792,-1.7116382,-1.6737112,2.3433836,1.6149547,-0.882166,1.1037729,-0.6278142,-1.657378,-1.6077887,2.3811269,1.5674387,-0.91860765,-1.124733,-1.4432496,-1.1634963,-1.4098961,-0.7415095,0.39762506,0.16941102,0.4140911,-0.385252,0.9781586,-2.7180843,-0.09060806,-3.3681731,0.26433563,-0.3937912,0.7977717,0.6531628,0.027815819,0.07346131,0.7531322,-0.54843307,-0.9143609,-1.0987316,1.0,0.0,0.0,0.0,0.0,0.0,0.0,-1.0640911,-0.014748007,-0.42815858,-26.549435,-0.034976006,0.90765953,-1.2352467,3.9870977,-1.2963951,2.1293342
-28.26392,21.711681,4.088832,22.409594,2.3124373,1.6995978,-0.39742804,-0.6963109,-0.8053356,-0.6949757,-0.7952298,-0.39720756,0.48559666,0.3114037,1.0341418,-0.70834774,-1.7268755,-1.6873116,2.341406,1.6159984,-0.88746727,1.0912759,-0.6422385,-1.6691654,-1.6219507,2.3741689,1.5713354,-0.9168243,-1.2897521,-1.4428563,-1.1848966,-1.4166642,-0.6824208,0.38613933,0.18157125,0.38693047,-0.38615608,0.94376564,-2.7153666,-0.09051747,-3.4629915,0.25821877,-0.40317917,0.78668606,0.6566214,0.036540642,0.070818596,0.7499985,-0.63819104,-0.9350065,-1.1151159,1.0,0.0,0.0,0.0,0.0,0.0,0.0,-1.0369304,-0.013843924,-0.39376563,-15.992236,-0.18920898,-2.4819374,-0.19586086,5.487752,-1.4308453,1.2919188
-18.08308,26.831232,8.454906,18.75053,1.7239702,1.4207698,-0.27872366,-0.7379588,-0.8110853,-0.7072243,-0.7900512,-0.35896796,0.47650805,0.11588571,1.01748,-0.723347,-1.7398878,-1.7009559,2.338272,1.6189862,-0.9052357,1.0777147,-0.6566895,-1.6812809,-1.6361071,2.3678288,1.5751253,-0.9150867,-1.3772591,-1.4464451,-1.2210798,-1.4141092,-0.618818,0.37559313,0.17155899,0.35979652,-0.38706017,0.9084252,-2.7126517,-0.09042697,-3.557715,0.25139046,-0.4126625,0.7754244,0.66041565,0.045483325,0.0676538,0.74646187,-0.70400167,-0.94043106,-1.1330322,1.0,0.0,0.0,0.0,0.0,0.0,0.0,-1.0097965,-0.012939841,-0.3584252,-8.421326,-0.53596497,-3.8387537,0.6440401,6.0483932,-1.2945354,-0.90212226
-11.766946,32.31247,12.33974,17.42951,1.4500009,1.3687078,-0.29087374,-0.77398807,-0.79971445,-0.7183073,-0.7729275,-0.24939774,0.50612456,-0.21217686,1.0003159,-0.73666096,-1.7531116,-1.7133999,2.342889,1.6257378,-0.9363044,1.063606,-0.6711234,-1.6937721,-1.6501375,2.3623395,1.5788447,-0.9137086,-1.4213791,-1.4428613,-1.2586989,-1.3984106,-0.52615064,0.36999562,0.12695985,0.3326912,-0.38796425,0.87213826,-2.7099397,-0.090336554,-3.6523438,0.24400711,-0.4221363,0.7640285,0.6645175,0.054571882,0.06387029,0.7425354,-0.7575814,-0.9358672,-1.1449159,1.0,0.0,0.0,0.0,0.0,0.0,0.0,-0.98269117,-0.012035757,-0.32213825,-4.1946173,0.21467209,-3.8872957,1.8753767,9.040189,-0.75650215,-4.342857
-9.472715,34.36506,14.207072,17.926624,1.9609189,1.4027064,-0.3022004,-0.7964738,-0.8021801,-0.72396415,-0.75000405,0.08627091,0.5004019,-0.41337925,0.98395866,-0.7513414,-1.7661685,-1.725138,2.3709667,1.6288849,-0.95504653,1.0492265,-0.6855258,-1.7065742,-1.6639086,2.3586583,1.5825125,-0.91291803,-1.4429585,-1.4397779,-1.2875998,-1.3690399,-0.31584942,0.36515254,0.06362235,0.30561256,-0.38886833,0.83490574,-2.7072303,-0.09024623,-3.746878,0.23605537,-0.4316349,0.7525735,0.66896975,0.06378223,0.05900575,0.73819345,-0.8144333,-0.9404058,-1.1487523,1.0,0.0,0.0,0.0,0.0,0.0,0.0,-0.95561254,-0.011131674,-0.28490573,-2.0061255,0.17530918,-2.938366,3.196907,20.873446,-0.6981492,-6.1472564
-6.169285,37.802937,16.891426,17.363634,1.8971369,1.465126,-0.26004297,-0.8003324,-0.7968308,-0.7224798,-0.73445916,0.2411073,0.5283944,-0.49622375,0.9691933,-0.76520884,-1.7788222,-1.7373545,2.382769,1.6353519,-0.9625404,1.0347536,-0.6998757,-1.7195575,-1.6773478,2.3573728,1.5861632,-0.9127855,-1.4483196,-1.4337832,-1.3018891,-1.3348793,-0.06673203,0.3643616,-0.0027877314,0.27856064,-0.3897686,0.7967286,-2.7045236,-0.090156,-3.8413177,0.22756386,-0.44115067,0.741123,0.67375255,0.07304952,0.05278618,0.73344034,-0.86755717,-0.93988645,-1.147023,1.0,0.0,0.0,0.0,0.0,0.0,0.0,-0.9285606,-0.0102314055,-0.2467286,-0.43709278,0.48320293,-1.4235497,3.623581,24.830921,-0.2662599,-6.4420195
-5.2199397,39.57334,17.629267,16.350548,1.5180314,1.4931102,-0.25849026,-0.8129007,-0.7886294,-0.7425437,-0.72303706,0.26158503,0.5345929,-0.5237205,0.9534635,-0.7787387,-1.7938119,-1.7496514,2.3835313,1.6396224,-0.9651575,1.0202386,-0.71413505,-1.7326953,-1.6904608,2.3582578,1.5898157,-0.9132766,-1.4521636,-1.4237105,-1.3177232,-1.3027707,0.14020157,0.36506346,-0.064069726,0.25153542,-0.39066887,0.7576078,-2.7018197,-0.09006585,-3.935663,0.21858215,-0.45059013,0.7296774,0.6788221,0.082313366,0.04535129,0.72826385,-0.91547555,-0.93044394,-1.1471932,0.0,1.0,0.0,0.0,0.0,0.0,0.0,-0.9015354,-0.009331137,-0.2076078,-0.29594898,0.89621544,-1.5660763,3.4067154,20.644608,-0.10125041,-5.968776
-2.8573782,43.195114,19.596762,14.370458,0.7487828,1.5298014,-0.21286286,-0.8190005,-0.770919,-0.74304265,-0.7224991,0.2286097,0.54273635,-0.5341807,0.9383386,-0.791227,-1.8069996,-1.7627107,2.3811188,1.6440893,-0.9666947,1.0057484,-0.72811496,-1.7470715,-1.7038275,2.358019,1.5957144,-0.9135018,-1.447486,-1.3910252,-1.4668869,-1.3410261,-0.05183835,0.6253836,-0.028239293,0.23598099,-0.39549065,0.7587391,-1.3800206,-0.5238691,1.03087,0.20915031,-0.45941544,0.71783483,0.6838324,0.09077623,0.038252603,0.72295886,-0.95593065,-0.8556512,-1.1956083,0.0,1.0,0.0,0.0,0.0,0.0,0.0,-0.88598096,-0.0045093596,-0.2087391,-0.033211708,1.8245697,-1.636219,2.7190924,12.429178,-0.052940845,-5.304857
73.81285,176.0,110.0,93.335686,-7.741396,9.668837,-0.492688,-0.7589314,0.5189405,0.6936289,0.7404908,-0.23412944,0.6378785,-0.40967694,0.9298552,-0.6762209,-1.6777086,-1.6297784,2.3346062,1.6595023,-0.9544695,0.996225,-0.7392653,-1.7620709,-1.7066847,2.347254,1.6106681,-0.912016,-0.791202,-1.0225209,-1.5032213,0.060840692,-1.4130703,1.7929705,0.20205502,0.22219086,-0.40072632,0.7682956,-1.3786409,-0.5233453,0.9305881,0.20007324,-0.46572876,0.70999104,0.6890304,0.09002989,0.03693488,0.7181695,-0.89690775,-0.54157406,-0.64850056,1.0,0.0,0.0,0.0,0.0,0.0,0.0,-0.87219083,0.0007263124,-0.21829557,64.42619,37.01298,-1.3582706,138.60617,-134.66615,119.05446,21.369865
16.100931,156.73119,101.491325,95.439316,-0.55988044,7.233838,-0.69869995,-0.8066385,-0.4183362,0.33835277,0.7954041,-0.6123764,0.5247552,-0.3078427,0.91556114,-0.78109896,-1.7282356,-1.6271443,2.2860165,1.6631436,-0.9428002,0.9883362,-0.74780166,-1.7716992,-1.6988589,2.3312895,1.6284636,-0.9102126,-0.7881113,-0.7986617,-0.7798473,1.0218257,-1.6607052,1.7809042,0.17199595,0.20841599,-0.40595627,0.77685004,-1.3772625,-0.5228221,0.83040655,0.19099236,-0.47015,0.7076199,0.69484955,0.08164897,0.039209638,0.7134284,-0.91350687,-0.39842236,-0.10365291,1.0,0.0,0.0,0.0,0.0,0.0,0.0,-0.85841596,0.0059562624,-0.22685003,0.31694174,21.989716,73.20274,95.70374,-25.714706,0.6123543,-3.31164
-25.289482,113.16985,54.130577,74.2905,2.3474214,4.483909,-1.3843957,-0.80188596,-0.19512875,-0.3281387,0.7520676,-0.6541243,0.6234925,-0.15322283,0.90814763,-0.76731455,-1.8045131,-1.6236521,2.265877,1.6908128,-0.92553484,0.9792248,-0.7537955,-1.7771065,-1.6843554,2.3149436,1.645214,-0.90876013,-0.9502165,-0.5342159,-0.46168894,1.593857,-1.6287667,1.6430167,0.13622111,0.19465256,-0.4111805,0.78440344,-1.3758855,-0.52229935,0.7303251,0.1812439,-0.47393417,0.70900446,0.70187277,0.069835484,0.04307484,0.70756066,-0.99578166,-0.36470288,0.21359076,1.0,0.0,0.0,0.0,0.0,0.0,0.0,-0.84465253,0.01118049,-0.23440343,-15.634441,26.058626,31.63594,57.409,2.3828983,-12.844372,-3.6172926
-29.651335,105.51437,39.869164,50.23027,1.652823,2.9043264,-1.2774639,-0.8029175,0.066264614,-0.31542546,0.79676855,-0.65602726,0.596333,-0.16733797,0.89893305,-0.747169,-1.8086491,-1.6046785,2.2493408,1.7048472,-0.92549396,0.96804965,-0.7566031,-1.7806962,-1.6667315,2.3000128,1.6602477,-0.907713,-1.1719021,-0.19749816,-0.3259997,1.8190372,-1.4498206,1.4586847,0.09367456,0.18090439,-0.416399,0.7909568,-1.3745099,-0.52177715,0.63034374,0.17082024,-0.47730637,0.7125795,0.71007603,0.05711416,0.04810549,0.70015407,-1.0597988,-0.32021728,0.3994621,1.0,0.0,0.0,0.0,0.0,0.0,0.0,-0.83090436,0.016398996,-0.24095678,-21.764828,33.325146,13.146126,22.638298,17.294907,-17.876244,-4.4066815
-42.50113,45.53143,1.9923472,27.091953,2.7466145,0.77722,-1.170334,-0.8222316,-0.07679841,-0.53695655,0.78553766,-0.6475584,0.6484293,-0.29976094,0.88582647,-0.76428294,-1.8343918,-1.5881777,2.235257,1.7250906,-0.93768907,0.95488036,-0.7573718,-1.7850697,-1.6486613,2.2870047,1.6735667,-0.9071503,-1.3645887,-0.03716046,-0.47562063,1.8032222,-1.2508653,1.2900988,0.043467313,0.16716957,-0.4216118,0.79651105,-1.3731358,-0.5212555,0.5304624,0.15962982,-0.48081398,0.71652776,0.71931815,0.04547812,0.053590585,0.6911159,-1.1408248,-0.3514793,0.38828698,1.0,0.0,0.0,0.0,0.0,0.0,0.0,-0.81716955,0.02161178,-0.24651104,-19.037247,15.890368,-15.298158,-1.4857769,19.885397,-16.711163,-5.124487
-38.024452,9.058093,-13.760966,12.181056,2.7342923,-0.33467132,-0.745689,-0.8225463,-0.17029239,-0.55193233,0.7887278,-0.6400991,0.64215434,-0.3515301,0.8726257,-0.774401,-1.8402629,-1.5697885,2.2229948,1.7377821,-0.94230336,0.9403206,-0.7578057,-1.7914784,-1.6315542,2.2757208,1.6853656,-0.90708166,-1.4859071,-0.04563208,-0.6965539,1.6800817,-1.0874465,1.143006,-0.005535748,0.1534481,-0.42682076,0.80106723,-1.3717629,-0.5207343,0.43068084,0.14769745,-0.48486328,0.7196272,0.7292665,0.035896584,0.05882408,0.68075067,-1.2127072,-0.4121224,0.28030735,1.0,0.0,0.0,0.0,0.0,0.0,0.0,-0.8034481,0.026820749,-0.25106722,-11.967468,-0.8750893,-22.264565,-12.2287035,16.442322,-14.758754,-4.9502554
-23.113485,5.503758,-8.732282,6.1629863,1.8490388,-0.45941985,-0.27990818,-0.8215274,-0.17395501,-0.48024872,0.7954189,-0.6151333,0.65680766,-0.3655258,0.8581679,-0.7752012,-1.8395033,-1.5520123,2.2142074,1.7510463,-0.9436343,0.9250723,-0.7588767,-1.7995484,-1.6157652,2.2657301,1.6958846,-0.9074603,-1.5375237,-0.12760952,-0.8438054,1.5455039,-0.9694069,1.0213312,-0.048719697,0.1397419,-0.432024,0.80462635,-1.3703914,-0.5202137,0.33099908,0.13526154,-0.48938942,0.72161794,0.7394673,0.028280186,0.063487165,0.66959506,-1.2565076,-0.45349848,0.16960096,1.0,0.0,0.0,0.0,0.0,0.0,0.0,-0.7897419,0.032023996,-0.25462633,-5.070758,-8.210225,-14.753294,-13.372946,11.754,-12.229872,-4.335692
-10.475096,9.646406,-0.41957504,5.2765064,1.2194436,-0.28137082,0.036594816,-0.813548,-0.22168322,-0.4435754,0.7982602,-0.58992004,0.66122943,-0.39301437,0.8437175,-0.781045,-1.8439059,-1.5359392,2.2067382,1.7620075,-0.9467617,0.9097067,-0.76107967,-1.8083775,-1.6010557,2.256632,1.7053527,-0.9082375,-1.5361311,-0.25117597,-0.8958391,1.4464425,-0.890726,0.9219904,-0.087331414,0.12604713,-0.43722153,0.8071894,-1.3690213,-0.5196936,0.23141699,0.12255287,-0.49416542,0.72267747,0.74956477,0.02210801,0.067449085,0.6581143,-1.2789099,-0.47400323,0.08277373,1.0,0.0,0.0,0.0,0.0,0.0,0.0,-0.7760471,0.03722152,-0.2571894,0.16541481,-12.3732,-5.1250696,-9.819317,7.705283,-9.941996,-3.8424268
-1.9759614,19.617573,8.631662,7.186957,0.7585269,0.05951798,0.20691048,-0.8123059,-0.25987896,-0.3990298,0.7952959,-0.57064486,0.6475668,-0.39380088,0.82847613,-0.7870676,-1.8482804,-1.5215261,2.1995676,1.7701093,-0.9476176,0.8945385,-0.76453006,-1.8170788,-1.5870043,2.2480986,1.7139567,-0.90935427,-1.5104142,-0.37657106,-0.86110896,1.3914651,-0.8414249,0.8398891,-0.11969171,0.11236763,-0.44241524,0.80875736,-1.3676527,-0.519174,0.13193448,0.10973358,-0.4989872,0.72312975,0.7593491,0.01679927,0.07073707,0.64660877,-1.2864585,-0.472308,0.030705145,1.0,0.0,0.0,0.0,0.0,0.0,0.0,-0.7623676,0.04241523,-0.25875735,2.542448,-12.581664,3.6296487,-5.43108,4.6832204,-8.153809,-3.2105253
3.253519,31.711838,17.074524,10.083175,0.45182204,0.4633932,0.2862159,-0.8133253,-0.29217848,-0.3214025,0.7934836,-0.54447854,0.65005416,-0.3983931,0.813206,-0.7937479,-1.8492191,-1.507656,2.1936507,1.7789621,-0.9491936,0.87965167,-0.7690915,-1.8248665,-1.5732294,2.2399504,1.7218531,-0.9107571,-1.4815779,-0.48286992,-0.7507688,1.3728079,-0.8074309,0.7733015,-0.14705683,0.09870148,-0.44760323,0.8093313,-1.3662852,-0.51865494,0.03255142,0.096912384,-0.50362587,0.72333205,0.76871324,0.0118268505,0.07343723,0.6352535,-1.2844548,-0.44927615,0.014504715,1.0,0.0,0.0,0.0,0.0,0.0,0.0,-0.74870145,0.04760322,-0.2593313,2.8193474,-10.706341,11.244238,-1.832819,3.0780196,-6.550014,-2.7213364
10.218277,46.771248,26.794346,12.053873,-0.050219655,0.8160446,0.39349955,-0.7973983,-0.31033358,-0.19315621,0.7919505,-0.5402702,0.6467136,-0.3956447,0.79991186,-0.8001248,-1.8441821,-1.4940344,2.1859233,1.7865245,-0.9503216,0.86507475,-0.774475,-1.8309815,-1.5594794,2.2320273,1.7291754,-0.91239744,-1.4501215,-0.55717087,-0.564236,1.3755655,-0.7885267,0.7192025,-0.16972442,0.085048676,-0.4527855,0.8089121,-1.3649192,-0.5181364,-0.06673228,0.08424187,-0.5078392,0.7236454,0.7775466,0.006716766,0.0757047,0.6242155,-1.2650732,-0.40062445,0.034477267,1.0,0.0,0.0,0.0,0.0,0.0,0.0,-0.73504865,0.052785486,-0.2589121,3.0387402,-7.538724,18.916166,0.24244785,1.4754653,-5.229616,-2.281183
12.295565,53.12294,30.572168,13.143006,-0.19703782,0.970943,0.43693647,-0.7903712,-0.35321596,-0.08462386,0.7867692,-0.54585683,0.6402799,-0.37290013,0.7860376,-0.8097966,-1.8394439,-1.4808024,2.1774416,1.7932035,-0.9496875,0.85077155,-0.7805108,-1.8349621,-1.5456549,2.2241957,1.7360286,-0.914218,-1.423993,-0.6194984,-0.34189677,1.3846595,-0.78300637,0.6746956,-0.1862235,0.07141113,-0.45796394,0.80749786,-1.3635546,-0.51761836,-0.16631046,0.071805954,-0.51148987,0.72426987,0.78578985,0.0011843079,0.07763658,0.61360025,-1.2395235,-0.34236845,0.06909311,1.0,0.0,0.0,0.0,0.0,0.0,0.0,-0.7214111,0.057963938,-0.25749785,2.5186062,-6.3533664,22.49375,0.8653164,0.10304451,-4.2370915,-1.6705096
12.082775,56.59387,31.596363,13.96643,-0.25421354,1.0013858,0.42016643,-0.7825878,-0.3760642,0.0120729115,0.7901341,-0.57455844,0.63198584,-0.3489183,0.7725128,-0.8181172,-1.8337549,-1.4666414,2.16674,1.7992271,-0.94910985,0.83668673,-0.7870616,-1.8367074,-1.531716,2.2162879,1.7424906,-0.91616064,-1.4035053,-0.66736555,-0.11803678,1.3968356,-0.7952721,0.6375704,-0.19711474,0.057785034,-0.46313667,0.8050886,-1.3621913,-0.5171009,-0.26578906,0.05963707,-0.5145283,0.72528094,0.7934467,-0.0048844,0.07935225,0.6034248,-1.211671,-0.28105578,0.1089288,1.0,0.0,0.0,0.0,0.0,0.0,0.0,-0.707785,0.06313667,-0.25508857,1.9886732,-4.9114466,22.610998,1.1844873,-1.674211,-3.4804106,-1.1155814
4.9454827,47.047707,22.56614,13.292161,0.055975974,0.6006665,0.25101003,-0.7676147,-0.404693,-0.044554718,0.782349,-0.6213418,0.6356798,-0.2868948,0.75992525,-0.82753086,-1.8411628,-1.4534811,2.1541536,1.8060586,-0.94485015,0.8228079,-0.794052,-1.837045,-1.5177084,2.2081015,1.7486323,-0.9181481,-1.3827136,-0.70999104,-0.00522626,1.4021387,-0.8274416,0.6070773,-0.19928029,0.044174194,-0.46830368,0.8016853,-1.3608294,-0.51658386,-0.36516824,0.04765892,-0.51711845,0.726454,0.8006562,-0.011212769,0.08101992,0.5935147,-1.1964623,-0.24229802,0.117152184,1.0,0.0,0.0,0.0,0.0,0.0,0.0,-0.6941742,0.068303674,-0.25168526,2.071619,-4.357779,11.412353,0.5568266,-3.526187,-2.8463721,-0.23756623
3.4535675,42.78605,18.653152,12.249897,0.15566033,0.32453904,0.18846366,-0.7385736,-0.429311,-0.010073948,0.78159624,-0.6282019,0.63910586,-0.27894577,0.74895054,-0.8369831,-1.8380524,-1.4395489,2.1452813,1.8125429,-0.94604266,0.80921614,-0.8014487,-1.8366807,-1.5036818,2.199591,1.7545108,-0.92013747,-1.3513932,-0.74981105,0.050629064,1.4031291,-0.8596111,0.5822396,-0.19895653,0.030574799,-0.47346687,0.7972889,-1.3594688,-0.5160674,-0.4644481,0.035814285,-0.51940155,0.72758716,0.8075174,-0.017554116,0.08270852,0.5837523,-1.1836059,-0.21525069,0.10906858,1.0,0.0,0.0,0.0,0.0,0.0,0.0,-0.6805748,0.07346687,-0.24728888,3.1266212,-4.0610194,5.69132,0.14195442,-3.4653783,-2.2966623,0.013169646
-6.2923074,28.504974,7.5590563,11.75851,0.7626918,-0.047255397,-0.0037731864,-0.7389271,-0.47301555,-0.10540661,0.77286905,-0.62458074,0.6268778,-0.22308485,0.7353234,-0.84875023,-1.8472213,-1.4263948,2.137133,1.8171985,-0.94244593,0.7958838,-0.8093318,-1.8365777,-1.489699,2.1908362,1.7601641,-0.92207724,-1.3270932,-0.8012346,-0.0032077471,1.3969605,-0.8809775,0.56007093,-0.19221243,0.016990662,-0.47862244,0.79190046,-1.3581097,-0.51555145,-0.56362855,0.023914337,-0.52162933,0.7283665,0.8142098,-0.023529312,0.08439451,0.5739217,-1.1947354,-0.21641733,0.06448243,1.0,0.0,0.0,0.0,0.0,0.0,0.0,-0.66699064,0.07862243,-0.24190044,2.4656296,-5.1892877,-5.361541,-0.50411224,-2.2295117,-2.0893931,0.6783873
-12.344101,21.941298,1.7647364,12.192633,1.140588,-0.2158094,-0.1506766,-0.73131377,-0.49407476,-0.16966279,0.7791703,-0.61490184,0.62332946,-0.23020989,0.7227524,-0.85873926,-1.8535439,-1.411782,2.129346,1.8224971,-0.9450982,0.7827555,-0.8177203,-1.8375027,-1.4757506,2.181967,1.7656192,-0.92395407,-1.3077815,-0.8515092,-0.12228105,1.394604,-0.8885412,0.54078186,-0.18606417,0.003419876,-0.4837742,0.78552103,-1.3567518,-0.515036,-0.6627099,0.011785507,-0.52396774,0.7285732,0.8209002,-0.028850565,0.08605956,0.5638122,-1.2213389,-0.23167089,0.0029364119,1.0,0.0,0.0,0.0,0.0,0.0,0.0,-0.65341985,0.08377418,-0.23552102,1.996851,-5.0652146,-11.936262,-0.06873608,-0.76414347,-1.8481016,0.62773526
-18.208614,13.006474,-4.243469,12.175121,1.5662088,-0.33992565,-0.2707532,-0.7260714,-0.5472667,-0.25890285,0.77954656,-0.59015507,0.6226935,-0.2669328,0.71014833,-0.87244695,-1.863393,-1.3977959,2.1229515,1.8278885,-0.95064735,0.76977885,-0.82673347,-1.8399689,-1.4618098,2.1731513,1.7708987,-0.9258004,-1.2938833,-0.9179284,-0.28840172,1.3947208,-0.8786395,0.52391243,-0.18401158,-0.010137558,-0.4889202,0.7781515,-1.3553953,-0.51452106,-0.76169217,-0.00074386597,-0.52656746,0.7280249,0.8277188,-0.03331993,0.08760558,0.5532599,-1.2656419,-0.26055643,-0.07739053,1.0,0.0,0.0,0.0,0.0,0.0,0.0,-0.6398624,0.088920206,-0.2281515,1.4944315,-6.6717505,-16.683418,0.24878979,1.0552049,-1.6751766,0.24318695
-13.087555,18.638903,-0.02619195,11.020332,1.2161868,-0.25471896,-0.1630784,-0.6984167,-0.5674046,-0.26090002,0.77591145,-0.60160303,0.628498,-0.2610677,0.69993716,-0.88347393,-1.866059,-1.3842186,2.1129909,1.8337485,-0.95190716,0.7570168,-0.8363732,-1.8438332,-1.4478766,2.164427,1.7760371,-0.9276286,-1.2701399,-0.9794515,-0.4192472,1.3935947,-0.87077045,0.5103533,-0.18231682,-0.02368164,-0.49406052,0.7697929,-1.3540403,-0.5140067,-0.8605755,-0.013618469,-0.52936745,0.72674817,0.8346149,-0.037000302,0.08900468,0.5423348,-1.2972366,-0.27752486,-0.14795834,1.0,0.0,0.0,0.0,0.0,0.0,0.0,-0.62631834,0.09406051,-0.2197929,2.4493217,-6.2026978,-13.102555,0.107097626,0.78641176,-1.3518214,0.19730031
-13.085562,17.060469,-0.7503834,9.975272,1.2253842,-0.2666794,-0.15066822,-0.6894737,-0.6118976,-0.34951055,0.7651395,-0.56623316,0.6223938,-0.27355993,0.6880694,-0.897563,-1.8787843,-1.3713626,2.1078038,1.8382765,-0.95498455,0.7444941,-0.8466729,-1.8490174,-1.4340025,2.1558745,1.7810496,-0.92945105,-1.2461128,-1.0469729,-0.5514853,1.3862355,-0.8502462,0.49829274,-0.18215372,-0.03721237,-0.499197,0.7604462,-1.3526864,-0.51349276,-0.95935994,-0.026824951,-0.5323448,0.72472775,0.8415564,-0.039903965,0.0901925,0.5310892,-1.3303288,-0.29472873,-0.22385372,0.0,1.0,0.0,0.0,0.0,0.0,0.0,-0.6127876,0.099197,-0.21044618,2.4778605,-6.807637,-13.2375,-0.493145,2.0523906,-1.2391925,0.056374073
-9.251036,16.175783,-0.13721085,7.818656,1.005162,-0.326635,-0.0835968,-0.65368086,-0.6622404,-0.4138539,0.76104623,-0.5616229,0.6279158,-0.30537805,0.679126,-0.91289693,-1.8904028,-1.3578979,2.0997121,1.8438412,-0.95998883,0.7323214,-0.8577193,-1.8554566,-1.4202181,2.1475203,1.785961,-0.93129736,-1.2058606,-1.1238176,-0.68133384,1.3736707,-0.834082,0.4883693,-0.19102906,-0.050727844,-0.5043278,0.7501208,-1.410783,-0.41229755,-0.78855985,-0.04030609,-0.5354881,0.72192544,0.848498,-0.04204862,0.09110472,0.5195989,-1.3544862,-0.31119853,-0.30581802,0.0,1.0,0.0,0.0,0.0,0.0,0.0,-0.59927213,0.10432777,-0.2001208,4.2368174,-7.718706,-13.632035,-1.305294,1.2530923,-1.0671437,-1.4098227
-12.107531,27.053305,4.3787446,10.636417,0.94582427,0.07411349,-0.11669963,-0.68867445,-0.6449283,-0.43011928,0.7676355,-0.56450015,0.63304687,-0.3078277,0.66345394,-0.9222121,-1.8984685,-1.3434546,2.0910702,1.8492657,-0.9620801,0.72036356,-0.86927664,-1.8630868,-1.4065835,2.1392257,1.7908432,-0.9333214,-1.1926359,-1.1666763,-0.78883886,1.3616328,-0.82488376,0.49277827,-0.20343736,-0.06587601,-0.5062523,0.74795145,-1.506169,-0.1598141,-0.0844082,-0.0540123,-0.5386696,0.718414,0.85545397,-0.0434821,0.09191696,0.50779814,-1.3789573,-0.30920956,-0.37020212,0.0,1.0,0.0,0.0,0.0,0.0,0.0,-0.58412397,0.10625228,-0.19795144,0.9316206,-4.4572115,-8.70266,-0.08473396,1.2491226,-0.7696569,-0.36873817
-11.382984,72.31468,24.087437,19.331629,0.3877622,1.0191939,-0.16131677,-0.74935395,-0.45013565,-0.35694203,0.80310374,-0.56262064,0.6191197,-0.30751312,0.6454282,-0.9142902,-1.8987811,-1.3262732,2.0829637,1.8527552,-0.9640727,0.70812315,-0.8801657,-1.8709527,-1.3928201,2.131028,1.7957222,-0.93539184,-1.234297,-1.0636594,-0.78529847,1.381452,-0.81933725,0.48649144,-0.2087696,-0.08092499,-0.50785065,0.74636906,-1.5046631,-0.15965432,-0.18284549,-0.06780815,-0.5413914,0.71499735,0.86234874,-0.044756923,0.093150385,0.4956556,-1.3805504,-0.24910262,-0.3367734,0.0,1.0,0.0,0.0,0.0,0.0,0.0,-0.569075,0.10785064,-0.19636905,-4.103422,10.074043,0.47540665,2.0218134,0.20644665,-0.574106,-0.708428
-11.673162,84.28275,29.107952,21.834728,0.40744075,1.2322104,-0.14811204,-0.7570251,-0.43145174,-0.38257325,0.79754573,-0.5306415,0.6082329,-0.27731365,0.63242066,-0.9233109,-1.9092101,-1.3130655,2.0779638,1.8565456,-0.9631232,0.6953725,-0.8898035,-1.8785878,-1.3788469,2.1229637,1.8005326,-0.93747467,-1.288511,-0.931396,-0.75557065,1.4025544,-0.8033937,0.4794849,-0.20890854,-0.09595871,-0.5094452,0.7437898,-1.5031588,-0.1594947,-0.28294188,-0.08158684,-0.5434284,0.7120865,0.8691369,-0.04609771,0.09504306,0.48315915,-1.3778878,-0.17730062,-0.28017154,0.0,1.0,0.0,0.0,0.0,0.0,0.0,-0.55404127,0.109445184,-0.19378978,-5.382395,12.967682,3.1456351,2.1018505,1.1709809,-0.6498277,-0.22313893
-7.4799623,86.11818,30.616438,20.577602,0.2285955,1.1374503,-0.0588929,-0.74747884,-0.4043285,-0.38186562,0.7989977,-0.54491603,0.6182457,-0.24688622,0.62062466,-0.9302364,-1.9167744,-1.2989471,2.0684721,1.8623571,-0.96216327,0.68219656,-0.89816725,-1.8858587,-1.3646905,2.1149986,1.80528,-0.93953174,-1.3273989,-0.80548203,-0.7166058,1.4197222,-0.7960032,0.47349718,-0.20532863,-0.11097908,-0.51103973,0.74021035,-1.5016559,-0.15933524,-0.3829382,-0.09525871,-0.5447521,0.70974976,0.87574726,-0.047558732,0.09760562,0.47040203,-1.364122,-0.10614885,-0.22185075,0.0,1.0,0.0,0.0,0.0,0.0,0.0,-0.5390209,0.11103973,-0.19021034,-3.902769,12.341869,4.1233897,1.6757488,0.2994895,-0.54997206,0.14899373
-6.653987,73.63858,25.283981,17.757175,0.38349012,0.8188119,-0.010611376,-0.7476187,-0.4096898,-0.4051505,0.79830587,-0.5263433,0.5967864,-0.19979088,0.6074347,-0.9391362,-1.9263737,-1.2848599,2.0623643,1.8649586,-0.9595108,0.668769,-0.90562254,-1.8929282,-1.3504254,2.1071634,1.8099725,-0.94150287,-1.346812,-0.72605777,-0.7089112,1.4265051,-0.7740547,0.4763956,-0.19296066,-0.12589264,-0.5123253,0.7363454,-1.459692,-0.056937452,-0.17357264,-0.10883522,-0.5454979,0.7077941,0.8821453,-0.049031194,0.10064559,0.45747778,-1.3567525,-0.052558593,-0.19198357,0.0,1.0,0.0,0.0,0.0,0.0,0.0,-0.52410734,0.11232528,-0.1863454,-1.7847061,7.7584863,0.13201237,0.3768444,2.839303,1.3465881,1.41716
-3.43019,79.26649,27.776455,17.511784,0.2547676,0.7707499,0.03877546,-0.7580714,-0.31499916,-0.38168827,0.80384254,-0.49816716,0.57246137,-0.14978997,0.59296185,-0.93712246,-1.931097,-1.2700411,2.0573468,1.8672186,-0.9564819,0.65520966,-0.9121743,-1.8999147,-1.336124,2.099614,1.8147318,-0.9433233,-1.3592675,-0.63220567,-0.6942858,1.4313672,-0.7497385,0.47522017,-0.17887868,-0.14031601,-0.5127144,0.73497266,-1.4372679,-0.030089254,-0.126557,-0.12226677,-0.545681,0.7061869,0.8882924,-0.05052363,0.1040928,0.44446433,-1.3387133,0.0036666074,-0.1527958,0.0,1.0,0.0,0.0,0.0,0.0,0.0,-0.50968397,0.11271438,-0.18497264,-1.3005733,9.172047,1.715827,0.44662952,2.0648956,-0.2595067,1.2546748
-2.423701,81.47528,28.298584,17.351206,0.23482504,0.7039548,0.050980005,-0.76791006,-0.253463,-0.3821141,0.8016341,-0.47346094,0.54925644,-0.13042885,0.5784187,-0.93752056,-1.9381262,-1.2559606,2.0522678,1.8696575,-0.9563662,0.6415436,-0.9177379,-1.9068098,-1.3218131,2.0923584,1.8194551,-0.94499457,-1.369218,-0.5317006,-0.6868682,1.4308478,-0.7185666,0.47106978,-0.1637568,-0.15451813,-0.51275253,0.7340737,-1.4145616,0.0064155026,-0.07845499,-0.13549042,-0.5453167,0.70498115,0.894174,-0.05199642,0.10797068,0.43138322,-1.3166422,0.058315575,-0.11196655,0.0,1.0,0.0,0.0,0.0,0.0,0.0,-0.49548185,0.11275253,-0.18407369,-1.0728359,9.838999,1.0151029,-0.117468834,2.7305722,-0.41835904,1.3198465
-3.1110597,75.036606,25.191755,16.36316,0.32814848,0.55068916,0.05831311,-0.76880777,-0.2401264,-0.40012532,0.8002021,-0.46964017,0.5473599,-0.09268408,0.5646629,-0.9417505,-1.9468223,-1.2417929,2.0453944,1.8741912,-0.954263,0.6278088,-0.92247003,-1.9137352,-1.3075213,2.085369,1.824123,-0.946502,-1.3751384,-0.45430002,-0.693344,1.428474,-0.69368464,0.46503514,-0.14695314,-0.16850662,-0.5124531,0.73355675,-1.3935645,0.039178167,-0.04328655,-0.14852905,-0.5444679,0.7040834,0.8997924,-0.053368684,0.112217546,0.41824952,-1.2984666,0.10446531,-0.084044985,0.0,1.0,0.0,0.0,0.0,0.0,0.0,-0.48149335,0.11245307,-0.18355674,-0.664258,7.548767,-0.38312674,-0.28264523,2.1413207,-0.6244123,1.506868
-3.7474098,68.2395,21.98167,15.190133,0.39592752,0.40273058,0.06286777,-0.7685177,-0.22232383,-0.4179497,0.7955463,-0.46675557,0.5360254,-0.07687463,0.550957,-0.9447024,-1.9555302,-1.2279667,2.0386937,1.8777256,-0.9541894,0.6140444,-0.9266023,-1.9208286,-1.2932754,2.078574,1.828719,-0.9478456,-1.3771477,-0.40016806,-0.71390194,1.423159,-0.67579854,0.45759392,-0.13066597,-0.18230057,-0.51184654,0.7332807,-1.3744423,0.068032056,-0.02220892,-0.16141891,-0.5432129,0.7033593,0.90515655,-0.05454347,0.11675952,0.40507242,-1.2841802,0.14252688,-0.070042565,0.0,1.0,0.0,0.0,0.0,0.0,0.0,-0.4676994,0.11184654,-0.1832807,-0.26504993,5.2424192,-1.8046141,-0.55873394,1.480937,-0.7805407,1.4725268
-10.413703,53.927593,14.252065,14.70875,0.7298956,0.21974957,-0.011282697,-0.78286487,-0.23294638,-0.4929838,0.79627633,-0.45782754,0.51599026,-0.035206836,0.53575796,-0.94989693,-1.970127,-1.2136477,2.0327911,1.880318,-0.95136625,0.6002123,-0.9304599,-1.9284693,-1.2790693,2.0719218,1.8332183,-0.9490148,-1.3853072,-0.38153163,-0.78023636,1.419972,-0.66228634,0.44713268,-0.112742506,-0.19596481,-0.5110073,0.7329967,-1.3635838,0.08940335,-0.030041639,-0.17430878,-0.5416813,0.70256734,0.9103294,-0.055308502,0.12149251,0.3917663,-1.2899977,0.16750547,-0.08340745,0.0,1.0,0.0,0.0,0.0,0.0,0.0,-0.45403516,0.1110073,-0.18299669,-0.8230686,1.7200053,-6.459534,-0.27194023,1.1395693,-1.113081,1.6733408
-11.870933,47.48439,10.824923,13.623476,0.73035234,0.0949586,0.002912458,-0.77914095,-0.22479875,-0.5449716,0.7902709,-0.46615332,0.5077326,0.04547342,0.52229816,-0.9529398,-1.9829664,-1.2000422,2.0253065,1.8839916,-0.9444674,0.58632296,-0.9342498,-1.936972,-1.264909,2.0653377,1.8376086,-0.9499626,-1.3900167,-0.3786922,-0.87301385,1.4150002,-0.65767837,0.43603075,-0.08917439,-0.20953941,-0.50998306,0.7325189,-1.3553011,0.10686861,-0.052879147,-0.18730354,-0.5399418,0.7015307,0.9153329,-0.05548895,0.12637705,0.37830597,-1.3004123,0.18639262,-0.1114366,0.0,1.0,0.0,0.0,0.0,0.0,0.0,-0.44046056,0.10998306,-0.1825189,-0.4607916,0.15227795,-9.129143,-0.4278183,0.28717518,-1.1891365,2.241981
-14.25906,39.47839,7.063546,12.778649,0.81955636,0.0072128773,0.005673129,-0.78284514,-0.2499669,-0.5990456,0.79037887,-0.47916478,0.48141992,0.104458794,0.50803846,-0.9592465,-1.9968766,-1.1858711,2.0174212,1.8857505,-0.9395167,0.5723887,-0.93820184,-1.9465103,-1.2507832,2.058726,1.8418708,-0.95064956,-1.3944838,-0.40109605,-0.9802292,1.4120951,-0.66271335,0.42269415,-0.062238127,-0.22306252,-0.5088177,0.73168635,-1.3510661,0.120170146,-0.092092566,-0.20046234,-0.53805923,0.7001001,0.92017573,-0.05496085,0.13135727,0.36469316,-1.319188,0.19965681,-0.15440433,0.0,1.0,0.0,0.0,0.0,0.0,0.0,-0.42693746,0.10881767,-0.18168634,-0.40888786,-2.360618,-10.5995655,-0.1768589,-0.641489,-1.4303625,2.5970652
-10.839015,38.53692,7.595674,11.379436,0.6755092,-0.026260078,0.07748121,-0.76677096,-0.26774076,-0.6237779,0.7915744,-0.49936333,0.48404396,0.15925483,0.49571162,-0.9649759,-2.008888,-1.1716257,2.0087898,1.8902752,-0.9347241,0.5584993,-0.9424791,-1.9570062,-1.2366688,2.0519922,1.8460131,-0.95104915,-1.3870889,-0.4369372,-1.0723644,1.411507,-0.6776784,0.41110927,-0.03282932,-0.23653221,-0.5075283,0.7304382,-1.3451589,0.13236436,-0.13401689,-0.2137661,-0.5360546,0.69822556,0.92482585,-0.053733315,0.13638803,0.35101017,-1.3319974,0.21196623,-0.19927932,0.0,1.0,0.0,0.0,0.0,0.0,0.0,-0.41346776,0.1075283,-0.18043816,0.7607937,-3.6997557,-9.061027,0.04887581,-1.6496062,-1.2545407,2.843164
-12.318681,35.836754,6.503112,11.206545,0.71327424,0.030105293,0.089899376,-0.7773586,-0.29996789,-0.66396904,0.79107594,-0.53282446,0.487541,0.19282523,0.4807634,-0.9724759,-2.0234032,-1.1575612,1.9987097,1.8947672,-0.9317666,0.54464525,-0.9472236,-1.9683391,-1.2225523,2.0450099,1.850052,-0.9511564,-1.3846742,-0.4872806,-1.1531205,1.4122028,-0.70556736,0.40118334,-0.003674361,-0.24995232,-0.5061226,0.7287236,-1.3405342,0.143748,-0.18148752,-0.22722054,-0.5339165,0.6958702,0.9292662,-0.051825684,0.14144474,0.3373007,-1.3479829,0.22564073,-0.24837287,0.0,1.0,0.0,0.0,0.0,0.0,0.0,-0.40004766,0.10612258,-0.17872357,0.2723217,-5.152708,-7.9137564,0.21073818,-2.9466271,-1.0997713,2.8293083
-11.767078,37.035248,7.3849277,11.084302,0.7130668,0.12055522,0.12428207,-0.7780405,-0.32649237,-0.6821138,0.79057646,-0.54947954,0.49808052,0.24664631,0.4668412,-0.9798728,-2.0365505,-1.1434946,1.9900619,1.89986,-0.92649174,0.5308006,-0.9525098,-1.9803127,-1.2084281,2.037723,1.8540105,-0.9509619,-1.3843611,-0.54289776,-1.2113923,1.4130358,-0.73681843,0.39382043,0.02695231,-0.26331902,-0.5045967,0.72654426,-1.3346792,0.15593697,-0.22740032,-0.24082565,-0.5316124,0.6930462,0.93347734,-0.049304254,0.14649504,0.32361737,-1.3619832,0.24315467,-0.29462865,0.0,1.0,0.0,0.0,0.0,0.0,0.0,-0.38668096,0.104596704,-0.17654425,0.051045418,-5.6876183,-5.62973,0.23121834,-3.31496,-0.85398555,2.9805906
-8.015318,38.78406,9.04331,9.980082,0.6244695,0.14827746,0.18056293,-0.7626097,-0.3605682,-0.6915734,0.7884736,-0.5553791,0.5206827,0.2811898,0.4545396,-0.98856664,-2.04947,-1.1295807,1.9821851,1.9060787,-0.9228429,0.51702,-0.9583902,-1.9926907,-1.1943071,2.030158,1.8579236,-0.9504647,-1.3759226,-0.60342723,-1.2459654,1.4122661,-0.7633688,0.3902296,0.05711451,-0.2766075,-0.50295067,0.7239167,-1.3261334,0.16809684,-0.27147707,-0.2545147,-0.5291271,0.6897827,0.9374325,-0.04627607,0.15147136,0.31005684,-1.368871,0.26179335,-0.3378845,0.0,1.0,0.0,0.0,0.0,0.0,0.0,-0.37339246,0.10295066,-0.1739167,0.83522797,-6.175852,-3.2209396,0.051283836,-2.872169,-0.4779935,2.9386535
-4.0767345,44.53634,11.897992,9.620641,0.49115437,0.19226289,0.22963032,-0.75044376,-0.3740171,-0.6976974,0.78846645,-0.5728424,0.52959234,0.3240675,0.4419756,-0.9957919,-2.0624604,-1.1154604,1.9728738,1.9108828,-0.918058,0.50337756,-0.96479607,-2.0052762,-1.1801982,2.0223444,1.8618194,-0.9496646,-1.3605533,-0.653473,-1.261669,1.4106878,-0.7880698,0.3889837,0.08741039,-0.28977203,-0.5011711,0.72091573,-1.3123615,0.18163235,-0.30652258,-0.2681961,-0.5264435,0.6861569,0.94110376,-0.04284565,0.15636718,0.2967108,-1.3650752,0.282864,-0.37198368,0.0,1.0,0.0,0.0,0.0,0.0,0.0,-0.36022794,0.101171106,-0.17091572,1.4899969,-5.1347136,-1.2782812,-0.07395744,-2.7391553,-0.24323463,2.935505
-1.6355753,43.030334,12.0526705,8.444691,0.50221145,0.16773927,0.2522588,-0.738244,-0.42736945,-0.69159764,0.7856712,-0.569642,0.5323305,0.32936022,0.42955315,-1.007533,-2.074436,-1.101631,1.9653802,1.9150524,-0.91672856,0.48992804,-0.971797,-2.0178795,-1.166116,2.014351,1.8657073,-0.9485881,-1.3399446,-0.7159512,-1.2592188,1.4075222,-0.8037955,0.38846827,0.11418718,-0.30279922,-0.4992695,0.71753484,-1.2983882,0.19349083,-0.34533274,-0.28182793,-0.52355576,0.6821772,0.9444922,-0.039102357,0.16108921,0.28364712,-1.3594567,0.301786,-0.40807086,0.0,1.0,0.0,0.0,0.0,0.0,0.0,-0.34720075,0.09926948,-0.16753483,2.00212,-6.366086,0.54712296,-0.23195744,-1.8426657,-0.17359853,2.6074111
-3.0327687,38.948673,10.44085,7.993532,0.61237705,0.17247522,0.24011368,-0.73842883,-0.48217013,-0.68907523,0.7848732,-0.58109504,0.53539145,0.34961718,0.41608515,-1.020014,-2.086787,-1.0876287,1.9562414,1.9192464,-0.9136264,0.47664797,-0.9795408,-2.0303948,-1.1520628,2.006213,1.8695903,-0.94726044,-1.3241568,-0.7942173,-1.2478894,1.4048111,-0.8175316,0.38798365,0.13892157,-0.31570816,-0.49726295,0.71370125,-1.2873142,0.203575,-0.39263436,-0.29545403,-0.52049255,0.67778844,0.9476248,-0.03508268,0.1655325,0.27087876,-1.3591655,0.3200144,-0.45053348,0.0,1.0,0.0,0.0,0.0,0.0,0.0,-0.33429182,0.09726295,-0.16370124,1.5374899,-7.93761,1.4145613,-0.14328957,-1.622963,-0.17917156,2.4391234
5.540894,49.04615,15.60194,7.15783,0.3525446,0.1811356,0.32460666,-0.69740784,-0.48172793,-0.6497443,0.7846645,-0.58220553,0.5545466,0.41542885,0.4069072,-1.0277137,-2.0953693,-1.0735964,1.9479924,1.9250449,-0.90571755,0.46366453,-0.9879093,-2.0426052,-1.1380378,1.9979806,1.8734897,-0.94566333,-1.290112,-0.85141575,-1.2110245,1.4017156,-0.82592446,0.39036417,0.16642822,-0.32843018,-0.4951439,0.70952594,-1.26617,0.21511142,-0.4223603,-0.308918,-0.51724243,0.6731009,0.9504781,-0.030923221,0.16970865,0.25852275,-1.3386574,0.33809474,-0.47663292,0.0,1.0,0.0,0.0,0.0,0.0,0.0,-0.3215698,0.095143884,-0.15952593,3.2928467,-5.835116,4.0589094,-0.28283596,-1.1713505,0.12381673,2.6822
-1.2711611,42.43299,11.806709,8.035511,0.65612143,0.17862421,0.24649522,-0.71752083,-0.54884535,-0.6578805,0.7866522,-0.58,0.49809423,0.4313655,0.39191246,-1.0427939,-2.1083932,-1.0593725,1.9399806,1.9232992,-0.9025268,0.45088476,-0.9969692,-2.0545099,-1.1240221,1.9896952,1.8773644,-0.94380665,-1.2740679,-0.9245741,-1.182541,1.4019567,-0.8302058,0.38622752,0.19211152,-0.3409958,-0.49292374,0.70495534,-1.2522008,0.22488141,-0.4653111,-0.32230186,-0.5138073,0.66807663,0.953097,-0.026605459,0.17355926,0.24652658,-1.3343004,0.35663024,-0.5128993,0.0,1.0,0.0,0.0,0.0,0.0,0.0,-0.3090042,0.09292373,-0.15495533,1.5494108,-7.4320793,3.1577587,0.14483929,-0.7143736,-0.5547166,2.550733
1.6920323,44.712788,12.953022,7.502886,0.56552553,0.17062527,0.2592051,-0.687965,-0.57759327,-0.6329107,0.79103965,-0.58881634,0.53345245,0.44615865,0.38208824,-1.0547285,-2.117801,-1.0449182,1.9308136,1.9307096,-0.8991908,0.43832573,-1.006731,-2.0660908,-1.1099762,1.9813625,1.8812238,-0.9417095,-1.250102,-0.99382704,-1.1490339,1.4057037,-0.83515584,0.38547924,0.21555687,-0.35339928,-0.49060822,0.6999803,-1.2353128,0.23415244,-0.50533605,-0.335598,-0.51019096,0.6627141,0.95550054,-0.022156928,0.17707935,0.23488432,-1.3235656,0.37405902,-0.5463056,0.0,1.0,0.0,0.0,0.0,0.0,0.0,-0.2966007,0.09060821,-0.1499803,2.3239613,-7.040882,3.6815882,0.47473907,-0.7966399,-0.21121502,2.323383
-7.4228554,37.578564,8.36854,8.394114,0.8260439,0.19726658,0.18160573,-0.7183109,-0.6350385,-0.645303,0.7798213,-0.58913654,0.45141116,0.46118668,0.36649466,-1.0702349,-2.1306212,-1.0319941,1.9224488,1.9263649,-0.89559084,0.4258134,-1.0172749,-2.0774767,-1.095936,1.9729819,1.8850092,-0.9393943,-1.251618,-1.0748256,-1.1343223,1.4040222,-0.83969223,0.37581277,0.23695551,-0.36569977,-0.48820686,0.6944842,-1.2270123,0.24247165,-0.56141096,-0.34892082,-0.50637245,0.65691745,0.95773906,-0.017465793,0.18021965,0.2234985,-1.329974,0.39497778,-0.5931008,0.0,1.0,0.0,0.0,0.0,0.0,0.0,-0.2843002,0.08820686,-0.14448416,-0.15585423,-8.219194,1.7160177,0.040483475,-0.70118904,-1.1318088,2.165732
0.07547903,40.869785,10.415754,6.1682673,0.46299973,0.11270213,0.2603346,-0.6713179,-0.65871626,-0.6358773,0.7755115,-0.59930915,0.4774436,0.49786392,0.35868162,-1.0831465,-2.1410644,-1.0183848,1.913051,1.9327536,-0.8896079,0.41344607,-1.028553,-2.088753,-1.0819436,1.9645404,1.888722,-0.9368626,-1.2319233,-1.1459644,-1.1249008,1.3979315,-0.8463948,0.36935517,0.2585788,-0.37787437,-0.48573685,0.6884533,-1.2130682,0.2489014,-0.6140091,-0.36218834,-0.5023918,0.65066624,0.9598071,-0.012499931,0.18300085,0.2124255,-1.3207227,0.4100113,-0.6386407,0.0,1.0,0.0,0.0,0.0,0.0,0.0,-0.2721256,0.08573684,-0.1384533,1.9206524,-7.2244644,1.2199402,-0.46491623,-0.93957186,-0.79615116,2.1571457
7.544864,46.12948,13.322211,4.7884007,0.21295822,0.04787445,0.31785437,-0.63795555,-0.6846142,-0.61299807,0.7777244,-0.6027495,0.46381053,0.5205436,0.3496505,-1.0970144,-2.1500528,-1.0041711,1.9042654,1.9351029,-0.88480824,0.40141773,-1.0404587,-2.09988,-1.0680047,1.9560362,1.8923718,-0.93412036,-1.1934749,-1.2058887,-1.1077482,1.3926319,-0.8526299,0.36303082,0.27933598,-0.38985634,-0.48321152,0.68196505,-1.1922582,0.25390044,-0.65763557,-0.37525558,-0.49829865,0.64401513,0.96168494,-0.0073125055,0.18546434,0.20177081,-1.2968931,0.41927162,-0.6768815,0.0,1.0,0.0,0.0,0.0,0.0,0.0,-0.26014364,0.08321151,-0.13196504,3.7466288,-6.100464,2.052784,-0.4579544,-0.94166994,-0.77296495,2.0415068
12.57927,50.884468,15.276341,3.835877,-0.0048291385,-0.010517836,0.36337867,-0.6119688,-0.7001866,-0.6152469,0.7653645,-0.60587966,0.43965957,0.5460178,0.34022084,-1.1104773,-2.1614046,-0.99146825,1.8954482,1.9363377,-0.87951857,0.3898558,-1.0528431,-2.1108768,-1.0541686,1.9474773,1.8959491,-0.93117476,-1.14418,-1.2498523,-1.0957321,1.3806491,-0.8580564,0.35557014,0.29940256,-0.40158844,-0.48064804,0.6750921,-1.1658674,0.25741297,-0.694237,-0.3880062,-0.49415207,0.6370206,0.963361,-0.0019150102,0.18766223,0.19161084,-1.2618765,0.42340365,-0.71007735,0.0,1.0,0.0,0.0,0.0,0.0,0.0,-0.24841154,0.080648035,-0.12509209,4.7968864,-4.505539,1.5778065,-1.184988,-0.9030342,-0.8818865,1.9370615
17.833065,53.722843,16.933846,2.59,-0.082953095,-0.08700484,0.38744652,-0.57645845,-0.7231397,-0.6004438,0.7489941,-0.55926085,0.40428972,0.53775775,0.33220994,-1.1251571,-2.170921,-0.97926915,1.8915513,1.9363781,-0.87739897,0.3788632,-1.0656128,-2.1217215,-1.0405176,1.9390191,1.8994333,-0.9280572,-1.0848393,-1.2861472,-1.079581,1.3597853,-0.8428988,0.34551066,0.31566086,-0.41302872,-0.47806168,0.6678898,-1.1358013,0.25902194,-0.7263017,-0.4003544,-0.4900036,0.62972367,0.9648489,0.003641214,0.1895463,0.18200429,-1.2198355,0.42184865,-0.73925173,0.0,1.0,0.0,0.0,0.0,0.0,0.0,-0.23697126,0.07806167,-0.11788976,5.7721376,-3.7337303,2.021265,-2.122593,1.1249065,-1.1503577,1.5482128
22.59391,55.3665,17.845287,1.1341708,-0.25181985,-0.1857326,0.4257236,-0.53466374,-0.73670095,-0.6059278,0.7259428,-0.5388292,0.3752283,0.54797804,0.3253968,-1.139283,-2.1823144,-0.9679233,1.8851361,1.936956,-0.87325937,0.36853623,-1.078682,-2.1324632,-1.0271566,1.9307878,1.9028032,-0.92479104,-1.0159079,-1.3141035,-1.0714244,1.3277217,-0.81775844,0.33361632,0.3299566,-0.42414474,-0.47547913,0.6603816,-1.1026728,0.25812688,-0.75645065,-0.41223145,-0.48591805,0.6221389,0.96616185,0.009344705,0.19108029,0.17300934,-1.170781,0.413291,-0.76814204,0.0,1.0,0.0,0.0,0.0,0.0,0.0,-0.22585523,0.07547912,-0.1103816,6.7104816,-2.8941631,1.233077,-3.28238,2.1098495,-1.3380587,1.3347626
22.111542,59.587086,18.944113,2.1906338,-0.061651587,-0.14993566,0.38984948,-0.51587063,-0.7406591,-0.58087593,0.70607847,-0.48819426,0.30946112,0.5392208,0.31694916,-1.1527479,-2.1905508,-0.95654875,1.8819684,1.9337493,-0.870869,0.35883778,-1.0919476,-2.1430485,-1.0141636,1.9229391,1.9060129,-0.9214066,-0.95513725,-1.3311309,-1.0529654,1.2895435,-0.77533627,0.31623876,0.3409688,-0.43491364,-0.4729042,0.65263146,-1.0673281,0.25732863,-0.7790139,-0.42362595,-0.48190498,0.61432946,0.96732914,0.015141446,0.19221759,0.16461256,-1.1227793,0.40612426,-0.7884046,0.0,1.0,0.0,0.0,0.0,0.0,0.0,-0.21508634,0.0729042,-0.10263145,5.8941483,-1.8093586,2.2853136,-3.905797,3.801763,-1.900959,1.010853
