Afshin1997/kuka_rl_ros2/src/catch_and_throw/input_files/idealpd/polynomial_regressor/optimizer_files/env_82_data.csv
torque0,torque1,torque2,torque3,torque4,torque5,torque6,action0,action1,action2,action3,action4,action5,action6,set_target_0,set_target_1,set_target_2,set_target_3,set_target_4,set_target_5,set_target_6,joint_pos_0,joint_pos_1,joint_pos_2,joint_pos_3,joint_pos_4,joint_pos_5,joint_pos_6,joint_vel_0,joint_vel_1,joint_vel_2,joint_vel_3,joint_vel_4,joint_vel_5,joint_vel_6,tennisball_pos_0,tennisball_pos_1,tennisball_pos_2,tennisball_lin_vel_0,tennisball_lin_vel_1,tennisball_lin_vel_2,end_effector_pos_0,end_effector_pos_1,end_effector_pos_2,end_effector_rot_0,end_effector_rot_1,end_effector_rot_2,end_effector_rot_3,end_effector_lin_vel_0,end_effector_lin_vel_1,end_effector_lin_vel_2,obs_task_0,obs_task_1,obs_task_2,obs_task_3,obs_task_4,obs_task_5,obs_task_6,to_final_target_0,to_final_target_1,to_final_target_2,joint_acc_0,joint_acc_1,joint_acc_2,joint_acc_3,joint_acc_4,joint_acc_5,joint_acc_6
0.0,0.0,0.0,0.0,0.0,0.0,0.0,0.0,0.0,0.0,0.0,0.0,0.0,0.0,1.7802359,-1.0646509,-1.8151424,-1.1170107,1.9373155,1.1170107,-0.91629785,1.7802359,-1.0646509,-1.8151424,-1.1170107,1.9373155,1.1170107,-0.91629785,0.0,0.0,0.0,0.0,0.0,0.0,0.0,3.0908813,-0.2857399,0.17643927,-3.152702,-0.40532473,5.524234,0.5304184,-0.45449448,0.693097,0.5745483,0.17512383,0.15255436,0.7848268,0.0,0.0,0.0,1.0,0.0,0.0,0.0,0.0,0.0,0.0,-3.7408814,-0.11426011,0.37356073,0.0,0.0,0.0,0.0,0.0,0.0,0.0
0.0,0.0,0.0,0.0,0.0,0.0,0.0,0.0,0.0,0.0,0.0,0.0,0.0,0.0,1.7802359,-1.0646509,-1.8151424,-1.1170107,1.9373155,1.1170107,-0.91629785,1.7802359,-1.0646509,-1.8151424,-1.1170107,1.9373155,1.1170107,-0.91629785,0.0,0.0,0.0,0.0,0.0,0.0,0.0,3.0908813,-0.2857399,0.17643927,-3.152702,-0.40532473,5.524234,0.5304184,-0.45449448,0.693097,0.5745483,0.17512383,0.15255436,0.7848268,0.0,0.0,0.0,1.0,0.0,0.0,0.0,0.0,0.0,0.0,-3.7408814,-0.11426011,0.37356073,0.0,0.0,0.0,0.0,0.0,0.0,0.0
0.0,0.0,0.0,0.0,0.0,0.0,0.0,0.0,0.0,0.0,0.0,0.0,0.0,0.0,1.7802359,-1.0646509,-1.8151424,-1.1170107,1.9373155,1.1170107,-0.91629785,1.7802359,-1.0646509,-1.8151424,-1.1170107,1.9373155,1.1170107,-0.91629785,0.0,0.0,0.0,0.0,0.0,0.0,0.0,3.0908813,-0.2857399,0.17643927,-3.152702,-0.40532473,5.524234,0.5304184,-0.45449448,0.693097,0.5745483,0.17512383,0.15255436,0.7848268,0.0,0.0,0.0,1.0,0.0,0.0,0.0,0.0,0.0,0.0,-3.7408814,-0.11426011,0.37356073,0.0,0.0,0.0,0.0,0.0,0.0,0.0
-176.0,70.65619,-4.693161,110.0,10.485338,4.8582063,-3.8511486,-0.7980477,0.3467842,-0.5233369,0.7366205,0.12040056,0.6662638,-0.5794275,1.7004311,-1.0299724,-1.8674761,-1.0433487,1.9493555,1.1836371,-0.9742406,1.7786738,-1.0623754,-1.8207023,-1.1118914,1.9407487,1.1215883,-0.916315,-0.20805672,0.30283844,-0.7408617,0.6828793,0.45713857,0.6087421,-0.002107944,3.0593796,-0.2897911,0.23090371,-3.14955,-0.40491948,5.4205246,0.5282669,-0.4576912,0.69399685,0.57801276,0.17368242,0.15164237,0.78277713,-0.285939,-0.4261409,0.11980519,1.0,0.0,0.0,0.0,0.0,0.0,0.0,-3.7093797,-0.1102089,0.3190963,-20.733227,30.089554,-73.94293,68.37947,45.530018,60.404747,-0.13609768
-176.0,-47.995453,-51.160934,106.33626,11.9272,0.67642987,-3.4514918,-0.801864,-0.25413537,-0.57347107,0.7068864,0.24815367,0.6550547,-0.6123187,1.6984874,-1.0877889,-1.8780494,-1.0412028,1.965564,1.1870939,-0.9775469,1.7767836,-1.0600046,-1.8353431,-1.0970694,1.9474435,1.1338068,-0.9145183,-0.17986612,0.2139252,-1.7081673,1.7525192,0.7416665,1.4221617,0.2434946,3.0279083,-0.2938347,0.28433186,-3.1464012,-0.40451464,5.316919,0.5235939,-0.46621323,0.6947121,0.5858387,0.17034972,0.1490311,0.77817965,-0.52993375,-0.99285746,0.0560461,1.0,0.0,0.0,0.0,0.0,0.0,0.0,-3.6779084,-0.10616532,0.26566815,3.6503494,-9.255258,-97.66054,108.08747,28.85189,80.14512,25.525814
-151.89561,74.86756,17.210163,84.16022,8.4412775,6.4312744,-1.8117466,-0.75933236,0.11611274,0.08083425,0.6511302,0.3885296,0.6671648,-0.5228252,1.7008504,-1.0483934,-1.8272597,-1.0319563,1.9862964,1.2005233,-0.9668008,1.7718416,-1.0579599,-1.8505046,-1.0778033,1.9552293,1.1479632,-0.912466,-0.59855866,0.19863275,-1.4469924,1.9865314,0.78572917,1.4079934,0.19250369,2.9964676,-0.29787827,0.3367247,-3.1432555,-0.4041102,5.2134166,0.5161209,-0.47790527,0.6964561,0.59640425,0.16572958,0.14489797,0.7719069,-0.8274559,-1.222008,0.2176816,1.0,0.0,0.0,0.0,0.0,0.0,0.0,-3.6464677,-0.10212174,0.21327531,-41.744213,-2.3470044,27.70641,24.031734,2.8903127,-3.0700207,-5.083823
-97.28816,68.60579,27.34753,49.386528,5.707086,6.4747157,-0.044296406,-0.7694331,-0.124003164,0.25392613,0.6715303,0.38046265,0.6623198,-0.57933766,1.6948984,-1.0703602,-1.825112,-1.0106503,1.9932755,1.2141951,-0.97039974,1.7627379,-1.0572027,-1.8598411,-1.0586611,1.9627328,1.1612097,-0.91115755,-1.0147508,0.033036202,-0.75612324,1.8912424,0.7328411,1.2940639,0.11004026,2.9650574,-0.30191422,0.3880833,-3.1401129,-0.40370616,5.1100183,0.50613403,-0.49074554,0.6995277,0.6077746,0.16014339,0.13891393,0.76528883,-1.0666525,-1.2916771,0.34104344,1.0,0.0,0.0,0.0,0.0,0.0,0.0,-3.6150575,-0.09808579,0.1619167,-41.761326,-17.06782,71.04577,-9.14309,-7.0412636,-12.274671,-8.300173
-44.25434,92.53341,40.64607,26.191883,3.049842,6.280456,0.76397645,-0.79315054,-0.038824104,0.31861445,0.67313325,0.5043493,0.6531018,-0.58206844,1.6834228,-1.0610851,-1.8279797,-0.9913478,2.0131676,1.2265198,-0.9693644,1.7501589,-1.0576109,-1.8618419,-1.0416514,1.9698682,1.1731325,-0.9107141,-1.3397523,-0.06669303,-0.009159599,1.6376063,0.70235395,1.1571734,0.021592924,2.9336777,-0.30595016,0.43840873,-3.1369734,-0.40330255,5.006723,0.49430847,-0.5033264,0.7038539,0.6187525,0.15365648,0.13109864,0.759176,-1.2344046,-1.2348262,0.46413067,1.0,0.0,0.0,0.0,0.0,0.0,0.0,-3.5836778,-0.09404984,0.11159128,-32.723045,-10.361973,76.40586,-25.359226,-4.455149,-14.061761,-9.118927
-7.914833,102.19525,41.4015,12.361247,0.8151747,4.8063064,0.6830439,-0.8042219,0.053910702,0.26170203,0.6690815,0.5194678,0.64960724,-0.60560936,1.6697367,-1.0522197,-1.8356717,-0.97474325,2.021815,1.2380933,-0.97127503,1.7353731,-1.0582384,-1.8582027,-1.0271689,1.9768357,1.1837984,-0.9110984,-1.5255555,-0.06252275,0.49185258,1.3845524,0.6921917,1.0365918,-0.059749994,2.9023285,-0.3099785,0.48770195,-3.133837,-0.40289932,4.9035306,0.48138428,-0.5149307,0.70919865,0.6290095,0.1464907,0.122221895,0.7536241,-1.3241327,-1.1239628,0.5559486,1.0,0.0,0.0,0.0,0.0,0.0,0.0,-3.5523286,-0.09002152,0.06229806,-18.759012,0.11355877,51.16733,-25.425005,-1.7790556,-12.038779,-8.500578
18.341301,144.3441,51.64691,9.453145,-1.2894998,4.552801,0.11490898,-0.81413895,0.32862535,0.20164384,0.63941646,0.48150483,0.6488825,-0.5979616,1.6539593,-1.0253758,-1.8380383,-0.9632272,2.0249863,1.2486867,-0.9708946,1.7195917,-1.0572332,-1.8517768,-1.0147959,1.9836869,1.1934096,-0.91220945,-1.5963854,0.15377945,0.69548714,1.1880304,0.6815011,0.9367922,-0.13003208,2.8710136,-0.3140068,0.535964,-3.130704,-0.40249652,4.800442,0.4679718,-0.5249748,0.71575254,0.63875705,0.13862903,0.113630205,0.74823767,-1.3585906,-0.95247704,0.685372,1.0,0.0,0.0,0.0,0.0,0.0,0.0,-3.5210137,-0.0859932,0.014036,-7.3084593,21.290094,21.124983,-19.729256,-1.3939619,-9.728468,-7.5705094
27.370083,150.66005,49.173695,8.259454,-2.232874,3.5495496,-0.32678694,-0.8207088,0.4516543,0.12377666,0.61119395,0.4869192,0.64937365,-0.59436435,1.6375209,-1.0120678,-1.8393992,-0.9536765,2.032379,1.2583469,-0.9716459,1.7036501,-1.053428,-1.8451698,-1.0038515,1.9904943,1.2021567,-0.91393083,-1.5942212,0.4551435,0.65064424,1.06312,0.6799713,0.85502404,-0.18771634,2.8397331,-0.3180275,0.583196,-3.1275737,-0.4020941,4.697457,0.45449066,-0.53328323,0.7235128,0.64831996,0.13020848,0.10634043,0.74257576,-1.3542547,-0.7786653,0.8028791,1.0,0.0,0.0,0.0,0.0,0.0,0.0,-3.4897332,-0.08197251,-0.033195972,-0.023031235,29.845428,-3.962648,-12.488604,-0.25125742,-7.8858733,-6.2433033
29.174051,149.80792,46.878254,9.326361,-2.2814965,3.021853,-0.5052967,-0.82123417,0.57117003,0.11354714,0.59739774,0.53214854,0.64034516,-0.58452135,1.6215267,-0.99631107,-1.8338151,-0.94411176,2.043709,1.2661911,-0.97238296,1.6879889,-1.0464758,-1.8397949,-0.9936666,1.9974484,1.2101847,-0.91614145,-1.5574714,0.77440506,0.50116205,1.0036105,0.7003526,0.7856975,-0.23345271,2.8084831,-0.3220482,0.6293989,-3.1244469,-0.4016921,4.5945745,0.44115067,-0.5399475,0.7324143,0.6579134,0.12135961,0.10069715,0.7363978,-1.3359251,-0.617537,0.9163127,1.0,0.0,0.0,0.0,0.0,0.0,0.0,-3.4584832,-0.07795182,-0.07939887,3.4424305,31.670464,-14.499676,-5.9290886,1.989913,-6.7830086,-4.9699545
25.48044,132.5205,40.253914,10.120793,-1.8260615,2.3834355,-0.53313905,-0.80767184,0.63932073,0.0828919,0.61096555,0.5386749,0.6415006,-0.5651109,1.6072217,-0.9825437,-1.8315057,-0.93257004,2.051316,1.2743348,-0.97265255,1.6728026,-1.0367445,-1.836108,-0.9836406,2.0046353,1.2176024,-0.91872686,-1.5063007,1.0387197,0.32560605,1.0021116,0.72473085,0.72698367,-0.2679572,2.7772636,-0.32606125,0.6745737,-3.121323,-0.40129048,4.4917946,0.42798615,-0.54525757,0.7422682,0.66763735,0.11220405,0.09658015,0.72961825,-1.3153709,-0.48715603,1.0058119,1.0,0.0,0.0,0.0,0.0,0.0,0.0,-3.4272637,-0.07393876,-0.12457371,4.9185276,26.222742,-17.167097,-0.17433167,2.3986578,-5.880654,-3.7742794
19.502758,110.603455,33.00858,10.236589,-1.1768295,1.8814492,-0.42501056,-0.8029514,0.6861156,0.06169229,0.60852206,0.5605618,0.64919406,-0.5583087,1.5925075,-0.9681329,-1.8299388,-0.9227884,2.0606916,1.2825217,-0.97455776,1.6580778,-1.0249742,-1.8339546,-0.97344583,2.0121007,1.2245089,-0.9215984,-1.4617125,1.2225531,0.17964199,1.024939,0.7538263,0.6781775,-0.29453543,2.7460747,-0.3300705,0.7187215,-3.1182024,-0.40088928,4.3891172,0.4149704,-0.5494919,0.7527927,0.6774778,0.10286532,0.09361178,0.72227377,-1.3010279,-0.38837174,1.0657657,1.0,0.0,0.0,0.0,0.0,0.0,0.0,-3.3960748,-0.06992951,-0.1687215,4.288721,18.21785,-14.239091,2.186489,2.872169,-4.9818397,-2.9448986
14.034822,86.93789,25.464067,9.217459,-0.6229963,1.3736618,-0.27656174,-0.7953584,0.7036637,0.035942137,0.6059658,0.5638677,0.6527362,-0.5579238,1.578542,-0.95460784,-1.8303604,-0.91284925,2.0684874,1.2897825,-0.97739077,1.6437117,-1.01201,-1.8329418,-0.9629974,2.0198216,1.2309939,-0.92469496,-1.428752,1.3205659,0.076351225,1.0510094,0.7779109,0.6383677,-0.31564432,2.7149162,-0.33407593,0.76184326,-3.115085,-0.40048847,4.286543,0.40205383,-0.5529671,0.7636564,0.6873528,0.0934764,0.091372885,0.71446425,-1.291957,-0.3181415,1.0912784,1.0,0.0,0.0,0.0,0.0,0.0,0.0,-3.3649163,-0.06592408,-0.21184325,3.15125,9.684253,-10.0052805,2.439165,2.385378,-4.071915,-2.3822725
9.9007435,69.343765,20.006847,8.035669,-0.23809677,1.0374277,-0.12729067,-0.79434156,0.7150907,0.01833773,0.59371144,0.57162625,0.6598286,-0.5593372,1.5642775,-0.9405009,-1.831108,-0.9036262,2.0769842,1.2969767,-0.98062867,1.6295592,-0.99854577,-1.8326423,-0.9523925,2.0277448,1.2371432,-0.9279737,-1.4112109,1.3547285,0.01568642,1.0629976,0.79747,0.6069085,-0.33286124,2.6837883,-0.33807755,0.80394006,-3.1119704,-0.40008807,4.184071,0.38918686,-0.5558853,0.7745748,0.6971593,0.08414279,0.089523695,0.70631033,-1.2873456,-0.2669113,1.0903656,1.0,0.0,0.0,0.0,0.0,0.0,0.0,-3.3337884,-0.06192246,-0.25394005,1.6195297,3.3368587,-5.748637,0.9798527,1.9474149,-3.1882763,-1.992178
7.739086,59.805153,17.30393,7.3572507,0.018661976,0.8969465,-0.0023282655,-0.7934503,0.7208493,0.01707885,0.5851423,0.5888042,0.6581024,-0.5645383,1.5502142,-0.92646086,-1.8309344,-0.8938783,2.086625,1.3029534,-0.9844275,1.6154925,-0.9850255,-1.8326538,-0.94177526,2.0358663,1.2430216,-0.931405,-1.4056439,1.3509064,-0.0056509622,1.0605367,0.8167275,0.5815363,-0.34746474,2.652691,-0.34207535,0.84501296,-3.108859,-0.39968807,4.0817018,0.37634277,-0.5583687,0.78538465,0.7067992,0.07491236,0.087803885,0.6979352,-1.2861745,-0.2253716,1.0762321,1.0,0.0,0.0,0.0,0.0,0.0,0.0,-3.302691,-0.057924658,-0.29501295,0.4241705,-0.4406929,-1.7974532,-0.48630238,1.91468,-2.5440335,-1.7333746
8.447361,59.093357,17.54852,7.0124483,0.042928755,0.95820224,0.08716625,-0.7895464,0.730779,0.031182468,0.57797503,0.57961,0.6604791,-0.55984116,1.5365379,-0.9119476,-1.8295355,-0.8839778,2.0938272,1.3090695,-0.98738915,1.6014429,-0.9716283,-1.8326232,-0.9312572,2.044106,1.2486845,-0.9349603,-1.405178,1.335799,0.0072821775,1.0481404,0.82645214,0.5612146,-0.3591662,2.621624,-0.34606934,0.8850629,-3.1057508,-0.39928845,3.9794347,0.36349487,-0.5604172,0.79605883,0.7161929,0.06574294,0.08609418,0.6894442,-1.2852244,-0.18100736,1.0628163,1.0,0.0,0.0,0.0,0.0,0.0,0.0,-3.271624,-0.05393067,-0.33506286,-0.092315674,-1.5684366,1.6781496,-1.4780045,0.9418845,-2.0281196,-1.4548004
10.518236,61.179737,18.455528,6.668901,-0.03713745,1.0108099,0.14078301,-0.78136075,0.736388,0.0395172,0.5723934,0.5785278,0.667619,-0.5561054,1.5233068,-0.8979895,-1.8286716,-0.87401783,2.1019588,1.3154464,-0.99057084,1.5874144,-0.9583713,-1.832341,-0.9208917,2.0523992,1.2541777,-0.9386148,-1.4026306,1.3222015,0.036636062,1.031916,0.83002174,0.54544455,-0.36844864,2.5905876,-0.3500595,0.9240909,-3.1026456,-0.39888924,3.8772702,0.35068512,-0.56196976,0.8066282,0.72528535,0.05656921,0.08436039,0.68091434,-1.2813233,-0.13097428,1.0531805,1.0,0.0,0.0,0.0,0.0,0.0,0.0,-3.2405877,-0.049940497,-0.3740909,0.11281967,-1.4209747,3.3533487,-1.8514633,0.3098488,-1.568675,-1.2209475
11.16138,62.708908,18.730661,6.747235,-0.084522605,1.0069357,0.15291902,-0.7809283,0.7394506,0.04033365,0.5617029,0.589581,0.6744443,-0.5561477,1.5093216,-0.88442624,-1.8283076,-0.8647214,2.1113572,1.3216221,-0.99422956,1.5734087,-0.9452039,-1.8317707,-0.9107122,2.0607343,1.2595412,-0.9423484,-1.4004323,1.3148069,0.06511886,1.0125738,0.8346681,0.53339386,-0.3759863,2.5595818,-0.35404587,0.96209806,-3.0995436,-0.39849043,3.7752078,0.33792114,-0.56300735,0.8171149,0.73405606,0.047357436,0.08261443,0.6723792,-1.2754517,-0.07847199,1.0451921,1.0,0.0,0.0,0.0,0.0,0.0,0.0,-3.2095819,-0.045954138,-0.41209805,0.076031685,-0.80246925,3.2751462,-2.1540642,0.41444302,-1.1948824,-1.0434508
13.474375,66.681366,20.211874,6.324996,-0.16227096,1.0953734,0.23283134,-0.7823825,0.7444146,0.084179446,0.5332723,0.6089121,0.6686252,-0.5517782,1.4951705,-0.87076247,-1.8233527,-0.8573849,2.1216254,1.3264036,-0.9975262,1.5594107,-0.9320499,-1.830775,-0.90081877,2.069161,1.2647978,-0.946145,-1.3999846,1.3153497,0.112693265,0.98091817,0.8453268,0.5231343,-0.38182008,2.5286064,-0.3580284,0.99908537,-3.0964446,-0.398092,3.6732473,0.32522964,-0.5634651,0.82756644,0.7424537,0.038064327,0.08083047,0.6639126,-1.2665415,-0.018072797,1.0428189,1.0,0.0,0.0,0.0,0.0,0.0,0.0,-3.1786065,-0.041971594,-0.44908535,-0.10972023,-0.015974045,5.234416,-3.3740401,0.9934068,-1.0160804,-0.8833349
15.712345,68.74733,20.699144,5.5765457,-0.32658097,1.0552728,0.26829043,-0.7776908,0.752243,0.09835341,0.50959253,0.6087395,0.67068994,-0.5430581,1.4816417,-0.8568256,-1.8209397,-0.84985954,2.130035,1.3318667,-1.0004508,1.5454336,-0.91883004,-1.8293121,-0.891303,2.0776868,1.2699667,-0.9499845,-1.3974165,1.32394,0.1590863,0.94105613,0.8547549,0.5151226,-0.3856783,2.4976616,-0.36200714,1.0350538,-3.0933487,-0.397694,3.571389,0.31267166,-0.56327057,0.8380021,0.75043684,0.028672038,0.079030976,0.6555735,-1.2514297,0.047436632,1.0411056,1.0,0.0,0.0,0.0,0.0,0.0,0.0,-3.1476617,-0.037992865,-0.48505384,0.10120869,0.79038143,5.1206408,-4.1863203,0.87206364,-0.76853037,-0.68345666
14.619531,67.4719,19.544983,6.0309277,-0.36908457,0.91175663,0.20661071,-0.77626467,0.75950444,0.08249765,0.50426656,0.6032747,0.6796619,-0.5258426,1.4678072,-0.8428796,-1.8210623,-0.84087634,2.1380143,1.337933,-1.0025687,1.5314871,-0.9054862,-1.8275745,-0.8821363,2.0862737,1.2750765,-0.95384306,-1.3941292,1.3376296,0.18015334,0.9079593,0.8597182,0.5096484,-0.38673842,2.466755,-0.36598206,1.0700045,-3.090256,-0.39729637,3.4696326,0.3002777,-0.5624466,0.8483973,0.7580395,0.019202344,0.077303044,0.6473265,-1.2341709,0.10900152,1.0359892,1.0,0.0,0.0,0.0,0.0,0.0,0.0,-3.116755,-0.03401795,-0.52000445,0.18260479,1.3095379,2.5354714,-3.5019875,0.45429468,-0.5000472,-0.38083196
12.155744,63.16331,17.279066,6.3596344,-0.35075167,0.6764058,0.13119936,-0.7811389,0.7629669,0.057783157,0.48512405,0.6143584,0.67806244,-0.5315849,1.4533732,-0.82918954,-1.8217962,-0.8336239,2.1477096,1.3428828,-1.0070015,1.5175463,-0.89200604,-1.8258674,-0.87329096,2.0949216,1.2801405,-0.9577102,-1.3945699,1.3513321,0.16876948,0.8760386,0.8667064,0.50548273,-0.38752216,2.4358788,-0.36994934,1.1039383,-3.0871663,-0.39689913,3.3679779,0.28805542,-0.5610771,0.8586794,0.7653289,0.0097349845,0.07573366,0.63909405,-1.2159398,0.16155672,1.0223264,1.0,0.0,0.0,0.0,0.0,0.0,0.0,-3.0858788,-0.030050665,-0.5539383,-0.18489361,1.3260603,-0.77453554,-3.3922315,0.6934881,-0.344944,-0.32539964
12.42503,61.995712,16.67927,6.1711607,-0.39252675,0.5689565,0.13035017,-0.77779096,0.76864076,0.0650758,0.4656793,0.6114888,0.67948836,-0.51706916,1.4397672,-0.815142,-1.8193598,-0.82672304,2.1560705,1.3480893,-1.0094172,1.5036093,-0.87839425,-1.8243129,-0.86476415,2.103623,1.2851702,-0.9615726,-1.3939556,1.3643116,0.15217584,0.844167,0.8709409,0.5024294,-0.38654226,2.405033,-0.37391663,1.1368564,-3.0840797,-0.39650232,3.266425,0.27603912,-0.55918884,0.868812,0.7723266,0.00030619063,0.07435798,0.6308584,-1.1947627,0.21224819,1.0066862,1.0,0.0,0.0,0.0,0.0,0.0,0.0,-3.0550332,-0.02608338,-0.5868564,-0.07634163,1.2609005,-1.3114095,-3.388846,0.42806864,-0.21950006,-0.14243722
16.844154,62.92032,17.39368,3.742258,-0.6118076,0.49668583,0.27460814,-0.7767363,0.77468526,0.1014115,0.40201026,0.6257787,0.67593724,-0.5124135,1.4259356,-0.80092573,-1.8141718,-0.82456315,2.1662009,1.3527639,-1.0128139,1.4896799,-0.8646604,-1.8227432,-0.85677046,2.112393,1.2901732,-0.96542066,-1.3929623,1.3763508,0.15977833,0.7837039,0.8790171,0.5001511,-0.3851139,2.374218,-0.37787628,1.1687598,-3.0809963,-0.3961059,3.1649735,0.26430893,-0.55675125,0.8787719,0.7789492,-0.009064619,0.07314914,0.62274003,-1.1629708,0.2694586,0.98882705,1.0,0.0,0.0,0.0,0.0,0.0,0.0,-3.024218,-0.022123724,-0.6187598,-0.046372414,1.1724949,1.1495918,-6.25273,0.79517365,-0.093114376,-0.10918379
24.078056,62.333153,17.736614,-1.2482576,-1.0618479,0.27793664,0.5109491,-0.77851045,0.7787459,0.1345851,0.28963277,0.6454991,0.6719539,-0.5072595,1.4118289,-0.7867858,-1.8092847,-0.8278072,2.1769428,1.3573686,-1.0161467,1.4757525,-0.85082066,-1.8209007,-0.8498258,2.1212926,1.295159,-0.9692525,-1.3932964,1.386482,0.19381626,0.66403455,0.8933558,0.49911115,-0.3833155,2.3434334,-0.38183594,1.1996495,-3.077916,-0.39570984,3.0636234,0.2530403,-0.55366516,0.88847655,0.7850319,-0.018291494,0.07207332,0.61497617,-1.1104507,0.33453202,0.96057975,1.0,0.0,0.0,0.0,0.0,0.0,0.0,-2.9934335,-0.018164068,-0.64964944,-0.18763542,0.9978056,3.829074,-12.185502,1.4083028,0.14621615,-0.076282024
32.442844,62.911263,18.679508,-6.274835,-1.5176008,0.07198033,0.76334345,-0.77069104,0.78148174,0.19319797,0.17638636,0.6578402,0.66853166,-0.49747792,1.3986833,-0.7726725,-1.8015809,-0.8321872,2.1870766,1.3620121,-1.0190003,1.4618555,-0.83689797,-1.8184478,-0.8444671,2.1303563,1.3001429,-0.9730596,-1.3888535,1.3942465,0.2639209,0.49241513,0.9107293,0.49925092,-0.38071787,2.3126793,-0.38578796,1.2295263,-3.0748386,-0.39531422,2.9623747,0.24246216,-0.54986954,0.89784646,0.79039264,-0.027296873,0.071089186,0.6078492,-1.0357541,0.4075818,0.92516035,1.0,0.0,0.0,0.0,0.0,0.0,0.0,-2.9626794,-0.014212042,-0.67952627,0.30560493,0.7807493,7.432678,-17.364073,1.7142892,0.37852526,0.012230873
39.505474,63.82222,19.546707,-10.450414,-1.914831,-0.1337648,0.9734865,-0.7635104,0.78755176,0.25779232,0.04898966,0.6696383,0.6588266,-0.48440853,1.3855045,-0.75814277,-1.7926686,-0.83956814,2.1973202,1.3660256,-1.0215005,1.4480387,-0.8228961,-1.8150642,-0.8411445,2.1396031,1.3051268,-0.97683233,-1.3796191,1.4023116,0.36422372,0.27834082,0.9295172,0.4996629,-0.376816,2.2819557,-0.38974,1.2583914,-3.0717645,-0.39491898,2.861227,0.23276901,-0.5452919,0.9068256,0.7948779,-0.036014926,0.07016279,0.60162205,-0.94134855,0.48606104,0.8844988,1.0,0.0,0.0,0.0,0.0,0.0,0.0,-2.9319558,-0.010260016,-0.70839137,0.82149506,0.8319855,10.390359,-21.565365,1.8893242,0.5052626,0.17444491
47.616894,63.378624,19.733795,-15.999458,-2.4959273,-0.49067643,1.1894646,-0.7510607,0.7974868,0.3096433,-0.12789959,0.68073136,0.6554374,-0.45604575,1.3729327,-0.74314743,-1.7840998,-0.85393447,2.2076762,1.3706706,-1.0224369,1.4343687,-0.80878747,-1.810601,-0.840372,2.149037,1.3101183,-0.98054594,-1.3630648,1.4139425,0.4743744,0.0098489765,0.9486885,0.5010041,-0.369956,2.2512627,-0.3936844,1.2862457,-3.0686934,-0.39452413,2.7601805,0.22422028,-0.53988266,0.91531575,0.7983498,-0.04431909,0.0693374,0.5965447,-0.8203247,0.568331,0.8325022,1.0,0.0,0.0,0.0,0.0,0.0,0.0,-2.9012628,-0.0063156188,-0.7362457,1.6137838,1.2145281,11.256486,-26.945347,1.9829392,0.7213652,0.5289495
47.59392,63.515537,19.835163,-15.718481,-2.4601288,-0.59150434,1.220156,-0.74513024,0.80282813,0.38301173,-0.23397107,0.6851166,0.6443583,-0.38801664,1.3598557,-0.72850466,-1.7722998,-0.8637691,2.2175486,1.3745542,-1.0193475,1.4208723,-0.79455674,-1.8049476,-0.8422441,2.1586423,1.3151156,-0.98414034,-1.3449391,1.4263831,0.59599847,-0.25287354,0.9654797,0.50132436,-0.35623038,2.2206001,-0.39762878,1.3130903,-3.0656252,-0.3941297,2.659235,0.21688843,-0.53367615,0.92330754,0.80077904,-0.052178837,0.06861831,0.5927239,-0.69795966,0.6463036,0.78301316,1.0,0.0,0.0,0.0,0.0,0.0,0.0,-2.8706002,-0.0023712218,-0.7630903,1.8373013,1.3196707,12.224579,-26.289892,1.8456221,0.6265521,1.2843192
39.55707,62.26193,19.037554,-9.757402,-1.8410153,-0.51079744,1.0097276,-0.7331886,0.80382186,0.42996648,-0.25853485,0.6839578,0.63398653,-0.31016493,1.3475535,-0.71417457,-1.761951,-0.86809754,2.2270381,1.3785142,-1.0151569,1.4075781,-0.780223,-1.7981498,-0.8461866,2.1683812,1.3201033,-0.98754495,-1.3240706,1.4359558,0.70731914,-0.44132277,0.977685,0.49968633,-0.33523574,2.189968,-0.40156555,1.3389263,-3.0625603,-0.39373565,2.5583906,0.21059418,-0.526783,0.93090725,0.8023046,-0.059703186,0.06796238,0.59002024,-0.59874463,0.7102828,0.7466284,1.0,0.0,0.0,0.0,0.0,0.0,0.0,-2.8399682,0.0015655458,-0.7889263,2.1530151,1.0577202,11.009014,-18.826925,1.4996648,0.34790635,2.0572722
24.814497,62.00412,18.343737,1.7445111,-0.67416215,-0.13767025,0.6192974,-0.7208259,0.804779,0.4712974,-0.18852547,0.6775325,0.6258984,-0.17448191,1.3354955,-0.6997451,-1.7510201,-0.8650391,2.2361345,1.3826932,-1.0049932,1.3945051,-0.7658206,-1.790364,-0.8509931,2.1781926,1.3250605,-0.9906511,-1.3016931,1.4421217,0.8014529,-0.4937458,0.98363143,0.4956687,-0.3024754,2.1593666,-0.40550232,1.3637545,-3.0594983,-0.393342,2.4576468,0.20494461,-0.51937485,0.93834937,0.803199,-0.06716362,0.06727512,0.58807683,-0.54664856,0.7569156,0.73745584,1.0,0.0,0.0,0.0,0.0,0.0,0.0,-2.8093667,0.0055023134,-0.8137545,2.289319,0.7436991,9.15531,-5.2542567,0.9868026,-0.040090084,3.232801
4.8558755,57.09119,15.542878,15.065414,0.6719194,0.23575304,0.08675745,-0.73351914,0.80154526,0.46621308,-0.080168344,0.6609179,0.63657063,-0.08028956,1.3211533,-0.6856661,-1.7437427,-0.8590099,2.2442844,1.3887175,-0.99868006,1.381539,-0.75139725,-1.7819622,-0.855277,2.1879888,1.3299776,-0.99337953,-1.2951962,1.4428228,0.8522269,-0.40698153,0.97964627,0.49105653,-0.26330298,2.1287956,-0.40943146,1.3875761,-3.0564394,-0.39294875,2.357004,0.19937515,-0.5116768,0.9458682,0.8038426,-0.07484631,0.066500284,0.58635545,-0.5515526,0.7793707,0.75040025,1.0,0.0,0.0,0.0,0.0,0.0,0.0,-2.7787957,0.009431452,-0.8375761,0.6139517,0.21312237,4.8075557,8.56399,0.039756298,-0.27903318,3.8465202
-10.009974,51.841656,13.00694,24.68945,1.6758434,0.5034646,-0.30587533,-0.7467232,0.7959283,0.46678236,0.02515653,0.65752584,0.64691037,-0.013914454,1.3068666,-0.6718044,-1.735284,-0.8527613,2.2537413,1.3946687,-0.994771,1.3685137,-0.737012,-1.7733085,-0.85797685,2.19772,1.3348528,-0.9956998,-1.3054583,1.4376469,0.8690605,-0.22491774,0.972368,0.48646057,-0.22190762,2.0982552,-0.4133606,1.410392,-3.0533836,-0.39255586,2.2564616,0.19343948,-0.50388336,0.95362025,0.8045569,-0.08295766,0.065597266,0.5843826,-0.599179,0.78413737,0.7770097,1.0,0.0,0.0,0.0,0.0,0.0,0.0,-2.7482553,0.01336059,-0.86039203,-1.1380196,-0.371027,1.4423251,18.017323,-0.28021336,-0.42099357,4.0464344
-21.474827,47.94395,11.16382,32.386734,2.4541607,0.7641935,-0.6256719,-0.7648154,0.79107064,0.46063858,0.17323816,0.64917,0.65797204,0.017565146,1.2920321,-0.657905,-1.7272446,-0.84065306,2.2626371,1.40065,-0.99394333,1.3552691,-0.7227069,-1.7646759,-0.85830015,2.207356,1.339688,-0.99762243,-1.3312737,1.4286633,0.86065394,0.031031223,0.9623096,0.4821507,-0.18270381,2.0677452,-0.4172821,1.4322033,-3.0503306,-0.3921634,2.15602,0.1867714,-0.4961319,0.96172357,0.80558383,-0.091669545,0.064529955,0.58177924,-0.6813345,0.7781515,0.8148344,1.0,0.0,0.0,0.0,0.0,0.0,0.0,-2.7177453,0.017282099,-0.8822033,-2.743721,-0.75562,-1.0656595,25.369326,-0.5453825,-0.52892566,3.8185267
-29.220764,46.534252,10.450636,38.45115,3.0057313,1.049294,-0.8571262,-0.7807805,0.78701645,0.44938654,0.3630839,0.6276523,0.6710596,0.08001886,1.277191,-0.6440053,-1.7197372,-0.82199174,2.270121,1.406794,-0.98962057,1.3417078,-0.708501,-1.7562473,-0.8555898,2.2168431,1.3444868,-0.9991483,-1.365072,1.4183692,0.83625,0.3503508,0.9456728,0.478315,-0.14284527,2.0372658,-0.4212036,1.4530108,-3.047281,-0.39177132,2.0556786,0.17908096,-0.48846054,0.9702894,0.8070853,-0.10115818,0.06327492,0.578253,-0.7901724,0.7701504,0.86377037,1.0,0.0,0.0,0.0,0.0,0.0,0.0,-2.6872659,0.021203607,-0.9030108,-3.5489798,-0.8979082,-2.6812077,31.723495,-1.1828065,-0.6216228,3.8889408
-24.491848,44.564728,10.019869,34.33182,2.5491319,0.8703757,-0.7561507,-0.7908867,0.78079486,0.43549022,0.42662397,0.62041557,0.6711258,0.057371743,1.2626191,-0.6304215,-1.7126982,-0.8129274,2.2788846,1.4115994,-0.9934111,1.3278204,-0.6944076,-1.7481182,-0.85000986,2.2261586,1.3492514,-1.0003327,-1.397127,1.4066646,0.80441475,0.6267483,0.92816895,0.4750376,-0.11060213,2.0068169,-0.4251175,1.4728158,-3.0442343,-0.39137962,1.9554375,0.17042542,-0.48082733,0.9792426,0.8090261,-0.111373134,0.061885513,0.573797,-0.88257104,0.76935756,0.89882046,1.0,0.0,0.0,0.0,0.0,0.0,0.0,-2.656817,0.025117487,-0.92281574,-3.3357143,-1.0715961,-3.3732533,27.487427,-1.3351679,-0.5639732,3.1389012
-12.644352,42.745567,9.46506,23.670437,1.4142648,0.3359747,-0.47749722,-0.80365676,0.7849898,0.39588663,0.40689653,0.63506186,0.6669414,-0.03802737,1.2474548,-0.6159086,-1.7085295,-0.8093202,2.2896647,1.4159455,-1.0041355,1.3136355,-0.68038666,-1.7404335,-0.8425531,2.2353673,1.3539912,-1.0013074,-1.4259292,1.4006625,0.75630456,0.78489125,0.9194708,0.47326782,-0.09333765,1.9763985,-0.42902756,1.491619,-3.0411906,-0.39098832,1.8552965,0.16118622,-0.4731369,0.98832226,0.8112354,-0.12200122,0.060518995,0.5686389,-0.92910296,0.7775662,0.90376943,1.0,0.0,0.0,0.0,0.0,0.0,0.0,-2.6263986,0.029027551,-0.941619,-2.9946566,-0.5404711,-4.8681617,15.68861,-0.57781935,-0.26906133,1.6436636
2.9315996,43.054424,9.938785,10.935003,0.095807254,-0.27223185,-0.07018019,-0.799771,0.7852103,0.38449818,0.35712248,0.64190066,0.6616849,-0.085946836,1.2336583,-0.60186565,-1.7019837,-0.80684084,2.2995574,1.4201596,-1.009902,1.2992674,-0.6663972,-1.7331951,-0.8345012,2.2445416,1.3587214,-1.0021809,-1.440701,1.3983928,0.71326154,0.8115981,0.9168064,0.473522,-0.085827336,1.9460106,-0.4329338,1.5094216,-3.03815,-0.3905974,1.7552556,0.15190506,-0.4653015,0.99723434,0.8134549,-0.13266496,0.059330143,0.5631794,-0.9191376,0.7957513,0.87967795,1.0,0.0,0.0,0.0,0.0,0.0,0.0,-2.5960107,0.0329338,-0.9594216,-1.5725851,-0.20153522,-4.1920304,2.5567532,-0.12655258,0.14142394,0.64477175
11.128808,44.37169,10.721397,4.751918,-0.54122907,-0.55314803,0.18008067,-0.802473,0.7820007,0.38935456,0.36310574,0.6327095,0.66886795,-0.042772077,1.2190201,-0.5881971,-1.6942596,-0.79819065,2.3078127,1.4256082,-1.0064582,1.2848192,-0.6524278,-1.7262447,-0.8266458,2.2536778,1.3634688,-1.0029706,-1.4465613,1.3965082,0.68972296,0.7765217,0.91262054,0.47584647,-0.07710271,1.9156532,-0.43683624,1.5262245,-3.0351124,-0.3902069,1.6553147,0.1429367,-0.4572487,1.0058246,0.8154881,-0.14316775,0.058392745,0.55773854,-0.8808895,0.8193601,0.84490275,1.0,0.0,0.0,0.0,0.0,0.0,0.0,-2.5656533,0.036836237,-0.9762245,-0.6627798,-0.17738342,-2.1510482,-3.6047578,-0.3630519,0.4489839,0.7493004
14.72677,47.764774,12.208593,3.4172335,-0.69155335,-0.5674178,0.32435185,-0.7962649,0.7824182,0.4071339,0.38707945,0.62869626,0.67420995,0.06904706,1.2051928,-0.57418597,-1.6855313,-0.7879378,2.3165474,1.4308897,-0.99606586,1.2703902,-0.63846695,-1.7193267,-0.8191833,2.2627645,1.3682429,-1.0036,-1.4418198,1.395926,0.6931992,0.7359775,0.90744245,0.47884342,-0.058772378,1.8853264,-0.44073486,1.5420288,-3.032078,-0.38981676,1.5554737,0.13440323,-0.44890213,1.014097,0.81720793,-0.15351479,0.05768109,0.5525191,-0.8350505,0.8489179,0.8141304,1.0,0.0,0.0,0.0,0.0,0.0,0.0,-2.5353265,0.040734857,-0.9920288,0.42865276,-0.05297661,0.5780101,-4.114008,-0.4975319,0.51627755,1.6965419
15.859848,47.508614,12.2374115,2.6377401,-0.7218561,-0.6602566,0.38233137,-0.79529214,0.77866226,0.40807614,0.36766982,0.63486433,0.66893965,0.10297122,1.190861,-0.56060076,-1.6785191,-0.7824163,2.3262508,1.4351368,-0.9933029,1.2560354,-0.62452424,-1.7122943,-0.8121652,2.2718244,1.3730417,-1.0040292,-1.4334717,1.3937298,0.70725393,0.6903546,0.90570474,0.48116642,-0.038230978,1.8550301,-0.44462967,1.5568354,-3.0290465,-0.38942704,1.4557326,0.12634659,-0.4402771,1.0220612,0.8185588,-0.16371287,0.05715153,0.54762506,-0.7858812,0.87704325,0.7833738,1.0,0.0,0.0,0.0,0.0,0.0,0.0,-2.5050302,0.044629663,-1.0068355,0.80873966,-0.21102428,1.6266942,-4.6044827,-0.16314983,0.45791268,1.9213841
14.920062,46.05373,11.772785,3.2347875,-0.61686987,-0.7185246,0.39089054,-0.79182726,0.7741083,0.40975928,0.36124063,0.6300487,0.66324604,0.20458846,1.1768527,-0.5471134,-1.6713184,-0.77604115,2.3348293,1.4393663,-0.98357034,1.2417742,-0.6106216,-1.7051075,-0.80552953,2.2808652,1.3778578,-1.0041951,-1.423491,1.3890588,0.7231625,0.6545482,0.90358025,0.48243865,-0.009737321,1.8247643,-0.44852066,1.5706455,-3.0260181,-0.38903767,1.3560911,0.118759155,-0.43138123,1.0297306,0.8195331,-0.1737718,0.056778103,0.5430885,-0.73969823,0.90153,0.7543147,1.0,0.0,0.0,0.0,0.0,0.0,0.0,-2.4747643,0.048520654,-1.0206454,0.9854078,-0.4513502,1.7787933,-3.6148071,-0.18670559,0.34172535,2.724987
11.058579,41.52612,10.020641,5.089663,-0.3929355,-0.7920721,0.28788292,-0.7979737,0.767809,0.3854313,0.36507294,0.6195688,0.6641711,0.27580544,1.1619768,-0.53384066,-1.6665643,-0.7690222,2.342822,1.4442749,-0.97661453,1.2275645,-0.59679043,-1.6979072,-0.799118,2.289864,1.3826834,-1.0040425,-1.4200891,1.3812135,0.71931016,0.6364889,0.89846635,0.48329344,0.023214774,1.794529,-0.45240784,1.5834599,-3.0229928,-0.38864872,1.2565494,0.111572266,-0.42230225,1.0371101,0.8201972,-0.18368813,0.056581147,0.5388263,-0.7027397,0.91723096,0.72534376,1.0,0.0,0.0,0.0,0.0,0.0,0.0,-2.444529,0.05240783,-1.0334599,0.3140688,-0.7559538,-0.25217533,-1.8606424,-0.4399538,0.28339028,3.1899567
9.206931,37.154327,8.393606,5.432199,-0.32484937,-0.9412098,0.22967157,-0.79299855,0.759785,0.35991415,0.35436994,0.6069172,0.6582058,0.35168898,1.1482646,-0.5208119,-1.6619158,-0.763681,2.350556,1.448504,-0.9688736,1.213389,-0.5830642,-1.6909091,-0.7928371,2.2987752,1.3875109,-1.0035313,-1.4168377,1.3698499,0.69366217,0.62496954,0.8890874,0.48337764,0.06018203,1.7643242,-0.4562912,1.5952796,-3.0199704,-0.38826016,1.157107,0.1047287,-0.41312408,1.044182,0.8206239,-0.19342135,0.05661424,0.53475165,-0.6680051,0.9245893,0.6940925,1.0,0.0,0.0,0.0,0.0,0.0,0.0,-2.4143243,0.056291193,-1.0452795,0.30007362,-1.0982513,-2.4760008,-1.2223482,-0.8404851,0.21265745,3.6066203
8.56156,32.981606,6.8728786,4.657523,-0.38404816,-1.1304256,0.19431895,-0.7908319,0.7495054,0.33314648,0.3303552,0.5839699,0.65690786,0.3844518,1.1343058,-0.5081137,-1.6575944,-0.75980157,2.3571723,1.4532017,-0.96508616,1.1992422,-0.569481,-1.6842983,-0.78672594,2.3075337,1.3923384,-1.0026578,-1.4139851,1.3546273,0.65054363,0.60617316,0.87177694,0.48344347,0.09607629,1.7341499,-0.46017075,1.6061056,-3.016951,-0.38787198,1.0577642,0.09825134,-0.40393448,1.0509074,0.8208703,-0.20289987,0.05694501,0.5308115,-0.6303218,0.92413396,0.658458,1.0,0.0,0.0,0.0,0.0,0.0,0.0,-2.38415,0.06017074,-1.0561056,0.26512146,-1.4777422,-4.2509317,-1.9613028,-1.6267419,0.23487806,3.513734
10.540131,30.255127,6.057062,1.922864,-0.5826659,-1.3718388,0.27291536,-0.7868606,0.73581964,0.3256456,0.27422297,0.5736564,0.6469916,0.42969686,1.1205561,-0.49589905,-1.6517338,-0.7593036,2.3648994,1.4570376,-0.95968807,1.1851355,-0.55608666,-1.6780994,-0.78103155,2.3161054,1.3971621,-1.0014294,-1.4096205,1.3345337,0.6098285,0.5569531,0.8525025,0.48297223,0.13153297,1.7040062,-0.46404648,1.6159388,-3.0139349,-0.3874842,0.9585206,0.092243195,-0.39478683,1.0572265,0.8209323,-0.21201591,0.057608295,0.52706784,-0.58173746,0.91733795,0.6164402,1.0,0.0,0.0,0.0,0.0,0.0,0.0,-2.3540063,0.06404647,-1.0659387,0.43945312,-1.9635439,-4.0097713,-4.9951673,-1.853323,0.22864342,3.4788787
10.570417,26.70409,4.94981,1.0562143,-0.6469334,-1.5439736,0.26088277,-0.77548933,0.71725124,0.29288232,0.25940588,0.5246987,0.6453043,0.4742536,1.1075865,-0.48436153,-1.6488111,-0.75509095,2.3685753,1.4616926,-0.95400405,1.1711184,-0.54294217,-1.6723621,-0.77585405,2.324368,1.401982,-0.9998519,-1.3988565,1.3079121,0.56178325,0.50443566,0.81790674,0.48250508,0.1664325,1.673893,-0.4679184,1.6247804,-3.0109215,-0.3870968,0.85937625,0.086746216,-0.38575745,1.0631061,0.8208331,-0.22070488,0.058654852,0.52352846,-0.529726,0.9035204,0.57216996,1.0,0.0,0.0,0.0,0.0,0.0,0.0,-2.323893,0.06791839,-1.0747805,1.1085987,-2.6091337,-4.7839403,-5.322969,-3.3871412,0.24527907,3.4332724
10.943932,22.901932,3.470689,-0.9980936,-0.8128607,-1.8137654,0.2575474,-0.7779601,0.70571923,0.23867588,0.19217226,0.5105829,0.63986295,0.4869617,1.0933224,-0.47237024,-1.6484945,-0.7566368,2.3754263,1.4659683,-0.9511557,1.157189,-0.5300685,-1.6672523,-0.77140707,2.3322835,1.4067942,-0.9979512,-1.390914,1.2807373,0.49408662,0.42449036,0.78279334,0.48189816,0.19777186,1.6438026,-0.4717865,1.6326313,-3.0079112,-0.38670978,0.76033103,0.08182526,-0.37694168,1.0684936,0.82062095,-0.22884293,0.06015446,0.5201861,-0.46935728,0.8798532,0.5217505,1.0,0.0,0.0,0.0,0.0,0.0,0.0,-2.2938027,0.07178649,-1.0826313,0.83863735,-2.65975,-6.76893,-8.065367,-3.450203,0.26516914,3.0947833
12.55003,23.671705,3.923199,-2.305912,-0.9103709,-1.8965777,0.33636293,-0.77167195,0.690028,0.25014696,0.13310224,0.48444948,0.64152837,0.5098454,1.0800219,-0.4610657,-1.6422377,-0.7580968,2.3807285,1.470947,-0.94696665,1.1433455,-0.5174743,-1.6626441,-0.7679004,2.339829,1.4116026,-0.99575776,-1.3819262,1.2525063,0.4497341,0.32598302,0.745631,0.48151913,0.2264898,1.6137428,-0.4756508,1.6394924,-3.004904,-0.38632315,0.6613849,0.07755661,-0.36833954,1.0733782,0.8202788,-0.23637997,0.062102303,0.51711744,-0.403283,0.85599923,0.4719854,1.0,0.0,0.0,0.0,0.0,0.0,0.0,-2.263743,0.07565078,-1.0894923,0.9681225,-2.764511,-4.433483,-9.895396,-3.680861,0.28709173,2.8346152
12.62344,25.067276,4.5960016,-1.7246685,-0.82329303,-1.8722898,0.3623319,-0.7647767,0.67612374,0.24992011,0.096743874,0.46786332,0.639855,0.5314416,1.0668678,-0.4498619,-1.6376522,-0.75822604,2.3866153,1.4755881,-0.9426136,1.1296011,-0.50515664,-1.6583183,-0.76535696,2.347031,1.4164034,-0.9932954,-1.371587,1.225094,0.42705128,0.2304962,0.7115696,0.4807878,0.25280914,1.5837135,-0.47951126,1.6453649,-3.0018997,-0.38593692,0.56253767,0.07393265,-0.3599739,1.0777993,0.8197771,-0.24335136,0.06442581,0.51438797,-0.33982983,0.8341084,0.42728138,1.0,0.0,0.0,0.0,0.0,0.0,0.0,-2.2337136,0.079511255,-1.0953648,1.1141539,-2.6794672,-2.2822857,-9.576201,-3.3698916,0.22092462,2.596137
11.86614,22.4749,3.8055215,-1.8137102,-0.74959546,-1.982733,0.3382782,-0.75938886,0.65710044,0.21407259,0.038708523,0.45241362,0.63879913,0.5374313,1.0536622,-0.4394466,-1.636911,-0.7614861,2.3922725,1.4802834,-0.93955225,1.1159636,-0.49312842,-1.6542537,-0.76379293,2.3539243,1.4211966,-0.9905955,-1.360749,1.1956215,0.39922032,0.131666,0.6817209,0.47991902,0.2756552,1.5537148,-0.48336792,1.6502496,-2.9988983,-0.38555107,0.46378928,0.070926666,-0.35185242,1.0817695,0.8191353,-0.24974744,0.06708758,0.51199883,-0.27777898,0.8060113,0.38226017,1.0,0.0,0.0,0.0,0.0,0.0,0.0,-2.2037148,0.083367914,-1.1002495,1.1772394,-2.8804064,-2.827388,-9.909332,-2.9459596,0.19699335,2.256441
7.606408,21.946468,3.8438737,2.8495617,-0.26048562,-1.7798895,0.20046806,-0.7618593,0.64322495,0.20581579,0.057649955,0.44611573,0.6331314,0.5481765,1.0397776,-0.42880592,-1.6336721,-0.7580279,2.3985357,1.4845097,-0.93577784,1.1023947,-0.48138726,-1.6504333,-0.7628774,2.3605695,1.4259764,-0.98768777,-1.3554462,1.1671987,0.37602156,0.07804675,0.6594836,0.477917,0.29568306,1.5237465,-0.48722076,1.6541475,-2.9959002,-0.38516557,0.36513966,0.06838226,-0.34399414,1.0853724,0.8184103,-0.25568488,0.07000513,0.50983244,-0.23722099,0.7808378,0.34865215,1.0,0.0,0.0,0.0,0.0,0.0,0.0,-2.1737466,0.08722076,-1.1041474,0.57127476,-2.7710915,-2.3731828,-5.42282,-2.1333933,0.014585257,1.9664884
4.962471,19.911688,3.2783787,5.360348,-0.004591584,-1.7227042,0.094800934,-0.7531453,0.62546474,0.17457649,0.04848241,0.41848484,0.632699,0.56372803,1.0270802,-0.41884077,-1.6329757,-0.75802916,2.402418,1.4892462,-0.93131495,1.0888907,-0.46993744,-1.6469257,-0.7622842,2.3669782,1.4307333,-0.9845931,-1.3486364,1.1378328,0.34228995,0.052740227,0.63510984,0.47566515,0.31386736,1.4938087,-0.4910698,1.6570598,-2.992905,-0.3847805,0.26658866,0.06617737,-0.33638382,1.0886772,0.8176651,-0.26126146,0.07313419,0.5077575,-0.20816103,0.7548936,0.32040754,1.0,0.0,0.0,0.0,0.0,0.0,0.0,-2.1438088,0.09106979,-1.1070597,0.7015705,-2.8626204,-3.442067,-2.6156194,-2.320969,-0.04298091,1.7775118
2.823009,12.766707,1.111745,5.4781175,0.1422602,-1.8788325,0.012636077,-0.7473431,0.592403,0.12388786,0.015680086,0.3858506,0.63165146,0.5711263,1.0141563,-0.41069713,-1.6345369,-0.7607162,2.405563,1.4938985,-0.92748046,1.0754648,-0.45886052,-1.6439273,-0.76192945,2.373097,1.4354693,-0.98133343,-1.3404835,1.0978569,0.28522217,0.029436052,0.60456735,0.47353292,0.32985625,1.4639015,-0.494915,1.6589872,-2.9899125,-0.38439578,0.16813618,0.06422424,-0.32912827,1.0916712,0.81697965,-0.2664476,0.076488264,0.5056674,-0.18388005,0.7167481,0.28861123,1.0,0.0,0.0,0.0,0.0,0.0,0.0,-2.1139016,0.094915,-1.1089871,0.8476496,-3.922844,-5.7962236,-2.4349227,-2.944088,-0.028288364,1.5570402
0.44148302,5.5429344,-1.1989691,5.6693444,0.26142102,-2.0423985,-0.0861523,-0.7436619,0.56211656,0.057026044,4.5262568e-05,0.3472997,0.62828374,0.5817817,1.0010986,-0.40264887,-1.6382247,-0.7619249,2.407827,1.4982977,-0.92315525,1.062121,-0.44824898,-1.641732,-0.7617969,2.3788457,1.4401842,-0.97792596,-1.3321941,1.0491369,0.19716899,0.0074599427,0.56513155,0.47138295,0.3442653,1.4340248,-0.4987564,1.6599308,-2.9869232,-0.38401148,0.06978212,0.06247711,-0.3223381,1.0943195,0.8164559,-0.27116597,0.08011726,0.5034381,-0.16424125,0.6661789,0.25342816,1.0,0.0,0.0,0.0,0.0,0.0,0.0,-2.084025,0.0987564,-1.1099308,0.8716345,-4.798293,-8.909869,-2.3204784,-3.8437366,-0.031411648,1.3967752
-2.0946093,-4.027653,-3.571406,6.229555,0.58890384,-2.1524537,-0.14499721,-0.7261642,0.50224596,0.024339754,0.0033730054,0.2882505,0.6345337,0.59576935,0.98950464,-0.39802438,-1.639298,-0.7614596,2.4076707,1.5036376,-0.918349,1.0489241,-0.4383074,-1.6404407,-0.7618064,2.3840833,1.444884,-0.9743821,-1.3152868,0.97603804,0.10605052,-0.0041929665,0.51016176,0.47014368,0.35767677,1.4041786,-0.502594,1.6598917,-2.983937,-0.38362753,-0.028473593,0.060848236,-0.3161583,1.0965923,0.8161564,-0.27538645,0.083991796,0.5009953,-0.15535147,0.60156935,0.21552648,1.0,0.0,0.0,0.0,0.0,0.0,0.0,-2.0541787,0.10259399,-1.1098917,1.7750263,-7.2369933,-9.263555,-1.2983804,-5.4014683,0.057446957,1.2878954
-2.432952,-8.605989,-4.3488874,5.4979625,0.81869596,-2.2302902,-0.07950728,-0.72519386,0.4516222,0.022357324,-0.039466485,0.29217744,0.63826376,0.594157,0.9764047,-0.39314517,-1.6382049,-0.7657531,2.413301,1.5087103,-0.9149664,1.0358797,-0.4292127,-1.639857,-0.7620744,2.3888593,1.449576,-0.97072,-1.3003787,0.8875344,0.041772828,-0.034650236,0.466878,0.46949053,0.3688964,1.374363,-0.50642776,1.6588708,-2.9809537,-0.38324398,-0.12663108,0.059280396,-0.31069565,1.0984637,0.81605697,-0.27907994,0.08796997,0.49842405,-0.1511318,0.52885824,0.17506912,1.0,0.0,0.0,0.0,0.0,0.0,0.0,-2.024363,0.10642776,-1.1088707,1.6013384,-8.782673,-6.5829425,-3.1595423,-4.258573,0.106459856,1.0712862
-3.580393,-13.271401,-5.5890446,5.404964,0.8435854,-2.3076296,-0.10796334,-0.7116682,0.39586985,-0.029783,-0.05143571,0.18621826,0.63906896,0.5992814,0.9647129,-0.3896257,-1.6428354,-0.767218,2.4074812,1.5134829,-0.9107919,1.0230128,-0.4210888,-1.6399257,-0.76266474,2.3929906,1.4542624,-0.9669568,-1.281868,0.7875656,-0.023587959,-0.06747374,0.3953397,0.46900386,0.3786644,1.3445778,-0.5102577,1.656869,-2.9779732,-0.3828608,-0.22469042,0.057743073,-0.30599594,1.099913,0.8161774,-0.2822133,0.09205943,0.49571678,-0.14895205,0.45013118,0.13279735,1.0,0.0,0.0,0.0,0.0,0.0,0.0,-1.9945778,0.110257715,-1.106869,1.9901991,-9.93594,-6.705419,-3.3822985,-7.1029243,0.1085341,0.9197831
-4.8023133,-24.058723,-8.431933,3.44129,0.9964015,-2.5680103,-0.10521396,-0.69088566,0.3062891,-0.07759133,-0.10067277,0.122836754,0.6420969,0.5842983,0.9539242,-0.3904599,-1.6476848,-0.772732,2.4052742,1.5184721,-0.90852696,1.0103899,-0.41416228,-1.6406887,-0.7637443,2.3963132,1.4589468,-0.9631192,-1.2549636,0.6611743,-0.09445801,-0.12173722,0.31094715,0.46882948,0.3852543,1.3148232,-0.51408386,1.6538874,-2.9749959,-0.38247803,-0.32265174,0.05622101,-0.30222702,1.1008682,0.8165588,-0.28467315,0.096239924,0.49288002,-0.1493536,0.35114184,0.081529714,1.0,0.0,0.0,0.0,0.0,0.0,0.0,-1.9648231,0.11408386,-1.1038873,2.9037237,-12.585581,-7.2963824,-5.4977474,-8.431798,0.12811422,0.5984068
-3.9035983,-41.175602,-12.568279,-3.3826358,0.8430294,-3.067837,0.07722537,-0.67411023,0.16219383,-0.03831181,-0.24385738,-0.08300049,0.6438135,0.57875097,0.9429789,-0.3979429,-1.6445198,-0.78813004,2.3880131,1.5233282,-0.9052441,0.99807453,-0.40892136,-1.6418064,-0.76595014,2.3983006,1.4636313,-0.9592311,-1.2224672,0.47855484,-0.1183354,-0.25349355,0.16134012,0.46876246,0.38969743,1.285099,-0.5179062,1.6499268,-2.9720216,-0.38209563,-0.4205151,0.054786682,-0.29970932,1.1011312,0.8171898,-0.28618118,0.10050939,0.49010107,-0.13795768,0.2182825,0.006829626,1.0,0.0,0.0,0.0,0.0,0.0,0.0,-1.935099,0.11790618,-1.0999267,3.5940647,-18.223154,-2.6362062,-13.175789,-15.047214,0.12195706,0.3648579
-7.4202347,-81.35288,-22.120296,-11.550046,1.452776,-3.8224812,0.2590599,-0.64888847,-0.107797645,0.063604005,-0.41255724,-0.355174,0.6454164,0.54664296,0.9331857,-0.41970113,-1.635446,-0.80720586,2.3627832,1.528173,-0.90456676,0.9861479,-0.40646088,-1.6425025,-0.770132,2.3981366,1.4683081,-0.95533437,-1.1810921,0.1684521,-0.054070104,-0.4729086,-0.07604712,0.46728924,0.38900504,1.2553978,-0.5217247,1.6449884,-2.9690502,-0.3817136,-0.5182806,0.053401947,-0.299057,1.1003543,0.8180553,-0.286331,0.10465218,0.48769653,-0.13747056,0.014734751,-0.106472045,1.0,0.0,0.0,0.0,0.0,0.0,0.0,-1.9053978,0.121724695,-1.0949883,4.647088,-31.036207,6.1934776,-21.876877,-23.981863,-0.18177629,-0.23624301
-17.81697,-121.82885,-30.574635,-8.837034,3.553653,-3.8842735,0.2421242,-0.6117051,-0.42326307,0.23626672,-0.42463344,-0.49125993,0.659417,0.5009703,0.92497736,-0.44878718,-1.6188759,-0.81259537,2.3490107,1.5342498,-0.9052373,0.9747286,-0.4081446,-1.6416442,-0.77626985,2.3954701,1.4729601,-0.95149106,-1.1271806,-0.2811965,0.13219927,-0.6604603,-0.33148426,0.4632393,0.38193265,1.2257271,-0.5255394,1.639073,-2.9660816,-0.38133198,-0.61594844,0.051509857,-0.30081177,1.0983372,0.81910294,-0.28510585,0.1079418,0.48593557,-0.20536907,-0.24040675,-0.23380852,1.0,0.0,0.0,0.0,0.0,0.0,0.0,-1.875727,0.12553939,-1.089073,5.905056,-45.129078,18.564117,-18.692911,-25.887438,-0.8429289,-0.98254085
-16.223038,-122.36898,-28.66191,-7.179088,4.3658795,-3.548091,0.4417657,-0.49099535,-0.6398836,0.38211852,-0.46919188,-0.5448692,0.6693174,0.47485164,0.925629,-0.47213295,-1.6034324,-0.823189,2.3409832,1.5398918,-0.9040059,0.96430016,-0.4146148,-1.6383388,-0.78397554,2.3905416,1.4775625,-0.9477374,-1.0137215,-0.769813,0.39716604,-0.8072737,-0.5478879,0.45654392,0.3722762,1.1960869,-0.5293503,1.6321818,-2.963116,-0.38095072,-0.7135186,0.048789978,-0.30507278,1.0950898,0.82010525,-0.28279686,0.10966215,0.4852085,-0.29598042,-0.48657277,-0.3553319,1.0,0.0,0.0,0.0,0.0,0.0,0.0,-1.8460869,0.12935027,-1.0821817,11.629462,-49.11672,26.668571,-14.67799,-21.958668,-1.4880419,-1.2256622
1.9135334,-76.61583,-15.256089,-10.029279,3.0399976,-3.056212,0.8178392,-0.23926929,-0.7325801,0.4281729,-0.51345825,-0.5735211,0.64770854,0.3502406,0.94037324,-0.4878728,-1.5955216,-0.83532137,2.3331895,1.5423334,-0.91271335,0.95602226,-0.42531645,-1.6325576,-0.79285234,2.3838964,1.482081,-0.9441621,-0.766935,-1.1710497,0.64024365,-0.91520965,-0.7039828,0.44749042,0.35206625,1.1664772,-0.53315735,1.6243155,-2.9601536,-0.38056985,-0.8109912,0.045578003,-0.31129456,1.0908084,0.82068354,-0.27982023,0.10956339,0.48597848,-0.3326559,-0.6640145,-0.45328712,1.0,0.0,0.0,0.0,0.0,0.0,0.0,-1.8164772,0.13315734,-1.0743155,24.336838,-40.35373,24.860203,-10.983443,-15.753102,-1.7838955,-2.1631896
24.558546,-11.879431,2.0871723,-12.514583,0.70636356,-2.5030863,1.051702,0.05664429,-0.74899536,0.37459984,-0.48996866,-0.6195388,0.6579568,0.20782284,0.9616867,-0.500216,-1.5950977,-0.8418492,2.3219426,1.5478767,-0.9233798,0.9513025,-0.43884575,-1.6252201,-0.8022985,2.3760343,1.4865385,-0.94088143,-0.37733588,-1.4140276,0.76845634,-0.955787,-0.8133291,0.44325703,0.3200455,1.136898,-0.5369606,1.6154752,-2.957194,-0.38018936,-0.9083664,0.042621613,-0.31860352,1.0858259,0.8205046,-0.27665126,0.10794725,0.48845005,-0.2848376,-0.7486107,-0.5147539,1.0,0.0,0.0,0.0,0.0,0.0,0.0,-1.786898,0.1369606,-1.0654752,37.872833,-24.430704,13.807737,-4.46856,-10.890436,-0.9957969,-3.2203197
27.16502,18.132929,7.309897,-8.038463,-0.33009386,-2.263369,0.6157693,0.1671986,-0.7772732,0.18692404,-0.4511835,-0.57436025,0.648671,0.042341508,0.9680224,-0.5165731,-1.6065277,-0.8474168,2.3185983,1.5514057,-0.9366473,0.9504261,-0.45382464,-1.6181209,-0.8116588,2.3675694,1.4909674,-0.93802613,0.0048727063,-1.5261638,0.69425076,-0.9306543,-0.85749775,0.4418243,0.27410132,1.1073494,-0.54076004,1.6056619,-2.9542375,-0.37980923,-1.0056442,0.040325165,-0.3264656,1.0804125,0.8197259,-0.2734735,0.105399646,0.49208996,-0.21176918,-0.7927462,-0.5523924,1.0,0.0,0.0,0.0,0.0,0.0,0.0,-1.7573494,0.14076003,-1.0556619,37.013058,-11.306858,-6.275499,2.1499634,-4.462695,-0.46186447,-4.5897126
24.103378,26.486502,5.574215,-6.7185397,-1.0816308,-2.5194135,0.1494204,0.2614094,-0.78669566,-0.05948686,-0.4897525,-0.5189461,0.6449086,-0.03436044,0.97656703,-0.5324942,-1.6240696,-0.860634,2.3156748,1.5554583,-0.94146216,0.9528856,-0.46922696,-1.6133277,-0.8207931,2.359078,1.4953886,-0.935661,0.32273453,-1.5452329,0.4116928,-0.9085632,-0.84685403,0.44150534,0.22379135,1.0778313,-0.54455566,1.5948765,-2.9512837,-0.37942952,-1.1028248,0.038864136,-0.3347702,1.0746248,0.818786,-0.2700271,0.10259568,0.4961338,-0.12338937,-0.83766073,-0.59036696,1.0,0.0,0.0,0.0,0.0,0.0,0.0,-1.7278312,0.14455566,-1.0448766,30.7105,-2.0021677,-27.095842,1.9595981,0.8796811,-0.2873659,-5.102095
22.170357,26.403635,2.8642726,-7.4874682,-1.5144775,-2.8279953,-0.09771451,0.40295646,-0.7964703,-0.2729506,-0.5099084,-0.4874292,0.6562875,-0.056691103,0.9931813,-0.54887396,-1.6406229,-0.8717839,2.310335,1.5610174,-0.94133013,0.9581852,-0.48448527,-1.6122997,-0.8298206,2.3509145,1.4998175,-0.9337737,0.5959409,-1.5196993,0.0032595026,-0.90148467,-0.80702585,0.44235933,0.17654309,1.0483437,-0.5483475,1.5831201,-2.948333,-0.37905017,-1.1999081,0.03834915,-0.34360886,1.0684003,0.81803155,-0.26595846,0.10001767,0.5000868,-0.025032764,-0.89380336,-0.6366928,1.0,0.0,0.0,0.0,0.0,0.0,0.0,-1.6983436,0.14834747,-1.0331202,26.385391,2.4558306,-39.765385,0.51761866,3.7694693,-0.20739436,-4.859641
19.458685,21.281742,-0.29390526,-8.789047,-1.7333059,-3.0497472,-0.17834526,0.48678914,-0.8000334,-0.4680324,-0.56211513,-0.48354605,0.64054644,-0.0011409768,1.0068641,-0.5644886,-1.6591029,-0.8860321,2.3025599,1.5638721,-0.9338878,0.9657459,-0.49939358,-1.6156795,-0.8390779,2.3431668,1.5042387,-0.93226784,0.8071868,-1.4815053,-0.4488753,-0.93430555,-0.76455283,0.44078135,0.14134797,1.0188789,-0.55213547,1.5703936,-2.9453855,-0.37867117,-1.2968944,0.03882599,-0.353096,1.0616119,0.81766784,-0.26091817,0.097985975,0.5037258,0.077218175,-0.9628469,-0.697392,1.0,0.0,0.0,0.0,0.0,0.0,0.0,-1.6688789,0.15213546,-1.0203936,20.430422,3.729391,-44.387627,-3.407824,4.0679812,-0.54847,-3.6905587
20.071056,23.799076,0.86966443,-9.2140255,-1.8400195,-2.8644435,-0.027188413,0.570396,-0.79968065,-0.55651987,-0.6015288,-0.5080407,0.63078576,0.04426919,1.0227855,-0.5793617,-1.6713315,-0.8992308,2.2923627,1.5673172,-0.92784095,0.9750757,-0.5139552,-1.6230228,-0.84887594,2.3357053,1.5086352,-0.9310271,0.97330344,-1.4477832,-0.8278865,-0.9953075,-0.73989344,0.43789577,0.11780067,0.98944473,-0.55591965,1.5566978,-2.9424407,-0.3782926,-1.3937838,0.040325165,-0.36320114,1.0541904,0.817649,-0.25480092,0.09659246,0.50714546,0.18122806,-1.0219383,-0.7627243,1.0,0.0,0.0,0.0,0.0,0.0,0.0,-1.6394447,0.15591964,-1.0066979,16.119598,3.3180952,-37.414787,-6.2066436,2.402234,-0.7040024,-2.4842083
18.21857,26.156311,2.9371598,-6.3429937,-1.5418217,-2.385217,0.08707442,0.618401,-0.80840427,-0.6133409,-0.6134162,-0.5438253,0.62787426,0.056030653,1.0369158,-0.5947956,-1.6843569,-0.9102176,2.2813227,1.5714226,-0.92542404,0.9857073,-0.5283099,-1.6332805,-0.85927767,2.328301,1.513003,-0.92997044,1.0921495,-1.431525,-1.0909582,-1.0552772,-0.7404604,0.43521565,0.10140023,0.96004105,-0.5597,1.542034,-2.939499,-0.37791437,-1.4905764,0.042751312,-0.3737526,1.0461509,0.81782436,-0.24774632,0.095756434,0.51050526,0.27060452,-1.0627655,-0.82450604,1.0,0.0,0.0,0.0,0.0,0.0,0.0,-1.610041,0.1597,-0.992034,11.579418,1.5965462,-26.106953,-6.0616493,-0.04888773,-0.6469667,-1.7050014
17.102884,32.146236,6.408882,-2.901575,-1.1967272,-1.8176701,0.20720905,0.65324175,-0.807562,-0.6381477,-0.6314149,-0.54609805,0.62460095,0.03789319,1.0510315,-0.60906607,-1.6970953,-0.92241913,2.2736912,1.575463,-0.92618114,0.99723244,-0.5425883,-1.6452549,-0.8702201,2.320828,1.5173479,-0.92906064,1.1720537,-1.4266765,-1.2329488,-1.1074467,-0.74936813,0.4334128,0.087622955,0.9306679,-0.56347656,1.526403,-2.93656,-0.37753654,-1.5872722,0.045951843,-0.38454437,1.0375715,0.81800866,-0.24001545,0.095293626,0.5139782,0.34455097,-1.0796754,-0.876818,1.0,0.0,0.0,0.0,0.0,0.0,0.0,-1.5806679,0.16347656,-0.97640294,7.805228,0.47621727,-14.215112,-5.269432,-0.8262515,-0.47557354,-1.367721
16.239454,37.710003,9.513847,0.41663218,-0.90249807,-1.337898,0.27471408,0.6907296,-0.8096921,-0.6581576,-0.63352865,-0.5674803,0.6145478,0.024098586,1.0663054,-0.6235575,-1.7110707,-0.933573,2.26408,1.5788027,-0.92665076,1.0093932,-0.55688196,-1.6579845,-0.8815364,2.313191,1.5216757,-0.9282767,1.2303693,-1.4303023,-1.2866099,-1.1398144,-0.7680962,0.43190986,0.07555823,0.9013252,-0.5672493,1.5098057,-2.9336238,-0.3771591,-1.6838712,0.04978943,-0.3953514,1.0285548,0.8180471,-0.23188075,0.09503831,0.51768523,0.40529123,-1.0762572,-0.91819847,1.0,0.0,0.0,0.0,0.0,0.0,0.0,-1.5513252,0.16724929,-0.95980567,5.700755,-0.36096573,-5.500412,-3.2900572,-1.7753482,-0.3565848,-1.1416211
11.91167,41.385136,11.689659,6.295404,-0.33544314,-0.8111999,0.19046704,0.7010325,-0.8145458,-0.65680164,-0.58942336,-0.57791203,0.6296215,-0.01568808,1.0794965,-0.63833654,-1.7236646,-0.94047874,2.2553997,1.5846379,-0.9298455,1.021955,-0.5712548,-1.6707942,-0.892826,2.305348,1.5260073,-0.9276263,1.2645109,-1.4397467,-1.2796487,-1.1254921,-0.7894954,0.4334956,0.06184306,0.8720131,-0.5710182,1.4922432,-2.9306908,-0.376782,-1.7803736,0.054042816,-0.40600586,1.0192469,0.81788135,-0.22365308,0.09484603,0.52158755,0.44113585,-1.0557154,-0.94361883,1.0,0.0,0.0,0.0,0.0,0.0,0.0,-1.5220131,0.17101821,-0.94224316,3.3496141,-0.95419884,0.5307436,1.3985634,-2.0845532,0.077575445,-1.2757152
7.113983,41.052742,11.6375475,9.977688,0.057109296,-0.56273526,0.10482339,0.68774235,-0.81627136,-0.6776239,-0.58488286,-0.5744102,0.62763685,0.034180716,1.0907292,-0.6528819,-1.7385566,-0.95131433,2.247907,1.588771,-0.9242082,1.0346332,-0.58572775,-1.6834342,-0.90385145,2.2973332,1.5303599,-0.92706364,1.2690017,-1.4498923,-1.2592611,-1.0947661,-0.8057554,0.4355548,0.05479386,0.8427315,-0.5747833,1.4737163,-2.9277608,-0.3764053,-1.8767796,0.05852127,-0.41643524,1.00973,0.81753606,-0.21547888,0.09466576,0.5255873,0.4592232,-1.0316675,-0.9629175,1.0,0.0,0.0,0.0,0.0,0.0,0.0,-1.4927315,0.17478332,-0.92371625,0.4749775,-1.0400534,1.87397,3.0870676,-1.6558886,0.16816854,-0.6150931
4.7894444,42.355515,12.043568,11.788266,0.19907004,-0.4012441,0.081582315,0.6798172,-0.81601167,-0.6676859,-0.57925224,-0.5890792,0.6392434,0.08317265,1.1026149,-0.6673289,-1.7502029,-0.9617767,2.2384253,1.5942842,-0.91874635,1.0472159,-0.6002808,-1.6958015,-0.9145488,2.2891507,1.534741,-0.926521,1.2550384,-1.4571456,-1.2299708,-1.0612211,-0.82254994,0.4389539,0.05444018,0.81347275,-0.5785446,1.4542261,-2.9248338,-0.37602898,-1.9730892,0.06312561,-0.4266014,1.0000461,0.81703055,-0.207409,0.094512,0.5296319,0.46961638,-1.0038692,-0.9785702,1.0,0.0,0.0,0.0,0.0,0.0,0.0,-1.4634727,0.17854461,-0.9042261,-1.3168335,-0.7549286,2.75321,3.392458,-1.7527223,0.3257513,0.048434734
0.6529932,41.94956,11.755428,14.71989,0.4925403,-0.23646024,-0.00811407,0.6588021,-0.8212735,-0.65845984,-0.5369893,-0.606913,0.64323545,0.11723676,1.1130961,-0.68240815,-1.7616475,-0.9682478,2.2284594,1.5990646,-0.9147973,1.0595336,-0.61490446,-1.7078769,-0.92477983,2.2807813,1.5391585,-0.92594784,1.2243447,-1.4643229,-1.2005912,-1.0101622,-0.84227663,0.44279858,0.058569517,0.78424454,-0.5823021,1.4337735,-2.9219096,-0.37565303,-2.0693023,0.067733765,-0.43647385,0.9902425,0.8164115,-0.1994976,0.094409734,0.5336287,0.46647644,-0.975387,-0.98911387,1.0,0.0,0.0,0.0,0.0,0.0,0.0,-1.4342445,0.18230209,-0.8837735,-2.9420853,-0.76138973,2.7885914,5.178499,-2.1065235,0.40476918,0.48257634
0.041924477,41.202255,11.307327,14.436954,0.5164587,-0.26322109,-0.013386264,0.64721704,-0.82467103,-0.6598019,-0.53454286,-0.601084,0.65038294,0.12405068,1.1242553,-0.69737154,-1.7738571,-0.9782341,2.2206728,1.6041968,-0.91354275,1.0715156,-0.6295958,-1.7197349,-0.9345731,2.2722669,1.5436159,-0.9253251,1.1899029,-1.4708644,-1.1815234,-0.96883357,-0.8551424,0.44671303,0.06361849,0.75504684,-0.58605576,1.4123596,-2.9189882,-0.37527743,-2.165419,0.07230377,-0.44609833,0.98031276,0.81570894,-0.19171643,0.09436541,0.5375489,0.46280453,-0.950721,-1.0021346,1.0,0.0,0.0,0.0,0.0,0.0,0.0,-1.4050468,0.18605575,-0.8623596,-3.3013582,-0.7022619,1.7647028,4.227948,-1.4378905,0.38791895,0.57023466
-2.043501,43.035187,11.723168,16.778875,0.6696019,-0.1475983,-0.10767619,0.63727665,-0.8209594,-0.6622546,-0.46288317,-0.6318603,0.66260993,0.12383529,1.1352432,-0.71169174,-1.7859603,-0.9808614,2.209081,1.6098769,-0.9129416,1.0831752,-0.64431673,-1.7314899,-0.94373983,2.2635694,1.5481192,-0.92465657,1.1584746,-1.472714,-1.1736975,-0.8990257,-0.87540466,0.45175323,0.06806212,0.72587967,-0.5898056,1.3899852,-2.9160697,-0.37490225,-2.26144,0.07678604,-0.45546722,0.9703049,0.8149741,-0.1841119,0.0944245,0.5412983,0.4518115,-0.92404896,-1.0078996,1.0,0.0,0.0,0.0,0.0,0.0,0.0,-1.3758796,0.1898056,-0.8399852,-3.0051947,-0.24285316,0.6908417,7.0774317,-2.209866,0.54201484,0.49393922
0.41514206,42.803078,11.5312195,14.56838,0.48174185,-0.3081775,-0.061757028,0.6377981,-0.8230129,-0.6773871,-0.46565667,-0.62662244,0.64041895,0.11415598,1.146955,-0.72661805,-1.7992287,-0.9903055,2.2009072,1.612161,-0.91324097,1.0946116,-0.65904814,-1.7432945,-0.9523372,2.2547154,1.552651,-0.9239566,1.1388828,-1.4734794,-1.1828018,-0.8462611,-0.8893557,0.45347133,0.07082172,0.696743,-0.59355164,1.3666513,-2.9131541,-0.37452742,-2.357365,0.08123398,-0.46459198,0.9601972,0.8142156,-0.17662211,0.09460808,0.54489166,0.45023906,-0.90245676,-1.0190623,1.0,0.0,0.0,0.0,0.0,0.0,0.0,-1.346743,0.19355163,-0.8166513,-1.8452644,-0.13458729,-0.98872185,5.374527,-1.5637994,0.15636683,0.32213777
4.0221524,43.813316,11.837327,11.44036,0.14345717,-0.43710694,0.053704068,0.6299088,-0.81812537,-0.68517,-0.4839637,-0.63222784,0.6484483,0.16104072,1.1576025,-0.7408607,-1.8118114,-1.0007336,2.1914926,1.6174959,-0.90785253,1.1058993,-0.6737557,-1.7552536,-0.960658,2.2457433,1.5571963,-0.9231984,1.1255354,-1.4700639,-1.2006117,-0.8269322,-0.9001745,0.45472056,0.077599,0.66763306,-0.59729385,1.342359,-2.9102414,-0.37415296,-2.4531937,0.08577347,-0.47351837,0.9499196,0.8133852,-0.16911747,0.0949489,0.5484417,0.46248442,-0.88166463,-1.0378702,1.0,0.0,0.0,0.0,0.0,0.0,0.0,-1.317633,0.19729385,-0.79235893,-1.2313604,0.29273033,-1.8833876,2.0248532,-1.2263894,0.046807528,0.7203087
6.874274,42.00519,11.161161,7.4103403,-0.17129344,-0.5974362,0.1827341,0.6063724,-0.8202359,-0.6925562,-0.54365,-0.615389,0.6326434,0.15077145,1.1665366,-0.75577927,-1.8245091,-1.015023,2.1842043,1.6204606,-0.9081212,1.117002,-0.68843657,-1.7674148,-0.9692125,2.2367482,1.5617357,-0.922383,1.1055117,-1.4675004,-1.2218796,-0.8646222,-0.899643,0.4530394,0.08294032,0.6385498,-0.60103226,1.3171089,-2.9073317,-0.37377888,-2.5489268,0.09053421,-0.48226547,0.9393442,0.81242234,-0.16140138,0.09543985,0.5520967,0.48766583,-0.864621,-1.0711882,1.0,0.0,0.0,0.0,0.0,0.0,0.0,-1.2885498,0.20103225,-0.76710886,-1.876545,0.21762848,-2.2874355,-3.6557674,-0.06836653,-0.34110546,0.5807936
10.363112,44.88032,12.77053,5.7860317,-0.35118416,-0.5324445,0.30697304,0.61252916,-0.8207736,-0.6712116,-0.5490197,-0.62420166,0.64928013,0.21096657,1.178255,-0.77051395,-1.834536,-1.0241145,2.174328,1.6266638,-0.90128636,1.1279712,-0.7030993,-1.7796504,-0.9782428,2.2277608,1.5662695,-0.9214751,1.0943431,-1.4659606,-1.2247863,-0.91551423,-0.89896107,0.45273137,0.09370372,0.6094971,-0.60476685,1.2909023,-2.9044251,-0.3734052,-2.6445642,0.09559631,-0.49079895,0.92843133,0.8112282,-0.15343465,0.096040204,0.556006,0.5201319,-0.84096885,-1.1050068,1.0,0.0,0.0,0.0,0.0,0.0,0.0,-1.259497,0.20476684,-0.74090225,-1.0111094,0.13017654,-0.49042702,-4.992783,-0.017094612,-0.21481514,1.1472434
4.5595756,45.097813,12.53361,9.446045,0.03774917,-0.27101278,0.18564416,0.57044005,-0.81965363,-0.67374855,-0.5268035,-0.6368201,0.65773326,0.21403907,1.1850152,-0.7850647,-1.8470253,-1.0309231,2.1640787,1.6320429,-0.9000712,1.1386809,-0.71774966,-1.7918727,-0.9876155,2.2187428,1.570809,-0.9204642,1.0637116,-1.4647627,-1.2220159,-0.94408774,-0.90314096,0.45385596,0.10384731,0.58047485,-0.6084976,1.2637401,-2.9015214,-0.37303185,-2.7401059,0.100860596,-0.49908066,0.9172292,0.8098287,-0.14529413,0.096742235,0.56009644,0.53488743,-0.81525385,-1.1322635,1.0,0.0,0.0,0.0,0.0,0.0,0.0,-1.2304748,0.20849761,-0.71374005,-2.9206991,0.08537769,0.09570122,-2.735746,-0.54860115,-0.021415949,1.0767057
5.0503798,46.133907,13.060144,9.177184,-0.0014987588,-0.2075685,0.20287967,0.5652145,-0.81975776,-0.67004615,-0.55968857,-0.64781576,0.6505385,0.20644824,1.1952024,-0.7997254,-1.8588773,-1.0435843,2.1539612,1.6358628,-0.8998194,1.149095,-0.7323924,-1.8040321,-0.99730295,2.2096486,1.5753542,-0.91936654,1.0344653,-1.4642223,-1.21445,-0.9765253,-0.9118428,0.45430592,0.111968994,0.55148315,-0.6122246,1.235623,-2.8986206,-0.37265888,-2.835552,0.10626984,-0.5070915,0.90575373,0.8082266,-0.13700789,0.09754669,0.5643433,0.5505276,-0.7871745,-1.1594791,1.0,0.0,0.0,0.0,0.0,0.0,0.0,-1.2014831,0.21222457,-0.685623,-2.7843475,0.023889542,0.5627632,-3.1189919,-0.99191666,-0.092726946,0.88022053
4.6781406,47.173843,13.360609,9.177939,-0.032488048,-0.13552174,0.2114403,0.5456851,-0.81475675,-0.6718467,-0.5880027,-0.66049135,0.6462306,0.23143564,1.2036636,-0.81386805,-1.8712168,-1.0561032,2.1435995,1.6399772,-0.89622295,1.1591945,-0.74700934,-1.8161266,-1.007358,2.200436,1.5799013,-0.91818017,1.0021892,-1.4609579,-1.2085868,-1.0146016,-0.9247802,0.45420507,0.12109202,0.522522,-0.6159477,1.2065523,-2.8957226,-0.37228632,-2.9309027,0.11185455,-0.51480865,0.8940032,0.806408,-0.12856707,0.09847469,0.5687525,0.565887,-0.7566868,-1.1869849,1.0,0.0,0.0,0.0,0.0,0.0,0.0,-1.172522,0.21594772,-0.65655226,-3.077674,0.29964447,0.38135052,-3.6755443,-1.417625,-0.15212297,0.97748935
-0.10821152,45.857338,12.629352,10.839366,0.25539172,0.047684938,0.16358477,0.49206054,-0.82015026,-0.6504112,-0.6162918,-0.6556329,0.65263927,0.22589284,1.2084005,-0.8290244,-1.8811677,-1.0689871,2.134873,1.6451652,-0.8955909,1.1687999,-0.76162153,-1.8280799,-1.0178407,2.1911244,1.5844504,-0.9169156,0.9471331,-1.4614115,-1.1916202,-1.0589821,-0.93394536,0.4547508,0.1284621,0.49358368,-0.61966705,1.1765288,-2.8928275,-0.37191412,-3.026158,0.11748505,-0.5222244,0.881974,0.80439514,-0.11997086,0.099492386,0.57328576,0.5683431,-0.72691095,-1.2147398,1.0,0.0,0.0,0.0,0.0,0.0,0.0,-1.1435837,0.21966705,-0.6265288,-5.3168654,-0.08006096,1.4823437,-4.2699814,-1.0714412,-0.079232454,0.8066535
-12.652223,43.473217,10.408491,15.669328,0.9102026,0.39007324,-0.012587771,0.38608706,-0.8146554,-0.6392109,-0.6446678,-0.64607114,0.6552853,0.21883146,1.2074085,-0.8430871,-1.892001,-1.0823076,2.1265173,1.6499789,-0.89503247,1.177444,-0.7762204,-1.8398273,-1.0288004,2.1817708,1.5890089,-0.91559285,0.83773756,-1.459575,-1.1697752,-1.1075851,-0.93691367,0.45585665,0.1336607,0.4646759,-0.62338257,1.1455535,-2.8899353,-0.37154227,-3.1213183,0.122924805,-0.52937317,0.86968,0.80229944,-0.111218385,0.10057324,0.5777811,0.5405663,-0.7008817,-1.240619,1.0,0.0,0.0,0.0,0.0,0.0,0.0,-1.1146759,0.22338256,-0.59555346,-10.662985,0.12471676,1.9848585,-4.6277046,-0.54576397,0.008559227,0.5692631
-47.881214,30.427496,1.2926807,27.58427,2.6225204,1.0179108,-0.5127863,0.12406727,-0.81932473,-0.64882135,-0.6934671,-0.6353353,0.6329177,0.1976071,1.1898507,-0.85815287,-1.9047095,-1.098147,2.1182373,1.6523007,-0.8958321,1.1839061,-0.79082876,-1.8514335,-1.0403532,2.1724248,1.5935618,-0.91424626,0.58413345,-1.4617821,-1.1579323,-1.1696225,-0.9356372,0.45474023,0.13488725,0.43579865,-0.6270981,1.1136272,-2.8870459,-0.3711708,-3.2163835,0.12749863,-0.536438,0.8570757,0.80047685,-0.10218615,0.101738505,0.5817595,0.43415058,-0.6977194,-1.2730016,1.0,0.0,0.0,0.0,0.0,0.0,0.0,-1.0857986,0.22709808,-0.5636272,-24.857594,-0.37527084,1.0788202,-5.7620764,-0.40427446,-0.21011233,0.096434355
-95.7145,15.381197,-10.347086,43.654243,4.9742303,1.9109929,-1.1180191,-0.24069043,-0.8194832,-0.6432624,-0.7565929,-0.59401655,0.5909201,0.25969735,1.159837,-0.8727771,-1.9157598,-1.1160125,2.113023,1.6526538,-0.8882765,1.1863914,-0.8054715,-1.8629425,-1.0526804,2.1632047,1.5980669,-0.9128501,0.13918331,-1.4661932,-1.1485116,-1.2512336,-0.9208092,0.44857526,0.14101024,0.4069519,-0.63080597,1.0807511,-2.8841593,-0.3707997,-3.3113534,0.1302185,-0.5436859,0.8441041,0.79942465,-0.092689104,0.10297773,0.58457214,0.22064291,-0.7234389,-1.3109196,1.0,0.0,0.0,0.0,0.0,0.0,0.0,-1.0569519,0.23080596,-0.53075105,-43.69438,-0.75912476,0.96714497,-7.4005127,0.534606,-0.788033,0.5297214
-94.22913,28.966969,-4.1502438,45.466972,5.221999,2.4617076,-0.92259896,-0.35588217,-0.8049547,-0.49771288,-0.78220344,-0.539845,0.60554737,0.4163969,1.1508031,-0.88596696,-1.9127138,-1.1309007,2.1092203,1.6586217,-0.8712104,1.1844573,-0.82008845,-1.873719,-1.0657877,2.1542935,1.6025225,-0.91126794,-0.30167595,-1.4612538,-1.0543127,-1.3279707,-0.8840232,0.44416803,0.16421705,0.37813187,-0.63451385,1.0469259,-2.8812757,-0.37042898,-3.4062285,0.13075638,-0.5510216,0.8309564,0.79912734,-0.082935885,0.1040387,0.5862533,-0.0009065102,-0.7277575,-1.3214427,1.0,0.0,0.0,0.0,0.0,0.0,0.0,-1.0281318,0.23451385,-0.4969259,-43.314274,0.17008781,9.318519,-6.901169,2.7786732,-0.5933404,2.3986073
-71.52911,42.245136,3.919777,38.946648,4.225969,2.2816865,-0.59729326,-0.39863977,-0.80040425,-0.46622026,-0.775785,-0.56719553,0.6098094,0.45974782,1.1445934,-0.90012884,-1.920341,-1.1433662,2.097574,1.6635034,-0.86529315,1.1789489,-0.8346215,-1.8834369,-1.0794348,2.145657,1.6069456,-0.9094197,-0.63195497,-1.45149,-0.9449649,-1.3748926,-0.8590502,0.4413003,0.19229576,0.34933853,-0.6382141,1.0121527,-2.8783948,-0.37005863,-3.5010087,0.12945557,-0.55825424,0.8178223,0.79931825,-0.073193334,0.10478517,0.58715665,-0.17514302,-0.71123916,-1.3156205,1.0,0.0,0.0,0.0,0.0,0.0,0.0,-0.9993385,0.2382141,-0.46215266,-32.445396,0.73053837,10.720194,-4.0497065,1.862061,-0.39654374,2.9967337
-49.070183,38.35695,3.7460868,28.210512,2.8723218,1.3039422,-0.41046184,-0.42987674,-0.8083191,-0.6196222,-0.7846566,-0.602,0.56959105,0.4748996,1.1359612,-0.9154534,-1.9453992,-1.1579005,2.085457,1.6639048,-0.8619298,1.1711421,-0.84909827,-1.8929679,-1.0933927,2.1371083,1.6113077,-0.90730065,-0.8288066,-1.4471453,-0.95625865,-1.4007944,-0.85532427,0.43388984,0.21892849,0.3205757,-0.64191437,0.9764324,-2.875517,-0.36968863,-3.595694,0.12687302,-0.56539917,0.8045528,0.79983,-0.06328956,0.105382666,0.58750385,-0.28893843,-0.7045373,-1.3349986,1.0,0.0,0.0,0.0,0.0,0.0,0.0,-0.9705757,0.24191436,-0.42643237,-19.275618,0.23150444,-1.2567043,-2.0215988,-0.12989044,-0.9730816,2.8083026
-37.143894,35.657253,2.9940813,22.36572,2.12476,0.7293003,-0.35204118,-0.50303847,-0.806748,-0.70063174,-0.7838411,-0.6159188,0.56035566,0.4683242,1.1208383,-0.9297731,-1.963031,-1.1717769,2.0755165,1.6673433,-0.8604682,1.1619582,-0.86354643,-1.9032657,-1.1074651,2.1284986,1.6155878,-0.9049508,-0.94723547,-1.4446131,-1.054235,-1.4076779,-0.86449915,0.42514247,0.2406794,0.2918434,-0.645607,0.93975794,-2.8726418,-0.369319,-3.6913502,0.12339401,-0.57252884,0.7909478,0.80060124,-0.052981082,0.106023416,0.5873581,-0.37025744,-0.70523626,-1.3729022,1.0,0.0,0.0,0.0,0.0,0.0,0.0,-0.9418434,0.24560699,-0.38975793,-11.528969,0.06477833,-9.825587,-0.15804768,-1.3847351,-1.194793,2.2649379
-36.781197,33.675682,1.8381822,21.478275,2.1341746,0.6585144,-0.4074108,-0.60158885,-0.80945146,-0.73904496,-0.7791325,-0.59152275,0.5641557,0.409462,1.1017994,-0.94449157,-1.9771702,-1.1853784,2.0693462,1.6720034,-0.8640046,1.1517291,-0.87799746,-1.9147689,-1.1215013,2.1198506,1.6197878,-0.902456,-1.0470345,-1.4459542,-1.1820594,-1.4005181,-0.86661667,0.4169569,0.25267097,0.26314163,-0.6492996,0.9021277,-2.8697696,-0.36894977,-3.7869108,0.11912155,-0.5797043,0.77691114,0.8016511,-0.042162497,0.106726624,0.58667463,-0.45150068,-0.7102392,-1.4178076,1.0,0.0,0.0,0.0,0.0,0.0,0.0,-0.9131416,0.24929962,-0.35212767,-9.687841,-0.34365654,-12.741208,1.2683392,-0.70436,-1.2075782,1.2766391
-40.95314,35.0171,1.8650615,23.011047,2.5520625,0.8970418,-0.49573272,-0.6949381,-0.80783,-0.7665516,-0.7758428,-0.50634414,0.56052405,0.29785395,1.0822353,-0.95878047,-1.9914241,-1.1990856,2.0692163,1.6758403,-0.8726706,1.1404262,-0.89246374,-1.9274738,-1.1354192,2.1114469,1.6239077,-0.89994687,-1.1569401,-1.447605,-1.2998402,-1.3869277,-0.83330685,0.4091226,0.250699,0.23446274,-0.6529846,0.86354256,-2.8669002,-0.3685809,-3.882376,0.113918304,-0.5869293,0.76245725,0.80303854,-0.030855104,0.10730949,0.58537316,-0.5479456,-0.71445173,-1.4586533,1.0,0.0,0.0,0.0,0.0,0.0,0.0,-0.8844627,0.2529846,-0.31354254,-10.694647,-0.40636063,-11.698174,1.9484043,2.8021932,-1.2177229,-0.08183718
-40.42162,40.164234,4.4634724,23.843487,2.8124835,1.1844482,-0.5145384,-0.7479301,-0.80894136,-0.7779968,-0.7540611,-0.4282806,0.54902226,0.18679893,1.0656332,-0.97335786,-2.0052733,-1.2108253,2.0686188,1.6788099,-0.88126695,1.1280494,-0.90695006,-1.9410942,-1.1491083,2.103619,1.6279513,-0.89755315,-1.2637074,-1.4498465,-1.3825517,-1.3612342,-0.7673071,0.40145585,0.23621954,0.20581436,-0.6566696,0.8240035,-2.8640337,-0.3682124,-3.9777455,0.10770416,-0.5941467,0.7476921,0.80478495,-0.019205714,0.10751735,0.5834315,-0.6510731,-0.71107507,-1.4867023,1.0,0.0,0.0,0.0,0.0,0.0,0.0,-0.85581434,0.2566696,-0.2740035,-10.413241,-0.4647255,-8.18913,3.134632,6.111026,-1.1831582,-1.2761176
-36.7892,47.330517,8.269954,23.759844,2.8384318,1.4547309,-0.4936893,-0.791169,-0.8032791,-0.78569597,-0.73391974,-0.35784525,0.5461934,0.07302092,1.0489324,-0.987278,-2.0196638,-1.2225003,2.0678346,1.6825706,-0.89025104,1.1146827,-0.9214278,-1.9552639,-1.1624826,2.0966191,1.6319281,-0.8953883,-1.3604025,-1.4477786,-1.4281596,-1.3277467,-0.6792236,0.39517197,0.21064489,0.1771965,-0.660347,0.7835114,-2.86117,-0.36784425,-4.0730195,0.10048294,-0.6012535,0.7327599,0.8068722,-0.0074056066,0.107144564,0.58088076,-0.751794,-0.6961449,-1.4995215,1.0,0.0,0.0,0.0,0.0,0.0,0.0,-0.8271965,0.26034698,-0.23351139,-9.454727,-0.009894371,-4.4933558,3.8485289,8.395231,-0.99185705,-2.3441224
-29.148329,52.861774,12.294801,22.167639,3.0169737,1.5226383,-0.4631191,-0.8075935,-0.8048161,-0.78648347,-0.715737,-0.10183667,0.48437503,-0.15906228,1.0339233,-1.0019094,-2.0339122,-1.2340564,2.0864356,1.6803656,-0.9112945,1.1005492,-0.93588454,-1.9696529,-1.1755022,2.0911527,1.6358057,-0.8936364,-1.4304366,-1.4455321,-1.4424468,-1.2918937,-0.5036381,0.38430914,0.16443053,0.14860916,-0.66402435,0.7420673,-2.8583093,-0.36747646,-4.168198,0.092292786,-0.60819244,0.7177978,0.80929756,0.0043695383,0.105774045,0.5777804,-0.8468142,-0.6777245,-1.4990792,0.0,1.0,0.0,0.0,0.0,0.0,0.0,-0.79860914,0.26402435,-0.19206727,-6.854415,0.0518322,-1.3844728,3.9862156,17.270315,-1.397115,-4.319495
-24.532394,58.035866,15.606449,22.779556,3.6350121,1.5882761,-0.5330244,-0.81949556,-0.7982439,-0.79607016,-0.65966773,0.2845843,0.46107674,-0.34839404,1.0185996,-1.0157089,-2.04926,-1.2414689,2.119611,1.6819134,-0.9284758,1.0857735,-0.95012784,-1.9853221,-1.1887826,2.0892482,1.6380914,-0.8926736,-1.489111,-1.4213407,-1.5838058,-1.3223542,-0.11059538,0.18949348,0.08214246,0.13158417,-0.6657524,0.73636764,-1.6049447,-0.111875035,-0.069779575,0.0831604,-0.61538696,0.70249987,0.81230235,0.017295523,0.10260348,0.5738799,-0.94033074,-0.710109,-1.5359453,0.0,1.0,0.0,0.0,0.0,0.0,0.0,-0.78158414,0.2657524,-0.18636763,-3.874302,0.30434132,0.10356903,6.915021,29.735952,-2.7751863,-5.5816784
30.184664,176.0,110.0,110.0,3.8224115,12.0233345,-1.7242339,-0.7556398,0.5572125,0.711441,0.6788267,-0.33466455,0.69233066,-0.34908092,1.0102094,-0.8944066,-1.914178,-1.1208999,2.0557818,1.7073245,-0.9275817,1.0741634,-0.9668896,-1.9921905,-1.1875123,2.077396,1.6474909,-0.8911468,-1.0378387,-1.6762146,-0.52733254,0.57583857,-1.4169474,1.2512306,0.21245237,0.115543365,-0.6668701,0.7349259,-1.60334,-0.11176319,-0.16896097,0.07298279,-0.62057877,0.69191694,0.81557834,0.019833673,0.10250516,0.5691496,-1.0494555,-0.43856385,-0.9040669,0.0,1.0,0.0,0.0,0.0,0.0,0.0,-0.76554334,0.2668701,-0.18492591,49.206448,0.00011920929,63.801563,179.54524,-92.70879,124.531975,23.903229
-26.124037,176.0,75.75378,87.683075,6.603421,5.7850647,-1.9435399,-0.78125244,-0.67819226,0.15950127,0.72701037,-0.5043442,0.63375074,-0.41733214,0.9960382,-1.0347089,-1.9762404,-1.1148112,2.0269616,1.710866,-0.93288,1.0639114,-0.9836514,-1.9916373,-1.1746377,2.0612636,1.6599878,-0.8896295,-1.0195794,-1.6762155,0.2509839,1.5253505,-1.68171,1.2543908,0.13434094,0.09952545,-0.667984,0.73249316,-1.601737,-0.11165144,-0.26804322,0.061424255,-0.6243744,0.68627405,0.81982917,0.014820424,0.10406524,0.5628773,-1.1912796,-0.3478869,-0.45494884,1.0,0.0,0.0,0.0,0.0,0.0,0.0,-0.7495254,0.267984,-0.18249315,2.2559881,-0.00019073486,78.23722,95.22054,-27.305866,1.891756,-6.9560976
-44.430725,138.1742,40.57223,58.482094,4.6346827,2.9265013,-1.6242152,-0.76524705,-0.5807155,-0.22550523,0.6481931,-0.5314175,0.6474297,-0.26592743,0.9873867,-1.0417229,-2.0141878,-1.1098183,2.0081217,1.7247307,-0.9162222,1.0531998,-0.99875,-1.9883834,-1.1566514,2.0453143,1.672067,-0.8886291,-1.0867056,-1.455244,0.35023305,1.8916392,-1.5679607,1.1949607,0.089190945,0.0835228,-0.6690979,0.7290703,-1.6001357,-0.11153982,-0.36702642,0.04862213,-0.6275406,0.6833949,0.8251419,0.0073353066,0.106243156,0.55479664,-1.3114954,-0.29817763,-0.23876743,1.0,0.0,0.0,0.0,0.0,0.0,0.0,-0.7335228,0.2690979,-0.1790703,-6.233144,21.817589,9.909797,37.201046,10.798717,-5.183673,-4.316774
-25.863628,126.60842,38.705326,35.10234,2.7357583,2.2794762,-0.6368967,-0.7565071,-0.58087784,0.25309938,0.7334245,-0.5786341,0.6091733,-0.23321411,0.9775491,-1.0568378,-1.9630735,-1.0833089,1.987451,1.7329844,-0.91195047,1.0414886,-1.0116397,-1.9838401,-1.1376656,2.0312533,1.683185,-0.88806164,-1.1985724,-1.2344927,0.48916113,1.9016675,-1.3544309,1.0855486,0.04600047,0.0675354,-0.6702118,0.72465837,-1.5985359,-0.1114283,-0.46591064,0.035110474,-0.6300087,0.6821505,0.83095616,-0.0008019056,0.108413786,0.5456716,-1.3665934,-0.22124839,-0.0937613,0.0,1.0,0.0,0.0,0.0,0.0,0.0,-0.7175354,0.2702118,-0.17465836,-10.973883,21.783829,13.90835,1.239109,20.655918,-10.456967,-4.2866178
-13.877985,92.71941,25.55267,15.662686,1.0950907,1.0986804,-0.077394165,-0.7560876,-0.57333905,0.20985636,0.7060798,-0.5545759,0.6301132,-0.24331158,0.9658799,-1.0689737,-1.9628545,-1.0670576,1.9757957,1.7461963,-0.9123928,1.0287704,-1.0227176,-1.9788219,-1.1200608,2.0193782,1.6932596,-0.8878852,-1.2962542,-1.0662005,0.5056799,1.7137295,-1.1333171,0.9826425,0.007911463,0.051563263,-0.6713257,0.7192554,-1.5969377,-0.1113169,-0.5650897,0.021396637,-0.63183594,0.6815556,0.83682954,-0.008552813,0.11022018,0.5361852,-1.3765392,-0.1606466,-0.05489156,0.0,1.0,0.0,0.0,0.0,0.0,0.0,-0.70156324,0.27132568,-0.16925538,-9.772015,16.642046,1.5828311,-18.753887,21.72401,-9.949505,-3.8976371
-4.354327,70.38867,18.492874,6.371337,0.29018226,0.3864609,0.18654206,-0.75817466,-0.55651265,0.21497671,0.7044249,-0.5373682,0.6048073,-0.23775852,0.952953,-1.0783689,-1.9573241,-1.0496184,1.9656414,1.7537403,-0.9116611,1.0153264,-1.032604,-1.9740285,-1.1046556,2.00927,1.7021111,-0.88798374,-1.3610687,-0.96121883,0.44576678,1.469539,-0.9676555,0.81325316,-0.010736916,0.034622192,-0.6715584,0.7154199,-1.7325022,0.15627563,0.40247795,0.0078086853,-0.6332283,0.68091935,0.8425401,-0.015238441,0.11162747,0.5267194,-1.3509073,-0.13207014,-0.08099295,0.0,1.0,0.0,0.0,0.0,0.0,0.0,-0.68462217,0.27155837,-0.16541988,-6.5664053,10.659599,-9.510952,-26.403618,15.234768,-24.341536,-0.67232007
-1.1173925,115.72012,33.862568,16.396793,0.12766007,1.0307717,-0.038421944,-0.79092723,-0.23899107,0.21374728,0.7510887,-0.48722076,0.61382776,-0.3118452,0.93623364,-1.056503,-1.9526538,-1.0295467,1.9605479,1.7634939,-0.91916823,1.0013436,-1.0404375,-1.96988,-1.09106,2.0006068,1.7096623,-0.8883452,-1.4112012,-0.7249136,0.40493596,1.3227942,-0.8342022,0.7369424,-0.045150086,0.017307281,-0.66999435,0.71869427,-1.7307701,0.15611939,0.30243063,-0.0054473877,-0.634037,0.6807144,0.84811234,-0.02097457,0.113254726,0.5171448,-1.3191177,-0.054571655,-0.0047089634,0.0,1.0,0.0,0.0,0.0,0.0,0.0,-0.66730726,0.26999435,-0.16869426,-5.107999,23.421299,-3.9560437,-14.66558,12.909579,-7.2822213,-3.6284566
-0.08647919,114.230705,33.763523,18.360664,0.37216067,0.91041344,-0.11731636,-0.79344255,-0.21046363,0.2003271,0.7371833,-0.42349434,0.6046442,-0.29739735,0.92199934,-1.0614839,-1.9498472,-1.0173417,1.9582573,1.7701267,-0.9180849,0.98703736,-1.046087,-1.9661397,-1.0784181,1.9930975,1.7165688,-0.889008,-1.4373977,-0.51235265,0.36427453,1.2446988,-0.7245267,0.67588294,-0.07381972,1.5258789e-05,-0.66843414,0.72096896,-1.7290397,0.1559633,0.20248334,-0.018417358,-0.6341324,0.68130624,0.8535928,-0.026446173,0.1153465,0.5073215,-1.2909609,0.014557197,0.07727388,0.0,1.0,0.0,0.0,0.0,0.0,0.0,-0.65001523,0.26843414,-0.17096895,-2.7040958,21.060444,-3.8714528,-7.765603,10.551286,-5.853486,-3.0095437
-3.3908179,102.01112,29.038193,19.288395,0.65569675,0.67810297,-0.21094307,-0.8017055,-0.17239657,0.135093,0.73015016,-0.40598184,0.5828055,-0.2660095,0.9068668,-1.0633267,-1.9526304,-1.0054032,1.9524994,1.7748494,-0.91560894,0.972573,-1.0499704,-1.9629449,-1.0661138,1.986439,1.7229775,-0.88990444,-1.4495995,-0.3475773,0.30533078,1.2259018,-0.6474244,0.6298842,-0.09522364,-0.017261505,-0.66687775,0.7222449,-1.727311,0.15580736,0.10263601,-0.031204224,-0.63365555,0.6825868,0.85903126,-0.031724263,0.11794197,0.49714026,-1.2752725,0.06773698,0.1425702,0.0,1.0,0.0,0.0,0.0,0.0,0.0,-0.6327385,0.26687774,-0.1722449,-1.274085,16.30985,-5.708951,-1.799798,7.3807597,-4.4436812,-2.239792
-9.042469,80.31906,20.458826,18.584417,0.9128533,0.29644066,-0.31188655,-0.80708736,-0.15752338,0.051915914,0.74509126,-0.3999193,0.5851417,-0.29137942,0.89186424,-1.0657227,-1.9577533,-0.9916047,1.946447,1.7814916,-0.9190424,0.9580485,-1.0527074,-1.9606255,-1.053676,1.9803336,1.7289933,-0.8910002,-1.4534312,-0.24953333,0.20799571,1.2500379,-0.59892887,0.5923516,-0.11458441,-0.03452301,-0.66532135,0.7225231,-1.725584,0.15565158,0.0028884937,-0.043972015,-0.6328201,0.6842382,0.8644985,-0.03668631,0.12101439,0.48646888,-1.276768,0.09751883,0.17068882,0.0,1.0,0.0,0.0,0.0,0.0,0.0,-0.61547697,0.26532134,-0.17252308,-0.39570332,9.678137,-9.618288,2.5154352,4.646039,-3.6764622,-2.0020127
-11.180109,66.852554,14.929173,17.10951,0.8991511,0.01182723,-0.34151155,-0.8024519,-0.11408194,-0.04595878,0.75105333,-0.3747373,0.5879201,-0.30996338,0.8778033,-1.0641156,-1.9652214,-0.9785707,1.9428599,1.7877853,-0.92199653,0.94355106,-1.0547174,-1.9596765,-1.0409073,1.9747981,1.7345868,-0.89228827,-1.4484478,-0.18514156,0.054250646,1.2848984,-0.53324753,0.5454805,-0.13385715,-0.05096817,-0.6628647,0.72359914,-1.5929161,0.3021681,0.22096524,-0.056812286,-0.6318283,0.685952,0.87005323,-0.04107416,0.12447386,0.47521198,-1.2872486,0.1077107,0.16913329,0.0,1.0,0.0,0.0,0.0,0.0,0.0,-0.5990318,0.26286468,-0.17359912,0.4654169,6.278557,-14.241523,3.817463,3.1441689,-2.8063774,-1.797153
-9.760904,79.71417,19.548672,18.711123,1.0147766,0.23802781,-0.32000458,-0.8127784,0.0051875394,-0.07158722,0.74651366,-0.24741398,0.578902,-0.31530097,0.8622732,-1.0541986,-1.9668353,-0.9662559,1.9500567,1.792477,-0.92381835,0.92906666,-1.0558313,-1.960098,-1.0278437,1.9699711,1.7398663,-0.8937388,-1.4485664,-0.087257184,-0.073798954,1.3136169,-0.46670222,0.5220153,-0.14907202,-0.06705475,-0.66000366,0.7260732,-1.6143966,0.28156346,0.25711173,-0.06971741,-0.6306,0.6878316,0.87565637,-0.044980515,0.12833312,0.4633933,-1.2906197,0.13688034,0.19297054,0.0,1.0,0.0,0.0,0.0,0.0,0.0,-0.5829452,0.26000366,-0.1760732,-0.049209595,9.6364155,-12.621459,2.9183388,6.4152184,-2.4117231,-1.6229749
-7.2995806,86.135574,21.888548,18.713161,0.7720196,0.35203272,-0.2651356,-0.81003875,0.0661901,-0.12990966,0.7602448,-0.28052264,0.5888986,-0.3367708,0.84806275,-1.0492123,-1.973089,-0.95181924,1.9419188,1.7987561,-0.9274159,0.9145859,-1.0558733,-1.9617171,-1.0145152,1.9656392,1.7449256,-0.89534014,-1.4481356,0.022987662,-0.19028197,1.3392378,-0.42231387,0.49979,-0.16427311,-0.08312988,-0.6570358,0.7289358,-1.6019772,0.30589622,0.2952035,-0.08259201,-0.6290283,0.6900229,0.8812299,-0.048535377,0.13274533,0.45106184,-1.2840594,0.1738441,0.22705369,0.0,1.0,0.0,0.0,0.0,0.0,0.0,-0.5668701,0.25703582,-0.17893577,-0.028920174,10.842616,-11.370826,2.5784016,4.334402,-2.3913264,-1.664561
-9.417031,74.52616,17.5197,16.816849,0.7764914,0.21987572,-0.23152182,-0.818759,0.06712873,-0.2281037,0.7561671,-0.23180394,0.57727766,-0.33895722,0.83270997,-1.0491604,-1.9845275,-0.93889844,1.9424589,1.8026534,-0.9292359,0.90006524,-1.0550417,-1.9645969,-1.0010244,1.9617631,1.7497807,-0.89707893,-1.4535286,0.1025801,-0.31966084,1.3523145,-0.37684608,0.48021933,-0.17751426,-0.0990181,-0.65377426,0.7319728,-1.5840323,0.33376887,0.3075566,-0.09542465,-0.62714005,0.69239277,0.8867488,-0.051648844,0.13764535,0.43824947,-1.2832254,0.2026464,0.23974004,0.0,1.0,0.0,0.0,0.0,0.0,0.0,-0.5509819,0.25377426,-0.1819728,-0.60794353,7.7987714,-12.676787,1.2844801,4.297602,-2.0524263,-1.4577389
-6.9783907,72.208115,17.585918,15.547184,0.75778353,0.24605048,-0.16076666,-0.8156553,0.09312871,-0.24070361,0.76390386,-0.21986078,0.5817818,-0.35013103,0.8184997,-1.0457288,-1.9886672,-0.924634,1.939777,1.8079588,-0.932092,0.8855045,-1.0535749,-1.9685105,-0.98743737,1.9582747,1.7544656,-0.89894265,-1.4572811,0.16088864,-0.41426957,1.3606194,-0.3404711,0.4642136,-0.18979812,-0.114715576,-0.6502304,0.73512805,-1.56437,0.36191478,0.31927183,-0.10825348,-0.6249695,0.6948703,0.8921669,-0.054362837,0.14291029,0.42504057,-1.279581,0.2324243,0.25033146,0.0,1.0,0.0,0.0,0.0,0.0,0.0,-0.5352844,0.2502304,-0.18512803,-0.4620552,5.670288,-9.1255245,0.7742405,3.3375025,-1.7137408,-1.3716102
-9.173631,56.303783,11.825551,13.196131,0.7158976,0.019930422,-0.13409434,-0.8188926,0.07177335,-0.34394127,0.7651985,-0.21842255,0.571498,-0.34421417,0.8036152,-1.0463976,-2.0029047,-0.9109175,1.9364325,1.8116153,-0.9333641,0.8709018,-1.0518527,-1.9735187,-0.9737996,1.9550506,1.7590109,-0.90091026,-1.4613582,0.17558844,-0.5289172,1.3646526,-0.3170294,0.45100617,-0.19955617,-0.13026047,-0.6464615,0.7381553,-1.5509304,0.3818665,0.29912457,-0.12110138,-0.6225929,0.69722784,0.8974719,-0.056563165,0.14843938,0.41147348,-1.2832152,0.24906293,0.2310865,0.0,1.0,0.0,0.0,0.0,0.0,0.0,-0.5197395,0.24646148,-0.1881553,-0.46260357,1.3488889,-11.217528,0.35231113,2.133739,-1.399672,-1.1113584
-9.440708,50.98774,9.605561,12.2935095,0.48259097,-0.09898162,-0.093965724,-0.8158831,0.07848172,-0.42480734,0.7773407,-0.29918846,0.5634889,-0.32255885,0.7893135,-1.0440046,-2.0159996,-0.89606553,1.9251318,1.8153598,-0.93316615,0.85628486,-1.0501189,-1.979778,-0.9600883,1.951737,1.7634417,-0.9029475,-1.4620405,0.172311,-0.65770847,1.3730887,-0.3366676,0.44006905,-0.20563236,-0.14567184,-0.6425171,0.74088633,-1.5372237,0.3986348,0.26674676,-0.13396072,-0.6200943,0.6992899,0.9026358,-0.058102746,0.15432581,0.3975628,-1.2842826,0.2606637,0.19836487,0.0,1.0,0.0,0.0,0.0,0.0,0.0,-0.50432813,0.24251708,-0.19088632,-0.11162758,-0.439772,-12.649357,0.79271793,-2.147919,-1.1424005,-0.764668
-8.885918,42.5163,7.2867775,10.562224,0.4287591,-0.16940945,-0.032218806,-0.8144981,0.04037606,-0.45977524,0.778704,-0.3251737,0.5760918,-0.30089742,0.77483505,-1.0460813,-2.0257556,-0.8822179,1.9192197,1.8210509,-0.9330372,0.8416784,-1.0486617,-1.9872006,-0.9462969,1.9480889,1.767787,-0.90501803,-1.460238,0.13643432,-0.7696512,1.3809876,-0.37455228,0.43267056,-0.20804617,-0.16096497,-0.63842773,0.7431864,-1.5259439,0.41255033,0.22039154,-0.14685059,-0.6175194,0.7009195,0.9076236,-0.058933258,0.16054094,0.38337034,-1.2874007,0.26670805,0.15185432,0.0,1.0,0.0,0.0,0.0,0.0,0.0,-0.489035,0.23842773,-0.1931864,0.15296936,-3.680244,-10.979425,0.75445175,-3.9466858,-0.7785678,-0.39300025
-8.433401,36.97629,5.836471,9.379223,0.42462593,-0.22182274,0.026847515,-0.8126465,0.005893769,-0.5078707,0.78013986,-0.34444332,0.56481576,-0.2510776,0.7604137,-1.0480723,-2.0379877,-0.8682829,1.9136446,1.8242686,-0.9301258,0.8271034,-1.047729,-1.995636,-0.9324368,1.9440192,1.7720656,-0.90706855,-1.4566697,0.078697175,-0.8675887,1.3875593,-0.41800952,0.4261643,-0.20450562,-0.17615509,-0.63422775,0.74495703,-1.5161676,0.42311236,0.16505976,-0.1597786,-0.6149101,0.7020171,0.91240597,-0.05904618,0.16698383,0.36897847,-1.2928207,0.2689283,0.09663633,0.0,1.0,0.0,0.0,0.0,0.0,0.0,-0.4738449,0.23422775,-0.19495702,0.3417015,-5.8545785,-9.588135,0.6422758,-4.4916925,-0.7019162,0.21415651
-5.9390774,42.2784,7.9589343,9.483114,0.3564952,-0.13576227,0.11103012,-0.80839217,0.0015959498,-0.53256005,0.7820193,-0.3955879,0.55934054,-0.1554954,0.74626416,-1.0475694,-2.048892,-0.8542349,1.9044604,1.8279997,-0.9226181,0.8125799,-1.0473208,-2.0048606,-0.9185252,1.9394364,1.7762833,-0.90900916,-1.45108,0.027786436,-0.939781,1.3921343,-0.4721948,0.42008594,-0.19105448,-0.19120789,-0.6298981,0.74626094,-1.5011654,0.43684372,0.121415146,-0.17272568,-0.6122589,0.70263493,0.91692924,-0.058503296,0.17364849,0.35449168,-1.2915548,0.2762585,0.0510503,0.0,1.0,0.0,0.0,0.0,0.0,0.0,-0.4587921,0.22989807,-0.19626093,0.51546097,-5.190337,-6.9167256,0.4276991,-5.6523027,-0.68407655,1.1894464
-9.705268,29.147118,3.7495894,8.3013935,0.532837,-0.24025887,0.111509666,-0.8190619,-0.09152925,-0.5776334,0.78244805,-0.4124091,0.5427963,-0.14664501,0.7306737,-1.0564737,-2.062624,-0.8402804,1.8981955,1.830563,-0.9236736,0.7980562,-1.0477195,-2.0147512,-0.9045773,1.9343386,1.7804389,-0.91080886,-1.4527569,-0.062718175,-1.0047228,1.395791,-0.52250654,0.41376147,-0.17669085,-0.20618057,-0.62548447,0.74694747,-1.4949343,0.4435477,0.05361776,-0.1857605,-0.60957336,0.7026407,0.9212033,-0.057271462,0.18038045,0.339952,-1.3047687,0.2753242,-0.015239122,0.0,1.0,0.0,0.0,0.0,0.0,0.0,-0.4438194,0.22548446,-0.19694746,-0.15826225,-9.119822,-6.297946,0.4151821,-5.1715255,-0.69472194,1.3292104
-6.5519133,44.45128,8.666109,10.0791445,0.56215477,-0.045462012,0.16065416,-0.8130557,-0.05968014,-0.58890885,0.7809616,-0.4232678,0.54422075,-0.065138705,0.7167506,-1.0536875,-2.073642,-0.82648116,1.8920118,1.8348609,-0.91732275,0.78352785,-1.0487381,-2.025134,-0.89061993,1.9288245,1.7845325,-0.912416,-1.4530877,-0.115384236,-1.0484596,1.395624,-0.56198823,0.4075787,-0.15587527,-0.22101212,-0.620945,0.7471688,-1.4782606,0.45822605,0.014256702,-0.19885254,-0.6068115,0.7021802,0.9251982,-0.055455144,0.18717362,0.32542115,-1.3069643,0.28694507,-0.055521887,0.0,1.0,0.0,0.0,0.0,0.0,0.0,-0.42898786,0.22094497,-0.19716877,-0.087976456,-5.382745,-3.9934158,-0.023913383,-4.2648673,-0.73851347,1.9360721
-10.6999035,20.184017,1.190728,6.7265844,0.6273821,-0.31902373,0.17231607,-0.81773293,-0.21209732,-0.64026576,0.7814078,-0.44562167,0.52162534,-0.039567143,0.70175457,-1.0699478,-2.0891607,-0.81247914,1.8842623,1.8366951,-0.9163727,0.7689786,-1.0507847,-2.0360212,-0.87665933,1.9229378,1.7885609,-0.9138093,-1.4553722,-0.23449811,-1.1016053,1.3966529,-0.5976041,0.4009976,-0.13402252,-0.23579788,-0.6163559,0.74665046,-1.4775579,0.46011525,-0.07100875,-0.2121048,-0.60406494,0.70101416,0.92895025,-0.05295116,0.19382237,0.31093478,-1.3292781,0.2813403,-0.13603874,0.0,1.0,0.0,0.0,0.0,0.0,0.0,-0.4142021,0.21635589,-0.19665045,-0.1812458,-11.9626045,-5.193305,0.23283958,-3.6105633,-0.7323861,2.1224082
-9.653473,21.59819,1.8536019,6.528677,0.6318773,-0.2726196,0.22949143,-0.81450367,-0.24626337,-0.64714336,0.7829,-0.4666202,0.52213603,0.080047496,0.68752825,-1.0754111,-2.1007357,-0.79836935,1.8762758,1.8407744,-0.9058046,0.75442266,-1.0540196,-2.0473394,-0.86268276,1.9167191,1.7925302,-0.91491413,-1.4555221,-0.35334748,-1.1416308,1.3984321,-0.63009703,0.39521438,-0.10278054,-0.2505722,-0.61174774,0.74530303,-1.4761304,0.46221614,-0.15344508,-0.22558212,-0.6013489,0.69906455,0.9324625,-0.049752165,0.20021904,0.2965649,-1.3503752,0.2787143,-0.21393597,0.0,1.0,0.0,0.0,0.0,0.0,0.0,-0.39942777,0.21174774,-0.19530302,0.027608871,-11.944765,-3.8509607,0.32680035,-3.3550978,-0.6901443,3.0739932
-9.615933,9.374605,-1.3092523,3.9221497,0.61107934,-0.4058423,0.27699545,-0.80938685,-0.3619124,-0.6642973,0.78207076,-0.4676016,0.48883393,0.14303412,0.67348397,-1.0902108,-2.113769,-0.7844757,1.8699589,1.8414136,-0.90061074,0.73989725,-1.0587136,-2.0590124,-0.84868664,1.910257,1.7964212,-0.915678,-1.4512514,-0.5082039,-1.1754506,1.4008482,-0.6517385,0.38686708,-0.06746252,-0.26532364,-0.60712814,0.74301755,-1.4746544,0.46175402,-0.25357085,-0.23933029,-0.59872437,0.6961886,0.93575877,-0.04582974,0.20617889,0.28239208,-1.3797413,0.26841986,-0.31161115,0.0,1.0,0.0,0.0,0.0,0.0,0.0,-0.38467634,0.20712814,-0.19301754,0.51956177,-15.51314,-3.3648014,0.47886372,-2.1517992,-0.92806816,3.5517156
-7.553813,15.173508,0.63853014,4.1425467,0.5911485,-0.28738457,0.33579892,-0.8039326,-0.40705267,-0.66885704,0.7836276,-0.4786465,0.51973134,0.28150877,0.659504,-1.0994189,-2.1258981,-0.7703239,1.8623923,1.8483943,-0.88752717,0.7254405,-1.0648571,-2.0709257,-0.83466285,1.9036099,1.8002588,-0.9160147,-1.4435922,-0.64988625,-1.1962653,1.4036486,-0.6692833,0.38208348,-0.02233288,-0.2800598,-0.60251236,0.7397316,-1.4731802,0.4612924,-0.3535965,-0.25332642,-0.59615326,0.69240785,0.9388308,-0.041247625,0.21165654,0.26850864,-1.4031264,0.26483545,-0.40010107,0.0,1.0,0.0,0.0,0.0,0.0,0.0,-0.36994016,0.20251235,-0.1897316,0.83289146,-14.216101,-1.9876242,0.5140066,-1.8187046,-0.6097436,4.5367866
-7.487377,22.577316,2.4447157,5.222069,0.5669564,-0.16103333,0.34018308,-0.8075162,-0.45400405,-0.68531007,0.779878,-0.5090275,0.5017686,0.31137124,0.6446889,-1.1102575,-2.1394567,-0.75667506,1.8527071,1.8504356,-0.88487756,0.7110343,-1.0722557,-2.083026,-0.82063526,1.8967415,1.8040391,-0.91591454,-1.4394966,-0.77011806,-1.2140667,1.4032996,-0.693145,0.3762763,0.020808514,-0.29478073,-0.5979042,0.73544616,-1.4717073,0.46083117,-0.45352218,-0.26750565,-0.5935669,0.6878236,0.94166553,-0.036046065,0.21673122,0.25493976,-1.4202869,0.26869798,-0.47807354,0.0,1.0,0.0,0.0,0.0,0.0,0.0,-0.35521924,0.1979042,-0.18544614,0.45087337,-12.098646,-1.5984058,0.18651485,-2.5472045,-0.7469177,4.3222446
-8.154569,28.523739,3.8094401,6.284666,0.65679353,-0.04323733,0.34270316,-0.81245804,-0.50746745,-0.69277835,0.7730009,-0.49622846,0.4834401,0.3815154,0.6297885,-1.1230025,-2.1523037,-0.7433352,1.8471186,1.8523831,-0.877763,0.69662714,-1.0807282,-2.0952818,-0.80665433,1.8897089,1.8077586,-0.91537946,-1.4410512,-0.87319785,-1.2288188,1.3967061,-0.7071523,0.3701878,0.06415004,-0.30950165,-0.5932808,0.73036575,-1.4733877,0.4642774,-0.51099604,-0.2818489,-0.59088516,0.68252635,0.94426435,-0.03026602,0.22143516,0.2416926,-1.4350032,0.27946588,-0.5475648,0.0,1.0,0.0,0.0,0.0,0.0,0.0,-0.34049833,0.19328079,-0.18036574,-0.13298988,-10.407532,-1.1811972,-0.41906834,-1.6567945,-0.85678697,4.3631606
-6.172595,33.65354,5.4109445,6.543682,0.68008184,0.051101744,0.35316065,-0.80444425,-0.5611391,-0.6828984,0.7753468,-0.502097,0.48641357,0.4355576,0.6161827,-1.1368421,-2.1635716,-0.72911966,1.8394992,1.8563999,-0.8718237,0.68222755,-1.0901524,-2.107587,-0.7927314,1.8825709,1.8114203,-0.9144145,-1.4396242,-0.96603686,-1.2300836,1.391377,-0.71660614,0.364056,0.10738729,-0.32419205,-0.5885925,0.7247677,-1.4656025,0.4708149,-0.5744186,-0.29629135,-0.5880661,0.6766009,0.94662976,-0.023990573,0.22576241,0.22879668,-1.4440424,0.2947351,-0.60848755,0.0,1.0,0.0,0.0,0.0,0.0,0.0,-0.32580793,0.18859252,-0.17476767,0.13813972,-9.39424,0.20275116,-0.3405094,-1.2082934,-0.8508563,4.3449936
-1.8519752,42.097084,8.21819,6.821868,0.7127471,0.17813861,0.36765158,-0.79239327,-0.59465694,-0.65583575,0.77370644,-0.49742153,0.5100895,0.476476,0.60298824,-1.149618,-2.1731706,-0.71536076,1.8328288,1.8624293,-0.8667669,0.6678967,-1.1003832,-2.1197362,-0.77886283,1.8753998,1.8150424,-0.9130299,-1.4311401,-1.0423661,-1.2083367,1.3857471,-0.718585,0.36081904,0.14872636,-0.33871078,-0.5838127,0.7186371,-1.4463,0.48008457,-0.6242984,-0.31075668,-0.5850601,0.6701751,0.94876117,-0.017373925,0.22969864,0.21630706,-1.4424559,0.31513208,-0.65490806,0.0,1.0,0.0,0.0,0.0,0.0,0.0,-0.3112892,0.18381271,-0.1686371,0.789237,-7.7558756,2.6474476,-0.44555664,-0.64435005,-0.549829,4.115576
-1.8275878,44.233192,8.58775,6.9461174,0.7575141,0.21433616,0.36590558,-0.7983294,-0.6373164,-0.650805,0.75781596,-0.4877499,0.4577387,0.50627303,0.5880637,-1.1641148,-2.1848166,-0.70308125,1.8266249,1.8608162,-0.8624026,0.6536202,-1.1113256,-2.1316333,-0.7651097,1.8682597,1.8185984,-0.91125435,-1.4266988,-1.1120872,-1.1815392,1.3721188,-0.7139445,0.35301995,0.18708706,-0.35302353,-0.57894135,0.71201926,-1.4256386,0.48946732,-0.6721802,-0.32518387,-0.5818367,0.66331005,0.9506763,-0.010475526,0.23321672,0.20424154,-1.4390066,0.3374103,-0.69841766,0.0,1.0,0.0,0.0,0.0,0.0,0.0,-0.29697645,0.17894134,-0.16201925,0.37736893,-7.098675,3.181672,-1.2533426,-0.022768974,-1.0063767,3.8190036
-1.2272944,44.52666,8.399475,6.328805,0.7214196,0.1968736,0.37600315,-0.79701006,-0.673065,-0.6567303,0.73316616,-0.45474538,0.39885774,0.520701,0.5739192,-1.1786321,-2.1973064,-0.6917931,1.8227851,1.8584841,-0.85918427,0.6393761,-1.1229223,-2.1433284,-0.7515949,1.8612697,1.8220354,-0.9091288,-1.4238645,-1.1758937,-1.1639434,1.3449512,-0.6953267,0.33976156,0.22102731,-0.36713028,-0.57398224,0.7049073,-1.4048636,0.49813807,-0.7221408,-0.33957672,-0.57839584,0.65599865,0.9524034,-0.0032764396,0.23625867,0.19261056,-1.4334316,0.35900673,-0.7434532,0.0,1.0,0.0,0.0,0.0,0.0,0.0,-0.2828697,0.17398223,-0.15490729,0.2140522,-6.5037727,2.2523642,-2.616477,1.3684511,-1.5634954,3.3804445
-2.1045716,49.34079,9.135038,7.464978,0.81696784,0.2548135,0.3483444,-0.8006148,-0.68907785,-0.6500377,0.7220427,-0.43832532,0.35095638,0.547472,0.5593146,-1.19183,-2.2083323,-0.6793906,1.8174372,1.8571311,-0.85438156,0.6251282,-1.1350454,-2.1548822,-0.73837477,1.8545101,1.8253105,-0.90668535,-1.4252901,-1.2249138,-1.1508255,1.3145951,-0.6710335,0.32254484,0.25206387,-0.38101196,-0.5689354,0.69733906,-1.3812985,0.5070766,-0.76570797,-0.3538971,-0.57470703,0.6482927,0.95396066,0.0042218855,0.23882991,0.18138723,-1.426063,0.38406765,-0.7813288,0.0,1.0,0.0,0.0,0.0,0.0,0.0,-0.268988,0.16893539,-0.14733905,-0.22344589,-5.0364017,1.8515348,-2.953148,1.8773794,-1.9776881,3.0797987
0.99919796,54.916084,10.735843,7.504549,0.96569353,0.26870632,0.3399641,-0.79126865,-0.70095736,-0.635056,0.6919139,-0.3315318,0.26597166,0.5617174,0.5460013,-1.2051412,-2.2183878,-0.6691834,1.8213569,1.8519076,-0.85051364,0.61090034,-1.1475424,-2.1662877,-0.725541,1.8482864,1.8283613,-0.9039571,-1.4223452,-1.2584683,-1.1350592,1.2729917,-0.6081673,0.29844284,0.2795906,-0.3946228,-0.5638008,0.68940055,-1.3537395,0.5157389,-0.8015651,-0.36811066,-0.57077026,0.6402849,0.95538574,0.011929442,0.24082929,0.17057863,-1.4140619,0.41006467,-0.8090693,0.0,1.0,0.0,0.0,0.0,0.0,0.0,-0.25537717,0.1638008,-0.13940054,0.17867088,-3.4900427,2.1901608,-4.142332,5.662167,-2.6776075,2.7207017
2.5182378,57.070923,11.092577,7.191282,1.0032824,0.2230283,0.34018925,-0.7897486,-0.7137598,-0.64453465,0.65349627,-0.24977759,0.13534038,0.5723246,0.5319255,-1.2189183,-2.230741,-0.66019136,1.8233086,1.8418953,-0.8467247,0.5967087,-1.1602987,-2.1776164,-0.7132278,1.8428869,1.8310906,-0.90097994,-1.4184425,-1.2815573,-1.1301358,1.2173531,-0.51907456,0.26350722,0.30366316,-0.40795517,-0.5585861,0.6811073,-1.324944,0.52336025,-0.83612096,-0.3821869,-0.5665779,0.63201946,0.9567188,0.019817337,0.24214828,0.16018948,-1.3997817,0.43439454,-0.83394796,0.0,1.0,0.0,0.0,0.0,0.0,0.0,-0.2420448,0.15858611,-0.13110727,0.2616167,-2.438593,1.1180162,-5.5799007,8.266568,-3.7708402,2.371645
5.493203,61.195637,12.215955,6.873197,1.1696064,0.17572856,0.3379555,-0.78369045,-0.71011186,-0.6468389,0.5995496,-0.07805666,-0.031062352,0.58430964,0.5183397,-1.2313099,-2.2423003,-0.65327287,1.8350812,1.8279843,-0.84254897,0.582579,-1.1731695,-2.188945,-0.70162606,1.8387822,1.8333697,-0.8977834,-1.4117104,-1.289208,-1.1316909,1.1408256,-0.3763159,0.215035,0.3249043,-0.42098236,-0.55330276,0.6725031,-1.2941122,0.52996576,-0.8661607,-0.39610672,-0.5621567,0.62356365,0.9580187,0.027817339,0.2426035,0.15023278,-1.383187,0.45751363,-0.8510954,0.0,1.0,0.0,0.0,0.0,0.0,0.0,-0.22901762,0.15330276,-0.1225031,0.51863194,-0.88677406,0.50833225,-7.7325583,13.596815,-5.153051,2.0942092
7.3701506,69.29199,14.213178,8.335777,1.4007727,0.22374398,0.2871284,-0.7792353,-0.6972697,-0.6179171,0.57057077,0.010167702,-0.16786009,0.58383065,0.5046555,-1.2428964,-2.2507367,-0.644569,1.8397989,1.8165838,-0.83940035,0.5685257,-1.1859888,-2.2001748,-0.69079393,1.8362018,1.8350976,-0.8944019,-1.4037527,-1.279765,-1.117549,1.0635711,-0.22095363,0.15763266,0.34243143,-0.4336586,-0.5479584,0.6637028,-1.2574371,0.53579193,-0.882582,-0.40983963,-0.5574875,0.6150551,0.95932513,0.03579693,0.24212041,0.14068235,-1.3625342,0.4825472,-0.85229737,0.0,1.0,0.0,0.0,0.0,0.0,0.0,-0.21634138,0.14795837,-0.113702774,0.61035156,0.8223772,2.1749496,-7.868409,14.7796955,-6.0497704,1.7057121
7.4892697,69.92482,14.215481,8.473316,1.5094382,0.21334326,0.2570779,-0.7801181,-0.7007081,-0.6104197,0.5194703,0.12931776,-0.29538617,0.5751168,0.49051386,-1.2560596,-2.2612169,-0.6388469,1.8491336,1.8055589,-0.8368902,0.5545324,-1.1986974,-2.2112257,-0.68078685,1.8352604,1.8362045,-0.89087534,-1.3984522,-1.2683625,-1.0989369,0.97926444,-0.05415298,0.093950376,0.355969,-0.44596863,-0.5425682,0.6547441,-1.2215837,0.539965,-0.89875996,-0.42335892,-0.5525665,0.60655004,0.96067345,0.043670245,0.24063696,0.13150324,-1.3430802,0.5070753,-0.85153747,0.0,1.0,0.0,0.0,0.0,0.0,0.0,-0.20403135,0.1425682,-0.10474408,0.35090446,1.0296106,2.6010275,-8.578146,15.950811,-6.6616774,1.3085663
10.29262,69.56952,14.152747,7.4413843,1.2552273,0.182747,0.29069155,-0.77103007,-0.6986968,-0.5960832,0.46655798,0.14847733,-0.4243671,0.5685234,0.4774294,-1.2685671,-2.270834,-0.6341311,1.8501081,1.7937678,-0.834023,0.5406153,-1.2112955,-2.2220547,-0.67166936,1.835729,1.836636,-0.8872375,-1.3901374,-1.2573441,-1.0751611,0.88870347,0.078413844,0.025354432,0.3661438,-0.45790482,-0.5371475,0.6456178,-1.1826823,0.54237086,-0.91455984,-0.43664932,-0.54743576,0.59803075,0.9620554,0.051465232,0.23820956,0.12270678,-1.3165259,0.5258268,-0.85358447,0.0,1.0,0.0,0.0,0.0,0.0,0.0,-0.19209516,0.13714752,-0.09561777,0.652647,1.0084867,3.095293,-9.219956,12.5622015,-7.123624,0.95186234
9.565943,70.41145,14.178567,8.184081,1.3703318,0.22197151,0.24910782,-0.7715691,-0.6950692,-0.56562704,0.43068406,0.24292664,-0.49968046,0.5781011,0.46345842,-1.2808024,-2.2786174,-0.62860096,1.8600217,1.786668,-0.82942736,0.5267632,-1.2237943,-2.2325523,-0.6634085,1.8374639,1.8363938,-0.883507,-1.3841354,-1.2478585,-1.0389963,0.80473465,0.2031009,-0.041691408,0.37510148,-0.4694519,-0.531723,0.6363585,-1.1447942,0.542351,-0.9283234,-0.4496727,-0.5421181,0.58951026,0.96347386,0.059130773,0.23487177,0.11426631,-1.2917846,0.54549396,-0.85299164,0.0,1.0,0.0,0.0,0.0,0.0,0.0,-0.18054807,0.13172302,-0.08635849,0.43444633,0.86300373,4.3026447,-8.5461855,11.818579,-6.961531,0.8379817
13.746796,73.454094,15.166081,7.6262503,1.1219827,0.30670184,0.29052302,-0.76038367,-0.68196183,-0.51517034,0.3759075,0.21356805,-0.5197271,0.5674309,0.45072484,-1.2919905,-2.2840693,-0.6258178,1.8588207,1.7844211,-0.8267639,0.5130035,-1.2361673,-2.242512,-0.65601265,1.8400719,1.8355393,-0.8797076,-1.373908,-1.2339004,-0.97949916,0.7172259,0.2778977,-0.100762784,0.3812636,-0.48057175,-0.5263138,0.62702054,-1.1003252,0.53987074,-0.9343015,-0.462368,-0.53663254,0.5810204,0.9648975,0.066616915,0.23076402,0.10622081,-1.2553467,0.5607706,-0.8490496,0.0,1.0,0.0,0.0,0.0,0.0,0.0,-0.16942823,0.12631378,-0.077020526,0.8453131,1.3273716,6.6411138,-8.938515,6.8438234,-6.0934753,0.5146682
20.768196,75.64357,16.236961,5.492127,0.73567474,0.3547634,0.40843287,-0.7478419,-0.6614451,-0.4696258,0.28197634,0.22053431,-0.5454195,0.5666762,0.43821934,-1.3023118,-2.2894745,-0.627815,1.8621254,1.7809974,-0.82303995,0.49938697,-1.2483286,-2.251758,-0.64971066,1.8431934,1.8341492,-0.8758569,-1.3582132,-1.210328,-0.9039298,0.6004208,0.3217167,-0.15211064,0.38589212,-0.49119568,-0.52096176,0.617667,-1.0492088,0.5330559,-0.93429357,-0.47458267,-0.53105927,0.57257205,0.96629065,0.07390076,0.22600175,0.098712385,-1.2035544,0.5673462,-0.8448282,0.0,1.0,0.0,0.0,0.0,0.0,0.0,-0.1588043,0.120961756,-0.06766701,1.381278,2.3165941,8.213568,-11.922682,3.7846625,-5.2505136,0.32951236
17.951975,75.12203,15.453584,6.1185894,0.7425723,0.3808068,0.40268236,-0.7579147,-0.64910865,-0.45137155,0.21973051,0.2579886,-0.5867401,0.5721669,0.4235955,-1.3132395,-2.2968953,-0.6277376,1.8689923,1.7754753,-0.8186402,0.4858572,-1.2602285,-2.2603064,-0.644638,1.8466812,1.8322803,-0.87196326,-1.3517033,-1.1833986,-0.836762,0.47553593,0.35635632,-0.19891346,0.390178,-0.5013237,-0.51568604,0.60829765,-1.000816,0.5251679,-0.93657523,-0.4862976,-0.52539825,0.5641479,0.9676435,0.081004485,0.22064199,0.09176752,-1.1549703,0.5742429,-0.84321886,0.0,1.0,0.0,0.0,0.0,0.0,0.0,-0.14867628,0.11568603,-0.058297634,0.497818,2.6580334,7.261896,-12.683034,2.957803,-4.7859135,0.31965375
