Afshin1997/kuka_rl_ros2/src/catch_and_throw/input_files/idealpd/polynomial_regressor/optimizer_files/env_451_data.csv
torque0,torque1,torque2,torque3,torque4,torque5,torque6,action0,action1,action2,action3,action4,action5,action6,set_target_0,set_target_1,set_target_2,set_target_3,set_target_4,set_target_5,set_target_6,joint_pos_0,joint_pos_1,joint_pos_2,joint_pos_3,joint_pos_4,joint_pos_5,joint_pos_6,joint_vel_0,joint_vel_1,joint_vel_2,joint_vel_3,joint_vel_4,joint_vel_5,joint_vel_6,tennisball_pos_0,tennisball_pos_1,tennisball_pos_2,tennisball_lin_vel_0,tennisball_lin_vel_1,tennisball_lin_vel_2,end_effector_pos_0,end_effector_pos_1,end_effector_pos_2,end_effector_rot_0,end_effector_rot_1,end_effector_rot_2,end_effector_rot_3,end_effector_lin_vel_0,end_effector_lin_vel_1,end_effector_lin_vel_2,obs_task_0,obs_task_1,obs_task_2,obs_task_3,obs_task_4,obs_task_5,obs_task_6,to_final_target_0,to_final_target_1,to_final_target_2,joint_acc_0,joint_acc_1,joint_acc_2,joint_acc_3,joint_acc_4,joint_acc_5,joint_acc_6
0.0,0.0,0.0,0.0,0.0,0.0,0.0,0.0,0.0,0.0,0.0,0.0,0.0,0.0,1.7802359,-1.0646509,-1.8151424,-1.1170107,1.9373155,1.1170107,-0.91629785,1.7802359,-1.0646509,-1.8151424,-1.1170107,1.9373155,1.1170107,-0.91629785,0.0,0.0,0.0,0.0,0.0,0.0,0.0,2.7464828,-0.28288007,0.22982474,-2.8980494,-0.2431292,5.3776574,0.5304184,-0.4544952,0.693097,0.5745483,0.17512383,0.15255436,0.7848268,0.0,0.0,0.0,1.0,0.0,0.0,0.0,0.0,0.0,0.0,-3.396483,-0.11711994,0.3201753,0.0,0.0,0.0,0.0,0.0,0.0,0.0
0.0,0.0,0.0,0.0,0.0,0.0,0.0,0.0,0.0,0.0,0.0,0.0,0.0,0.0,1.7802359,-1.0646509,-1.8151424,-1.1170107,1.9373155,1.1170107,-0.91629785,1.7802359,-1.0646509,-1.8151424,-1.1170107,1.9373155,1.1170107,-0.91629785,0.0,0.0,0.0,0.0,0.0,0.0,0.0,2.7464828,-0.28288007,0.22982474,-2.8980494,-0.2431292,5.3776574,0.5304184,-0.4544952,0.693097,0.5745483,0.17512383,0.15255436,0.7848268,0.0,0.0,0.0,1.0,0.0,0.0,0.0,0.0,0.0,0.0,-3.396483,-0.11711994,0.3201753,0.0,0.0,0.0,0.0,0.0,0.0,0.0
0.0,0.0,0.0,0.0,0.0,0.0,0.0,0.0,0.0,0.0,0.0,0.0,0.0,0.0,1.7802359,-1.0646509,-1.8151424,-1.1170107,1.9373155,1.1170107,-0.91629785,1.7802359,-1.0646509,-1.8151424,-1.1170107,1.9373155,1.1170107,-0.91629785,0.0,0.0,0.0,0.0,0.0,0.0,0.0,2.7464828,-0.28288007,0.22982474,-2.8980494,-0.2431292,5.3776574,0.5304184,-0.4544952,0.693097,0.5745483,0.17512383,0.15255436,0.7848268,0.0,0.0,0.0,1.0,0.0,0.0,0.0,0.0,0.0,0.0,-3.396483,-0.11711994,0.3201753,0.0,0.0,0.0,0.0,0.0,0.0,0.0
-176.0,78.33066,-2.2905827,110.0,10.927492,5.157578,-3.8418922,-0.8211409,0.39939332,-0.5421983,0.7305279,0.30897427,0.64952284,-0.5821403,1.6981218,-1.0247116,-1.8693622,-1.043958,1.9682128,1.181963,-0.97451186,1.7787405,-1.062385,-1.8204544,-1.1127745,1.944035,1.1225249,-0.9192533,-0.1990787,0.30150855,-0.70761037,0.5650982,0.89499325,0.73319864,-0.39330968,2.7175217,-0.28530955,0.28282452,-2.8951519,-0.24288613,5.2740946,0.5281563,-0.45769978,0.6940199,0.57856005,0.1736076,0.15034348,0.78264004,-0.3010003,-0.4273019,0.122864604,1.0,0.0,0.0,0.0,0.0,0.0,0.0,-3.3675218,-0.11469045,0.2671755,-19.860703,29.970354,-70.56545,56.577003,89.205284,72.71972,-39.121037
-176.0,-16.084225,-41.40733,110.0,11.356863,1.8137755,-3.268347,-0.8051587,-0.09882961,-0.5386033,0.7059389,0.37283012,0.6456773,-0.6125876,1.6982247,-1.0722679,-1.8743147,-1.0421807,1.9813181,1.1870925,-0.980512,1.7768389,-1.059131,-1.8347614,-1.0999876,1.9570832,1.1362921,-0.92253107,-0.18500003,0.3319237,-1.6733295,1.5192794,1.441083,1.5851563,-0.30205077,2.688591,-0.28773665,0.33478945,-2.8922572,-0.2426433,5.170635,0.5232315,-0.46593928,0.69511896,0.58726835,0.17007194,0.1455336,0.7778248,-0.5577014,-0.954993,0.105921194,1.0,0.0,0.0,0.0,0.0,0.0,0.0,-3.338591,-0.11226335,0.21521056,2.0517588,2.6009977,-97.08047,96.24591,54.505013,83.31096,10.28508
-163.22325,106.83522,26.78347,94.19304,7.879398,6.99424,-1.8915981,-0.7724352,0.24429634,0.08618529,0.6252351,0.4517845,0.66436046,-0.5539546,1.6995953,-1.0347013,-1.8261429,-1.0374641,2.0022616,1.2027282,-0.97792655,1.7717596,-1.0553068,-1.8496044,-1.0829569,1.9713712,1.1519591,-0.92567056,-0.61566526,0.3962814,-1.4154047,1.7658868,1.4200883,1.5536972,-0.31930012,2.6596909,-0.29016137,0.38572055,-2.8893654,-0.2424007,5.0672793,0.515419,-0.47708893,0.69769406,0.5988424,0.16496202,0.13938494,0.7711985,-0.86360425,-1.1619927,0.31170365,1.0,0.0,0.0,0.0,0.0,0.0,0.0,-3.309691,-0.109838635,0.16427946,-43.08623,5.5383263,27.590107,25.076176,-3.4332514,-5.1846027,-2.1514416
-105.37624,110.649605,40.82125,60.386494,4.952963,7.26283,-0.39862454,-0.77891904,0.10811462,0.22430214,0.6423595,0.46038297,0.6379406,-0.5750708,1.6938677,-1.0444953,-1.8271742,-1.018721,2.0174096,1.2157531,-0.98317766,1.7624365,-1.0517248,-1.8588436,-1.0656325,1.984139,1.1664702,-0.92897314,-1.0387019,0.34348223,-0.75301915,1.7220862,1.2242303,1.4134939,-0.33610392,2.6308212,-0.29258347,0.4356189,-2.8864765,-0.24215835,4.964027,0.50502014,-0.48906684,0.70217896,0.6113705,0.15843081,0.13220042,0.7639691,-1.1101373,-1.1985551,0.49843398,1.0,0.0,0.0,0.0,0.0,0.0,0.0,-3.2808213,-0.10741654,0.114381105,-42.577446,-5.9244213,68.36876,-4.1471243,-21.02945,-15.112138,-2.3297548
-48.974815,122.168045,49.04784,33.346798,2.1685357,6.403143,0.35331476,-0.7985758,0.19354074,0.21985321,0.63473874,0.5253992,0.6289203,-0.57001543,1.6825789,-1.0323707,-1.8368583,-1.0021586,2.0366788,1.2293622,-0.98597467,1.7496248,-1.0484079,-1.8613594,-1.0499083,1.9949021,1.1794096,-0.93245596,-1.3631729,0.32608092,-0.07869581,1.5224019,1.0235134,1.2528722,-0.35449663,2.6019783,-0.29500318,0.4844855,-2.8835905,-0.24191624,4.8608775,0.49279022,-0.5005288,0.70831347,0.6236463,0.15066923,0.124266714,0.756916,-1.2737906,-1.1157812,0.6533524,1.0,0.0,0.0,0.0,0.0,0.0,0.0,-3.2519784,-0.10499683,0.065514505,-32.7585,-2.1900594,69.16429,-19.994091,-21.129656,-16.44497,-2.5130093
-7.164936,128.6365,49.35855,16.555485,0.004578024,4.82939,0.41106036,-0.81009144,0.31786355,0.16931137,0.6321942,0.5285197,0.61881715,-0.58522,1.6686157,-1.0166216,-1.8444282,-0.98668885,2.047754,1.2412913,-0.99097794,1.7346312,-1.0446142,-1.8588722,-1.0362746,2.00401,1.1908785,-0.93611234,-1.5458717,0.3960309,0.3618133,1.3098758,0.8716235,1.1114328,-0.37142447,2.573162,-0.2974205,0.5323214,-2.8807073,-0.24167436,4.757831,0.47953415,-0.51074696,0.7157244,0.6352548,0.14203145,0.11627977,0.7501715,-1.3546298,-0.9770968,0.76940286,1.0,0.0,0.0,0.0,0.0,0.0,0.0,-3.2231622,-0.102579504,0.017678618,-18.538809,6.6603603,45.179386,-21.376015,-15.745508,-14.125276,-2.2939563
16.790934,136.53412,47.849224,9.358131,-1.4008985,3.5093162,0.12608507,-0.82012975,0.46275905,0.10414316,0.62257326,0.5133814,0.6162598,-0.5828769,1.6526182,-0.9983383,-1.8484578,-0.9740172,2.0553482,1.2525045,-0.9944,1.7186781,-1.039369,-1.8540695,-1.0243918,2.0119903,1.2011019,-0.93991464,-1.6126027,0.56644666,0.5221558,1.1475208,0.7731052,0.99342835,-0.38486955,2.5443764,-0.29983544,0.57912755,-2.877827,-0.24143273,4.6548877,0.46591187,-0.5194316,0.72413677,0.64628136,0.13285123,0.1090698,0.74348825,-1.3754853,-0.81872165,0.86283827,1.0,0.0,0.0,0.0,0.0,0.0,0.0,-3.1943765,-0.10016456,-0.029127538,-6.9283724,16.768568,16.754639,-16.341925,-10.080898,-11.613107,-1.8679321
25.849428,128.32974,41.421276,6.075344,-1.8348733,2.2847204,-0.081975274,-0.8286111,0.5364928,0.064072154,0.5970142,0.54823107,0.6171669,-0.5790266,1.635817,-0.9857197,-1.8476622,-0.9646903,2.0668135,1.2628186,-0.9978173,1.7025934,-1.0321954,-1.8491771,-1.0137011,2.019448,1.210303,-0.9438247,-1.6080673,0.76696515,0.47985026,1.0424243,0.73646164,0.8963497,-0.3943926,2.5156212,-0.302248,0.62490505,-2.8749495,-0.24119134,4.5520473,0.45233536,-0.5266504,0.73325,0.6569225,0.12347136,0.103089914,0.7366004,-1.3606948,-0.67572945,0.9246924,1.0,0.0,0.0,0.0,0.0,0.0,0.0,-3.1656213,-0.097752005,-0.07490504,0.21774769,19.849741,-3.7595391,-10.609388,-3.7397027,-9.495937,-1.3611555
27.563755,119.877396,36.96197,6.0958595,-1.6899514,1.6584227,-0.18041624,-0.82712847,0.60644805,0.057433043,0.5853338,0.5748071,0.61323214,-0.5803096,1.6198806,-0.97155064,-1.8434339,-0.9551677,2.0769289,1.2716261,-1.0018556,1.686814,-1.0230669,-1.845351,-1.0036589,2.0268562,1.2186571,-0.947812,-1.5687356,0.96083665,0.35127455,0.9911597,0.74257356,0.8155886,-0.40132177,2.4868965,-0.30465817,0.6696549,-2.8720753,-0.24095021,4.44931,0.4389801,-0.53260255,0.7428713,0.66733336,0.114090465,0.09838484,0.7293627,-1.3334136,-0.55408114,0.97185874,1.0,0.0,0.0,0.0,0.0,0.0,0.0,-3.1368966,-0.09534183,-0.119654894,3.7266016,19.229042,-12.495607,-5.2410603,0.5859494,-7.9372764,-1.0317147
27.833235,111.10178,34.41749,6.3801603,-1.3387003,1.4420108,-0.12507582,-0.8135546,0.6549514,0.0824667,0.57529354,0.5812383,0.62123024,-0.5736388,1.6054585,-0.95757174,-1.8371043,-0.94612956,2.08498,1.2807802,-1.005176,1.6715266,-1.0122789,-1.8427188,-0.99386466,2.0344589,1.2263132,-0.9518518,-1.516037,1.1177763,0.23509139,0.97505605,0.765934,0.7491234,-0.40583953,2.4581947,-0.30706596,0.7133782,-2.869204,-0.24070932,4.3466754,0.42589188,-0.53746223,0.75291634,0.6775501,0.10473033,0.09470905,0.72179466,-1.3053464,-0.4483881,1.013163,1.0,0.0,0.0,0.0,0.0,0.0,0.0,-3.1081948,-0.09293404,-0.16337818,5.0911665,15.561199,-11.269999,-1.7532825,2.3103237,-6.5899014,-0.7663131
22.519508,99.178604,30.602554,7.744684,-0.8249066,1.3155499,-0.07630256,-0.8115667,0.689641,0.0746664,0.56872654,0.5940468,0.63611734,-0.5774441,1.5903699,-0.9433148,-1.8352522,-0.936992,2.0938635,1.289925,-1.0095962,1.6566969,-1.0002702,-1.8410041,-0.9840933,2.0423439,1.233401,-0.95593065,-1.4725549,1.228186,0.15126956,0.9773419,0.7958752,0.6953648,-0.4094343,2.4295235,-0.30947137,0.75607586,-2.8663356,-0.24046867,4.244143,0.413002,-0.54142165,0.7632956,0.68757486,0.09537562,0.091740265,0.71395236,-1.286053,-0.3630568,1.0440518,1.0,0.0,0.0,0.0,0.0,0.0,0.0,-3.0795236,-0.09052864,-0.20607585,4.191971,10.930467,-8.043861,0.065624714,2.9718757,-5.3832173,-0.6510496
15.78058,84.62354,25.564672,8.882561,-0.35857236,1.1074754,-0.05347504,-0.8057215,0.7043483,0.04684383,0.5733375,0.59724724,0.64120126,-0.57438815,1.5761248,-0.92983544,-1.8363198,-0.92675954,2.1020687,1.2975211,-1.0133694,1.6422011,-0.98752344,-1.8399475,-0.9742123,2.0504959,1.2400271,-0.9600362,-1.4424379,1.2899588,0.091592,0.9909759,0.82180524,0.6516903,-0.41178524,2.4008827,-0.31187415,0.797749,-2.86347,-0.24022825,4.1417136,0.40024567,-0.5446944,0.7738565,0.69741964,0.08605043,0.08920905,0.7058631,-1.2756801,-0.2995904,1.058148,1.0,0.0,0.0,0.0,0.0,0.0,0.0,-3.0508828,-0.088125855,-0.24774897,2.8761864,6.0922623,-5.656387,1.1795163,2.5841355,-4.3946147,-0.5056858
11.620483,75.23874,22.559717,9.11014,-0.080446064,1.0230108,0.011045506,-0.80517834,0.71823794,0.046329692,0.55966574,0.6055929,0.64364034,-0.56806356,1.5616832,-0.91569966,-1.8353145,-0.91824573,2.1110551,1.3043911,-1.0168426,1.6278883,-0.9744133,-1.8392494,-0.964254,2.058873,1.2462794,-0.9641561,-1.427993,1.3178341,0.06386811,0.99668604,0.84317386,0.6162668,-0.41292423,2.3722725,-0.31427455,0.8383986,-2.8606074,-0.23998807,4.0393863,0.3875389,-0.5474155,0.7844734,0.7070563,0.07677217,0.08690841,0.6975846,-1.271671,-0.24692845,1.0609788,1.0,0.0,0.0,0.0,0.0,0.0,0.0,-3.0222726,-0.08572546,-0.28839856,1.3101816,2.7174473,-2.4454787,0.36933422,2.127242,-3.5647392,-0.38098693
10.30421,70.31355,21.29284,8.674349,0.045191526,1.0135679,0.09730437,-0.8056277,0.7247809,0.06468517,0.5418988,0.6147277,0.64860547,-0.56771684,1.5473256,-0.90193516,-1.8327808,-0.91006416,2.1203456,1.31114,-1.0209278,1.6136309,-0.96118677,-1.8385665,-0.95435107,2.067437,1.2522284,-0.96828455,-1.4255779,1.3240479,0.071016185,0.9873539,0.86060745,0.58797807,-0.4137056,2.3436852,-0.31667256,0.8780257,-2.8577476,-0.23974814,3.937162,0.3748436,-0.5496297,0.79507434,0.71642005,0.06753165,0.08468013,0.6892105,-1.2704284,-0.19686742,1.0578166,1.0,0.0,0.0,0.0,0.0,0.0,0.0,-2.9936852,-0.08332744,-0.3280257,0.10063648,0.5598068,1.0780483,-1.1447191,1.7220497,-2.833879,-0.34962893
11.294197,68.91857,20.941286,7.7609525,-0.011813104,0.9795524,0.15761083,-0.80264264,0.7355757,0.06830427,0.52236485,0.6220316,0.6510463,-0.5663718,1.5333667,-0.8876292,-1.8317361,-0.90211457,2.12964,1.317333,-1.0249218,1.599362,-0.9479431,-1.8377006,-0.9446541,2.076146,1.257939,-0.9724187,-1.4277779,1.3243428,0.09321615,0.96305317,0.8746088,0.5654366,-0.41420692,2.3151283,-0.3190682,0.91663134,-2.8548906,-0.23950844,3.8350399,0.36218262,-0.5513251,0.8056176,0.72545475,0.058315534,0.08246677,0.68081856,-1.2666245,-0.14433843,1.0511562,1.0,0.0,0.0,0.0,0.0,0.0,0.0,-2.9651284,-0.08093181,-0.36663133,-0.36809444,-0.026869774,2.6070879,-2.6472688,1.3736725,-2.2324204,-0.32564402
12.352288,69.06856,20.94582,7.4713917,-0.05924028,0.9494394,0.18496802,-0.79893386,0.7420301,0.07569351,0.5137151,0.62932706,0.6520715,-0.5498018,1.5194687,-0.8737401,-1.8301313,-0.8932826,2.1390786,1.3231461,-1.027399,1.5850741,-0.9346956,-1.8365734,-0.9352261,2.0849807,1.263457,-0.9765443,-1.4295897,1.3246363,0.120597415,0.9353315,0.88632405,0.54739004,-0.4129369,2.286602,-0.32146144,0.9542165,-2.8520365,-0.23926897,3.7330198,0.3495674,-0.55248,0.816095,0.73412925,0.049104214,0.08025504,0.6724597,-1.2602018,-0.09007454,1.0442392,1.0,0.0,0.0,0.0,0.0,0.0,0.0,-2.936602,-0.07853857,-0.40421647,-0.32866,-0.023388863,3.128238,-2.9845476,1.1481881,-1.768446,-0.14692545
15.353947,71.191055,21.860859,6.416041,-0.19884199,0.95115954,0.2486268,-0.797634,0.7483237,0.1076185,0.48288673,0.6365811,0.6502451,-0.5496981,1.5053107,-0.8598632,-1.8258115,-0.8869374,2.1486387,1.3284814,-1.0315142,1.5707785,-0.92142045,-1.8350685,-0.9261652,2.0939224,1.2688204,-0.98065656,-1.4302406,1.3282695,0.16177525,0.8956068,0.8967884,0.53272575,-0.41165522,2.2581062,-0.3238523,0.99078226,-2.8491852,-0.23902975,3.6311018,0.3370514,-0.55303955,0.8265167,0.74239516,0.03986817,0.07804104,0.6642059,-1.2482606,-0.029131945,1.0388602,1.0,0.0,0.0,0.0,0.0,0.0,0.0,-2.9081063,-0.076147705,-0.44078225,-0.21772385,0.3112316,4.533222,-4.1795015,1.0139942,-1.4076114,-0.15112162
18.844538,70.99948,21.814548,4.321973,-0.41408277,0.8236128,0.32365048,-0.7961413,0.7517643,0.12567203,0.43410093,0.649515,0.6535338,-0.5414511,1.4911643,-0.84624404,-1.8225013,-0.88275516,2.1588738,1.3341738,-1.0348017,1.5564867,-0.9080938,-1.8331363,-0.9176594,2.1029823,1.2740599,-0.98475164,-1.4293191,1.3340124,0.20510866,0.8347658,0.90893716,0.52162546,-0.4096701,2.2296333,-0.32624078,1.0263296,-2.8463368,-0.23879077,3.529286,0.3247261,-0.5529547,0.83685005,0.7501907,0.030628521,0.07583879,0.65614355,-1.226819,0.036435235,1.028584,1.0,0.0,0.0,0.0,0.0,0.0,0.0,-2.8796334,-0.07375923,-0.47632962,-0.063323975,0.53145885,4.750857,-6.295097,1.1862755,-0.99738836,-0.077569485
19.753366,70.31739,21.330149,3.685079,-0.50231874,0.71124387,0.3403629,-0.79779845,0.7564893,0.14171731,0.40071848,0.65567225,0.65433174,-0.5347117,1.4767069,-0.8324449,-1.8189646,-0.87758756,2.1685495,1.339493,-1.0382228,1.5421988,-0.8946947,-1.830796,-0.9098221,2.1121604,1.2792078,-0.9888219,-1.4291166,1.3418434,0.24499433,0.7659811,0.9207229,0.5130891,-0.40709037,2.201191,-0.32862687,1.0608596,-2.8434913,-0.23855202,3.4275715,0.31263733,-0.55221295,0.8470598,0.7574933,0.021410383,0.07367736,0.6483185,-1.2004887,0.10158003,1.015292,1.0,0.0,0.0,0.0,0.0,0.0,0.0,-2.851191,-0.071373135,-0.51085955,-0.1303196,0.75051785,4.380503,-7.082832,1.1667609,-0.7089019,-0.0029802322
23.519772,69.29276,20.82716,1.176806,-0.77917147,0.49396303,0.3984313,-0.7912611,0.7654447,0.14969946,0.33428374,0.66720325,0.6547025,-0.5309534,1.4630727,-0.8181502,-1.815826,-0.87639374,2.1788807,1.344678,-1.0419173,1.5279433,-0.8811878,-1.8281333,-0.9028393,2.1214645,1.2842871,-0.9928655,-1.4249221,1.3536109,0.27467334,0.6750696,0.93395734,0.5069812,-0.40428796,2.172779,-0.33101058,1.0943731,-2.8406482,-0.23831351,3.325959,0.30091858,-0.5507977,0.8570844,0.76426953,0.012276698,0.07161647,0.64079034,-1.1616157,0.16906895,0.9947796,1.0,0.0,0.0,0.0,0.0,0.0,0.0,-2.8227792,-0.068989426,-0.5443731,0.27275085,1.158309,3.335905,-9.298981,1.3266802,-0.40062666,0.032633543
25.234333,69.41088,20.734932,0.4780283,-0.88855714,0.37695527,0.41772535,-0.78593844,0.77443516,0.1688009,0.29051778,0.6712166,0.6549189,-0.51603323,1.4493494,-0.80374426,-1.8112533,-0.8737875,2.1885862,1.349779,-1.0444689,1.5137526,-0.86753976,-1.8251922,-0.89679396,2.1308944,1.2893168,-0.9968719,-1.4174088,1.3685807,0.30163145,0.5803411,0.9457074,0.5024642,-0.4002261,2.144394,-0.3333919,1.1268712,-2.837808,-0.23807524,3.224448,0.28961563,-0.5487051,0.8668996,0.77050585,0.0032554604,0.069693685,0.633603,-1.1165278,0.23625751,0.97333825,1.0,0.0,0.0,0.0,0.0,0.0,0.0,-2.794394,-0.0666081,-0.5768712,0.61712265,1.4905691,3.0265987,-9.667265,1.200521,-0.21307468,0.17557144
23.45867,65.383026,19.097595,0.6850147,-0.83512795,0.21805555,0.40016332,-0.79144734,0.7704501,0.18201756,0.24239238,0.6685515,0.6588194,-0.4992871,1.4346079,-0.79049474,-1.8069905,-0.8725547,2.1977496,1.3551987,-1.0468006,1.4996039,-0.8537878,-1.822007,-0.8916975,2.1404045,1.2943121,-1.0008272,-1.4143509,1.3774514,0.32502574,0.48549473,0.9531588,0.49950632,-0.39466316,2.1160355,-0.33577085,1.1583551,-2.8349705,-0.23783721,3.1230385,0.27876282,-0.5459931,0.87646383,0.7762268,-0.0056199217,0.067930005,0.6267582,-1.0708987,0.2955327,0.94679505,1.0,0.0,0.0,0.0,0.0,0.0,0.0,-2.7660356,-0.06422916,-0.6083551,0.18372536,0.89707375,2.616042,-9.674179,0.8000016,-0.03668666,0.35155416
27.956528,64.09865,18.990356,-2.7669268,-1.1312063,0.015257508,0.5264796,-0.7924007,0.77615786,0.22164509,0.12551956,0.68005043,0.6481097,-0.50925326,1.4203638,-0.776172,-1.7998425,-0.87914556,2.2084095,1.3591231,-1.0517526,1.4854647,-0.83995664,-1.8184745,-0.88785136,2.1500022,1.2992808,-1.0047392,-1.4141191,1.385089,0.36337143,0.35046428,0.96173835,0.49693328,-0.3905256,2.0877075,-0.3381474,1.1888257,-2.832136,-0.23759942,3.0217304,0.26846695,-0.54265666,0.88570344,0.7813696,-0.014269368,0.06633152,0.6203692,-1.0111425,0.35823983,0.91208285,1.0,0.0,0.0,0.0,0.0,0.0,0.0,-2.7377076,-0.061852604,-0.6388257,-0.09505749,0.7878065,4.104251,-13.688022,0.91825724,0.07749796,0.22383332
31.819138,63.741646,19.082703,-4.9785123,-1.3496586,-0.16688675,0.60204244,-0.7810274,0.78312534,0.24422395,0.04583782,0.6819983,0.6479004,-0.491196,1.407362,-0.7616441,-1.7940521,-0.8832676,2.218202,1.3640708,-1.0538588,1.4713713,-0.82604253,-1.8145206,-0.88547766,2.1596725,1.3042303,-1.0085996,-1.4079909,1.3936162,0.4067241,0.19907562,0.9691258,0.495348,-0.3851174,2.05941,-0.34052157,1.218284,-2.8293042,-0.23736186,2.9205236,0.2588501,-0.5386789,0.89457136,0.7858762,-0.022635777,0.06492092,0.61454964,-0.93983835,0.42168072,0.8738385,1.0,0.0,0.0,0.0,0.0,0.0,0.0,-2.7094102,-0.059478432,-0.668284,0.5200386,0.89411736,4.5491753,-15.301379,0.82644224,0.22827387,0.3761351
36.55401,62.042545,18.819393,-8.777132,-1.6828828,-0.42153585,0.7325907,-0.7823485,0.7863454,0.28167766,-0.090620905,0.6871185,0.6438152,-0.47888497,1.3931365,-0.747408,-1.7863529,-0.8945398,2.2283843,1.3686118,-1.0564882,1.4573332,-0.8120483,-1.8100517,-0.88492835,2.1694152,1.3091646,-1.012401,-1.402778,1.4015609,0.4608568,0.006419758,0.9762932,0.49446797,-0.3788268,2.0311356,-0.34289336,1.2467309,-2.8264754,-0.23712455,2.819418,0.25006485,-0.53404737,0.9029873,0.7896674,-0.030619092,0.06372758,0.6094478,-0.8523605,0.48666632,0.8261851,1.0,0.0,0.0,0.0,0.0,0.0,0.0,-2.6811357,-0.057106644,-0.6967309,0.45268536,0.853467,5.579567,-19.402857,0.8236885,0.37189126,0.49843192
40.22808,60.83096,18.795023,-11.327467,-1.8880239,-0.62516177,0.83496994,-0.77481085,0.7871426,0.32754874,-0.20939729,0.6885086,0.64061403,-0.44655484,1.3798522,-0.73333406,-1.7772968,-0.90586805,2.238266,1.373226,-1.0570564,1.4433733,-0.7979921,-1.8049419,-0.8864733,2.1792228,1.3140932,-1.0161184,-1.3940239,1.4072908,0.5280376,-0.20850812,0.98238814,0.49401614,-0.36973122,2.0028915,-0.34526277,1.2741675,-2.8236494,-0.23688747,2.7184134,0.2422409,-0.5287609,0.91089034,0.79267365,-0.03814526,0.06275935,0.6052062,-0.75318134,0.55102366,0.7734738,1.0,0.0,0.0,0.0,0.0,0.0,0.0,-2.6528916,-0.05473724,-0.7241675,0.8497,0.651145,6.7979693,-21.588371,0.75695515,0.4615128,0.8181989
40.856773,60.81772,18.951841,-11.479538,-1.898092,-0.71576107,0.8636435,-0.7688334,0.7921359,0.3728132,-0.31122068,0.6904711,0.63796073,-0.40950486,1.36649,-0.7187785,-1.7676606,-0.9175954,2.24827,1.3778893,-1.057069,1.4295145,-0.78387487,-1.7990882,-0.890164,2.1890838,1.319018,-1.0197214,-1.3830309,1.4135251,0.604387,-0.42273167,0.9878114,0.49356994,-0.3574394,1.974678,-0.3476298,1.3005948,-2.8208263,-0.23665063,2.6175098,0.23542023,-0.52283907,0.9182776,0.79487926,-0.045197655,0.06200875,0.6018962,-0.65131664,0.6128414,0.72193456,1.0,0.0,0.0,0.0,0.0,0.0,0.0,-2.6246781,-0.05237022,-0.7505948,1.1171341,0.7203579,7.6057553,-21.469963,0.74756145,0.46626925,1.1810124
38.299065,62.795017,19.82732,-8.244523,-1.5926738,-0.6109278,0.81573915,-0.7557705,0.7951188,0.434217,-0.36444452,0.69516325,0.6293027,-0.3543987,1.3539375,-0.704363,-1.7556665,-0.92660844,2.2586002,1.3819482,-1.0551612,1.4158102,-0.7696966,-1.7923572,-0.8956944,2.199002,1.3239313,-1.0231699,-1.3662202,1.419669,0.6953521,-0.59651005,0.9941657,0.49199688,-0.3406283,1.9464912,-0.34999442,1.3260138,-2.818006,-0.23641403,2.516707,0.22953796,-0.5163176,0.9252434,0.7963234,-0.05187244,0.06140288,0.59950644,-0.55995184,0.67098945,0.68253267,1.0,0.0,0.0,0.0,0.0,0.0,0.0,-2.5964913,-0.050005585,-0.7760138,1.7375469,0.732851,8.934832,-17.385506,0.9283185,0.3179133,1.6629398
29.524704,62.78141,19.439114,-1.3920002,-0.97543555,-0.4011471,0.62433326,-0.75381535,0.7977404,0.46998763,-0.37086245,0.69156855,0.6306873,-0.28381073,1.3404287,-0.6899226,-1.7453585,-0.9327806,2.268159,1.3870001,-1.051551,1.4022547,-0.7554592,-1.7847507,-0.9024292,2.208966,1.3288256,-1.0264105,-1.3517683,1.4255064,0.781713,-0.6992555,0.99833506,0.4898587,-0.31836024,1.9183311,-0.35235667,1.3504256,-2.8151886,-0.23617767,2.416005,0.22437286,-0.5092864,0.93193537,0.7971471,-0.058333106,0.060867146,0.5978702,-0.493901,0.7187512,0.65887535,1.0,0.0,0.0,0.0,0.0,0.0,0.0,-2.5683312,-0.047643334,-0.8004256,1.497078,0.72124004,8.3828335,-10.288918,0.7854819,0.1845181,2.2195399
20.424625,60.843925,18.251917,5.1232533,-0.40040335,-0.24310681,0.41333133,-0.7509748,0.7990295,0.4930063,-0.36601546,0.68256897,0.62613237,-0.21328877,1.3271573,-0.67555624,-1.73545,-0.93903077,2.2772229,1.3914388,-1.0477394,1.3888155,-0.74117315,-1.7764041,-0.90968764,2.2189338,1.3336931,-1.0293916,-1.3412204,1.4301493,0.8513876,-0.73492223,0.99766976,0.4867176,-0.29132602,1.8902016,-0.35471678,1.373831,-2.812374,-0.23594154,2.3154037,0.2196846,-0.50186014,0.9384839,0.7975255,-0.06472979,0.060365528,0.5967572,-0.45214728,0.75488436,0.64728856,1.0,0.0,0.0,0.0,0.0,0.0,0.0,-2.5402017,-0.04528323,-0.823831,1.0792255,0.6152868,6.6785455,-3.6154032,0.33937693,0.012886524,2.692175
11.004987,56.158913,15.988329,10.834998,0.13331556,-0.15877639,0.2004054,-0.7572041,0.796682,0.5013026,-0.34720758,0.6754869,0.63016176,-0.14881438,1.3130951,-0.6615049,-1.7262739,-0.9444084,2.2864826,1.3967093,-1.0442731,1.3754126,-0.7268671,-1.7675502,-0.91690123,2.2288635,1.3385302,-1.0320772,-1.3402619,1.4312952,0.89584374,-0.7172204,0.992833,0.48353451,-0.26094225,1.8620987,-0.3570745,1.3962313,-2.8095624,-0.23570566,2.2149029,0.21525192,-0.4941752,0.94496495,0.7976406,-0.071155846,0.059895523,0.59591836,-0.43297887,0.7769937,0.64189434,1.0,0.0,0.0,0.0,0.0,0.0,0.0,-2.5120988,-0.042925507,-0.8462313,0.07133484,0.26943684,4.181075,1.6668439,-0.08317232,-0.06260276,3.0139983
7.691573,53.139603,14.682985,12.513203,0.27834642,-0.19791648,0.119909614,-0.75718313,0.79943305,0.51389873,-0.35312584,0.6751557,0.6311992,-0.09909206,1.2996943,-0.6469238,-1.7161603,-0.9522138,2.296379,1.4016501,-1.0419863,1.3619868,-0.71254957,-1.7583835,-0.9238297,2.2387397,1.3433386,-1.034448,-1.3435899,1.4324372,0.9225903,-0.68510044,0.9875239,0.4805485,-0.2292764,1.8340225,-0.35942984,1.4176273,-2.8067536,-0.23547001,2.1145027,0.21095657,-0.48631406,0.9513906,0.79759204,-0.0776275,0.059482303,0.5952165,-0.42004123,0.7930154,0.6362086,1.0,0.0,0.0,0.0,0.0,0.0,0.0,-2.4840226,-0.04057017,-0.8676273,-0.38006306,0.2669096,2.4423122,3.0879378,-0.15386343,-0.070780516,3.1392603
2.9921546,48.028652,12.536434,14.795455,0.5164082,-0.2567929,0.005528562,-0.7624097,0.79470223,0.5028909,-0.3153345,0.6674685,0.6312304,-0.035206694,1.2857457,-0.63307935,-1.7080945,-0.95536315,2.3054867,1.4064616,-1.0379688,1.3484904,-0.69824827,-1.7491348,-0.93027365,2.2485473,1.3481165,-1.0364851,-1.3517692,1.4298806,0.9251153,-0.6313168,0.97992814,0.47762626,-0.19548734,1.8059769,-0.3617828,1.4380201,-2.8039474,-0.2352346,2.0142028,0.20671463,-0.47837043,0.9577516,0.79747486,-0.084135,0.059156094,0.5945213,-0.4163834,0.7987509,0.62946075,1.0,0.0,0.0,0.0,0.0,0.0,0.0,-2.455977,-0.038217217,-0.8880201,-0.8967638,-0.1070261,0.061798096,5.2157283,-0.41087866,-0.10086298,3.3409119
-0.54600525,43.461216,10.670946,16.137218,0.68177265,-0.32077062,-0.06592862,-0.7768839,0.7910795,0.49251276,-0.28839827,0.66651636,0.63783246,0.028746983,1.270802,-0.6191403,-1.6998835,-0.9591135,2.315199,1.4118998,-1.0336103,1.3348509,-0.68399274,-1.739989,-0.9361292,2.25829,1.3528715,-1.0381712,-1.3685071,1.4245849,0.91068786,-0.5709645,0.97315687,0.47547746,-0.15976964,1.7779579,-0.36413336,1.4574106,-2.801144,-0.2349994,1.9140031,0.20246506,-0.47042704,0.9640265,0.7973633,-0.09065745,0.058936607,0.5937334,-0.41896674,0.79658407,0.6201165,1.0,0.0,0.0,0.0,0.0,0.0,0.0,-2.427958,-0.035866648,-0.90741056,-1.783967,-0.38833618,-1.585567,5.8441877,-0.35799742,-0.05207658,3.5282345
-2.2702532,39.98105,9.543706,16.805265,0.7886868,-0.36362165,-0.083899036,-0.7877821,0.7815541,0.49249834,-0.25518066,0.65466297,0.6425276,0.11397806,1.2560728,-0.60583735,-1.6907392,-0.9616473,2.3237565,1.4171243,-1.0267733,1.3210093,-0.6698307,-1.7310054,-0.94135344,2.2679412,1.3576132,-1.0394701,-1.3897302,1.4138333,0.89365536,-0.5069682,0.96344304,0.4740587,-0.12028153,1.7499657,-0.36648154,1.4757998,-2.7983432,-0.23476444,1.8139036,0.19816971,-0.46253777,0.9701973,0.7972863,-0.09718484,0.05882949,0.59281415,-0.42503387,0.7898796,0.60930693,1.0,0.0,0.0,0.0,0.0,0.0,0.0,-2.3999658,-0.033518463,-0.9257998,-2.246809,-0.9407759,-1.8191576,6.1928153,-0.66547394,0.00436306,3.8969934
-8.24087,39.869007,9.398485,22.754726,1.2875968,-0.11778325,-0.24270034,-0.7964235,0.7812472,0.47263065,-0.12199667,0.6441667,0.65197986,0.2220072,1.241367,-0.591706,-1.6837424,-0.9535531,2.332358,1.4228112,-1.0172694,1.3069502,-0.65576494,-1.7222602,-0.94547045,2.277478,1.3623472,-1.0403322,-1.4117175,1.4045562,0.86770177,-0.38063276,0.95175654,0.4732488,-0.07503899,1.7220039,-0.36882734,1.4931887,-2.7955453,-0.23452972,1.713904,0.19363785,-0.4547429,0.9763761,0.797336,-0.10386296,0.05879307,0.59161747,-0.45308763,0.7795431,0.61416835,1.0,0.0,0.0,0.0,0.0,0.0,0.0,-2.372004,-0.031172663,-0.9431887,-2.360201,-0.78680515,-2.7225971,12.396389,-0.82250834,-0.0003516674,4.4583826
-13.19569,39.551285,9.460649,28.328693,1.7863388,0.13474885,-0.39375517,-0.8025708,0.7725216,0.45948917,0.012862463,0.64066476,0.66102123,0.2610463,1.2266932,-0.5785128,-1.6763114,-0.9441842,2.3415444,1.4284494,-1.0142276,1.2926966,-0.64180887,-1.7137954,-0.9478575,2.286908,1.3670775,-1.0407518,-1.4306388,1.3931262,0.83894324,-0.19226322,0.94165826,0.4728575,-0.03142362,1.6940689,-0.371171,1.5095785,-2.7927504,-0.23429523,1.6140045,0.1886673,-0.44706893,0.9827183,0.79761446,-0.11089986,0.05873301,0.5899684,-0.5025248,0.7670812,0.6344521,1.0,0.0,0.0,0.0,0.0,0.0,0.0,-2.344069,-0.028829008,-0.95957845,-2.0702362,-0.9989977,-3.0303597,18.584745,-0.62206984,-0.024962425,4.281966
-15.47759,41.94336,10.646266,32.589092,2.1085846,0.38963926,-0.48594508,-0.8042298,0.771892,0.44946364,0.15436924,0.6444931,0.6648377,0.29924065,1.2122736,-0.56461966,-1.6688491,-0.93242055,2.3513572,1.4335612,-1.0108278,1.2783018,-0.6279453,-1.7056034,-0.9479872,2.2962768,1.371802,-1.0407537,-1.4429104,1.3846383,0.81196946,0.046011128,0.9366465,0.47223726,0.009881951,1.6661606,-0.37351227,1.5249699,-2.7899582,-0.23406099,1.5142047,0.1830864,-0.43948746,0.9893752,0.7981802,-0.11849824,0.058550294,0.58773994,-0.56725734,0.75940174,0.66965854,1.0,0.0,0.0,0.0,0.0,0.0,0.0,-2.3161607,-0.026487738,-0.9749699,-1.3972998,-0.7083416,-2.8820038,23.597649,-0.07932186,-0.118124485,4.044796
-14.467432,41.64702,10.781084,32.365696,2.0444417,0.3890304,-0.500421,-0.80862355,0.76564807,0.42739037,0.2524288,0.63787264,0.6606868,0.2688458,1.1974394,-0.5513805,-1.6628643,-0.92274433,2.360064,1.4378706,-1.0138692,1.2638174,-0.6141676,-1.6977108,-0.945727,2.305596,1.376515,-1.0404123,-1.4508369,1.3759211,0.7810803,0.28538683,0.9317907,0.4709081,0.042023722,1.6382828,-0.37585115,1.5393642,-2.787169,-0.23382698,1.4145049,0.17686844,-0.43195605,0.9963788,0.7990382,-0.12672198,0.058221858,0.5848842,-0.63082397,0.756012,0.7042392,1.0,0.0,0.0,0.0,0.0,0.0,0.0,-2.2882829,-0.024148852,-0.9893642,-0.93410015,-0.7477522,-3.2675505,23.745167,-0.08317232,-0.22156239,3.1293378
-9.199712,43.295635,11.787991,28.515318,1.6407187,0.27032343,-0.37488902,-0.80817926,0.7642877,0.4240452,0.317737,0.6415089,0.6564023,0.26950482,1.1829995,-0.5377388,-1.6553062,-0.9139533,2.369747,1.4421552,-1.0134618,1.2492949,-0.6004604,-1.6900699,-0.9413563,2.3148887,1.3812128,-1.0397924,-1.4531776,1.3693473,0.7581193,0.4870791,0.929548,0.46932796,0.06841572,1.6104317,-0.37818766,1.5527622,-2.7843826,-0.23359321,1.3149047,0.17013168,-0.42439508,1.0036681,0.8001003,-0.13551435,0.05777102,0.58149606,-0.6787646,0.76213896,0.7307828,1.0,0.0,0.0,0.0,0.0,0.0,0.0,-2.2604318,-0.02181235,-1.0027621,-0.33826828,-0.55782795,-2.4282813,20.028496,0.1224041,-0.23465157,2.551224
-1.6470184,43.343296,12.046024,21.308254,0.96613234,-0.055579215,-0.1795308,-0.80584854,0.76117593,0.41168556,0.33334425,0.641469,0.65612155,0.25538704,1.16871,-0.52434283,-1.6489013,-0.90802187,2.3790357,1.446825,-1.0142537,1.2347838,-0.5868124,-1.6826313,-0.9355227,2.324166,1.3858992,-1.0389551,-1.4506251,1.3635789,0.73875624,0.6152151,0.92780757,0.4686203,0.08858716,1.5826073,-0.38052177,1.5651649,-2.7815986,-0.23335966,1.215404,0.16313171,-0.41672897,1.0110838,0.8012251,-0.14468862,0.057278976,0.57777387,-0.6982067,0.77480125,0.73861915,1.0,0.0,0.0,0.0,0.0,0.0,0.0,-2.2326074,-0.019478232,-1.0151649,0.18136501,-0.50263405,-1.98493,12.70734,0.0849843,-0.07137656,1.9241974
5.940329,41.99877,11.590651,12.956837,0.22459245,-0.48927945,0.039246723,-0.80609685,0.7574869,0.39671293,0.30955577,0.63947904,0.6575389,0.27045745,1.1541741,-0.5110637,-1.64296,-0.9045671,2.388114,1.4516531,-1.0119094,1.220307,-0.57322156,-1.6753871,-0.92907107,2.3334205,1.3905894,-1.0379328,-1.4467475,1.357774,0.71980137,0.65474474,0.9250728,0.46940738,0.10637383,1.5548134,-0.3828535,1.5765735,-2.7788174,-0.23312634,1.1160029,0.15618515,-0.40892577,1.0184072,0.8022664,-0.15397002,0.05687126,0.57395774,-0.68480253,0.7892374,0.7236382,1.0,0.0,0.0,0.0,0.0,0.0,0.0,-2.2048135,-0.017146498,-1.0265734,0.32863617,-0.5263567,-1.8491626,3.8600922,-0.109398365,0.1932621,1.6842574
10.518804,39.600895,10.4663925,6.6745214,-0.31892753,-0.880472,0.16909477,-0.81428516,0.75591034,0.37546027,0.2757139,0.638235,0.6546589,0.2532675,1.1388785,-0.49763054,-1.6378411,-0.9014997,2.397244,1.4560553,-1.012606,1.2058283,-0.5596813,-1.6683757,-0.9227673,2.3426445,1.395291,-1.0367693,-1.4484262,1.3529539,0.6953214,0.6219098,0.9216375,0.47103122,0.11947533,1.5270462,-0.3851831,1.5869888,-2.7760391,-0.23289326,1.0167011,0.14954758,-0.40100336,1.0254424,0.8031421,-0.16308573,0.056675352,0.57022256,-0.646593,0.80030674,0.6902603,1.0,0.0,0.0,0.0,0.0,0.0,0.0,-2.1770463,-0.01481691,-1.0369887,-0.23066998,-0.4377365,-2.3339152,-3.3772826,-0.24278164,0.37364364,1.2244046
13.578154,37.355247,9.523178,2.5248919,-0.6452132,-1.1856028,0.26586354,-0.8107188,0.75112057,0.3563977,0.24079485,0.6361047,0.65788954,0.2925414,1.1247565,-0.48456925,-1.632736,-0.8986878,2.406255,1.46108,-1.0075151,1.191342,-0.54619634,-1.6616466,-0.9171177,2.3518302,1.4000136,-1.0354646,-1.4488977,1.3471351,0.6659028,0.5456879,0.9176189,0.47355083,0.13398954,1.4993057,-0.3875103,1.5964118,-2.7732637,-0.23266041,0.9174986,0.14342499,-0.39300466,1.0320606,0.8038055,-0.17184263,0.05677649,0.5666949,-0.5917851,0.8062689,0.64590883,1.0,0.0,0.0,0.0,0.0,0.0,0.0,-2.1493058,-0.012489706,-1.0464118,-0.092077255,-0.53822994,-2.811551,-7.7094913,-0.3387332,0.52518845,1.3759106
13.833636,35.199852,8.684459,1.4765892,-0.68587697,-1.3383952,0.283091,-0.8109752,0.74558717,0.33975372,0.21376649,0.63594997,0.65981984,0.3189483,1.1102445,-0.4716376,-1.6276712,-0.89574105,2.4154253,1.4659956,-1.0035698,1.1768519,-0.53278196,-1.6552303,-0.9123179,2.360978,1.404761,-1.0340093,-1.4493152,1.3396829,0.6340514,0.45780534,0.9143392,0.4762249,0.14924076,1.4715958,-0.38983512,1.6048435,-2.7704911,-0.2324278,0.81839526,0.13788223,-0.38498068,1.0382148,0.80425435,-0.18015356,0.05720076,0.56342494,-0.53304565,0.8067189,0.599053,1.0,0.0,0.0,0.0,0.0,0.0,0.0,-2.1215959,-0.010164887,-1.0548434,-0.072169304,-0.69577694,-3.0727148,-8.870113,-0.27058125,0.5515814,1.4609218
10.503669,29.150051,6.333935,2.8242655,-0.45076162,-1.4497546,0.18980725,-0.8141712,0.7319346,0.29351535,0.19924481,0.6296921,0.6633268,0.3427581,1.0954348,-0.4595885,-1.6258787,-0.8923934,2.423947,1.4710937,-0.9997335,1.1623427,-0.5194906,-1.6492774,-0.9082943,2.3700874,1.409535,-1.0323957,-1.4514205,1.3257616,0.58267057,0.38355175,0.90987396,0.4788148,0.1650049,1.4439087,-0.39215755,1.6122848,-2.7677212,-0.23219544,0.71939105,0.13285828,-0.3770368,1.0438983,0.8045628,-0.18798792,0.05794475,0.5603407,-0.48187146,0.79515415,0.5521761,1.0,0.0,0.0,0.0,0.0,0.0,0.0,-2.0939088,-0.007842451,-1.0622847,-0.23701191,-1.329732,-5.0771475,-7.5269103,-0.36450624,0.5276263,1.5272945
9.690966,28.413723,5.9390726,3.5020885,-0.41535702,-1.5020946,0.15132374,-0.81228083,0.7323165,0.26447856,0.1625884,0.62023324,0.65678567,0.35642955,1.0811145,-0.44625896,-1.6228296,-0.8920355,2.4321108,1.4752136,-0.99675274,1.1478239,-0.50631845,-1.643893,-0.9049612,2.3791282,1.4143282,-1.0306314,-1.4521502,1.3145974,0.52386475,0.31616417,0.9027771,0.48023683,0.18006685,1.4162521,-0.39447784,1.6187369,-2.7649539,-0.23196328,0.6204858,0.1283493,-0.3692193,1.0491332,0.80478865,-0.195348,0.05902653,0.5573779,-0.4321764,0.7813768,0.508318,1.0,0.0,0.0,0.0,0.0,0.0,0.0,-2.0662522,-0.0055221617,-1.0687368,-0.093603134,-1.0489225,-5.842757,-6.8371115,-0.61980486,0.39269328,1.4642
8.368032,28.49974,5.947544,5.2182055,-0.29414853,-1.4703183,0.10463494,-0.8116946,0.7307315,0.23460262,0.14652893,0.6166936,0.65757006,0.3816853,1.0666544,-0.4332453,-1.6204327,-0.8903083,2.4407976,1.4800853,-0.9924629,1.1333052,-0.4932326,-1.6391151,-0.9021746,2.3881004,1.4191309,-1.0287145,-1.451887,1.3067924,0.46242517,0.26590464,0.8955259,0.48105186,0.19542392,1.3886261,-0.39679575,1.6242006,-2.7621894,-0.23173136,0.5216794,0.12427521,-0.36153388,1.0539734,0.80496997,-0.20227838,0.060440075,0.554485,-0.38810107,0.7676956,0.47056863,1.0,0.0,0.0,0.0,0.0,0.0,0.0,-2.0386262,-0.0032042563,-1.0742006,0.0012874603,-0.70831776,-6.1251345,-5.1251593,-0.61650276,0.2993703,1.4949352
9.644239,26.786488,5.178769,2.6698265,-0.48791677,-1.6756254,0.15328054,-0.8180725,0.7254468,0.1972018,0.056334607,0.6120059,0.6613207,0.40296832,1.0514979,-0.4206879,-1.6193949,-0.8965411,2.449301,1.485263,-0.9884177,1.1187636,-0.4802183,-1.634978,-0.90013087,2.3969963,1.4239432,-1.0266432,-1.4551036,1.2998638,0.39757967,0.18356776,0.88802755,0.48222136,0.21089071,1.361023,-0.39911127,1.628677,-2.7594278,-0.23149967,0.4229719,0.12073517,-0.3540163,1.0583837,0.8051147,-0.20869847,0.062225115,0.5516912,-0.3340867,0.7491074,0.42614633,1.0,0.0,0.0,0.0,0.0,0.0,0.0,-2.011023,-0.00088873506,-1.0786769,-0.3297329,-0.6197214,-6.4589143,-8.32034,-0.6714463,0.35821795,1.5170425
12.551166,26.56836,5.564087,-0.24528456,-0.66984266,-1.8328639,0.2873169,-0.80867445,0.70992357,0.20463993,-0.021901103,0.59544414,0.6542798,0.45030192,1.0378962,-0.40922594,-1.6145141,-0.902321,2.4565406,1.4893712,-0.981613,1.1042353,-0.46732318,-1.6312969,-0.8991314,2.4057815,1.428763,-1.0243982,-1.45186,1.2862916,0.3583711,0.07182188,0.8755333,0.48282352,0.2289864,1.3334503,-0.4014244,1.6321671,-2.756669,-0.23126823,0.32436308,0.117816925,-0.3466947,1.0623142,0.80515546,-0.21451986,0.06436955,0.54914695,-0.2691297,0.7286182,0.37720832,1.0,0.0,0.0,0.0,0.0,0.0,0.0,-1.9834503,0.001424402,-1.0821671,0.3745556,-1.2799978,-3.9200068,-11.225399,-1.2011409,0.3268063,1.7858386
11.13014,25.612986,5.5767937,1.7495422,-0.4451244,-1.7671375,0.26143286,-0.8019853,0.7002256,0.1852666,-0.027887553,0.58732325,0.6580993,0.47764575,1.0240368,-0.39730063,-1.6127702,-0.9019202,2.4645138,1.494573,-0.9766336,1.0897776,-0.4545902,-1.6279304,-0.89908373,2.4144332,1.4335886,-1.0219682,-1.4435378,1.2692262,0.32909516,-0.017674344,0.8621833,0.48335516,0.24759467,1.3059044,-0.4037354,1.6346718,-2.753913,-0.231037,0.22585283,0.115486145,-0.3395772,1.065802,0.8050741,-0.2197914,0.06680967,0.5468855,-0.21286818,0.7073889,0.33479112,1.0,0.0,0.0,0.0,0.0,0.0,0.0,-1.9559044,0.0037353933,-1.0846717,0.89161396,-1.6226053,-2.9660344,-9.002074,-1.2615681,0.28585792,1.8355489
9.3340435,22.638039,4.6089573,2.9159498,-0.27761915,-1.7897807,0.21503945,-0.79878676,0.6884308,0.15177032,-0.06834425,0.5752234,0.6568921,0.5010652,1.0098989,-0.38574713,-1.6127534,-0.9059182,2.4719555,1.4992778,-0.9718617,1.0754153,-0.44205177,-1.6248977,-0.8998457,2.42294,1.4384161,-1.0193514,-1.4336265,1.2489963,0.2945914,-0.09598918,0.8471884,0.48345572,0.2660869,1.2783852,-0.406044,1.6361922,-2.7511594,-0.23080601,0.12744108,0.11367035,-0.33270168,1.0688807,0.8049045,-0.22454871,0.069508396,0.5448624,-0.16271901,0.6814708,0.29452693,1.0,0.0,0.0,0.0,0.0,0.0,0.0,-1.9283851,0.0060440004,-1.0861921,1.0558605,-1.9354343,-3.513682,-7.892703,-1.4166117,0.22068024,1.8250167
3.5876865,17.62957,2.6786568,8.098164,0.17984271,-1.6547794,0.011188682,-0.7983055,0.6773351,0.08988777,-0.036438525,0.543578,0.6535212,0.522342,0.9955847,-0.37431824,-1.615909,-0.9034896,2.4772978,1.5037682,-0.9671172,1.061133,-0.42972553,-1.6224163,-0.9009949,2.4312332,1.4432398,-1.0165571,-1.4264663,1.2275143,0.23245126,-0.12162458,0.8236821,0.48256165,0.28393894,1.2508965,-0.40835047,1.6367292,-2.7484088,-0.23057525,0.029127715,0.11219406,-0.32611346,1.0716298,0.80476797,-0.22889945,0.0724675,0.5428645,-0.13421401,0.65118426,0.2642663,1.0,0.0,0.0,0.0,0.0,0.0,0.0,-1.9008964,0.008350462,-1.0867293,0.7221222,-2.0596743,-6.274933,-2.6825414,-2.2272825,0.061792135,1.7464578
-0.90963554,5.733655,-2.1365616,8.140375,0.33915377,-1.9127449,-0.15627496,-0.7924326,0.6506161,-0.02710207,-0.07974587,0.4946503,0.65620035,0.54339767,0.9818898,-0.3646639,-1.6251265,-0.90896946,2.480698,1.5088599,-0.96221733,1.0469252,-0.41768825,-1.6210182,-0.902392,2.4391716,1.4480559,-1.0135854,-1.418665,1.1961032,0.10866417,-0.14630242,0.78432184,0.48185998,0.30122125,1.2234306,-0.41065454,1.6362838,-2.745661,-0.23034473,-0.06908736,0.11096573,-0.3199823,1.0740176,0.8048419,-0.23277089,0.075795285,0.54064995,-0.11136733,0.5999258,0.2264333,1.0,0.0,0.0,0.0,0.0,0.0,0.0,-1.8734306,0.010654539,-1.0862837,0.81682205,-3.05624,-12.461331,-2.6183248,-3.847742,0.0749588,1.684308
-2.001289,-2.5525653,-5.362745,5.3195634,0.23191592,-2.2183027,-0.18167181,-0.78836906,0.62249494,-0.10414094,-0.15588146,0.43739852,0.6599875,0.5537034,0.96808827,-0.35543877,-1.6314323,-0.9179802,2.4829113,1.5140547,-0.9582151,1.0327975,-0.40604103,-1.6210754,-0.9042908,2.4465911,1.45287,-1.0104536,-1.4103347,1.1545049,-0.04430601,-0.20482786,0.7274633,0.4817417,0.317058,1.1959953,-0.41295624,1.6348569,-2.742916,-0.23011443,-0.16720422,0.1100235,-0.31448746,1.0759363,0.8052349,-0.23597588,0.07961044,0.538121,-0.082312904,0.5318883,0.17691408,1.0,0.0,0.0,0.0,0.0,0.0,0.0,-1.8459953,0.012956232,-1.084857,0.94873905,-4.078388,-15.413615,-5.9845777,-5.657208,0.14677048,1.5392482
1.5139272,-3.0128841,-5.310399,-0.20052671,-0.15122479,-2.4871035,-0.009621253,-0.792815,0.5990966,-0.120486885,-0.2854357,0.40442237,0.6653479,0.5427126,0.95351595,-0.34613135,-1.6331241,-0.9328344,2.4870334,1.5194048,-0.9561823,1.0187174,-0.39484346,-1.6224563,-0.907313,2.4534118,1.457688,-1.0071882,-1.4064165,1.1084146,-0.16982351,-0.3349027,0.6666495,0.4824752,0.32944784,1.1685867,-0.41525555,1.6324497,-2.7401736,-0.22988436,-0.265223,0.109508514,-0.30971766,1.0772562,0.80590427,-0.23828983,0.083955,0.5354324,-0.034186434,0.45754173,0.11399298,1.0,0.0,0.0,0.0,0.0,0.0,0.0,-1.8185867,0.015255541,-1.0824497,0.604105,-4.52528,-12.694834,-13.065314,-6.124866,0.25050044,1.2067318
8.868669,6.191066,-0.72316664,-5.1650634,-0.6316895,-2.4837236,0.34351936,-0.7888618,0.5704978,-0.031663302,-0.41944575,0.34396222,0.6729858,0.5443226,0.93983126,-0.33779368,-1.6256226,-0.94925755,2.487808,1.5249865,-0.9527559,1.0046793,-0.38413846,-1.6242969,-0.91212714,2.4595497,1.4625193,-1.0038141,-1.4020848,1.0582306,-0.18943232,-0.5301467,0.59614027,0.48412165,0.3399793,1.1412048,-0.4175527,1.6290631,-2.737434,-0.22965452,-0.36314377,0.1096611,-0.30558467,1.0779032,0.8066113,-0.23961698,0.08873696,0.53299874,0.03639301,0.3966248,0.045585446,1.0,0.0,0.0,0.0,0.0,0.0,0.0,-1.7912048,0.017552704,-1.0790632,0.7193327,-4.921341,-2.1591902,-19.479824,-7.100153,0.35085678,1.0440111
13.346384,17.093285,4.1149583,-5.4684753,-0.7857548,-2.2714562,0.5462081,-0.786385,0.56007916,0.021601241,-0.5044183,0.32653165,0.67706686,0.53461,0.9260408,-0.32813054,-1.6221368,-0.962569,2.4922028,1.530226,-0.9503531,0.9906826,-0.373865,-1.6257389,-0.9189955,2.465062,1.4673697,-1.0003561,-1.3979782,1.0173944,-0.12990277,-0.7387222,0.5360788,0.48580983,0.34789988,1.1138535,-0.4198475,1.624698,-2.734697,-0.22942492,-0.46096665,0.11057663,-0.30191207,1.0779103,0.8071306,-0.2400282,0.09379813,0.5311578,0.11391916,0.3548007,-0.01682411,1.0,0.0,0.0,0.0,0.0,0.0,0.0,-1.7638534,0.019847482,-1.074698,0.6855011,-3.9742947,5.7070136,-20.768238,-5.9913635,0.3202319,0.81080794
14.3787,21.987146,6.6699963,-3.351783,-0.78256625,-2.0324712,0.60572606,-0.7708816,0.5317551,0.069417894,-0.5654938,0.21492113,0.6727709,0.55191046,0.9135944,-0.3206895,-1.6187971,-0.97554487,2.486554,1.5346467,-0.94516504,0.9767885,-0.36400306,-1.6262443,-0.9277655,2.4697845,1.4722315,-0.9968162,-1.3857248,0.9761651,-0.025242195,-0.92270184,0.45141596,0.4866133,0.35601217,1.086525,-0.42214012,1.6193554,-2.7319632,-0.22919554,-0.5586918,0.11225128,-0.29854274,1.0773555,0.8073392,-0.23968364,0.09907938,0.53003633,0.18891941,0.3274089,-0.07112657,1.0,0.0,0.0,0.0,0.0,0.0,0.0,-1.7365249,0.022140115,-1.0693555,1.4917612,-4.006791,10.13727,-18.304766,-8.359247,0.20176768,0.83553195
11.633628,20.707321,7.0123224,1.6082711,-0.4485445,-1.7247707,0.5291248,-0.7551933,0.4896477,0.12816097,-0.5871939,0.08296134,0.67195225,0.5558654,0.9012692,-0.3150383,-1.6134282,-0.9864849,2.4780807,1.5394267,-0.9412297,0.9630766,-0.35463798,-1.6255348,-0.9379393,2.4734008,1.4770972,-0.9932037,-1.3656342,0.92366624,0.10180154,-1.0488502,0.33235916,0.48678267,0.36301437,1.059227,-0.42443037,1.6130363,-2.7292316,-0.22896639,-0.6563192,0.11455536,-0.29537368,1.0763483,0.8072118,-0.23881625,0.10456637,0.5295675,0.24691547,0.3093228,-0.113606274,1.0,0.0,0.0,0.0,0.0,0.0,0.0,-1.709227,0.024430364,-1.0630362,2.2225618,-5.1396728,12.339761,-12.572908,-11.711669,0.107204914,0.69925785
3.8342357,2.9319773,1.481808,5.7008114,0.09680393,-1.6325564,0.33963025,-0.7419167,0.38876814,0.17470156,-0.60918134,-0.18666182,0.68166935,0.55797744,0.8888849,-0.31576118,-1.6080647,-0.99885744,2.4547346,1.5452641,-0.93740594,0.9496012,-0.34616506,-1.6235836,-0.9489819,2.4751823,1.4819685,-0.989533,-1.3407874,0.8220909,0.22522885,-1.1229353,0.12741622,0.487336,0.3680324,1.0319557,-0.42671824,1.6057415,-2.726503,-0.22873747,-0.753849,0.117248535,-0.2924943,1.074922,0.80684155,-0.23758398,0.11035259,0.5295118,0.279056,0.27656573,-0.15554844,1.0,0.0,0.0,0.0,0.0,0.0,0.0,-1.6819557,0.026718229,-1.0557415,2.7026176,-10.090709,11.987636,-7.4423075,-20.315516,0.10102987,0.40256977
-9.015444,-23.192705,-8.382026,11.358072,1.1311867,-1.7044171,-0.056532677,-0.7302695,0.29290286,0.1003018,-0.5850702,-0.34088945,0.6749721,0.5408157,0.8765742,-0.31687477,-1.6135534,-1.0074888,2.4410934,1.5494658,-0.93545145,0.9363785,-0.33903015,-1.6210563,-0.96029055,2.474675,1.4868361,-0.9858404,-1.3155162,0.67727906,0.26147917,-1.1340439,-0.10959879,0.4864037,0.36894011,1.0047112,-0.42900395,1.5974722,-2.723777,-0.22850877,-0.85128134,0.11994934,-0.29019976,1.0730809,0.8065025,-0.23602949,0.11649753,0.5294073,0.2684146,0.20973521,-0.19683632,1.0,0.0,0.0,0.0,0.0,0.0,0.0,-1.6547111,0.029003948,-1.0474722,2.6965141,-14.486038,3.4567773,-1.2676,-23.660423,-0.12532473,-0.14193058
-28.199074,-74.77084,-26.906734,13.912247,2.9733796,-2.1940305,-0.4641899,-0.70702904,0.07147399,0.001617173,-0.58498156,-0.5017006,0.66144186,0.55001426,0.86567557,-0.33188275,-1.6208946,-1.0187887,2.424505,1.5529803,-0.93083894,0.9234619,-0.33415353,-1.6189468,-0.97148573,2.4716918,1.4916769,-0.98214775,-1.2826103,0.423976,0.19402133,-1.1153907,-0.36188456,0.48277035,0.36797774,0.9774933,-0.4312873,1.5882293,-2.7210538,-0.2282803,-0.9486162,0.12205505,-0.28918552,1.0706968,0.80657244,-0.23396306,0.122788936,0.5287959,0.19339173,0.061985783,-0.255055,1.0,0.0,0.0,0.0,0.0,0.0,0.0,-1.6274933,0.031287283,-1.0382292,3.5983562,-25.467968,-6.7700653,1.638627,-25.42286,-0.52381754,-0.5273342
-56.780018,-157.58882,-55.956768,14.876236,6.193771,-3.0232215,-0.9207182,-0.68960255,-0.30722132,-0.13404067,-0.5967386,-0.5456517,0.65870214,0.50031173,0.85450166,-0.36487567,-1.6323508,-1.0311596,2.4171267,1.5575471,-0.93211657,0.9109087,-0.3332442,-1.6182964,-0.9824749,2.466519,1.4964644,-0.9785152,-1.2439777,-0.021298477,0.022083951,-1.0938615,-0.5706196,0.47582394,0.3596024,0.9503021,-0.43356848,1.5780138,-2.7183332,-0.22805208,-1.0458537,0.12263107,-0.2906685,1.0674783,0.8075171,-0.23095626,0.12844522,0.5273301,0.012421933,-0.22079457,-0.346062,1.0,0.0,0.0,0.0,0.0,0.0,0.0,-1.6003021,0.03356847,-1.0280137,4.538536,-44.877125,-17.170692,2.0175219,-21.366055,-1.1671007,-1.488632
-53.112167,-156.55415,-52.459785,13.607191,6.8363934,-2.7038443,-0.48160595,-0.6495638,-0.5170604,0.077865474,-0.6491186,-0.54116875,0.65021306,0.49267074,0.84595233,-0.38495025,-1.6105099,-1.0473868,2.4124022,1.5614856,-0.92924815,0.89885616,-0.33718002,-1.6182773,-0.993508,2.4597976,1.501166,-0.97495896,-1.1895696,-0.51887894,-0.0056220433,-1.1058127,-0.70708025,0.46581233,0.35290965,0.9231415,-0.43584728,1.5668266,-2.7156155,-0.22782406,-1.142994,0.12130356,-0.29492116,1.0633485,0.809154,-0.22697783,0.1326088,0.5255147,-0.18293574,-0.4938789,-0.4364202,1.0,0.0,0.0,0.0,0.0,0.0,0.0,-1.5731415,0.035847276,-1.0168266,6.2618256,-50.127953,-3.0294704,-1.007843,-14.022493,-1.7376959,-1.0892391
-35.320114,-117.60599,-36.51709,8.220488,5.6373725,-2.2226534,0.15047222,-0.5990814,-0.65981233,0.21699288,-0.7517267,-0.5353829,0.6251897,0.5074542,0.838948,-0.40316126,-1.596578,-1.0686806,2.4062593,1.5636849,-0.9242135,0.88748074,-0.34571636,-1.6175048,-1.0051877,2.4521987,1.5057474,-0.97143704,-1.1181813,-0.9662647,0.10378856,-1.1876957,-0.77841884,0.45273343,0.35152477,0.8960037,-0.4381237,1.5546688,-2.7129006,-0.22759628,-1.2400373,0.1184082,-0.30144668,1.058329,0.81096727,-0.2221606,0.13486826,0.5242016,-0.32976657,-0.7034062,-0.5250333,1.0,0.0,0.0,0.0,0.0,0.0,0.0,-1.5460037,0.038123697,-1.0046687,7.773733,-45.05366,10.594515,-7.860923,-7.3560596,-2.1805942,-0.2686143
-3.9256868,-45.16782,-8.152239,4.1176376,3.165045,-1.4446858,0.82230973,-0.37469375,-0.72940195,0.30703786,-0.74114585,-0.5714612,0.60723025,0.4366592,0.85001135,-0.41865656,-1.586801,-1.0793023,2.3950527,1.5664705,-0.9277711,0.8777056,-0.3577727,-1.6150405,-1.0176332,2.4441154,1.5102087,-0.967959,-0.93086743,-1.2859088,0.2934862,-1.2631967,-0.81763375,0.44210136,0.3471004,0.8688965,-0.44039798,1.5415412,-2.7101882,-0.22736874,-1.3369836,0.11474228,-0.3092177,1.0526286,0.8123005,-0.21695651,0.13528073,0.5242106,-0.381682,-0.79700816,-0.58697265,1.0,0.0,0.0,0.0,0.0,0.0,0.0,-1.5188965,0.040397972,-0.9915412,18.686508,-32.11551,18.818962,-7.400489,-3.8177013,-1.6361058,-0.27647018
21.17895,14.694554,13.401247,1.3541932,0.8201004,-1.0750464,1.091343,-0.12896653,-0.763468,0.23715945,-0.705833,-0.609046,0.6223876,0.36020252,0.8648089,-0.43411952,-1.5913246,-1.0882165,2.383211,1.5724475,-0.9319387,0.87073994,-0.37197006,-1.611182,-1.0305135,2.435723,1.514609,-0.9645744,-0.62096393,-1.4644072,0.41768909,-1.29655,-0.84561586,0.4385327,0.3364901,0.84181213,-0.4426701,1.527445,-2.7074785,-0.22714141,-1.4338329,0.11122131,-0.3172996,1.0465076,0.81273806,-0.21181774,0.13428849,0.52588654,-0.34575412,-0.8053286,-0.6229676,1.0,0.0,0.0,0.0,0.0,0.0,0.0,-1.4918121,0.0426701,-0.97744495,30.216957,-17.860937,12.7291975,-3.4422636,-2.51652,-0.5450547,-0.7893264
28.949842,39.500587,18.89318,0.81431127,-0.44267264,-1.2995076,0.8180754,0.051908955,-0.78002024,0.015503632,-0.6766799,-0.6025305,0.631131,0.28066212,0.87593085,-0.4499721,-1.6096317,-1.0981815,2.37547,1.5777221,-0.9365082,0.8672838,-0.3871044,-1.6075428,-1.0433939,2.4271667,1.5189997,-0.96135575,-0.25762042,-1.5297126,0.34871268,-1.2858481,-0.8585737,0.4390082,0.3175638,0.8147583,-0.44493985,1.512381,-2.7047718,-0.22691432,-1.5305854,0.10836792,-0.32532358,1.0401046,0.8123708,-0.2068325,0.13252807,0.5288765,-0.26698563,-0.7938595,-0.6488364,1.0,0.0,0.0,0.0,0.0,0.0,0.0,-1.4647583,0.044939846,-0.96238095,35.20263,-6.5095186,-6.1279716,0.8664608,-1.1220336,0.008404255,-1.706332
26.81872,37.46529,13.250465,-2.093019,-0.9886926,-2.0017889,0.43560332,0.21278523,-0.7942766,-0.25390673,-0.7077737,-0.5714989,0.6198689,0.29919487,0.8885623,-0.46653205,-1.6329334,-1.1141713,2.3700168,1.5809866,-0.93143624,0.8674717,-0.40239847,-1.6062038,-1.0561998,2.4186294,1.5233866,-0.9583116,0.106871694,-1.5294245,0.06585774,-1.279279,-0.8524416,0.43800476,0.30012876,0.7877312,-0.4472072,1.4963502,-2.7020674,-0.22668745,-1.6272411,0.10641098,-0.33344936,1.0333331,0.8115761,-0.20164412,0.130582,0.5325712,-0.17167106,-0.8115494,-0.6898346,1.0,0.0,0.0,0.0,0.0,0.0,0.0,-1.4377311,0.047207206,-0.94635016,35.212856,0.0057458878,-27.184593,0.4615307,0.5934119,-0.2593279,-1.7142892
23.562935,33.18193,8.943463,-3.119623,-1.078476,-2.331816,0.23233834,0.33573487,-0.8012756,-0.38906628,-0.730674,-0.5385711,0.6030937,0.3365408,0.9010452,-0.48252603,-1.6451104,-1.1292672,2.3647723,1.583696,-0.9246575,0.8709698,-0.41747797,-1.6082752,-1.0690439,2.410279,1.5277468,-0.9553991,0.42717835,-1.5009707,-0.29475743,-1.2865273,-0.82919973,0.43456367,0.28811952,0.76073074,-0.44947243,1.4793535,-2.6993659,-0.2264608,-1.7238002,0.105400085,-0.34188318,1.0260699,0.8106375,-0.19590199,0.12876827,0.53657067,-0.07598875,-0.84765005,-0.74250054,1.0,0.0,0.0,0.0,0.0,0.0,0.0,-1.4107307,0.04947242,-0.92935354,30.976397,2.7969122,-35.058277,-0.8702755,2.2403002,-0.5927384,-1.2286663
20.142132,29.40167,6.7856684,-2.274848,-0.8753646,-2.301337,0.15588339,0.4309706,-0.8083926,-0.4774457,-0.74908626,-0.50598764,0.58883035,0.33734798,0.91406685,-0.49831724,-1.6560197,-1.1439525,2.3596802,1.5866299,-0.9216643,0.87717533,-0.4322647,-1.6137779,-1.0820634,2.4022567,1.5320593,-0.9525886,0.6824533,-1.471454,-0.63305473,-1.3072368,-0.79342884,0.4293306,0.27871385,0.733757,-0.45173526,1.461392,-2.6966672,-0.22623439,-1.8202627,0.10524368,-0.35071135,1.0182475,0.80967313,-0.1894445,0.12714072,0.54071736,0.00919097,-0.8887927,-0.8005063,1.0,0.0,0.0,0.0,0.0,0.0,0.0,-1.383757,0.051735252,-0.91139203,24.773003,2.8956652,-33.12425,-2.151084,3.4963608,-0.8150697,-0.9562254
15.43362,27.32505,6.323961,1.3209925,-0.47685158,-1.9410509,0.09908646,0.482084,-0.81096435,-0.5411571,-0.7523707,-0.48869923,0.59341973,0.31939685,0.92538375,-0.5133611,-1.6678936,-1.1573005,2.3533869,1.5914013,-0.92064893,0.88532066,-0.4468249,-1.6220825,-1.0952909,2.3946044,1.5363299,-0.9498697,0.85715675,-1.4510876,-0.89511055,-1.3279039,-0.7559977,0.42516047,0.2696355,0.70681,-0.45399594,1.4424666,-2.693971,-0.22600819,-1.9166288,0.10578537,-0.3598914,1.0098785,0.8087135,-0.18230891,0.12564363,0.54493994,0.07403087,-0.92235434,-0.85510385,1.0,0.0,0.0,0.0,0.0,0.0,0.0,-1.35681,0.053995937,-0.8924666,17.050625,1.9778967,-25.832294,-2.0706654,3.6601305,-0.687474,-0.8923769
13.569969,29.676903,8.126015,3.9291143,-0.30598336,-1.5459405,0.13365945,0.53287894,-0.8062974,-0.59102696,-0.76899666,-0.48446172,0.58514005,0.32422945,0.9386085,-0.5274547,-1.6811851,-1.1721905,2.3461583,1.5948439,-0.91744673,0.89475155,-0.46123588,-1.6323535,-1.1087549,2.3872726,1.5405566,-0.9472261,0.9710451,-1.437977,-1.0706863,-1.3524673,-0.72592247,0.4212279,0.26277027,0.6798897,-0.45625424,1.4225782,-2.6912775,-0.22578223,-2.0128984,0.10687637,-0.3692956,1.0010109,0.8077113,-0.17460787,0.12421504,0.54925865,0.12756005,-0.9409172,-0.9043292,1.0,0.0,0.0,0.0,0.0,0.0,0.0,-1.3298897,0.056254238,-0.8725782,11.189615,1.2603045,-17.43095,-2.4249792,2.938199,-0.6254852,-0.63877106
11.748323,33.92219,10.882433,7.5038757,-0.19224942,-1.0582514,0.15975048,0.553248,-0.8034067,-0.60331553,-0.7678669,-0.5224895,0.58801013,0.33204013,0.95007634,-0.54157656,-1.6926851,-1.1855415,2.3350236,1.5993576,-0.9140221,0.9049158,-0.4755615,-1.6437118,-1.1224039,2.3800476,1.5447546,-0.944635,1.0314218,-1.4309098,-1.157679,-1.368865,-0.72138923,0.41888258,0.25810847,0.65299606,-0.4585104,1.4017279,-2.688587,-0.2255565,-2.1090717,0.108421326,-0.37873363,0.9917329,0.8065898,-0.1665309,0.122856185,0.55370265,0.17023715,-0.93902075,-0.9431274,1.0,0.0,0.0,0.0,0.0,0.0,0.0,-1.302996,0.058510393,-0.8517279,6.00369,0.6640434,-8.754039,-1.5902042,0.38725138,-0.39682984,-0.40200353
8.8976965,35.219376,12.185321,10.836803,0.09119421,-0.67772496,0.1474983,0.55773455,-0.8087409,-0.61321414,-0.7663825,-0.51112556,0.584301,0.320969,0.96068925,-0.5564356,-1.7050332,-1.1990421,2.328935,1.6031847,-0.91253805,0.91537285,-0.48988092,-1.6554744,-1.1361463,2.372834,1.5489336,-0.9420906,1.0507288,-1.4324319,-1.183019,-1.3757976,-0.7214659,0.4173152,0.2535044,0.62613297,-0.4607644,1.3799165,-2.6858988,-0.22533098,-2.205149,0.11029053,-0.38807225,0.98213667,0.805307,-0.15825295,0.12151495,0.5582747,0.19836968,-0.9259038,-0.9728849,1.0,0.0,0.0,0.0,0.0,0.0,0.0,-1.276133,0.060764402,-0.82991654,2.0089626,-0.19786358,-2.6881933,-0.6178379,-0.09196997,-0.26632547,-0.38271546
7.901967,37.45026,13.664839,12.659574,0.22738552,-0.43067092,0.16057415,0.56573325,-0.80967695,-0.61364377,-0.76873386,-0.50285274,0.58108604,0.32811368,0.9719462,-0.5708486,-1.7168388,-1.2130197,2.3225486,1.6070422,-0.9092792,0.92586994,-0.5042421,-1.6672103,-1.1499193,2.3656242,1.5530993,-0.9395805,1.0498511,-1.4375025,-1.1710868,-1.3776463,-0.721253,0.41620836,0.25046578,0.59929276,-0.46301603,1.3571452,-2.6832135,-0.2251057,-2.30113,0.11237717,-0.39722204,0.9722927,0.803829,-0.14989558,0.12013172,0.5629908,0.21944608,-0.9045806,-0.9960563,1.0,0.0,0.0,0.0,0.0,0.0,0.0,-1.2492927,0.06301603,-0.8071452,0.03900528,-0.5502701,0.987792,-0.101685524,-0.06569624,-0.1824975,-0.21237731
5.7060156,36.842937,13.442356,14.151796,0.4286278,-0.2996575,0.12052105,0.55873275,-0.8146786,-0.6217411,-0.7661636,-0.48731878,0.5747961,0.32053635,0.9817432,-0.58571,-1.7293844,-1.2265357,2.3168924,1.6105789,-0.90752685,0.9362507,-0.5186798,-1.6787593,-1.1636751,2.3584564,1.5572535,-0.9371019,1.034719,-1.4459795,-1.1501839,-1.3743887,-0.71535444,0.414881,0.24731876,0.57248306,-0.46526527,1.3334147,-2.6805308,-0.22488064,-2.397015,0.114608765,-0.4061594,0.96223783,0.80216473,-0.14151293,0.11865826,0.5678256,0.2318793,-0.8830874,-1.0162148,1.0,0.0,0.0,0.0,0.0,0.0,0.0,-1.222483,0.06526527,-0.78341466,-1.3495445,-0.8972645,1.8727541,0.4317522,0.48251152,-0.19046068,-0.22154152
4.0001287,37.187153,13.394417,15.015104,0.49216902,-0.19627354,0.09659736,0.53782284,-0.8149405,-0.6136031,-0.7707126,-0.49394974,0.5700678,0.34434566,0.990033,-0.60017383,-1.7401197,-1.2407464,2.3090613,1.6142603,-0.90266734,0.94637394,-0.5331928,-1.690068,-1.1774099,2.3513267,1.5613924,-0.9346338,1.0055029,-1.4531766,-1.1253281,-1.372719,-0.7123901,0.41333038,0.2469472,0.54569626,-0.46751237,1.3087261,-2.6778507,-0.2246558,-2.4928043,0.1169281,-0.41487575,0.9519887,0.8003348,-0.1331157,0.11709892,0.57274103,0.2397397,-0.86032534,-1.0351871,1.0,0.0,0.0,0.0,0.0,0.0,0.0,-1.1956962,0.06751236,-0.75872606,-2.7192354,-0.7712126,2.248335,0.29153824,0.1722455,-0.20653605,0.048956275
-0.46592855,36.11879,12.303864,17.041359,0.70453626,-0.035276443,0.015009657,0.48381355,-0.81469256,-0.59980494,-0.7709178,-0.493084,0.5718083,0.36206755,0.99475527,-0.61466205,-1.7500485,-1.2545017,2.3020184,1.6185733,-0.898427,0.955986,-0.5477564,-1.7011154,-1.1911314,2.34422,1.5655199,-0.93215424,0.9473672,-1.4576285,-1.0986693,-1.3714185,-0.71066976,0.41223967,0.24859619,0.51894,-0.46975732,1.2830803,-2.6751735,-0.22443119,-2.5884979,0.11924744,-0.42337036,0.9415614,0.798397,-0.124704085,0.115484394,0.57764554,0.23573333,-0.83809704,-1.052381,1.0,0.0,0.0,0.0,0.0,0.0,0.0,-1.16894,0.06975731,-0.7330803,-5.534792,-0.5053282,2.4007797,0.29056072,0.0066280365,-0.1480043,0.23306608
-8.103024,31.467686,8.951367,19.539083,1.0627297,0.08134344,-0.14435956,0.40858632,-0.8164689,-0.61225337,-0.7730527,-0.49424607,0.5611318,0.349468,0.99684465,-0.62940323,-1.7623407,-1.2684367,2.2947953,1.621633,-0.89720744,0.96473694,-0.56235427,-1.7120178,-1.2048509,2.337117,1.5696284,-0.929668,0.8521744,-1.4607826,-1.0882971,-1.3715522,-0.7111679,0.41019693,0.24877699,0.49220657,-0.47199988,1.2564783,-2.6724987,-0.2242068,-2.6840956,0.12138748,-0.4317038,0.9309447,0.79648155,-0.11622641,0.113861606,0.58236074,0.21336797,-0.8237167,-1.0716934,1.0,0.0,0.0,0.0,0.0,0.0,0.0,-1.1422065,0.07199988,-0.7064783,-9.145796,-0.3984213,0.76253414,0.21049976,-0.28358698,-0.25307536,0.05095601
-10.74876,30.160976,7.9186845,19.88162,1.184219,0.12754741,-0.16447935,0.36314094,-0.82042736,-0.6051705,-0.7836889,-0.48658767,0.5285167,0.38364938,1.0010511,-0.644397,-1.7725348,-1.2832198,2.288458,1.62248,-0.89130306,0.9724579,-0.57698935,-1.7228515,-1.2186258,2.3300254,1.573691,-0.9271551,0.7466732,-1.464728,-1.0826776,-1.3785299,-0.70940185,0.4048989,0.25220457,0.4655037,-0.4742403,1.228921,-2.6698267,-0.22398265,-2.779598,0.12326813,-0.4399202,0.920115,0.794647,-0.10762011,0.112236425,0.58681947,0.18490869,-0.81267697,-1.0933334,1.0,0.0,0.0,0.0,0.0,0.0,0.0,-1.1155037,0.0742403,-0.67892104,-10.156382,-0.48601627,0.28355122,-0.4468441,-0.073349476,-0.5944252,0.37267804
-23.62559,25.077454,3.7381742,24.942833,1.8160887,0.46736544,-0.39502868,0.20432648,-0.8184387,-0.5931917,-0.78167135,-0.49496746,0.52338046,0.3640277,0.99289054,-0.6588332,-1.7821707,-1.2967929,2.2805288,1.626029,-0.8907523,0.9786129,-0.5916473,-1.7336128,-1.2324579,2.3229225,1.5777003,-0.92462593,0.5735769,-1.4665889,-1.0750313,-1.3834401,-0.7120955,0.39945427,0.25318858,0.4388237,-0.47647858,1.2004095,-2.6671576,-0.22375871,-2.8750045,0.124622345,-0.44807172,0.9090827,0.7930554,-0.098863095,0.11063703,0.5908034,0.1240979,-0.80756396,-1.1129036,1.0,0.0,0.0,0.0,0.0,0.0,0.0,-1.0888237,0.07647857,-0.6504095,-16.76371,-0.31337738,0.44710636,-0.15285015,-0.6198168,-0.59971213,0.08743405
-25.83228,25.97417,3.6515157,25.489628,1.9022801,0.5730089,-0.41314912,0.13827606,-0.8153226,-0.5915292,-0.79028493,-0.49006844,0.5028178,0.36053425,0.9924405,-0.67317957,-1.7927657,-1.3114864,2.2739155,1.627982,-0.8885725,0.98299694,-0.6062996,-1.7443092,-1.2463624,2.3158004,1.5816447,-0.92209107,0.39528546,-1.46529,-1.068744,-1.3916218,-0.71325284,0.3924931,0.25355357,0.41217422,-0.47871447,1.1709446,-2.664491,-0.223535,-2.9703157,0.12533188,-0.45617056,0.89785755,0.79177463,-0.089944646,0.10906864,0.594228,0.057978317,-0.80208164,-1.13189,1.0,0.0,0.0,0.0,0.0,0.0,0.0,-1.0621742,0.07871446,-0.62094456,-17.279768,-0.0060796738,0.31108856,-0.46236515,-0.47727823,-0.7623613,0.030767918
-28.68251,25.317978,2.9757905,26.261662,1.974668,0.6944952,-0.45125526,0.045833394,-0.8235607,-0.5882728,-0.7873223,-0.5387643,0.5050534,0.32859752,0.9875803,-0.6886557,-1.8031365,-1.3250947,2.261924,1.6321499,-0.8892313,0.9855766,-0.6209728,-1.7549446,-1.2603185,2.308522,1.5855261,-0.9195772,0.21395737,-1.4684769,-1.0628576,-1.3956795,-0.73366547,0.38635394,0.25053453,0.38554764,-0.4809482,1.1405272,-2.661827,-0.22331151,-3.0655317,0.12535095,-0.46421576,0.88643926,0.79083097,-0.08087604,0.10756281,0.5970557,-0.014066718,-0.79661834,-1.1510507,1.0,0.0,0.0,0.0,0.0,0.0,0.0,-1.0355476,0.080948204,-0.59052724,-17.590439,-0.46813488,0.28028488,-0.02295971,-2.413416,-0.6960094,-0.30943155
-36.91284,21.438095,-0.4547012,28.341705,2.30469,0.83901054,-0.58220124,-0.09734516,-0.8227831,-0.6158575,-0.79222053,-0.5640485,0.49969092,0.33574766,0.9758421,-0.7032511,-1.8165303,-1.3395406,2.2521172,1.6354952,-0.8860024,0.9861393,-0.6356775,-1.7656677,-1.2743165,2.300965,1.5893465,-0.91709,0.005711782,-1.4717469,-1.0764287,-1.3995042,-0.76433134,0.38014928,0.24800232,0.35895157,-0.48317957,1.1091585,-2.6591656,-0.22308825,-3.1606526,0.12451553,-0.47225857,0.8747984,0.79032665,-0.0716108,0.10617479,0.59915143,-0.104064055,-0.7979277,-1.1740212,1.0,0.0,0.0,0.0,0.0,0.0,0.0,-1.0089515,0.08317956,-0.5591585,-20.223898,-0.51305294,-1.6608477,0.076174736,-3.5072684,-0.74718,-0.28153956
-51.77019,15.035946,-6.1540985,32.836327,3.100898,1.1032412,-0.8260489,-0.29214495,-0.82178414,-0.6425781,-0.79522294,-0.5321276,0.43436554,0.30444852,0.9569248,-0.71785593,-1.8299255,-1.3538388,2.2477522,1.632783,-0.88664514,0.9841871,-0.65040797,-1.7766674,-1.2883451,2.293225,1.5930601,-0.91464955,-0.25985074,-1.4743363,-1.1089137,-1.4020882,-0.7790694,0.36761212,0.24256387,0.3323784,-0.48540878,1.0768392,-2.656507,-0.22286521,-3.2556784,0.12251663,-0.48041177,0.8629077,0.79046655,-0.062052276,0.10486808,0.6002622,-0.23059045,-0.8118417,-1.1995516,1.0,0.0,0.0,0.0,0.0,0.0,0.0,-0.98237836,0.08540878,-0.5268392,-25.827793,-0.5124092,-3.5609007,0.33185482,-2.038002,-1.4497817,-0.5868554
-60.755535,10.446843,-9.796267,34.81947,3.7596498,1.2671608,-0.93113446,-0.44332469,-0.8341862,-0.66580504,-0.800452,-0.4501241,0.38184515,0.2987348,0.9398547,-0.7338266,-1.8432479,-1.3683903,2.2482126,1.6312447,-0.88477606,0.97940254,-0.6652166,-1.7880771,-1.302408,2.2856414,1.5966097,-0.9122625,-0.54869545,-1.4841866,-1.1528031,-1.4053215,-0.7540125,0.3496834,0.23740512,0.30583572,-0.4876356,1.0435704,-2.653851,-0.22264239,-3.350609,0.11907196,-0.48878527,0.85073245,0.79139024,-0.05211038,0.10343414,0.60023946,-0.38321498,-0.8361451,-1.2289617,1.0,0.0,0.0,0.0,0.0,0.0,0.0,-0.9558357,0.08763561,-0.4935704,-28.095448,-1.2991667,-4.698372,0.38211346,1.8595219,-2.09015,-0.5222082
-62.576275,11.208704,-10.072287,34.84384,4.0030584,1.3705955,-0.9817469,-0.5628118,-0.8369932,-0.7033751,-0.7918713,-0.38365582,0.36864153,0.1679342,0.92312133,-0.748916,-1.8584146,-1.3815951,2.2472758,1.6334739,-0.89546907,0.97182846,-0.6801321,-1.8000286,-1.3164518,2.2785423,1.5999762,-0.9100166,-0.824353,-1.4952383,-1.2101675,-1.4015522,-0.69746614,0.33106002,0.22039425,0.27931595,-0.4898603,1.009353,-2.6511977,-0.2224198,-3.4454448,0.11403656,-0.49741602,0.83825576,0.793156,-0.0417622,0.101659335,0.5990198,-0.544522,-0.8613213,-1.2592409,1.0,0.0,0.0,0.0,0.0,0.0,0.0,-0.9293159,0.08986029,-0.45935303,-26.792347,-1.4535666,-6.0144424,1.1395931,4.985559,-2.248758,-1.6626507
-61.90178,17.666773,-7.1433372,35.40573,3.9892032,1.6879356,-1.0089546,-0.6979767,-0.8313428,-0.709068,-0.76976377,-0.35661697,0.45342535,0.001770539,0.90203077,-0.7632664,-1.8709353,-1.3934282,2.2428806,1.6453187,-0.9098396,0.961607,-0.6951124,-1.8124721,-1.3303449,2.2720573,1.6032377,-0.9080568,-1.0857582,-1.5001519,-1.2564526,-1.3827021,-0.6343206,0.32295772,0.18800546,0.25282288,-0.49208283,0.97418797,-2.6485472,-0.22219741,-3.540186,0.10738373,-0.5062072,0.82554126,0.7957691,-0.031142194,0.09944113,0.5965678,-0.7083305,-0.8730335,-1.2807232,1.0,0.0,0.0,0.0,0.0,0.0,0.0,-0.90282285,0.09208283,-0.42418796,-25.407875,-0.8523226,-4.879117,2.6539087,5.6622386,-1.2242913,-3.1648011
-53.220425,28.49725,-0.7969434,33.573246,3.6799164,1.8528327,-0.9077648,-0.77690524,-0.8194531,-0.7167831,-0.74720645,-0.24972019,0.49062693,-0.14517847,0.88391644,-0.7770577,-1.8841504,-1.4050655,2.2470853,1.6523005,-0.92257464,0.94912624,-0.7100565,-1.8252685,-1.343952,2.2664268,1.6064669,-0.9065128,-1.3001583,-1.4935699,-1.288015,-1.351328,-0.5410129,0.3214186,0.14354984,0.2263565,-0.494303,0.9380762,-2.645899,-0.22197527,-3.6348321,0.09921646,-0.5149965,0.8127049,0.7991433,-0.020439284,0.09664804,0.59296817,-0.85688823,-0.8674295,-1.2898663,1.0,0.0,0.0,0.0,0.0,0.0,0.0,-0.8763565,0.09430298,-0.3880762,-20.837307,0.33025742,-3.3492088,3.815651,8.776164,-0.5416453,-4.320255
-36.535263,40.839878,8.093397,28.718786,3.2877061,1.8084605,-0.6712137,-0.79997975,-0.80922693,-0.7085588,-0.7394536,0.02158811,0.5128883,-0.32642987,0.8691283,-0.79097915,-1.8961244,-1.4178973,2.2685857,1.6577557,-0.93915576,0.9350786,-0.72486514,-1.8382099,-1.3572595,2.2624252,1.6097094,-0.9055143,-1.4383814,-1.4775045,-1.2964962,-1.3222421,-0.35457492,0.324306,0.08604709,0.19991684,-0.49652123,0.9010187,-2.6432538,-0.22175333,-3.729384,0.089790344,-0.52363276,0.79986495,0.80309576,-0.009837826,0.092889264,0.58848274,-0.97640914,-0.8474517,-1.2872312,1.0,0.0,0.0,0.0,0.0,0.0,0.0,-0.8499168,0.09652123,-0.35101867,-13.425827,1.3610601,-0.9699106,3.4009457,18.271404,-0.026679039,-5.5305095
-21.252903,48.31931,14.584694,23.801805,2.9769163,1.6094579,-0.452489,-0.80702764,-0.81020516,-0.71434844,-0.72597474,0.28977853,0.5168993,-0.44074318,0.85437584,-0.8058857,-1.9096447,-1.429857,2.291403,1.6613994,-0.9495886,0.9201994,-0.73952407,-1.8511665,-1.3702962,2.2609184,1.6129919,-0.90512806,-1.5037141,-1.462534,-1.295586,-1.296334,-0.08306434,0.32863683,0.023762936,0.17350388,-0.4987371,0.8630084,-2.640611,-0.22153163,-3.8249063,0.07937622,-0.5320425,0.7870793,0.8074408,0.0005326838,0.087718636,0.58339053,-1.0690002,-0.8228586,-1.2806771,1.0,0.0,0.0,0.0,0.0,0.0,0.0,-0.82350385,0.09873709,-0.31300837,-6.3146353,1.3301849,0.03528595,2.9241323,26.955473,0.17637014,-5.935695
-10.331846,54.03593,18.883104,19.732172,2.3008392,1.4565792,-0.31293574,-0.81773335,-0.79277396,-0.7306501,-0.7151088,0.37872186,0.5275303,-0.4876727,0.83842605,-0.81880146,-1.9242315,-1.4418072,2.2987905,1.665745,-0.95389533,0.90502167,-0.7539837,-1.8641498,-1.3831079,2.262059,1.6163279,-0.90534264,-1.5220029,-1.4408274,-1.299332,-1.2752931,0.1795702,0.33454368,-0.035724945,0.14711761,-0.5009508,0.8240436,-2.637971,-0.22131014,-3.9203334,0.06824112,-0.540149,0.7743528,0.81202793,0.010622205,0.0810921,0.57785964,-1.1330463,-0.78977406,-1.2748272,1.0,0.0,0.0,0.0,0.0,0.0,0.0,-0.7971176,0.10095081,-0.27404356,-1.7207861,2.06182,-0.38397312,2.3192167,26.190535,0.4043579,-5.678019
-4.2255945,54.173855,19.593864,16.161861,1.4458432,1.2623558,-0.23190062,-0.81816596,-0.79237354,-0.7589538,-0.7041588,0.31754315,0.52262264,-0.49521303,0.82320505,-0.833221,-1.9400452,-1.4535238,2.2938132,1.6685902,-0.95486397,0.8898754,-0.7682621,-1.8772991,-1.3957307,2.2651222,1.6197172,-0.90609795,-1.5119338,-1.4238085,-1.3201557,-1.2572621,0.34839842,0.33985937,-0.0880753,0.12075806,-0.5031624,0.7841252,-2.6353335,-0.22108887,-4.015665,0.056663513,-0.54788446,0.76160884,0.8167344,0.02047956,0.07339004,0.57196105,-1.1710057,-0.75084335,-1.2791972,0.0,1.0,0.0,0.0,0.0,0.0,0.0,-0.77075803,0.10316238,-0.2341252,1.0673523,1.6231775,-2.083373,1.9803286,16.868765,0.39191246,-5.0374327
-2.1552455,53.527264,19.149456,13.723835,0.52798176,1.1863284,-0.19244295,-0.8264122,-0.78820103,-0.778939,-0.69928885,0.15562001,0.52213967,-0.502259,0.80723417,-0.8470822,-1.9551929,-1.4656596,2.2806842,1.6719313,-0.95632386,0.8749421,-0.78230345,-1.8919103,-1.4085602,2.2664425,1.624896,-0.9066663,-1.4864898,-1.3988333,-1.4999917,-1.2871388,0.07244718,0.5494015,-0.06291661,0.102695465,-0.5052314,0.78056014,-1.6636041,-0.15594335,0.5841771,0.045021057,-0.5548997,0.7483214,0.8212494,0.029959591,0.06660658,0.56587565,-1.166116,-0.6706528,-1.3464493,0.0,1.0,0.0,0.0,0.0,0.0,0.0,-0.75269544,0.105231375,-0.23056012,1.9817829,1.1268139,-3.7229538,2.0623207,2.7390747,0.0988245,-4.9279346
64.648186,176.0,110.0,110.0,-3.274861,10.785956,-0.7324674,-0.8038042,0.55000305,0.62840253,0.73466665,-0.28016403,0.6723039,-0.41322365,0.7945617,-0.72730315,-1.8290701,-1.3350935,2.2384262,1.6921264,-0.9479886,0.865043,-0.7972485,-1.9036844,-1.4080337,2.2548,1.6393385,-0.9064679,-0.82917225,-1.5254561,-1.0638303,0.4945822,-1.5710664,1.7528791,0.042991903,0.08607483,-0.5067897,0.7856531,-1.6619409,-0.15578744,0.48434186,0.033870697,-0.5593531,0.73909354,0.82554024,0.029612979,0.066532165,0.5596246,-1.1006094,-0.35327214,-0.7836636,1.0,0.0,0.0,0.0,0.0,0.0,0.0,-0.7360748,0.10678968,-0.2356531,64.30368,-12.377644,45.44382,176.83583,-162.70555,123.45801,9.22957
-21.708254,160.19777,71.30139,96.78235,3.4491553,5.269794,-1.4905037,-0.8146557,-0.55136186,-0.17358246,0.7771419,-0.605788,0.5429688,-0.20763728,0.78357744,-0.8523847,-1.9210427,-1.3303195,2.1942213,1.6936353,-0.92723167,0.85686713,-0.81142294,-1.9112623,-1.3960689,2.236951,1.6568098,-0.90613127,-0.8127748,-1.3828455,-0.6529964,1.4309759,-1.8596483,1.7505397,0.030393697,0.06946945,-0.5083463,0.78974843,-1.6602793,-0.15563168,0.38460645,0.022258759,-0.56216073,0.73441577,0.8304545,0.022588357,0.07048813,0.5521471,-1.1801778,-0.24526468,-0.36778086,1.0,0.0,0.0,0.0,0.0,0.0,0.0,-0.7194694,0.10834631,-0.23974842,1.9289732,13.83698,41.87039,93.80876,-29.806446,1.3667583,-1.3113372
-45.62152,155.48698,50.376015,75.31607,3.2506537,3.571223,-1.5189915,-0.80447584,-0.2629211,-0.4979915,0.7444712,-0.64881706,0.59159565,0.21262671,0.7764195,-0.837715,-1.9610615,-1.3216218,2.1720693,1.7159693,-0.8848686,0.8475974,-0.82258666,-1.9170377,-1.3783935,2.2188122,1.6732912,-0.90569544,-0.96308297,-1.0292895,-0.5524885,1.8806623,-1.8009515,1.6174228,0.047156237,0.052879333,-0.5099015,0.79284716,-1.6586193,-0.15547608,0.28497073,0.00976181,-0.5639789,0.73288596,0.83626217,0.0134087335,0.07643671,0.54281044,-1.2709992,-0.15253215,-0.089285836,1.0,0.0,0.0,0.0,0.0,0.0,0.0,-0.7028793,0.10990152,-0.24284714,-14.42802,34.834362,10.012543,45.25933,5.063081,-12.290239,1.4095701
-44.343998,144.3228,39.57184,51.61005,2.0965767,2.3658974,-1.1234012,-0.79582316,-0.12085471,-0.49202397,0.79759514,-0.6577174,0.58674157,0.12327325,0.7680151,-0.83467215,-1.9662402,-1.298634,2.1530404,1.7319653,-0.8933681,0.8363984,-0.82975066,-1.9228895,-1.3589882,2.2025502,1.688096,-0.90518045,-1.1710644,-0.613725,-0.596746,1.9608495,-1.5703938,1.4364537,0.05150033,0.036304474,-0.51145506,0.79495025,-1.656961,-0.15532063,0.18543464,-0.0033721924,-0.5648711,0.73332894,0.8427299,0.004277208,0.08369345,0.5317736,-1.3254894,-0.05931413,0.08102896,1.0,0.0,0.0,0.0,0.0,0.0,0.0,-0.68630445,0.11145505,-0.24495023,-20.4715,41.05458,-4.6284556,8.076334,22.404957,-17.566944,-0.00808686
-38.48519,97.280205,19.888998,28.721481,1.3720068,0.96916384,-0.66567844,-0.80948055,-0.16387668,-0.55516315,0.7927158,-0.6591558,0.61318505,-0.007005027,0.75545037,-0.8461383,-1.9784058,-1.2797166,2.1366346,1.7494146,-0.9058809,0.82332927,-0.83374274,-1.9299486,-1.3403057,2.1886609,1.7011938,-0.9047246,-1.351855,-0.32876945,-0.74262524,1.8370392,-1.3297482,1.2679677,0.042248413,0.019744873,-0.51300716,0.7960588,-1.6553043,-0.15516534,0.08599808,-0.016902924,-0.56513095,0.73448694,0.84955645,-0.0035039708,0.09154486,0.5194814,-1.3609498,-0.0044493824,0.12151983,1.0,0.0,0.0,0.0,0.0,0.0,0.0,-0.66974485,0.11300716,-0.24605876,-18.00816,28.160637,-14.700615,-12.430024,23.66352,-16.722345,-1.3009518
-24.571394,66.76578,11.611953,14.592972,0.706264,0.13868624,-0.23302487,-0.8121143,-0.14535363,-0.57406473,0.79293245,-0.64365256,0.62687147,-0.022670832,0.7421178,-0.8482781,-1.987355,-1.2610124,2.1242957,1.763881,-0.90699166,0.80894023,-0.8358418,-1.9385259,-1.3233188,2.1768315,1.7127848,-0.90437746,-1.4680452,-0.17096761,-0.8959624,1.6521895,-1.1349448,1.1227975,0.03129311,0.0032043457,-0.5145576,0.79617363,-1.6536493,-0.15501021,-0.013339057,-0.03061676,-0.56504726,0.7355336,0.85645515,-0.00947751,0.09946735,0.5064593,-1.3725384,0.024203736,0.09524034,1.0,0.0,0.0,0.0,0.0,0.0,0.0,-0.6532043,0.114557594,-0.24617362,-11.676025,15.572622,-15.280592,-18.596697,19.128323,-14.548898,-1.3831689
-15.9583645,36.347176,3.5723803,7.009473,0.64990896,-0.45791543,0.007605441,-0.81514347,-0.19387498,-0.61100936,0.7920905,-0.637382,0.62152433,-0.043937076,0.7274259,-0.85522926,-1.9996269,-1.2441097,2.1130934,1.7749372,-0.90877116,0.79386836,-0.83741724,-1.9484918,-1.3079914,2.1664746,1.7230978,-0.9041419,-1.5203859,-0.15336941,-1.0298785,1.4928195,-1.0029218,1.0006543,0.020384537,-0.013317108,-0.5161066,0.7952959,-1.651996,-0.15485522,-0.11257688,-0.044441223,-0.56491375,0.73596454,0.8632559,-0.013661473,0.10705045,0.4930951,-1.3832374,0.021907004,0.023594925,1.0,0.0,0.0,0.0,0.0,0.0,0.0,-0.63668287,0.1161066,-0.24529588,-5.262494,1.6672373,-13.314999,-15.978909,12.965322,-12.286544,-1.247194
-6.231114,26.081207,4.2395926,5.040884,0.6270266,-0.56662375,0.15808558,-0.80381036,-0.22281364,-0.5935396,0.792837,-0.6235438,0.65283173,-0.09729857,0.7134873,-0.8596986,-2.0078459,-1.2287077,2.1041203,1.788381,-0.91387177,0.7786725,-0.8394476,-1.9593141,-1.2938064,2.1570523,1.7323732,-0.9040408,-1.519375,-0.21964537,-1.0992289,1.3938197,-0.92276305,0.9029358,0.006542006,-0.029823303,-0.51765394,0.7934236,-1.6503444,-0.1547004,-0.21210922,-0.05831909,-0.56487226,0.73565435,0.869855,-0.01643206,0.11405019,0.4796612,-1.3884931,0.010498655,-0.050481077,1.0,0.0,0.0,0.0,0.0,0.0,0.0,-0.6201767,0.117653936,-0.24342358,0.07970333,-6.6727014,-6.8086624,-9.887147,7.8085184,-9.830702,-1.4526972
-6.038574,13.875006,1.5276073,5.723103,1.0004747,-0.59455156,0.15195231,-0.80726093,-0.30784544,-0.6038857,0.797025,-0.6147175,0.6410372,-0.12991033,0.6979464,-0.87023216,-2.0197027,-1.2141039,2.0955806,1.796477,-0.9170318,0.76365215,-0.8426739,-1.970516,-1.2801498,2.1481526,1.740798,-0.90408564,-1.4960665,-0.35713774,-1.1267214,1.3567231,-0.8794719,0.8219578,-0.008057407,-0.04631424,-0.51919985,0.79055667,-1.6486944,-0.15454572,-0.31154206,-0.07236481,-0.56502175,0.734566,0.8762443,-0.018163396,0.12029843,0.4662556,-1.4080378,-0.011157613,-0.12924212,1.0,0.0,0.0,0.0,0.0,0.0,0.0,-0.60368574,0.11919984,-0.24055666,2.3648024,-13.7689295,-2.6505709,-3.5768986,4.207349,-8.158779,-1.432361
-1.2370453,24.310013,7.4519567,8.020988,0.87452996,-0.30367422,0.19786873,-0.79360324,-0.31591558,-0.5759887,0.7940639,-0.6176601,0.6570856,-0.08109971,0.68429184,-0.87426543,-2.0281148,-1.2007434,2.0863867,1.8065065,-0.9121956,0.74895984,-0.8471962,-1.981632,-1.266579,2.1394742,1.7485342,-0.9042268,-1.4603355,-0.48404393,-1.1058747,1.3576527,-0.8641864,0.757306,-0.015962766,-0.06278992,-0.5207441,0.7866962,-1.6470461,-0.15439121,-0.4108755,-0.08652496,-0.56528354,0.7328801,0.88238853,-0.01923428,0.12587956,0.45296237,-1.4172735,-0.018791333,-0.18277979,1.0,0.0,0.0,0.0,0.0,0.0,0.0,-0.58721006,0.12074408,-0.23669618,3.5615206,-12.739765,2.2768736,0.21398067,1.3438344,-6.510806,-0.7682461
-2.8115644,25.53602,7.4919777,9.437469,0.96563685,-0.2050435,0.15198293,-0.78551173,-0.37893447,-0.5948304,0.794849,-0.6072781,0.64581674,-0.08026837,0.67040867,-0.8850897,-2.041115,-1.1870941,2.0787463,1.8131158,-0.9122536,0.73461753,-0.85296977,-1.9925268,-1.2528538,2.1308758,1.7557039,-0.9044299,-1.4255631,-0.60862786,-1.0835235,1.3779336,-0.8593257,0.7033571,-0.02166108,-0.079250336,-0.5222869,0.7818431,-1.6453993,-0.15423685,-0.51010966,-0.10080719,-0.5655992,0.73069495,0.8882989,-0.019830197,0.13088931,0.43977228,-1.4306362,-0.02346642,-0.2319048,1.0,0.0,0.0,0.0,0.0,0.0,0.0,-0.57074964,0.122286886,-0.23184311,3.478098,-12.522697,2.4277925,2.1855354,0.3093958,-5.451107,-0.5371049
0.5149727,33.34662,10.825069,9.71687,0.7341573,-0.07481152,0.19139159,-0.757893,-0.41561463,-0.576828,0.7950389,-0.6189019,0.6537508,-0.047250096,0.65882826,-0.89453125,-2.0502095,-1.1733499,2.0689857,1.821079,-0.90915495,0.7206643,-0.85982096,-2.0031343,-1.2389034,2.1222394,1.762414,-0.9046569,-1.3853887,-0.7109464,-1.0523959,1.400978,-0.8657938,0.65999335,-0.023006393,-0.095695496,-0.523828,0.7759985,-1.6437542,-0.15408264,-0.60924447,-0.11513138,-0.5658951,0.7281024,0.8939551,-0.020065492,0.13546771,0.42672,-1.4325321,-0.01940003,-0.27028784,1.0,0.0,0.0,0.0,0.0,0.0,0.0,-0.5543045,0.12382802,-0.22599846,3.9803982,-10.31369,3.3591747,2.4256468,-0.8699298,-4.3795824,-0.12977645
-3.03434,31.543495,8.905909,9.950687,0.83193123,-0.038038254,0.14889455,-0.75632536,-0.48211968,-0.5839866,0.79554814,-0.60667187,0.6488025,-0.049645655,0.6450318,-0.90803295,-2.061533,-1.1593486,2.061572,1.8272942,-0.9096215,0.7070287,-0.8676802,-2.0135255,-1.2247585,2.113557,1.7687464,-0.90489244,-1.3562214,-0.8111052,-1.0338179,1.4193434,-0.86942136,0.62389445,-0.023613634,-0.11211777,-0.52536774,0.7691632,-1.6421108,-0.1539286,-0.7082802,-0.12953568,-0.5661459,0.725088,0.8993802,-0.01994634,0.13965459,0.41378003,-1.4415685,-0.014743247,-0.3139198,1.0,0.0,0.0,0.0,0.0,0.0,0.0,-0.5378822,0.12536773,-0.21916318,2.9059172,-10.104858,2.0719528,1.9985914,-0.56523085,-3.671825,-0.042644516
-1.59022,33.724884,9.41075,9.088182,0.6312204,-0.025542676,0.18418816,-0.7296804,-0.5234261,-0.5848147,0.79592025,-0.62772846,0.65728146,-0.0074370247,0.6340606,-0.9200228,-2.072007,-1.1451665,2.0507843,1.8344746,-0.90563613,0.69370776,-0.87645113,-2.023806,-1.2104877,2.104787,1.7747717,-0.90510035,-1.3241626,-0.89940304,-1.0257448,1.4299405,-0.88048625,0.59513736,-0.019856283,-0.12852478,-0.526906,0.7613383,-1.6404691,-0.1537747,-0.80721694,-0.14398193,-0.5663302,0.7216308,0.90456814,-0.019448787,0.14351788,0.40097493,-1.4440758,-0.0076299678,-0.35895917,1.0,0.0,0.0,0.0,0.0,0.0,0.0,-0.5214752,0.12690601,-0.21133828,3.1806946,-8.923149,1.0288477,1.2092352,-1.3159752,-2.9334903,0.37663913
-1.2440944,35.59497,9.424475,8.514702,0.46142766,-0.022167623,0.2193423,-0.7116176,-0.5584865,-0.59963167,0.7942644,-0.6477033,0.65895003,0.07983471,0.622546,-0.9322998,-2.0837693,-1.1310613,2.040017,1.8406667,-0.8971169,0.6807082,-0.88600504,-2.0341363,-1.1961712,2.095857,1.780549,-0.90520525,-1.2919928,-0.97439563,-1.0345306,1.4326359,-0.8982843,0.5718433,-0.007479036,-0.14491653,-0.5284426,0.7525248,-1.6388289,-0.15362096,-0.90605474,-0.15842056,-0.5664332,0.71770877,0.90950125,-0.018513644,0.14715861,0.3883413,-1.4420584,0.0009941075,-0.40606543,0.0,1.0,0.0,0.0,0.0,0.0,0.0,-0.50508344,0.12844262,-0.20252478,3.1853914,-7.599199,-0.65948963,0.41315556,-1.9909024,-2.3878932,1.2182758
-1.0714393,34.176598,8.636127,7.4545817,0.40433276,-0.03925675,0.22795212,-0.6950319,-0.6115018,-0.60283977,0.78820854,-0.6466578,0.66826785,0.058550227,0.61120504,-0.94715524,-2.0944202,-1.1173503,2.031191,1.8473759,-0.8993502,0.66802627,-0.8963181,-2.0445962,-1.1818908,2.0867665,1.7861319,-0.90520525,-1.2604619,-1.0505868,-1.04932,1.4272581,-0.9131064,0.5536638,0.0024282753,-0.16129303,-0.52997756,0.74272364,-1.6371903,-0.15346737,-1.0047938,-0.17282867,-0.5664542,0.71327657,0.9141815,-0.017110229,0.1505838,0.3759041,-1.4395642,0.008863162,-0.45869353,0.0,1.0,0.0,0.0,0.0,0.0,0.0,-0.48870695,0.12997755,-0.19272363,3.122449,-7.716608,-1.2723207,-0.38256645,-1.6827106,-1.8897653,0.9787753
5.4056344,25.956457,6.831212,2.683599,0.07496405,-0.3078043,0.31681618,-0.6336777,-0.68826485,-0.63566697,0.77660483,-0.64396125,0.6806761,0.051758897,0.6046585,-0.9651446,-2.1081629,-1.1042304,2.0223703,1.8541994,-0.90002936,0.6558755,-0.9075457,-2.0554163,-1.167751,2.0774808,1.7915595,-0.9052087,-1.1965803,-1.1468873,-1.1124694,1.4042383,-0.9300659,0.5689746,-0.0051768003,-0.17788696,-0.5304313,0.73440367,-1.5310172,0.125704,-0.12020142,-0.18714905,-0.5664947,0.70815295,0.9186087,-0.015127596,0.15374006,0.36372128,-1.4278116,0.005184081,-0.5407839,0.0,1.0,0.0,0.0,0.0,0.0,0.0,-0.472113,0.13043126,-0.18440366,6.8827868,-9.68132,-9.065986,-3.0256987,-2.6661396,4.3353677,-2.3085167
3.9356627,65.443214,21.07262,12.6869,0.4664122,0.6085487,0.22461039,-0.6899738,-0.5825778,-0.4746168,0.7971961,-0.6351796,0.66865087,0.015920905,0.5868781,-0.96580344,-2.102878,-1.0880313,2.0139627,1.8584245,-0.9036166,0.64399844,-0.91904604,-2.0659983,-1.1537205,2.0681615,1.7971632,-0.905244,-1.1852392,-1.1517469,-1.0384833,1.4025595,-0.93411046,0.557267,-0.0033296293,-0.19318771,-0.52917504,0.73246354,-1.5294864,0.12557833,-0.21860293,-0.20124054,-0.5662494,0.7028105,0.9227546,-0.013076688,0.15683658,0.3517884,-1.401196,0.042672653,-0.53573304,0.0,1.0,0.0,0.0,0.0,0.0,0.0,-0.45681226,0.12917504,-0.18246353,1.0047674,-0.65557957,7.84142,-0.17163754,-0.8823395,-1.2222528,0.09102677
-2.1265352,78.83861,24.702648,18.058681,0.9921438,1.0056626,0.13616087,-0.7180154,-0.5876448,-0.41818428,0.79445297,-0.6049885,0.645726,0.044959694,0.5721969,-0.9778105,-2.1078167,-1.0742753,2.0076625,1.8617358,-0.900748,0.631964,-0.9303814,-2.0754778,-1.1396824,2.05893,1.8026488,-0.9052383,-1.209832,-1.1281414,-0.91608214,1.404019,-0.92165846,0.545505,0.0014536543,-0.2084732,-0.52792025,0.72954017,-1.5279573,0.12545277,-0.31690603,-0.21512985,-0.5655019,0.69773966,0.9266437,-0.01126313,0.15990259,0.34005228,-1.3818104,0.09665599,-0.50120044,0.0,1.0,0.0,0.0,0.0,0.0,0.0,-0.44152677,0.12792024,-0.17954016,-2.5702477,2.1528482,12.737143,0.1360178,0.6628156,-1.221025,0.3859229
-3.930031,83.66624,25.085934,19.885498,1.1026342,0.98484325,0.09164624,-0.7059594,-0.5800914,-0.43009862,0.79647714,-0.6114087,0.64567596,0.07654199,0.5613681,-0.98839056,-2.1184876,-1.0600348,1.997789,1.8672163,-0.8975841,0.61966926,-0.94137347,-2.083851,-1.1255928,2.049809,1.8079989,-0.9051591,-1.2363468,-1.0903343,-0.80957013,1.4106557,-0.9108092,0.5313404,0.009699066,-0.22374344,-0.52666664,0.72562134,-1.5264297,0.12532733,-0.4168684,-0.22882843,-0.5642102,0.6930529,0.93030006,-0.009721739,0.16300908,0.32844388,-1.3632436,0.15079126,-0.4613528,0.0,1.0,0.0,0.0,0.0,0.0,0.0,-0.42625654,0.12666664,-0.17562133,-2.750349,3.5660982,11.138678,0.66206455,0.5052328,-1.4535308,0.71959645
-0.40991783,72.60489,21.118664,15.870777,0.8381608,0.60966355,0.1421803,-0.6731585,-0.60821265,-0.44392473,0.7905998,-0.60955656,0.6523184,0.11547389,0.5523534,-1.0021948,-2.1282437,-1.0465329,1.9888533,1.8732307,-0.8936117,0.6073049,-0.95216143,-2.0915148,-1.1114632,2.040791,1.813225,-0.9049722,-1.236805,-1.0754904,-0.7510266,1.4135811,-0.9005684,0.51940817,0.021423344,-0.23899841,-0.5254142,0.7207036,-1.5249035,0.12520204,-0.5167308,-0.24234009,-0.56249833,0.6885782,0.9337314,-0.008285777,0.1661309,0.31698182,-1.3434815,0.18842544,-0.44622657,0.0,1.0,0.0,0.0,0.0,0.0,0.0,-0.41100156,0.12541422,-0.17070359,-0.13988018,1.3082504,6.268716,0.31397343,0.55497885,-1.2382388,1.0844823
1.6263938,65.061035,17.76591,13.137921,0.54621124,0.2992161,0.1750921,-0.65367955,-0.6030857,-0.47301498,0.79336476,-0.6253024,0.64957803,0.17658626,0.54193693,-1.01247,-2.1388164,-1.0321267,1.9782608,1.8781829,-0.88731354,0.59509593,-0.9628655,-2.099026,-1.0973068,2.0318074,1.8183424,-0.9046298,-1.2159349,-1.0692303,-0.7499906,1.4165658,-0.89884794,0.509047,0.038087893,-0.25423813,-0.52416325,0.714788,-1.523379,0.12507688,-0.61649334,-0.25563812,-0.5605066,0.6841046,0.9369356,-0.006709277,0.16929913,0.3056867,-1.3219681,0.21285945,-0.45081893,0.0,1.0,0.0,0.0,0.0,0.0,0.0,-0.39576185,0.12416324,-0.16478801,1.9970179,0.47245026,0.45779943,0.33330917,-0.20948648,-1.0860324,1.5660405
3.0985084,59.20161,15.435957,10.929062,0.362398,0.10550392,0.21331635,-0.6400893,-0.6080243,-0.48048314,0.78822976,-0.6266904,0.64405984,0.22078937,0.531087,-1.0236679,-2.1470742,-1.0184839,1.9691384,1.8827485,-0.8825509,0.5831837,-0.97358334,-2.1067822,-1.083163,2.0228274,1.82338,-0.9041083,-1.1823016,-1.0731864,-0.78882796,1.4121813,-0.8939866,0.5086681,0.056319125,-0.2692871,-0.52252364,0.7089391,-1.4516393,0.21953493,-0.39298126,-0.2687149,-0.558336,0.6794668,0.9399125,-0.004814769,0.17251864,0.29458216,-1.3007032,0.22857878,-0.47297624,0.0,1.0,0.0,0.0,0.0,0.0,0.0,-0.38071287,0.122523636,-0.15893906,3.456688,-0.5478382,-4.5668364,-0.6792784,0.7621765,0.7916689,1.5905701
-1.4683344,60.175594,14.779953,12.609379,0.5984415,0.20472234,0.17712891,-0.65828884,-0.6031292,-0.45699942,0.79231936,-0.6188981,0.6349635,0.26983035,0.51735485,-1.0338962,-2.152482,-1.003931,1.9609376,1.8868763,-0.87712526,0.5714794,-0.9843408,-2.1148465,-1.0690454,2.0139282,1.8284404,-0.90337133,-1.1666425,-1.0770041,-0.81109405,1.4117972,-0.8897782,0.5045142,0.07909077,-0.28357697,-0.52025366,0.70490384,-1.4224826,0.23041773,-0.40787262,-0.2816429,-0.55596495,0.67463493,0.94267887,-0.0026184788,0.17576183,0.28365016,-1.2868805,0.2494578,-0.48940927,0.0,1.0,0.0,0.0,0.0,0.0,0.0,-0.366423,0.12025365,-0.15490383,1.5002728,-0.53112507,-1.9074678,0.033569336,0.046885014,-0.5485296,2.165024
-10.156136,60.523067,12.992029,15.283779,0.96307755,0.35083684,0.090903245,-0.6863281,-0.6014087,-0.46453932,0.79046553,-0.608723,0.6184855,0.2844113,0.5028466,-1.0444816,-2.1613004,-0.9899989,1.9530559,1.890289,-0.8749302,0.55972445,-0.99512494,-2.123102,-1.0549368,2.0050936,1.8334455,-0.9024194,-1.1784651,-1.0794176,-0.8296666,1.4112247,-0.8825333,0.4986475,0.10040139,-0.29763412,-0.51784086,0.70071703,-1.4003044,0.245685,-0.42313245,-0.2945366,-0.55332446,0.6696543,0.94527215,-0.00011512066,0.17901395,0.27279034,-1.2870673,0.27831316,-0.50375044,0.0,1.0,0.0,0.0,0.0,0.0,0.0,-0.35236585,0.11784086,-0.15071702,-1.2053728,-0.4045248,-1.5710473,0.07276535,0.41085482,-0.70523024,2.0746365
-16.163866,56.284805,10.666591,16.014187,1.297014,0.4068024,0.044039425,-0.7054058,-0.62823063,-0.46177056,0.7839765,-0.5596937,0.5893711,0.3177135,0.48918387,-1.057948,-2.169279,-0.97653913,1.9491242,1.8923826,-0.870648,0.5477093,-1.0060483,-2.1314485,-1.0408528,1.996457,1.8383611,-0.90125126,-1.2091646,-1.097203,-0.83577365,1.4081578,-0.85843736,0.48848736,0.12220135,-0.311512,-0.51527715,0.6963096,-1.383954,0.26083815,-0.44677126,-0.3075447,-0.5503626,0.664496,0.9477402,0.002675469,0.18213728,0.26192975,-1.3011274,0.3114285,-0.5226623,0.0,1.0,0.0,0.0,0.0,0.0,0.0,-0.33848798,0.11527714,-0.14630961,-3.0559301,-1.9405842,-0.36150217,-0.11789799,2.1149874,-1.1577547,2.172996
-12.414038,56.309494,11.637802,14.598404,1.2177682,0.41066077,0.08823712,-0.69663334,-0.64368474,-0.4392614,0.7812566,-0.5587349,0.58702534,0.33557385,0.47804594,-1.0704168,-2.1753747,-0.9627271,1.9405835,1.8970637,-0.8676939,0.53544027,-1.0172158,-2.1397035,-1.0268109,1.9880517,1.8431783,-0.89987326,-1.23283,-1.1236347,-0.8207613,1.4035126,-0.8356665,0.47883534,0.1430415,-0.3252144,-0.51256895,0.6916649,-1.3657621,0.27501953,-0.47091144,-0.32064056,-0.54707885,0.6591479,0.95008963,0.0056825913,0.1850359,0.25111568,-1.308868,0.34370276,-0.54135776,0.0,1.0,0.0,0.0,0.0,0.0,0.0,-0.3247856,0.112568945,-0.14166486,-2.3737192,-2.797103,1.7879725,-0.2954483,1.9559145,-1.1118412,2.0887792
-7.017706,58.891167,13.443542,13.228889,1.050297,0.39460516,0.14039418,-0.69154626,-0.649718,-0.42398337,0.77728486,-0.5562566,0.5716158,0.35712677,0.46628565,-1.0821877,-2.182102,-0.9490824,1.932426,1.9003398,-0.8641606,0.52302533,-1.028639,-2.1477103,-1.0128281,1.9798424,1.847899,-0.89829206,-1.2445303,-1.1489103,-0.7926656,1.3967919,-0.81713396,0.46924263,0.16315041,-0.33870697,-0.5097282,0.6867974,-1.3433659,0.28799942,-0.49158925,-0.33374405,-0.5434923,0.6536368,0.9523041,0.008830628,0.18769401,0.24043672,-1.3058193,0.373497,-0.55693346,0.0,1.0,0.0,0.0,0.0,0.0,0.0,-0.311293,0.10972819,-0.13679737,-1.210618,-2.6759148,3.1479716,-0.54609776,1.4929771,-1.1063397,2.0059109
-0.77539873,60.796112,14.744405,11.510387,0.74518096,0.30395865,0.20241657,-0.6748522,-0.65592283,-0.43320423,0.777514,-0.5730867,0.5655793,0.39706928,0.45554012,-1.0942312,-2.1910307,-0.9350767,1.9225338,1.9044569,-0.8585851,0.51063615,-1.0402795,-2.1555033,-0.99890447,1.9717246,1.8525319,-0.8965011,-1.2372533,-1.1694527,-0.7732906,1.3912133,-0.81125224,0.4608617,0.18428966,-0.35194397,-0.5067737,0.6817353,-1.3165537,0.29858446,-0.510514,-0.34672546,-0.53965616,0.64796805,0.9543564,0.012127169,0.19017561,0.2299785,-1.290209,0.39684662,-0.57271075,0.0,1.0,0.0,0.0,0.0,0.0,0.0,-0.298056,0.106773704,-0.13173527,0.65283775,-2.1958828,2.3140907,-0.47883987,0.20245314,-0.9755969,2.0752966
3.7057366,67.72857,17.458914,11.642115,0.6510225,0.33697146,0.22949672,-0.6698415,-0.64769554,-0.40069106,0.7754938,-0.57750404,0.5585293,0.41685086,0.443652,-1.105049,-2.1955724,-0.92135507,1.9139743,1.9083848,-0.854816,0.49838042,-1.0520192,-2.1630104,-0.9850332,1.9636158,1.8570892,-0.8945052,-1.2220576,-1.1759716,-0.7419503,1.3858013,-0.8122914,0.45375636,0.20450424,-0.36486435,-0.5037155,0.67656505,-1.2830672,0.3087414,-0.5183017,-0.35947037,-0.5355921,0.6422235,0.95622456,0.0155195575,0.1925628,0.21980257,-1.2634935,0.41917682,-0.57781255,0.0,1.0,0.0,0.0,0.0,0.0,0.0,-0.28513563,0.10371551,-0.12656504,1.4080286,-0.79934597,3.5870194,-0.517416,-0.56238174,-0.8317411,1.9496351
2.9082737,68.83936,16.92141,12.102622,0.6145964,0.2874438,0.21129163,-0.6654039,-0.6479883,-0.42297217,0.77784914,-0.58477956,0.54073346,0.44118974,0.43184003,-1.1168181,-2.2053075,-0.9072483,1.9051378,1.9111625,-0.8503862,0.48629066,-1.0637685,-2.1703687,-0.9711896,1.9554559,1.8615713,-0.8923111,-1.2049626,-1.1750909,-0.7321327,1.3839676,-0.8185912,0.44598648,0.22404064,-0.37744522,-0.50056386,0.6713131,-1.2492296,0.31759772,-0.5265884,-0.37193298,-0.53131866,0.6364227,0.95790493,0.01905968,0.19493872,0.20988983,-1.2368143,0.43938765,-0.5834744,0.0,1.0,0.0,0.0,0.0,0.0,0.0,-0.27255476,0.100563854,-0.121313095,1.601696,-0.06186962,1.4244795,-0.15676022,-1.0823607,-0.88891387,1.8618256
-0.93261695,61.028557,13.3752,10.985244,0.62195534,0.17046744,0.2047484,-0.669857,-0.67422086,-0.44675273,0.7588024,-0.5616399,0.48199424,0.47050187,0.41930497,-1.1311905,-2.215044,-0.8953094,1.8992919,1.9097707,-0.8452609,0.47431722,-1.0756055,-2.1778145,-0.9574366,1.9472975,1.8659316,-0.88992226,-1.1950613,-1.1870068,-0.7474901,1.372709,-0.8161379,0.4323691,0.243638,-0.3897438,-0.497339,0.66585684,-1.2225364,0.32435125,-0.55108327,-0.38420868,-0.5268626,0.6304487,0.9594225,0.022889106,0.19723906,0.20020252,-1.2196901,0.4567095,-0.604512,0.0,1.0,0.0,0.0,0.0,0.0,0.0,-0.26025617,0.097339004,-0.11585683,0.91707706,-1.329732,-1.178956,-1.0485649,-0.13240576,-1.4924943,1.8937021
0.56378794,61.67326,13.589074,10.597978,0.56672144,0.15616107,0.2205956,-0.6543761,-0.6744697,-0.43982887,0.7596292,-0.5751228,0.48399147,0.5013766,0.4088796,-1.1430525,-2.2217975,-0.8814737,1.8897852,1.9143307,-0.8397846,0.4624711,-1.0875589,-2.1854205,-0.94378555,1.939135,1.8701655,-0.88733524,-1.1813927,-1.198742,-0.7635572,1.3628341,-0.81759685,0.4198672,0.26351497,-0.40176773,-0.49405646,0.6601494,-1.1947526,0.32991517,-0.5755849,-0.39630127,-0.52224517,0.62426573,0.9607822,0.02704576,0.19945094,0.19074936,-1.1997509,0.47229376,-0.6254385,0.0,1.0,0.0,0.0,0.0,0.0,0.0,-0.24823225,0.09405646,-0.11014938,1.2847662,-1.311326,-1.2294292,-0.92065334,-0.53880215,-1.3923109,1.91499
-0.2678926,61.58291,13.444344,10.802398,0.66709,0.19096637,0.2077075,-0.6559961,-0.68697524,-0.4236252,0.75560933,-0.57301134,0.4693562,0.5125545,0.39687148,-1.1562564,-2.227783,-0.8682246,1.8818338,1.9171011,-0.8360798,0.4507237,-1.0996667,-2.1930842,-0.930228,1.9309616,1.8742733,-0.8845612,-1.1727798,-1.2152201,-0.7663033,1.3537219,-0.8185163,0.4072439,0.28185785,-0.413517,-0.49072075,0.65419614,-1.1675963,0.33518645,-0.6009767,-0.40820312,-0.5174594,0.6178802,0.96199554,0.031485435,0.20154205,0.18153244,-1.181693,0.48925218,-0.6454268,0.0,1.0,0.0,0.0,0.0,0.0,0.0,-0.23648298,0.09072074,-0.10419613,0.78327656,-1.785183,0.113248825,-0.83487034,-0.49923658,-1.4186144,1.7775595
-2.0986166,58.545734,11.818891,10.418896,0.68624604,0.13100344,0.19969189,-0.6519913,-0.6995286,-0.46105996,0.7463723,-0.5477907,0.41902247,0.54863536,0.38552457,-1.1696196,-2.2391903,-0.85559076,1.8761826,1.9161756,-0.82969767,0.4390478,-1.1119672,-2.2009106,-0.91677535,1.9228525,1.878225,-0.8815983,-1.1660113,-1.2354326,-0.7869738,1.3427097,-0.8093972,0.39077687,0.30099344,-0.42502213,-0.48733878,0.64792144,-1.1439782,0.3393704,-0.63405377,-0.41996384,-0.5125103,0.6112454,0.9630808,0.036255933,0.20345773,0.1725275,-1.168361,0.5051707,-0.67199415,0.0,1.0,0.0,0.0,0.0,0.0,0.0,-0.22497785,0.087338775,-0.09792143,0.6137371,-2.1550417,-1.7190576,-1.0015249,0.5411029,-1.8097997,1.8649638
10.595336,60.252144,14.189162,6.632417,0.24793005,-0.033096313,0.3150841,-0.5961406,-0.69964105,-0.47664,0.7256983,-0.5328904,0.3820362,0.56211644,0.37943375,-1.1819313,-2.2485745,-0.8442055,1.8695635,1.9164286,-0.82538664,0.4276728,-1.1244279,-2.2090008,-0.9035106,1.9148885,1.8820031,-0.87845314,-1.128402,-1.2501663,-0.81488955,1.321072,-0.7933407,0.37291768,0.31876844,-0.43624115,-0.48394942,0.64134455,-1.113708,0.33871213,-0.66381645,-0.4314537,-0.50750923,0.60433984,0.9640258,0.041371442,0.20516576,0.16385871,-1.1368268,0.5067706,-0.6991821,0.0,1.0,0.0,0.0,0.0,0.0,0.0,-0.21375883,0.08394942,-0.091344535,3.6360025,-1.5927792,-2.3713827,-2.1621227,1.1783838,-1.9429266,1.6783118
13.937385,59.815414,14.623495,5.2314796,0.2413893,-0.088119626,0.34355414,-0.5874881,-0.71310914,-0.47263476,0.6994713,-0.48050693,0.30193686,0.5707312,0.368924,-1.1957388,-2.2562642,-0.83356345,1.8668379,1.9121968,-0.82138,0.416695,-1.1370488,-2.2173085,-0.8905586,1.9072274,1.8855572,-0.8751432,-1.0880258,-1.2664955,-0.8344551,1.2864915,-0.7582114,0.34904712,0.33482555,-0.4471588,-0.48058057,0.6344571,-1.0829645,0.3361452,-0.69451714,-0.4426117,-0.50252056,0.5971576,0.96484804,0.04678758,0.2065551,0.15560845,-1.1032381,0.50424695,-0.72681,0.0,1.0,0.0,0.0,0.0,0.0,0.0,-0.20284116,0.08058056,-0.0844571,3.9001703,-1.7442942,-1.5202999,-3.4804583,3.0661106,-2.560854,1.5144348
8.207385,54.580685,11.487679,4.7871046,0.26992753,-0.23443925,0.34476915,-0.59771025,-0.72138244,-0.53830254,0.64775306,-0.42234325,0.018855393,0.59553164,0.35692397,-1.209187,-2.2711387,-0.8257833,1.8649931,1.8874427,-0.81559,0.40599567,-1.1498299,-2.2260513,-0.8781417,1.9000587,1.8886737,-0.87167394,-1.0642486,-1.2823207,-0.88633215,1.2267375,-0.7043009,0.298542,0.35069188,-0.45781326,-0.477242,0.6271719,-1.0591884,0.3329556,-0.73818874,-0.45352173,-0.49756098,0.58960944,0.9655854,0.05267601,0.20746267,0.14774741,-1.0799943,0.5008852,-0.7664474,0.0,1.0,0.0,0.0,0.0,0.0,0.0,-0.19218671,0.07724199,-0.07717186,2.2785664,-1.6880989,-4.850483,-5.951476,5.008042,-5.248123,1.5140235
1.4227252,60.864223,12.009518,8.29847,0.81026065,-0.14473343,0.24310084,-0.61051416,-0.70934194,-0.5264846,0.6271679,-0.32318214,-0.19386786,0.61004895,0.34494424,-1.220764,-2.2786999,-0.8154249,1.8677405,1.8692869,-0.81066906,0.39537066,-1.162672,-2.2351985,-0.86633694,1.8936577,1.891145,-0.8680539,-1.0622222,-1.2851682,-0.9231385,1.1651348,-0.62004256,0.22938502,0.3656683,-0.46824265,-0.47391868,0.6195001,-1.0362247,0.3319237,-0.7741422,-0.46427155,-0.49255753,0.58176905,0.9662896,0.059030388,0.20774005,0.14015673,-1.0673106,0.50771374,-0.79208696,0.0,1.0,0.0,0.0,0.0,0.0,0.0,-0.18175733,0.07391867,-0.06950009,0.11675358,-0.40488243,-3.3159614,-6.1217785,7.9978824,-7.1492314,1.4528632
2.368551,68.102356,14.726688,9.643093,1.3378295,-0.012711525,0.18600829,-0.61038196,-0.7045556,-0.4739144,0.57587826,-0.15314235,-0.3324487,0.6152929,0.33433247,-1.2331276,-2.28259,-0.80874914,1.8783435,1.8579001,-0.80652463,0.38469228,-1.175478,-2.244353,-0.85525125,1.8885025,1.8928667,-0.86429584,-1.0700362,-1.2794143,-0.91147894,1.0896596,-0.48218328,0.15224776,0.37913036,-0.47842026,-0.4705999,0.61155766,-1.0105107,0.33166972,-0.7981485,-0.47491074,-0.48743296,0.5738081,0.9670368,0.06555782,0.20714691,0.13278566,-1.0567483,0.5214088,-0.79943436,0.0,1.0,0.0,0.0,0.0,0.0,0.0,-0.17157972,0.070599884,-0.06155765,-0.88870525,0.45733452,1.6081691,-7.5535297,13.278353,-7.969436,1.3307333
0.9914818,71.10653,15.785206,10.530932,1.823874,0.13600463,0.11709453,-0.6277796,-0.7051145,-0.43819234,0.5148467,0.028406898,-0.4114755,0.600863,0.32191432,-1.2459894,-2.2881722,-0.8037666,1.8913431,1.8517191,-0.80420953,0.37383512,-1.1882114,-2.2531185,-0.84504676,1.8851061,1.8938236,-0.86042917,-1.0912906,-1.2717988,-0.8633412,0.99736875,-0.29371572,0.07575519,0.38924316,-0.4883499,-0.4672749,0.603409,-0.9856788,0.33288002,-0.8180702,-0.48548126,-0.48210788,0.5658479,0.9679139,0.071919546,0.20541911,0.12559108,-1.0516763,0.5435603,-0.7967848,0.0,1.0,0.0,0.0,0.0,0.0,0.0,-0.16165006,0.0672749,-0.05340898,-2.2299528,0.651145,5.265975,-9.241592,18.330204,-7.9277143,1.0365665
14.282438,83.02999,22.605795,9.734056,2.266048,0.3428986,0.11503948,-0.6135491,-0.6918567,-0.26942664,0.44872728,0.24637905,-0.44741437,0.59809136,0.3124802,-1.257397,-2.2800612,-0.80017406,1.909744,1.8490822,-0.80062,0.36284393,-1.2008152,-2.2606099,-0.8358933,1.8839933,1.8940712,-0.856477,-1.1022948,-1.2569331,-0.7092358,0.88745034,-0.052211065,0.006966313,0.39737937,-0.49794006,-0.46395898,0.59525704,-0.9487694,0.3311006,-0.8111439,-0.49590683,-0.47656727,0.5581428,0.9690192,0.07748173,0.20228337,0.11865866,-1.0325209,0.5649463,-0.76363146,0.0,1.0,0.0,0.0,0.0,0.0,0.0,-0.15205991,0.06395897,-0.045257032,-1.2651443,1.4018297,15.990901,-11.132395,23.548716,-7.1227155,0.8358598
20.513397,97.61552,28.609972,12.712759,2.722771,0.6183702,0.033845354,-0.6228785,-0.67876935,-0.06846027,0.43735734,0.295869,-0.46677515,0.58359325,0.3005561,-1.2686921,-2.2674558,-0.79215753,1.9135802,1.8473938,-0.7981177,0.35174552,-1.2132282,-2.2657285,-0.8276658,1.8850853,1.8937038,-0.8524652,-1.1128943,-1.23637,-0.44366798,0.8005259,0.16109014,-0.05193907,0.40243888,-0.5070648,-0.4606831,0.58742696,-0.89925766,0.3265284,-0.77147216,-0.5060692,-0.47078896,0.5510298,0.9704009,0.081623815,0.19776475,0.11202067,-1.0036073,0.58921456,-0.69557494,0.0,1.0,0.0,0.0,0.0,0.0,0.0,-0.14293516,0.0606831,-0.03742695,-1.2373209,1.9795418,27.210648,-8.8837385,20.707808,-6.0592933,0.50231814
33.014977,112.3112,34.980507,13.85774,2.7214806,0.73101366,0.039423816,-0.5968318,-0.6500724,0.13163859,0.41600823,0.3263438,-0.4968022,0.5861524,0.29206234,-1.2782354,-2.2525647,-0.786065,1.9177197,1.8440236,-0.79384995,0.34069955,-1.2253361,-2.2675934,-0.8201355,1.8879397,1.8928088,-0.8484104,-1.1024293,-1.2023897,-0.09876754,0.7363535,0.32502854,-0.10216535,0.4062419,-0.5155754,-0.45750356,0.5802547,-0.8340433,0.31469893,-0.69703573,-0.5157814,-0.46483946,0.54482317,0.97204554,0.08391447,0.19210334,0.1057454,-0.9559117,0.60364634,-0.59751654,0.0,1.0,0.0,0.0,0.0,0.0,0.0,-0.13442457,0.05750355,-0.030254662,0.8679867,3.3252716,35.17599,-6.65555,15.795237,-5.077501,0.30794144
54.526676,109.19943,37.91593,7.4389215,2.0570805,0.46586674,0.19792153,-0.5253572,-0.6621806,0.30529127,0.36092803,0.44420674,-0.53560793,0.59005946,0.28816384,-1.2915541,-2.2370644,-0.78404266,1.9323604,1.839248,-0.7894045,0.33012235,-1.2372093,-2.2658272,-0.8132614,1.8923388,1.8914565,-0.84432065,-1.0433601,-1.1826609,0.27080435,0.67036265,0.4765156,-0.14611316,0.40958604,-0.52337265,-0.4545207,0.5738959,-0.7615569,0.2926571,-0.6152116,-0.52487564,-0.4589548,0.5395606,0.9739338,0.084138304,0.18537612,0.10004619,-0.8886532,0.58964664,-0.50447714,0.0,1.0,0.0,0.0,0.0,0.0,0.0,-0.12662733,0.054520696,-0.02389586,5.7453156,1.8980742,37.616844,-6.819713,14.62344,-4.352392,0.22615194
43.137897,109.69151,34.268322,11.998524,2.0760245,0.33546343,0.059736744,-0.5181483,-0.62222415,0.32532015,0.39730734,0.5222723,-0.5260317,0.61402756,0.27830753,-1.2994317,-2.2332952,-0.77353066,1.944566,1.8388534,-0.7829179,0.3201603,-1.2487795,-2.2611334,-0.80668503,1.8981166,1.8897247,-0.8401847,-0.9807322,-1.1487927,0.5373605,0.6532025,0.6102422,-0.18192436,0.4146029,-0.5304947,-0.45175195,0.5683378,-0.69666636,0.27173895,-0.53708684,-0.5334091,-0.45317793,0.5351759,0.97599274,0.08256405,0.17787059,0.09478064,-0.838711,0.5795548,-0.4186042,0.0,1.0,0.0,0.0,0.0,0.0,0.0,-0.119505286,0.05175194,-0.018337786,6.1932325,3.2942772,27.134407,-1.7715693,13.031197,-3.5182505,0.42298436
