Afshin1997/kuka_rl_ros2/src/catch_and_throw/input_files/idealpd/polynomial_regressor/optimizer_files/env_171_data.csv
torque0,torque1,torque2,torque3,torque4,torque5,torque6,action0,action1,action2,action3,action4,action5,action6,set_target_0,set_target_1,set_target_2,set_target_3,set_target_4,set_target_5,set_target_6,joint_pos_0,joint_pos_1,joint_pos_2,joint_pos_3,joint_pos_4,joint_pos_5,joint_pos_6,joint_vel_0,joint_vel_1,joint_vel_2,joint_vel_3,joint_vel_4,joint_vel_5,joint_vel_6,tennisball_pos_0,tennisball_pos_1,tennisball_pos_2,tennisball_lin_vel_0,tennisball_lin_vel_1,tennisball_lin_vel_2,end_effector_pos_0,end_effector_pos_1,end_effector_pos_2,end_effector_rot_0,end_effector_rot_1,end_effector_rot_2,end_effector_rot_3,end_effector_lin_vel_0,end_effector_lin_vel_1,end_effector_lin_vel_2,obs_task_0,obs_task_1,obs_task_2,obs_task_3,obs_task_4,obs_task_5,obs_task_6,to_final_target_0,to_final_target_1,to_final_target_2,joint_acc_0,joint_acc_1,joint_acc_2,joint_acc_3,joint_acc_4,joint_acc_5,joint_acc_6
0.0,0.0,0.0,0.0,0.0,0.0,0.0,0.0,0.0,0.0,0.0,0.0,0.0,0.0,1.7802359,-1.0646509,-1.8151424,-1.1170107,1.9373155,1.1170107,-0.91629785,1.7802359,-1.0646509,-1.8151424,-1.1170107,1.9373155,1.1170107,-0.91629785,0.0,0.0,0.0,0.0,0.0,0.0,0.0,3.0538635,-0.39658356,0.334726,-3.2624772,-0.03371676,5.156052,0.5304146,-0.45449448,0.693097,0.5745483,0.17512383,0.15255436,0.7848268,0.0,0.0,0.0,1.0,0.0,0.0,0.0,0.0,0.0,0.0,-3.7038636,-0.0034164488,0.215274,0.0,0.0,0.0,0.0,0.0,0.0,0.0
0.0,0.0,0.0,0.0,0.0,0.0,0.0,0.0,0.0,0.0,0.0,0.0,0.0,0.0,1.7802359,-1.0646509,-1.8151424,-1.1170107,1.9373155,1.1170107,-0.91629785,1.7802359,-1.0646509,-1.8151424,-1.1170107,1.9373155,1.1170107,-0.91629785,0.0,0.0,0.0,0.0,0.0,0.0,0.0,3.0538635,-0.39658356,0.334726,-3.2624772,-0.03371676,5.156052,0.5304146,-0.45449448,0.693097,0.5745483,0.17512383,0.15255436,0.7848268,0.0,0.0,0.0,1.0,0.0,0.0,0.0,0.0,0.0,0.0,-3.7038636,-0.0034164488,0.215274,0.0,0.0,0.0,0.0,0.0,0.0,0.0
0.0,0.0,0.0,0.0,0.0,0.0,0.0,0.0,0.0,0.0,0.0,0.0,0.0,0.0,1.7802359,-1.0646509,-1.8151424,-1.1170107,1.9373155,1.1170107,-0.91629785,1.7802359,-1.0646509,-1.8151424,-1.1170107,1.9373155,1.1170107,-0.91629785,0.0,0.0,0.0,0.0,0.0,0.0,0.0,3.0538635,-0.39658356,0.334726,-3.2624772,-0.03371676,5.156052,0.5304146,-0.45449448,0.693097,0.5745483,0.17512383,0.15255436,0.7848268,0.0,0.0,0.0,1.0,0.0,0.0,0.0,0.0,0.0,0.0,-3.7038636,-0.0034164488,0.215274,0.0,0.0,0.0,0.0,0.0,0.0,0.0
-176.0,75.14517,-3.5503502,110.0,11.170557,5.0463915,-3.777479,-0.82466936,0.38546047,-0.54330987,0.7255837,0.39820626,0.63064843,-0.59272456,1.6977689,-1.0261048,-1.8694733,-1.0444523,1.9771361,1.1800755,-0.9755703,1.7786604,-1.0619844,-1.8211048,-1.1128508,1.9429822,1.1219317,-0.9180593,-0.20991251,0.3547013,-0.7942729,0.55483407,0.75466335,0.6541509,-0.23441917,3.0212631,-0.39691925,0.3855114,-3.2592154,-0.03368305,5.052711,0.5282879,-0.4575882,0.6939131,0.5782854,0.17389347,0.15111744,0.78263044,-0.28344244,-0.41245458,0.10853432,1.0,0.0,0.0,0.0,0.0,0.0,0.0,-3.6712632,-0.0030807555,0.16448861,-20.943975,35.251232,-79.188065,55.535614,75.17591,64.80118,-23.319784
-176.0,5.252309,-31.488787,110.0,12.65716,2.8385718,-3.3680403,-0.81312203,0.036124773,-0.5629383,0.6962924,0.51208353,0.62714136,-0.6176263,1.6973482,-1.0583719,-1.8773986,-1.0432216,1.9941906,1.1846458,-0.9798219,1.7762133,-1.0575517,-1.8359916,-1.1011053,1.9557939,1.1346136,-0.920659,-0.25631437,0.4671382,-1.7104231,1.3825768,1.4502872,1.4567714,-0.26874024,2.9886951,-0.39725494,0.43526417,-3.255957,-0.033649374,4.949473,0.52342796,-0.465477,0.6951286,0.58673555,0.1708641,0.14716612,0.77774596,-0.5548096,-0.9134879,0.12724867,1.0,0.0,0.0,0.0,0.0,0.0,0.0,-3.6386952,-0.002745062,0.11473584,-4.6278863,9.600311,-88.67652,83.16186,67.63458,75.46921,-3.5266101
-155.65709,111.46183,29.42284,93.634766,8.305319,7.710206,-2.0051372,-0.77229273,0.3633854,-0.06513649,0.57564867,0.525642,0.6615175,-0.5790708,1.698984,-1.0212132,-1.8425052,-1.0435405,2.008358,1.2007654,-0.9785661,1.7704378,-1.0519289,-1.8517311,-1.0856596,1.970612,1.1490427,-0.9236154,-0.68524635,0.59053755,-1.5218434,1.5995483,1.4876004,1.4304417,-0.30652386,2.9561596,-0.39759064,0.48398533,-3.2527015,-0.03361573,4.846338,0.5156803,-0.4761505,0.69795674,0.59815705,0.1664021,0.1419261,0.7709574,-0.8558761,-1.1122233,0.33896244,1.0,0.0,0.0,0.0,0.0,0.0,0.0,-3.6061597,-0.0024093688,0.06601468,-43.0291,11.306,20.90211,21.980358,2.3236513,-4.964924,-4.334158
-96.582405,128.7619,47.45429,62.442783,4.75471,8.373207,-0.6832327,-0.78418726,0.33561638,0.027578685,0.5930135,0.51737976,0.6323037,-0.59201455,1.6920191,-1.0183673,-1.8489732,-1.0263582,2.02235,1.2122731,-0.9828169,1.7605273,-1.0456537,-1.8627899,-1.069966,1.9842782,1.1624151,-0.92688745,-1.0943313,0.63692665,-0.9591829,1.559639,1.3216832,1.3011291,-0.3372415,2.9236584,-0.39792633,0.5316759,-3.2494495,-0.03358212,4.7433066,0.50539017,-0.48748016,0.7029245,0.6107376,0.16047058,0.13602024,0.76337874,-1.0976696,-1.1300112,0.5547275,1.0,0.0,0.0,0.0,0.0,0.0,0.0,-3.5736585,-0.0020736754,0.018324137,-41.367233,3.8208246,58.688675,-3.930831,-17.985725,-14.40146,-3.9935887
-36.965237,139.00262,56.24699,33.888412,1.4738578,7.48564,0.15841846,-0.79788285,0.42540258,0.048302095,0.564676,0.5703417,0.6269932,-0.5799461,1.6807389,-1.0031134,-1.8579596,-1.0134983,2.0413125,1.2251145,-0.98488206,1.7473341,-1.0387949,-1.8679206,-1.0557867,1.9960446,1.1743475,-0.9304208,-1.3961852,0.7002988,-0.35749304,1.3702171,1.1249453,1.1550211,-0.36179227,2.8911877,-0.39826202,0.5783369,-3.2462006,-0.033548545,4.6403785,0.4933567,-0.4980507,0.7098365,0.62323433,0.15314545,0.12980172,0.7558287,-1.2509454,-1.0192145,0.7402176,1.0,0.0,0.0,0.0,0.0,0.0,0.0,-3.5411878,-0.001737982,-0.028336883,-30.714893,5.769825,62.21945,-19.111275,-20.650864,-15.259886,-3.3912897
3.024365,131.54814,53.164284,15.425911,-0.5383508,5.5713086,0.41939086,-0.8134451,0.4965952,0.054743756,0.5591754,0.5961445,0.6108603,-0.59481263,1.6659896,-0.9891354,-1.8624463,-0.99986917,2.055659,1.2354336,-0.9899021,1.7321383,-1.0311292,-1.8682659,-1.043595,2.006184,1.1849428,-0.9341678,-1.5620048,0.78731847,0.07777261,1.1681418,0.9754058,1.0271685,-0.3815019,2.8587513,-0.39859772,0.62396944,-3.242955,-0.033515003,4.537553,0.48039436,-0.5071831,0.7182164,0.63509494,0.1447912,0.12367906,0.7485942,-1.321853,-0.8633086,0.8715659,1.0,0.0,0.0,0.0,0.0,0.0,0.0,-3.5087514,-0.0014022887,-0.073969424,-17.00921,8.331453,44.91875,-20.430613,-15.470719,-12.925601,-2.7152956
25.405651,124.55086,48.709576,6.767367,-1.5141822,4.0066557,0.3836929,-0.8208716,0.5715275,0.09477636,0.5574576,0.6091738,0.6078483,-0.58786607,1.6500511,-0.9739765,-1.8587883,-0.9878492,2.0671015,1.2457277,-0.99295443,1.7161165,-1.0223917,-1.8656509,-1.033034,2.0152822,1.1944185,-0.93807214,-1.6165421,0.90185326,0.32593584,1.0182517,0.88705003,0.9213413,-0.3953845,2.8263454,-0.3989334,0.66857445,-3.2397127,-0.033481494,4.4348297,0.46712494,-0.5147171,0.727654,0.6462257,0.13576183,0.117978506,0.7416482,-1.3374445,-0.70209664,0.9670884,1.0,0.0,0.0,0.0,0.0,0.0,0.0,-3.4763455,-0.0010665953,-0.11857444,-5.7780266,11.1930485,25.747395,-15.18712,-9.07675,-10.5057955,-1.9795418
35.91867,119.03618,45.110622,3.9188285,-1.7942423,3.0192149,0.28882593,-0.81679296,0.6365767,0.16024919,0.5510714,0.61738795,0.61653066,-0.5751477,1.6344372,-0.95873404,-1.849626,-0.97792685,2.077021,1.2560716,-0.99558693,1.7000986,-1.0124105,-1.8615158,-1.0234782,2.023869,1.2029864,-0.94207853,-1.5976388,1.0294236,0.44493952,0.9344089,0.8488112,0.8356194,-0.40404594,2.793974,-0.3992691,0.712153,-3.2364738,-0.033448018,4.3322096,0.45390892,-0.52072144,0.73791903,0.65670854,0.12626012,0.11284811,0.73488605,-1.3231934,-0.55134124,1.0443352,1.0,0.0,0.0,0.0,0.0,0.0,0.0,-3.443974,-0.00073090196,-0.162153,1.6454458,12.558067,12.574297,-8.534741,-3.940165,-8.443022,-1.3554931
34.529884,105.509346,38.146523,3.4812627,-1.5934476,2.143447,0.18932968,-0.8202047,0.67344254,0.17808604,0.5251629,0.63621926,0.6189501,-0.5620402,1.6180781,-0.9450663,-1.8437072,-0.97096187,2.087491,1.2648814,-0.99828255,1.6844736,-1.0012602,-1.8568943,-1.0144526,2.032353,1.210816,-0.9461402,-1.5513699,1.1430819,0.46956378,0.8916145,0.8480116,0.76583666,-0.40824598,2.761633,-0.3996048,0.75470614,-3.233238,-0.033414576,4.229692,0.4409027,-0.52542496,0.7487532,0.6666679,0.116498105,0.10829386,0.72818583,-1.2979077,-0.4273674,1.0938699,1.0,0.0,0.0,0.0,0.0,0.0,0.0,-3.411633,-0.0003952086,-0.20470613,4.4412374,11.223292,2.944678,-4.4135094,-0.12423992,-6.8462253,-0.80929995
28.099466,91.40404,31.279057,4.752006,-1.1910586,1.5268674,0.0830075,-0.81323373,0.7036479,0.1714522,0.520149,0.6437528,0.631207,-0.54989797,1.6031502,-0.9308954,-1.839749,-0.9624377,2.0967283,1.2739367,-1.00113,1.6693465,-0.9891561,-1.8524616,-1.0056139,2.0409627,1.2180525,-0.950221,-1.5004643,1.2325292,0.43547696,0.88079983,0.8650647,0.70976245,-0.4091135,2.7293243,-0.3999405,0.7962349,-3.2300053,-0.033381168,4.127277,0.42814255,-0.5290985,0.7599091,0.6762423,0.10665237,0.104260094,0.72142327,-1.2730174,-0.3327243,1.1197882,1.0,0.0,0.0,0.0,0.0,0.0,0.0,-3.3793244,-5.9515238e-05,-0.2462349,4.946327,8.846045,-3.0627847,-1.2221694,1.7114639,-5.4978848,-0.4030764
22.802628,78.34839,25.651705,4.855751,-0.8851443,1.0841372,0.06870049,-0.80298144,0.72065187,0.16664018,0.49745294,0.6555427,0.6395572,-0.5444746,1.5890483,-0.91709095,-1.8357975,-0.9558686,2.106517,1.2820082,-1.0046685,1.6546732,-0.9763826,-1.8485248,-0.9968535,2.0498013,1.2248102,-0.95429987,-1.456739,1.2920041,0.3807054,0.8740169,0.89002025,0.66489524,-0.4083143,2.6970482,-0.40027618,0.83674026,-3.226776,-0.033347793,4.0249643,0.41560936,-0.53198624,0.7711629,0.68549937,0.09686389,0.10065351,0.7145466,-1.249842,-0.25898823,1.1241438,1.0,0.0,0.0,0.0,0.0,0.0,0.0,-3.3470483,0.00027617812,-0.28674024,4.2448997,5.881405,-5.197448,-0.853014,2.530229,-4.3733478,-0.19889474
17.195972,68.433136,21.628199,5.452079,-0.5840197,0.86577845,0.075905815,-0.8015402,0.72937566,0.1671288,0.47875825,0.6572246,0.6447383,-0.5436528,1.5745192,-0.90344507,-1.8318119,-0.94897765,2.1155238,1.2892841,-1.0086651,1.6403147,-0.9632238,-1.845084,-0.98819983,2.058869,1.2311865,-0.95836633,-1.429495,1.3237659,0.3326168,0.86182505,0.912295,0.6288615,-0.40696433,2.6648045,-0.40061188,0.8762232,-3.2235498,-0.03331445,3.9227545,0.40325928,-0.5342598,0.78235304,0.6944623,0.0872098,0.09736022,0.7075574,-1.2320346,-0.20074995,1.114178,1.0,0.0,0.0,0.0,0.0,0.0,0.0,-3.3148046,0.0006118715,-0.3262232,2.6010275,3.1317234,-4.553133,-1.4204502,2.2780776,-3.489232,-0.12161732
14.070319,63.143982,19.558426,5.824927,-0.41459015,0.7702183,0.09790793,-0.79564226,0.7409387,0.15782738,0.46265328,0.66465807,0.6483994,-0.5315079,1.5607505,-0.88912994,-1.8293012,-0.9419345,2.1253347,1.2960265,-1.0115172,1.6261355,-0.9498676,-1.8420379,-0.9797236,2.0681348,1.2372557,-0.9624099,-1.4144719,1.3394374,0.29606694,0.84215975,0.93120277,0.5999241,-0.40434363,2.6325932,-0.40094757,0.9146849,-3.220327,-0.033281144,3.8206468,0.39105797,-0.5360069,0.7933909,0.7031343,0.07771822,0.09429631,0.7004785,-1.217501,-0.15023163,1.0971678,1.0,0.0,0.0,0.0,0.0,0.0,0.0,-3.2825933,0.00094756484,-0.36468488,1.3771296,1.5343666,-3.4003973,-2.1822333,1.9474268,-2.7773023,0.015604496
15.958568,62.297844,19.804247,4.2077503,-0.51277095,0.77649426,0.21910626,-0.79279786,0.7481051,0.1826875,0.4111635,0.6742564,0.64701813,-0.5276571,1.5468557,-0.8750571,-1.8237692,-0.9386072,2.1355605,1.3019575,-1.0151756,1.6120363,-0.93642175,-1.8391082,-0.97165835,2.0775685,1.243075,-0.9664268,-1.4088392,1.3461332,0.2929244,0.793927,0.9474153,0.57649827,-0.40165317,2.6004143,-0.40128326,0.95212626,-3.2171073,-0.03324787,3.718641,0.37901688,-0.5372009,0.804239,0.71143365,0.06838358,0.09138598,0.6934223,-1.199747,-0.0942451,1.0775142,1.0,0.0,0.0,0.0,0.0,0.0,0.0,-3.2504144,0.0012832582,-0.40212625,0.4228115,0.6400585,-0.008887053,-5.0514817,1.6648054,-2.1957636,0.010329485
17.421877,61.733173,19.650478,2.8866272,-0.6575815,0.7037332,0.28391898,-0.7931924,0.757626,0.17898427,0.36442843,0.67997116,0.6437803,-0.52404994,1.5327171,-0.8606591,-1.8212098,-0.93521553,2.1455657,1.307453,-1.0188317,1.597943,-0.92291677,-1.8361232,-0.96424735,2.0871396,1.2486922,-0.970416,-1.4098194,1.3519387,0.3014363,0.7226446,0.96036285,0.55741566,-0.39891517,2.5682678,-0.40161896,0.98854834,-3.2138908,-0.03321463,3.6167374,0.3671913,-0.5378113,0.8148627,0.7192922,0.059213396,0.08861456,0.6864837,-1.1769278,-0.034773253,1.054106,1.0,0.0,0.0,0.0,0.0,0.0,0.0,-3.218268,0.0016189516,-0.43854833,-0.2475977,0.55794716,1.1713266,-7.3614717,1.3385057,-1.7251849,0.01911521
22.724508,62.99668,20.608114,-0.17591381,-1.0038664,0.62146366,0.4238872,-0.79077524,0.76432693,0.20831977,0.2845042,0.68345094,0.64176655,-0.5103608,1.5188655,-0.84648407,-1.8152913,-0.9357969,2.1554847,1.3128688,-1.0214521,1.5838305,-0.90934503,-1.8328826,-0.9578167,2.0968137,1.2541472,-0.9743709,-1.4121696,1.3588766,0.3326047,0.61577886,0.9699666,0.5423113,-0.39524573,2.536152,-0.40195084,1.0239521,-3.2106776,-0.03318142,3.5149357,0.35567665,-0.5377388,0.82522917,0.7266002,0.050222974,0.08599115,0.6798052,-1.1422751,0.035298195,1.0274343,1.0,0.0,0.0,0.0,0.0,0.0,0.0,-3.186152,0.0019508302,-0.4739521,-0.39236546,0.67944527,3.4618855,-10.921788,1.0004878,-1.2598157,0.11001825
23.787163,62.53727,20.1977,-0.59142494,-1.0975676,0.47950286,0.42361534,-0.78579974,0.77244896,0.19981338,0.24584204,0.6857222,0.65385914,-0.4915903,1.5052505,-0.83210015,-1.8129013,-0.93323255,2.165386,1.3195331,-1.0235299,1.569718,-0.8956808,-1.8293884,-0.95246375,2.1065602,1.259482,-0.97827715,-1.4114643,1.368961,0.35604933,0.50778866,0.97689396,0.5315118,-0.38992298,2.5040703,-0.4022789,1.0583386,-3.2074676,-0.033148244,3.4132357,0.34454536,-0.53697205,0.8353172,0.7333377,0.041423205,0.08355371,0.673438,-1.1021261,0.10387218,0.99904454,1.0,0.0,0.0,0.0,0.0,0.0,0.0,-3.1540704,0.0022788942,-0.50833863,-0.07228851,1.0081291,2.6424289,-11.02047,0.7588625,-0.8034706,0.2976179
22.577541,61.312584,19.407194,0.25913382,-1.0309114,0.363569,0.3797378,-0.7864091,0.77699476,0.20248863,0.20622756,0.6881063,0.6500093,-0.4907741,1.4910771,-0.8179813,-1.8091395,-0.931841,2.175371,1.3244829,-1.0273546,1.5556151,-0.8819107,-1.8257167,-0.94811785,2.116364,1.2647234,-0.9821319,-1.4103097,1.3796934,0.371661,0.40951017,0.9821694,0.52262104,-0.38480058,2.4720192,-0.40260696,1.0917089,-3.2042608,-0.033115104,3.3116374,0.33381462,-0.5355606,0.8451235,0.73955214,0.03281501,0.081325695,0.6673619,-1.0614334,0.16647479,0.9706028,1.0,0.0,0.0,0.0,0.0,0.0,0.0,-3.1220193,0.0026069582,-0.5417089,-0.011205673,1.0873556,1.8031836,-10.033971,0.6213784,-0.6108165,0.30349493
21.862572,58.516697,18.249796,0.11454582,-1.0053033,0.20389026,0.3797404,-0.79197466,0.7751244,0.21701315,0.13908264,0.6905613,0.64441836,-0.48863572,1.4764175,-0.80439824,-1.8040154,-0.9342096,2.18542,1.3291652,-1.0309955,1.5414988,-0.8680662,-1.8218887,-0.9447857,2.1262174,1.2698847,-0.98593897,-1.4125351,1.3861616,0.38708502,0.30704176,0.98657256,0.5150427,-0.37997645,2.4400005,-0.40293503,1.124064,-3.2010572,-0.033081993,3.2101407,0.32349205,-0.53354645,0.8546166,0.7452712,0.024428742,0.079307765,0.6615771,-1.0186352,0.22367951,0.93806237,1.0,0.0,0.0,0.0,0.0,0.0,0.0,-3.0900006,0.002935022,-0.57406396,-0.33946037,0.67527294,1.745683,-10.447579,0.5514622,-0.46128035,0.2960384
29.075954,56.86601,18.227818,-5.01596,-1.5012225,-0.10476023,0.55679977,-0.7852917,0.7762418,0.2483153,0.0041461308,0.6938385,0.63950706,-0.47928286,1.4629697,-0.790442,-1.7970572,-0.9443711,2.1956012,1.3338354,-1.0338672,1.5273901,-0.8541788,-1.817807,-0.9428469,2.1361127,1.2749811,-0.9896955,-1.4107821,1.3897855,0.41575179,0.15553077,0.99069256,0.50930303,-0.3748502,2.4080143,-0.4032631,1.1554048,-3.197857,-0.03304892,3.1087456,0.3137493,-0.5309105,0.86369634,0.7503848,0.01636223,0.077526644,0.65623504,-0.95581937,0.2887117,0.8936935,1.0,0.0,0.0,0.0,0.0,0.0,0.0,-3.0580144,0.003263086,-0.6054048,0.07171631,0.4071951,3.0586362,-15.347752,0.52369833,-0.17602444,0.3404975
38.003746,55.953396,18.55434,-11.434526,-2.152849,-0.457057,0.7743857,-0.7813179,0.78046644,0.28406096,-0.15673533,0.69469625,0.64110655,-0.47887123,1.4492583,-0.77613217,-1.7894008,-0.9585204,2.2055824,1.3390918,-1.0375826,1.5133215,-0.84025323,-1.8133152,-0.94290984,2.1460423,1.2800375,-0.9934053,-1.405808,1.3936313,0.46099555,-0.060797457,0.99381274,0.5060342,-0.37012872,2.3760586,-0.40359116,1.1857325,-3.1946597,-0.033015877,3.0074515,0.3048172,-0.52753067,0.87222886,0.754719,0.008752565,0.07603704,0.6515681,-0.86766136,0.36436397,0.83532727,1.0,0.0,0.0,0.0,0.0,0.0,0.0,-3.0260587,0.00359115,-0.6357325,0.42066574,0.4479885,4.6874285,-21.80489,0.4282117,0.18886328,0.3299713
41.27851,59.537006,20.268225,-12.050859,-2.2760923,-0.47941935,0.84451985,-0.7707195,0.7921432,0.33130017,-0.23882975,0.6983564,0.6366369,-0.4480886,1.4362496,-0.7610389,-1.7801851,-0.9667928,2.215878,1.3437012,-1.0382141,1.499354,-0.82624567,-1.8082187,-0.9451519,2.1560063,1.2850653,-0.9970493,-1.394002,1.4034871,0.5258602,-0.27904463,0.9978279,0.5034108,-0.36274672,2.3441372,-0.40391922,1.215048,-3.1914656,-0.032982867,2.906259,0.29680824,-0.5233574,0.8802254,0.7581954,0.0016024231,0.07483461,0.6477167,-0.7730334,0.44399458,0.78301686,1.0,0.0,0.0,0.0,0.0,0.0,0.0,-2.9941373,0.003919214,-0.66504794,1.1509895,1.0704756,6.547296,-21.935305,0.5784273,0.27025938,0.63568354
40.536915,60.047375,20.773552,-10.60841,-2.0986648,-0.47621578,0.84447753,-0.76230025,0.7888555,0.384252,-0.31953606,0.700624,0.6344591,-0.42286924,1.423124,-0.7473601,-1.7697935,-0.97710556,2.2260687,1.3485112,-1.0393362,1.4855353,-0.8121637,-1.8023403,-0.94942725,2.1660123,1.2900683,-1.0006037,-1.377866,1.4101697,0.6082647,-0.47717765,1.002482,0.50102013,-0.3532453,2.3122463,-0.40424728,1.2433523,-3.1882749,-0.03294989,2.8051677,0.28972435,-0.5184097,0.887749,0.76082206,-0.0051476588,0.07385184,0.644724,-0.6814179,0.5192816,0.7370899,1.0,0.0,0.0,0.0,0.0,0.0,0.0,-2.9622464,0.004247278,-0.6933523,1.6306877,0.7748842,8.181596,-19.87542,0.7118702,0.28104782,0.88431835
34.98606,59.95194,20.570572,-6.089487,-1.6469631,-0.36668193,0.72501343,-0.7568795,0.79075927,0.42372566,-0.3646645,0.6930239,0.63273495,-0.37835804,1.4098473,-0.7330878,-1.7599677,-0.9858937,2.2353146,1.3533418,-1.0384395,1.4718786,-0.7980255,-1.7956169,-0.9553219,2.1760411,1.2950464,-1.004035,-1.3616507,1.4153684,0.69310457,-0.6270089,1.003831,0.49833238,-0.34006116,2.280386,-0.40457535,1.2706465,-3.1850872,-0.03291695,2.7041774,0.28344154,-0.5127716,0.8949003,0.7626985,-0.01160201,0.07302235,0.6425139,-0.60418373,0.5841965,0.7022901,1.0,0.0,0.0,0.0,0.0,0.0,0.0,-2.930386,0.004575342,-0.72064644,1.6612768,0.64616203,8.31846,-15.022445,0.45146942,0.1975596,1.2792349
30.336143,60.232132,20.628609,-1.9424224,-1.2416625,-0.24197263,0.6191038,-0.74470586,0.7933012,0.4712065,-0.4039719,0.69209397,0.63630325,-0.33566833,1.397408,-0.71869534,-1.7484962,-0.9957191,2.2452505,1.3586768,-1.0376018,1.4584013,-0.7838434,-1.7880332,-0.9623648,2.1860738,1.3000017,-1.0073137,-1.3429034,1.4197322,0.7794198,-0.7301435,1.0042113,0.4959277,-0.32381538,2.24856,-0.4049034,1.2969315,-3.1819026,-0.03288404,2.6032882,0.2778225,-0.5065422,0.9017895,0.7639372,-0.017880084,0.07228616,0.64097977,-0.5403764,0.64124775,0.6785594,1.0,0.0,0.0,0.0,0.0,0.0,0.0,-2.89856,0.004903406,-0.7469315,1.9272804,0.5805731,8.383775,-10.343432,0.41279793,0.18286705,1.5997946
26.21022,58.50728,19.747383,0.95598316,-0.96237665,-0.24770188,0.51306087,-0.7331787,0.79595476,0.49744987,-0.44149157,0.6892549,0.62408584,-0.2989419,1.3850834,-0.70424795,-1.7382883,-1.006514,2.2549992,1.3624103,-1.037208,1.4451243,-0.76961935,-1.7796867,-0.97019064,2.1960988,1.3049246,-1.0104151,-1.3226045,1.423893,0.8521807,-0.80009896,1.0029881,0.49231723,-0.30560854,2.2167645,-0.40523148,1.3222084,-3.1787214,-0.03285116,2.5024996,0.27277756,-0.49980545,0.9084764,0.76463914,-0.024040898,0.07162755,0.64001447,-0.48552337,0.68964547,0.6592463,1.0,0.0,0.0,0.0,0.0,0.0,0.0,-2.8667645,0.00523147,-0.7722084,2.0843506,0.570941,6.990862,-7.030797,0.2701521,0.028657913,1.8053174
19.46693,56.37434,18.597874,5.7777185,-0.46645594,-0.14913695,0.34812114,-0.7255351,0.79648125,0.5211401,-0.42599383,0.6911798,0.6302925,-0.2663273,1.3725708,-0.6899712,-1.7275727,-1.0127901,2.2652168,1.3679539,-1.0370479,1.432038,-0.7553619,-1.7707279,-0.9783436,2.2061162,1.309815,-1.0133276,-1.3040266,1.4269578,0.9094767,-0.82047004,1.0025835,0.48908803,-0.286378,2.1850014,-0.40555954,1.3464781,-3.1755433,-0.032818317,2.4018118,0.26815033,-0.49266815,0.91503555,0.7649457,-0.030163959,0.07101843,0.63945645,-0.44764352,0.7259312,0.64835304,1.0,0.0,0.0,0.0,0.0,0.0,0.0,-2.8350015,0.005559534,-0.7964781,1.8898726,0.4723072,5.428517,-2.101612,0.36776066,0.010460615,1.9044816
11.640647,50.58297,15.64072,9.118194,-0.070067346,-0.19996497,0.18722603,-0.74226177,0.79718757,0.5191556,-0.44117704,0.69372255,0.62376666,-0.23806131,1.3578118,-0.67564315,-1.7188123,-1.0224613,2.2754884,1.3721917,-1.0371337,1.4190031,-0.7410816,-1.7614009,-0.98656714,2.2161374,1.3146693,-1.0160456,-1.3034508,1.4289491,0.9394484,-0.8233665,1.0030133,0.48504934,-0.26684368,2.1532707,-0.4058876,1.3697417,-3.1723683,-0.032785505,2.3012247,0.26379776,-0.4852829,0.92146885,0.7650105,-0.036241133,0.07047829,0.63912314,-0.42337662,0.7472004,0.63485736,1.0,0.0,0.0,0.0,0.0,0.0,0.0,-2.8032708,0.005887598,-0.81974167,0.035738945,0.36022663,2.7584076,-0.39830208,0.4117012,-0.13158917,1.9356608
9.5150175,49.070007,15.041997,10.56812,0.05776626,-0.20712775,0.14398739,-0.7342117,0.79904306,0.542679,-0.43692872,0.6843802,0.6185404,-0.16746978,1.345582,-0.6611773,-1.707133,-1.03026,2.2845755,1.3765233,-1.0327926,1.4059607,-0.72678125,-1.751826,-0.99471533,2.2261357,1.3194815,-1.0185347,-1.3046645,1.4309511,0.96280813,-0.8122853,0.999891,0.4807246,-0.2429463,2.1215706,-0.40621567,1.3920002,-3.1691966,-0.032752726,2.2007382,0.259655,-0.47771072,0.92778146,0.76490176,-0.042273156,0.07003062,0.6389319,-0.40354794,0.76468503,0.62322783,1.0,0.0,0.0,0.0,0.0,0.0,0.0,-2.7715707,0.0062156618,-0.8420002,-0.15773773,0.3632307,2.1087766,0.9868026,0.05338192,-0.18209815,2.3695111
4.710472,45.028545,13.196702,12.811126,0.33871186,-0.21867011,0.048325684,-0.75061494,0.7968125,0.54309547,-0.42160806,0.6876663,0.6248667,-0.13852751,1.3308992,-0.6471,-1.6975164,-1.0368761,2.2949023,1.3819681,-1.0323874,1.3928133,-0.7124771,-1.74211,-1.0026639,2.2361112,1.3242575,-1.0207834,-1.318351,1.4307127,0.9740246,-0.7894841,0.99775404,0.47713393,-0.2189413,2.089901,-0.40654373,1.4132546,-3.166028,-0.03271998,2.1003523,0.2556343,-0.47002792,0.9339736,0.76469773,-0.04826045,0.06967915,0.63879037,-0.39316285,0.7728712,0.61088884,1.0,0.0,0.0,0.0,0.0,0.0,0.0,-2.739901,0.0065437257,-0.8632546,-1.446867,0.13468266,0.94242096,2.1263003,0.129354,-0.14938116,2.3762465
3.3943439,41.760303,12.026493,13.306755,0.44778138,-0.30306494,0.02290778,-0.75129586,0.79047555,0.5453709,-0.40741676,0.68647325,0.625014,-0.092509136,1.3176837,-0.6334295,-1.687573,-1.0434055,2.3047585,1.3867589,-1.0300343,1.3795267,-0.6982111,-1.7323349,-1.010339,2.2460637,1.3290011,-1.0227823,-1.3322877,1.4257683,0.97820026,-0.7606163,0.9956002,0.4740014,-0.19362132,2.0582657,-0.4068718,1.4335059,-3.1628625,-0.032687265,2.0000665,0.25170708,-0.46230698,0.94002795,0.76444113,-0.054188535,0.069418035,0.6386505,-0.3846765,0.7755537,0.5966663,1.0,0.0,0.0,0.0,0.0,0.0,0.0,-2.7082658,0.0068717897,-0.8835059,-1.4810085,-0.340271,0.25976896,2.7164817,0.10910034,-0.118118525,2.50054
3.4514122,41.058407,11.918772,13.55633,0.46084142,-0.33690816,0.017264381,-0.7543459,0.79162025,0.54960114,-0.39048728,0.6862795,0.6254005,-0.056576047,1.3040922,-0.6190491,-1.6773747,-1.0493877,2.3146915,1.3915411,-1.0284399,1.3661162,-0.6839899,-1.7225349,-1.0176976,2.256001,1.333718,-1.0245275,-1.3444784,1.4213903,0.9801722,-0.7281514,0.99395514,0.47135055,-0.16809411,2.026661,-0.40719986,1.4527551,-3.1597004,-0.032654587,1.8998809,0.24786377,-0.45456696,0.94594747,0.76414275,-0.060062762,0.06924172,0.63850117,-0.37614128,0.7777366,0.5833242,1.0,0.0,0.0,0.0,0.0,0.0,0.0,-2.676661,0.0071998537,-0.9027551,-1.3083935,-0.2850771,0.04837513,3.076768,0.15412569,-0.076544285,2.5198162
1.9551873,39.160862,11.166798,14.395162,0.5420599,-0.3590103,-0.028148964,-0.76834565,0.78909487,0.5437854,-0.3675861,0.67965436,0.63449913,-0.04322237,1.2892816,-0.60508037,-1.6681564,-1.0544562,2.3239665,1.3971678,-1.0288498,1.352553,-0.66981447,-1.7127559,-1.0246975,2.265904,1.3384157,-1.0260324,-1.3607205,1.4167372,0.97668004,-0.6910444,0.9901897,0.46988076,-0.14474946,1.9950867,-0.40752792,1.4710032,-3.1565413,-0.03262194,1.7997954,0.2440834,-0.44682693,0.95173377,0.7638356,-0.06588841,0.069161765,0.6383028,-0.37039754,0.7769335,0.57006866,1.0,0.0,0.0,0.0,0.0,0.0,0.0,-2.6450868,0.0075279176,-0.92100316,-1.7310381,-0.31569004,-0.47425032,3.5307407,-0.0695467,0.023186207,2.3002238
3.5815616,38.137997,11.07291,13.13872,0.43541962,-0.46385992,0.041072253,-0.7714564,0.78398764,0.54909265,-0.3682683,0.678434,0.633813,0.0641506,1.2754073,-0.5914157,-1.6578467,-1.0615244,2.3337474,1.401797,-1.0196174,1.3388449,-0.6556982,-1.7029922,-1.0314114,2.2757688,1.3431021,-1.0272493,-1.3744512,1.4104028,0.97573996,-0.66534317,0.98623294,0.46879837,-0.114228874,1.9635448,-0.407856,1.4882512,-3.1533854,-0.032589324,1.69981,0.24039459,-0.43907166,0.95736426,0.76348555,-0.07164332,0.0691858,0.6380989,-0.3594633,0.7772352,0.5536929,1.0,0.0,0.0,0.0,0.0,0.0,0.0,-2.613545,0.007855982,-0.9382512,-1.4682055,-0.48954487,-0.20902157,2.4005294,-0.10228157,0.069999695,3.0168743
-1.1729374,36.591797,10.585048,17.717579,0.89159024,-0.26416704,-0.06721452,-0.78397065,0.7771874,0.54544485,-0.2744984,0.6669227,0.6473685,0.16509625,1.2604479,-0.57797945,-1.6484478,-1.0588613,2.342461,1.407839,-1.0107397,1.3249785,-0.64166486,-1.6932514,-1.0375245,2.2855687,1.3477865,-1.0281115,-1.3910491,1.4015001,0.97323126,-0.5939318,0.9789724,0.46887612,-0.07711665,1.9320354,-0.40818405,1.5045002,-3.1502328,-0.032556742,1.5999246,0.23669434,-0.4313736,0.9629183,0.76314396,-0.07742804,0.06927026,0.63782257,-0.3652201,0.77127147,0.5490148,1.0,0.0,0.0,0.0,0.0,0.0,0.0,-2.5820355,0.008184046,-0.95450014,-1.7936707,-0.738287,-0.36845207,6.9370627,-0.3992319,0.13956428,3.6631749
-3.122446,35.101738,10.117975,19.664185,1.0940781,-0.20938379,-0.114155635,-0.7931869,0.772448,0.5369994,-0.22768909,0.66662645,0.6574831,0.23601434,1.2456598,-0.56442004,-1.6395514,-1.0602933,2.3522313,1.4135349,-1.00451,1.3109423,-0.6277269,-1.6835716,-1.0427792,2.2953038,1.3524805,-1.0285807,-1.4085052,1.3917024,0.96606714,-0.50339943,0.9727348,0.4698834,-0.036990467,1.9005566,-0.40851212,1.519751,-3.147083,-0.03252419,1.500139,0.23287964,-0.42374802,0.9684599,0.76285934,-0.08332421,0.06937749,0.6374084,-0.37786803,0.7622676,0.5489266,1.0,0.0,0.0,0.0,0.0,0.0,0.0,-2.5505567,0.0085121095,-0.96975094,-1.896596,-0.8279562,-0.8254409,8.837259,-0.29007196,0.20855665,3.9595149
1.325542,33.414536,9.460877,14.768681,0.6314148,-0.54835725,-0.008050159,-0.79945606,0.7694142,0.5233467,-0.2766517,0.66719794,0.6577266,0.23425567,1.2309967,-0.5507855,-1.6312369,-1.0704443,2.3620236,1.4182532,-1.0051551,1.296744,-0.6138805,-1.6740196,-1.0475152,2.3049893,1.3571879,-1.0286856,-1.4240022,1.3827153,0.95156723,-0.4641686,0.96790594,0.4713086,-0.0019037164,1.8691082,-0.40884018,1.5340046,-3.1439366,-0.032491673,1.4004532,0.2290802,-0.4161911,0.9738861,0.7625809,-0.08920791,0.069567226,0.6369245,-0.37185878,0.75618243,0.53377706,1.0,0.0,0.0,0.0,0.0,0.0,0.0,-2.5191083,0.0088401735,-0.98400456,-1.6669512,-0.76651573,-1.5197992,3.7403047,-0.21333694,0.2875328,3.4647908
5.9734807,34.723206,10.270811,11.19336,0.23523939,-0.74480236,0.10985498,-0.79798174,0.7688637,0.529187,-0.2831879,0.66632456,0.6571812,0.2717024,1.2169458,-0.53699416,-1.6211009,-1.0758339,2.3716218,1.422906,-1.0015154,1.2824427,-0.6001018,-1.6645668,-1.0521119,2.3146367,1.3619086,-1.0284529,-1.4322575,1.3766316,0.94292814,-0.45868722,0.9642511,0.4728776,0.031478923,1.8376923,-0.40916824,1.5472621,-3.1407933,-0.03245919,1.3008671,0.22545052,-0.40864944,0.9791082,0.7622147,-0.09496862,0.06989467,0.63649374,-0.35079858,0.7567063,0.5116063,1.0,0.0,0.0,0.0,0.0,0.0,0.0,-2.4876924,0.009168237,-0.99726206,-0.9048939,-0.48508644,-0.9266138,0.40314794,-0.12574196,0.33495426,3.2999396
9.802353,36.222107,11.041473,8.141842,-0.12433106,-0.9165796,0.20395295,-0.80026823,0.7710251,0.5306693,-0.30368316,0.66464263,0.6557846,0.29351053,1.2024158,-0.5229993,-1.6114998,-1.0824802,2.381101,1.427487,-0.9991018,1.2680937,-0.5863508,-1.6551597,-1.056884,2.3242497,1.3666445,-1.0279074,-1.4359664,1.3750427,0.9397587,-0.48382488,0.96105534,0.47438633,0.06200407,1.8063087,-0.4094963,1.5595245,-3.137653,-0.032426734,1.2013805,0.22213173,-0.40105057,0.9840625,0.7616797,-0.100523785,0.07041054,0.63622415,-0.3164686,0.76323855,0.4833883,1.0,0.0,0.0,0.0,0.0,0.0,0.0,-2.4563088,0.009496301,-1.0095246,-0.42021275,-0.0415802,-0.37289858,-2.6238918,-0.10589361,0.35516024,3.0222967
11.890078,36.065742,11.298204,6.382332,-0.28410012,-1.0362546,0.2750243,-0.8000085,0.76385957,0.5414985,-0.32331043,0.6610714,0.6493069,0.32863235,1.1880928,-0.5099648,-1.6010098,-1.089215,2.3903568,1.4315752,-0.9950441,1.2537371,-0.57263124,-1.6457069,-1.0620358,2.3338284,1.37139,-1.0270681,-1.4356294,1.3713268,0.94673884,-0.5258945,0.95738715,0.47521192,0.09131463,1.7749557,-0.40981674,1.5707929,-3.1345162,-0.032394316,1.1019933,0.21921158,-0.3933754,0.988707,0.7609142,-0.10581802,0.0711247,0.6362023,-0.2749077,0.7716362,0.45146048,1.0,0.0,0.0,0.0,0.0,0.0,0.0,-2.4249558,0.009816736,-1.020793,0.012087822,-0.2559662,0.63290596,-4.296422,-0.16474724,0.30130744,2.903992
10.456254,35.888298,11.577808,8.796193,-0.06497389,-0.92857707,0.23275723,-0.79306775,0.7602068,0.5461012,-0.28667516,0.65555775,0.655937,0.37956953,1.1744304,-0.49661055,-1.5910968,-1.0907034,2.3993843,1.4369837,-0.9891112,1.2394282,-0.5589584,-1.636153,-1.0673916,2.3433614,1.3761469,-1.0259295,-1.4293262,1.3663992,0.95791197,-0.5390136,0.9527787,0.47627592,0.121260665,1.7436333,-0.41013718,1.5810682,-3.1313822,-0.03236193,1.0027056,0.2166462,-0.38562012,0.99309534,0.75992423,-0.11091968,0.071993865,0.63641876,-0.24117786,0.7789777,0.4279945,1.0,0.0,0.0,0.0,0.0,0.0,0.0,-2.3936334,0.010137171,-1.0310681,0.60441494,-0.36673546,1.0236025,-1.4103055,-0.22867918,0.30320883,2.9637008
8.305332,34.1244,10.937997,10.826061,0.14793462,-0.8841262,0.16565663,-0.79309905,0.7577384,0.539875,-0.27534392,0.6530761,0.65673846,0.40823108,1.1601182,-0.48318458,-1.5821655,-1.094926,2.408669,1.4418207,-0.98510635,1.2251841,-0.54533803,-1.6265285,-1.0727246,2.3528485,1.3809115,-1.0245008,-1.422966,1.361082,0.963578,-0.53192884,0.94826484,0.47707084,0.1499118,1.7123413,-0.4104576,1.5903512,-3.1282516,-0.03232957,0.90351707,0.2143631,-0.37781525,0.9972851,0.7587599,-0.11589512,0.07298286,0.63680863,-0.2145696,0.7825445,0.40920767,1.0,0.0,0.0,0.0,0.0,0.0,0.0,-2.3623414,0.010457605,-1.0403512,0.590992,-0.40044785,0.4716158,0.59365034,-0.2068162,0.25423765,2.8327374
7.0062823,30.512156,9.39842,10.794369,0.2233364,-0.9922018,0.13094355,-0.7937121,0.74895287,0.5306852,-0.29171193,0.6442419,0.65259874,0.42194465,1.1458129,-0.47044274,-1.57346,-1.1018958,2.4172728,1.4461713,-0.98230636,1.2109877,-0.5317987,-1.6169174,-1.0780118,2.3622746,1.3856798,-1.0228071,-1.4186993,1.3518609,0.9601278,-0.52803665,0.9412943,0.4772071,0.17571019,1.6810837,-0.41077805,1.5986432,-3.125124,-0.03229725,0.80442774,0.21234703,-0.37001038,1.0012611,0.7574659,-0.120721065,0.074095964,0.6373237,-0.1884807,0.7800388,0.38698816,1.0,0.0,0.0,0.0,0.0,0.0,0.0,-2.3310838,0.01077804,-1.0486431,0.3774166,-0.7956743,-0.42346716,0.26385784,-0.47320127,0.1796186,2.5467901
7.430877,30.468758,9.583584,10.538516,0.19764793,-1.0200801,0.15405716,-0.7917337,0.7474707,0.5449529,-0.3006766,0.64851934,0.64662504,0.44765,1.1318144,-0.45705163,-1.562422,-1.1080794,2.4271266,1.4503423,-0.9780421,1.1968256,-0.51834524,-1.607291,-1.0833085,2.371655,1.3904425,-1.0208673,-1.415453,1.3435348,0.9631838,-0.53044665,0.9372858,0.47661352,0.20003136,1.6498566,-0.41109848,1.605945,-3.1219995,-0.03226496,0.7054375,0.2105999,-0.36222076,1.0050136,0.7560385,-0.12537539,0.07532491,0.63797563,-0.16098768,0.77864814,0.36471575,1.0,0.0,0.0,0.0,0.0,0.0,0.0,-2.2998567,0.011098474,-1.0559449,0.27649403,-0.7075548,0.2329588,-0.35620928,-0.18036366,0.10356903,2.402228
6.3456907,29.228855,9.153865,11.644272,0.31087923,-1.0085895,0.11545795,-0.7877411,0.7442079,0.53681064,-0.28144175,0.6461055,0.6523763,0.4702727,1.1180515,-0.44392443,-1.55361,-1.1114526,2.4362655,1.4556801,-0.97384006,1.1827017,-0.504969,-1.5976684,-1.0885518,2.3809972,1.3952032,-1.0186949,-1.4115019,1.3360295,0.96165276,-0.52251124,0.9340728,0.47640657,0.22288412,1.61866,-0.4114189,1.6122576,-3.1188781,-0.032232698,0.60654616,0.20910072,-0.35446548,1.0085629,0.7544975,-0.1298792,0.07665925,0.63873947,-0.13704047,0.7752566,0.34510046,1.0,0.0,0.0,0.0,0.0,0.0,0.0,-2.26866,0.011418909,-1.0622575,0.33466816,-0.6231308,-0.22220612,0.67077875,-0.09571314,0.12818575,2.2557826
4.60561,26.016647,7.7879395,12.514117,0.47018254,-1.053581,0.05940036,-0.7867545,0.73573565,0.51982516,-0.2706849,0.6447261,0.65257096,0.47969946,1.1040263,-0.43139544,-1.5456859,-1.1156203,2.4454699,1.4604603,-0.97072494,1.1686121,-0.49168542,-1.588145,-1.0936615,2.3903127,1.3999621,-1.0163126,-1.4082639,1.3262179,0.9490987,-0.5076749,0.9315105,0.47615558,0.24320081,1.5874939,-0.41173935,1.6175821,-3.1157598,-0.032200474,0.50775373,0.20781708,-0.34678268,1.0119165,0.7528936,-0.13423426,0.07808559,0.6395583,-0.11686191,0.7659345,0.32553855,1.0,0.0,0.0,0.0,0.0,0.0,0.0,-2.237494,0.011739343,-1.0675821,0.2503872,-0.8552313,-1.3118386,1.3453007,-0.038802624,0.109004974,2.0005643
2.6563683,24.087877,7.1880617,14.802723,0.70235324,-0.9795381,-0.010210436,-0.78027844,0.7291463,0.51017123,-0.22908996,0.63709277,0.6528762,0.49834445,1.0905843,-0.4187708,-1.5371279,-1.1165706,2.454022,1.4652497,-0.96647817,1.154574,-0.4785104,-1.5787895,-1.0984433,2.39959,1.4047171,-1.0137377,-1.4025406,1.3150357,0.9306436,-0.46891156,0.9271367,0.4757557,0.2620728,1.5563583,-0.41205978,1.6219193,-3.1126447,-0.03216828,0.40906012,0.20667267,-0.33921814,1.0151207,0.7512802,-0.13849583,0.07957623,0.6403628,-0.10470633,0.7536979,0.31222168,1.0,0.0,0.0,0.0,0.0,0.0,0.0,-2.2063584,0.012059778,-1.0719192,0.47614574,-0.987792,-1.902175,3.717947,-0.20275116,0.07306337,1.8519938
1.6074185,21.285084,5.6701956,14.213062,0.69626784,-1.1015818,-0.05067812,-0.79188067,0.7273136,0.48252082,-0.24431436,0.6355677,0.655071,0.49164575,1.0753859,-0.40577906,-1.5305374,-1.1228747,2.4631467,1.4702241,-0.9645731,1.1405302,-0.46543172,-1.5697219,-1.1029446,2.4088216,1.4094702,-1.0110025,-1.4054534,1.3058618,0.89878976,-0.44436324,0.9226106,0.47551954,0.27738866,1.5252552,-0.41238022,1.6252704,-3.1095326,-0.032136116,0.3104652,0.20566559,-0.33181,1.0181532,0.74971294,-0.14262472,0.081163704,0.6410936,-0.090931095,0.7366162,0.29395738,1.0,0.0,0.0,0.0,0.0,0.0,0.0,-2.1752553,0.012380213,-1.0752704,-0.4058361,-0.79579353,-3.2010674,2.293861,-0.24722815,0.08100271,1.5016019
2.8273845,19.319273,4.401055,10.860764,0.43960917,-1.3780038,-0.010636844,-0.7965466,0.72366124,0.45649755,-0.291679,0.63106966,0.65328074,0.48746645,1.0608755,-0.3930656,-1.5240722,-1.1321125,2.4719286,1.4747983,-0.9622559,1.1264235,-0.45243457,-1.5610492,-1.107507,2.4179997,1.4142214,-1.0081358,-1.412773,1.2980545,0.8568062,-0.46065524,0.91679716,0.47528645,0.28965476,1.4941845,-0.41270065,1.6276363,-3.1064239,-0.03210399,0.21196884,0.20488739,-0.3245964,1.020909,0.74820125,-0.14647098,0.08292303,0.64176697,-0.06511796,0.715862,0.26334327,1.0,0.0,0.0,0.0,0.0,0.0,0.0,-2.1441846,0.012700647,-1.0776362,-0.8154869,-0.67408085,-4.188299,-1.7656565,-0.43206215,0.0936985,1.2028039
6.3840365,19.718634,4.5591526,6.1489286,0.046512604,-1.6647198,0.13405132,-0.7894295,0.7150549,0.45564672,-0.35765558,0.6307291,0.6486965,0.5012511,1.0474806,-0.38092908,-1.5154846,-1.1432725,2.4810727,1.479091,-0.9580107,1.1122824,-0.43953088,-1.5527275,-1.112613,2.4271283,1.4189688,-1.0051527,-1.4145635,1.2881165,0.8241457,-0.52747023,0.9115958,0.47490063,0.3011078,1.4631443,-0.4130211,1.6290181,-3.103318,-0.032071892,0.11357097,0.20449257,-0.31757736,1.0232583,0.7466668,-0.1498568,0.08490272,0.6425131,-0.021884633,0.6961253,0.21953784,1.0,0.0,0.0,0.0,0.0,0.0,0.0,-2.1131444,0.013021082,-1.0790181,-0.17490387,-0.8992195,-3.2788396,-6.7655087,-0.42477846,0.10526776,1.126945
4.7451153,18.075777,3.9773557,8.130822,0.2480678,-1.6055933,0.066834636,-0.7856989,0.71102285,0.42141026,-0.326873,0.62180823,0.65800214,0.50411016,1.0337125,-0.3684286,-1.5105864,-1.1453003,2.489309,1.484769,-0.9547417,1.0981566,-0.4267235,-1.5447872,-1.1182263,2.4361882,1.4237181,-1.0020666,-1.4119371,1.2785672,0.7838122,-0.57306415,0.9044738,0.4752323,0.31095245,1.4321346,-0.41334152,1.6294166,-3.1002154,-0.032039825,0.015271478,0.20448875,-0.31076813,1.0252118,0.7451241,-0.1527927,0.087094426,0.6433188,0.0144867,0.67355436,0.18136232,1.0,0.0,0.0,0.0,0.0,0.0,0.0,-2.0821347,0.013341516,-1.0794165,0.2546072,-0.8546591,-4.0555954,-4.6590924,-0.601995,0.15136003,0.9631038
1.9443116,11.610888,0.5380663,7.8186007,0.4123124,-1.8126096,-0.03755068,-0.7896866,0.70144105,0.34428173,-0.36717004,0.6090907,0.65970886,0.48931244,1.0191879,-0.3565794,-1.510359,-1.1549433,2.4970973,1.489689,-0.9531354,1.0840498,-0.41403297,-1.5375202,-1.1243432,2.445149,1.4284712,-0.99890685,-1.4104497,1.2661916,0.7077202,-0.62498176,0.8931726,0.47556666,0.31761467,1.4011555,-0.41366196,1.6288328,-3.0971158,-0.03200779,-0.082929745,0.2048397,-0.3042946,1.0267327,0.7436818,-0.15521312,0.089530654,0.64407337,0.04957676,0.6365555,0.13665177,1.0,0.0,0.0,0.0,0.0,0.0,0.0,-2.0511556,0.013661951,-1.0788329,0.15542507,-1.1479855,-7.615173,-5.30802,-1.0684252,0.12807846,0.6387532
1.6963649,9.0161,-0.85866094,6.2776566,0.365984,-1.9809078,-0.03166457,-0.7868127,0.6934252,0.30589065,-0.4276351,0.59509706,0.6598426,0.5009204,1.0053686,-0.34469044,-1.5069311,-1.1671066,2.5046587,1.4944555,-0.9488148,1.0699679,-0.4014788,-1.5310943,-1.1311295,2.4539647,1.4332262,-0.9956815,-1.4071934,1.2521017,0.6208375,-0.6967639,0.8778204,0.47579113,0.32397595,1.3702068,-0.4139824,1.6272677,-3.0940194,-0.03197579,-0.18103278,0.20557404,-0.29824448,1.0277551,0.742384,-0.15701506,0.09225586,0.64474887,0.08910477,0.59369314,0.08530016,1.0,0.0,0.0,0.0,0.0,0.0,0.0,-2.020207,0.013982385,-1.0772676,0.38247108,-1.3267279,-8.709394,-7.2778583,-1.5120268,0.10562539,0.6066978
2.0946078,8.139891,-1.1432321,4.870699,0.30750218,-2.0557022,0.017109431,-0.7915305,0.6825649,0.28648895,-0.49339217,0.58949655,0.6645177,0.49582207,0.9908148,-0.3332223,-1.5024455,-1.1804687,2.5129144,1.499678,-0.94609934,1.0558935,-0.3890858,-1.5254524,-1.1388085,2.4626317,1.437987,-0.9924047,-1.4071302,1.2352651,0.5452376,-0.79175884,0.8627741,0.4763097,0.32881185,1.3392887,-0.41430283,1.6247222,-3.090926,-0.03194382,-0.27903774,0.20673561,-0.29261017,1.0282246,0.74121124,-0.1581206,0.09526707,0.64538974,0.13210124,0.54944056,0.028893339,1.0,0.0,0.0,0.0,0.0,0.0,0.0,-1.9892887,0.01430282,-1.0747223,0.104904175,-1.6058207,-7.597065,-9.573257,-1.5054584,0.12086034,0.45591593
3.7914636,10.358431,0.5621071,4.2621317,0.16492876,-1.9705989,0.12066481,-0.78980774,0.66809,0.2988459,-0.5519083,0.5540481,0.6703681,0.5051332,0.97691274,-0.3222768,-1.4955678,-1.1939993,2.5180366,1.5050237,-0.9418914,1.041823,-0.37689307,-1.5202911,-1.1475327,2.4710698,1.4427553,-0.9890802,-1.4065228,1.2142055,0.5063811,-0.89958626,0.8378043,0.47733358,0.33368227,1.3084011,-0.41462326,1.6211976,-3.0878358,-0.031911884,-0.3769447,0.20835495,-0.28736496,1.0281295,0.7400772,-0.15853323,0.09854474,0.64609736,0.1779086,0.51321894,-0.027461039,1.0,0.0,0.0,0.0,0.0,0.0,0.0,-1.9584011,0.014623255,-1.0711975,0.19216537,-2.022791,-3.9648414,-10.826015,-2.4789095,0.16368032,0.46223998
3.9163654,10.522109,1.4863384,5.4419255,0.2358118,-1.8220474,0.16543254,-0.7806556,0.6469288,0.29653537,-0.5867322,0.5157086,0.66791517,0.5189399,0.96375746,-0.3122002,-1.4906375,-1.206206,2.5226407,1.5095469,-0.9371862,1.0278002,-0.36496785,-1.5153224,-1.1572659,2.479176,1.4475313,-0.9857013,-1.4003459,1.1856192,0.49308652,-0.9979082,0.80202246,0.4779094,0.33915392,1.2775459,-0.4149437,1.6166945,-3.0847485,-0.03187998,-0.47475377,0.21040344,-0.2824402,1.027504,0.7389064,-0.15832488,0.10204404,0.64694476,0.21958464,0.4816332,-0.079307064,1.0,0.0,0.0,0.0,0.0,0.0,0.0,-1.9275459,0.014943689,-1.0666945,0.75998306,-2.769494,-1.4515281,-9.873009,-3.5249352,0.10423064,0.51847696
3.561079,9.071545,1.6863248,6.3158627,0.40780085,-1.7121884,0.20723681,-0.77280265,0.6183857,0.30456355,-0.63845575,0.5029912,0.6680596,0.5107545,0.9505199,-0.3031293,-1.4848661,-1.2211115,2.5294752,1.5143373,-0.93462586,1.0138766,-0.35340932,-1.5103271,-1.1679509,2.4869351,1.4523131,-0.98227954,-1.3891993,1.1462107,0.50119764,-1.0919698,0.7678129,0.47825408,0.34310672,1.2467232,-0.41526413,1.611214,-3.0816646,-0.031848107,-0.57246506,0.2128334,-0.27783203,1.0263786,0.73764485,-0.15755033,0.105670124,0.6479906,0.25592226,0.45047545,-0.12860823,1.0,0.0,0.0,0.0,0.0,0.0,0.0,-1.8967232,0.015264124,-1.061214,1.2758255,-3.850913,0.64614415,-9.446907,-3.343141,0.065124035,0.3657043
2.5696168,9.785447,2.3723288,9.082897,0.55322903,-1.5085975,0.15725884,-0.7728301,0.6117868,0.30226862,-0.6555033,0.47438648,0.66404223,0.50646514,0.93659353,-0.29223064,-1.4801003,-1.2335012,2.5343738,1.5187173,-0.931633,1.0000483,-0.34220555,-1.5052078,-1.1793911,2.4943395,1.4570929,-0.97882724,-1.3804885,1.1120968,0.51498795,-1.1616194,0.7317992,0.47784606,0.34584713,1.2159309,-0.41558456,1.6047572,-3.0785835,-0.031816263,-0.6700787,0.21557045,-0.27348328,1.0248276,0.7362965,-0.15630886,0.109382175,0.64920765,0.28413877,0.42428115,-0.16896676,1.0,0.0,0.0,0.0,0.0,0.0,0.0,-1.8659309,0.015584558,-1.0547571,0.95660686,-3.3159018,1.2519836,-7.0308924,-3.489089,-0.036537647,0.24493933
1.0160542,7.7943826,1.5123017,10.493002,0.7607617,-1.4520876,0.10213578,-0.76893425,0.59371054,0.28908995,-0.69274753,0.47123632,0.660785,0.49074852,0.92315483,-0.2828345,-1.4762988,-1.2486659,2.5414631,1.5231714,-0.9297524,0.98629725,-0.33133176,-1.5000179,-1.1914532,2.5014462,1.4618651,-0.97536445,-1.3731067,1.0794817,0.51987785,-1.2213945,0.7042024,0.47678342,0.34638038,1.1851692,-0.415905,1.597325,-3.0755055,-0.031784452,-0.76759475,0.21854973,-0.26942444,1.0228935,0.7349045,-0.15464124,0.11314454,0.650538,0.3061181,0.39484787,-0.20649914,1.0,0.0,0.0,0.0,0.0,0.0,0.0,-1.8351692,0.015904993,-1.0473249,0.79391,-3.1698704,0.38980246,-6.0596704,-2.6518583,-0.12844801,0.022810698
-1.2108746,3.4883785,0.021139145,12.337456,1.0043005,-1.3513963,0.05678697,-0.75868833,0.55547404,0.29228324,-0.7091762,0.40341753,0.65530735,0.50544906,0.9104284,-0.27578434,-1.4707896,-1.2623708,2.541788,1.5273958,-0.9248195,0.97264254,-0.32087043,-1.4947975,-1.203994,2.5081487,1.4666201,-0.97188926,-1.3627862,1.0353081,0.52242565,-1.2652551,0.6594612,0.47500113,0.34776282,1.154438,-0.41622543,1.5889183,-3.0724306,-0.031752676,-0.8650133,0.22168541,-0.26568985,1.0206088,0.7335047,-0.15259466,0.116944775,0.6519276,0.3194597,0.36140385,-0.24073443,1.0,0.0,0.0,0.0,0.0,0.0,0.0,-1.804438,0.016225427,-1.0389183,1.074481,-4.33352,0.15642643,-4.4938326,-4.361427,-0.22178292,0.08966923
-4.596085,-2.5892422,-2.4489524,14.828232,1.3518815,-1.2407694,-0.03170309,-0.75164574,0.5164341,0.27497786,-0.7086474,0.33159277,0.659376,0.5231166,0.897478,-0.26922703,-1.4672997,-1.2748587,2.541308,1.5325577,-0.9195776,0.9591023,-0.31094745,-1.4896495,-1.2168095,2.5142522,1.4713598,-0.9683893,-1.3510555,0.9781479,0.511921,-1.2873893,0.59424996,0.47347072,0.350498,1.1237373,-0.41654587,1.5795382,-3.0693588,-0.03172093,-0.96233445,0.22487068,-0.26234436,1.0180129,0.73215765,-0.15023991,0.120793186,0.6532856,0.32078445,0.32077265,-0.27060333,1.0,0.0,0.0,0.0,0.0,0.0,0.0,-1.7737373,0.016545862,-1.0295382,1.1861324,-5.6458354,-1.1247158,-2.358079,-6.4157844,-0.22414327,0.19889474
-7.6892877,-9.882199,-5.2936816,16.106995,1.7043979,-1.1934859,-0.07263512,-0.73780864,0.4578607,0.26551992,-0.72371376,0.25771642,0.6506568,0.5208717,0.8853214,-0.26516137,-1.4630976,-1.2891809,2.5400238,1.5364256,-0.9163021,0.94572127,-0.30176356,-1.4846618,-1.2297909,2.519566,1.4760786,-0.96486545,-1.3336977,0.8986262,0.49412352,-1.3023486,0.5106334,0.47109127,0.35260394,1.0930672,-0.4168663,1.5691856,-3.0662901,-0.03168921,-1.0595582,0.22799301,-0.25947952,1.01512,0.73090905,-0.14760736,0.12466982,0.65455437,0.31196526,0.2702211,-0.30003643,1.0,0.0,0.0,0.0,0.0,0.0,0.0,-1.7430671,0.016866297,-1.0191855,1.7833948,-7.9010487,-1.8847227,-1.6571283,-8.274579,-0.33197403,0.11240244
-16.250887,-27.89493,-13.956194,17.77768,2.6685584,-1.3216473,-0.25574446,-0.72689956,0.36724898,0.17344846,-0.72836155,0.20827547,0.637114,0.5213799,0.8730313,-0.26503867,-1.467317,-1.3026271,2.5403936,1.53979,-0.9127275,0.9325386,-0.29366115,-1.4802654,-1.2428753,2.524014,1.4807631,-0.96132636,-1.312636,0.7807625,0.42111963,-1.3109221,0.42301652,0.4669114,0.3538855,1.0624275,-0.41718292,1.5578616,-3.0632243,-0.03165753,-1.1566849,0.23086357,-0.2573967,1.0118982,0.7299192,-0.14462088,0.12847103,0.65558976,0.2799921,0.18362148,-0.33356562,1.0,0.0,0.0,0.0,0.0,0.0,0.0,-1.7124275,0.017182916,-1.0078616,2.2423744,-11.790573,-7.4245157,-1.050806,-8.774567,-0.57917833,-0.023937225
-44.42842,-90.96027,-44.049526,19.774052,5.7310305,-1.9080852,-0.76077586,-0.695922,0.07124621,-0.08147069,-0.7463511,0.034027886,0.6285543,0.51940316,0.86294645,-0.2865365,-1.4884125,-1.3175105,2.5274167,1.5436186,-0.90938604,0.91969454,-0.28794006,-1.4777648,-1.2560856,2.5272145,1.4853903,-0.9577882,-1.2729628,0.5019066,0.1918522,-1.3252504,0.28472018,0.4600056,0.35268727,1.0318184,-0.41749573,1.5455669,-3.0601618,-0.03162588,-1.2537144,0.23287392,-0.25712204,1.0081402,0.72967726,-0.14093736,0.13185553,0.6559892,0.17600234,-0.029001106,-0.39321682,1.0,0.0,0.0,0.0,0.0,0.0,0.0,-1.6818184,0.017495722,-0.9955669,4.585433,-28.075813,-23.304977,-1.6581774,-14.151859,-1.0697603,-0.470376
-75.67484,-160.17241,-76.580864,22.939247,8.795461,-2.3035982,-1.2857249,-0.6522468,-0.3051929,-0.3440826,-0.74967915,-0.3951042,0.59960973,0.5135528,0.8544699,-0.31845933,-1.512173,-1.3310535,2.487704,1.5453513,-0.9064329,0.90743124,-0.28649905,-1.4786537,-1.269418,2.5279126,1.4899145,-0.95427775,-1.2066641,0.023504134,-0.18490446,-1.3358353,-0.0038389098,0.44731516,0.34864914,1.0012398,-0.41780853,1.5323027,-3.0571022,-0.03159426,-1.350647,0.23324776,-0.25992584,1.0035723,0.7307637,-0.13621347,0.13459598,0.65522075,-0.010270578,-0.36570877,-0.4799217,1.0,0.0,0.0,0.0,0.0,0.0,0.0,-1.6512398,0.017808527,-0.9823027,7.8740835,-48.242973,-38.45846,-1.062274,-29.463375,-1.9887626,-0.9692371
-72.811386,-154.72005,-71.66602,25.184359,8.665263,-1.6742681,-1.0557446,-0.6073314,-0.47943705,-0.3392175,-0.7402818,-0.5593714,0.6015063,0.52742916,0.8466981,-0.33444276,-1.5125754,-1.3434461,2.4719756,1.5500652,-0.90153486,0.8959557,-0.2900348,-1.4827945,-1.2827561,2.525498,1.4943129,-0.95079017,-1.1233805,-0.4806722,-0.49356243,-1.3317926,-0.3224564,0.43455946,0.34727082,0.9706917,-0.41812134,1.5180699,-3.0540457,-0.03156267,-1.4474826,0.23169899,-0.26587296,0.9981948,0.7331063,-0.13055046,0.13656992,0.6533455,-0.20690352,-0.67213905,-0.55805653,1.0,0.0,0.0,0.0,0.0,0.0,0.0,-1.6206917,0.018121332,-0.96806985,9.647608,-50.84243,-31.777918,0.8351803,-32.39731,-2.1060586,-0.5953193
-54.956955,-118.976654,-51.077797,24.16277,7.1856194,-0.72871673,-0.43761572,-0.60307455,-0.6510724,-0.21745539,-0.7774623,-0.5847466,0.6281199,0.5291745,0.83564824,-0.35514206,-1.5045401,-1.3605024,2.4670234,1.5571249,-0.8978727,0.8851725,-0.29829076,-1.4885604,-1.2961819,2.520352,1.4986197,-0.9472978,-1.059615,-0.9418038,-0.60735255,-1.3440328,-0.57951707,0.42694917,0.3491411,0.9401741,-0.41843414,1.5028695,-3.0509923,-0.031531118,-1.5442214,0.22838974,-0.2742424,0.99213636,0.7361205,-0.12426634,0.1375635,0.650969,-0.37760788,-0.89005435,-0.6231968,1.0,0.0,0.0,0.0,0.0,0.0,0.0,-1.5901741,0.018434137,-0.9528695,7.5103045,-46.48728,-12.276518,-0.52485466,-26.077444,-1.491648,-0.017005205
-10.058519,-32.6626,-3.452175,19.713001,2.9827332,0.61220455,0.76056504,-0.50320077,-0.6933817,0.11541915,-0.79691935,-0.5874095,0.61999315,0.53361493,0.8348524,-0.36762893,-1.4770185,-1.3758738,2.461611,1.560619,-0.89393634,0.8752514,-0.31003907,-1.4930389,-1.3098328,2.5133023,1.5028883,-0.9437616,-0.96810025,-1.2530186,-0.396612,-1.3707758,-0.7466214,0.42644426,0.35565585,0.90968704,-0.41874695,1.4867023,-3.047942,-0.031499594,-1.6408635,0.22413635,-0.2833786,0.98571086,0.73865396,-0.11800955,0.13752875,0.6492688,-0.4466328,-0.9160293,-0.6516981,1.0,0.0,0.0,0.0,0.0,0.0,0.0,-1.559687,0.018746942,-0.9367023,9.575165,-31.27942,20.444578,-2.229786,-16.692984,-0.16852617,0.82776546
30.673141,39.653908,34.739635,12.358516,-0.9217843,0.9123076,1.6335945,-0.18815067,-0.7258877,0.16003081,-0.7771763,-0.6337619,0.6172162,0.48273128,0.8564364,-0.38262784,-1.4770358,-1.3875505,2.4499261,1.56461,-0.89548844,0.86749136,-0.32380107,-1.4947402,-1.3236592,2.505032,1.5071856,-0.9401891,-0.713857,-1.4170564,-0.09466801,-1.386666,-0.852646,0.4320911,0.35911942,0.8792305,-0.41905975,1.4695696,-3.0448947,-0.0314681,-1.737409,0.22005844,-0.2917366,0.97921234,0.7396789,-0.112365246,0.13667408,0.64928365,-0.39939794,-0.8028331,-0.65258646,1.0,0.0,0.0,0.0,0.0,0.0,0.0,-1.5292305,0.019059747,-0.91956955,24.854755,-16.33501,30.21217,-1.6005516,-10.266363,0.96175075,0.7406533
32.29118,47.344585,32.122692,8.83367,-1.4364991,-0.12559187,1.2212709,-0.01579075,-0.76079184,-0.1707519,-0.75632256,-0.6385498,0.6158473,0.44513255,0.8659123,-0.39988026,-1.5118154,-1.3992914,2.4411771,1.5687703,-0.8956759,0.86283743,-0.33844998,-1.4952857,-1.3374932,2.496079,1.5115324,-0.9366224,-0.38558894,-1.4806086,-0.03943075,-1.3826785,-0.9087592,0.43657652,0.35673806,0.8488045,-0.41937256,1.451472,-3.0418503,-0.031436637,-1.8338579,0.21668243,-0.2991562,0.9726412,0.7393079,-0.10723147,0.13537747,0.65084416,-0.31989768,-0.7138417,-0.66171175,1.0,0.0,0.0,0.0,0.0,0.0,0.0,-1.4988045,0.019372553,-0.90147203,31.907356,-6.281781,6.053572,0.28378963,-5.417788,0.6927788,0.028276443
28.49039,40.25505,22.216167,3.9425995,-1.182131,-1.4065387,0.805849,0.23127821,-0.78734773,-0.4353588,-0.76424307,-0.5786461,0.6001724,0.4230525,0.8859652,-0.41718477,-1.5388216,-1.4139175,2.4382143,1.5715497,-0.89431715,0.8620373,-0.35333303,-1.4972217,-1.3512795,2.4869962,1.5158983,-0.93310714,0.01750826,-1.4907483,-0.24131683,-1.3778458,-0.9080802,0.4364068,0.35022232,0.81840897,-0.41968536,1.4324107,-3.038809,-0.031405207,-1.9302105,0.21419334,-0.3060913,0.96579516,0.7380235,-0.10212182,0.13385902,0.65343267,-0.22564606,-0.68074197,-0.6952256,1.0,0.0,0.0,0.0,0.0,0.0,0.0,-1.468409,0.019685358,-0.8824107,38.997616,-0.988698,-19.112623,0.3340006,0.12937784,-0.03912449,-0.51206946
21.491354,31.485703,13.644656,3.487019,-0.6922599,-1.9466805,0.43387932,0.33690944,-0.7909633,-0.5352586,-0.76618123,-0.56975096,0.59766316,0.42597517,0.89572823,-0.43242937,-1.5507475,-1.4278976,2.430021,1.5756646,-0.8905096,0.86495554,-0.36810353,-1.50195,-1.365022,2.478085,1.5202471,-0.92965865,0.37946478,-1.4726084,-0.5466551,-1.3734208,-0.88565135,0.43391824,0.3432736,0.788044,-0.41999817,1.4123867,-3.035771,-0.03137381,-2.0264666,0.212574,-0.31298447,0.95851445,0.73625165,-0.096654594,0.1322653,0.6565799,-0.13920856,-0.68455225,-0.74259603,1.0,0.0,0.0,0.0,0.0,0.0,0.0,-1.438044,0.019998163,-0.86238664,35.041275,1.7884493,-29.51464,0.34713745,2.2135854,-0.40755868,-0.62549114
12.770516,22.819767,6.966305,5.9648657,-0.06620395,-1.9236629,0.11398181,0.37332562,-0.78759575,-0.60623026,-0.7710839,-0.5610858,0.5967155,0.3995037,0.9022881,-0.4468631,-1.5625731,-1.4421303,2.4219766,1.5799186,-0.8897083,0.8706757,-0.38261798,-1.5097187,-1.378751,2.4694486,1.5245672,-0.92629695,0.63390166,-1.4445814,-0.8514297,-1.3727262,-0.8568969,0.43058702,0.33392933,0.7577095,-0.42031097,1.3914008,-3.0327356,-0.031342443,-2.1226263,0.2116394,-0.3200531,0.9507309,0.7343375,-0.0906425,0.13069032,0.65988815,-0.07595472,-0.70914865,-0.7947225,1.0,0.0,0.0,0.0,0.0,0.0,0.0,-1.4077095,0.020310968,-0.8414008,24.751282,2.7359962,-29.83408,0.07469654,2.7699351,-0.5402744,-0.905931
7.672496,19.873575,5.558663,9.096195,0.3144706,-1.5171785,0.005407192,0.4057002,-0.7864945,-0.6340909,-0.7772767,-0.54442286,0.58895,0.40716895,0.9112457,-0.46126744,-1.5731277,-1.4564787,2.4150062,1.5834622,-0.88558006,0.87813723,-0.39687732,-1.5199516,-1.3925107,2.4611096,1.5288492,-0.9230163,0.78271174,-1.419996,-1.0796965,-1.376732,-0.8267096,0.42688853,0.32618344,0.72740555,-0.42062378,1.369454,-3.0297036,-0.031311106,-2.21869,0.21116257,-0.32736206,0.94246775,0.7324326,-0.084081285,0.12914176,0.6631706,-0.03400482,-0.7320499,-0.842208,1.0,0.0,0.0,0.0,0.0,0.0,0.0,-1.3774055,0.020623773,-0.819454,14.6176815,2.3730278,-22.565985,-0.32463074,2.8710246,-0.56123734,-0.754267
3.305659,20.192848,7.0527563,13.824949,0.6556912,-0.78646165,-0.03768082,0.371355,-0.7821982,-0.6055075,-0.7764992,-0.51990956,0.5993679,0.4190711,0.9152727,-0.47509715,-1.5805023,-1.4701606,2.4091187,1.588786,-0.8811092,0.88621104,-0.4109383,-1.5315521,-1.4063065,2.4530873,1.5331103,-0.9197948,0.8160887,-1.4018304,-1.1872283,-1.3801978,-0.79491335,0.42533815,0.32077006,0.6971321,-0.42093658,1.3465472,-3.0266745,-0.0312798,-2.3146574,0.21091843,-0.33478546,0.93384534,0.73056674,-0.07713899,0.12755948,0.666371,-0.017097207,-0.74019855,-0.87504214,1.0,0.0,0.0,0.0,0.0,0.0,0.0,-1.3471321,0.020936579,-0.79654723,3.4846425,1.717186,-10.847712,-0.21841526,2.9815197,-0.27709603,-0.5276859
-3.8367329,16.75729,5.959233,18.852642,1.168544,-0.12278171,-0.16867931,0.29755062,-0.7863638,-0.600577,-0.77231216,-0.528395,0.60910136,0.39644587,0.9159661,-0.48957467,-1.5916097,-1.4835377,2.4002478,1.5940204,-0.8801502,0.89383185,-0.4249058,-1.5435703,-1.4201062,2.44529,1.5373694,-0.91663814,0.7456311,-1.3954695,-1.2078735,-1.3792892,-0.77555484,0.4258349,0.31390792,0.6668892,-0.4212494,1.3226815,-3.0236483,-0.031248527,-2.4105291,0.21061325,-0.34225845,0.92498827,0.7288209,-0.06999511,0.12591068,0.6693782,-0.029867524,-0.7433578,-0.8956553,1.0,0.0,0.0,0.0,0.0,0.0,0.0,-1.3168892,0.021249384,-0.77268153,-6.5745234,0.5097151,-2.404189,0.28784275,1.6668558,-0.019270182,-0.70486665
-6.7868323,17.738642,7.3447876,21.822264,1.3439068,0.38310316,-0.17775352,0.2388953,-0.7842848,-0.567615,-0.7722916,-0.52469194,0.6118964,0.4204827,0.9177214,-0.5033343,-1.6003318,-1.4973353,2.3928208,1.598559,-0.87458986,0.9003197,-0.43885234,-1.5552871,-1.4338849,2.4376302,1.5416399,-0.91352534,0.6185625,-1.3948233,-1.1612974,-1.376857,-0.7638267,0.42742968,0.3102584,0.6366768,-0.4215622,1.2978579,-3.0206254,-0.031217285,-2.5063047,0.21006775,-0.34967804,0.9160057,0.72721344,-0.062810905,0.124171115,0.67215836,-0.058049962,-0.73618686,-0.90544224,1.0,0.0,0.0,0.0,0.0,0.0,0.0,-1.2866768,0.021562189,-0.74785787,-12.088144,-0.06861687,4.193115,0.46436787,0.8793354,0.14241934,-0.38756132
-11.884331,14.845642,5.2972355,23.597424,1.6165752,0.6244122,-0.27609682,0.14583914,-0.7849862,-0.56963444,-0.7801905,-0.54235506,0.60787565,0.4262124,0.9149036,-0.517351,-1.6122506,-1.5119039,2.3833947,1.6024275,-0.8709041,0.9052254,-0.4528208,-1.5664432,-1.4476731,2.4299855,1.5459238,-0.91043925,0.4502469,-1.3980379,-1.1021216,-1.3787313,-0.7658322,0.42868635,0.30793136,0.6064949,-0.421875,1.2720772,-3.0176053,-0.031186074,-2.6019847,0.20913887,-0.35705566,0.9069309,0.7258149,-0.055629157,0.12236888,0.6746287,-0.10110131,-0.73256785,-0.91415185,1.0,0.0,0.0,0.0,0.0,0.0,0.0,-1.2564949,0.021874994,-0.7220772,-16.107363,-0.46966076,5.377245,0.08332729,-0.5305648,0.112086535,-0.27347803
-14.210324,14.497334,4.5714335,24.0486,1.7009518,0.72980225,-0.31468356,0.06558511,-0.7809399,-0.5612529,-0.785168,-0.5476319,0.5984718,0.44252837,0.91178393,-0.5309148,-1.6225685,-1.5261899,2.3752224,1.6057711,-0.86618644,0.90836966,-0.46680835,-1.5770462,-1.461509,2.422276,1.5502115,-0.90735984,0.27156472,-1.3995152,-1.0483611,-1.3842169,-0.77390057,0.42879412,0.3078664,0.5763397,-0.4221878,1.2453405,-3.014588,-0.031154893,-2.6975691,0.20773506,-0.36441803,0.89776194,0.72468024,-0.048436176,0.12053808,0.6767296,-0.14995162,-0.7303297,-0.9234382,1.0,0.0,0.0,0.0,0.0,0.0,0.0,-1.2263397,0.0221878,-0.69534045,-17.130684,-0.30150414,4.82502,-0.254488,-1.1478186,-0.008046627,-0.049233437
-24.276375,5.56699,-2.3377457,26.2336,2.3960145,0.8134407,-0.56946003,-0.09337328,-0.79030275,-0.58991146,-0.78848493,-0.5641997,0.5774032,0.4117037,0.89903235,-0.5458386,-1.6360373,-1.5403575,2.3658562,1.6079519,-0.8661895,0.90940344,-0.48085073,-1.5873973,-1.4754078,2.4144292,1.5544802,-0.90430236,0.05013147,-1.4065179,-1.0326735,-1.3904126,-0.78980887,0.42605048,0.30478588,0.54621506,-0.4225006,1.2176486,-3.0115743,-0.031123746,-2.7930577,0.2056675,-0.37192154,0.8884453,0.72402346,-0.041127592,0.118705064,0.67823863,-0.22385624,-0.75009537,-0.9395715,1.0,0.0,0.0,0.0,0.0,0.0,0.0,-1.196215,0.022500604,-0.6676486,-21.283957,-0.89797974,0.96406937,-0.22265911,-2.0108104,-0.34944415,-0.38555264
-23.008148,6.562951,-2.033615,24.5264,2.334742,0.7128105,-0.52046055,-0.13625352,-0.7942191,-0.6017245,-0.79758704,-0.54297787,0.55327517,0.39339635,0.8957781,-0.56027263,-1.6475698,-1.5551665,2.3601315,1.6098077,-0.8649627,0.9084784,-0.49497703,-1.5977886,-1.4893982,2.4065022,1.5587012,-0.90128684,-0.137458,-1.4153106,-1.0430129,-1.4005833,-0.7952653,0.42045867,0.30029297,0.5161209,-0.42281342,1.1890026,-3.0085633,-0.031092629,-2.8884509,0.2028904,-0.37963486,0.8789238,0.7238839,-0.033614323,0.11681874,0.67912847,-0.29353997,-0.7715333,-0.9612321,1.0,0.0,0.0,0.0,0.0,0.0,0.0,-1.1661209,0.02281341,-0.6390026,-18.000866,-1.0775805,-1.5675545,-0.6157398,-0.9516597,-0.673604,-0.5016744
-22.601097,8.413622,-1.2797918,24.04071,2.284711,0.7497913,-0.49581477,-0.22527155,-0.7933841,-0.6104002,-0.7954716,-0.5468557,0.53889495,0.41281387,0.8859512,-0.5743154,-1.6588286,-1.5689454,2.3518167,1.6125907,-0.86000544,0.90581286,-0.5091734,-1.6083858,-1.5034649,2.3985372,1.5628573,-0.898298,-0.3073655,-1.4216982,-1.0671245,-1.4071798,-0.7983931,0.4135134,0.29822803,0.48605728,-0.42312622,1.1594034,-3.0055552,-0.031061541,-2.9837487,0.19944,-0.3875618,0.869179,0.7242314,-0.025866691,0.11484659,0.67943364,-0.3623134,-0.79095685,-0.98365617,1.0,0.0,0.0,0.0,0.0,0.0,0.0,-1.1360573,0.023126215,-0.60940343,-16.288015,-0.84028244,-2.8990507,-0.25343895,-0.7156491,-0.82849264,-0.2477169
-20.977718,10.93757,0.36543655,23.1758,2.1399431,0.81040543,-0.43602175,-0.2995801,-0.8013468,-0.6167992,-0.79672164,-0.55611116,0.5309924,0.39925084,0.87585485,-0.5893081,-1.6700658,-1.5831372,2.342926,1.6159565,-0.8583729,0.90161,-0.52344894,-1.6192424,-1.5175793,2.39053,1.5669428,-0.89533496,-0.4558708,-1.430098,-1.093356,-1.4114058,-0.8028172,0.40636918,0.29565084,0.45602417,-0.42343903,1.1288518,-3.0025504,-0.031030487,-3.0789511,0.19533157,-0.3956375,0.8592084,0.72501266,-0.017895794,0.11276096,0.67920643,-0.42763874,-0.8048756,-1.0061069,1.0,0.0,0.0,0.0,0.0,0.0,0.0,-1.1060241,0.02343902,-0.57885176,-14.21966,-1.0384321,-3.0638218,-0.021648407,-0.8292556,-0.8573055,-0.2797246
-19.033722,14.024079,1.8181183,21.808126,1.9126933,0.8027376,-0.39513898,-0.35942805,-0.79564214,-0.65381414,-0.8020739,-0.5652174,0.53753287,0.3918761,0.8656672,-0.60301316,-1.6846238,-1.5977867,2.3340085,1.6206961,-0.85614735,0.8960949,-0.53776264,-1.6304786,-1.5317414,2.382462,1.5709673,-0.89239955,-0.58155364,-1.43242,-1.1349831,-1.4164212,-0.8096848,0.40064105,0.29282358,0.42602158,-0.42375183,1.0973488,-2.9995484,-0.030999463,-3.1740587,0.19062042,-0.40382767,0.84899527,0.7261758,-0.00969324,0.110571414,0.6784899,-0.4868502,-0.81358874,-1.0309035,1.0,0.0,0.0,0.0,0.0,0.0,0.0,-1.0760216,0.023751825,-0.5473488,-12.00658,-0.4243374,-4.5509815,-0.112104416,-1.0605931,-0.73143244,-0.29907227
-18.573784,15.148327,2.4781227,21.185076,1.910622,0.85411114,-0.3656125,-0.4235834,-0.80479425,-0.67620605,-0.8018569,-0.54703873,0.5188331,0.37893057,0.8537366,-0.6182421,-1.6980993,-1.611927,2.327758,1.6228507,-0.8545065,0.88942397,-0.5521221,-1.642165,-1.5459378,2.3743863,1.5749289,-0.8894975,-0.6939878,-1.4377096,-1.1811711,-1.4195836,-0.80803436,0.39386913,0.28928167,0.3960495,-0.42406464,1.0648955,-2.9965494,-0.030968469,-3.269071,0.18531418,-0.4120903,0.8385294,0.7276854,-0.0012539919,0.10822794,0.67731756,-0.54625034,-0.8207791,-1.0564433,1.0,0.0,0.0,0.0,0.0,0.0,0.0,-1.0460495,0.02406463,-0.5148955,-10.727989,-0.7226944,-4.9721003,0.0780344,-0.20164251,-0.85315704,-0.3537357
-21.599371,15.123226,1.9434047,22.141628,2.1015747,1.0715286,-0.42083722,-0.5218973,-0.80737287,-0.69286704,-0.7978499,-0.54117143,0.51732457,0.36438623,0.83723426,-0.6328594,-1.7114516,-1.6257228,2.320269,1.6266613,-0.8530589,0.88151324,-0.5665369,-1.6542938,-1.5601342,2.3663564,1.5788256,-0.8866384,-0.82165986,-1.4434748,-1.2245659,-1.4182233,-0.80257666,0.387587,0.28474897,0.36610794,-0.42437744,1.0314928,-2.9935534,-0.030937508,-3.3639884,0.17934608,-0.42042542,0.8278209,0.72957206,0.0074098352,0.10567732,0.6756492,-0.61579657,-0.8275331,-1.0800773,1.0,0.0,0.0,0.0,0.0,0.0,0.0,-1.0161079,0.024377435,-0.48149282,-12.224018,-0.78992844,-4.70109,0.5652189,0.15449524,-0.82666874,-0.44995546
-25.361893,15.562195,1.6090798,23.39175,2.3501103,1.3680375,-0.5008348,-0.62695754,-0.80795634,-0.6986274,-0.7978312,-0.5089402,0.51017463,0.28847998,0.8188175,-0.64733255,-1.7241565,-1.6399173,2.3154624,1.629843,-0.8577904,0.8721386,-0.5810013,-1.6667659,-1.5743058,2.358479,1.5826594,-0.8838775,-0.97408074,-1.4482511,-1.2560316,-1.415241,-0.7843069,0.38124132,0.27325356,0.336195,-0.42469025,0.9971417,-2.9905605,-0.030906577,-3.4588108,0.17259216,-0.42882538,0.81690365,0.73190475,0.016262233,0.102841474,0.6734051,-0.6984306,-0.8323427,-1.0999902,1.0,0.0,0.0,0.0,0.0,0.0,0.0,-0.98619497,0.02469024,-0.4471417,-14.653182,-0.71566105,-3.5312176,0.76828,1.4067292,-0.8571148,-1.1357546
-25.463789,18.10254,3.145679,23.645353,2.4379709,1.5675366,-0.5207209,-0.6908799,-0.8103707,-0.7073688,-0.7888669,-0.44405687,0.5010537,0.16087466,0.80305064,-0.6620383,-1.7375028,-1.6531925,2.3140733,1.6327647,-0.86779004,0.8612639,-0.5955105,-1.6794765,-1.5884049,2.350968,1.5864302,-0.88132167,-1.1233648,-1.4526519,-1.2771887,-1.4066484,-0.7412328,0.37483335,0.24995801,0.30631065,-0.42499542,0.96184313,-2.9875705,-0.030875675,-3.5535386,0.16497421,-0.4372406,0.80582607,0.7347173,0.02524215,0.09959156,0.67054814,-0.78518236,-0.8322839,-1.1146688,1.0,0.0,0.0,0.0,0.0,0.0,0.0,-0.95631063,0.024995416,-0.41184312,-14.370108,-0.6829977,-2.4722815,1.3300896,3.9012313,-0.87020993,-2.2865772
-23.239809,21.509857,5.5774045,23.021225,2.359347,1.6758852,-0.5220536,-0.74138653,-0.8148694,-0.71410114,-0.7778412,-0.3809443,0.48465118,-0.051073276,0.78712523,-0.6769974,-1.7508866,-1.666189,2.3128734,1.6348953,-0.886429,0.8490406,-0.6100712,-1.6923378,-1.6023743,2.344048,1.5901304,-0.8791435,-1.2536952,-1.4580187,-1.2900215,-1.3922809,-0.676769,0.3677686,0.20723611,0.27645683,-0.4253006,0.9255979,-2.9845834,-0.030844806,-3.6481714,0.15652657,-0.44561768,0.79463434,0.7380122,0.034278005,0.09579645,0.6670727,-0.868762,-0.8256743,-1.124859,1.0,0.0,0.0,0.0,0.0,0.0,0.0,-0.9264568,0.025300592,-0.3755979,-12.546539,-0.76839924,-1.5886068,1.8826008,6.0835004,-0.92653036,-4.1971116
-18.194313,26.39166,9.215106,21.186804,2.0568013,1.6819532,-0.47958067,-0.7717003,-0.8143956,-0.7173047,-0.77188253,-0.3031382,0.47316134,-0.29918006,0.7718706,-0.69151074,-1.7640682,-1.6795626,2.3137343,1.6374466,-0.9090615,0.8357607,-0.62467,-1.7052753,-1.616195,2.337933,1.5937601,-0.87755656,-1.3515126,-1.4612317,-1.2958231,-1.3773158,-0.5907647,0.3607599,0.14293902,0.24663353,-0.42560577,0.8884071,-2.9815996,-0.030813968,-3.7427099,0.14733315,-0.45385742,0.7833633,0.74175626,0.04330168,0.09135329,0.6630061,-0.94030464,-0.80981547,-1.131874,1.0,0.0,0.0,0.0,0.0,0.0,0.0,-0.8966335,0.025605768,-0.3384071,-9.399843,-0.52404404,-0.8166313,1.8833637,8.306885,-0.8891046,-6.325576
-13.0703745,32.57264,13.575867,20.746216,1.7865047,1.7611408,-0.42202678,-0.7927599,-0.80273294,-0.7167274,-0.73677623,-0.21395007,0.52048874,-0.39500844,0.75648475,-0.7049433,-1.776948,-1.6898726,2.316538,1.645809,-0.9170574,0.8217522,-0.6392317,-1.7182243,-1.629739,2.3328214,1.597365,-0.87664294,-1.4163865,-1.4550287,-1.2950443,-1.3457851,-0.48486727,0.3600107,0.07454423,0.21684074,-0.42591095,0.8502716,-2.9786186,-0.03078316,-3.837154,0.13750839,-0.46188354,0.7720978,0.74588835,0.05218422,0.08620853,0.65840364,-1.0003481,-0.7844908,-1.1286505,1.0,0.0,0.0,0.0,0.0,0.0,0.0,-0.8668407,0.025910944,-0.30027157,-6.214714,0.45001507,-0.06401539,3.4561157,10.376406,-0.20959377,-6.722596
-7.908121,35.806896,16.18066,18.331099,1.2900772,1.6474582,-0.31618154,-0.7999053,-0.8054526,-0.7256518,-0.7309789,-0.20212358,0.5075248,-0.44968837,0.7417617,-0.7197769,-1.7907895,-1.702837,2.312609,1.6481175,-0.9216118,0.80733454,-0.6537323,-1.7311847,-1.6429837,2.3286443,1.6009623,-0.8763921,-1.4496193,-1.448856,-1.296651,-1.3163936,-0.39619648,0.35935542,0.008955425,0.18707848,-0.42621613,0.8111924,-2.9756405,-0.030752381,-3.9315033,0.12720871,-0.4696045,0.76085144,0.7503008,0.060878657,0.080424316,0.65335613,-1.0434643,-0.7518088,-1.1269882,1.0,0.0,0.0,0.0,0.0,0.0,0.0,-0.83707845,0.02621612,-0.26119238,-3.1381607,0.48036575,-0.25014877,3.1865358,8.71501,-0.15965104,-6.448747
-4.5770583,36.984848,17.201965,16.170605,0.9053098,1.5068418,-0.23104656,-0.80334777,-0.81084675,-0.7418965,-0.7239117,-0.19413759,0.506621,-0.48200318,0.72699976,-0.73481697,-1.8053744,-1.7153748,2.3092306,1.6516244,-0.92459244,0.7927567,-0.66820526,-1.7442329,-1.6559727,2.3251653,1.6045557,-0.87675166,-1.4600232,-1.4471439,-1.3077782,-1.2924778,-0.3321001,0.3591181,-0.0504768,0.15734291,-0.4265213,0.77116245,-2.9726653,-0.030721636,-4.0268235,0.116573334,-0.4769745,0.7495778,0.7548878,0.06940729,0.074117675,0.6479456,-1.0738803,-0.71586883,-1.131167,0.0,1.0,0.0,0.0,0.0,0.0,0.0,-0.8073429,0.026521295,-0.22116244,-0.90720654,0.05545616,-1.1788368,2.617526,6.292641,-0.10128021,-5.8417387
-2.2469082,38.66188,18.389853,14.59086,0.56109774,1.456505,-0.16736448,-0.80940825,-0.8061345,-0.7439676,-0.7140455,-0.1816261,0.49689597,-0.50751173,0.71181583,-0.7488187,-1.8186296,-1.7273773,2.3070025,1.6542454,-0.9275028,0.77823335,-0.6825611,-1.7584218,-1.669163,2.320284,1.6101956,-0.87700367,-1.449564,-1.4335198,-1.4421853,-1.3202972,-0.5168135,0.5913232,-0.033910602,0.140625,-0.42926025,0.7726219,-1.503201,-0.27970493,0.9321509,0.10567474,-0.48366547,0.73788244,0.7593508,0.077275544,0.06833317,0.64245266,-1.095993,-0.6418947,-1.1802768,0.0,1.0,0.0,0.0,0.0,0.0,0.0,-0.790625,0.029260248,-0.22262192,0.4215479,0.13928413,-1.7914772,2.622056,4.0433645,-0.35463572,-5.3203716
74.56608,176.0,110.0,99.99558,-5.8145704,10.001638,-0.66547066,-0.7860045,0.44923106,0.6851424,0.7568608,-0.20260103,0.61218953,-0.45795828,0.6996329,-0.637638,-1.6899076,-1.5934769,2.3000238,1.6714146,-0.92279947,0.7695511,-0.6938631,-1.7744321,-1.6712916,2.3069324,1.6257005,-0.8753767,-0.679437,-1.0285778,-1.6453503,0.1508759,-1.6040062,1.8774092,0.22339614,0.12560272,-0.4320526,0.781192,-1.5016981,-0.27942526,0.8319678,0.095573425,-0.48807526,0.7300252,0.7637436,0.076570295,0.068718046,0.63726807,-0.9825476,-0.3569525,-0.6559652,1.0,0.0,0.0,0.0,0.0,0.0,0.0,-0.7756027,0.032052606,-0.231192,75.5369,40.641357,-17.706608,145.52414,-107.50082,130.82355,24.281488
14.870837,148.11807,97.0567,98.89351,1.2993511,7.0903006,-0.8853936,-0.81065106,-0.48133513,0.2950919,0.7879948,-0.5885171,0.51252615,-0.26685047,0.688486,-0.7419966,-1.7449229,-1.5924921,2.2480807,1.6769531,-0.90206176,0.7627695,-0.7026617,-1.7857293,-1.6626437,2.2900982,1.6443543,-0.8733177,-0.67772907,-0.8319575,-0.95489496,1.1018553,-1.7136153,1.8672141,0.19976804,0.1105957,-0.43484497,0.788761,-1.5001967,-0.2791459,0.7318848,0.085762024,-0.49066544,0.7273713,0.76858157,0.06882801,0.07280152,0.6318583,-0.9804689,-0.21691369,-0.13959566,1.0,0.0,0.0,0.0,0.0,0.0,0.0,-0.7605957,0.034844965,-0.23876101,0.17584562,19.163942,69.97761,94.78374,-12.068796,0.745821,-2.4724364
-16.667114,122.10451,61.892666,76.0121,2.4818978,4.6320705,-1.2780964,-0.7863417,-0.14976719,-0.27408132,0.7393392,-0.64176244,0.60152894,0.15775177,0.6841353,-0.71763843,-1.8131374,-1.5887097,2.2259219,1.7045072,-0.8575425,0.7546156,-0.70874137,-1.7923669,-1.6475928,2.2737942,1.6618981,-0.8713722,-0.8592824,-0.53495675,-0.5672393,1.6397839,-1.6062584,1.7201465,0.1925084,0.09560394,-0.43763733,0.7953299,-1.4986968,-0.2788668,0.63190186,0.07558823,-0.49225235,0.72852194,0.774245,0.05789519,0.07853363,0.6253201,-1.0282197,-0.13189693,0.1935377,1.0,0.0,0.0,0.0,0.0,0.0,0.0,-0.7456039,0.037637323,-0.24532992,-17.55085,29.20406,38.6178,53.934242,9.72867,-13.689375,-0.82830787
-36.651054,79.98864,27.943733,50.895878,3.1732063,2.5335474,-1.285691,-0.79176956,-0.10643226,-0.4071335,0.79505545,-0.6479052,0.55052173,0.056289725,0.67543864,-0.7193846,-1.8330802,-1.5680872,2.2090037,1.7169503,-0.8657433,0.74411756,-0.7122976,-1.7970036,-1.6297286,2.2593021,1.6775765,-0.86961746,-1.1115952,-0.29691675,-0.43064553,1.8360001,-1.3986505,1.5185465,0.16960506,0.08062744,-0.44042206,0.80089974,-1.4971985,-0.278588,0.53201896,0.06469345,-0.49336243,0.73162395,0.78081644,0.046384,0.08499034,0.61721206,-1.1098698,-0.0973184,0.34275037,1.0,0.0,0.0,0.0,0.0,0.0,0.0,-0.7306274,0.040422052,-0.25089973,-24.710978,23.465412,13.216913,19.829702,20.266747,-19.670105,-2.3559332
-44.71862,31.525045,-2.2861817,27.666233,3.3384943,0.69318426,-1.0599914,-0.8082381,-0.18870978,-0.5076926,0.7893648,-0.6529247,0.6121965,-0.1267917,0.6632937,-0.73116857,-1.8477728,-1.5507921,2.1940098,1.7387962,-0.8822966,0.7313698,-0.7145626,-1.8019646,-1.6116126,2.2467823,1.6913838,-0.86821365,-1.3281345,-0.20350313,-0.5191854,1.8040675,-1.2032899,1.3350914,0.13042079,0.0656662,-0.4432068,0.80547154,-1.4957016,-0.27830946,0.43223587,0.052856445,-0.49453735,0.73497057,0.7881981,0.036043122,0.09134619,0.60753626,-1.2082696,-0.115141034,0.32671142,1.0,0.0,0.0,0.0,0.0,0.0,0.0,-0.7156662,0.04320678,-0.25547153,-21.330547,9.199426,-9.216809,-3.0330896,19.501019,-18.213104,-3.958118
-37.361805,5.7171474,-12.926869,13.101716,2.7660992,-0.28227,-0.62126124,-0.808006,-0.24733296,-0.5020401,0.7963983,-0.64509034,0.6220113,-0.1825496,0.6505692,-0.7392959,-1.8521687,-1.5319728,2.1822734,1.753585,-0.8864686,0.7170666,-0.71682566,-1.8083009,-1.5945227,2.2358608,1.7035508,-0.8672209,-1.4636743,-0.23403157,-0.67262596,1.6778164,-1.0549188,1.1772251,0.08886057,0.050720215,-0.4459877,0.80904627,-1.4942061,-0.27803123,0.33255255,0.04014778,-0.49605942,0.73756075,0.796109,0.027585091,0.097071946,0.59667945,-1.2917727,-0.15340126,0.23244673,1.0,0.0,0.0,0.0,0.0,0.0,0.0,-0.7007202,0.045987695,-0.25904626,-13.3502245,-3.0921698,-15.548301,-12.489939,14.864588,-15.811372,-4.1574
-25.43619,-2.7100828,-12.322304,6.25234,2.0679936,-0.6420547,-0.23048113,-0.8034458,-0.298899,-0.49662474,0.7969404,-0.6323717,0.61303693,-0.18370771,0.636722,-0.74671555,-1.8579633,-1.5148287,2.1726236,1.7648546,-0.8855916,0.70201665,-0.7199728,-1.8160561,-1.5787566,2.2260418,1.7143292,-0.8666048,-1.518297,-0.34159943,-0.8101253,1.5432546,-0.95731807,1.0444459,0.0525608,0.03578949,-0.4487648,0.8116249,-1.4927123,-0.27775326,0.23296891,0.026781082,-0.4979744,0.73905,0.8042324,0.020994453,0.10193529,0.5851312,-1.3514996,-0.19285308,0.117922634,1.0,0.0,0.0,0.0,0.0,0.0,0.0,-0.68578947,0.048764795,-0.26162487,-5.3264856,-10.757196,-13.8339405,-13.305616,9.727049,-13.3315325,-3.5937905
-13.495539,4.8228254,-3.7348976,5.85143,1.3905313,-0.47136593,0.013881203,-0.80289185,-0.32368022,-0.4706063,0.8036532,-0.614727,0.6076001,-0.20243794,0.62172747,-0.7523408,-1.8631167,-1.4983913,2.1645691,1.7750893,-0.88684857,0.68682843,-0.72431296,-1.8246964,-1.5640357,2.2169132,1.7239499,-0.8663225,-1.5188551,-0.46490693,-0.8821273,1.4487351,-0.89850146,0.93454975,0.020236343,0.020874023,-0.4515419,0.8132084,-1.4912199,-0.27747557,0.13348486,0.013027191,-0.50016785,0.73956716,0.81232476,0.015847988,0.105972864,0.5732774,-1.3846215,-0.21551022,0.02674351,1.0,0.0,0.0,0.0,0.0,0.0,0.0,-0.670874,0.051541895,-0.2632084,0.0072717667,-12.349499,-7.1737885,-9.309196,5.7435155,-11.004055,-3.190358
-3.9749324,20.215893,6.641043,7.995094,0.75953716,-0.17012608,0.11589411,-0.7955136,-0.3167105,-0.46848223,0.8010606,-0.59491783,0.59613174,-0.217188,0.6072771,-0.755984,-1.8715446,-1.4839296,2.1574214,1.7835631,-0.8880413,0.6718605,-0.729624,-1.8336705,-1.549927,2.2081966,1.7326112,-0.8663378,-1.4894143,-0.55333036,-0.9022417,1.3983582,-0.8635608,0.8435611,-0.008716504,0.005973816,-0.4543152,0.81379783,-1.4897289,-0.27719817,0.034100246,-0.00086021423,-0.50242233,0.7394412,0.8202421,0.011671044,0.10943168,0.56132996,-1.3914182,-0.21638213,-0.02855968,1.0,0.0,0.0,0.0,0.0,0.0,0.0,-0.6559738,0.05431518,-0.26379782,2.9320002,-8.902669,-1.8952727,-4.952407,3.2661915,-9.057081,-2.8961408
-2.9683123,24.407555,9.675897,10.578668,0.84984195,0.06924456,0.11283433,-0.7981426,-0.38236627,-0.4691394,0.7968514,-0.56607085,0.5977266,-0.21529977,0.59204626,-0.7678606,-1.8805845,-1.4702419,2.1515896,1.7923838,-0.88786775,0.6572111,-0.7358143,-1.842616,-1.5360682,2.19977,1.7404866,-0.86660576,-1.4567486,-0.64123607,-0.89153445,1.3820988,-0.83654153,0.76903147,-0.032745,-0.008911133,-0.45708466,0.8133912,-1.4882394,-0.276921,-0.06557875,-0.014822006,-0.5046501,0.7388921,0.8279496,0.008111419,0.11242182,0.5493587,-1.398842,-0.21084236,-0.06661277,1.0,0.0,0.0,0.0,0.0,0.0,0.0,-0.64108884,0.05708465,-0.2633912,3.2571554,-8.871567,1.2132168,-1.524663,2.4634361,-7.405448,-2.3962526
-3.9667747,30.003536,11.368688,12.842837,0.8013231,0.23175472,0.048624754,-0.79423946,-0.39228484,-0.4998709,0.7971472,-0.5811464,0.6014192,-0.18149959,0.57778716,-0.7750428,-1.892603,-1.4563534,2.1416554,1.8006285,-0.88475573,0.6428507,-0.74267596,-1.8515118,-1.5222094,2.1914806,1.7477212,-0.86705875,-1.429189,-0.7016152,-0.8884262,1.3875078,-0.82706034,0.7083855,-0.0495632,-0.023780823,-0.45985413,0.81198853,-1.4867516,-0.27664414,-0.1651581,-0.028852463,-0.5067558,0.73805016,0.8354688,0.005006661,0.1151303,0.537319,-1.4057856,-0.19843403,-0.09315481,1.0,0.0,0.0,0.0,0.0,0.0,0.0,-0.62621915,0.05985412,-0.26198852,2.7629375,-6.144643,0.44660568,0.6472111,0.7143378,-6.0110927,-1.7076231
-4.5980873,32.7185,12.1802025,13.970166,0.77139693,0.3424098,0.019068377,-0.78103024,-0.42487144,-0.49879852,0.8032761,-0.5999018,0.614153,-0.19039312,0.5647477,-0.7851631,-1.9013917,-1.4418818,2.1314905,1.8091365,-0.8860981,0.62874395,-0.750065,-1.8603791,-1.5082018,2.1831684,1.7544408,-0.8676605,-1.4044338,-0.75171876,-0.88563055,1.4055759,-0.83316725,0.6600655,-0.06386924,-0.03863716,-0.46261597,0.8095908,-1.4852651,-0.27636755,-0.2646379,-0.042949677,-0.5086975,0.73698556,0.8428135,0.0022640876,0.11771425,0.52516997,-1.4125359,-0.18152167,-0.11411519,1.0,0.0,0.0,0.0,0.0,0.0,0.0,-0.6113628,0.06261596,-0.2595908,2.4912357,-5.130625,0.41764975,1.92132,-0.8403897,-4.7751546,-1.4697008
-3.6150334,33.69597,13.175657,13.443794,0.7413698,0.43259743,0.048252136,-0.7680038,-0.47058946,-0.46393514,0.79507613,-0.5816824,0.63180226,-0.25683606,0.55194354,-0.79712397,-1.9067726,-1.4286942,2.1250002,1.817621,-0.8933441,0.61486894,-0.7579939,-1.8690652,-1.4940531,2.1748219,1.7607579,-0.8684349,-1.3817877,-0.806916,-0.86259377,1.418487,-0.8359852,0.62250525,-0.08210902,-0.05348015,-0.4653778,0.806199,-1.4837801,-0.27609122,-0.3640182,-0.057106018,-0.5104561,0.7357234,0.84996897,-0.00022489623,0.12016421,0.51294565,-1.4172951,-0.16064827,-0.1336954,1.0,0.0,0.0,0.0,0.0,0.0,0.0,-0.5965198,0.0653778,-0.256199,2.2666693,-5.6420684,2.4607658,1.4024019,-0.5266428,-3.6982536,-1.851055
-6.5266824,32.11129,11.2088585,13.367026,0.8665853,0.43938357,0.02756245,-0.7724022,-0.4973861,-0.4833982,0.7913255,-0.57527256,0.6068901,-0.20063329,0.5376287,-0.80773246,-1.917405,-1.4149206,2.1172945,1.8214469,-0.88849825,0.6011351,-0.76646155,-1.8776215,-1.47983,2.1664715,1.7667336,-0.86933327,-1.3705043,-0.8604128,-0.85303605,1.4241346,-0.83537984,0.5894945,-0.09257617,-0.06830788,-0.46813965,0.8018142,-1.4822966,-0.2758152,-0.46329919,-0.07135773,-0.51200104,0.73422265,0.8569474,-0.0024431772,0.12245248,0.50064015,-1.4287803,-0.14074616,-0.15910651,1.0,0.0,0.0,0.0,0.0,0.0,0.0,-0.5816921,0.06813964,-0.2518142,1.1568546,-5.473304,1.0820389,0.7047415,-0.16189814,-3.2612085,-1.0664775
-3.8839834,35.88251,13.188529,12.554199,0.6073899,0.4609875,0.07200627,-0.7495889,-0.5097663,-0.46645802,0.7924856,-0.5986652,0.62962514,-0.22389321,0.5261762,-0.8174382,-1.9242673,-1.4005815,2.106605,1.8296962,-0.89172256,0.58755857,-0.7753803,-1.8860501,-1.465584,2.158064,1.7724404,-0.8703375,-1.3533623,-0.90279704,-0.8389945,1.4252837,-0.8433618,0.5645442,-0.10311389,-0.083120346,-0.47089386,0.7964373,-1.4808147,-0.27553943,-0.56248087,-0.0856514,-0.5133209,0.7324885,0.8637236,-0.004406914,0.12463746,0.48829034,-1.4302853,-0.11618212,-0.18190432,1.0,0.0,0.0,0.0,0.0,0.0,0.0,-0.56687963,0.070893854,-0.24643731,1.7137527,-4.3664813,1.5545726,0.22642612,-1.0393262,-2.441132,-1.089494
-1.1506934,34.174496,13.316576,10.566757,0.51685023,0.38751125,0.15906103,-0.726101,-0.5656599,-0.43893552,0.78119314,-0.5876697,0.6371926,-0.2183788,0.5149485,-0.8319463,-1.9299437,-1.3874648,2.0992968,1.8361597,-0.8921754,0.57422525,-0.78484267,-1.8942422,-1.4513972,2.1496105,1.7779393,-0.8714285,-1.326764,-0.96111065,-0.81206757,1.4166977,-0.84685767,0.54511875,-0.111135304,-0.09791756,-0.47364807,0.79006934,-1.4793342,-0.27526394,-0.66156334,-0.0999279,-0.5144043,0.73048645,0.87025124,-0.006165344,0.12665045,0.4760089,-1.427237,-0.0937736,-0.21025844,1.0,0.0,0.0,0.0,0.0,0.0,0.0,-0.5520824,0.073648065,-0.24006933,2.6310444,-5.9450865,2.8658032,-0.7544756,-0.5923629,-1.8907547,-0.81415474
-1.7365899,31.286657,11.608304,9.892202,0.60427547,0.29666865,0.15913625,-0.71247244,-0.6058077,-0.44853023,0.78264,-0.5829589,0.637165,-0.1956112,0.502978,-0.84542346,-1.9390951,-1.3731332,2.0913146,1.8416559,-0.8909896,0.5611809,-0.79495734,-1.9022435,-1.4372962,2.1411495,1.7832723,-0.872571,-1.2970718,-1.0286381,-0.79575366,1.4084667,-0.8465936,0.5292897,-0.11520642,-0.11269951,-0.47639847,0.78271127,-1.4778552,-0.27498874,-0.7605468,-0.1142025,-0.51530075,0.72814924,0.87653047,-0.0077162245,0.12841134,0.4638375,-1.4280235,-0.075918294,-0.24563457,1.0,0.0,0.0,0.0,0.0,0.0,0.0,-0.53730047,0.07639846,-0.23271126,2.9487371,-6.857717,1.7906308,-0.6939888,-0.18827915,-1.5485406,-0.39797425
3.0113845,27.977884,10.955082,6.9371333,0.40699553,0.037042975,0.24333963,-0.6549528,-0.66158545,-0.45452726,0.77335453,-0.57998055,0.6500162,-0.19072025,0.4956856,-0.8611159,-1.9476962,-1.3599607,2.0831516,1.8482739,-0.891643,0.5486372,-0.80586547,-1.9101704,-1.4233038,2.1327114,1.7884774,-0.8737402,-1.2403977,-1.1117716,-0.7912078,1.396394,-0.8436401,0.5175639,-0.117385,-0.1274662,-0.47914505,0.7743641,-1.4763776,-0.2747138,-0.85943127,-0.12843513,-0.5160713,0.7253752,0.88254046,-0.009036815,0.12983105,0.45186776,-1.421339,-0.06659075,-0.29232335,1.0,0.0,0.0,0.0,0.0,0.0,0.0,-0.5225338,0.079145044,-0.2243641,5.6013107,-8.395696,0.64020157,-1.0891199,0.1032114,-1.1484265,-0.18782318
2.8591146,25.512342,8.644446,5.9834538,0.30329567,-0.1649133,0.22300181,-0.6215088,-0.687392,-0.51188695,0.77733994,-0.60585016,0.6476793,-0.13177353,0.48648635,-0.87460464,-1.9613591,-1.3455698,2.0721264,1.8532454,-0.88691753,0.5367411,-0.8175537,-1.918372,-1.4093916,2.1242275,1.7935796,-0.8748827,-1.1729181,-1.1881471,-0.829407,1.3900306,-0.8503478,0.5077531,-0.11303233,-0.14221764,-0.48189163,0.76503724,-1.4749014,-0.27443916,-0.9570937,-0.14260483,-0.51680374,0.7220653,0.88829094,-0.010006499,0.13095906,0.44010073,-1.4149095,-0.064356275,-0.34851024,0.0,1.0,0.0,0.0,0.0,0.0,0.0,-0.50778234,0.081891626,-0.21503723,6.6835165,-7.7146053,-3.6556602,-0.4970312,-0.814116,-0.9753704,0.46016127
6.524927,24.001741,8.131073,3.411024,0.11469111,-0.38049257,0.26313427,-0.5660293,-0.73236006,-0.5395773,0.7546862,-0.5685433,0.6498641,-0.16205935,0.48013815,-0.8907897,-1.9723297,-1.333923,2.0673733,1.858566,-0.8910886,0.52564603,-0.83000773,-1.9271058,-1.3956206,2.1157856,1.7985978,-0.8760004,-1.0886642,-1.2647548,-0.88740957,1.3731997,-0.842597,0.49970466,-0.11128929,-0.15695572,-0.4846344,0.7547345,-1.4734269,-0.27416477,-1.0546585,-0.1566639,-0.5175667,0.71812457,0.89378834,-0.010530172,0.13175479,0.4285697,-1.4022228,-0.06887687,-0.41414514,0.0,1.0,0.0,0.0,0.0,0.0,0.0,-0.49304426,0.08463439,-0.2047345,8.323336,-7.72779,-5.6251645,-1.555419,0.6502509,-0.82497597,0.20681173
14.018852,27.6685,10.721023,0.78414965,-0.34250873,-0.57594806,0.36887747,-0.48942268,-0.75495356,-0.5687308,0.7402738,-0.5646395,0.6482345,-0.12472195,0.47670376,-0.9055031,-1.9839789,-1.3215932,2.0593216,1.8634212,-0.8884726,0.51558,-0.8431284,-1.9364823,-1.382067,2.107439,1.8035436,-0.8770771,-0.9798724,-1.3281598,-0.95356643,1.3495905,-0.8321779,0.49291003,-0.10642863,-0.17168045,-0.48737335,0.7434569,-1.4719539,-0.27389064,-1.1521257,-0.17045975,-0.5184021,0.7135272,0.8989902,-0.010568111,0.13223082,0.41739643,-1.3711348,-0.077765696,-0.48015717,0.0,1.0,0.0,0.0,0.0,0.0,0.0,-0.47831953,0.087373346,-0.19345689,10.709465,-6.4056396,-6.3951135,-2.290988,0.9008646,-0.7036865,0.49809664
34.181202,36.822083,18.701824,-5.0307655,-1.4272614,-0.98790586,0.6576588,-0.3388623,-0.7771601,-0.57532775,0.7155686,-0.58210456,0.6482908,-0.119782455,0.48169377,-0.9208444,-1.9940151,-1.3105102,2.0492287,1.8683727,-0.8890554,0.50713617,-0.8567835,-1.9465928,-1.3689129,2.0989897,1.8085084,-0.87826866,-0.8007831,-1.3781432,-1.0284288,1.3041047,-0.8441596,0.5026281,-0.119328216,-0.18712044,-0.48720932,0.7401748,-1.5121719,0.06662258,-0.103321895,-0.18357086,-0.519413,0.7082307,0.9037715,-0.010100322,0.13252361,0.40685675,-1.2901514,-0.09846001,-0.5513067,0.0,1.0,0.0,0.0,0.0,0.0,0.0,-0.46287954,0.087209314,-0.19017476,16.964436,-5.0863028,-4.6982765,-3.6228895,-0.014328957,-0.51954985,0.39958656
-0.75456524,68.53636,25.276413,16.875984,0.114100516,0.8389066,0.14982307,-0.5877532,-0.63181156,-0.44336787,0.78987616,-0.67609817,0.6399105,0.12374768,0.44836086,-0.9199647,-1.9909296,-1.2899253,2.03138,1.8724995,-0.8658939,0.4990148,-0.87009394,-1.9564805,-1.3557274,2.090254,1.8134999,-0.87925667,-0.81591165,-1.3160874,-0.9748143,1.3234894,-0.8850922,0.4981169,-0.092507936,-0.20223045,-0.48654556,0.73839015,-1.5106599,0.06655597,-0.2034978,-0.19624901,-0.5201225,0.7029634,0.90822715,-0.009544176,0.13319324,0.3966004,-1.2582074,-0.052600674,-0.524284,0.0,1.0,0.0,0.0,0.0,0.0,0.0,-0.44776952,0.08654556,-0.18839014,-1.5232086,5.9766293,5.6115627,1.9519567,-4.52466,-0.38506985,2.51147
-26.600548,76.26664,21.605618,28.35183,1.3059064,1.5424867,-0.25617275,-0.6510491,-0.576519,-0.5275972,0.8061186,-0.6838826,0.6423027,0.18008274,0.4339099,-0.9277458,-2.0092402,-1.2751156,2.0218658,1.8777303,-0.8612484,0.49002975,-0.88238776,-1.966042,-1.3421605,2.0811064,1.8184438,-0.87992424,-0.9254176,-1.2014986,-0.94933176,1.3683347,-0.92623925,0.49340943,-0.058936782,-0.21732521,-0.4858818,0.7356045,-1.5091497,0.06648943,-0.30357355,-0.20895386,-0.52017593,0.69814175,0.91255915,-0.008921012,0.13467418,0.38602963,-1.2718469,0.018611502,-0.4734501,0.0,1.0,0.0,0.0,0.0,0.0,0.0,-0.43267477,0.0858818,-0.18560451,-10.764909,11.15675,2.6805043,4.63078,-4.54638,-0.42083263,3.139326
-33.83013,75.072395,18.018616,29.792786,1.551187,1.5205033,-0.36726516,-0.6493547,-0.5364143,-0.6017066,0.801916,-0.68847305,0.64048123,0.18628272,0.42509428,-0.9360292,-2.0262127,-1.2619689,2.012259,1.882492,-0.86129594,0.47987407,-0.89343894,-1.9757543,-1.3281701,2.0715964,1.8233342,-0.8802733,-1.0449828,-1.0740466,-0.97817534,1.4098688,-0.96080524,0.48762563,-0.027701724,-0.23240471,-0.48521805,0.7318189,-1.5076408,0.066422954,-0.40354925,-0.22188377,-0.5195198,0.69377035,0.9168564,-0.008025245,0.13707702,0.37485975,-1.2980167,0.09068656,-0.42988068,0.0,1.0,0.0,0.0,0.0,0.0,0.0,-0.41759527,0.08521804,-0.1818189,-11.754,12.429595,-2.773726,4.342127,-3.852415,-0.58004856,2.891168
-29.993273,70.01097,15.960787,26.245443,1.3368477,1.2319714,-0.26939723,-0.65133524,-0.5062288,-0.63800585,0.8013119,-0.69340664,0.6434516,0.25441435,0.41474056,-0.9440618,-2.0395548,-1.2480389,2.0022557,1.8876793,-0.8548319,0.4687366,-0.90334094,-1.9860082,-1.3138688,2.0618117,1.8281713,-0.88029236,-1.1361774,-0.96314305,-1.0407166,1.4375015,-0.9855294,0.4822811,0.005969132,-0.24746895,-0.4845543,0.72703433,-1.5061334,0.06635654,-0.503425,-0.23504257,-0.51821136,0.6897005,0.9210898,-0.0066670883,0.14030527,0.3631301,-1.3187021,0.15289858,-0.40352112,0.0,1.0,0.0,0.0,0.0,0.0,0.0,-0.40253103,0.084554285,-0.17703432,-8.978891,10.791958,-6.104207,2.9355526,-2.8449416,-0.5888939,3.1401522
-22.68724,69.01337,16.89241,22.60522,1.0375322,1.0222421,-0.14261511,-0.66801834,-0.45750913,-0.6518107,0.8020959,-0.68326056,0.64159775,0.26591134,0.40193474,-0.94909185,-2.0511892,-1.2336591,1.9934857,1.892331,-0.85370123,0.45691246,-0.91223013,-1.9969087,-1.2994015,2.0518858,1.8329587,-0.8799996,-1.1976373,-0.865124,-1.105877,1.4501777,-0.996275,0.47714302,0.036330115,-0.26251793,-0.48389053,0.7212517,-1.5046277,0.0662902,-0.60320085,-0.24830437,-0.5163498,0.6858342,0.92519337,-0.004787473,0.14420208,0.35099858,-1.325928,0.20749652,-0.38461548,0.0,1.0,0.0,0.0,0.0,0.0,0.0,-0.38748205,0.08389053,-0.17125171,-6.0863733,9.519804,-6.293893,1.3778687,-1.4739394,-0.60461164,2.8050494
-21.198069,51.020237,10.241049,17.571312,1.0885988,0.6598389,-0.051582977,-0.6904811,-0.50337225,-0.7032138,0.79906183,-0.6794281,0.62360936,0.30085242,0.38786435,-0.9625673,-2.06723,-1.2194953,1.983943,1.8953196,-0.8499143,0.44463316,-0.920653,-2.0085945,-1.2849113,2.041976,1.8377136,-0.8793929,-1.2368746,-0.83540595,-1.193379,1.4476081,-0.98374254,0.48053676,0.06983783,-0.27718735,-0.48285294,0.71583915,-1.4030153,0.15156338,-0.33241302,-0.2617283,-0.5140648,0.68187547,0.92914766,-0.0023047675,0.14840065,0.33860978,-1.3459944,0.24660462,-0.40415218,0.0,1.0,0.0,0.0,0.0,0.0,0.0,-0.37281263,0.08285293,-0.16583914,-3.6741257,2.7486205,-9.446621,-0.39303303,2.2560835,1.2060046,3.544651
-10.739752,57.21446,15.264533,14.8151455,0.65916413,0.6211188,0.118359834,-0.6849038,-0.4435455,-0.6878504,0.7944478,-0.67835873,0.63334775,0.36274767,0.37614277,-0.96500754,-2.0773795,-1.2054665,1.97414,1.9010484,-0.84311813,0.43215957,-0.928764,-2.020893,-1.2705127,2.032191,1.8425071,-0.8784508,-1.2509689,-0.8036672,-1.2409405,1.437547,-0.97780627,0.47825113,0.101930164,-0.2910595,-0.481205,0.71247274,-1.3808222,0.17050774,-0.33880436,-0.2751732,-0.51140213,0.67778814,0.9328804,0.0006786268,0.15275177,0.32619107,-1.3405416,0.28340855,-0.41291884,0.0,1.0,0.0,0.0,0.0,0.0,0.0,-0.35894048,0.08120498,-0.16247272,-1.4442921,2.9592752,-4.4656754,-0.94308853,0.20549297,-0.3146708,3.013554
-2.9945323,60.7995,18.575632,12.957474,0.40720415,0.55726314,0.2180294,-0.67658937,-0.4241775,-0.6902417,0.79348844,-0.6767045,0.63513684,0.37347597,0.36450064,-0.97118175,-2.0899172,-1.1911639,1.9645206,1.9060208,-0.8411032,0.41970026,-0.9365889,-2.03347,-1.2562302,2.022471,1.8472869,-0.8772114,-1.244583,-0.7760125,-1.2619517,1.4252739,-0.97142315,0.47718006,0.13076045,-0.30466652,-0.479393,0.7090821,-1.3530797,0.18659236,-0.33876118,-0.28844833,-0.5084076,0.67365557,0.93633014,0.0040412564,0.15723543,0.31392112,-1.3196112,0.3157637,-0.41579583,0.0,1.0,0.0,0.0,0.0,0.0,0.0,-0.34533346,0.079393,-0.15908211,0.53794384,2.564156,-1.7382383,-1.2369156,0.2252698,-0.20306706,2.695416
-3.4311283,60.84388,18.662117,13.347788,0.536631,0.5864415,0.2253233,-0.6950935,-0.421849,-0.6951874,0.7928712,-0.6715106,0.616214,0.43428493,0.3501909,-0.9787738,-2.1029887,-1.1769431,1.9553199,1.9089084,-0.8337829,0.4072686,-0.9442078,-2.0461156,-1.2420472,2.0128036,1.8520355,-0.87567294,-1.2430189,-0.7578138,-1.2643528,1.4158851,-0.96659946,0.4734193,0.16107586,-0.31799507,-0.47742462,0.7056922,-1.3251107,0.20202363,-0.3385474,-0.30153084,-0.505085,0.66950995,0.93949044,0.007699807,0.16180038,0.30185923,-1.3004329,0.3482306,-0.4164957,0.0,1.0,0.0,0.0,0.0,0.0,0.0,-0.3320049,0.077424616,-0.15569216,0.050377846,1.6196847,0.1493454,-0.94344616,0.036108494,-0.44719577,2.8402
-4.6965046,54.323513,15.91577,12.250332,0.67248505,0.4912219,0.22532652,-0.6981044,-0.44639337,-0.7068461,0.7810301,-0.6567821,0.58091724,0.45634568,0.33745816,-0.98884714,-2.1168003,-1.1639441,1.9471253,1.9101273,-0.83003837,0.3948355,-0.9518343,-2.0587685,-1.2279805,2.0032108,1.8567157,-0.8738458,-1.2437173,-0.7647558,-1.264276,1.4036933,-0.95787114,0.46564457,0.18963613,-0.33107758,-0.4753189,0.702195,-1.3019387,0.21472825,-0.35232717,-0.31447983,-0.50146484,0.66526985,0.9423882,0.011652778,0.16631085,0.29001623,-1.2888921,0.37680408,-0.4285396,0.0,1.0,0.0,0.0,0.0,0.0,0.0,-0.3189224,0.0753189,-0.15219498,-0.1541853,-0.87394714,0.3647089,-1.1762381,0.4955411,-0.9577811,2.7521162
-2.4366155,61.018047,18.77219,13.163375,0.6668175,0.5745883,0.22912212,-0.6924164,-0.41194594,-0.68613285,0.78292763,-0.6528323,0.59722376,0.4837288,0.32559386,-0.99302894,-2.1273818,-1.1496878,1.9379276,1.9164381,-0.82547295,0.38241333,-0.95942175,-2.0713038,-1.2140034,1.993708,1.861335,-0.87174404,-1.2421088,-0.75749725,-1.2485498,1.3956205,-0.9489242,0.46010727,0.216709,-0.34388924,-0.47307968,0.6986435,-1.2730355,0.22797209,-0.3545271,-0.32725716,-0.49754333,0.6610026,0.9450246,0.015823808,0.17077659,0.27841213,-1.2694067,0.40751842,-0.42819545,0.0,1.0,0.0,0.0,0.0,0.0,0.0,-0.30611074,0.073079675,-0.1486435,0.043940544,0.5344629,1.989007,-0.80902576,0.4607439,-0.7280171,2.5827794
-4.3158903,48.8553,14.016922,11.262105,0.8358403,0.4068221,0.20895919,-0.69138885,-0.48241988,-0.6883229,0.78095156,-0.64072585,0.5774728,0.46885344,0.31327444,-1.0076637,-2.1401362,-1.1359082,1.9296354,1.9190823,-0.82485867,0.3700136,-0.9672638,-2.08369,-1.2000816,1.9843134,1.8658855,-0.86941147,-1.2394944,-0.79365414,-1.2341112,1.3913971,-0.9374299,0.45273387,0.23860994,-0.35648155,-0.47073364,0.6948885,-1.2535653,0.23750392,-0.3808777,-0.33994102,-0.49336624,0.65658444,0.94744,0.020195844,0.17504263,0.26703835,-1.263379,0.4319522,-0.44823924,0.0,1.0,0.0,0.0,0.0,0.0,0.0,-0.29351842,0.07073364,-0.14488846,0.18737316,-3.7707329,1.7843723,-0.3437519,0.80492496,-0.90527534,2.1280856
-2.0723834,47.046696,13.67138,10.089579,0.7463441,0.32076615,0.23425049,-0.6769759,-0.4949509,-0.68024975,0.78014326,-0.6459753,0.56093556,0.49719313,0.302316,-1.0167589,-2.1517148,-1.1220672,1.9197159,1.9219791,-0.81969213,0.35770443,-0.975536,-2.0959234,-1.1861825,1.9749991,1.870354,-0.8668672,-1.2283355,-0.8388751,-1.2186985,1.3898566,-0.93045676,0.4444707,0.25958985,-0.36887932,-0.4683075,0.69082594,-1.2342931,0.24495713,-0.41240692,-0.35254478,-0.48896408,0.6519334,0.9496516,0.024767935,0.17903373,0.25592038,-1.2547783,0.45229554,-0.4726632,0.0,1.0,0.0,0.0,0.0,0.0,0.0,-0.28112066,0.06830749,-0.14082593,1.0368824,-4.6637297,1.8757343,-0.07557869,0.36696196,-0.9801924,2.0434766
-1.6076694,40.992283,11.613344,8.538399,0.7334289,0.22577506,0.25166148,-0.6697373,-0.5455355,-0.66807985,0.7806193,-0.64625585,0.55281097,0.52671635,0.2907307,-1.0300895,-2.1627314,-1.1081206,1.9103734,1.9256351,-0.8141956,0.345535,-0.984429,-2.1079848,-1.172278,1.965729,1.8747383,-0.8641141,-1.2133394,-0.90659684,-1.2009631,1.3910301,-0.92668426,0.43602416,0.28051782,-0.38111687,-0.4658203,0.6863498,-1.2192101,0.25020477,-0.45664904,-0.36509132,-0.48439407,0.6469571,0.9516774,0.029534115,0.18267147,0.2450896,-1.2498175,0.46868095,-0.50801724,0.0,1.0,0.0,0.0,0.0,0.0,0.0,-0.2688831,0.06582031,-0.1363498,1.4362812,-6.893778,2.0718813,0.23281574,0.095808506,-0.98943114,2.0731509
0.38005543,42.669792,12.112375,7.8974133,0.57258165,0.17307478,0.27349246,-0.6549569,-0.55652803,-0.6740742,0.77580994,-0.65607136,0.5125282,0.5456436,0.2800393,-1.0400819,-2.1753922,-1.094697,1.9001218,1.9259912,-0.80954975,0.33356062,-0.9939381,-2.119936,-1.1583791,1.9564524,1.879016,-0.8611606,-1.192396,-0.96613246,-1.1922967,1.389827,-0.92897934,0.42471167,0.30027238,-0.39318848,-0.46328735,0.6814361,-1.2018964,0.25409532,-0.50040716,-0.37754822,-0.4796791,0.64162683,0.9535194,0.034535423,0.18596904,0.23457068,-1.238969,0.4821542,-0.5436269,0.0,1.0,0.0,0.0,0.0,0.0,0.0,-0.2568115,0.06328735,-0.13143611,2.019453,-6.0751557,1.1715412,-0.022101402,-0.52353144,-1.2724578,1.93941
9.09077,39.216396,12.88935,4.301201,0.23806614,-0.041124046,0.36662188,-0.60383964,-0.62023157,-0.6501126,0.77757096,-0.6556176,0.49729705,0.5521545,0.27317664,-1.0559613,-2.1849473,-1.080622,1.8908906,1.9287457,-0.80594516,0.3219963,-1.004177,-2.1317308,-1.144486,1.9471459,1.8831798,-0.8580251,-1.1447784,-1.0434333,-1.1745323,1.3892508,-0.93191564,0.41330135,0.3179274,-0.40507507,-0.46075058,0.67603695,-1.183122,0.2536859,-0.55026776,-0.3898239,-0.47491837,0.6358861,0.9551728,0.039737068,0.18887588,0.22448117,-1.2181004,0.48318252,-0.58672047,0.0,1.0,0.0,0.0,0.0,0.0,0.0,-0.2449249,0.060750574,-0.12603694,4.6518326,-7.82032,2.0870924,0.005507469,-0.5674958,-1.2705743,1.7443597
17.68828,45.98284,16.989115,3.227762,-0.017088592,-0.08872479,0.42885673,-0.5598921,-0.63161945,-0.61959845,0.7811145,-0.6566743,0.50063705,0.56923187,0.2660071,-1.067339,-2.1936905,-1.0663745,1.8814785,1.9332435,-0.80110186,0.31106046,-1.0150796,-2.1432354,-1.1305869,1.9378141,1.8872461,-0.85472155,-1.0770762,-1.1062899,-1.1411859,1.3901391,-0.9346853,0.4041406,0.33438656,-0.41670418,-0.45823288,0.6702432,-1.1551598,0.25066122,-0.58666325,-0.40176582,-0.47021103,0.6297981,0.9566227,0.04503448,0.1914268,0.21494329,-1.1807607,0.47666126,-0.6188105,0.0,1.0,0.0,0.0,0.0,0.0,0.0,-0.2332958,0.058232874,-0.12024319,6.6000223,-6.376362,3.7231445,0.06790161,-0.62139034,-1.0393679,1.5947521
29.138481,52.49372,21.679478,1.1845086,-0.34233773,-0.18597955,0.5202495,-0.49571514,-0.6529967,-0.57612365,0.7745493,-0.64927405,0.5051606,0.57808983,0.26148894,-1.0803792,-2.2008479,-1.0531319,1.8728867,1.9377621,-0.79691255,0.3009915,-1.0265199,-2.154244,-1.1167145,1.9284885,1.8912399,-0.85126555,-0.9842934,-1.1569045,-1.0856986,1.3860023,-0.9331938,0.39750192,0.34909797,-0.4279747,-0.45578003,0.6641926,-1.1166056,0.24353099,-0.60867745,-0.41319275,-0.46564102,0.6234701,0.95785314,0.05028077,0.19366889,0.20611069,-1.124086,0.45847178,-0.6401624,0.0,1.0,0.0,0.0,0.0,0.0,0.0,-0.22202528,0.055780023,-0.114192605,9.035837,-5.1467896,6.028533,-0.53670406,-0.28004646,-0.78113675,1.3893664
17.759348,50.028625,17.502495,4.0380907,0.020436078,-0.138066,0.39277205,-0.51187074,-0.6794924,-0.6080779,0.7719645,-0.6551059,0.41765723,0.5762603,0.24980444,-1.0944692,-2.2150517,-1.039518,1.8629779,1.9330056,-0.79363954,0.2916135,-1.0384179,-2.1649213,-1.1028899,1.9191606,1.8951064,-0.8476823,-0.92288464,-1.2010777,-1.0608404,1.38116,-0.9339184,0.3826807,0.36116102,-0.43891525,-0.45338058,0.6578597,-1.0855942,0.23845664,-0.6395104,-0.42419243,-0.46118927,0.6168877,0.9589011,0.055582188,0.19562878,0.19786026,-1.0858868,0.44841248,-0.6672571,0.0,1.0,0.0,0.0,0.0,0.0,0.0,-0.21108472,0.05338058,-0.10785967,5.974424,-4.525733,2.8886557,-0.5026102,-0.4577875,-1.6227841,1.1446357
23.80879,54.296368,19.704243,3.060322,-0.16892916,-0.2307117,0.43491292,-0.43837595,-0.6858917,-0.59091324,0.7640261,-0.6372054,0.41060603,0.595885,0.2477759,-1.1070071,-2.2240126,-1.0264872,1.85544,1.936167,-0.7880938,0.2829646,-1.0506479,-2.1754003,-1.0891473,1.9098806,1.8988276,-0.8439806,-0.8462079,-1.2304418,-1.0424802,1.3716879,-0.9273506,0.36822805,0.37283474,-0.44950104,-0.45105743,0.651276,-1.0488001,0.23027946,-0.6628818,-0.43473244,-0.4568901,0.6100727,0.9597748,0.06098194,0.19733973,0.19018541,-1.0378664,0.43067986,-0.68922436,0.0,1.0,0.0,0.0,0.0,0.0,0.0,-0.20049894,0.051057428,-0.10127598,7.466793,-3.0460358,2.2794485,-1.0209799,0.22959709,-1.5918314,1.0754168
18.123138,57.695915,19.404358,5.5065618,0.19044423,-0.08897209,0.35555997,-0.4380667,-0.6935624,-0.55882955,0.75124866,-0.6080541,0.35565186,0.5931743,0.23915792,-1.120004,-2.2312832,-1.0140225,1.8490752,1.9343927,-0.7846632,0.2749041,-1.0630876,-2.1856349,-1.075546,1.9007518,1.9023732,-0.8401783,-0.79325444,-1.2487496,-1.0157557,1.3561423,-0.90953475,0.3495551,0.38248935,-0.4597206,-0.44880295,0.64449465,-1.0125628,0.22366309,-0.6818159,-0.44485092,-0.45270538,0.6030952,0.96050406,0.06644832,0.1987946,0.18302228,-0.9973254,0.42087123,-0.7036012,0.0,1.0,0.0,0.0,0.0,0.0,0.0,-0.19027936,0.048802942,-0.09449464,5.1203012,-1.9573927,3.1163692,-1.6008377,1.3273954,-2.0295382,0.8863449
15.292538,62.460617,20.087826,7.4765773,0.42676908,0.009517312,0.30359328,-0.41945753,-0.69052905,-0.53533167,0.74185544,-0.59140897,0.2964602,0.59949964,0.23295835,-1.1321405,-2.239168,-1.0013605,1.8416109,1.9320192,-0.7802284,0.2672694,-1.0756074,-2.1955452,-1.0621238,1.8918402,1.905701,-0.8362874,-0.75409377,-1.2536777,-0.9812841,1.3375452,-0.88668567,0.32669201,0.39106905,-0.46956635,-0.4466133,0.63757646,-0.97448486,0.21734107,-0.6934737,-0.4545784,-0.4485855,0.59604424,0.9611153,0.07194577,0.20000435,0.17629372,-0.9591593,0.41561848,-0.70864654,0.0,1.0,0.0,0.0,0.0,0.0,0.0,-0.18043363,0.046613306,-0.08757645,3.748846,-0.6324768,3.9116025,-1.9055605,1.7919779,-2.4550378,0.7755935
10.6217375,67.141846,21.024055,10.1120205,0.9343606,0.19081753,0.21909407,-0.42764744,-0.6959843,-0.45635104,0.7263273,-0.53681463,0.18233776,0.5998578,0.22450465,-1.1452059,-2.2411804,-0.98949105,1.8381587,1.9239348,-0.7763016,0.25983453,-1.0881482,-2.2048035,-1.0489229,1.8832853,1.9087305,-0.83231914,-0.7404718,-1.2547702,-0.90593916,1.3142626,-0.84689045,0.2944687,0.3985656,-0.4790268,-0.44447327,0.63060963,-0.93576217,0.21257016,-0.6964783,-0.463974,-0.44443512,0.5890455,0.9616592,0.07732374,0.20089887,0.16991809,-0.92778623,0.41964576,-0.69985896,0.0,1.0,0.0,0.0,0.0,0.0,0.0,-0.17097318,0.04447326,-0.08060962,1.2104869,-0.25856495,8.026564,-2.3595572,3.4324765,-3.3952057,0.6997585
6.3975163,68.63128,20.845585,11.788553,1.3865231,0.28856978,0.1368655,-0.4345942,-0.7029335,-0.39744058,0.707761,-0.45669374,0.07215433,0.59848666,0.21637511,-1.1584415,-2.2445476,-0.9781468,1.837616,1.9159459,-0.7724705,0.25239253,-1.100712,-2.2131228,-1.035993,1.8753196,1.9113759,-0.8282853,-0.74585027,-1.257393,-0.805305,1.2858951,-0.7815722,0.2539297,0.40499264,-0.4881153,-0.44237137,0.6236252,-0.8993179,0.2090837,-0.69773954,-0.47312927,-0.4402008,0.58218557,0.9622042,0.082422696,0.20134275,0.16380051,-0.9052129,0.43084413,-0.6840646,0.0,1.0,0.0,0.0,0.0,0.0,0.0,-0.16188467,0.042371362,-0.07362521,-0.664866,-0.4107952,10.540056,-2.841711,5.985379,-4.227132,0.6339848
20.263287,80.22151,28.924515,10.684317,1.6832185,0.3622825,0.15982008,-0.4022748,-0.6965059,-0.19386639,0.67150205,-0.30136153,-0.060103763,0.58036005,0.21216506,-1.1703625,-2.2325094,-0.96884274,1.8451835,1.9053655,-0.77024925,0.24499306,-1.1132642,-2.2196496,-1.0234655,1.8684016,1.9135484,-0.82420605,-0.7386171,-1.2551688,-0.5997314,1.2412483,-0.6641073,0.20449896,0.40897283,-0.4967327,-0.44034195,0.6168534,-0.84844345,0.2002983,-0.66900796,-0.48192596,-0.43589783,0.5757215,0.96283746,0.086722374,0.20111646,0.15803568,-0.86611927,0.43444443,-0.6366409,0.0,1.0,0.0,0.0,0.0,0.0,0.0,-0.15326726,0.040341944,-0.066853404,0.5287647,0.082826614,21.178425,-4.5841694,11.041641,-5.106342,0.40917993
21.270521,83.92637,32.50351,11.381993,2.7892401,0.59643745,0.022935066,-0.44612026,-0.7248835,0.051402606,0.6078545,0.032180708,-0.21291906,0.5459025,0.20038104,-1.1857525,-2.2145092,-0.96268004,1.8716197,1.8922565,-0.7696158,0.23746425,-1.1259233,-2.2232199,-1.0116131,1.8635316,1.9151489,-0.8201151,-0.758186,-1.2697624,-0.27411285,1.1662794,-0.43032038,0.14476675,0.40945777,-0.50483894,-0.43839264,0.6104722,-0.7973549,0.19318631,-0.6263065,-0.49040985,-0.43147278,0.5699118,0.9637611,0.08943067,0.19968382,0.1526201,-0.83782405,0.44948792,-0.56486654,0.0,1.0,0.0,0.0,0.0,0.0,0.0,-0.14516103,0.038392633,-0.06047219,-2.1189332,-1.5879154,33.179058,-7.6084614,22.651518,-6.130844,0.15490651
