Afshin1997/kuka_rl_ros2/src/catch_and_throw/input_files/idealpd/polynomial_regressor/optimizer_files/env_1_data.csv
torque0,torque1,torque2,torque3,torque4,torque5,torque6,action0,action1,action2,action3,action4,action5,action6,set_target_0,set_target_1,set_target_2,set_target_3,set_target_4,set_target_5,set_target_6,joint_pos_0,joint_pos_1,joint_pos_2,joint_pos_3,joint_pos_4,joint_pos_5,joint_pos_6,joint_vel_0,joint_vel_1,joint_vel_2,joint_vel_3,joint_vel_4,joint_vel_5,joint_vel_6,tennisball_pos_0,tennisball_pos_1,tennisball_pos_2,tennisball_lin_vel_0,tennisball_lin_vel_1,tennisball_lin_vel_2,end_effector_pos_0,end_effector_pos_1,end_effector_pos_2,end_effector_rot_0,end_effector_rot_1,end_effector_rot_2,end_effector_rot_3,end_effector_lin_vel_0,end_effector_lin_vel_1,end_effector_lin_vel_2,obs_task_0,obs_task_1,obs_task_2,obs_task_3,obs_task_4,obs_task_5,obs_task_6,to_final_target_0,to_final_target_1,to_final_target_2,joint_acc_0,joint_acc_1,joint_acc_2,joint_acc_3,joint_acc_4,joint_acc_5,joint_acc_6
0.0,0.0,0.0,0.0,0.0,0.0,0.0,0.0,0.0,0.0,0.0,0.0,0.0,0.0,1.7802359,-1.0646509,-1.8151424,-1.1170107,1.9373155,1.1170107,-0.91629785,1.7802359,-1.0646509,-1.8151424,-1.1170107,1.9373155,1.1170107,-0.91629785,0.0,0.0,0.0,0.0,0.0,0.0,0.0,2.8863297,-0.53453064,0.055863693,-3.357389,-0.22422831,5.296633,0.5304184,-0.45448303,0.693097,0.5745483,0.17512383,0.15255436,0.7848268,0.0,0.0,0.0,1.0,0.0,0.0,0.0,0.0,0.0,0.0,-3.5363297,0.13453063,0.49413633,0.0,0.0,0.0,0.0,0.0,0.0,0.0
0.0,0.0,0.0,0.0,0.0,0.0,0.0,0.0,0.0,0.0,0.0,0.0,0.0,0.0,1.7802359,-1.0646509,-1.8151424,-1.1170107,1.9373155,1.1170107,-0.91629785,1.7802359,-1.0646509,-1.8151424,-1.1170107,1.9373155,1.1170107,-0.91629785,0.0,0.0,0.0,0.0,0.0,0.0,0.0,2.8863297,-0.53453064,0.055863693,-3.357389,-0.22422831,5.296633,0.5304184,-0.45448303,0.693097,0.5745483,0.17512383,0.15255436,0.7848268,0.0,0.0,0.0,1.0,0.0,0.0,0.0,0.0,0.0,0.0,-3.5363297,0.13453063,0.49413633,0.0,0.0,0.0,0.0,0.0,0.0,0.0
0.0,0.0,0.0,0.0,0.0,0.0,0.0,0.0,0.0,0.0,0.0,0.0,0.0,0.0,1.7802359,-1.0646509,-1.8151424,-1.1170107,1.9373155,1.1170107,-0.91629785,1.7802359,-1.0646509,-1.8151424,-1.1170107,1.9373155,1.1170107,-0.91629785,0.0,0.0,0.0,0.0,0.0,0.0,0.0,2.8863297,-0.53453064,0.055863693,-3.357389,-0.22422831,5.296633,0.5304184,-0.45448303,0.693097,0.5745483,0.17512383,0.15255436,0.7848268,0.0,0.0,0.0,1.0,0.0,0.0,0.0,0.0,0.0,0.0,-3.5363297,0.13453063,0.49413633,0.0,0.0,0.0,0.0,0.0,0.0,0.0
-176.0,51.271004,-13.217596,110.0,10.122876,4.0711527,-3.9586663,-0.7888519,0.25878778,-0.5629326,0.7507839,-0.12861289,0.68584526,-0.56142294,1.7013507,-1.0387721,-1.8714356,-1.0419323,1.9244542,1.1855953,-0.9724401,1.7789999,-1.0625738,-1.821326,-1.1120669,1.9408002,1.1220118,-0.9174623,-0.16450442,0.27632117,-0.82407564,0.6594401,0.46389204,0.6652534,-0.15492192,2.8527832,-0.5367737,0.10805384,-3.3540323,-0.22400413,5.193151,0.52845764,-0.45763397,0.69364274,0.5783411,0.17368329,0.15182664,0.78249866,-0.26154214,-0.41746238,0.07251754,1.0,0.0,0.0,0.0,0.0,0.0,0.0,-3.5027833,0.13677368,0.44194618,-16.355942,27.42052,-82.26453,66.05854,46.178192,66.078674,-15.391556
-176.0,-63.87837,-59.841236,110.0,11.658049,0.19267029,-3.3243592,-0.7781597,-0.3237325,-0.5720045,0.7205085,-0.16218095,0.6698728,-0.56224984,1.7011839,-1.0949471,-1.8785264,-1.040016,1.9245821,1.188999,-0.9736873,1.7780463,-1.0609392,-1.8366363,-1.0969416,1.9463278,1.1348845,-0.9172477,-0.079929486,0.10370323,-1.7104232,1.7954227,0.55293876,1.4388961,0.063676134,2.8192673,-0.5390167,0.15920994,-3.350679,-0.22378017,5.0897727,0.5242157,-0.46593475,0.6937862,0.58664316,0.17010717,0.14978546,0.7774815,-0.4765435,-0.9664458,0.00044909908,1.0,0.0,0.0,0.0,0.0,0.0,0.0,-3.4692674,0.13901672,0.39079008,6.164177,-23.858631,-71.74657,113.1943,0.059473515,60.62391,16.879965
-155.6023,69.301834,17.296291,88.92218,8.4403305,6.677635,-1.62246,-0.73434925,0.002831089,0.189125,0.6824001,0.008501219,0.6930237,-0.44822744,1.7046113,-1.0606561,-1.8177238,-1.0287015,1.9471779,1.2041868,-0.96207047,1.7741381,-1.0604776,-1.8511436,-1.077048,1.9510676,1.1491991,-0.9168176,-0.49400517,0.024085166,-1.358318,2.0564432,0.44210786,1.4245723,0.036048017,2.7857819,-0.54125977,0.20933305,-3.347329,-0.22355644,4.9864974,0.51734924,-0.4773178,0.6949371,0.59760296,0.1650562,0.14648964,0.7708229,-0.76612437,-1.1874719,0.15697043,1.0,0.0,0.0,0.0,0.0,0.0,0.0,-3.435782,0.14125976,0.34066695,-41.240627,-8.826534,36.942245,26.864767,-12.745583,-2.7680635,-2.7711651
-100.63074,67.789856,28.818926,52.656975,5.896717,6.7825036,0.08596218,-0.73757493,-0.23143214,0.3440434,0.695975,0.09537161,0.6878354,-0.52838796,1.7003806,-1.0836208,-1.8167392,-1.0074505,1.9606048,1.2179826,-0.9696564,1.7659861,-1.0617765,-1.8589923,-1.0571696,1.9545141,1.1625696,-0.9168634,-0.9224178,-0.18308952,-0.5870488,1.9664747,0.30551493,1.3054353,-0.017857317,2.752327,-0.54348755,0.25842416,-3.3439822,-0.22333293,4.883326,0.50795746,-0.4897995,0.6974009,0.60921955,0.15890564,0.14139128,0.763943,-1.0047964,-1.2573909,0.27908108,1.0,0.0,0.0,0.0,0.0,0.0,0.0,-3.402327,0.14348754,0.29157585,-42.918755,-21.246584,79.152145,-8.545613,-15.651208,-12.656379,-5.3197637
-48.765865,94.81202,41.751133,28.767508,3.1573813,6.426859,0.7122193,-0.7637594,-0.123367704,0.35087094,0.6926159,0.2181045,0.6979639,-0.5535834,1.6896101,-1.0741132,-1.8239052,-0.98790795,1.9763246,1.2323661,-0.97222173,1.7542025,-1.0643266,-1.859328,-1.0394789,1.9571463,1.1746241,-0.9174976,-1.2643721,-0.2805519,0.15621668,1.7034231,0.24394776,1.1708368,-0.07887997,2.7189178,-0.54571533,0.30648434,-3.3406389,-0.22310965,4.7802577,0.49671173,-0.5020828,0.70107377,0.62038004,0.15189026,0.13455506,0.7575968,-1.1751523,-1.2077478,0.3961156,1.0,0.0,0.0,0.0,0.0,0.0,0.0,-3.368918,0.14571533,0.24351567,-34.332394,-10.166475,75.942444,-26.263786,-7.7556877,-13.831091,-6.194785
-15.285411,105.56962,42.100143,15.875769,1.0138636,4.8961515,0.53458685,-0.78406763,-0.022409068,0.27198693,0.7017462,0.2326235,0.7014229,-0.5640803,1.6757957,-1.0665675,-1.8321294,-0.96930426,1.9804087,1.2447664,-0.9739056,1.7400175,-1.066913,-1.8543842,-1.0243765,1.9595152,1.1854521,-0.9187049,-1.4702256,-0.2524622,0.6102524,1.445737,0.23145068,1.053176,-0.13539873,2.6855392,-0.5479431,0.3535146,-3.3372989,-0.22288658,4.6772923,0.4843216,-0.513504,0.70571864,0.6308721,0.14432028,0.12681812,0.7517242,-1.2725517,-1.1107752,0.48418504,1.0,0.0,0.0,0.0,0.0,0.0,0.0,-3.3355393,0.14794311,0.1964854,-20.697617,2.4700522,46.338547,-25.816177,-2.1380901,-11.799955,-5.85109
-0.24902725,120.27954,39.95554,12.892842,-0.6892382,3.435604,-0.13863288,-0.80936116,0.17966822,0.04912349,0.69040805,0.25002092,0.67991966,-0.5605297,1.6590815,-1.0489461,-1.8494718,-0.95533574,1.9845173,1.2534441,-0.9747579,1.7246062,-1.0679411,-1.8479431,-1.0113264,1.96201,1.1952349,-0.9204177,-1.5652012,-0.05381195,0.6569739,1.2581047,0.254325,0.95410484,-0.1842481,2.6521912,-0.5501709,0.39951602,-3.3339622,-0.22266375,4.57443,0.47138977,-0.52384186,0.71111196,0.6410617,0.13656694,0.11954827,0.7457194,-1.3130214,-0.9975238,0.5539408,1.0,0.0,0.0,0.0,0.0,0.0,0.0,-3.3021913,0.15017089,0.150484,-9.652519,19.571941,5.1041484,-18.754887,1.9620329,-9.709799,-5.1716986
4.272161,115.07358,31.217974,11.58994,-1.7505438,1.7433002,-0.74343395,-0.8150113,0.3151896,-0.20760651,0.68194544,0.24506082,0.6684525,-0.5513566,1.643105,-1.0364221,-1.8687037,-0.94313186,1.9865161,1.2620802,-0.9755534,1.7088476,-1.0663332,-1.8436382,-0.9995141,1.964789,1.2041517,-0.922553,-1.5801165,0.23150373,0.35553825,1.1555977,0.28585643,0.8715374,-0.2243147,2.6188736,-0.5523987,0.44448957,-3.3306289,-0.22244112,4.4716706,0.4583664,-0.5331421,0.7169078,0.65143764,0.12908083,0.11399456,0.7388994,-1.3081472,-0.8982591,0.58477825,1.0,0.0,0.0,0.0,0.0,0.0,0.0,-3.2688737,0.15239868,0.10551044,-1.6921759,28.30856,-30.003607,-10.260057,3.1516492,-8.012199,-4.309413
10.657553,127.79995,34.856915,13.029034,-2.0379486,1.7319934,-0.9028879,-0.8226248,0.47967803,-0.256205,0.66080713,0.29001096,0.64902323,-0.5555272,1.6265851,-1.0183654,-1.8692586,-0.9334334,1.9937901,1.269054,-0.9781057,1.6932245,-1.0615133,-1.8429611,-0.9882922,1.9679915,1.2123266,-0.9250421,-1.5572022,0.5647535,-0.0274968,1.1106187,0.33142188,0.79969937,-0.25827357,2.5855865,-0.55462646,0.48843628,-3.3272989,-0.22221872,4.3690133,0.4454956,-0.54142,0.7231765,0.66223013,0.12192098,0.110642344,0.7309889,-1.2892814,-0.7915675,0.6387656,1.0,0.0,0.0,0.0,0.0,0.0,0.0,-3.2355866,0.15462646,0.06156373,2.0573854,33.070522,-38.049534,-4.615712,4.5057354,-7.137096,-3.7590504
16.10036,124.99408,35.9626,12.405801,-1.6201316,1.779789,-0.6830958,-0.8103348,0.55406004,-0.27365404,0.6438518,0.38552755,0.6320805,-0.54459625,1.6121911,-1.0061073,-1.8703265,-0.92390704,2.006544,1.2755347,-0.9795017,1.6779791,-1.0537027,-1.8456275,-0.97728205,1.971871,1.2198492,-0.92781824,-1.5146163,0.8521471,-0.3449144,1.0969666,0.4062423,0.73595446,-0.28536946,2.5523453,-0.5568466,0.53135717,-3.3239722,-0.22199655,4.266459,0.4328003,-0.5486679,0.7300454,0.6733556,0.11498068,0.109161936,0.7221186,-1.268619,-0.6904387,0.7021092,1.0,0.0,0.0,0.0,0.0,0.0,0.0,-3.2023454,0.15684661,0.018642843,4.0090084,28.478218,-31.31723,-1.6218424,7.3238316,-6.562412,-3.0939996
18.170464,118.408554,36.624863,11.99386,-1.001328,2.0646052,-0.37304407,-0.809185,0.61375034,-0.25965676,0.622908,0.42557788,0.638819,-0.5510226,1.5970606,-0.9923277,-1.8715932,-0.91499126,2.0144289,1.2837311,-0.9829205,1.6631266,-1.0435842,-1.8504398,-0.96635485,1.976525,1.226811,-0.93083376,-1.4763052,1.06442,-0.52460545,1.0901555,0.48410785,0.6816223,-0.30821928,2.5191345,-0.55905914,0.5732533,-3.320649,-0.2217746,4.164007,0.4202423,-0.5549545,0.7375858,0.6845965,0.10807766,0.10889137,0.71259356,-1.2566177,-0.5945067,0.7718148,1.0,0.0,0.0,0.0,0.0,0.0,0.0,-3.1691346,0.15905914,-0.023253262,3.5566092,20.966888,-17.348152,-1.0103941,7.510507,-5.7864428,-2.6809692
17.955479,105.59588,34.134903,10.872747,-0.48473525,2.0686631,-0.12258825,-0.8025003,0.65619904,-0.2751164,0.6061062,0.4563926,0.6521082,-0.5659714,1.5828766,-0.97796434,-1.8779514,-0.9057442,2.022164,1.2920219,-0.9874309,1.6485907,-1.0319246,-1.85624,-0.95552015,1.9819056,1.2333056,-0.9340581,-1.4470924,1.1988832,-0.5960796,1.0800787,0.55510753,0.63745314,-0.32849327,2.4859543,-0.56127167,0.61412567,-3.317329,-0.22155286,4.061658,0.40774536,-0.56036377,0.7457402,0.6957473,0.10108759,0.109234445,0.70269823,-1.2510723,-0.50866926,0.8309879,1.0,0.0,0.0,0.0,0.0,0.0,0.0,-3.1359544,0.16127166,-0.06412566,2.6412725,13.220406,-6.443751,-1.3539553,6.7974925,-4.799807,-2.4208665
16.29066,93.0996,31.062616,9.973253,-0.06260711,2.0096307,0.06934511,-0.80201054,0.6816363,-0.26009226,0.5876826,0.4848486,0.6642194,-0.57190204,1.5683897,-0.963761,-1.8822492,-0.8967519,2.0303905,1.2997276,-0.9912483,1.6342455,-1.0194067,-1.8621185,-0.94485044,1.9879194,1.2394282,-0.93746465,-1.4312879,1.2688335,-0.58262956,1.0615175,0.6158787,0.60266185,-0.34595522,2.4528046,-0.5634842,0.6539753,-3.3140123,-0.22133136,3.959411,0.3952713,-0.5649872,0.7543806,0.7066527,0.09394666,0.10972798,0.6926585,-1.2516072,-0.43280193,0.8763911,1.0,0.0,0.0,0.0,0.0,0.0,0.0,-3.1028047,0.16348419,-0.103975296,1.304388,6.8060637,2.0905614,-2.189517,5.7805657,-3.8299918,-2.1348894
15.200217,82.67075,27.88018,8.885767,0.10427904,1.8372877,0.17349598,-0.7974305,0.6990294,-0.24648874,0.5713049,0.4899489,0.6714146,-0.56772465,1.5545025,-0.9495037,-1.8867674,-0.8877199,2.0369143,1.3065696,-0.9942371,1.6199976,-1.0065092,-1.8675411,-0.9344182,1.9944063,1.2452608,-0.94101995,-1.423545,1.2960712,-0.52624595,1.036123,0.65864885,0.5758708,-0.36000142,2.4196854,-0.5656967,0.69280326,-3.310699,-0.22111008,3.8572664,0.3827591,-0.5689316,0.7633612,0.71721613,0.08663812,0.11012492,0.68261796,-1.2528862,-0.3642603,0.906426,1.0,0.0,0.0,0.0,0.0,0.0,0.0,-3.0696855,0.16569671,-0.14280325,0.51407814,2.570486,6.368792,-2.85635,4.0115,-2.9556036,-1.7849267
13.423675,74.366974,24.80154,8.642445,0.23311472,1.6096377,0.19667356,-0.7913294,0.70566374,-0.23569083,0.56878173,0.50603026,0.6755136,-0.55719596,1.5408647,-0.9359428,-1.8911102,-0.87754005,2.0450094,1.3128122,-0.99673957,1.605807,-0.9935335,-1.8723323,-0.9242072,2.0012367,1.2508703,-0.9446878,-1.41838,1.2977154,-0.4610356,1.0151376,0.690547,0.55533636,-0.370252,2.3865967,-0.56790924,0.73061055,-3.307389,-0.220889,3.755224,0.37023163,-0.57224274,0.7725447,0.72741055,0.079181686,0.1103238,0.6726312,-1.2542882,-0.304961,0.92334354,1.0,0.0,0.0,0.0,0.0,0.0,0.0,-3.0365968,0.16790923,-0.18061054,0.284791,0.041127205,7.1858463,-2.3944378,2.9678583,-2.2655725,-1.384145
11.501991,70.06438,22.593815,8.94862,0.24369442,1.4290073,0.1582928,-0.78998446,0.71764356,-0.23415531,0.56086546,0.5145987,0.68319166,-0.55812657,1.5268085,-0.92176914,-1.8957479,-0.8681207,2.0526965,1.3191895,-1.0005004,1.5916487,-0.98058355,-1.8765857,-0.9141793,2.008313,1.2563139,-0.94844145,-1.4155807,1.2937262,-0.41142833,0.9976547,0.7129509,0.5400664,-0.37831643,2.3535538,-0.57012177,0.7673982,-3.3040824,-0.22066817,3.6532836,0.3577118,-0.5750046,0.7818373,0.7372602,0.071605444,0.1103515,0.66267824,-1.2549821,-0.251241,0.9316154,1.0,0.0,0.0,0.0,0.0,0.0,0.0,-3.0035539,0.17012176,-0.21739817,0.068068504,-0.5060673,5.565304,-2.030468,2.0518541,-1.6950727,-1.1437476
10.093364,69.89023,21.927448,9.924511,0.2610566,1.3890722,0.11312499,-0.7900361,0.7273458,-0.21411587,0.55865675,0.51938957,0.6831376,-0.561352,1.5126451,-0.90784895,-1.8979973,-0.8583137,2.060252,1.3246276,-1.0045767,1.5775038,-0.96764886,-1.8804157,-0.9042783,2.015557,1.2616278,-0.9522676,-1.4147502,1.2930754,-0.37155488,0.9866622,0.72779953,0.5279635,-0.3850699,2.3205414,-0.57232666,0.80316716,-3.300779,-0.22044754,3.5514452,0.34516907,-0.57724,0.79121125,0.7468037,0.06390933,0.11027069,0.6527175,-1.2562339,-0.19892845,0.93933386,1.0,0.0,0.0,0.0,0.0,0.0,0.0,-2.9705415,0.17232665,-0.25316715,-0.12218952,-0.17123222,4.5760155,-1.3688207,1.3115525,-1.3733149,-1.0050535
9.440601,68.69606,20.884306,9.702778,0.18642604,1.2889816,0.11061571,-0.7979613,0.73309845,-0.20569871,0.5288664,0.53692645,0.6903565,-0.5561463,1.4977077,-0.894339,-1.9009856,-0.8513916,2.0692496,1.3306634,-1.0078822,1.5633208,-0.9546865,-1.8839481,-0.8945794,2.0229537,1.2668444,-0.95614713,-1.4200363,1.2970058,-0.34539568,0.9634297,0.7429047,0.51920456,-0.39001906,2.2875595,-0.5745239,0.8379186,-3.297479,-0.22022714,3.4497087,0.33261108,-0.5789566,0.80062455,0.7560476,0.056124765,0.110144205,0.64273655,-1.2551966,-0.14667702,0.94171536,1.0,0.0,0.0,0.0,0.0,0.0,0.0,-2.9375596,0.17452392,-0.28791857,-0.7367134,0.29520988,3.1899571,-2.5959015,1.350522,-1.0087609,-0.81508756
12.753975,71.56429,22.06767,9.014477,0.07787806,1.3317595,0.16915679,-0.7903126,0.7386798,-0.15955667,0.5134964,0.548914,0.69039786,-0.5486724,1.4842895,-0.88081855,-1.8999038,-0.8432298,2.077845,1.3358842,-1.0110143,1.5491186,-0.94165456,-1.8871124,-0.8851514,2.0304992,1.2719885,-0.9600639,-1.4210898,1.3049741,-0.3049211,0.9350423,0.7579598,0.5123836,-0.39330354,2.2546082,-0.5767212,0.8716534,-3.294182,-0.22000696,3.348074,0.3201065,-0.58008575,0.81009203,0.7649521,0.048223842,0.10997555,0.6327938,-1.2487612,-0.08759536,0.9478652,1.0,0.0,0.0,0.0,0.0,0.0,0.0,-2.9046082,0.17672119,-0.32165337,-0.32145977,0.7004976,4.651201,-3.1102538,1.3312578,-0.8030057,-0.65690875
14.255951,72.03115,22.182453,8.540384,0.018960476,1.3022456,0.20828822,-0.79272157,0.7414279,-0.13042818,0.49202317,0.559421,0.69416857,-0.5407837,1.4698465,-0.86751175,-1.9001552,-0.83594906,2.0864413,1.3414054,-1.0141423,1.5349032,-0.9285368,-1.8898151,-0.87605524,2.0381935,1.2770773,-0.9640016,-1.4223236,1.3137611,-0.25662428,0.9003588,0.7729959,0.50754046,-0.3950604,2.2216873,-0.57891846,0.9043726,-3.2908885,-0.21978699,3.2465408,0.30769348,-0.5806198,0.8196194,0.77348113,0.040187597,0.10975029,0.62295,-1.2386316,-0.025974443,0.95350575,1.0,0.0,0.0,0.0,0.0,0.0,0.0,-2.8716874,0.17891845,-0.35437256,-0.34046173,0.7891655,5.436677,-3.735149,1.3348103,-0.5809665,-0.50281286
15.470039,72.24997,22.035406,8.267315,-0.05819118,1.2307293,0.21576956,-0.7896381,0.7493776,-0.11434649,0.47635022,0.5642403,0.6958601,-0.5354675,1.4559394,-0.853599,-1.9012498,-0.8284202,2.0946176,1.3466634,-1.0175483,1.5206953,-0.9153112,-1.8920562,-0.8673072,2.046025,1.2821299,-0.9679498,-1.4209045,1.3251531,-0.21133834,0.8654343,0.7859562,0.50411916,-0.39574003,2.188797,-0.5811157,0.9360772,-3.2875984,-0.21956725,3.1451092,0.29540253,-0.58052063,0.8291999,0.7816233,0.03200841,0.10948373,0.61323225,-1.224331,0.03664209,0.95819944,1.0,0.0,0.0,0.0,0.0,0.0,0.0,-2.838797,0.18111572,-0.38607717,-0.06940365,1.0568857,5.118102,-3.751886,1.143837,-0.414598,-0.38990974
19.412113,73.28047,22.731203,6.513193,-0.2249963,1.1957495,0.31460473,-0.78794706,0.7537219,-0.055768337,0.42966497,0.57649285,0.6908761,-0.52950436,1.4419006,-0.839939,-1.8976331,-0.8243407,2.1036744,1.3512175,-1.0209002,1.5065142,-0.9019731,-1.8936908,-0.8590398,2.0539901,1.2871519,-0.971898,-1.417982,1.336386,-0.14551464,0.81297785,0.79968363,0.5014676,-0.3955617,2.1559525,-0.583313,0.96676826,-3.2843115,-0.21934773,3.043779,0.2833252,-0.57975006,0.8388217,0.78931725,0.023683058,0.109155715,0.60374033,-1.2016926,0.10503806,0.96182656,1.0,0.0,0.0,0.0,0.0,0.0,0.0,-2.8059525,0.18331298,-0.41676825,0.07891655,1.053834,7.180291,-5.5021524,1.2240767,-0.287807,-0.30445457
21.236423,72.64715,22.511097,5.511284,-0.31681278,1.0943685,0.3631361,-0.7870865,0.75926995,-0.020136852,0.39426506,0.590557,0.69122255,-0.5232798,1.4278055,-0.8260461,-1.8957045,-0.8196133,2.113046,1.3562741,-1.024226,1.4923636,-0.88852537,-1.8946235,-0.85137033,2.0621078,1.292153,-0.97583765,-1.4146985,1.3474436,-0.07382633,0.7507016,0.81531984,0.49979603,-0.39452448,2.1231384,-0.58551025,0.9964468,-3.2810278,-0.21912843,2.94255,0.27149963,-0.5782852,0.84845936,0.7965203,0.015223376,0.10874499,0.594557,-1.1733392,0.17394705,0.96232295,1.0,0.0,0.0,0.0,0.0,0.0,0.0,-2.7731385,0.18551025,-0.44644678,0.12397766,1.0490656,7.742205,-6.472194,1.4283895,-0.1455307,-0.20552278
22.320404,70.50295,21.581057,4.4893217,-0.42941087,0.9136542,0.38717815,-0.78396004,0.76497483,0.002671782,0.3548613,0.5988497,0.6899502,-0.5024729,1.4139676,-0.8120279,-1.8943564,-0.81588423,2.1219928,1.361148,-1.0260849,1.4782549,-0.8749689,-1.8948925,-0.8443818,2.0703819,1.2971426,-0.9797506,-1.4102312,1.3583071,-0.009707017,0.68072796,0.8308976,0.4989549,-0.39124304,2.090355,-0.5876999,1.0251138,-3.2777474,-0.21890935,2.8414223,0.25997925,-0.5761566,0.85806257,0.80321705,0.0066712624,0.10827275,0.58572584,-1.1390342,0.24026512,0.9570098,1.0,0.0,0.0,0.0,0.0,0.0,0.0,-2.740355,0.18769988,-0.4751138,0.25866032,1.0474443,6.926334,-7.2315454,1.4595747,-0.009036064,0.039941072
27.792334,70.24026,21.886654,1.1935911,-0.7516454,0.75067115,0.5171362,-0.7778647,0.7732535,0.06262115,0.26978317,0.61949486,0.6821624,-0.50067073,1.4004685,-0.79764354,-1.8886304,-0.8174035,2.1323314,1.3653588,-1.0298177,1.4642111,-0.8612932,-1.8944252,-0.8383355,2.0788429,1.3021246,-0.9836301,-1.4029225,1.3707159,0.06702615,0.5785868,0.8506858,0.49850833,-0.38783675,2.057602,-0.5898819,1.0527704,-3.2744703,-0.21869048,2.7403958,0.24895477,-0.5733261,0.8675675,0.8093343,-0.0019117986,0.10774216,0.5773784,-1.0902253,0.31087518,0.9453962,1.0,0.0,0.0,0.0,0.0,0.0,0.0,-2.707602,0.18988189,-0.50277036,0.55274963,1.2228012,8.159452,-10.44085,1.9037247,0.11867285,0.06402135
34.70327,67.69439,21.693941,-3.9712563,-1.2298756,0.49024177,0.71582764,-0.77769756,0.77383524,0.13489835,0.14492072,0.6251959,0.68085504,-0.4740747,1.3864413,-0.7839097,-1.8809353,-0.8238434,2.1413624,1.3702102,-1.0310376,1.4502302,-0.8475174,-1.893029,-0.8337159,2.087487,1.3071085,-0.98745817,-1.3968021,1.3799746,0.16522822,0.42235616,0.8687061,0.4994582,-0.381979,2.0248795,-0.5920639,1.0794172,-3.2711966,-0.21847184,2.6394703,0.23851776,-0.5697479,0.8768612,0.8147413,-0.010423234,0.107157074,0.56974137,-1.0210214,0.38519922,0.9206657,1.0,0.0,0.0,0.0,0.0,0.0,0.0,-2.6748796,0.1920639,-0.5294172,0.4513979,0.9368658,10.259618,-15.838653,1.7610073,0.39515495,0.33252835
45.439194,63.2845,20.961868,-12.565723,-2.0810323,0.0050031543,0.9866643,-0.7727742,0.7824278,0.1856797,-0.050081912,0.64497924,0.676583,-0.46015626,1.3729528,-0.7692746,-1.874461,-0.83872414,2.151985,1.3747668,-1.0334738,1.4363219,-0.8336376,-1.8906105,-0.83132505,2.0963295,1.3121096,-0.9912185,-1.3894966,1.3908402,0.26837265,0.177447,0.8899518,0.50215137,-0.37478626,1.9921875,-0.5942459,1.1050557,-3.267926,-0.21825342,2.5386455,0.22904205,-0.5654068,0.8857354,0.8192585,-0.018641045,0.106588975,0.56312233,-0.91746974,0.46294424,0.87243605,1.0,0.0,0.0,0.0,0.0,0.0,0.0,-2.6421876,0.1942459,-0.5550557,0.607419,1.1383295,10.652006,-24.68526,2.1392226,0.77563524,0.51651
52.931038,61.65249,20.958597,-17.92165,-2.6364663,-0.34067306,1.1672419,-0.76309776,0.7931832,0.25285262,-0.21347493,0.6542782,0.66811144,-0.42639023,1.360012,-0.75431925,-1.8653252,-0.8526726,2.1617572,1.3789208,-1.0338576,1.4225184,-0.8196224,-1.887099,-0.83176947,2.1053817,1.3171393,-0.99488443,-1.3776122,1.4052641,0.3792561,-0.11891524,0.9107328,0.5052631,-0.36433774,1.9595261,-0.5964279,1.1296867,-3.2646587,-0.2180352,2.4379218,0.22078705,-0.5602417,0.8940415,0.822759,-0.02639193,0.1061035,0.55777526,-0.79010427,0.5412874,0.8122672,1.0,0.0,0.0,0.0,0.0,0.0,0.0,-2.6095262,0.19642791,-0.5796867,1.1382818,1.5282154,11.253566,-29.758526,2.1883607,0.94577074,0.9152293
53.805763,66.56307,23.123959,-15.66309,-2.4200208,-0.2288085,1.1849035,-0.7377181,0.79735565,0.3714365,-0.27460423,0.64232886,0.6586236,-0.33003455,1.3487465,-0.7398868,-1.8499553,-0.85922986,2.1696146,1.3830016,-1.027888,1.4089361,-0.8054708,-1.8822029,-0.83487463,2.1145751,1.3221899,-0.9983787,-1.3514081,1.4189552,0.5258863,-0.37437418,0.92283547,0.5071202,-0.34470865,1.9269104,-0.5986099,1.1533111,-3.2613947,-0.21781722,2.3372986,0.21376038,-0.55430603,0.9018693,0.8252244,-0.033772383,0.1056405,0.55380875,-0.66641235,0.62047714,0.7681985,1.0,0.0,0.0,0.0,0.0,0.0,0.0,-2.5769105,0.19860992,-0.6033111,2.6691675,1.484704,14.570647,-25.559383,1.4874458,0.81238747,1.898241
41.49463,67.2005,22.57244,-6.431074,-1.4594946,-0.008625589,0.9428584,-0.73689157,0.7947928,0.43958196,-0.27533507,0.633347,0.6465675,-0.18914808,1.335247,-0.72599155,-1.8382447,-0.86240816,2.1779099,1.3868467,-1.0172935,1.3955961,-0.7912277,-1.875819,-0.8397908,2.123822,1.3272425,-1.0015802,-1.3279933,1.4265077,0.674888,-0.53069526,0.9268593,0.5062376,-0.312097,1.8943253,-0.60079193,1.1759301,-3.258134,-0.21759945,2.236776,0.2077179,-0.54763794,0.9094219,0.82681334,-0.04100437,0.10510963,0.55104476,-0.57729065,0.6861941,0.7455701,1.0,0.0,0.0,0.0,0.0,0.0,0.0,-2.5443254,0.20079193,-0.62593013,2.4263144,0.8909941,14.612603,-15.610897,0.81995726,0.42420626,3.2337785
23.97916,65.44704,20.52729,5.4182024,-0.27291977,0.24032913,0.5901483,-0.73872656,0.7933737,0.47395954,-0.22927281,0.61509687,0.6450234,0.03954193,1.3217235,-0.71189034,-1.828423,-0.8627181,2.1853316,1.3917449,-0.99762607,1.3824221,-0.7769512,-1.8681514,-0.8453584,2.1330268,1.332276,-1.004302,-1.3137951,1.4285604,0.7961259,-0.56554884,0.9203799,0.5033814,-0.2591913,1.8617706,-0.6029663,1.1975447,-3.2548764,-0.2173819,2.136354,0.20220947,-0.54047394,0.916915,0.8277872,-0.04831691,0.10447015,0.549108,-0.5341362,0.73350936,0.7448266,1.0,0.0,0.0,0.0,0.0,0.0,0.0,-2.5117707,0.2029663,-0.6475447,1.4717579,0.3567934,11.759388,-3.5098076,-0.15412569,0.07408857,5.258459
-10.464394,64.532005,17.318382,30.054115,2.1737854,0.9854545,-0.20699804,-0.7551253,0.7842512,0.4765328,0.06730772,0.57565206,0.6629539,0.23122561,1.3069096,-0.6985261,-1.8204981,-0.8386276,2.190592,1.3985714,-0.9811795,1.3692423,-0.7627195,-1.8596504,-0.8494172,2.1420448,1.3372751,-1.0063868,-1.3196775,1.4219733,0.86685693,-0.35322142,0.8974021,0.4990338,-0.19192868,1.8292465,-0.60513306,1.2181557,-3.2516222,-0.21716456,2.0360324,0.19641876,-0.5330429,0.9247747,0.828669,-0.05619055,0.1036387,0.547183,-0.587374,0.7514416,0.7935528,1.0,0.0,0.0,0.0,0.0,0.0,0.0,-2.4792466,0.20513305,-0.6681557,-0.67174435,-0.48081875,6.705427,21.051222,-1.7257929,-0.40035248,6.6306562
-47.20188,59.384304,12.044068,55.149742,4.6256104,1.6374267,-1.1343857,-0.78317,0.77783215,0.39413667,0.429898,0.5467548,0.6804727,0.3217768,1.2909253,-0.6849363,-1.8202367,-0.8064274,2.1967204,1.4053224,-0.9742091,1.3558222,-0.7485918,-1.8511646,-0.8494878,2.1507576,1.3422285,-1.0077829,-1.3500597,1.410321,0.84116983,0.10734866,0.8644111,0.49281096,-0.122541584,1.7967529,-0.6072998,1.2377644,-3.2483714,-0.21694744,1.9358108,0.18933868,-0.5256882,0.933443,0.8301238,-0.06513361,0.10258099,0.54417753,-0.74046665,0.73667043,0.88482803,1.0,0.0,0.0,0.0,0.0,0.0,0.0,-2.446753,0.2072998,-0.68776435,-3.2377958,-0.9762049,-2.9351711,45.759045,-2.6904464,-0.97516775,6.8189697
-53.970787,51.111034,8.215137,57.25824,4.725102,1.5063494,-1.3719441,-0.79886377,0.7720365,0.33251357,0.5448075,0.5079668,0.6777982,0.29002658,1.2759359,-0.67138815,-1.8179132,-0.79500705,2.2015543,1.4100083,-0.97878027,1.3420283,-0.7345985,-1.8434436,-0.8448062,2.1590621,1.3471133,-1.0085707,-1.3895556,1.3961638,0.7475817,0.5877229,0.8207745,0.48538825,-0.06452334,1.7642899,-0.60946655,1.2563715,-3.2451236,-0.21673054,1.8356893,0.18064117,-0.51852417,0.9429419,0.8324361,-0.075191654,0.10143873,0.53954273,-0.90465534,0.71523386,0.96489316,1.0,0.0,0.0,0.0,0.0,0.0,0.0,-2.41429,0.20946655,-0.7063715,-4.098916,-1.2720346,-9.7474575,47.82073,-3.7932515,-1.2328327,5.739698
-36.653805,45.757336,7.8265004,42.344383,3.2385752,0.957772,-0.9758354,-0.8058111,0.7639064,0.32977462,0.5226705,0.5183119,0.6700697,0.2026438,1.2614472,-0.6582079,-1.8104662,-0.7925391,2.2108934,1.4141202,-0.9883063,1.3278738,-0.72076166,-1.8366611,-0.83646727,2.1670158,1.3519293,-1.008914,-1.4243697,1.3798541,0.6541934,0.9155575,0.7883113,0.47911865,-0.024549399,1.7318573,-0.6116333,1.2739781,-3.2418792,-0.21651384,1.735668,0.17070007,-0.5115051,0.9529293,0.8354019,-0.0860128,0.100355126,0.5335112,-1.0145683,0.7087046,1.0031484,1.0,0.0,0.0,0.0,0.0,0.0,0.0,-2.3818574,0.2116333,-0.7239781,-3.56853,-1.55828,-9.59133,32.657635,-2.8295994,-0.98562837,3.9509258
-13.299263,43.698177,8.970604,23.739344,1.3440584,0.3285335,-0.4198688,-0.80800474,0.7596947,0.3192532,0.48912725,0.5130062,0.66893363,0.1455242,1.2470734,-0.6447922,-1.8047358,-0.78755456,2.2183163,1.4188226,-0.9943616,1.3134581,-0.7070745,-1.8306491,-0.82625437,2.1747024,1.3567034,-1.0089674,-1.4475478,1.3650881,0.5836564,1.0560868,0.76306003,0.47635472,0.0008759494,1.6994629,-0.61380005,1.2905853,-3.238638,-0.21629737,1.6357466,0.16021729,-0.5044098,0.96297145,0.8386241,-0.09713145,0.099468246,0.5266697,-1.0521257,0.7200933,0.9975528,1.0,0.0,0.0,0.0,0.0,0.0,0.0,-2.349463,0.21380004,-0.74058527,-2.4119854,-1.4568329,-7.0420384,13.927293,-2.320087,-0.3671646,2.4518895
7.946384,43.886646,10.67563,7.470992,-0.27141201,-0.23477119,0.12668969,-0.80617607,0.75628763,0.31547645,0.4345307,0.52035165,0.6750411,0.18351015,1.2328405,-0.63144577,-1.7991015,-0.7828013,2.2267375,1.4242074,-0.9906164,1.2989126,-0.6935104,-1.8251007,-0.8158536,2.182225,1.3614737,-1.0087862,-1.4572483,1.3533648,0.54629695,1.0341817,0.7486106,0.47784173,0.023307659,1.6671066,-0.6159668,1.306194,-3.2354,-0.21608113,1.5359251,0.14984894,-0.49713135,0.9727065,0.8417033,-0.10813648,0.098867714,0.5196798,-1.0244354,0.74382055,0.95850134,1.0,0.0,0.0,0.0,0.0,0.0,0.0,-2.3171067,0.21596679,-0.75619394,-1.092124,-1.1826038,-3.456211,-2.3458004,-1.4378548,0.32654405,2.090615
17.180706,42.77681,10.7795,-0.47460365,-1.0530024,-0.6175821,0.36314112,-0.82213193,0.75375867,0.29086015,0.39864618,0.5226961,0.6758696,0.15026878,1.2166995,-0.61813456,-1.7960147,-0.775989,2.2344947,1.4290607,-0.99375933,1.2842642,-0.6800369,-1.8198326,-0.80633307,2.1896598,1.3662707,-1.0084372,-1.4679573,1.3452857,0.521522,0.9240957,0.7418295,0.48150668,0.03820848,1.6347809,-0.6181259,1.3208053,-3.2321653,-0.21586509,1.4362036,0.13999176,-0.48960876,0.98192227,0.844439,-0.11875798,0.098614044,0.5129275,-0.96426356,0.7672823,0.90237296,1.0,0.0,0.0,0.0,0.0,0.0,0.0,-2.284781,0.21812591,-0.7708053,-1.211071,-0.8195877,-2.0985246,-11.1803055,-0.74653625,0.6946683,1.3251342
28.97263,43.66268,12.203163,-8.774895,-1.792804,-0.96108013,0.71754795,-0.80788,0.7404147,0.3349378,0.28916964,0.51344204,0.67584485,0.2804631,1.2034762,-0.6059954,-1.7863388,-0.7774161,2.241004,1.4338552,-0.98039085,1.26961,-0.666674,-1.8144805,-0.7984748,2.1970298,1.3711115,-1.0078669,-1.464812,1.3331789,0.541261,0.73933905,0.7350148,0.48651528,0.062679075,1.6024857,-0.6202774,1.3344201,-3.2289338,-0.21564926,1.3365817,0.13098907,-0.4818344,0.9904899,0.846628,-0.1288279,0.09869149,0.5068376,-0.86970174,0.79232556,0.8349723,1.0,0.0,0.0,0.0,0.0,0.0,0.0,-2.2524858,0.2202774,-0.7844201,0.21488667,-1.2214899,2.4267197,-18.615067,-0.84284544,0.9571731,2.2710867
25.563854,45.813522,12.713217,-4.662083,-1.4092166,-0.8675857,0.628242,-0.80551213,0.7360525,0.3382366,0.3181462,0.48458502,0.6748312,0.3553946,1.1890588,-0.5930688,-1.7806569,-0.76666015,2.2454884,1.4385946,-0.9723274,1.2550284,-0.6534294,-1.8088481,-0.79209375,2.2042663,1.3759943,-1.0070143,-1.4560878,1.3216406,0.5716835,0.6040423,0.7197144,0.4902077,0.0925003,1.570221,-0.6224289,1.3470395,-3.2257056,-0.21543366,1.2370595,0.12283325,-0.4738083,0.99849504,0.84826833,-0.13843781,0.09905543,0.5014617,-0.7886807,0.8155945,0.7827199,1.0,0.0,0.0,0.0,0.0,0.0,0.0,-2.220221,0.22242889,-0.79703945,0.8218765,-1.1520863,3.3760667,-13.615906,-1.6311884,0.7398665,2.836962
20.346949,43.42781,11.490637,-0.596962,-1.0471966,-0.8905896,0.465356,-0.79546916,0.72290254,0.31677452,0.3120722,0.4327882,0.6705239,0.4183505,1.1754814,-0.58113915,-1.7771707,-0.76088655,2.2475452,1.4430467,-0.9651792,1.2405859,-0.6403307,-1.8030403,-0.7866578,2.2112167,1.3809038,-1.0058355,-1.4405259,1.305948,0.58439106,0.52327365,0.68627876,0.4922658,0.1257305,1.5379868,-0.6245804,1.3586643,-3.2224805,-0.21521828,1.1376367,0.115371704,-0.46559906,1.0060438,0.84947056,-0.14770429,0.09972551,0.49662673,-0.7224414,0.83176726,0.7394027,1.0,0.0,0.0,0.0,0.0,0.0,0.0,-2.1879869,0.22458038,-0.80866426,1.5413523,-1.5482187,1.46842,-8.149219,-3.367865,0.5163789,3.2077491
13.4897,40.005646,9.64809,3.8827596,-0.63007987,-0.9182174,0.2590588,-0.79673487,0.7169537,0.2797347,0.30319577,0.41220245,0.66740406,0.44331583,1.1609124,-0.5686353,-1.7750669,-0.75633824,2.2524369,1.4476442,-0.9615039,1.2262732,-0.6273855,-1.7973583,-0.78168344,2.2178009,1.3858248,-1.0043364,-1.4283509,1.2908297,0.5631939,0.48850176,0.64905864,0.49282172,0.15765296,1.5057831,-0.6267319,1.3692956,-3.2192588,-0.2150031,1.0383133,0.108444214,-0.45726776,1.0132092,0.8503896,-0.15668835,0.10075139,0.49207255,-0.67412627,0.8395782,0.7029138,1.0,0.0,0.0,0.0,0.0,0.0,0.0,-2.1557832,0.22673187,-0.8192956,1.196599,-1.4754534,-2.0160556,-3.56583,-3.675568,0.30509233,3.098497
11.774397,31.986252,6.904812,2.4766245,-0.67433155,-1.2245486,0.22686276,-0.79808336,0.6928644,0.2578737,0.22437702,0.37547684,0.66678154,0.461562,1.1464648,-0.55809903,-1.7715709,-0.75924575,2.2553484,1.452503,-0.9581801,1.2120386,-0.6146654,-1.7920387,-0.77717924,2.2239616,1.3907496,-1.0025377,-1.4218882,1.2658905,0.5218166,0.43728364,0.6053146,0.4933424,0.18692115,1.4736099,-0.62888336,1.3789345,-3.2160401,-0.21478814,0.9390892,0.102005005,-0.44896698,1.0199344,0.85111284,-0.16528802,0.10219235,0.48769203,-0.6240699,0.8331127,0.65657973,1.0,0.0,0.0,0.0,0.0,0.0,0.0,-2.12361,0.22888336,-0.8289345,0.6257057,-2.4445772,-4.072118,-5.2368283,-4.313302,0.34104586,2.845943
12.319604,28.252907,5.7253013,0.7067075,-0.80103153,-1.446203,0.24919447,-0.793204,0.6781907,0.24296002,0.16588224,0.34224713,0.66360813,0.48093784,1.1327182,-0.54684633,-1.7677426,-0.76059103,2.2581863,1.4571104,-0.95444393,1.1978575,-0.6022228,-1.7871711,-0.7733407,2.2296607,1.3956782,-1.0004663,-1.4168026,1.2372154,0.4753524,0.3656576,0.5584895,0.49365774,0.2136833,1.4414673,-0.63103485,1.387582,-3.2128248,-0.2145734,0.8399643,0.09610748,-0.44080353,1.0261537,0.8516679,-0.17338985,0.10408663,0.4834911,-0.5684517,0.81864774,0.6049482,1.0,0.0,0.0,0.0,0.0,0.0,0.0,-2.0914674,0.23103485,-0.83758193,0.49915314,-2.8118372,-4.598695,-7.278204,-4.6269655,0.3466487,2.6033907
17.315899,28.049025,6.1919165,-3.4994802,-1.1585565,-1.650033,0.41329318,-0.7822493,0.66012484,0.2679468,0.06926504,0.30257222,0.66041183,0.5073599,1.1196326,-0.5362103,-1.7603765,-0.7664142,2.259918,1.4617194,-0.94973034,1.1837603,-0.590093,-1.7825534,-0.77054644,2.2348602,1.4006087,-0.9981394,-1.4072175,1.2051377,0.45723358,0.25044534,0.5072741,0.4940171,0.23889443,1.4093628,-0.6331787,1.3952388,-3.2096126,-0.21435887,0.7409385,0.090904236,-0.4327774,1.031811,0.8519923,-0.18089785,0.10642255,0.4796448,-0.49626416,0.80188406,0.54754126,1.0,0.0,0.0,0.0,0.0,0.0,0.0,-2.059363,0.2331787,-0.84523875,0.98786354,-3.1507492,-1.7603993,-11.602717,-5.104804,0.39137602,2.4523287
16.789211,28.374119,6.2784805,-2.8364458,-1.0805179,-1.692949,0.4007034,-0.7767726,0.6483777,0.24813685,0.0394468,0.2755808,0.6543186,0.5286435,1.106083,-0.52525526,-1.7577398,-0.76660174,2.2624183,1.4660405,-0.945275,1.1697718,-0.57826555,-1.778094,-0.7688689,2.2395675,1.4055372,-0.9955721,-1.395944,1.1754802,0.44219944,0.14003965,0.45832032,0.4934347,0.26243776,1.3772964,-0.63531494,1.4019061,-3.2064037,-0.21414456,0.64201164,0.08640289,-0.42492676,1.0369223,0.8520801,-0.18780343,0.109173246,0.4762043,-0.42626217,0.7834171,0.49425563,1.0,0.0,0.0,0.0,0.0,0.0,0.0,-2.0272965,0.23531494,-0.8519061,1.1698484,-2.9036522,-1.4877081,-11.108157,-4.866147,0.26758313,2.2939384
11.220668,26.592293,5.658038,2.1784253,-0.49274063,-1.5785534,0.24573037,-0.7689806,0.6226082,0.23072672,0.06750213,0.24778217,0.65216213,0.54245496,1.0928737,-0.51600474,-1.7550213,-0.7621187,2.2643456,1.4707534,-0.9413266,1.1559092,-0.5667728,-1.7738044,-0.76789045,2.2438056,1.4104544,-0.99278736,-1.3828498,1.1407473,0.4244908,0.083500266,0.41274765,0.49191305,0.2837181,1.3452606,-0.6374512,1.407585,-3.203198,-0.21393046,0.54318374,0.08242798,-0.41726685,1.0415859,0.8520063,-0.19422844,0.112257436,0.47303155,-0.37849504,0.7627808,0.45264348,1.0,0.0,0.0,0.0,0.0,0.0,0.0,-1.9952606,0.23745117,-0.857585,1.3403893,-3.4028292,-1.8092871,-5.743839,-4.477972,0.10229945,2.0670056
8.158286,25.304876,5.1770563,4.736116,-0.19024688,-1.5490175,0.16511574,-0.7645098,0.6044121,0.21464643,0.042519424,0.22462833,0.6480977,0.56177706,1.0794582,-0.5063316,-1.7523398,-0.7636385,2.2662685,1.4752642,-0.9366096,1.1421686,-0.55563295,-1.7697265,-0.76730204,2.2476242,1.4153525,-0.98980045,-1.3708963,1.1052489,0.40210137,0.05030489,0.37188622,0.48964864,0.30353794,1.3132553,-0.6395874,1.4122764,-3.1999953,-0.21371657,0.44445473,0.07885742,-0.40981293,1.0458755,0.8518327,-0.20025823,0.11560912,0.4700128,-0.3421609,0.740563,0.41689166,1.0,0.0,0.0,0.0,0.0,0.0,0.0,-1.9632553,0.2395874,-0.8622764,1.2130976,-3.4766674,-2.2946417,-3.422545,-3.9882421,-0.009512901,1.9218445
3.24296,23.273293,4.509572,9.166849,0.30577958,-1.4334902,0.024260879,-0.75662607,0.57726204,0.19914852,0.07804038,0.18690899,0.6466883,0.5749555,1.066506,-0.49790674,-1.7498116,-0.759498,2.266315,1.4800212,-0.9323049,1.1285502,-0.5448879,-1.7659004,-0.76669645,2.251023,1.4202238,-0.98662853,-1.3586571,1.0645092,0.3758173,0.063500926,0.32938182,0.48690987,0.32153526,1.2812805,-0.64172363,1.4159812,-3.196796,-0.2135029,0.34582442,0.07549286,-0.4025879,1.0498761,0.8516304,-0.20600985,0.119166955,0.4669955,-0.32523367,0.7179507,0.39052257,1.0,0.0,0.0,0.0,0.0,0.0,0.0,-1.9312805,0.24172363,-0.86598116,1.2179613,-3.9995909,-2.699387,1.1888816,-4.1225853,-0.10736585,1.7325759
-2.5558639,19.64388,2.958546,13.383738,0.73539054,-1.388056,-0.1594381,-0.7596101,0.55666035,0.14070961,0.117579915,0.16345687,0.6469994,0.57121783,1.0525892,-0.48922187,-1.7518294,-0.7549385,2.2673688,1.4849237,-0.9295068,1.1150061,-0.5345539,-1.7625549,-0.76567316,2.2540138,1.4250685,-0.98330116,-1.3529385,1.0232146,0.32048362,0.11472385,0.28943115,0.48406357,0.33627102,1.2493362,-0.64385986,1.4187003,-3.1936,-0.21328944,0.24729273,0.0721817,-0.39562988,1.0536572,0.8515087,-0.21156336,0.12292433,0.4637494,-0.32682532,0.6920434,0.37021908,1.0,0.0,0.0,0.0,0.0,0.0,0.0,-1.8993362,0.24385986,-0.8687003,0.5275488,-4.057884,-5.5982294,4.95791,-3.8495064,-0.15935302,1.4012933
-3.9394746,10.711684,0.39698458,12.10494,0.71959996,-1.6124046,-0.18198942,-0.7487806,0.50239533,0.11536892,0.10852103,0.06604781,0.6460653,0.582756,1.040128,-0.48431435,-1.751018,-0.75482106,2.2606184,1.489675,-0.9250256,1.1015421,-0.5247835,-1.7598178,-0.7641845,2.256398,1.4298884,-0.97983646,-1.3444055,0.9618173,0.25786722,0.15965465,0.22219616,0.48173544,0.34954286,1.2174225,-0.6459961,1.420435,-3.190407,-0.21307619,0.14885953,0.06884003,-0.38900757,1.0571698,0.851528,-0.21685927,0.12692945,0.4601749,-0.32890067,0.65304095,0.3416057,1.0,0.0,0.0,0.0,0.0,0.0,0.0,-1.8674225,0.24599609,-0.87043494,0.8409262,-6.068611,-6.352872,4.3260126,-6.586033,-0.084239244,1.2503684
0.064626694,-4.921565,-3.745411,2.9928308,0.12788004,-2.2629788,0.012937751,-0.7376531,0.42228013,0.097662106,-0.0057904334,-0.04586236,0.64865744,0.58351964,1.0277768,-0.48255548,-1.7500516,-0.76476353,2.2518117,1.4947541,-0.9214845,1.0882002,-0.51589525,-1.7576644,-0.76289034,2.257859,1.4346949,-0.9762554,-1.3305651,0.8647641,0.20068124,0.11881723,0.12104538,0.48097348,0.360678,1.1855392,-0.6481323,1.421186,-3.1872172,-0.21286316,0.050524756,0.0656662,-0.38301086,1.0601764,0.8516698,-0.22157948,0.13125063,0.4564366,-0.3077609,0.5834694,0.28401452,1.0,0.0,0.0,0.0,0.0,0.0,0.0,-1.8355392,0.24813232,-0.87118596,1.4672995,-9.6311455,-5.843213,-4.2208953,-10.037312,0.16488433,1.0309935
2.7782733,-30.222498,-10.204882,-7.55657,-0.2424925,-3.100063,0.2432744,-0.71810937,0.28641304,0.10300602,-0.12723975,-0.1885231,0.6524172,0.58016753,1.0163893,-0.48725393,-1.7473638,-0.7756143,2.2390068,1.4999366,-0.91823864,1.0750719,-0.5084661,-1.755902,-0.76269484,2.2580078,1.4395014,-0.97258186,-1.3060523,0.7025239,0.16764645,-0.013957816,-0.020855257,0.4815137,0.36925074,1.1536865,-0.6502533,1.4209543,-3.1840308,-0.21265034,-0.047711708,0.062820435,-0.3780594,1.06233,0.85189706,-0.22528994,0.13585815,0.45283356,-0.27034056,0.46627647,0.190106,1.0,0.0,0.0,0.0,0.0,0.0,0.0,-1.8036865,0.2502533,-0.87095433,2.6604176,-16.149426,-3.477025,-13.3891325,-14.180877,0.3508985,0.74492097
-9.897431,-112.288536,-32.271564,-19.440636,1.0232284,-4.894262,0.26963782,-0.6746012,-0.092394084,0.07252294,-0.2317756,-0.3624947,0.6612845,0.55442834,1.0076118,-0.51770556,-1.7486497,-0.7858724,2.2217584,1.5056299,-0.91713905,1.0623728,-0.50420606,-1.754462,-0.7642684,2.2564018,1.4443175,-0.9688606,-1.2564815,0.33395696,0.13550754,-0.20567481,-0.20771252,0.4820206,0.37228173,1.1218643,-0.65237427,1.4197412,-3.1808474,-0.21243773,-0.14584996,0.060035706,-0.37529755,1.0629926,0.8523596,-0.22731832,0.14026333,0.449595,-0.2757215,0.21196568,0.023408825,1.0,0.0,0.0,0.0,0.0,0.0,0.0,-1.7718643,0.25237426,-0.86974114,5.379343,-36.826824,-3.4351707,-19.32569,-18.799534,0.23314953,0.06033182
-22.50674,-155.84467,-43.521713,-18.442638,2.6713514,-5.4676127,0.1317464,-0.620603,-0.3700246,0.08697304,-0.22119212,-0.47043833,0.6559585,0.47337723,1.0003124,-0.5412085,-1.7457647,-0.7863876,2.209358,1.5099133,-0.9215229,1.050366,-0.50455606,-1.7531612,-0.7674184,2.2528694,1.4491087,-0.9651842,-1.1804792,-0.15829922,0.12823361,-0.35162902,-0.40272558,0.4773083,0.36506066,1.0900726,-0.65449524,1.4175473,-3.1776671,-0.21222533,-0.24389008,0.056785583,-0.3755722,1.0618306,0.8532248,-0.22742778,0.14381944,0.4467661,-0.34083915,-0.1050413,-0.16328889,1.0,0.0,0.0,0.0,0.0,0.0,0.0,-1.7400726,0.25449523,-0.86754733,8.0372095,-49.32012,-0.7318616,-14.681214,-19.787247,-0.76441765,-1.0472298
-17.939075,-158.943,-42.467354,-20.39123,3.1241894,-5.410839,0.3372575,-0.4806005,-0.61492413,0.1619785,-0.28158483,-0.54139763,0.65298754,0.4327189,1.002306,-0.5660485,-1.7369634,-0.7955769,2.1987295,1.5144075,-0.9219123,1.0396544,-0.51014936,-1.7514808,-0.7718415,2.2475364,1.4538237,-0.96161366,-1.0338668,-0.693704,0.1823711,-0.4724082,-0.57820296,0.4670754,0.35347328,1.0583267,-0.6566162,1.4143739,-3.1744902,-0.21201316,-0.3418322,0.052833557,-0.3790207,1.0587991,0.85439473,-0.22576942,0.14594258,0.4446779,-0.41471207,-0.42275202,-0.34985116,1.0,0.0,0.0,0.0,0.0,0.0,0.0,-1.7083267,0.2566162,-0.86437386,14.909816,-53.736084,5.737534,-12.064904,-17.95339,-1.8334687,-1.4470935
8.120031,-103.17631,-24.21997,-24.44993,1.7376838,-4.4256163,0.8533137,-0.27553886,-0.7304599,0.30066657,-0.37399113,-0.5954014,0.6590227,0.3295479,1.0121005,-0.5831953,-1.7214142,-0.80924064,2.1879964,1.5197259,-0.92865884,1.031161,-0.520429,-1.7485511,-0.7774968,2.2406929,1.4584357,-0.95822525,-0.788889,-1.140094,0.33218566,-0.5969517,-0.7209351,0.45585588,0.33341384,1.0266113,-0.6587372,1.4102217,-3.1713164,-0.21180119,-0.43967634,0.048614502,-0.38498688,1.0541545,0.85543126,-0.22285695,0.14637795,0.4440109,-0.42342842,-0.65292585,-0.50326663,1.0,0.0,0.0,0.0,0.0,0.0,0.0,-1.6766113,0.25873718,-0.8602217,24.18872,-44.848587,15.722203,-12.561476,-14.634275,-2.133572,-2.1705449
29.22212,-23.688816,-0.7452055,-18.25535,0.36870265,-2.7239842,1.0291567,-0.13558973,-0.75191015,0.40454915,-0.35955158,-0.619521,0.6757549,0.18791103,1.017602,-0.59562004,-1.7080963,-0.81345195,2.1787407,1.5260111,-0.9394342,1.0254141,-0.533893,-1.743737,-0.78400373,2.2327392,1.4629732,-0.95512486,-0.5055353,-1.4156877,0.5338141,-0.6694494,-0.8208794,0.4507659,0.3023684,0.99492645,-0.66085815,1.4050918,-3.1681457,-0.21158943,-0.5374227,0.044784546,-0.3922882,1.0484797,0.8559198,-0.21951406,0.14529437,0.4450891,-0.373661,-0.7529361,-0.59049326,1.0,0.0,0.0,0.0,0.0,0.0,0.0,-1.6449264,0.26085815,-0.85509175,27.649248,-27.701782,20.92675,-7.5124025,-10.147643,-1.187396,-3.0910194
28.304886,19.206285,8.733634,-8.22189,-0.30398422,-1.7797568,0.6719993,-0.12835078,-0.77675694,0.31729844,-0.39035794,-0.6107618,0.6641981,0.03876971,1.0125791,-0.6115687,-1.7120072,-0.82303953,2.171663,1.5293931,-0.9512479,1.0219599,-0.5489973,-1.7376583,-0.7910514,2.2241333,1.4674803,-0.95242405,-0.2937111,-1.5422524,0.63402957,-0.71712226,-0.8744056,0.4495725,0.25956866,0.9632721,-0.6629791,1.3989851,-3.1649783,-0.21137787,-0.6350714,0.041534424,-0.40009308,1.0422316,0.85588974,-0.21613298,0.14326642,0.44745257,-0.3095383,-0.7844174,-0.63852394,1.0,0.0,0.0,0.0,0.0,0.0,0.0,-1.6132721,0.26297912,-0.84898514,20.654732,-12.746954,10.47585,-4.9355865,-5.4385066,-0.43892264,-4.1943073
32.28502,50.91712,16.391197,-4.4799185,-1.034569,-1.2663585,0.5524844,-0.024909945,-0.78972155,0.3199485,-0.43775797,-0.59036124,0.6545639,-0.03537279,1.0194689,-0.62796944,-1.7056634,-0.8348272,2.1650972,1.5329367,-0.95596135,1.020394,-0.56458795,-1.7310741,-0.79857206,2.215287,1.4719893,-0.9501753,-0.112101085,-1.5648586,0.6671826,-0.7640383,-0.88785,0.45132744,0.21374463,0.93164825,-0.66508484,1.3919028,-3.161814,-0.21116655,-0.73262244,0.039100647,-0.4078827,1.0356998,0.85540944,-0.21284992,0.14078929,0.45071936,-0.22309527,-0.7707765,-0.660611,1.0,0.0,0.0,0.0,0.0,0.0,0.0,-1.5816482,0.26508483,-0.8419028,17.760185,-2.2910118,3.4965038,-4.802978,-1.3429403,0.14228821,-4.45334
23.261536,61.85496,17.955896,4.6872754,-0.6359948,-0.8424178,0.21243098,0.005613761,-0.79545134,0.30082408,-0.398248,-0.56085294,0.6509167,-0.104231924,1.0209553,-0.6441331,-1.7009916,-0.83839685,2.1592016,1.537081,-0.96059847,1.0201994,-0.5799993,-1.7245967,-0.80622625,2.206536,1.4765288,-0.9483919,0.011020905,-1.5331104,0.6410055,-0.7657598,-0.8707192,0.45538926,0.16707663,0.90005493,-0.66719055,1.3838456,-3.1586528,-0.21095543,-0.830076,0.037330627,-0.4153824,1.0291095,0.85463953,-0.20977487,0.13815439,0.45442158,-0.15924598,-0.73684365,-0.66094464,1.0,0.0,0.0,0.0,0.0,0.0,0.0,-1.5500549,0.26719055,-0.83384556,12.179492,3.196311,-2.746737,-0.12629032,1.7676353,0.59766173,-4.486182
20.114342,52.712822,13.605946,3.3022196,-0.7568489,-1.3037225,0.07272418,0.09520473,-0.8061395,0.15303132,-0.44808885,-0.5032084,0.63662577,-0.12916641,1.02972,-0.6606133,-1.7092936,-0.8510351,2.1562152,1.5401913,-0.96130854,1.0211607,-0.59501684,-1.719199,-0.8140063,2.1981742,1.481093,-0.94705105,0.123966716,-1.4912905,0.50623435,-0.7818094,-0.8248051,0.45683843,0.12340209,0.8684921,-0.66929626,1.3748146,-3.155495,-0.21074452,-0.92743206,0.036209106,-0.42271423,1.0224153,0.85376906,-0.20667148,0.13556209,0.45824453,-0.095872544,-0.7272604,-0.67449516,1.0,0.0,0.0,0.0,0.0,0.0,0.0,-1.5184921,0.26929626,-0.8248146,11.154214,4.176235,-13.459337,-1.5323877,4.546833,0.22166371,-4.2682796
12.763575,42.852455,9.542035,6.305546,-0.3711806,-1.479711,-0.13999307,0.14948119,-0.8037796,0.037534203,-0.4034355,-0.47986168,0.6470134,-0.1322427,1.0361089,-0.6753948,-1.7154455,-0.85434985,2.150188,1.5457944,-0.9602753,1.0231463,-0.6096519,-1.7156589,-0.8216996,2.1903198,1.4856726,-0.9461031,0.22319733,-1.4543979,0.30381456,-0.7648602,-0.77283704,0.4583972,0.0855183,0.83695984,-0.671402,1.3648108,-3.15234,-0.21053381,-1.0246909,0.035568237,-0.43008423,1.0155494,0.85298467,-0.20334987,0.13313405,0.46188867,-0.05140864,-0.7347063,-0.6929924,1.0,0.0,0.0,0.0,0.0,0.0,0.0,-1.4869598,0.27140197,-0.8148108,9.819174,3.6710262,-20.145649,1.8092752,5.0914407,0.1825273,-3.7295117
-0.594635,24.257265,1.7971668,10.943162,0.08029276,-1.7785944,-0.49452794,0.16781178,-0.80133456,-0.198896,-0.33984682,-0.5227524,0.6618857,-0.088526905,1.0399275,-0.68978536,-1.7355485,-0.8556843,2.1380446,1.5518612,-0.9549558,1.0259119,-0.62401235,-1.7149589,-0.8288884,2.1827667,1.4902712,-0.9454584,0.29413083,-1.4301466,-0.007193749,-0.7028842,-0.7501313,0.46003446,0.057339903,0.80545807,-0.6735077,1.3538351,-3.1491883,-0.21032332,-1.1218524,0.03515625,-0.43774414,1.0083987,0.8525717,-0.19957039,0.13115078,0.46485746,-0.03472844,-0.7713867,-0.72518176,1.0,0.0,0.0,0.0,0.0,0.0,0.0,-1.455458,0.27350768,-0.8038351,7.0599914,2.3689985,-30.8671,6.400013,2.0439863,0.08401871,-2.8462656
-21.866444,8.559828,-5.0525146,20.311123,0.9860989,-1.6137272,-0.8314893,0.061885137,-0.7927341,-0.35578343,-0.3032459,-0.5710854,0.6633212,0.0669921,1.0321004,-0.70328575,-1.7505373,-0.859213,2.125658,1.5566033,-0.9387592,1.0286356,-0.63819253,-1.7176216,-0.83529997,2.175183,1.4948832,-0.9449396,0.26584736,-1.4143485,-0.35219064,-0.6192525,-0.76211303,0.4611916,0.04976107,0.7739868,-0.6756134,1.3418885,-3.1460397,-0.21011303,-1.2189168,0.034553528,-0.44586182,1.0008682,0.852829,-0.19511555,0.12993531,0.46661484,-0.066184014,-0.82231975,-0.7656418,1.0,0.0,0.0,0.0,0.0,0.0,0.0,-1.4239868,0.2756134,-0.79188854,-2.577716,1.4801979,-34.365128,8.747948,-1.5415311,-0.005853176,-0.83695054
-27.683184,4.0737576,-6.737351,19.047262,0.9341279,-1.427464,-0.64354086,-0.046787687,-0.79195195,-0.3800206,-0.44300914,-0.6065604,0.64165646,0.14238015,1.0239569,-0.71738774,-1.7556236,-0.8796009,2.114527,1.5590488,-0.9307016,1.0303732,-0.652285,-1.7231128,-0.8416581,2.1673095,1.4994837,-0.9444094,0.1445422,-1.4080173,-0.6148294,-0.6397612,-0.7973106,0.45879927,0.05387736,0.7425461,-0.6777191,1.3289721,-3.1428943,-0.20990296,-1.3158841,0.033599854,-0.45449066,0.9928014,0.85376525,-0.18974757,0.12961803,0.46720424,-0.10268171,-0.87156415,-0.82446796,1.0,0.0,0.0,0.0,0.0,0.0,0.0,-1.392546,0.2777191,-0.7789721,-11.659395,0.5003929,-26.32354,-1.5782952,-3.9259791,-0.47379136,0.3142245
-21.000751,23.237144,1.744245,16.998816,0.7554275,-0.6137856,-0.14066046,-0.12152707,-0.7810221,-0.22822368,-0.5331149,-0.6462564,0.6744706,0.2903367,1.0182205,-0.7303872,-1.7459352,-0.8949696,2.1026838,1.5669308,-0.9153757,1.0305601,-0.6663097,-1.7296474,-0.8488507,2.1589744,1.5040861,-0.9437084,-0.02154434,-1.4008769,-0.66720605,-0.74449396,-0.8469125,0.4602272,0.075530745,0.71113586,-0.6798096,1.3150867,-3.1397521,-0.20969309,-1.4127544,0.03236389,-0.4632721,0.98423976,0.8550208,-0.18364403,0.1299954,0.46724242,-0.12821887,-0.8770663,-0.87154794,1.0,0.0,0.0,0.0,0.0,0.0,0.0,-1.3611358,0.27980956,-0.7650867,-16.091528,0.61109066,-5.5315733,-10.070837,-5.308771,-0.021660328,2.1587744
-14.982104,46.66598,12.06527,19.100159,1.004652,0.32247,0.17939496,-0.18631394,-0.77010787,-0.07973071,-0.5376861,-0.67410207,0.6863479,0.34583712,1.0119288,-0.7433205,-1.7376205,-0.90261936,2.0915642,1.5727209,-0.90912473,1.0290381,-0.6802305,-1.7352779,-0.8571315,2.1501281,1.5087229,-0.94274235,-0.19405316,-1.3894024,-0.53009206,-0.8549261,-0.89785475,0.46514663,0.10409566,0.67975616,-0.6819,1.3002334,-3.136613,-0.20948344,-1.5095279,0.0308609,-0.4717636,0.9754495,0.8562064,-0.1773356,0.13068582,0.46731558,-0.15388754,-0.8341232,-0.88661546,1.0,0.0,0.0,0.0,0.0,0.0,0.0,-1.3297561,0.28190002,-0.75023335,-16.778574,1.1034012,13.183975,-10.738277,-5.2775264,0.54003596,3.0010626
-6.9195747,57.079205,17.044693,17.295877,0.93107074,0.5280144,0.35785583,-0.20675686,-0.76962477,-0.049787007,-0.5701159,-0.6776629,0.6793696,0.36574844,1.0083624,-0.75719297,-1.7402565,-0.9141431,2.082362,1.5766599,-0.9061675,1.0260969,-0.6940502,-1.7391307,-0.8664527,2.1408699,1.5134093,-0.9414892,-0.32611358,-1.3794515,-0.3389873,-0.9571564,-0.9354601,0.47042602,0.1331898,0.648407,-0.6839905,1.284413,-3.133477,-0.20927401,-1.6062046,0.02922821,-0.4797058,0.9666096,0.85709715,-0.1711687,0.1313929,0.4677838,-0.1679019,-0.7760937,-0.8877571,1.0,0.0,0.0,0.0,0.0,0.0,0.0,-1.298407,0.28399047,-0.73441297,-12.838984,1.0053635,18.459679,-9.992111,-3.76122,0.6840646,3.1491592
14.34367,64.62488,21.10345,7.7165365,-0.00065279007,0.077864915,0.61230487,-0.10234166,-0.7681188,-0.05464895,-0.599972,-0.67651194,0.67493564,0.3715274,1.0158628,-0.7708621,-1.7445956,-0.9264499,2.0732186,1.5809028,-0.90433645,1.022761,-0.7077879,-1.7413299,-0.8766589,2.131356,1.5181433,-0.9399681,-0.3356829,-1.371519,-0.18216017,-1.0416101,-0.9561574,0.47506493,0.15930593,0.6170883,-0.68608093,1.2676265,-3.1303442,-0.20906478,-1.7027848,0.027793884,-0.4870987,0.957762,0.8575041,-0.16525984,0.13194439,0.46900585,-0.13437408,-0.7212537,-0.8877573,1.0,0.0,0.0,0.0,0.0,0.0,0.0,-1.2670883,0.28608093,-0.7176265,-0.8485019,0.87103844,15.073956,-8.379757,-1.8566489,0.64864755,2.8713524
14.21771,51.676662,15.814776,5.8880315,-0.059972033,-0.5287868,0.43522662,-0.10542531,-0.7790169,-0.16416866,-0.5975094,-0.6664225,0.6745633,0.38039458,1.0122185,-0.7856896,-1.7577468,-0.93640983,2.0647137,1.5855997,-0.90192866,1.0196844,-0.7215246,-1.7429283,-0.88742495,2.1217468,1.5229117,-0.9382143,-0.29815215,-1.3742098,-0.15379554,-1.0878729,-0.96221966,0.47777387,0.18144062,0.5858154,-0.6881714,1.249875,-3.1272144,-0.20885576,-1.7992684,0.02670288,-0.49417877,0.94878966,0.85751736,-0.15942694,0.1323798,0.4708742,-0.09901019,-0.6976893,-0.90380746,1.0,0.0,0.0,0.0,0.0,0.0,0.0,-1.2358154,0.28817138,-0.69987494,3.7974417,-0.21915436,2.450055,-4.5375824,-0.48543215,0.3364563,2.3961277
18.604528,42.24892,11.899803,1.3239851,-0.46433794,-1.120302,0.3931369,-0.055879634,-0.78295547,-0.23898454,-0.6369754,-0.6544466,0.6669177,0.39236417,1.0140965,-0.7998201,-1.7668267,-0.95112246,2.056302,1.5896034,-0.8989779,1.0173155,-0.73532903,-1.7450187,-0.8986058,2.1121604,1.5276896,-0.9362612,-0.21660298,-1.3824656,-0.22809291,-1.1278924,-0.95714587,0.4776578,0.200186,0.55457306,-0.69026184,1.2311592,-3.1240878,-0.20864695,-1.8956555,0.026100159,-0.50122833,0.939507,0.85724527,-0.15337592,0.13280125,0.47325483,-0.048906617,-0.6992777,-0.93949944,1.0,0.0,0.0,0.0,0.0,0.0,0.0,-1.204573,0.29026183,-0.6811592,8.122701,-0.7991314,-7.6179414,-3.9201021,0.5480647,-0.08522868,1.9796073
11.230684,42.41157,11.855347,5.978574,0.03146662,-0.8329419,0.26506343,-0.08986778,-0.7832611,-0.18064924,-0.6334634,-0.66612923,0.6864404,0.41716468,1.0083287,-0.81365514,-1.7630837,-0.96195215,2.0455475,1.5963336,-0.8945447,1.0155379,-0.74921834,-1.7477386,-0.9100213,2.1026084,1.5324808,-0.93412685,-0.16474947,-1.390992,-0.28733668,-1.1457018,-0.9542454,0.47945136,0.21827094,0.5233612,-0.6923523,1.2114805,-3.1209643,-0.20843835,-1.9919463,0.025817871,-0.50823975,0.9299175,0.85676,-0.14710763,0.13322061,0.47599772,-0.01919636,-0.69587785,-0.96859396,1.0,0.0,0.0,0.0,0.0,0.0,0.0,-1.1733612,0.2923523,-0.6614805,5.21591,-0.830698,-6.150669,-1.6571045,0.31442642,0.14893413,1.9309312
3.1009984,40.176456,10.714765,9.752834,0.49963632,-0.63205034,0.14430146,-0.10946876,-0.7882803,-0.19970123,-0.6515894,-0.64612246,0.6817534,0.4117977,1.004591,-0.8280464,-1.7677088,-0.97518027,2.0379963,1.6006562,-0.8929471,1.0140043,-0.7631992,-1.7510116,-0.92158747,2.0931404,1.5372854,-0.9318361,-0.1492152,-1.4004607,-0.34136337,-1.1597522,-0.9445261,0.4806752,0.23307043,0.49217987,-0.6944351,1.1908395,-3.117844,-0.20822996,-2.0881405,0.0256958,-0.51522064,0.920047,0.8561416,-0.14065024,0.1336111,0.47894365,-0.009695036,-0.69223326,-0.99648845,1.0,0.0,0.0,0.0,0.0,0.0,0.0,-1.1421798,0.2944351,-0.6408395,1.6539097,-0.9423733,-5.639166,-1.2244463,0.9424567,0.09485483,1.6103953
5.7157793,44.08184,12.42249,9.04212,0.36786413,-0.5526573,0.18001363,-0.0651809,-0.7857472,-0.21994539,-0.66392505,-0.65258384,0.6862135,0.42632818,1.0074862,-0.8417739,-1.7730062,-0.98797995,2.027882,1.6059068,-0.8892033,1.0126768,-0.7772392,-1.7547557,-0.93329287,2.083741,1.5421053,-0.92940617,-0.12684277,-1.4052378,-0.3862486,-1.1735137,-0.9380452,0.48239583,0.24682151,0.46102905,-0.6965103,1.1692373,-3.1147268,-0.20802177,-2.1842387,0.02570343,-0.52212524,0.9099228,0.8553813,-0.13403927,0.1339711,0.48208708,0.0057072183,-0.6829661,-1.0210711,1.0,0.0,0.0,0.0,0.0,0.0,0.0,-1.111029,0.2965103,-0.61923724,2.3231328,-0.4593134,-4.748988,-1.2168646,0.6497383,0.16783476,1.5112072
3.4959335,39.483818,10.078884,9.21735,0.38352615,-0.7218937,0.08070957,-0.044191986,-0.78962576,-0.3321252,-0.65343124,-0.6416903,0.67527664,0.4101683,1.0082576,-0.85620177,-1.7879683,-0.998636,2.019572,1.609633,-0.88838935,1.0116087,-0.79132307,-1.7593238,-0.94504595,2.0744216,1.546929,-0.9268694,-0.09993357,-1.4094441,-0.48090178,-1.1752214,-0.9302131,0.48224506,0.25632918,0.42990875,-0.6985855,1.1466749,-3.1116128,-0.2078138,-2.2802405,0.025848389,-0.5290146,0.89949393,0.8545373,-0.12717876,0.13436198,0.48532298,0.018272767,-0.68408316,-1.0535039,1.0,0.0,0.0,0.0,0.0,0.0,0.0,-1.0799087,0.2985855,-0.59667486,2.77324,-0.42312145,-9.627617,0.010585785,0.7196307,-0.07867217,1.045692
-1.5278049,37.933334,9.005798,10.903645,0.5117061,-0.61113834,0.024774648,-0.06873286,-0.78952944,-0.37009403,-0.6658069,-0.6638844,0.6880801,0.45638925,1.0047355,-0.87027603,-1.7963332,-1.0116266,2.0080333,1.615737,-0.8812305,1.0106417,-0.80543363,-1.7648914,-0.95683527,2.0650947,1.5517584,-0.9242182,-0.0951834,-1.411693,-0.5825899,-1.1794336,-0.9337048,0.48290026,0.26829696,0.39881897,-0.7006607,1.1231531,-3.1085017,-0.20760603,-2.3761466,0.026062012,-0.5359192,0.8887191,0.853663,-0.11999002,0.13487464,0.48853922,0.02208269,-0.68507576,-1.0890173,1.0,0.0,0.0,0.0,0.0,0.0,0.0,-1.048819,0.3006607,-0.5731531,0.5963087,-0.24437904,-10.311294,-0.20413399,-0.4651308,-0.02477765,1.271832
-5.103534,38.302753,8.72269,12.124753,0.59572494,-0.49286485,-0.013125315,-0.08255147,-0.78295004,-0.4221624,-0.67684156,-0.6690752,0.68008196,0.4634252,1.0023866,-0.8837286,-1.8071077,-1.0245194,1.9981872,1.6197666,-0.8778757,1.0095907,-0.8195251,-1.7715023,-0.9687047,2.055699,1.5565878,-0.9214544,-0.10786246,-1.4084067,-0.6878475,-1.1886715,-0.941892,0.48253903,0.2793085,0.3677597,-0.7027359,1.098673,-3.105394,-0.20739847,-2.4719567,0.026245117,-0.5428238,0.8775835,0.852788,-0.1124257,0.13557073,0.49166423,0.019952767,-0.68388134,-1.1255401,1.0,0.0,0.0,0.0,0.0,0.0,0.0,-1.0177597,0.3027359,-0.548673,-1.1178777,0.29816628,-10.655737,-0.6864071,-0.97277164,-0.14354587,1.1604786
-18.73591,35.982674,6.861884,17.824554,1.2433506,-0.15374458,-0.17723718,-0.16340463,-0.78013986,-0.46955723,-0.6763476,-0.6704116,0.67983234,0.46400023,0.9932503,-0.89753914,-1.818458,-1.0363395,1.988658,1.6245711,-0.8750544,1.0080115,-0.83356607,-1.779124,-0.9806504,2.0462158,1.5614115,-0.91859245,-0.17379704,-1.402863,-0.78730327,-1.1955888,-0.95160216,0.48189625,0.2886598,0.33673096,-0.7048111,1.0732355,-3.102289,-0.20719112,-2.567671,0.026191711,-0.5496979,0.86609536,0.85200703,-0.10446181,0.13647684,0.4945157,-0.012116742,-0.6807853,-1.1604921,1.0,0.0,0.0,0.0,0.0,0.0,0.0,-0.98673093,0.3048111,-0.5232355,-6.3617945,0.48093796,-10.032379,-0.37989616,-1.2460947,-0.19028783,0.9831071
-26.407036,36.33375,6.7595644,20.707354,1.6391497,0.1753779,-0.21094605,-0.2275205,-0.7814994,-0.47908467,-0.7009357,-0.67601407,0.67489004,0.47832772,0.9852594,-0.911716,-1.8270324,-1.050744,1.9786143,1.6289005,-0.87075967,1.0054957,-0.8475641,-1.7875125,-0.9927583,2.0366294,1.5662237,-0.915637,-0.27637586,-1.3990853,-0.8562682,-1.2145953,-0.96220434,0.48065773,0.29806513,0.30573273,-0.7068863,1.0468416,-3.0991874,-0.20698397,-2.6632898,0.02570343,-0.55649567,0.8542775,0.85136247,-0.09612221,0.13755143,0.4970131,-0.061813597,-0.6716274,-1.1929195,1.0,0.0,0.0,0.0,0.0,0.0,0.0,-0.9557327,0.3068863,-0.4968416,-9.977111,0.2798319,-6.991601,-1.5412331,-1.3938665,-0.261122,1.0061026
-30.626343,40.853966,8.500592,23.204947,1.940726,0.5094238,-0.22602582,-0.28673446,-0.7706063,-0.48689795,-0.702735,-0.6759863,0.6711449,0.50302947,0.9768222,-0.92462474,-1.8362024,-1.0630318,1.9690309,1.6333382,-0.8653341,1.0018164,-0.8614868,-1.7963626,-1.0050443,2.0269554,1.5710245,-0.9125776,-0.39736116,-1.390351,-0.89484125,-1.2320013,-0.9705233,0.47941628,0.308819,0.274765,-0.7089615,1.0194923,-3.0960886,-0.20677702,-2.7588127,0.024620056,-0.56314087,0.84220934,0.8508539,-0.08750214,0.13872841,0.49914473,-0.12265104,-0.65289897,-1.2155759,1.0,0.0,0.0,0.0,0.0,0.0,0.0,-0.924765,0.30896148,-0.46949226,-11.806774,0.7675886,-3.9638758,-1.3756514,-1.1851549,-0.23345351,1.1636198
-41.325443,34.545776,4.9566517,26.004448,2.3590152,0.6198524,-0.33755282,-0.39117625,-0.7805655,-0.5546126,-0.7195964,-0.6954471,0.6560127,0.5044659,0.96269876,-0.93954337,-1.8518239,-1.077004,1.9574107,1.6366258,-0.86213106,0.9966868,-0.8753828,-1.8057106,-1.0175356,2.0171554,1.5757986,-0.90942,-0.55031437,-1.3899251,-0.94815075,-1.2532315,-0.98500663,0.47590584,0.31839326,0.24382782,-0.7110214,0.99118835,-3.0929933,-0.20657028,-2.8542402,0.022773743,-0.5696411,0.82984996,0.85055256,-0.0785375,0.13999814,0.50079215,-0.20495889,-0.6402179,-1.2468172,1.0,0.0,0.0,0.0,0.0,0.0,0.0,-0.8938278,0.31102142,-0.44118834,-14.950615,-0.121212006,-5.36325,-1.6540289,-1.9289851,-0.55294037,1.0411322
-34.142387,32.267433,4.2322974,21.296135,1.9239607,0.3573123,-0.2345392,-0.39906836,-0.7847576,-0.6291081,-0.74379426,-0.6943909,0.63729,0.50422406,0.95677996,-0.95385855,-1.8686213,-1.091915,1.9477164,1.6395277,-0.8589976,0.9902953,-0.88931406,-1.8158176,-1.0303053,2.0072296,1.5805193,-0.9061775,-0.6678542,-1.394738,-1.0316398,-1.283331,-0.9963903,0.4699486,0.3264811,0.21292114,-0.71308136,0.9619309,-3.0899007,-0.20636375,-2.9495723,0.020248413,-0.57605743,0.81708264,0.850433,-0.06909073,0.14134249,0.5020085,-0.27045682,-0.63339084,-1.2907134,1.0,0.0,0.0,0.0,0.0,0.0,0.0,-0.8629211,0.31308135,-0.41193086,-11.447012,-0.6429672,-8.359528,-2.5391817,-1.5981436,-0.8725941,0.8872092
-36.9083,31.429832,3.5814023,21.802574,2.0740519,0.45582604,-0.2516661,-0.48460802,-0.78866833,-0.6622322,-0.74907756,-0.6970444,0.6207703,0.51512027,0.9418345,-0.9681809,-1.8820409,-1.105213,1.9375252,1.6425964,-0.8546655,0.9827069,-0.90332067,-1.826783,-1.0433458,1.9972073,1.5851694,-0.9028559,-0.788049,-1.4032029,-1.1179982,-1.309155,-1.0057603,0.46224216,0.33439192,0.18204498,-0.7151413,0.9317208,-3.0868115,-0.20615743,-3.044809,0.01701355,-0.5824051,0.8038587,0.85048604,-0.059110623,0.14270957,0.5028054,-0.34281078,-0.62606436,-1.3370142,1.0,0.0,0.0,0.0,0.0,0.0,0.0,-0.83204496,0.3151413,-0.38172078,-11.707962,-1.0351896,-8.6063385,-2.071929,-1.4427423,-1.0964692,0.87724924
-39.47208,34.847157,4.9504,23.589903,2.3871439,0.72232115,-0.29221255,-0.55798113,-0.7895308,-0.67761767,-0.7385118,-0.67355716,0.6389153,0.48741585,0.9269088,-0.98227376,-1.8945447,-1.117197,1.9298515,1.649061,-0.8541143,0.9739045,-0.91740644,-1.8384826,-1.0565218,1.9871899,1.5897623,-0.8994827,-0.91005117,-1.4110965,-1.1872575,-1.3185629,-1.0022662,0.45720324,0.33870566,0.15119934,-0.71720123,0.90055907,-3.0837252,-0.20595132,-3.1399505,0.0129852295,-0.58865356,0.79023725,0.8507244,-0.04869059,0.14398995,0.50315416,-0.42499292,-0.6123667,-1.3748509,1.0,0.0,0.0,0.0,0.0,0.0,0.0,-0.8011993,0.31720123,-0.35055906,-11.900532,-0.99020004,-6.8826437,-0.42374134,-0.16262531,-0.8211851,0.5502939
-46.158463,36.7079,4.9447136,26.563152,2.80465,0.9969138,-0.39185867,-0.6493354,-0.7876134,-0.7217972,-0.7308364,-0.65291446,0.64713347,0.45624498,0.90897095,-0.9961678,-1.9106623,-1.1296054,1.9218985,1.6544757,-0.85385823,0.9637679,-0.93154466,-1.8508537,-1.0696825,1.977285,1.5943152,-0.8960962,-1.0471561,-1.4155222,-1.2535485,-1.3132572,-0.9884601,0.4536981,0.33903986,0.12038422,-0.71926117,0.86844665,-3.0806422,-0.20574541,-3.234997,0.008010864,-0.59471893,0.7762828,0.85120267,-0.03790718,0.14510205,0.5029536,-0.52357304,-0.59437406,-1.4065698,1.0,0.0,0.0,0.0,0.0,0.0,0.0,-0.7703842,0.31926116,-0.31844664,-13.400543,-0.6799221,-6.5324783,1.0912895,0.8036494,-0.69708824,0.1728177
-48.05352,40.075684,6.11936,28.05935,3.055296,1.2010636,-0.4600296,-0.71129125,-0.7888818,-0.7518839,-0.7050847,-0.62623316,0.653507,0.3853261,0.89263874,-1.0104328,-1.9260421,-1.140191,1.9146618,1.6596658,-0.8575636,0.95228755,-0.9457134,-1.8638351,-1.0826334,1.9675976,1.5988451,-0.8927641,-1.1806917,-1.4181131,-1.312621,-1.2870896,-0.9641071,0.45159075,0.33184397,0.08959961,-0.7213211,0.8353845,-3.077562,-0.2055397,-3.3299484,0.0019989014,-0.60058594,0.76207197,0.85196894,-0.026857426,0.14596662,0.50211674,-0.6294829,-0.5717064,-1.4300587,1.0,0.0,0.0,0.0,0.0,0.0,0.0,-0.7395996,0.3213211,-0.28538448,-13.063598,-0.51050186,-5.779004,3.1802893,1.8593669,-0.56301355,-0.5574882
-46.706486,43.845085,7.7062325,27.939367,3.1223915,1.3254075,-0.4793843,-0.7677699,-0.7861018,-0.7827065,-0.6854704,-0.58267784,0.64358467,0.31645656,0.8755106,-1.0243236,-1.9421058,-1.1511804,1.9093298,1.6632036,-0.86111844,0.939556,-0.9598812,-1.8773754,-1.0952352,1.958263,1.6033503,-0.88955593,-1.3031228,-1.417116,-1.3673127,-1.2493829,-0.9252155,0.44903123,0.31784502,0.05884552,-0.72338104,0.80137354,-3.0744853,-0.2053342,-3.424805,-0.005065918,-0.6062088,0.74767417,0.8530424,-0.015623423,0.14649743,0.50061256,-0.7348474,-0.544661,-1.4470575,1.0,0.0,0.0,0.0,0.0,0.0,0.0,-0.7088455,0.32338104,-0.25137353,-11.982536,-0.15006065,-5.3266525,4.3156624,3.3402085,-0.61172247,-1.2173235
-36.855164,48.967823,11.143544,24.800169,2.7869513,1.3385067,-0.40415657,-0.78356624,-0.79129666,-0.7885423,-0.6549314,-0.5680723,0.64118314,0.2283766,0.8611994,-1.0390109,-1.9562296,-1.1607283,1.9014558,1.6674685,-0.8667183,0.92581666,-0.97401834,-1.8915411,-1.1075397,1.9497186,1.6072297,-0.8868403,-1.4103633,-1.4054242,-1.4811792,-1.262192,-0.76571196,0.18963353,0.23069865,0.032203674,-0.7248306,0.7747127,-1.8693714,0.15712506,-0.37962633,-0.013069153,-0.6116562,0.73309916,0.854501,-0.0039560697,0.14643452,0.49836648,-0.8201953,-0.5665369,-1.4796593,1.0,0.0,0.0,0.0,0.0,0.0,0.0,-0.68220365,0.32483062,-0.22471267,-12.660217,2.2068977,-18.93344,-6.961751,27.487803,-51.988613,-15.049058
-4.9822493,176.0,110.0,110.0,7.6631117,11.295477,-2.21454,-0.7798948,0.49053848,0.65860504,0.622353,-0.49104792,0.69310313,-0.32221487,0.8478272,-0.9249645,-1.8256806,-1.0453043,1.9006138,1.67654,-0.9190618,0.9140178,-0.9907801,-1.895661,-1.1076884,1.9325504,1.6144261,-0.88434166,-1.0912608,-1.676215,-0.21604371,0.3728286,-1.8861734,0.9740029,0.2858,0.0135269165,-0.723259,0.7701828,-1.8675025,0.15696797,-0.47743273,-0.022377014,-0.6152725,0.7225862,0.8564287,-6.634589e-05,0.1483826,0.49448195,-0.9729411,-0.27904165,-0.9137402,1.0,0.0,0.0,0.0,0.0,0.0,0.0,-0.6635269,0.32325897,-0.22018278,35.47747,-0.000166893,78.42515,155.0301,-67.719505,101.68781,14.352715
-74.657196,129.45114,46.200195,90.68367,9.71119,3.5145736,-2.6540353,-0.76885796,-0.715618,-0.3777973,0.67252254,-0.38506943,0.6377322,-0.4846521,0.837132,-1.0623419,-1.9334407,-1.0404361,1.8940434,1.6781994,-0.93280685,0.9031364,-1.0071948,-1.8958575,-1.0975394,1.9143066,1.624289,-0.8820872,-1.0852978,-1.6304333,0.046737086,1.2314181,-1.8056375,0.9938949,0.20801203,-0.0051345825,-0.7216873,0.7646756,-1.8656354,0.15681103,-0.57514143,-0.033935547,-0.6178818,0.715681,0.859728,-0.0015439586,0.15111636,0.48788232,-1.2159654,-0.24412063,-0.619719,0.0,1.0,0.0,0.0,0.0,0.0,0.0,-0.6448654,0.3216873,-0.2146756,1.1566162,4.3997526,26.589914,86.62374,7.5592756,3.025508,-6.9506555
-71.99404,124.02563,33.34703,68.212204,7.071913,1.991281,-1.9833856,-0.7798833,-0.5426808,-0.4348202,0.66830295,-0.353076,0.5504127,-0.11314018,0.82514805,-1.0614629,-1.9393395,-1.0307091,1.878999,1.6793303,-0.8934012,0.89175236,-1.0216582,-1.8963515,-1.0820174,1.8987827,1.6339078,-0.8803362,-1.1542771,-1.3859619,-0.081616044,1.6617867,-1.469046,0.9525686,0.16504495,-0.023773193,-0.72011566,0.75819206,-1.8637702,0.15665425,-0.6727524,-0.047470093,-0.6201172,0.710892,0.8644375,-0.0044113896,0.1538197,0.47861028,-1.3979386,-0.2109542,-0.4375678,0.0,1.0,0.0,0.0,0.0,0.0,0.0,-0.6262268,0.32011566,-0.20819205,-6.3501596,24.141716,-12.909738,43.791603,33.34303,-3.692603,-4.0437818
-40.57587,106.2632,31.729912,40.234856,4.515423,1.6243387,-0.9357961,-0.74453986,-0.64726055,-0.0067474293,0.7550865,-0.4803449,0.6311684,-0.2344313,0.81729835,-1.0863843,-1.8970262,-1.0065088,1.8507483,1.6970246,-0.9037793,0.87958324,-1.0342535,-1.8971736,-1.064541,1.8863997,1.6426953,-0.87893224,-1.2390419,-1.2170105,-0.094702415,1.7659509,-1.1746053,0.79698586,0.17441434,-0.04309082,-0.718132,0.75258154,-2.118997,0.34440404,0.10729889,-0.06213379,-0.621933,0.707394,0.86988914,-0.0075524678,0.15606147,0.46784684,-1.4837396,-0.17031418,-0.3323553,0.0,1.0,0.0,0.0,0.0,0.0,0.0,-0.60690916,0.318132,-0.20258152,-8.504653,16.789509,-2.8806164,9.170818,26.991581,-23.616564,7.266715
-20.832354,125.071686,37.17319,27.102528,1.7438432,1.5738325,-0.45288214,-0.77460957,-0.37243542,-0.16294256,0.76723856,-0.55774224,0.6405508,-0.2874604,0.8021223,-1.071497,-1.9134679,-0.9878171,1.8306255,1.7067504,-0.90767825,0.8665484,-1.044393,-1.8987358,-1.0473596,1.8762031,1.6501378,-0.8775904,-1.3249928,-0.94762325,-0.17553437,1.7022846,-0.9705073,0.72654426,0.12002405,-0.06426239,-0.71469116,0.75290924,-2.1168785,0.3440597,0.007940455,-0.07702637,-0.6230774,0.70485646,0.87549603,-0.01006614,0.1584632,0.45639312,-1.4897346,-0.084930174,-0.23302776,0.0,1.0,0.0,0.0,0.0,0.0,0.0,-0.5857376,0.31469116,-0.20290923,-8.621573,26.529598,-7.70925,-6.349182,19.636906,-7.025945,-5.6699677
-3.6587071,155.75577,47.250443,22.657017,-0.06385946,1.6289858,-0.20480153,-0.77800936,-0.08182224,-0.3098467,0.7831559,-0.5569604,0.6243598,-0.20687541,0.7887475,-1.0525751,-1.9297204,-0.96904397,1.820507,1.7125738,-0.89827794,0.8528336,-1.0509714,-1.9016922,-1.0312673,1.8673797,1.6569489,-0.87670827,-1.3878602,-0.5629156,-0.33353764,1.5773638,-0.856565,0.66601866,0.07596643,-0.0854187,-0.71125793,0.7522442,-2.114762,0.3437157,-0.09131864,-0.091415405,-0.62319183,0.7035062,0.88100183,-0.0120495455,0.16203244,0.44433773,-1.423647,0.024236418,-0.10655694,0.0,1.0,0.0,0.0,0.0,0.0,0.0,-0.5645813,0.31125793,-0.20224416,-6.540203,37.969635,-15.112239,-12.75425,10.368109,-6.045282,-4.9013453
-3.264793,128.54324,36.015438,18.0637,-0.46377707,0.90693796,-0.121889606,-0.7900662,-0.06662673,-0.46016386,0.7865002,-0.54750943,0.59343016,-0.12671623,0.773827,-1.0576341,-1.9477085,-0.9526173,1.8126287,1.7162919,-0.8893799,0.8386569,-1.0542669,-1.9067811,-1.0163442,1.8594295,1.6632017,-0.87628716,-1.4290271,-0.252693,-0.5704115,1.4608668,-0.7571513,0.6018925,0.018589117,-0.10544586,-0.70747375,0.7515216,-1.8252659,0.43693078,0.074200556,-0.10520172,-0.6224747,0.7030053,0.88631916,-0.013135159,0.16698614,0.4317192,-1.3640525,0.09499973,-0.034242753,0.0,1.0,0.0,0.0,0.0,0.0,0.0,-0.5445541,0.30747375,-0.20152158,-4.476261,30.719685,-24.084114,-12.310648,13.200927,-8.339178,-8.456371
-3.501215,108.09523,29.218407,16.387762,-0.22453919,0.5572214,-0.09517697,-0.80045795,-0.0024162428,-0.512781,0.78338104,-0.519645,0.6074721,-0.13905784,0.7586111,-1.0545086,-1.9580592,-0.9380061,1.807465,1.723949,-0.8901929,0.8241992,-1.0550909,-1.9141133,-1.0023237,1.8521423,1.6688733,-0.8762713,-1.4519944,-0.026817726,-0.7855134,1.3816942,-0.7202426,0.5550968,-0.0066771857,-0.123672485,-0.7028961,0.7527886,-1.8101265,0.46699777,0.13833177,-0.11846924,-0.6212082,0.70299566,0.8914441,-0.013170052,0.17306584,0.41857153,-1.3130538,0.14756396,0.00920698,0.0,1.0,0.0,0.0,0.0,0.0,0.0,-0.5263275,0.3028961,-0.20278859,-2.5164843,22.2574,-20.937729,-8.14271,3.4383774,-4.8952103,-3.3025277
-7.3681192,82.188,20.364809,15.170379,0.1614702,0.19815707,-0.08286898,-0.8106787,0.023761574,-0.59963024,0.7808758,-0.52171665,0.60327643,-0.092304915,0.74313134,-1.0527147,-1.9740763,-0.9242362,1.7999706,1.729201,-0.8855018,0.8095908,-1.0543928,-1.9234424,-0.9887886,1.8450689,1.6741539,-0.87645715,-1.4642826,0.10111369,-0.9803096,1.3435663,-0.7049085,0.5182996,-0.023567041,-0.14149475,-0.69802094,0.75427556,-1.7732035,0.49379265,0.15038007,-0.13142395,-0.6195984,0.70314354,0.8963413,-0.012205963,0.18004341,0.40497842,-1.2873592,0.17697468,0.016718036,0.0,1.0,0.0,0.0,0.0,0.0,0.0,-0.5085052,0.29802093,-0.20427555,-1.3755322,12.537354,-18.987572,-4.00064,0.9906173,-3.9342642,-1.9918505
-9.191565,64.01533,15.014885,14.239782,0.5185195,0.07076889,-0.07071627,-0.81393164,0.031657305,-0.64669913,0.781764,-0.53510356,0.6249332,-0.11085823,0.72819763,-1.0512271,-1.9881123,-0.9106122,1.7915586,1.7366472,-0.88754296,0.79492116,-1.0530252,-1.934347,-0.97538763,1.8379629,1.6791579,-0.8767776,-1.4681801,0.1478634,-1.1257857,1.338655,-0.7140556,0.4935701,-0.03570079,-0.15901947,-0.6929321,0.7557029,-1.7457485,0.51403534,0.13892742,-0.14424896,-0.6177597,0.7031977,0.9010135,-0.010363932,0.18760078,0.39098996,-1.2803582,0.19448507,0.0022984003,0.0,1.0,0.0,0.0,0.0,0.0,0.0,-0.4909805,0.29293212,-0.2057029,-0.48613548,4.466179,-14.102173,-0.6100178,-1.3624549,-2.7284384,-1.4616672
-8.088792,58.70855,14.267307,13.75937,0.72999203,0.12875974,-0.01800248,-0.81390977,0.053739887,-0.6758072,0.7785455,-0.55482686,0.64152306,-0.06310381,0.7135302,-1.0476513,-2.0019279,-0.89753306,1.7824802,1.7433102,-0.883088,0.7802527,-1.051486,-1.9463176,-0.96192175,1.8306618,1.6839696,-0.87715995,-1.4667789,0.15524577,-1.2190723,1.3489529,-0.7371196,0.47620723,-0.039813366,-0.17626953,-0.68764496,0.7569949,-1.7185847,0.53345513,0.12539458,-0.15705872,-0.61576843,0.70308155,0.90543103,-0.007826479,0.19551755,0.3767043,-1.2790447,0.21111621,-0.0151618915,0.0,1.0,0.0,0.0,0.0,0.0,0.0,-0.47373044,0.28764495,-0.20699489,0.04272461,0.54137707,-8.83894,0.9319782,-2.7604818,-2.0035625,-0.6323308
-7.239149,49.57315,12.242357,12.272557,0.9980082,0.11663532,0.0337022,-0.81339896,0.016927999,-0.68474233,0.77505016,-0.528589,0.6442122,-0.07420528,0.6989128,-1.0497932,-2.0147917,-0.88441676,1.7778028,1.7483908,-0.8845805,0.76561755,-1.0502214,-1.958847,-0.9483301,1.8232108,1.688646,-0.8775738,-1.4627321,0.11648085,-1.2626119,1.362396,-0.74908453,0.4640009,-0.042476043,-0.19328308,-0.68218994,0.758066,-1.6957443,0.54960346,0.09970845,-0.16992188,-0.61363983,0.7027172,0.90958595,-0.004775821,0.20349059,0.3622458,-1.2867801,0.22416966,-0.04209999,0.0,1.0,0.0,0.0,0.0,0.0,0.0,-0.4567169,0.28218994,-0.20806599,0.32110214,-4.040159,-3.8806438,1.2903929,-1.6095281,-1.4772117,-0.43279827
-5.4717646,51.40715,13.4003525,12.034597,1.1030099,0.22296369,0.09186729,-0.8132387,0.017435944,-0.69386315,0.77305377,-0.5318005,0.6436246,-0.012455369,0.6842937,-1.0484779,-2.0282333,-0.8710247,1.7700307,1.7530084,-0.87881935,0.75102156,-1.049386,-1.971573,-0.9346316,1.8156735,1.6932192,-0.87796074,-1.4588681,0.0719952,-1.2740121,1.3721586,-0.7568639,0.4541524,-0.03790356,-0.21004486,-0.6765671,0.7589144,-1.6694568,0.5666715,0.07884709,-0.18286133,-0.611351,0.70212126,0.9134595,-0.0013561929,0.2113581,0.34773207,-1.292775,0.24124883,-0.063950896,0.0,1.0,0.0,0.0,0.0,0.0,0.0,-0.43995512,0.27656707,-0.2089144,0.2786398,-4.616095,-0.59530735,0.91502666,-1.2479544,-1.2574017,0.30611455
-9.897478,24.825672,4.2817526,8.2642355,1.0786387,-0.1349836,0.2045974,-0.8211022,-0.117547564,-0.7263153,0.76629496,-0.54664665,0.6065314,0.15775265,0.66891134,-1.0611408,-2.0442045,-0.85800207,1.7610089,1.7538723,-0.8621855,0.7364256,-1.0495539,-1.9844209,-0.9208855,1.8080312,1.697709,-0.8781677,-1.4598216,-0.046480797,-1.2873417,1.3756937,-0.76741683,0.446601,-0.015212749,-0.2266922,-0.6708603,0.75916255,-1.6638583,0.57148767,0.0062498497,-0.19599915,-0.6090164,0.7009798,0.91706353,0.002533642,0.21884908,0.33330622,-1.3191586,0.24147739,-0.12945537,0.0,1.0,0.0,0.0,0.0,0.0,0.0,-0.42330778,0.27086028,-0.20916253,-0.08876324,-11.925631,-1.0662794,0.4434824,-1.2597919,-0.9102464,2.1987348
-9.097795,21.03473,3.440142,7.12842,1.1235889,-0.14297962,0.24680752,-0.8163608,-0.16825798,-0.7068462,0.7685576,-0.53323436,0.6011803,0.17840761,0.6547895,-1.0663797,-2.0551054,-0.8440297,1.7547078,1.757827,-0.86032695,0.72183245,-1.0510302,-1.9972574,-0.90711826,1.8003386,1.7021335,-0.8781335,-1.4590313,-0.18150762,-1.2816845,1.3774512,-0.7704385,0.44041702,0.009556453,-0.24330902,-0.66511536,0.7586248,-1.6610228,0.57468724,-0.07378671,-0.20941925,-0.6066971,0.6991464,0.92041945,0.0068881526,0.22577375,0.31907186,-1.3480645,0.24185255,-0.20016192,0.0,1.0,0.0,0.0,0.0,0.0,0.0,-0.40669096,0.26511535,-0.20862478,0.09877682,-13.566711,0.8052826,0.30810833,-0.48063993,-0.77103376,2.4510367
-12.998265,16.614166,1.3079367,7.4221616,1.1442729,-0.14736706,0.21462697,-0.8297459,-0.23732935,-0.7254081,0.77281475,-0.5569712,0.6007879,0.14679189,0.63885784,-1.0747631,-2.0697982,-0.8298368,1.7446415,1.7622123,-0.8634543,0.7071869,-1.0539179,-2.0100946,-0.89332145,1.7925644,1.7065088,-0.8778941,-1.4661818,-0.32461825,-1.2836668,1.381205,-0.780071,0.4359086,0.028744644,-0.25991058,-0.6593628,0.7571975,-1.6601454,0.57569206,-0.1660774,-0.22319794,-0.6043472,0.69654506,0.9235592,0.01173328,0.23210113,0.30500796,-1.3842688,0.24319208,-0.2791899,0.0,1.0,0.0,0.0,0.0,0.0,0.0,-0.3900894,0.2593628,-0.20719749,-0.6552696,-14.375401,-0.021910667,0.5857229,-1.0948658,-0.605613,1.9269466
-9.781713,22.423615,3.1821232,7.057759,0.9432412,-0.06947023,0.27088186,-0.81565565,-0.28200343,-0.73358226,0.77596045,-0.5854973,0.6212452,0.26958624,0.6256213,-1.0821183,-2.083453,-0.8157254,1.7340146,1.7686332,-0.85093546,0.6925337,-1.0581026,-2.0229924,-0.8794808,1.7846173,1.7108552,-0.87739426,-1.4649116,-0.44999522,-1.290919,1.3857124,-0.80019087,0.4336458,0.057106696,-0.27650452,-0.6535721,0.75495094,-1.66004,0.57990056,-0.24502122,-0.2372284,-0.6019516,0.69320285,0.926458,0.017085545,0.2379324,0.29115608,-1.4093263,0.24861825,-0.3520291,0.0,1.0,0.0,0.0,0.0,0.0,0.0,-0.37349546,0.25357208,-0.20495093,0.15974045,-12.618786,-0.49340725,0.6371021,-2.199769,-0.39806962,2.826652
-9.832016,20.496803,2.4956875,6.3666925,0.899581,-0.056987524,0.29313964,-0.81805253,-0.36830655,-0.7329425,0.7755252,-0.58459383,0.6329392,0.3042108,0.61072844,-1.0949333,-2.0962865,-0.8019283,1.7261579,1.7741492,-0.8469732,0.6778967,-1.0635748,-2.0359585,-0.8656018,1.776492,1.7151961,-0.8766077,-1.4631698,-0.5798974,-1.2978947,1.389396,-0.81724006,0.43352887,0.08591899,-0.2930832,-0.6477585,0.7518575,-1.6574465,0.58192825,-0.33044216,-0.2515564,-0.5995102,0.68910396,0.9291136,0.02294233,0.24327192,0.27756107,-1.4348679,0.25509316,-0.42908913,0.0,1.0,0.0,0.0,0.0,0.0,0.0,-0.3569168,0.24775848,-0.2018575,0.21920204,-13.068926,-0.4929781,0.5906105,-1.8721342,-0.18505454,2.8969646
-5.968672,33.68851,6.8420815,7.4462776,0.9407542,0.16683227,0.3138851,-0.80977166,-0.3875423,-0.71857953,0.7765179,-0.5783719,0.65337926,0.38217205,0.59691954,-1.102329,-2.1078165,-0.78795,1.7186549,1.780534,-0.8383905,0.66331404,-1.0700979,-2.0489094,-0.85169923,1.7682588,1.719543,-0.8755026,-1.4566973,-0.6767591,-1.2928385,1.3909817,-0.8266025,0.43435997,0.118692085,-0.3095398,-0.6418915,0.7480932,-1.6426945,0.5877085,-0.39237022,-0.2660141,-0.5969238,0.6843907,0.9315116,0.029208556,0.24817623,0.2642754,-1.446955,0.27079687,-0.48561242,0.0,1.0,0.0,0.0,0.0,0.0,0.0,-0.34046018,0.24189147,-0.19809318,0.6237984,-9.803116,0.8834839,0.30152798,-1.274848,-0.12534261,3.2611861
-6.4883237,34.592365,6.9536676,7.590382,1.0307262,0.22311193,0.30847198,-0.8139093,-0.45591366,-0.71512717,0.77417064,-0.55987597,0.6509966,0.400657,0.5819231,-1.1156893,-2.1204221,-0.77428216,1.7122712,1.7846427,-0.8354369,0.6487724,-1.0775709,-2.0617764,-0.8378014,1.7600243,1.7238957,-0.8740845,-1.4533658,-0.7713504,-1.2831075,1.3899223,-0.82380104,0.43473807,0.14962187,-0.32585144,-0.63596344,0.7437021,-1.6279026,0.5943985,-0.45500126,-0.2806015,-0.5941925,0.6791267,0.93366855,0.035817523,0.25262356,0.25131923,-1.4596858,0.28942132,-0.5405335,0.0,1.0,0.0,0.0,0.0,0.0,0.0,-0.32414854,0.23596343,-0.1937021,0.30994415,-9.581447,1.3631344,0.050735474,-0.08369684,-0.18796325,3.1008987
-4.969181,42.136627,8.905391,8.2197695,0.9712648,0.33511353,0.32420355,-0.8103645,-0.47783324,-0.72132844,0.76716113,-0.58035195,0.6382035,0.46700695,0.56773597,-1.1253543,-2.1339092,-0.7610853,1.7019892,1.787716,-0.82738376,0.6342642,-1.0858183,-2.074575,-0.823957,1.7517835,1.7282385,-0.8723422,-1.4500939,-0.8430533,-1.2772466,1.3829948,-0.82594544,0.433035,0.18247762,-0.3419571,-0.6299591,0.7387772,-1.6050731,0.60263854,-0.5066149,-0.29524994,-0.5912094,0.6733863,0.9355768,0.04276167,0.25668105,0.23870939,-1.4630861,0.3122663,-0.5860895,0.0,1.0,0.0,0.0,0.0,0.0,0.0,-0.30804288,0.2299591,-0.18877721,0.2677679,-7.314408,1.0732889,-0.58362484,-0.6807327,-0.43509007,3.2726169
-2.7622437,40.838608,8.998198,7.282647,1.0461679,0.33993787,0.33419317,-0.7988154,-0.54655117,-0.68942857,0.7736277,-0.5448012,0.6432221,0.5044109,0.5543826,-1.1404734,-2.1435177,-0.74659425,1.6973034,1.7925607,-0.82190114,0.6198331,-1.0948553,-2.0871866,-0.8101498,1.7436255,1.7325699,-0.8702762,-1.4410751,-0.9243609,-1.2543142,1.3803737,-0.8140389,0.4322456,0.21479227,-0.3578415,-0.62390137,0.73331755,-1.5844306,0.60718197,-0.5597459,-0.3099289,-0.5880127,0.66719127,0.9372624,0.049957544,0.26028115,0.2264885,-1.4657886,0.33487922,-0.63161737,0.0,1.0,0.0,0.0,0.0,0.0,0.0,-0.29215848,0.22390136,-0.18331754,0.8387804,-8.264673,2.7808666,-0.14617443,0.72900057,-0.34484863,3.251642
-5.124635,40.063972,8.040121,7.5407314,0.9823681,0.35695982,0.32349062,-0.8092429,-0.5860787,-0.6994963,0.76383877,-0.5747631,0.6159185,0.52003974,0.53890884,-1.1534631,-2.1571362,-0.7337659,1.6861492,1.7941618,-0.81827223,0.6054355,-1.1046877,-2.0996373,-0.7963985,1.7354954,1.7368731,-0.86790806,-1.4395531,-1.0033214,-1.2401807,1.3739194,-0.8141182,0.42878947,0.24425653,-0.37353516,-0.6177826,0.7272728,-1.5645502,0.6126084,-0.61776346,-0.32463837,-0.5845871,0.6605133,0.9387391,0.057436787,0.2634371,0.21464074,-1.469073,0.3588589,-0.681091,0.0,1.0,0.0,0.0,0.0,0.0,0.0,-0.27646482,0.21778259,-0.1772728,0.106048584,-8.033609,1.8777132,-0.49898624,-0.46423674,-0.590533,2.955678
-1.1222553,56.09717,12.592331,9.479675,1.0393556,0.59309876,0.3076911,-0.79622465,-0.5616734,-0.6814669,0.7617863,-0.58749527,0.62077725,0.5674729,0.52581304,-1.160855,-2.167784,-0.7202199,1.6767459,1.7989509,-0.8111608,0.5910884,-1.1149911,-2.1119056,-0.7827219,1.7273196,1.7411367,-0.86524475,-1.4334801,-1.039725,-1.2199929,1.3657507,-0.8211473,0.42466518,0.27350247,-0.38890076,-0.61159515,0.7208807,-1.5281711,0.6197069,-0.6474191,-0.33927155,-0.58086395,0.65353084,0.93997973,0.06514989,0.2663084,0.20315829,-1.4551085,0.38930836,-0.70525074,0.0,1.0,0.0,0.0,0.0,0.0,0.0,-0.26109922,0.21159515,-0.17088068,0.4748106,-3.8158417,2.7181625,-0.7988453,-1.3868928,-0.6891608,2.865231
-2.4641395,56.107304,12.155877,10.000259,1.1489592,0.58471996,0.28006953,-0.798908,-0.6063452,-0.67529255,0.76289886,-0.5661303,0.5864243,0.58373165,0.5111976,-1.1756256,-2.1794348,-0.706432,1.6707065,1.799779,-0.8068716,0.5767814,-1.125657,-2.1239865,-0.76910436,1.7191285,1.7453389,-0.8623092,-1.4301603,-1.0762291,-1.201551,1.3604648,-0.8208184,0.41771916,0.3002005,-0.40392303,-0.60536194,0.7141619,-1.4942228,0.62469035,-0.6795386,-0.35378265,-0.5768204,0.6463127,0.9409965,0.073067114,0.26891965,0.19201298,-1.4439061,0.4200834,-0.7289011,0.0,1.0,0.0,0.0,0.0,0.0,0.0,-0.24607694,0.20536193,-0.16416186,0.208354,-3.8269043,2.5382519,-0.49328804,-0.66239834,-0.9781003,2.6256025
-0.97372866,61.27968,13.52925,10.723999,1.3153226,0.6466423,0.24847826,-0.79171985,-0.6143624,-0.6585745,0.76027685,-0.5277213,0.5750257,0.57918626,0.4976094,-1.1870933,-2.189844,-0.69307667,1.6663563,1.8028414,-0.8043906,0.5625268,-1.1366032,-2.13585,-0.7555354,1.7110659,1.7494634,-0.8591396,-1.4243915,-1.1013378,-1.1785028,1.3556592,-0.8039946,0.40965813,0.32248333,-0.4185791,-0.5990753,0.70716447,-1.4563804,0.62991065,-0.70526874,-0.36814117,-0.5724869,0.63892835,0.9418195,0.08111526,0.27123624,0.18118271,-1.4291335,0.45262992,-0.743077,0.0,1.0,0.0,0.0,0.0,0.0,0.0,-0.23142087,0.19907531,-0.15716445,0.4254818,-2.6954412,3.0791044,-0.48642159,0.9090662,-1.104325,2.177459
2.9327831,68.91643,15.824848,11.2490225,1.4402026,0.71014434,0.24050507,-0.7782544,-0.6147608,-0.62739694,0.7575476,-0.51390886,0.5589267,0.5994828,0.4847014,-1.1980793,-2.1985896,-0.67978066,1.659675,1.8053561,-0.79919136,0.5483809,-1.1477078,-2.1473815,-0.74201626,1.7032192,1.7534994,-0.8557606,-1.4120883,-1.1140958,-1.1416258,1.3503833,-0.7811155,0.40033823,0.34287888,-0.43279266,-0.59275055,0.699986,-1.4100604,0.63329434,-0.72167903,-0.3823166,-0.56781006,0.63149047,0.9424674,0.08918232,0.2732587,0.1706787,-1.406018,0.48486745,-0.7455986,0.0,1.0,0.0,0.0,0.0,0.0,0.0,-0.21720731,0.19275054,-0.14998597,1.0316849,-1.4706135,4.601288,-0.59936047,1.3931155,-1.2585819,1.9780517
4.9360056,67.59625,15.872352,10.368011,1.6432612,0.70061845,0.23665625,-0.7731855,-0.64250815,-0.58604705,0.7438731,-0.41622484,0.5400369,0.6047296,0.47106236,-1.2119586,-2.2059863,-0.66762894,1.6615967,1.8075031,-0.7952876,0.5343676,-1.1589955,-2.1584058,-0.7286008,1.6958631,1.7574385,-0.8521971,-1.3984592,-1.1342436,-1.0863838,1.3383069,-0.7234528,0.39042103,0.3609177,-0.4465866,-0.5864105,0.6926098,-1.3677872,0.63511664,-0.74155855,-0.39624023,-0.56282043,0.6240401,0.94300854,0.09711019,0.27483353,0.16053337,-1.384358,0.5163074,-0.746438,0.0,1.0,0.0,0.0,0.0,0.0,0.0,-0.20341337,0.18641052,-0.14260978,1.1634111,-2.19481,6.4368963,-1.2812376,4.8750997,-1.337105,1.7929614
6.442621,67.611664,16.16523,9.615602,1.943415,0.69804996,0.23667736,-0.7731975,-0.6501149,-0.546165,0.705548,-0.25233924,0.46561924,0.6007163,0.45704788,-1.224007,-2.2130222,-0.658046,1.6706293,1.8040005,-0.79212546,0.52046114,-1.1704777,-2.1687777,-0.7154734,1.6895248,1.7612318,-0.8484755,-1.3886703,-1.1534824,-1.017668,1.3039414,-0.6069664,0.3743301,0.376105,-0.4599762,-0.58005524,0.68501276,-1.3287117,0.63613576,-0.7653421,-0.40999603,-0.55750275,0.61661184,0.9435522,0.104715705,0.27569404,0.15078704,-1.3648595,0.54858196,-0.74307984,0.0,1.0,0.0,0.0,0.0,0.0,0.0,-0.19002378,0.18005523,-0.13501275,0.7758379,-2.0906687,7.7864647,-3.526187,10.751581,-1.9690573,1.558125
17.06065,76.85962,21.083616,8.493913,2.7897785,0.84680146,0.21838,-0.75054806,-0.64999276,-0.3832883,0.6586399,0.07142765,0.3736883,0.5955476,0.44540632,-1.235477,-2.2071066,-0.64960945,1.6966676,1.7986006,-0.78892076,0.5067206,-1.182103,-2.1778252,-0.7028894,1.6852161,1.7647998,-0.8446189,-1.370102,-1.1660931,-0.8633715,1.2424799,-0.37553126,0.34957913,0.38933855,-0.4729309,-0.5736923,0.677281,-1.2829783,0.63647366,-0.7734004,-0.4235077,-0.55184174,0.609445,0.9443177,0.11141611,0.27534,0.14155672,-1.3388456,0.58385247,-0.70924675,0.0,1.0,0.0,0.0,0.0,0.0,0.0,-0.17706907,0.17369232,-0.12728101,1.5810966,-1.4151096,16.556776,-6.3541174,22.072489,-2.8719842,1.4508486
20.456177,79.35553,22.570484,6.9001064,3.2180636,0.90482324,0.26194677,-0.7726834,-0.6452207,-0.2663973,0.53721887,0.33271384,0.15170161,0.58410007,0.42945227,-1.2466251,-2.204465,-0.6491675,1.7184875,1.77997,-0.7862089,0.4930344,-1.1937817,-2.1849546,-0.69141567,1.6837897,1.767973,-0.84065324,-1.3690671,-1.1686562,-0.65898025,1.1148849,-0.06848405,0.30515444,0.39967543,-0.4854355,-0.56734467,0.6694929,-1.2385662,0.6356598,-0.7799426,-0.43673706,-0.5457916,0.6026941,0.9455115,0.11677687,0.27329305,0.13297316,-1.310865,0.6210118,-0.6649009,0.0,1.0,0.0,0.0,0.0,0.0,0.0,-0.16456449,0.16734466,-0.11949289,-0.16839504,-0.38466454,21.558428,-13.00149,29.62862,-4.801893,1.2135029
30.599188,86.538734,25.282867,4.3600874,2.9116051,0.85584116,0.35535932,-0.75935143,-0.61685234,-0.133275,0.4276507,0.39744252,-0.17878313,0.57408243,0.41709924,-1.2554669,-2.1982822,-0.6486506,1.723534,1.7500947,-0.78324497,0.47937635,-1.2053118,-2.1897683,-0.68159354,1.6852181,1.7704816,-0.8366119,-1.3656931,-1.1482764,-0.41842523,0.9369196,0.209831,0.23186179,0.40600243,-0.49739075,-0.56105804,0.66174495,-1.1800252,0.62701607,-0.77073914,-0.44952393,-0.5394821,0.5964585,0.9471817,0.120691374,0.26946706,0.12517123,-1.2617756,0.6460921,-0.61137223,0.0,1.0,0.0,0.0,0.0,0.0,0.0,-0.15260923,0.16105804,-0.11174494,0.04811287,1.9284248,25.18851,-18.110764,26.743942,-7.54703,0.7242739
35.452095,80.42618,22.80692,0.6000736,1.8570497,0.47952133,0.47877914,-0.7384833,-0.6059636,-0.13682133,0.3249034,0.4332868,-0.45066598,0.5842187,0.405528,-1.2659081,-2.2034504,-0.6491032,1.7285467,1.725415,-0.7781901,0.46583846,-1.2165728,-2.192713,-0.673738,1.6889502,1.7721052,-0.83252,-1.3506318,-1.1189342,-0.25014096,0.7342092,0.42508414,0.1388018,0.41026682,-0.50873566,-0.5549011,0.65404,-1.1188478,0.61156696,-0.769533,-0.4617386,-0.5330734,0.5905749,0.94921905,0.12355319,0.26408753,0.1182184,-1.2017881,0.649022,-0.58225507,0.0,1.0,0.0,0.0,0.0,0.0,0.0,-0.14126432,0.15490112,-0.10403997,1.271224,2.854085,17.663664,-20.541239,20.728827,-9.3758135,0.42853355
26.859922,65.16625,16.122469,-0.70319533,0.9027124,0.07808483,0.5263926,-0.74726564,-0.6077703,-0.21303606,0.22856534,0.5003358,-0.5684112,0.5987485,0.3911119,-1.2773498,-2.2140167,-0.65088147,1.7389838,1.7152641,-0.7726452,0.4524074,-1.2275858,-2.1949522,-0.6679168,1.6944362,1.7727902,-0.82838786,-1.3410105,-1.0957336,-0.21358435,0.5310483,0.5883725,0.04505517,0.4141799,-0.519577,-0.5489044,0.6461384,-1.0730696,0.59534556,-0.7973715,-0.47342682,-0.5267105,0.5846683,0.95145625,0.12604938,0.25747043,0.11203287,-1.1530887,0.64046013,-0.5952686,0.0,1.0,0.0,0.0,0.0,0.0,0.0,-0.13042295,0.14890441,-0.09613842,0.8289814,2.261734,4.080489,-20.436537,15.897274,-9.390983,0.39561987
22.728218,73.95091,17.21962,3.7685227,1.0741128,0.16476941,0.3910746,-0.73893803,-0.5711059,-0.11650469,0.1919766,0.525377,-0.5869311,0.61187196,0.37851357,-1.2846963,-2.2066028,-0.64871913,1.7469739,1.714097,-0.76720065,0.4390821,-1.238267,-2.196872,-0.6637817,1.7011603,1.7726145,-0.8242119,-1.3300409,-1.0589626,-0.18365122,0.3740438,0.6993283,-0.038483698,0.41870132,-0.52991486,-0.5430832,0.6380799,-1.0217875,0.57796764,-0.8095807,-0.4846573,-0.52040863,0.5787313,0.95378333,0.12839395,0.2499642,0.10644362,-1.1065376,0.6353049,-0.5948544,0.0,1.0,0.0,0.0,0.0,0.0,0.0,-0.12008512,0.14308318,-0.08807987,0.99942684,3.6251307,3.3212156,-15.783244,10.800815,-8.347729,0.43899417
24.094578,59.7483,13.36941,-1.9051918,0.13636284,0.06313151,0.6097633,-0.7538069,-0.5756571,-0.13618907,-0.027754975,0.56722134,-0.62333876,0.6056507,0.3637014,-1.2958326,-2.210491,-0.6665572,1.7578825,1.7102807,-0.76364684,0.4257707,-1.2486639,-2.1987753,-0.66170746,1.7087497,1.7716821,-0.8200025,-1.331686,-1.0334938,-0.19200578,0.15180592,0.778281,-0.11126969,0.42174715,-0.53980255,-0.53744507,0.62971777,-0.977561,0.5589765,-0.8450654,-0.49536133,-0.5142288,0.5725356,0.9561173,0.13083525,0.24166578,0.101585045,-1.0536748,0.6197965,-0.62963635,0.0,1.0,0.0,0.0,0.0,0.0,0.0,-0.110197425,0.13744506,-0.079717755,-0.22192001,2.5194407,-0.71317255,-22.253708,7.7506423,-7.2217093,0.32175183
30.109707,81.10228,20.5814,2.4530787,1.0908581,0.511833,0.4769513,-0.7423792,-0.53410673,0.10735118,-0.07174356,0.60591805,-0.6141784,0.6239173,0.3515328,-1.3020746,-2.1880403,-0.66888183,1.7693415,1.7102643,-0.7576108,0.4124693,-1.2586985,-2.1997213,-0.6616264,1.7170147,1.7701126,-0.8157518,-1.329809,-0.99329895,-0.06194857,-0.04002663,0.8427244,-0.17194961,0.4263169,-0.5491104,-0.5320358,0.6213368,-0.9148946,0.53647166,-0.8366694,-0.50546265,-0.50813293,0.56636864,0.95850354,0.13290161,0.2325937,0.09751061,-0.9915877,0.61322504,-0.61404234,0.0,1.0,0.0,0.0,0.0,0.0,0.0,-0.10088956,0.13203582,-0.071336806,0.14076233,4.026258,13.0273285,-19.269142,6.4914703,-5.9384403,0.45185685
35.0385,73.00493,20.35208,-1.0956708,1.063762,0.55451596,0.5407109,-0.7434296,-0.57062435,0.22137469,-0.2108494,0.6674228,-0.60140604,0.6109204,0.33812633,-1.3157609,-2.177584,-0.68271136,1.783757,1.709972,-0.7546598,0.39918032,-1.2685747,-2.198848,-0.6635702,1.7259364,1.7680299,-0.811468,-1.328552,-0.985693,0.13666256,-0.2459272,0.9092326,-0.2195967,0.42920983,-0.55781555,-0.5268707,0.6130039,-0.85714704,0.5109812,-0.8342987,-0.514946,-0.5021286,0.56030154,0.961021,0.13415506,0.22258374,0.09432647,-0.9296009,0.6035558,-0.60595584,0.0,1.0,0.0,0.0,0.0,0.0,0.0,-0.092184424,0.12687072,-0.0630039,0.13036728,0.7858753,19.64638,-20.61395,6.9295764,-4.553449,0.32185316
36.63857,89.31372,23.241167,1.4982288,0.88850576,0.6875391,0.5544557,-0.7392105,-0.4589146,0.17790547,-0.35464168,0.69960964,-0.5909769,0.6091873,0.32525927,-1.3144661,-2.1810575,-0.6990344,1.7958974,1.7089323,-0.75054926,0.38592377,-1.2779436,-2.1964643,-0.6677245,1.7355069,1.765543,-0.80715925,-1.3244776,-0.92058986,0.27067137,-0.47183818,0.9747082,-0.25719637,0.431644,-0.5658417,-0.5219803,0.6048745,-0.7857553,0.4826344,-0.80692595,-0.5236969,-0.4962387,0.5544524,0.9635961,0.13464828,0.21183756,0.092071384,-0.854673,0.58967936,-0.5796081,0.0,1.0,0.0,0.0,0.0,0.0,0.0,-0.0841583,0.12198028,-0.05487448,0.46534538,6.5698504,12.893128,-22.579597,7.1386695,-3.4027128,0.27868152
22.662321,114.134605,27.242767,13.758352,2.0009878,0.99777246,0.19737197,-0.75478065,-0.38199544,0.27211082,-0.33043402,0.7082007,-0.55233055,0.584659,0.3104457,-1.3161432,-2.169253,-0.7007679,1.806327,1.71031,-0.74869335,0.37263575,-1.2863415,-2.192799,-0.6734943,1.745643,1.7627584,-0.80284363,-1.329821,-0.81234485,0.39561132,-0.6117853,1.0296365,-0.2840689,0.4317147,-0.57312775,-0.51737976,0.5973059,-0.7101689,0.45292577,-0.7411493,-0.5318222,-0.4903412,0.5492157,0.9661634,0.13433945,0.20077363,0.0903943,-0.79525167,0.5962797,-0.5063384,0.0,1.0,0.0,0.0,0.0,0.0,0.0,-0.07687223,0.117379755,-0.047305882,-0.39958954,10.94079,11.676669,-13.939118,6.4524174,-2.2742808,0.05696416
28.25852,102.45568,26.380186,9.876894,1.8310179,0.8961499,0.23171996,-0.73293316,-0.4297474,0.44894516,-0.42307281,0.7289644,-0.5389973,0.56912124,0.29934242,-1.3293163,-2.1479046,-0.71580154,1.8185395,1.7088586,-0.7459315,0.3593897,-1.2940129,-2.187459,-0.6805137,1.7562548,1.7597618,-0.7985417,-1.3222733,-0.75159824,0.57708526,-0.7317122,1.0752401,-0.30329564,0.42987877,-0.5797043,-0.5130768,0.5903371,-0.6411356,0.42296532,-0.68396825,-0.53938293,-0.48440552,0.5446147,0.96875054,0.13301727,0.18938458,0.08923154,-0.7391492,0.5957756,-0.44582134,0.0,1.0,0.0,0.0,0.0,0.0,0.0,-0.07029569,0.113076776,-0.040337086,0.9257078,6.2013626,17.18111,-11.897219,5.676794,-1.4710486,-0.11698604
32.516426,90.881454,24.319977,5.8616347,1.2728877,0.7149601,0.3071186,-0.71121407,-0.42075646,0.4912587,-0.50139093,0.7410768,-0.47254655,0.5729044,0.28826827,-1.3360885,-2.138333,-0.73065275,1.8303624,1.7125071,-0.7412513,0.346331,-1.3012891,-2.1804404,-0.6886716,1.7672344,1.7566596,-0.7942578,-1.2997952,-0.71926355,0.74014103,-0.8432973,1.1092393,-0.31094727,0.42822233,-0.58563995,-0.509079,0.5838395,-0.5782911,0.39179185,-0.64024144,-0.5463791,-0.4785614,0.5404549,0.9713415,0.13068788,0.17763866,0.08866102,-0.682762,0.5844124,-0.4069732,0.0,1.0,0.0,0.0,0.0,0.0,0.0,-0.06436002,0.10907897,-0.033839464,2.4432898,3.3554077,15.291321,-11.010038,4.543972,-0.28997064,-0.06288886
35.987324,82.97381,23.068405,4.0031104,0.93774515,0.5450919,0.2834928,-0.66757303,-0.4258557,0.553075,-0.49188662,0.7424381,-0.34411108,0.58654803,0.27957368,-1.3438747,-2.125133,-0.73786026,1.8414782,1.7222486,-0.73560303,0.33369097,-1.3084569,-2.1719382,-0.6975705,1.7784525,1.7536018,-0.7899806,-1.2513691,-0.71552515,0.8836788,-0.90485305,1.1294827,-0.3023417,0.4279873,-0.5909805,-0.50540924,0.57773304,-0.52076787,0.35971954,-0.6033088,-0.5528259,-0.4729004,0.5365841,0.97389686,0.1274009,0.16562526,0.08866849,-0.62970775,0.5645429,-0.381104,0.0,1.0,0.0,0.0,0.0,0.0,0.0,-0.059019446,0.105409235,-0.027733028,5.0518274,0.4971981,13.359928,-5.9841156,3.1435013,1.3451397,0.098365545
37.486782,75.817825,21.886852,3.0968735,0.7642279,0.45160085,0.22700801,-0.62181,-0.45108098,0.63042784,-0.46810615,0.7399434,-0.1293873,0.5929699,0.27150998,-1.353565,-2.1088953,-0.7443811,1.8524468,1.740663,-0.7306836,0.3217009,-1.3158097,-2.1620734,-0.7066734,1.7897768,1.7508036,-0.78569955,-1.1808718,-0.741445,1.0179889,-0.9114929,1.1366076,-0.27072445,0.4286225,-0.5957947,-0.5020523,0.57194275,-0.46912754,0.32839727,-0.57239383,-0.55877686,-0.467453,0.5328915,0.9763864,0.123138,0.15346938,0.08918293,-0.58237016,0.54102904,-0.3656459,0.0,1.0,0.0,0.0,0.0,0.0,0.0,-0.0542053,0.1020523,-0.021942735,7.261324,-2.4754643,12.52687,-0.4826069,1.7382145,3.6273003,0.20310283
46.377758,63.850517,19.846056,-2.9593663,-0.07431753,0.28526285,0.35712612,-0.55934936,-0.4788204,0.650606,-0.52391654,0.7476257,0.15252599,0.5750846,0.26576596,-1.3636918,-2.0970128,-0.75906503,1.8645394,1.7660562,-0.7281911,0.31059775,-1.3235822,-2.1511447,-0.7159069,1.8011314,1.748533,-0.78142697,-1.086177,-0.78888804,1.1152622,-0.92653054,1.1377358,-0.21110144,0.42746347,-0.6001129,-0.49902344,0.5663378,-0.42073327,0.29532883,-0.55822855,-0.5641861,-0.4623642,0.529159,0.9787635,0.1179702,0.14124249,0.09030748,-0.5257479,0.5019454,-0.37598923,0.0,1.0,0.0,0.0,0.0,0.0,0.0,-0.04988706,0.09902343,-0.016337812,9.66177,-4.666579,8.999705,-1.2924671,0.9442806,6.4134417,0.06675124
61.926437,62.553326,21.113102,-8.117628,-0.8886334,0.083096296,0.45406687,-0.44913387,-0.49127346,0.6754304,-0.511033,0.7424774,0.35760328,0.5650186,0.26568437,-1.3727095,-2.0836017,-0.7670102,1.8753791,1.7842933,-0.7249251,0.3007873,-1.3318391,-2.139483,-0.7251748,1.8124611,1.7469879,-0.7771765,-0.94538665,-0.83777076,1.1813418,-0.92604554,1.1337562,-0.13392958,0.42488283,-0.6039276,-0.49637604,0.5608935,-0.368589,0.25532225,-0.5408152,-0.56892395,-0.45783234,0.5252807,0.98097,0.111976825,0.12907797,0.092184044,-0.4525985,0.43907285,-0.39176482,0.0,1.0,0.0,0.0,0.0,0.0,0.0,-0.046072364,0.09637603,-0.010893464,14.268398,-4.8256874,6.0005665,0.2921462,0.33915043,8.224609,-0.05595088
85.981606,56.951283,22.374182,-16.253359,-1.9669167,-0.42278382,0.5748626,-0.2820716,-0.5445556,0.695871,-0.45639393,0.7333292,0.41951522,0.54720086,0.27258015,-1.3862946,-2.069896,-0.7708142,1.885794,1.7889395,-0.7224564,0.2929338,-1.3407254,-2.1273296,-0.7341458,1.8237139,1.7462114,-0.7729706,-0.73143524,-0.90564406,1.2254661,-0.8864492,1.1240655,-0.057129312,0.41986158,-0.607193,-0.49419403,0.5556034,-0.3136926,0.2055256,-0.5264643,-0.5727768,-0.45420837,0.5211652,0.9829574,0.10523128,0.11705981,0.09496388,-0.3611832,0.33794695,-0.41807285,0.0,1.0,0.0,0.0,0.0,0.0,0.0,-0.042806983,0.094194025,-0.005603373,21.565056,-6.763804,4.0590286,4.234314,-0.44989586,8.200862,-0.29824972
78.324425,65.40895,23.217628,-11.697061,-1.6902999,-0.43493074,0.44380534,-0.22010787,-0.532255,0.687589,-0.4174868,0.739998,0.44674197,0.536704,0.27092302,-1.3939509,-2.0585706,-0.7758945,1.8977137,1.7908856,-0.7193002,0.28717205,-1.3501058,-2.114966,-0.7425257,1.8348885,1.7461448,-0.7688183,-0.52380526,-0.948776,1.2388431,-0.8207399,1.1169847,0.011777711,0.41447854,-0.60995483,-0.49249268,0.55048865,-0.2639035,0.15885605,-0.50561774,-0.57577515,-0.45156097,0.51688874,0.98469466,0.09787248,0.10531057,0.09852473,-0.27952603,0.24321055,-0.43073228,0.0,1.0,0.0,0.0,0.0,0.0,0.0,-0.040045142,0.09249267,-0.0004886389,20.953333,-4.2814493,0.99983215,6.913066,-0.19721985,7.387875,-0.29425025
58.574825,72.079414,22.4675,-3.727354,-0.9376238,-0.31728846,0.23314142,-0.17072636,-0.53620076,0.6850823,-0.36366865,0.734883,0.42058274,0.53542674,0.2700994,-1.4037259,-2.0464578,-0.7788926,1.9083768,1.788203,-0.71527565,0.28320476,-1.3597685,-2.1026063,-0.7500739,1.8459815,1.7466621,-0.7647116,-0.35369888,-0.9721396,1.2334043,-0.73157865,1.1085292,0.06650444,0.4102845,-0.61229706,-0.49118042,0.54558927,-0.22454855,0.1213692,-0.4838895,-0.57814026,-0.44966888,0.51257896,0.9861783,0.09006057,0.09392593,0.10256389,-0.22094484,0.17186321,-0.43130976,0.0,1.0,0.0,0.0,0.0,0.0,0.0,-0.037702918,0.091180414,0.0044107437,17.211563,-2.2844315,-0.9081125,9.283352,-0.32291412,5.913341,-0.16040802
39.165356,83.7052,23.211014,5.2965784,-0.09498894,-0.09513214,0.003402464,-0.11065946,-0.51580167,0.6776761,-0.28308985,0.73102385,0.41913158,0.5366496,0.2721388,-1.4113487,-2.0348387,-0.7783829,1.9190838,1.7885753,-0.71104664,0.2806718,-1.3694388,-2.0903988,-0.75650823,1.8569915,1.7476459,-0.76063585,-0.21910506,-0.96507025,1.2150167,-0.61286813,1.1005174,0.11044112,0.4075248,-0.6143112,-0.49018097,0.541,-0.19297881,0.0921626,-0.4490732,-0.5800781,-0.44830322,0.5084254,0.98742205,0.08191062,0.08303545,0.10673987,-0.18369688,0.12581964,-0.4103242,0.0,1.0,0.0,0.0,0.0,0.0,0.0,-0.035688758,0.09018096,0.009000003,13.676768,0.7964015,-2.2793055,12.245619,-0.19733906,4.8335657,-0.018131733
8.002888,100.25025,24.201868,19.92379,1.3500265,0.33429235,-0.3794913,-0.09767863,-0.47142813,0.66342705,-0.14141208,0.71780753,0.43146157,0.5464234,0.27090394,-1.4165816,-2.0240562,-0.77064943,1.9287723,1.790792,-0.70599353,0.27907535,-1.3787525,-2.078451,-0.76131433,1.8678961,1.7490096,-0.75656974,-0.13902661,-0.9196893,1.1860663,-0.43535513,1.0895796,0.14632903,0.40713683,-0.61608887,-0.4893875,0.5369368,-0.17238648,0.07589843,-0.39043257,-0.58190155,-0.44708252,0.50472766,0.98846734,0.07348655,0.0728718,0.11055216,-0.18188676,0.12284112,-0.35699117,0.0,1.0,0.0,0.0,0.0,0.0,0.0,-0.03391111,0.089387506,0.013063192,8.244064,4.693973,-3.4692526,18.097687,-0.34253597,4.043001,0.19673705
1.0464444,108.4578,25.641527,23.57037,1.5770926,0.44459,-0.4567623,-0.0385727,-0.43223432,0.64828694,-0.066786416,0.7028602,0.43351215,0.5303746,0.27521807,-1.4219759,-2.0136223,-0.767993,1.9381821,1.7923608,-0.7035323,0.27817985,-1.3874271,-2.0668273,-0.7642888,1.8786634,1.7506787,-0.7525154,-0.07226007,-0.84964764,1.1530052,-0.25030386,1.0748762,0.1751678,0.40558353,-0.6176758,-0.48873138,0.5335854,-0.1543793,0.062238593,-0.31623983,-0.58374786,-0.4458084,0.50167537,0.98934644,0.064848304,0.06358887,0.113774754,-0.18606879,0.12877052,-0.2890828,0.0,1.0,0.0,0.0,0.0,0.0,0.0,-0.032324195,0.08873138,0.016414583,6.9092855,7.1477294,-3.836155,18.861324,-0.74305534,3.3275037,0.054889917
-1.2600945,115.02688,26.67658,21.983967,1.1414942,0.61707634,-0.26020244,-0.049537763,-0.3411419,0.61099446,-0.15057628,0.69159424,0.4059108,0.51859444,0.27322608,-1.4215413,-2.0057278,-0.7793464,1.9478228,1.7912698,-0.70065594,0.27765438,-1.3950698,-2.0556407,-0.76623243,1.8892785,1.7525709,-0.74848545,-0.04522182,-0.7355158,1.1051359,-0.17449503,1.05942,0.19540441,0.4028457,-0.6190567,-0.48820496,0.5310397,-0.13376188,0.050412584,-0.23470859,-0.5855179,-0.44448853,0.4993439,0.99005467,0.056157134,0.055198822,0.11658122,-0.17557062,0.13560945,-0.21617794,0.0,1.0,0.0,0.0,0.0,0.0,0.0,-0.030943274,0.08820495,0.018960297,2.927333,11.519718,-5.3524494,7.955441,-0.7974863,2.4821877,-0.06606579
