Afshin1997/kuka_rl_ros2/src/catch_and_throw/input_files/idealpd/polynomial_regressor/optimizer_files/env_66_data.csv
torque0,torque1,torque2,torque3,torque4,torque5,torque6,action0,action1,action2,action3,action4,action5,action6,set_target_0,set_target_1,set_target_2,set_target_3,set_target_4,set_target_5,set_target_6,joint_pos_0,joint_pos_1,joint_pos_2,joint_pos_3,joint_pos_4,joint_pos_5,joint_pos_6,joint_vel_0,joint_vel_1,joint_vel_2,joint_vel_3,joint_vel_4,joint_vel_5,joint_vel_6,tennisball_pos_0,tennisball_pos_1,tennisball_pos_2,tennisball_lin_vel_0,tennisball_lin_vel_1,tennisball_lin_vel_2,end_effector_pos_0,end_effector_pos_1,end_effector_pos_2,end_effector_rot_0,end_effector_rot_1,end_effector_rot_2,end_effector_rot_3,end_effector_lin_vel_0,end_effector_lin_vel_1,end_effector_lin_vel_2,obs_task_0,obs_task_1,obs_task_2,obs_task_3,obs_task_4,obs_task_5,obs_task_6,to_final_target_0,to_final_target_1,to_final_target_2,joint_acc_0,joint_acc_1,joint_acc_2,joint_acc_3,joint_acc_4,joint_acc_5,joint_acc_6
0.0,0.0,0.0,0.0,0.0,0.0,0.0,0.0,0.0,0.0,0.0,0.0,0.0,0.0,1.7802359,-1.0646509,-1.8151424,-1.1170107,1.9373155,1.1170107,-0.91629785,1.7802359,-1.0646509,-1.8151424,-1.1170107,1.9373155,1.1170107,-0.91629785,0.0,0.0,0.0,0.0,0.0,0.0,0.0,2.823864,-0.633934,0.28628874,-2.783312,0.07954244,5.121339,0.5304184,-0.45448303,0.693097,0.5745483,0.17512383,0.15255436,0.7848268,0.0,0.0,0.0,1.0,0.0,0.0,0.0,0.0,0.0,0.0,-3.473864,0.23393402,0.26371127,0.0,0.0,0.0,0.0,0.0,0.0,0.0
0.0,0.0,0.0,0.0,0.0,0.0,0.0,0.0,0.0,0.0,0.0,0.0,0.0,0.0,1.7802359,-1.0646509,-1.8151424,-1.1170107,1.9373155,1.1170107,-0.91629785,1.7802359,-1.0646509,-1.8151424,-1.1170107,1.9373155,1.1170107,-0.91629785,0.0,0.0,0.0,0.0,0.0,0.0,0.0,2.823864,-0.633934,0.28628874,-2.783312,0.07954244,5.121339,0.5304184,-0.45448303,0.693097,0.5745483,0.17512383,0.15255436,0.7848268,0.0,0.0,0.0,1.0,0.0,0.0,0.0,0.0,0.0,0.0,-3.473864,0.23393402,0.26371127,0.0,0.0,0.0,0.0,0.0,0.0,0.0
0.0,0.0,0.0,0.0,0.0,0.0,0.0,0.0,0.0,0.0,0.0,0.0,0.0,0.0,1.7802359,-1.0646509,-1.8151424,-1.1170107,1.9373155,1.1170107,-0.91629785,1.7802359,-1.0646509,-1.8151424,-1.1170107,1.9373155,1.1170107,-0.91629785,0.0,0.0,0.0,0.0,0.0,0.0,0.0,2.823864,-0.633934,0.28628874,-2.783312,0.07954244,5.121339,0.5304184,-0.45448303,0.693097,0.5745483,0.17512383,0.15255436,0.7848268,0.0,0.0,0.0,1.0,0.0,0.0,0.0,0.0,0.0,0.0,-3.473864,0.23393402,0.26371127,0.0,0.0,0.0,0.0,0.0,0.0,0.0
-176.0,56.15422,-10.847296,110.0,11.337309,4.402467,-3.705309,-0.81405336,0.28379753,-0.53937507,0.7377612,0.36099952,0.6746806,-0.6094896,1.6988306,-1.0362711,-1.86908,-1.0432346,1.9734154,1.1844788,-0.9772468,1.7789694,-1.0624365,-1.8213432,-1.1123434,1.9432817,1.1224333,-0.9176473,-0.16874118,0.29459718,-0.8261882,0.62258494,0.7945756,0.72087425,-0.17927231,2.7960548,-0.63314056,0.33672726,-2.7805295,0.079462916,5.018032,0.5283127,-0.4578247,0.6937435,0.5781769,0.17386279,0.150739,0.7827904,-0.28112552,-0.44394746,0.08597964,1.0,0.0,0.0,0.0,0.0,0.0,0.0,-3.446055,0.23314056,0.21327275,-16.792572,29.242485,-82.43126,62.360893,79.16584,71.48465,-17.735798
-176.0,-35.71135,-47.12415,110.0,12.513439,1.3358285,-3.1974287,-0.78913254,-0.19521555,-0.52038056,0.69753623,0.49158716,0.6528141,-0.5986849,1.7000562,-1.081958,-1.8733813,-1.0425898,1.9924403,1.1877147,-0.9775158,1.7775275,-1.0598482,-1.8364627,-1.0986067,1.9549565,1.13576,-0.91838926,-0.13940883,0.234212,-1.7104228,1.6244248,1.2751911,1.5025549,-0.045941833,2.7682686,-0.6323471,0.3861335,-2.7777495,0.07938347,4.914829,0.52365875,-0.46637726,0.69435036,0.5862094,0.17079619,0.1463119,0.77831864,-0.52750564,-0.9903547,0.05550376,1.0,0.0,0.0,0.0,0.0,0.0,0.0,-3.4182687,0.2323471,0.16386652,1.9692898,-9.816167,-79.414055,100.31026,43.069004,67.938736,11.309366
-157.58168,118.82599,35.20418,97.62793,8.500123,8.420462,-1.9743025,-0.7758247,0.2848034,0.14763144,0.6617293,0.49235857,0.6956185,-0.5326454,1.699945,-1.0313679,-1.8216996,-1.0324337,2.0041924,1.2053218,-0.9716538,1.7728258,-1.0568079,-1.8511341,-1.0804659,1.9678483,1.1506258,-0.9191274,-0.58063734,0.32363194,-1.3786227,1.8786663,1.288217,1.4739814,-0.085014716,2.7405128,-0.63155365,0.43450847,-2.7749722,0.0793041,4.811729,0.5160217,-0.47779846,0.69674414,0.59709775,0.16601267,0.14029922,0.77215934,-0.8490861,-1.1869777,0.30458224,1.0,0.0,0.0,0.0,0.0,0.0,0.0,-3.390513,0.23155364,0.11549154,-44.185852,7.8387203,35.414528,25.830864,-0.36346912,-5.0512314,-4.4724016
-103.13435,102.59748,39.689266,59.9687,5.468545,7.813384,-0.33132297,-0.77895504,0.035368133,0.23672025,0.6566069,0.5201628,0.668721,-0.5791122,1.6949303,-1.053271,-1.8274621,-1.0148052,2.0198646,1.217498,-0.9770386,1.7637335,-1.0541204,-1.8597248,-1.0621954,1.979754,1.1644083,-0.92035383,-1.0196991,0.24807489,-0.6781821,1.8107824,1.1525178,1.3422396,-0.13707736,2.7127838,-0.6307602,0.48185322,-2.7721977,0.07922481,4.708732,0.5057068,-0.49010468,0.7011244,0.60896116,0.15976077,0.13288118,0.76549673,-1.1048232,-1.233009,0.4865831,1.0,0.0,0.0,0.0,0.0,0.0,0.0,-3.362784,0.23076019,0.068146795,-44.171215,-8.259546,72.36087,-6.5299034,-15.234542,-14.34617,-5.783346
-42.930134,123.78423,52.16336,32.35526,2.2659202,7.247047,0.47917736,-0.789459,0.16094506,0.2987227,0.6476325,0.5938583,0.66450983,-0.57410574,1.6847876,-1.0380259,-1.8298525,-0.9974322,2.0391397,1.2308593,-0.9777644,1.7510535,-1.0517095,-1.8611572,-1.045817,1.9902902,1.1767412,-0.9221038,-1.351948,0.236948,0.041642386,1.5799137,1.0165615,1.1954128,-0.19000964,2.6850815,-0.62996674,0.5281688,-2.769426,0.0791456,4.6058383,0.49347305,-0.5018616,0.7072352,0.6205518,0.15221474,0.12434475,0.75913393,-1.2766948,-1.1432492,0.6538571,1.0,0.0,0.0,0.0,0.0,0.0,0.0,-3.3350816,0.22996673,0.021831214,-33.56192,-1.6422063,73.937294,-23.152042,-14.823437,-15.164757,-6.0106936
-2.657202,123.23169,49.66152,14.465764,-0.06382668,5.2737513,0.5267097,-0.79795206,0.26117748,0.24245913,0.64146376,0.61561316,0.6587065,-0.60297334,1.6712582,-1.0255917,-1.8369113,-0.9816706,2.0518515,1.2426119,-0.98240113,1.7361666,-1.048839,-1.8572872,-1.0318152,1.9997678,1.1877409,-0.9243488,-1.5351752,0.30233544,0.50618106,1.3399024,0.9229074,1.067954,-0.2380847,2.6574097,-0.6291733,0.57345617,-2.7666574,0.07906647,4.5030475,0.48016357,-0.5123291,0.7146513,0.6314444,0.14374861,0.11543185,0.75318635,-1.3607296,-1.0027543,0.7692011,1.0,0.0,0.0,0.0,0.0,0.0,0.0,-3.3074098,0.22917327,-0.023456156,-18.595242,6.159115,47.684902,-24.14198,-9.992409,-12.748551,-5.4314466
20.190836,133.61156,48.59268,7.4524016,-1.7737777,3.8709064,0.14045079,-0.81103,0.44216737,0.15037034,0.61468,0.60633045,0.6678263,-0.59464985,1.6550636,-1.0046222,-1.8422501,-0.97034717,2.0604007,1.2545235,-0.98381376,1.720328,-1.044393,-1.8511055,-1.0198389,2.0085874,1.1976343,-0.92701143,-1.6009641,0.4911084,0.65808433,1.149779,0.8678282,0.9639319,-0.27748993,2.6297646,-0.6283798,0.61771643,-2.7638915,0.07898742,4.400359,0.46647644,-0.52121735,0.72307855,0.64175737,0.13471499,0.10715828,0.7473395,-1.3820524,-0.83724004,0.86428326,1.0,0.0,0.0,0.0,0.0,0.0,0.0,-3.2797647,0.22837982,-0.06771642,-6.84793,18.555283,15.971136,-19.113422,-5.7412386,-10.181403,-4.5080304
27.125448,127.21861,42.083656,5.446681,-2.3718636,2.5396729,-0.21893297,-0.81571484,0.5364427,0.08138339,0.60356265,0.6017022,0.6619389,-0.59433407,1.6387565,-0.99074864,-1.8429672,-0.95948267,2.0687575,1.2638283,-0.98644483,1.7043902,-1.0377325,-1.8451355,-1.0091921,2.017075,1.2066237,-0.9300088,-1.5922357,0.72351336,0.57837456,1.0362254,0.8423613,0.87829185,-0.30866304,2.6021461,-0.62758636,0.66095054,-2.761128,0.07890845,4.2977734,0.45285034,-0.52856445,0.73224294,0.65177965,0.12543856,0.100229226,0.74121684,-1.3658469,-0.6864388,0.9306558,1.0,0.0,0.0,0.0,0.0,0.0,0.0,-3.2521462,0.22758636,-0.11095053,0.6243706,22.998405,-7.4807763,-11.422658,-2.6019335,-8.312452,-3.5538733
27.84758,116.36394,36.618378,4.94098,-2.272175,1.7806265,-0.30622408,-0.821131,0.60145396,0.07606111,0.56808394,0.62297976,0.65458757,-0.57835156,1.622277,-0.9775871,-1.8375293,-0.9523837,2.0793731,1.2720824,-0.987844,1.6887652,-1.0288557,-1.8405979,-0.99931604,2.0255132,1.2148653,-0.93325895,-1.5533439,0.9419666,0.41334257,0.9710405,0.84437454,0.8066901,-0.3316009,2.5745583,-0.6267929,0.7031596,-2.7583673,0.07882956,4.1952906,0.43946838,-0.5345535,0.7419195,0.6616773,0.11613869,0.094786964,0.73464984,-1.3354136,-0.5571552,0.9770449,1.0,0.0,0.0,0.0,0.0,0.0,0.0,-3.2245584,0.2267929,-0.15315956,3.664565,21.659874,-16.123497,-6.6208124,0.19447803,-6.980264,-2.650559
23.169312,103.75457,31.961159,6.785548,-1.6951052,1.4455011,-0.31133962,-0.8187139,0.6505993,0.06943173,0.5680938,0.6264104,0.6564976,-0.57381004,1.6068938,-0.9637958,-1.8336546,-0.9425067,2.0881543,1.2805151,-0.9906399,1.6735674,-1.0181421,-1.8376892,-0.98974496,2.0340543,1.2224814,-0.9366979,-1.509094,1.1139946,0.2511424,0.95202136,0.85722685,0.74679047,-0.34895128,2.5469933,-0.62599945,0.74434453,-2.7556095,0.078750744,4.09291,0.42635345,-0.5394821,0.7519706,0.6715304,0.10688704,0.090610094,0.7276069,-1.308837,-0.4550628,1.011878,1.0,0.0,0.0,0.0,0.0,0.0,0.0,-3.1969934,0.22599944,-0.19434452,4.238224,17.054844,-15.886438,-2.04072,1.2901664,-5.9250593,-2.0472527
18.792965,89.349106,27.183523,7.1345253,-1.1807132,1.171897,-0.22415213,-0.8123468,0.68540746,0.038314786,0.54805726,0.6360714,0.6713365,-0.5712355,1.5923327,-0.94960135,-1.8338577,-0.93493927,2.0976615,1.289615,-0.99382144,1.6587607,-1.0061239,-1.8361728,-0.9802578,2.0427594,1.2295862,-0.9402799,-1.4716023,1.2305266,0.119484745,0.94696116,0.87537605,0.69832486,-0.3622703,2.5194588,-0.625206,0.78450644,-2.7528546,0.078672014,3.9906318,0.41345215,-0.5435333,0.7622421,0.68133014,0.09772279,0.08737137,0.7201428,-1.2877089,-0.37480173,1.029947,1.0,0.0,0.0,0.0,0.0,0.0,0.0,-3.1694589,0.22520599,-0.23450643,3.5837412,11.538172,-12.848957,-0.6937623,1.8198252,-4.833734,-1.6215026
14.049103,75.5953,22.702927,7.391364,-0.70261836,0.94956905,-0.13454828,-0.8079545,0.70337707,0.0069889813,0.5364018,0.6430702,0.6692052,-0.57418907,1.5779653,-0.9357862,-1.8354739,-0.9266176,2.1070664,1.2965068,-0.9976988,1.64424,-0.9933389,-1.8356922,-0.9707983,2.0516477,1.2362696,-0.94397634,-1.4461658,1.2942926,0.025167296,0.94492733,0.89353716,0.65829796,-0.37310886,2.491951,-0.62441254,0.82364637,-2.7501023,0.07859336,3.8884563,0.40070343,-0.54694366,0.7725661,0.691032,0.08869071,0.08474959,0.7123385,-1.2730782,-0.3140388,1.0313656,1.0,0.0,0.0,0.0,0.0,0.0,0.0,-3.141951,0.22441253,-0.27364635,2.3937225,6.2912703,-9.125972,-0.42716265,1.8276691,-4.000926,-1.3609469
12.829382,66.60822,20.098503,6.273998,-0.49971494,0.80749786,-0.0052780323,-0.80274636,0.7175929,-0.010262528,0.5065174,0.6493321,0.6728552,-0.56968194,1.5639654,-0.9215796,-1.8367184,-0.9201466,2.116581,1.3035551,-1.0009445,1.6298949,-0.9801906,-1.8358696,-0.961479,2.0607038,1.2426096,-0.9477634,-1.4311724,1.3214853,-0.030966638,0.9268516,0.90957195,0.62606597,-0.38152322,2.46447,-0.62363434,0.8617653,-2.7473526,0.07851478,3.786383,0.38809204,-0.5498047,0.7828094,0.70055115,0.07982075,0.08250558,0.7043078,-1.2598631,-0.26109067,1.0202985,1.0,0.0,0.0,0.0,0.0,0.0,0.0,-3.11447,0.22363433,-0.3117653,1.3482571,2.654767,-5.285581,-2.0612717,1.6093373,-3.1946182,-1.1217952
11.221333,60.462784,18.048864,5.9973583,-0.3405271,0.6834053,0.051874626,-0.79876065,0.7260867,-0.039959345,0.49188337,0.6606203,0.6763072,-0.57233644,1.5500188,-0.9075819,-1.8398654,-0.9122907,2.1267657,1.3102404,-1.004997,1.6156431,-0.9669307,-1.8364761,-0.95240194,2.0699124,1.2486769,-0.9516248,-1.4236777,1.3273054,-0.06941344,0.90047324,0.9250518,0.6002868,-0.38854906,2.4370193,-0.62285614,0.8988643,-2.7446058,0.07843628,3.6844115,0.37559128,-0.5522003,0.79287773,0.70983535,0.07113292,0.08049741,0.6961279,-1.2478886,-0.21554746,1.0006905,1.0,0.0,0.0,0.0,0.0,0.0,0.0,-3.0870194,0.22285613,-0.34886432,0.6008625,0.5334854,-3.5178206,-2.9039025,1.5586495,-2.5293708,-0.9770334
10.106722,59.079918,17.615198,6.357152,-0.26200628,0.70120996,0.08663581,-0.8018857,0.7344087,-0.048256274,0.47275954,0.65949714,0.68498915,-0.5669436,1.5354545,-0.89348984,-1.8413017,-0.905126,2.135862,1.3171759,-1.0083191,1.6014048,-0.9536689,-1.8373306,-0.9436415,2.0792394,1.2545286,-0.9555425,-1.4243314,1.3256506,-0.0898155,0.8670588,0.9353269,0.58020467,-0.39376187,2.4095917,-0.62207794,0.93494433,-2.7418618,0.07835786,3.5825422,0.36320114,-0.5541382,0.8027441,0.71885693,0.06261065,0.07865074,0.6878507,-1.237726,-0.17147885,0.9803802,1.0,0.0,0.0,0.0,0.0,0.0,0.0,-3.0595918,0.22207794,-0.38494432,-0.21924973,-0.2099514,-1.6940043,-3.6066175,1.0321736,-1.9581318,-0.7940352
14.260738,61.05291,18.87198,4.5416336,-0.4405389,0.72301817,0.21282406,-0.7972637,0.73951715,-0.028186034,0.4224992,0.6690724,0.68013686,-0.56456846,1.5216784,-0.8797172,-1.8401492,-0.90139157,2.1461465,1.3225423,-1.0119994,1.5871569,-0.94042903,-1.8381813,-0.93538743,2.0886655,1.2602049,-0.95950407,-1.425515,1.3233207,-0.082168646,0.81063783,0.945023,0.56380093,-0.39786786,2.3821945,-0.62129974,0.97000647,-2.7391207,0.07827952,3.4807746,0.35095596,-0.55555725,0.8124185,0.7275275,0.054222617,0.076915495,0.6795937,-1.2207663,-0.11856237,0.96149105,1.0,0.0,0.0,0.0,0.0,0.0,0.0,-3.0321946,0.22129974,-0.42000645,-0.28705597,-0.27360916,1.1589885,-5.914569,0.96036196,-1.5563965,-0.6990731
16.761309,61.87133,19.10208,3.1209235,-0.64288646,0.6494429,0.27320606,-0.8001936,0.7475266,-0.035990827,0.37107277,0.67062354,0.68432134,-0.5599467,1.5071375,-0.8656764,-1.8417803,-0.89828014,2.1557279,1.328637,-1.0154988,1.5728804,-0.92717487,-1.838927,-0.9278553,2.098168,1.2657458,-0.9634971,-1.4290786,1.3260248,-0.07066924,0.7331115,0.9520845,0.55124855,-0.4007051,2.354824,-0.62052155,1.0040517,-2.736382,0.07820126,3.379109,0.33892822,-0.5564194,0.8218881,0.7357817,0.045972135,0.07531204,0.67144614,-1.1963985,-0.060618453,0.94031155,1.0,0.0,0.0,0.0,0.0,0.0,0.0,-3.0048242,0.22052154,-0.45405167,-0.53322315,0.23932457,1.5493586,-8.029879,0.70245266,-1.1302352,-0.56738853
23.134815,63.313953,19.927288,-0.14127731,-1.018434,0.4983729,0.40022188,-0.7905416,0.7548316,-0.02472767,0.2952053,0.67996734,0.6814089,-0.5503652,1.4938263,-0.8516917,-1.8413998,-0.8983348,2.1661646,1.3338866,-1.0185336,1.5586153,-0.913853,-1.839505,-0.9213217,2.1077504,1.2711817,-0.9675073,-1.4263054,1.3342341,-0.05228757,0.62581056,0.960194,0.5416199,-0.40198976,2.3274803,-0.61974335,1.037081,-2.7336462,0.07812307,3.2775447,0.32725525,-0.5566406,0.83112,0.7435252,0.037893303,0.073874876,0.6635336,-1.1568145,0.006372666,0.9155311,1.0,0.0,0.0,0.0,0.0,0.0,0.0,-2.9774804,0.21974334,-0.487081,0.09739399,0.8070946,2.235128,-11.015773,0.8159518,-0.76259375,-0.41034222
27.57344,64.347565,20.397207,-2.6070833,-1.3251121,0.35570678,0.4954657,-0.7906918,0.76539445,-0.010096447,0.20994408,0.6813845,0.68129003,-0.5416883,1.4795462,-0.83731353,-1.8405147,-0.90032727,2.1758888,1.3393106,-1.0216762,1.5443846,-0.90040237,-1.8398597,-0.91607076,2.1174016,1.2765375,-0.9715194,-1.4225996,1.34874,-0.02866117,0.49052197,0.966952,0.53453714,-0.40186977,2.300167,-0.61896515,1.0690955,-2.7309132,0.078044966,3.1760821,0.31606674,-0.5561218,0.8400796,0.75067717,0.030028999,0.07265295,0.65597534,-1.104613,0.07923813,0.88721293,1.0,0.0,0.0,0.0,0.0,0.0,0.0,-2.9501672,0.21896514,-0.5190955,0.1930952,1.4563322,2.736801,-13.811695,0.70255995,-0.44246912,-0.25481582
31.936771,61.11406,19.311281,-6.0600915,-1.6473675,0.02349785,0.5892168,-0.78545946,0.76734036,-0.010485206,0.1022054,0.6874611,0.6806994,-0.53745455,1.4658387,-0.82366836,-1.8409083,-0.90585023,2.1861477,1.3446075,-1.0252649,1.530213,-0.88681346,-1.8400276,-0.9124153,2.1271253,1.281838,-0.9755239,-1.4158254,1.3624154,-0.011841004,0.32287547,0.97423077,0.5298025,-0.4008047,2.2728767,-0.61818695,1.100096,-2.7281828,0.077966936,3.0747209,0.30551147,-0.554863,0.8486694,0.75717056,0.02248215,0.07169885,0.6488809,-1.0365591,0.15198185,0.8470059,1.0,0.0,0.0,0.0,0.0,0.0,0.0,-2.9228768,0.21818694,-0.550096,0.5196333,1.405716,1.9873238,-17.044884,0.7877946,-0.11459589,-0.12549162
45.048977,62.517757,21.113731,-14.461633,-2.4621975,-0.25875258,0.9435655,-0.78476256,0.777414,0.075394705,-0.119171485,0.6924902,0.66862583,-0.5492373,1.4517367,-0.8090721,-1.8324881,-0.9243325,2.1963742,1.3487006,-1.0304476,1.5161043,-0.87307197,-1.8396842,-0.91113645,2.1369214,1.2871004,-0.97952646,-1.4096686,1.3782821,0.050570395,0.061966337,0.98186696,0.5267108,-0.4006642,2.245617,-0.61740875,1.1300837,-2.725455,0.07788898,2.9734612,0.29587555,-0.55272675,0.8567605,0.76277214,0.015392941,0.07103619,0.64256954,-0.93601954,0.24381453,0.7935794,1.0,0.0,0.0,0.0,0.0,0.0,0.0,-2.895617,0.21740875,-0.58008367,0.47261715,1.6651392,6.518972,-26.351458,0.85030794,0.22143126,-0.18726587
52.270546,63.693768,22.400139,-18.40735,-2.8293777,-0.4478711,1.1451672,-0.7750301,0.7856575,0.13992989,-0.27005014,0.69493717,0.6624333,-0.50870883,1.4386014,-0.7945062,-1.8256912,-0.93814147,2.2064152,1.3533437,-1.0303973,1.502091,-0.8591674,-1.8384712,-0.912752,2.1467938,1.2923361,-0.9834947,-1.3988732,1.3948479,0.14534229,-0.23665877,0.9893004,0.5246885,-0.39604494,2.21838,-0.61663055,1.1590595,-2.7227302,0.07781111,2.8723025,0.2873726,-0.5496216,0.86429,0.767302,0.008836406,0.07064044,0.6373222,-0.81742936,0.34200725,0.73604524,1.0,0.0,0.0,0.0,0.0,0.0,0.0,-2.86838,0.21663055,-0.6090595,0.9985447,1.7737865,9.612272,-30.05016,0.9150624,0.41809082,0.32618642
47.475998,66.15794,23.355091,-13.092314,-2.294113,-0.27881753,1.0308505,-0.7615182,0.7905181,0.20342118,-0.30107644,0.6945007,0.65385044,-0.4779503,1.4259392,-0.7801156,-1.8181291,-0.9428596,2.216244,1.3577211,-1.0312897,1.4882342,-0.84511405,-1.8361576,-0.9168709,2.1567273,1.297547,-0.98739237,-1.3811758,1.4093473,0.25988305,-0.47068882,0.9958246,0.52173835,-0.3879733,2.1911736,-0.61585236,1.1870245,-2.7200081,0.077733316,2.771245,0.27993774,-0.54561615,0.8713828,0.77082676,0.0026799624,0.07040214,0.63313687,-0.71445733,0.4293452,0.69646233,1.0,0.0,0.0,0.0,0.0,0.0,0.0,-2.8411736,0.21585235,-0.63702446,1.7543554,1.590848,11.387772,-23.511337,0.9542465,0.26305914,0.72647333
38.20136,71.96518,25.510462,-3.2981129,-1.3429275,0.22456695,0.8202729,-0.74617255,0.7951381,0.3073509,-0.28654867,0.6967823,0.65124416,-0.43111432,1.4136169,-0.76560026,-1.8054224,-0.94552577,2.2264056,1.3626714,-1.0305037,1.4746042,-0.8309358,-1.8324497,-0.92250043,2.1667256,1.3027254,-0.9911775,-1.3569026,1.4212137,0.40712488,-0.59386206,1.002644,0.5178611,-0.3756432,2.1639938,-0.61507416,1.2139797,-2.7172885,0.0776556,2.6702886,0.27326202,-0.5407944,0.87833625,0.773531,-0.0034025533,0.07010511,0.62985986,-0.6447962,0.50566584,0.6903941,1.0,0.0,0.0,0.0,0.0,0.0,0.0,-2.813994,0.21507415,-0.6639797,2.4437666,1.3461828,14.477605,-12.379467,1.1363983,0.06502867,1.1709213
32.11551,72.18324,25.64911,1.5751534,-0.8372088,0.41622674,0.7151832,-0.74370295,0.7940194,0.39699563,-0.3478498,0.69846576,0.64377266,-0.40203738,1.400234,-0.75153387,-1.7927501,-0.9572854,2.2365723,1.3671027,-1.0313812,1.461188,-0.81668216,-1.8271415,-0.92899114,2.1767888,1.3078581,-0.99482626,-1.3364052,1.4272578,0.57100886,-0.6674875,1.0090586,0.51314867,-0.36135048,2.1368408,-0.61429596,1.2399261,-2.7145717,0.077577956,2.5694332,0.2671585,-0.53525543,0.8853245,0.7755403,-0.00961349,0.069603294,0.62737566,-0.5931078,0.5743003,0.6964462,1.0,0.0,0.0,0.0,0.0,0.0,0.0,-2.786841,0.21429595,-0.6899261,2.081418,0.77204704,16.056585,-7.4011564,1.1602163,-0.062084198,1.3815105
25.85931,73.302315,25.86774,7.300425,-0.3382501,0.6197995,0.55958027,-0.72290355,0.7995419,0.4698923,-0.3224109,0.6925572,0.63698786,-0.31968287,1.3888977,-0.73672795,-1.7801523,-0.96123224,2.2460446,1.3715569,-1.0267946,1.4480158,-0.80237514,-1.8202217,-0.9357012,2.1868863,1.3129393,-0.9982824,-1.3107384,1.4324868,0.7309396,-0.6722625,1.0117974,0.50770044,-0.34047964,2.1097183,-0.61351776,1.2648647,-2.7118578,0.077500395,2.4686785,0.2614212,-0.5290985,0.89249086,0.77697873,-0.0161244,0.06882949,0.6255449,-0.5603817,0.635124,0.71770656,1.0,0.0,0.0,0.0,0.0,0.0,0.0,-2.7597184,0.21351776,-0.7148647,2.609539,0.70073605,15.59149,-0.5086541,0.8443117,-0.18634796,2.0396292
11.396563,66.20331,21.97014,15.484812,0.51731867,0.6877513,0.22037156,-0.72789687,0.792784,0.483482,-0.24090265,0.69500226,0.6401854,-0.2558828,1.3752261,-0.7230967,-1.7718735,-0.9597915,2.2563865,1.3769578,-1.0238707,1.4350172,-0.78806716,-1.8120563,-0.9418543,2.197003,1.317967,-1.0014981,-1.2961183,1.4308239,0.8437074,-0.5965365,1.0133029,0.5020292,-0.31536487,2.0826187,-0.61273956,1.2887964,-2.7091465,0.07742291,2.3680246,0.25577164,-0.52251434,0.89991677,0.77809656,-0.023038952,0.06777416,0.6240525,-0.5595147,0.6703818,0.7448162,1.0,0.0,0.0,0.0,0.0,0.0,0.0,-2.7326188,0.21273956,-0.7387964,1.45998,0.007963181,10.912085,7.4830055,0.68261623,-0.32598972,2.4478674
-6.0347176,59.317703,17.7285,25.427898,1.4976622,0.8728366,-0.19400015,-0.74936074,0.79165804,0.489781,-0.11608856,0.6857248,0.64854383,-0.20664504,1.3600812,-0.70890135,-1.7630782,-0.95346314,2.2655754,1.3828214,-1.0221626,1.4219977,-0.7737954,-1.8031547,-0.9466103,2.2071004,1.3229414,-1.004445,-1.3042623,1.4265716,0.9046368,-0.43587857,1.009767,0.49643075,-0.2881886,2.0555496,-0.61196136,1.3117225,-2.7064378,0.077345505,2.2674713,0.24983597,-0.5158005,0.9076826,0.7792253,-0.03045689,0.0664653,0.6224649,-0.59789884,0.6795726,0.78083867,1.0,0.0,0.0,0.0,0.0,0.0,0.0,-2.7055497,0.21196136,-0.7617225,-0.8968353,-0.25298595,5.792749,15.9009695,0.14231205,-0.46576858,2.6398778
-10.926804,52.190006,14.235874,25.855576,1.5477445,0.6685132,-0.33026302,-0.7662979,0.79289526,0.48965412,-0.10217707,0.6869361,0.6494085,-0.24611449,1.3453679,-0.69450593,-1.7541893,-0.956828,2.275794,1.3878822,-1.0290564,1.4087702,-0.7595609,-1.793967,-0.9498423,2.217156,1.3278662,-1.0071744,-1.3294426,1.4228761,0.92277545,-0.28624877,1.0054268,0.4912477,-0.26820457,2.0285034,-0.61118317,1.3336437,-2.703732,0.077268176,2.1670187,0.2434845,-0.50904083,0.91571426,0.780537,-0.0383,0.06501328,0.62053865,-0.6398714,0.678864,0.8041183,1.0,0.0,0.0,0.0,0.0,0.0,0.0,-2.6785035,0.21118316,-0.78364366,-2.6377678,-0.21579266,1.6020417,14.775837,-0.013518333,-0.46430826,1.9300938
-17.721436,49.449665,12.628224,30.67503,1.9851447,0.7719788,-0.5378868,-0.7712618,0.79102415,0.48319653,0.05801917,0.6816558,0.6520612,-0.21215568,1.331644,-0.6804585,-1.7456473,-0.94404036,2.2853215,1.3930724,-1.0283899,1.39527,-0.7453626,-1.7848213,-0.9511946,2.2271543,1.3327433,-1.0097073,-1.3571924,1.4192533,0.9111497,-0.08556936,0.9995003,0.48623818,-0.24857372,2.0014877,-0.61040497,1.3545611,-2.7010288,0.07719092,2.0666664,0.2365799,-0.50237274,0.9240312,0.78218305,-0.046603553,0.06345726,0.6180541,-0.6998375,0.6686341,0.8343416,1.0,0.0,0.0,0.0,0.0,0.0,0.0,-2.6514878,0.21040496,-0.8045611,-2.9146194,-0.21121502,-1.370585,19.864073,-0.17340183,-0.5296111,1.8922329
-20.158556,44.0236,10.417965,31.205631,2.0914803,0.6598792,-0.6308089,-0.78620136,0.7795694,0.45867455,0.15451369,0.6812879,0.6632369,-0.24836606,1.3166499,-0.66740566,-1.7389538,-0.9357432,2.295283,1.3990669,-1.034544,1.381478,-0.7312463,-1.7759807,-0.9504879,2.2370992,1.3375803,-1.0120934,-1.3870044,1.4096005,0.87445337,0.12202624,0.99428475,0.4826502,-0.2355513,1.9744949,-0.60962677,1.3744757,-2.6983283,0.07711375,1.9664143,0.22903824,-0.49585724,0.93260324,0.784253,-0.055359494,0.061813187,0.6148671,-0.763863,0.65193576,0.85826784,1.0,0.0,0.0,0.0,0.0,0.0,0.0,-2.624495,0.20962676,-0.8244757,-3.1206846,-0.8314371,-3.8512826,20.551172,-0.13480186,-0.42476058,1.230526
-11.956088,41.275135,9.626832,23.643623,1.3169477,0.22843021,-0.466026,-0.79591185,0.7839976,0.42464107,0.13701874,0.6794399,0.66690135,-0.29015782,1.3018868,-0.6528465,-1.7335166,-0.93678606,2.3050432,1.4042704,-1.0411092,1.3674132,-0.7171977,-1.7676513,-0.94828016,2.2469945,1.3423945,-1.0143994,-1.413194,1.4036871,0.81875277,0.25309116,0.9891372,0.48086002,-0.22931293,1.9475327,-0.6088562,1.3933887,-2.6956306,0.07703665,1.8662623,0.2210846,-0.48947906,0.94124436,0.7866609,-0.064367615,0.060207684,0.61106163,-0.7988938,0.6437761,0.8595607,1.0,0.0,0.0,0.0,0.0,0.0,0.0,-2.5975327,0.2088562,-0.84338874,-2.743554,-0.48708916,-5.672753,12.918303,-0.2084136,-0.16699433,0.55898726
0.44532108,41.28056,10.454373,13.932442,0.35380268,-0.22685696,-0.14834803,-0.79563427,0.7824119,0.41995966,0.10266154,0.67939913,0.66032356,-0.26223925,1.2878498,-0.63895655,-1.7256553,-0.93801403,2.3149345,1.4084269,-1.0406233,1.3531672,-0.7031949,-1.7598159,-0.94546205,2.2568479,1.3471953,-1.0166386,-1.4287633,1.3993745,0.771786,0.29084077,0.984582,0.48021287,-0.22238837,1.9205971,-0.60809326,1.4113009,-2.6929355,0.07695963,1.7662104,0.2130661,-0.4830551,0.9497341,0.78917843,-0.07337191,0.05876321,0.6069273,-0.79557747,0.6494206,0.8390329,1.0,0.0,0.0,0.0,0.0,0.0,0.0,-2.5705972,0.20809326,-0.8613009,-1.6580105,-0.35467148,-4.702556,3.6096334,-0.23895502,0.072067976,0.6172836
11.130545,42.492943,11.568581,5.5706162,-0.49126735,-0.6085072,0.13047644,-0.80195785,0.7844968,0.41642997,0.049716294,0.67969364,0.662356,-0.27723074,1.2729714,-0.62474525,-1.7181729,-0.9404904,2.3248172,1.4134309,-1.0443617,1.3388087,-0.6892093,-1.7523296,-0.94290715,2.266663,1.3519999,-1.0188283,-1.438592,1.3985611,0.7413524,0.24317217,0.9807904,0.48124215,-0.21812391,1.8936882,-0.6073303,1.4282134,-2.690243,0.07688269,1.6662586,0.20532227,-0.4764862,0.95788753,0.7915814,-0.08214897,0.057575822,0.6027731,-0.75831544,0.6669403,0.80122924,1.0,0.0,0.0,0.0,0.0,0.0,0.0,-2.5436883,0.20733032,-0.87821335,-1.0691643,-0.021886826,-2.9652119,-4.9109516,-0.23771524,0.35490394,0.34606457
19.430775,43.32893,12.479907,-0.7399707,-1.088403,-0.9374623,0.35868084,-0.7993585,0.78284514,0.4166653,-0.013391092,0.68411505,0.6566731,-0.269707,1.2588727,-0.6109248,-1.7106631,-0.9442463,2.3350747,1.4176672,-1.045799,1.3244139,-0.67522746,-1.7450149,-0.941284,2.2764592,1.3568159,-1.020976,-1.4401442,1.3982687,0.7286904,0.13497956,0.97946,0.48275462,-0.21403997,1.866806,-0.6065674,1.444127,-2.6875534,0.07680582,1.5664066,0.19815063,-0.46970367,0.96557444,0.7936911,-0.09052805,0.056692384,0.59886974,-0.6948082,0.6908503,0.75170445,1.0,0.0,0.0,0.0,0.0,0.0,0.0,-2.5168061,0.20656738,-0.89412695,-0.21059513,0.02553463,-1.1551619,-10.935486,-0.04056692,0.48884153,0.33045113
27.325209,44.226986,13.313061,-7.2814856,-1.7102232,-1.2809421,0.60075504,-0.80234605,0.78452575,0.43266976,-0.13961795,0.6827649,0.6563836,-0.24801128,1.2441792,-0.5967749,-1.7017479,-0.9552458,2.3447356,1.4224542,-1.0457771,1.3100191,-0.6612361,-1.7376583,-0.941264,2.286244,1.3616511,-1.0230721,-1.4392235,1.3996267,0.7383544,-0.04244424,0.9782847,0.48506412,-0.20833348,1.8399506,-0.60580444,1.4590428,-2.6848664,0.07672903,1.4666545,0.19182205,-0.46260834,0.9726677,0.79534197,-0.09833397,0.056159377,0.5954893,-0.6041974,0.7204926,0.68920696,1.0,0.0,0.0,0.0,0.0,0.0,0.0,-2.4899507,0.20580444,-0.9090428,0.07660389,0.19068718,1.0877967,-17.814272,-0.06275177,0.6550908,0.5125314
26.310707,46.61292,14.698711,-4.4821596,-1.4175037,-1.1434093,0.62787163,-0.79203814,0.7794133,0.46885142,-0.13375488,0.68507254,0.64182127,-0.12701158,1.2308153,-0.58329475,-1.6907731,-0.95463943,2.354751,1.4258332,-1.0357733,1.295695,-0.64725333,-1.7299964,-0.9427441,2.2960286,1.3664938,-1.0250252,-1.4301958,1.3981135,0.77566385,-0.18323714,0.9791929,0.48533648,-0.19108547,1.8131218,-0.6050415,1.4729619,-2.682182,0.07665232,1.3670021,0.18632507,-0.45523834,0.9792382,0.79647404,-0.10563781,0.05589143,0.5927443,-0.52289593,0.7498991,0.6403582,1.0,0.0,0.0,0.0,0.0,0.0,0.0,-2.463122,0.2050415,-0.9229619,0.92651844,-0.07722378,3.7547708,-14.116457,0.2080679,0.40724277,1.6777098
19.923717,47.187283,14.939394,2.1506252,-0.7806022,-0.8550658,0.5165139,-0.78976506,0.7780666,0.48188952,-0.10825407,0.68254226,0.645582,0.06307366,1.2167184,-0.5694467,-1.6818075,-0.9535695,2.3642828,1.431052,-1.0187179,1.28147,-0.63329345,-1.721915,-0.945092,2.3058248,1.3713366,-1.0266694,-1.4198176,1.3956493,0.8187605,-0.25206947,0.980294,0.48489732,-0.15562043,1.7863197,-0.60427856,1.4858853,-2.6795006,0.07657568,1.2674494,0.18145752,-0.44756317,0.9854647,0.7971378,-0.1126535,0.0557701,0.5905676,-0.4666881,0.77479887,0.61062515,1.0,0.0,0.0,0.0,0.0,0.0,0.0,-2.4363198,0.20427856,-0.93588525,1.0542154,-0.1497984,4.24459,-6.9297733,0.31599998,0.2524793,3.5006225
11.49231,45.245975,13.929933,9.56885,-0.08359885,-0.5789306,0.31491846,-0.79042184,0.7757599,0.47806364,-0.06789525,0.6708342,0.6521553,0.21400099,1.2024277,-0.55571747,-1.6741086,-0.9518815,2.372908,1.436552,-1.0052693,1.267327,-0.619366,-1.7135017,-0.9475468,2.315598,1.3761736,-1.0278615,-1.4127558,1.392221,0.84834313,-0.2436157,0.9774191,0.48413736,-0.10721117,1.7595444,-0.6035156,1.4978137,-2.6768215,0.07649912,1.1679962,0.17692184,-0.4397354,0.9915222,0.7974611,-0.11959973,0.05573064,0.5887662,-0.43926588,0.7920575,0.5978345,1.0,0.0,0.0,0.0,0.0,0.0,0.0,-2.4095445,0.20351562,-0.9478137,0.6787777,-0.22852421,2.8493881,0.7541716,-0.010561943,0.13253093,4.787257
5.0447965,40.81813,12.125707,14.379141,0.43276685,-0.4605841,0.15066716,-0.790868,0.76436234,0.4782225,-0.03675696,0.66116816,0.6509345,0.29851404,1.1882402,-0.54292977,-1.6656795,-0.9512225,2.3817148,1.441267,-0.9980101,1.2532221,-0.60551864,-1.7049034,-0.9495457,2.325314,1.3809992,-1.0285405,-1.4098246,1.3825488,0.86325526,-0.18578297,0.9706295,0.48268816,-0.054814927,1.7327957,-0.6027527,1.5087484,-2.6741452,0.07642264,1.0686424,0.17251587,-0.43177795,0.9975112,0.79757404,-0.12661384,0.055731416,0.58714443,-0.43203986,0.80019426,0.5928727,1.0,0.0,0.0,0.0,0.0,0.0,0.0,-2.3827958,0.20275268,-0.9587484,0.22768974,-0.84507465,1.3742089,5.646366,-0.37482977,0.0068962574,5.1764207
2.6047926,38.12449,11.059483,16.010643,0.5974642,-0.4625885,0.07064768,-0.788353,0.7592179,0.4789574,-0.016444054,0.6525282,0.64879125,0.337732,1.1743869,-0.52959687,-1.6570076,-0.9511901,2.3905668,1.4458784,-0.9947673,1.2391363,-0.5917838,-1.6962402,-0.95084363,2.3349423,1.3858095,-1.0287122,-1.4083438,1.3707856,0.86710805,-0.111668214,0.9610129,0.48086798,-0.0048773405,1.7060738,-0.60198975,1.5186903,-2.6714716,0.07634623,0.969388,0.16812515,-0.42375183,1.0034629,0.797552,-0.13374348,0.055769254,0.5855879,-0.43147048,0.80438524,0.5895842,1.0,0.0,0.0,0.0,0.0,0.0,0.0,-2.3560739,0.20198974,-0.96869034,0.06752014,-1.0552645,0.27791262,7.2595654,-0.6589055,-0.05349517,4.9276032
2.179524,35.327003,10.019155,15.503757,0.57681555,-0.56439424,0.04897901,-0.79002726,0.7505843,0.47813296,-0.0035253593,0.64295095,0.64692163,0.35755312,1.1601336,-0.5167254,-1.6484269,-0.9511962,2.3992374,1.4505017,-0.9929568,1.2250487,-0.5781873,-1.6875904,-0.9514597,2.3444562,1.3906008,-1.0284241,-1.409277,1.3563586,0.86420256,-0.045455128,0.94893545,0.47900856,0.039861128,1.6793785,-0.6012268,1.5276405,-2.6688006,0.0762699,0.8702328,0.16375732,-0.41574097,1.009352,0.7974295,-0.1409597,0.055866204,0.58405095,-0.42952546,0.8054519,0.5823752,1.0,0.0,0.0,0.0,0.0,0.0,0.0,-2.3293786,0.2012268,-0.97764045,-0.17697811,-1.3287783,-0.374794,6.4675765,-0.9284854,-0.058162212,4.409103
3.550568,34.645847,9.790255,14.253223,0.44532752,-0.68738866,0.062059887,-0.78031176,0.7472881,0.46799636,0.019501053,0.6413275,0.64278805,0.38386282,1.1470175,-0.5034585,-1.6407907,-0.9495096,2.408589,1.4548796,-0.99003786,1.2109934,-0.5647214,-1.679034,-0.95148927,2.3538594,1.395373,-1.0277222,-1.4046382,1.3437532,0.8527675,0.0107600195,0.93842334,0.47704345,0.08015619,1.65271,-0.60046387,1.5355997,-2.6661325,0.076193646,0.77117676,0.15945816,-0.40771484,1.0151458,0.7972095,-0.148218,0.05604969,0.58253485,-0.42171338,0.806301,0.5721871,1.0,0.0,0.0,0.0,0.0,0.0,0.0,-2.30271,0.20046386,-0.9855997,0.39703846,-1.1523008,-1.2204051,5.4823785,-0.79653263,-0.0590086,3.968595
4.950199,32.50518,9.040072,12.261412,0.2882746,-0.8624135,0.08874883,-0.774504,0.73601514,0.45677325,0.027009202,0.6281693,0.6475956,0.39961854,1.133543,-0.4911199,-1.6333567,-0.94878834,2.4166763,1.4601326,-0.98776037,1.1970125,-0.5513986,-1.6706378,-0.9511002,2.3631406,1.4001318,-1.0266541,-1.3961068,1.3288653,0.8349156,0.04789861,0.9255222,0.47601613,0.11560398,1.6260681,-0.5997009,1.5425693,-2.6634667,0.07611746,0.67221975,0.15528107,-0.3996582,1.0207901,0.7968844,-0.15544812,0.056350786,0.5810642,-0.40627328,0.8046251,0.5557075,1.0,0.0,0.0,0.0,0.0,0.0,0.0,-2.2760682,0.19970092,-0.99256927,0.80595016,-1.3881922,-1.8493533,3.5845685,-1.0688424,0.053966045,3.486304
11.050186,30.23319,7.9948397,4.1696215,-0.4029128,-1.3833182,0.2676532,-0.77674973,0.73086876,0.4412456,-0.08577706,0.62538445,0.64332587,0.38961786,1.1193376,-0.4783117,-1.6265132,-0.9596779,2.425679,1.4644644,-0.98769236,1.1831003,-0.538215,-1.6624668,-0.95102006,2.3722997,1.404883,-1.0252808,-1.3896579,1.3151202,0.8111879,-0.0055761496,0.91361886,0.47568542,0.14441487,1.599453,-0.598938,1.54855,-2.6608038,0.07604136,0.5733617,0.15150452,-0.39169312,1.0260952,0.79639053,-0.16237639,0.056882247,0.57979333,-0.35935646,0.79907084,0.51611316,1.0,0.0,0.0,0.0,0.0,0.0,0.0,-2.249453,0.19893798,-0.99855,0.64337254,-1.2952089,-2.381444,-5.436056,-1.0680556,0.2092123,2.8398962
16.631977,32.587276,8.974086,-1.1509857,-0.94426864,-1.6649026,0.4497778,-0.76853573,0.7309139,0.45658103,-0.15578781,0.6147355,0.63750863,0.43417618,1.1062467,-0.4651236,-1.6168087,-0.96659887,2.4337733,1.4686339,-0.9818632,1.169274,-0.5251315,-1.6544197,-0.95190984,2.3813329,1.4096304,-1.0236233,-1.3801214,1.3063126,0.8027251,-0.11688486,0.9003395,0.4754376,0.17266443,1.5728645,-0.59817505,1.5535429,-2.6581435,0.07596534,0.47460246,0.14837265,-0.3837433,1.0309267,0.7956232,-0.16879258,0.057727996,0.5789303,-0.28925544,0.79698926,0.46632528,1.0,0.0,0.0,0.0,0.0,0.0,0.0,-2.2228646,0.19817504,-1.0035429,1.0076761,-0.81107616,-0.8479357,-11.162121,-1.2595654,0.26403666,2.7986379
17.015667,29.184631,7.8354344,-2.7666025,-0.94179976,-1.8593295,0.4811951,-0.75902617,0.71151376,0.44711125,-0.19906536,0.61319244,0.6335394,0.4488566,1.0933714,-0.45398015,-1.6097085,-0.97181636,2.4426522,1.4729843,-0.9787377,1.1555735,-0.51219016,-1.6464431,-0.9540337,2.3902555,1.414374,-1.0217065,-1.3665993,1.2902732,0.79586536,-0.2442805,0.88967973,0.4749487,0.1981361,1.5463028,-0.5974121,1.5575489,-2.6554859,0.075889386,0.375942,0.14596558,-0.3758545,1.0352191,0.7945523,-0.1745905,0.058877923,0.57856554,-0.21483992,0.78707737,0.41122296,1.0,0.0,0.0,0.0,0.0,0.0,0.0,-2.196303,0.1974121,-1.0075488,1.450324,-1.5321016,-0.7231474,-12.756673,-1.0160327,0.24299026,2.5297074
16.197971,27.539234,7.4932966,-2.3717556,-0.8105886,-1.8823187,0.4894569,-0.7560778,0.69739777,0.4629511,-0.25339696,0.60822135,0.63183403,0.47082227,1.0799657,-0.44245037,-1.600148,-0.9793734,2.4510777,1.4775574,-0.9746242,1.141997,-0.49944907,-1.6384304,-0.95743066,2.3990827,1.41911,-1.0195454,-1.3540481,1.2689698,0.8028814,-0.37159914,0.88065857,0.47415483,0.22184122,1.5197678,-0.59664917,1.560569,-2.652831,0.07581351,0.2773802,0.14428711,-0.3680954,1.0389687,0.79317516,-0.17975324,0.06027623,0.5787301,-0.14356068,0.7739395,0.35732135,1.0,0.0,0.0,0.0,0.0,0.0,0.0,-2.1697679,0.19664916,-1.0105691,1.3718367,-2.0530224,0.62823296,-12.740761,-0.8420348,0.19153953,2.3611188
13.935177,25.338041,7.004141,0.030219555,-0.5352925,-1.8083129,0.43193334,-0.7378629,0.67781806,0.4681289,-0.2765636,0.58063877,0.6324194,0.498398,1.0682107,-0.43166727,-1.5916175,-0.98508704,2.4571466,1.4823519,-0.96970564,1.1286017,-0.486975,-1.630307,-0.9618862,2.407761,1.4238383,-1.0171555,-1.3344083,1.2404956,0.81508154,-0.47034442,0.8640222,0.47315675,0.2445622,1.4932594,-0.59588623,1.5626043,-2.6501787,0.075737715,0.17891693,0.14324951,-0.36048126,1.0422268,0.79151535,-0.18435621,0.0618617,0.57938707,-0.08244466,0.7579984,0.30983418,1.0,0.0,0.0,0.0,0.0,0.0,0.0,-2.1432595,0.19588622,-1.0126042,2.091217,-2.760744,1.0948658,-9.898037,-1.5713692,0.13732314,2.2581549
11.580191,22.218428,5.86182,1.3374996,-0.34826753,-1.8115289,0.36629152,-0.73681104,0.6605095,0.4665199,-0.33523244,0.56498426,0.6303899,0.49453786,1.0549206,-0.42092407,-1.583655,-0.9954095,2.4642596,1.4868772,-0.96770173,1.1153723,-0.47481424,-1.6220787,-0.9672707,2.4162488,1.4285551,-1.0145673,-1.3185701,1.2082194,0.8249676,-0.5613523,0.8438317,0.47178733,0.26342347,1.4667778,-0.5951233,1.5636557,-2.6475291,0.075661995,0.08055211,0.14277649,-0.3530426,1.0450186,0.7896236,-0.18843028,0.06360772,0.58046764,-0.027942132,0.73725957,0.2636347,1.0,0.0,0.0,0.0,0.0,0.0,0.0,-2.116778,0.19512329,-1.0136557,1.6987085,-3.1403065,0.8599639,-9.140312,-1.9228458,0.07083416,1.8722475
10.230665,21.041117,5.442492,2.29923,-0.24865103,-1.7959645,0.32858297,-0.7310049,0.64647365,0.47245142,-0.38783428,0.5515052,0.63561666,0.50184274,1.0422719,-0.41016686,-1.5748335,-1.006054,2.4713993,1.4921168,-0.964383,1.1022822,-0.462972,-1.6137531,-0.97353536,2.4245229,1.4332606,-1.0118111,-1.3055359,1.1765269,0.834657,-0.6482308,0.822467,0.47080657,0.27977988,1.4403229,-0.59436035,1.5637242,-2.644882,0.07558635,-0.017714377,0.14281464,-0.3458252,1.0473598,0.78753865,-0.1919863,0.06550926,0.5819216,0.022660322,0.7152101,0.21922234,1.0,0.0,0.0,0.0,0.0,0.0,0.0,-2.090323,0.19436035,-1.0137241,1.4087677,-3.080964,0.83755255,-8.732378,-2.0349622,0.08375049,1.6234457
8.396511,16.85117,3.874651,2.8887596,-0.08924323,-1.8633354,0.2749548,-0.7143472,0.6188712,0.45849565,-0.429542,0.5252801,0.63135237,0.5149518,1.0308474,-0.40108487,-1.5679035,-1.0164895,2.4770508,1.4963958,-0.96031594,1.0893561,-0.45149404,-1.6054237,-0.9806202,2.4325452,1.4379526,-1.0089024,-1.2877814,1.1385107,0.8318585,-0.72881734,0.7958171,0.46934175,0.2945497,1.4138947,-0.59360504,1.5628108,-2.6422377,0.07551078,-0.11588261,0.14333344,-0.33888245,1.0492495,0.78530645,-0.19501512,0.06756122,0.5836937,0.06914949,0.68597263,0.1738883,1.0,0.0,0.0,0.0,0.0,0.0,0.0,-2.0638947,0.19360504,-1.0128107,1.8921375,-3.717041,-0.42014122,-8.118784,-2.5770068,0.011765957,1.4570355
5.8533335,6.748107,0.30999285,2.3124542,0.18936253,-2.0613034,0.23358652,-0.6854101,0.56043935,0.44001266,-0.47985464,0.47207624,0.6266748,0.5210544,1.020815,-0.39545012,-1.5614225,-1.0286057,2.4797528,1.5006201,-0.956797,1.0767103,-0.44058734,-1.5972354,-0.9885166,2.4401822,1.4426275,-1.0058621,-1.2562299,1.074937,0.81387335,-0.8103072,0.75338215,0.46735147,0.3072668,1.3874893,-0.59285736,1.5609163,-2.639596,0.07543528,-0.2139527,0.1442833,-0.33236694,1.0506297,0.7829787,-0.19745325,0.06973539,0.5857419,0.11120743,0.63905966,0.121227674,1.0,0.0,0.0,0.0,0.0,0.0,0.0,-2.0374894,0.19285735,-1.0109162,3.3298492,-6.2913895,-1.9613862,-8.236122,-4.2040825,-0.06445646,1.2240767
0.76868796,-3.43425,-3.646036,4.3543386,0.6942782,-2.1339476,0.09230665,-0.6696359,0.5128694,0.3900948,-0.49664313,0.44764382,0.62476915,0.53069997,1.0097468,-0.3893004,-1.558226,-1.038181,2.4849465,1.5051044,-0.9527921,1.0644099,-0.43044454,-1.5894611,-0.9970949,2.4473767,1.4472815,-1.0027035,-1.2207198,0.99419594,0.76495284,-0.87412184,0.707819,0.46488994,0.3184623,1.3611145,-0.5921097,1.5580419,-2.636957,0.07535986,-0.31192476,0.1455574,-0.32644653,1.0514722,0.780661,-0.19926183,0.07198269,0.58794683,0.13839397,0.5743518,0.0674125,1.0,0.0,0.0,0.0,0.0,0.0,0.0,-2.0111146,0.19210967,-1.0080419,3.7093163,-8.026862,-5.014789,-6.5227747,-4.557419,-0.16053319,1.0399461
-5.28626,-25.636211,-11.708131,3.1179314,1.4990277,-2.5228612,0.018222366,-0.6225012,0.39047083,0.33059487,-0.55883527,0.41543406,0.61066335,0.52832437,1.0021597,-0.39139745,-1.5564016,-1.0529785,2.4889202,1.5083479,-0.9498711,1.0526167,-0.4215358,-1.5824172,-1.0063913,2.4540944,1.4518992,-0.9994515,-1.1646109,0.8563957,0.6838547,-0.9488857,0.6589527,0.46067634,0.32693574,1.3347626,-0.591362,1.5541886,-2.6343205,0.07528451,-0.40979883,0.14699936,-0.3214798,1.0516523,0.778458,-0.20028047,0.07413054,0.59025025,0.15119092,0.46778122,-0.0024879677,1.0,0.0,0.0,0.0,0.0,0.0,0.0,-1.9847625,0.191362,-1.0041885,5.8641434,-13.788176,-8.225334,-7.666397,-5.008638,-0.3962338,0.70475936
-16.66526,-69.27285,-26.911673,1.2475996,3.1883082,-3.1557884,-0.064145595,-0.52298975,0.14140967,0.25203493,-0.6053925,0.33662927,0.5804734,0.52758557,1.0003177,-0.40739483,-1.5572138,-1.0669305,2.4877574,1.5099465,-0.94669294,1.0417696,-0.41497785,-1.5764434,-1.0164793,2.4601674,1.4564463,-0.9961337,-1.0565453,0.58854645,0.5679917,-1.0296316,0.5890066,0.45243707,0.33243507,1.3084412,-0.5906143,1.5493573,-2.6316867,0.075209245,-0.5075751,0.14832687,-0.31816864,1.0509151,0.77647436,-0.20023005,0.07575091,0.59266955,0.13146596,0.2816714,-0.10065793,1.0,0.0,0.0,0.0,0.0,0.0,0.0,-1.9584411,0.19061431,-0.9993573,11.243796,-26.905382,-11.716425,-8.340084,-7.3108554,-0.93193054,0.28281212
-37.602943,-157.30971,-58.909542,-5.446624,5.824837,-4.670946,-0.31701934,-0.2586289,-0.34644678,-0.009102759,-0.6442347,-0.062388968,0.539251,0.49889407,1.0159067,-0.4496225,-1.5773537,-1.0809027,2.4539285,1.5103714,-0.9462443,1.0331236,-0.41307336,-1.5726573,-1.0273702,2.4644208,1.4608656,-0.9928063,-0.79837793,0.056557935,0.31550786,-1.109917,0.3688053,0.43667346,0.33113658,1.2821426,-0.58986664,1.543549,-2.6290555,0.075134054,-0.60525364,0.14914703,-0.31793213,1.0486895,0.77498186,-0.1985633,0.07637511,0.59509873,0.0678465,-0.06258483,-0.265112,1.0,0.0,0.0,0.0,0.0,0.0,0.0,-1.9321426,0.18986663,-0.9935489,26.516819,-53.561813,-25.275063,-8.334208,-22.733902,-2.0796716,-0.6609261
-12.583886,-143.75508,-50.716717,-19.479137,4.0516744,-5.3774314,0.4012165,0.33894834,-0.57779175,-0.16832201,-0.625537,-0.5178702,0.51578265,0.49805963,1.0670184,-0.47085252,-1.5894896,-1.0899239,2.412634,1.5124439,-0.9430004,1.0295836,-0.41695482,-1.5718486,-1.038759,2.46526,1.4651057,-0.9894942,-0.20521553,-0.5375218,0.0032860443,-1.1488335,-0.012374936,0.41719547,0.32981566,1.2558708,-0.58911896,1.5367645,-2.626427,0.07505894,-0.7028345,0.14996338,-0.320961,1.0447301,0.7735621,-0.19524783,0.07600154,0.5980833,0.08442304,-0.3831421,-0.44030362,1.0,0.0,0.0,0.0,0.0,0.0,0.0,-1.9058708,0.18911895,-0.9867645,59.478092,-59.74972,-31.014648,-4.00033,-38.51257,-2.6935577,-0.57089925
-2.8880272,-118.91824,-42.43457,-20.174477,3.1419256,-5.194953,0.43707025,0.5573193,-0.7213365,-0.4092702,-0.62155485,-0.52272934,0.5863647,0.3933516,1.0853155,-0.48908848,-1.6127757,-1.1009145,2.412987,1.5237421,-0.9501591,1.0323607,-0.42622787,-1.5746696,-1.0503023,2.462666,1.4692045,-0.98626506,0.4353849,-1.05841,-0.37338176,-1.1561561,-0.3423674,0.40405664,0.3198844,1.2296257,-0.5883713,1.5290049,-2.623801,0.074983895,-0.8003178,0.15115738,-0.32692719,1.0390866,0.7719879,-0.19044131,0.07474686,0.6018137,0.13038644,-0.6646845,-0.6066855,1.0,0.0,0.0,0.0,0.0,0.0,0.0,-1.8796257,0.18837127,-0.9790049,63.02221,-52.428757,-36.49855,-0.74107647,-33.172623,-2.316767,-1.2297273
5.3041477,-71.682106,-27.053211,-15.015797,1.6728503,-4.300658,0.27070105,0.64173466,-0.77394295,-0.55267817,-0.6303005,-0.5232626,0.6204887,0.24647991,1.0965341,-0.5036222,-1.6299374,-1.1133323,2.4103398,1.5312535,-0.96161705,1.0405756,-0.43943435,-1.5811355,-1.0618265,2.4574971,1.4732195,-0.9832343,0.9453448,-1.408982,-0.732724,-1.1507051,-0.57548106,0.39746043,0.29737562,1.2034073,-0.5876236,1.5202713,-2.6211777,0.07490893,-0.89770365,0.15296173,-0.33506775,1.0320097,0.7703047,-0.1843947,0.07295022,0.606059,0.19848406,-0.8613243,-0.7441546,1.0,0.0,0.0,0.0,0.0,0.0,0.0,-1.8534073,0.18762359,-0.9702713,49.490322,-35.329865,-34.489178,0.6177902,-23.332287,-1.6058147,-2.2939801
13.542793,-18.611475,-7.99821,-7.6154675,0.35569352,-3.0148544,0.16560166,0.6998565,-0.7990056,-0.5694774,-0.63757193,-0.44860768,0.6425634,-0.023127774,1.1105613,-0.5193349,-1.6380832,-1.1255836,2.4126363,1.5374758,-0.98554707,1.0525233,-0.45484334,-1.5903442,-1.0732877,2.4509435,1.4772154,-0.98061454,1.2739835,-1.5854213,-0.98026425,-1.1445684,-0.68184817,0.39819163,0.2503658,1.1772156,-0.5868759,1.5105646,-2.618557,0.074834034,-0.99499214,0.15547943,-0.34443665,1.0238973,0.7685383,-0.17749897,0.07087021,0.6105901,0.27433524,-0.95766747,-0.8392362,1.0,0.0,0.0,0.0,0.0,0.0,0.0,-1.8272156,0.18687591,-0.96056455,31.704521,-17.808365,-23.782015,0.66878796,-10.580659,-0.5627692,-4.611474
20.451054,22.490875,7.2105618,-3.0807161,-0.39600384,-2.0940468,0.16326098,0.7614331,-0.80301654,-0.60463774,-0.68420434,-0.21504813,0.593567,-0.2662423,1.1286665,-0.535145,-1.650808,-1.1417081,2.4294386,1.5365721,-1.0072387,1.0666472,-0.47099763,-1.6012657,-1.0849168,2.444569,1.4812056,-0.9786223,1.4563502,-1.6256807,-1.1283814,-1.1690756,-0.62251806,0.398099,0.18267809,1.1510506,-0.58612823,1.4998857,-2.615939,0.074759215,-1.0921834,0.15873337,-0.35425568,1.0151007,0.7666515,-0.17000091,0.068449095,0.6153534,0.3512174,-0.98282975,-0.9009522,1.0,0.0,0.0,0.0,0.0,0.0,0.0,-1.8010505,0.18612823,-0.94988567,17.6347,-4.0890455,-14.457059,-2.478695,6.007755,-0.35749674,-6.59174
24.9579,52.191616,19.757689,1.9781494,-0.123974144,-1.2462368,0.35026485,0.7958816,-0.78586924,-0.5684413,-0.7210421,0.26532778,0.52863663,-0.2750943,1.1462353,-0.54958457,-1.6581098,-1.157021,2.471102,1.5340693,-1.0061318,1.0817991,-0.48689252,-1.6128051,-1.0969827,2.4405217,1.4851614,-0.97726524,1.5343754,-1.5773443,-1.1629355,-1.2196262,-0.33215535,0.3946274,0.121178836,1.1249123,-0.58538055,1.4882356,-2.6133235,0.07468447,-1.1892774,0.16260147,-0.36398315,1.0059538,0.7644517,-0.16206096,0.06508959,0.6205749,0.40885034,-0.9632289,-0.9282487,1.0,0.0,0.0,0.0,0.0,0.0,0.0,-1.7749122,0.18538055,-0.9382356,7.677984,4.8496246,-3.606534,-5.1650047,29.124409,-0.4122138,-5.8392496
24.7224,70.725395,28.414122,8.338825,-0.13424826,-0.3396654,0.4322982,0.7729554,-0.7645796,-0.46614674,-0.73473036,0.3843223,0.5209204,-0.25196472,1.1590947,-0.5633505,-1.6594198,-1.1704557,2.4789538,1.5372535,-1.0024617,1.0970713,-0.5020059,-1.6237781,-1.109575,2.439694,1.4890906,-0.9764384,1.5253667,-1.4890563,-1.0770571,-1.2731142,0.0011023962,0.39290792,0.07093779,1.0987968,-0.5846329,1.4756153,-2.6107106,0.0746098,-1.2862744,0.16688538,-0.37322235,0.99675816,0.7617644,-0.15394582,0.06050226,0.62638247,0.44616506,-0.9029577,-0.9256657,1.0,0.0,0.0,0.0,0.0,0.0,0.0,-1.7487968,0.18463287,-0.92561525,-0.6788492,8.900833,8.092308,-5.4852962,33.45239,0.0067055225,-4.694238
14.810739,64.19915,24.879803,13.801905,-0.099030554,-0.0012662634,0.17393756,0.7376167,-0.76168925,-0.5037079,-0.73095655,0.24627255,0.52924544,-0.15324552,1.170833,-0.5781748,-1.6741489,-1.1826707,2.4643211,1.5420151,-0.99176294,1.1118246,-0.51629096,-1.633908,-1.1225679,2.441296,1.4930121,-0.9759797,1.4599509,-1.4082098,-0.9933296,-1.3079339,0.21334308,0.3926187,0.038122438,1.072712,-0.5838852,1.4620256,-2.6081004,0.074535206,-1.3831744,0.17139816,-0.38187408,0.98761016,0.7587255,-0.14580254,0.055080786,0.63248974,0.46356657,-0.843283,-0.9194539,1.0,0.0,0.0,0.0,0.0,0.0,0.0,-1.7227119,0.18388519,-0.91202563,-6.1534166,8.139753,7.847893,-3.5170317,21.293747,0.16177893,-3.0815392
4.1957874,48.4043,17.236626,17.032063,-0.11220062,0.011679031,-0.10367993,0.7167493,-0.77406853,-0.5452372,-0.71499705,0.027825315,0.5460284,-0.020821067,1.1834996,-0.5936978,-1.6884317,-1.1940676,2.4440787,1.5476149,-0.9780618,1.125794,-0.53003436,-1.6435363,-1.1356905,2.443684,1.4969412,-0.9757012,1.377184,-1.3629384,-0.9540555,-1.3133391,0.24710545,0.39322773,0.024525652,1.0466499,-0.5831375,1.4474678,-2.6054928,0.074460685,-1.4799775,0.17600632,-0.3900299,0.9784461,0.75560135,-0.13767852,0.04953691,0.6384805,0.4687876,-0.7999961,-0.92285573,1.0,0.0,0.0,0.0,0.0,0.0,0.0,-1.6966499,0.1831375,-0.8974678,-7.8989983,4.533839,3.5359144,-0.47466755,3.3548384,0.1366198,-1.3029717
-1.8521423,35.913467,11.03257,17.378433,-0.68177515,-0.10698301,-0.27991033,0.70133847,-0.7828669,-0.5762011,-0.6999869,-0.3572559,0.57056254,0.12827167,1.1959279,-0.6083211,-1.7011564,-1.2056892,2.4079585,1.5539975,-0.96287405,1.1389967,-0.5435851,-1.6531322,-1.1486871,2.4447408,1.5008894,-0.97541606,1.3022076,-1.352539,-0.962406,-1.2947474,0.058110353,0.3950292,0.029587785,1.0206146,-0.58238983,1.4319427,-2.6028879,0.07438624,-1.5766838,0.18071747,-0.39781952,0.969142,0.75262123,-0.1296152,0.044792257,0.6440146,0.47965762,-0.7630543,-0.9398849,1.0,0.0,0.0,0.0,0.0,0.0,0.0,-1.6706146,0.18238983,-0.8819427,-7.1936607,1.0084867,-1.1034608,1.9846678,-18.98971,0.11922121,0.42139664
0.06283569,32.371773,10.203255,16.113098,-0.8819121,-0.21352263,-0.23683771,0.73247856,-0.79329723,-0.5730315,-0.669716,-0.46130592,0.616608,0.09621528,1.2122446,-0.62291485,-1.7104354,-1.2156587,2.39861,1.5625502,-0.96579456,1.1517931,-0.5572236,-1.6629245,-1.1613233,2.4434285,1.5048872,-0.97508514,1.2727319,-1.3677706,-0.9852638,-1.2526838,-0.19444808,0.4009818,0.033901367,0.994606,-0.58164215,1.4154513,-2.6002855,0.07431187,-1.6732935,0.18558884,-0.40525055,0.95963955,0.74981767,-0.12168876,0.04121492,0.6490505,0.49794877,-0.72826,-0.9601654,1.0,0.0,0.0,0.0,0.0,0.0,0.0,-1.644606,0.18164214,-0.8654513,-2.7836561,-1.5696287,-2.4484277,4.333544,-25.345373,0.49957037,0.33769757
-0.8801651,25.068897,6.854476,15.339147,-0.5461315,-0.45843408,-0.31693172,0.74541277,-0.80984575,-0.65156275,-0.6324817,-0.5118597,0.6216183,-0.019150617,1.2263345,-0.6382082,-1.7280807,-1.2245715,2.3922424,1.567049,-0.9770002,1.1645514,-0.5711444,-1.6733139,-1.1733949,2.4397168,1.5089442,-0.9747981,1.2772834,-1.40042,-1.0570148,-1.1913853,-0.4303638,0.40665823,0.026660977,0.9686203,-0.5808945,1.3979944,-2.5976858,0.07423757,-1.7698065,0.19065094,-0.4124756,0.9498742,0.7472499,-0.11386683,0.038754594,0.6535671,0.5149971,-0.7127647,-0.98821265,1.0,0.0,0.0,0.0,0.0,0.0,0.0,-1.6186203,0.18089446,-0.8479944,0.5298376,-3.3444643,-7.206583,6.2946796,-23.728598,0.42104125,-0.81166625
3.3874435,29.327858,9.33876,13.853289,-0.52919674,-0.48274595,-0.1965537,0.75467294,-0.80851,-0.64834994,-0.6167416,-0.5381193,0.6249769,-0.062085107,1.2400187,-0.6519954,-1.7381488,-1.235069,2.3859048,1.5714419,-0.9810066,1.1775061,-0.58536273,-1.6843555,-1.1848752,2.4340672,1.5130545,-0.97461784,1.3014379,-1.4291003,-1.1198151,-1.1330533,-0.6102339,0.41209313,0.015043294,0.9426651,-0.5801468,1.3795731,-2.5950887,0.07416335,-1.866223,0.19591904,-0.4195404,0.9398431,0.7448538,-0.106121376,0.03718102,0.6576842,0.5368552,-0.6945584,-1.0142988,1.0,0.0,0.0,0.0,0.0,0.0,0.0,-1.5926651,0.18014678,-0.8295731,2.4498463,-2.9410124,-6.306076,5.9799433,-18.10776,0.40850043,-1.1964225
5.5153103,33.841415,11.972922,13.706922,-0.35334426,-0.34084293,-0.08950126,0.7463313,-0.8162458,-0.63512725,-0.5977077,-0.53955686,0.65092456,-0.094223335,1.2521392,-0.6669873,-1.7478682,-1.2446461,2.3801115,1.5781469,-0.9840402,1.1906725,-0.599829,-1.6958053,-1.1958311,2.4271207,1.5172335,-0.97457016,1.3218168,-1.4526665,-1.153746,-1.0827284,-0.7234678,0.4195727,0.0013921115,0.9167328,-0.5793991,1.3601884,-2.592494,0.0740892,-1.9625431,0.20136642,-0.42638397,0.9295914,0.7425175,-0.09846954,0.036179014,0.6615608,0.5551248,-0.6726243,-1.035259,1.0,0.0,0.0,0.0,0.0,0.0,0.0,-1.5667328,0.1793991,-0.81018835,2.082777,-2.4225712,-3.4491062,5.1654816,-11.445654,0.64079165,-1.3446933
8.119458,38.795223,14.736369,12.75366,-0.32632446,-0.231437,0.043279424,0.743556,-0.8209176,-0.62285906,-0.59772956,-0.5369683,0.6559493,-0.08183679,1.2650281,-0.68192077,-1.7580912,-1.255604,2.3734238,1.5828284,-0.9827538,1.2039801,-0.6144746,-1.7073696,-1.2064397,2.419457,1.5214869,-0.97463596,1.3338429,-1.468609,-1.1577221,-1.0532565,-0.7813323,0.4269375,-0.00903929,0.8908272,-0.5786514,1.3398412,-2.5899022,0.074015126,-2.0587668,0.20700836,-0.4329834,0.9191529,0.7401166,-0.09090036,0.035479408,0.6653612,0.5733932,-0.6445629,-1.0531927,1.0,0.0,0.0,0.0,0.0,0.0,0.0,-1.5408272,0.17865142,-0.78984123,1.2733936,-1.6471624,-0.5085707,3.0660152,-5.90384,0.64260364,-0.97472084
9.480399,45.328144,18.160824,13.875685,-0.300574,0.023410648,0.11292055,0.7409529,-0.8178458,-0.59470487,-0.56604284,-0.54653543,0.6753086,-0.079642445,1.2780753,-0.6962592,-1.7668401,-1.263044,2.3648033,1.5890177,-0.9826002,1.2173411,-0.6291984,-1.7187374,-1.2167451,2.4114575,1.5258223,-0.9747895,1.3370494,-1.4738281,-1.1301454,-1.0226102,-0.80677086,0.4357913,-0.017108,0.8649483,-0.577919,1.3185326,-2.5873127,0.07394113,-2.154894,0.2128067,-0.43920898,0.9086193,0.7375603,-0.083482526,0.03490154,0.66919154,0.5869985,-0.6067407,-1.0597745,1.0,0.0,0.0,0.0,0.0,0.0,0.0,-1.5149482,0.177919,-0.7685326,0.4132986,-0.5622864,2.6135445,3.1564236,-2.6686192,0.84322095,-0.7088894
5.0881443,47.45564,18.671425,18.506317,0.060845315,0.32519034,-0.015887335,0.73183626,-0.81587493,-0.60440224,-0.48133007,-0.5861615,0.6923909,-0.0697406,1.2905247,-0.71078587,-1.7791775,-1.2648782,2.3528414,1.5950614,-0.98176354,1.2306544,-0.6439193,-1.72984,-1.2264383,2.4032292,1.530255,-0.975006,1.3297508,-1.4716643,-1.1040888,-0.95121205,-0.8284629,0.4460953,-0.022810416,0.83909225,-0.5771866,1.2962633,-2.5847259,0.0738672,-2.2509255,0.21859741,-0.44509888,0.8981342,0.7349116,-0.07637178,0.03439372,0.6729705,0.58404696,-0.5712763,-1.050807,1.0,0.0,0.0,0.0,0.0,0.0,0.0,-1.4890922,0.17718658,-0.7462633,-0.6238699,0.16348362,2.5150537,7.2273254,-2.342701,1.0672331,-0.49202517
1.1413517,44.71785,16.592123,20.317629,0.35631895,0.32133713,-0.12318654,0.72867453,-0.8192315,-0.6371052,-0.43720967,-0.6073181,0.6820293,-0.019365251,1.3035219,-0.7258424,-1.7935506,-1.2701592,2.3424973,1.5984579,-0.97694254,1.2438666,-0.65861446,-1.7408855,-1.2352884,2.3947911,1.5347773,-0.97523296,1.3186467,-1.4690408,-1.1048255,-0.8625991,-0.849535,0.45428458,-0.022498984,0.81326675,-0.57645416,1.2730346,-2.5821416,0.07379335,-2.346861,0.22431564,-0.45069122,0.88774115,0.73228073,-0.069597535,0.033978175,0.6765844,0.5732459,-0.54742837,-1.0412433,1.0,0.0,0.0,0.0,0.0,0.0,0.0,-1.4632667,0.17645416,-0.72303456,-1.000309,0.19147396,-0.1121521,8.974481,-2.3128867,0.864017,0.084009394
1.9024062,39.57292,13.57397,16.210205,0.25004613,-0.045704708,-0.088031635,0.7309569,-0.82343787,-0.6796264,-0.46962154,-0.6007539,0.6621376,0.024877349,1.3169622,-0.7409582,-1.8088481,-1.2822505,2.3347158,1.600991,-0.97274524,1.256991,-0.6733039,-1.7522075,-1.2435625,2.3862119,1.5393511,-0.975418,1.3107117,-1.4692298,-1.1415112,-0.8152435,-0.8613978,0.45814952,-0.01698511,0.78746414,-0.57572174,1.2488471,-2.57956,0.073719576,-2.4427001,0.23000336,-0.45612335,0.8772883,0.72969145,-0.06293579,0.033701107,0.68003947,0.57335323,-0.5337754,-1.0523326,1.0,0.0,0.0,0.0,0.0,0.0,0.0,-1.4374641,0.17572173,-0.6988471,-0.67579746,-0.0980854,-3.7168503,4.8919916,-1.3753295,0.3354907,0.59253645
7.341047,39.280045,13.787387,10.337767,-0.24044526,-0.32570538,0.09373996,0.7354284,-0.82350826,-0.67834026,-0.51562566,-0.6094652,0.65852094,0.07921305,1.3305339,-0.75565475,-1.8200415,-1.295125,2.3252654,1.6052032,-0.9674967,1.2700831,-0.68800193,-1.7639072,-1.2517984,2.3775334,1.5439459,-0.97550476,1.3091558,-1.4702382,-1.1800107,-0.82601684,-0.87044424,0.4594223,-0.0057721287,0.76168823,-0.5749893,1.223702,-2.576981,0.073645875,-2.5384438,0.23583221,-0.46139526,0.8665881,0.7270225,-0.05613499,0.03360554,0.68348926,0.59217274,-0.5139602,-1.0815547,1.0,0.0,0.0,0.0,0.0,0.0,0.0,-1.4116882,0.17498931,-0.67370194,-0.033187866,-0.16722679,-3.9603472,-0.90771914,-1.0517597,-0.02104044,1.173505
9.963501,41.397842,15.235975,8.112297,-0.47762498,-0.2912089,0.20397829,0.72512233,-0.8225313,-0.6654225,-0.5269599,-0.6097914,0.6724283,0.101971835,1.3425953,-0.7702551,-1.8304495,-1.3044944,2.3165543,1.6111888,-0.9653076,1.283135,-0.70270663,-1.7758625,-1.2603471,2.368794,1.5485579,-0.9754666,1.3043604,-1.4707235,-1.2012068,-0.86404145,-0.8755449,0.46107474,0.0072573805,0.735939,-0.5742569,1.1976001,-2.5744045,0.07357224,-2.6340916,0.24188995,-0.46639252,0.85556537,0.7241534,-0.049098022,0.03368298,0.6870638,0.61609447,-0.48551905,-1.114676,1.0,0.0,0.0,0.0,0.0,0.0,0.0,-1.385939,0.17425689,-0.6476001,-0.34406185,-0.10342598,-2.2754908,-3.6335588,-0.6452799,-0.012695789,1.3695868
11.146788,43.99473,16.812607,7.418889,-0.604723,-0.16256061,0.27553093,0.7151046,-0.82064515,-0.6581113,-0.54455894,-0.61414325,0.67705804,0.144887,1.3546455,-0.78477114,-1.8416736,-1.314803,2.3073797,1.6162636,-0.9609779,1.2961031,-0.71740466,-1.7878978,-1.2693689,2.3600125,1.5531851,-0.9752759,1.2945739,-1.4696255,-1.204944,-0.91443384,-0.87953347,0.46287358,0.023283487,0.7102127,-0.5735245,1.1705425,-2.5718307,0.07349868,-2.7296438,0.24819565,-0.47105408,0.84422165,0.72099763,-0.041822623,0.03390888,0.6908425,0.6400186,-0.44936484,-1.1463568,1.0,0.0,0.0,0.0,0.0,0.0,0.0,-1.3602127,0.17352447,-0.62054247,-0.829649,0.06546974,-0.56283474,-4.873848,-0.52678585,-0.0010967255,1.6802632
10.084024,48.107513,19.051264,9.994034,-0.48017192,0.14516349,0.25187352,0.70799106,-0.81800085,-0.6373009,-0.5225705,-0.6181216,0.69057286,0.13995367,1.3669022,-0.79920477,-1.851628,-1.321626,2.2982004,1.6222425,-0.9612805,1.3089491,-0.73207694,-1.7998054,-1.2787111,2.3511891,1.5578448,-0.97494113,1.2816739,-1.4665936,-1.1866056,-0.9403429,-0.8835455,0.46635744,0.037130766,0.6845131,-0.57279205,1.1425301,-2.5692594,0.073425196,-2.8251004,0.2546692,-0.47532654,0.8326657,0.7175424,-0.034446202,0.034232907,0.69481975,0.65467215,-0.4082081,-1.1639047,1.0,0.0,0.0,0.0,0.0,0.0,0.0,-1.3345131,0.17279205,-0.5925301,-1.1480093,0.26373863,1.6569138,-2.4464726,-0.54336786,0.22401214,1.4725957
5.1042643,53.583187,21.521814,17.119347,-0.010859132,0.65119886,0.0937399,0.698671,-0.81286156,-0.60761935,-0.42836812,-0.6464854,0.705299,0.14092214,1.3788162,-0.8133631,-1.8605673,-1.3215479,2.2865405,1.6283747,-0.9608489,1.3216425,-0.74669677,-1.8113639,-1.2877481,2.3422513,1.5625521,-0.9744843,1.2655374,-1.4606221,-1.1461004,-0.89126736,-0.898094,0.47242883,0.048839215,0.6588402,-0.57205963,1.1135638,-2.5666907,0.073351786,-2.9204617,0.2611351,-0.479187,0.82115626,0.7138904,-0.027285252,0.034604333,0.6988694,0.64836276,-0.36872882,-1.1515943,1.0,0.0,0.0,0.0,0.0,0.0,0.0,-1.3088402,0.17205963,-0.56356376,-1.5065908,0.55384636,3.9546967,5.0070643,-1.6336322,0.6154716,1.2521989
0.8744869,49.551014,18.627312,18.709293,0.32535762,0.5850271,-0.03884986,0.69568366,-0.81753516,-0.6557658,-0.4125279,-0.65286463,0.6939796,0.1698248,1.3912109,-0.82845026,-1.8769405,-1.3290008,2.276965,1.63195,-0.9575018,1.334191,-0.76128703,-1.8227737,-1.2961366,2.333157,1.567309,-0.9739045,1.2516696,-1.4586676,-1.139548,-0.8208095,-0.9141928,0.47692597,0.06119192,0.63319016,-0.5713272,1.0836446,-2.5641246,0.07327845,-3.0157275,0.26750183,-0.48278046,0.80974656,0.71017766,-0.020404775,0.03504299,0.7028537,0.63588756,-0.34453875,-1.1420537,1.0,0.0,0.0,0.0,0.0,0.0,0.0,-1.2831901,0.1713272,-0.5336446,-1.29323,0.13258457,0.6205797,7.1721554,-1.8064737,0.4603386,1.294899
1.0635791,43.68976,14.944056,14.465431,0.16168606,0.22093219,-0.05076568,0.68651944,-0.8149379,-0.7049528,-0.4690568,-0.654299,0.663278,0.12488448,1.4028429,-0.8427808,-1.893269,-1.3430423,2.2677271,1.6336368,-0.96141607,1.3465983,-0.7758592,-1.8344429,-1.3041608,2.3239179,1.5720793,-0.9732493,1.2376562,-1.4570332,-1.1761395,-0.79583687,-0.92749894,0.4767089,0.06712648,0.60757065,-0.5705948,1.0527735,-2.5615609,0.07320519,-3.110898,0.27381516,-0.4861908,0.7982478,0.70645756,-0.013557448,0.0356383,0.7067275,0.6334816,-0.3271451,-1.1569159,1.0,0.0,0.0,0.0,0.0,0.0,0.0,-1.2575706,0.17059478,-0.50277346,-1.2835026,0.089883804,-3.7126303,2.6765466,-1.5116096,-0.107723475,0.63120425
1.6616197,40.318913,13.297433,11.206015,0.0099208355,0.090102464,-0.029835537,0.6690042,-0.82442284,-0.7043515,-0.49440846,-0.66586196,0.6632248,0.004286308,1.4134986,-0.85830146,-1.904878,-1.3536017,2.2573316,1.6384017,-0.9728207,1.3588244,-0.79046756,-1.8465164,-1.3122232,2.314549,1.57684,-0.972638,1.2179625,-1.4623848,-1.2179027,-0.8090672,-0.9409081,0.47513157,0.059281014,0.581974,-0.56986237,1.0209514,-2.5589998,0.073132,-3.2059736,0.28014374,-0.48940277,0.7864825,0.7027213,-0.006532824,0.036417417,0.7105025,0.63603026,-0.30920595,-1.1874086,1.0,0.0,0.0,0.0,0.0,0.0,0.0,-1.231974,0.16986236,-0.47095138,-1.8321514,-0.61085224,-4.2644024,-1.1096716,-1.5083671,-0.30992627,-0.7469356
1.2216988,40.390217,13.125881,9.616266,-0.1216414,0.14722086,-0.013437018,0.6408019,-0.82052356,-0.7104238,-0.51891935,-0.68174684,0.6570703,-0.068933405,1.4229046,-0.8725199,-1.9175588,-1.3641151,2.2463744,1.6425471,-0.97953135,1.3707606,-0.805116,-1.8589675,-1.3206289,2.3050275,1.5815741,-0.9721688,1.1858593,-1.4659151,-1.2547122,-0.8502172,-0.9565961,0.4724432,0.042992048,0.5564041,-0.56912994,0.9881792,-2.5564413,0.07305888,-3.300954,0.2864952,-0.49240875,0.7743658,0.6989496,0.0007730425,0.03740467,0.7141916,0.6382536,-0.28641024,-1.2239909,1.0,0.0,0.0,0.0,0.0,0.0,0.0,-1.2064041,0.16912994,-0.4381792,-3.0454397,-0.4266262,-3.8026333,-3.8866878,-1.73527,-0.45264363,-1.598072
-2.209446,39.30889,12.391904,9.314336,-0.00535661,0.3391192,-0.037635922,0.5904568,-0.8322925,-0.69991666,-0.5603987,-0.679654,0.64277583,-0.23061812,1.4298062,-0.88834524,-1.9289593,-1.3766687,2.237062,1.6458516,-0.9952306,1.3821875,-0.8198455,-1.8716342,-1.3296278,2.29538,1.5862738,-0.97197807,1.1289678,-1.4755472,-1.27117,-0.9157113,-0.9679146,0.46835762,0.011213726,0.5308609,-0.5683975,0.95445794,-2.5538855,0.072985835,-3.3958397,0.29281235,-0.49518585,0.761855,0.6951567,0.0084090475,0.038548473,0.7177747,0.63162893,-0.2630134,-1.2643241,1.0,0.0,0.0,0.0,0.0,0.0,0.0,-1.1808609,0.16839752,-0.40445793,-5.490732,-1.0380507,-1.8047571,-6.296718,-1.3087869,-0.6035507,-3.140439
-19.32715,37.338806,8.656847,14.352114,0.7782108,0.9761789,-0.23104116,0.44489613,-0.82917535,-0.6872098,-0.61019194,-0.6773375,0.6456379,-0.28169367,1.4266771,-0.902763,-1.9403552,-1.3906469,2.2276464,1.6508375,-1.0001475,1.3924433,-0.8346475,-1.8843086,-1.3394239,2.2856526,1.5909392,-0.97213066,0.99214256,-1.4820485,-1.266701,-0.99988186,-0.9747836,0.46544772,-0.024048882,0.5053406,-0.5676651,0.9197886,-2.5513322,0.072912864,-3.4906304,0.29878235,-0.497818,0.74895865,0.6914911,0.016384369,0.039784152,0.7211024,0.5870165,-0.25251806,-1.3019873,1.0,0.0,0.0,0.0,0.0,0.0,0.0,-1.1553406,0.1676651,-0.3697886,-13.394737,-0.746727,0.2642393,-8.121788,-0.93905926,-0.43569803,-3.5258799
-92.46516,20.87464,-12.424532,37.258423,4.3882127,2.9762044,-1.1825335,-0.06545024,-0.8243218,-0.68005466,-0.682597,-0.663973,0.627654,-0.25411043,1.3858982,-0.9170797,-1.952314,-1.4076836,2.2192554,1.6537045,-0.9975417,1.3990885,-0.8494771,-1.8968456,-1.3502328,2.275906,1.595574,-0.97259414,0.55716205,-1.4841748,-1.2498156,-1.1063187,-0.9762167,0.4626739,-0.05441465,0.47984695,-0.5669327,0.884172,-2.5487814,0.07283997,-3.5853262,0.30320358,-0.50097656,0.73568773,0.6887263,0.024757406,0.04103081,0.7234359,0.39433873,-0.3245766,-1.3391262,1.0,0.0,0.0,0.0,0.0,0.0,0.0,-1.1298469,0.16693267,-0.334172,-42.911793,-0.45855045,1.5456676,-10.126162,-0.73907375,-0.27819276,-3.215266
-166.60449,7.746387,-33.12989,60.995533,8.15547,4.963256,-2.0514977,-0.58346254,-0.7993496,-0.6967314,-0.73864543,-0.5979207,0.61365396,0.09275241,1.3407422,-0.92941207,-1.9665188,-1.4240974,2.216114,1.6569394,-0.9633189,1.3992773,-0.86420566,-1.9092853,-1.3621404,2.2663388,1.6001669,-0.97306716,-0.15769328,-1.470741,-1.2421533,-1.2158507,-0.9537634,0.45789525,-0.045854915,0.45438004,-0.56620026,0.84760916,-2.5462332,0.072767146,-3.6799273,0.3045807,-0.5055084,0.72208166,0.68777645,0.033618685,0.042147893,0.7239178,0.052361507,-0.48484695,-1.3708477,1.0,0.0,0.0,0.0,0.0,0.0,0.0,-1.10438,0.16620025,-0.29760915,-70.61047,0.839448,0.7158518,-10.032749,1.1714339,-0.58946013,0.6049946
-154.0797,14.18379,-27.267168,57.04076,7.936664,4.8213897,-1.6702985,-0.6740369,-0.81598914,-0.65131336,-0.7721795,-0.4538127,0.5422614,0.37169307,1.3318737,-0.9458046,-1.9744166,-1.4393584,2.2209575,1.6543931,-0.9358978,1.3928381,-0.8788751,-1.9214733,-1.3750246,2.2574315,1.6046473,-0.9731978,-0.80328524,-1.4676536,-1.2111164,-1.3086679,-0.87370473,0.4431258,-0.0021289762,0.428936,-0.56546783,0.81010103,-2.5436876,0.07269439,-3.7744339,0.30267715,-0.51155853,0.70822364,0.6885926,0.04298071,0.042738162,0.7226107,-0.27349055,-0.6338336,-1.3932017,1.0,0.0,0.0,0.0,0.0,0.0,0.0,-1.078936,0.16546783,-0.26010102,-63.735027,-0.28600693,3.0316591,-8.138776,6.874573,-1.9196391,4.3865366
-108.123024,25.826265,-13.223242,42.762928,5.8779,3.7178216,-1.0721835,-0.692668,-0.8246686,-0.68019015,-0.763904,-0.4015164,0.5251045,0.37703577,1.3235713,-0.9613419,-1.9894923,-1.451415,2.21728,1.6571578,-0.93549424,1.381539,-0.89357597,-1.9335105,-1.3885133,2.249455,1.6089655,-0.9728764,-1.2368336,-1.4725507,-1.2016071,-1.358918,-0.7753234,0.42603523,0.0442703,0.40351868,-0.5647354,0.7716486,-2.5411444,0.07262171,-3.868846,0.29818344,-0.5187073,0.69416744,0.6906269,0.052784868,0.042571757,0.72002494,-0.51303047,-0.731702,-1.4117782,1.0,0.0,0.0,0.0,0.0,0.0,0.0,-1.0535187,0.1647354,-0.22164857,-42.76004,-0.98626614,0.87099075,-3.98798,8.951389,-2.2738338,4.8321466
-62.385372,36.653484,0.18247223,28.410519,3.7584827,2.571792,-0.5721607,-0.73595065,-0.8203131,-0.72338736,-0.7628844,-0.30659476,0.4979783,0.2959167,1.3079439,-0.9756073,-2.0058494,-1.4648018,2.2187955,1.6587633,-0.94328475,1.3674284,-0.9083131,-1.9457195,-1.4022577,2.2426229,1.6131064,-0.97218406,-1.4677846,-1.4750999,-1.2277374,-1.3771156,-0.6543441,0.40859327,0.07848052,0.37812805,-0.564003,0.7322527,-2.5386038,0.072549105,-3.9631636,0.2919731,-0.526474,0.6799235,0.69334155,0.062993884,0.041572433,0.7166456,-0.66452634,-0.7797527,-1.4303218,1.0,0.0,0.0,0.0,0.0,0.0,0.0,-1.028128,0.16400298,-0.1822527,-22.734142,-0.5817652,-2.6759624,-1.059413,11.525083,-2.2323966,3.670399
-29.85948,45.313663,10.7345295,19.414087,2.8892868,1.819162,-0.3088688,-0.77729803,-0.8182929,-0.7352146,-0.75681406,0.078773275,0.4781808,0.014252152,1.2896986,-0.9901424,-2.0192409,-1.4779391,2.2505002,1.6609244,-0.97075886,1.3520819,-0.9230502,-1.9582832,-1.4160116,2.2379727,1.6170813,-0.971403,-1.5562845,-1.4738059,-1.2661992,-1.3731761,-0.4025717,0.39258176,0.07915711,0.35276031,-0.5632782,0.69190633,-2.5360658,0.07247657,-4.058452,0.28466034,-0.5345764,0.6655313,0.69643325,0.073621236,0.039290432,0.71275306,-0.7612308,-0.80603534,-1.4436646,0.0,1.0,0.0,0.0,0.0,0.0,0.0,-1.0027603,0.16327819,-0.14190632,-8.669686,-0.049448013,-3.8757086,0.872159,24.878996,-1.9767165,0.40532202
-7.8067794,53.02915,19.210287,14.065476,2.28682,1.4446182,-0.16644391,-0.7912104,-0.81100833,-0.7279778,-0.7425405,0.38012657,0.45740584,-0.22872421,1.2729609,-1.0041511,-2.031081,-1.4902656,2.2759855,1.6628219,-0.99427545,1.3364508,-0.93764096,-1.9716967,-1.4300789,2.23654,1.620205,-0.9707605,-1.5644999,-1.4547176,-1.3665922,-1.4158002,-0.058285132,0.27238226,0.059021547,0.33518982,-0.5657425,0.6818045,-1.5875419,-0.29572603,0.0003524038,0.27676773,-0.5429001,0.6508003,0.69970435,0.0852851,0.03546579,0.70843655,-0.8052043,-0.82662237,-1.4849192,0.0,1.0,0.0,0.0,0.0,0.0,0.0,-0.9851898,0.16574249,-0.13180447,0.27418137,0.6561279,-2.9142141,2.6421547,33.68398,-2.236718,-2.5380955
64.17734,176.0,110.0,110.0,-3.5279913,12.221415,-0.91896254,-0.69486344,0.5994036,0.71176887,0.6726921,-0.35214618,0.6717151,-0.39686537,1.2669644,-0.8777006,-1.9005198,-1.3628097,2.2013254,1.6873765,-1.010447,1.3259985,-0.9531029,-1.9828147,-1.4298443,2.223982,1.6342031,-0.9684116,-0.87573457,-1.5752071,-1.0212007,0.4981449,-1.6494731,1.7847124,0.28979918,0.3193245,-0.5687027,0.6810636,-1.5859547,-0.29543036,-0.0988991,0.2682686,-0.54976654,0.6404472,0.70372987,0.08537036,0.03516883,0.7044425,-0.8720492,-0.62427676,-0.8849386,1.0,0.0,0.0,0.0,0.0,0.0,0.0,-0.96932447,0.16870269,-0.13106358,67.772484,-11.629915,36.211704,189.87262,-157.42326,154.0351,21.93169
-13.800463,176.0,88.84078,95.79619,3.2785692,6.6880136,-1.4213983,-0.81755376,-0.6038748,0.19147125,0.75542897,-0.5562267,0.48709413,-0.27945122,1.2442431,-1.0134903,-1.9636675,-1.3543013,2.1683595,1.6829125,-0.9963567,1.317425,-0.96828157,-1.9879874,-1.4175228,2.2056181,1.6519624,-0.96603507,-0.85068476,-1.5001366,-0.34586373,1.4770558,-1.9030824,1.7786919,0.22127345,0.30347443,-0.5716553,0.6793309,-1.5843691,-0.295135,-0.19805138,0.2588272,-0.556015,0.6352671,0.7091496,0.07714743,0.03664458,0.6998659,-0.9707148,-0.6131712,-0.39960697,1.0,0.0,0.0,0.0,0.0,0.0,0.0,-0.9534744,0.17165527,-0.12933087,2.6765943,7.1095467,68.55283,97.946846,-26.672888,1.1268616,-6.5746603
-56.78259,128.33752,41.59097,67.90177,4.349582,3.9652438,-1.7257454,-0.82303,-0.5056493,-0.35606775,0.66338,-0.5338658,0.60613936,-0.25030476,1.235122,-1.0188465,-2.0235941,-1.3511848,2.1522315,1.7125764,-0.99106556,1.307833,-0.98161393,-1.990198,-1.3996795,2.18759,1.6687795,-0.96424407,-0.9934882,-1.2788098,-0.17981374,1.8881148,-1.7718202,1.652388,0.16562481,0.28763962,-0.5746002,0.67660743,-1.582785,-0.29483992,-0.29710454,0.24807358,-0.5624924,0.63309413,0.7161299,0.0663286,0.038592007,0.6937356,-1.1109077,-0.6509964,-0.1640065,1.0,0.0,0.0,0.0,0.0,0.0,0.0,-0.9376396,0.17460021,-0.12660742,-13.703764,21.748114,16.551422,41.58039,12.420249,-11.691546,-5.413878
-62.823902,85.27966,17.117943,40.50688,3.9034786,2.2496505,-1.1975222,-0.8240727,-0.567576,-0.25541756,0.740295,-0.56489056,0.52755475,-0.12388286,1.2254257,-1.0383716,-2.0157397,-1.3256501,2.131101,1.721535,-0.97663236,1.2963068,-0.99309045,-1.9918555,-1.380545,2.172022,1.6838514,-0.9629175,-1.2041266,-1.104668,-0.16239756,1.9230025,-1.4859927,1.4602792,0.12207025,0.27182007,-0.57754517,0.6728942,-1.5812025,-0.29454514,-0.39605868,0.23603058,-0.56933594,0.6320659,0.7242492,0.05570184,0.040452123,0.68609333,-1.2394583,-0.6863279,-0.09050938,0.0,1.0,0.0,0.0,0.0,0.0,0.0,-0.92182004,0.17754516,-0.12289417,-20.62993,17.17279,1.3424605,3.8449526,28.314638,-18.796516,-4.2441726
-56.571213,37.6242,-5.9718933,16.769539,2.9741263,0.47978958,-0.8062432,-0.82736427,-0.6112174,-0.39668694,0.7231286,-0.49318683,0.5214176,-0.16777188,1.2135705,-1.0542122,-2.0315242,-1.3082322,2.1227033,1.7359931,-0.9796947,1.2829173,-1.0035064,-1.9947833,-1.3625969,2.1594756,1.6970788,-0.9619991,-1.3831033,-1.0207957,-0.33787015,1.7529867,-1.1770103,1.2771127,0.082064204,0.2560234,-0.5804901,0.66819215,-1.5796217,-0.29425067,-0.49491388,0.2229538,-0.5765915,0.63064754,0.73306423,0.046956055,0.04191184,0.67724097,-1.3351015,-0.7283164,-0.16591139,0.0,1.0,0.0,0.0,0.0,0.0,0.0,-0.9060234,0.1804901,-0.11819214,-17.656971,8.309031,-18.03874,-16.736626,31.019878,-18.269276,-3.9315834
-34.93652,30.05345,-3.466013,5.851981,1.8022097,0.010960937,-0.40136585,-0.8303962,-0.5881208,-0.3340169,0.7361245,-0.37592763,0.51222277,-0.31607723,1.1998776,-1.0623186,-2.028185,-1.2889844,2.121883,1.7483011,-0.99360687,1.268225,-1.0134609,-1.9993056,-1.3466324,2.1498473,1.708645,-0.9615423,-1.4977833,-0.9873301,-0.49130574,1.544895,-0.89186376,1.1159941,0.033770364,0.240242,-0.58343506,0.6625022,-1.5780424,-0.2939565,-0.59367025,0.20922089,-0.5840912,0.62830967,0.7422067,0.04044511,0.042766515,0.66758096,-1.3901739,-0.74660677,-0.26190782,0.0,1.0,0.0,0.0,0.0,0.0,0.0,-0.890242,0.18343505,-0.11250222,-11.377668,3.280592,-15.613526,-20.64569,28.45608,-16.219353,-4.766847
-19.242714,28.687687,1.168452,2.424593,2.0047736,-0.18597156,-0.22455682,-0.83673173,-0.58895487,-0.3412826,0.7135437,0.12158353,0.45904613,-0.38223562,1.1845518,-1.0723563,-2.033434,-1.275278,2.1620057,1.7545496,-0.9997659,1.2528403,-1.0233638,-2.0050576,-1.3325447,2.1439192,1.7187463,-0.961569,-1.5518727,-0.991439,-0.6033266,1.3638088,-0.4933555,0.9739587,-0.014284944,0.22447586,-0.5863724,0.6558255,-1.5764647,-0.29366258,-0.69232786,0.19503784,-0.59181976,0.6250527,0.7515096,0.035977423,0.042329002,0.65737903,-1.4331627,-0.7689055,-0.3510908,0.0,1.0,0.0,0.0,0.0,0.0,0.0,-0.87447584,0.18637237,-0.105825484,-5.3861856,-0.46963692,-11.323273,-17.98706,39.692844,-14.4611,-4.634232
-5.4879336,35.33084,8.831137,0.8152292,2.0036983,-0.05298966,-0.08320018,-0.84698826,-0.584197,-0.3212856,0.63349897,0.5101023,0.4075833,-0.4898855,1.1681415,-1.0817835,-2.0371861,-1.2691948,2.1949294,1.7595047,-1.0105575,1.2372103,-1.0334046,-2.0114393,-1.3201411,2.142445,1.7274884,-0.96212727,-1.566435,-1.0083978,-0.6529575,1.1976138,-0.042155184,0.83232903,-0.07107207,0.20790863,-0.58932495,0.6498449,-1.7686102,-0.2989803,-0.36871585,0.1805191,-0.5997009,0.621057,0.76087016,0.033212755,0.039974913,0.64681953,-1.461547,-0.7821722,-0.42078277,0.0,1.0,0.0,0.0,0.0,0.0,0.0,-0.8579086,0.18932495,-0.09984487,-1.3995647,-1.7212749,-5.6761026,-16.95044,42.870747,-16.197884,-5.9532495
9.703458,99.86483,39.318108,13.369869,0.55649173,1.3805842,-0.08221929,-0.84503305,-0.31026697,-0.2078652,0.69081026,0.4240262,0.49431363,-0.49016434,1.152707,-1.0644313,-2.0322258,-1.25106,2.1848476,1.7769197,-1.0111437,1.2216163,-1.042352,-2.0174475,-1.3086493,2.1445394,1.735148,-0.9631927,-1.5576234,-0.8573966,-0.5818952,1.1323125,0.29144824,0.74287045,-0.11928956,0.19066238,-0.5921936,0.6467365,-1.7208451,-0.2818831,-0.29337907,0.16590118,-0.6072006,0.61745864,0.7702026,0.030969974,0.036432873,0.6360043,-1.4689769,-0.724536,-0.34234875,0.0,1.0,0.0,0.0,0.0,0.0,0.0,-0.84066236,0.1921936,-0.09673649,0.7087946,14.900732,7.4729204,-6.7955017,32.74782,-9.239328,-5.0827503
18.078552,151.65233,61.499306,23.66842,-0.62822217,2.4249907,-0.076314196,-0.84799856,-0.07896851,-0.14881812,0.6838845,0.43682596,0.52871925,-0.45988792,1.1368164,-1.0502489,-2.0323293,-1.2402608,2.188222,1.7880199,-1.0091815,1.2061591,-1.0486729,-2.0223048,-1.2974151,2.1490493,1.7420714,-0.96468616,-1.5427485,-0.5579535,-0.45197058,1.1189407,0.50311375,0.67587566,-0.16102602,0.17366791,-0.5947647,0.64520156,-1.6926166,-0.24927269,-0.10960795,0.15137482,-0.6137161,0.61546355,0.7794357,0.028102223,0.03275204,0.62499404,-1.4529234,-0.6138012,-0.15437151,0.0,1.0,0.0,0.0,0.0,0.0,0.0,-0.8236679,0.1947647,-0.09520155,1.2083292,29.647064,13.564003,-1.8023252,20.751709,-6.548047,-4.6590657
13.922556,154.57268,59.87638,27.436275,-0.91246986,2.4131947,-0.19529381,-0.83838826,0.008153377,-0.21631987,0.6981959,0.41433635,0.6097383,-0.49645537,1.1223203,-1.0478575,-2.0439367,-1.2275956,2.1904829,1.8030453,-1.0143317,1.190887,-1.0518792,-2.0262797,-1.2860017,2.1548638,1.7485029,-0.9665715,-1.5228394,-0.24254967,-0.3775216,1.14763,0.6067984,0.6324626,-0.19931018,0.15694046,-0.5970154,0.6454775,-1.6660365,-0.21696581,0.07201587,0.13703537,-0.61912537,0.61537534,0.78860205,0.024274215,0.029744446,0.613704,-1.4332404,-0.5028121,0.038115647,0.0,1.0,0.0,0.0,0.0,0.0,0.0,-0.80694044,0.19701537,-0.09547746,1.7342091,31.225082,7.994151,2.5112152,10.065735,-4.262173,-4.3249664
6.3607287,146.35172,52.69299,29.028015,-1.1939029,2.1882296,-0.30569428,-0.8347074,0.13648364,-0.28302115,0.7294993,0.26017803,0.65153503,-0.508274,1.1074163,-1.0382308,-2.0545819,-1.2130518,2.1808817,1.8136563,-1.017399,1.1757963,-1.0520203,-2.0301247,-1.274079,2.1607533,1.7546079,-0.96879935,-1.505096,0.061005257,-0.38504022,1.2063434,0.5820078,0.603154,-0.23220411,0.14045715,-0.59895325,0.6473505,-1.6428438,-0.18597578,0.22645938,0.12289429,-0.6234665,0.61704266,0.797759,0.0195667,0.028160157,0.60200053,-1.4118745,-0.39748415,0.20902963,0.0,1.0,0.0,0.0,0.0,0.0,0.0,-0.7904571,0.19895324,-0.09735048,1.5513659,30.033648,-0.26154518,5.632019,-2.7150154,-2.9393077,-3.741473
2.4408026,127.48478,44.008553,26.452164,-1.2193966,1.8718932,-0.25864282,-0.83336234,0.20247297,-0.2675181,0.7429087,0.15882015,0.66996604,-0.5151764,1.09246,-1.031773,-2.0568764,-1.1997881,2.1766353,1.8216045,-1.020317,1.1608425,-1.0496342,-2.0341985,-1.2615476,2.1658187,1.7604827,-0.9713161,-1.492847,0.29695678,-0.4131649,1.2681497,0.48044518,0.58211935,-0.25942406,0.12417221,-0.6006012,0.65047055,-1.6233789,-0.15719143,0.34227636,0.10896683,-0.62683105,0.6201252,0.80687666,0.014165591,0.028287059,0.58987206,-1.3902609,-0.30348805,0.3415789,0.0,1.0,0.0,0.0,0.0,0.0,0.0,-0.7741722,0.20060119,-0.10047054,1.0223389,23.29685,-2.3483157,6.012106,-10.394937,-2.1639466,-3.0975728
1.3602815,101.55725,34.344723,21.271065,-0.8651973,1.4406381,-0.1602988,-0.8253695,0.2151274,-0.24501379,0.75144726,0.1613211,0.6807291,-0.53910553,1.0783056,-1.0281215,-2.0586998,-1.1864028,2.1819508,1.8285556,-1.0252266,1.1460013,-1.0456307,-2.0384743,-1.2484878,2.1698596,1.7661871,-0.97408277,-1.4817767,0.4340826,-0.4310897,1.3180737,0.3780275,0.56639963,-0.2834003,0.1080513,-0.60198975,0.654399,-1.6084868,-0.13308394,0.41238004,0.095214844,-0.6294098,0.6241522,0.8158795,0.008299064,0.02981783,0.5773929,-1.3727237,-0.2298081,0.423943,0.0,1.0,0.0,0.0,0.0,0.0,0.0,-0.7580513,0.20198974,-0.104398966,0.93233585,13.474816,-1.3619065,4.8565626,-10.476613,-1.6398549,-2.6916325
5.3713427,95.03265,34.186665,18.642248,-0.76446116,1.4236703,0.012752934,-0.82407874,0.27479956,-0.144532,0.76458585,0.12486296,0.6960026,-0.53620577,1.0635935,-1.0181507,-2.0529275,-1.1720293,2.1823459,1.8357873,-1.0277033,1.1312402,-1.0406373,-2.0423954,-1.2350276,2.1729417,1.7717726,-0.97705543,-1.4749311,0.520225,-0.37730289,1.354814,0.2837469,0.55571955,-0.30286556,0.09207535,-0.60313416,0.65899616,-1.5940086,-0.107810415,0.47830862,0.08164978,-0.63126373,0.6289381,0.8246417,0.0019449935,0.032318357,0.5647279,-1.351983,-0.15694413,0.4979426,0.0,1.0,0.0,0.0,0.0,0.0,0.0,-0.7420753,0.20313415,-0.10899615,0.4853487,8.396238,5.889058,3.5269976,-9.727925,-1.1308074,-2.2299826
3.7045083,77.34359,26.993752,14.749992,-0.5713221,1.0958295,0.067587145,-0.82622397,0.27479848,-0.16783588,0.7605526,0.055656966,0.6812332,-0.54267335,1.0486178,-1.0131574,-2.0591788,-1.1589723,2.1785073,1.839896,-1.0313227,1.1165079,-1.0352051,-2.045832,-1.221357,2.1750898,1.7772563,-0.9801995,-1.4731447,0.5503022,-0.33087322,1.3708059,0.19100182,0.5460335,-0.31902152,0.076221466,-0.6040497,0.66399723,-1.5823457,-0.08576904,0.5102791,0.06827164,-0.63249207,0.63417876,0.8330964,-0.0047382237,0.035492163,0.5519677,-1.3339012,-0.098016284,0.5340091,0.0,1.0,0.0,0.0,0.0,0.0,0.0,-0.72622144,0.20404968,-0.11399722,0.010561943,2.847588,5.092245,1.459384,-9.540391,-0.978899,-1.852113
8.148829,74.867386,28.053324,12.808342,-0.4998486,1.0753683,0.20370068,-0.82303965,0.2839182,-0.053253144,0.76243764,0.036384065,0.68758136,-0.53344303,1.0342039,-1.0068133,-2.0511572,-1.1451132,2.1787283,1.8460144,-1.0335438,1.1017869,-1.0296891,-2.048357,-1.2076238,2.1764553,1.7826633,-0.98347604,-1.4723109,0.5515855,-0.22469561,1.3738087,0.117210835,0.5390374,-0.33125633,0.060489655,-0.6047363,0.6693298,-1.5701364,-0.062265877,0.54341817,0.055091858,-0.63311005,0.6397643,0.84115756,-0.011772892,0.039002266,0.53925335,-1.3116461,-0.039037064,0.5678247,0.0,1.0,0.0,0.0,0.0,0.0,0.0,-0.71048963,0.20473632,-0.11932981,-0.10023117,-0.015568733,11.124977,0.14827251,-7.695752,-0.69624186,-1.455301
3.8098295,66.31225,22.65231,11.937819,-0.3873039,0.8303722,0.14841309,-0.8283242,0.295825,-0.10829091,0.7595191,-0.035899546,0.6716069,-0.5189197,1.0189544,-1.0001066,-2.059186,-1.1316719,2.1728654,1.8498241,-1.035368,1.087043,-1.0242188,-2.050207,-1.193927,2.1770654,1.787998,-0.9868445,-1.4754825,0.5452467,-0.1704069,1.367863,0.041415144,0.53190714,-0.33935422,0.04486084,-0.6052017,0.6748405,-1.5600783,-0.041135404,0.5559895,0.042114258,-0.6332474,0.6455195,0.84883696,-0.018991413,0.04281749,0.5265754,-1.2935411,0.009778292,0.57884324,0.0,1.0,0.0,0.0,0.0,0.0,0.0,-0.6948608,0.20520172,-0.1248405,-0.46458244,-0.74732304,5.8370533,-0.7334471,-7.827132,-0.6730318,-1.0075808
3.013788,60.572548,19.691305,10.753233,-0.43017903,0.65375894,0.15066308,-0.8250462,0.28762713,-0.09506714,0.75549483,-0.1188367,0.6770356,-0.5058496,1.0045384,-0.9954561,-2.0597136,-1.1183776,2.1651816,1.8557016,-1.0374295,1.0722802,-1.0188706,-2.0516906,-1.1803238,2.1768363,1.7932742,-0.9902692,-1.47687,0.5310391,-0.13997826,1.3572884,-0.045135934,0.52658707,-0.344112,0.029335022,-0.60546875,0.6804009,-1.5501821,-0.020908382,0.55766237,0.029315948,-0.6329117,0.65128887,0.8561494,-0.02622782,0.04700571,0.513917,-1.273737,0.053111,0.57663816,0.0,1.0,0.0,0.0,0.0,0.0,0.0,-0.679335,0.20546874,-0.1304009,-0.26955605,-1.5141249,3.4029067,-1.1942387,-8.875277,-0.4587531,-0.659281
1.0511819,57.508076,17.46844,10.881404,-0.43754464,0.52997154,0.1267508,-0.826879,0.28118798,-0.09490361,0.75934345,-0.21674986,0.6785874,-0.49069977,0.98959225,-0.9907518,-2.0611808,-1.1043895,2.1551614,1.8611329,-1.0393392,1.057502,-1.0136807,-2.0530486,-1.1667988,2.175608,1.7985079,-0.99371964,-1.4784571,0.5144936,-0.13333145,1.3505163,-0.14927508,0.5225845,-0.34596282,0.0139045715,-0.6055298,0.6859398,-1.54057,-0.001102643,0.553499,0.016712189,-0.63217926,0.656978,0.8631109,-0.0333725,0.05168092,0.50125337,-1.2541091,0.09189565,0.5664296,0.0,1.0,0.0,0.0,0.0,0.0,0.0,-0.66390455,0.20552978,-0.13593978,-0.2729416,-1.738894,0.98605156,-0.80266,-10.609754,-0.3097415,-0.35887957
-2.9045038,49.12391,12.540267,10.325698,-0.37516743,0.28782564,0.064795904,-0.82651544,0.2590899,-0.15774539,0.7574772,-0.30643994,0.67526096,-0.4746814,0.9748505,-0.9877717,-2.068823,-1.0910511,2.144964,1.866034,-1.0411878,1.0427163,-1.0087273,-2.054731,-1.1533234,2.1732466,1.8037049,-0.99717087,-1.4788839,0.48863372,-0.17928432,1.3460574,-0.26520056,0.51903224,-0.34536034,-0.0014419556,-0.60541534,0.69131106,-1.5325549,0.015499513,0.53212976,0.0042686462,-0.63113403,0.6624193,0.86976737,-0.040220365,0.05697617,0.48850867,-1.2383811,0.11963185,0.5366017,0.0,1.0,0.0,0.0,0.0,0.0,0.0,-0.648558,0.20541534,-0.14131105,-0.12443066,-2.6472151,-4.363215,-0.55959225,-11.723289,-0.23596287,-0.09970069
-10.9755945,37.45925,5.1702337,10.493002,-0.10368934,-0.03219515,-0.074927166,-0.8308607,0.23151925,-0.28728512,0.7614587,-0.37117657,0.6505322,-0.4592449,0.9596302,-0.9855754,-2.0834594,-1.0771775,2.136129,1.8687581,-1.0430954,1.0279133,-1.004121,-2.0575156,-1.1398518,2.1697447,1.8088477,-1.0006031,-1.481027,0.45133656,-0.31145868,1.3472419,-0.37840313,0.51326424,-0.34293818,-0.016738892,-0.60517883,0.6962773,-1.5287253,0.02608049,0.48505434,-0.008106232,-0.62994385,0.6673527,0.8762173,-0.046430316,0.06302582,0.47551572,-1.2355467,0.12969296,0.4788697,0.0,1.0,0.0,0.0,0.0,0.0,0.0,-0.6332611,0.20517883,-0.14627731,-0.24094582,-3.7648559,-13.126662,0.0333786,-11.336702,-0.43957233,0.097721815
-13.3201685,29.89525,2.0400996,10.052132,0.21281043,-0.19169998,-0.11265665,-0.82814467,0.18457314,-0.32722726,0.7675752,-0.37737015,0.6434932,-0.43965855,0.9450989,-0.98566365,-2.0902383,-1.0630943,2.1320076,1.873197,-1.0445689,1.0131047,-1.000045,-2.061727,-1.1263249,2.1653311,1.8139307,-1.003998,-1.4809247,0.39306182,-0.45742115,1.3543087,-0.4623373,0.50686866,-0.33866897,-0.032016754,-0.604866,0.70069414,-1.5277573,0.033209532,0.4269588,-0.020523071,-0.6287384,0.67161584,0.88251483,-0.051833823,0.06971775,0.4621905,-1.2423248,0.12868981,0.40895668,0.0,1.0,0.0,0.0,0.0,0.0,0.0,-0.6179832,0.20486602,-0.15069413,0.015878677,-5.853367,-14.550239,0.64918995,-8.375793,-0.52737,0.28651357
-13.964569,22.26673,-0.02663982,9.075978,0.5597985,-0.29077864,-0.11033271,-0.8276451,0.1138695,-0.35709602,0.7726699,-0.37467143,0.6328086,-0.43644848,0.9303402,-0.988658,-2.0974367,-1.049058,2.127864,1.8772116,-1.047643,0.99830365,-0.99679005,-2.067247,-1.1126988,2.1603227,1.8189433,-1.0073489,-1.4796801,0.30284575,-0.58339417,1.3650959,-0.5134513,0.49962488,-0.33433262,-0.047309875,-0.60450745,0.70445216,-1.5296838,0.037133925,0.3585932,-0.0330925,-0.62758636,0.67510706,0.88867325,-0.056405175,0.076750316,0.44853947,-1.2587551,0.11874802,0.32940215,0.0,1.0,0.0,0.0,0.0,0.0,0.0,-0.6026901,0.20450744,-0.15445215,0.15695095,-9.0366955,-12.569559,1.0564327,-5.076808,-0.6464064,0.31124353
-8.75315,26.78603,3.70714,8.865472,0.6565281,-0.2097351,-0.024375807,-0.81763583,0.07211465,-0.33940145,0.7787961,-0.36703807,0.6264371,-0.42593324,0.9165401,-0.9895786,-2.101187,-1.0348191,2.1236188,1.881587,-1.0499423,0.9835627,-0.9944955,-2.0735679,-1.0989525,2.1550167,1.8238852,-1.0106505,-1.4722232,0.2049333,-0.6476449,1.3777181,-0.5364074,0.49245694,-0.3293329,-0.06260681,-0.6040802,0.70761806,-1.5297564,0.043919254,0.30231708,-0.045806885,-0.62654114,0.67790145,0.894649,-0.06031269,0.08380505,0.43467462,-1.2721995,0.11313783,0.26325637,0.0,1.0,0.0,0.0,0.0,0.0,0.0,-0.58739316,0.2040802,-0.15761805,0.7496357,-9.822234,-6.2995553,1.2449741,-2.349043,-0.69251657,0.38007498
-3.7481532,31.804674,7.312461,8.558704,0.66158146,-0.119837165,0.07121779,-0.810995,0.021249276,-0.32097462,0.7800592,-0.37149155,0.6144492,-0.39963338,0.9024632,-0.9923706,-2.1056654,-1.0209466,2.1178675,1.8853301,-1.0506139,0.9689238,-0.9932033,-2.0800948,-1.0851014,2.1495922,1.8287545,-1.0138855,-1.4611946,0.10384238,-0.6538367,1.3874947,-0.54480195,0.48510754,-0.32212502,-0.07788849,-0.60356903,0.71030086,-1.5271279,0.053928107,0.25719145,-0.058605194,-0.62548065,0.6801299,0.90038294,-0.06377112,0.09063804,0.42074743,-1.2803531,0.11333136,0.20979974,0.0,1.0,0.0,0.0,0.0,0.0,0.0,-0.5721115,0.20356902,-0.16030085,1.0718822,-10.152504,-0.3950596,0.9539604,-0.98018646,-0.7437289,0.6064296
-4.4047284,26.30745,5.771362,7.562558,0.8465145,-0.15860277,0.08893721,-0.81327784,-0.066692494,-0.3335027,0.7804701,-0.3581887,0.60613364,-0.3768449,0.887596,-0.9998725,-2.113445,-1.0070543,2.1137733,1.8893679,-1.0515699,0.9543697,-0.9930812,-2.0865338,-1.0711795,2.1441865,1.8335494,-1.0170383,-1.45355,-0.018468076,-0.63981444,1.3937407,-0.5396956,0.47754246,-0.31306812,-0.09315491,-0.60297394,0.71244955,-1.5265604,0.061487325,0.20171319,-0.071525574,-0.6244354,0.6817663,0.9058708,-0.06684476,0.097039856,0.40683293,-1.294678,0.10950816,0.14862382,0.0,1.0,0.0,0.0,0.0,0.0,0.0,-0.55684507,0.20297393,-0.16244954,0.75170994,-12.261373,1.6039252,0.63557625,0.38803816,-0.7750869,0.8306742
-2.9067063,38.390755,9.561263,9.582029,0.64720714,-0.017505348,0.11960472,-0.808607,-0.061780985,-0.34195948,0.7827027,-0.39672476,0.59778446,-0.33627036,0.87350905,-0.9992593,-2.1207297,-0.99290925,2.1045141,1.8933278,-1.0506654,0.9398853,-0.9938985,-2.0928166,-1.0572157,2.138744,1.8382719,-1.0200748,-1.4468507,-0.103021555,-0.6234524,1.3974167,-0.5465896,0.47048187,-0.30087963,-0.108379364,-0.6022568,0.71419716,-1.5211987,0.07542127,0.1663192,-0.08453369,-0.62338257,0.6829386,0.91109586,-0.06960241,0.10311678,0.39297158,-1.3001734,0.11723461,0.10699971,0.0,1.0,0.0,0.0,0.0,0.0,0.0,-0.5416206,0.20225677,-0.16419715,0.6207228,-8.524751,1.9241095,0.3665924,-0.90390444,-0.7425964,1.1174142
1.3631372,46.920364,13.503579,10.168573,0.58252054,0.10846132,0.1779937,-0.80026835,-0.105172135,-0.2723389,0.7821578,-0.3862008,0.6127147,-0.3275707,0.8598585,-1.0044158,-2.1200504,-0.9789999,2.1001241,1.8995433,-1.0528319,0.9254829,-0.9954587,-2.0986302,-1.0432384,2.1332586,1.8429447,-1.0229911,-1.4382502,-0.17394087,-0.5659558,1.3978864,-0.5498937,0.46621913,-0.2888516,-0.1235199,-0.60136414,0.7157018,-1.5113927,0.09423618,0.14629976,-0.09752655,-0.62215424,0.6838178,0.9160247,-0.07221592,0.1088794,0.37924758,-1.2974291,0.13348114,0.08168483,0.0,1.0,0.0,0.0,0.0,0.0,0.0,-0.5264801,0.20136413,-0.1657018,0.7712841,-7.1811557,6.1424255,0.02143383,-0.64697266,-0.4775226,1.091075
-1.3674244,57.871483,15.235575,13.234173,0.48653007,0.19736081,0.14135554,-0.80663884,-0.082711816,-0.3237704,0.7805952,-0.41028094,0.5904053,-0.27207336,0.84481907,-1.0037299,-2.1310072,-0.9651789,2.0922306,1.9019853,-1.0501984,0.9111187,-0.99737847,-2.1041536,-1.0292747,2.1276815,1.8475697,-1.0257586,-1.4361451,-0.1983098,-0.5462037,1.39571,-0.56125665,0.4610524,-0.27302757,-0.13853455,-0.600235,0.7171343,-1.4978929,0.11862297,0.1430738,-0.11046982,-0.6207199,0.68455684,0.92065954,-0.07469588,0.11455213,0.36562848,-1.2911159,0.15801844,0.07126684,0.0,1.0,0.0,0.0,0.0,0.0,0.0,-0.51146543,0.20023498,-0.16713428,0.10852814,-2.562201,2.391541,-0.24633408,-1.4908075,-0.5704284,1.4387012
1.4392452,62.929214,17.203161,13.565323,0.41783756,0.21335906,0.16403006,-0.79378104,-0.107732356,-0.2795858,0.7831355,-0.41487452,0.5962912,-0.26705623,0.83174056,-1.0081517,-2.1321123,-0.9509612,2.086194,1.9071988,-1.0524642,0.8968135,-0.99946415,-2.1093948,-1.0153263,2.1219897,1.8521544,-1.0283737,-1.4290801,-0.21241394,-0.5148901,1.3943396,-0.57302445,0.4573505,-0.2583665,-0.15338516,-0.59885406,0.7185975,-1.4805704,0.14572015,0.14844257,-0.12329483,-0.61898804,0.68525684,0.9249915,-0.07708826,0.12022684,0.3521272,-1.2781023,0.18572351,0.06936258,0.0,1.0,0.0,0.0,0.0,0.0,0.0,-0.4966148,0.19885406,-0.16859746,0.5814314,-1.5453488,3.6051273,-0.18644333,-1.5872478,-0.42901635,1.3077557
-0.14317536,70.49387,18.493479,15.756489,0.4212585,0.26782548,0.13449655,-0.7990818,-0.08328565,-0.29088348,0.78213704,-0.42735526,0.5856731,-0.24187127,0.8169053,-1.0077927,-2.138483,-0.93711257,2.0792542,1.9107217,-1.0525608,0.8825436,-1.0014821,-2.1144493,-1.0013931,2.1161683,1.8567008,-1.0308399,-1.4267521,-0.19889113,-0.5007344,1.3926284,-0.5867674,0.4533948,-0.24332553,-0.16803741,-0.59716034,0.7202096,-1.4599843,0.17696093,0.16604143,-0.1359787,-0.61696625,0.68602175,0.92902327,-0.07940887,0.12602936,0.33871308,-1.2628618,0.218604,0.07840298,0.0,1.0,0.0,0.0,0.0,0.0,0.0,-0.48196256,0.19716033,-0.17020959,0.09524822,1.1942893,1.9221902,-0.2250433,-1.8235683,-0.46038032,1.3244689
-6.6136775,53.65556,11.407999,13.77965,0.6344466,0.019077778,0.0645629,-0.80403036,-0.14655273,-0.35497615,0.77685505,-0.39994812,0.57020146,-0.21391672,0.8021406,-1.0161374,-2.149947,-0.9237076,2.0761735,1.913721,-1.0522316,0.8682614,-1.0036165,-2.1197438,-0.9874933,2.110312,1.8611944,-1.0331534,-1.4289861,-0.21868011,-0.5376639,1.3890399,-0.5862719,0.44769573,-0.22758399,-0.18254471,-0.5952301,0.72174996,-1.4474097,0.19878288,0.15079309,-0.14863586,-0.6147232,0.68664414,0.9328165,-0.08143564,0.13193066,0.32529345,-1.2643087,0.23645145,0.056556035,0.0,1.0,0.0,0.0,0.0,0.0,0.0,-0.46745527,0.1952301,-0.17174995,-0.28951168,-2.0956368,-3.373623,-0.35209656,-0.22970438,-0.62521696,1.4438987
-6.989666,64.93015,13.931268,16.414019,0.5867709,0.09816927,0.047864776,-0.8025452,-0.08134418,-0.38102815,0.77767533,-0.40201363,0.5629547,-0.17938353,0.7880069,-1.0117508,-2.1578467,-0.9097257,2.0701106,1.9174899,-1.0510918,0.85395247,-1.0056611,-2.1255763,-0.9736249,2.104486,1.865629,-1.0352973,-1.4317993,-0.20044759,-0.59706,1.3860357,-0.5824937,0.4419083,-0.2106296,-0.19688797,-0.59304047,0.72327566,-1.4294618,0.22657366,0.1539801,-0.16126633,-0.61222076,0.68717474,0.9363806,-0.083101474,0.13805492,0.3118114,-1.2601361,0.2622508,0.051467348,0.0,1.0,0.0,0.0,0.0,0.0,0.0,-0.453112,0.19304046,-0.17327565,-0.38011074,1.6709745,-5.544615,-0.31883717,0.02272129,-0.65667033,1.5220284
-13.409739,50.750435,7.9893837,15.085143,0.78109425,-0.08765185,-0.0053944774,-0.8145818,-0.1356233,-0.45884404,0.7760829,-0.37915263,0.52263635,-0.13238125,0.7724943,-1.0192235,-2.1714606,-0.8960166,2.0665708,1.9178926,-1.0485353,0.83956534,-1.0077478,-2.1323054,-0.9597805,2.0987675,1.8699776,-1.0372542,-1.4411739,-0.21179688,-0.69756585,1.3840393,-0.5688096,0.4320948,-0.19113936,-0.21110916,-0.5906296,0.7246308,-1.4192015,0.24647291,0.13001002,-0.17398071,-0.60956573,0.6874651,0.93975645,-0.084219776,0.1443916,0.2981875,-1.2719836,0.276773,0.021327076,0.0,1.0,0.0,0.0,0.0,0.0,0.0,-0.4388908,0.19062957,-0.17463076,-0.97362995,-1.2608409,-9.805239,-0.15916824,1.147449,-1.0637105,1.8135846
-11.438574,57.30011,10.118832,16.043869,0.7253988,-0.033253074,0.023207232,-0.81008285,-0.10926268,-0.47716674,0.78057176,-0.38654718,0.5149512,-0.09176341,0.7585571,-1.018674,-2.180022,-0.88172334,2.0601127,1.9214727,-1.0464306,0.8251105,-1.0098497,-2.1399806,-0.94592917,2.0931594,1.8742268,-1.0390033,-1.447109,-0.21004565,-0.78995866,1.3855226,-0.55888647,0.42223948,-0.17006,-0.22519302,-0.5879898,0.72582024,-1.4042964,0.26977727,0.11708503,-0.18676376,-0.60671234,0.68753403,0.94293445,-0.084773496,0.15096328,0.28442594,-1.2776214,0.2963359,0.0020587312,0.0,1.0,0.0,0.0,0.0,0.0,0.0,-0.42480695,0.1879898,-0.17582023,-0.6631613,0.026243925,-8.895111,0.16021729,0.6830096,-1.0968208,1.9408286
-13.376663,38.1958,4.3251214,12.029318,0.69141376,-0.23714942,0.05148846,-0.8129183,-0.19833562,-0.53820366,0.77821016,-0.4107192,0.5049184,-0.057702016,0.74381864,-1.0296832,-2.193801,-0.86810815,2.0520875,1.9247186,-1.0447735,0.810606,-1.0123369,-2.1486323,-0.9320616,2.0875475,1.8783753,-1.0405369,-1.451525,-0.26201245,-0.88992196,1.3873762,-0.5621061,0.41216296,-0.14812605,-0.23919296,-0.5852051,0.7266163,-1.3977127,0.28240228,0.069206394,-0.19968796,-0.6037979,0.6871673,0.9459246,-0.08463945,0.15767097,0.27055967,-1.2933457,0.3021216,-0.049569137,0.0,1.0,0.0,0.0,0.0,0.0,0.0,-0.410807,0.18520507,-0.17661631,-0.44426918,-5.2983017,-9.81071,0.26171207,-0.4820943,-1.0928631,2.077514
-12.222597,35.888603,3.8129506,10.958941,0.5243857,-0.26914382,0.13843113,-0.81087536,-0.2148069,-0.5849658,0.7818087,-0.4555894,0.48296982,0.08639764,0.7295185,-1.0338175,-2.2071288,-0.85388076,2.0419886,1.9266722,-1.0318971,0.79608524,-1.0154172,-2.158256,-0.91815966,2.0817447,1.8824168,-1.0417652,-1.4522872,-0.32373106,-0.98583084,1.391415,-0.58646494,0.40130845,-0.11475916,-0.25312042,-0.5823059,0.72689706,-1.390387,0.29295474,0.016687471,-0.21273422,-0.6008148,0.6862463,0.9487066,-0.08372779,0.16451186,0.25667328,-1.3060062,0.30641705,-0.10604085,0.0,1.0,0.0,0.0,0.0,0.0,0.0,-0.39687955,0.1823059,-0.17689705,-0.07619858,-6.2726855,-9.3982935,0.4938841,-2.6014566,-1.1663496,3.2155185
-8.161558,34.5127,4.653557,9.428214,0.48303622,-0.25975406,0.19511513,-0.8014935,-0.2623747,-0.583108,0.7878563,-0.45997354,0.49994317,0.11483851,0.7159359,-1.0416547,-2.2165668,-0.83937407,2.0357473,1.9324112,-1.0302813,0.7816131,-1.0192374,-2.16857,-0.90419286,2.0756855,1.8863723,-1.0426613,-1.4456059,-0.40162113,-1.0458705,1.3986721,-0.61276084,0.3934163,-0.08147326,-0.2669716,-0.57930756,0.7266223,-1.3820934,0.3022327,-0.038760956,-0.22588348,-0.5977936,0.68475413,0.9512596,-0.08211514,0.17138757,0.24287534,-1.314806,0.3100944,-0.16327888,0.0,1.0,0.0,0.0,0.0,0.0,0.0,-0.3830284,0.17930755,-0.17662227,0.6537914,-7.8823566,-5.7644844,0.81362724,-2.8275132,-0.8806884,3.2162995
-10.479951,30.87059,3.1056862,8.956517,0.4695706,-0.2830631,0.22456637,-0.8140108,-0.3094096,-0.63849425,0.78273684,-0.49957862,0.42848185,0.1997879,0.700212,-1.0501784,-2.2324195,-0.82591915,2.0257277,1.9292206,-1.0226825,0.76715434,-1.0239009,-2.1794908,-0.8901839,2.0692828,1.8902055,-1.0431921,-1.4459716,-0.48814273,-1.106686,1.4020734,-0.6498539,0.3796614,-0.043932453,-0.2807579,-0.57624054,0.7257348,-1.3760502,0.30923003,-0.102102265,-0.23915482,-0.5947571,0.68263793,0.95358473,-0.079754554,0.1782615,0.22921209,-1.3273636,0.3126475,-0.2274918,0.0,1.0,0.0,0.0,0.0,0.0,0.0,-0.36924207,0.17624053,-0.17573476,-0.027608871,-8.745355,-5.878663,0.47421455,-3.8872123,-1.4718711,3.6594062
-9.368781,29.82375,3.0887861,8.082449,0.4197112,-0.25788963,0.27629587,-0.8098421,-0.36000615,-0.6591858,0.78152555,-0.52154857,0.44427073,0.29049543,0.6861701,-1.0599015,-2.2454095,-0.8120314,2.017128,1.9346325,-1.0141426,0.75269836,-1.0294703,-2.190931,-0.8761625,2.062495,1.8939204,-1.0433143,-1.4454582,-0.58038133,-1.1561072,1.4026338,-0.68877685,0.3685085,-0.0019322521,-0.29448318,-0.5731125,0.72418475,-1.3700116,0.31513765,-0.16890708,-0.2525406,-0.59168243,0.6798638,0.95567775,-0.07663472,0.18509293,0.21574897,-1.3386222,0.31584725,-0.2941612,0.0,1.0,0.0,0.0,0.0,0.0,0.0,-0.3555168,0.17311248,-0.17418474,0.05915165,-9.315908,-4.7295094,0.20501614,-4.082346,-1.2238085,4.1126995
-10.724882,22.75195,1.1423783,6.440398,0.50036204,-0.2896273,0.28097376,-0.81654054,-0.43846515,-0.6807865,0.7733692,-0.5114475,0.40545037,0.3216102,0.6710443,-1.0733168,-2.2590098,-0.7988256,2.0113502,1.9344654,-1.0111533,0.73821396,-1.0361098,-2.2028124,-0.86218035,2.055415,1.8975048,-1.0430313,-1.4492779,-0.6920016,-1.1982536,1.3974159,-0.7145302,0.35478312,0.038257416,-0.3081894,-0.5699539,0.7218547,-1.3700031,0.31707814,-0.2502979,-0.2660904,-0.5885849,0.67633575,0.95756763,-0.07272846,0.19173001,0.20251976,-1.3569154,0.31682158,-0.3723643,0.0,1.0,0.0,0.0,0.0,0.0,0.0,-0.34181058,0.16995391,-0.17185467,-0.33795834,-11.240768,-4.0842056,-0.31056404,-2.6982784,-1.5007973,3.982766
-6.5897837,43.45822,7.24846,10.208545,0.63572454,-0.040937245,0.28269404,-0.811567,-0.41200548,-0.6660809,0.7759343,-0.4977033,0.4300436,0.3713515,0.6570573,-1.0773103,-2.2694206,-0.7845869,2.0056446,1.9405092,-1.0058962,0.7237094,-1.0435065,-2.2149003,-0.8482505,2.048207,1.9009819,-1.0423523,-1.4510694,-0.7558966,-1.2109054,1.3918341,-0.724133,0.3448987,0.07758197,-0.32179642,-0.5667038,0.71896255,-1.3558328,0.32850838,-0.29818505,-0.2797203,-0.5853882,0.6722849,0.9592394,-0.068239175,0.19816446,0.18956257,-1.3609074,0.33274624,-0.4162321,0.0,1.0,0.0,0.0,0.0,0.0,0.0,-0.32820356,0.16670379,-0.16896254,-0.24209023,-6.5185666,-0.8414507,-0.4597187,-1.3604641,-1.1716187,3.8201787
-6.6960115,39.42726,6.3722496,8.972841,0.77095747,-0.058979392,0.2750424,-0.819536,-0.49224442,-0.6657291,0.7596183,-0.46138155,0.36728954,0.3914381,0.6417558,-1.092731,-2.2814732,-0.7722887,2.002069,1.9377109,-1.0032085,0.70915794,-1.0516356,-2.226996,-0.83443993,2.0410662,1.9043268,-1.0413071,-1.4567034,-0.83235484,-1.2080581,1.3778273,-0.71157193,0.33019516,0.11346934,-0.33529663,-0.5633545,0.71551764,-1.3459706,0.33749577,-0.35562757,-0.29343033,-0.58203125,0.6677555,0.96072245,-0.063262194,0.2042452,0.17690155,-1.3695506,0.34775126,-0.46567395,0.0,1.0,0.0,0.0,0.0,0.0,0.0,-0.31470335,0.16335449,-0.16551763,-0.60925484,-7.7617884,0.6688595,-1.2732267,0.88715553,-1.6749084,3.5245419
-6.313253,43.895805,7.2256994,9.690588,0.7759367,-0.053090215,0.28049612,-0.82133275,-0.51214814,-0.684523,0.750036,-0.45961583,0.26331708,0.44686863,0.62702465,-1.1028504,-2.2954483,-0.7594363,1.9951046,1.9306585,-0.99662024,0.69454575,-1.0604247,-2.2390952,-0.8208019,2.034083,1.9074551,-1.0399033,-1.4629295,-0.8948585,-1.2093658,1.3594015,-0.69491947,0.30647525,0.14927615,-0.34867477,-0.55991364,0.7115351,-1.3332494,0.34730315,-0.4077398,-0.30718994,-0.5785141,0.66277957,0.96203846,-0.057785403,0.20992652,0.1645406,-1.374729,0.36491424,-0.5089448,0.0,1.0,0.0,0.0,0.0,0.0,0.0,-0.3013252,0.15991363,-0.16153508,-0.6867647,-6.3769937,0.3040552,-1.734519,1.2339234,-2.5949478,3.504628
-5.3584576,46.18356,7.6913037,9.809631,0.71055883,-0.054074645,0.29487544,-0.82160395,-0.54410887,-0.6837028,0.74329334,-0.47988948,0.18388358,0.4853505,0.61238533,-1.1148356,-2.3074656,-0.7464726,1.986094,1.9258435,-0.99136823,0.6798811,-1.0697974,-2.2511992,-0.80734915,2.0271938,1.9103009,-1.0381495,-1.4678093,-0.9517364,-1.209608,1.3407826,-0.68833625,0.27667946,0.18370707,-0.36190796,-0.5563812,0.70705324,-1.3180245,0.35651737,-0.45716134,-0.3209839,-0.5748062,0.6573917,0.96319085,-0.051789854,0.21524012,0.15248908,-1.3756883,0.3823365,-0.5495255,0.0,1.0,0.0,0.0,0.0,0.0,0.0,-0.28809202,0.15638122,-0.15705323,-0.56500435,-5.8176875,0.4472494,-1.7658234,0.18644333,-3.2066524,3.3567996
-2.9730153,51.71652,9.307167,10.58691,0.74423456,-0.0027204752,0.29266816,-0.8165241,-0.56450903,-0.6686479,0.74228096,-0.46561924,0.15702872,0.52650636,0.5982287,-1.1262484,-2.318064,-0.73312104,1.9806318,1.9260037,-0.98549885,0.6652068,-1.0796603,-2.2632337,-0.7940449,2.020379,1.9128525,-1.0360596,-1.4677081,-0.99833256,-1.1996496,1.3270651,-0.68056685,0.2470787,0.21718527,-0.37495422,-0.552742,0.7021379,-1.2982738,0.36707798,-0.49841624,-0.33473969,-0.5709305,0.65166736,0.9641785,-0.04534255,0.22020574,0.14075933,-1.3709118,0.40199432,-0.5809383,0.0,1.0,0.0,0.0,0.0,0.0,0.0,-0.27504575,0.152742,-0.15213788,-0.10035038,-4.795563,1.5558243,-1.3161898,0.22828579,-3.201404,3.2445192
-3.7762702,48.531693,7.8572,9.458282,0.56791234,-0.1456191,0.3269223,-0.82396555,-0.59769285,-0.7012353,0.71151483,-0.48680848,-0.09463962,0.55745983,0.5828102,-1.1394296,-2.333357,-0.7228934,1.9716982,1.9033886,-0.98031366,0.65051323,-1.0899924,-2.2753217,-0.7809723,2.0135558,1.9149482,-1.0336496,-1.4702631,-1.0451638,-1.2102976,1.3008889,-0.68409276,0.1963804,0.24865577,-0.3878212,-0.5490265,0.69674915,-1.2803895,0.37383398,-0.5471447,-0.3484459,-0.5668869,0.6455685,0.96501374,-0.03829486,0.22483304,0.12935264,-1.3659053,0.41613314,-0.6204361,0.0,1.0,0.0,0.0,0.0,0.0,0.0,-0.26217878,0.14902648,-0.14674914,-0.34782887,-4.812026,-0.5611658,-2.543068,-0.877738,-5.3065658,3.0443788
