Afshin1997/kuka_rl_ros2/src/catch_and_throw/input_files/idealpd/polynomial_regressor/optimizer_files/env_363_data.csv
torque0,torque1,torque2,torque3,torque4,torque5,torque6,action0,action1,action2,action3,action4,action5,action6,set_target_0,set_target_1,set_target_2,set_target_3,set_target_4,set_target_5,set_target_6,joint_pos_0,joint_pos_1,joint_pos_2,joint_pos_3,joint_pos_4,joint_pos_5,joint_pos_6,joint_vel_0,joint_vel_1,joint_vel_2,joint_vel_3,joint_vel_4,joint_vel_5,joint_vel_6,tennisball_pos_0,tennisball_pos_1,tennisball_pos_2,tennisball_lin_vel_0,tennisball_lin_vel_1,tennisball_lin_vel_2,end_effector_pos_0,end_effector_pos_1,end_effector_pos_2,end_effector_rot_0,end_effector_rot_1,end_effector_rot_2,end_effector_rot_3,end_effector_lin_vel_0,end_effector_lin_vel_1,end_effector_lin_vel_2,obs_task_0,obs_task_1,obs_task_2,obs_task_3,obs_task_4,obs_task_5,obs_task_6,to_final_target_0,to_final_target_1,to_final_target_2,joint_acc_0,joint_acc_1,joint_acc_2,joint_acc_3,joint_acc_4,joint_acc_5,joint_acc_6
0.0,0.0,0.0,0.0,0.0,0.0,0.0,0.0,0.0,0.0,0.0,0.0,0.0,0.0,1.7802359,-1.0646509,-1.8151424,-1.1170107,1.9373155,1.1170107,-0.91629785,1.7802359,-1.0646509,-1.8151424,-1.1170107,1.9373155,1.1170107,-0.91629785,0.0,0.0,0.0,0.0,0.0,0.0,0.0,3.1022243,-0.41239524,0.18318057,-3.6635442,0.019997785,5.3230157,0.5304184,-0.4544952,0.693097,0.5745483,0.17512383,0.15255436,0.7848268,0.0,0.0,0.0,1.0,0.0,0.0,0.0,0.0,0.0,0.0,-3.7522244,0.012395233,0.36681944,0.0,0.0,0.0,0.0,0.0,0.0,0.0
0.0,0.0,0.0,0.0,0.0,0.0,0.0,0.0,0.0,0.0,0.0,0.0,0.0,0.0,1.7802359,-1.0646509,-1.8151424,-1.1170107,1.9373155,1.1170107,-0.91629785,1.7802359,-1.0646509,-1.8151424,-1.1170107,1.9373155,1.1170107,-0.91629785,0.0,0.0,0.0,0.0,0.0,0.0,0.0,3.1022243,-0.41239524,0.18318057,-3.6635442,0.019997785,5.3230157,0.5304184,-0.4544952,0.693097,0.5745483,0.17512383,0.15255436,0.7848268,0.0,0.0,0.0,1.0,0.0,0.0,0.0,0.0,0.0,0.0,-3.7522244,0.012395233,0.36681944,0.0,0.0,0.0,0.0,0.0,0.0,0.0
0.0,0.0,0.0,0.0,0.0,0.0,0.0,0.0,0.0,0.0,0.0,0.0,0.0,0.0,1.7802359,-1.0646509,-1.8151424,-1.1170107,1.9373155,1.1170107,-0.91629785,1.7802359,-1.0646509,-1.8151424,-1.1170107,1.9373155,1.1170107,-0.91629785,0.0,0.0,0.0,0.0,0.0,0.0,0.0,3.1022243,-0.41239524,0.18318057,-3.6635442,0.019997785,5.3230157,0.5304184,-0.4544952,0.693097,0.5745483,0.17512383,0.15255436,0.7848268,0.0,0.0,0.0,1.0,0.0,0.0,0.0,0.0,0.0,0.0,-3.7522244,0.012395233,0.36681944,0.0,0.0,0.0,0.0,0.0,0.0,0.0
-176.0,71.06593,-5.77689,110.0,11.097832,4.8374887,-3.8371012,-0.8241879,0.374621,-0.5714932,0.73410124,0.3400901,0.622034,-0.5682148,1.6978171,-1.0271888,-1.8722917,-1.0436006,1.9713244,1.1792141,-0.9731193,1.778853,-1.0620397,-1.8213832,-1.1129328,1.9437795,1.1224829,-0.9186439,-0.18416634,0.34744394,-0.83129233,0.5439936,0.8607746,0.7274879,-0.31215006,3.0656166,-0.41219544,0.23563436,-3.6598814,0.019977791,5.2195077,0.5282974,-0.45760942,0.6938198,0.57839996,0.173824,0.15081711,0.7826192,-0.2815155,-0.4152611,0.09616654,1.0,0.0,0.0,0.0,0.0,0.0,0.0,-3.7156167,0.012195438,0.31436566,-18.364468,34.516376,-82.8738,54.456703,85.742455,72.0956,-31.045002
-176.0,-27.093046,-46.337605,110.0,12.678892,1.6859641,-3.3081176,-0.8135115,-0.123119004,-0.5679973,0.70897037,0.41542616,0.6219016,-0.5858178,1.6975019,-1.0743517,-1.878183,-1.0420358,1.9853221,1.1846731,-0.97722566,1.7772166,-1.0585207,-1.8368175,-1.1005789,1.9574285,1.1362826,-0.9219293,-0.16761695,0.32689378,-1.7104224,1.4618399,1.494118,1.527483,-0.3532934,3.029045,-0.41199565,0.28705385,-3.656222,0.019957818,5.1161027,0.523613,-0.4657657,0.6945745,0.58699614,0.17067897,0.14621961,0.77776855,-0.5313493,-0.9454918,0.0751039,1.0,0.0,0.0,0.0,0.0,0.0,0.0,-3.6790452,0.011995643,0.26294616,-1.5473306,-9.974891,-66.84978,90.60593,51.676346,59.0019,-9.896225
-161.66576,112.36884,29.568563,97.24335,8.299599,7.6432905,-2.0033524,-0.7655474,0.32533243,-0.022693545,0.5958958,0.47439477,0.65804714,-0.54934466,1.7006618,-1.0259874,-1.8390869,-1.0409893,2.004868,1.2020873,-0.97686374,1.7723109,-1.0544637,-1.8522842,-1.0842215,1.9723592,1.1513621,-0.9256496,-0.59855217,0.4282061,-1.4851389,1.6949403,1.4878427,1.4937654,-0.38029042,2.9925117,-0.41179633,0.33744007,-3.6525667,0.019937864,5.0128016,0.5160866,-0.47676802,0.6968841,0.59854436,0.16611746,0.14026734,0.77102184,-0.8338914,-1.1458566,0.28689072,1.0,0.0,0.0,0.0,0.0,0.0,0.0,-3.6425118,0.011796325,0.21255994,-43.176735,9.073001,24.615765,23.653816,-2.1084547,-5.63457,-3.2939136
-105.19826,127.15086,46.38375,65.460335,4.960087,8.221612,-0.6508648,-0.7747058,0.24199969,0.06331005,0.6182812,0.47472024,0.6285936,-0.571306,1.6948403,-1.0302638,-1.8459532,-1.0223933,2.0198312,1.2142215,-0.98278016,1.7631022,-1.0500139,-1.862664,-1.0676104,1.9857183,1.1652514,-0.92957205,-1.0293977,0.44800174,-0.88079846,1.6500814,1.2800646,1.3492415,-0.3992384,2.9560127,-0.411597,0.38679406,-3.6489148,0.01991793,4.9096036,0.50597763,-0.48849916,0.7012869,0.6112123,0.16008103,0.1336446,0.7635003,-1.0823548,-1.1714942,0.4961904,1.0,0.0,0.0,0.0,0.0,0.0,0.0,-3.6060128,0.0115970075,0.16320595,-43.474422,1.1550128,62.875916,-4.3698072,-22.304035,-15.839958,-2.8077185
-51.289997,141.61803,54.846954,39.89264,1.9209418,7.387548,-0.008416727,-0.80032885,0.3541204,0.031250503,0.6270124,0.5114324,0.62358636,-0.5586937,1.6830692,-1.0146018,-1.8595389,-1.0049092,2.0368614,1.22761,-0.98544145,1.7503229,-1.0449709,-1.8671653,-1.0524698,1.9968629,1.1775919,-0.93362707,-1.362369,0.5212343,-0.29984793,1.4683297,1.0555062,1.1932319,-0.41057152,2.9195518,-0.41139793,0.4351168,-3.6452665,0.019898016,4.8065085,0.4939804,-0.49961996,0.70759976,0.62389755,0.15269728,0.1268394,0.75587505,-1.2510737,-1.0794535,0.67910045,1.0,0.0,0.0,0.0,0.0,0.0,0.0,-3.569552,0.011397928,0.114883214,-33.740974,6.7156134,60.092777,-18.281387,-23.540878,-16.29393,-2.030176
-11.806695,132.21072,49.119164,20.538729,-0.31473392,5.1403184,0.09575662,-0.81426686,0.4524926,-0.07865537,0.61723053,0.5233049,0.60607624,-0.5701372,1.6688962,-0.9997216,-1.8750309,-0.9907468,2.0491934,1.2381996,-0.99064076,1.7352797,-1.0388254,-1.8677433,-1.0392634,2.0061529,1.1885077,-0.93777174,-1.5527883,0.6442652,0.02702609,1.2707604,0.88501304,1.0570151,-0.41808182,2.8831253,-0.4111991,0.4824094,-3.641622,0.019878121,4.7035165,0.4809456,-0.5095105,0.71525776,0.6361831,0.14446445,0.120539315,0.7482455,-1.332035,-0.9448327,0.79509705,1.0,0.0,0.0,0.0,0.0,0.0,0.0,-3.5331254,0.011199087,0.067590624,-19.420696,11.900747,33.955173,-19.945765,-17.606281,-13.825822,-1.434958
14.264008,124.35573,44.19943,9.587437,-1.5211694,3.4288528,0.06796762,-0.8244665,0.5409101,-0.092446476,0.5963016,0.54729545,0.60354275,-0.56503063,1.652833,-0.98473436,-1.8769879,-0.9796332,2.0608823,1.2488619,-0.9942748,1.7192236,-1.0311846,-1.8666809,-1.0277468,2.0142896,1.1982332,-0.9419679,-1.6242261,0.8029952,0.13535689,1.1111568,0.7889845,0.94443125,-0.4219408,2.846737,-0.4110005,0.5286729,-3.6379812,0.019858247,4.6006274,0.46756363,-0.5179808,0.72377187,0.6479852,0.1358461,0.11521264,0.7405316,-1.3501005,-0.79971766,0.8692742,1.0,0.0,0.0,0.0,0.0,0.0,0.0,-3.496737,0.011000484,0.021327138,-7.4843645,15.590059,11.685183,-16.191626,-9.877884,-11.242378,-0.93880296
26.488007,114.56204,39.521397,5.425707,-1.756825,2.3271558,0.02442441,-0.8284028,0.59833765,-0.070720784,0.58764184,0.57221967,0.6086998,-0.5650844,1.6363833,-0.9713508,-1.873753,-0.96898264,2.0715115,1.2591032,-0.9984763,1.703034,-1.021974,-1.8654773,-1.0173613,2.021938,1.2069899,-0.94618887,-1.618346,0.9598208,0.11763267,1.0137212,0.7562023,0.85278547,-0.42364913,2.8103828,-0.41080213,0.57390815,-3.6343439,0.019838393,4.4978414,0.45422745,-0.5251043,0.7328492,0.6593499,0.12711652,0.11094838,0.7326592,-1.3349314,-0.66814244,0.9194716,1.0,0.0,0.0,0.0,0.0,0.0,0.0,-3.460383,0.01080212,-0.023908138,0.3010273,15.4786825,-1.1516824,-9.985876,-3.423524,-9.101677,-0.6303251
31.919613,107.402626,36.956326,4.4712057,-1.6105012,1.8227432,0.02715586,-0.8179778,0.64832956,-0.03818509,0.57833767,0.57262367,0.6217993,-0.5674128,1.6212363,-0.95714104,-1.8692958,-0.9595275,2.0792005,1.2691698,-1.0029302,1.6872183,-1.01135,-1.8647335,-1.007548,2.0295026,1.2149626,-0.9504203,-1.5700368,1.0959741,0.061842233,0.9695715,0.7564041,0.77884144,-0.42445207,2.774067,-0.41060376,0.6181164,-3.6307104,0.019818557,4.3951583,0.4411316,-0.53102326,0.7423685,0.67033243,0.118348986,0.107601464,0.724617,-1.3063676,-0.55101377,0.9614308,1.0,0.0,0.0,0.0,0.0,0.0,0.0,-3.424067,0.010603756,-0.06811637,4.59044,13.45396,-5.0581975,-4.6617746,-0.0762105,-7.359278,-0.4952371
30.69004,97.82147,33.688217,4.751726,-1.2089107,1.5536408,0.08653317,-0.8138437,0.67890835,-0.014522122,0.5531488,0.5919913,0.6309677,-0.56014884,1.6058339,-0.9434592,-1.8661857,-0.9522331,2.0887017,1.2780594,-1.0064352,1.6719424,-0.9996313,-1.864476,-0.99799937,2.0372312,1.2223021,-0.9546508,-1.5141321,1.1966039,0.015422155,0.9492506,0.77826446,0.71903247,-0.4238443,2.7377892,-0.41040587,0.6612985,-3.6270802,0.019798743,4.2925777,0.42831802,-0.5359025,0.7522343,0.6809412,0.10956169,0.1048977,0.7164578,-1.2780885,-0.45139468,0.9936708,1.0,0.0,0.0,0.0,0.0,0.0,0.0,-3.3877892,0.010405868,-0.1112985,5.3841114,9.932685,-4.170207,-2.2801638,2.1103978,-5.9807777,-0.31795502
25.165855,89.15819,30.772552,6.724554,-0.65660536,1.5045425,0.12751095,-0.8112612,0.69679177,0.018420352,0.54794794,0.6026918,0.6320725,-0.5658642,1.5908163,-0.9299521,-1.862634,-0.9432046,2.0975003,1.2855093,-1.0112373,1.6571413,-0.9871944,-1.8644073,-0.9885265,2.0452306,1.2291247,-0.9588775,-1.4694502,1.2591094,0.0055729398,0.94586974,0.80681413,0.6698572,-0.42342138,2.7015457,-0.410208,0.7034556,-3.6234539,0.019778948,4.1900997,0.415699,-0.53992033,0.7623811,0.6911858,0.10072782,0.10252713,0.7082403,-1.2597533,-0.36970586,1.0204104,1.0,0.0,0.0,0.0,0.0,0.0,0.0,-3.3515458,0.010207981,-0.15345562,4.2867184,6.1371326,-0.52465975,-0.5696416,2.783358,-4.9627066,-0.30987263
21.195887,82.47988,28.618902,7.3577332,-0.3222634,1.5019953,0.20674351,-0.8094012,0.71095073,0.055911217,0.52042353,0.6166127,0.63742524,-0.56808925,1.5762012,-0.91609937,-1.8588161,-0.93648416,2.1068919,1.2928672,-1.0156864,1.642655,-0.97435224,-1.8641326,-0.97914714,2.05352,1.2355257,-0.9631004,-1.4424608,1.2922719,0.03638561,0.93461466,0.8362772,0.6300283,-0.42313528,2.6653366,-0.41001034,0.74458873,-3.6198313,0.019759173,4.087724,0.40320587,-0.5431869,0.7727455,0.70103675,0.09181886,0.10024354,0.70004857,-1.2489758,-0.29689038,1.0404143,1.0,0.0,0.0,0.0,0.0,0.0,0.0,-3.3153367,0.010010332,-0.19458872,2.521348,3.215623,3.5618277,-1.3506174,2.8677464,-4.0334344,-0.31128526
17.684114,78.170135,26.94482,8.215649,-0.08944255,1.4944158,0.24045901,-0.80546856,0.7248903,0.08118365,0.50880253,0.63354313,0.64231807,-0.55915356,1.5621082,-0.9018632,-1.8560143,-0.9282669,2.1168742,1.2997575,-1.0190158,1.6283308,-0.9613012,-1.8633811,-0.9699146,2.0620992,1.2415854,-0.96731466,-1.4295956,1.3091022,0.089652635,0.9188584,0.8649665,0.5979401,-0.42192388,2.6291656,-0.40981293,0.78469884,-3.6162121,0.019739417,3.9854512,0.39076996,-0.5457754,0.78327584,0.7104758,0.08281487,0.0978944,0.6919411,-1.2440698,-0.23056622,1.055595,1.0,0.0,0.0,0.0,0.0,0.0,0.0,-3.2791657,0.009812921,-0.23469883,1.1130095,1.5913248,5.8124075,-1.7897129,2.7942657,-3.2577515,-0.20734072
15.348286,73.2101,24.556627,8.0853405,-0.067717135,1.3268912,0.2310006,-0.8014376,0.7346862,0.081840515,0.4906264,0.63872814,0.64530325,-0.5551137,1.548187,-0.8878326,-1.8551971,-0.92085195,2.125972,1.3061157,-1.0228261,1.6140715,-0.94814146,-1.862149,-0.96089953,2.0709226,1.2473742,-0.97151273,-1.425168,1.3180267,0.13579564,0.8950034,0.8878352,0.57240516,-0.42019618,2.5930328,-0.40961552,0.823787,-3.6125968,0.019719683,3.883281,0.3783722,-0.54773974,0.7938856,0.7195091,0.07374151,0.0954647,0.6839264,-1.2391415,-0.16952454,1.0606866,1.0,0.0,0.0,0.0,0.0,0.0,0.0,-3.243033,0.009615511,-0.27378696,0.27508736,0.8163929,5.0678787,-2.6007056,2.2350788,-2.566886,-0.13610125
13.286426,68.426796,22.199467,7.813838,-0.07118499,1.1339146,0.21889204,-0.80440176,0.7373655,0.08980098,0.46785378,0.6485185,0.644776,-0.5423109,1.5336313,-0.8744049,-1.8531688,-0.9141142,2.1357744,1.3118517,-1.0257438,1.5998007,-0.934934,-1.8605468,-0.95219153,2.0799406,1.2529436,-0.9756841,-1.428226,1.3214786,0.16984609,0.8620075,0.90673393,0.5519868,-0.41711932,2.5569344,-0.40941858,0.8618542,-3.6089847,0.019699967,3.7812128,0.36603165,-0.54913306,0.80447215,0.7281513,0.06465791,0.09299537,0.6759932,-1.2330987,-0.113919884,1.0556713,1.0,0.0,0.0,0.0,0.0,0.0,0.0,-3.2069345,0.009418577,-0.31185418,-0.46937466,0.28533936,3.8210483,-3.5197258,1.8617868,-2.0161629,0.020682812
14.879608,66.08934,21.045242,6.2641444,-0.2609012,0.93816054,0.23955981,-0.7995862,0.7440933,0.09715995,0.43273342,0.65787023,0.64989513,-0.53779984,1.5198421,-0.8605247,-1.8508308,-0.9089182,2.1457276,1.3179332,-1.0294641,1.5855051,-0.92168844,-1.8586967,-0.94392127,2.0891263,1.2583452,-0.97982305,-1.4305391,1.3254652,0.19144197,0.81457734,0.92269796,0.5364,-0.41372818,2.5208702,-0.40922165,0.8989015,-3.6053765,0.01968027,3.6792467,0.35380554,-0.5499637,0.8149515,0.7363911,0.0556175,0.090544745,0.66815895,-1.2197989,-0.05760066,1.0427314,1.0,0.0,0.0,0.0,0.0,0.0,0.0,-3.1708703,0.009221643,-0.3489015,-0.39446354,0.3522396,2.5526822,-4.972768,1.584661,-1.4803529,0.06403327
15.831074,66.172966,20.797785,5.9372005,-0.36574668,0.8475934,0.23610692,-0.79786885,0.75296384,0.10716016,0.41109794,0.66164625,0.65043,-0.53028965,1.5057182,-0.84639204,-1.8479807,-0.90281147,2.155291,1.3233882,-1.032852,1.5711981,-0.90837324,-1.8566825,-0.93614596,2.0984418,1.2636153,-0.9839248,-1.4313422,1.3334012,0.20614038,0.76442146,0.9348718,0.52415156,-0.40989405,2.4848442,-0.40902495,0.93492997,-3.6017718,0.019660596,3.5773826,0.34173965,-0.5502224,0.82529414,0.74422973,0.046635725,0.088172235,0.6604338,-1.2022077,-0.0005993668,1.0285819,1.0,0.0,0.0,0.0,0.0,0.0,0.0,-3.1348443,0.009024948,-0.38492996,-0.23984909,0.7545948,1.8433988,-5.2407026,1.2204409,-1.1253595,0.11820793
17.43914,63.81378,19.412468,4.328623,-0.6108656,0.5881553,0.22591546,-0.7940345,0.76290804,0.077818274,0.3662949,0.6643244,0.65716434,-0.5246704,1.4917947,-0.83208245,-1.8489007,-0.89951646,2.1648743,1.3293316,-1.0363919,1.5569063,-0.8949417,-1.8547256,-0.92896765,2.1078565,1.268788,-0.98798746,-1.4288508,1.3463722,0.19342273,0.7014709,0.9436284,0.5154582,-0.40579247,2.4488525,-0.4088285,0.9699405,-3.5981708,0.01964094,3.47562,0.32990646,-0.5499165,0.8354322,0.75167686,0.0377752,0.08598345,0.65281063,-1.1751903,0.05555684,1.0058153,1.0,0.0,0.0,0.0,0.0,0.0,0.0,-3.0988526,0.008828491,-0.41994047,0.092577934,1.2736797,-0.93824565,-6.5317273,0.8998513,-0.71685314,0.16429424
20.323593,63.850822,19.624481,2.7688236,-0.78014296,0.48770943,0.29169405,-0.79366255,0.7666842,0.10259938,0.31268337,0.66945875,0.6569985,-0.5195419,1.4775401,-0.81827325,-1.8444656,-0.8976993,2.1748023,1.3344878,-1.0399417,1.542647,-0.88138044,-1.8528221,-0.92254084,2.1173437,1.2738882,-0.99200815,-1.4257313,1.3593676,0.19046618,0.62232244,0.9508683,0.5089675,-0.40171194,2.412899,-0.40863228,1.0039341,-3.5945735,0.019621301,3.3739593,0.31840134,-0.54902005,0.8453277,0.7586957,0.029067473,0.08401634,0.6453503,-1.1405431,0.11479255,0.98093414,1.0,0.0,0.0,0.0,0.0,0.0,0.0,-3.062899,0.0086322725,-0.45393413,0.15485287,1.2863159,0.03890097,-8.153152,0.75392723,-0.45934916,0.16438961
23.69688,62.858795,19.580814,0.3557825,-1.0005393,0.3411914,0.39196804,-0.7973009,0.76950556,0.12387617,0.23400547,0.67234147,0.65511763,-0.5127338,1.462917,-0.8044299,-1.8404344,-0.8991403,2.1845777,1.3394,-1.0432816,1.5283953,-0.8677057,-1.8508327,-0.91711825,2.1268957,1.278937,-0.99598783,-1.4254254,1.3702074,0.20276912,0.51487863,0.95655894,0.5042487,-0.39744768,2.3769798,-0.4084363,1.036912,-3.5909796,0.019601684,3.2724004,0.30731583,-0.547503,0.8549348,0.76521856,0.020552445,0.082265936,0.6381617,-1.0960497,0.17717008,0.9505719,1.0,0.0,0.0,0.0,0.0,0.0,0.0,-3.02698,0.008436292,-0.48691195,-0.12710094,1.0862589,1.5604675,-10.984648,0.6061554,-0.22281408,0.19214153
27.309742,64.849144,20.905527,-0.6719594,-1.0884302,0.32954425,0.48357648,-0.7895279,0.7733134,0.16918819,0.18057838,0.67460704,0.6494355,-0.50589293,1.4494425,-0.79037434,-1.8339139,-0.8990604,2.1943564,1.3438805,-1.0465771,1.514176,-0.8539375,-1.8484962,-0.912821,2.1364973,1.2839419,-0.99992365,-1.4212406,1.3790059,0.2450564,0.40058625,0.96130955,0.50025505,-0.39307937,2.3410988,-0.40824032,1.068875,-3.5873895,0.019582087,3.1709428,0.29670334,-0.54532695,0.86426723,0.77117765,0.012209474,0.08068054,0.6313689,-1.0454195,0.24354611,0.9238553,1.0,0.0,0.0,0.0,0.0,0.0,0.0,-2.9910989,0.008240312,-0.51887494,0.27627945,0.894022,4.538316,-11.645836,0.53020716,-0.12303591,0.20890236
33.312588,61.490837,20.107723,-5.8983254,-1.5598464,-0.020469546,0.6441809,-0.7936513,0.7759985,0.18689242,0.03459319,0.6815198,0.64535797,-0.51157653,1.4348109,-0.7763377,-1.8298069,-0.90936166,2.2046492,1.3484776,-1.0510813,1.4999777,-0.8400978,-1.8456771,-0.91008776,2.1461523,1.2889162,-1.0038223,-1.4197837,1.385756,0.29506847,0.2302385,0.96713734,0.49774188,-0.3896161,2.305252,-0.40804482,1.0998242,-3.5838027,0.019562509,3.0695868,0.2867546,-0.54245186,0.87321836,0.77646387,0.004148104,0.0792792,0.625141,-0.9749989,0.31346136,0.8816917,1.0,0.0,0.0,0.0,0.0,0.0,0.0,-2.9552522,0.008044809,-0.5498242,0.014948845,0.7138014,5.2773657,-17.248142,0.65084696,0.14121532,0.14875531
42.12933,61.040398,20.746264,-11.813307,-2.1387374,-0.3282145,0.85686654,-0.785657,0.7819774,0.24004738,-0.119155824,0.67989224,0.64098215,-0.49032548,1.421412,-0.76190007,-1.8216724,-0.9220033,2.2141414,1.3530145,-1.0528549,1.4858252,-0.8261856,-1.8422039,-0.9094803,2.155853,1.2938734,-1.0076752,-1.4141052,1.3932278,0.36552,0.003538254,0.97123593,0.49659938,-0.3843529,2.2694397,-0.4078493,1.1297606,-3.5802197,0.01954295,2.968332,0.2776718,-0.5388088,0.8816661,0.78092474,-0.003497988,0.07810294,0.619713,-0.8804407,0.3913815,0.8283043,1.0,0.0,0.0,0.0,0.0,0.0,0.0,-2.9194398,0.007849306,-0.5797606,0.4728794,0.8116245,7.2584333,-22.848812,0.509274,0.396657,0.36635995
39.19423,59.81089,20.054157,-9.707376,-1.901746,-0.40771276,0.79719245,-0.7849818,0.78465754,0.26634315,-0.17188676,0.6876984,0.6377939,-0.46804205,1.407327,-0.7477198,-1.8155695,-0.92666894,2.224623,1.3576528,-1.0544794,1.471728,-0.81220376,-1.8380363,-0.9109747,2.1656072,1.2988192,-1.0114594,-1.4082834,1.400094,0.4341681,-0.20089167,0.97765285,0.49538642,-0.3769745,2.2336655,-0.40765405,1.1586852,-3.5766401,0.01952341,2.8671787,0.26950073,-0.53445125,0.88961065,0.78458154,-0.010716194,0.07713832,0.615115,-0.79074854,0.4592797,0.7787041,1.0,0.0,0.0,0.0,0.0,0.0,0.0,-2.8836656,0.007654041,-0.6086852,0.532341,0.7733345,6.943786,-20.574232,0.81056356,0.37026405,0.63002706
33.493908,58.097797,18.958418,-5.922327,-1.5088098,-0.41821945,0.67507005,-0.78690726,0.7867004,0.2917073,-0.23221037,0.69103163,0.6402226,-0.4416248,1.3930372,-0.73353374,-1.8088655,-0.9341957,2.2347105,1.3628415,-1.0556219,1.4576708,-0.79816186,-1.8332393,-0.91423625,2.1754339,1.3037516,-1.0151558,-1.4049999,1.4058715,0.4946943,-0.3683453,0.9847044,0.49418652,-0.36732343,2.1979256,-0.40745902,1.186599,-3.5730643,0.019503891,2.7661264,0.26212692,-0.52949643,0.89710915,0.7875524,-0.017551785,0.07634947,0.6112478,-0.71300155,0.51497203,0.7353251,1.0,0.0,0.0,0.0,0.0,0.0,0.0,-2.8479257,0.0074590147,-0.636599,0.30491352,0.6816387,6.0245156,-16.84984,0.93278885,0.32317042,0.895226
31.608604,57.70265,18.838554,-3.8928423,-1.3130338,-0.43740776,0.61972684,-0.77414215,0.7872394,0.332714,-0.30383614,0.6873924,0.6399649,-0.41466746,1.3802567,-0.71943796,-1.7999679,-0.94461983,2.244173,1.367748,-1.0566225,1.4436918,-0.78407705,-1.8278339,-0.918956,2.1853101,1.3086725,-1.0187416,-1.3953598,1.4097238,0.5555935,-0.506766,0.98933357,0.49297106,-0.355789,2.16222,-0.407264,1.2135031,-3.5694919,0.019484391,2.6651752,0.25549316,-0.5240207,0.9042187,0.7899177,-0.024064593,0.07570804,0.6080453,-0.64029366,0.5648797,0.69769204,1.0,0.0,0.0,0.0,0.0,0.0,0.0,-2.81222,0.0072639883,-0.6635031,0.9716511,0.50661564,5.9666276,-13.924128,0.7438779,0.30544996,1.107508
29.142195,56.08692,18.13872,-2.614203,-1.1907634,-0.48682505,0.5768081,-0.77818507,0.7890189,0.36729097,-0.38800457,0.6842148,0.64136213,-0.3970552,1.3658733,-0.70517516,-1.7911048,-0.95775646,2.2537315,1.3728088,-1.0584471,1.4297816,-0.76996076,-1.8218238,-0.9249889,2.1952093,1.3135859,-1.0222073,-1.389522,1.4126949,0.615542,-0.63579285,0.9909335,0.49194473,-0.34356382,2.1265526,-0.40706944,1.2393985,-3.5659232,0.01946491,2.5643246,0.24954987,-0.5180781,0.9109598,0.79173034,-0.030275041,0.07521033,0.60546654,-0.5714078,0.60953575,0.6607902,1.0,0.0,0.0,0.0,0.0,0.0,0.0,-2.7765527,0.0070694387,-0.68939847,0.60384274,0.42943954,5.818975,-12.970554,0.4684329,0.30961633,1.2006819
26.69463,55.62993,17.960884,-0.6431799,-0.991901,-0.47380188,0.5268859,-0.77404714,0.79082966,0.40387022,-0.43801913,0.6921161,0.6408458,-0.37667662,1.3523768,-0.6908778,-1.7814368,-0.9687908,2.264421,1.3776704,-1.0598749,1.4159304,-0.7558168,-1.8152053,-0.9321644,2.205139,1.3184878,-1.025547,-1.3837265,1.41542,0.6765053,-0.7449396,0.9946449,0.49083748,-0.33075705,2.0909195,-0.4068749,1.264286,-3.562358,0.01944545,2.4635751,0.24425125,-0.5117166,0.9173673,0.7930426,-0.036213964,0.074833065,0.60346663,-0.50876063,0.649671,0.62838507,1.0,0.0,0.0,0.0,0.0,0.0,0.0,-2.7409196,0.006874889,-0.714286,0.61023235,0.4172802,5.865741,-10.97287,0.713706,0.28162003,1.2758791
22.7985,56.093536,18.07483,2.8650613,-0.68605226,-0.35524,0.44012812,-0.7707799,0.79213095,0.44396752,-0.45431697,0.68265915,0.64000297,-0.33731598,1.3388524,-0.67660373,-1.7708086,-0.97759604,2.2734048,1.382488,-1.0592786,1.4021326,-0.7416481,-1.8079517,-0.9401619,2.2150724,1.3233763,-1.0287418,-1.3783131,1.4179916,0.7408658,-0.8183302,0.99436504,0.48942274,-0.31570214,2.0553207,-0.40668058,1.2881669,-3.5587964,0.019426009,2.3629262,0.2394867,-0.5049808,0.9235222,0.79392713,-0.041971304,0.0745432,0.6019646,-0.4575334,0.68584406,0.60529053,1.0,0.0,0.0,0.0,0.0,0.0,0.0,-2.7053208,0.006680578,-0.73816687,0.56967735,0.41537285,6.1558723,-7.3998094,0.3581047,0.21699667,1.5071929
17.481298,55.142323,17.414097,7.06905,-0.3078396,-0.26279938,0.3018372,-0.76677823,0.79401153,0.45901105,-0.44719884,0.6791769,0.63758916,-0.30396378,1.3254548,-0.66224694,-1.7620506,-0.98488176,2.28299,1.3871353,-1.0591382,1.3883921,-0.7274517,-1.800143,-0.94856185,2.2249868,1.3282477,-1.0317745,-1.372649,1.4208667,0.79316586,-0.8475159,0.99203074,0.487463,-0.29917863,2.0197601,-0.4064865,1.311042,-3.5552382,0.019406587,2.262378,0.23513794,-0.4979334,0.92951363,0.7944897,-0.04764565,0.07432004,0.60082644,-0.4203536,0.7147469,0.5909007,1.0,0.0,0.0,0.0,0.0,0.0,0.0,-2.6697602,0.0064865053,-0.76104194,0.5764961,0.45528412,4.933667,-3.0028343,0.17217398,0.11557937,1.6495466
12.438863,52.181465,16.004097,10.077194,0.0041840076,-0.24512781,0.19001278,-0.77260154,0.79273885,0.4727228,-0.45121223,0.6805879,0.63937235,-0.2752508,1.311132,-0.6481778,-1.7528707,-0.9936831,2.2930455,1.3921849,-1.0592996,1.3746649,-0.7132381,-1.7919128,-0.95705813,2.234882,1.3331019,-1.0346375,-1.372785,1.4220881,0.8320414,-0.85072446,0.9900399,0.48544472,-0.2819141,1.9842339,-0.40629244,1.3329123,-3.551684,0.019387184,2.1619303,0.23106384,-0.4906571,0.9353846,0.794835,-0.05328402,0.07415522,0.599916,-0.39453873,0.73537666,0.57942003,1.0,0.0,0.0,0.0,0.0,0.0,0.0,-2.634234,0.0062924325,-0.7829123,-0.032758713,0.29082298,3.6150694,-0.4339695,0.19513369,0.067180395,1.7177165
8.397874,48.73575,14.443246,12.093284,0.21961063,-0.27684313,0.101837136,-0.7799849,0.7916539,0.48107004,-0.44946828,0.676454,0.6349566,-0.2439064,1.2966664,-0.6340727,-1.7438058,-1.002005,2.3025274,1.3965975,-1.0590281,1.3608862,-0.6990255,-1.7833984,-0.9654743,2.244747,1.3379313,-1.0373211,-1.3798392,1.4216281,0.85710585,-0.83902425,0.98669714,0.4828621,-0.2638769,1.9487419,-0.40609884,1.353779,-3.548133,0.019367801,2.061583,0.22719193,-0.4832294,0.9411416,0.7950453,-0.058889933,0.07406098,0.59912425,-0.37652326,0.7485809,0.56798166,1.0,0.0,0.0,0.0,0.0,0.0,0.0,-2.598742,0.0060988367,-0.80377895,-0.7546663,0.11911392,2.2740006,1.030159,0.03656149,-0.02567172,1.788497
4.9321556,46.59404,13.506483,14.372129,0.4366461,-0.2455154,0.024464136,-0.78747624,0.79074293,0.4931537,-0.42443436,0.66767085,0.63783956,-0.20451976,1.2821386,-0.61995125,-1.734083,-1.0079178,2.311514,1.4017153,-1.0577731,1.346995,-0.6848253,-1.7746875,-0.97363204,2.2545583,1.3427378,-1.039814,-1.392333,1.4199861,0.8752522,-0.8085398,0.98029,0.48047307,-0.24436843,1.9132881,-0.40590525,1.3736428,-3.5445855,0.019348437,1.9613359,0.22343826,-0.47570443,0.9468074,0.7951899,-0.06449178,0.07404355,0.59835726,-0.36679658,0.7569232,0.55951035,1.0,0.0,0.0,0.0,0.0,0.0,0.0,-2.5632882,0.005905241,-0.8236428,-1.3276815,-0.00021457672,1.6105294,2.885294,-0.27873516,-0.03992319,1.9281626
2.8539758,44.238434,12.627659,16.058437,0.60520875,-0.26189634,-0.03651517,-0.7844659,0.78643566,0.49003333,-0.38410816,0.65777785,0.64246136,-0.14963749,1.2685484,-0.60618174,-1.7256842,-1.0120429,2.320336,1.406984,-1.0547777,1.3330084,-0.6706623,-1.7658832,-0.9813177,2.2642782,1.3475252,-1.0420895,-1.4012613,1.4156715,0.8816587,-0.7558639,0.9706875,0.47865352,-0.22201085,1.8778687,-0.4057119,1.392505,-3.5410416,0.019329093,1.8611889,0.219738,-0.46813107,0.9524073,0.7953204,-0.07012771,0.07410562,0.59754145,-0.36250663,0.7604293,0.5535708,1.0,0.0,0.0,0.0,0.0,0.0,0.0,-2.5278687,0.0057118833,-0.84250504,-0.9829521,-0.26888847,0.45211315,5.083704,-0.60806274,-0.00693202,2.2008328
-5.0133314,41.76083,11.126358,22.200727,1.1851234,-0.07104722,-0.23732702,-0.8025908,0.7869903,0.46781063,-0.27921686,0.64951515,0.64613104,-0.08275894,1.2527493,-0.59196323,-1.7191021,-1.0092394,2.3292296,1.4121383,-1.0503653,1.3188711,-0.6565355,-1.7571666,-0.9880554,2.2738912,1.3522955,-1.0441113,-1.4182345,1.4121566,0.86768603,-0.64722896,0.9593677,0.4767672,-0.19581957,1.8424835,-0.40551877,1.4103665,-3.5375013,0.019309768,1.761142,0.21590805,-0.46059203,0.9580396,0.7955712,-0.07591063,0.07422815,0.5964847,-0.3806352,0.7545926,0.5596722,1.0,0.0,0.0,0.0,0.0,0.0,0.0,-2.4924836,0.0055187643,-0.8603665,-1.8529415,-0.18692017,-1.547432,10.624599,-0.77109337,-0.08884668,2.5657177
-9.078865,39.756107,10.20428,26.019274,1.5546641,0.02223304,-0.37306595,-0.80355644,0.7835445,0.44492075,-0.18524447,0.6468084,0.6452033,-0.06514355,1.2385155,-0.578181,-1.7126745,-1.0065799,2.338572,1.4168159,-1.0506256,1.3045851,-0.6424507,-1.7487228,-0.99339217,2.283405,1.3570448,-1.0458813,-1.432721,1.4077597,0.8362755,-0.49665132,0.9495543,0.4745432,-0.1710249,1.8071365,-0.40532565,1.4272283,-3.5339646,0.019290462,1.6611953,0.21179962,-0.45315504,0.96379536,0.79606,-0.081949614,0.07437795,0.59501296,-0.41204497,0.7430491,0.5743143,1.0,0.0,0.0,0.0,0.0,0.0,0.0,-2.4571366,0.005325645,-0.8772283,-1.6288996,-0.2780676,-3.277862,14.79258,-0.6188035,-0.17317533,2.4119794
-13.417429,38.70166,9.547249,30.097065,1.8932046,0.17225316,-0.5124835,-0.817628,0.7856449,0.41582456,-0.07125675,0.6352409,0.64556384,-0.03937328,1.2228223,-0.5638862,-1.7071403,-1.0005178,2.346929,1.4216012,-1.0498186,1.2901255,-0.62839067,-1.7407043,-0.99693793,2.2928083,1.3617712,-1.047411,-1.4510415,1.405874,0.789936,-0.3081653,0.93821454,0.47196597,-0.14724045,1.7718239,-0.405133,1.4430914,-3.5304313,0.019271176,1.5613484,0.2072792,-0.4458561,0.9697676,0.7968897,-0.088356905,0.07454038,0.5929617,-0.4575647,0.72874147,0.5983219,1.0,0.0,0.0,0.0,0.0,0.0,0.0,-2.421824,0.005133003,-0.8930914,-2.0433426,-0.03376007,-4.7529697,18.568499,-0.76138973,-0.270468,2.3029656
-16.781765,36.345207,8.631404,33.55769,2.2384844,0.27261424,-0.62789416,-0.8180826,0.77812976,0.37353322,0.07235695,0.6299089,0.650576,-0.005227754,1.2083173,-0.5505777,-1.703351,-0.9897022,2.3557992,1.4268289,-1.0479337,1.275519,-0.6143755,-1.7332771,-0.9982931,2.302101,1.3664747,-1.0487041,-1.4644278,1.4006547,0.72661495,-0.079008125,0.9276389,0.46956453,-0.12360907,1.7365456,-0.40494037,1.4579567,-3.5269017,0.01925191,1.4616014,0.20219421,-0.43873358,0.97603637,0.7981435,-0.095241934,0.07467877,0.5901854,-0.51579624,0.7105384,0.6300708,1.0,0.0,0.0,0.0,0.0,0.0,0.0,-2.3865457,0.004940361,-0.90795666,-1.5485048,-0.37751198,-6.461656,22.631021,-0.67418814,-0.31341314,2.2771313
-18.252085,39.114304,10.06036,37.294136,2.4701893,0.5595436,-0.6879933,-0.8226493,0.78010243,0.36257952,0.23553398,0.61403716,0.65721613,0.028047526,1.1932541,-0.5363652,-1.6970191,-0.97473973,2.3635046,1.4321964,-1.0458994,1.2608057,-0.60039747,-1.726424,-0.99706095,2.3112638,1.3711573,-1.0497608,-1.4744724,1.397394,0.6711321,0.18977657,0.914127,0.46739092,-0.10000552,1.7013054,-0.40474796,1.4718252,-3.5233755,0.01923266,1.361954,0.19643784,-0.43173838,0.982725,0.7998472,-0.10277866,0.07473973,0.58659595,-0.58602685,0.7002566,0.67565227,1.0,0.0,0.0,0.0,0.0,0.0,0.0,-2.3513055,0.004747957,-0.92182523,-1.2017488,-0.19569397,-5.6993484,26.627502,-0.9375453,-0.36450624,2.2675247
-16.836933,33.36834,7.5849257,33.64199,2.1711028,0.23692757,-0.69219464,-0.83106357,0.7731729,0.27597862,0.29937288,0.60407704,0.6507871,-0.035548218,1.1776993,-0.52308017,-1.6988261,-0.9671237,2.3716714,1.436236,-1.0533156,1.2459913,-0.58647287,-1.7203739,-0.993416,2.3202856,1.375817,-1.0506535,-1.4843017,1.3911436,0.5823898,0.4219843,0.89924794,0.46502402,-0.08584672,1.6660957,-0.4045558,1.484698,-3.5198529,0.019213432,1.2624062,0.19007492,-0.42488265,0.98974234,0.80200845,-0.110872656,0.07479128,0.5821476,-0.64476174,0.6859902,0.7042977,1.0,0.0,0.0,0.0,0.0,0.0,0.0,-2.3160958,0.0045557916,-0.93469805,-1.1462688,-0.5172968,-9.009266,22.990381,-1.123476,-0.36852956,1.3369948
-7.2477303,33.49853,8.1789665,24.289997,1.2662394,-0.19466558,-0.44350743,-0.8290332,0.7724128,0.2533847,0.29166487,0.6035064,0.64813924,-0.09409522,1.1630881,-0.50923157,-1.6950355,-0.96424955,2.3806362,1.4406309,-1.060063,1.2311178,-0.5726055,-1.715163,-0.9881622,2.3291776,1.3804594,-1.0514717,-1.4886997,1.3854383,0.50041276,0.5592357,0.8868783,0.4637098,-0.08078686,1.6309242,-0.40436363,1.4965762,-3.5163338,0.019194223,1.1629581,0.18337631,-0.41811085,0.9968631,0.8044848,-0.11926205,0.07494415,0.5770305,-0.66895014,0.680652,0.7086833,1.0,0.0,0.0,0.0,0.0,0.0,0.0,-2.2809243,0.0043636262,-0.9465762,-0.5602598,-0.49073696,-8.254898,13.537561,-0.96343756,-0.15907288,0.42529702
2.0337896,32.422447,8.0798,14.0090275,0.31633824,-0.72850734,-0.17625633,-0.8337933,0.77083623,0.213868,0.2529515,0.60118294,0.649539,-0.12150952,1.1477385,-0.49552187,-1.6937762,-0.9628671,2.3892958,1.4454134,-1.0636227,1.2162062,-0.5587896,-1.7107418,-0.9823496,2.3379667,1.3850981,-1.0522785,-1.4923576,1.3804508,0.4228274,0.5879956,0.87657815,0.4642551,-0.08072123,1.595787,-0.40417194,1.5074606,-3.512818,0.019175032,1.0636094,0.17671967,-0.41136932,1.0038153,0.80708945,-0.12760924,0.07532278,0.57153213,-0.65534574,0.67903614,0.6849487,1.0,0.0,0.0,0.0,0.0,0.0,0.0,-2.2457871,0.0041719377,-0.9574606,-0.46818256,-0.43530464,-7.718575,2.7042508,-0.8529544,0.16766787,-0.075006485
9.852939,30.578312,7.600973,4.8325777,-0.4851349,-1.2621771,0.06174202,-0.8343741,0.7661905,0.1715274,0.18955873,0.59802026,0.65102303,-0.1345088,1.1327688,-0.48217055,-1.693589,-0.9633937,2.3977687,1.4502004,-1.0657294,1.2012717,-0.54503095,-1.707072,-0.97696894,2.346668,1.389752,-1.0530987,-1.4940567,1.3745399,0.34879103,0.5209402,0.8678502,0.46655262,-0.082921855,1.5606842,-0.40398026,1.5173522,-3.509306,0.019155862,0.96436,0.17045975,-0.4046557,1.0103425,0.8096651,-0.1355802,0.076046966,0.56593037,-0.6079001,0.67587894,0.63648665,1.0,0.0,0.0,0.0,0.0,0.0,0.0,-2.2106843,0.003980249,-0.9673522,-0.2469778,-0.5295992,-7.300997,-6.8656325,-0.7763028,0.47892332,-0.29577464
17.761032,30.113056,7.757264,-4.070963,-1.233872,-1.770415,0.34167597,-0.8365202,0.7642292,0.15153584,0.06713201,0.6101233,0.6507746,-0.087809525,1.1176196,-0.46860802,-1.6919185,-0.97025573,2.4076803,1.4548295,-1.0618796,1.1863219,-0.53132665,-1.704026,-0.97297686,2.3553312,1.3944346,-1.0539074,-1.4953475,1.3692602,0.29031125,0.35813305,0.86610955,0.47012386,-0.08048485,1.5256195,-0.4037888,1.5262522,-3.5057974,0.01913671,0.8652098,0.16491318,-0.39798236,1.0162194,0.8120491,-0.14285684,0.07719801,0.56054324,-0.5273874,0.67064846,0.56623983,1.0,0.0,0.0,0.0,0.0,0.0,0.0,-2.1756196,0.003788799,-0.97625214,-0.16491413,-0.46067238,-5.7047963,-16.408587,-0.15226603,0.72941184,0.18229187
21.93843,31.864864,8.784691,-7.907795,-1.5518098,-1.9769857,0.5336244,-0.8413126,0.7657147,0.15102349,-0.03078116,0.6228299,0.65938157,0.016880646,1.1021906,-0.4547552,-1.6889236,-0.97605497,2.4176142,1.4603727,-1.0522193,1.1713454,-0.51765287,-1.701369,-0.970957,2.3640325,1.3991591,-1.0546112,-1.4984022,1.367012,0.25768957,0.14973985,0.8716568,0.47468236,-0.067234814,1.4905853,-0.4035976,1.5341613,-3.5022922,0.019117577,0.76615876,0.16028976,-0.39135242,1.0213456,0.8141093,-0.14927188,0.07878241,0.55564135,-0.431687,0.6655275,0.48988503,1.0,0.0,0.0,0.0,0.0,0.0,0.0,-2.1405854,0.0035975873,-0.9841613,-0.29873848,-0.14710426,-3.132069,-20.918993,0.5507827,0.85974336,1.284492
24.321632,32.14568,9.385154,-9.772546,-1.6393275,-2.1207473,0.67355156,-0.831698,0.75758404,0.1531568,-0.13526788,0.6264819,0.6586252,0.14105017,1.0881755,-0.44189447,-1.6860534,-0.9844838,2.4266808,1.4650216,-1.0405062,1.1563917,-0.50402486,-1.6988704,-0.97114295,2.3728101,1.4039255,-1.05509,-1.494142,1.3617464,0.24739115,-0.07480884,0.87979066,0.47883528,-0.041540064,1.4555893,-0.40340638,1.5410807,-3.4987905,0.019098463,0.66720676,0.15668106,-0.38478088,1.0256964,0.8157523,-0.15476355,0.080755964,0.55142975,-0.3288185,0.6578467,0.4121954,1.0,0.0,0.0,0.0,0.0,0.0,0.0,-2.1055894,0.0034063756,-0.9910807,0.50935745,-0.4323721,-0.98388493,-22.480547,0.815022,0.82339644,2.5554075
19.460598,31.139883,8.949184,-4.456911,-1.1214991,-1.9299616,0.5527999,-0.8365805,0.75630385,0.13683468,-0.162807,0.6243231,0.65841365,0.2126005,1.0727336,-0.42839447,-1.685187,-0.98742366,2.4352424,1.4697669,-1.0338299,1.1414648,-0.49044645,-1.6964519,-0.9731857,2.3816564,1.4087263,-1.0552711,-1.4920676,1.3568463,0.23986548,-0.24758501,0.8865579,0.4814946,-0.010162454,1.4206276,-0.40321565,1.5470113,-3.4952924,0.019079369,0.5683537,0.15395355,-0.3782978,1.0293803,0.81702316,-0.15945198,0.08305108,0.5478601,-0.24573836,0.6469386,0.34918624,1.0,0.0,0.0,0.0,0.0,0.0,0.0,-2.0706277,0.0032156408,-0.99701124,0.28328896,-0.38588047,-0.7708818,-17.308594,0.7350564,0.5825639,3.1326928
7.34848,25.147493,6.0818543,7.540516,0.06542003,-1.516051,0.16446364,-0.8312391,0.7478187,0.064742856,-0.08183205,0.6173335,0.6627458,0.28796816,1.0583409,-0.41566458,-1.6899776,-0.9813689,2.4433897,1.4750009,-1.0264744,1.1265723,-0.47694528,-1.6944072,-0.9760029,2.3905408,1.4135443,-1.0551071,-1.4884104,1.3482354,0.19269446,-0.29357764,0.88920933,0.4824556,0.025174094,1.3857002,-0.4030249,1.551954,-3.4917977,0.019060293,0.4695995,0.15170288,-0.3719864,1.0326444,0.8181407,-0.16364641,0.08557287,0.5445576,-0.20933735,0.62658614,0.31424204,1.0,0.0,0.0,0.0,0.0,0.0,0.0,-2.0357003,0.003024906,-1.0019541,0.34549236,-0.75776577,-4.748109,-4.7341824,0.40527582,0.25587678,3.4935853
-3.1418657,12.966026,0.24383366,13.920374,0.87770355,-1.5491848,-0.19955334,-0.8315913,0.7376582,-0.06852917,-0.07863022,0.6248383,0.66049016,0.31522778,1.0434132,-0.40317947,-1.7012601,-0.9838659,2.4530246,1.4795933,-1.0235844,1.1117045,-0.46356523,-1.6934364,-0.97878283,2.3994558,1.4183623,-1.0546017,-1.486468,1.3348742,0.06535416,-0.27353352,0.8928308,0.48175076,0.058763266,1.350811,-0.40283442,1.5559101,-3.4883065,0.019041236,0.37094402,0.1496048,-0.36603904,1.0356116,0.8193898,-0.16747452,0.088321954,0.54106534,-0.20300476,0.5842175,0.2864913,1.0,0.0,0.0,0.0,0.0,0.0,0.0,-2.000811,0.0028344095,-1.0059102,0.117754936,-1.2461185,-12.733354,1.774019,0.49096346,-0.007915497,3.2907643
-10.348812,4.727318,-3.691727,18.519163,1.4272163,-1.5329373,-0.44724584,-0.8342617,0.7282818,-0.17381158,-0.052340165,0.6170431,0.66715974,0.35860118,1.0282784,-0.39073706,-1.7108176,-0.98401684,2.4611602,1.4850782,-1.0187416,1.0968329,-0.4503435,-1.6941326,-0.9810383,2.4083745,1.4231726,-1.0537663,-1.4877393,1.3181763,-0.11441692,-0.2105375,0.8921809,0.48072946,0.09162064,1.3159523,-0.40264416,1.5588803,-3.484819,0.019022198,0.27238724,0.1473999,-0.36061072,1.038345,0.82098645,-0.17098854,0.09133321,0.5370311,-0.218298,0.5289071,0.26489732,1.0,0.0,0.0,0.0,0.0,0.0,0.0,-1.9659523,0.0026441514,-1.0088804,-0.23801327,-1.597333,-17.949188,6.010988,0.054240227,-0.11489391,3.1921892
-9.00303,3.4469085,-3.9130857,16.488668,1.2825865,-1.6362362,-0.38859013,-0.83512086,0.71459097,-0.21778409,-0.09730865,0.6094825,0.66611403,0.35767525,1.0133208,-0.37888438,-1.715911,-0.99076915,2.4693227,1.489784,-1.0179987,1.0819403,-0.43732154,-1.6965511,-0.9828827,2.417259,1.4279734,-1.0526371,-1.489957,1.297104,-0.28423572,-0.17662852,0.8874356,0.47973216,0.11971517,1.2811317,-0.4024539,1.5608656,-3.4813347,0.01900318,0.17392896,0.14509583,-0.35574198,1.040819,0.82294893,-0.1741402,0.09461862,0.532426,-0.22765063,0.472847,0.2380456,1.0,0.0,0.0,0.0,0.0,0.0,0.0,-1.9311317,0.0024538934,-1.0108657,-0.28665066,-2.0398617,-16.970995,3.134623,-0.37850142,-0.10047555,2.722019
1.0807204,6.7273517,-1.6975327,5.238234,0.23927963,-2.090835,-0.012857754,-0.8370529,0.7014942,-0.22659533,-0.27261278,0.595872,0.67221856,0.3335432,0.998235,-0.36717212,-1.7192106,-1.010144,2.4768462,1.4951953,-1.0192828,1.0670248,-0.42452896,-1.7002761,-0.98534125,2.4260519,1.4327742,-1.0512753,-1.4917538,1.27366,-0.4019566,-0.26939645,0.87646353,0.4807904,0.14137723,1.2463455,-0.40226412,1.5618672,-3.477854,0.018984182,0.07556912,0.14301682,-0.35141945,1.0428166,0.82509565,-0.17663357,0.09822547,0.5276074,-0.19510064,0.41879636,0.18401857,1.0,0.0,0.0,0.0,0.0,0.0,0.0,-1.8963455,0.0022641122,-1.0118673,-0.09508133,-2.2491693,-11.837292,-9.408238,-1.0702848,0.23776889,2.134657
11.154938,17.456167,3.6634412,-1.806397,-0.6505407,-2.1908588,0.3345019,-0.83366716,0.70360404,-0.19662198,-0.38286278,0.5762873,0.6762989,0.29968634,0.98365813,-0.35416853,-1.7199383,-1.0236275,2.4836805,1.5004041,-1.0213066,1.052117,-0.4119066,-1.7045887,-0.9893467,2.4346807,1.437596,-1.0497513,-1.4899281,1.2588713,-0.44127446,-0.44442707,0.8586017,0.48323676,0.15602219,1.2115936,-0.40207434,1.5618858,-3.474377,0.018965201,-0.02269238,0.14151764,-0.34751344,1.0441902,0.827185,-0.1782841,0.102166735,0.52301204,-0.12913167,0.38072786,0.11921237,1.0,0.0,0.0,0.0,0.0,0.0,0.0,-1.8615936,0.002074331,-1.0118859,0.34399033,-1.3487577,-4.0593386,-17.531973,-1.761961,0.45881867,1.4816284
14.303778,22.688234,6.268229,-2.8637176,-0.9004954,-2.1301188,0.45243818,-0.8331997,0.7005623,-0.20555435,-0.44406494,0.54784954,0.67508703,0.32397532,0.968797,-0.34185037,-1.725144,-1.0337532,2.4894657,1.5051047,-1.0173538,1.0372378,-0.39938533,-1.7089946,-0.9952261,2.4430692,1.4424406,-1.0480862,-1.4867446,1.2503767,-0.4409773,-0.6357901,0.83222926,0.4855556,0.1700157,1.1768761,-0.4018848,1.5609226,-3.4709032,0.01894624,-0.12085564,0.1407547,-0.34391618,1.0449203,0.8290876,-0.17907265,0.1064301,0.5188633,-0.054583322,0.35123685,0.054996304,1.0,0.0,0.0,0.0,0.0,0.0,0.0,-1.826876,0.0018847883,-1.0109227,0.5056143,-0.7023573,-0.15096068,-19.123734,-2.5835156,0.44254065,1.4390767
13.00791,24.054651,6.872367,-0.1385727,-0.72667575,-1.9747128,0.4053762,-0.8311632,0.6991151,-0.22500324,-0.48987067,0.52278155,0.67186344,0.34637788,0.9541215,-0.32947382,-1.7314949,-1.0442132,2.4953473,1.509627,-1.0134484,1.0223967,-0.38691127,-1.7133338,-1.0028285,2.4511564,1.4473006,-1.0462837,-1.4827803,1.2469325,-0.43238664,-0.801743,0.80076003,0.48675627,0.18386297,1.1421928,-0.4016955,1.5589786,-3.467433,0.018927297,-0.21892075,0.14069366,-0.3405757,1.0450686,0.83079666,-0.17908432,0.110996775,0.5151557,0.012210472,0.3257784,-0.0013652729,1.0,0.0,0.0,0.0,0.0,0.0,0.0,-1.7921928,0.0016954839,-1.0089786,0.56049824,-0.19748211,0.6676197,-16.59367,-3.0598164,0.27765036,1.4190674
6.2255025,17.04527,3.2340178,4.6737328,-0.11583978,-1.9258279,0.15150121,-0.82936037,0.6975247,-0.31615624,-0.51575226,0.52591395,0.66927034,0.34325668,0.93946064,-0.3171588,-1.7449495,-1.0544037,2.5037477,1.5142276,-1.011958,1.0075918,-0.37445343,-1.7179878,-1.0117224,2.4589841,1.4521643,-1.0443611,-1.4791545,1.2457393,-0.47672802,-0.91894233,0.7768608,0.4863715,0.19491524,1.107544,-0.4015062,1.5560546,-3.4639664,0.018908374,-0.31688786,0.14110565,-0.33756685,1.044713,0.83245623,-0.17839639,0.11585301,0.511634,0.05555224,0.2891392,-0.049997475,1.0,0.0,0.0,0.0,0.0,0.0,0.0,-1.7575439,0.0015061796,-1.0060546,0.4796505,-0.0015735626,-4.5482693,-11.785078,-2.3446083,0.016003847,1.0944903
1.323271,11.510226,0.5128479,8.053324,0.36629093,-1.8764173,-0.021864954,-0.82953954,0.69398785,-0.3630863,-0.56233126,0.5242629,0.66562444,0.3211663,0.9246379,-0.30505463,-1.7542964,-1.0679556,2.5114105,1.5187267,-1.0122445,0.9928118,-0.3620137,-1.7233188,-1.0215586,2.4666288,1.4570147,-1.0423622,-1.4774041,1.2437254,-0.55191064,-1.0054342,0.76029825,0.48465648,0.20142083,1.0729294,-0.40131736,1.5521517,-3.460503,0.01888947,-0.41475698,0.14183807,-0.33498,1.0439115,0.8342043,-0.17705555,0.12095817,0.5080587,0.08066066,0.24448714,-0.093271635,1.0,0.0,0.0,0.0,0.0,0.0,0.0,-1.7229294,0.001317352,-1.0021517,0.24878979,-0.10962486,-7.549894,-8.763277,-1.6560435,-0.1945138,0.600785
-3.390121,6.2585316,-2.1224537,11.325572,0.7853756,-1.803183,-0.18858747,-0.8346221,0.6899145,-0.4209899,-0.5894746,0.49622798,0.65986854,0.29406744,0.90934956,-0.29302225,-1.7654178,-1.0805061,2.5162516,1.5230016,-1.0129554,0.9780127,-0.3496102,-1.7295845,-1.032051,2.474075,1.4618403,-1.0403347,-1.4806932,1.2394141,-0.6511609,-1.0641689,0.7392707,0.48158938,0.20303701,1.038353,-0.40112853,1.5472708,-3.4570432,0.018870585,-0.51252824,0.14270401,-0.3328817,1.0427152,0.83615476,-0.17511354,0.12629987,0.50421107,0.0887444,0.19388139,-0.13143045,1.0,0.0,0.0,0.0,0.0,0.0,0.0,-1.688353,0.0011285245,-0.99727076,-0.31495094,-0.37088394,-9.84646,-6.0363054,-2.154982,-0.40419698,0.062328577
-6.037647,2.2525961,-3.8498213,12.979727,1.1092589,-1.7674412,-0.27405924,-0.83056754,0.6803343,-0.47499457,-0.6219232,0.49541605,0.65379006,0.22927599,0.89495593,-0.28157678,-1.7770839,-1.0942433,2.5236168,1.5272193,-1.0174071,0.9631926,-0.3372916,-1.7369144,-1.0430354,2.481346,1.4666296,-1.0383472,-1.4824102,1.2295228,-0.76000714,-1.1103816,0.7227221,0.4776338,0.1968448,1.0038071,-0.40093994,1.5414128,-3.4535868,0.018851718,-0.6102018,0.1435585,-0.3313241,1.041155,0.83837336,-0.17260048,0.13181971,0.49996266,0.085245095,0.13834018,-0.16713212,1.0,0.0,0.0,0.0,0.0,0.0,0.0,-1.653807,0.00093993545,-0.9914128,-0.16741753,-0.9510994,-10.761142,-4.8018456,-1.7408729,-0.5418241,-0.74655116
-6.5775347,1.381351,-3.9111025,13.909853,1.2396176,-1.6715899,-0.27670124,-0.8303602,0.6683389,-0.5005348,-0.6524818,0.46454954,0.645663,0.16901164,0.8801566,-0.2704577,-1.7869679,-1.1082835,2.5278008,1.5311959,-1.0214461,0.9483601,-0.3251189,-1.7452075,-1.0544528,2.488403,1.4713751,-1.0364704,-1.4834797,1.2132912,-0.8519031,-1.1527102,0.6994128,0.4730127,0.1841184,0.9692993,-0.4007516,1.5345789,-3.450134,0.01883287,-0.7077777,0.14435577,-0.33030796,1.0392536,0.8408607,-0.16955554,0.13745748,0.4952872,0.07671778,0.08469921,-0.20059727,1.0,0.0,0.0,0.0,0.0,0.0,0.0,-1.6192993,0.00075158477,-0.9845789,-0.117874146,-1.5958548,-9.046793,-4.411769,-2.4149656,-0.6303787,-1.4138579
-6.788476,4.625949,-2.6252823,16.804361,1.4286835,-1.4225023,-0.307572,-0.83548737,0.67395073,-0.53590757,-0.6487951,0.47334927,0.640796,0.10492051,0.86481136,-0.2577238,-1.7987983,-1.1193323,2.535738,1.5354548,-1.0259783,0.9334923,-0.31306016,-1.7542999,-1.0661486,2.4952886,1.4760729,-1.0347652,-1.4882821,1.2034004,-0.9273836,-1.1758833,0.6846692,0.46800607,0.16541183,0.9348221,-0.40056324,1.52677,-3.4466846,0.01881404,-0.805256,0.14502335,-0.32975316,1.0370886,0.8436008,-0.166091,0.14314637,0.49016386,0.061099958,0.041014347,-0.22435296,1.0,0.0,0.0,0.0,0.0,0.0,0.0,-1.584822,0.0005632341,-0.97677,-0.6176233,-0.97515583,-7.278621,-2.533555,-1.5463352,-0.7114768,-2.0284057
-4.972214,6.5110316,-1.1511431,16.650312,1.3656963,-1.3208555,-0.21063314,-0.8258472,0.6564185,-0.5413831,-0.6795435,0.43627173,0.63502026,0.099697836,0.85090756,-0.24741831,-1.8084382,-1.134103,2.5389159,1.539575,-1.0247954,0.9186255,-0.30114448,-1.7639205,-1.0781039,2.5019605,1.4807211,-1.0332375,-1.4866488,1.1877322,-0.9728731,-1.2029318,0.6615012,0.4632154,0.14787515,0.900383,-0.40037537,1.517987,-3.4432385,0.01879523,-0.90263695,0.14556503,-0.3295896,1.0346924,0.8465212,-0.16227262,0.14883456,0.484683,0.048633236,0.0036171079,-0.24712539,1.0,0.0,0.0,0.0,0.0,0.0,0.0,-1.550383,0.00037536025,-0.967987,0.023508072,-1.5452385,-4.310024,-2.9024124,-2.347207,-0.6734669,-1.9009799
-3.4298508,10.627465,1.0070639,18.258745,1.4020505,-1.0929397,-0.15152338,-0.83082765,0.652673,-0.53227925,-0.6809268,0.4320048,0.63589394,0.06906068,0.8355427,-0.23587719,-1.8171484,-1.1461966,2.545161,1.5443106,-1.0263314,0.90375483,-0.2893728,-1.7737396,-1.0902652,2.5084264,1.4853293,-1.0318909,-1.4880476,1.1737245,-0.98382676,-1.2212455,0.6418399,0.45915154,0.12975343,0.8659744,-0.4001875,1.5082309,-3.439796,0.018776437,-0.9999204,0.14598083,-0.32971478,1.0321175,0.8495447,-0.15820083,0.15445831,0.47894564,0.035991274,-0.022294527,-0.26310694,1.0,0.0,0.0,0.0,0.0,0.0,0.0,-1.5159744,0.00018748641,-0.9582309,-0.39525032,-1.3777494,-0.7691264,-2.0437717,-1.9565105,-0.60501695,-1.9547254
-3.1115203,10.822088,1.2952931,18.636158,1.3852507,-1.0254608,-0.11528596,-0.8286598,0.64053285,-0.54639155,-0.69227105,0.39047295,0.6333383,0.09073082,0.8208889,-0.2253195,-1.8283787,-1.1594923,2.5474737,1.5486631,-1.0228177,0.88887846,-0.27776086,-1.7835948,-1.1025943,2.5146177,1.4898993,-1.0306911,-1.4884062,1.1571177,-0.9848787,-1.2375387,0.6116317,0.45553616,0.11625379,0.831604,-0.39999986,1.4975028,-3.4363568,0.018757666,-1.0971067,0.1462822,-0.33007812,1.0293883,0.8526244,-0.15392432,0.16001648,0.4730049,0.023957007,-0.045088097,-0.27821007,1.0,0.0,0.0,0.0,0.0,0.0,0.0,-1.481604,-1.4901161e-07,-0.9475028,-0.31950474,-1.6394377,0.24425983,-1.8386841,-3.0030966,-0.56023,-1.4975533
-3.0520742,10.097492,1.2189639,18.687243,1.365251,-0.9853674,-0.07108064,-0.83061284,0.6248395,-0.54098773,-0.7056687,0.34334636,0.633238,0.13212855,0.8058172,-0.21527691,-1.8376936,-1.1731611,2.5489523,1.5532231,-1.0174783,0.8739897,-0.26635063,-1.7933815,-1.115095,2.5204084,1.4944369,-1.0295753,-1.4900242,1.1357138,-0.9754546,-1.2548962,0.5683562,0.4525024,0.10939163,0.7972641,-0.39981246,1.4858035,-3.4329212,0.018738912,-1.1941957,0.14646912,-0.33065987,1.0265023,0.8557204,-0.14945264,0.16553873,0.46690837,0.012296237,-0.066475786,-0.2939353,1.0,0.0,0.0,0.0,0.0,0.0,0.0,-1.4472641,-0.00018754601,-0.9358035,-0.46281815,-2.1220446,1.3078332,-1.9352913,-4.30876,-0.4999578,-0.83941966
-3.8853555,8.516794,0.45844436,19.137295,1.4942224,-0.9688879,-0.07570337,-0.832935,0.61346066,-0.54915273,-0.71255976,0.3409347,0.62825,0.13433233,0.7906962,-0.20500456,-1.8482968,-1.186351,2.5545018,1.5572618,-1.0161421,0.85907423,-0.2551664,-1.8031013,-1.1277579,2.5258176,1.4989439,-1.028511,-1.4931514,1.1126829,-0.9694207,-1.2706923,0.5316106,0.44929358,0.10475631,0.76296234,-0.39962506,1.473134,-3.429489,0.018720178,-1.2911878,0.14650726,-0.33146834,1.0234623,0.8588257,-0.14478377,0.17100477,0.46066627,-0.0034479813,-0.08925006,-0.30913684,1.0,0.0,0.0,0.0,0.0,0.0,0.0,-1.4129623,-0.00037494302,-0.923134,-0.63972473,-2.2953987,1.0138392,-1.7799854,-3.6759257,-0.5394578,-0.6228149
-6.231144,2.2057257,-2.334093,18.22376,1.5586166,-1.0960494,-0.10320412,-0.82944417,0.5814164,-0.57251185,-0.73089474,0.2563176,0.6218022,0.14359912,0.77612984,-0.19702476,-1.8603525,-1.2008474,2.5514493,1.5611241,-1.0141511,0.8441521,-0.24431074,-1.8128917,-1.1406173,2.5306852,1.5034167,-1.0274811,-1.4927635,1.0765178,-0.9809801,-1.2916747,0.4718417,0.4457876,0.10197742,0.7286911,-0.39943814,1.4594954,-3.4260602,0.018701462,-1.3880829,0.14636612,-0.33257627,1.0202246,0.8619622,-0.1398531,0.17645673,0.45423037,-0.023975475,-0.12133405,-0.33034113,1.0,0.0,0.0,0.0,0.0,0.0,0.0,-1.3786911,-0.0005618632,-0.9094954,-0.19850731,-3.6254406,-0.80406666,-2.2722006,-6.017852,-0.58077574,-0.46289563
-5.753564,4.028071,-1.8173316,18.646128,1.3074105,-1.0114949,-0.100815445,-0.83268267,0.57718927,-0.56944335,-0.73710036,0.13282691,0.6253867,0.1724267,0.7608838,-0.1865918,-1.8698361,-1.2143273,2.543968,1.5659553,-1.0102384,0.8292233,-0.23377717,-1.8227985,-1.153673,2.534664,1.5078608,-1.0264511,-1.493929,1.0455958,-0.99245524,-1.3108613,0.3732978,0.4430829,0.10256481,0.694458,-0.39925122,1.4448886,-3.4226348,0.018682765,-1.4848812,0.14604568,-0.33396006,1.0167707,0.8651118,-0.13464381,0.18206489,0.44755435,-0.03916727,-0.14714989,-0.35199526,1.0,0.0,0.0,0.0,0.0,0.0,0.0,-1.344458,-0.00074878335,-0.8948886,-0.40051937,-3.103733,-0.74487925,-2.092719,-9.902287,-0.5003989,-0.15146732
-7.669626,-0.204669,-3.933493,18.303648,1.1460345,-1.0646913,-0.13741815,-0.82883716,0.54297996,-0.59791774,-0.7445529,-0.057170413,0.6252899,0.19540985,0.74633956,-0.17947917,-1.8825903,-1.2281283,2.5289469,1.5703897,-1.0069101,0.81430495,-0.22362769,-1.832936,-1.1669024,2.5372007,1.512282,-1.0253983,-1.491916,1.0046258,-1.0195668,-1.3276346,0.21360558,0.44087297,0.10540594,0.66025543,-0.39906454,1.4293145,-3.4192128,0.018664086,-1.5815827,0.1455841,-0.33563185,1.0130602,0.8682638,-0.12911396,0.18807022,0.44054168,-0.05427917,-0.17665917,-0.37893626,1.0,0.0,0.0,0.0,0.0,0.0,0.0,-1.3102554,-0.0009354651,-0.8793145,-0.028777122,-4.1250944,-2.33922,-1.8319368,-16.050625,-0.4497707,0.020167232
-7.5137677,1.0023446,-3.6282108,19.094511,0.6642356,-0.936682,-0.1414592,-0.8339324,0.52065843,-0.5921559,-0.7363944,-0.36752278,0.6408316,0.23759681,0.73091173,-0.17156184,-1.8921516,-1.2405418,2.5004485,1.5763652,-1.0016385,0.79938185,-0.21390831,-1.8432834,-1.1802119,2.537399,1.5166956,-1.0242882,-1.4934756,0.96091956,-1.038435,-1.3323568,-0.045331728,0.44095066,0.11179819,0.626091,-0.3988781,1.4127741,-3.4157944,0.018645426,-1.6781874,0.14505005,-0.33753705,1.0090656,0.87135804,-0.12326122,0.1948737,0.433089,-0.05956984,-0.19752224,-0.40771937,1.0,0.0,0.0,0.0,0.0,0.0,0.0,-1.276091,-0.0011219084,-0.8627741,-0.4485607,-4.4045687,-1.4578342,-0.6191969,-25.977486,-0.18911362,0.30709207
-8.135692,-3.232905,-4.4513407,18.977127,0.74481606,-0.9014276,-0.025708219,-0.83143973,0.45393604,-0.55276775,-0.7342016,-0.5531527,0.6610877,0.32488078,0.7162379,-0.16851471,-1.8985602,-1.2536321,2.4820838,1.5828044,-0.99180007,0.784454,-0.2048384,-1.8535793,-1.193508,2.5347517,1.5211302,-1.0230522,-1.493535,0.8888811,-1.0252203,-1.3292266,-0.33785373,0.4437469,0.12645127,0.5919571,-0.39869165,1.3952683,-3.4123793,0.018626785,-1.7746955,0.14444351,-0.33966565,1.0047692,0.8742896,-0.117103845,0.20259044,0.4252782,-0.06775327,-0.22035557,-0.43848348,1.0,0.0,0.0,0.0,0.0,0.0,0.0,-1.2419571,-0.0013083518,-0.8452683,-0.26786327,-7.245147,1.689148,0.20706654,-29.312164,0.118780136,1.1173606
-14.536109,-20.986237,-11.204828,17.382084,1.6377857,-1.1786296,0.026619181,-0.8291777,0.33599707,-0.5537838,-0.73893845,-0.64408207,0.67377716,0.35658583,0.70153624,-0.17123869,-1.9089577,-1.2674019,2.4703434,1.5885079,-0.9873936,0.76954806,-0.196931,-1.8637016,-1.2067717,2.5293996,1.5256029,-1.0216522,-1.4896084,0.75773954,-1.0075188,-1.3254875,-0.6013206,0.44768733,0.14331022,0.5578613,-0.3985057,1.3767982,-3.4089675,0.018608162,-1.8711072,0.14352417,-0.3422203,1.0001161,0.8770388,-0.11057379,0.21090135,0.41724935,-0.10642678,-0.26921088,-0.47588742,1.0,0.0,0.0,0.0,0.0,0.0,0.0,-1.2078613,-0.0014943182,-0.82679814,0.37083626,-13.200116,1.9162655,0.34487247,-26.41697,0.208956,1.3218462
-23.79533,-43.466545,-20.637972,15.449971,2.925603,-1.5743914,0.0167147,-0.8256789,0.19766007,-0.58163667,-0.744845,-0.6635028,0.68324775,0.35817432,0.6869802,-0.177165,-1.9218652,-1.2812562,2.4630494,1.5939277,-0.9858348,0.75471556,-0.19081628,-1.8738048,-1.220024,2.5219495,1.5301138,-1.0200977,-1.4800223,0.5621806,-1.0118135,-1.3249593,-0.79311717,0.4514553,0.15843174,0.5237961,-0.39831972,1.3573647,-3.4055593,0.018589558,-1.9674226,0.14188766,-0.34552097,0.9950378,0.87969214,-0.10354455,0.21922836,0.4090955,-0.19073796,-0.35181686,-0.5200924,1.0,0.0,0.0,0.0,0.0,0.0,0.0,-1.173796,-0.0016802847,-0.80736464,1.266551,-19.710934,-0.56066513,0.11868477,-19.277977,0.10756254,1.1351645
-31.547625,-60.171505,-28.20922,14.271146,4.0332923,-1.8414155,-0.011120334,-0.82761055,0.061654687,-0.60780793,-0.751018,-0.65790886,0.684607,0.35221702,0.6719545,-0.18465081,-1.9345856,-1.2951258,2.4561586,1.5985745,-0.98487604,0.73997843,-0.186993,-1.8841331,-1.233303,2.5131643,1.5346533,-1.0184116,-1.4695594,0.3216374,-1.0409216,-1.3283114,-0.9072523,0.4537424,0.170814,0.48976517,-0.398134,1.3369688,-3.4021544,0.018570973,-2.0636415,0.1390953,-0.3498299,0.98948944,0.88237315,-0.095904864,0.22698203,0.4008729,-0.3157166,-0.45734853,-0.5679114,1.0,0.0,0.0,0.0,0.0,0.0,0.0,-1.1397651,-0.0018660128,-0.78696877,1.6382456,-24.276756,-3.278017,-0.15819073,-11.543393,-0.15108585,0.87620914
-56.608627,-125.08497,-54.441856,5.635318,6.797452,-3.0791569,0.023292284,-0.8162816,-0.37358513,-0.6259981,-0.78201276,-0.6245237,0.66626793,0.37233388,0.6583503,-0.22435153,-1.9467329,-1.3115042,2.450712,1.6012801,-0.9811782,0.7254311,-0.18715346,-1.8948905,-1.246744,2.5037801,1.5391852,-1.0166016,-1.4445149,-0.12993531,-1.0915976,-1.3474718,-0.9489723,0.45078295,0.1829853,0.4557686,-0.3979485,1.3156114,-3.398753,0.018552406,-2.159764,0.13421631,-0.35588336,0.9832308,0.8853312,-0.08734446,0.2330215,0.39275995,-0.55347294,-0.6528535,-0.64651346,1.0,0.0,0.0,0.0,0.0,0.0,0.0,-1.1057686,-0.0020515025,-0.76561135,4.1020155,-45.55506,-6.385231,-1.342988,-4.268956,-0.9666264,0.84792376
-46.056168,-110.97251,-44.2312,4.8720665,6.5062103,-2.475156,0.5099215,-0.78521633,-0.53273356,-0.4322613,-0.7900861,-0.57363844,0.6790653,0.49177134,0.6469095,-0.24042681,-1.9381167,-1.3257526,2.4464164,1.6070917,-0.96742445,0.711249,-0.1919719,-1.905194,-1.2603987,2.4944189,1.5436922,-1.0145779,-1.4045292,-0.60033196,-1.0145557,-1.3689916,-0.93171537,0.44836354,0.20864351,0.42180634,-0.397763,1.2932935,-3.395355,0.018533858,-2.2557905,0.12712097,-0.3636372,0.97622085,0.8884699,-0.077991,0.23665413,0.38540047,-0.7700781,-0.81111395,-0.72099686,1.0,0.0,0.0,0.0,0.0,0.0,0.0,-1.0718063,-0.0022369921,-0.74329346,5.480027,-47.394127,6.2668085,-1.4047861,1.7595291,-0.9517789,2.5331795
-27.002584,-76.41256,-25.432137,5.843585,5.3333707,-1.516945,0.9256992,-0.7474755,-0.6757824,-0.2590389,-0.8058755,-0.4726302,0.6329876,0.46137303,0.63650143,-0.25955015,-1.931098,-1.3409863,2.447156,1.606991,-0.96844053,0.6975714,-0.20111358,-1.9137924,-1.2743033,2.4856641,1.5481497,-1.0123177,-1.3520312,-1.0196276,-0.81236905,-1.3952686,-0.85635215,0.44284922,0.2328144,0.38787842,-0.397578,1.2700161,-3.3919604,0.018515328,-2.3517208,0.118320465,-0.37254357,0.9685581,0.8915458,-0.068232514,0.23766094,0.3794833,-0.92581123,-0.90863514,-0.7844235,1.0,0.0,0.0,0.0,0.0,0.0,0.0,-1.0378784,-0.002422005,-0.72001606,6.2856913,-42.17795,18.973373,-1.9380093,7.6734543,-1.1248052,2.7170987
-16.80368,-43.495216,-13.596518,10.699097,4.5424137,-0.708012,0.77607006,-0.74426633,-0.7448151,-0.29101428,-0.80376595,-0.28487322,0.5966059,0.41152072,0.62314475,-0.2755951,-1.9428937,-1.35468,2.457177,1.6078103,-0.9711656,0.68433535,-0.21354616,-1.9206359,-1.2884101,2.4782178,1.5525366,-1.0098705,-1.3109002,-1.3184543,-0.645858,-1.4136871,-0.7071795,0.43612197,0.25022563,0.35398483,-0.397393,1.24578,-3.388569,0.018496817,-2.4475553,0.108234406,-0.38208008,0.9604021,0.89452577,-0.05836679,0.2361865,0.37501052,-1.0428118,-0.9573656,-0.83050734,1.0,0.0,0.0,0.0,0.0,0.0,0.0,-1.0039848,-0.0026070178,-0.69578,5.088234,-30.074478,15.432156,-1.2469769,15.000749,-1.0407686,2.171731
-9.290448,-12.956702,-4.0384774,16.214033,3.939291,-0.025056958,0.50627834,-0.7229476,-0.7788813,-0.3232879,-0.7998356,-0.047875788,0.5487533,0.39160115,0.6120406,-0.2914343,-1.9529648,-1.3683937,2.4734302,1.607412,-0.9707104,0.6714798,-0.2279886,-1.9264171,-1.3026198,2.472843,1.5568396,-1.0072861,-1.2736881,-1.4866017,-0.55950904,-1.4217695,-0.48061877,0.4281253,0.26281202,0.32012558,-0.39720798,1.2205864,-3.3851812,0.018478325,-2.543294,0.09719849,-0.39181924,0.9519411,0.89748347,-0.04859607,0.2325076,0.37162086,-1.1292719,-0.96617544,-0.8570471,1.0,0.0,0.0,0.0,0.0,0.0,0.0,-0.97012556,-0.0027920306,-0.6705864,4.737115,-16.942358,7.389593,-0.3008604,22.707832,-0.8869767,1.7445505
-13.172085,0.432127,-5.013797,21.179441,3.8354058,0.22506213,-0.04047513,-0.73889875,-0.7892323,-0.46083638,-0.79381955,0.11150372,0.51654994,0.32665867,0.59758997,-0.30691183,-1.9725008,-1.3820018,2.4839933,1.6084945,-0.9746202,0.6588198,-0.24329746,-1.9324462,-1.3168257,2.4699323,1.5610529,-1.0046482,-1.2589824,-1.5460857,-0.6220384,-1.4184952,-0.22805128,0.4190487,0.2654555,0.28629684,-0.39702344,1.1944361,-3.3817966,0.01845985,-2.638937,0.085258484,-0.40155458,0.9432867,0.9006077,-0.03891114,0.22704488,0.36856776,-1.2192239,-0.96158296,-0.8748003,1.0,0.0,0.0,0.0,0.0,0.0,0.0,-0.9362968,-0.0029765666,-0.64443606,2.778554,-6.0817957,-7.6453567,0.88608265,25.207579,-0.880301,0.67166686
-15.678639,9.504868,-5.5723577,23.490276,3.220937,0.41381383,-0.41787535,-0.73851955,-0.79418606,-0.553755,-0.7888631,0.068333045,0.51822776,0.23712923,0.58496785,-0.32271606,-1.9878217,-1.395712,2.4767656,1.6128757,-0.9809353,0.6462122,-0.2586974,-1.9398124,-1.3309497,2.4689786,1.5651861,-1.0020714,-1.2567595,-1.5384674,-0.77932745,-1.4083514,-0.05153632,0.4115785,0.25584128,0.25250626,-0.3968389,1.16733,-3.3784156,0.018441394,-2.7344842,0.07248688,-0.41116595,0.9344404,0.90400165,-0.02919304,0.22045496,0.36514157,-1.3007494,-0.9456348,-0.8950785,1.0,0.0,0.0,0.0,0.0,0.0,0.0,-0.90250623,-0.0031611025,-0.61733,1.5913725,0.61359406,-17.07207,1.5892029,17.531273,-0.69411397,-0.6940305
-15.345216,16.20415,-4.3436246,23.563412,2.3444717,0.5943471,-0.563663,-0.73679477,-0.7962202,-0.6115997,-0.78808916,-0.050454926,0.5219519,0.15479589,0.5725328,-0.33831942,-2.0009723,-1.4097586,2.4639332,1.6173813,-0.9865918,0.6335789,-0.27380407,-1.9489486,-1.3449706,2.4689176,1.5692564,-0.9996659,-1.261331,-1.5019395,-0.9625343,-1.3981946,0.008061921,0.40568343,0.23587103,0.21874619,-0.3966546,1.1392692,-3.375038,0.018422956,-2.829936,0.05903244,-0.42053866,0.9253404,0.9076303,-0.01932457,0.21343723,0.3609407,-1.3633077,-0.9184492,-0.9227339,1.0,0.0,0.0,0.0,0.0,0.0,0.0,-0.86874616,-0.0033454,-0.5892692,0.810647,3.4905672,-19.510603,1.5567064,5.8032446,-0.54279566,-1.872918
-12.955106,22.071247,-1.3870754,23.359745,1.49552,0.865046,-0.5639605,-0.7500431,-0.79931355,-0.62970173,-0.7759061,-0.21491842,0.54111004,0.011431001,0.55857456,-0.35373542,-2.0119188,-1.4225612,2.4474258,1.6233674,-0.9985228,0.6208168,-0.28853595,-1.959645,-1.358858,2.4685476,1.5732924,-0.9975659,-1.2773743,-1.4641551,-1.1089765,-1.383866,-0.05279864,0.40329027,0.20135869,0.18502045,-0.39647055,1.1102546,-3.3716636,0.018404536,-2.9252925,0.04512787,-0.42954206,0.9159392,0.9113783,-0.009270004,0.20658973,0.35584304,-1.4024166,-0.8775851,-0.9539686,1.0,0.0,0.0,0.0,0.0,0.0,0.0,-0.8350204,-0.0035294592,-0.56025463,-0.47035217,3.617072,-15.708923,1.9168377,-6.2302265,-0.14716387,-3.440228
-7.336858,29.759613,4.285825,22.960413,0.7962937,1.1965649,-0.39638597,-0.7549654,-0.7976207,-0.61083925,-0.7642311,-0.32707524,0.5671632,-0.08132801,0.5453203,-0.36829802,-2.020729,-1.435281,2.4358401,1.6300087,-1.0056987,0.6078669,-0.3029579,-1.9712436,-1.3725775,2.4670446,1.577336,-0.99586457,-1.2978215,-1.43528,-1.1800411,-1.366809,-0.18293062,0.4053803,0.15963143,0.15132904,-0.3962865,1.0802872,-3.3682926,0.018386135,-3.0205536,0.031051636,-0.43803,0.9062485,0.9150902,0.00088844093,0.20025054,0.35001257,-1.4138339,-0.82183075,-0.9821295,1.0,0.0,0.0,0.0,0.0,0.0,0.0,-0.801329,-0.0037135184,-0.5302872,-1.1320591,2.7563095,-8.010221,2.0936966,-13.101228,0.40012598,-4.2023716
-3.441187,33.864475,8.101597,22.41983,0.5183972,1.3725553,-0.25665316,-0.7567032,-0.79815745,-0.612259,-0.75423384,-0.3839946,0.57231975,-0.2117322,0.5321966,-0.38277364,-2.0324695,-1.4480009,2.4286451,1.634568,-1.0170377,0.59472907,-0.31719053,-1.9831436,-1.3861197,2.4641378,1.58141,-0.9946458,-1.3167126,-1.4196062,-1.1960078,-1.3488107,-0.32673663,0.40896487,0.10932408,0.11767197,-0.3961029,1.0493679,-3.364925,0.018367752,-3.1157193,0.016963959,-0.44591737,0.8963058,0.9186646,0.011050389,0.19447663,0.34367445,-1.4098189,-0.75996435,-1.006084,1.0,0.0,0.0,0.0,0.0,0.0,0.0,-0.76767194,-0.0038971007,-0.4993679,-1.1616707,1.4616728,-2.3647785,2.124977,-14.427816,0.5992949,-5.0467014
-1.729848,35.649315,10.06704,22.18009,0.6669402,1.4656553,-0.15021694,-0.76991224,-0.7963769,-0.60617524,-0.7481753,-0.35802537,0.5767917,-0.28350797,0.51773787,-0.39682823,-2.043761,-1.4609373,2.4283352,1.6390892,-1.0229965,0.58138525,-0.33133876,-1.9949348,-1.3994979,2.4601095,1.5855223,-0.99393815,-1.3382857,-1.4135283,-1.1758722,-1.3332021,-0.42826194,0.41287753,0.058042318,0.084049225,-0.39591932,1.0174977,-3.3615606,0.018349389,-3.2107902,0.0029335022,-0.4531772,0.8861616,0.9220725,0.021119159,0.18907548,0.33702594,-1.4038794,-0.69681007,-1.0245852,1.0,0.0,0.0,0.0,0.0,0.0,0.0,-0.7340492,-0.004080683,-0.46749765,-1.5291452,0.51608086,1.3165474,1.856327,-10.185856,0.63117146,-5.085002
-3.1528382,33.65482,9.037409,22.018261,0.9818611,1.4090692,-0.14523791,-0.7727635,-0.80044043,-0.63449395,-0.7344234,-0.36012113,0.5654807,-0.35078475,0.5041089,-0.4113828,-2.0583842,-1.4729402,2.4240973,1.6420704,-1.0290166,0.56785834,-0.3454951,-2.0065773,-1.4127005,2.4553564,1.5896593,-0.99374074,-1.3555589,-1.416677,-1.1623386,-1.3150457,-0.4913871,0.4147508,0.007190733,0.050457,-0.39573598,0.9846773,-3.3581996,0.018331043,-3.3057659,-0.011112213,-0.45984054,0.8758424,0.9253424,0.031060172,0.18382269,0.33012998,-1.4065043,-0.6383313,-1.0414077,1.0,0.0,0.0,0.0,0.0,0.0,0.0,-0.700457,-0.004264027,-0.4346773,-1.1478424,-0.41279793,0.7107496,2.1275759,-6.3543797,0.37959218,-5.0037713
-4.099518,32.49982,8.398638,21.712694,1.1546029,1.3813246,-0.13604826,-0.77619845,-0.80616164,-0.64075285,-0.7220333,-0.3835091,0.57560533,-0.3983712,0.4902385,-0.42611128,-2.0706525,-1.4849038,2.4170055,1.6472199,-1.0335778,0.5541941,-0.3597325,-2.0181358,-1.4257067,2.450134,1.5938193,-0.99403256,-1.368239,-1.4263918,-1.1560174,-1.2947857,-0.5325135,0.4167636,-0.04102184,0.016902924,-0.39555287,0.950908,-3.3548422,0.018312717,-3.4006464,-0.025226593,-0.46594,0.86535496,0.92849684,0.040862888,0.17857361,0.3230095,-1.4140086,-0.5827391,-1.0578624,1.0,0.0,0.0,0.0,0.0,0.0,0.0,-0.6669029,-0.0044471323,-0.400908,-0.7349491,-1.0731459,0.039577484,2.3482323,-4.1600585,0.36000013,-4.7178345
-4.1728034,33.372337,8.63423,21.471045,1.0795321,1.4093671,-0.11856068,-0.7798196,-0.8062653,-0.6442279,-0.708166,-0.4535172,0.5943698,-0.40328658,0.47621214,-0.44035906,-2.0825586,-1.4965234,2.4047823,1.6532563,-1.0343612,0.5404316,-0.3740648,-2.0296867,-1.4384936,2.4444425,1.5980097,-0.99475735,-1.3772776,-1.4358796,-1.156534,-1.2720504,-0.5814307,0.42020154,-0.08264614,-0.016620636,-0.39536977,0.9161906,-3.351488,0.018294407,-3.4954324,-0.039398193,-0.47148538,0.8547018,0.93152815,0.050538413,0.17333624,0.31568274,-1.4190273,-0.5272637,-1.0740944,1.0,0.0,0.0,0.0,0.0,0.0,0.0,-0.63337934,-0.004630238,-0.3661906,-0.42066574,-1.0497332,-0.5902767,2.591014,-4.947257,0.49241185,-4.0673547
-3.7154455,34.433716,9.151836,20.918304,0.9804909,1.4168164,-0.08725449,-0.77640384,-0.80944544,-0.65171164,-0.69712037,-0.4943167,0.60204554,-0.40689838,0.46279123,-0.45500934,-2.094858,-1.5082057,2.395011,1.6582142,-1.0354472,0.52662814,-0.3884858,-2.0412986,-1.4510516,2.4382398,1.6022364,-0.99585027,-1.3799856,-1.4444904,-1.1640291,-1.2494,-0.6336152,0.42394823,-0.11782374,-0.050109863,-0.39518714,0.88052607,-3.3481374,0.018276116,-3.5901234,-0.05360031,-0.4764831,0.84388244,0.9344174,0.060106907,0.16814438,0.3081859,-1.4204012,-0.47265127,-1.0906801,0.0,1.0,0.0,0.0,0.0,0.0,0.0,-0.5998901,-0.0048128664,-0.33052605,0.15182495,-0.9594679,-1.2248039,2.5714636,-5.2828074,0.50978065,-3.4285636
-3.8559961,34.515526,9.018223,19.88743,0.9940798,1.3745049,-0.06834778,-0.77634144,-0.81215394,-0.6675423,-0.69791865,-0.4836469,0.59125674,-0.43447858,0.44899398,-0.46970117,-2.108053,-1.5208435,2.3898752,1.661362,-1.0392982,0.5132875,-0.40299785,-2.0541987,-1.4640436,2.4326017,1.6109805,-0.9968895,-1.3196913,-1.4539974,-1.3264953,-1.3102391,-0.55472094,0.9889753,-0.109090574,-0.06734085,-0.39624906,0.8803679,-1.3486607,-0.1119666,0.9579767,-0.068099976,-0.48041606,0.8325637,0.93713295,0.067892574,0.16299328,0.30100742,-1.4549357,-0.35266158,-1.1493506,0.0,1.0,0.0,0.0,0.0,0.0,0.0,-0.5826591,-0.00375095,-0.33036786,0.7834673,-0.9130955,-2.7780294,2.1531343,-3.1712413,-0.36666393,-2.2585452
96.27071,176.0,110.0,110.0,-1.445447,12.227882,-0.38137394,-0.8063072,0.1505417,0.6740684,0.7553262,-0.46302497,0.64691347,-0.46239486,0.43265676,-0.38794369,-1.9867918,-1.388511,2.3862991,1.6756718,-1.043129,0.50714964,-0.41797578,-2.0674853,-1.4666662,2.4230382,1.6299968,-0.99905336,-0.3905299,-1.5105993,-1.31653,0.08222461,-1.0867581,2.2172918,-0.25293207,-0.080818176,-0.39736795,0.88920397,-1.3473123,-0.11185466,0.85883296,-0.08027649,-0.48185658,0.82464033,0.9392211,0.06655529,0.16237465,0.295074,-1.1342617,-0.05757131,-0.6773641,1.0,0.0,0.0,0.0,0.0,0.0,0.0,-0.5691818,-0.0026320517,-0.33920395,89.29836,-5.119133,4.8490763,137.85605,-52.081,126.1929,-14.604813
36.4893,176.0,81.02148,110.0,2.9378304,7.1151624,-0.73975766,-0.7843363,-0.5487502,0.23776482,0.7905319,-0.6519459,0.68391436,-0.29294252,0.428716,-0.4728508,-2.0437088,-1.387613,2.3578436,1.6983882,-1.0283476,0.5026874,-0.43201196,-2.0754733,-1.4591169,2.4115217,1.651813,-1.0020689,-0.4627305,-1.3685241,-0.62618595,0.9789754,-1.17562,2.178974,-0.31740394,-0.09428024,-0.39848566,0.8970414,-1.3459654,-0.111742824,0.75872314,-0.09043121,-0.48111248,0.8213381,0.9410548,0.05842254,0.16500387,0.28944135,-0.9727567,0.12682754,-0.22111593,1.0,0.0,0.0,0.0,0.0,0.0,0.0,-0.55571973,-0.0015143454,-0.34704137,-6.6120744,14.034486,69.05091,89.583336,-9.659004,-1.057291,-6.3297987
14.374576,141.65358,56.907146,84.1353,2.8668785,4.6693883,-0.27218783,-0.74286467,-0.5744087,0.26323035,0.6820725,-0.701782,0.63401353,0.34937403,0.42840093,-0.48945284,-2.0491502,-1.3909097,2.3413434,1.7152144,-0.9671315,0.4962644,-0.44447076,-2.0770717,-1.4454279,2.399635,1.6721759,-1.0047392,-0.69718206,-1.2058195,-0.008322906,1.5000472,-1.1957066,1.9950564,-0.2495527,-0.10772705,-0.39960217,0.9038785,-1.3446196,-0.1116311,0.6587134,-0.099479675,-0.47880912,0.8215604,0.9426712,0.04696218,0.16918576,0.28379864,-0.8786325,0.26865855,0.09559404,1.0,0.0,0.0,0.0,0.0,0.0,0.0,-0.5422729,-0.0003978312,-0.3538785,-21.941673,16.016626,60.613667,52.410507,-2.7341366,-16.46638,6.9740176
-5.801566,92.20331,29.967014,55.87169,2.8434098,2.4056897,-0.10135715,-0.73167914,-0.61643755,0.32040757,0.735042,-0.7106062,0.6261963,0.32785454,0.42309648,-0.50611454,-2.0450308,-1.3719237,2.3285744,1.7347956,-0.9719537,0.4871077,-0.4557413,-2.073627,-1.4289465,2.3879507,1.6903644,-1.0066522,-0.9836162,-1.1012629,0.456636,1.6986265,-1.1606522,1.7644612,-0.17083688,-0.12116623,-0.40071774,0.90971625,-1.3432753,-0.11151949,0.5588037,-0.10808945,-0.47547626,0.8237883,0.94406456,0.034248978,0.17385952,0.27810425,-0.85563886,0.35870817,0.25758284,1.0,0.0,0.0,0.0,0.0,0.0,0.0,-0.52883375,0.00071772933,-0.35971624,-27.17352,10.308576,45.008083,20.20526,3.1753778,-21.79513,8.1644535
-12.734278,46.93864,10.712737,29.540514,2.1396081,0.4585961,0.16432914,-0.7173834,-0.66266215,0.3612079,0.71940523,-0.7172792,0.6094304,0.34914413,0.41536936,-0.5220075,-2.037506,-1.357006,2.3162227,1.7513074,-0.9717378,0.47563976,-0.46659172,-2.0670009,-1.4121733,2.3766859,1.7063613,-1.0078005,-1.1981627,-1.0797303,0.72756904,1.6709692,-1.1153455,1.547345,-0.09524543,-0.13459015,-0.4018321,0.9145556,-1.3419323,-0.111407995,0.45899382,-0.116744995,-0.47168136,0.82662296,0.9452703,0.021782536,0.17822589,0.27244255,-0.86968476,0.3917099,0.28544655,1.0,0.0,0.0,0.0,0.0,0.0,0.0,-0.5154098,0.0018320978,-0.3645556,-20.55335,2.1129131,26.01955,-2.5747776,4.4560194,-20.965267,7.807587
-12.201296,24.240805,2.1286922,15.539937,1.4773842,-0.63241345,0.26135707,-0.7088037,-0.6605901,0.3792023,0.7274107,-0.7232413,0.5932529,0.32210407,0.40475938,-0.5326507,-2.0290806,-1.3394322,2.3043618,1.7656866,-0.97559005,0.46276134,-0.47752655,-2.0588832,-1.3963766,2.3658178,1.7203918,-1.0082964,-1.3162196,-1.0980822,0.8374779,1.5495315,-1.0773077,1.35637,-0.0338965,-0.14799881,-0.40294528,0.91839767,-1.3405906,-0.11129661,0.35928375,-0.12559891,-0.46783996,0.8292179,0.94633675,0.010378314,0.181957,0.26689085,-0.8931725,0.38781935,0.24527015,1.0,0.0,0.0,0.0,0.0,0.0,0.0,-0.50200117,0.002945274,-0.36839765,-11.360741,-1.8348932,10.342884,-12.058163,3.8076878,-18.62297,6.291379
-12.299467,11.801175,-3.0314658,9.796143,1.242299,-1.2063816,0.21183085,-0.71315855,-0.67087775,0.3533991,0.71731055,-0.712865,0.58925664,0.2930321,0.3914455,-0.5446143,-2.0235434,-1.3246455,2.2945313,1.7793174,-0.9789932,0.44927686,-0.4888028,-2.050613,-1.3819189,2.355274,1.7327304,-1.008283,-1.35852,-1.137423,0.8223561,1.4114387,-1.0464416,1.194143,0.013280709,-0.16139221,-0.4040575,0.92124337,-1.3392503,-0.111185335,0.25967336,-0.13476181,-0.46420336,0.83117694,0.94733787,0.00037205408,0.18499959,0.26139247,-0.92566484,0.36241084,0.17495911,1.0,0.0,0.0,0.0,0.0,0.0,0.0,-0.48860776,0.004057497,-0.37124336,-4.0274143,-3.9193869,-1.9142032,-13.737226,3.134513,-15.907025,4.8220577
-10.986427,9.881413,-3.4111953,10.0813,1.2166433,-1.3227878,0.12428531,-0.7105136,-0.68876857,0.34182525,0.7180386,-0.71165377,0.5742743,0.24985895,0.3782255,-0.55767965,-2.0164304,-1.3101151,2.2841086,1.7901578,-0.9832971,0.43574804,-0.5005344,-2.0429301,-1.3685808,2.344959,1.7436404,-1.0078996,-1.3506149,-1.1850455,0.7489805,1.3083683,-1.0263323,1.0573158,0.046831045,-0.17477798,-0.40516853,0.9230937,-1.3379114,-0.11107417,0.16016258,-0.14424515,-0.46086383,0.832434,0.9483325,-0.00827197,0.18744156,0.25585678,-0.95888823,0.33136135,0.10553704,1.0,0.0,0.0,0.0,0.0,0.0,0.0,-0.475222,0.0051685274,-0.37309366,0.91125965,-4.7527075,-7.6209784,-10.196924,2.0466805,-13.436294,3.4447935
-13.265242,5.306827,-6.2464066,10.827185,1.4031148,-1.4502403,-0.012503311,-0.6890285,-0.7206562,0.24031933,0.6986842,-0.70127666,0.5692688,0.24810247,0.3668452,-0.5726,-2.0188982,-1.2987124,2.2748313,1.8005673,-0.9830894,0.42255682,-0.5128015,-2.0364985,-1.3560095,2.334808,1.7533526,-1.0072359,-1.3083735,-1.2406254,0.6072592,1.2406493,-1.0107223,0.94308037,0.07308048,-0.1881485,-0.40627837,0.92394966,-1.3365737,-0.11096312,0.060751297,-0.15416336,-0.45787263,0.8329767,0.9493826,-0.015619001,0.18938552,0.2501233,-1.0039232,0.29538444,0.033863366,1.0,0.0,0.0,0.0,0.0,0.0,0.0,-0.46185148,0.006278366,-0.37394965,4.3143272,-5.545926,-14.412117,-6.604004,1.6404867,-11.241674,2.717153
-14.442628,8.062337,-5.8480797,13.634328,1.5412844,-1.2988958,-0.13910171,-0.6790537,-0.73312205,0.17406416,0.6955952,-0.70029634,0.5660579,0.20199348,0.35465145,-0.58611375,-2.019092,-1.2864499,2.2647784,1.8099585,-0.9870365,0.40984768,-0.52556455,-2.0316386,-1.343833,2.3247716,1.7620692,-1.0063833,-1.2579983,-1.2881595,0.44449234,1.2107838,-1.0009782,0.84856296,0.08959286,-0.20150375,-0.40738726,0.92381227,-1.3352375,-0.11085218,-0.0385606,-0.16454697,-0.4551952,0.8328795,0.9505275,-0.021810155,0.19096933,0.24403389,-1.0510043,0.26565385,-0.027537389,1.0,0.0,0.0,0.0,0.0,0.0,0.0,-0.44849622,0.0073872507,-0.37381226,5.1624537,-4.751086,-16.537285,-2.759385,1.0694027,-9.27093,1.7490997
-17.536236,6.6974397,-7.885353,14.860427,1.6781741,-1.2779951,-0.25998557,-0.64852023,-0.753908,0.031388164,0.6887457,-0.69528955,0.5778824,0.2061194,0.34499565,-0.60095537,-2.0284998,-1.2749584,2.2552426,1.8198575,-0.98577136,0.39769834,-0.5387596,-2.028747,-1.3317842,2.3148153,1.7699752,-1.0053915,-1.2001448,-1.3300207,0.23614708,1.2040595,-0.9933407,0.77178085,0.102582656,-0.21484375,-0.40849495,0.9226825,-1.3339025,-0.11074135,-0.1377732,-0.17546844,-0.4527986,0.8321651,0.95179826,-0.0268939,0.19232516,0.2374188,-1.1067353,0.23795448,-0.08949205,1.0,0.0,0.0,0.0,0.0,0.0,0.0,-0.43515623,0.008494943,-0.3726825,5.931592,-4.191184,-21.116043,-0.38695335,0.9070277,-7.5232267,1.3943479
-27.964918,-0.54756963,-15.176488,16.470575,2.0690277,-1.3318717,-0.5180488,-0.6415336,-0.7663942,-0.20287517,0.69297874,-0.69791895,0.5873867,0.18605304,0.33354497,-0.615399,-2.0490346,-1.2624863,2.2450235,1.8287139,-0.9867862,0.3860392,-0.5523027,-2.0286326,-1.3196726,2.3049085,1.7772231,-1.0043043,-1.153625,-1.3623629,-0.06522505,1.2149884,-0.9884933,0.70959467,0.11099924,-0.2281723,-0.40960145,0.92056143,-1.3325689,-0.11063063,-0.2368866,-0.18714905,-0.45066833,0.8307544,0.9532643,-0.03070963,0.19360177,0.229918,-1.1896482,0.21196498,-0.1621059,1.0,0.0,0.0,0.0,0.0,0.0,0.0,-0.42182767,0.009601444,-0.37056142,4.915786,-3.242135,-30.582397,1.4971256,0.773859,-6.0969114,0.9416148
-34.937195,-0.9013009,-18.317,18.677855,2.2651691,-1.1705323,-0.67037106,-0.64373946,-0.7626639,-0.3854684,0.70713025,-0.69958895,0.6211205,0.20101684,0.32166526,-0.6285691,-2.0671794,-1.2489595,2.2349496,1.8393352,-0.9842026,0.3746943,-0.5660404,-2.0318828,-1.3073454,2.295036,1.783958,-1.003137,-1.126729,-1.3775877,-0.41318434,1.2402521,-0.98586005,0.66197795,0.118845396,-0.24148941,-0.410707,0.917447,-1.3312366,-0.11052002,-0.33629468,-0.19976807,-0.4487245,0.82860947,0.9549591,-0.03312633,0.19496466,0.22123398,-1.2847308,0.19601156,-0.23635119,1.0,0.0,0.0,0.0,0.0,0.0,0.0,-0.40851057,0.010706991,-0.36744696,3.0886889,-1.562953,-35.379856,3.0323744,0.62047243,-4.6597004,0.86631924
-36.922295,6.047712,-16.426128,21.12924,2.2293546,-0.80245715,-0.6960466,-0.65503204,-0.7513675,-0.51525563,0.72958994,-0.71273977,0.6487395,0.20741193,0.30919108,-0.6411772,-2.0834084,-1.2343864,2.223762,1.8488319,-0.9823958,0.36344188,-0.57978857,-2.0384898,-1.2946749,2.285137,1.7903075,-1.0018991,-1.123082,-1.3741536,-0.74544793,1.2778155,-0.9902836,0.6262955,0.12564102,-0.25479126,-0.41181135,0.91333914,-1.3299056,-0.11040952,-0.43560338,-0.21329117,-0.44681835,0.82580066,0.9568444,-0.034173444,0.19658053,0.21127494,-1.3738017,0.19693567,-0.30086523,1.0,0.0,0.0,0.0,0.0,0.0,0.0,-0.39520872,0.011811346,-0.36333913,0.86095333,0.24557114,-33.85227,4.309058,-0.12866259,-3.4748554,0.7171914
-27.054684,13.826762,-9.513611,17.976131,1.645839,-0.60490566,-0.4417709,-0.6145876,-0.7698707,-0.594344,0.71056986,-0.6911377,0.6569952,0.18428093,0.30198312,-0.65677565,-2.0979242,-1.2236179,2.2160232,1.8560071,-0.98347104,0.35232633,-0.59353864,-2.0478969,-1.2817793,2.2752416,1.7963576,-1.0006212,-1.1065335,-1.375854,-1.007079,1.2950046,-0.98866564,0.598134,0.12859954,-0.26807785,-0.4129145,0.908239,-1.328576,-0.11029913,-0.53481275,-0.22749329,-0.44487596,0.82237285,0.95882666,-0.034000725,0.19840614,0.20032582,-1.4336313,0.20238614,-0.3624024,1.0,0.0,0.0,0.0,0.0,0.0,0.0,-0.38192213,0.012914509,-0.358239,2.013898,-0.30469894,-26.562237,2.177596,0.30829906,-2.7756333,0.28414428
-12.929773,24.134737,-0.2384336,14.454554,0.9179521,-0.4343831,-0.12157594,-0.56492585,-0.78259087,-0.6428142,0.7072062,-0.6938193,0.6661282,0.18044563,0.29583374,-0.67179775,-2.1121783,-1.2110586,2.2058597,1.8629705,-0.9825766,0.34157318,-0.60736406,-2.0592494,-1.2688246,2.26535,1.8021731,-0.99932605,-1.0644745,-1.3852882,-1.1782838,1.2964996,-0.98928916,0.5760552,0.12979358,-0.2813568,-0.41401672,0.90214753,-1.3272476,-0.11018886,-0.6339229,-0.24201584,-0.4428842,0.81839037,0.9607871,-0.03285974,0.20033659,0.18887444,-1.4551105,0.20783253,-0.4162266,1.0,0.0,0.0,0.0,0.0,0.0,0.0,-0.36864316,0.014016718,-0.35214752,4.3364525,-1.0923147,-17.199612,0.45075417,-0.10993481,-2.1932602,0.0626266
7.5122967,36.643055,11.419805,9.277674,-0.094677925,-0.43118286,0.2798894,-0.46855316,-0.78850365,-0.6681304,0.6938747,-0.69530886,0.6601918,0.20936601,0.29471785,-0.68621445,-2.1260624,-1.1994371,2.1958191,1.8681923,-0.97838944,0.33163923,-0.6213106,-2.0716777,-1.25599,2.2554395,1.8077941,-0.9980033,-0.97042596,-1.3982062,-1.263101,1.2793341,-0.99268234,0.5574758,0.13277738,-0.2946205,-0.41511798,0.89506567,-1.3259207,-0.11007869,-0.73293394,-0.2563858,-0.4409244,0.813934,0.96260285,-0.031033937,0.20227404,0.17753273,-1.4267184,0.20216936,-0.4615904,1.0,0.0,0.0,0.0,0.0,0.0,0.0,-0.35537946,0.015117973,-0.34506565,9.1903925,-1.4256954,-8.141589,-1.6602993,-0.5950451,-1.8557906,0.18590987
24.98501,42.40022,19.331152,3.129539,-0.92285246,-0.61284363,0.57503706,-0.3731534,-0.80918074,-0.6851469,0.65099484,-0.6767811,0.63305837,0.09888133,0.2943239,-0.70222867,-2.1401923,-1.1908906,2.1877613,1.8711,-0.9881152,0.32298464,-0.63546216,-2.0845103,-1.2435522,2.2455404,1.813232,-0.9967368,-0.8321266,-1.4210764,-1.2875202,1.2313652,-0.9901176,0.5391033,0.12421792,-0.30786896,-0.4162178,0.8869944,-1.324595,-0.10996863,-0.831846,-0.27021408,-0.43915486,0.80901194,0.96421194,-0.028730858,0.20406128,0.16681983,-1.3628244,0.17803466,-0.50855124,1.0,0.0,0.0,0.0,0.0,0.0,0.0,-0.34213102,0.016217798,-0.3369944,13.3466835,-2.3873806,-1.8083334,-4.93412,-0.13432503,-1.8729806,-0.98993033
37.44977,48.93276,25.269218,0.12825727,-1.4981065,-0.7517114,0.7734583,-0.27562723,-0.8076086,-0.7012458,0.62925994,-0.68384916,0.62176013,0.14759007,0.2954219,-0.716223,-2.154635,-1.1806262,2.1771555,1.8754079,-0.9819778,0.315947,-0.6498016,-2.0973697,-1.2316713,2.235645,1.8184981,-0.99552375,-0.66309726,-1.4386157,-1.2825853,1.1727643,-0.9907399,0.522049,0.119766854,-0.32110214,-0.41731668,0.8779348,-1.3232707,-0.109858684,-0.9306592,-0.2831993,-0.4377246,0.80365413,0.9655825,-0.026087118,0.20564741,0.15709558,-1.2734101,0.13967331,-0.5511059,1.0,0.0,0.0,0.0,0.0,0.0,0.0,-0.32889783,0.01731667,-0.3279348,16.264677,-1.8435001,1.3038874,-6.1230183,-0.5416155,-1.7696619,-0.6088048
52.03808,55.49474,31.82967,-2.547677,-2.0021415,-0.9811502,0.9276521,-0.12909079,-0.81699413,-0.68601596,0.61807495,-0.667359,0.59266025,0.102361,0.3030379,-0.73150104,-2.1659713,-1.1698638,2.168909,1.8777641,-0.98528767,0.3109426,-0.664307,-2.1099925,-1.2203302,2.2257879,1.8235888,-0.99438506,-0.4488696,-1.4547732,-1.2520955,1.1199065,-0.98594666,0.5041523,0.1113311,-0.3343277,-0.4184146,0.8678878,-1.3219477,-0.10974885,-1.0293735,-0.2951126,-0.43680477,0.7979306,0.9667023,-0.02327492,0.2070042,0.14864072,-1.1591471,0.08287557,-0.5855746,1.0,0.0,0.0,0.0,0.0,0.0,0.0,-0.31567228,0.018414587,-0.31788778,20.623661,-1.6983747,4.0483236,-5.664277,-0.08481741,-1.9038916,-1.0215759
58.27005,54.981537,33.01197,-5.588764,-2.2486355,-1.2171454,0.98997474,-0.027503937,-0.8241821,-0.6834581,0.5443738,-0.63116,0.5307143,0.0351807,0.3081922,-0.7467252,-2.1783383,-1.1658928,2.1626718,1.8766602,-0.990867,0.3081321,-0.6789583,-2.122291,-1.2097178,2.216087,1.8284678,-0.9933761,-0.2277711,-1.4688493,-1.2191886,1.0403858,-0.96694523,0.48174512,0.09688348,-0.347538,-0.41951108,0.8568544,-1.320626,-0.10963912,-1.1279893,-0.3058319,-0.436543,0.7918216,0.9676048,-0.02032461,0.20803376,0.14159681,-1.0390166,0.012261392,-0.6253915,0.0,1.0,0.0,0.0,0.0,0.0,0.0,-0.30246198,0.019511074,-0.30685437,21.308071,-1.4907598,4.2794228,-8.34024,1.3212919,-2.4265647,-1.6140997
32.13282,46.678677,22.025183,2.2301183,-0.87040615,-0.8811749,0.5497939,-0.09842197,-0.82936877,-0.6850419,0.5251956,-0.61210126,0.49289995,-0.08315384,0.29828992,-0.7618952,-2.1907952,-1.1571982,2.154877,1.8777578,-1.0016915,0.30668682,-0.6937326,-2.1343532,-1.1998358,2.2066305,1.8331122,-0.9925893,-0.11802709,-1.4807136,-1.1999665,0.9705299,-0.93982226,0.45828813,0.07225794,-0.36073303,-0.4206066,0.8448439,-1.3193057,-0.10952951,-1.2253833,-0.31575775,-0.43675017,0.7853293,0.9683938,-0.01716009,0.20871323,0.13549012,-0.9725622,-0.028309682,-0.66304356,0.0,1.0,0.0,0.0,0.0,0.0,0.0,-0.28926694,0.020606607,-0.2948439,10.585889,-1.3053179,2.4703264,-7.098484,2.2923708,-2.504009,-2.5567322
7.037966,34.839973,10.039986,5.407338,0.10226685,-0.61008215,0.2631678,-0.1595419,-0.8326211,-0.701811,0.3998658,-0.5665159,0.43953377,-0.16216336,0.29073262,-0.7769947,-2.2045343,-1.1598492,2.1499789,1.8770657,-1.0088056,0.30550322,-0.70860225,-2.1464539,-1.1910915,2.197652,1.8375074,-0.99207735,-0.1157899,-1.4891815,-1.229768,0.8256491,-0.8288639,0.4378547,0.05227501,-0.37364578,-0.42108798,0.83437437,-1.0417985,0.08737673,-0.2213929,-0.32538605,-0.43716097,0.7783047,0.96919227,-0.013514593,0.20888832,0.12980449,-0.9637528,-0.042963605,-0.72682273,0.0,1.0,0.0,0.0,0.0,0.0,0.0,-0.2763542,0.021087974,-0.28437436,0.5832702,-0.9335995,-5.150819,-16.821026,17.675686,-1.6627371,-1.0120459
-41.0268,43.034023,-0.16231589,31.101316,3.4842854,0.6345243,-0.53280115,-0.3646284,-0.82079357,-0.59949493,0.5843669,-0.42698994,0.43765485,0.09185241,0.26904038,-0.7906816,-2.2064033,-1.1326549,2.154953,1.8812728,-0.9828921,0.30303892,-0.72347385,-2.158409,-1.1826668,2.1900609,1.8417302,-0.9915614,-0.28838533,-1.4872247,-1.1849356,0.8496002,-0.73635006,0.4172106,0.051774256,-0.3840561,-0.42021465,0.8314231,-1.0407568,0.08728937,-0.31969324,-0.33556747,-0.43706417,0.77113014,0.970147,-0.009786827,0.20839964,0.12364625,-1.0307724,0.029751407,-0.72000223,0.0,1.0,0.0,0.0,0.0,0.0,0.0,-0.26594388,0.020214647,-0.2814231,-16.787333,-0.01821518,4.2087555,2.8562784,9.092498,-2.017206,0.03732294
-40.74238,56.122406,4.571101,38.02918,3.7984076,0.9559262,-0.65578985,-0.3133416,-0.82297295,-0.56238526,0.66556615,-0.48501703,0.56238383,0.034518603,0.27170476,-0.8057711,-2.2146475,-1.1161102,2.1415591,1.8979686,-0.9881095,0.29901776,-0.73831207,-2.1697273,-1.1733246,2.183122,1.8458692,-0.9910636,-0.43863338,-1.4835576,-1.114305,0.9640659,-0.6807399,0.41294497,0.04940228,-0.39445496,-0.41934228,0.82747644,-1.0397164,0.0872021,-0.41965282,-0.34635162,-0.43615413,0.7642565,0.9711651,-0.0063911057,0.20783257,0.11663203,-1.0892314,0.11477006,-0.6818936,0.0,1.0,0.0,0.0,0.0,0.0,0.0,-0.25554502,0.019342273,-0.27747643,-14.607573,0.12652874,6.9137573,11.90213,5.373156,-0.3389716,-0.1557611
-23.457043,61.377228,11.023409,31.596292,2.6224453,0.7484054,-0.32264173,-0.28939873,-0.8199271,-0.5360813,0.6070111,-0.50096506,0.5058257,0.12930793,0.27007788,-0.82030475,-2.2233355,-1.1126235,2.1330254,1.8964517,-0.9781328,0.29393277,-0.75309783,-2.1802406,-1.1630344,2.1763928,1.8499395,-0.99052095,-0.53103787,-1.4776866,-1.0303313,1.0516573,-0.6711689,0.40519992,0.055931956,-0.40484238,-0.41847086,0.8225309,-1.0386769,0.08711492,-0.5195125,-0.35741425,-0.43457747,0.75771636,0.97215277,-0.0033547839,0.20738463,0.10908366,-1.1081318,0.17630444,-0.65007645,0.0,1.0,0.0,0.0,0.0,0.0,0.0,-0.2451576,0.018470854,-0.2725309,-9.017819,0.36985874,8.447742,9.0693,0.68718195,-0.7098317,0.67300427
-6.7792044,62.29177,15.4199705,24.206614,1.4992878,0.40327477,-0.03428565,-0.2721932,-0.81665576,-0.53555703,0.6102358,-0.5176121,0.49779636,0.18191555,0.26671344,-0.8347634,-2.2337964,-1.1020108,2.1246316,1.8997191,-0.9723294,0.28840384,-0.7678178,-2.190071,-1.1521015,2.1695683,1.8539335,-0.9898753,-0.5600505,-1.4706792,-0.9665369,1.107799,-0.6870901,0.39748517,0.06741941,-0.41522217,-0.4176004,0.81658757,-1.0376383,0.087027825,-0.61927223,-0.36844635,-0.43259883,0.75138736,0.9730432,-0.0005250029,0.20712914,0.1014103,-1.0958153,0.20981398,-0.63229597,0.0,1.0,0.0,0.0,0.0,0.0,0.0,-0.23477781,0.017600387,-0.26658756,-2.8639317,0.5093336,6.6092014,5.7893276,-1.9193769,-0.7401347,1.1084288
-1.122696,58.971104,15.112872,20.131157,0.90809786,0.15227628,0.0898233,-0.28009775,-0.81724274,-0.55710816,0.6401432,-0.561909,0.5256439,0.24895802,0.26039407,-0.8495421,-2.245782,-1.0880872,2.1133773,1.9064978,-0.9649795,0.2828239,-0.7824834,-2.1995735,-1.1407185,2.162412,1.857876,-0.98906946,-0.5574281,-1.4657472,-0.9439217,1.1491255,-0.7264931,0.3932657,0.08467226,-0.42559052,-0.41673088,0.8096474,-1.036601,0.08694081,-0.7189323,-0.3792801,-0.43040562,0.74512047,0.9737998,0.0023119147,0.20714183,0.09381277,-1.0747421,0.22737055,-0.62975204,0.0,1.0,0.0,0.0,0.0,0.0,0.0,-0.22440946,0.016730875,-0.25964737,0.23366213,0.3143072,2.5378704,4.2752266,-4.257095,-0.41495562,1.6531587
-3.691712,55.841824,12.716257,19.002735,0.83459866,0.07202962,0.09888184,-0.30951726,-0.8109471,-0.56895465,0.65245533,-0.5724583,0.52182484,0.30837524,0.25187215,-0.8635781,-2.256469,-1.075473,2.1051662,1.9100584,-0.9582319,0.27724966,-0.797087,-2.2090874,-1.1290321,2.1548512,1.8617803,-0.9880576,-0.5574685,-1.4591691,-0.9530316,1.1758721,-0.7671156,0.38956994,0.10635618,-0.43594742,-0.41586232,0.8017113,-1.0355645,0.086853884,-0.81849265,-0.38994217,-0.42805028,0.73880154,0.9744173,0.005351333,0.20744431,0.08630782,-1.058853,0.24309534,-0.63738114,0.0,1.0,0.0,0.0,0.0,0.0,0.0,-0.21405256,0.015862316,-0.2517113,-0.013852119,0.48024654,-0.67682266,2.8398752,-4.3474674,-0.37838817,2.090445
-1.602436,53.19309,12.110641,16.277029,0.66751313,-0.047429204,0.1550479,-0.3026003,-0.8111786,-0.5710739,0.6379295,-0.5548829,0.4901552,0.31518775,0.24698964,-0.8782049,-2.2661948,-1.0652392,2.0993629,1.9107958,-0.95653886,0.27171978,-0.8116401,-2.2187881,-1.1172638,2.1470044,1.8656274,-0.9868417,-0.5516269,-1.4545463,-0.974874,1.1776042,-0.79141533,0.3831178,0.12643407,-0.4462967,-0.41499424,0.79278034,-1.0345291,0.08676705,-0.9179535,-0.40044403,-0.4255817,0.73233294,0.9749134,0.008707423,0.20793423,0.07893913,-1.0422485,0.2528337,-0.65475285,0.0,1.0,0.0,0.0,0.0,0.0,0.0,-0.20370328,0.014994234,-0.24278033,0.55173635,0.29399395,-1.9430041,0.32057762,-2.7167559,-0.68516135,1.9265845
10.591075,54.130913,15.811698,11.811707,0.27908015,-0.2221325,0.294555,-0.24800262,-0.81473124,-0.5498898,0.6216784,-0.5031214,0.48347124,0.29663715,0.24691953,-0.8931132,-2.273777,-1.0550959,2.0966923,1.9139745,-0.95717794,0.266497,-0.82617885,-2.2285995,-1.1056385,2.1391537,1.8694078,-0.98546076,-0.51295835,-1.4541417,-0.9817951,1.1575927,-0.7843827,0.37608454,0.14163041,-0.45663452,-0.4141271,0.7828555,-1.0334948,0.0866803,-1.0173149,-0.41067123,-0.42313147,0.725667,0.9753163,0.012311121,0.2084152,0.07190024,-1.0107303,0.24689499,-0.6751243,0.0,1.0,0.0,0.0,0.0,0.0,0.0,-0.19336545,0.0141271055,-0.2328555,3.7249088,-0.11057854,-0.32333136,-1.9509315,0.3458619,-0.78846216,1.4261693
1.0229201,48.520416,11.35771,12.366026,0.7110075,-0.18711272,0.1968427,-0.30365285,-0.8228848,-0.5677059,0.5922329,-0.46227562,0.40081808,0.27410668,0.2361317,-0.90846735,-2.28537,-1.0464152,2.0929263,1.9094896,-0.9580501,0.2613988,-0.8407644,-2.2385633,-1.0944082,2.1316562,1.8730403,-0.98393375,-0.5085328,-1.460413,-1.0036496,1.1088117,-0.73091024,0.35721087,0.15874223,-0.46652985,-0.4129846,0.77381796,-0.9370112,0.14189357,-0.7205835,-0.4207344,-0.42066574,0.7187173,0.9756881,0.016203946,0.2086312,0.065138385,-1.0017568,0.25049105,-0.70709133,0.0,1.0,0.0,0.0,0.0,0.0,0.0,-0.18347013,0.012984604,-0.22381794,0.50702095,-0.75941086,-2.8345585,-5.5569887,7.203841,-2.3896694,2.3043065
-8.344693,53.426624,10.551337,17.432884,1.3198786,0.111427695,0.07419508,-0.34275916,-0.8167295,-0.5293554,0.6219399,-0.4697299,0.40128377,0.35520637,0.22712287,-0.92243737,-2.291499,-1.0322142,2.0846832,1.9131687,-0.94841313,0.25608015,-0.855389,-2.2485082,-1.0834581,2.1246066,1.8765098,-0.98221356,-0.5395428,-1.4636496,-0.9907663,1.0910509,-0.69723403,0.34320742,0.17633581,-0.47573853,-0.4115231,0.7663899,-0.9156284,0.14745754,-0.75015306,-0.43078232,-0.41801643,0.7115695,0.9760484,0.02029357,0.20855437,0.05850292,-1.000298,0.27384195,-0.7217882,0.0,1.0,0.0,0.0,0.0,0.0,0.0,-0.17426145,0.011523098,-0.2163899,-3.0780673,-0.49023628,1.4795065,-1.5839577,3.0812979,-1.4823556,1.7433822
-8.903134,58.75173,12.323399,19.284786,1.6931505,0.25242868,0.013510063,-0.3498661,-0.81340647,-0.48678914,0.60792094,-0.36490655,0.34717387,0.33143234,0.22109354,-0.93672967,-2.297187,-1.022666,2.088116,1.9112272,-0.94907033,0.25038576,-0.8700174,-2.258087,-1.0726491,2.1181335,1.8798113,-0.98034817,-0.57938194,-1.4631861,-0.9458549,1.0780451,-0.631598,0.3255235,0.18993819,-0.48471832,-0.40999556,0.75873333,-0.89221406,0.15444782,-0.77113897,-0.4408188,-0.41508174,0.7043701,0.9764134,0.0243599,0.2081548,0.051912077,-0.9995472,0.30434492,-0.7235632,0.0,1.0,0.0,0.0,0.0,0.0,0.0,-0.16528165,0.00999555,-0.20873332,-3.9657712,-0.121974945,4.7130466,-1.1236191,6.239462,-1.8558323,1.3697922
-11.292513,58.991604,11.533932,19.70913,1.739298,0.28941697,-0.012689352,-0.3724169,-0.81561345,-0.4893216,0.5911102,-0.3569738,0.30347815,0.33874625,0.21314406,-0.95157874,-2.307019,-1.0135381,2.082436,1.9101591,-0.94647354,0.2442455,-0.884642,-2.2672307,-1.0619737,2.1122468,1.8829186,-0.97836167,-0.6254492,-1.4627136,-0.9034121,1.0645493,-0.57551825,0.30560276,0.2016389,-0.49347305,-0.40839672,0.7508564,-0.86980975,0.16164584,-0.79316574,-0.45086288,-0.41182327,0.69714737,0.9767898,0.028368315,0.20741954,0.04532059,-1.0005771,0.33746043,-0.7260021,0.0,1.0,0.0,0.0,0.0,0.0,0.0,-0.15652692,0.008396715,-0.20085639,-4.5730114,-0.11880398,4.442489,-1.1566162,5.303502,-2.0770848,1.1859804
-7.997497,61.05831,12.99383,19.046476,1.6317255,0.30984497,0.027271807,-0.3804133,-0.81736475,-0.44936812,0.58361804,-0.33024284,0.29584968,0.37406522,0.20620418,-0.96637845,-2.3121676,-1.0036119,2.0792224,1.9125036,-0.94095516,0.23770449,-0.8992685,-2.2758596,-1.0514337,2.1068797,1.8858389,-0.9762472,-0.663631,-1.4631265,-0.8485982,1.0509945,-0.5247004,0.28718963,0.21482146,-0.50198364,-0.4067397,0.7427868,-0.84453666,0.16698913,-0.81156677,-0.46086884,-0.40825844,0.6899166,0.9771734,0.03228062,0.20636591,0.038770173,-0.9952945,0.36742544,-0.72604835,0.0,1.0,0.0,0.0,0.0,0.0,0.0,-0.14801633,0.006739706,-0.19278681,-3.812039,-0.20034313,5.7174563,-1.189518,4.756272,-1.9263744,1.3291299
-11.191292,61.016502,11.817842,19.445562,1.7815106,0.32248458,-0.018602759,-0.4168315,-0.8110473,-0.44425842,0.56448966,-0.25206533,0.22659732,0.37357336,0.19602133,-0.98037326,-2.3202853,-0.99498475,2.0816731,1.9084986,-0.93888986,0.23072886,-0.9138702,-2.2840345,-1.0410825,2.1021302,1.8885416,-0.9740128,-0.7087677,-1.4597049,-0.806141,1.0304341,-0.45949516,0.26435757,0.22633864,-0.51026154,-0.40502334,0.7345079,-0.8221244,0.17312218,-0.833171,-0.4708557,-0.40436554,0.6826749,0.9775759,0.036105197,0.20494762,0.032220934,-0.99492705,0.401267,-0.7273426,0.0,1.0,0.0,0.0,0.0,0.0,0.0,-0.13973844,0.0050233305,-0.1845079,-4.486263,0.18520355,4.4400096,-1.872158,6.2268553,-2.3722231,1.1739731
-12.651304,59.07757,10.436573,18.279469,1.8374043,0.21588594,-0.030040048,-0.44192797,-0.8044737,-0.45196143,0.5223411,-0.13596638,0.05339876,0.38586226,0.18653607,-0.9943176,-2.3292305,-0.9888484,2.0885336,1.8938814,-0.9354266,0.22328971,-0.9284061,-2.2919538,-1.0310974,2.0982652,1.8909049,-0.9716687,-0.755498,-1.4520472,-0.78669786,0.98853165,-0.36314163,0.22668456,0.2372069,-0.5183525,-0.40324712,0.7259461,-0.8044146,0.17903711,-0.86335105,-0.48088455,-0.40013862,0.67537326,0.97802615,0.039924446,0.20301339,0.025619665,-0.9995911,0.43486792,-0.7348459,0.0,1.0,0.0,0.0,0.0,0.0,0.0,-0.13164747,0.003247112,-0.17594612,-4.6363473,0.61511993,2.0983815,-4.000199,9.373694,-3.8778157,1.1221468
-5.072731,60.00618,12.281344,15.709383,1.427889,0.0715065,0.06862818,-0.4287226,-0.7995378,-0.43968987,0.49867293,-0.11380286,-0.0652088,0.4274704,0.18041745,-1.0083599,-2.3359227,-0.98123014,2.086885,1.884384,-0.9289217,0.21555659,-0.94284767,-2.2997394,-1.021595,2.0953045,1.8928275,-0.9692005,-0.7792968,-1.4420452,-0.7750274,0.9378887,-0.27487135,0.18029855,0.25012082,-0.5262375,-0.4014473,0.7170952,-0.78312415,0.18021612,-0.892101,-0.49088287,-0.3956728,0.66797495,0.97852415,0.043814063,0.20051871,0.01905015,-0.9937111,0.45558378,-0.74508214,0.0,1.0,0.0,0.0,0.0,0.0,0.0,-0.12376249,0.0014472902,-0.16709518,-2.3965478,0.8615494,1.3807535,-4.930198,8.539367,-4.757309,1.2969404
15.069112,68.544975,20.121902,13.067841,0.81316376,-0.016835153,0.23265015,-0.3716418,-0.79759365,-0.35127443,0.51240134,-0.118152946,-0.07459074,0.44105867,0.17839241,-1.0226071,-2.3348668,-0.97035486,2.0834892,1.8853685,-0.9250946,0.20796868,-0.9571957,-2.307056,-1.0124493,2.0930424,1.8943151,-0.9666065,-0.75245124,-1.4328879,-0.7159073,0.9067153,-0.2112581,0.13791269,0.26231772,-0.5337906,-0.39970946,0.7081349,-0.7457954,0.17151396,-0.89705646,-0.50060654,-0.39118814,0.6605839,0.9790515,0.047589082,0.19756134,0.012769002,-0.9596011,0.45128998,-0.74059767,0.0,1.0,0.0,0.0,0.0,0.0,0.0,-0.11620939,-0.00029054284,-0.15813488,2.536726,0.79894066,6.328106,-3.135252,5.969554,-4.338455,1.1615276
21.588327,68.779,22.029999,11.16267,0.711961,-0.09482181,0.27176636,-0.3726111,-0.8021839,-0.30114785,0.47089562,-0.026808938,-0.18172596,0.3978062,0.17070757,-1.0374141,-2.3371708,-0.9653597,2.0903616,1.8761425,-0.9268259,0.200721,-0.9714989,-2.313583,-1.003685,2.0915012,1.8953451,-0.9639363,-0.7161185,-1.4297543,-0.63008547,0.8661841,-0.13634896,0.09101758,0.26836225,-0.5409546,-0.3980856,0.69915193,-0.70647556,0.1593023,-0.8989618,-0.50995636,-0.38681173,0.65324485,0.97963065,0.051074706,0.19408059,0.0069081886,-0.92105144,0.43802962,-0.7349141,0.0,1.0,0.0,0.0,0.0,0.0,0.0,-0.10904539,-0.0019144118,-0.14915192,3.4655213,0.21038055,9.021211,-4.101765,7.0907173,-4.788417,0.55158734
54.06851,75.92326,32.394325,4.5428386,-0.41631216,-0.38258117,0.5740474,-0.23743728,-0.80349445,-0.1881935,0.46225628,-0.051284537,-0.19469783,0.42950016,0.17697726,-1.0518484,-2.3324022,-0.9574594,2.0863729,1.8758754,-0.9209863,0.1944246,-0.9858002,-2.3188434,-0.99528503,2.0905104,1.8959451,-0.96120024,-0.6019185,-1.4304308,-0.48875916,0.8305376,-0.08839313,0.04941558,0.27489185,-0.5475731,-0.3967085,0.6903407,-0.64726216,0.13041733,-0.8754976,-0.51862717,-0.38290477,0.6460395,0.9802723,0.054017026,0.1901178,0.0018615683,-0.84355706,0.3795144,-0.7187511,0.0,1.0,0.0,0.0,0.0,0.0,0.0,-0.10242689,-0.0032915175,-0.14034069,11.093044,-0.14588833,14.813209,-3.7944078,4.269968,-4.2315826,0.51719546
87.14283,101.70029,50.508907,5.072003,-0.26403296,-0.068181455,0.7219402,-0.15731734,-0.8039981,0.23406169,0.48957062,0.072805956,-0.10852417,0.37150723,0.17869286,-1.0662,-2.295437,-0.946328,2.097791,1.8850926,-0.9240495,0.18955228,-1.0001224,-2.3209157,-0.9870292,2.0902433,1.8962348,-0.9584486,-0.4504819,-1.4330955,-0.11020498,0.82271874,-0.008824169,0.02212347,0.27468696,-0.55335236,-0.3957231,0.6823069,-0.55524,0.087866664,-0.77997214,-0.52620316,-0.37975097,0.6394695,0.9810666,0.05533833,0.18558642,-0.0019028884,-0.72514206,0.29770035,-0.6393967,0.0,1.0,0.0,0.0,0.0,0.0,0.0,-0.09664762,-0.0042769015,-0.13230687,14.706171,-0.36132336,38.871494,-1.1574864,7.15376,-2.7378924,-0.20018816
78.87093,91.55725,46.052967,2.43801,0.3845261,-0.08606419,0.6447819,-0.18255599,-0.81737757,0.34851736,0.33156982,0.36792085,-0.23868023,0.24514832,0.17129669,-1.0818602,-2.286064,-0.9538722,2.1270354,1.8723668,-0.93393373,0.18583396,-1.0145363,-2.3190084,-0.9794833,2.091526,1.8961989,-0.9557982,-0.34652025,-1.4446187,0.29396084,0.73133045,0.17140816,-0.012047169,0.26143152,-0.5583191,-0.39511776,0.67507124,-0.4781691,0.05164316,-0.7065828,-0.5327797,-0.37729764,0.63357157,0.9821557,0.054550212,0.17993133,-0.004365637,-0.63037074,0.23060976,-0.576134,0.0,1.0,0.0,0.0,0.0,0.0,0.0,-0.091680884,-0.0048822463,-0.12507123,10.123658,-1.2895346,41.203907,-9.317482,17.320112,-3.4206471,-1.4156818
77.24412,69.52341,37.79269,-8.000609,-0.47158638,-0.4642043,0.87622136,-0.11547996,-0.81656176,0.35059455,0.115404956,0.50018317,-0.22521675,0.34971845,0.17428596,-1.0961925,-2.283949,-0.96794283,2.1415443,1.8736773,-0.9208264,0.1830991,-1.0290588,-2.3138862,-0.9738115,2.0948462,1.8958737,-0.95320684,-0.24978405,-1.4552501,0.5868202,0.5124168,0.38374713,-0.039287478,0.25821006,-0.5626488,-0.39486623,0.66817075,-0.4189294,0.016710855,-0.68738455,-0.53845215,-0.37558985,0.62786776,0.983585,0.05206344,0.17268632,-0.0054099876,-0.5439771,0.15324073,-0.57122594,0.0,1.0,0.0,0.0,0.0,0.0,0.0,-0.0873512,-0.005133778,-0.11817074,9.48289,-1.2329578,29.823483,-21.912575,20.734383,-2.7149305,-0.35601258
51.88943,61.457954,27.69667,-4.6079144,-0.1130065,-0.38476175,0.7171012,-0.13094024,-0.7975953,0.38850647,0.03908483,0.5857365,-0.17819323,0.43487003,0.17000508,-1.1088183,-2.2750356,-0.96990305,2.15342,1.8780544,-0.9097198,0.1809635,-1.0435737,-2.3067183,-0.9704885,2.1002145,1.8953493,-0.9505696,-0.20163114,-1.4506065,0.7609679,0.27268928,0.58731014,-0.056583397,0.26576808,-0.56651306,-0.39488077,0.66125214,-0.3768955,-0.007026534,-0.6968499,-0.54345703,-0.37445164,0.6220323,0.98527986,0.048475016,0.1638484,-0.005237986,-0.4855291,0.10282076,-0.59020996,0.0,1.0,0.0,0.0,0.0,0.0,0.0,-0.083486915,-0.0051192343,-0.11125213,4.777628,0.3180027,17.54216,-23.840254,20.217068,-1.6626709,0.8277595
53.95197,61.374866,27.2602,-6.0602756,-0.609661,-0.42734358,0.7819124,-0.06087791,-0.79046535,0.50510067,-0.080638364,0.63514495,-0.09922913,0.4414843,0.1748757,-1.1226202,-2.2562082,-0.97855234,2.163729,1.8854264,-0.9064212,0.1793821,-1.05798,-2.2981095,-0.9696277,2.107349,1.8947442,-0.94784385,-0.14362773,-1.437711,0.8940754,0.024615744,0.755288,-0.061401665,0.27526125,-0.5699539,-0.39514303,0.6542129,-0.334455,-0.03220635,-0.70976317,-0.5478325,-0.37387323,0.61594737,0.98714054,0.044105817,0.15360051,-0.0038855027,-0.42007652,0.04466797,-0.6171192,0.0,1.0,0.0,0.0,0.0,0.0,0.0,-0.08004606,-0.004856974,-0.10421288,5.811086,1.1422634,13.29788,-24.598104,16.804695,-0.35627708,1.0794103
25.855679,56.447216,18.539566,-0.86191744,-0.10399939,-0.097842485,0.5944686,-0.1389146,-0.77831966,0.52132607,-0.23594977,0.67309463,-0.003416589,0.45344853,0.16549064,-1.1358119,-2.245977,-0.99322265,2.1746583,1.8944025,-0.902499,0.17786294,-1.0721992,-2.2886453,-0.97135305,2.1158407,1.8941827,-0.9450142,-0.154262,-1.4170233,0.96317524,-0.2373065,0.8809484,-0.05396471,0.28634754,-0.57307434,-0.39556313,0.6468813,-0.30539784,-0.04495382,-0.7436215,-0.5517273,-0.3736174,0.6094793,0.9890607,0.039345577,0.14215562,-0.0015878003,-0.3774163,0.02069915,-0.6588832,0.0,1.0,0.0,0.0,0.0,0.0,0.0,-0.076925635,-0.0044368804,-0.09688127,-0.9379238,1.9710302,6.5607786,-25.917429,12.827086,0.88847506,1.3579011
15.134652,63.21787,17.818657,5.781245,0.3004247,0.11509672,0.39346683,-0.122728065,-0.7677186,0.5692879,-0.26152587,0.69657826,0.104412444,0.46531135,0.16559014,-1.1489711,-2.2317164,-0.99750566,2.1854985,1.904624,-0.89848304,0.17617114,-1.0861896,-2.278651,-0.9751714,2.1252897,1.893783,-0.94207114,-0.17352763,-1.3929826,1.0099989,-0.429023,0.9675725,-0.034715626,0.2979404,-0.5759125,-0.39607692,0.63931036,-0.27745786,-0.053090166,-0.763299,-0.5552597,-0.373487,0.602705,0.99093574,0.034328416,0.12986913,0.0013615427,-0.34341222,0.01185111,-0.6854052,0.0,1.0,0.0,0.0,0.0,0.0,0.0,-0.0740875,-0.0039230883,-0.08931035,-1.7395169,2.3588657,4.183817,-18.876427,9.07371,2.1120408,1.4628172
9.127964,68.446396,17.772577,11.461885,0.5755465,0.15823233,0.18860972,-0.09826262,-0.7641359,0.56835085,-0.2589292,0.70353335,0.17406432,0.4603875,0.16634488,-1.1626033,-2.2218158,-1.0010643,2.195643,1.9111894,-0.8960324,0.17438611,-1.0999683,-2.2684207,-0.98021823,2.1353414,1.8936229,-0.93902683,-0.17946665,-1.3727269,1.0256376,-0.5288456,1.0193679,-0.009099128,0.3077418,-0.5784912,-0.3966539,0.6316442,-0.25140223,-0.058810174,-0.76894575,-0.55851746,-0.37339377,0.5957689,0.99267685,0.029093161,0.11715084,0.0046731336,-0.318601,0.009615766,-0.69781613,0.0,1.0,0.0,0.0,0.0,0.0,0.0,-0.071508765,-0.0033461154,-0.08164418,-0.38841665,2.0310402,1.0321856,-9.69255,5.6578517,2.7840157,1.2991905
