Afshin1997/kuka_rl_ros2/src/catch_and_throw/input_files/idealpd/polynomial_regressor/optimizer_files/env_365_data.csv
torque0,torque1,torque2,torque3,torque4,torque5,torque6,action0,action1,action2,action3,action4,action5,action6,set_target_0,set_target_1,set_target_2,set_target_3,set_target_4,set_target_5,set_target_6,joint_pos_0,joint_pos_1,joint_pos_2,joint_pos_3,joint_pos_4,joint_pos_5,joint_pos_6,joint_vel_0,joint_vel_1,joint_vel_2,joint_vel_3,joint_vel_4,joint_vel_5,joint_vel_6,tennisball_pos_0,tennisball_pos_1,tennisball_pos_2,tennisball_lin_vel_0,tennisball_lin_vel_1,tennisball_lin_vel_2,end_effector_pos_0,end_effector_pos_1,end_effector_pos_2,end_effector_rot_0,end_effector_rot_1,end_effector_rot_2,end_effector_rot_3,end_effector_lin_vel_0,end_effector_lin_vel_1,end_effector_lin_vel_2,obs_task_0,obs_task_1,obs_task_2,obs_task_3,obs_task_4,obs_task_5,obs_task_6,to_final_target_0,to_final_target_1,to_final_target_2,joint_acc_0,joint_acc_1,joint_acc_2,joint_acc_3,joint_acc_4,joint_acc_5,joint_acc_6
0.0,0.0,0.0,0.0,0.0,0.0,0.0,0.0,0.0,0.0,0.0,0.0,0.0,0.0,1.7802359,-1.0646509,-1.8151424,-1.1170107,1.9373155,1.1170107,-0.91629785,1.7802359,-1.0646509,-1.8151424,-1.1170107,1.9373155,1.1170107,-0.91629785,0.0,0.0,0.0,0.0,0.0,0.0,0.0,2.9405098,-0.24900818,0.42216006,-3.635714,-0.12039744,4.6974006,0.5304184,-0.45449638,0.693097,0.5745483,0.17512383,0.15255436,0.7848268,0.0,0.0,0.0,1.0,0.0,0.0,0.0,0.0,0.0,0.0,-3.59051,-0.15099183,0.12783995,0.0,0.0,0.0,0.0,0.0,0.0,0.0
0.0,0.0,0.0,0.0,0.0,0.0,0.0,0.0,0.0,0.0,0.0,0.0,0.0,0.0,1.7802359,-1.0646509,-1.8151424,-1.1170107,1.9373155,1.1170107,-0.91629785,1.7802359,-1.0646509,-1.8151424,-1.1170107,1.9373155,1.1170107,-0.91629785,0.0,0.0,0.0,0.0,0.0,0.0,0.0,2.9405098,-0.24900818,0.42216006,-3.635714,-0.12039744,4.6974006,0.5304184,-0.45449638,0.693097,0.5745483,0.17512383,0.15255436,0.7848268,0.0,0.0,0.0,1.0,0.0,0.0,0.0,0.0,0.0,0.0,-3.59051,-0.15099183,0.12783995,0.0,0.0,0.0,0.0,0.0,0.0,0.0
0.0,0.0,0.0,0.0,0.0,0.0,0.0,0.0,0.0,0.0,0.0,0.0,0.0,0.0,1.7802359,-1.0646509,-1.8151424,-1.1170107,1.9373155,1.1170107,-0.91629785,1.7802359,-1.0646509,-1.8151424,-1.1170107,1.9373155,1.1170107,-0.91629785,0.0,0.0,0.0,0.0,0.0,0.0,0.0,2.9405098,-0.24900818,0.42216006,-3.635714,-0.12039744,4.6974006,0.5304184,-0.45449638,0.693097,0.5745483,0.17512383,0.15255436,0.7848268,0.0,0.0,0.0,1.0,0.0,0.0,0.0,0.0,0.0,0.0,-3.59051,-0.15099183,0.12783995,0.0,0.0,0.0,0.0,0.0,0.0,0.0
-176.0,89.762314,1.8801422,110.0,10.922641,5.541725,-3.8771894,-0.8338961,0.46518797,-0.5517588,0.71930724,0.36633977,0.6121972,-0.5602112,1.6968462,-1.0181321,-1.8703183,-1.04508,1.9739494,1.1782304,-0.97231895,1.7784506,-1.0615915,-1.8210342,-1.1133124,1.9436975,1.1219565,-0.91844743,-0.23789002,0.40720856,-0.7845983,0.49304977,0.8497275,0.65736806,-0.28619936,2.9041786,-0.2502098,0.46836236,-3.6320791,-0.12027707,4.594518,0.5282059,-0.45747757,0.6940645,0.57832444,0.1738959,0.15098538,0.7826267,-0.29457784,-0.39803708,0.12876962,1.0,0.0,0.0,0.0,0.0,0.0,0.0,-3.5541787,-0.1497902,0.08163765,-23.768433,40.49396,-78.162315,49.320908,84.649124,65.06414,-28.507269
-176.0,47.454617,-15.197303,110.0,11.721357,4.2499065,-3.6943345,-0.82374334,0.2517126,-0.56605947,0.6912482,0.47749317,0.6036667,-0.6047066,1.6960763,-1.0364202,-1.8776401,-1.0441875,1.9914467,1.1823231,-0.9789181,1.7750536,-1.055549,-1.8354232,-1.103438,1.9582295,1.1341616,-0.9225816,-0.37238622,0.6676355,-1.6561006,1.1535332,1.6522977,1.4008236,-0.45330518,2.8678856,-0.25141144,0.51353663,-3.6284478,-0.12015682,4.4917383,0.52308655,-0.46482086,0.69590604,0.58699924,0.17090966,0.14703105,0.77756256,-0.5863255,-0.84529054,0.2032284,1.0,0.0,0.0,0.0,0.0,0.0,0.0,-3.5178857,-0.14858857,0.03646338,-13.083964,25.37576,-86.87165,66.42761,79.62541,72.07439,-15.977716
-155.19087,119.03373,30.24679,93.95805,7.6278524,7.494152,-2.2510805,-0.78635126,0.46648645,-0.1640939,0.5360794,0.4889336,0.62320876,-0.56659746,1.6964185,-1.0089004,-1.8518326,-1.0498301,2.007123,1.1964824,-0.9792414,1.7680994,-1.0475401,-1.8511016,-1.0903536,1.974812,1.1479918,-0.92733854,-0.8038312,0.84171915,-1.5316846,1.3606819,1.6560662,1.3685316,-0.48547825,2.831627,-0.25261307,0.5576839,-3.62482,-0.120036684,4.389061,0.5150604,-0.47473145,0.6995115,0.5987905,0.1665116,0.14219242,0.7703927,-0.8811386,-1.0343122,0.4172099,1.0,0.0,0.0,0.0,0.0,0.0,0.0,-3.481627,-0.14738694,-0.007683873,-43.387665,16.374695,14.501166,20.872307,-0.9119034,-5.739832,-3.8850784
-91.03375,132.87398,47.28093,61.52181,3.9551218,7.873122,-0.90377283,-0.7909594,0.49089223,-0.0937616,0.5285917,0.48915952,0.6155061,-0.56557804,1.6890035,-0.9984509,-1.8604778,-1.0374944,2.023728,1.2095424,-0.9838964,1.757218,-1.0384496,-1.8629653,-1.0768629,1.9897313,1.1607767,-0.9322242,-1.1847239,0.9289698,-1.0634617,1.345209,1.4334141,1.2433652,-0.49299902,2.7954063,-0.2538128,0.60080516,-3.621196,-0.11991667,4.2864866,0.50465393,-0.48519707,0.7052338,0.61183876,0.16065314,0.13724522,0.76223856,-1.1053891,-1.040173,0.6298815,1.0,0.0,0.0,0.0,0.0,0.0,0.0,-3.4454064,-0.14618722,-0.05080515,-38.63025,7.9235315,49.12622,-1.5668631,-23.386024,-14.072061,-1.7729938
-33.904366,135.71542,54.928192,35.05481,1.3003824,7.0479383,0.022933207,-0.8095271,0.54298204,-0.013603891,0.5446093,0.5391698,0.61378413,-0.56516695,1.6762652,-0.9841514,-1.8643258,-1.022402,2.0436482,1.2221551,-0.9887409,1.7433726,-1.0287431,-1.8694503,-1.0643011,2.0021603,1.1721808,-0.93711466,-1.4530642,0.9826147,-0.5034882,1.2260618,1.1768638,1.1035186,-0.4909607,2.7592201,-0.2550106,0.6429015,-3.6175754,-0.119796775,4.184015,0.49262238,-0.49489784,0.7128864,0.62489814,0.15333259,0.13232106,0.7539778,-1.2469234,-0.9340086,0.8146884,1.0,0.0,0.0,0.0,0.0,0.0,0.0,-3.4092202,-0.1449894,-0.09290147,-27.410078,4.8282623,57.956684,-12.067032,-26.428581,-14.714098,-0.7489562
6.294758,126.28047,52.95618,16.87139,-0.33211255,5.3844385,0.43642503,-0.81928176,0.58864033,0.04743344,0.5588225,0.5659889,0.60330695,-0.57422644,1.6614444,-0.9698791,-1.864707,-1.0084189,2.0587592,1.2325115,-0.9945373,1.7278353,-1.0185617,-1.8710792,-1.0529715,2.0124714,1.1823126,-0.9419679,-1.5887042,1.0289339,-0.04468403,1.1011251,0.98106045,0.98221296,-0.4859516,2.723072,-0.25620842,0.6839738,-3.6139586,-0.119677,4.0816455,0.47973633,-0.5032406,0.72204185,0.637345,0.14483319,0.12748504,0.746031,-1.3123913,-0.7855184,0.9509771,1.0,0.0,0.0,0.0,0.0,0.0,0.0,-3.3730721,-0.14379159,-0.13397378,-14.0064,4.2931795,47.26341,-12.691331,-20.01232,-12.362898,-0.2443254
29.373055,117.38722,48.877632,7.178798,-1.1514096,3.9346464,0.5353373,-0.8191244,0.6382611,0.12171623,0.5634972,0.58370435,0.6019671,-0.57067835,1.6459229,-0.95473564,-1.8589076,-0.9966218,2.0708418,1.2425094,-0.9990357,1.7117258,-1.0078405,-1.8692043,-1.042626,2.021413,1.1913859,-0.9467611,-1.619199,1.0857651,0.26806158,1.0116911,0.86406595,0.88236976,-0.47907943,2.6869583,-0.25740433,0.72402316,-3.6103454,-0.11955734,3.9793785,0.46656418,-0.51005936,0.7322953,0.64898145,0.13548854,0.12280925,0.7385011,-1.3257982,-0.6307104,1.0497991,1.0,0.0,0.0,0.0,0.0,0.0,0.0,-3.3369584,-0.14259568,-0.17402315,-3.3617258,5.449462,32.237858,-9.13415,-11.934543,-9.988939,0.09185076
37.42284,108.01239,43.4079,3.405095,-1.3909107,2.8482306,0.47599727,-0.8200161,0.6796937,0.18567823,0.5530945,0.5913951,0.60215575,-0.5589836,1.6297243,-0.93987113,-1.8506365,-0.98731655,2.0805526,1.2516015,-1.0026594,1.6957575,-0.99647844,-1.8651893,-1.0329005,2.0296528,1.1995989,-0.95147604,-1.5901157,1.1524767,0.44807795,0.9591928,0.8104335,0.8011676,-0.47050568,2.6508827,-0.25859833,0.7630506,-3.6067357,-0.11943781,3.877214,0.4534645,-0.51542664,0.7433232,0.6598335,0.12558745,0.11836581,0.7313255,-1.3116817,-0.4894624,1.1186949,1.0,0.0,0.0,0.0,0.0,0.0,0.0,-3.3008828,-0.14140168,-0.2130506,2.6880503,6.4975023,18.693054,-5.409479,-5.5018663,-8.042633,0.37459135
35.30498,95.253265,36.158062,2.8108158,-1.236119,1.955285,0.35329372,-0.8133044,0.70528346,0.20647652,0.5448226,0.6126517,0.6074781,-0.53809386,1.6144271,-0.9259501,-1.8445417,-0.9784182,2.090918,1.2603468,-1.0052854,1.6802641,-0.98446786,-1.8602073,-1.0234782,2.0377133,1.2071158,-0.9560918,-1.5361934,1.2167957,0.5163868,0.93611914,0.804385,0.7356148,-0.45978355,2.6148415,-0.25979233,0.8010572,-3.6031299,-0.11931839,3.775152,0.44056702,-0.51958466,0.754823,0.67002857,0.11540523,0.11418805,0.72436476,-1.2868364,-0.37486893,1.1575993,1.0,0.0,0.0,0.0,0.0,0.0,0.0,-3.2648416,-0.14020768,-0.2510572,5.2336216,6.3085794,7.3160353,-2.4522424,-0.67145824,-6.4471483,0.6863594
27.526123,82.255066,28.949348,4.1192193,-0.91630757,1.3302636,0.2020253,-0.8084347,0.72369814,0.2034504,0.5396017,0.6162306,0.6199859,-0.5303392,1.5994207,-0.91209805,-1.8398622,-0.969518,2.0993364,1.2691144,-1.0091257,1.6652972,-0.97189367,-1.8551261,-1.0141474,2.0458767,1.2140757,-0.96059793,-1.4838474,1.2706003,0.5064349,0.93140227,0.8200286,0.68339556,-0.4486696,2.5788383,-0.26098442,0.838044,-3.5995274,-0.11919909,3.673192,0.42790222,-0.5228119,0.76652527,0.6797303,0.10516498,0.11030649,0.7174534,-1.262918,-0.28893954,1.1709869,1.0,0.0,0.0,0.0,0.0,0.0,0.0,-3.2288384,-0.13901559,-0.28804398,5.108094,5.29778,-0.65660477,-0.6240845,1.5572906,-5.1094294,0.80210567
19.792639,70.85254,23.030125,5.039321,-0.63540995,0.90517145,0.114836425,-0.8063407,0.73709536,0.18877764,0.5176091,0.6318724,0.62850195,-0.52789915,1.584663,-0.8981841,-1.8362484,-0.9623865,2.109064,1.2769259,-1.0133878,1.6507384,-0.9588884,-1.8504703,-1.004891,2.0542843,1.220595,-0.9650001,-1.4467617,1.3103962,0.4526264,0.9232546,0.8473944,0.641876,-0.43821836,2.5428696,-0.2621746,0.8740119,-3.5959287,-0.11907991,3.5713336,0.41544342,-0.52534103,0.7782008,0.6890588,0.0950435,0.10672929,0.7104742,-1.242946,-0.22496065,1.1629272,1.0,0.0,0.0,0.0,0.0,0.0,0.0,-3.1928697,-0.1378254,-0.32401186,3.5875797,3.9286137,-5.126649,-0.9970665,2.7729511,-4.0293813,0.78763366
16.468708,63.313675,19.938797,4.4836445,-0.5034874,0.7042561,0.1560831,-0.80298585,0.73844916,0.20410663,0.47928554,0.6454937,0.6243489,-0.52808017,1.5704398,-0.8850435,-1.8300596,-0.95696247,2.1188338,1.2830299,-1.0178081,1.6364294,-0.94562566,-1.8463085,-0.9958721,2.0629818,1.2267557,-0.9693088,-1.4260893,1.3314873,0.40490547,0.89402795,0.87746567,0.607975,-0.4292181,2.5069351,-0.2633648,0.90896195,-3.5923333,-0.11896085,3.4695773,0.40316772,-0.527298,0.789696,0.69802684,0.08514128,0.10340124,0.7034328,-1.2244719,-0.16998976,1.1415982,1.0,0.0,0.0,0.0,0.0,0.0,0.0,-3.1569352,-0.13663521,-0.35896194,1.9377947,2.0760298,-4.5208454,-3.1380296,3.0567408,-3.2443404,0.6552756
15.613962,62.99381,19.976818,4.4992065,-0.4782307,0.7711885,0.21176621,-0.80138296,0.7543037,0.2196619,0.4482695,0.64929485,0.6347154,-0.50860566,1.5562911,-0.87019527,-1.8243423,-0.95104516,2.1279113,1.2902273,-1.0201694,1.6222273,-0.93219125,-1.8424366,-0.98727185,2.0719426,1.2326323,-0.97352403,-1.4188318,1.3474056,0.38216892,0.847981,0.90218735,0.5812752,-0.41978437,2.4710388,-0.26455498,0.94289523,-3.5887418,-0.11884191,3.3679225,0.39105606,-0.52869225,0.8009806,0.70660067,0.075447,0.10026149,0.69639844,-1.207638,-0.11351841,1.120666,1.0,0.0,0.0,0.0,0.0,0.0,0.0,-3.121039,-0.13544503,-0.39289522,0.58333874,1.5594959,-1.9854963,-4.823959,2.5179148,-2.5253892,0.6955385
17.9504,62.1453,20.213095,2.943181,-0.58648425,0.7394941,0.3145678,-0.7950189,0.75445884,0.23863414,0.40153083,0.6565429,0.6244158,-0.5054527,1.5427254,-0.85674536,-1.8185731,-0.94711876,2.1375968,1.2950739,-1.0240693,1.6080614,-0.91866434,-1.8385742,-0.97928864,2.0811093,1.2382723,-0.9776525,-1.4164022,1.354466,0.3888994,0.7809697,0.921618,0.5589051,-0.41145453,2.4351807,-0.26574135,0.97581273,-3.5851538,-0.11872309,3.2663696,0.37914658,-0.5294838,0.8120392,0.7147087,0.06593821,0.097257175,0.6894814,-1.1860691,-0.0525364,1.097481,1.0,0.0,0.0,0.0,0.0,0.0,0.0,-3.0851808,-0.13425866,-0.42581272,0.094509125,0.679636,0.9927213,-6.926751,1.9812822,-2.059102,0.57738423
17.717783,62.72691,20.305813,3.383987,-0.5940322,0.737808,0.31350875,-0.79475176,0.7661371,0.23412499,0.37684903,0.65878916,0.6312191,-0.48946956,1.5285863,-0.8420506,-1.8151617,-0.9416037,2.1469882,1.3013942,-1.0265994,1.5938917,-0.90505636,-1.8345878,-0.97198063,2.090421,1.2437254,-0.98169607,-1.4175115,1.3628702,0.40285495,0.7133206,0.93469584,0.54123396,-0.40276983,2.3993568,-0.26692772,1.0077155,-3.5815694,-0.118604384,3.1649182,0.3674507,-0.5296631,0.82288206,0.7223403,0.05657704,0.09438119,0.6827266,-1.1637976,0.008424924,1.07619,1.0,0.0,0.0,0.0,0.0,0.0,0.0,-3.049357,-0.13307229,-0.45771545,-0.25615692,0.8194208,1.7047822,-6.9774747,1.3578653,-1.5858412,0.6238222
22.925556,62.494343,20.660315,0.15387106,-0.92023134,0.57809114,0.43771097,-0.7893203,0.76903075,0.25665477,0.2919231,0.6705094,0.6249308,-0.49078867,1.5149597,-0.82815325,-1.8089223,-0.9427883,2.157472,1.3062185,-1.030775,1.5797278,-0.89137495,-1.8303535,-0.9655853,2.0998585,1.249024,-0.9856624,-1.4165097,1.3699408,0.43135652,0.6141474,0.94666606,0.52693784,-0.39548084,2.3635674,-0.2681141,1.0386044,-3.5779886,-0.1184858,3.063568,0.35606003,-0.5291672,0.83346844,0.7294166,0.047386874,0.091643855,0.6762449,-1.1288723,0.07742933,1.0489696,1.0,0.0,0.0,0.0,0.0,0.0,0.0,-3.0135674,-0.13188592,-0.48860437,-0.046634674,0.6956339,3.1724215,-10.134292,1.2441635,-1.1795878,0.48380494
28.56702,61.906998,20.573872,-3.984767,-1.3862317,0.32149073,0.56426734,-0.7900272,0.78018945,0.2667189,0.1826272,0.67313135,0.62245756,-0.47817376,1.500725,-0.813356,-1.8036816,-0.94732255,2.1671717,1.3112698,-1.0334798,1.5655714,-0.87759054,-1.8258216,-0.9605165,2.1093915,1.2542025,-0.9895553,-1.4158309,1.3812878,0.46176857,0.47027096,0.9556949,0.51594627,-0.38803747,2.327816,-0.26929665,1.0684806,-3.5744114,-0.11836734,2.9623194,0.34515,-0.52791595,0.8437074,0.73583055,0.038448494,0.089121215,0.6701734,-1.0768616,0.15489535,1.0114633,1.0,0.0,0.0,0.0,0.0,0.0,0.0,-2.977816,-0.13070336,-0.5184806,-0.08044243,1.1373043,3.3594847,-14.607554,0.9569049,-0.7561922,0.5133867
35.303772,59.324482,20.14367,-8.811344,-1.8187191,-0.017749012,0.7263223,-0.78064317,0.77594876,0.29683143,0.06415729,0.6814772,0.6287011,-0.47081676,1.4875071,-0.79999566,-1.7961385,-0.9541008,2.177539,1.3170726,-1.036637,1.5514666,-0.8637308,-1.8209102,-0.9572025,2.119012,1.259297,-0.9933767,-1.4092641,1.3876219,0.5019814,0.28437185,0.9646639,0.5087804,-0.3808131,2.292099,-0.2704792,1.0973451,-3.5708377,-0.11824899,2.8611717,0.3348961,-0.52583885,0.85348034,0.74145675,0.029866552,0.08685578,0.6646848,-1.0053824,0.23753472,0.96161735,1.0,0.0,0.0,0.0,0.0,0.0,0.0,-2.942099,-0.1295208,-0.5473451,0.5304575,0.656867,4.305589,-18.8026,0.96348524,-0.27073622,0.51192045
37.64543,55.76754,18.697172,-11.762072,-2.1010458,-0.35210806,0.79380333,-0.787822,0.77985156,0.30787274,-0.06691648,0.67804766,0.6276296,-0.46996677,1.4726844,-0.7857456,-1.790123,-0.9638941,2.186817,1.32206,-1.0403733,1.5373923,-0.8498157,-1.8156269,-0.95601326,2.1286938,1.2643362,-0.9971313,-1.4072094,1.3929983,0.5380625,0.06319452,0.9698107,0.50386375,-0.37418318,2.2564163,-0.27166176,1.125199,-3.5672677,-0.118130766,2.7601252,0.3254509,-0.5229416,0.86266416,0.7462348,0.021763578,0.084916,0.65988576,-0.92068475,0.31839287,0.89953136,1.0,0.0,0.0,0.0,0.0,0.0,0.0,-2.9064164,-0.12833825,-0.57519895,0.10316372,0.5820036,3.8307905,-22.309872,0.60327053,0.020349026,0.49717426
35.70739,55.569016,18.453695,-10.063282,-1.934364,-0.41098484,0.75083405,-0.7861559,0.78495014,0.33571297,-0.13898982,0.6805787,0.6208577,-0.4439542,1.4587767,-0.7713207,-1.7820556,-0.96991223,2.1967516,1.326422,-1.0415267,1.5233332,-0.83584154,-1.8099563,-0.95691067,2.1384213,1.2693278,-1.0008054,-1.405544,1.3991292,0.5772563,-0.14116618,0.97401345,0.49924836,-0.3656285,2.2207718,-0.2728424,1.1520431,-3.5637012,-0.11801266,2.6591797,0.31682587,-0.5192852,0.87126523,0.7502074,0.014149428,0.083307244,0.65578073,-0.8382498,0.391517,0.842138,1.0,0.0,0.0,0.0,0.0,0.0,0.0,-2.870772,-0.1271576,-0.6020431,0.10108948,0.67801476,4.0419817,-20.58451,0.5588293,0.029152632,0.73294044
36.534367,55.67823,18.650421,-9.903852,-1.9248433,-0.5118012,0.75631565,-0.77494085,0.78745335,0.36734012,-0.24473627,0.68110913,0.6138304,-0.43085432,1.4458392,-0.7570962,-1.7732223,-0.9813843,2.2065322,1.3307108,-1.0438908,1.5093371,-0.82180727,-1.8038471,-0.95978695,2.148183,1.2742735,-1.0043893,-1.3975146,1.4050881,0.62226516,-0.33684102,0.97717047,0.4947513,-0.3564649,2.1851616,-0.27402115,1.1778785,-3.5601382,-0.11789467,2.5583353,0.30903625,-0.5149059,0.8793142,0.75340486,0.0070052133,0.08201155,0.652385,-0.75284374,0.46167564,0.7873095,1.0,0.0,0.0,0.0,0.0,0.0,0.0,-2.8351617,-0.12597886,-0.6278785,0.7794857,0.6808996,4.530227,-19.675764,0.4992485,0.044077635,0.82743764
36.978996,53.9358,18.113272,-10.400114,-1.9376621,-0.67316514,0.7734985,-0.7702947,0.78677434,0.3933163,-0.36529854,0.6869234,0.61468303,-0.4194203,1.4323076,-0.74312985,-1.7645154,-0.9963168,2.2168756,1.3357418,-1.0463313,1.495442,-0.80773103,-1.7972724,-0.96463543,2.157983,1.2791811,-1.0078816,-1.3867347,1.4087212,0.6691627,-0.53449637,0.9816719,0.4910901,-0.3470362,2.1495857,-0.2751999,1.2027062,-3.5565789,-0.1177768,2.4575918,0.30213547,-0.50984764,0.8867983,0.7558372,0.00035185297,0.081019916,0.6497274,-0.66367,0.52757204,0.73006606,1.0,0.0,0.0,0.0,0.0,0.0,0.0,-2.7995858,-0.124800116,-0.6527062,1.0923147,0.46525002,4.639852,-19.840776,0.66365004,0.1344204,0.88909864
34.600174,55.3971,18.771011,-7.554926,-1.6729236,-0.585009,0.72045004,-0.7608632,0.7912791,0.4345187,-0.4241393,0.6880939,0.6135761,-0.37759176,1.4193558,-0.7286031,-1.7538205,-1.0070493,2.2267923,1.3405387,-1.0456408,1.4816843,-0.79361284,-1.7901542,-0.9712158,2.1678288,1.2840544,-1.0112576,-1.3719673,1.4132777,0.72547114,-0.69935465,0.9863227,0.48765102,-0.3345419,2.114048,-0.27637672,1.2265273,-3.553023,-0.117659055,2.3569489,0.29605484,-0.50416183,0.89379066,0.7575534,-0.0058778436,0.08027836,0.64779127,-0.582259,0.5884662,0.6832297,1.0,0.0,0.0,0.0,0.0,0.0,0.0,-2.764048,-0.12362328,-0.6765273,1.5203238,0.57873726,5.4826617,-16.530716,0.74294806,0.124156475,1.2206316
29.28062,53.89429,17.85351,-3.8372474,-1.3096743,-0.5549879,0.5848274,-0.75730026,0.7935771,0.44492245,-0.4746206,0.68799174,0.61238325,-0.36587256,1.4059544,-0.71425515,-1.745662,-1.0186778,2.236628,1.3452927,-1.0478449,1.4680659,-0.77944887,-1.7825496,-0.97916275,2.1777127,1.2888933,-1.0145078,-1.3584714,1.417957,0.7714195,-0.8267342,0.9901832,0.48415026,-0.3220767,2.0785446,-0.27755165,1.2493428,-3.5494707,-0.117541425,2.2564065,0.29070663,-0.49794388,0.90036577,0.7586713,-0.011752514,0.07975665,0.64646626,-0.5124911,0.63831013,0.6428965,1.0,0.0,0.0,0.0,0.0,0.0,0.0,-2.7285447,-0.122448355,-0.6993428,1.3968945,0.6065607,4.389751,-12.783265,0.69584846,0.06904602,1.2354314
22.662666,54.110004,17.662613,1.7170577,-0.7954412,-0.36701357,0.4203719,-0.7508781,0.7980663,0.46824887,-0.48095483,0.68576705,0.6124802,-0.31855673,1.3929781,-0.69964224,-1.7357247,-1.0272583,2.2462895,1.3501414,-1.0463635,1.4545752,-0.7652267,-1.7745216,-0.9879604,2.1876233,1.2936999,-1.0176129,-1.345926,1.4241571,0.81243926,-0.89762926,0.99234,0.48054963,-0.3065584,2.0430756,-0.27872658,1.2711536,-3.545922,-0.117423914,2.1559649,0.28590775,-0.49130058,0.9066442,0.75934035,-0.01739314,0.07940516,0.6455962,-0.4609683,0.6777695,0.6165041,1.0,0.0,0.0,0.0,0.0,0.0,0.0,-2.6930757,-0.12127343,-0.72115356,1.2858391,0.7770777,3.8489938,-7.1525455,0.5722642,-0.0010848045,1.5437126
17.994232,52.96454,17.10668,5.375765,-0.4446396,-0.2794066,0.30427036,-0.744369,0.79912794,0.4869939,-0.49738348,0.6833586,0.6079397,-0.28913748,1.3801383,-0.68531394,-1.7258222,-1.0376987,2.255959,1.3544939,-1.0465267,1.4412028,-0.75094926,-1.7661235,-0.99718624,2.1975377,1.2984663,-1.0205541,-1.3343551,1.4295223,0.8479813,-0.93116564,0.9926593,0.47657394,-0.28994173,2.0076447,-0.2799015,1.2919606,-3.5423768,-0.11730651,2.0556235,0.28153992,-0.4843197,0.91271883,0.759679,-0.022894666,0.07918543,0.6450529,-0.4215425,0.709109,0.5978497,1.0,0.0,0.0,0.0,0.0,0.0,0.0,-2.6576447,-0.1200985,-0.7419606,1.1713743,0.7039547,3.2844782,-3.4374714,0.40787458,-0.07939935,1.6511798
11.589226,48.726585,15.122436,8.817484,-0.057093203,-0.25626746,0.16756678,-0.7550207,0.7956742,0.49211138,-0.5041984,0.6800593,0.6075979,-0.2766175,1.3657007,-0.67138183,-1.7169124,-1.0476061,2.2655437,1.3592261,-1.0482159,1.427859,-0.7366499,-1.7574546,-1.0065576,2.2074406,1.3031946,-1.023335,-1.33432,1.4306756,0.8722618,-0.9395682,0.9907432,0.47247955,-0.27421618,1.9722481,-0.28107262,1.311765,-3.538835,-0.11718922,1.9553825,0.27746582,-0.4771099,0.9186225,0.75981045,-0.028294278,0.07907628,0.6446971,-0.39535204,0.7281634,0.5810132,1.0,0.0,0.0,0.0,0.0,0.0,0.0,-2.6222482,-0.11892739,-0.76176494,-0.022864342,0.28104782,2.1944761,-0.9622693,0.16729832,-0.14547706,1.5549839
10.185301,46.822014,14.333677,9.504833,0.002769053,-0.3165325,0.12793331,-0.7503797,0.7995748,0.4975447,-0.5190787,0.67762506,0.60396224,-0.25037894,1.352821,-0.6566924,-1.7077001,-1.0584655,2.2752032,1.3635908,-1.0483729,1.4145075,-0.7223352,-1.7486141,-1.0159703,2.217313,1.3078829,-1.0259576,-1.335627,1.4323182,0.8871852,-0.94237196,0.9875744,0.46841612,-0.2581856,1.9368858,-0.28224373,1.3305676,-3.535297,-0.11707205,1.8552414,0.27363968,-0.46974182,0.9243526,0.75979483,-0.033587117,0.079093784,0.6444593,-0.37072152,0.74354666,0.5634057,1.0,0.0,0.0,0.0,0.0,0.0,0.0,-2.586886,-0.11775628,-0.7805676,-0.16748905,0.32877922,1.2785316,-0.41121244,0.024449825,-0.15931726,1.5857577
7.5294733,43.67017,13.137453,10.751408,0.18375623,-0.342603,0.090793654,-0.75816596,0.7939493,0.5080469,-0.5154467,0.6774711,0.60863036,-0.20570469,1.3386909,-0.6429403,-1.6978093,-1.067515,2.2850602,1.3687459,-1.0465281,1.4010969,-0.7080368,-1.7396457,-1.0253583,2.227155,1.3125368,-1.0284028,-1.3430072,1.4296371,0.8994721,-0.9380069,0.9845278,0.46509936,-0.24001239,1.9015617,-0.28341484,1.3483696,-3.5317624,-0.116955005,1.7552005,0.27001953,-0.4622631,0.9299016,0.75966954,-0.038767338,0.0792278,0.64429975,-0.35132015,0.75262,0.54513025,1.0,0.0,0.0,0.0,0.0,0.0,0.0,-2.5515618,-0.116585165,-0.7983696,-0.7953644,-0.10757446,1.0427356,0.28631687,0.02259016,-0.11044145,1.7939061
6.340127,41.840244,12.514469,11.473389,0.2723087,-0.3726837,0.06780844,-0.7608892,0.79249984,0.51243335,-0.50884575,0.67540413,0.61188805,-0.173803,1.325008,-0.6287868,-1.6884024,-1.0762429,2.2946954,1.3737257,-1.0457832,1.3876024,-0.69377553,-1.7305782,-1.0346605,2.2369664,1.3171622,-1.0306592,-1.3519245,1.4254969,0.9086572,-0.928156,0.981407,0.46252075,-0.22090717,1.8662682,-0.28458214,1.365172,-3.5282314,-0.116838075,1.6552597,0.26657104,-0.45471954,0.93526983,0.7594606,-0.043838,0.07946847,0.64419127,-0.33417973,0.75845444,0.5270153,1.0,0.0,0.0,0.0,0.0,0.0,0.0,-2.5162683,-0.11541787,-0.815172,-0.9593725,-0.2552986,0.7489443,0.8259535,0.004541874,-0.05182624,1.8844843
6.2159553,40.34693,11.88277,11.130257,0.23178744,-0.46653837,0.0525561,-0.76748055,0.7953159,0.50600016,-0.5185799,0.676997,0.6100399,-0.17528217,1.3108544,-0.6142439,-1.6799781,-1.0865184,2.304666,1.3781662,-1.0481874,1.374003,-0.67953813,-1.721482,-1.0439149,2.2467587,1.3217646,-1.0327439,-1.3629538,1.4236399,0.9096141,-0.9252448,0.97954714,0.46016017,-0.20440377,1.8310127,-0.28574944,1.3809757,-3.5247037,-0.116721265,1.5554188,0.26330948,-0.44712257,0.9404363,0.7591878,-0.04877083,0.07983666,0.64411277,-0.31497076,0.7628122,0.506005,1.0,0.0,0.0,0.0,0.0,0.0,0.0,-2.4810128,-0.11425057,-0.8309757,-1.1767864,-0.031352043,-0.04749298,0.13320446,0.10713339,-0.038176775,1.6284972
7.5074735,41.277668,12.557373,10.968943,0.16955537,-0.47621477,0.08045494,-0.7653616,0.79814476,0.51698774,-0.5129981,0.67639357,0.6118357,-0.12962012,1.2974669,-0.59972364,-1.6697832,-1.0952147,2.314398,1.3829482,-1.0457059,1.3603255,-0.6652969,-1.7123497,-1.053137,2.2565358,1.326348,-1.0346475,-1.3696483,1.4248842,0.91389877,-0.92173284,0.97836745,0.4584058,-0.18596016,1.7957916,-0.28691673,1.3957819,-3.52118,-0.116604574,1.4556777,0.26026535,-0.43946075,0.94540715,0.75883627,-0.05357008,0.08034077,0.644083,-0.29344532,0.7702002,0.4869559,1.0,0.0,0.0,0.0,0.0,0.0,0.0,-2.4457917,-0.11308327,-0.84578186,-0.7360697,0.28204918,0.27825832,0.20493269,0.18131733,0.024574995,1.8253773
6.035607,38.996853,11.67112,11.798721,0.27854633,-0.5169701,0.048434068,-0.7737683,0.7944448,0.50881565,-0.49938375,0.6738722,0.6103936,-0.08916674,1.2829486,-0.58585244,-1.661468,-1.1030753,2.3239229,1.3873873,-1.0435641,1.3465677,-0.6510538,-1.7032211,-1.0622731,2.2662976,1.3309141,-1.0363564,-1.378061,1.4246243,0.9122801,-0.9115111,0.9765998,0.4566515,-0.16593234,1.7606049,-0.28808212,1.4095912,-3.5176594,-0.11648799,1.3560363,0.25740433,-0.43175316,0.9501872,0.7584242,-0.05823885,0.080980085,0.6440832,-0.27454016,0.7732404,0.46782935,1.0,0.0,0.0,0.0,0.0,0.0,0.0,-2.410605,-0.11191788,-0.8595912,-0.9214878,0.1291275,-0.29172897,0.8628845,0.11072159,0.006568432,1.9794881
4.115765,35.533127,10.270044,12.392236,0.3938737,-0.5750827,0.015341062,-0.7873089,0.78807163,0.5030176,-0.49625635,0.66625285,0.61941826,-0.057225354,1.2678368,-0.5722466,-1.6529193,-1.1118988,2.332923,1.392856,-1.042079,1.3326823,-0.63684404,-1.6941421,-1.0713025,2.2760212,1.3354708,-1.0378613,-1.3923826,1.4201789,0.9060946,-0.9006323,0.9720115,0.45586842,-0.14531119,1.7254562,-0.2892456,1.4224049,-3.5141425,-0.11637152,1.2564945,0.25471497,-0.4240589,0.9547588,0.75798404,-0.06276247,0.08175688,0.64407825,-0.25839564,0.7705943,0.44635662,1.0,0.0,0.0,0.0,0.0,0.0,0.0,-2.3754563,-0.1107544,-0.8724049,-1.5307188,-0.29621124,-0.7160783,0.91239214,-0.19197464,0.08342862,2.033472
2.7987351,31.76074,8.806622,12.616257,0.52070045,-0.6715971,0.0015956685,-0.7943362,0.7791477,0.49289814,-0.49110317,0.67168486,0.62005305,-0.014845677,1.2532487,-0.55892926,-1.6448523,-1.1204128,2.3431897,1.3974761,-1.0393459,1.3186404,-0.622722,-1.6851718,-1.0802213,2.2857182,1.3400198,-1.0391488,-1.4083556,1.4100143,0.8939545,-0.8896763,0.9697964,0.45524386,-0.12324578,1.690342,-0.2904091,1.4342239,-3.5106292,-0.11625517,1.1570523,0.25217056,-0.41643715,0.95909417,0.7575403,-0.06710641,0.08265466,0.6440479,-0.2437672,0.7612896,0.4220283,1.0,0.0,0.0,0.0,0.0,0.0,0.0,-2.340342,-0.10959092,-0.8842239,-1.7023087,-0.875473,-1.2881517,0.906229,0.022089481,0.084245205,2.1715627
3.262889,32.26394,9.319772,13.332633,0.54903424,-0.6443845,0.022708744,-0.7910724,0.77951515,0.49215564,-0.4671349,0.66244185,0.63026106,0.09428907,1.2395331,-0.54477054,-1.6359563,-1.1269348,2.3519623,1.4030459,-1.02972,1.3044878,-0.6086906,-1.6763122,-1.0889474,2.2953732,1.3445727,-1.040154,-1.4177663,1.4012854,0.88296115,-0.8674494,0.9650962,0.4557383,-0.093161605,1.655262,-0.29157066,1.4450493,-3.5071192,-0.11613894,1.0577095,0.24977875,-0.40889168,0.9632183,0.757077,-0.07130328,0.08366149,0.64401156,-0.22979753,0.75344634,0.40209132,1.0,0.0,0.0,0.0,0.0,0.0,0.0,-2.305262,-0.10842934,-0.8950493,-1.0411739,-0.7279396,-1.1862159,2.0362377,-0.21249056,0.19198656,2.9701128
0.5607023,31.138748,8.994204,16.307854,0.839656,-0.5218194,-0.04265651,-0.8012955,0.7744254,0.48192975,-0.41527298,0.66162264,0.6415745,0.17412937,1.2243583,-0.5312481,-1.6281192,-1.1304747,2.3615355,1.4087301,-1.0227411,1.2902342,-0.59474695,-1.6675823,-1.0972368,2.3049862,1.349137,-1.0408235,-1.4284084,1.3924818,0.8694717,-0.8169118,0.960997,0.4571857,-0.058219504,1.6202164,-0.29273033,1.454882,-3.5036128,-0.11602283,0.958466,0.24744797,-0.40145874,0.9672055,0.7566303,-0.075435475,0.084740214,0.6439248,-0.22589104,0.7416978,0.3904918,1.0,0.0,0.0,0.0,0.0,0.0,0.0,-2.2702165,-0.107269675,-0.904882,-1.1960268,-0.73177814,-1.4270782,4.844284,-0.13484955,0.25832653,3.448444
0.31353378,30.2796,8.756619,16.79661,0.86480784,-0.53721035,-0.056031182,-0.80566424,0.77064306,0.46978608,-0.3977449,0.6518603,0.6440258,0.22224016,1.2096678,-0.5176827,-1.6206037,-1.1370113,2.3701723,1.4135395,-1.0185994,1.2758814,-0.5808853,-1.6590145,-1.1049901,2.3145382,1.3537184,-1.0411363,-1.4379543,1.3844588,0.8523679,-0.7621631,0.9541367,0.4587324,-0.02243201,1.5852051,-0.29389,1.4637231,-3.50011,-0.11590683,0.8593218,0.24515152,-0.39414215,0.97108626,0.7562198,-0.079537876,0.08588859,0.64376104,-0.22247823,0.72948545,0.38025725,1.0,0.0,0.0,0.0,0.0,0.0,0.0,-2.2352052,-0.10611001,-0.91372305,-1.0909796,-0.65624714,-1.7784476,5.2654624,-0.41451454,0.25892258,3.5314507
-1.1794591,29.42767,8.38676,18.51186,0.9807108,-0.48951933,-0.12158951,-0.81276554,0.77025986,0.44981053,-0.34831205,0.63851935,0.65354526,0.2617567,1.1946049,-0.5038593,-1.6140335,-1.1398213,2.37839,1.4190729,-1.0149606,1.2614275,-0.5670837,-1.6506774,-1.1120797,2.323991,1.3583189,-1.0410962,-1.4486264,1.3792591,0.82748634,-0.6919071,0.9431552,0.4608607,0.012582805,1.5502319,-0.29504967,1.4715734,-3.4966104,-0.11579094,0.7602766,0.24285507,-0.38695526,0.97489685,0.7558892,-0.083652206,0.08712213,0.6434621,-0.22373413,0.7157218,0.37456003,1.0,0.0,0.0,0.0,0.0,0.0,0.0,-2.200232,-0.10495034,-0.92157334,-1.2262106,-0.37460327,-2.5398016,6.8062544,-0.823164,0.2960205,3.4514654
2.0474572,28.37775,8.211905,15.136398,0.71224964,-0.71421725,-0.01660652,-0.8095734,0.76172704,0.44278142,-0.37282205,0.6452056,0.6558016,0.28996253,1.1804702,-0.490911,-1.6063993,-1.149362,2.3885117,1.423899,-1.0121,1.2469088,-0.5533527,-1.6425788,-1.1187211,2.3333638,1.3629423,-1.0407224,-1.4533741,1.3714881,0.80390364,-0.6554199,0.9362166,0.46322322,0.045476638,1.5152931,-0.29620552,1.478434,-3.4931145,-0.11567517,0.66133046,0.24062729,-0.37989616,0.9785758,0.75559026,-0.08770588,0.08845785,0.6430912,-0.21263641,0.70390445,0.3590488,1.0,0.0,0.0,0.0,0.0,0.0,0.0,-2.1652932,-0.103794485,-0.92843395,-0.5879879,-0.64246655,-2.4085999,3.4605622,-0.45377016,0.34444928,3.2434657
3.6296575,27.987547,8.0943165,13.258604,0.510919,-0.84550333,0.029874,-0.8169854,0.7614598,0.4301865,-0.37291944,0.63216674,0.6560653,0.32000932,1.1652102,-0.47720674,-1.5995601,-1.156013,2.3965805,1.4285488,-1.0087215,1.2323347,-0.53968465,-1.6347129,-1.1251699,2.3426487,1.3675886,-1.0400338,-1.4590713,1.3655863,0.7806798,-0.64202654,0.9265996,0.46543804,0.07649089,1.4803886,-0.29736137,1.4843059,-3.489622,-0.115559526,0.56248325,0.2385788,-0.37293434,0.98205525,0.7552768,-0.09161744,0.08993848,0.6427084,-0.19396299,0.6940982,0.3376451,1.0,0.0,0.0,0.0,0.0,0.0,0.0,-2.1303887,-0.10263863,-0.93430585,-0.668478,-0.4620552,-2.357757,1.1710882,-0.746119,0.33872724,3.061311
8.425272,27.969767,8.170515,7.5549345,0.018184304,-1.1895095,0.19494578,-0.8172684,0.7589639,0.42498454,-0.44761702,0.6437836,0.65067464,0.33186322,1.150608,-0.46378827,-1.5922145,-1.1699315,2.407027,1.432656,-1.0068475,1.2177225,-0.52607,-1.6270416,-1.1319505,2.3518841,1.3722521,-1.0390611,-1.4620237,1.3604733,0.76260346,-0.690484,0.9233203,0.46719497,0.10414671,1.4455185,-0.29851723,1.48919,-3.486133,-0.11544399,0.4637349,0.23686981,-0.36603928,0.9851909,0.7548486,-0.09520496,0.09162306,0.64245224,-0.15481125,0.688225,0.29916286,1.0,0.0,0.0,0.0,0.0,0.0,0.0,-2.0955186,-0.10148278,-0.93919,-0.3289938,-0.39515495,-1.8378973,-4.9616218,-0.16818047,0.33258796,2.7392774
9.703935,26.830847,7.65999,5.455013,-0.15088704,-1.365445,0.2300617,-0.81839854,0.755463,0.41036087,-0.4752897,0.636248,0.64632577,0.3214325,1.1358827,-0.4505237,-1.5860054,-1.1794795,2.415509,1.4368846,-1.0069178,1.2030932,-0.51250684,-1.6195571,-1.1393968,2.3610852,1.3769289,-1.0378537,-1.46342,1.355338,0.743493,-0.7627627,0.919212,0.4682589,0.1263926,1.4106827,-0.29966927,1.4930874,-3.4826477,-0.115328565,0.36508533,0.23561096,-0.35920715,0.98788536,0.7542611,-0.098343045,0.093548425,0.6423919,-0.10784569,0.6813298,0.2532163,1.0,0.0,0.0,0.0,0.0,0.0,0.0,-2.0606828,-0.10033074,-0.9430874,-0.1409769,-0.40094852,-1.945293,-7.322252,-0.27871132,0.26825666,2.2051916
8.590178,25.58585,7.069785,6.557089,-0.029917836,-1.3749465,0.18729948,-0.8134304,0.7560845,0.38373485,-0.47427636,0.634555,0.65725094,0.37088382,1.1217501,-0.43689838,-1.5811837,-1.1868244,2.4245408,1.442654,-1.0007653,1.1884829,-0.49897802,-1.6123378,-1.1474725,2.370248,1.381621,-1.0364156,-1.460363,1.3524973,0.7144684,-0.8228502,0.91582406,0.46997717,0.14956793,1.375885,-0.3008213,1.4959991,-3.4791658,-0.11521326,0.2665344,0.23479843,-0.3524685,0.99014056,0.7535414,-0.101024486,0.095720485,0.6425006,-0.06395585,0.67088616,0.2098603,1.0,0.0,0.0,0.0,0.0,0.0,0.0,-2.025885,-0.0991787,-0.9459991,0.30536652,-0.1676321,-2.9449224,-6.10919,-0.20624399,0.31231046,2.2978811
6.352539,22.282269,5.6061325,7.799328,0.18092012,-1.3900543,0.12087898,-0.8175556,0.74792093,0.36280698,-0.49756035,0.63266385,0.6565357,0.3653463,1.1067274,-0.42418593,-1.5760571,-1.1972286,2.4335144,1.4472746,-0.99988097,1.173886,-0.48550212,-1.605458,-1.1560842,2.3793766,1.3863264,-1.0347733,-1.4593858,1.3463362,0.679004,-0.8743436,0.9125541,0.47117132,0.16883844,1.3411179,-0.30197334,1.497926,-3.4756873,-0.115098074,0.16808197,0.23438644,-0.3458805,0.99196887,0.7527482,-0.103253275,0.09811605,0.6427147,-0.025594939,0.6534768,0.16744442,1.0,0.0,0.0,0.0,0.0,0.0,0.0,-1.9911178,-0.09802666,-0.947926,0.086808205,-0.50156116,-3.5793066,-5.2651644,-0.2035737,0.23182034,1.903677
4.7142773,19.431164,4.5931582,8.995683,0.38528368,-1.3746759,0.09529247,-0.8140444,0.7364443,0.34838298,-0.5167371,0.6262984,0.6574379,0.40717965,1.0924815,-0.4118577,-1.5706197,-1.207758,2.4420066,1.4520702,-0.9940554,1.1593119,-0.47213256,-1.5989311,-1.1651365,2.3884633,1.3910414,-1.0329347,-1.4568828,1.3341893,0.6437544,-0.9159132,0.90782684,0.47204572,0.18897083,1.3063889,-0.30312347,1.4988692,-3.4722123,-0.114983,0.06972797,0.23431396,-0.33950424,0.9933885,0.7519146,-0.105045244,0.10069,0.64300185,0.0074376594,0.63092893,0.12712225,1.0,0.0,0.0,0.0,0.0,0.0,0.0,-1.9563888,-0.09687653,-0.94886917,0.2389431,-1.1013985,-3.5628796,-4.2850256,-0.3477931,0.1786828,1.9828409
3.1077576,18.305794,4.140243,10.876065,0.55081373,-1.3034871,0.027050635,-0.8121622,0.73640406,0.32129186,-0.5202202,0.6172806,0.6627568,0.4071489,1.0780957,-0.39849216,-1.5668019,-1.2171584,2.4501913,1.4573171,-0.9922198,1.1447664,-0.45887077,-1.5927951,-1.1744806,2.3974812,1.3957678,-1.0309148,-1.4539007,1.3238862,0.60355955,-0.9410444,0.90054035,0.47302565,0.20618884,1.2716904,-0.3042717,1.4988295,-3.468741,-0.11486804,-0.028527692,0.23454285,-0.33336067,0.9944429,0.7510885,-0.10644908,0.10342406,0.6433024,0.034493126,0.6063576,0.09202004,1.0,0.0,0.0,0.0,0.0,0.0,0.0,-1.9216903,-0.09572831,-0.9488295,0.26357174,-0.91519356,-4.04706,-2.6557446,-0.5953908,0.16382337,1.6875982
0.37212563,13.293268,1.420959,11.16939,0.711049,-1.4223723,-0.06535521,-0.8199974,0.72735286,0.26618657,-0.5508759,0.60554177,0.6614411,0.38968045,1.0627667,-0.3861355,-1.5661765,-1.2295681,2.4580355,1.4619119,-0.99194676,1.1302077,-0.44572723,-1.5872238,-1.184105,2.4064,1.4004999,-1.0287557,-1.4566703,1.3115187,0.54162776,-0.9700468,0.88929987,0.47341624,0.21882625,1.23703,-0.30541992,1.4978079,-3.465273,-0.114753194,-0.12668511,0.23500824,-0.32754326,0.9951121,0.7503574,-0.10742505,0.10633895,0.6435181,0.058409423,0.57114667,0.0524657,1.0,0.0,0.0,0.0,0.0,0.0,0.0,-1.88703,-0.094580084,-0.94780785,-0.3172636,-1.1343718,-6.185508,-3.0562162,-1.034677,0.07119179,1.2219399
0.3096285,12.683964,1.0693011,10.971462,0.6920774,-1.4637964,-0.07514573,-0.8153814,0.7260335,0.2355265,-0.5760452,0.59632605,0.6648289,0.39526907,1.0486696,-0.37312388,-1.5636711,-1.2417096,2.4660325,1.4669828,-0.9892288,1.1156355,-0.43268573,-1.5823143,-1.1940595,2.4151928,1.4052359,-1.0264859,-1.457408,1.3020761,0.47420603,-1.0044739,0.87617254,0.47385693,0.22949411,1.202404,-0.30656815,1.4958055,-3.4618082,-0.11463847,-0.2247444,0.23573303,-0.3220787,0.99537545,0.7497573,-0.10793777,0.109458975,0.6436087,0.083453074,0.535058,0.011699075,1.0,0.0,0.0,0.0,0.0,0.0,0.0,-1.852404,-0.09343186,-0.9458055,-0.09968281,-0.8438349,-6.736088,-3.5895228,-1.2363553,0.061798096,1.0254413
-3.5752578,6.2333326,-2.7749832,11.677031,0.9802642,-1.6299672,-0.21472186,-0.8206939,0.7210879,0.13605677,-0.5884122,0.59893864,0.6608486,0.3912823,1.0335661,-0.36057693,-1.5687085,-1.2529007,2.4750867,1.4713207,-0.9873577,1.1010348,-0.4197315,-1.5783947,-1.2043439,2.423879,1.4099718,-1.0241284,-1.4609472,1.2935057,0.36476,-1.0370176,0.866244,0.47334045,0.23768552,1.1678123,-0.30771255,1.4928234,-3.458347,-0.11452385,-0.32270566,0.23666763,-0.31709862,0.9951969,0.74939996,-0.10791052,0.11280681,0.64345133,0.10269028,0.48257273,-0.033441756,1.0,0.0,0.0,0.0,0.0,0.0,0.0,-1.8178123,-0.09228745,-0.94282335,-0.37503242,-0.7739544,-10.900396,-3.4213543,-0.97966194,-0.083476305,0.76446533
-4.446565,4.6574187,-3.5659537,12.1371155,1.0585737,-1.6367319,-0.24373874,-0.81703913,0.7158999,0.08738831,-0.6056535,0.57903147,0.66255444,0.39553097,1.0193309,-0.3481415,-1.5696558,-1.2649093,2.481782,1.4762273,-0.98457533,1.0864207,-0.4068607,-1.5756233,-1.2149488,2.4324315,1.414702,-1.0216985,-1.461543,1.2852169,0.24798836,-1.0687608,0.85176885,0.47271052,0.24470496,1.133255,-0.30885696,1.4888623,-3.4548895,-0.11440935,-0.42056894,0.23778152,-0.3126583,0.9945675,0.74934214,-0.10731644,0.116393015,0.64297915,0.11962145,0.42728546,-0.078225106,1.0,0.0,0.0,0.0,0.0,0.0,0.0,-1.783255,-0.09114304,-0.93886226,-0.062012672,-0.7500887,-11.640826,-3.338647,-1.4462233,-0.11988282,0.6403208
-7.686061,-0.8351288,-6.5876975,12.97266,1.3641005,-1.7129033,-0.34502274,-0.82160074,0.70581114,-0.008099981,-0.62182313,0.58233386,0.66136813,0.36424577,1.0042605,-0.3362796,-1.5764333,-1.2771311,2.490665,1.4808389,-0.9852739,1.0717875,-0.3940977,-1.5742061,-1.2258588,2.4408734,1.4194227,-1.0192304,-1.463756,1.2735087,0.10629592,-1.0991498,0.841166,0.47150108,0.24724394,1.098732,-0.31000137,1.4839232,-3.4514353,-0.11429497,-0.51833445,0.23901367,-0.3088646,0.99347377,0.74966705,-0.10611248,0.12019267,0.6421006,0.12912555,0.3590625,-0.12505437,1.0,0.0,0.0,0.0,0.0,0.0,0.0,-1.748732,-0.08999863,-0.9339232,-0.20093918,-1.1084557,-14.122216,-3.2122135,-1.104176,-0.22596121,0.17739534
-9.421519,-3.6242862,-8.283932,13.408067,1.4880244,-1.7509761,-0.40412363,-0.81855035,0.70293075,-0.10305881,-0.6409627,0.55941314,0.6634601,0.36738437,0.9899324,-0.32380462,-1.584512,-1.2899551,2.4968147,1.4857688,-0.9824919,1.0571524,-0.38144386,-1.5743511,-1.2370797,2.4491627,1.424132,-1.0167413,-1.463208,1.2628096,-0.054672875,-1.1302397,0.82482743,0.4702047,0.24899372,1.0642433,-0.31114197,1.4780073,-3.4479845,-0.11418069,-0.61600226,0.24031448,-0.30579376,0.9918988,0.750442,-0.1042621,0.124220215,0.6407303,0.13481148,0.2847172,-0.1731114,1.0,0.0,0.0,0.0,0.0,0.0,0.0,-1.7142433,-0.08885804,-0.9280073,0.113368034,-1.0181427,-16.062107,-3.2776833,-1.7094493,-0.2745092,0.08582473
-8.310987,-1.1505907,-6.306431,14.685924,1.4475049,-1.5226411,-0.34838462,-0.8137529,0.69394946,-0.13278635,-0.64672387,0.51466703,0.6703257,0.38070458,0.9757771,-0.3120489,-1.5876297,-1.3017521,2.5006294,1.4911646,-0.97867084,1.0425497,-0.36891115,-1.5758903,-1.2485582,2.4571812,1.4288336,-1.0142312,-1.4591167,1.2503066,-0.18696775,-1.1541724,0.79413366,0.46967575,0.2515217,1.029789,-0.31228256,1.4711155,-3.4445372,-0.114066534,-0.7135724,0.24166489,-0.3033905,0.9898926,0.75162405,-0.10184766,0.12846944,0.63889277,0.13759644,0.22069809,-0.2142253,1.0,0.0,0.0,0.0,0.0,0.0,0.0,-1.679789,-0.08771744,-0.92111546,0.45485497,-1.1942387,-13.209948,-2.554369,-3.1017542,-0.20542145,0.15713573
-9.763413,-2.0879457,-6.581171,16.657516,1.6625965,-1.361096,-0.39033422,-0.8222079,0.6877802,-0.21010761,-0.6475183,0.50982034,0.6699746,0.35181984,0.96032894,-0.3001331,-1.596901,-1.31331,2.5081632,1.495831,-0.9790492,1.0279471,-0.35650384,-1.5787017,-1.2601968,2.4649136,1.4335295,-1.0117192,-1.4606375,1.2376602,-0.31250253,-1.1678238,0.7658002,0.4689013,0.25079697,0.99536896,-0.31342316,1.4632486,-3.4410934,-0.113952495,-0.811045,0.24298477,-0.3016243,0.9875176,0.75320953,-0.09894691,0.13289464,0.63657194,0.13171251,0.15678921,-0.24940278,1.0,0.0,0.0,0.0,0.0,0.0,0.0,-1.6453689,-0.08657685,-0.9132486,-0.14629364,-1.2191057,-12.493354,-1.5365839,-2.864468,-0.26904345,-0.17908812
-9.072656,-0.8613329,-5.795289,16.679974,1.6371851,-1.2837136,-0.36165506,-0.8197255,0.6857937,-0.27226806,-0.6739781,0.5010265,0.66859144,0.3201911,0.9459745,-0.28792447,-1.6059285,-1.3275946,2.5150163,1.5003886,-0.9797001,1.013333,-0.34420097,-1.5826938,-1.27203,2.4723904,1.4382178,-1.0092397,-1.4617125,1.2279918,-0.42806506,-1.188872,0.74157363,0.4679329,0.24669175,0.9609833,-0.31456184,1.4544078,-3.437653,-0.11383856,-0.9084201,0.24425125,-0.30046272,0.9847932,0.7551784,-0.09557783,0.13746266,0.6337779,0.12526485,0.09704215,-0.2837603,1.0,0.0,0.0,0.0,0.0,0.0,0.0,-1.6109833,-0.08543816,-0.9044078,-0.099253654,-0.9227991,-11.494398,-2.2634268,-2.4510145,-0.3065288,-0.51406324
-12.140437,-5.747453,-8.69339,17.298075,1.9016755,-1.3235126,-0.46388572,-0.82477397,0.67341316,-0.37899354,-0.6850406,0.48005652,0.6593537,0.2485113,0.9308556,-0.27685964,-1.6205932,-1.3405341,2.520396,1.5041531,-0.98438853,0.99868643,-0.33202064,-1.5880077,-1.2840825,2.4796193,1.442887,-1.0068555,-1.465541,1.2147547,-0.56580704,-1.2111948,0.716487,0.46559224,0.23523638,0.9266319,-0.31569862,1.444594,-3.434216,-0.113724746,-1.0056977,0.24539948,-0.29997826,0.9817064,0.75759333,-0.09170213,0.14215295,0.6304248,0.110591635,0.02667332,-0.32033983,1.0,0.0,0.0,0.0,0.0,0.0,0.0,-1.5766319,-0.08430138,-0.894594,-0.33488274,-1.3012886,-13.713098,-2.3877144,-2.5863647,-0.49843192,-1.2688726
-14.012985,-9.564665,-10.697172,17.200247,2.0707717,-1.3419242,-0.5037861,-0.8233624,0.6555278,-0.45968515,-0.70904106,0.45342717,0.65234715,0.17324825,0.9163502,-0.26646787,-1.6339762,-1.3549867,2.524962,1.5081216,-0.9895307,0.98401415,-0.3200301,-1.5947711,-1.2964193,2.4865696,1.4475256,-1.0046391,-1.4673991,1.1938177,-0.7130477,-1.2415091,0.6875729,0.4622852,0.21661703,0.8923149,-0.3168354,1.4338081,-3.4307826,-0.11361105,-1.1028783,0.24636078,-0.300251,0.9782259,0.76050436,-0.08726765,0.146939,0.62643945,0.08986194,-0.050484095,-0.3602072,1.0,0.0,0.0,0.0,0.0,0.0,0.0,-1.5423149,-0.0831646,-0.8838081,-0.06957054,-2.0884752,-14.702427,-3.1669378,-3.0035377,-0.6343901,-2.000004
-13.454895,-8.67166,-9.585813,18.154129,2.05807,-1.1423467,-0.46615925,-0.82019424,0.6388891,-0.4970158,-0.7155441,0.396944,0.64380765,0.12392626,0.9019947,-0.2561412,-1.6444727,-1.3679737,2.526264,1.5119064,-0.9922465,0.9693457,-0.30829513,-1.6028335,-1.3090307,2.4931157,1.4521261,-1.0026364,-1.4663495,1.1666889,-0.83726037,-1.2681222,0.6432267,0.45829865,0.19433583,0.8580322,-0.31797218,1.4220511,-3.4273524,-0.11349746,-1.1999617,0.24709702,-0.301239,0.9743755,0.76387143,-0.08232382,0.15180676,0.62183434,0.06549996,-0.1198746,-0.39587048,1.0,0.0,0.0,0.0,0.0,0.0,0.0,-1.5080322,-0.08202782,-0.87205106,0.19996166,-2.715373,-12.390494,-2.788043,-4.5259953,-0.7138908,-2.3788393
-12.527822,-6.4728026,-7.9211464,19.34403,2.0829341,-0.91310745,-0.43274194,-0.825792,0.627923,-0.535674,-0.7261122,0.38633296,0.63563496,0.034723762,0.8867665,-0.24550283,-1.6564009,-1.3816419,2.531749,1.5156896,-0.99916404,0.9546648,-0.29683387,-1.6119354,-1.3218824,2.499246,1.4566828,-1.0009046,-1.4686266,1.1392659,-0.9342537,-1.2913952,0.6026448,0.4537517,0.16553664,0.8237839,-0.31910515,1.4093239,-3.4239259,-0.113383986,-1.296948,0.24757767,-0.302845,0.97020984,0.7676381,-0.07695076,0.15670396,0.6166475,0.037356,-0.18016775,-0.42564082,1.0,0.0,0.0,0.0,0.0,0.0,0.0,-1.4737839,-0.08089486,-0.8593239,-0.20611286,-2.7527094,-9.6043825,-2.4542332,-4.1296124,-0.78903437,-3.0311794
-11.318388,-3.8595939,-6.177936,20.374357,1.9903414,-0.69846827,-0.42408794,-0.8255505,0.6157013,-0.57446206,-0.7333266,0.3307203,0.6357022,-0.09450626,0.8721098,-0.23526374,-1.6693816,-1.395215,2.5323179,1.5202531,-1.0103552,0.93995726,-0.28563678,-1.621846,-1.3349286,2.5048916,1.4611994,-0.9995363,-1.4716463,1.1130935,-1.0093701,-1.309598,0.5513686,0.4496754,0.12677974,0.78956985,-0.3202381,1.3956277,-3.4205027,-0.113270625,-1.3938373,0.24777222,-0.30498695,0.96578085,0.77176166,-0.071240194,0.16162471,0.61088973,0.008363377,-0.22971602,-0.45044422,1.0,0.0,0.0,0.0,0.0,0.0,0.0,-1.4395698,-0.07976189,-0.8456277,-0.35676956,-2.6329994,-7.351041,-1.9506693,-5.1769733,-0.75083375,-4.035008
-9.333794,-0.13976908,-3.7370746,21.39806,1.8469279,-0.4703071,-0.36902925,-0.82464385,0.6049263,-0.5921212,-0.7363879,0.27803415,0.62849355,-0.14669067,0.85749286,-0.22514415,-1.681058,-1.4085674,2.532695,1.5240488,-1.0142053,0.9252211,-0.2746805,-1.6323116,-1.3481103,2.5099537,1.465674,-0.99856544,-1.4747041,1.0897593,-1.0582793,-1.3213903,0.49096406,0.44555035,0.08663004,0.75539017,-0.32137108,1.3809633,-3.4170828,-0.11315738,-1.4906297,0.24769211,-0.30752373,0.961145,0.7761701,-0.06528916,0.16659124,0.6046029,-0.019180236,-0.26616973,-0.46940404,1.0,0.0,0.0,0.0,0.0,0.0,0.0,-1.4053901,-0.07862893,-0.8309633,-0.46482086,-2.3496628,-4.644227,-1.318407,-6.0603976,-0.7514715,-4.176405
-9.140441,-1.2100391,-3.7193391,21.273926,1.8481002,-0.3878729,-0.30795634,-0.8204395,0.5721395,-0.6158203,-0.75251305,0.21572787,0.63341904,-0.18276416,0.84317714,-0.21746655,-1.6938937,-1.4233617,2.5315266,1.5290159,-1.0168419,0.91048205,-0.26404226,-1.6431663,-1.3614331,2.5143292,1.4701144,-0.9979856,-1.4741735,1.0551193,-1.0937886,-1.3362682,0.4192452,0.44257224,0.047963783,0.7212448,-0.32250023,1.3653318,-3.4136665,-0.11304425,-1.5873253,0.24733734,-0.31041336,0.95631206,0.7807904,-0.0591353,0.17159794,0.5978491,-0.04795036,-0.30023587,-0.48915973,1.0,0.0,0.0,0.0,0.0,0.0,0.0,-1.3712448,-0.07749978,-0.81533176,-0.1036644,-3.4861088,-3.31347,-1.608634,-7.1885405,-0.6286323,-4.032834
-5.402427,7.256753,0.58710575,22.603945,1.3224041,-0.10954197,-0.2698385,-0.828374,0.59564745,-0.61460614,-0.74115366,0.08391414,0.63939553,-0.17850907,0.82764465,-0.20447752,-1.7046269,-1.4355485,2.5227206,1.5340539,-1.0158365,0.8957087,-0.25357664,-1.6542175,-1.374817,2.5177128,1.4745356,-0.99774814,-1.4795827,1.0436934,-1.1072772,-1.3396531,0.31141484,0.44093183,0.015148315,0.6871338,-0.32362938,1.3487339,-3.4102535,-0.11293122,-1.6839243,0.24678421,-0.31347084,0.9513324,0.78553367,-0.05288774,0.17684178,0.59064925,-0.06589913,-0.31101772,-0.5018952,1.0,0.0,0.0,0.0,0.0,0.0,0.0,-1.3371338,-0.07637063,-0.7987339,-0.8961439,-1.1553049,-0.92754364,-0.4940033,-10.773438,-0.48081875,-3.4657829
-3.7847433,8.650251,1.7928724,21.966412,0.8433462,-0.033590525,-0.19111654,-0.823695,0.56848943,-0.6124292,-0.75277394,-0.14228053,0.64320886,-0.13705908,0.8133392,-0.1967277,-1.7154604,-1.4500945,2.5034847,1.5388565,-1.011454,0.8809029,-0.24326861,-1.6652896,-1.3882505,2.5194867,1.4789492,-0.9977672,-1.482204,1.026503,-1.1057346,-1.3452097,0.13243565,0.4406536,-0.00837844,0.6530571,-0.32475853,1.3311708,-3.406844,-0.112818316,-1.7804267,0.24612045,-0.31655884,0.9461936,0.7902799,-0.04660724,0.18262118,0.5830393,-0.07367928,-0.31119868,-0.5188331,1.0,0.0,0.0,0.0,0.0,0.0,0.0,-1.3030571,-0.07524148,-0.7811708,-0.64122677,-1.7239571,0.580883,-0.69594383,-17.880192,-0.29531717,-2.5732558
-1.8492455,10.568844,3.569163,21.985249,0.32062602,0.11142813,-0.08349486,-0.8259861,0.54577076,-0.58215344,-0.74699306,-0.42369062,0.65548563,-0.033209022,0.79830426,-0.18869153,-1.723505,-1.4629498,2.4771175,1.5444977,-1.0010881,0.86606467,-0.23319328,-1.6761501,-1.4016973,2.5188344,1.4833742,-0.99791026,-1.4857774,1.0012367,-1.0779493,-1.3448944,-0.13119106,0.4424835,-0.01711488,0.61901474,-0.32588577,1.3126434,-3.4034379,-0.11270552,-1.8768327,0.24547195,-0.31954575,0.9408713,0.7948699,-0.04035937,0.1892884,0.57508504,-0.07031424,-0.29764813,-0.53765005,1.0,0.0,0.0,0.0,0.0,0.0,0.0,-1.2690147,-0.07411423,-0.7626434,-0.8088589,-2.5233507,3.2497406,-0.096297264,-26.334059,-0.023823977,-1.1349725
-4.3358245,0.9550905,0.47238183,20.966755,0.7319336,0.06426291,0.11826453,-0.8264903,0.4522017,-0.5301982,-0.7607713,-0.5587847,0.6606919,0.10075058,0.7834156,-0.18797311,-1.7291698,-1.4777744,2.462956,1.5494435,-0.9878352,0.85120356,-0.22376835,-1.6864917,-1.415188,2.5154774,1.4878241,-0.9980123,-1.4872601,0.92288375,-1.0185364,-1.350786,-0.40374184,0.44531435,-0.00875171,0.5850067,-0.3270111,1.2931527,-3.4000351,-0.11259284,-1.9731424,0.24477386,-0.32249832,0.9353187,0.79914236,-0.034115743,0.19677459,0.56699854,-0.07673951,-0.2970258,-0.56224304,1.0,0.0,0.0,0.0,0.0,0.0,0.0,-1.2350067,-0.0729889,-0.7431527,-0.47297478,-7.844281,6.2547684,-0.64971447,-27.228046,0.11318326,0.58596766
-10.346466,-14.557035,-6.0341682,20.296663,1.7374982,-0.09164542,0.2802739,-0.82179445,0.3335501,-0.50355273,-0.7662766,-0.63216466,0.6645888,0.26346207,0.76902413,-0.19041334,-1.736847,-1.4918156,2.452261,1.5542829,-0.9716661,0.83637106,-0.21562374,-1.696183,-1.4287568,2.509683,1.4923044,-0.99789405,-1.4822016,0.7781872,-0.95254326,-1.3589118,-0.6378123,0.4482705,0.017877622,0.551033,-0.32813644,1.2726996,-3.3966358,-0.11248027,-2.0693555,0.243824,-0.32565308,0.92949003,0.8030144,-0.027770406,0.2046535,0.5590292,-0.10878201,-0.32431412,-0.5909385,1.0,0.0,0.0,0.0,0.0,0.0,0.0,-1.201033,-0.07186356,-0.7226996,0.42774677,-14.512086,6.6475987,-0.79898834,-23.394394,0.1147151,2.4404814
-28.986614,-55.59567,-25.360931,19.034256,4.2706094,-0.59768784,0.35579005,-0.8157771,0.046491895,-0.50544477,-0.77423716,-0.64940226,0.674387,0.3617923,0.75479335,-0.21097454,-1.7467275,-1.5061805,2.4447427,1.5597432,-0.9617148,0.82165587,-0.21010625,-1.7053936,-1.4424249,2.502065,1.4968134,-0.9974401,-1.466048,0.47580937,-0.91256154,-1.3687638,-0.8032118,0.45102984,0.053841818,0.51708984,-0.32926178,1.2512852,-3.3932397,-0.11236781,-2.1654723,0.2420044,-0.3296547,0.9232959,0.8065846,-0.02109752,0.21199365,0.5513934,-0.21345738,-0.42699394,-0.6300287,1.0,0.0,0.0,0.0,0.0,0.0,0.0,-1.1670898,-0.070738226,-0.7012852,2.189827,-30.384285,3.3812046,-0.8001566,-16.5457,0.011193752,3.3849678
-48.418526,-93.54625,-45.002205,17.989925,6.7164226,-1.1117939,0.27491945,-0.8130083,-0.23388998,-0.5629181,-0.7845286,-0.6212602,0.6788379,0.36594364,0.740355,-0.23349525,-1.7616854,-1.5208777,2.439939,1.5646973,-0.9608457,0.80713904,-0.20859659,-1.7146766,-1.4562055,2.4933865,1.5013415,-0.99664474,-1.4428173,0.041777123,-0.9374698,-1.3799441,-0.889693,0.45189998,0.08749353,0.4831848,-0.3303833,1.2289102,-3.3898473,-0.11225547,-2.261493,0.23856735,-0.33522415,0.9166361,0.8101157,-0.013826201,0.21778104,0.54414415,-0.3943379,-0.60036856,-0.6789983,1.0,0.0,0.0,0.0,0.0,0.0,0.0,-1.1331848,-0.069616705,-0.6789102,3.5309792,-43.673565,-3.7247896,-0.69668293,-8.710289,-0.37040114,3.1923578
-60.148846,-117.53872,-56.924774,15.963159,8.276778,-1.3955417,0.3258411,-0.78878623,-0.5341265,-0.5904308,-0.8075862,-0.5669163,0.6479228,0.4281947,0.7282604,-0.26200923,-1.7737197,-1.536964,2.4366949,1.5661337,-0.95382524,0.79296076,-0.21214974,-1.7244861,-1.4701654,2.4843838,1.5058409,-0.9954946,-1.4040658,-0.48888284,-1.0011543,-1.3987446,-0.90392536,0.44719356,0.12413203,0.4493103,-0.33150482,1.2055758,-3.3864582,-0.11214323,-2.3574176,0.23293686,-0.34284782,0.9094031,0.81380403,-0.005732042,0.22115774,0.5373818,-0.62751514,-0.8132863,-0.7388706,1.0,0.0,0.0,0.0,0.0,0.0,0.0,-1.0993103,-0.068495184,-0.6555758,5.5299997,-53.43076,-8.073723,-1.1276484,-1.5325546,-1.1397243,3.6379905
-40.436398,-85.41551,-36.201355,16.615126,7.0062976,-0.373877,0.7618458,-0.7700031,-0.6707984,-0.3676656,-0.8055124,-0.40021637,0.64447004,0.42929542,0.71596044,-0.27922958,-1.7612526,-1.5507166,2.4443622,1.570288,-0.9525651,0.77918684,-0.22059429,-1.7338588,-1.4842702,2.4759686,1.5102984,-0.9939964,-1.3641236,-0.9639547,-0.9209372,-1.4117831,-0.8212942,0.44363984,0.15940647,0.41547394,-0.33262634,1.1812829,-3.3830724,-0.11203112,-2.4532464,0.2253151,-0.35204697,0.9017207,0.8174494,0.0029102555,0.22172388,0.5316074,-0.81488544,-0.9483286,-0.77984124,1.0,0.0,0.0,0.0,0.0,0.0,0.0,-1.0654739,-0.06737366,-0.63128287,5.286765,-47.80034,6.535232,-0.4998684,8.213711,-0.85207224,3.8327603
-24.671017,-50.891094,-18.938759,18.57286,5.879409,0.37034976,0.75858873,-0.7645407,-0.75366986,-0.34477058,-0.7965729,-0.10989489,0.6036767,0.33333716,0.7027328,-0.29596126,-1.7683359,-1.5639275,2.4649792,1.5706661,-0.96066266,0.765741,-0.23284543,-1.7421768,-1.4984227,2.4693158,1.5147043,-0.9922464,-1.3343239,-1.3129369,-0.8064181,-1.4139614,-0.6136691,0.4387228,0.18175381,0.3816681,-0.33374596,1.1560323,-3.37969,-0.111919105,-2.5489793,0.21613693,-0.36216354,0.8937898,0.82096845,0.011757062,0.21940593,0.5270044,-0.95945334,-1.0225502,-0.8007132,1.0,0.0,0.0,0.0,0.0,0.0,0.0,-1.0316681,-0.06625405,-0.6060323,4.100919,-35.124947,10.127306,0.48470497,20.704603,-0.75900555,2.7094574
-17.49411,-24.014423,-10.096521,20.59682,5.2091165,0.6448568,0.3692854,-0.76500875,-0.78176963,-0.4515051,-0.79468995,0.22646616,0.528241,0.19559287,0.6892401,-0.3110224,-1.7873273,-1.5778917,2.4919624,1.5675285,-0.9726871,0.7524859,-0.24743259,-1.7499588,-1.5125524,2.4656193,1.5190169,-0.9904134,-1.3187642,-1.5079695,-0.77295595,-1.4108251,-0.28872207,0.42830876,0.18534687,0.34789658,-0.33486366,1.1298252,-3.3763108,-0.11180721,-2.6446166,0.20568085,-0.3728218,0.88574874,0.82456595,0.020691007,0.21433014,0.5231878,-1.0810493,-1.0672606,-0.8100055,1.0,0.0,0.0,0.0,0.0,0.0,0.0,-0.99789655,-0.06513634,-0.5798252,2.6974201,-19.700455,2.119422,0.9213686,32.373035,-1.16359,0.82941055
-12.801521,-2.536498,-4.0166936,21.567835,4.218902,0.81421256,-0.109377615,-0.7638047,-0.78648335,-0.53109205,-0.795141,0.37454253,0.5044255,-0.12866245,0.6761054,-0.32608092,-1.8030679,-1.5920665,2.5030737,1.5694594,-1.0032797,0.73930514,-0.26299188,-1.7580497,-1.5266458,2.4652455,1.5232188,-0.98881984,-1.3142232,-1.5725138,-0.82469994,-1.4072049,0.04567069,0.41722578,0.15185629,0.3141594,-0.33598137,1.1026624,-3.3729353,-0.11169542,-2.7401583,0.19417572,-0.38375092,0.87762916,0.8284858,0.029688662,0.20697598,0.51951015,-1.1785636,-1.08692,-0.8185337,1.0,0.0,0.0,0.0,0.0,0.0,0.0,-0.96415937,-0.06401864,-0.55266243,1.5673637,-6.632352,-6.2541366,0.8785248,33.286747,-1.1318743,-2.9905975
-9.247397,13.608715,1.2258179,23.043459,3.1475158,1.1396949,-0.4434841,-0.7895822,-0.7821988,-0.5482812,-0.7762145,0.3971412,0.5440788,-0.32943943,0.6603469,-0.34121177,-1.8128779,-1.6042672,2.5049596,1.5776266,-1.0217638,0.7259985,-0.27856252,-1.766875,-1.5406247,2.467664,1.527352,-0.9877279,-1.3325495,-1.5524801,-0.90511197,-1.3934592,0.30638984,0.4122941,0.09576819,0.28045273,-0.33709908,1.0745449,-3.369563,-0.111583754,-2.8356044,0.18187332,-0.3946724,0.869448,0.8328347,0.038661882,0.19806135,0.5154254,-1.2530599,-1.0784198,-0.82493496,1.0,0.0,0.0,0.0,0.0,0.0,0.0,-0.9304527,-0.06290093,-0.5245449,-0.72631836,1.8391132,-9.037495,1.8000841,25.93617,-0.4295647,-5.389705
-3.4191468,28.778608,8.6117325,24.544546,2.017777,1.5938989,-0.52986634,-0.8071606,-0.7539302,-0.52490664,-0.75053746,0.4104824,0.57755816,-0.39940396,0.64528245,-0.35395554,-1.8193657,-1.6156784,2.5087123,1.5851078,-1.0276682,0.7123991,-0.2935438,-1.7763069,-1.5543634,2.4720318,1.5314795,-0.9872291,-1.365775,-1.4804789,-0.95856345,-1.3662915,0.48009697,0.41351518,0.03485791,0.24678421,-0.33821297,1.0454737,-3.3661942,-0.11147219,-2.9309552,0.1690445,-0.4052658,0.8612686,0.8375468,0.047438286,0.18828548,0.51069885,-1.2982091,-1.0366343,-0.8229335,1.0,0.0,0.0,0.0,0.0,0.0,0.0,-0.8967842,-0.06178704,-0.49547368,-2.3459435,7.0635796,-6.1888814,3.0061483,17.309809,0.31109452,-5.9965887
-0.22242165,36.022385,12.839813,25.349401,1.2381516,1.8846301,-0.52042603,-0.82149553,-0.7352746,-0.5186994,-0.7252096,0.38301164,0.5952783,-0.43887573,0.63024956,-0.36707124,-1.8281769,-1.6268843,2.510333,1.5910074,-1.0311167,0.6984259,-0.30771396,-1.786042,-1.5677453,2.4774716,1.5356432,-0.98732066,-1.4051678,-1.396243,-0.9808992,-1.32817,0.5652223,0.4181556,-0.023830155,0.21314621,-0.33932686,1.0154498,-3.3628287,-0.11136074,-3.0262105,0.1559143,-0.41529655,0.8531525,0.8425005,0.055869423,0.17819163,0.50529104,-1.3232052,-0.9751379,-0.815109,1.0,0.0,0.0,0.0,0.0,0.0,0.0,-0.8631462,-0.060673147,-0.46544975,-3.1228304,8.305097,-2.9253602,4.0145636,8.514142,0.7221401,-5.867123
2.4369025,39.55194,15.891932,25.315851,0.5565129,2.053958,-0.43529734,-0.8275224,-0.7160471,-0.5058651,-0.6990191,0.29384705,0.6156926,-0.46150628,0.61567366,-0.37931865,-1.8366284,-1.6376473,2.5068562,1.5972124,-1.0334713,0.6840979,-0.32110545,-1.7957733,-1.5806905,2.4830868,1.5398718,-0.98795676,-1.4399183,-1.3204252,-0.9724665,-1.2827133,0.56059873,0.42550686,-0.07707886,0.17954254,-0.34044075,0.9844738,-3.3594666,-0.1112494,-3.1213706,0.14268112,-0.42461205,0.845133,0.847554,0.06385545,0.168222,0.4992754,-1.3295007,-0.90077055,-0.8043148,1.0,0.0,0.0,0.0,0.0,0.0,0.0,-0.8295425,-0.059559256,-0.4344738,-2.8413057,7.4828625,0.30174255,4.6860456,-0.41006804,1.0531843,-5.390285
2.7434297,37.076187,15.697908,23.842463,-0.07278368,1.9858501,-0.34149453,-0.82465273,-0.7182397,-0.5132876,-0.6769999,0.06356308,0.6330915,-0.45840046,0.6016326,-0.39292943,-1.847102,-1.6483905,2.489443,1.603181,-1.0337968,0.6695267,-0.33396146,-1.805371,-1.5931703,2.4877408,1.5441843,-0.989063,-1.4611677,-1.2742553,-0.9571616,-1.2360055,0.43390906,0.43424812,-0.12226119,0.1459732,-0.34155083,0.9525471,-3.3561077,-0.11113818,-3.2164357,0.12948608,-0.4331684,0.8371646,0.8525614,0.07139384,0.15883905,0.49275962,-1.3214593,-0.82432616,-0.80050486,1.0,0.0,0.0,0.0,0.0,0.0,0.0,-0.7959732,-0.05844918,-0.40254706,-1.6278744,4.5294046,1.077354,4.808831,-12.611604,1.2093723,-4.6400294
1.4472612,30.216843,13.065209,21.118986,-0.80193967,1.7306843,-0.26462236,-0.8080259,-0.7475316,-0.5398166,-0.6543851,-0.3526289,0.6529249,-0.475394,0.58872414,-0.40871462,-1.8593527,-1.6586088,2.452478,1.6094768,-1.0366024,0.65490973,-0.3466973,-1.8149402,-1.6051904,2.4898427,1.5485922,-0.9905803,-1.4605248,-1.2736015,-0.9582228,-1.1899981,0.13550963,0.4440205,-0.16212381,0.11243439,-0.3426609,0.9196704,-3.3527522,-0.11102706,-3.3114057,0.11646271,-0.44098854,0.8291043,0.8573755,0.07859152,0.15064754,0.4858352,-1.2997185,-0.7520229,-0.8131677,1.0,0.0,0.0,0.0,0.0,0.0,0.0,-0.76243436,-0.057339102,-0.3696704,0.4705906,-0.017619133,-0.5257249,4.784608,-29.818062,1.309514,-4.1724176
-1.5446072,22.34055,8.795271,17.645658,-0.5966499,1.3406965,-0.17033239,-0.80436283,-0.7645443,-0.577851,-0.67138135,-0.40748748,0.63901407,-0.46238723,0.57447344,-0.42315173,-1.8727254,-1.6723285,2.4490938,1.6124936,-1.0368191,0.64037955,-0.35964724,-1.8247325,-1.6169473,2.488992,1.5530726,-0.99243426,-1.4492445,-1.302461,-0.9877876,-1.1701536,-0.15861818,0.45001814,-0.19359434,0.078933716,-0.34377098,0.8858447,-3.3494,-0.110916056,-3.4062808,0.10359573,-0.44820976,0.8207818,0.86194813,0.085670896,0.14368665,0.478602,-1.2864345,-0.69686157,-0.843424,1.0,0.0,0.0,0.0,0.0,0.0,0.0,-0.7289337,-0.056229025,-0.3358447,1.518774,-2.9827833,-3.383267,2.243948,-29.467731,0.8123398,-3.2846868
-3.941328,16.078451,5.296422,14.063698,-0.099814445,0.9944241,-0.07114902,-0.79913914,-0.7889396,-0.60871774,-0.70234907,-0.3853924,0.6128671,-0.4912291,0.56046563,-0.4385412,-1.8856043,-1.6871822,2.4504528,1.6143593,-1.0415572,0.6262262,-0.37303135,-1.8354363,-1.6289994,2.486061,1.5598896,-0.99437195,-1.3492484,-1.3507115,-1.2045826,-1.269285,-0.3004061,1.2635887,-0.18129352,0.05172348,-0.3456154,0.86485213,-1.2976415,-0.29827985,1.5716904,0.09054947,-0.4547577,0.81194615,0.86627275,0.09194155,0.13747163,0.471402,-1.3533951,-0.5702159,-0.92341805,1.0,0.0,0.0,0.0,0.0,0.0,0.0,-0.70172346,-0.05438462,-0.31485212,18.775845,-4.915738,-38.801147,-18.00623,-7.0353627,162.72223,5.181274
89.83579,176.0,110.0,106.37523,-5.0861464,10.443998,-0.19728659,-0.8145705,0.12207966,0.68885535,0.75396585,-0.3240837,0.6204861,-0.5327529,0.54476917,-0.3608234,-1.7665508,-1.5536028,2.4536526,1.6219381,-1.0476472,0.6202533,-0.38406298,-1.8503766,-1.6320492,2.4786263,1.5790336,-0.995071,-0.35741517,-1.0200361,-1.5764716,0.01178402,-0.8873952,2.1412656,-0.036810026,0.038757324,-0.34859657,0.8798208,-1.2963442,-0.29798162,1.4719331,0.07915878,-0.45815277,0.8064073,0.86995316,0.088845216,0.1357991,0.46566772,-1.0677414,-0.2479119,-0.43416816,1.0,0.0,0.0,0.0,0.0,0.0,0.0,-0.6887573,-0.051403433,-0.3298208,95.94959,33.243443,-33.028294,126.73124,-57.59946,90.7135,13.236587
51.54444,150.54498,92.82754,103.34928,-0.84214145,7.811941,-0.21950664,-0.7954351,-0.43216312,0.49446157,0.7912413,-0.6071114,0.6437251,-0.36889753,0.5407098,-0.4272793,-1.8009305,-1.5529251,2.417915,1.6434062,-1.0319607,0.6166723,-0.39279577,-1.8609776,-1.625074,2.4685097,1.6003253,-0.9955335,-0.3579096,-0.82566977,-0.8859264,0.92524564,-1.0556871,2.1329656,-0.051208645,0.025806427,-0.35157394,0.8937927,-1.295048,-0.2976837,1.3722755,0.06982422,-0.45897865,0.8056558,0.8732257,0.079246946,0.1375737,0.46072778,-0.8866991,-0.018915309,0.039111424,1.0,0.0,0.0,0.0,0.0,0.0,0.0,-0.6758064,-0.048426062,-0.34379268,0.08102059,19.04024,69.7333,91.05875,-17.584324,1.4671803,-1.9678667
24.136644,122.09074,65.60483,82.39893,0.3406881,5.4209833,-0.29350036,-0.76598436,-0.2797619,0.2465696,0.73786676,-0.67522365,0.6483765,0.22825566,0.5400739,-0.42077196,-1.8363206,-1.5512874,2.4009874,1.665163,-0.972708,0.61112857,-0.3994877,-1.8647962,-1.6115528,2.4574432,1.6202056,-0.99580723,-0.61585665,-0.61839676,-0.2163928,1.4948477,-1.1268808,1.944716,-0.020170266,0.012863159,-0.3545494,0.9067687,-1.2937533,-0.29738605,1.2727175,0.061725616,-0.45791626,0.8086452,0.87622994,0.06602319,0.1413541,0.4559397,-0.7827809,0.15254542,0.37885836,1.0,0.0,0.0,0.0,0.0,0.0,0.0,-0.66286314,-0.045450598,-0.35676867,-24.61683,20.32858,66.19757,57.134056,-8.060169,-17.291546,2.8779137
-9.105494,71.87299,26.316849,56.69432,1.984837,2.817982,-0.66397816,-0.7625634,-0.22651213,0.032197203,0.78066534,-0.7010091,0.6320008,0.22571018,0.53487223,-0.42213893,-1.8615764,-1.5334862,2.3873422,1.6834058,-0.9732362,0.60239196,-0.40445158,-1.8640828,-1.5947624,2.4461784,1.6379364,-0.9957853,-0.95573616,-0.456395,0.16345212,1.741291,-1.1274111,1.7191639,0.009760525,-6.484985e-05,-0.35752106,0.91874987,-1.2924597,-0.2970887,1.173259,0.053878784,-0.4557724,0.81371975,0.879204,0.051561274,0.14628275,0.45049208,-0.78526646,0.23931931,0.54353094,1.0,0.0,0.0,0.0,0.0,0.0,0.0,-0.6499351,-0.04247895,-0.36874986,-32.845985,15.991229,36.847256,24.917221,-0.41143894,-21.572018,3.0080776
-33.2586,26.990189,-7.32146,34.18461,2.9685102,0.44943768,-1.0404456,-0.7732989,-0.17202356,-0.22162785,0.7819192,-0.69380456,0.64470834,0.17635708,0.5250621,-0.42165393,-1.8862456,-1.5165706,2.376798,1.7024072,-0.9781496,0.59069896,-0.40806648,-1.8625321,-1.5772263,2.4351654,1.6535537,-0.99551827,-1.2382998,-0.32993042,0.14920433,1.7582619,-1.092042,1.5112945,0.032441366,-0.0129776,-0.3604889,0.9297372,-1.2911675,-0.29679167,1.0739,0.045440674,-0.45339966,0.81929916,0.8824754,0.0378556,0.15179077,0.44358054,-0.8646307,0.2423118,0.5563556,1.0,0.0,0.0,0.0,0.0,0.0,0.0,-0.6370224,-0.039511114,-0.3797372,-27.58212,12.621307,-2.3675113,1.8565178,3.8165092,-20.137882,2.306833
-42.302345,-1.2834458,-24.99073,19.587194,3.1686656,-1.033546,-1.0990655,-0.7899562,-0.1533646,-0.3762927,0.78152,-0.69311833,0.6459155,0.16492319,0.5117033,-0.42340294,-1.9001614,-1.4990742,2.3658535,1.7181453,-0.97902596,0.576926,-0.41077873,-1.863028,-1.5603844,2.4245605,1.6673038,-0.9950662,-1.4222174,-0.2515061,-0.11806677,1.659807,-1.0485717,1.3310242,0.049442932,-0.025882721,-0.36345482,0.9397317,-1.2898766,-0.29649493,0.97464037,0.035957336,-0.45140457,0.8243374,0.8862289,0.026129916,0.157558,0.43484583,-0.9749088,0.19214506,0.4807891,1.0,0.0,0.0,0.0,0.0,0.0,0.0,-0.62411726,-0.036545187,-0.3897317,-17.987896,7.8963337,-27.44526,-9.761381,4.8505545,-17.645287,1.6859725
-48.61041,-28.937405,-37.671383,11.631554,3.7484796,-1.9066885,-1.0012774,-0.813325,-0.24719742,-0.5268152,0.77666324,-0.67527413,0.6243163,0.1616304,0.4955935,-0.43549848,-1.9157096,-1.4827181,2.3570333,1.7297354,-0.9789032,0.5619867,-0.4134986,-1.8671212,-1.5447403,2.4143906,1.679446,-0.9944692,-1.5161755,-0.27851495,-0.50889367,1.5330005,-1.0046442,1.1755793,0.06310319,-0.038772583,-0.36641693,0.9487344,-1.288587,-0.2961985,0.87547994,0.025115967,-0.45022202,0.8282517,0.8905385,0.016897878,0.16316049,0.4243043,-1.1197867,0.10175656,0.35703185,1.0,0.0,0.0,0.0,0.0,0.0,0.0,-0.6112274,-0.033583075,-0.3987344,-8.883572,-2.6028335,-39.82045,-12.518144,4.930496,-15.431809,1.3801538
-39.275955,-28.307463,-31.398197,9.875403,3.2353418,-1.7735868,-0.6394968,-0.80728006,-0.28030047,-0.56962234,0.7776373,-0.6686842,0.63502556,0.18734606,0.4812587,-0.44152865,-1.9240835,-1.4669766,2.3475223,1.7429485,-0.9757346,0.5466831,-0.41688272,-1.8747811,-1.5301739,2.4045868,1.690232,-0.9937349,-1.5333166,-0.3582148,-0.85377544,1.4319462,-0.9715891,1.0462981,0.076887265,-0.051647186,-0.36937714,0.9567462,-1.2872987,-0.29590234,0.7764186,0.012973785,-0.4498787,0.83097607,0.8952678,0.009986708,0.16835207,0.41237527,-1.2436106,0.02144841,0.24051546,1.0,0.0,0.0,0.0,0.0,0.0,0.0,-0.5983528,-0.03062287,-0.4067462,-1.1785269,-7.9114556,-35.12137,-9.859157,3.6344886,-12.930489,1.3942391
-30.5245,-23.879303,-23.004923,11.329322,2.9852269,-1.2878829,-0.34458345,-0.8159493,-0.36261323,-0.58698106,0.7816953,-0.6325044,0.62754303,0.08025668,0.46508813,-0.45314404,-1.9334792,-1.4520043,2.3413363,1.7529863,-0.98570925,0.53147197,-0.42144987,-1.8850198,-1.5162808,2.3951187,1.699887,-0.9929548,-1.5154225,-0.4895131,-1.0821083,1.3761545,-0.9380887,0.93857837,0.07853596,-0.064510345,-0.37233353,0.9637681,-1.2860116,-0.2956065,0.6774564,-0.0002670288,-0.4501915,0.83270794,0.90023685,0.0048537194,0.1729202,0.39956042,-1.3492223,-0.038215622,0.14747326,1.0,0.0,0.0,0.0,0.0,0.0,0.0,-0.58548963,-0.02766648,-0.4137681,2.2877693,-13.112432,-23.318708,-5.253291,3.4943461,-10.80308,0.23287982
-18.791395,-6.6700597,-9.745082,14.408905,2.2444942,-0.5642343,-0.08725873,-0.82279927,-0.38867152,-0.5760761,0.78213614,-0.6428963,0.629268,0.020267064,0.44919205,-0.46031702,-1.9426274,-1.4380672,2.3308291,1.7628138,-0.9909281,0.5164945,-0.4272811,-1.8965402,-1.5026623,2.385868,1.7086132,-0.99221855,-1.4908086,-0.6144898,-1.1762292,1.3580701,-0.92100054,0.8508334,0.07215031,-0.07736206,-0.375288,0.9697932,-1.2847259,-0.29531094,0.5775279,-0.014255524,-0.45084763,0.8337617,0.9052489,0.000880664,0.17689146,0.38630685,-1.414988,-0.06238541,0.08797768,1.0,0.0,0.0,0.0,0.0,0.0,0.0,-0.5726379,-0.024711996,-0.4197932,2.7843714,-12.5440235,-9.641886,-1.511693,1.6546726,-8.730459,-0.5865216
-8.264233,10.892736,2.1646833,16.758776,1.5314701,0.040293276,0.08048439,-0.8165313,-0.41569325,-0.5490884,0.78260505,-0.6373415,0.63413644,-0.1029489,0.4348414,-0.46885043,-1.951449,-1.4244018,2.322134,1.7720268,-1.0025134,0.5017593,-0.43418095,-1.9081864,-1.4890496,2.376728,1.7165897,-0.9916454,-1.467352,-0.7154325,-1.160886,1.3629966,-0.91270816,0.780333,0.05249766,-0.09019852,-0.37823868,0.97481966,-1.2834414,-0.2950157,0.4776993,-0.028606415,-0.45152283,0.8344389,0.91014177,-0.0024641699,0.18040918,0.37294534,-1.4415454,-0.05660453,0.057280995,1.0,0.0,0.0,0.0,0.0,0.0,0.0,-0.55980146,-0.021761328,-0.42481965,2.4846554,-10.189152,1.5389919,0.7041931,0.61496496,-6.9179177,-1.9452475
-0.24372196,24.875593,11.130293,18.30286,0.9681606,0.4644801,0.2079981,-0.80796975,-0.44988826,-0.4937791,0.7875329,-0.6462138,0.64773625,-0.17801565,0.4209623,-0.4791698,-1.9575644,-1.4102962,2.3121066,1.7813634,-1.009447,0.48723045,-0.44192,-1.9190774,-1.4752976,2.367588,1.723973,-0.99132115,-1.448026,-0.79379743,-1.0645062,1.3797799,-0.9152118,0.7250023,0.025659565,-0.10302353,-0.38118744,0.9788486,-1.2821583,-0.29472074,0.37797052,-0.04299164,-0.45199203,0.83496594,0.91479546,-0.005579282,0.18362689,0.3597211,-1.4364393,-0.030144846,0.0472069,1.0,0.0,0.0,0.0,0.0,0.0,0.0,-0.54697645,-0.018812567,-0.42884856,1.9410372,-7.96113,9.804273,1.8060207,-0.57895184,-5.322659,-2.6926055
5.180322,35.05388,16.694576,18.810219,0.5298253,0.63705033,0.28943187,-0.7855285,-0.46561334,-0.45862854,0.79064775,-0.65649515,0.65487933,-0.1582795,0.4086776,-0.48848134,-1.9649403,-1.3962328,2.3019385,1.789461,-1.0071491,0.4729325,-0.45023653,-1.928803,-1.4613644,2.358368,1.7308891,-0.9912353,-1.4239705,-0.8447226,-0.94091,1.398018,-0.92553765,0.68136317,0.0027409226,-0.1158371,-0.3841324,0.981881,-1.2808764,-0.29442608,0.27834147,-0.057151794,-0.452116,0.8354736,0.91913265,-0.0086786635,0.18669744,0.34679073,-1.4083798,0.0059670573,0.047734294,1.0,0.0,0.0,0.0,0.0,0.0,0.0,-0.5341629,-0.01586762,-0.431881,2.3319721,-5.2310348,12.611341,1.8822432,-1.421237,-4.105985,-2.3323188
10.03261,43.789165,21.19737,18.738731,0.14213055,0.70461357,0.3588757,-0.7602904,-0.4688296,-0.3985222,0.79038846,-0.6616877,0.6645902,-0.14665689,0.39690346,-0.4971195,-1.9686552,-1.3823255,2.2921991,1.7973481,-1.005901,0.4589354,-0.45885727,-1.9372048,-1.4472901,2.3490257,1.7374408,-0.99134594,-1.392102,-0.8683542,-0.8055007,1.410581,-0.9384035,0.64729995,-0.01585623,-0.1286354,-0.38707352,0.9839179,-1.2795957,-0.29413173,0.17881201,-0.07088089,-0.45183945,0.83603835,0.9230999,-0.011869631,0.18975735,0.334272,-1.3601502,0.04697344,0.055094015,1.0,0.0,0.0,0.0,0.0,0.0,0.0,-0.52136457,-0.012926489,-0.43391788,3.039384,-2.5092006,13.862181,1.25072,-1.7208219,-3.11836,-1.9295328
3.5853143,33.998253,14.31974,17.237873,0.5078021,0.40047044,0.27200633,-0.75687295,-0.52296495,-0.42396244,0.7782486,-0.6808681,0.6660605,-0.06735577,0.38324812,-0.51115376,-1.979601,-1.3694652,2.2809389,1.8040469,-0.9980815,0.44521824,-0.46781513,-1.9446855,-1.433191,2.3395195,1.7436988,-0.9915567,-1.3650373,-0.90534586,-0.7283275,1.4099708,-0.9555907,0.61941564,-0.022919947,-0.14142227,-0.39001274,0.9849602,-1.2783164,-0.29383767,0.079382084,-0.08430481,-0.45125008,0.8365431,0.9267494,-0.015015055,0.1927974,0.32208577,-1.3354238,0.07408972,0.04472606,1.0,0.0,0.0,0.0,0.0,0.0,0.0,-0.5085777,-0.009987265,-0.4349602,2.6731014,-3.8193703,7.8849435,0.009131432,-2.0419002,-2.5509238,-0.74543244
3.8288093,36.49295,14.552575,17.292059,0.4389243,0.34076688,0.25014845,-0.7314364,-0.51322824,-0.38741115,0.7843434,-0.69168717,0.6717008,-0.04048018,0.3720746,-0.519138,-1.9834266,-1.3547566,2.2703507,1.8108689,-0.9956047,0.43181148,-0.4770176,-1.951571,-1.4191071,2.3298378,1.7497203,-0.991798,-1.3326689,-0.9256186,-0.6747219,1.408149,-0.97354877,0.59718394,-0.024719544,-0.1541977,-0.39295006,0.985009,-1.2770383,-0.29354388,-0.019948438,-0.0974617,-0.45039177,0.8369442,0.930111,-0.018035332,0.19586514,0.31016943,-1.3079072,0.10010665,0.034304403,1.0,0.0,0.0,0.0,0.0,0.0,0.0,-0.49580228,-0.007049948,-0.435009,3.1970978,-2.149272,5.520785,-0.12011528,-2.1049142,-1.9870639,-0.2331812
-3.7903233,26.271461,7.3575163,16.545977,0.9076903,0.095843494,0.122837745,-0.73508996,-0.55542356,-0.4221721,0.7736828,-0.69552594,0.67022663,0.0031568278,0.35830247,-0.53256,-1.9937882,-1.3417388,2.2602851,1.816743,-0.9914823,0.41864362,-0.486531,-1.9583325,-1.4050938,2.3200035,1.7555454,-0.99201256,-1.3111962,-0.9602705,-0.6766419,1.3996295,-0.9872928,0.5784055,-0.020458192,-0.16695786,-0.39588356,0.98406523,-1.2757615,-0.29325038,-0.11917965,-0.11054611,-0.44935036,0.837124,0.9332616,-0.02077269,0.19891928,0.2983663,-1.3081831,0.11578133,0.008362122,1.0,0.0,0.0,0.0,0.0,0.0,0.0,-0.48304212,-0.004116446,-0.43406522,2.2260427,-3.568101,-0.1868844,-0.7065058,-1.5680909,-1.6931176,0.40550417
-7.792429,19.329884,2.9718933,15.4627285,1.1204677,-0.10192281,0.09010406,-0.7126414,-0.5903536,-0.4525798,0.7693321,-0.7116534,0.6698915,0.10341457,0.34737948,-0.5455663,-2.0035906,-1.3281605,2.2488382,1.8225346,-0.9816711,0.40571657,-0.49648973,-1.9654164,-1.3911797,2.3100243,1.7612083,-0.99210507,-1.2860943,-1.0080682,-0.71905303,1.389452,-1.0018507,0.56253237,-0.005565284,-0.17970276,-0.39881325,0.98212993,-1.274486,-0.2929572,-0.21831165,-0.12375641,-0.44820023,0.8369535,0.93625695,-0.023074238,0.20189819,0.28657895,-1.3243644,0.12406234,-0.029646311,1.0,0.0,0.0,0.0,0.0,0.0,0.0,-0.47029722,-0.0011867583,-0.43212992,2.635336,-4.8704505,-4.3016553,-0.81965923,-1.5773296,-1.4408827,1.4879843
-4.0632896,18.514675,4.7187634,13.793343,1.0285537,-0.14731735,0.1941075,-0.6674437,-0.64503634,-0.40025002,0.7702174,-0.708152,0.69693923,0.060323667,0.3389722,-0.5609934,-2.0054414,-1.314158,2.2392092,1.8309022,-0.9860727,0.39318624,-0.5071013,-1.9727063,-1.3773457,2.299942,1.766751,-0.9920822,-1.2418723,-1.0790883,-0.7320986,1.3821851,-1.011087,0.5518897,0.004902467,-0.19244003,-0.40174103,0.979204,-1.2732117,-0.2926643,-0.31734455,-0.13708496,-0.44699287,0.8363916,0.9390925,-0.025010144,0.20467736,0.27493063,-1.3347306,0.12977445,-0.06937859,1.0,0.0,0.0,0.0,0.0,0.0,0.0,-0.45755994,0.0017410219,-0.429204,4.4706345,-7.1853876,-1.2653589,-0.5398512,-1.0805368,-0.9418607,1.0723958
-8.945995,8.062823,-1.0450499,11.613752,1.267349,-0.3931024,0.14402768,-0.6563595,-0.70798665,-0.47719818,0.7477321,-0.7163127,0.68845487,0.09148687,0.3275503,-0.57789993,-2.020426,-1.3025725,2.2283108,1.8355966,-0.9829335,0.38108936,-0.5186007,-1.9804063,-1.3636585,2.2897758,1.7721946,-0.99194294,-1.1985782,-1.1736932,-0.78283215,1.3650895,-1.0186684,0.54213244,0.017141405,-0.20516205,-0.404665,0.9752885,-1.2719388,-0.2923717,-0.41627842,-0.15068054,-0.44579887,0.8352956,0.9418155,-0.026489649,0.20712614,0.26340166,-1.3660167,0.1260059,-0.12768643,1.0,0.0,0.0,0.0,0.0,0.0,0.0,-0.44483793,0.0046649873,-0.4252885,4.4350863,-9.526968,-5.1216006,-1.4475107,-0.82838535,-0.9080887,1.2883637
-2.2101607,11.546862,2.5671306,9.269145,0.88292813,-0.48208612,0.25492367,-0.5803429,-0.7470339,-0.474147,0.7394305,-0.7075891,0.6979805,0.03817024,0.32305506,-0.5933041,-2.027821,-1.2897155,2.219017,1.8419926,-0.9881259,0.36967054,-0.5310576,-1.9885373,-1.3501621,2.2795753,1.77756,-0.9917341,-1.1231408,-1.2698665,-0.8228323,1.3450801,-1.020447,0.5348114,0.022372022,-0.2178688,-0.40758705,0.97038144,-1.2706672,-0.2920794,-0.5155071,-0.16444778,-0.44466782,0.83360684,0.9444213,-0.027528906,0.20917463,0.2521041,-1.3803422,0.11817756,-0.18762852,1.0,0.0,0.0,0.0,0.0,0.0,0.0,-0.43213117,0.0075870454,-0.42038143,7.5012445,-9.685206,-3.8862705,-1.7920256,-0.30424595,-0.68627596,0.58329964
6.5971675,11.82762,4.9499035,3.4187331,0.2025077,-0.82344586,0.4128196,-0.47389752,-0.7962695,-0.53855276,0.6832962,-0.69457227,0.69283307,-0.039020758,0.3222808,-0.6106845,-2.0423925,-1.2818326,2.210118,1.8468432,-0.99563617,0.35937992,-0.54447293,-1.997252,-1.3370949,2.2694168,1.7828567,-0.9915443,-0.9986071,-1.3655981,-0.8866621,1.2942176,-1.0150368,0.52781194,0.017994072,-0.23056793,-0.4105053,0.96448284,-1.2693968,-0.29178736,-0.61463654,-0.17822647,-0.44373322,0.8312022,0.94689125,-0.028062938,0.2107416,0.24124146,-1.3750644,0.09447499,-0.26368418,1.0,0.0,0.0,0.0,0.0,0.0,0.0,-0.41943204,0.010505289,-0.41448283,12.184704,-9.627342,-6.06184,-4.968548,0.37927628,-0.7109165,-0.40023103
11.585098,17.969269,8.073805,2.0025885,-0.1987046,-0.8666698,0.46722913,-0.42168033,-0.8113102,-0.5690571,0.65259707,-0.68688524,0.68357134,-0.051909156,0.3172119,-0.625604,-2.0541577,-1.2718352,2.2007282,1.8512138,-0.9967352,0.35039726,-0.5586655,-2.0066311,-1.3246342,2.2593384,1.7880828,-0.99141747,-0.86602616,-1.4373729,-0.9536591,1.2302577,-1.0060376,0.5208251,0.0109391045,-0.2432518,-0.41342163,0.9575937,-1.2681277,-0.29149562,-0.7136669,-0.19182968,-0.4430542,0.8280468,0.9492129,-0.028040577,0.21185969,0.23091996,-1.3533878,0.06799803,-0.33879834,1.0,0.0,0.0,0.0,0.0,0.0,0.0,-0.40674818,0.013421625,-0.40759367,12.903905,-7.2473288,-6.297004,-6.337309,0.6953001,-0.727129,-0.70368385
29.810833,38.466457,21.466913,1.6256351,-1.066096,-0.7703061,0.70280725,-0.27292418,-0.8132102,-0.50488263,0.6627451,-0.68473613,0.6859526,-0.08392095,0.32310483,-0.6399865,-2.0571194,-1.2583597,2.1908648,1.8566781,-0.99980956,0.34312692,-0.573334,-2.0162098,-1.3126637,2.2493362,1.7932498,-0.99138695,-0.6828314,-1.4770445,-0.9565349,1.1855949,-0.99933064,0.51528364,0.00020139883,-0.2559204,-0.41633415,0.94971496,-1.2668598,-0.29120418,-0.8125983,-0.20481873,-0.44264603,0.8243481,0.9512948,-0.02773372,0.21266507,0.22145553,-1.2777429,0.03970079,-0.38657376,1.0,0.0,0.0,0.0,0.0,0.0,0.0,-0.39407957,0.016334146,-0.39971495,17.67826,-4.062581,0.47364235,-4.6146154,0.26991367,-0.5597234,-1.1403878
24.847206,37.332962,18.316475,1.9968994,-0.90692914,-0.8271659,0.6288183,-0.26233217,-0.8231952,-0.58349335,0.5918099,-0.6563252,0.6504601,0.021457644,0.3168937,-0.6556535,-2.0745592,-1.2534827,2.1837037,1.8582959,-0.9892412,0.3374025,-0.5882437,-2.0260212,-1.3013092,2.2394753,1.7983406,-0.9913793,-0.5373339,-1.4958941,-0.98706746,1.1183673,-0.9830228,0.5068992,0.00067725655,-0.2685814,-0.41924477,0.9408477,-1.2655932,-0.29091305,-0.9114307,-0.21713638,-0.44251633,0.82013756,0.9531544,-0.027087588,0.21321528,0.21284333,-1.2143142,0.010665795,-0.439059,1.0,0.0,0.0,0.0,0.0,0.0,0.0,-0.3814186,0.01924476,-0.39084768,14.054918,-1.9948006,-2.469492,-6.8172693,1.279676,-0.8722663,-0.030075189
37.365826,50.45667,26.953518,2.4200692,-1.3265488,-0.8365286,0.75480545,-0.10172703,-0.8233507,-0.53686655,0.6093168,-0.6401376,0.6489381,0.008794212,0.3272298,-0.6705788,-2.0797079,-1.2403775,2.1754615,1.8632344,-0.9904999,0.33342806,-0.6032183,-2.0358555,-1.2904221,2.2298012,1.8033512,-0.99136883,-0.35291776,-1.498349,-0.9793927,1.0780854,-0.96354544,0.49912342,0.0008381316,-0.2812271,-0.42215157,0.9309928,-1.2643278,-0.2906222,-1.0101644,-0.22859192,-0.44270325,0.8155673,0.95476395,-0.026272764,0.21358328,0.20522615,-1.1194056,-0.023246337,-0.4695103,1.0,0.0,0.0,0.0,0.0,0.0,0.0,-0.36877286,0.02215156,-0.38099277,17.794191,-0.37178993,1.5594482,-4.2383194,1.4809489,-0.8188188,-0.09263359
42.504726,48.211212,26.629051,-2.1441488,-1.7732215,-1.1868212,0.84789014,0.010451599,-0.8287161,-0.59961045,0.51258415,-0.6203064,0.60835075,-0.012914685,0.33447322,-0.68608993,-2.0958166,-1.2391636,2.1677706,1.8641863,-0.9926603,0.33141628,-0.6181786,-2.0458424,-1.2802311,2.2203522,1.8082588,-0.9913717,-0.15285641,-1.495652,-1.0027844,0.9986819,-0.9399416,0.48757398,-0.0011012587,-0.2938614,-0.42505455,0.9201513,-1.2630637,-0.29033163,-1.1087995,-0.23904419,-0.44334984,0.8105772,0.95612794,-0.025205284,0.2137445,0.19873935,-1.0175718,-0.07421881,-0.5153126,1.0,0.0,0.0,0.0,0.0,0.0,0.0,-0.3561386,0.025054544,-0.37015128,19.32303,0.14925003,-1.5462399,-8.1733465,1.9096851,-1.2739718,-0.31732386
42.02847,46.29946,25.192036,-2.3201966,-1.7300974,-1.3261225,0.8066354,0.09682914,-0.8332478,-0.62488633,0.48690423,-0.6183093,0.5790875,-0.019042755,0.3410992,-0.7015034,-2.108331,-1.2315407,2.1585212,1.8661675,-0.99327594,0.3313543,-0.63311696,-2.056184,-1.2708298,2.211113,1.8130348,-0.99139935,0.040657084,-1.4935592,-1.042007,0.9200504,-0.9203574,0.47378382,-0.0036808234,-0.30648422,-0.42795563,0.9083242,-1.2618009,-0.29004136,-1.2073358,-0.24851608,-0.4445343,0.80510676,0.9572803,-0.023776237,0.2136931,0.19335036,-0.9213498,-0.13072485,-0.56378883,1.0,0.0,0.0,0.0,0.0,0.0,0.0,-0.34351575,0.027955621,-0.35832417,18.740164,0.08456707,-3.2126427,-8.04987,1.5509129,-1.5417576,-0.36837167
38.0045,43.517494,22.35835,-1.2295227,-1.5015061,-1.3858997,0.66989017,0.17468639,-0.8321727,-0.6656369,0.45670348,-0.613928,0.554764,-0.12643057,0.34882292,-0.7163342,-2.1227477,-1.2251594,2.1497202,1.8685112,-1.0040424,0.33308282,-0.6480324,-2.0670712,-1.2621704,2.202034,1.8176639,-0.9915319,0.215251,-1.4913521,-1.1025909,0.84761757,-0.9047211,0.45870513,-0.016770307,-0.3190918,-0.4308548,0.8955125,-1.2605393,-0.28975138,-1.3057737,-0.25712585,-0.44627953,0.79913473,0.9582657,-0.021913718,0.21346655,0.1888874,-0.8378038,-0.18762861,-0.6144715,1.0,0.0,0.0,0.0,0.0,0.0,0.0,-0.33090818,0.030854791,-0.3455125,16.959772,0.090289116,-5.4719687,-7.3596478,1.2176394,-1.7008185,-1.4039947
30.073526,42.103374,19.554905,3.06279,-0.89439726,-1.210263,0.45181936,0.2222084,-0.8392491,-0.6712811,0.4665429,-0.6106612,0.55058616,-0.22426485,0.35530367,-0.7319573,-2.1341994,-1.2155161,2.1409678,1.8727225,-1.0139583,0.33627573,-0.66296506,-2.0785077,-1.2539765,2.193081,1.8221538,-0.9918657,0.35276583,-1.4944286,-1.155599,0.8098635,-0.8931759,0.44520587,-0.039081115,-0.33168793,-0.43375015,0.8817256,-1.259279,-0.2894617,-1.4029899,-0.26506042,-0.4485054,0.7927296,0.9591351,-0.019677304,0.21311964,0.1850744,-0.77404475,-0.23369616,-0.6552675,1.0,0.0,0.0,0.0,0.0,0.0,0.0,-0.31831205,0.033750147,-0.3317256,13.398391,-0.4472971,-4.8459053,-3.802991,0.8572459,-1.5280902,-2.2953131
10.690052,34.41034,10.672267,7.1121693,-0.042986214,-0.92443657,0.14863536,0.1686772,-0.8367102,-0.7183642,0.39475572,-0.60718584,0.5155237,-0.36552888,0.35314345,-0.7466361,-2.1503441,-1.2145009,2.1323624,1.8737062,-1.0284185,0.34013668,-0.6779225,-2.090566,-1.2462956,2.184227,1.8265007,-0.99251705,0.39693236,-1.4967434,-1.2218803,0.75468713,-0.8836766,0.43062124,-0.07395119,-0.3442726,-0.4366417,0.86696726,-1.25802,-0.2891723,-1.5001088,-0.27266312,-0.45103264,0.7858565,0.9599737,-0.016945466,0.212665,0.18148513,-0.7503437,-0.2593345,-0.7040121,1.0,0.0,0.0,0.0,0.0,0.0,0.0,-0.30572736,0.036641687,-0.31696725,4.341525,-0.37341118,-6.467414,-5.3978086,0.7582545,-1.6006768,-3.5351202
-12.526928,30.0506,2.5426872,14.535671,1.2228703,-0.4104789,-0.18131879,0.07577848,-0.83739096,-0.72344315,0.377613,-0.5694205,0.47810107,-0.37043554,0.3477145,-0.7616616,-2.1629102,-1.2085342,2.127285,1.8743107,-1.0295606,0.3436338,-0.6929028,-2.1031811,-1.2391163,2.1755562,1.8306911,-0.9934984,0.3346498,-1.4990051,-1.2747589,0.7066393,-0.8619168,0.41501743,-0.106252246,-0.35684204,-0.43953133,0.8512384,-1.2567623,-0.28888318,-1.5971307,-0.2803688,-0.45357704,0.7785385,0.96087545,-0.01365154,0.21207424,0.1776416,-0.7730945,-0.2525633,-0.747021,0.0,1.0,0.0,0.0,0.0,0.0,0.0,-0.29315794,0.03953132,-0.30123842,-6.0167193,-0.38003922,-5.39279,-4.5298934,2.0522594,-1.6268075,-3.2518773
-35.21922,30.92353,-3.25141,24.276072,2.6483178,0.20257573,-0.52640027,-0.042404003,-0.83622545,-0.711233,0.40006378,-0.52168196,0.46342975,-0.36564055,0.3393934,-0.7765254,-2.1743045,-1.1991099,2.123388,1.8770341,-1.0300624,0.34580445,-0.7078944,-2.1161995,-1.2322941,2.1676552,1.8347442,-0.99470127,0.18164521,-1.4995718,-1.3271652,0.6545097,-0.67740357,0.40601128,-0.11222671,-0.3683548,-0.44157028,0.8394327,-0.836765,-0.06772151,-0.2347039,-0.28869247,-0.45578194,0.770892,0.96195745,-0.0099222725,0.21112552,0.17310469,-0.85902923,-0.2095821,-0.7807149,0.0,1.0,0.0,0.0,0.0,0.0,0.0,-0.28164518,0.041570276,-0.2894327,-14.569229,-0.21164417,-7.4974537,-7.2684884,30.185677,-0.37422776,1.1601925
-75.13917,48.657364,-5.6128793,51.64106,6.5127625,1.7898729,-1.3704939,-0.330743,-0.826433,-0.49914196,0.6374088,-0.18144508,0.50573456,-0.24939767,0.31273016,-0.7905377,-2.1661136,-1.1685532,2.1495106,1.8853177,-1.019641,0.34519362,-0.72284514,-2.1285248,-1.2246113,2.1621506,1.8387554,-0.9958972,-0.13919666,-1.4944929,-1.202365,0.8081508,-0.50867826,0.40031448,-0.12151828,-0.3767166,-0.44224548,0.83633524,-0.8359284,-0.0676538,-0.33474842,-0.29844666,-0.456892,0.7636409,0.96344084,-0.006773716,0.20933984,0.16707043,-1.0083276,-0.07702138,-0.71259034,0.0,1.0,0.0,0.0,0.0,0.0,0.0,-0.27328336,0.042245477,-0.28633523,-31.256496,0.23701191,11.997056,16.018284,16.7197,-0.3460765,-0.7759258
-22.678972,86.05349,25.383774,45.010723,4.5074015,1.9745368,-0.6338844,-0.16483007,-0.8236192,-0.14903283,0.65977305,-0.23165557,0.57713085,-0.33145395,0.32871062,-0.8052071,-2.143428,-1.158634,2.1389852,1.8964684,-1.0290426,0.3424747,-0.7377263,-2.1378212,-1.2152176,2.1580079,1.8427799,-0.9972247,-0.31512854,-1.4867839,-0.8388377,0.9838464,-0.3844315,0.40406656,-0.13626751,-0.3850708,-0.44292068,0.8322381,-0.8350926,-0.06758616,-0.43469295,-0.30874634,-0.45687866,0.7575053,0.9650705,-0.0052978336,0.20722616,0.16021293,-1.0318118,0.030531041,-0.5864254,0.0,1.0,0.0,0.0,0.0,0.0,0.0,-0.26492918,0.04292068,-0.28223807,-17.287159,0.54752827,36.450256,17.782139,11.989796,0.6376207,-1.3757914
9.051255,87.116356,34.990623,27.774443,2.463004,1.4382337,0.10666752,-0.19856699,-0.82963115,-0.017037485,0.4694125,-0.053819504,0.45022586,-0.19849896,0.322618,-0.8206894,-2.139525,-1.1682763,2.1526258,1.8878025,-1.0170746,0.33855653,-0.75256735,-2.1430435,-1.2051964,2.1551316,1.8467491,-0.99860275,-0.41712877,-1.4836514,-0.41546214,1.0082667,-0.25723496,0.3953516,-0.13815978,-0.39341354,-0.4435959,0.82714224,-0.83425766,-0.067518584,-0.5345376,-0.31875992,-0.45611,0.75239146,0.9667178,-0.005666847,0.20450495,0.15362994,-0.98850596,0.09609978,-0.49153098,0.0,1.0,0.0,0.0,0.0,0.0,0.0,-0.25658643,0.04359588,-0.27714223,-10.12801,0.14982224,42.59906,2.4371266,12.179714,-0.6408453,-0.1329571
31.83215,86.80056,40.198627,17.224276,0.4853559,0.87468755,0.5915256,-0.17479986,-0.8302816,0.1076878,0.4939805,-0.26145494,0.50412446,-0.075081386,0.32107654,-0.8355955,-2.1322746,-1.1557983,2.1289861,1.8971615,-1.0061109,0.334275,-0.76739794,-2.14423,-1.1952686,2.1526139,1.8506706,-0.9998988,-0.4321038,-1.4832582,-0.018662877,0.98720753,-0.25171497,0.39188913,-0.12683092,-0.40174866,-0.4442711,0.82104874,-0.83342355,-0.06745108,-0.63428235,-0.32795334,-0.45498466,0.7480339,0.96823055,-0.007580804,0.20138738,0.148038,-0.8925506,0.121339105,-0.4220135,0.0,1.0,0.0,0.0,0.0,0.0,0.0,-0.24825132,0.04427108,-0.27104872,-1.587522,-0.11496544,40.093647,-2.2063255,-0.03156662,-0.106579065,1.094383
53.950375,81.75086,42.36286,6.8659267,-1.254595,-0.0616408,0.93700397,-0.050235778,-0.8270369,0.1545816,0.50329226,-0.35147625,0.4834773,0.032450646,0.32925144,-0.85010165,-2.1287718,-1.1449394,2.1174662,1.8990183,-0.99665374,0.33073306,-0.78221995,-2.1422882,-1.1856747,2.1496155,1.8545444,-1.0009993,-0.3291654,-1.4824762,0.26704702,0.9496863,-0.31834364,0.38628924,-0.1048754,-0.41007614,-0.4449463,0.8139585,-0.8325903,-0.06738364,-0.73392737,-0.33590317,-0.4539833,0.7441348,0.9694849,-0.010556637,0.19821343,0.14387144,-0.760429,0.095884785,-0.38346606,0.0,1.0,0.0,0.0,0.0,0.0,0.0,-0.23992383,0.044946283,-0.2639585,10.011953,-0.10094643,29.208267,-3.884542,-7.310927,-0.40093064,2.0816743
29.515364,46.679443,19.043312,2.989089,-1.2861791,-0.99287087,0.5937574,-0.06385351,-0.8372991,-0.11894737,0.46239102,-0.42807674,0.48015702,-0.0049882643,0.3243477,-0.86594987,-2.154183,-1.1394355,2.106808,1.9025601,-1.0014981,0.3282559,-0.79708296,-2.1398506,-1.1766129,2.1456635,1.8583572,-1.0019149,-0.2212344,-1.4880402,0.23753303,0.8919411,-0.42200488,0.37966144,-0.08724785,-0.418396,-0.44561958,0.80587256,-0.83175784,-0.06731627,-0.8334727,-0.34301376,-0.4533863,0.7400132,0.9705201,-0.013397676,0.19527265,0.14064112,-0.6937954,0.050253637,-0.42525,0.0,1.0,0.0,0.0,0.0,0.0,0.0,-0.23160398,0.045619577,-0.25587255,10.589615,-0.69293976,-2.612251,-5.7002187,-10.647928,-0.63652396,1.7180502
-11.274154,23.745262,-2.2040608,9.928524,0.11204757,-1.0200232,0.01678291,-0.17226736,-0.8356972,-0.24015544,0.46297246,-0.45153815,0.45069325,0.0156175485,0.31102917,-0.88065267,-2.163866,-1.1303157,2.1005096,1.9034265,-1.0003531,0.32617384,-0.8119926,-2.1391578,-1.1680849,2.140849,1.86204,-1.002593,-0.20347568,-1.4921271,0.011130393,0.83838713,-0.49488792,0.36270648,-0.058563568,-0.42662048,-0.44561958,0.7991518,-0.81258976,0.047745395,-0.52389646,-0.35010147,-0.45306206,0.73516995,0.9714741,-0.015093886,0.19266525,0.13744174,-0.71430826,0.028186021,-0.5081934,0.0,1.0,0.0,0.0,0.0,0.0,0.0,-0.2233795,0.045619577,-0.24915177,1.7322809,-0.48992634,-22.16508,-4.1131735,-9.038507,-0.85321665,1.8537178
-54.770718,16.284193,-16.366581,24.285809,2.3668134,-0.38909724,-0.67974764,-0.31968683,-0.83214885,-0.30011004,0.522991,-0.41181085,0.4396205,-0.054528456,0.29420516,-0.89520746,-2.1691687,-1.1157857,2.099668,1.906002,-1.0080459,0.32331043,-0.8269157,-2.1411228,-1.1596049,2.13552,1.8656014,-1.0031136,-0.3126862,-1.4924868,-0.26758042,0.8531298,-0.5444379,0.35415417,-0.049449224,-0.43471146,-0.44515038,0.7932003,-0.8094092,0.047124974,-0.6208975,-0.3580017,-0.45253563,0.72955877,0.97249067,-0.015356856,0.19044428,0.1332556,-0.81354374,0.062436882,-0.5823271,0.0,1.0,0.0,0.0,0.0,0.0,0.0,-0.21528852,0.04515037,-0.2432003,-10.533869,-0.086927414,-28.43993,1.9860625,-4.5532584,-0.77708364,1.0492302
-57.62073,21.390913,-14.348656,26.413836,2.886174,-0.09659511,-0.7389795,-0.32772225,-0.8323748,-0.32787973,0.4990304,-0.31353807,0.40955514,-0.051117823,0.29053822,-0.91015315,-2.1739109,-1.1097019,2.1041663,1.906557,-1.0082254,0.31921583,-0.841834,-2.1455448,-1.1509461,2.1301775,1.8690673,-1.0035638,-0.44029626,-1.4918725,-0.5022934,0.8719288,-0.5303764,0.3440419,-0.043218043,-0.44273758,-0.44469833,0.7863208,-0.8019928,0.04487872,-0.71217483,-0.36693954,-0.45155334,0.7233115,0.9736253,-0.014400044,0.18845624,0.12779121,-0.917367,0.112814754,-0.6428371,0.0,1.0,0.0,0.0,0.0,0.0,0.0,-0.2072624,0.044698328,-0.2363208,-12.329351,-0.04079342,-23.998016,2.4415016,1.7056584,-0.9883702,0.7591829
-35.00913,36.953968,-1.4930041,23.179878,2.6823735,-0.012459129,-0.51912457,-0.2846208,-0.83124477,-0.30057362,0.49634594,-0.099528864,0.37630937,-0.0665122,0.29075375,-0.92495847,-2.1756022,-1.1013116,2.1202247,1.9066982,-1.0102149,0.31424436,-0.85673803,-2.1514773,-1.1421134,2.1257203,1.872416,-1.0039774,-0.51518035,-1.490437,-0.6243927,0.88855594,-0.4177357,0.3313398,-0.040179767,-0.45072174,-0.4442196,0.7787685,-0.7983392,0.050380148,-0.7716833,-0.3766365,-0.45012474,0.71668893,0.97488874,-0.012836062,0.18625157,0.12139756,-0.9842414,0.15603359,-0.67295927,0.0,1.0,0.0,0.0,0.0,0.0,0.0,-0.19927824,0.044219583,-0.22876847,-7.216674,0.0041007996,-12.436569,2.0828247,11.269146,-1.3871431,0.48904046
-15.963001,49.35627,8.277941,20.328424,2.0513828,0.014607221,-0.30928552,-0.27111197,-0.82587785,-0.33010104,0.52490216,-0.10035408,0.408917,-0.09139219,0.28713316,-0.9393258,-2.1844873,-1.0896232,2.1156847,1.9133077,-1.0131166,0.30890378,-0.8716039,-2.1581156,-1.133039,2.1223884,1.8756604,-1.0043797,-0.5399977,-1.4859089,-0.6770618,0.9145863,-0.30520976,0.32205346,-0.04000501,-0.4586792,-0.44358444,0.77085674,-0.7938046,0.06672241,-0.7999243,-0.38671875,-0.44836044,0.7099163,0.97623044,-0.011133988,0.18369983,0.114474736,-1.0130814,0.18695311,-0.6830716,0.0,1.0,0.0,0.0,0.0,0.0,0.0,-0.19132078,0.043584436,-0.22085673,-2.3658752,0.30462742,-5.25831,2.8806925,11.235696,-0.9695947,0.07845983
9.199534,60.07806,18.686062,14.319796,0.86364746,-0.112057894,0.07145503,-0.22011277,-0.82480466,-0.30197278,0.5209403,-0.14144501,0.4139245,-0.009037828,0.2868925,-0.9540844,-2.188313,-1.080945,2.108244,1.9170529,-1.0052835,0.30377492,-0.88642305,-2.164746,-1.1237829,2.1199098,1.8788358,-1.0047286,-0.5041034,-1.4810797,-0.65751755,0.92961884,-0.2298692,0.31577858,-0.033138406,-0.4663849,-0.44288063,0.76282257,-0.76314247,0.07133638,-0.8063205,-0.3967247,-0.4464817,0.70313394,0.9775624,-0.009590725,0.18086538,0.10755171,-0.99199134,0.19319525,-0.680917,0.0,1.0,0.0,0.0,0.0,0.0,0.0,-0.18361509,0.042880625,-0.21282256,3.5174131,0.3445387,2.2235632,1.5844345,7.2885723,-0.6697118,0.68584234
15.611671,59.87746,19.771929,11.501682,0.28412163,-0.25708967,0.2127877,-0.2128635,-0.8267458,-0.3455525,0.52112395,-0.17366478,0.37649107,0.049619157,0.28248858,-0.9690976,-2.1993012,-1.0716705,2.1025434,1.916485,-0.99976665,0.29913366,-0.90121263,-2.1712005,-1.1144395,2.1178548,1.8819319,-1.0049697,-0.4511769,-1.47874,-0.64017576,0.93598604,-0.19847275,0.30749428,-0.0211744,-0.47375107,-0.44216728,0.7547314,-0.7281122,0.07116979,-0.8118348,-0.40641785,-0.44463158,0.6963273,0.97882974,-0.008171885,0.17788804,0.10090231,-0.9572454,0.1866248,-0.68476355,0.0,1.0,0.0,0.0,0.0,0.0,0.0,-0.17624891,0.042167276,-0.2047314,5.179751,0.10051727,2.0493984,0.68472624,2.8730214,-0.87064505,1.165298
18.584852,58.44392,19.782993,9.260319,-0.068290204,-0.32664984,0.30622637,-0.19945179,-0.830777,-0.33644477,0.502409,-0.1852352,0.3484377,0.06550147,0.27918848,-0.98429036,-2.204845,-1.0641986,2.0993314,1.9167757,-0.9984196,0.29502857,-0.91600984,-2.177438,-1.1051682,2.115897,1.8849328,-1.0050873,-0.3973831,-1.4805027,-0.61737293,0.9243217,-0.19582489,0.29745376,-0.008685788,-0.48075485,-0.44147682,0.74656487,-0.6919841,0.068045095,-0.82058775,-0.41571808,-0.4428959,0.6894317,0.98001176,-0.006775146,0.17484544,0.09465803,-0.91543037,0.17302984,-0.69538605,0.0,1.0,0.0,0.0,0.0,0.0,0.0,-0.16924512,0.041476816,-0.19656485,5.2571416,-0.3047228,2.600181,-1.1275172,-0.01373291,-1.0485411,1.2081349
9.669409,57.85674,17.73753,11.526429,0.60592467,-0.14173996,0.1666389,-0.23440975,-0.8305653,-0.29393283,0.4818846,-0.030152274,0.30771908,0.014531425,0.27158758,-0.99906635,-2.2068312,-1.0569798,2.1128817,1.9157046,-1.0036341,0.29117292,-0.93083185,-2.1832983,-1.0961281,2.1143339,1.8878069,-1.0051252,-0.3818114,-1.483172,-0.5748337,0.8974297,-0.1445175,0.28393045,-0.0021240867,-0.48745346,-0.44078636,0.7382706,-0.6632449,0.06942144,-0.83400035,-0.42471695,-0.441185,0.68245083,0.9811577,-0.005470197,0.1715475,0.0887183,-0.8916272,0.17429425,-0.703071,0.0,1.0,0.0,0.0,0.0,0.0,0.0,-0.16254652,0.040786356,-0.18827057,1.5046537,-0.3948927,4.4893146,-2.6002407,4.880157,-1.4014363,0.66460925
10.194454,55.794117,16.767548,10.297368,0.6534819,-0.24334541,0.13106231,-0.19625151,-0.8297155,-0.3165905,0.4593503,0.05924499,0.27728623,-0.027152294,0.27154776,-1.0138034,-2.2149575,-1.0501931,2.1202583,1.9155356,-1.0078404,0.28751087,-0.94567484,-2.1888952,-1.0874441,2.1135228,1.8905323,-1.0051421,-0.3611549,-1.4849924,-0.5541156,0.85925364,-0.060913287,0.26863608,-0.00151607,-0.49389267,-0.44008827,0.7297891,-0.6381974,0.06974245,-0.8550618,-0.43351746,-0.439476,0.6753468,0.9823078,-0.004263193,0.1678208,0.08300142,-0.8720092,0.17293082,-0.7167671,0.0,1.0,0.0,0.0,0.0,0.0,0.0,-0.1561073,0.040088266,-0.17978907,2.0149708,-0.3045559,2.2844672,-3.722012,8.145221,-1.5948534,0.08580198
-1.0523275,53.91015,12.647399,13.367541,0.9259674,-0.17361692,0.009229209,-0.2180903,-0.8213713,-0.36756957,0.469354,0.03620079,0.25116163,0.049457964,0.26570183,-1.027812,-2.2256522,-1.0405086,2.117143,1.9156485,-1.0001963,0.28389078,-0.96049017,-2.194629,-1.079029,2.1133876,1.8930972,-1.0051036,-0.3622589,-1.480782,-0.57919914,0.83620906,0.0017996898,0.25213525,0.0058196336,-0.5001221,-0.43936348,0.72107196,-0.61867815,0.07327572,-0.87947965,-0.44224167,-0.4377079,0.6680707,0.9834584,-0.002972981,0.16377014,0.07733098,-0.8679638,0.1817611,-0.73501265,0.0,1.0,0.0,0.0,0.0,0.0,0.0,-0.1498779,0.039363474,-0.17107195,-0.09890199,0.29404163,-2.3816466,-2.141118,6.127689,-1.7232955,0.7671885
-8.461666,55.104206,10.905123,16.579405,1.0095034,-0.05477193,-0.04693403,-0.22933704,-0.8224276,-0.37337524,0.5002163,-0.04907571,0.23709954,0.14317665,0.2609571,-1.042733,-2.2319665,-1.0290073,2.10848,1.9168072,-0.9907859,0.2801581,-0.9752635,-2.2007103,-1.0706047,2.113466,1.8954998,-1.0049216,-0.37683052,-1.4765804,-0.617481,0.8452179,0.009475232,0.23596822,0.022310525,-0.5061569,-0.4385872,0.7121643,-0.59930456,0.079089426,-0.89716053,-0.4509697,-0.43579102,0.66063476,0.98456985,-0.0014431081,0.15967791,0.07157569,-0.8697649,0.1981816,-0.75024474,0.0,1.0,0.0,0.0,0.0,0.0,0.0,-0.14384305,0.038587183,-0.16216427,-1.413554,0.28488636,-3.7208796,1.105082,0.6399062,-1.6885906,1.6681612
-5.9677854,59.152138,12.921993,16.646925,0.910405,0.014804333,-0.003535064,-0.22508924,-0.8178331,-0.34081757,0.48799747,-0.032640584,0.19357176,0.15919453,0.25764918,-1.0570468,-2.234792,-1.0218049,2.110202,1.914857,-0.9890021,0.2762872,-0.9899806,-2.206986,-1.0620792,2.1135361,1.8977219,-1.0045686,-0.39040563,-1.4704891,-0.6304131,0.85555786,0.005094389,0.21755953,0.03953482,-0.5119667,-0.4377575,0.70314693,-0.5762017,0.08423629,-0.90580314,-0.4596634,-0.43371773,0.6531005,0.98562115,0.00030227457,0.15564634,0.065764174,-0.86440784,0.21394901,-0.75812864,0.0,1.0,0.0,0.0,0.0,0.0,0.0,-0.13803327,0.037757486,-0.15314692,-1.3345957,0.47204494,-1.1385441,1.2078404,-0.60853165,-1.9085854,1.7209907
-8.55785,57.33417,12.106072,15.973325,1.2523661,0.05911985,-0.033877406,-0.25916612,-0.8234222,-0.32983616,0.4437206,0.11946422,0.07711547,0.1467281,0.2503706,-1.0723228,-2.2399695,-1.0177071,2.1254826,1.9054334,-0.98989576,0.27215117,-1.0046735,-2.2132466,-1.0536586,2.113961,1.89969,-1.004067,-0.4212029,-1.4693234,-0.6243352,0.8382145,0.05411219,0.18956475,0.05370091,-0.51758957,-0.43686676,0.6939785,-0.5584694,0.09059546,-0.9226644,-0.46836853,-0.43144035,0.64546824,0.9866496,0.002164408,0.15142585,0.059899718,-0.86743796,0.23570886,-0.7686064,0.0,1.0,0.0,0.0,0.0,0.0,0.0,-0.1324104,0.036866754,-0.14397848,-3.0418634,-0.015735626,0.7380724,-1.5504718,4.7282968,-2.887371,1.4488869
-4.567771,59.122902,13.760002,15.23316,1.1872914,0.0629839,0.0034854356,-0.25091046,-0.8267172,-0.311667,0.45689636,0.13286693,0.060547974,0.19415198,0.24706012,-1.0873452,-2.2444134,-1.007969,2.1272476,1.9057448,-0.98465174,0.26778102,-1.0193849,-2.2193093,-1.0453788,2.1149197,1.9013847,-1.0034068,-0.4422163,-1.4721367,-0.59991413,0.8252863,0.10881687,0.16239193,0.070167296,-0.5230179,-0.43592262,0.6846823,-0.5387844,0.09554911,-0.93452823,-0.47706223,-0.42897034,0.63775796,0.98766804,0.0040281145,0.14688955,0.054029044,-0.86578995,0.25443473,-0.77537864,0.0,1.0,0.0,0.0,0.0,0.0,0.0,-0.1269821,0.035922617,-0.1346823,-2.085781,-0.40926933,2.6079059,-1.1319637,5.2817717,-2.8082461,1.6777359
3.4389968,58.659527,14.694718,11.636815,0.40893704,-0.09611449,0.16725114,-0.23041227,-0.81956774,-0.34061489,0.42722848,0.023290507,-0.001035324,0.23709328,0.24473979,-1.1013416,-2.2533708,-1.002656,2.1172488,1.9012812,-0.9796974,0.2633646,-1.0340962,-2.225269,-1.0373397,2.1160269,1.9027901,-1.0025691,-0.4415193,-1.4712477,-0.5939327,0.7971716,0.110297054,0.13300744,0.08822607,-0.5282135,-0.43497086,0.6752593,-0.51443744,0.09482368,-0.9476776,-0.48560715,-0.42643738,0.62991714,0.9886424,0.006037941,0.14218046,0.048316583,-0.84667075,0.25692135,-0.7904784,0.0,1.0,0.0,0.0,0.0,0.0,0.0,-0.121786475,0.03497085,-0.12525928,0.047659874,-0.0313282,0.79147816,-2.6906013,-0.049957633,-3.0226529,1.7992213
12.714933,64.43085,18.832214,10.345656,0.13973689,-0.110580355,0.27071196,-0.21566175,-0.8163078,-0.2687142,0.4207175,0.050521374,-0.058420505,0.28375638,0.24179843,-1.1157271,-2.2521405,-0.9952679,2.121079,1.896948,-0.97419345,0.25908405,-1.0487789,-2.2308826,-1.0295808,2.1171231,1.9038883,-1.0015347,-0.4238056,-1.4675933,-0.54969376,0.76909107,0.10842123,0.10181697,0.10849868,-0.5331192,-0.43405342,0.6658078,-0.48365083,0.09070128,-0.9470239,-0.49386978,-0.4239483,0.6220086,0.9895598,0.00811957,0.13733643,0.042942468,-0.8136672,0.24983199,-0.7942863,0.0,1.0,0.0,0.0,0.0,0.0,0.0,-0.116880774,0.034053415,-0.11580777,1.7070413,0.25234222,4.686296,-2.7504206,-0.43507218,-3.1869233,1.9953281
4.99157,64.56831,17.019901,12.819268,0.49841374,-0.0063811243,0.16991392,-0.25057518,-0.816458,-0.2671286,0.41969496,0.06360919,-0.12206321,0.2958316,0.23402652,-1.1304247,-2.2575955,-0.98761135,2.1234841,1.891682,-0.97195154,0.25483075,-1.0634254,-2.2360785,-1.0220414,2.118202,1.9046546,-1.0003045,-0.4259077,-1.4640505,-0.50853485,0.74927497,0.10679137,0.06803233,0.12765874,-0.53775024,-0.43315697,0.656365,-0.4569764,0.089423984,-0.946206,-0.50187683,-0.42145348,0.6140746,0.9904261,0.010240133,0.13236031,0.037840955,-0.79210246,0.25258178,-0.79633695,0.0,1.0,0.0,0.0,0.0,0.0,0.0,-0.11224973,0.03315696,-0.106364965,-0.23641586,0.23989677,4.329574,-1.881361,-0.3848791,-3.4509718,1.9028902
7.792829,63.486988,16.851599,11.014835,0.17477909,-0.084203154,0.23284173,-0.23222537,-0.81258136,-0.26794434,0.38445532,0.01407431,-0.18622981,0.31385794,0.23160821,-1.1446836,-2.262873,-0.9835959,2.1196094,1.8860316,-0.9689187,0.25060692,-1.0780262,-2.2409546,-1.0147917,2.1191158,1.9050682,-0.99889195,-0.4213639,-1.4590291,-0.48008713,0.71729934,0.08553407,0.03229651,0.14562793,-0.54211044,-0.43229103,0.6469059,-0.4299454,0.08560511,-0.9489659,-0.5096321,-0.41898537,0.6060762,0.99123603,0.012497188,0.12729467,0.03303125,-0.7648687,0.24821328,-0.804108,0.0,1.0,0.0,0.0,0.0,0.0,0.0,-0.10788953,0.032291025,-0.09690589,0.42186975,0.39405823,3.0475676,-3.104663,-2.3366795,-3.6457055,1.777485
