Afshin1997/kuka_rl_ros2/src/catch_and_throw/input_files/idealpd/polynomial_regressor/optimizer_files/env_318_data.csv
torque0,torque1,torque2,torque3,torque4,torque5,torque6,action0,action1,action2,action3,action4,action5,action6,set_target_0,set_target_1,set_target_2,set_target_3,set_target_4,set_target_5,set_target_6,joint_pos_0,joint_pos_1,joint_pos_2,joint_pos_3,joint_pos_4,joint_pos_5,joint_pos_6,joint_vel_0,joint_vel_1,joint_vel_2,joint_vel_3,joint_vel_4,joint_vel_5,joint_vel_6,tennisball_pos_0,tennisball_pos_1,tennisball_pos_2,tennisball_lin_vel_0,tennisball_lin_vel_1,tennisball_lin_vel_2,end_effector_pos_0,end_effector_pos_1,end_effector_pos_2,end_effector_rot_0,end_effector_rot_1,end_effector_rot_2,end_effector_rot_3,end_effector_lin_vel_0,end_effector_lin_vel_1,end_effector_lin_vel_2,obs_task_0,obs_task_1,obs_task_2,obs_task_3,obs_task_4,obs_task_5,obs_task_6,to_final_target_0,to_final_target_1,to_final_target_2,joint_acc_0,joint_acc_1,joint_acc_2,joint_acc_3,joint_acc_4,joint_acc_5,joint_acc_6
0.0,0.0,0.0,0.0,0.0,0.0,0.0,0.0,0.0,0.0,0.0,0.0,0.0,0.0,1.7802359,-1.0646509,-1.8151424,-1.1170107,1.9373155,1.1170107,-0.91629785,1.7802359,-1.0646509,-1.8151424,-1.1170107,1.9373155,1.1170107,-0.91629785,0.0,0.0,0.0,0.0,0.0,0.0,0.0,2.9590912,-0.57215405,0.119813934,-3.1034486,-0.11546071,5.442574,0.5304146,-0.4544952,0.693097,0.5745483,0.17512383,0.15255436,0.7848268,0.0,0.0,0.0,1.0,0.0,0.0,0.0,0.0,0.0,0.0,-3.6090913,0.17215404,0.4301861,0.0,0.0,0.0,0.0,0.0,0.0,0.0
0.0,0.0,0.0,0.0,0.0,0.0,0.0,0.0,0.0,0.0,0.0,0.0,0.0,0.0,1.7802359,-1.0646509,-1.8151424,-1.1170107,1.9373155,1.1170107,-0.91629785,1.7802359,-1.0646509,-1.8151424,-1.1170107,1.9373155,1.1170107,-0.91629785,0.0,0.0,0.0,0.0,0.0,0.0,0.0,2.9590912,-0.57215405,0.119813934,-3.1034486,-0.11546071,5.442574,0.5304146,-0.4544952,0.693097,0.5745483,0.17512383,0.15255436,0.7848268,0.0,0.0,0.0,1.0,0.0,0.0,0.0,0.0,0.0,0.0,-3.6090913,0.17215404,0.4301861,0.0,0.0,0.0,0.0,0.0,0.0,0.0
0.0,0.0,0.0,0.0,0.0,0.0,0.0,0.0,0.0,0.0,0.0,0.0,0.0,0.0,1.7802359,-1.0646509,-1.8151424,-1.1170107,1.9373155,1.1170107,-0.91629785,1.7802359,-1.0646509,-1.8151424,-1.1170107,1.9373155,1.1170107,-0.91629785,0.0,0.0,0.0,0.0,0.0,0.0,0.0,2.9590912,-0.57215405,0.119813934,-3.1034486,-0.11546071,5.442574,0.5304146,-0.4544952,0.693097,0.5745483,0.17512383,0.15255436,0.7848268,0.0,0.0,0.0,1.0,0.0,0.0,0.0,0.0,0.0,0.0,-3.6090913,0.17215404,0.4301861,0.0,0.0,0.0,0.0,0.0,0.0,0.0
-176.0,46.126186,-14.965828,110.0,10.810171,3.9823627,-3.8091927,-0.79872507,0.230281,-0.5480606,0.7504257,0.09821238,0.6804638,-0.59402823,1.7003634,-1.0416228,-1.8699485,-1.0419681,1.9471368,1.185057,-0.9757007,1.7791601,-1.0629495,-1.8210895,-1.1117617,1.9410272,1.1221682,-0.9176616,-0.14295356,0.22615796,-0.79254436,0.70047075,0.494247,0.68618834,-0.18136112,2.9280815,-0.5733075,0.17346239,-3.1003458,-0.11534527,5.3389463,0.5284462,-0.45775843,0.6936145,0.57839,0.1736248,0.15149552,0.7825398,-0.2622534,-0.43528032,0.068797,1.0,0.0,0.0,0.0,0.0,0.0,0.0,-3.5780816,0.17330751,0.37653762,-14.191292,22.4327,-79.16536,70.184296,49.242638,68.18775,-17.990171
-176.0,-56.929787,-56.141865,110.0,12.578425,0.56346524,-3.0371814,-0.7864084,-0.29378563,-0.5475491,0.7118852,0.18314324,0.6675395,-0.57316685,1.7005193,-1.0923281,-1.8758445,-1.0405731,1.9593415,1.1889222,-0.97497827,1.7783495,-1.061582,-1.8361957,-1.0964743,1.9482923,1.1355425,-0.9178762,-0.06530951,0.091503866,-1.7104238,1.8047391,0.7835857,1.5119041,0.021373762,2.8971024,-0.57446,0.22607535,-3.0972462,-0.11522995,5.235422,0.52410126,-0.46632266,0.6938035,0.5867111,0.17003386,0.14846933,0.7776988,-0.49222046,-0.99411213,0.006563915,1.0,0.0,0.0,0.0,0.0,0.0,0.0,-3.5471025,0.17446002,0.32392466,6.3542604,-18.129488,-79.95866,110.426476,22.839117,69.79175,17.111338
-155.24588,98.53607,28.983038,91.79103,8.946571,7.8658333,-1.4735246,-0.73824614,0.11009784,0.24136846,0.6749463,0.32709005,0.70063716,-0.45732147,1.7045249,-1.0505722,-1.8120588,-1.0289797,1.9810013,1.2056062,-0.9636083,1.7745215,-1.0606436,-1.8505104,-1.0766131,1.956244,1.1505591,-0.9178638,-0.48845404,0.09152666,-1.3319391,2.0484252,0.7934598,1.4926462,-0.006086509,2.8661537,-0.5756116,0.27765384,-3.0941496,-0.11511475,5.132002,0.51693535,-0.47784448,0.6954194,0.5976392,0.16483352,0.14373599,0.77136064,-0.79865795,-1.1977034,0.21682075,1.0,0.0,0.0,0.0,0.0,0.0,0.0,-3.5161538,0.17561159,0.27234617,-42.249954,-0.9177223,39.78014,24.932076,-0.7078171,-3.6100864,-2.9243853
-107.241035,69.79397,28.57054,54.0127,6.274662,6.9189415,0.1074261,-0.7494109,-0.22272763,0.32991195,0.68554425,0.35337302,0.6853185,-0.5437593,1.6995804,-1.0829163,-1.8175192,-1.0080587,1.9915813,1.2190909,-0.97223973,1.7663332,-1.0611547,-1.858218,-1.0569082,1.9636216,1.1645514,-0.9183015,-0.9293612,-0.10049199,-0.57718056,1.9458435,0.7130541,1.3654461,-0.056508876,2.8352356,-0.5767617,0.3281989,-3.091056,-0.11499965,5.0286846,0.50717926,-0.490484,0.69848824,0.6092097,0.15855992,0.1369813,0.76482576,-1.0457231,-1.2748969,0.33981058,1.0,0.0,0.0,0.0,0.0,0.0,0.0,-3.4852357,0.17676172,0.2218011,-44.17715,-19.694036,77.4473,-9.848833,-9.862816,-13.539147,-5.067964
-49.982708,111.18962,47.324863,30.930275,3.1634068,7.052498,0.68542963,-0.76763344,-0.029426461,0.37649933,0.6850044,0.4906856,0.69129014,-0.54609925,1.6895698,-1.0640974,-1.820568,-0.9884078,2.01269,1.2336804,-0.9729115,1.7544371,-1.0625662,-1.858382,-1.0394541,1.9704804,1.1771265,-0.9192857,-1.2769526,-0.15616672,0.17619629,1.6786537,0.67215097,1.2203542,-0.11340619,2.804348,-0.5779109,0.3777116,-3.0879657,-0.114884675,4.9254704,0.49547577,-0.50285053,0.70296115,0.6203135,0.15133663,0.12844887,0.75882083,-1.2239387,-1.2119179,0.4828158,1.0,0.0,0.0,0.0,0.0,0.0,0.0,-3.454348,0.1779109,0.17228842,-34.93719,-6.011218,77.03693,-26.729225,-5.5257797,-14.878488,-6.026879
-17.827929,86.37445,34.662926,12.785522,1.1760229,4.2547026,0.6766347,-0.7866459,-0.093592525,0.31679106,0.67962414,0.49701345,0.67507774,-0.5885483,1.6757725,-1.0719254,-1.8267028,-0.9714917,2.020182,1.2446343,-0.97814053,1.7401243,-1.0644449,-1.85307,-1.0246588,1.9771085,1.1883684,-0.9208173,-1.4829777,-0.19919544,0.65241045,1.412923,0.65710527,1.0923426,-0.16716407,2.773491,-0.57905865,0.4261929,-3.0848784,-0.11476982,4.82236,0.4826355,-0.51445675,0.7081853,0.63062954,0.1436855,0.11881648,0.75335485,-1.3167713,-1.1322657,0.53246605,1.0,0.0,0.0,0.0,0.0,0.0,0.0,-3.423491,0.17905864,0.1238071,-20.69757,-4.547465,48.46789,-26.649975,-2.209878,-12.734318,-5.6004705
8.893386,145.74828,50.594364,12.981307,-0.9823439,4.4407544,0.014847815,-0.8052997,0.28466895,0.21372847,0.6714672,0.5042127,0.6781212,-0.5855318,1.6595944,-1.035978,-1.8316972,-0.9575121,2.0275297,1.2561805,-0.9793705,1.7246329,-1.0647482,-1.8454711,-1.0119635,1.9837384,1.1984907,-0.92284006,-1.5715765,0.024814961,0.79755557,1.2217405,0.66394997,0.9866578,-0.21549009,2.7426643,-0.58020544,0.4736439,-3.081794,-0.11465507,4.7193527,0.46922112,-0.5247512,0.7144005,0.64048004,0.13558893,0.10949432,0.74793845,-1.3612018,-0.9848341,0.646891,1.0,0.0,0.0,0.0,0.0,0.0,0.0,-3.3926644,0.18020543,0.07635611,-9.024882,22.06671,15.102709,-19.109226,0.43096542,-10.284769,-5.3030996
13.831077,134.17502,39.456276,10.41389,-2.0574288,2.510816,-0.5517072,-0.81054187,0.35836104,-0.019377928,0.6581576,0.4624271,0.67077243,-0.58888793,1.6435786,-1.0289121,-1.8474089,-0.94614774,2.0299811,1.265568,-0.98172885,1.7088648,-1.0623392,-1.838969,-1.0005442,1.9903741,1.2076956,-0.92528623,-1.5792325,0.31218946,0.6019314,1.1154915,0.66359705,0.8994261,-0.25556296,2.7118683,-0.5813513,0.5200656,-3.078713,-0.114540435,4.6164484,0.4557209,-0.5337086,0.7213759,0.6503461,0.1273702,0.101747274,0.7419395,-1.3571141,-0.85536474,0.71051705,1.0,0.0,0.0,0.0,0.0,0.0,0.0,-3.3618684,0.18135127,0.029934406,-0.96690655,28.498426,-19.31566,-10.596848,0.0136733055,-8.3868265,-4.3836207
18.810276,142.35658,40.260197,11.340358,-2.4177194,2.185789,-0.75754505,-0.8150635,0.5242658,-0.08494769,0.6343868,0.50506765,0.66663367,-0.57801175,1.6273584,-1.0099126,-1.8474637,-0.93710554,2.040881,1.274359,-0.9830874,1.6933066,-1.0566915,-1.8353298,-0.9897496,1.9971356,1.2161337,-0.92807287,-1.5487595,0.6480714,0.28551334,1.0672673,0.68046373,0.82585526,-0.28768504,2.6811028,-0.5824957,0.565459,-3.0756347,-0.11442592,4.513647,0.44237518,-0.5413704,0.72905576,0.66050196,0.119180806,0.09613256,0.73504525,-1.3356336,-0.7245703,0.7841079,1.0,0.0,0.0,0.0,0.0,0.0,0.0,-3.3311028,0.18249568,-0.015459001,2.816105,33.346306,-31.375158,-4.855585,1.7503738,-7.1812987,-3.5930634
15.639362,120.799286,32.46176,10.821764,-1.996067,1.4687823,-0.7289638,-0.81572956,0.56502646,-0.16421707,0.6257037,0.5072702,0.65459,-0.58215046,1.6117336,-1.0001888,-1.8517514,-0.9271792,2.0478628,1.2815927,-0.9862879,1.6781241,-1.0482057,-1.8349388,-0.9791495,2.0040708,1.2239138,-0.931137,-1.5087731,0.9149359,-0.04219267,1.0570372,0.69789815,0.7622459,-0.3137383,2.6503677,-0.58363914,0.6098252,-3.0725598,-0.11431152,4.410948,0.42926407,-0.54795885,0.73724324,0.67101204,0.111157425,0.092547484,0.7272013,-1.3097115,-0.62360483,0.82852125,1.0,0.0,0.0,0.0,0.0,0.0,0.0,-3.3003678,0.18363914,-0.059825182,3.7929058,26.489841,-32.521484,-1.1791945,1.7837763,-6.3530684,-2.9358685
12.324883,104.621506,28.187819,11.073066,-1.3656095,1.2837969,-0.5769547,-0.8124017,0.6245602,-0.21822342,0.62188506,0.5198667,0.66951495,-0.58400685,1.5968839,-0.9857497,-1.8567611,-0.916961,2.0560575,1.2908653,-0.9895377,1.6633021,-1.03762,-1.837323,-0.9685103,2.011189,1.2311445,-0.93442625,-1.4738747,1.1058681,-0.30284962,1.0654165,0.71643,0.7095508,-0.33508334,2.6196651,-0.58478117,0.65316516,-3.0694878,-0.114197224,4.3083515,0.4163437,-0.5537076,0.7457654,0.6818069,0.10333298,0.09055335,0.71851355,-1.2911531,-0.5443825,0.85929286,1.0,0.0,0.0,0.0,0.0,0.0,0.0,-3.2696652,0.18478116,-0.10316515,3.3020496,18.91954,-25.760931,0.5957842,1.845026,-5.393386,-2.4577856
10.889322,89.117165,24.846352,10.050886,-0.7905464,1.196449,-0.33573896,-0.80658436,0.6553601,-0.24473807,0.60553604,0.5370636,0.6680754,-0.58496326,1.5826436,-0.9720839,-1.8617967,-0.9079567,2.0648954,1.297952,-0.99292254,1.6487585,-1.0257238,-1.8415802,-0.9578158,2.0185056,1.2379137,-0.9379005,-1.4484539,1.2169787,-0.46557635,1.0698767,0.7365851,0.66552305,-0.35267013,2.588995,-0.58592224,0.6954799,-3.0664191,-0.11408305,4.2058578,0.4035492,-0.5587826,0.75448674,0.6927131,0.09568098,0.08959162,0.70920163,-1.2797623,-0.4802613,0.8763936,1.0,0.0,0.0,0.0,0.0,0.0,0.0,-3.238995,0.18592224,-0.14547992,2.3584127,10.964823,-15.8898945,0.15385151,1.9626498,-4.5672417,-2.089715
11.362894,81.341835,24.298512,9.199099,-0.35059792,1.3356428,-0.08838444,-0.803262,0.68097246,-0.23269966,0.58764696,0.558726,0.6653119,-0.5868318,1.5684323,-0.9576266,-1.8648502,-0.89905113,2.0743783,1.3044449,-0.99658364,1.6343905,-1.0131487,-1.8466766,-0.9471709,2.0260472,1.2442976,-0.94153017,-1.4337306,1.2707491,-0.52247363,1.0616431,0.7597665,0.6287792,-0.36747834,2.5583553,-0.58706236,0.7367705,-3.0633533,-0.11396899,4.1034665,0.39081573,-0.5632529,0.76335317,0.7035255,0.08811322,0.08913012,0.6995311,-1.2753062,-0.42057452,0.8909019,1.0,0.0,0.0,0.0,0.0,0.0,0.0,-3.2083554,0.18706235,-0.1867705,1.2732506,5.2467346,-5.191815,-1.129508,2.211237,-3.8522959,-1.8330276
12.37466,75.78477,23.784885,8.1586,-0.09709692,1.4015348,0.09898641,-0.8006546,0.6925868,-0.21902849,0.56688756,0.5772617,0.6680032,-0.58897656,1.554325,-0.94389,-1.8685794,-0.8904822,2.0837734,1.311098,-1.0004278,1.6201082,-1.0003237,-1.8517826,-0.93672055,2.033833,1.2503649,-0.94528955,-1.427235,1.286095,-0.50453305,1.0385102,0.78452903,0.5990177,-0.3800164,2.5277462,-0.58820105,0.7770379,-3.0602906,-0.11385504,4.001178,0.37809944,-0.5671387,0.7723355,0.7140716,0.080544874,0.08877698,0.68973386,-1.2737395,-0.36232278,0.90160936,1.0,0.0,0.0,0.0,0.0,0.0,0.0,-3.1777463,0.18820104,-0.2270379,0.4395485,1.4224052,2.3647785,-2.6181698,2.3404837,-3.129232,-1.6170204
12.747096,73.9324,23.526596,8.128775,-0.022635281,1.4363015,0.16045564,-0.7958481,0.707091,-0.21507895,0.5616903,0.5657602,0.6795113,-0.583279,1.5405234,-0.92961454,-1.8732904,-0.8805515,2.090409,1.318316,-1.0036174,1.6058661,-0.9874548,-1.856467,-0.9265124,2.0417829,1.2561861,-0.9491548,-1.4238765,1.2868264,-0.4545128,1.013989,0.7983374,0.5760025,-0.38984635,2.4971676,-0.5893388,0.8162832,-3.057231,-0.11374121,3.8989918,0.36538887,-0.5704398,0.7814207,0.72427404,0.072901726,0.088369794,0.6799288,-1.2726905,-0.30368966,0.91149986,1.0,0.0,0.0,0.0,0.0,0.0,0.0,-3.1471677,0.18933877,-0.2662832,0.12590885,-0.030493736,5.5965185,-2.7446747,1.2402058,-2.4345636,-1.3486743
10.830592,72.17823,22.377014,9.105459,0.058172286,1.3738766,0.1275122,-0.7957853,0.7182687,-0.22620916,0.5617091,0.5703074,0.6883953,-0.57950944,1.5262876,-0.9156279,-1.8790879,-0.87034154,2.0988135,1.3250257,-1.0071057,1.5916373,-0.97459066,-1.8607013,-0.9164979,2.0498357,1.2618185,-0.95310014,-1.4233716,1.2858584,-0.41140485,0.9964487,0.80727893,0.5583874,-0.39734158,2.4666195,-0.5904751,0.85450745,-3.0541742,-0.11362749,3.796908,0.35267448,-0.5731821,0.79058856,0.73414505,0.06515705,0.08789851,0.6701189,-1.2730666,-0.24901392,0.9187606,1.0,0.0,0.0,0.0,0.0,0.0,0.0,-3.1166196,0.19047508,-0.30450743,-0.14834404,-0.19459724,4.8767033,-2.0306945,0.7691026,-1.8866062,-1.0990262
12.153498,71.813995,22.028736,8.437146,-0.029310942,1.3002582,0.15900426,-0.7938899,0.7228597,-0.20433405,0.5338852,0.5844161,0.69039214,-0.5756997,1.5122483,-0.9023047,-1.8811347,-0.86310935,2.1082773,1.3308578,-1.0106701,1.5774103,-0.96172655,-1.8645141,-0.90672463,2.0579839,1.2673022,-0.9571075,-1.4230964,1.2863088,-0.36941245,0.9699883,0.81732494,0.5447254,-0.4029509,2.436102,-0.59161043,0.8917116,-3.0511208,-0.11351389,3.694926,0.3399849,-0.5753627,0.7998092,0.7436737,0.057318147,0.08737804,0.660325,-1.2693082,-0.19222389,0.9231469,1.0,0.0,0.0,0.0,0.0,0.0,0.0,-3.086102,0.19161043,-0.34171158,-0.17256737,-0.044465065,4.762024,-2.9236555,0.885272,-1.4603257,-0.90653896
14.704105,73.42842,22.534634,7.4861946,-0.1635896,1.2791852,0.21408361,-0.79318947,0.73032254,-0.16837917,0.50121236,0.59913987,0.6886554,-0.57737005,1.4980913,-0.8886943,-1.8813521,-0.8566034,2.1178977,1.3361677,-1.0148445,1.5631853,-0.9488214,-1.8678558,-0.89731854,2.066258,1.2726694,-0.96116346,-1.4229295,1.2916499,-0.32054123,0.92986465,0.8303433,0.53382754,-0.40764868,2.4056149,-0.5927448,0.92789674,-3.0480702,-0.1134004,3.5930462,0.32736588,-0.57693434,0.80907625,0.7528121,0.04938078,0.08680611,0.6506152,-1.2599257,-0.13012144,0.9275057,1.0,0.0,0.0,0.0,0.0,0.0,0.0,-3.055615,0.19274482,-0.37789673,-0.1912117,0.45044422,5.466318,-4.2919517,1.1796594,-1.1543751,-0.81759095
17.041119,76.4181,23.452896,7.1561975,-0.28029478,1.3002771,0.24845217,-0.7902236,0.7426576,-0.13488391,0.47940826,0.6039819,0.6912547,-0.56768954,1.4841629,-0.87455565,-1.8813442,-0.8493777,2.126656,1.3417948,-1.0179324,1.5489756,-0.9358047,-1.8706634,-0.8883521,2.074654,1.2779452,-0.9652528,-1.4210144,1.3047274,-0.26538962,0.8846297,0.84263957,0.5254303,-0.4105488,2.3751583,-0.5938778,0.96306384,-3.0450227,-0.11328702,3.4912682,0.31487465,-0.57784224,0.8184133,0.761526,0.041316383,0.0861971,0.6410469,-1.2457458,-0.062473845,0.9350934,1.0,0.0,0.0,0.0,0.0,0.0,0.0,-3.0251584,0.19387779,-0.41306382,-0.020289421,1.2266636,6.1045885,-4.7961354,1.1090517,-0.8883357,-0.6388426
20.283007,77.61368,24.156391,5.614936,-0.41317087,1.2880894,0.35306352,-0.79567724,0.74490905,-0.06811724,0.4227369,0.6217952,0.68597203,-0.5682329,1.4694079,-0.8613138,-1.8774751,-0.8460784,2.1368337,1.3465424,-1.0220761,1.5347601,-0.9226564,-1.8727272,-0.88000745,2.0832028,1.2831465,-0.96936697,-1.4226469,1.3178879,-0.18479185,0.81687367,0.8584991,0.51860356,-0.41285074,2.3447323,-0.5950098,0.9972139,-3.0419784,-0.11317375,3.389592,0.30257034,-0.57802486,0.8278239,0.76974046,0.033109836,0.08550634,0.6317373,-1.2249161,0.011265593,0.9417924,1.0,0.0,0.0,0.0,0.0,0.0,0.0,-2.9947324,0.1950098,-0.4472139,-0.38235188,1.2459278,8.67019,-7.0436716,1.4620066,-0.684011,-0.5785227
20.310604,75.33701,22.72657,5.4403253,-0.51240206,1.071261,0.30858073,-0.7873501,0.75602025,-0.08067359,0.40781367,0.6165304,0.6898169,-0.55147207,1.4560251,-0.84705436,-1.8807945,-0.83922607,2.144856,1.3521281,-1.0245142,1.5205618,-0.9093536,-1.8741901,-0.8722941,2.0918698,1.2882963,-0.97348684,-1.4193796,1.3342625,-0.13159561,0.75530314,0.86931026,0.51387256,-0.41276738,2.3143368,-0.59614086,1.030348,-3.0389369,-0.1130606,3.2880173,0.29050446,-0.5775013,0.83726114,0.7774702,0.024796952,0.08479913,0.6226832,-1.198865,0.08050292,0.9427079,1.0,0.0,0.0,0.0,0.0,0.0,0.0,-2.9643369,0.19614086,-0.48034793,0.13048649,1.5846729,5.8444796,-6.412995,1.0055184,-0.43115616,-0.31121373
21.973995,70.89367,20.979504,3.3513212,-0.7062825,0.7811336,0.3451035,-0.78778654,0.758275,-0.06074382,0.3420479,0.6289814,0.69029325,-0.5467875,1.4417832,-0.83352613,-1.8802645,-0.83808935,2.154768,1.3573257,-1.0281656,1.5063978,-0.89590967,-1.8752258,-0.8653409,2.1006513,1.2934119,-0.97759813,-1.4160603,1.3476906,-0.09260224,0.67434883,0.8811615,0.5110282,-0.41165555,2.2839718,-0.5972705,1.062467,-3.0358987,-0.11294756,3.1865442,0.27876472,-0.57630825,0.84662265,0.78470814,0.016472396,0.08414007,0.6139072,-1.1633956,0.1461589,0.9319255,1.0,0.0,0.0,0.0,0.0,0.0,0.0,-2.933972,0.19727048,-0.51246697,0.14808178,1.3150215,4.362196,-8.355951,1.1431098,-0.16251802,-0.18281937
26.828022,68.771484,20.403214,-0.1886673,-1.0696537,0.5189636,0.45141947,-0.78497046,0.7681449,-0.027561542,0.24862784,0.643058,0.6889353,-0.5434743,1.4279008,-0.8190952,-1.8779819,-0.8404781,2.164957,1.3623054,-1.0319456,1.4922758,-0.8823236,-1.8758743,-0.85947007,2.1095738,1.2985064,-0.98169607,-1.4115193,1.3621372,-0.054271687,0.55704796,0.89556706,0.5097632,-0.40999526,2.2536373,-0.59839916,1.0935721,-3.0328634,-0.11283464,3.0851724,0.2674904,-0.5744381,0.8558027,0.79138714,0.008246238,0.08356964,0.60552,-1.1123884,0.21389888,0.9108047,1.0,0.0,0.0,0.0,0.0,0.0,0.0,-2.9036374,0.19839916,-0.5435721,0.27644634,1.4425755,4.258684,-11.996567,1.4224052,0.09481907,-0.109404325
36.08056,67.40747,20.929607,-6.182123,-1.612268,0.2529726,0.6922199,-0.7803969,0.7695839,0.049552046,0.10732222,0.65754575,0.68126446,-0.5273568,1.4142362,-0.8053652,-1.8709191,-0.84873784,2.1753285,1.3666328,-1.0344317,1.478211,-0.8686222,-1.8758914,-0.85523576,2.1186566,1.3035933,-0.98576444,-1.4051983,1.3728806,0.016997416,0.37808862,0.9127913,0.5096638,-0.40671685,2.2233315,-0.5995269,1.1236643,-3.0298312,-0.11272182,2.9839022,0.25689888,-0.57182646,0.86468565,0.7973412,0.00023002917,0.083071955,0.5977842,-1.0375569,0.28915507,0.8779394,1.0,0.0,0.0,0.0,0.0,0.0,0.0,-2.8733315,0.19952688,-0.57366425,0.46658516,1.106,7.522403,-18.157536,1.7274499,0.35625696,0.071400404
47.445568,66.07458,21.437445,-13.974309,-2.3941445,-0.12261331,0.9685537,-0.776954,0.78011924,0.114869125,-0.08695042,0.6694645,0.67104614,-0.5201545,1.4005157,-0.79061025,-1.8644046,-0.8639308,2.1856031,1.3706979,-1.0377799,1.4642187,-0.8547996,-1.874995,-0.8534152,2.1279225,1.308684,-0.9897947,-1.3978628,1.3856364,0.114719145,0.11589955,0.9312924,0.5106433,-0.4025225,2.1930542,-0.6006532,1.1527445,-3.026802,-0.112609126,2.882733,0.24729156,-0.5683861,0.8731187,0.8023619,-0.0074099023,0.08265729,0.59103984,-0.93053573,0.37323648,0.82854617,1.0,0.0,0.0,0.0,0.0,0.0,0.0,-2.8430543,0.20065317,-0.6027445,0.6009102,1.3473749,10.086378,-26.450834,1.9022346,0.6441474,0.21076202
51.44199,66.48016,21.879992,-15.987859,-2.6121237,-0.32099116,1.0571992,-0.7661221,0.7924204,0.16931334,-0.20556611,0.6804175,0.6629794,-0.47829768,1.3876065,-0.7755576,-1.8580637,-0.8739718,2.1959643,1.3749819,-1.0376245,1.450337,-0.84082067,-1.8730438,-0.8543393,2.1373754,1.3137823,-0.99375147,-1.3850759,1.402361,0.22257474,-0.16237827,0.95069695,0.51155436,-0.39395905,2.1628075,-0.6017785,1.1808138,-3.0237758,-0.11249654,2.781665,0.2388382,-0.56409883,0.88104576,0.8063666,-0.014595893,0.08234221,0.5854737,-0.8116272,0.4562572,0.77708715,1.0,0.0,0.0,0.0,0.0,0.0,0.0,-2.8128076,0.2017785,-0.6308138,1.2140512,1.7761707,10.920972,-27.984243,2.0946622,0.69921017,0.72067976
46.471504,67.434784,22.099613,-11.530375,-2.126974,-0.24123932,0.95982105,-0.75905025,0.79406923,0.24577592,-0.25841114,0.6815648,0.6562054,-0.43433252,1.3744321,-0.76141375,-1.8484662,-0.8801804,2.2055318,1.3794029,-1.0371847,1.4366003,-0.8266977,-1.8699043,-0.85765713,2.146996,1.3188807,-0.99759287,-1.3697923,1.4160833,0.34426168,-0.38846385,0.9666784,0.5112247,-0.3810917,2.1325912,-0.6029024,1.2078732,-3.0207527,-0.112384066,2.6806982,0.23146248,-0.55903864,0.88855946,0.80943173,-0.021421969,0.08205699,0.5810576,-0.70726365,0.53001016,0.73852706,1.0,0.0,0.0,0.0,0.0,0.0,0.0,-2.7825913,0.2029024,-0.6578732,1.5245438,1.4965773,12.107027,-22.692621,1.8782496,0.5227566,1.2096763
38.150417,67.47123,21.737476,-5.0286484,-1.4350338,-0.09659222,0.7817627,-0.75036067,0.79460865,0.31026652,-0.2928908,0.6824693,0.6509586,-0.38407525,1.3615643,-0.74723685,-1.8388777,-0.8869462,2.2152429,1.3839766,-1.0360004,1.4230295,-0.8124746,-1.8655307,-0.86267537,2.1567426,1.3239695,-1.0012743,-1.3526092,1.4248161,0.46779653,-0.53969103,0.9788233,0.5094897,-0.36404973,2.1024055,-0.60402536,1.2339237,-3.0177326,-0.112271704,2.5798323,0.22494507,-0.5533209,0.8958073,0.81171566,-0.028057199,0.08171724,0.5776269,-0.6263944,0.59182495,0.7154303,1.0,0.0,0.0,0.0,0.0,0.0,0.0,-2.7524056,0.20402536,-0.68392366,1.7481565,1.0122776,12.138957,-15.173608,1.5995741,0.30385256,1.6578496
29.602396,72.023415,23.073856,3.3860269,-0.6190113,0.288303,0.5944146,-0.73437935,0.80024666,0.4045004,-0.2729192,0.67617553,0.63987887,-0.29708564,1.3495916,-0.73244995,-1.8250806,-0.88996726,2.2243602,1.3879573,-1.030983,1.4096686,-0.7981752,-1.8597972,-0.8684823,2.1665654,1.3290278,-1.0047324,-1.330381,1.4321916,0.60735637,-0.5944901,0.98488146,0.5057562,-0.3400007,2.0722504,-0.60514736,1.2589662,-3.0147154,-0.11215945,2.479067,0.2190113,-0.54701614,0.9030271,0.8133818,-0.034772802,0.081203766,0.57498425,-0.57509553,0.6486396,0.7188945,1.0,0.0,0.0,0.0,0.0,0.0,0.0,-2.7222505,0.20514736,-0.7089662,2.265358,0.8923054,13.614535,-5.5151463,1.1051655,0.014483929,2.3614407
15.526531,71.43375,21.985643,13.619981,0.41292357,0.6173916,0.30181873,-0.7326698,0.79693717,0.4517654,-0.19424564,0.66341466,0.64191246,-0.17658179,1.3364016,-0.7184815,-1.8146207,-0.88790685,2.2329068,1.393219,-1.0223906,1.3964945,-0.7838434,-1.8527725,-0.8740241,2.1763844,1.3340422,-1.0078776,-1.3131902,1.4340485,0.7329449,-0.54095554,0.9827186,0.5010564,-0.30643272,2.0421257,-0.6062679,1.2830018,-3.0117013,-0.11204732,2.3784027,0.2132988,-0.5402436,0.9104444,0.8146514,-0.041838624,0.08044176,0.57281893,-0.56315446,0.69169575,0.74362874,1.0,0.0,0.0,0.0,0.0,0.0,0.0,-2.6921258,0.20626792,-0.73300177,1.731658,0.34554005,12.18704,5.2826643,0.3250718,-0.21214485,3.2918513
-3.737751,66.64252,18.618254,25.473461,1.6207589,0.90079325,-0.12259336,-0.7504679,0.79460067,0.45284164,-0.06027978,0.65756565,0.64978075,-0.12909319,1.3214477,-0.7043833,-1.8074883,-0.8800521,2.242141,1.3990203,-1.0207869,1.3833491,-0.76952493,-1.8448417,-0.8781993,2.1861463,1.3390127,-1.0106776,-1.3152263,1.4317461,0.8121711,-0.37682575,0.9758475,0.49577528,-0.271555,2.0120316,-0.60738754,1.3060315,-3.0086904,-0.111935295,2.277839,0.20734024,-0.5332017,0.91823184,0.8158488,-0.049467962,0.07941926,0.5706454,-0.5994074,0.71351516,0.7845828,1.0,0.0,0.0,0.0,0.0,0.0,0.0,-2.6620317,0.20738754,-0.75603145,-0.26700497,-0.07362366,7.608354,16.268528,-0.16819239,-0.44864416,3.3955514
-17.563942,63.60833,16.297428,34.40391,2.4891412,1.1516794,-0.45276144,-0.7613554,0.79631937,0.46097797,0.08893872,0.6530056,0.65851164,-0.103381015,1.3072135,-0.689893,-1.798744,-0.86930543,2.2514467,1.404864,-1.0210156,1.3700815,-0.75522935,-1.836417,-0.8801047,2.195828,1.3439337,-1.0131419,-1.3311037,1.429316,0.8517329,-0.12906204,0.96707135,0.49041215,-0.23860165,1.9819679,-0.6085062,1.3280563,-3.0056822,-0.11182339,2.1773758,0.20074272,-0.5260391,0.92652774,0.8172539,-0.057831712,0.0781459,0.56801826,-0.6717698,0.7228578,0.8383711,1.0,0.0,0.0,0.0,0.0,0.0,0.0,-2.631968,0.2085062,-0.7780563,-1.7003298,-0.09338856,3.6871195,24.597792,-0.37742853,-0.6120384,3.1896174
-30.774887,55.73357,12.323237,41.356464,3.2304397,1.2346568,-0.7758007,-0.78658074,0.78503066,0.42899635,0.266313,0.64302534,0.6705656,-0.1250795,1.2914234,-0.6767263,-1.7935174,-0.8534734,2.2601304,1.4109902,-1.0256498,1.356526,-0.74100816,-1.8279827,-0.8790614,2.2054029,1.3488051,-1.0153296,-1.3641013,1.4201669,0.8398854,0.18144946,0.9556548,0.485354,-0.21254091,1.9519348,-0.60962343,1.3490772,-3.002677,-0.111711584,2.0770133,0.19319153,-0.518909,0.9353766,0.81912136,-0.06701182,0.07665961,0.5645111,-0.77554375,0.7163222,0.8938888,1.0,0.0,0.0,0.0,0.0,0.0,0.0,-2.601935,0.20962343,-0.7990772,-3.4472227,-0.77865124,-1.4248371,30.845732,-0.6670356,-0.7306874,2.5051327
-27.528229,52.56255,11.371685,37.923546,2.8355417,1.054964,-0.733562,-0.7958656,0.78507715,0.42697623,0.33525315,0.641129,0.669638,-0.16398309,1.2769395,-0.66250044,-1.785285,-0.8455361,2.2695158,1.4157689,-1.0317279,1.342631,-0.7268747,-1.819804,-0.87518376,2.214871,1.3536288,-1.0173209,-1.3984001,1.411528,0.8100021,0.45603952,0.94513565,0.48078772,-0.19483258,1.9219322,-0.6107397,1.3690953,-2.999675,-0.1115999,1.9767507,0.18468475,-0.5118184,0.9446781,0.82147086,-0.07692374,0.075037405,0.5600337,-0.867407,0.714604,0.9355939,1.0,0.0,0.0,0.0,0.0,0.0,0.0,-2.5719323,0.2107397,-0.8190953,-3.5538673,-0.7597208,-3.1773806,27.298296,-0.6372094,-0.6899476,1.6831547
-13.195998,48.826817,10.860992,25.5881,1.5464916,0.4679198,-0.43709883,-0.7999796,0.78662956,0.40405634,0.30293915,0.6516863,0.6736377,-0.2286568,1.262633,-0.6482118,-1.7793983,-0.8448898,2.2800395,1.4209925,-1.0401865,1.3284498,-0.7128023,-1.8120277,-0.8694846,2.2242818,1.3584238,-1.019211,-1.4250238,1.4060881,0.76675314,0.60743904,0.94057375,0.47890723,-0.187352,1.8919563,-0.61185503,1.3881116,-2.996676,-0.11148832,1.8765885,0.17562103,-0.50468016,0.95414215,0.82410467,-0.08724487,0.07342644,0.55484086,-0.91139483,0.72289217,0.943237,1.0,0.0,0.0,0.0,0.0,0.0,0.0,-2.5419564,0.21185502,-0.8381116,-2.7691603,-0.477314,-4.3854594,15.001833,-0.16838312,-0.26004314,0.6617367
3.2555275,46.02334,10.94519,11.937821,0.16355985,-0.18030408,-0.061000086,-0.8015532,0.7831237,0.3952303,0.24687319,0.65695703,0.6707239,-0.25406063,1.2482945,-0.6344899,-1.7725047,-0.8447973,2.2899776,1.4254962,-1.0446172,1.3140837,-0.6987785,-1.8046482,-0.86327904,2.2336774,1.3632132,-1.0210669,-1.4406914,1.4012634,0.72843295,0.624556,0.93978375,0.47960603,-0.18526131,1.862011,-0.6129689,1.406127,-2.9936798,-0.11137686,1.7765263,0.16652298,-0.49740148,0.9634329,0.82674545,-0.09758124,0.07197368,0.5493538,-0.90108776,0.7395157,0.9174191,1.0,0.0,0.0,0.0,0.0,0.0,0.0,-2.512011,0.21296892,-0.85612696,-1.6675234,-0.44219494,-3.7435532,1.5703797,0.075018406,0.21930933,0.10726154
14.220327,45.990192,11.57011,3.3455563,-0.74375707,-0.59800094,0.19691479,-0.8055898,0.7852001,0.38917905,0.21233782,0.6540664,0.6685255,-0.24787743,1.2335247,-0.6202585,-1.7657303,-0.84204525,2.299084,1.4300658,-1.0458547,1.2996184,-0.6847776,-1.7975719,-0.85754174,2.2430654,1.3680178,-1.0229075,-1.4487845,1.3997545,0.7013151,0.55641145,0.9386121,0.48193136,-0.18403347,1.8320961,-0.61408186,1.4231424,-2.990687,-0.1112655,1.6765641,0.15780067,-0.48991776,0.9723325,0.8291824,-0.10765882,0.070782244,0.54392636,-0.8543875,0.7612803,0.87397546,1.0,0.0,0.0,0.0,0.0,0.0,0.0,-2.4820962,0.21408185,-0.8731424,-0.9016514,-0.12216568,-2.5342464,-6.9480658,-0.046551228,0.5264759,0.014063716
19.429354,45.81954,11.850377,-0.52491283,-1.1266618,-0.85057235,0.32502115,-0.80543613,0.7832952,0.3809659,0.1847136,0.65589124,0.6633532,-0.22704552,1.2190747,-0.6064481,-1.7594754,-0.8390704,2.3086545,1.4343531,-1.0456121,1.2851225,-0.67078817,-1.7906997,-0.8527476,2.2524495,1.3728472,-1.0247233,-1.4500692,1.3987815,0.6830308,0.45345935,0.93831927,0.48444104,-0.18117288,1.8022118,-0.61519384,1.439159,-2.987697,-0.11115426,1.5767019,0.14966583,-0.4822142,0.98075116,0.8313097,-0.11734885,0.06988758,0.5387664,-0.7904956,0.7826015,0.82444185,1.0,0.0,0.0,0.0,0.0,0.0,0.0,-2.4522119,0.21519384,-0.889159,-0.19724369,-0.06594658,-1.6433358,-10.410947,0.012981892,0.6063044,0.18363595
22.850643,45.959343,12.161214,-2.9114623,-1.3568237,-1.0357946,0.42346546,-0.80248255,0.7822074,0.38210633,0.12559804,0.6532236,0.6602038,-0.18070373,1.2048743,-0.59256744,-1.7524891,-0.8401878,2.317772,1.4388676,-1.0427936,1.2706553,-0.65680635,-1.7839267,-0.8491351,2.2618222,1.3776995,-1.026478,-1.4457309,1.3979962,0.6758585,0.33021244,0.93709946,0.48676026,-0.17381571,1.772358,-0.6163044,1.4541777,-2.9847097,-0.111043125,1.4769396,0.1422615,-0.47429824,0.988656,0.8330656,-0.12658638,0.06929666,0.5340181,-0.7154265,0.80281705,0.77266854,1.0,0.0,0.0,0.0,0.0,0.0,0.0,-2.422358,0.21630439,-0.9041777,0.39539337,-0.040340424,-0.5541086,-12.41461,-0.08728504,0.62003136,0.6458938
18.595234,49.09483,13.167465,2.3191671,-0.86329174,-0.8016627,0.3450751,-0.799878,0.7851664,0.3928105,0.16444129,0.6515662,0.661975,-0.07298647,1.1906675,-0.5782897,-1.7446457,-0.83269095,2.326979,1.443897,-1.0337766,1.2562529,-0.64281595,-1.777127,-0.84632367,2.2711835,1.382569,-1.0280802,-1.4385694,1.3995805,0.6817835,0.26447356,0.9359703,0.48795345,-0.15606038,1.7425346,-0.617414,1.4681996,-2.9817255,-0.110932104,1.3772769,0.135458,-0.46616173,0.9961776,0.8344728,-0.1355209,0.068938725,0.5296571,-0.65911037,0.8245724,0.738949,1.0,0.0,0.0,0.0,0.0,0.0,0.0,-2.3925347,0.21741399,-0.9181996,0.69019794,0.20878315,0.68181753,-6.6424665,-0.013649464,0.41058064,1.6894072
10.941286,50.872746,13.629052,10.18719,-0.09267819,-0.4426942,0.20032251,-0.7971287,0.78250086,0.40006518,0.23571739,0.6404746,0.66490066,0.100641474,1.17654,-0.56456584,-1.7371205,-0.82275194,2.335231,1.449059,-1.0180161,1.2419268,-0.6288198,-1.770211,-0.84352654,2.2805066,1.3874441,-1.029383,-1.4308037,1.3998815,0.69502836,0.28457955,0.9315573,0.48783347,-0.12194726,1.712738,-0.61852264,1.4812256,-2.9787445,-0.110821195,1.2777139,0.12898827,-0.45779037,1.0035243,0.8356042,-0.14442499,0.068711795,0.52553374,-0.6334341,0.8477068,0.7269148,1.0,0.0,0.0,0.0,0.0,0.0,0.0,-2.3627381,0.21852264,-0.9312256,0.73924065,0.09212494,1.3450861,1.935786,-0.25885105,0.1501441,3.3153028
2.3381348,46.89539,11.936924,16.597374,0.5868525,-0.2583753,0.009919547,-0.8039982,0.7717939,0.37827405,0.29769838,0.62020576,0.664149,0.20262234,1.1615269,-0.55164045,-1.7323836,-0.8137567,2.3425272,1.4538591,-1.0091207,1.2276274,-0.61487234,-1.763272,-0.84002846,2.2897305,1.3923098,-1.0302832,-1.4299306,1.3932699,0.6933433,0.37108266,0.91993827,0.48642734,-0.07986389,1.682972,-0.61962986,1.4932567,-2.9757664,-0.1107104,1.1782504,0.122564316,-0.44922686,1.0108312,0.8365767,-0.15349078,0.0685682,0.5214195,-0.63548696,0.8651749,0.72545385,1.0,0.0,0.0,0.0,0.0,0.0,0.0,-2.332972,0.21962985,-0.9432567,0.017118454,-0.591135,-0.18548965,8.537632,-0.9214163,-0.07530451,4.1062474
0.18269444,42.802177,10.527273,17.584587,0.70811,-0.31531793,-0.047551893,-0.7957006,0.7611818,0.362293,0.32390964,0.59422016,0.6672899,0.26477975,1.1480573,-0.53875417,-1.7270428,-0.8076375,2.3491526,1.4590387,-1.0038053,1.2133566,-0.60104215,-1.7564571,-0.8355395,2.2987638,1.397164,-1.0307486,-1.4265054,1.379813,0.67750686,0.47435644,0.8989939,0.4850708,-0.035768844,1.6532364,-0.6207361,1.5042939,-2.9727912,-0.11059971,1.0788864,0.11608124,-0.44052148,1.0181144,0.83745426,-0.16276492,0.06852865,0.51718634,-0.64278823,0.8783423,0.7226995,1.0,0.0,0.0,0.0,0.0,0.0,0.0,-2.3032365,0.22073612,-0.9542939,0.27611256,-1.2769222,-1.609993,10.203892,-1.8544078,-0.08804798,4.306775
0.73968315,38.507744,9.047478,15.692502,0.539356,-0.5157343,-0.043385193,-0.7929157,0.7514651,0.3384427,0.33541203,0.5704607,0.66721725,0.29739082,1.134065,-0.52589566,-1.7226129,-0.8019983,2.35581,1.4638857,-1.0010095,1.1991259,-0.5873798,-1.7499168,-0.83014935,2.3075414,1.4020048,-1.0307906,-1.4221978,1.3619355,0.6460902,0.5602516,0.8710669,0.4841329,0.006023765,1.6235313,-0.62184143,1.5143383,-2.9698188,-0.11048913,0.97962177,0.10957527,-0.4317255,1.025308,0.83825535,-0.17217086,0.068653114,0.51280785,-0.6436827,0.88623357,0.71161425,1.0,0.0,0.0,0.0,0.0,0.0,0.0,-2.2735314,0.22184142,-0.96433824,0.3722906,-1.7239571,-3.1557798,8.463097,-2.5790572,-0.016152859,4.083423
9.001017,34.005714,7.870273,6.323802,-0.32300735,-1.0744752,0.18846324,-0.7858679,0.7364984,0.33172613,0.2360905,0.541411,0.65947354,0.34091088,1.1205391,-0.51373,-1.7167442,-0.8065403,2.3616824,1.4679523,-0.99669945,1.1849657,-0.57393587,-1.7436874,-0.8246247,2.315987,1.40684,-1.0304263,-1.4140971,1.3387052,0.61543477,0.549592,0.8358595,0.4841281,0.046205588,1.5938568,-0.6229453,1.5233907,-2.9668498,-0.11037867,0.8804563,0.10333252,-0.42291212,1.0322078,0.838895,-0.1814235,0.069061,0.5084989,-0.60814047,0.88596725,0.6762497,1.0,0.0,0.0,0.0,0.0,0.0,0.0,-2.243857,0.2229453,-0.97339064,0.7908106,-2.2696257,-3.0183554,-1.1717558,-3.4081101,0.23236275,3.9348657
14.519463,32.365135,7.5348644,0.55108404,-0.8804935,-1.4382966,0.34406504,-0.7751131,0.72468585,0.32521647,0.19307922,0.5057247,0.650747,0.3978447,1.1074544,-0.5014673,-1.7111658,-0.8053168,2.3665595,1.4719146,-0.9906418,1.1709276,-0.56073606,-1.7377212,-0.8196427,2.3240209,1.4116751,-1.0296614,-1.4002824,1.3139299,0.59053165,0.48077568,0.79292655,0.48432076,0.08622204,1.564209,-0.62404823,1.5314522,-2.9638836,-0.11026831,0.7813901,0.0976181,-0.41413808,1.0386618,0.83929044,-0.19028834,0.069848165,0.50448304,-0.54882026,0.88033473,0.6288212,1.0,0.0,0.0,0.0,0.0,0.0,0.0,-2.214209,0.22404823,-0.98145217,1.4015675,-2.4276495,-2.4228334,-6.9606724,-4.2422295,0.33987164,3.928484
18.253544,25.119339,5.136632,-6.2215614,-1.3871125,-1.9862362,0.4697948,-0.7790707,0.70105845,0.29223132,0.07751781,0.47720623,0.6445535,0.43299666,1.0930206,-0.4906302,-1.7084981,-0.81189096,2.3717415,1.4761305,-0.98636174,1.1569926,-0.54783666,-1.7320774,-0.8159253,2.3316083,1.416514,-1.0285113,-1.3910681,1.2820802,0.5558491,0.3351194,0.74736917,0.48503944,0.12426946,1.5345917,-0.6251502,1.5385238,-2.9609203,-0.11015806,0.6824228,0.09267998,-0.4055426,1.0444915,0.8394141,-0.19847006,0.07110902,0.5009361,-0.46601963,0.8574712,0.5617833,1.0,0.0,0.0,0.0,0.0,0.0,0.0,-2.1845918,0.2251502,-0.9885238,0.9756565,-3.1300783,-3.4056664,-14.635783,-4.556453,0.4978001,3.7573547
17.904768,24.333109,4.9164114,-6.095907,-1.3173392,-2.078761,0.46806657,-0.7699891,0.6877568,0.2844541,0.045113966,0.4585977,0.6454422,0.47015312,1.0799936,-0.47906098,-1.703632,-0.8114139,2.377468,1.4810582,-0.981496,1.1431624,-0.53525484,-1.7267501,-0.8136727,2.3387685,1.4213587,-1.026995,-1.3801966,1.2505257,0.52508396,0.18840083,0.70596987,0.48556617,0.16045769,1.5050049,-0.6262512,1.5446064,-2.95796,-0.11004793,0.5835545,0.08856392,-0.39719987,1.0496684,0.8392805,-0.20588396,0.07284161,0.49790964,-0.38433066,0.83030486,0.49758488,1.0,0.0,0.0,0.0,0.0,0.0,0.0,-2.155005,0.22625121,-0.99460644,1.166296,-3.093934,-3.057754,-14.722997,-4.134822,0.44836998,3.5819502
10.642466,22.073483,4.0872498,0.9372778,-0.59714144,-1.85124,0.25215536,-0.7609657,0.6644333,0.251831,0.09641857,0.4127541,0.64057887,0.5014604,1.0670658,-0.4688115,-1.701567,-0.80403084,2.380044,1.4854167,-0.9768489,1.1294543,-0.52301824,-1.7218025,-0.8123166,2.3454747,1.4261996,-1.0251372,-1.367545,1.2150296,0.48455352,0.11765479,0.6594732,0.48449406,0.19424322,1.4754486,-0.6273508,1.5497011,-2.9550025,-0.1099379,0.4847851,0.08504486,-0.38912892,1.0543251,0.83899695,-0.21270302,0.07497912,0.49519655,-0.33201277,0.8021281,0.4499942,1.0,0.0,0.0,0.0,0.0,0.0,0.0,-2.1254487,0.2273508,-0.9997011,1.3183117,-3.4757376,-4.1003942,-7.1617885,-4.5708895,0.1803577,3.3348858
6.3066716,21.414907,3.741632,5.0749216,-0.1310718,-1.7165928,0.13103336,-0.7644787,0.65198606,0.22334825,0.06900634,0.4243388,0.6454355,0.51138914,1.0530064,-0.45781964,-1.6994677,-0.805416,2.3879087,1.4907432,-0.97399825,1.1158262,-0.51111066,-1.7173107,-0.81141347,2.3518453,1.431029,-1.0229704,-1.3611761,1.1828973,0.4372843,0.08079571,0.62990767,0.48320347,0.22381938,1.445921,-0.62844944,1.5538089,-2.9520483,-0.10982799,0.3861145,0.08191872,-0.38133192,1.0585768,0.83865196,-0.21906847,0.077429526,0.49262214,-0.29775372,0.77424824,0.41226426,1.0,0.0,0.0,0.0,0.0,0.0,0.0,-2.095921,0.22844943,-1.003809,0.64821243,-3.1363487,-4.7766266,-3.7984178,-2.84518,0.09459257,2.9105158
5.4722743,20.486038,3.4836042,5.545558,-0.05092597,-1.7418807,0.115444496,-0.7647432,0.6330066,0.20884366,0.014706534,0.39999187,0.6420851,0.52238405,1.0393519,-0.44781,-1.6964263,-0.80994284,2.3918445,1.4952375,-0.97073203,1.1022288,-0.49952346,-1.7132576,-0.8108985,2.3579412,1.4358431,-1.0205367,-1.3593382,1.1509745,0.3943188,0.04137037,0.6032841,0.4814865,0.24970128,1.4164219,-0.62954664,1.5569307,-2.949097,-0.10971818,0.28754252,0.079114914,-0.37381864,1.06246,0.8382791,-0.22500834,0.08014894,0.49013814,-0.26606306,0.74513894,0.3760267,1.0,0.0,0.0,0.0,0.0,0.0,0.0,-2.066422,0.22954664,-1.0069306,0.1856327,-3.1163692,-4.3384314,-4.0557327,-2.554679,0.03632307,2.5420368
6.2955384,19.399046,3.2389078,4.2845745,-0.15125427,-1.8519421,0.14836729,-0.76147425,0.612668,0.19319764,-0.03830328,0.3670984,0.6376412,0.5415949,1.0260813,-0.43825665,-1.6939378,-0.8147288,2.394651,1.4996072,-0.96637714,1.0886446,-0.48826438,-1.7095897,-0.81090707,2.3637433,1.4406382,-1.0178626,-1.3581059,1.1178454,0.3575134,-0.015194539,0.5727348,0.47952995,0.2731988,1.3869534,-0.6306429,1.5590675,-2.9461484,-0.10960849,0.18906909,0.07666969,-0.3666141,1.0659615,0.8378798,-0.23047976,0.083139114,0.48777488,-0.22968075,0.71330816,0.33756945,1.0,0.0,0.0,0.0,0.0,0.0,0.0,-2.0369534,0.23064288,-1.0090675,0.14035702,-3.2378674,-3.724569,-5.7562494,-2.9646516,0.015616417,2.307713
5.295251,15.945669,2.623738,4.9019556,0.07550776,-1.8706506,0.15071422,-0.75260794,0.57484734,0.19593959,-0.04663101,0.34061632,0.640173,0.5623287,1.0133839,-0.43077964,-1.6899958,-0.8155702,2.397805,1.5046555,-0.9616297,1.0751063,-0.4774292,-1.7061622,-0.8114173,2.3692174,1.4454161,-1.0149672,-1.3522183,1.0723007,0.33753142,-0.06340091,0.53931546,0.4779158,0.29496026,1.3575153,-0.6317382,1.5602204,-2.9432027,-0.1094989,0.090694115,0.07454109,-0.35975623,1.0690873,0.8374458,-0.23550084,0.0863282,0.4855629,-0.1998353,0.6772574,0.30048415,1.0,0.0,0.0,0.0,0.0,0.0,0.0,-2.0075154,0.23173818,-1.0102203,0.6237507,-4.4783354,-2.067095,-4.9228935,-3.249061,0.03605485,2.1294773
-3.2865338,11.701825,1.5965445,14.301628,1.1349084,-1.4750075,-0.10652858,-0.7407768,0.53604114,0.16496639,0.09328159,0.3214048,0.6433433,0.5733823,1.0010285,-0.4238251,-1.6896656,-0.8020891,2.401358,1.5097504,-0.95762897,1.0616766,-0.46714526,-1.7029788,-0.8116204,2.3743672,1.4501787,-1.0118716,-1.3400592,1.0140026,0.31148675,-0.0065709357,0.5072207,0.47602168,0.31419188,1.328104,-0.6328325,1.5603901,-2.94026,-0.109389424,-0.007582511,0.07239914,-0.35322833,1.0719936,0.837054,-0.2403507,0.08955353,0.48327243,-0.21179512,0.64487857,0.28386927,1.0,0.0,0.0,0.0,0.0,0.0,0.0,-1.978104,0.23283252,-1.01039,1.1850834,-5.7519674,-2.6924014,5.5070105,-3.0384898,-0.07967353,1.8517375
-8.054928,-0.23081589,-2.4614673,15.36528,1.4526119,-1.6800568,-0.2678072,-0.73188484,0.48659155,0.06877903,0.091991805,0.2760987,0.6386554,0.56971157,0.98848814,-0.41848612,-1.696101,-0.8024212,2.401977,1.5140443,-0.95490044,1.0483996,-0.45756465,-1.7004459,-0.8111312,2.379128,1.4549204,-1.00861,-1.3237406,0.9396103,0.23342402,0.066767246,0.46613193,0.47387046,0.32996586,1.2987232,-0.63392544,1.559578,-2.9373205,-0.10928006,-0.10576088,0.07005119,-0.3471563,1.0746949,0.8368467,-0.24505477,0.09281462,0.48064664,-0.2359619,0.59488446,0.2624564,1.0,0.0,0.0,0.0,0.0,0.0,0.0,-1.9487232,0.23392543,-1.009578,1.6214371,-7.3639274,-7.925591,7.133761,-3.9440036,-0.10855198,1.5052319
-3.667501,-13.977223,-6.8188624,4.379892,0.7272066,-2.4833117,-0.09048657,-0.72295374,0.41939294,0.015960984,-0.07865936,0.21334848,0.6350734,0.5674694,0.9761042,-0.41562536,-1.6988498,-0.81899714,2.4004629,1.5184277,-0.95186305,1.0353056,-0.4488991,-1.69888,-0.81078595,2.3833508,1.4596449,-1.0052111,-1.3043041,0.8424823,0.13045986,0.02334449,0.40795276,0.4725127,0.3429581,1.2693729,-0.6350174,1.5577847,-2.9343839,-0.1091708,-0.20384108,0.06770706,-0.3418424,1.0769355,0.8368734,-0.24918532,0.09623703,0.47779498,-0.22802438,0.5105983,0.20867251,1.0,0.0,0.0,0.0,0.0,0.0,0.0,-1.9193729,0.23501739,-1.0077846,2.0674467,-9.640348,-10.460102,-4.4775815,-5.7608247,0.064104795,1.2481987
-3.7683601,-27.28012,-10.001038,0.3628981,0.86586356,-2.8161,0.015917147,-0.7075059,0.315551,0.032699417,-0.10781445,0.14476624,0.6414997,0.5701151,0.964555,-0.41734397,-1.69561,-0.8215674,2.3978274,1.5237949,-0.9481996,1.0224406,-0.44150716,-1.698096,-0.81119126,2.3868642,1.4643637,-1.0016978,-1.2796847,0.7049978,0.06034093,-0.062156245,0.3326952,0.47211343,0.35386953,1.2400513,-0.6361084,1.5550114,-2.9314501,-0.10906165,-0.30182323,0.06544495,-0.33754873,1.0785284,0.83711207,-0.2524799,0.09975041,0.4749179,-0.22023816,0.402594,0.1408385,1.0,0.0,0.0,0.0,0.0,0.0,0.0,-1.8900512,0.23610839,-1.0050113,2.6722908,-13.683009,-7.214453,-8.647946,-7.52365,0.15999079,1.0370314
-14.51523,-71.26575,-22.66466,-1.9991965,2.1907096,-3.577773,-0.14671622,-0.67096895,0.105723016,-0.09295431,-0.121897355,0.11509823,0.6347473,0.5546254,0.95534366,-0.43093485,-1.7073915,-0.823381,2.398374,1.5278385,-0.94623524,1.0099531,-0.4362343,-1.6983554,-0.8124787,2.389649,1.469071,-0.9981034,-1.2370319,0.46817854,-0.055561375,-0.15127508,0.25986126,0.47060248,0.3611203,1.2107582,-0.637198,1.5512589,-2.9285192,-0.10895261,-0.3997074,0.06297302,-0.3348794,1.079234,0.83771604,-0.2546492,0.10303223,0.47198513,-0.25198752,0.22191538,0.045762226,1.0,0.0,0.0,0.0,0.0,0.0,0.0,-1.8607582,0.23719797,-1.0012589,4.6356916,-23.638327,-11.902419,-8.995967,-7.3587475,-0.021767616,0.6523073
-24.57672,-136.20343,-41.23417,-13.6166,3.1705687,-4.9904933,-0.1645862,-0.6403454,-0.21397224,-0.17237356,-0.32203978,-0.07915439,0.61467856,0.50727963,0.9459186,-0.45763153,-1.7155927,-0.8446827,2.3817334,1.5305389,-0.9473754,0.99799025,-0.43449765,-1.6999424,-0.8153922,2.391255,1.4737383,-0.99448514,-1.1807436,0.075433776,-0.19406547,-0.33779597,0.12680627,0.46500498,0.3616131,1.1814957,-0.6382866,1.5465285,-2.9255912,-0.108843684,-0.4974937,0.06001091,-0.3348558,1.0785263,0.8389166,-0.2550201,0.10576567,0.46903858,-0.30879575,-0.070645735,-0.110059425,1.0,0.0,0.0,0.0,0.0,0.0,0.0,-1.8314956,0.23828658,-0.99652845,6.249237,-39.30017,-14.196199,-18.595118,-13.618994,-0.650543,-0.06798506
-14.893314,-142.99767,-40.096306,-24.525047,2.599004,-5.201917,0.37346977,-0.56154937,-0.45514062,0.0711912,-0.53042156,-0.38951233,0.62896556,0.45628983,0.9418353,-0.4800117,-1.6928232,-0.86843437,2.3523037,1.5366349,-0.9488562,0.98685515,-0.4372676,-1.7014835,-0.82090825,2.3907475,1.4783407,-0.9909117,-1.0892129,-0.39490896,-0.14131932,-0.62214845,-0.11142287,0.4568393,0.35529995,1.1522617,-0.63937426,1.5408207,-2.922666,-0.10873486,-0.5951823,0.056699753,-0.33782864,1.0760679,0.8404833,-0.2533111,0.1076815,0.46671838,-0.33863288,-0.37219793,-0.2911803,1.0,0.0,0.0,0.0,0.0,0.0,0.0,-1.8022617,0.23937425,-0.9908207,9.693456,-47.16364,5.180302,-28.226501,-24.278688,-1.3302684,-0.8088827
-0.12121403,-122.415245,-30.418158,-29.138687,2.1047843,-4.7063575,0.94548565,-0.413283,-0.6853803,0.2929473,-0.64352906,-0.5356628,0.64622784,0.45733646,0.94552684,-0.5058056,-1.6721888,-0.8852612,2.3371813,1.5429635,-0.9451781,0.97717154,-0.44489747,-1.7010925,-0.82937497,2.387669,1.4828573,-0.98740506,-0.9277929,-0.886466,0.100294724,-0.92110145,-0.37434292,0.44651106,0.34843272,1.1230564,-0.64046097,1.5341369,-2.919744,-0.10862615,-0.6927732,0.053310394,-0.3435297,1.0718375,0.84189516,-0.24978381,0.10834731,0.46591988,-0.3417009,-0.634471,-0.46750537,1.0,0.0,0.0,0.0,0.0,0.0,0.0,-1.7730564,0.24046096,-0.9841369,16.238832,-49.39426,24.45201,-29.770493,-26.669508,-1.9996405,-0.89340806
35.064003,-39.259468,-2.295627,-29.999245,-0.047906846,-3.4642806,1.5708395,-0.025581172,-0.73408604,0.404189,-0.61476976,-0.5815399,0.651185,0.3540794,0.9746134,-0.5183061,-1.6606736,-0.890852,2.329515,1.5479759,-0.9519971,0.9706551,-0.4564832,-1.6977584,-0.8400342,2.3822942,1.48729,-0.9840319,-0.5624449,-1.2498256,0.4129666,-1.1152966,-0.59111077,0.43929312,0.333396,1.0938816,-0.64154625,1.5264779,-2.916825,-0.10851755,-0.7902666,0.050548553,-0.35089684,1.066294,0.842417,-0.24533215,0.10749648,0.4675362,-0.25758457,-0.76749843,-0.5849701,1.0,0.0,0.0,0.0,0.0,0.0,0.0,-1.7438816,0.24154624,-0.9764779,35.688854,-36.48546,31.878365,-19.72766,-21.517122,-1.5253842,-1.5473068
48.030598,15.031311,12.537011,-22.411144,-1.2975993,-2.6423674,1.354902,0.20980148,-0.77010316,0.2474253,-0.5508905,-0.59545237,0.65506977,0.1899179,0.9916352,-0.5334935,-1.673016,-0.89512324,2.322749,1.552797,-0.96504015,0.96849024,-0.47059232,-1.6925285,-0.85157174,2.3752599,1.4916769,-0.980922,-0.10574109,-1.464844,0.5627385,-1.1683388,-0.74020565,0.43685552,0.30367813,1.0647354,-0.6426306,1.5178448,-2.913909,-0.108409055,-0.8876625,0.048908234,-0.3589933,1.0599729,0.8418399,-0.24069788,0.10540024,0.4714455,-0.13467786,-0.8183597,-0.6502828,1.0,0.0,0.0,0.0,0.0,0.0,0.0,-1.7147354,0.24263057,-0.9678448,44.328655,-21.578194,15.867162,-5.818486,-14.618719,-0.73209405,-2.9170513
43.08514,41.325478,16.62221,-11.120828,-1.5544344,-2.115433,0.79162407,0.30495363,-0.78528047,0.09585658,-0.52852815,-0.5459414,0.6606376,0.11793441,0.9989856,-0.54912037,-1.6829429,-0.90442455,2.3206658,1.5577407,-0.96912855,0.970513,-0.4858821,-1.6872833,-0.86295384,2.367352,1.4960676,-0.9781487,0.3009566,-1.5504928,0.51454705,-1.129463,-0.8068214,0.43893558,0.26885378,1.0356178,-0.64371395,1.5082384,-2.9109957,-0.10830066,-0.984961,0.04842949,-0.36730742,1.0532559,0.8404445,-0.23617767,0.10260979,0.47680625,-0.01815839,-0.82941353,-0.6817109,1.0,0.0,0.0,0.0,0.0,0.0,0.0,-1.6856178,0.24371395,-0.9582384,39.466366,-8.603072,-3.9458156,3.4932137,-6.5281987,-0.002771616,-3.3890903
30.812405,39.37233,11.035694,-4.784737,-1.4736269,-2.27801,0.16702941,0.39942253,-0.794663,-0.1584668,-0.551216,-0.48651862,0.66350627,0.045230076,1.0104553,-0.5653484,-1.70313,-0.91807544,2.3187,1.5624182,-0.9736257,0.97591746,-0.50141126,-1.6842105,-0.8738124,2.3592954,1.5004851,-0.97575593,0.6172191,-1.5538907,0.24127328,-1.0720003,-0.8057651,0.44220474,0.22941847,1.0065308,-0.6447959,1.4976598,-2.9080853,-0.108192384,-1.0821623,0.048957825,-0.37582278,1.0462285,0.83876675,-0.2315421,0.09972675,0.48261067,0.080169365,-0.8521713,-0.71297306,1.0,0.0,0.0,0.0,0.0,0.0,0.0,-1.6565307,0.24479589,-0.9476598,30.706919,-0.39942265,-26.429235,5.5546045,-0.01373291,0.14265776,-3.9426951
25.849566,32.65561,5.926174,-5.652028,-1.6163316,-2.6879792,-0.09353319,0.54513127,-0.80296737,-0.3628929,-0.5941831,-0.43733796,0.65525436,0.001400759,1.0304306,-0.581708,-1.7204999,-0.9332307,2.3155615,1.5660105,-0.97561586,0.9840771,-0.5167044,-1.6848342,-0.88433427,2.3515744,1.5049254,-0.9737599,0.87969375,-1.5214025,-0.16065392,-1.0459236,-0.76138204,0.443493,0.18949391,0.9774704,-0.6458769,1.4861099,-2.9051778,-0.10808422,-1.1792663,0.050457,-0.38472438,1.0387765,0.83719844,-0.2263644,0.09714892,0.48828265,0.17833632,-0.8966358,-0.7598516,1.0,0.0,0.0,0.0,0.0,0.0,0.0,-1.6274704,0.24587688,-0.93610984,25.50025,3.1647205,-39.33153,2.5074244,4.2390823,-0.16570091,-4.0706425
24.257273,29.631989,3.799685,-7.4518642,-1.8161776,-2.8244557,-0.10402524,0.64584637,-0.79946744,-0.5022386,-0.6380473,-0.43399036,0.6491436,0.028541336,1.0486617,-0.59665114,-1.7350581,-0.948139,2.3081753,1.5698397,-0.9709058,0.99445593,-0.5315922,-1.6895721,-0.89493626,2.3443418,1.5093657,-0.9721024,1.0888443,-1.4782729,-0.57606107,-1.0651164,-0.7109422,0.44284943,0.15746093,0.94844055,-0.6469569,1.4735895,-2.9022732,-0.10797615,-1.2762733,0.052955627,-0.3941176,1.0307581,0.83587956,-0.2203194,0.09508668,0.49368334,0.28055188,-0.9477815,-0.82079256,1.0,0.0,0.0,0.0,0.0,0.0,0.0,-1.5984405,0.24695691,-0.9235895,20.377613,4.2372465,-40.925674,-1.9720554,4.899502,-0.45460463,-3.296289
19.067669,25.624294,2.5484338,-5.376421,-1.4254937,-2.5795078,-0.12141922,0.68625826,-0.8052251,-0.60652196,-0.6569269,-0.400544,0.628213,-0.039324768,1.0630817,-0.61211467,-1.7502244,-0.9606289,2.3042874,1.572187,-0.9760349,1.0064055,-0.54613763,-1.697995,-0.9059035,2.337647,1.5137793,-0.970773,1.2293965,-1.4468848,-0.93013376,-1.1071473,-0.65612143,0.43952546,0.12452577,0.9194393,-0.648036,1.4600999,-2.8993714,-0.1078682,-1.3731833,0.05634117,-0.4040072,1.0220957,0.8348392,-0.21330258,0.09351728,0.49879855,0.36560395,-0.9967501,-0.88751984,1.0,0.0,0.0,0.0,0.0,0.0,0.0,-1.5694393,0.248036,-0.9100999,13.775802,3.076005,-35.08266,-4.181266,5.3767085,-0.75110793,-3.3531249
14.713715,29.497137,5.0361423,-0.42013645,-0.9305293,-1.9288423,-0.067987986,0.71210456,-0.8057134,-0.637211,-0.64843214,-0.4062494,0.630681,-0.052623745,1.077616,-0.626709,-1.761716,-0.97074676,2.297022,1.5768474,-0.97603536,1.0193087,-0.5604771,-1.7090366,-0.9172284,2.3313794,1.5181662,-0.9697449,1.310299,-1.4297984,-1.1618636,-1.1407609,-0.6168378,0.43731874,0.09558712,0.8904667,-0.64911413,1.445642,-2.8964725,-0.107760355,-1.4699963,0.0603981,-0.41422582,1.0128442,0.8339883,-0.20549834,0.09230246,0.5037004,0.428262,-1.0239034,-0.94485503,1.0,0.0,0.0,0.0,0.0,0.0,0.0,-1.5404667,0.24911413,-0.895642,7.9978943,1.6658068,-23.099209,-3.3091068,3.8638353,-0.55443645,-2.8949723
8.832788,35.52315,8.1331215,6.523371,-0.43021,-1.1548134,-0.06751247,0.70816606,-0.8025834,-0.6546984,-0.62127316,-0.4646127,0.6436343,-0.03832261,1.0901253,-0.6407354,-1.7745064,-0.9793557,2.284918,1.5825297,-0.9735772,1.0325972,-0.57472116,-1.7215183,-0.92866486,2.3252187,1.5225512,-0.96896005,1.335102,-1.4226798,-1.2769841,-1.1444725,-0.6160522,0.43814754,0.07288818,0.8615246,-0.65019083,1.4302166,-2.8935764,-0.10765262,-1.5667126,0.064888,-0.42452002,1.0031515,0.8332256,-0.19724125,0.09136528,0.5084125,0.46527824,-1.0243406,-0.985229,1.0,0.0,0.0,0.0,0.0,0.0,0.0,-1.5115246,0.25019082,-0.88021654,2.5217533,0.6756067,-11.584234,-0.3047228,0.00436306,-0.115829706,-2.2492976
3.522007,41.33407,11.046878,13.29665,0.03316319,-0.47243235,-0.08684479,0.70345575,-0.80610687,-0.6530724,-0.57157516,-0.54056066,0.6618337,-0.0018855658,1.1029427,-0.65533185,-1.7868255,-0.9858224,2.2711625,1.5887345,-0.9691486,1.0458628,-0.5889643,-1.7344577,-0.93981236,2.318749,1.5269667,-0.96834207,1.3241494,-1.4250209,-1.2999083,-1.1046265,-0.6578615,0.44259173,0.05810503,0.8326092,-0.6512666,1.4138248,-2.8906832,-0.10754499,-1.6633322,0.06957245,-0.4346521,0.99320376,0.83247524,-0.18890086,0.09069022,0.5129099,0.478935,-1.0021127,-1.0062131,1.0,0.0,0.0,0.0,0.0,0.0,0.0,-1.4826092,0.25126657,-0.8638248,-0.9969473,-0.2747059,-2.413845,4.048991,-4.2811513,0.3871739,-1.4527589
-2.5396261,42.4811,11.674061,18.608284,0.5718062,-0.067560375,-0.1452297,0.67891705,-0.81150514,-0.66626424,-0.5276062,-0.55791825,0.6671999,0.049217667,1.1137545,-0.6701148,-1.8010842,-0.99257296,2.262957,1.5936867,-0.9634203,1.0588061,-0.60328275,-1.7473094,-0.95032376,2.3117795,1.5314375,-0.967808,1.2848924,-1.4342571,-1.2805458,-1.0331153,-0.7102486,0.44845966,0.051828936,0.8037243,-0.65234137,1.3964674,-2.8877933,-0.10743746,-1.7598553,0.07422447,-0.44450855,0.9831398,0.8317262,-0.18072754,0.090242945,0.5171318,0.46990302,-0.9724625,-1.0145972,1.0,0.0,0.0,0.0,0.0,0.0,0.0,-1.4537243,0.25234136,-0.84646744,-3.7755728,-0.98240376,1.8271923,7.243681,-5.4046154,0.6158054,-0.6037407
-3.3321104,42.535328,11.87245,19.069736,0.71009254,-0.008820236,-0.11223693,0.67087793,-0.81872624,-0.670766,-0.51396585,-0.5663102,0.66570777,0.08968632,1.1258938,-0.6851554,-1.814386,-1.0017203,2.2551484,1.5980083,-0.95883936,1.071324,-0.6177271,-1.7598674,-0.9601323,2.3043256,1.5359617,-0.9672892,1.2414634,-1.4480925,-1.2479655,-0.9630209,-0.7574582,0.45376822,0.05209709,0.774868,-0.6534147,1.3781457,-2.8849063,-0.10733005,-1.8562818,0.078762054,-0.45407653,0.9730025,0.83096224,-0.17278597,0.08996584,0.52110726,0.45681942,-0.9440505,-1.0213892,1.0,0.0,0.0,0.0,0.0,0.0,0.0,-1.424868,0.25341472,-0.8281457,-4.1874647,-1.4475584,3.1496048,7.1195126,-4.899919,0.56233406,0.06489381
-1.8067055,45.53904,12.955709,18.549486,0.62679285,0.0025410652,-0.0748481,0.6617238,-0.81335187,-0.6681291,-0.4869146,-0.5822037,0.67683554,0.10024378,1.1374964,-0.6990623,-1.8266803,-1.0088238,2.2461052,1.6036453,-0.95726484,1.0834509,-0.6322649,-1.7721107,-0.96927994,2.2964559,1.5405413,-0.9667494,1.2034918,-1.4558884,-1.2168218,-0.8983783,-0.7969765,0.45940432,0.05468266,0.74604034,-0.65448713,1.3588604,-2.8820221,-0.107222736,-1.9526119,0.08319855,-0.46334815,0.96280926,0.83015776,-0.16507992,0.08983931,0.52489567,0.44760025,-0.91384673,-1.0262678,1.0,0.0,0.0,0.0,0.0,0.0,0.0,-1.3960403,0.25448713,-0.80886036,-3.6518812,-0.8393049,3.004384,6.5651894,-4.126215,0.5947709,0.30384213
-0.22678757,46.89872,13.468815,17.74255,0.5362996,-0.042736858,-0.051870853,0.65475917,-0.8169519,-0.66492516,-0.4509843,-0.6102793,0.6795375,0.10542733,1.1489269,-0.7139601,-1.8386033,-1.0143784,2.2354279,1.608495,-0.9562067,1.0952746,-0.6468647,-1.7841022,-0.97779816,2.2882123,1.5451723,-0.96617913,1.1758358,-1.4615257,-1.193796,-0.8359148,-0.83411366,0.46442214,0.0580337,0.7172432,-0.6555586,1.3386124,-2.8791409,-0.10711554,-2.0488455,0.087574005,-0.47232366,0.95256543,0.829301,-0.15759346,0.08986623,0.528534,0.44283518,-0.8846174,-1.0310739,1.0,0.0,0.0,0.0,0.0,0.0,0.0,-1.3672432,0.25555858,-0.7886124,-2.6420593,-0.6232023,2.2085905,6.34408,-3.8844228,0.51962733,0.38275495
1.599216,45.75663,12.916911,15.212461,0.38884103,-0.20185125,-0.0051900744,0.63746536,-0.81874967,-0.67328984,-0.4599326,-0.5968609,0.6733278,0.09817624,1.1590211,-0.7287397,-1.8514311,-1.0237914,2.228526,1.6125051,-0.95636153,1.1068426,-0.66150457,-1.7959869,-0.9859063,2.2797246,1.5498396,-0.96558213,1.1510811,-1.4650068,-1.187095,-0.8020341,-0.8541679,0.467454,0.060393967,0.68847275,-0.6566291,1.317403,-2.8762624,-0.10700844,-2.1449828,0.091962814,-0.48105073,0.9422113,0.82838225,-0.15021142,0.09003231,0.5320841,0.4454236,-0.8610864,-1.0439521,1.0,0.0,0.0,0.0,0.0,0.0,0.0,-1.3384727,0.25662908,-0.76740295,-2.349329,-0.40676594,0.56767464,3.5002112,-2.1696806,0.2627313,0.28587505
4.4810596,46.454987,13.347448,13.096331,0.22910672,-0.2942317,0.05474653,0.63687617,-0.8200611,-0.6701717,-0.45148322,-0.59268075,0.6704071,0.10000253,1.1705302,-0.74351066,-1.8630041,-1.0310546,2.2204566,1.6168803,-0.9555819,1.118241,-0.6761692,-1.8078563,-0.9938008,2.2711263,1.5545298,-0.9649632,1.1363842,-1.4670957,-1.1872908,-0.78494555,-0.861894,0.4691055,0.06259926,0.6597328,-0.65769863,1.2952328,-2.8733869,-0.10690145,-2.241024,0.096437454,-0.4895525,0.93169534,0.8273716,-0.14284287,0.09030127,0.5356283,0.4557721,-0.8389769,-1.0610617,1.0,0.0,0.0,0.0,0.0,0.0,0.0,-1.3097328,0.25769863,-0.74523276,-1.3622284,-0.26323795,-0.12559891,1.8168211,-0.9186864,0.0882864,0.27940422
7.691386,47.150017,13.698269,10.377043,-0.0316239,-0.39468116,0.14555979,0.63225454,-0.8161657,-0.67868507,-0.47185892,-0.58871907,0.6690688,0.16259918,1.1814665,-0.7577858,-1.8757248,-1.0409867,2.2122543,1.6214367,-0.9487033,1.1295363,-0.6908253,-1.8197963,-1.0017277,2.2625165,1.5592276,-0.9642775,1.1276969,-1.4652723,-1.1967517,-0.79496235,-0.8610001,0.4696186,0.07070149,0.6310196,-0.65876675,1.2721028,-2.8705142,-0.10679457,-2.3369691,0.101091385,-0.4978373,0.9209569,0.82621557,-0.13538085,0.09066628,0.5392768,0.47638237,-0.817145,-1.0848651,1.0,0.0,0.0,0.0,0.0,0.0,0.0,-1.2810196,0.25876674,-0.7221028,-0.7660389,0.13563633,-1.072979,-0.89547634,-0.03694296,-0.07519126,0.87108165
10.534604,44.81184,12.871825,6.324699,-0.3549407,-0.55801237,0.2376177,0.6182208,-0.8178772,-0.6942397,-0.53881663,-0.5760921,0.65797496,0.14841244,1.1913583,-0.772613,-1.8892202,-1.0556093,2.2049072,1.625025,-0.94943625,1.1407267,-0.7054642,-1.8319099,-1.0101238,2.2539792,1.5639158,-0.9635241,1.116397,-1.4635719,-1.2169704,-0.8540574,-0.8517188,0.46781468,0.07708381,0.6023369,-0.6598339,1.2480142,-2.8676443,-0.1066878,-2.4328184,0.106048584,-0.50592995,0.90986925,0.82486147,-0.12764034,0.09112823,0.54314554,0.50869673,-0.798318,-1.1233989,1.0,0.0,0.0,0.0,0.0,0.0,0.0,-1.2523369,0.2598339,-0.6980142,-1.0054827,0.1313448,-2.1993399,-5.7786703,0.8256674,-0.3957808,0.7019192
10.236192,47.948265,14.294557,6.948036,-0.37065148,-0.33283496,0.28932813,0.59678733,-0.8164716,-0.65798277,-0.5477028,-0.60560656,0.6742764,0.23112296,1.2004054,-0.78711134,-1.8977082,-1.0648941,2.1934185,1.6313435,-0.9404118,1.1517302,-0.72008115,-1.8440387,-1.0191437,2.2454495,1.5685984,-0.96265244,1.0954753,-1.461197,-1.2124424,-0.917588,-0.85389036,0.46772504,0.090858296,0.5736809,-0.6609001,1.2229679,-2.8647773,-0.10658114,-2.5285718,0.11130905,-0.5137706,0.8984234,0.82324916,-0.11961952,0.091693595,0.5473064,0.5387674,-0.7706467,-1.1583784,1.0,0.0,0.0,0.0,0.0,0.0,0.0,-1.2236809,0.2609001,-0.67296785,-1.9507885,0.20861626,0.23663044,-6.224036,-0.3162384,-0.20610094,1.4502585
1.8994536,51.15347,14.855175,12.630275,0.18813801,0.13134342,0.16898046,0.5385832,-0.8103201,-0.6259881,-0.5314543,-0.6135499,0.68881553,0.24517834,1.2055885,-0.8011131,-1.9066375,-1.0722891,2.1840947,1.6374799,-0.9381346,1.1622816,-0.73465043,-1.8559272,-1.0286003,2.236855,1.5732981,-0.96163964,1.042307,-1.4556363,-1.1818215,-0.95442075,-0.8617755,0.4701927,0.104996294,0.5450554,-0.6619649,1.1969646,-2.8619132,-0.10647458,-2.6242297,0.1166935,-0.5212903,0.8867326,0.8214122,-0.11147352,0.09235001,0.55165845,0.5443438,-0.73632,-1.179118,1.0,0.0,0.0,0.0,0.0,0.0,0.0,-1.1950554,0.2619649,-0.6469646,-5.1295996,0.52149296,2.847886,-3.542757,-0.9382844,0.14595985,1.4814705
-5.51431,49.415802,13.358788,16.02346,0.6102682,0.3307882,0.042935632,0.49335393,-0.81328875,-0.63021654,-0.54361564,-0.6305173,0.6805412,0.21695608,1.211617,-0.8159793,-1.9189489,-1.0829619,2.1738033,1.6413522,-0.939944,1.1721407,-0.7491844,-1.8675258,-1.0383145,2.228127,1.5780169,-0.96052,0.9677121,-1.4528426,-1.1530658,-0.9766728,-0.87708056,0.47224376,0.114488676,0.5164566,-0.6630287,1.1700056,-2.859052,-0.106368124,-2.7197917,0.12199974,-0.5284958,0.87485707,0.81944406,-0.10327673,0.093106166,0.5560364,0.5320104,-0.7055437,-1.1965898,1.0,0.0,0.0,0.0,0.0,0.0,0.0,-1.1664566,0.2630287,-0.62000555,-7.2423816,0.23047924,2.6856422,-2.0496368,-1.7223239,0.13719201,1.0025964
-14.193932,49.058784,12.069023,20.171803,1.0847175,0.59340525,-0.07909387,0.4250762,-0.8067016,-0.61972606,-0.5437677,-0.6489954,0.6953701,0.2568972,1.2146484,-0.8298546,-1.9294984,-1.0926912,2.1632276,1.6475539,-0.9348303,1.1810538,-0.76367265,-1.8788478,-1.0481373,2.2192006,1.5827681,-0.95929074,0.86660045,-1.4477532,-1.1258861,-0.9834475,-0.89847976,0.47599107,0.12579487,0.48788834,-0.6640916,1.1420916,-2.8561935,-0.106261775,-2.8152583,0.12703514,-0.53541136,0.86284775,0.81744087,-0.09508085,0.09399386,0.5602814,0.4991814,-0.6770934,-1.2083756,1.0,0.0,0.0,0.0,0.0,0.0,0.0,-1.1378883,0.26409158,-0.5920916,-9.8605995,0.44488907,2.5557995,-0.47351122,-2.3841262,0.35203695,1.1642113
-30.440296,39.71051,6.048207,23.25362,1.758828,0.76112664,-0.2322215,0.27430257,-0.81072664,-0.6249625,-0.62178046,-0.64220583,0.6738832,0.24361648,1.208484,-0.84474534,-1.9413441,-1.1103153,2.15498,1.6501564,-0.9349291,1.1884352,-0.77814084,-1.8899982,-1.0583206,2.2101026,1.5875365,-0.9579718,0.69666934,-1.4468483,-1.1120898,-1.0287398,-0.91447186,0.47680888,0.13396147,0.45934677,-0.6651535,1.1132237,-2.853338,-0.10615554,-2.9106295,0.1315155,-0.542151,0.85061127,0.8155506,-0.08673289,0.09502717,0.5642023,0.43563792,-0.6631747,-1.2342697,1.0,0.0,0.0,0.0,0.0,0.0,0.0,-1.1093467,0.2651535,-0.56322366,-16.62451,-0.016832352,1.22087,-4.2023897,-1.9489288,0.0076830387,0.81757605
-62.299156,25.261093,-4.3638306,30.917768,3.1554925,1.2028587,-0.531968,0.010423134,-0.81194526,-0.63602287,-0.7153283,-0.6201881,0.64275515,0.27024558,1.1894776,-0.85933536,-1.9536005,-1.1298535,2.1480837,1.651812,-0.93094724,1.1931406,-0.7926224,-1.9011352,-1.0693547,2.2009435,1.5922819,-0.9565642,0.3970541,-1.4492769,-1.1145444,-1.1264409,-0.91841197,0.47321552,0.14276588,0.43083572,-0.66621447,1.0834028,-2.8504853,-0.1060494,-3.0059054,0.13489723,-0.54892063,0.8379747,0.81403935,-0.077942304,0.096200116,0.5674596,0.30898035,-0.67181015,-1.2787522,1.0,0.0,0.0,0.0,0.0,0.0,0.0,-1.0808357,0.26621446,-0.53340274,-29.380196,-0.4469633,-0.37066936,-9.21793,-0.97572803,-0.5187273,0.82919896
-81.17396,30.004595,-4.643698,39.245808,4.2610025,2.0433626,-0.61594975,-0.20550774,-0.79930085,-0.5182948,-0.74550736,-0.60028857,0.65036565,0.4233877,1.1725899,-0.87255245,-1.9529647,-1.1439054,2.1409147,1.6573185,-0.9142254,1.194245,-0.8070772,-1.9117916,-1.0814072,2.191834,1.5969969,-0.9549601,0.01704873,-1.4450389,-1.0497779,-1.2293801,-0.9108744,0.47047323,0.16629395,0.40235138,-0.667274,1.0526298,-2.8476355,-0.105943374,-3.101086,0.13666344,-0.5557265,0.82502985,0.8130241,-0.06877227,0.09735931,0.56989753,0.13472693,-0.6737829,-1.3047652,1.0,0.0,0.0,0.0,0.0,0.0,0.0,-1.0523514,0.267274,-0.5026298,-37.323566,0.1666069,6.315303,-9.641314,0.041759014,-0.4027784,2.3605108
-77.08041,39.725037,0.568174,40.055737,4.419164,2.381475,-0.5016861,-0.3184881,-0.8028096,-0.42447135,-0.7617367,-0.5556475,0.6422462,0.45795363,1.1623962,-0.8873582,-1.9542387,-1.1575809,2.1362693,1.6612215,-0.9091647,1.1917177,-0.82150155,-1.9213684,-1.0943409,2.1829534,1.6016833,-0.9530966,-0.34051946,-1.4423685,-0.9277912,-1.3128238,-0.88284457,0.4676604,0.19351035,0.37389755,-0.6683326,1.0209057,-2.8447886,-0.10583745,-3.196171,0.13669777,-0.5624566,0.81198347,0.8124319,-0.059480626,0.09821828,0.57163775,-0.040352527,-0.663036,-1.3092954,1.0,0.0,0.0,0.0,0.0,0.0,0.0,-1.0238975,0.26833257,-0.47090572,-35.141426,0.025939941,11.941624,-7.7054977,2.1827936,-0.3696561,2.8677285
-60.902473,49.168762,6.5727844,35.976387,3.7249954,2.2280412,-0.33833665,-0.3873357,-0.79374975,-0.40930158,-0.7660624,-0.57018584,0.64434344,0.5226532,1.1529841,-0.9008765,-1.9622985,-1.1709472,2.1259348,1.6661175,-0.9008313,1.1862303,-0.8358601,-1.9297836,-1.1078678,2.1743054,1.6063467,-0.9509289,-0.6163827,-1.4343542,-0.8137366,-1.364249,-0.86024535,0.46592277,0.22523808,0.34547043,-0.6693902,0.9882315,-2.8419445,-0.10573164,-3.2911613,0.13523674,-0.56899214,0.7989794,0.8121162,-0.050255038,0.09869047,0.5728891,-0.18299085,-0.6403914,-1.3014288,1.0,0.0,0.0,0.0,0.0,0.0,0.0,-0.9954704,0.2693902,-0.43823147,-27.101702,0.6219387,11.089766,-4.596472,1.8174529,-0.21947622,3.3903747
-41.525387,43.998463,5.9130135,26.630186,2.5240636,1.2801111,-0.25746274,-0.3995357,-0.79767084,-0.5515137,-0.7730414,-0.60611033,0.62673175,0.5119072,1.1462767,-0.9156272,-1.9849349,-1.185172,2.1136944,1.6690199,-0.8997382,1.1788737,-0.85016423,-1.9380023,-1.1217133,2.1657338,1.6109778,-0.9484818,-0.7742099,-1.4295678,-0.82512903,-1.3897716,-0.85763144,0.46169734,0.25170302,0.3170719,-0.6704469,0.9546081,-2.8391032,-0.10562593,-3.3860567,0.13272858,-0.57538843,0.7858656,0.8119957,-0.0409198,0.09898474,0.5737513,-0.2749361,-0.6290182,-1.3180218,1.0,0.0,0.0,0.0,0.0,0.0,0.0,-0.9670719,0.27044687,-0.40460807,-15.442932,0.32811165,-1.3323426,-2.0640373,-0.10111332,-0.5814612,2.8031647
-34.233406,35.69441,2.3323004,21.359612,1.9343748,0.6273035,-0.28930813,-0.46022862,-0.80322427,-0.66105294,-0.7741889,-0.6309136,0.6232267,0.5058862,1.1328508,-0.9304867,-2.0041077,-1.1991322,2.1026425,1.6733004,-0.8978932,1.1704279,-0.8644646,-1.9471443,-1.1356636,2.1570592,1.6155611,-0.94581056,-0.8670458,-1.4307271,-0.944127,-1.3951322,-0.8717799,0.45608148,0.2725436,0.288702,-0.6715021,0.9200365,-2.8362648,-0.10552032,-3.4808571,0.12948608,-0.5817847,0.77238804,0.81208086,-0.03117573,0.0993566,0.5741785,-0.34382582,-0.63236535,-1.3605957,1.0,0.0,0.0,0.0,0.0,0.0,0.0,-0.938702,0.2715021,-0.37003648,-9.012211,-0.28350353,-11.941969,-0.036001205,-1.8101096,-0.85751414,2.160722
-40.250267,31.51295,-0.8958683,22.27999,2.2146463,0.6148205,-0.41240865,-0.5706336,-0.8039329,-0.71109277,-0.7725387,-0.60839087,0.596923,0.46122,1.1133646,-0.9448579,-2.0182536,-1.2129174,2.09622,1.6752534,-0.89968854,1.1610285,-0.8787964,-1.9577568,-1.149572,2.148293,1.6200663,-0.94299436,-0.96335447,-1.4347538,-1.100291,-1.3875858,-0.8799323,0.44728187,0.28480187,0.26036072,-0.6725564,0.88451755,-2.8334293,-0.10541482,-3.5755627,0.12546349,-0.5882807,0.75841707,0.8124596,-0.020850427,0.09986464,0.57402235,-0.42499775,-0.6440429,-1.4123911,1.0,0.0,0.0,0.0,0.0,0.0,0.0,-0.9103607,0.2725564,-0.33451754,-9.348642,-0.6220341,-15.561271,1.3274908,-1.2990832,-1.2782514,1.278305
-50.87162,32.492317,-2.206355,26.089573,2.8568242,1.0224191,-0.5309963,-0.6852791,-0.8025399,-0.7400741,-0.76369977,-0.5716325,0.59101254,0.4393832,1.0925006,-0.9590504,-2.0317643,-1.225942,2.0911298,1.6791675,-0.899056,1.150416,-0.89316636,-1.9698226,-1.1633316,2.1395726,1.6244799,-0.94009423,-1.092881,-1.4386458,-1.2416806,-1.3700025,-0.8714151,0.437948,0.29201823,0.23204803,-0.67360973,0.8480523,-2.8305967,-0.10530943,-3.6701736,0.120435715,-0.59489775,0.7439703,0.81322956,-0.00994849,0.10040157,0.57313025,-0.5330345,-0.65521085,-1.4586653,1.0,0.0,0.0,0.0,0.0,0.0,0.0,-0.882048,0.27360973,-0.2980523,-12.638593,-0.6683588,-14.027548,2.4154902,0.27502775,-1.3948083,0.79653263
-49.19979,40.101402,1.6482403,26.848167,3.0621312,1.390697,-0.49975792,-0.73562247,-0.80283105,-0.748247,-0.74963975,-0.5001795,0.59889925,0.3675264,1.0768538,-0.97344947,-2.0446475,-1.2382956,2.0895548,1.6843698,-0.9033416,1.1385218,-0.9075678,-1.9829547,-1.1768624,2.1311727,1.6288153,-0.93718743,-1.2208025,-1.4415842,-1.3368105,-1.345362,-0.83139515,0.43075103,0.29072878,0.20376205,-0.6746621,0.8106337,-2.8277667,-0.105204135,-3.7657554,0.114292145,-0.6015482,0.7291755,0.81438833,0.0013661818,0.10072169,0.571511,-0.6458215,-0.65510523,-1.4898732,1.0,0.0,0.0,0.0,0.0,0.0,0.0,-0.85376203,0.2746621,-0.2606337,-12.508965,-0.569129,-9.413075,3.0951738,3.4604907,-1.1577904,0.00950098
-42.76174,48.189674,6.5779552,25.795042,3.0163033,1.6521459,-0.41783524,-0.7781659,-0.80048007,-0.7577656,-0.73663926,-0.41445503,0.5807125,0.30289495,1.0607052,-0.9876158,-2.0587313,-1.2505263,2.0897272,1.6868865,-0.90689796,1.1254641,-0.9219759,-1.9967029,-1.1901299,2.123425,1.6330782,-0.9343474,-1.3333995,-1.4413812,-1.3873044,-1.3185697,-0.7575203,0.4235801,0.2824909,0.17550659,-0.67571354,0.77226,-2.8249393,-0.105098955,-3.8612416,0.10707474,-0.60810995,0.71418643,0.81587595,0.0128981015,0.1005538,0.56927043,-0.7521001,-0.6423701,-1.5053903,1.0,0.0,0.0,0.0,0.0,0.0,0.0,-0.82550657,0.27571353,-0.22226,-11.030817,-0.22103786,-4.9786806,3.233862,6.931281,-1.100409,-0.6235719
-33.010628,56.912685,12.2333145,24.04928,2.7587194,1.8207136,-0.34172904,-0.8031318,-0.793137,-0.7622802,-0.7091476,-0.33699507,0.58711636,0.20309505,1.0451509,-1.0012896,-2.0729308,-1.2610446,2.0897255,1.6917899,-0.9140379,1.1114947,-0.93633634,-2.0107,-1.2030655,2.1165853,1.6372877,-0.9316628,-1.4174522,-1.4349144,-1.4035869,-1.2838361,-0.66043013,0.4190454,0.26458108,0.14727783,-0.67676353,0.73293215,-2.8221147,-0.10499388,-3.9566324,0.09890938,-0.61445904,0.6991643,0.8176274,0.024439177,0.09971229,0.56652063,-0.84301037,-0.61705536,-1.5044659,0.0,1.0,0.0,0.0,0.0,0.0,0.0,-0.7972778,0.27676353,-0.18293214,-8.247662,0.46274662,-1.5862226,3.9049149,9.375024,-0.74768066,-1.5568674
-23.13979,59.06402,15.483873,20.730812,3.010374,1.6959829,-0.31519872,-0.8148748,-0.79897773,-0.77252007,-0.7123977,0.03709147,0.51720744,-0.10245998,1.0300071,-1.0162342,-2.087952,-1.2743053,2.1202943,1.6890085,-0.9419088,1.0968624,-0.9505665,-2.0253773,-1.2162193,2.1123807,1.6404816,-0.9295374,-1.4775932,-1.4198743,-1.488181,-1.3238368,-0.34757105,0.2734155,0.20127419,0.12797356,-0.6771984,0.7223202,-1.7260963,0.023263238,-0.097667515,0.0899086,-0.62082434,0.68392754,0.81975174,0.03669376,0.09741213,0.5631797,-0.92310053,-0.62768686,-1.533769,0.0,1.0,0.0,0.0,0.0,0.0,0.0,-0.77797353,0.2771984,-0.17232019,-4.7825575,0.090408325,-0.091576576,3.0660152,22.181152,-2.1220088,-4.1056814
31.529583,176.0,110.0,110.0,4.0340714,12.80932,-1.609519,-0.7700955,0.55480015,0.6932425,0.67095715,-0.39007518,0.68416107,-0.3471525,1.0198529,-0.89508647,-1.956053,-1.1491235,2.0733733,1.7088977,-0.96425265,1.0848976,-0.96732825,-2.0319462,-1.2163643,2.0999906,1.6517502,-0.9278189,-1.0861382,-1.6762149,-0.51819605,0.38693655,-1.4138516,1.4683187,0.20145755,0.1107254,-0.6769657,0.7205998,-1.7243706,0.02323998,-0.19682103,0.07986832,-0.6253147,0.6730461,0.82242864,0.038585413,0.09734699,0.55914736,-1.0361385,-0.37190932,-0.9434269,1.0,0.0,0.0,0.0,0.0,0.0,0.0,-0.7607254,0.2769657,-0.17059976,44.18762,0.0,55.47017,160.5294,-69.911575,136.5815,11.828479
-38.32765,176.0,73.52815,97.72091,7.612682,5.8839154,-1.9540769,-0.81498814,-0.64897144,0.04069925,0.73059624,-0.4139774,0.5721755,-0.33475354,1.0033988,-1.0322254,-2.0278761,-1.1433046,2.0585928,1.7089678,-0.96129423,1.0739189,-0.98409003,-2.0319157,-1.205336,2.0844991,1.6662365,-0.9265467,-1.100223,-1.6762143,0.17761753,1.3422378,-1.5963589,1.4476725,0.10524551,0.093494415,-0.6767335,0.7178886,-1.7226466,0.023216743,-0.2958754,0.06829262,-0.62872744,0.6669253,0.82640433,0.033147227,0.09847615,0.55340725,-1.1978577,-0.31931385,-0.5050379,1.0,0.0,0.0,0.0,0.0,0.0,0.0,-0.7434944,0.2767335,-0.16788858,-0.95334053,7.1525574e-05,69.872665,95.82428,-18.79983,-0.35533905,-8.771597
-59.815857,162.12057,44.182423,74.068054,5.6322722,3.4566655,-1.7795718,-0.8088492,-0.4708528,-0.32337293,0.6901186,-0.51644313,0.59042513,-0.026435245,0.993034,-1.0311753,-2.0642529,-1.1363242,2.0328548,1.7252791,-0.9291902,1.0622936,-0.9986736,-2.0299358,-1.1886123,2.0695722,1.6800209,-0.92568266,-1.181581,-1.3866864,0.20421584,1.7845868,-1.4592091,1.3587581,0.08050594,0.076280594,-0.67650175,0.7141876,-1.7209243,0.023193533,-0.39483076,0.055238724,-0.63171005,0.66383296,0.83169633,0.025318617,0.100453325,0.54548085,-1.3419414,-0.28246227,-0.25004438,1.0,0.0,0.0,0.0,0.0,0.0,0.0,-0.72628057,0.27650174,-0.16418761,-7.596302,28.662825,2.5441499,44.83788,13.377762,-7.8928947,-2.3572743
-44.942947,129.08044,32.65409,45.632225,3.6124876,2.1400242,-0.9645149,-0.8016019,-0.52703154,-0.026516499,0.7501873,-0.4899334,0.5437345,-0.10085127,0.98213345,-1.0513768,-2.0325875,-1.1135936,2.0205789,1.7343944,-0.93576777,1.0496174,-1.010625,-2.028036,-1.1701282,2.0567472,1.6925179,-0.92507994,-1.2955533,-1.1321515,0.18467899,1.8707085,-1.2245015,1.2151089,0.053444482,0.05908394,-0.67627,0.70949787,-1.7192037,0.023170345,-0.49368718,0.04118538,-0.6342654,0.6624142,0.8377722,0.017217431,0.102836914,0.53597176,-1.4287891,-0.23730117,-0.11275021,0.0,1.0,0.0,0.0,0.0,0.0,0.0,-0.7090839,0.27627,-0.15949786,-11.1202,25.17569,-2.1390676,8.947086,23.140358,-13.864112,-2.7280285
-30.294786,79.486015,14.9510975,19.834854,1.7348397,0.6859019,-0.3990665,-0.80302596,-0.5610475,-0.09514617,0.7165249,-0.42658165,0.581438,-0.28500846,0.9693148,-1.0667298,-2.0375507,-1.0984757,2.014089,1.7506617,-0.9535808,1.0359513,-1.0207549,-2.0271664,-1.1524471,2.0463521,1.7036663,-0.92484534,-1.3900616,-0.9738144,0.053535156,1.7341694,-0.9781439,1.0821651,0.013119318,0.04190445,-0.67603827,0.7038202,-1.7174848,0.023147179,-0.5924447,0.02660942,-0.63650846,0.661361,0.844173,0.010105383,0.10509515,0.52557087,-1.4692392,-0.20954016,-0.10906316,0.0,1.0,0.0,0.0,0.0,0.0,0.0,-0.6919044,0.27603826,-0.15382022,-9.401321,15.686262,-13.349417,-13.546753,24.516333,-13.083625,-4.124584
-10.825937,60.351414,12.857721,6.754947,0.556108,0.187213,0.026651688,-0.8009386,-0.54325116,-0.028345544,0.71806633,-0.3998033,0.57810736,-0.31706658,0.9558574,-1.07508,-2.030001,-1.0806404,2.0063717,1.7614771,-0.95655197,1.0216194,-1.0299083,-2.0272655,-1.1365951,2.0380552,1.7136132,-0.9250103,-1.4477167,-0.89603776,-0.030950062,1.5355966,-0.78121847,0.9658696,-0.026622087,0.024742126,-0.675807,0.6971558,-1.7157677,0.023124035,-0.6911035,0.011926651,-0.63848877,0.6600283,0.85056794,0.004304608,0.10690771,0.5148653,-1.469565,-0.18277133,-0.1459596,0.0,1.0,0.0,0.0,0.0,0.0,0.0,-0.6747421,0.275807,-0.14715576,-5.8395147,7.675433,-8.474583,-19.88876,19.44579,-11.527527,-4.0587587
-0.36084032,49.927204,12.259933,2.5854807,0.33578846,-0.07068324,0.14871016,-0.79719573,-0.5368583,-0.029921653,0.71900666,-0.29218045,0.5828845,-0.35678795,0.9418999,-1.0835941,-2.0302577,-1.0646944,2.0088372,1.7719016,-0.9606891,1.0069913,-1.0387251,-2.028003,-1.1225545,2.0315068,1.7223932,-0.92551154,-1.4680634,-0.87608397,-0.10093462,1.3525736,-0.60205144,0.83636874,-0.055433672,0.0068683624,-0.6748929,0.6926791,-1.7599002,0.19360021,0.22403286,-0.0026474,-0.64029264,0.658205,0.8568143,-0.0002442338,0.108068295,0.50417286,-1.4544752,-0.17194782,-0.20290539,0.0,1.0,0.0,0.0,0.0,0.0,0.0,-0.65686834,0.2748929,-0.1426791,-2.0766735,2.0869732,-9.081652,-19.64922,18.395842,-16.108835,-1.9906156
21.598896,141.21475,50.710518,17.975391,-0.08638328,1.6940218,0.16600534,-0.7986379,-0.16847628,0.22763842,0.754397,-0.31070912,0.6021058,-0.3750957,0.9271275,-1.0555727,-2.0052392,-1.0471148,2.0004358,1.7826037,-0.9630211,0.9923171,-1.0458872,-2.0278885,-1.1096666,2.0262578,1.730177,-0.92633456,-1.4680303,-0.6636482,0.05114184,1.2666967,-0.5018098,0.759743,-0.09212596,-0.010717392,-0.6729584,0.69417036,-1.7581407,0.19340666,0.12416398,-0.01671791,-0.6413598,0.6572174,0.86278313,-0.0047329147,0.10912111,0.49363476,-1.3922491,-0.07349259,-0.066913426,0.0,1.0,0.0,0.0,0.0,0.0,0.0,-0.6392826,0.27295837,-0.14417034,-0.24065971,20.977879,15.84138,-8.835173,9.230244,-7.4130893,-3.940402
13.768345,119.44087,41.287403,18.409388,0.35260844,1.2553023,0.052905664,-0.80767286,-0.25974584,0.1371656,0.73646164,-0.29160812,0.5814224,-0.34686586,0.9115498,-1.0718619,-2.014172,-1.0360204,1.9970969,1.7883192,-0.9610211,0.97768295,-1.0514376,-2.0265152,-1.0972383,2.0217106,1.7372972,-0.9274618,-1.4622927,-0.51948845,0.16749226,1.234619,-0.4407439,0.69659376,-0.12025458,-0.02828598,-0.67102575,0.69466364,-1.7563828,0.19321328,0.024394933,-0.030323029,-0.64163494,0.6573285,0.8685015,-0.00965154,0.11031876,0.48315802,-1.3504353,-0.0016622044,0.034797657,0.0,1.0,0.0,0.0,0.0,0.0,0.0,-0.621714,0.27102575,-0.14466363,0.42767525,14.204847,12.117775,-3.2942772,5.5270967,-6.14295,-2.9785275
5.3259625,128.86388,40.637592,24.241669,0.24963379,1.2797654,-0.1327273,-0.81307054,-0.087786116,0.03977225,0.74665934,-0.38173005,0.6008971,-0.31686848,0.8963759,-1.0602162,-2.022538,-1.0225724,1.9835377,1.7973869,-0.95914865,0.9630969,-1.0551735,-2.0246847,-1.0847849,2.0172713,1.743862,-0.92880803,-1.4576086,-0.32552394,0.18518415,1.2467693,-0.44016033,0.6389626,-0.13913141,-0.045764923,-0.66868114,0.69500136,-1.7189159,0.30104995,0.22127408,-0.043531418,-0.6411767,0.6585267,0.8740446,-0.0148542505,0.11223908,0.47246987,-1.3117272,0.06988012,0.14471842,0.0,1.0,0.0,0.0,0.0,0.0,0.0,-0.60423505,0.26868114,-0.14500135,0.3932953,19.209766,1.4553398,0.87988377,0.67346096,-6.6274047,-1.8780679
-5.5736074,118.82495,32.82453,25.930984,0.37977636,0.932021,-0.28264165,-0.81920046,0.008615538,-0.079948984,0.75006706,-0.3566439,0.5779061,-0.30118564,0.8811769,-1.054312,-2.0326796,-1.0097781,1.9816068,1.8016527,-0.9589266,0.94851905,-1.0569397,-2.023586,-1.0720785,2.0127926,1.749937,-0.93030524,-1.4581153,-0.12767732,0.085398346,1.27874,-0.45154765,0.5970998,-0.15369406,-0.062654495,-0.66548014,0.6978682,-1.6803482,0.329816,0.30905244,-0.05647278,-0.64010906,0.66061795,0.8795027,-0.019949572,0.1152786,0.46128932,-1.2878417,0.12846832,0.22887295,0.0,1.0,0.0,0.0,0.0,0.0,0.0,-0.5873455,0.26548013,-0.14786822,-0.1326561,19.57228,-9.703991,3.2531738,-1.4673412,-4.187584,-1.607874
-14.605259,89.63452,19.612104,22.593515,0.4397455,0.34244645,-0.34089497,-0.81867975,0.018199595,-0.22186959,0.7530028,-0.3572457,0.57877153,-0.29642767,0.86665106,-1.0551198,-2.045773,-0.9967782,1.9770681,1.8078142,-0.959948,0.9339278,-1.0571572,-2.0242689,-1.0590397,2.0081654,1.7556453,-0.93191797,-1.4596224,0.013023823,-0.1190753,1.3124021,-0.4669197,0.5621816,-0.1643432,-0.079301834,-0.6619911,0.7011491,-1.6592113,0.35547203,0.33530557,-0.06931305,-0.63865614,0.6631039,0.8849396,-0.024462828,0.11952572,0.44944066,-1.2814125,0.16030645,0.2539193,0.0,1.0,0.0,0.0,0.0,0.0,0.0,-0.57069814,0.2619911,-0.1511491,-0.19762516,13.908154,-20.321985,3.4176111,-1.6949892,-3.4321308,-1.227212
-19.256811,76.03486,13.752073,21.21271,0.5038564,0.1461935,-0.3535162,-0.82641226,0.07456215,-0.3169304,0.768149,-0.3764091,0.579377,-0.3120224,0.85128653,-1.049701,-2.0559618,-0.9822248,1.9705244,1.813583,-0.9631202,0.91928315,-1.0562207,-2.027248,-1.0456595,2.0033314,1.7610562,-0.9336337,-1.466104,0.120028436,-0.35694635,1.346734,-0.4893723,0.53397834,-0.17456582,-0.09577942,-0.6582794,0.7045084,-1.6435423,0.37661192,0.33693653,-0.08216286,-0.6369624,0.6656431,0.89037246,-0.028105082,0.12494052,0.43684882,-1.2847117,0.18211676,0.25322694,0.0,1.0,0.0,0.0,0.0,0.0,0.0,-0.55422056,0.2582794,-0.15450841,-0.6789684,10.545304,-23.6841,3.462863,-2.369839,-2.8216481,-1.198715
-20.628677,54.31987,6.683667,17.148108,0.56470335,-0.1306346,-0.29951063,-0.8256309,0.050455112,-0.414184,0.7788782,-0.39169675,0.5759189,-0.33389524,0.83672005,-1.0511751,-2.0686662,-0.9677717,1.9641618,1.8186481,-0.9670232,0.9045832,-1.0547329,-2.0325885,-1.0319704,1.9982477,1.7662232,-0.9354562,-1.4713182,0.15804222,-0.59277046,1.3764579,-0.514657,0.51074976,-0.18542598,-0.11215401,-0.6544161,0.70760643,-1.635164,0.38972667,0.30154866,-0.0951252,-0.63516426,0.6678965,0.8957828,-0.030714665,0.13128658,0.42354873,-1.2978816,0.18892586,0.2159912,0.0,1.0,0.0,0.0,0.0,0.0,0.0,-0.53784597,0.25441608,-0.15760642,-0.51743984,3.680715,-23.523867,2.991414,-2.5956035,-2.351606,-1.2585729
-18.375528,45.96985,4.9607506,14.368198,0.5008414,-0.17329967,-0.19441101,-0.8264258,0.05636536,-0.49525568,0.7797765,-0.41994286,0.5856206,-0.3095512,0.82194066,-1.0490963,-2.082114,-0.9539927,1.9562534,1.8247852,-0.96641135,0.8898413,-1.0531384,-2.0400577,-1.0180694,1.9928688,1.7711958,-0.937359,-1.4751656,0.15942574,-0.79822266,1.3947762,-0.54589665,0.4926424,-0.19254345,-0.12844849,-0.6504369,0.71026367,-1.6274194,0.40078384,0.2547195,-0.10821724,-0.63332176,0.66967833,0.90110826,-0.032270614,0.13833256,0.40966642,-1.3108758,0.192818,0.16574806,0.0,1.0,0.0,0.0,0.0,0.0,0.0,-0.5215515,0.25043687,-0.16026366,-0.37992,0.026586652,-20.447624,1.836133,-3.213358,-1.8607497,-0.89641213
-14.136972,45.76607,6.608741,12.801615,0.51305884,-0.06740421,-0.089379884,-0.827202,0.054233126,-0.53687716,0.7812499,-0.43105328,0.5992308,-0.3032036,0.8071211,-1.0477151,-2.0937455,-0.9399444,1.9497634,1.8311188,-0.9676793,0.87507004,-1.0516869,-2.049152,-1.0040598,1.987196,1.7760233,-0.93931764,-1.4778322,0.14013352,-0.9460892,1.4029212,-0.57488716,0.47904262,-0.19754091,-0.14464569,-0.6463356,0.71248615,-1.6167555,0.41343376,0.21255484,-0.121414185,-0.6314144,0.67097723,0.90627104,-0.032913662,0.14585352,0.39536828,-1.3201084,0.20039007,0.11866407,0.0,1.0,0.0,0.0,0.0,0.0,0.0,-0.5053543,0.2463356,-0.16248614,-0.2897501,-2.045548,-14.58261,0.7972002,-3.0719638,-1.446563,-0.69230497
-11.938435,40.28517,5.7934723,10.787976,0.45870364,-0.064671874,-0.0072438754,-0.82734424,0.019503055,-0.6046122,0.78256166,-0.4718759,0.6058603,-0.2864538,0.7923356,-1.0497366,-2.1096132,-0.9258036,1.9400084,1.8366092,-0.96796304,0.86028236,-1.0506188,-2.059482,-0.99001765,1.9811717,1.7807401,-0.94130427,-1.4791414,0.09552065,-1.0613859,1.4046212,-0.61213297,0.46896148,-0.19968966,-0.16073608,-0.64211893,0.71423924,-1.606001,0.42467505,0.16445282,-0.13469696,-0.6294427,0.67175215,0.9112114,-0.032731134,0.15368156,0.38079455,-1.3282108,0.2068602,0.064867295,0.0,1.0,0.0,0.0,0.0,0.0,0.0,-0.4892639,0.24211892,-0.16423923,-0.15547276,-4.5636625,-11.302352,0.15950203,-3.907168,-1.0950685,-0.4009366
-10.981913,32.088783,3.8686101,8.7596655,0.4419303,-0.1269759,0.077408805,-0.82743555,-0.04151001,-0.65247476,0.78558654,-0.5179354,0.5926259,-0.20877098,0.7775388,-1.0547698,-2.1247296,-0.91145897,1.9293782,1.8400028,-0.9621814,0.8454899,-1.050243,-2.070762,-0.9759699,1.9746958,1.7853632,-0.9432486,-1.4793125,0.017992767,-1.1496384,1.4049273,-0.6598033,0.45988715,-0.19313693,-0.17673492,-0.63781404,0.71541864,-1.5974687,0.4326526,0.10385747,-0.14807892,-0.62743855,0.6718981,0.91588587,-0.031747207,0.16166225,0.36607426,-1.3387568,0.20902349,-0.0010585453,0.0,1.0,0.0,0.0,0.0,0.0,0.0,-0.47326505,0.23781404,-0.16541862,-0.023293495,-7.8323126,-8.62155,0.05686283,-4.9191236,-0.9795308,0.49356818
-7.2120733,42.273224,8.069788,9.6926565,0.48050076,0.06818777,0.1424174,-0.82597446,-0.037191845,-0.656499,0.7836927,-0.5338859,0.605564,-0.15346195,0.7628925,-1.0539622,-2.136412,-0.89760065,1.9213072,1.8459196,-0.9585948,0.83070415,-1.0505234,-2.0826175,-0.9619402,1.9677731,1.7899141,-0.9450817,-1.4785163,-0.043682836,-1.1961696,1.402283,-0.7039791,0.45325068,-0.1806533,-0.19259453,-0.6333928,0.7161444,-1.5815713,0.44560745,0.0637727,-0.16150475,-0.62534475,0.6715265,0.92024547,-0.03011331,0.16972671,0.35133213,-1.3414509,0.22048357,-0.047940645,0.0,1.0,0.0,0.0,0.0,0.0,0.0,-0.45740545,0.2333928,-0.16614437,0.018024445,-6.274895,-4.2981863,-0.27515888,-4.7073245,-0.7844806,1.0703981
-10.27543,21.473768,1.5993057,6.1930485,0.60274804,-0.18101096,0.19302338,-0.8333896,-0.17739326,-0.69473547,0.7762783,-0.5461879,0.58122873,-0.09083357,0.7473652,-1.0682627,-2.152091,-0.8843124,1.9131542,1.848037,-0.95416504,0.81589645,-1.0518929,-2.09487,-0.9479639,1.9604561,1.7943945,-0.946746,-1.4813955,-0.16820528,-1.2342787,1.39646,-0.74103934,0.44599417,-0.16201875,-0.20838928,-0.62891436,0.7161733,-1.5781968,0.44887796,-0.015954211,-0.17507935,-0.6232381,0.67042613,0.92430466,-0.02778859,0.17761214,0.33666375,-1.3601999,0.21811497,-0.12965778,0.0,1.0,0.0,0.0,0.0,0.0,0.0,-0.4416107,0.22891435,-0.16617328,-0.26409626,-12.501608,-3.6474466,-0.47438145,-3.8152218,-0.80421567,1.7709047
-5.5053215,43.47268,8.92209,9.380867,0.6620183,0.120698154,0.23707059,-0.8257905,-0.1276899,-0.6866656,0.77685773,-0.5478789,0.59203833,0.02365311,0.7333174,-1.0646619,-2.1635365,-0.8702781,1.9056683,1.8535984,-0.9443807,0.8010897,-1.0541054,-2.1073093,-0.93404585,1.9528661,1.7988154,-0.94814986,-1.4806627,-0.2392832,-1.2457656,1.3901974,-0.7659562,0.4401626,-0.1336577,-0.2240448,-0.6243334,0.71569884,-1.5606203,0.46137,-0.056378257,-0.18873215,-0.6210365,0.66878766,0.9280341,-0.02492171,0.1853216,0.3221605,-1.3641018,0.23188892,-0.17437725,0.0,1.0,0.0,0.0,0.0,0.0,0.0,-0.42595518,0.22433338,-0.16569883,-0.000333786,-7.2182894,-0.73850155,-0.6123781,-2.8387308,-0.7420182,2.6921868
-10.262798,14.954953,0.075357676,4.608643,0.7389908,-0.21875334,0.25648266,-0.834715,-0.31169817,-0.71409774,0.77066535,-0.54420745,0.5537504,0.048025377,0.7176182,-1.0852752,-2.178719,-0.8569793,1.8984454,1.8541903,-0.94334733,0.78626007,-1.0576016,-2.1198902,-0.9201925,1.9451108,1.8031578,-0.9492672,-1.4835528,-0.3865487,-1.2622116,1.3843483,-0.77877474,0.4319114,-0.10443193,-0.23964119,-0.6197214,0.71442467,-1.5592769,0.46148652,-0.14975812,-0.20258522,-0.6188288,0.6663628,0.9314853,-0.021428626,0.19259173,0.30787048,-1.3901188,0.22807832,-0.26457885,0.0,1.0,0.0,0.0,0.0,0.0,0.0,-0.4103588,0.2197214,-0.16442466,-0.23465157,-14.763582,-1.5421867,-0.39672852,-1.343596,-0.9395838,2.9058754
-6.486252,37.911057,7.2261057,8.5937,0.8657481,0.11075717,0.27026373,-0.8272345,-0.2687629,-0.692702,0.78131986,-0.54400975,0.58211815,0.18499987,0.7035366,-1.0844779,-2.1891603,-0.8420605,1.8907099,1.8613696,-0.93076724,0.7714314,-1.0621506,-2.1324823,-0.9063412,1.937288,1.8074436,-0.9500187,-1.4826889,-0.47810122,-1.2572267,1.3856912,-0.784215,0.4268457,-0.06555269,-0.2551651,-0.6150441,0.7125398,-1.5489215,0.46995616,-0.20058566,-0.2165947,-0.6165328,0.6633268,0.9346496,-0.017445957,0.19945782,0.2938405,-1.4017999,0.24126448,-0.31629455,0.0,1.0,0.0,0.0,0.0,0.0,0.0,-0.39483488,0.21504411,-0.16253978,0.04441738,-9.257448,0.85549355,0.22947788,-0.8148432,-0.682348,3.8261845
-2.9734817,39.638714,8.3225565,7.985089,0.87779474,0.11071861,0.2801327,-0.81248814,-0.34016502,-0.68451416,0.7857827,-0.5198187,0.5829024,0.20676653,0.69018257,-1.0961671,-2.2009337,-0.8277629,1.8853061,1.8657339,-0.92934203,0.75668657,-1.0676132,-2.1449485,-0.89243937,1.9295244,1.8116866,-0.9503927,-1.4719746,-0.5693328,-1.241998,1.3919228,-0.7748641,0.42283803,-0.028249804,-0.27054024,-0.6102762,0.71015143,-1.5332198,0.4789253,-0.2502365,-0.23069191,-0.6141057,0.6598044,0.93753296,-0.013108911,0.20589918,0.28011683,-1.4091923,0.25464568,-0.36413252,0.0,1.0,0.0,0.0,0.0,0.0,0.0,-0.37945974,0.21027622,-0.16015142,1.0116816,-9.223056,1.9095421,0.6998539,0.60732365,-0.58254004,3.667777
-5.8487897,43.806232,8.487287,9.475512,0.90401256,0.19805211,0.26322466,-0.8271186,-0.37256175,-0.70283145,0.7787031,-0.5452533,0.5624555,0.25412524,0.6739747,-1.1048694,-2.2152317,-0.81456906,1.874999,1.8679322,-0.9249802,0.7419799,-1.0738655,-2.157346,-0.8785079,1.9217914,1.8158795,-0.9503974,-1.4704427,-0.6441668,-1.2376477,1.3938439,-0.7739257,0.417451,0.008594364,-0.28574562,-0.60541105,0.70730203,-1.5157112,0.48892796,-0.29513857,-0.24485588,-0.6115098,0.65583724,0.94014525,-0.00840306,0.21198554,0.26668027,-1.4164299,0.27285957,-0.407546,0.0,1.0,0.0,0.0,0.0,0.0,0.0,-0.36425436,0.20541105,-0.15730202,0.09179115,-7.603729,0.85282326,0.27883053,-0.28022528,-0.73352456,3.6088002
-7.5343633,45.18462,8.19268,10.001324,0.93693185,0.23539042,0.26831716,-0.83017105,-0.4115855,-0.71068835,0.77448815,-0.53135806,0.54805136,0.33973062,0.6589628,-1.1150241,-2.2284148,-0.8010591,1.8686557,1.8706846,-0.91642433,0.72725224,-1.0808083,-2.1697702,-0.8645898,1.9140968,1.8200123,-0.9500091,-1.4737185,-0.71150404,-1.2425753,1.3914899,-0.7692361,0.41104716,0.048742913,-0.30077362,-0.6004453,0.7040013,-1.4979781,0.49909523,-0.34040987,-0.2591095,-0.6087141,0.6514423,0.94249505,-0.0032876797,0.21775939,0.25352117,-1.4244983,0.29350418,-0.45039934,0.0,1.0,0.0,0.0,0.0,0.0,0.0,-0.34922636,0.20044526,-0.1540013,-0.38568974,-6.8626046,-0.07107258,-0.13656616,0.07747412,-0.84795356,3.9389956
-5.981878,51.063354,9.741903,10.804733,0.9591465,0.31542903,0.26038414,-0.82236195,-0.4324479,-0.7065145,0.77929366,-0.52237093,0.5637042,0.36646447,0.6450161,-1.1240531,-2.2404218,-0.78666043,1.8618598,1.8763827,-0.9133627,0.712517,-1.0883175,-2.1822402,-0.8506824,1.9064705,1.8240978,-0.94923836,-1.4737166,-0.76436853,-1.246828,1.3906518,-0.7617029,0.40688226,0.08626747,-0.315588,-0.5953727,0.7003102,-1.475529,0.5099495,-0.3770847,-0.27340317,-0.6056862,0.6466842,0.9445857,0.0022028426,0.22325985,0.24064104,-1.4270025,0.31778663,-0.4845224,0.0,1.0,0.0,0.0,0.0,0.0,0.0,-0.33441198,0.19537267,-0.15031016,-0.08645058,-5.4277897,0.06937981,-0.019025803,0.29215813,-0.6398499,3.6552415
-6.00923,46.47747,8.493998,9.567055,0.9705398,0.27549326,0.27430427,-0.825458,-0.49227053,-0.6980907,0.7723011,-0.49833643,0.5305545,0.41327703,0.6299712,-1.1375445,-2.2520492,-0.7734523,1.8566369,1.8771532,-0.90791065,0.6977741,-1.0964543,-2.1947062,-0.83681095,1.8989815,1.828122,-0.948097,-1.4747579,-0.83032614,-1.2450802,1.3863415,-0.74592716,0.40013126,0.12319946,-0.330204,-0.5902066,0.69617724,-1.4565705,0.51885575,-0.42345026,-0.2877388,-0.60242844,0.6415317,0.94644266,0.008054336,0.22840612,0.22806133,-1.43194,0.34037432,-0.525843,0.0,1.0,0.0,0.0,0.0,0.0,0.0,-0.31979597,0.19020662,-0.14617723,-0.17323494,-6.7236304,0.62367916,-0.3360033,1.1557341,-0.90146065,3.629683
-5.9145994,47.57873,8.598261,9.621954,0.9924885,0.3139466,0.27371445,-0.82724476,-0.5196131,-0.6981281,0.76910675,-0.4867851,0.5234837,0.45481783,0.61504966,-1.1484156,-2.264519,-0.7599003,1.8503029,1.8804704,-0.9026152,0.6830141,-1.1052281,-2.2071416,-0.8229948,1.8916694,1.8320777,-0.946596,-1.4766897,-0.89357036,-1.241612,1.3804216,-0.72759134,0.39325225,0.15896541,-0.3446293,-0.58495474,0.6915793,-1.4370812,0.5272956,-0.46978134,-0.3021183,-0.59893274,0.63597673,0.9480863,0.014251453,0.23315926,0.21579143,-1.4354951,0.3647166,-0.56601244,0.0,1.0,0.0,0.0,0.0,0.0,0.0,-0.3053707,0.18495473,-0.14157927,-0.26614666,-6.454444,0.81112385,-0.49569607,1.3944268,-0.9262562,3.5199552
-4.35394,44.649487,7.943939,8.0917015,0.87509024,0.2733612,0.3061439,-0.8246999,-0.56552464,-0.69478714,0.7552798,-0.47601134,0.47519785,0.49397802,0.6005441,-1.1617805,-2.2766204,-0.74746686,1.8440683,1.8795975,-0.8971982,0.6682492,-1.1146847,-2.2195277,-0.8092922,1.8845438,1.8359361,-0.9447469,-1.4767268,-0.9634218,-1.2363183,1.3672732,-0.7089132,0.38244435,0.19350469,-0.35886955,-0.5796323,0.686472,-1.4188466,0.53375435,-0.5223966,-0.31651497,-0.5952101,0.6299762,0.94953334,0.020808592,0.23746787,0.2038688,-1.4364978,0.38689813,-0.6121593,0.0,1.0,0.0,0.0,0.0,0.0,0.0,-0.29113042,0.17963228,-0.13647199,-0.07190704,-7.102561,0.9664774,-1.2118816,1.4494419,-1.3174593,3.412941
-1.7692811,47.904896,9.199353,8.08126,0.91605335,0.33486485,0.3049577,-0.81984454,-0.5951401,-0.6662804,0.7544516,-0.45832404,0.46572897,0.51820725,0.5862647,-1.1741987,-2.2861557,-0.733847,1.8387114,1.882509,-0.8929262,0.6535092,-1.1248127,-2.2317343,-0.7957117,1.8776207,1.8396858,-0.94257176,-1.4733526,-1.0294939,-1.2138138,1.3552197,-0.68819016,0.37164217,0.22548574,-0.37290382,-0.5742469,0.6808743,-1.3974508,0.5399521,-0.57011265,-0.33088493,-0.59125566,0.6235604,0.95080215,0.0276524,0.24129389,0.19232242,-1.4322927,0.4106066,-0.6521593,0.0,1.0,0.0,0.0,0.0,0.0,0.0,-0.27709615,0.17424688,-0.13087428,0.24609566,-6.725085,2.7499914,-1.1289358,1.598525,-1.3244152,3.1588583
1.2332358,47.28988,9.567473,6.811866,0.9070803,0.3178488,0.32997206,-0.8149361,-0.63870674,-0.6405528,0.735831,-0.4133613,0.39990953,0.5630767,0.5720156,-1.1886834,-2.2957895,-0.72212857,1.8362845,1.8796767,-0.8862641,0.63882726,-1.1356236,-2.2436054,-0.78230953,1.8709989,1.843287,-0.9400783,-1.4668399,-1.0987833,-1.1768022,1.3353841,-0.654904,0.35559624,0.25723606,-0.38672447,-0.5688081,0.67478186,-1.3758249,0.54493535,-0.6199378,-0.34519196,-0.5870762,0.6167454,0.95192623,0.034705818,0.24453638,0.18120097,-1.424525,0.4326718,-0.6923669,0.0,1.0,0.0,0.0,0.0,0.0,0.0,-0.2632755,0.16880807,-0.12478185,0.55031776,-7.0353985,4.2128086,-1.9222736,2.839315,-1.8532038,3.15665
2.2551608,54.132614,11.015642,7.9823246,0.9635139,0.3665414,0.3167271,-0.8141348,-0.64546305,-0.63169557,0.7215332,-0.3978236,0.3113218,0.5878541,0.5574138,-1.2001699,-2.3067749,-0.7101562,1.8312165,1.8744192,-0.88129294,0.6242055,-1.1469857,-2.25511,-0.7691438,1.8647163,1.8466743,-0.93728435,-1.460951,-1.1488997,-1.1400459,1.3103515,-0.6210798,0.33228528,0.28673467,-0.40028954,-0.5633216,0.6682628,-1.3489121,0.54968464,-0.66012025,-0.3593788,-0.582664,0.6096045,0.9529225,0.04193859,0.24720012,0.17050503,-1.4110932,0.45636657,-0.7224465,0.0,1.0,0.0,0.0,0.0,0.0,0.0,-0.24971044,0.16332158,-0.11826277,0.46103,-5.128026,4.2674065,-2.4836779,2.8070807,-2.586317,2.9085517
3.1998763,60.697784,12.3779335,9.133414,1.1505839,0.37064958,0.28880018,-0.8113039,-0.6516674,-0.6209869,0.6962555,-0.30732813,0.17123652,0.6047931,0.54307514,-1.2121524,-2.3172088,-0.69951826,1.8339834,1.863798,-0.87680507,0.6096409,-1.1586987,-2.2662866,-0.7563024,1.8589814,1.8497393,-0.9342157,-1.4555641,-1.1790575,-1.1079187,1.2752023,-0.55966085,0.29697296,0.3133764,-0.41355896,-0.55779123,0.6614002,-1.3185,0.55396354,-0.69260585,-0.3734169,-0.57800674,0.6022449,0.953823,0.04931711,0.24924695,0.16020459,-1.3953325,0.4809393,-0.7415862,0.0,1.0,0.0,0.0,0.0,0.0,0.0,-0.23644102,0.15779123,-0.11140019,0.38568974,-3.138113,3.8705826,-3.5420895,5.491972,-3.8027346,2.6105106
3.00844,67.966064,13.696368,10.915381,1.4464474,0.3675387,0.23874581,-0.8120405,-0.6482559,-0.6097685,0.6689975,-0.19589959,-0.011008362,0.61681193,0.52843684,-1.2235242,-2.3272634,-0.68940264,1.8393915,1.8486385,-0.8725345,0.5951088,-1.1705528,-2.277181,-0.7438815,1.8541224,1.8523369,-0.93090475,-1.4529451,-1.187863,-1.0812055,1.2307706,-0.4634247,0.24629179,0.33693495,-0.42650414,-0.5522213,0.65427357,-1.2854137,0.5579469,-0.7169846,-0.3873005,-0.5730901,0.5947923,0.954678,0.056791615,0.2505858,0.15023746,-1.379984,0.50716364,-0.7477399,0.0,1.0,0.0,0.0,0.0,0.0,0.0,-0.22349584,0.15222129,-0.10427356,0.08776188,-1.0097265,3.392911,-4.512906,8.903652,-5.361283,2.2946
5.485256,66.810234,13.780656,9.348254,1.7803562,0.24739563,0.22614866,-0.8080527,-0.6582123,-0.6062579,0.59303486,0.09917694,-0.22774707,0.6154809,0.51430357,-1.2363741,-2.3378067,-0.68457806,1.8640401,1.8295622,-0.86935663,0.5806063,-1.182449,-2.2878804,-0.73217684,1.8509908,1.854297,-0.927387,-1.4498794,-1.1903963,-1.0639255,1.1499594,-0.26519558,0.17804855,0.35669357,-0.4391632,-0.54662085,0.6468437,-1.258227,0.5607697,-0.74911267,-0.4010811,-0.56792355,0.58728564,0.95561004,0.06425277,0.25083196,0.14058587,-1.3700897,0.5315207,-0.7527489,0.0,1.0,0.0,0.0,0.0,0.0,0.0,-0.21083677,0.14662084,-0.09684366,0.1295805,-0.3613472,2.409196,-8.18696,19.134163,-7.157478,1.9622028
7.3051143,68.98396,14.725833,8.952405,2.084554,0.3030724,0.20590025,-0.8156037,-0.6543783,-0.55775267,0.522282,0.29290915,-0.3464249,0.6010024,0.4990459,-1.2478868,-2.3436556,-0.6799486,1.8802817,1.8196546,-0.86728674,0.5660904,-1.1943145,-2.298252,-0.7215031,1.8502359,1.8555343,-0.9237081,-1.452742,-1.1854277,-1.0260626,1.0393183,-0.014372876,0.104367904,0.37176183,-0.45156288,-0.54099417,0.63909173,-1.2323923,0.5635125,-0.7809499,-0.41475677,-0.5624933,0.5797782,0.95673084,0.07149707,0.24965177,0.13125645,-1.3608398,0.5585161,-0.7511353,0.0,1.0,0.0,0.0,0.0,0.0,0.0,-0.1984371,0.14099416,-0.08909172,-0.46999454,0.40569305,4.4810534,-11.204076,24.387798,-7.708426,1.5182495
12.743084,69.68016,15.499395,7.4561596,1.7772357,0.30656683,0.24564075,-0.80313784,-0.6556829,-0.5202317,0.46912032,0.31318414,-0.45449543,0.58622015,0.4857766,-1.2598828,-2.3502753,-0.67459106,1.8815544,1.8100848,-0.8650861,0.5515955,-1.2061229,-2.308124,-0.7119995,1.851694,1.8560239,-0.9199119,-1.4489218,-1.1795937,-0.9717884,0.9201283,0.19721772,0.029527787,0.38218957,-0.4636612,-0.5353613,0.6310569,-1.2012044,0.56309646,-0.80875266,-0.4282589,-0.5568366,0.57227945,0.95804447,0.078450374,0.24706197,0.12229699,-1.3398758,0.5796254,-0.7504781,0.0,1.0,0.0,0.0,0.0,0.0,0.0,-0.18633878,0.13536128,-0.08105689,0.19028187,0.5141258,6.1209917,-12.095475,20.491291,-7.76579,1.0193527
15.974722,75.04444,17.032408,8.347406,1.6538681,0.40432173,0.23720738,-0.7978046,-0.64558315,-0.4541774,0.4311243,0.32923204,-0.51011765,0.5873302,0.47181505,-1.2706811,-2.3535419,-0.668887,1.8846172,1.8050121,-0.8611789,0.53716826,-1.217834,-2.3172293,-0.70359737,1.8548279,1.8558027,-0.9160279,-1.4413538,-1.16843,-0.8879231,0.8128866,0.35003838,-0.040079147,0.3902452,-0.47538757,-0.5297499,0.6228354,-1.1620096,0.5601635,-0.82423514,-0.44147682,-0.5509844,0.5648495,0.9595062,0.085039124,0.24327184,0.113731876,-1.3090065,0.5983257,-0.7415675,0.0,1.0,0.0,0.0,0.0,0.0,0.0,-0.1746124,0.12974986,-0.072835386,0.5578518,1.0570526,9.102225,-10.926783,14.629102,-7.1847734,0.7410109
17.841578,86.94978,19.395586,11.491629,1.5409671,0.5581479,0.20838052,-0.7913136,-0.6079613,-0.3948206,0.401305,0.2710367,-0.5440541,0.58449584,0.4580369,-1.2786301,-2.3567114,-0.6634669,1.8819315,1.8013972,-0.85757834,0.52284116,-1.2292705,-2.325354,-0.6961042,1.8588653,1.8549427,-0.91207904,-1.4305898,-1.1357634,-0.7847455,0.7272776,0.41958398,-0.10177635,0.39596093,-0.48662186,-0.52419615,0.6146361,-1.1099433,0.5534659,-0.8167761,-0.45428848,-0.5449543,0.55763865,0.961024,0.09123572,0.23868205,0.10554501,-1.2655714,0.6153902,-0.7155188,0.0,1.0,0.0,0.0,0.0,0.0,0.0,-0.16337812,0.12419614,-0.06463611,0.86135864,3.2078981,11.081815,-8.806574,6.290263,-6.327434,0.43216348
19.831522,84.50484,18.929304,10.228322,1.3351119,0.5605731,0.24619259,-0.7864254,-0.6085136,-0.3437134,0.32421067,0.33870676,-0.5539026,0.58364797,0.4441986,-1.2901218,-2.3597255,-0.6636832,1.892736,1.7995524,-0.8537142,0.5086276,-1.2404094,-2.3324146,-0.68953806,1.8634537,1.8535352,-0.9080833,-1.4188844,-1.106699,-0.67745566,0.6323289,0.47011998,-0.15410507,0.40041533,-0.49733353,-0.5187278,0.60649514,-1.0582767,0.5442345,-0.811883,-0.46664047,-0.538784,0.5506446,0.96256447,0.09703153,0.23344031,0.097775236,-1.218856,0.6278786,-0.69515806,0.0,1.0,0.0,0.0,0.0,0.0,0.0,-0.15266645,0.11872777,-0.05649513,0.9814501,2.8625488,11.390853,-9.717428,4.4858036,-5.3439674,0.31283498
25.166927,95.00511,22.26913,11.949925,1.6108831,0.71199524,0.22543404,-0.774713,-0.569318,-0.2025262,0.27580646,0.39033815,-0.5753994,0.59591043,0.43115628,-1.2973412,-2.3526673,-0.66195744,1.9024875,1.7959952,-0.84849226,0.49455994,-1.2511458,-2.337999,-0.68391323,1.8685247,1.851659,-0.90404,-1.4034204,-1.0626155,-0.51683193,0.5382764,0.5176426,-0.19902468,0.40513924,-0.50746727,-0.51337814,0.5985504,-0.9983272,0.53166205,-0.7874238,-0.47846413,-0.53249025,0.54402035,0.9641508,0.10218446,0.22756737,0.09046894,-1.1644473,0.63944125,-0.65280956,0.0,1.0,0.0,0.0,0.0,0.0,0.0,-0.1425327,0.11337814,-0.048550367,1.3491869,4.379177,16.727543,-9.6735,4.2141495,-4.5504093,0.31970143
31.281248,98.65791,24.57198,11.077425,1.7893515,0.8243608,0.26568645,-0.7727221,-0.5485421,-0.033165265,0.18209545,0.45691055,-0.59234726,0.5999736,0.41728774,-1.306,-2.3413157,-0.6657037,1.9142157,1.7924243,-0.8440426,0.48062724,-1.2614207,-2.3414743,-0.6794253,1.8741643,1.8493826,-0.8999508,-1.3904471,-1.0157795,-0.28889233,0.41805783,0.57795864,-0.23761822,0.4100636,-0.5169735,-0.5081816,0.590923,-0.9331925,0.51846915,-0.7546117,-0.4896946,-0.5260935,0.5379031,0.96585137,0.10635421,0.22092849,0.08372797,-1.1042008,0.64844924,-0.59924626,0.0,1.0,0.0,0.0,0.0,0.0,0.0,-0.13302648,0.108181566,-0.040923,1.1230707,4.6729326,23.36189,-12.286961,5.6028605,-3.8861692,0.38397908
42.05154,82.58889,22.731047,1.1715059,0.8776927,0.6650476,0.5882211,-0.77195615,-0.53965575,0.053759117,-0.060474556,0.557075,-0.63557017,0.6138439,0.40343162,-1.3153863,-2.3360984,-0.6854727,1.9298718,1.7858256,-0.8385664,0.4667923,-1.2712893,-2.3426583,-0.6770249,1.8806095,1.8467467,-0.8958071,-1.3816017,-0.97720736,-0.060650848,0.18004693,0.66612875,-0.2720644,0.4156179,-0.5258808,-0.50316525,0.5834509,-0.87643313,0.4965523,-0.7448717,-0.50021553,-0.51972675,0.5320664,0.9677266,0.10950931,0.21317203,0.07791412,-1.029917,0.6407905,-0.57991725,0.0,1.0,0.0,0.0,0.0,0.0,0.0,-0.12411916,0.10316524,-0.0334509,0.76425076,3.8707852,23.10113,-24.008331,8.623016,-3.3600867,0.5121827
41.397366,107.82829,28.390121,9.792581,1.9397203,0.9502044,0.36647743,-0.7615339,-0.45664918,0.26686358,-0.04107906,0.63826054,-0.61598057,0.61171633,0.3906389,-1.3169543,-2.3159719,-0.6811328,1.9444356,1.7851486,-0.83463544,0.4530627,-1.2805057,-2.341137,-0.6766168,1.8880916,1.8438249,-0.89161086,-1.3702582,-0.90281564,0.2231897,-0.0061304853,0.7759486,-0.298181,0.42078707,-0.53411865,-0.49837208,0.5764046,-0.8068156,0.4736965,-0.69222516,-0.5100155,-0.513361,0.5268126,0.9698209,0.111273915,0.20430768,0.07296437,-0.9591845,0.642403,-0.50851476,0.0,1.0,0.0,0.0,0.0,0.0,0.0,-0.115881324,0.09837207,-0.02640456,1.0786772,7.464957,28.407822,-18.789349,11.109627,-2.4021566,0.46541095
33.41258,105.198456,25.433462,11.082272,1.668342,0.83463037,0.34164912,-0.7645753,-0.41604277,0.24412948,-0.15597276,0.67676765,-0.59084094,0.6016509,0.37660518,-1.3221099,-2.316724,-0.6922141,1.9557683,1.7847408,-0.83144575,0.43941045,-1.2888923,-2.3374982,-0.6780531,1.8966259,1.8407005,-0.8873737,-1.3634262,-0.8172575,0.4098387,-0.18954773,0.880366,-0.31639606,0.42468697,-0.54170036,-0.49380875,0.5698412,-0.7430884,0.4508414,-0.6460702,-0.51916885,-0.5069761,0.52217066,0.97206765,0.1118051,0.1945753,0.068735674,-0.8971673,0.6434862,-0.45095834,0.0,1.0,0.0,0.0,0.0,0.0,0.0,-0.10829961,0.09380874,-0.019841194,0.70917606,8.581102,18.390793,-18.37509,10.843504,-1.5629053,0.41195154
