Afshin1997/kuka_rl_ros2/src/catch_and_throw/input_files/idealpd/polynomial_regressor/optimizer_files/env_27_data.csv
torque0,torque1,torque2,torque3,torque4,torque5,torque6,action0,action1,action2,action3,action4,action5,action6,set_target_0,set_target_1,set_target_2,set_target_3,set_target_4,set_target_5,set_target_6,joint_pos_0,joint_pos_1,joint_pos_2,joint_pos_3,joint_pos_4,joint_pos_5,joint_pos_6,joint_vel_0,joint_vel_1,joint_vel_2,joint_vel_3,joint_vel_4,joint_vel_5,joint_vel_6,tennisball_pos_0,tennisball_pos_1,tennisball_pos_2,tennisball_lin_vel_0,tennisball_lin_vel_1,tennisball_lin_vel_2,end_effector_pos_0,end_effector_pos_1,end_effector_pos_2,end_effector_rot_0,end_effector_rot_1,end_effector_rot_2,end_effector_rot_3,end_effector_lin_vel_0,end_effector_lin_vel_1,end_effector_lin_vel_2,obs_task_0,obs_task_1,obs_task_2,obs_task_3,obs_task_4,obs_task_5,obs_task_6,to_final_target_0,to_final_target_1,to_final_target_2,joint_acc_0,joint_acc_1,joint_acc_2,joint_acc_3,joint_acc_4,joint_acc_5,joint_acc_6
0.0,0.0,0.0,0.0,0.0,0.0,0.0,0.0,0.0,0.0,0.0,0.0,0.0,0.0,1.7802359,-1.0646509,-1.8151424,-1.1170107,1.9373155,1.1170107,-0.91629785,1.7802359,-1.0646509,-1.8151424,-1.1170107,1.9373155,1.1170107,-0.91629785,0.0,0.0,0.0,0.0,0.0,0.0,0.0,2.745781,-0.526207,0.2994124,-3.0276778,-0.018135397,4.8588166,0.5304184,-0.45449448,0.693097,0.5745483,0.17512383,0.15255436,0.7848268,0.0,0.0,0.0,1.0,0.0,0.0,0.0,0.0,0.0,0.0,-3.395781,0.12620696,0.2505876,0.0,0.0,0.0,0.0,0.0,0.0,0.0
0.0,0.0,0.0,0.0,0.0,0.0,0.0,0.0,0.0,0.0,0.0,0.0,0.0,0.0,1.7802359,-1.0646509,-1.8151424,-1.1170107,1.9373155,1.1170107,-0.91629785,1.7802359,-1.0646509,-1.8151424,-1.1170107,1.9373155,1.1170107,-0.91629785,0.0,0.0,0.0,0.0,0.0,0.0,0.0,2.745781,-0.526207,0.2994124,-3.0276778,-0.018135397,4.8588166,0.5304184,-0.45449448,0.693097,0.5745483,0.17512383,0.15255436,0.7848268,0.0,0.0,0.0,1.0,0.0,0.0,0.0,0.0,0.0,0.0,-3.395781,0.12620696,0.2505876,0.0,0.0,0.0,0.0,0.0,0.0,0.0
0.0,0.0,0.0,0.0,0.0,0.0,0.0,0.0,0.0,0.0,0.0,0.0,0.0,0.0,1.7802359,-1.0646509,-1.8151424,-1.1170107,1.9373155,1.1170107,-0.91629785,1.7802359,-1.0646509,-1.8151424,-1.1170107,1.9373155,1.1170107,-0.91629785,0.0,0.0,0.0,0.0,0.0,0.0,0.0,2.745781,-0.526207,0.2994124,-3.0276778,-0.018135397,4.8588166,0.5304184,-0.45449448,0.693097,0.5745483,0.17512383,0.15255436,0.7848268,0.0,0.0,0.0,1.0,0.0,0.0,0.0,0.0,0.0,0.0,-3.395781,0.12620696,0.2505876,0.0,0.0,0.0,0.0,0.0,0.0,0.0
-176.0,64.77976,-7.7324696,110.0,11.208848,4.6959324,-3.7798407,-0.8201856,0.3317485,-0.5472805,0.7381951,0.33892092,0.66224235,-0.5935045,1.6982173,-1.031476,-1.8698704,-1.0431912,1.9712075,1.1832349,-0.9756483,1.7788302,-1.0620931,-1.8215244,-1.1125685,1.9436612,1.1225573,-0.91771024,-0.18730123,0.3403301,-0.85019696,0.59259635,0.845041,0.7375654,-0.18777372,2.7155304,-0.5263901,0.34722766,-3.0246506,-0.018117266,4.755772,0.528244,-0.45778275,0.693831,0.57820743,0.17384237,0.15073958,0.78277236,-0.29036334,-0.43783852,0.09766569,1.0,0.0,0.0,0.0,0.0,0.0,0.0,-3.3655305,0.12639007,0.20277235,-18.663048,33.797237,-84.78177,59.338768,84.17202,73.09112,-18.59315
-176.0,-34.677708,-47.34731,110.0,12.274044,1.3390168,-3.3386838,-0.8100474,-0.17654707,-0.5502522,0.6946459,0.46225712,0.6439011,-0.59692454,1.6978254,-1.0797478,-1.8765496,-1.0431039,1.9898869,1.1869473,-0.9774027,1.7771498,-1.0590357,-1.8368518,-1.0991274,1.9557787,1.1359488,-0.9186887,-0.16836737,0.27480265,-1.710423,1.5934707,1.3063374,1.4879694,-0.08067782,2.6853104,-0.5265732,0.39401326,-3.0216267,-0.018099152,4.6528306,0.5234833,-0.46628952,0.69457114,0.58636314,0.1707583,0.14635348,0.77820337,-0.5381745,-0.9857554,0.071242444,1.0,0.0,0.0,0.0,0.0,0.0,0.0,-3.3353105,0.12657318,0.15598676,-0.104898214,-12.404013,-71.10028,99.695755,37.766243,59.579613,6.849474
-152.93752,113.31016,33.68821,94.41984,8.31867,8.072736,-1.9326147,-0.7735049,0.2787773,0.14354567,0.6334652,0.4793159,0.68696386,-0.531191,1.6997993,-1.031158,-1.8224972,-1.0357809,2.0037103,1.2046452,-0.97180784,1.772204,-1.0557073,-1.8514965,-1.08137,1.9688631,1.1506525,-0.9197654,-0.6033927,0.3486807,-1.3750472,1.8380148,1.3036106,1.4572607,-0.11849494,2.6551208,-0.5267563,0.43977022,-3.0186057,-0.018081056,4.549992,0.5158005,-0.47764587,0.69704247,0.5973423,0.16602637,0.14041933,0.7719455,-0.8528023,-1.1783954,0.31001928,1.0,0.0,0.0,0.0,0.0,0.0,0.0,-3.305121,0.12675628,0.11022979,-43.57764,6.3087406,35.750698,24.870014,-1.9292593,-5.218363,-4.325983
-100.26913,101.91891,39.385918,58.801586,5.31619,7.5918994,-0.37835678,-0.7807149,0.06762424,0.204446,0.6483496,0.48850313,0.66045237,-0.57970333,1.6941326,-1.048945,-1.8310518,-1.016535,2.0177135,1.2166978,-0.97773576,1.7629381,-1.0527414,-1.8601501,-1.0634657,1.9807345,1.1642557,-0.92130274,-1.0352799,0.27683106,-0.68774825,1.7753143,1.1429957,1.3239862,-0.16743264,2.6249619,-0.5269394,0.48449957,-3.0155876,-0.018062979,4.4472566,0.5054779,-0.48981857,0.70146346,0.6092875,0.15983075,0.1332061,0.7651659,-1.1030512,-1.2201654,0.4902911,1.0,0.0,0.0,0.0,0.0,0.0,0.0,-3.274962,0.12693939,0.06550044,-43.46094,-7.8917084,71.021996,-6.012225,-17.71164,-14.479685,-5.484912
-44.732517,117.3312,48.460155,32.01186,2.2769158,6.7609386,0.37080938,-0.798062,0.1795384,0.2171092,0.6387808,0.5645756,0.659214,-0.5700164,1.6831319,-1.0347875,-1.8384392,-0.99958766,2.037192,1.2301772,-0.9783044,1.7501265,-1.0500311,-1.8620727,-1.047383,1.9910494,1.1764208,-0.92331403,-1.3642253,0.26744494,-0.021008713,1.5525153,0.990442,1.1790494,-0.21464801,2.5948334,-0.5271225,0.5282023,-3.0125728,-0.018044919,4.344624,0.49329376,-0.50149536,0.70749813,0.6210228,0.1524263,0.125077,0.7585858,-1.2698729,-1.1377395,0.64264303,1.0,0.0,0.0,0.0,0.0,0.0,0.0,-3.2448335,0.12712249,0.021797717,-33.21817,-1.447916,68.51444,-22.327042,-16.432512,-14.9611,-5.3837776
-3.8925135,122.37753,48.534744,14.942321,-0.045778483,5.079543,0.43068263,-0.805276,0.29813647,0.17802887,0.63226026,0.57675743,0.6574779,-0.5861181,1.6695989,-1.0202174,-1.8442699,-0.9841569,2.0487251,1.2421685,-0.98192585,1.7351271,-1.0467561,-1.8591163,-1.0336024,2.0001588,1.1872717,-0.92575926,-1.5461186,0.3461869,0.40520057,1.3195143,0.88233316,1.0537473,-0.25653085,2.5647354,-0.5273056,0.5708795,-3.0095608,-0.018026877,4.242094,0.48007202,-0.51192856,0.7147807,0.63213444,0.14415799,0.116782114,0.7523206,-1.3514205,-0.9980134,0.75557584,1.0,0.0,0.0,0.0,0.0,0.0,0.0,-3.2147355,0.1273056,-0.020879507,-18.478441,7.4950457,43.825073,-23.446678,-11.42633,-12.556767,-4.799363
20.449167,131.80258,47.96737,7.371437,-1.6957797,3.7342808,0.111943856,-0.81228495,0.46142098,0.10108005,0.6079438,0.56332016,0.6475929,-0.58405674,1.6538986,-1.000614,-1.8490083,-0.972808,2.056491,1.252031,-0.98416495,1.7192065,-1.0418581,-1.8540466,-1.0217863,2.008494,1.1970259,-0.92856973,-1.6082848,0.53655225,0.5436181,1.1352291,0.8159798,0.94970864,-0.29111472,2.534668,-0.5274887,0.61253214,-3.0065517,-0.018008854,4.1396666,0.46650696,-0.5207596,0.72305965,0.6426974,0.1353423,0.109245904,0.7461152,-1.3693614,-0.8320209,0.84952044,1.0,0.0,0.0,0.0,0.0,0.0,0.0,-3.184668,0.1274887,-0.06253213,-6.50568,18.718975,14.637876,-18.559647,-6.89708,-10.218275,-4.0188017
26.668497,126.11231,42.388832,6.124568,-2.1259656,2.5897882,-0.20247483,-0.82302517,0.5476545,0.058060024,0.60439867,0.5585576,0.64829797,-0.5817471,1.6369039,-0.9870926,-1.8482406,-0.96134645,2.0643497,1.2618557,-0.98674446,1.7031904,-1.0347971,-1.8490875,-1.0112234,2.0164132,1.205876,-0.93167394,-1.6002697,0.76179045,0.48174083,1.0296636,0.78319764,0.86419016,-0.31824198,2.504631,-0.5276718,0.65316135,-3.003546,-0.01799085,4.0373416,0.45298004,-0.5280647,0.7321072,0.65296686,0.12625375,0.10303549,0.7396471,-1.3547978,-0.6820491,0.92040616,1.0,0.0,0.0,0.0,0.0,0.0,0.0,-3.1546311,0.12767181,-0.103161335,0.5446911,22.28012,-5.655563,-10.651803,-3.3724785,-8.360982,-3.1543612
26.832033,115.320625,36.79486,6.1948414,-2.0030594,1.8391359,-0.32763168,-0.82175756,0.6168228,0.03182255,0.58671224,0.5688923,0.6482709,-0.5679785,1.6210147,-0.9731148,-1.8459052,-0.9525522,2.0733025,1.2707031,-0.9884718,1.6875025,-1.0255827,-1.845433,-1.0012842,2.024199,1.2139841,-0.93499655,-1.5588917,0.9739831,0.32824892,0.98157597,0.77683175,0.7932684,-0.33807775,2.4746246,-0.5278549,0.69276804,-3.000543,-0.017972862,3.9351194,0.43968964,-0.53404236,0.74171495,0.66312593,0.11708817,0.09826984,0.73273283,-1.3269608,-0.5556901,0.9716712,1.0,0.0,0.0,0.0,0.0,0.0,0.0,-3.1246247,0.12785491,-0.14276803,3.913784,21.029865,-14.943772,-4.9264193,-0.67647696,-6.9768667,-2.344048
25.522635,104.45625,33.26495,6.26171,-1.5562713,1.5441036,-0.23119181,-0.8179485,0.665973,0.05283277,0.55767953,0.5991094,0.64376986,-0.57004565,1.6057076,-0.9589854,-1.8401498,-0.9455163,2.08411,1.2783611,-0.9920011,1.6722742,-1.014583,-1.8431861,-0.9916352,2.0320992,1.2214686,-0.93848604,-1.5115627,1.141509,0.19164583,0.9587537,0.7942075,0.7336883,-0.3536992,2.4446487,-0.528038,0.7313532,-2.997543,-0.017954893,3.8329992,0.42668152,-0.5389061,0.75174886,0.6731868,0.10792259,0.09468012,0.7254019,-1.2994981,-0.44873118,1.0117805,1.0,0.0,0.0,0.0,0.0,0.0,0.0,-3.0946488,0.12803802,-0.18135321,4.5324087,16.595936,-13.268805,-2.4442196,1.6933084,-5.929506,-1.892209
20.717333,91.00355,28.73073,7.258242,-1.0222778,1.3055868,-0.17132826,-0.8078978,0.69978136,0.027516373,0.56008613,0.5953479,0.6586723,-0.5653708,1.5914844,-0.9446049,-1.8404346,-0.93562657,2.091634,1.2873358,-0.99502313,1.6574808,-1.002313,-1.8420818,-0.98204124,2.0401902,1.2284437,-0.9421043,-1.4691564,1.2550963,0.08465598,0.95895123,0.8139852,0.685439,-0.36557436,2.4146957,-0.52822113,0.768918,-2.9945462,-0.017936941,3.730981,0.41386414,-0.5428848,0.7620739,0.68313897,0.098777644,0.09192713,0.7177141,-1.2786031,-0.36459062,1.037504,1.0,0.0,0.0,0.0,0.0,0.0,0.0,-3.0646958,0.12822112,-0.21891797,4.0682077,11.232877,-10.332169,-0.17319918,1.9462824,-4.8513174,-1.4955819
16.704805,78.45921,24.753088,6.973566,-0.59741944,1.1284719,-0.039442312,-0.8073904,0.7192245,0.018638946,0.53047246,0.61764216,0.66658056,-0.5664629,1.5767418,-0.9303906,-1.840218,-0.928994,2.1019545,1.2951018,-0.99875057,1.6429945,-0.9892836,-1.8417194,-0.9725102,2.0485215,1.2350069,-0.94582456,-1.4424477,1.318638,0.021436352,0.95046085,0.83952105,0.6467403,-0.37510824,2.3847656,-0.5283966,0.8054634,-2.9915524,-0.017919008,3.629065,0.4012146,-0.54613495,0.77253157,0.69291717,0.08969118,0.08967986,0.7097738,-1.2639952,-0.2964798,1.0469218,1.0,0.0,0.0,0.0,0.0,0.0,0.0,-3.0347657,0.1283966,-0.25546336,2.5060177,6.2576294,-5.9516335,-1.0751009,2.523899,-3.8935661,-1.250279
15.535877,70.06335,22.612125,6.0995703,-0.33911976,1.048897,0.11344313,-0.80111957,0.72558457,0.03966415,0.5064651,0.6260506,0.66341555,-0.5657461,1.5628825,-0.91672516,-1.8377529,-0.92186373,2.1111267,1.3013484,-1.0023992,1.6286894,-0.9759217,-1.8415878,-0.9631623,2.0570931,1.2412363,-0.9496259,-1.4270272,1.3418943,0.011668431,0.92871255,0.8630103,0.61511153,-0.38282976,2.354866,-0.5285721,0.84099036,-2.9885614,-0.017901093,3.527251,0.38866425,-0.5487633,0.7830084,0.7024164,0.080665946,0.08764772,0.70172787,-1.2523838,-0.23584628,1.0461947,1.0,0.0,0.0,0.0,0.0,0.0,0.0,-3.0048661,0.12857208,-0.29099035,1.3786554,2.2494316,-0.57520866,-2.418816,2.3109674,-3.161192,-1.0746062
14.135558,64.95457,20.801567,5.722827,-0.2434304,0.94229543,0.17027628,-0.79816216,0.74072176,0.023435831,0.48505446,0.6346988,0.6711407,-0.558621,1.5488732,-0.9018495,-1.8392442,-0.9146569,2.120563,1.3083504,-1.005488,1.614472,-0.96245486,-1.8414371,-0.9541167,2.0658784,1.2472006,-0.9534883,-1.4204993,1.3481873,0.017706491,0.8957089,0.88331306,0.5903127,-0.38835415,2.324997,-0.52874756,0.87549996,-2.9855733,-0.017883195,3.4255388,0.37623596,-0.5508232,0.79341507,0.7115785,0.071715325,0.08569939,0.6936632,-1.2413689,-0.18034641,1.0371404,1.0,0.0,0.0,0.0,0.0,0.0,0.0,-2.974997,0.12874755,-0.32549995,0.49014091,0.5687952,1.0031555,-3.5520554,2.0004272,-2.4495482,-0.84747076
12.11316,59.444942,18.331673,5.6739283,-0.21517646,0.73723257,0.14673094,-0.79547113,0.74311584,-0.006003481,0.47030365,0.63023835,0.67391586,-0.55909824,1.5349249,-0.8881433,-1.8420374,-0.9070863,2.1289022,1.3145922,-1.0093981,1.6002852,-0.94899946,-1.8413036,-0.94542205,2.0748048,1.2529551,-0.95739645,-1.4185393,1.34452,0.012981006,0.8598368,0.8953591,0.57082486,-0.3926045,2.2951584,-0.52892303,0.9089932,-2.9825885,-0.017865315,3.323928,0.3639145,-0.5523796,0.80365825,0.720414,0.06288103,0.08383707,0.68558073,-1.229142,-0.13246594,1.0180658,1.0,0.0,0.0,0.0,0.0,0.0,0.0,-2.9451585,0.12892303,-0.35899317,0.0426054,-0.40898323,-0.117517635,-3.8448572,1.2005329,-1.8827558,-0.6990433
18.069874,60.158962,19.23681,2.24332,-0.51178914,0.66099834,0.32536897,-0.79068005,0.7464461,0.035817526,0.3901165,0.65711355,0.6725159,-0.56260973,1.5212171,-0.87435484,-1.8377218,-0.9064104,2.140516,1.3202066,-1.0136575,1.5861174,-0.9355927,-1.8410232,-0.93738353,2.0838838,1.2585455,-0.96134466,-1.4168276,1.3393595,0.03420292,0.78425694,0.91204643,0.55560607,-0.39652097,2.2653503,-0.5290985,0.9414711,-2.9796066,-0.017847452,3.222419,0.35180664,-0.55337906,0.81368136,0.7288123,0.05419284,0.082034975,0.67761785,-1.205009,-0.073761396,0.9949563,1.0,0.0,0.0,0.0,0.0,0.0,0.0,-2.9153504,0.1290985,-0.3914711,0.00059604645,-0.5485773,2.5247343,-7.8329325,1.651895,-1.3866425,-0.68050027
21.269283,61.050926,19.398457,0.15928936,-0.8066643,0.5401244,0.40003717,-0.79408294,0.75952923,0.03224301,0.32233667,0.65921605,0.6733952,-0.54553455,1.5067091,-0.85963976,-1.837799,-0.9051499,2.1498053,1.325885,-1.0158981,1.571942,-0.92217165,-1.8405445,-0.93032634,2.093104,1.2640101,-0.9653148,-1.4183928,1.3429049,0.053741414,0.67855126,0.92575973,0.544019,-0.39802086,2.2355728,-0.529274,0.97293466,-2.9766276,-0.017829608,3.1210115,0.3400116,-0.55373764,0.8234423,0.7366883,0.04569164,0.080345705,0.6698858,-1.1703457,-0.008798747,0.9674537,1.0,0.0,0.0,0.0,0.0,0.0,0.0,-2.885573,0.12927398,-0.42293465,-0.3354311,0.3348589,2.3515232,-10.850525,1.368475,-0.96342564,-0.42784214
29.990736,62.073395,20.261082,-5.0100274,-1.3613738,0.311718,0.59731203,-0.7851809,0.7661719,0.0577964,0.202064,0.6724528,0.6696611,-0.53594226,1.4934239,-0.8455545,-1.8347648,-0.91011995,2.1603491,1.3309761,-1.018909,1.5577856,-0.9086705,-1.839791,-0.92471874,2.1024728,1.2693793,-0.96928877,-1.4150978,1.3525355,0.084091686,0.52053666,0.94063354,0.5355066,-0.39800805,2.2058258,-0.52944946,1.003385,-2.9736514,-0.017811783,3.0197053,0.32871246,-0.5533447,0.83286643,0.7439005,0.037458107,0.07883202,0.6625666,-1.1137307,0.069084905,0.9316131,1.0,0.0,0.0,0.0,0.0,0.0,0.0,-2.855826,0.12944946,-0.45338494,0.146842,0.96657276,3.4307733,-16.092146,1.4984488,-0.54148436,-0.27199984
37.15654,62.689743,20.830296,-9.485342,-1.8495755,0.07566789,0.76663667,-0.7834976,0.7767386,0.08543007,0.06874814,0.680495,0.6661007,-0.5263654,1.4794359,-0.83099663,-1.831248,-0.91784394,2.1705222,1.3359894,-1.0219253,1.5436751,-0.89502627,-1.8386562,-0.9210576,2.1119866,1.2746779,-0.9732513,-1.410358,1.3685613,0.1243196,0.31367067,0.95510113,0.52949244,-0.39651942,2.1761093,-0.52962494,1.032823,-2.9706786,-0.017793974,2.9185004,0.31814575,-0.5520935,0.8418741,0.7503059,0.029583275,0.07755599,0.6558589,-1.0369403,0.15603788,0.8876548,1.0,0.0,0.0,0.0,0.0,0.0,0.0,-2.8261094,0.12962493,-0.48282295,0.30372143,1.6353369,4.373558,-20.965504,1.490879,-0.18347502,-0.0954628
42.089497,63.187275,21.479332,-11.845146,-2.08265,-0.095576495,0.8764073,-0.7722966,0.7813518,0.12919037,-0.041509997,0.6858767,0.657795,-0.5184555,1.4664454,-0.8168911,-1.8257371,-0.92520857,2.1805744,1.3404573,-1.0250969,1.5296618,-0.88121897,-1.836993,-0.9195994,2.121634,1.2799231,-0.97719187,-1.398868,1.3849664,0.18130799,0.0890625,0.9681469,0.52465093,-0.3938984,2.1464233,-0.5298004,1.0612496,-2.9677086,-0.017776184,2.8173966,0.3084259,-0.549942,0.8504308,0.755823,0.02210882,0.076527104,0.6499126,-0.94721,0.24558634,0.84177995,1.0,0.0,0.0,0.0,0.0,0.0,0.0,-2.7964234,0.12980041,-0.5112496,1.0201693,1.7033577,5.9521255,-22.697237,1.4078498,-0.0006914139,0.056630373
42.797935,59.984997,20.267376,-13.306833,-2.1971855,-0.3439527,0.9181477,-0.77829725,0.7862107,0.15328874,-0.18433246,0.6911295,0.6535553,-0.5158416,1.451832,-0.8025979,-1.8216641,-0.9380327,2.190747,1.3452786,-1.028776,1.5157248,-0.86726195,-1.8347518,-0.92054355,2.1313996,1.2851263,-0.9811029,-1.39232,1.399684,0.23890176,-0.15624532,0.9797664,0.52084607,-0.39068452,2.116768,-0.5299759,1.088666,-2.9647415,-0.01775841,2.716394,0.2996521,-0.5469246,0.8584699,0.7604301,0.015109076,0.075764485,0.644808,-0.8497024,0.33001244,0.7876725,1.0,0.0,0.0,0.0,0.0,0.0,0.0,-2.766768,0.12997589,-0.53866595,0.5667448,1.5629292,5.902612,-24.724297,1.3186932,0.14885664,0.17641783
41.94642,58.948803,19.899963,-12.023022,-2.0566387,-0.45625114,0.87953556,-0.75952786,0.79203624,0.18144107,-0.2682539,0.69667107,0.6571601,-0.47699198,1.439772,-0.78805834,-1.8166077,-0.9473689,2.2010667,1.3508424,-1.028802,1.5019194,-0.8531714,-1.831948,-0.9237536,2.141272,1.290301,-0.9849538,-1.3768859,1.4126,0.29415625,-0.3763995,0.9906216,0.51811755,-0.3835363,2.087143,-0.53015137,1.1150731,-2.9617772,-0.017740656,2.6154923,0.29185486,-0.5431175,0.86599517,0.76417226,0.008584474,0.075255774,0.6405494,-0.7529402,0.40585798,0.7367043,1.0,0.0,0.0,0.0,0.0,0.0,0.0,-2.737143,0.13015136,-0.5650731,1.5109777,1.4094114,5.5247726,-22.160053,1.3183236,0.2516389,0.617373
39.690903,61.50447,21.247612,-8.411705,-1.6831189,-0.30207068,0.82760936,-0.7426871,0.7936013,0.25978017,-0.3269954,0.69634193,0.64327395,-0.4568695,1.4276507,-0.7738113,-1.8059701,-0.95645314,2.2109063,1.3546283,-1.0306407,1.4883295,-0.8389817,-1.8283832,-0.9288081,2.1512322,1.2954413,-0.98872083,-1.3531525,1.421483,0.37671578,-0.54870206,0.9990273,0.5142897,-0.37461177,2.0575485,-0.53032684,1.1404719,-2.958816,-0.01772292,2.5146916,0.28491974,-0.5385742,0.8731306,0.7671175,0.0024010867,0.074890494,0.6371157,-0.66670406,0.47637498,0.7011855,1.0,0.0,0.0,0.0,0.0,0.0,0.0,-2.7075486,0.13032684,-0.5904719,2.3849964,1.0291338,8.112753,-17.327435,1.1729717,0.11035204,0.8242309
32.998997,64.434586,22.415619,-2.1622972,-1.0767677,0.019121677,0.70131874,-0.74000245,0.79607207,0.33781108,-0.3538488,0.68948543,0.6452164,-0.4172093,1.4143293,-0.7593745,-1.7946022,-0.964193,2.2201807,1.3599629,-1.0304418,1.4749552,-0.82472616,-1.8237808,-0.93511474,2.1612382,1.3005434,-0.9923753,-1.3322258,1.4273893,0.48726258,-0.6582084,1.0026414,0.51041657,-0.36250293,2.0279846,-0.5305023,1.1648635,-2.955858,-0.0177052,2.4139917,0.27868652,-0.533371,0.88006526,0.76937544,-0.0036530986,0.07452862,0.6344237,-0.6024189,0.53972703,0.68581116,1.0,0.0,0.0,0.0,0.0,0.0,0.0,-2.6779847,0.13050231,-0.61486346,2.1162271,0.74658394,10.803395,-11.021387,0.7885933,0.040781498,1.1590779
27.15643,67.122826,23.579735,3.6303988,-0.51118284,0.3234841,0.5896305,-0.7282691,0.7967647,0.41830072,-0.35889867,0.693499,0.6415882,-0.36867124,1.4021283,-0.7450497,-1.7819507,-0.9710046,2.2305882,1.3647022,-1.0292424,1.4617869,-0.8104344,-1.8178985,-0.9420546,2.1712785,1.3056055,-0.995881,-1.311452,1.4303992,0.62060034,-0.70618165,1.00623,0.5061603,-0.34676844,1.9984512,-0.5306778,1.1882489,-2.9529028,-0.017687498,2.3133924,0.27294922,-0.5275841,0.88699144,0.77105296,-0.0097986795,0.07402538,0.6323777,-0.5587332,0.5974757,0.6893611,1.0,0.0,0.0,0.0,0.0,0.0,0.0,-2.6484513,0.13067779,-0.63824886,2.106452,0.47101974,12.995565,-4.855156,0.86934566,-0.047910213,1.5249908
24.61705,67.25459,23.633732,5.766971,-0.34898442,0.375956,0.5371711,-0.71709627,0.80206907,0.47525936,-0.39273462,0.69389886,0.63286257,-0.32492998,1.3900772,-0.7302275,-1.7703726,-0.98132807,2.2406683,1.3688918,-1.0283741,1.4488226,-0.79610354,-1.8106906,-0.9493035,2.1813455,1.3106219,-0.9992084,-1.2911386,1.4344866,0.75285906,-0.73131037,1.0088397,0.5014133,-0.3281733,1.9689484,-0.5308533,1.210629,-2.9499505,-0.017669814,2.2128937,0.26757812,-0.5212364,0.89399284,0.77220863,-0.016130915,0.073344,0.63091534,-0.5217398,0.6527466,0.69782025,1.0,0.0,0.0,0.0,0.0,0.0,0.0,-2.6189485,0.13085327,-0.660629,2.0703554,0.58493614,12.852823,-2.5544524,0.78675747,-0.111830235,1.8242598
17.891937,62.112167,21.075605,8.709572,-0.048102558,0.30052045,0.38714245,-0.72080696,0.7999593,0.50120544,-0.3895485,0.69505936,0.62857544,-0.28810793,1.3767419,-0.7161076,-1.76057,-0.98825836,2.2508514,1.3734794,-1.0280192,1.43599,-0.7817517,-1.8023746,-0.9566239,2.1914353,1.3155905,-1.0023369,-1.2805736,1.4359558,0.8568179,-0.73251206,1.0105894,0.49633494,-0.30800584,1.939476,-0.53102875,1.2320048,-2.947001,-0.017652148,2.1124954,0.26250458,-0.5144272,0.9010602,0.77295035,-0.02264119,0.07251556,0.62990195,-0.49637404,0.69476867,0.70345217,1.0,0.0,0.0,0.0,0.0,0.0,0.0,-2.589476,0.13102874,-0.68200475,1.0735273,0.3196478,10.051786,-0.18473864,0.6653786,-0.1906693,1.9851804
11.570241,57.714417,18.869331,12.05714,0.27134496,0.26568654,0.23339966,-0.7170017,0.79794836,0.5307045,-0.35233805,0.68531704,0.62732786,-0.21679783,1.3642898,-0.70195687,-1.7493042,-0.9918577,2.259967,1.3783233,-1.0240166,1.423226,-0.76740557,-1.793227,-0.96370304,2.2015023,1.3205096,-1.0052322,-1.2750313,1.434802,0.9330684,-0.6999613,1.0074136,0.49127957,-0.28328934,1.9100342,-0.5312042,1.2523775,-2.9440544,-0.0176345,2.0121977,0.25758362,-0.5072937,0.9081883,0.77341074,-0.029329477,0.07158896,0.6291666,-0.48337224,0.72442895,0.7095227,1.0,0.0,0.0,0.0,0.0,0.0,0.0,-2.5600343,0.13120422,-0.7023775,0.54540634,0.05736351,7.306993,3.1585217,0.14536381,-0.23715496,2.4362206
-1.1633043,49.716785,14.568553,18.609097,0.9590614,0.2771693,-0.08702215,-0.73705065,0.79231083,0.5143071,-0.2669757,0.68160313,0.63802934,-0.18911897,1.3495209,-0.6881745,-1.7417963,-0.9904006,2.2696626,1.3843125,-1.024144,1.4103857,-0.75310236,-1.7836807,-0.97004116,2.2115235,1.3253866,-1.0078796,-1.2873929,1.4293616,0.9610223,-0.6123526,1.0016283,0.48695225,-0.2587436,1.8806229,-0.5313797,1.271748,-2.941111,-0.017616868,1.912,0.25258636,-0.50004196,0.91538996,0.7738261,-0.03621481,0.07060389,0.62840796,-0.49678302,0.73028207,0.71704096,1.0,0.0,0.0,0.0,0.0,0.0,0.0,-2.530623,0.1313797,-0.72174793,-1.3216496,-0.3743887,2.5516748,8.584702,-0.16367435,-0.2647221,2.4066508
-6.032361,45.955135,12.621783,21.075035,1.195227,0.24652794,-0.22356561,-0.74575,0.7935582,0.51739097,-0.22275537,0.6817298,0.64185286,-0.16194656,1.3358108,-0.6737465,-1.7319416,-0.9923167,2.2796965,1.3895719,-1.0240743,1.3973604,-0.73884684,-1.7740581,-0.97536075,2.2214913,1.3302256,-1.0102848,-1.307951,1.4248451,0.9622568,-0.5058341,0.9962224,0.48323703,-0.23474902,1.8512268,-0.5315552,1.2901171,-2.9381707,-0.017599255,1.8119023,0.24739838,-0.49279785,0.9226643,0.7743526,-0.043296013,0.069603324,0.6274223,-0.5196842,0.7271323,0.724221,1.0,0.0,0.0,0.0,0.0,0.0,0.0,-2.501227,0.13155517,-0.74011713,-2.176857,-0.28765202,-0.074362755,10.447741,-0.1572609,-0.24926066,2.3501754
-10.212159,42.13673,10.781702,23.009884,1.3896004,0.2213983,-0.33549738,-0.7660364,0.79016036,0.50767344,-0.16264997,0.67540497,0.6513921,-0.13998318,1.3207568,-0.6598308,-1.7232908,-0.9916257,2.2890317,1.3953648,-1.024283,1.3840529,-0.7246409,-1.764571,-0.97952926,2.2313943,1.3350359,-1.0124611,-1.3388476,1.4196242,0.94388956,-0.38791445,0.98933905,0.4806588,-0.2120069,1.8218613,-0.53173065,1.307486,-2.935233,-0.01758166,1.7119048,0.24191284,-0.4856453,0.9300005,0.7750895,-0.050565355,0.06862393,0.6260752,-0.5506856,0.71661884,0.73003983,1.0,0.0,0.0,0.0,0.0,0.0,0.0,-2.4718614,0.13173065,-0.75748605,-3.2435417,-0.36628246,-1.9924879,11.565304,-0.32849312,-0.17530322,2.2247016
-11.405515,40.245697,10.008259,24.037823,1.4784303,0.18610203,-0.39980096,-0.7726895,0.78761363,0.4869711,-0.082792394,0.673824,0.65248144,-0.11898862,1.3067839,-0.64587957,-1.7158738,-0.9878085,2.2987766,1.400284,-1.02436,1.3704535,-0.7104874,-1.7553813,-0.98241127,2.2412324,1.3398234,-1.0144199,-1.3674662,1.4143974,0.91007,-0.2557706,0.9831899,0.47844595,-0.19056055,1.7925262,-0.5319061,1.3238558,-2.9322984,-0.017564083,1.6120071,0.23609161,-0.4786148,0.9374021,0.7760968,-0.05803473,0.0676802,0.62427956,-0.5848561,0.7030165,0.73682564,1.0,0.0,0.0,0.0,0.0,0.0,0.0,-2.4425263,0.13190612,-0.77385575,-3.019452,-0.3750801,-3.5226822,12.98443,-0.26881695,-0.16582012,2.0909667
-11.058072,39.336964,9.923189,24.205288,1.4942719,0.17499153,-0.40024832,-0.78527087,0.78184295,0.47874466,-0.011882132,0.6709433,0.65535444,-0.0936834,1.2919264,-0.6323031,-1.7075069,-0.9835995,2.3083267,1.4053588,-1.0237882,1.3565832,-0.6964007,-1.7465332,-0.9839419,2.2510133,1.3445936,-1.016169,-1.3940169,1.407192,0.87598073,-0.119518735,0.9776118,0.47673976,-0.1697993,1.7632217,-0.5320816,1.3392273,-2.9293666,-0.017546521,1.5122095,0.22992706,-0.47172928,0.9448759,0.77738106,-0.06572382,0.06676034,0.6220144,-0.6196155,0.6902936,0.74432194,1.0,0.0,0.0,0.0,0.0,0.0,0.0,-2.4132218,0.1320816,-0.7892273,-2.807355,-0.5835533,-3.5371542,13.403489,-0.22190809,-0.13250709,2.016768
-11.317624,39.621758,10.366854,25.683365,1.6191467,0.25713497,-0.43382832,-0.791091,0.7760824,0.46565768,0.09537155,0.66983145,0.66412306,-0.08941645,1.2774742,-0.6187925,-1.6999674,-0.97440475,2.3179965,1.411006,-1.0251106,1.3424975,-0.6823998,-1.7380092,-0.9839438,2.2607484,1.3493563,-1.0177292,-1.4138571,1.3981504,0.8440433,0.03887051,0.9734869,0.47591025,-0.15170743,1.7339478,-0.5322571,1.3536016,-2.9264376,-0.01752898,1.4125116,0.22336578,-0.46495056,0.9524705,0.77894944,-0.07371084,0.065815784,0.6192517,-0.65953976,0.67911184,0.75801826,1.0,0.0,0.0,0.0,0.0,0.0,0.0,-2.3839478,0.13225707,-0.80360156,-2.1227598,-0.7741928,-3.3310413,15.630947,-0.06927252,-0.07606149,1.7400444
-6.4467554,41.556698,11.519334,22.64644,1.2346966,0.16473329,-0.32060346,-0.7981844,0.7794771,0.4567875,0.12393202,0.6627574,0.66550803,-0.08067221,1.262679,-0.6044521,-1.6923305,-0.97155064,2.3270242,1.4159071,-1.0257964,1.3282515,-0.6684571,-1.7297542,-0.982581,2.270434,1.3541132,-1.0191253,-1.4284489,1.3933796,0.8188884,0.1681612,0.9678295,0.47566098,-0.13566841,1.7047043,-0.53243256,1.3669797,-2.923512,-0.017511453,1.3129133,0.21649933,-0.45821762,0.96016693,0.7807277,-0.08198423,0.06486672,0.61606425,-0.6864515,0.67844284,0.76704895,1.0,0.0,0.0,0.0,0.0,0.0,0.0,-2.3547044,0.13243255,-0.8169797,-1.5773773,-0.36578178,-2.6158094,12.756636,-0.2537489,0.0033020973,1.5306681
4.2423487,41.832756,12.150385,13.190544,0.30031073,-0.28490728,-0.023124158,-0.80358946,0.77876,0.4534936,0.051083416,0.66482735,0.6623005,-0.098369844,1.2478925,-0.59058106,-1.6844049,-0.97747266,2.3369167,1.4203433,-1.0289624,1.313893,-0.65454394,-1.7216766,-0.980667,2.2800736,1.358872,-1.0203918,-1.4386214,1.3908854,0.80400527,0.1987406,0.96336174,0.4763316,-0.12403623,1.6754913,-0.53260803,1.3793625,-2.9205892,-0.017493945,1.2134147,0.20964813,-0.45139313,0.9677743,0.7825144,-0.09032267,0.064018615,0.6127109,-0.6764478,0.69039065,0.7523121,1.0,0.0,0.0,0.0,0.0,0.0,0.0,-2.3254914,0.13260803,-0.82936245,-1.1098146,-0.16593933,-1.4911056,2.9185147,-0.22747517,0.20971298,1.0869815
15.075897,40.88099,12.172387,2.9479203,-0.66103673,-0.84917766,0.28704542,-0.80199707,0.77646834,0.44639334,-0.03975878,0.6659067,0.65935296,-0.09868918,1.2336932,-0.5768971,-1.6770372,-0.98464286,2.3466644,1.4248073,-1.0302607,1.299483,-0.6406527,-1.7137058,-0.97922885,2.289679,1.3636404,-1.021561,-1.4418424,1.3887968,0.79491514,0.12504923,0.9597734,0.47814146,-0.11470745,1.6463089,-0.5327835,1.390751,-2.9176693,-0.017476454,1.1140155,0.2032013,-0.44438553,0.9750341,0.7840863,-0.098408416,0.06340289,0.6095116,-0.6259547,0.7097974,0.71088964,1.0,0.0,0.0,0.0,0.0,0.0,0.0,-2.296309,0.1327835,-0.840751,-0.37982464,-0.14505386,-0.83043575,-7.481399,-0.23423433,0.45909882,0.8592516
22.439896,41.466076,12.695717,-3.7073174,-1.291722,-1.223591,0.54579854,-0.80189824,0.778607,0.4555968,-0.1195245,0.6643559,0.65498644,0.020820713,1.2192931,-0.562792,-1.6681461,-0.9911813,2.3561146,1.429139,-1.0194789,1.2850729,-0.6267653,-1.705735,-0.9790448,2.2992501,1.3684298,-1.0225586,-1.4406562,1.3890207,0.79801536,-0.017392829,0.95638424,0.4803326,-0.09515886,1.617157,-0.532959,1.4011463,-2.9147522,-0.01745898,1.0147157,0.19744873,-0.43715668,0.9817663,0.78524935,-0.10600503,0.06311847,0.60676384,-0.54794997,0.7340838,0.65443325,1.0,0.0,0.0,0.0,0.0,0.0,0.0,-2.267157,0.13295898,-0.8511463,0.10142326,0.08046627,0.41133165,-14.3172,-0.2609372,0.5806267,1.8938214
17.465532,42.107147,13.054757,2.0667357,-0.7456482,-0.9779688,0.45310426,-0.7995871,0.77650607,0.4605706,-0.04239923,0.65765786,0.6621021,0.20571809,1.2051142,-0.5491147,-1.6596779,-0.9832847,2.365016,1.4346399,-1.0019867,1.2706991,-0.6128779,-1.697686,-0.97979915,2.3087792,1.3732401,-1.0232338,-1.4362074,1.3889222,0.8071093,-0.09497663,0.95202583,0.48233703,-0.058507018,1.5880356,-0.53313446,1.4105493,-2.911838,-0.017441526,0.9155152,0.19233704,-0.42969894,0.98807186,0.78600794,-0.11322268,0.06311368,0.604474,-0.49085262,0.75390446,0.61637944,1.0,0.0,0.0,0.0,0.0,0.0,0.0,-2.2380357,0.13313445,-0.8605493,0.42886734,0.07069111,0.92532635,-7.832099,-0.28336048,0.48367977,3.6091104
3.913992,37.975384,11.181019,14.875841,0.5034299,-0.49194178,0.05238934,-0.7951203,0.7659091,0.42113635,0.11614733,0.6369135,0.6643431,0.32754204,1.1911871,-0.536287,-1.6555723,-0.9681844,2.3724706,1.4396744,-0.9904796,1.2563902,-0.5990382,-1.689738,-0.9802607,2.318213,1.3780638,-1.0234703,-1.4295293,1.3826498,0.7905524,-0.030314203,0.94151974,0.48276633,-0.012265421,1.5589447,-0.53330994,1.4189612,-2.9089267,-0.017424088,0.8164139,0.18741608,-0.42216873,0.99423146,0.7865957,-0.12041571,0.06325593,0.6023005,-0.48353392,0.7580352,0.60958296,1.0,0.0,0.0,0.0,0.0,0.0,0.0,-2.2089448,0.13330993,-0.86896116,0.5953789,-0.5150318,-1.7401934,6.3183503,-0.7794976,0.174582,4.555374
-5.779046,33.66632,9.476864,23.841835,1.3881271,-0.14246273,-0.24063483,-0.7943726,0.7531398,0.39930746,0.21888818,0.6154582,0.6628403,0.39178804,1.176953,-0.5237242,-1.6498073,-0.95837194,2.3797588,1.4443479,-0.9842915,1.2421385,-0.58532053,-1.68208,-0.97935,2.3274941,1.3828837,-1.02323,-1.4241039,1.3685347,0.75711066,0.13087574,0.9243327,0.48167208,0.035761625,1.5298843,-0.5334854,1.4263827,-2.9060183,-0.017406669,0.71741164,0.18228912,-0.4146614,1.0004768,0.78723776,-0.12789236,0.063425556,0.59989774,-0.5122981,0.7522277,0.6232455,1.0,0.0,0.0,0.0,0.0,0.0,0.0,-2.1798844,0.1334854,-0.87638265,0.42505264,-1.2854099,-3.4794807,15.918364,-1.3755202,-0.08537769,4.7224226
-5.2462816,28.551672,7.4028935,21.21165,1.2497487,-0.3952187,-0.22754602,-0.797419,0.74178,0.36689344,0.18231784,0.6193837,0.6590467,0.3803803,1.1623966,-0.51114255,-1.6453906,-0.96111816,2.3894324,1.4487883,-0.98519194,1.2279097,-0.57178503,-1.6748798,-0.97707546,2.3366303,1.3876883,-1.0225643,-1.4227554,1.3488425,0.7072975,0.25898847,0.9109158,0.48021683,0.07661002,1.5008392,-0.5336609,1.432815,-2.9031126,-0.017389266,0.6185084,0.17695618,-0.40725708,1.0067625,0.78799146,-0.13559887,0.06363073,0.597188,-0.533391,0.7404814,0.6241863,1.0,0.0,0.0,0.0,0.0,0.0,0.0,-2.1508393,0.13366088,-0.88281494,0.027418137,-1.8576622,-5.0823927,12.6139345,-1.0462403,-0.09961724,4.012357
2.1422138,28.848675,7.7268057,13.45075,0.5046173,-0.779799,0.009264268,-0.7946899,0.735454,0.36984944,0.119525954,0.6033928,0.65923256,0.39737013,1.1484407,-0.49823964,-1.6378949,-0.9651229,2.3969696,1.4536115,-0.9828273,1.2136942,-0.558446,-1.6680839,-0.9741725,2.3456101,1.3924834,-1.0215267,-1.4213457,1.3292269,0.6702506,0.300232,0.89451534,0.47971368,0.11252096,1.4718246,-0.53383636,1.438259,-2.90021,-0.01737188,0.519704,0.17160797,-0.39993668,1.0129054,0.78873605,-0.14330125,0.06396494,0.5943639,-0.5238346,0.7344007,0.60502595,1.0,0.0,0.0,0.0,0.0,0.0,0.0,-2.1218247,0.13383636,-0.888259,0.06952286,-1.8741369,-3.7293077,3.9683044,-1.4312863,0.084364414,3.5201356
8.041649,28.488205,7.6480656,6.7197914,-0.111757874,-1.1543945,0.20273867,-0.79493517,0.72561514,0.35751742,0.07355064,0.5923489,0.66208524,0.41079932,1.1342007,-0.4858845,-1.6323322,-0.9668174,2.404845,1.4586918,-0.98044676,1.1994883,-0.5453015,-1.6615932,-0.97142875,2.354422,1.3972822,-1.0201648,-1.4206028,1.3096883,0.64210176,0.26530293,0.8770013,0.48053437,0.14386609,1.4428406,-0.53401184,1.4427156,-2.8973105,-0.017354513,0.42099845,0.16658783,-0.39265823,1.0187217,0.7893438,-0.15075429,0.06452488,0.5916468,-0.4876642,0.72971743,0.56806594,1.0,0.0,0.0,0.0,0.0,0.0,0.0,-2.0928407,0.13401183,-0.89271563,0.031661987,-1.8811703,-2.7816415,-3.619492,-1.6187787,0.299114,3.068769
14.381297,28.675236,7.8134093,-0.1647749,-0.7373645,-1.5548928,0.41222417,-0.78655374,0.71415204,0.35202688,-0.008521459,0.57592756,0.6596856,0.4350494,1.1208329,-0.47388628,-1.6263905,-0.9722809,2.412015,1.4632508,-0.9766599,1.1853281,-0.53235537,-1.6553028,-0.9695815,2.3630395,1.4020926,-1.0185112,-1.4145522,1.2897606,0.62496305,0.15749285,0.8565663,0.4820431,0.1724698,1.413887,-0.5341873,1.4461861,-2.894414,-0.017337162,0.3223916,0.162117,-0.38542557,1.0240426,0.789693,-0.15771917,0.065399185,0.58926445,-0.42344883,0.72543895,0.5145679,1.0,0.0,0.0,0.0,0.0,0.0,0.0,-2.0638871,0.13418731,-0.89618605,0.6159067,-1.9300461,-1.6520739,-10.866672,-1.9846559,0.44636726,2.801743
18.785854,28.66357,7.68814,-5.6143484,-1.2183609,-1.910312,0.5635285,-0.78813416,0.7078493,0.34587738,-0.11876989,0.5694327,0.6523586,0.44832253,1.1065147,-0.46157044,-1.620715,-0.9814585,2.4199827,1.4673284,-0.97367895,1.1712214,-0.5195876,-1.6491325,-0.96928585,2.3714623,1.4069144,-1.0165943,-1.4093249,1.2726649,0.6146837,-0.013196906,0.8376931,0.48325214,0.19799834,1.384964,-0.5343628,1.4486711,-2.8915203,-0.017319828,0.22388333,0.15847015,-0.3782425,1.0287254,0.78969836,-0.1639697,0.0666646,0.5874064,-0.3370267,0.71899533,0.44763896,1.0,0.0,0.0,0.0,0.0,0.0,0.0,-2.034964,0.13436279,-0.8986711,0.58305264,-1.6505003,-0.963974,-17.110004,-1.882863,0.46318173,2.5136173
20.394808,25.917503,6.677405,-8.80041,-1.3582802,-2.1862218,0.6543972,-0.7857197,0.6888668,0.3446439,-0.22909181,0.5713058,0.6533201,0.48284253,1.0926495,-0.45070088,-1.6146681,-0.992195,2.428593,1.4722464,-0.96831006,1.157168,-0.5070277,-1.6430194,-0.9709767,2.379744,1.4117476,-1.0144256,-1.4035574,1.250674,0.610207,-0.22107781,0.82471734,0.4844977,0.22302252,1.3560715,-0.53453827,1.4501718,-2.8886294,-0.017302513,0.12547356,0.15575409,-0.3711815,1.0326681,0.7893159,-0.16933459,0.06832246,0.5862067,-0.24008954,0.70446324,0.37149364,1.0,0.0,0.0,0.0,0.0,0.0,0.0,-2.0060716,0.13453826,-0.9001718,0.6997824,-2.1372795,-0.4271388,-20.791487,-1.3234615,0.47425032,2.4837136
15.19283,24.393822,6.1184607,-3.019147,-0.82415724,-1.9722753,0.47110575,-0.7780977,0.67994213,0.32639945,-0.21602459,0.5487086,0.6536761,0.5135673,1.0793582,-0.43903348,-1.6103795,-0.99257916,2.434615,1.4771152,-0.9630689,1.1431929,-0.49468142,-1.6370094,-0.9742793,2.3878694,1.4165884,-1.0120128,-1.3950753,1.2295115,0.59787333,-0.3667084,0.80877984,0.4847864,0.24737881,1.3272095,-0.53471375,1.4506891,-2.8857415,-0.017285213,0.027162163,0.15386963,-0.3642807,1.035968,0.78863347,-0.1739239,0.07031937,0.58554494,-0.16538636,0.6863151,0.31130967,1.0,0.0,0.0,0.0,0.0,0.0,0.0,-1.9772094,0.13471374,-0.90068907,0.9526253,-2.0378351,-1.2785196,-14.589768,-1.5567422,0.292176,2.420053
13.165257,23.074558,5.6350765,-0.96871614,-0.6462816,-1.9322814,0.38784543,-0.7684403,0.66797465,0.3160617,-0.29089865,0.51922053,0.654711,0.5138104,1.0663489,-0.42788395,-1.6054032,-1.0033691,2.4397914,1.4820595,-0.9606318,1.1293341,-0.4825483,-1.6311576,-0.9788674,2.3957772,1.4214312,-1.0093826,-1.3823619,1.2082231,0.5806872,-0.48965994,0.78520876,0.48465917,0.26818502,1.298378,-0.5348892,1.450224,-2.8828564,-0.017267931,-0.07105094,0.15264893,-0.35756683,1.0387064,0.7877304,-0.1778362,0.07263169,0.58530307,-0.098031886,0.6659854,0.25665888,1.0,0.0,0.0,0.0,0.0,0.0,0.0,-1.948378,0.13488922,-0.90022403,1.3816118,-2.0425797,-1.802969,-12.327796,-2.299416,0.21218061,2.0664275
10.078291,21.298517,4.894454,1.8298659,-0.4374953,-1.8364391,0.27866316,-0.7701298,0.6570103,0.30251837,-0.34084854,0.47318333,0.6612897,0.5356545,1.0523211,-0.41684726,-1.6009058,-1.0129522,2.4430954,1.4875602,-0.95581716,1.1155726,-0.47062308,-1.6255157,-0.9844979,2.4033456,1.426274,-1.006554,-1.3737339,1.1876053,0.5586129,-0.58763796,0.74780583,0.48466727,0.2876499,1.269577,-0.5350647,1.4487777,-2.8799741,-0.017250666,-0.16916585,0.1520462,-0.35105896,1.0409433,0.7866856,-0.18114804,0.075282946,0.58535767,-0.040977623,0.64411587,0.20808615,1.0,0.0,0.0,0.0,0.0,0.0,0.0,-1.919577,0.13506469,-0.89877766,0.94337463,-1.9707918,-2.2944808,-9.852767,-3.6625981,0.18185377,1.9268095
9.266993,17.41813,3.3902445,0.96451664,-0.44817913,-1.9659297,0.26520622,-0.76290476,0.6342325,0.28647667,-0.43122602,0.42446738,0.6627422,0.54165345,1.0392821,-0.40719983,-1.596868,-1.0276206,2.4457924,1.4925481,-0.95238864,1.1019026,-0.45895487,-1.6201274,-0.99119365,2.410437,1.4311148,-1.0035499,-1.3643358,1.1601616,0.53190804,-0.69704324,0.6967571,0.4846335,0.30457124,1.240799,-0.5352402,1.4463509,-2.8770947,-0.017233418,-0.26718268,0.15201569,-0.34482956,1.042654,0.7855421,-0.1838273,0.07831373,0.5856604,0.017944071,0.6155371,0.15421763,1.0,0.0,0.0,0.0,0.0,0.0,0.0,-1.8907989,0.13524017,-0.8963509,1.0525942,-2.658224,-2.7720213,-10.989391,-5.052948,0.15960932,1.666534
7.722785,12.333364,1.4897422,0.6743679,-0.365053,-2.0761838,0.23570603,-0.7515087,0.60545737,0.26413047,-0.49511996,0.3607307,0.6621725,0.55400455,1.0267518,-0.39840913,-1.5937144,-1.0407057,2.44651,1.4973321,-0.9481495,1.0883566,-0.4476419,-1.6150577,-0.999009,2.4168992,1.4359556,-1.0003895,-1.3508373,1.1219361,0.49836943,-0.8099062,0.6294732,0.48430383,0.31976196,1.2120438,-0.53541565,1.4429448,-2.8742182,-0.017216189,-0.3651015,0.15258789,-0.33893967,1.0437928,0.784337,-0.1858193,0.081752665,0.58617663,0.075409636,0.57830286,0.09596199,1.0,0.0,0.0,0.0,0.0,0.0,0.0,-1.8620437,0.13541564,-0.89294475,1.5003204,-3.7436485,-3.4764469,-11.336279,-6.702161,0.10381341,1.4784694
2.8522944,-3.092067,-4.3067856,0.08891964,0.06318623,-2.3401148,0.15322189,-0.7362034,0.5321828,0.21583955,-0.5627011,0.27448282,0.67003703,0.55873394,1.0147363,-0.39442363,-1.5934738,-1.0552791,2.4443474,1.5029594,-0.94451606,1.0749975,-0.4369889,-1.6104839,-1.0079926,2.422526,1.4407965,-0.9970945,-1.3302257,1.0465845,0.4434243,-0.9279762,0.5402675,0.4843465,0.33241794,1.1833191,-0.5355911,1.4385601,-2.8713446,-0.017198976,-0.4629224,0.153656,-0.33362198,1.0442547,0.7831521,-0.18700948,0.08557431,0.5868365,0.1233867,0.51332957,0.025317721,1.0,0.0,0.0,0.0,0.0,0.0,0.0,-1.8333191,0.13559112,-0.8885601,2.2862911,-7.488632,-5.627322,-11.882687,-8.973122,0.09445548,1.1734068
-4.7668996,-24.509398,-11.958326,1.2632985,0.8708873,-2.5461726,0.034431472,-0.704354,0.41605842,0.17157339,-0.597322,0.14302762,0.6693267,0.5718842,1.0045621,-0.39538306,-1.5933266,-1.0677248,2.4368286,1.5077292,-0.9399061,1.0619646,-0.42754322,-1.6065834,-1.0180253,2.426993,1.4456354,-0.9936842,-1.2931865,0.9105721,0.37176946,-1.0289651,0.4153541,0.4836403,0.34329832,1.1546249,-0.5357666,1.433198,-2.8684738,-0.01718178,-0.5606455,0.15503693,-0.32923126,1.043934,0.7820942,-0.18731618,0.089665346,0.5875384,0.14931862,0.41248137,-0.05524973,1.0,0.0,0.0,0.0,0.0,0.0,0.0,-1.8046249,0.1357666,-0.88319796,4.014492,-13.606274,-7.3173523,-10.221756,-12.620342,-0.051271915,0.90812445
-27.95753,-89.402985,-36.09233,3.1890724,3.1812918,-3.2487762,-0.35783303,-0.66256225,0.096366644,0.04339881,-0.61539596,-0.14283274,0.6723875,0.56075436,0.9957084,-0.41790655,-1.6022434,-1.0795649,2.4127097,1.5128741,-0.9376087,1.04946,-0.4207912,-1.6038673,-1.0288514,2.4295182,1.4504591,-0.9902004,-1.2345548,0.5961036,0.23797582,-1.1013634,0.19684729,0.48129946,0.348681,1.1259613,-0.53593826,1.4268593,-2.8656058,-0.017164603,-0.658271,0.15624237,-0.3266678,1.0425291,0.78147876,-0.18648659,0.09373108,0.58798647,0.11274292,0.20043771,-0.17226498,1.0,0.0,0.0,0.0,0.0,0.0,0.0,-1.7759613,0.13593826,-0.87685925,6.3746214,-31.626629,-13.469502,-7.4632645,-22.245186,-0.4122615,0.10873079
-57.071598,-174.34215,-68.147896,3.4805036,6.2897887,-4.305433,-0.7795557,-0.58563584,-0.3468736,-0.14353767,-0.65474325,-0.4156405,0.6273515,0.5226741,0.99089646,-0.45547858,-1.618221,-1.0943257,2.3879542,1.5131943,-0.93793297,1.037831,-0.41895825,-1.6031845,-1.040305,2.4292665,1.4552027,-0.9867166,-1.1362892,0.044279773,0.0118832495,-1.1605494,-0.101802275,0.47014472,0.3459974,1.0973282,-0.5361061,1.4195449,-2.8627408,-0.017147442,-0.7557989,0.15648651,-0.32736588,1.0395505,0.7817404,-0.18403341,0.09720423,0.5878476,-0.003929246,-0.16231155,-0.34180722,1.0,0.0,0.0,0.0,0.0,0.0,0.0,-1.7473282,0.1361061,-0.8695449,10.634351,-55.62123,-22.60156,-6.033659,-30.60959,-1.7322779,-0.96708536
-54.05407,-176.0,-67.15002,2.1576128,6.6014094,-4.1930156,-0.4882836,-0.42810616,-0.57730085,-0.16149116,-0.6850818,-0.5526277,0.6160225,0.52952504,0.99502033,-0.47668833,-1.6193336,-1.1088132,2.3740036,1.5168049,-0.9337641,1.0277811,-0.4229923,-1.6045825,-1.0522679,2.4260697,1.4598299,-0.9832338,-0.95872426,-0.55424684,-0.1904252,-1.2072487,-0.3942182,0.45699173,0.34720838,1.0687256,-0.53627396,1.4112562,-2.8598785,-0.017130299,-0.8532292,0.15554047,-0.33169174,1.0348558,0.7827763,-0.17989317,0.09961581,0.5873468,-0.12627673,-0.5230688,-0.51296747,1.0,0.0,0.0,0.0,0.0,0.0,0.0,-1.7187256,0.13627395,-0.8612562,18.48862,-60.335777,-20.216373,-4.4044256,-29.877213,-2.2936225,-0.45408607
-20.89548,-117.31833,-41.771194,-7.1664114,4.137608,-3.766573,0.3791048,-0.11442068,-0.7040994,-0.17957728,-0.74046606,-0.6256794,0.61892194,0.4961812,1.0163391,-0.49340224,-1.6225402,-1.1263145,2.3635018,1.5217221,-0.9336157,1.0207106,-0.43233258,-1.6074951,-1.0647877,2.4202943,1.464316,-0.9797672,-0.6233389,-1.0617305,-0.32390225,-1.2657219,-0.6393374,0.44258502,0.3456357,1.0401535,-0.5364418,1.4019939,-2.8570192,-0.017113172,-0.9505622,0.15402222,-0.33885956,1.0285931,0.7838967,-0.17436582,0.100803204,0.5873169,-0.16394717,-0.7792397,-0.66532433,1.0,0.0,0.0,0.0,0.0,0.0,0.0,-1.6901535,0.1364418,-0.85199386,33.519196,-51.072956,-13.083971,-5.508065,-24.711895,-2.4463892,-0.39661527
26.32546,-31.110092,-6.2885437,-19.717915,0.19869573,-3.434154,1.2992626,0.31679538,-0.7401088,-0.29937562,-0.75672317,-0.6778549,0.63236207,0.4550175,1.0523901,-0.5063435,-1.6374326,-1.14046,2.3525088,1.5275522,-0.93426543,1.0185362,-0.44536358,-1.6117256,-1.077855,2.4125543,1.4686953,-0.97633207,-0.086625725,-1.3838041,-0.45334578,-1.3207761,-0.8176643,0.43404543,0.34305218,1.0116043,-0.53660965,1.3917589,-2.8541627,-0.017096061,-1.0477978,0.1531372,-0.34752655,1.0210629,0.7842388,-0.16790089,0.10100691,0.5887074,-0.06668617,-0.89205855,-0.7851888,1.0,0.0,0.0,0.0,0.0,0.0,0.0,-1.6616043,0.13660964,-0.8417589,52.361553,-32.276512,-12.069678,-5.5912495,-17.508066,-1.5755832,-0.18613338
43.046257,22.657701,13.777847,-16.389626,-1.5662354,-2.6250215,1.321388,0.43227226,-0.7665911,-0.38077018,-0.71861625,-0.68241954,0.64902234,0.43174508,1.0617634,-0.52202266,-1.6498026,-1.1497166,2.3443122,1.5335975,-0.93315756,1.0214716,-0.4603415,-1.617234,-1.0911607,2.403563,1.4730326,-0.9729322,0.41515672,-1.535667,-0.5800343,-1.3347762,-0.9246372,0.43216223,0.33961093,0.983078,-0.5367775,1.3805524,-2.851309,-0.01707897,-1.1449362,0.1535263,-0.35663605,1.0126717,0.7835025,-0.16095613,0.10065442,0.59168017,0.073407836,-0.91041857,-0.8617122,1.0,0.0,0.0,0.0,0.0,0.0,0.0,-1.633078,0.13677749,-0.8305524,48.586914,-15.152764,-11.728895,-1.7117023,-10.270309,-0.6112695,-0.13316274
40.429287,40.552856,17.882843,-10.000986,-1.7405297,-2.1927304,0.91168,0.5141451,-0.7982653,-0.5250492,-0.72267365,-0.5998151,0.64529324,0.3616272,1.0728861,-0.54016805,-1.6697389,-1.1634281,2.3435814,1.5375619,-0.9367695,1.0285422,-0.47601753,-1.6243522,-1.1044797,2.394156,1.4773642,-0.9696182,0.80051214,-1.5781515,-0.7532259,-1.3317807,-0.9450934,0.4326763,0.32937664,0.9545822,-0.53694534,1.3683752,-2.8484583,-0.017061893,-1.2419775,0.1552124,-0.36571884,1.0036858,0.78190684,-0.15368557,0.10005993,0.5958107,0.2044623,-0.902329,-0.9169245,1.0,0.0,0.0,0.0,0.0,0.0,0.0,-1.6045822,0.13694534,-0.8183752,37.32251,-4.216099,-16.623104,0.025081635,-1.7685413,-0.24474859,-0.81896186
33.9323,49.234867,19.705626,-2.9322543,-1.3475862,-1.6416699,0.58763766,0.58790207,-0.80790126,-0.5612834,-0.7321525,-0.48801816,0.6434982,0.2705423,1.0873324,-0.55680764,-1.6804806,-1.1776949,2.345354,1.541714,-0.94256395,1.0384966,-0.49165255,-1.6330554,-1.1177453,2.3851342,1.481711,-0.966472,1.0582621,-1.5585417,-0.9081174,-1.3254615,-0.8870816,0.4348997,0.31041592,0.92611694,-0.5371132,1.3552283,-2.8456104,-0.017044835,-1.3389217,0.15800476,-0.37461472,0.9942894,0.7797223,-0.14615454,0.099290505,0.6006775,0.3084157,-0.8788617,-0.9541381,1.0,0.0,0.0,0.0,0.0,0.0,0.0,-1.5761169,0.13711318,-0.8052283,25.077045,1.9903183,-15.170872,0.4478693,5.951941,0.05607009,-1.6914189
25.281153,51.32362,19.913881,4.498491,-0.8705483,-1.0115753,0.30708885,0.6355889,-0.81347066,-0.5630224,-0.71477956,-0.5028344,0.6623834,0.17858826,1.1020555,-0.5729996,-1.6893576,-1.1892233,2.3348508,1.5479493,-0.9486132,1.0501906,-0.5069347,-1.642905,-1.1308583,2.3767304,1.4861017,-0.9635776,1.2052598,-1.5181028,-1.0105965,-1.3069013,-0.82442087,0.44019178,0.28306836,0.8976822,-0.53728104,1.3411126,-2.8427653,-0.017027793,-1.4357691,0.16157532,-0.38320923,0.9846427,0.77716184,-0.13850346,0.09840329,0.6059316,0.38008747,-0.8438806,-0.9755801,1.0,0.0,0.0,0.0,0.0,0.0,0.0,-1.5476822,0.13728103,-0.7911126,14.419889,4.0608883,-10.2144,1.7635584,6.3121915,0.47288537,-2.5619447
20.214668,51.526585,20.27419,8.864189,-0.53449464,-0.58884144,0.17442563,0.69675326,-0.8155975,-0.562711,-0.7013674,-0.49962828,0.6563869,0.056926116,1.1198659,-0.5884944,-1.6991761,-1.2009951,2.3267677,1.5517404,-0.957885,1.0628935,-0.52183396,-1.6533706,-1.1437348,2.3688798,1.490542,-0.9610313,1.2915313,-1.4805183,-1.0587702,-1.281342,-0.7717504,0.4452211,0.24572586,0.86927795,-0.5374489,1.3260292,-2.8399231,-0.017010769,-1.5325197,0.16570282,-0.39139938,0.9748576,0.77434534,-0.13087098,0.097417034,0.61136883,0.43106756,-0.80225945,-0.98685867,1.0,0.0,0.0,0.0,0.0,0.0,0.0,-1.5192779,0.13744888,-0.77602917,8.546114,3.7665367,-4.9207926,2.5120974,5.265987,0.50200224,-3.5753398
12.252174,44.105854,16.70246,12.3463745,0.03475225,-0.41211247,0.012064055,0.7112048,-0.8172189,-0.60836947,-0.68937147,-0.46033755,0.64537644,0.039826382,1.134014,-0.60355586,-1.7142075,-1.212672,2.322846,1.5550797,-0.95704865,1.0760771,-0.5364595,-1.6642311,-1.1563348,2.3615403,1.4950186,-0.95884645,1.3273458,-1.4566289,-1.0956435,-1.2528105,-0.72144985,0.44847095,0.20979895,0.84090424,-0.5376167,1.3099791,-2.8370838,-0.016993761,-1.6291735,0.17015076,-0.3992653,0.9649595,0.7714025,-0.12327396,0.09631005,0.6168192,0.45829004,-0.77275574,-0.9980756,1.0,0.0,0.0,0.0,0.0,0.0,0.0,-1.4909042,0.13761672,-0.75997907,3.6400795,2.3639917,-3.8195372,2.890873,4.951811,0.318259,-3.4715385
6.693328,38.653385,14.140642,14.340874,0.40603274,-0.2823026,-0.06215228,0.711705,-0.8167421,-0.6234856,-0.6808843,-0.43901488,0.6511385,0.06011961,1.1472476,-0.6181337,-1.7265797,-1.2244232,2.3176389,1.5601325,-0.9528345,1.0893599,-0.5509458,-1.67537,-1.1686696,2.354651,1.4995276,-0.9569696,1.3289405,-1.4460592,-1.1205533,-1.2266861,-0.67856264,0.45148364,0.18054447,0.81256104,-0.5377846,1.2929631,-2.8342474,-0.01697677,-1.7257307,0.17475891,-0.4069023,0.95493203,0.76842195,-0.11568861,0.09506876,0.62217826,0.4698019,-0.75201637,-1.0113238,1.0,0.0,0.0,0.0,0.0,0.0,0.0,-1.462561,0.13778457,-0.74296314,0.2965212,1.0105133,-2.638626,2.7067423,4.1658163,0.28301477,-2.827227
2.0486784,32.513992,10.9078,14.387043,0.56164205,-0.29292005,-0.092949405,0.6915543,-0.81975275,-0.6505103,-0.6960605,-0.44919607,0.64694935,0.13733062,1.1585153,-0.6329211,-1.740421,-1.2382756,2.3097315,1.5642225,-0.94323653,1.1024405,-0.56541306,-1.6867816,-1.1808842,2.3480477,1.5040575,-0.95529115,1.3017656,-1.4471378,-1.1487033,-1.2191156,-0.65445095,0.45304406,0.16377471,0.7842331,-0.5379524,1.2749823,-2.8314137,-0.016959798,-1.8221912,0.17943573,-0.41440582,0.9446979,0.7654565,-0.10801522,0.09375764,0.6273903,0.47335565,-0.741378,-1.0343192,1.0,0.0,0.0,0.0,0.0,0.0,0.0,-1.4342331,0.13795242,-0.7249823,-2.5156498,-0.17287731,-2.9798985,0.91245174,2.2499561,0.08541942,-1.6092598
1.672545,36.11645,13.012197,15.605224,0.41032332,0.009776115,-0.04409243,0.6695343,-0.8167614,-0.5988895,-0.67797136,-0.51950395,0.6777559,0.16471525,1.1693939,-0.6470892,-1.7466706,-1.2486814,2.2960973,1.5718331,-0.93881965,1.1151224,-0.5799127,-1.6981628,-1.1930073,2.3413835,1.5086218,-0.95372903,1.2576015,-1.4511188,-1.1353036,-1.209595,-0.6709863,0.4575514,0.15397897,0.75593567,-0.53812027,1.2560376,-2.828583,-0.01694284,-1.9185555,0.18411255,-0.42171097,0.9342796,0.76247025,-0.10032455,0.09249223,0.63247067,0.47421396,-0.71771127,-1.0510819,1.0,0.0,0.0,0.0,0.0,0.0,0.0,-1.4059356,0.13812026,-0.7060376,-4.1900873,-0.4528284,1.1286497,1.0998249,-1.806438,0.41180253,-0.92063844
1.8324313,36.949013,13.470672,15.595147,0.27752495,0.06938939,-0.030037403,0.6646326,-0.81996137,-0.61141545,-0.6651503,-0.56960005,0.6846246,0.17773981,1.1815857,-0.66190886,-1.7593043,-1.2595224,2.2844234,1.5770843,-0.93595505,1.1273905,-0.59447247,-1.7093971,-1.2050065,2.3343415,1.5132338,-0.9522337,1.2172792,-1.4577572,-1.1200943,-1.196246,-0.7155549,0.4624082,0.14816208,0.72766876,-0.5382881,1.23613,-2.8257551,-0.016925901,-2.0148232,0.18882751,-0.42876053,0.92369765,0.7594359,-0.092677295,0.09139393,0.6374285,0.47667226,-0.6908197,-1.0671877,1.0,0.0,0.0,0.0,0.0,0.0,0.0,-1.3776687,0.13828811,-0.68613,-3.823042,-0.71747303,1.3185501,1.4847279,-4.6085835,0.44243932,-0.533247
2.76888,37.633274,13.711935,14.588205,0.19697928,0.026065454,0.009833008,0.6530933,-0.8183262,-0.6247194,-0.671962,-0.5646827,0.6704729,0.20775692,1.1926998,-0.67630506,-1.7718691,-1.2722027,2.2778733,1.580281,-0.931458,1.1393057,-0.6090818,-1.7205493,-1.2169274,2.3268838,1.5178801,-0.95076215,1.1835836,-1.4622117,-1.114243,-1.1903107,-0.75641954,0.46520105,0.14702576,0.6994324,-0.53845596,1.2152604,-2.82293,-0.016908979,-2.1109946,0.19359589,-0.43553925,0.9129345,0.75632733,-0.08504188,0.090496555,0.64229834,0.4825284,-0.6642166,-1.0857702,1.0,0.0,0.0,0.0,0.0,0.0,0.0,-1.3494323,0.13845596,-0.6652604,-3.1717062,-0.49636364,0.38506985,0.74825287,-4.2365193,0.21936893,-0.06031394
2.822351,41.176525,15.3714,15.784185,0.2366659,0.18644968,0.0056167543,0.63076717,-0.8098784,-0.60806656,-0.6476622,-0.5755915,0.6879114,0.21095243,1.2023824,-0.6900697,-1.781356,-1.2816936,2.2693245,1.5866712,-0.92966694,1.150889,-0.62368065,-1.7316043,-1.2287091,2.3190637,1.5225645,-0.9492916,1.15038,-1.4592376,-1.1030401,-1.1736768,-0.7911005,0.46942103,0.14717318,0.6712265,-0.5386238,1.1934298,-2.820108,-0.016892074,-2.2070699,0.19837952,-0.4420166,0.9020398,0.7531339,-0.07746347,0.089790925,0.64709055,0.48519439,-0.63276577,-1.0967543,1.0,0.0,0.0,0.0,0.0,0.0,0.0,-1.3212265,0.1386238,-0.6434298,-3.1266212,0.25122166,0.9282589,1.8031597,-3.6218166,0.39716363,0.07144809
1.894074,40.495247,14.789797,15.260679,0.25131983,0.18282534,0.017849088,0.60198706,-0.8112742,-0.6138493,-0.6623026,-0.5963231,0.68361866,0.25114632,1.2110877,-0.70480806,-1.7929893,-1.2949394,2.2594314,1.5909264,-0.92417693,1.1620966,-0.63824326,-1.7425945,-1.2404126,2.310923,1.5272833,-0.94778764,1.1116675,-1.4554205,-1.0983822,-1.1687617,-0.82253206,0.47253057,0.15163687,0.64305115,-0.53879166,1.1706392,-2.8172884,-0.016875185,-2.303049,0.20321655,-0.4481964,0.89100724,0.7498532,-0.06991437,0.08927553,0.6518144,0.48677766,-0.60371554,-1.1113074,1.0,0.0,0.0,0.0,0.0,0.0,0.0,-1.2930511,0.13879165,-0.62063915,-3.664589,0.33352375,0.26745796,0.6483078,-3.307891,0.26634932,0.4997164
1.220922,43.188103,16.193966,16.21989,0.33860052,0.37093136,0.032651156,0.5689815,-0.80540985,-0.5799938,-0.6545976,-0.59830236,0.6919808,0.25710353,1.2189947,-0.7187842,-1.8005939,-1.3058723,2.251093,1.5964814,-0.9220773,1.1728503,-0.6527429,-1.7534053,-1.2520684,2.3025384,1.5320364,-0.9462341,1.0640543,-1.4482561,-1.0761042,-1.1639733,-0.844621,0.47623426,0.15680455,0.6149063,-0.5389595,1.1468894,-2.8144715,-0.016858313,-2.3989322,0.20801544,-0.4540596,0.8798733,0.74647,-0.06242247,0.08890757,0.6564917,0.4832083,-0.570611,-1.1196918,1.0,0.0,0.0,0.0,0.0,0.0,0.0,-1.2649063,0.1389595,-0.59688944,-4.5434713,0.6732702,2.0156384,0.62873363,-2.375853,0.35500526,0.580135
-3.8326573,36.488014,11.779948,15.338035,0.5331425,0.22378704,-0.043172017,0.51892453,-0.80769414,-0.6352367,-0.69086087,-0.6045645,0.67476094,0.28305286,1.2247427,-0.73351234,-1.816929,-1.3211545,2.2420819,1.5995126,-0.9179288,1.1829935,-0.66719204,-1.7642696,-1.2638634,2.2939782,1.5368086,-0.9446138,0.99872756,-1.4439994,-1.0905696,-1.1839567,-0.8605586,0.47710544,0.1638288,0.58677673,-0.53912735,1.1221817,-2.8116574,-0.016841458,-2.4947195,0.21273804,-0.45970917,0.86853695,0.74304914,-0.054833457,0.08869453,0.6610632,0.473355,-0.55255955,-1.1435513,1.0,0.0,0.0,0.0,0.0,0.0,0.0,-1.2367767,0.13912734,-0.57218164,-6.2726974,0.36144257,-1.6536236,-1.7853737,-1.7929554,0.009024143,0.7392973
-12.357956,33.44582,9.04122,17.867207,0.9640571,0.46120757,-0.17774814,0.42214417,-0.80156195,-0.62350017,-0.70531344,-0.6073862,0.67026955,0.25958768,1.2252079,-0.74734825,-1.8266196,-1.3343948,2.2332397,1.6038356,-0.91865504,1.1921545,-0.68158776,-1.7752712,-1.275937,2.2852998,1.5415827,-0.9429487,0.88954437,-1.4383167,-1.1041034,-1.2141787,-0.87131816,0.47709396,0.16756031,0.5586777,-0.5392952,1.0965167,-2.8088462,-0.01682462,-2.5904112,0.21721649,-0.46524048,0.8569458,0.73970985,-0.0470508,0.08862939,0.6654025,0.44332334,-0.5423926,-1.169274,1.0,0.0,0.0,0.0,0.0,0.0,0.0,-1.2086776,0.13929519,-0.5465167,-10.58414,0.4839182,-1.5738249,-2.7629375,-1.3288379,-0.07506013,0.3846079
-30.497026,25.845787,2.7752972,23.789133,1.9213966,0.9087904,-0.4584183,0.24797204,-0.8029524,-0.62218827,-0.72657186,-0.6126741,0.65687317,0.2644532,1.2169517,-0.761883,-1.83749,-1.3485942,2.2240324,1.60727,-0.91650337,1.1995741,-0.69594914,-1.7863891,-1.288371,2.276526,1.5463454,-0.94125116,0.6942065,-1.4357764,-1.1150229,-1.2518474,-0.8804084,0.47557104,0.17036586,0.53060913,-0.53946304,1.0698956,-2.806038,-0.016807798,-2.686007,0.22107697,-0.4708023,0.8450794,0.7366863,-0.039011493,0.08869303,0.6692569,0.3709576,-0.5517682,-1.197075,1.0,0.0,0.0,0.0,0.0,0.0,0.0,-1.1806091,0.13946304,-0.5198956,-19.065739,0.11951923,-1.3204813,-3.411007,-1.2756109,-0.21755695,0.24222136
-88.33379,1.7450552,-17.95909,43.62166,4.9714975,2.1714976,-1.4435644,-0.23831062,-0.80129254,-0.651447,-0.75270444,-0.6060941,0.6105581,0.21861903,1.1757431,-0.7760784,-1.8515338,-1.3636414,2.2159166,1.6074011,-0.91938925,1.2030379,-0.710301,-1.7977169,-1.3012131,2.2676873,1.5510546,-0.9395727,0.23364085,-1.435995,-1.1393604,-1.2927647,-0.88749546,0.46922216,0.16641194,0.5025711,-0.5396309,1.0423192,-2.8032324,-0.016790994,-2.7815075,0.22324371,-0.47696686,0.8328995,0.73475397,-0.030550754,0.08888421,0.6717907,0.16703638,-0.6268917,-1.2295069,1.0,0.0,0.0,0.0,0.0,0.0,0.0,-1.1525711,0.13963088,-0.49231917,-45.156967,-0.34873486,-2.6568413,-3.4022093,-1.4702797,-0.7182658,-0.59418976
-100.728935,1.8251352,-19.531834,47.565285,5.7547398,2.7187734,-1.445624,-0.42872828,-0.79892343,-0.59670764,-0.7978048,-0.5291827,0.55623996,0.42059907,1.1601651,-0.7901933,-1.8573877,-1.3809936,2.2147691,1.6066786,-0.8975128,1.2014681,-0.7246576,-1.8090045,-1.3145741,2.2590203,1.5556551,-0.9377798,-0.2838485,-1.4369149,-1.1259472,-1.3475662,-0.8625678,0.4562847,0.18318771,0.4745636,-0.53979874,1.0137886,-2.8004298,-0.016774205,-2.876912,0.22310638,-0.48391724,0.82044166,0.73415965,-0.021618353,0.08900421,0.6727708,-0.07162983,-0.70817554,-1.2554569,1.0,0.0,0.0,0.0,0.0,0.0,0.0,-1.1245636,0.13979873,-0.46378857,-50.73626,-0.51612854,1.0633945,-4.6219826,1.5872598,-1.5115976,1.5590876
-73.72934,27.32991,-0.731091,42.506294,4.672473,3.1185198,-0.81598914,-0.47293356,-0.80278915,-0.39534,-0.78152496,-0.4685057,0.61206037,0.4428079,1.1541748,-0.8049365,-1.8485385,-1.3927267,2.2121696,1.6168611,-0.893499,1.1955439,-0.73903805,-1.8191631,-1.3283089,2.250815,1.5601794,-0.9357866,-0.6928709,-1.4395006,-0.98043066,-1.3796828,-0.80907667,0.45089787,0.20510949,0.4465866,-0.5399666,0.9843046,-2.79763,-0.016757434,-2.9722214,0.220932,-0.49124527,0.80804235,0.7344488,-0.012659022,0.08864377,0.67273104,-0.26902202,-0.73191714,-1.2386351,1.0,0.0,0.0,0.0,0.0,0.0,0.0,-1.0965866,0.13996658,-0.4343046,-40.126324,-0.5736351,14.1630535,-2.5310755,4.6905637,-0.6374061,2.3209512
-58.898594,27.83324,0.36395144,34.8649,3.782426,2.3451676,-0.6632973,-0.56795114,-0.80269265,-0.5457281,-0.7894322,-0.4931486,0.5715322,0.4703868,1.1387488,-0.8193073,-1.8737359,-1.4072522,2.2015,1.6173326,-0.88874793,1.1863943,-0.7534414,-1.8285778,-1.342265,2.2430367,1.5646273,-0.9335636,-0.9867714,-1.4414936,-0.9295853,-1.3988541,-0.7691463,0.44198096,0.22856158,0.41862488,-0.54013443,0.9538682,-2.7948332,-0.016740682,-3.0674355,0.21710968,-0.498806,0.7956738,0.7353679,-0.0036759286,0.08780897,0.671945,-0.42320254,-0.7537135,-1.2395709,1.0,0.0,0.0,0.0,0.0,0.0,0.0,-1.0686249,0.14013442,-0.4038682,-28.781176,-0.47786236,4.7686577,-1.263833,3.446281,-1.0909736,2.5002866
-48.079456,22.450212,-2.6207824,27.495789,3.2252514,1.399502,-0.63964546,-0.6413883,-0.8047442,-0.69516486,-0.79323447,-0.42481676,0.51895446,0.42860174,1.1222556,-0.8339158,-1.8980943,-1.4215884,2.200555,1.6165228,-0.89070344,1.1751009,-0.7678676,-1.8384731,-1.3563336,2.235766,1.5689455,-0.9311584,-1.1754811,-1.4438844,-1.010208,-1.4073125,-0.7145581,0.42727092,0.24486177,0.39069366,-0.5403023,0.9224804,-2.792039,-0.016723944,-3.1625545,0.21202087,-0.5066948,0.78305936,0.736872,0.0056714714,0.086593896,0.6704393,-0.5431977,-0.78860515,-1.2715946,1.0,0.0,0.0,0.0,0.0,0.0,0.0,-1.0406936,0.14030227,-0.3724804,-18.39428,-0.51248074,-8.233177,-0.19214153,4.9381137,-1.8316329,1.7592728
-43.39106,23.46751,-2.3383076,25.112537,2.9923818,1.1970154,-0.6759367,-0.7455439,-0.79856944,-0.7313498,-0.7773889,-0.37810647,0.53605944,0.32353976,1.1005465,-0.84772456,-1.9116081,-1.4340725,2.1979554,1.6225514,-0.8988044,1.162274,-0.7822824,-1.8495357,-1.3703545,2.229094,1.5731341,-0.9286941,-1.3170667,-1.44163,-1.1386071,-1.398223,-0.6531388,0.41466478,0.24739996,0.36279297,-0.5404701,0.89014214,-2.7892473,-0.016707223,-3.2575784,0.20579529,-0.5149231,0.77007043,0.73897606,0.015526369,0.08502377,0.66816485,-0.6524911,-0.82257795,-1.3107947,1.0,0.0,0.0,0.0,0.0,0.0,0.0,-1.012793,0.14047012,-0.34014213,-13.74855,-0.04916191,-12.924051,1.5526056,5.633378,-1.6907632,0.37097037
-33.8791,30.891438,3.090879,22.733402,2.7068396,1.2537427,-0.58285004,-0.79058576,-0.7931156,-0.733708,-0.7614503,-0.249036,0.5482696,0.16046977,1.0832155,-0.86159396,-1.9229065,-1.4464996,2.2041905,1.627961,-0.9126471,1.148379,-0.79664093,-1.8617656,-1.3841866,2.2233224,1.5772215,-0.9263433,-1.4127458,-1.4347786,-1.2511874,-1.3762219,-0.5533987,0.40543872,0.23153429,0.3349228,-0.54063797,0.8568543,-2.7864585,-0.016690519,-3.352507,0.1986084,-0.52340317,0.7567614,0.7416146,0.025807537,0.08293509,0.6651794,-0.7480664,-0.84240097,-1.3404818,1.0,0.0,0.0,0.0,0.0,0.0,0.0,-0.98492277,0.14063796,-0.3068543,-9.255815,0.44972897,-11.296153,2.7448654,9.556639,-1.320523,-1.4327526
-24.699615,38.62591,9.14401,21.089245,2.4832149,1.3954396,-0.528621,-0.8146638,-0.7927939,-0.7414117,-0.7341397,-0.11279589,0.55284476,-0.14011559,1.0669125,-0.8759203,-1.9359068,-1.4576006,2.2120428,1.632506,-0.9403549,1.1338106,-0.8109308,-1.87485,-1.3976887,2.2188325,1.5812384,-0.9243797,-1.4707931,-1.4276392,-1.32741,-1.3400137,-0.4146991,0.39922687,0.18528393,0.30708313,-0.5408058,0.82261795,-2.7836726,-0.016673831,-3.447341,0.19055939,-0.531971,0.74326646,0.7447272,0.036324177,0.08008539,0.6615499,-0.8313243,-0.8477512,-1.3555431,1.0,0.0,0.0,0.0,0.0,0.0,0.0,-0.9570831,0.14080581,-0.27261794,-5.591798,0.5275965,-7.629323,4.0461063,13.578325,-0.94649196,-4.428783
-17.044476,44.543514,14.359112,20.175766,2.7158449,1.5047491,-0.46357203,-0.8222005,-0.7939489,-0.74724716,-0.70324314,0.20930223,0.5424224,-0.37586525,1.0515906,-0.89032567,-1.9495747,-1.468013,2.2397628,1.6354806,-0.9619662,1.1189028,-0.8251663,-1.8884151,-1.4107388,2.216517,1.585198,-0.92303884,-1.4970565,-1.4227587,-1.3660461,-1.2922351,-0.17112297,0.39390245,0.11795403,0.279274,-0.54097366,0.7874339,-2.7808895,-0.01665716,-3.5420802,0.18170166,-0.54058075,0.7297366,0.74828094,0.046899278,0.0759815,0.65734535,-0.9102717,-0.8497429,-1.3553667,1.0,0.0,0.0,0.0,0.0,0.0,0.0,-0.92927396,0.14097366,-0.23743391,-2.5023222,0.34508705,-3.8330793,5.089855,24.194181,-0.8069992,-6.4534664
-12.774925,54.280952,20.299482,21.833754,2.6895843,1.8466138,-0.4600785,-0.8396733,-0.76470655,-0.73674005,-0.6428978,0.37573135,0.57811993,-0.44894642,1.0349355,-0.90163696,-1.9620891,-1.4750286,2.25409,1.64301,-0.9679335,1.1038233,-0.839233,-1.9020889,-1.4231213,2.2168717,1.5891424,-0.9223856,-1.5113529,-1.4016728,-1.3676224,-1.2195264,0.10418016,0.3939623,0.048679374,0.2514801,-0.5411415,0.7513032,-2.7781093,-0.016640507,-3.6367245,0.17207336,-0.54912186,0.7163947,0.75226325,0.057271395,0.07040164,0.6525823,-0.98647606,-0.839996,-1.330505,1.0,0.0,0.0,0.0,0.0,0.0,0.0,-0.9014801,0.1411415,-0.20130318,-1.3733149,1.998806,-0.068211555,7.4587584,27.477953,-0.18583536,-6.6607447
-8.269995,56.819473,22.107119,19.543213,1.8721168,1.8354414,-0.39822033,-0.8415689,-0.75916296,-0.75417763,-0.62485635,0.301096,0.5665759,-0.4609567,1.0196664,-0.9151493,-1.9775066,-1.4856069,2.2469814,1.6458,-0.96848124,1.0886633,-0.8530409,-1.9160022,-1.4349458,2.2188973,1.5932044,-0.92219424,-1.5206641,-1.3662905,-1.4603097,-1.1998247,0.13542952,0.39816415,0.03198179,0.22737122,-0.5423813,0.7256681,-1.6869706,-0.2444596,0.46697298,0.16187286,-0.55743027,0.7031803,0.7565297,0.067394465,0.06391368,0.6473298,-1.0265995,-0.8085824,-1.3482634,0.0,1.0,0.0,0.0,0.0,0.0,0.0,-0.8773712,0.14238128,-0.17566806,-1.445961,4.701686,-18.882227,-2.688527,-12.251982,0.6790221,3.0957806
58.725285,176.0,110.0,110.0,-2.539325,12.198873,-1.1144829,-0.78827924,0.566279,0.6730086,0.7208944,-0.24336393,0.68146056,-0.38098615,1.0098354,-0.79641294,-1.8487012,-1.3628564,2.194561,1.6613505,-0.9602929,1.0785544,-0.8671772,-1.9281634,-1.4332502,2.208899,1.6076449,-0.92021537,-0.844826,-1.4286743,-1.1288743,0.6213702,-1.3723782,1.8015766,0.24878903,0.21051788,-0.5448227,0.72959787,-1.685284,-0.24421519,0.36832014,0.15145874,-0.56362534,0.6941467,0.7610964,0.06690807,0.06300644,0.64209473,-1.0524861,-0.54110885,-0.7562799,0.0,1.0,0.0,0.0,0.0,0.0,0.0,-0.86051786,0.14482269,-0.17959785,66.37566,-6.00667,34.948135,180.72615,-149.011,143.04251,20.357374
-12.263019,165.73227,82.56501,91.14659,3.044273,6.4276357,-1.4511726,-0.82461965,-0.54559106,0.08358925,0.76683766,-0.5359305,0.5331863,-0.2362559,0.99609244,-0.9217363,-1.9198045,-1.3565664,2.1553059,1.6609635,-0.943841,1.0702288,-0.8804218,-1.9353579,-1.4203355,2.193091,1.6257094,-0.9179256,-0.8277596,-1.2914709,-0.57997775,1.515143,-1.6542504,1.8132486,0.22196022,0.19367981,-0.5472641,0.73254186,-1.6835991,-0.24397102,0.26976597,0.14033508,-0.56847,0.6899945,0.7666155,0.058934156,0.06523399,0.63605964,-1.1321151,-0.45397258,-0.30637878,1.0,0.0,0.0,0.0,0.0,0.0,0.0,-0.8436798,0.1472641,-0.18254185,1.8923044,13.21187,55.853535,89.44573,-29.278803,2.7048588,-2.8021784
-43.11933,136.22903,48.85044,67.01814,3.1854064,4.0253077,-1.5374959,-0.80907154,-0.32840386,-0.4036715,0.72178286,-0.626561,0.6222738,0.11323511,0.98932165,-0.9132622,-1.975725,-1.3481573,2.1304348,1.6879368,-0.9066021,1.0608389,-0.8911907,-1.9398535,-1.4022291,2.1767297,1.6428336,-0.9158323,-0.9743526,-1.0070657,-0.4060661,1.9102482,-1.6329727,1.682012,0.20455222,0.176857,-0.5497017,0.73450106,-1.6819159,-0.24372709,0.17131032,0.12823486,-0.57268524,0.68892944,0.77321994,0.048536807,0.06900703,0.6285007,-1.235866,-0.40186736,-0.047370717,1.0,0.0,0.0,0.0,0.0,0.0,0.0,-0.826857,0.14970168,-0.18450105,-14.131999,27.926874,17.444742,39.852905,1.2987375,-12.220764,-1.9305319
-52.715416,90.988205,21.842497,41.51479,3.005991,2.1310904,-1.1540247,-0.8100847,-0.37390956,-0.3956305,0.78711444,-0.6219162,0.5592031,-0.009675652,0.97983044,-0.92858166,-1.9794166,-1.3235177,2.114538,1.698754,-0.91679984,1.0495036,-0.89955443,-1.9438933,-1.3828142,2.161837,1.6581954,-0.9140327,-1.1854014,-0.78061754,-0.40431014,1.9527377,-1.4428163,1.4886966,0.17136559,0.16004944,-0.55213547,0.73547643,-1.6802343,-0.24348341,0.072953105,0.11512756,-0.57660294,0.6892065,0.78067195,0.0382996,0.073455885,0.61942595,-1.337415,-0.3786807,0.04512502,1.0,0.0,0.0,0.0,0.0,0.0,0.0,-0.8100494,0.15213546,-0.18547642,-20.717789,22.300709,-0.10591149,4.5154333,18.614601,-18.92786,-3.4421742
-47.03357,48.581043,2.231567,20.21417,2.2126484,0.6088716,-0.7165376,-0.81626904,-0.4101471,-0.45449266,0.78642064,-0.61215395,0.6001912,-0.10459321,0.9678767,-0.94056916,-1.9893426,-1.3041722,2.1006217,1.7182145,-0.924492,1.036299,-0.90646476,-1.948902,-1.3643472,2.1490045,1.6717376,-0.91261363,-1.3649209,-0.661731,-0.5340373,1.8120431,-1.2303201,1.309602,0.13188441,0.14325714,-0.55456924,0.7354689,-1.6785544,-0.24323998,-0.025305782,0.10118103,-0.58047867,0.6894326,0.7886482,0.029656144,0.077927396,0.6091648,-1.4146985,-0.37950552,0.008914659,1.0,0.0,0.0,0.0,0.0,0.0,0.0,-0.7932571,0.15456924,-0.18546891,-17.750668,11.719095,-13.278538,-13.906288,21.141933,-17.813515,-4.042178
-31.632866,29.161865,-2.5523314,8.13846,1.3418968,-0.19124424,-0.31636083,-0.8144098,-0.41295442,-0.46910563,0.7891931,-0.5885691,0.5771278,-0.14953582,0.954858,-0.9477602,-1.9958125,-1.2854279,2.0901475,1.7294503,-0.9275672,1.0218127,-0.9128277,-1.9553889,-1.3476198,2.13806,1.683649,-0.91158843,-1.4763646,-0.62800163,-0.6875071,1.626675,-1.0495403,1.151568,0.09243336,0.1264801,-0.557003,0.7344716,-1.6768762,-0.2429968,-0.12453164,0.08672333,-0.5844269,0.6888962,0.796843,0.023062985,0.08208649,0.5981396,-1.4582024,-0.38753098,-0.0791092,1.0,0.0,0.0,0.0,0.0,0.0,0.0,-0.7764801,0.15700302,-0.1844716,-11.061382,3.2821417,-15.519583,-18.435406,17.968868,-15.845466,-4.0073915
-16.89568,22.848541,-0.15627027,3.5554755,0.929769,-0.42345488,-0.068189725,-0.81484616,-0.43905,-0.45033017,0.7930492,-0.5217597,0.5689647,-0.23946632,0.94032806,-0.9567327,-2.000422,-1.2683148,2.085884,1.7405454,-0.9355351,1.0066969,-0.9193546,-1.9630603,-1.3324792,2.1286874,1.6941642,-0.91098285,-1.5232435,-0.66115034,-0.79388726,1.4767864,-0.9003978,1.017717,0.049966857,0.10972595,-0.55942917,0.7324828,-1.6751996,-0.24275385,-0.22365828,0.071998596,-0.5884628,0.68744105,0.80504954,0.018311754,0.085686766,0.5867007,-1.4794843,-0.39650184,-0.17110139,1.0,0.0,0.0,0.0,0.0,0.0,0.0,-0.7597259,0.15942916,-0.18248278,-4.6637297,-3.3748746,-10.667383,-14.899397,14.739275,-13.482642,-4.2481437
-6.6173916,26.858715,5.332066,3.7603416,0.76788795,-0.33125663,0.03888969,-0.8148302,-0.44950643,-0.44906348,0.7876902,-0.44998074,0.54268175,-0.27837926,0.92521393,-0.9643053,-2.0079665,-1.2537103,2.0836892,1.7484323,-0.9388208,0.99144673,-0.9264061,-1.9713954,-1.3184068,2.120623,1.7034911,-0.9107883,-1.5256437,-0.7200384,-0.8465922,1.3843306,-0.77596486,0.9041007,0.009391784,0.09298706,-0.5618553,0.72950345,-1.6735247,-0.24251114,-0.3226858,0.057151794,-0.592556,0.68521243,0.8131622,0.014951647,0.08860909,0.5750582,-1.4879847,-0.40019432,-0.24303845,1.0,0.0,0.0,0.0,0.0,0.0,0.0,-0.74298704,0.16185531,-0.17950344,-0.25539398,-5.9529424,-5.1856637,-9.167171,12.2167225,-11.462629,-4.0333023
1.1361604,37.091602,12.957713,6.0392375,0.7433443,0.021561503,0.089774154,-0.8109521,-0.46612504,-0.39797547,0.78300744,-0.37440526,0.56737286,-0.35119787,0.9103515,-0.9730186,-2.011193,-1.2401061,2.0831826,1.7602284,-0.94590807,0.97635293,-0.9340822,-1.9797019,-1.3048646,2.1136956,1.7118491,-0.91100955,-1.5040656,-0.7837992,-0.8246574,1.3441464,-0.66603607,0.8127367,-0.032532275,0.07626343,-0.56428146,0.72553456,-1.6718515,-0.24226867,-0.42161438,0.042297363,-0.59659576,0.6825128,0.8211258,0.012417578,0.09079763,0.56334186,-1.4886683,-0.3912607,-0.28153712,1.0,0.0,0.0,0.0,0.0,0.0,0.0,-0.7262634,0.16428146,-0.17553455,2.0946264,-6.462896,2.4039745,-3.9753199,10.6969595,-9.218717,-4.1622095
4.5926857,48.056274,19.070122,8.734847,0.8257184,0.39096588,0.091262385,-0.81112283,-0.4711963,-0.35412273,0.7686262,-0.27210677,0.58384144,-0.39019573,0.89524066,-0.9812018,-2.015114,-1.2280021,2.086485,1.7702333,-0.95002913,0.961509,-0.94228286,-1.9874038,-1.2915132,2.1078973,1.7194308,-0.9116361,-1.4781833,-0.8326488,-0.75124043,1.3320063,-0.5523812,0.73984,-0.07273991,0.059555054,-0.5667,0.7205771,-1.67018,-0.24202643,-0.52044404,0.027427673,-0.6004448,0.67964906,0.82891977,0.01023135,0.09222332,0.5516178,-1.4872702,-0.36994356,-0.29068702,1.0,0.0,0.0,0.0,0.0,0.0,0.0,-0.70955503,0.16669998,-0.17057711,2.4953127,-4.9998045,7.6370955,-1.2067318,11.017477,-7.356429,-4.003611
10.120951,63.499397,26.643688,10.775858,0.38878128,0.7526051,0.14272165,-0.7937107,-0.44897133,-0.28744003,0.76682,-0.32174253,0.60782534,-0.39311618,0.8821379,-0.98718,-2.0161479,-1.2148312,2.075723,1.7802134,-0.95094776,0.9469626,-0.95070666,-1.9940642,-1.278156,2.1028428,1.7264079,-0.9126289,-1.4473629,-0.84607506,-0.63617057,1.3365446,-0.49120572,0.68366224,-0.10825781,0.042869568,-0.5691185,0.71463215,-1.6685101,-0.24178447,-0.61917484,0.012702942,-0.6039314,0.6769304,0.836483,0.008008175,0.09315345,0.5399578,-1.4688983,-0.3279976,-0.26817217,0.0,1.0,0.0,0.0,0.0,0.0,0.0,-0.69286954,0.1691185,-0.16463214,2.9419422,-1.4908552,11.901342,0.38545132,5.6937637,-5.610335,-3.6177769
5.910879,62.09039,24.223295,11.756762,0.33116245,0.7535297,0.09252723,-0.7959674,-0.47018927,-0.29621252,0.7615191,-0.35438073,0.6075241,-0.3673694,0.86736584,-0.9977256,-2.0236855,-1.2020042,2.0674047,1.7871603,-0.94936585,0.9326489,-0.9592268,-1.9997748,-1.2647264,2.0980668,1.7329062,-0.91391444,-1.4263017,-0.8544138,-0.5482273,1.3449095,-0.47424895,0.63849145,-0.13568065,0.02619934,-0.571537,0.7077006,-1.6668419,-0.24154274,-0.71780694,-0.0018615723,-0.6070061,0.67439234,0.84381115,0.005692052,0.093880706,0.5283338,-1.4537671,-0.28727388,-0.25159922,0.0,1.0,0.0,0.0,0.0,0.0,0.0,-0.6761993,0.17153701,-0.1577006,2.0055532,-0.9835005,9.141636,0.81431866,1.3191402,-4.4926763,-2.8221622
6.6001415,61.92373,23.951603,11.417236,0.200818,0.73306495,0.118388146,-0.77582335,-0.4862125,-0.24008161,0.7642703,-0.36822233,0.6202237,-0.3689992,0.85506654,-1.007848,-2.023783,-1.1882994,2.0612445,1.7949286,-0.95081437,0.9185631,-0.9678461,-2.0046158,-1.2512014,2.093264,1.739025,-0.91543746,-1.4030145,-0.8649022,-0.46171096,1.3548601,-0.4835586,0.60324806,-0.15818751,0.009544373,-0.5739479,0.69978344,-1.6651753,-0.24130125,-0.81634045,-0.016242981,-0.6096573,0.67200613,0.85088974,0.003271159,0.09455792,0.5167539,-1.4346337,-0.24614686,-0.23698957,0.0,1.0,0.0,0.0,0.0,0.0,0.0,-0.65954435,0.1739479,-0.14978343,2.2331,-1.1933923,8.99387,0.9794712,-1.2969732,-3.480649,-2.334413
5.2976155,54.121655,19.807331,9.680975,0.058501422,0.5223855,0.14412819,-0.75824076,-0.51932263,-0.23506299,0.7612305,-0.43056658,0.6338478,-0.3266093,0.84273905,-1.0197784,-2.0281222,-1.1750784,2.0502074,1.8024098,-0.9480984,0.904747,-0.9766972,-2.0089018,-1.2376264,2.0880227,1.7448554,-0.9171899,-1.3736959,-0.89208764,-0.4228488,1.3572174,-0.5458061,0.5772449,-0.18568851,-0.0073776245,-0.5754204,0.69427633,-1.7170427,-0.05250267,-0.22269867,-0.030403137,-0.6119652,0.6695866,0.8577097,0.0008895822,0.09535869,0.5052127,-1.4113458,-0.21375442,-0.24847242,0.0,1.0,0.0,0.0,0.0,0.0,0.0,-0.64262235,0.17542037,-0.14427632,2.7534723,-2.8215766,4.379499,0.31507015,-4.8066735,0.043559074,-1.1628181
4.016779,91.993286,32.72502,18.148632,-0.24310005,1.2325176,0.028992515,-0.78230363,-0.3097906,-0.18602066,0.78298306,-0.49975586,0.6217222,-0.31309748,0.8265166,-1.0076762,-2.027504,-1.1593281,2.038047,1.8070276,-0.9484996,0.89103985,-0.98481774,-2.0127432,-1.2239431,2.0820456,1.750492,-0.91912276,-1.3701392,-0.7861383,-0.36991352,1.3716824,-0.6164213,0.5595099,-0.19655654,-0.02431488,-0.57570267,0.6925056,-1.6856097,-0.02005657,-0.16344061,-0.04424286,-0.61367416,0.6675897,0.8642731,-0.0016067498,0.09689183,0.49360037,-1.3763493,-0.14526258,-0.1860722,0.0,1.0,0.0,0.0,0.0,0.0,0.0,-0.6256851,0.17570266,-0.14250559,0.24111271,10.370314,5.6915226,1.3725758,-7.527983,-1.6474724,-1.3137162
-3.0061927,102.06956,33.34045,22.521107,-0.044998765,1.347604,-0.111531705,-0.7946069,-0.23458567,-0.24358362,0.78892237,-0.5018915,0.6089318,-0.28143677,0.81157917,-1.0082763,-2.0371015,-1.1450509,2.0318563,1.8113852,-0.94726646,0.87724036,-0.99146765,-2.0164745,-1.2101015,2.0754497,1.7559762,-0.92111963,-1.3835119,-0.6254158,-0.37291974,1.3882015,-0.67550665,0.54501796,-0.20152141,-0.0409317,-0.5756378,0.6914323,-1.6544217,0.014836759,-0.0902858,-0.057785034,-0.6146698,0.66632223,0.8706242,-0.0042290105,0.09949441,0.4817639,-1.3483647,-0.07319271,-0.10933861,0.0,1.0,0.0,0.0,0.0,0.0,0.0,-0.6090683,0.17563781,-0.14143229,-1.4401674,15.814686,0.07612705,1.5937328,-6.369686,-1.3477564,-0.758034
-3.0671182,101.18743,32.69794,22.304556,0.1177201,1.2714739,-0.0999326,-0.7881184,-0.20404342,-0.22426167,0.7857326,-0.49828437,0.6222499,-0.30295786,0.79842854,-1.011872,-2.0389006,-1.1315283,2.0256212,1.8182012,-0.9514154,0.8633091,-0.99655837,-2.0202625,-1.1961378,2.0684304,1.7613463,-0.92316234,-1.3967922,-0.47119662,-0.3791114,1.39891,-0.71230125,0.5344964,-0.20593423,-0.057243347,-0.57522964,0.6910841,-1.6233785,0.04937905,-0.017383067,-0.07106781,-0.6149597,0.6657971,0.87677306,-0.0069317925,0.10313247,0.46966437,-1.3219306,-0.0049444567,-0.035420872,0.0,1.0,0.0,0.0,0.0,0.0,0.0,-0.5927566,0.17522964,-0.14108407,-1.4478445,15.164476,-0.2137661,1.0110855,-4.1597486,-1.005137,-0.689289
-4.214936,93.51607,29.424124,21.143166,0.337182,1.096654,-0.094370686,-0.79197776,-0.16678642,-0.22857872,0.7905985,-0.4997257,0.63026255,-0.30972525,0.7841113,-1.013237,-2.0431204,-1.117078,2.018458,1.8243726,-0.9541349,0.84925,-1.0003176,-2.0241573,-1.1820846,2.0611749,1.7666314,-0.92524517,-1.4092537,-0.34499264,-0.39160737,1.4073204,-0.73171186,0.52636516,-0.20982523,-0.07325745,-0.5744972,0.6913776,-1.5950521,0.081172116,0.043409437,-0.08415222,-0.6146469,0.66589916,0.8827199,-0.009663957,0.107611485,0.45730937,-1.301814,0.053983666,0.023881553,0.0,1.0,0.0,0.0,0.0,0.0,0.0,-0.57674253,0.17449722,-0.14137757,-1.3622046,12.38268,-0.85326433,0.7980585,-2.3952365,-0.8159518,-0.6050557
-6.316846,73.83894,21.577047,17.420212,0.56537,0.715265,-0.0667257,-0.79457545,-0.17982756,-0.26116818,0.78252494,-0.48841038,0.62361276,-0.30854753,0.7697925,-1.0183003,-2.0502741,-1.103832,2.0123339,1.8289926,-0.9560999,0.83508986,-1.0032835,-2.028313,-1.168014,2.0538545,1.7718319,-0.9273594,-1.418538,-0.28098068,-0.4223188,1.4068902,-0.73354596,0.5178243,-0.21251886,-0.08905029,-0.5735054,0.6920139,-1.5741625,0.10544915,0.068862185,-0.09710693,-0.61387634,0.66630656,0.88847554,-0.012254464,0.11261169,0.44472417,-1.2938989,0.09397661,0.04529064,0.0,1.0,0.0,0.0,0.0,0.0,0.0,-0.5609497,0.1735054,-0.1420139,-1.0109901,6.2196016,-2.7546346,-0.05159378,-0.53099394,-0.88609457,-0.43038428
-7.7349544,65.9255,17.908604,16.217096,0.6466228,0.52234614,-0.072108045,-0.79553366,-0.13999233,-0.30415386,0.7901732,-0.49518263,0.6285857,-0.29603222,0.7555365,-1.0172827,-2.0587282,-1.0889968,2.004336,1.8346905,-0.95696265,0.82086676,-1.0057707,-2.0329478,-1.153934,2.0465455,1.7769555,-0.9294864,-1.4238522,-0.23849842,-0.47608864,1.408271,-0.73073053,0.5104143,-0.21332628,-0.104660034,-0.5722923,0.69278574,-1.5561556,0.12653346,0.07908482,-0.11003876,-0.6127739,0.66680336,0.8940505,-0.014560852,0.1179802,0.43190536,-1.2913578,0.12541868,0.05023752,0.0,1.0,0.0,0.0,0.0,0.0,0.0,-0.54533994,0.17229232,-0.14278573,-0.59797764,4.085946,-5.096042,0.14102459,-0.010669231,-0.7882476,-0.23128092
-8.232649,55.703842,13.998571,14.077557,0.7003741,0.32565144,-0.041136842,-0.7955753,-0.14928196,-0.33146772,0.78656113,-0.49375248,0.6223063,-0.28404784,0.7413092,-1.0206989,-2.0660946,-1.0752779,1.9971702,1.8391861,-0.95789117,0.80661696,-1.0080824,-2.0381777,-1.1398616,2.03929,1.7820046,-0.9316085,-1.4255569,-0.22932066,-0.5376661,1.4069786,-0.724895,0.50288606,-0.21233241,-0.12010956,-0.57089996,0.69351983,-1.5416123,0.14372835,0.07072058,-0.12299347,-0.6114273,0.6672023,0.89944524,-0.016477445,0.12356987,0.41887602,-1.2938424,0.14776419,0.03567505,0.0,1.0,0.0,0.0,0.0,0.0,0.0,-0.5298904,0.17089996,-0.14351982,-0.21915436,0.78359246,-5.9134245,-0.114130974,0.34626722,-0.80873966,-0.03119409
-6.03203,56.481773,14.886779,13.662636,0.6821109,0.3307644,-0.0015996657,-0.7918044,-0.13339446,-0.3300954,0.79188323,-0.49958652,0.62878066,-0.28120178,0.72743654,-1.0214218,-2.0711873,-1.0606732,1.9893312,1.8448826,-0.95972866,0.7923834,-1.010354,-2.0438883,-1.1257815,2.0320725,1.7869927,-0.93371713,-1.4228346,-0.22700894,-0.5812514,1.4085171,-0.7216482,0.49720153,-0.21081693,-0.13539886,-0.5693283,0.69419074,-1.5249985,0.16170117,0.065239,-0.1359253,-0.6098442,0.6674731,0.90463746,-0.01803619,0.12930776,0.40569097,-1.292824,0.170887,0.023576709,0.0,1.0,0.0,0.0,0.0,0.0,0.0,-0.5146011,0.1693283,-0.14419073,0.20861626,0.09382367,-4.069948,0.15542507,0.05185604,-0.63850284,0.01744926
-5.2615376,54.38847,14.332069,12.90306,0.6986235,0.2941444,0.028588248,-0.7915795,-0.14190924,-0.3486774,0.7881014,-0.49413344,0.62440926,-0.27528012,0.7132254,-1.024545,-2.078756,-1.0469714,1.9826592,1.8494335,-0.9612451,0.77818507,-1.0126886,-2.0499651,-1.1116996,2.0248969,1.7919288,-0.93580574,-1.4190801,-0.2361074,-0.6154067,1.4079401,-0.7174943,0.491985,-0.20868257,-0.15052032,-0.5675812,0.69478256,-1.5082093,0.1790773,0.05615916,-0.14886475,-0.6080513,0.667595,0.9096121,-0.019269167,0.13512306,0.39239782,-1.291613,0.19246265,0.007860334,0.0,1.0,0.0,0.0,0.0,0.0,0.0,-0.49947965,0.16758117,-0.14478254,0.3092289,-1.0410398,-3.115356,-0.05824566,0.13978481,-0.5984068,0.086033344
-6.172343,55.945347,14.542415,13.507786,0.771618,0.3308737,0.03156007,-0.7975788,-0.13442244,-0.37028918,0.7872185,-0.4851492,0.61921155,-0.24634513,0.6984272,-1.0261309,-2.0869942,-1.0329777,1.9763819,1.8538499,-0.9604403,0.76399153,-1.01509,-2.0563586,-1.097631,2.0177786,1.7968135,-0.9378532,-1.4196727,-0.2420307,-0.64606136,1.406539,-0.7108068,0.48704058,-0.20387226,-0.16547394,-0.56565094,0.695289,-1.490598,0.1972991,0.049272843,-0.16178894,-0.6060257,0.66757953,0.914363,-0.020190218,0.1409948,0.3790157,-1.2915577,0.21593678,-0.005107016,0.0,1.0,0.0,0.0,0.0,0.0,0.0,-0.48452604,0.16565093,-0.145289,-0.1296997,-0.7329643,-2.7410269,-0.13818741,0.36695004,-0.5883217,0.35130978
-4.237407,55.221855,14.694518,12.739618,0.7499839,0.29820848,0.07210791,-0.7884526,-0.15117005,-0.3723476,0.78756595,-0.4829565,0.6179047,-0.22292402,0.6851463,-1.030207,-2.0935934,-1.0188744,1.969483,1.858604,-0.9601456,0.74982566,-1.0176134,-2.06297,-1.0835757,2.010729,1.8016529,-0.93983614,-1.4158896,-0.25617504,-0.6649448,1.4051917,-0.70421374,0.48270038,-0.19689761,-0.18023682,-0.5635452,0.6957234,-1.4717278,0.2151257,0.0410881,-0.1747055,-0.603775,0.6674263,0.91887724,-0.02083491,0.14687395,0.36559328,-1.2887794,0.23839644,-0.019066654,0.0,1.0,0.0,0.0,0.0,0.0,0.0,-0.46976316,0.16354522,-0.1457234,0.29923916,-1.5501231,-1.5424848,-0.1415968,0.34406185,-0.53058267,0.57093203
-9.756944,44.485394,9.533725,12.106565,0.87997794,0.17078,0.033830896,-0.8015328,-0.19142282,-0.43291506,0.78791463,-0.4803329,0.6092552,-0.19354425,0.66967237,-1.0367557,-2.1062615,-1.0047842,1.9626958,1.8625784,-0.95919055,0.73563683,-1.0204477,-2.06997,-1.0695243,2.00374,1.8064402,-0.9417321,-1.4200466,-0.2929301,-0.7109859,1.4052083,-0.69781166,0.47719258,-0.18749365,-0.19487,-0.56129074,0.6959157,-1.4599115,0.22872745,0.012527097,-0.18769073,-0.60134125,0.66698956,0.92318183,-0.021087276,0.15270261,0.35209724,-1.299612,0.25429982,-0.052307665,0.0,1.0,0.0,0.0,0.0,0.0,0.0,-0.45512998,0.16129074,-0.14591569,-0.4445076,-3.7899137,-4.356754,0.05323887,0.42473078,-0.6479919,0.8462101
-7.401403,49.418175,11.53516,12.321769,0.8357316,0.21776533,0.07145466,-0.7932426,-0.18059798,-0.43103257,0.78634644,-0.46690068,0.6045365,-0.14950295,0.6563126,-1.0385076,-2.113073,-0.99088967,1.95705,1.8668939,-0.9566824,0.7214366,-1.0235682,-2.0773628,-1.0554786,1.996844,1.8111776,-0.94350725,-1.4202088,-0.31879464,-0.74786264,1.4044219,-0.68795574,0.4720819,-0.17459916,-0.20935822,-0.5588875,0.69588417,-1.4441414,0.2439976,-0.008036649,-0.20074463,-0.5987282,0.6662828,0.9272686,-0.020951146,0.15847476,0.33855528,-1.3041967,0.27366215,-0.07716593,0.0,1.0,0.0,0.0,0.0,0.0,0.0,-0.44064176,0.15888748,-0.14588416,-0.070500374,-2.714938,-3.381312,-0.050616264,0.7133603,-0.6233454,1.1801153
-8.013824,41.65517,8.937636,10.9591255,0.9145345,0.11565614,0.08421769,-0.7910677,-0.24151684,-0.4474274,0.79282475,-0.449657,0.603148,-0.11651429,0.6423299,-1.0477198,-2.1221056,-0.9761961,1.9518783,1.8714924,-0.9551587,0.70725083,-1.0271502,-2.085099,-1.0414062,1.9900825,1.8158618,-0.9451379,-1.418031,-0.37165132,-0.78144103,1.4082336,-0.67280966,0.46692595,-0.15942939,-0.22371674,-0.55635834,0.69553524,-1.432656,0.2559247,-0.042983577,-0.21389008,-0.5959549,0.665233,0.9311464,-0.02042828,0.16408406,0.32500082,-1.315238,0.28781164,-0.11455432,0.0,1.0,0.0,0.0,0.0,0.0,0.0,-0.42628324,0.15635833,-0.14553523,0.18837452,-5.394137,-3.0968904,0.4441023,1.292491,-0.6309688,1.4417529
-5.8857536,50.867752,11.88327,12.024119,0.74181336,0.20859522,0.1271193,-0.78840494,-0.21907093,-0.4668017,0.7888171,-0.49436042,0.61312735,-0.06980413,0.62841034,-1.0490572,-2.1317792,-0.9625244,1.9406464,1.8771746,-0.95211834,0.69310117,-1.031083,-2.0931592,-1.0273165,1.983321,1.8205137,-0.9465951,-1.4140916,-0.40073603,-0.812926,1.4093009,-0.67812514,0.46418566,-0.14147845,-0.23790741,-0.5536957,0.69493204,-1.4143875,0.2698806,-0.06520483,-0.22705078,-0.59300995,0.6638963,0.93478465,-0.019530796,0.1696401,0.31147784,-1.3148143,0.307815,-0.14025353,0.0,1.0,0.0,0.0,0.0,0.0,0.0,-0.41209257,0.15369567,-0.14493203,0.3279686,-3.043145,-2.800727,0.1344204,-0.84421635,-0.38092732,1.6747415
-3.0735016,50.38122,12.17321,10.9254465,0.64067596,0.16270769,0.1902959,-0.7759947,-0.25406393,-0.47371852,0.7900667,-0.4930571,0.6075569,0.010063872,0.6155017,-1.0564893,-2.140531,-0.9483098,1.9340153,1.8812695,-0.9455887,0.67904496,-1.0353478,-2.1014714,-1.013219,1.9764843,1.8251382,-0.94782716,-1.4030336,-0.43549,-0.8364693,1.4100947,-0.6864991,0.4614275,-0.117431805,-0.25190735,-0.55088806,0.6940869,-1.3940483,0.28444135,-0.0893422,-0.24019623,-0.58986664,0.66229415,0.9381561,-0.018278789,0.17516927,0.29806802,-1.3095299,0.32575265,-0.16729079,0.0,1.0,0.0,0.0,0.0,0.0,0.0,-0.39809263,0.15088806,-0.1440869,1.0271788,-3.6049247,-1.9834757,0.09377003,-1.1655331,-0.38102865,2.2833319
-8.226162,34.783577,5.9741335,8.908879,0.6789034,-0.021244824,0.1905356,-0.78550315,-0.3371526,-0.5264207,0.7889301,-0.5016328,0.5958617,0.071847774,0.6004946,-1.0690631,-2.1541135,-0.934326,1.926321,1.8847244,-0.94064236,0.6650478,-1.0402554,-2.110184,-0.99911606,1.9695355,1.8297211,-0.94879043,-1.3986226,-0.50953007,-0.8822923,1.4106534,-0.69823396,0.45692337,-0.089499876,-0.26578522,-0.5479889,0.69278073,-1.3849247,0.2916279,-0.14297338,-0.2534027,-0.5866127,0.6602089,0.9412888,-0.01652625,0.1805633,0.28477913,-1.319899,0.33515203,-0.22270377,0.0,1.0,0.0,0.0,0.0,0.0,0.0,-0.38421476,0.14798889,-0.14278072,0.4330635,-7.4983654,-4.364121,0.16243458,-1.3524413,-0.55012107,2.7311907
-3.5489593,40.595177,8.755591,8.720824,0.59810305,0.028980017,0.25367022,-0.7641846,-0.34110412,-0.5093074,0.79508746,-0.50504917,0.60258806,0.16447802,0.58862936,-1.0743659,-2.1611147,-0.91960734,1.9190305,1.8899798,-0.93234265,0.65116805,-1.0458362,-2.1192052,-0.98498344,1.9624768,1.8342676,-0.9494278,-1.3844987,-0.57454926,-0.90803987,1.414367,-0.7092849,0.45371616,-0.055406403,-0.27952576,-0.5450058,0.6910056,-1.3702722,0.3008302,-0.18674824,-0.26662445,-0.58325195,0.6576489,0.94417334,-0.0143116545,0.18579164,0.27168578,-1.3202538,0.34687304,-0.2676522,0.0,1.0,0.0,0.0,0.0,0.0,0.0,-0.37047422,0.14500579,-0.14100558,1.3658524,-6.608391,-2.2705436,0.4417181,-1.3629556,-0.43010712,3.3312716
-3.2186036,35.0346,7.286316,7.2644005,0.64585465,-0.021232009,0.26914358,-0.7606025,-0.40927038,-0.51177,0.7925578,-0.4885499,0.5945791,0.1900529,0.5751078,-1.0867633,-2.1703823,-0.9057277,1.9136219,1.8937255,-0.9304225,0.63743216,-1.0522163,-2.128394,-0.97082424,1.9553784,1.8387778,-0.949733,-1.3701013,-0.6595206,-0.9213427,1.4166914,-0.710715,0.44975787,-0.022264749,-0.29315186,-0.5419464,0.6887134,-1.3591627,0.30772692,-0.24108416,-0.2798767,-0.579792,0.65457517,0.94682765,-0.011684449,0.19073817,0.25884318,-1.3245964,0.35591435,-0.32116798,0.0,1.0,0.0,0.0,0.0,0.0,0.0,-0.35684812,0.1419464,-0.13871336,1.4086485,-8.588672,-1.0579824,0.335145,-0.36953688,-0.5231321,3.2772892
-5.962659,36.353107,6.6997128,7.935671,0.6349413,0.014156997,0.27575162,-0.76793206,-0.42949378,-0.5525012,0.78228337,-0.5035914,0.56557465,0.27629715,0.56063896,-1.0951657,-2.183644,-0.8925959,1.9050193,1.8953352,-0.9221033,0.6237746,-1.059365,-2.1378236,-0.9566973,1.9482422,1.8432288,-0.9496761,-1.3643105,-0.73369193,-0.9493698,1.4117706,-0.715176,0.44321498,0.01485439,-0.3066635,-0.53881836,0.6858719,-1.3481778,0.31450492,-0.29601568,-0.29320526,-0.57622147,0.6509652,0.94926286,-0.008583398,0.19540812,0.24625577,-1.3301643,0.36782292,-0.37511927,0.0,1.0,0.0,0.0,0.0,0.0,0.0,-0.34333646,0.13881835,-0.13587189,0.55680275,-7.520771,-2.5393248,-0.36780834,-0.6800771,-0.7953763,3.6721046
-6.8859625,34.56594,5.996996,7.7940674,0.7172628,0.019316673,0.26865596,-0.76267576,-0.48561072,-0.5552349,0.7891755,-0.48731676,0.5549054,0.331878,0.547507,-1.1079261,-2.193347,-0.8777797,1.8995105,1.8987193,-0.9164883,0.61016273,-1.0673072,-2.1475046,-0.9425925,1.9411176,1.8476079,-0.9492413,-1.3601716,-0.81496346,-0.9732598,1.4105685,-0.71217424,0.4357369,0.053015176,-0.32008362,-0.5356331,0.6824518,-1.3392668,0.3202965,-0.35531545,-0.30660248,-0.572525,0.64679873,0.9514994,-0.004999072,0.19976275,0.23392041,-1.3392111,0.38051113,-0.43148834,0.0,1.0,0.0,0.0,0.0,0.0,0.0,-0.32991636,0.13563308,-0.13245177,0.40364265,-8.231199,-2.1401286,0.03554821,0.07772446,-0.8999646,3.8003325
-5.8272414,39.077625,7.5420923,8.271984,0.75053227,0.116454124,0.27602673,-0.7610438,-0.5145489,-0.54356796,0.78422385,-0.48927504,0.54904103,0.3715634,0.53405833,-1.1187621,-2.2018614,-0.86417013,1.8921901,1.902512,-0.91208494,0.5965785,-1.075999,-2.1573036,-0.9285152,1.9340252,1.8519138,-0.948432,-1.3579308,-0.88754946,-0.98099613,1.4072183,-0.7091141,0.42842913,0.090135135,-0.33338928,-0.53237534,0.6784815,-1.3269945,0.32783252,-0.40812048,-0.3200531,-0.5686722,0.64212704,0.9535463,-0.0009997688,0.20378454,0.2218565,-1.3436847,0.39734688,-0.48006034,0.0,1.0,0.0,0.0,0.0,0.0,0.0,-0.3166107,0.13237533,-0.1284815,0.19333363,-7.375002,-0.4624009,-0.19361973,0.020217896,-0.894928,3.6918356
-5.4227986,39.65962,7.638367,7.9579206,0.74990344,0.1372633,0.28049892,-0.75978345,-0.5558841,-0.5543686,0.77579224,-0.47398403,0.5270567,0.40399086,0.52060014,-1.1315874,-2.2127404,-0.850936,1.8866267,1.9046195,-0.90803295,0.58301044,-1.0854023,-2.1671636,-0.9145046,1.9270056,1.8561362,-0.9472669,-1.3565445,-0.95821816,-0.986581,1.3994101,-0.7003907,0.41974616,0.12526698,-0.34657288,-0.5290489,0.6739759,-1.3143266,0.33484623,-0.4617345,-0.3335495,-0.56464386,0.63697207,0.9554161,0.003384153,0.20744826,0.21008025,-1.3466874,0.41519937,-0.52849674,0.0,1.0,0.0,0.0,0.0,0.0,0.0,-0.3034271,0.12904891,-0.12397587,0.10428429,-7.185197,-0.23759604,-0.6366253,0.5699396,-1.0465205,3.5003946
-4.5939937,40.99917,8.199823,7.957995,0.8010175,0.17533863,0.27711362,-0.75758296,-0.5985893,-0.5409248,0.77841175,-0.46376795,0.5048448,0.44877848,0.50725216,-1.1452612,-2.221256,-0.8366634,1.8806288,1.9066207,-0.90238905,0.5694586,-1.095515,-2.1769855,-0.9005531,1.9200974,1.8602629,-0.94575566,-1.3548119,-1.029373,-0.979415,1.3942128,-0.6886527,0.4097263,0.15974957,-0.35962677,-0.52565,0.668943,-1.3007123,0.34180707,-0.5140096,-0.3470688,-0.5604286,0.63135624,0.9571264,0.008097793,0.21071397,0.1986027,-1.348082,0.43456796,-0.5739216,0.0,1.0,0.0,0.0,0.0,0.0,0.0,-0.2903732,0.12565002,-0.118942976,0.13234615,-7.236719,1.064086,-0.3736496,0.84438324,-1.1917233,3.4478486
1.5979705,44.72508,10.484391,6.7057056,0.71950334,0.20074666,0.32676178,-0.7390155,-0.6325785,-0.5059178,0.7685593,-0.44168994,0.4952411,0.4981229,0.49555704,-1.1587728,-2.2275772,-0.8236972,1.8759284,1.9097869,-0.89594334,0.55600506,-1.1063106,-2.186552,-0.8866856,1.913358,1.8642927,-0.94389904,-1.3424448,-1.0968398,-0.9476383,1.3845855,-0.670202,0.4001887,0.19426921,-0.37249756,-0.5221901,0.663443,-1.2819203,0.34795007,-0.55975676,-0.36051178,-0.55602646,0.62534016,0.95868665,0.013015058,0.21352515,0.18750352,-1.3386011,0.45249447,-0.6124586,0.0,1.0,0.0,0.0,0.0,0.0,0.0,-0.27750242,0.12219009,-0.11344302,1.1532545,-6.864214,3.6083698,-0.87394714,1.4403939,-1.1437953,3.4438252
3.493678,45.697445,10.891524,5.9400873,0.6340505,0.1981281,0.351003,-0.7374797,-0.6665022,-0.49507633,0.7501588,-0.4396564,0.4431208,0.52446866,0.4822571,-1.1729609,-2.2360597,-0.8116697,1.8693923,1.9086049,-0.8914522,0.54267746,-1.1177547,-2.1957598,-0.872985,1.9067855,1.868198,-0.9417137,-1.329788,-1.1606534,-0.9102863,1.365389,-0.654126,0.386727,0.22662662,-0.38516998,-0.5186691,0.657478,-1.2611792,0.35362887,-0.6049443,-0.3738327,-0.55145645,0.6189422,0.9601088,0.018096881,0.21585454,0.17683439,-1.3241946,0.46910903,-0.6506193,0.0,1.0,0.0,0.0,0.0,0.0,0.0,-0.26483,0.11866912,-0.10747796,1.1718988,-6.4965963,4.1849256,-1.8454313,1.174295,-1.5380383,3.227839
2.9380667,55.24164,12.933675,8.371988,0.6658721,0.31252915,0.31509352,-0.73724025,-0.6628295,-0.48175475,0.7537118,-0.48270705,0.42625424,0.54017794,0.46895343,-1.1840377,-2.2439353,-0.7976138,1.8585148,1.9108235,-0.8876959,0.52945095,-1.1296413,-2.2045941,-0.85943985,1.9002116,1.8719702,-0.93923056,-1.3206002,-1.1985211,-0.8731485,1.3509398,-0.6600465,0.3734388,0.25537416,-0.397583,-0.5150871,0.65118074,-1.233419,0.3596204,-0.63513,-0.38695526,-0.5466919,0.61227494,0.9613784,0.02333125,0.2178589,0.16656706,-1.3029292,0.48971316,-0.6740433,0.0,1.0,0.0,0.0,0.0,0.0,0.0,-0.25241697,0.11508712,-0.10118073,0.80201626,-3.9256334,4.2508245,-1.4020443,-1.1193633,-1.5146315,2.8225064
2.297871,53.827534,11.842977,7.859043,0.5786949,0.24937153,0.31994137,-0.7305303,-0.69251233,-0.5003128,0.7319645,-0.45905536,0.37794858,0.5689365,0.45639792,-1.1988925,-2.2546253,-0.7862434,1.854306,1.909765,-0.8823369,0.5163158,-1.141875,-2.2132413,-0.8460968,1.8936143,1.8755835,-0.9364735,-1.3115432,-1.232202,-0.8604834,1.3288844,-0.6610551,0.35669178,0.2823531,-0.409729,-0.5114517,0.644539,-1.2067052,0.3649379,-0.6703791,-0.3998642,-0.5417404,0.6053343,0.96249735,0.028802231,0.21959454,0.15667632,-1.2820516,0.5077615,-0.70278585,0.0,1.0,0.0,0.0,0.0,0.0,0.0,-0.24027097,0.111451715,-0.09453899,0.7994652,-3.5030842,1.7600894,-2.1528244,-0.5957484,-1.8663347,2.6429653
1.9622273,52.554665,11.020254,7.2504053,0.6811563,0.17101145,0.3008321,-0.72476697,-0.7087433,-0.5188127,0.70062894,-0.34557843,0.29548055,0.5812813,0.44383913,-1.2127494,-2.2651227,-0.77603394,1.8590565,1.9051316,-0.8783454,0.50327134,-1.1544062,-2.2219496,-0.83307993,1.8873454,1.878978,-0.9334694,-1.3023856,-1.2604809,-0.87274086,1.292723,-0.6167302,0.333169,0.3063573,-0.42163086,-0.50777435,0.63750803,-1.183176,0.36853367,-0.7106896,-0.41261292,-0.53660965,0.5980807,0.963508,0.03456437,0.22092962,0.14713115,-1.2652084,0.5244195,-0.73481786,0.0,1.0,0.0,0.0,0.0,0.0,0.0,-0.22836912,0.10777435,-0.08750802,0.8160591,-2.9576302,-0.77683926,-3.5626411,3.9715528,-2.5765538,2.3633182
16.416565,60.827236,16.517746,4.863897,0.9617373,0.20457941,0.32942104,-0.6820289,-0.7158297,-0.4083065,0.65999603,-0.1379761,0.2819842,0.58210844,0.43506846,-1.2259891,-2.2627802,-0.7670803,1.8735478,1.9071765,-0.87525856,0.49049065,-1.1671624,-2.2303033,-0.82057136,1.8821502,1.8821473,-0.93025106,-1.2705836,-1.2808939,-0.8211669,1.2365997,-0.48909408,0.31083834,0.32691658,-0.43322754,-0.5040779,0.6302025,-1.1501117,0.37039444,-0.73415613,-0.42508698,-0.53134537,0.59066796,0.9645037,0.04021627,0.22149329,0.13804312,-1.2341634,0.53675425,-0.7454042,0.0,1.0,0.0,0.0,0.0,0.0,0.0,-0.21677244,0.104077905,-0.08020246,2.9883862,-2.1548748,5.7950854,-5.712962,12.142444,-2.4813473,2.0304322
14.992231,56.43179,14.927944,2.9993873,1.1912453,0.10220182,0.32615685,-0.7012951,-0.7252055,-0.4353636,0.55463666,0.09403305,0.063767485,0.5632517,0.42036113,-1.2396829,-2.2738397,-0.7651077,1.8915535,1.888524,-0.8739259,0.47791496,-1.1800866,-2.2382565,-0.80903083,1.8788546,1.8849504,-0.92686677,-1.2537658,-1.2965342,-0.7851515,1.1262357,-0.27805528,0.26931524,0.3423483,-0.44454193,-0.5003662,0.6225838,-1.1242554,0.3706789,-0.76839685,-0.43730927,-0.5259628,0.5830903,0.9656037,0.045615297,0.22084676,0.12944283,-1.211881,0.5489247,-0.76374096,0.0,1.0,0.0,0.0,0.0,0.0,0.0,-0.20545805,0.100366205,-0.072583795,1.5176535,-1.65658,4.1252255,-11.125493,20.560026,-4.406911,1.5708685
26.326515,61.244175,18.329897,0.22608876,1.1758125,0.033044457,0.38793075,-0.6659044,-0.72040147,-0.35678783,0.4700664,0.27606258,-0.11950581,0.54911107,0.4113245,-1.2521268,-2.2739353,-0.76202416,1.9064609,1.8729998,-0.87195563,0.4656022,-1.1930852,-2.2455761,-0.79886174,1.8779949,1.887227,-0.9233597,-1.2244711,-1.3010573,-0.71223813,0.9797322,-0.023734769,0.21319759,0.35353348,-0.4555359,-0.49666977,0.61470103,-1.0901701,0.36893862,-0.79175425,-0.44921112,-0.52051926,0.5754088,0.9668932,0.05056449,0.2186696,0.121426344,-1.1760849,0.5527728,-0.7713376,0.0,1.0,0.0,0.0,0.0,0.0,0.0,-0.19446409,0.09666976,-0.06470102,2.7207851,-0.51956177,7.877505,-14.843548,24.840208,-5.8272004,1.1369884
12.776627,57.904774,14.148831,3.4327517,1.187368,-0.041303456,0.2883014,-0.6983893,-0.7212281,-0.4203455,0.42439404,0.29566252,-0.37042642,0.53653586,0.39576325,-1.265208,-2.2876108,-0.75642234,1.9075612,1.8501844,-0.8697061,0.45338032,-1.2060895,-2.2525752,-0.7901107,1.8793367,1.8887919,-0.91977,-1.2218106,-1.3003142,-0.69451743,0.84001076,0.18558347,0.1368625,0.36093584,-0.4662552,-0.4929886,0.60650957,-1.0642433,0.3675867,-0.8252227,-0.46086884,-0.5149956,0.56756705,0.96836036,0.05530362,0.21507628,0.11384958,-1.1559912,0.5613116,-0.7901963,0.0,1.0,0.0,0.0,0.0,0.0,0.0,-0.18374479,0.09298858,-0.056509554,0.14586449,-0.0037908554,2.1769881,-14.027739,20.494343,-7.841629,0.77985525
10.716298,74.34704,17.77811,10.2731,1.5004859,0.11064041,0.11162743,-0.67135406,-0.6965482,-0.33786145,0.47557732,0.26231104,-0.43582037,0.56259316,0.3862449,-1.2757443,-2.2863612,-0.742553,1.9055678,1.8452098,-0.86351067,0.44124275,-1.2189507,-2.259178,-0.7821598,1.8821682,1.8896037,-0.9161024,-1.2114999,-1.2817805,-0.6472326,0.77988213,0.31421378,0.062084064,0.36865422,-0.47663116,-0.48932266,0.5982177,-1.0270557,0.3661995,-0.82811075,-0.47229767,-0.509346,0.55977875,0.96992546,0.059843913,0.21052851,0.10649427,-1.1328665,0.574386,-0.7769036,0.0,1.0,0.0,0.0,0.0,0.0,0.0,-0.17336881,0.08932266,-0.048217714,0.89752674,1.7548084,5.2465916,-6.0893297,12.387919,-7.661283,0.74473023
12.177523,83.20173,20.664125,12.323885,1.7290974,0.32154232,0.0869266,-0.6787445,-0.6851256,-0.21526398,0.4029204,0.33543563,-0.47683334,0.5746004,0.3733683,-1.2874633,-2.2807043,-0.7418678,1.9157118,1.8419204,-0.85864234,0.42914966,-1.2315717,-2.2648194,-0.7747811,1.8860469,1.8897148,-0.9123575,-1.2090445,-1.2558736,-0.53459257,0.7235311,0.41085353,-0.00630721,0.376262,-0.4865799,-0.4856758,0.5900362,-0.9832256,0.3638245,-0.8128861,-0.4834671,-0.50354004,0.5522665,0.97155935,0.06394408,0.20522584,0.09932665,-1.10421,0.59149384,-0.7444408,0.0,1.0,0.0,0.0,0.0,0.0,0.0,-0.16342008,0.085675806,-0.0400362,0.10199547,2.4973154,11.835504,-5.745423,9.160203,-6.9908834,0.7093966
14.887018,96.449425,24.950785,15.355776,2.083895,0.57358235,0.040715635,-0.6828835,-0.6546772,-0.06253964,0.37341648,0.36386594,-0.50453705,0.5820261,0.3608613,-1.2970394,-2.2710733,-0.73743945,1.9224335,1.8392612,-0.8541549,0.41703987,-1.2438283,-2.268729,-0.7678974,1.8906716,1.8892058,-0.90854084,-1.212134,-1.2159142,-0.3407257,0.67616636,0.47793758,-0.066070035,0.3832813,-0.49601746,-0.48207092,0.5822148,-0.9301927,0.35963544,-0.77060086,-0.49427795,-0.49752045,0.54529357,0.9732613,0.06724294,0.19927263,0.09236419,-1.0684155,0.61300796,-0.6833404,0.0,1.0,0.0,0.0,0.0,0.0,0.0,-0.15398252,0.08207092,-0.03221476,-0.46002865,3.9079428,20.008743,-4.8888683,6.1835527,-6.070918,0.61643124
32.270275,106.179214,31.449846,13.452874,2.2260246,0.6790199,0.09122006,-0.64039505,-0.6497038,0.1927625,0.3483782,0.4404225,-0.50889814,0.5915507,0.35300037,-1.3087987,-2.2494528,-0.7330596,1.9347138,1.838316,-0.8493858,0.405086,-1.2557244,-2.2697585,-0.76145905,1.8959882,1.8881774,-0.9046531,-1.1903303,-1.1811229,-0.021273417,0.6323476,0.547853,-0.115065366,0.39017367,-0.5048218,-0.47854996,0.57503057,-0.8638358,0.34953088,-0.69939977,-0.5046005,-0.49136734,0.5391375,0.9750791,0.06912984,0.19258003,0.085759,-1.014666,0.6240945,-0.59487486,0.0,1.0,0.0,0.0,0.0,0.0,0.0,-0.1451782,0.07854995,-0.025030553,2.0116806,3.4068346,32.636707,-4.6029687,6.458354,-4.903485,0.5720556
23.973265,91.18051,24.917452,11.093699,1.7282469,0.43221384,0.15118495,-0.65793556,-0.6372245,0.11174533,0.26921353,0.5083485,-0.5906131,0.6001188,0.33929247,-1.3194469,-2.258584,-0.7345377,1.9468231,1.8291161,-0.8446412,0.39327666,-1.2673097,-2.2684348,-0.75569046,1.9020497,1.8866593,-0.9006965,-1.178112,-1.1512289,0.18497503,0.5581266,0.6244089,-0.16400011,0.39727378,-0.51306915,-0.47512817,0.5683459,-0.8117036,0.33955973,-0.65863514,-0.51447296,-0.4851265,0.5335834,0.9769953,0.06984608,0.18513839,0.079532854,-0.97356415,0.63129437,-0.5442829,0.0,1.0,0.0,0.0,0.0,0.0,0.0,-0.13693082,0.07512817,-0.018345892,1.1416435,2.918005,21.029028,-7.4893,7.3437333,-4.876998,0.661695
29.482979,99.33349,26.498884,11.648528,1.3348322,0.33281797,0.18253243,-0.60843885,-0.5655964,0.17303577,0.25923786,0.5307702,-0.5747378,0.59921026,0.33243278,-1.3238693,-2.2511313,-0.72976667,1.9551266,1.8291855,-0.8407755,0.38178107,-1.2783551,-2.2655246,-0.7505931,1.9088095,1.8847252,-0.8966776,-1.1402786,-1.0891739,0.3274483,0.4933615,0.6923621,-0.2031108,0.40322492,-0.5207367,-0.47184753,0.56218433,-0.7533211,0.32446003,-0.6030783,-0.52384186,-0.4788971,0.5285911,0.9789351,0.06967031,0.17720586,0.07368995,-0.921669,0.62715095,-0.4862642,0.0,1.0,0.0,0.0,0.0,0.0,0.0,-0.12926328,0.07184753,-0.012184322,3.7139177,6.1353683,14.5823,-6.528455,6.587994,-3.8227348,0.5264878
20.108347,106.39206,26.138573,17.50506,1.7020898,0.38988754,0.0035113655,-0.6051435,-0.5293303,0.25252086,0.3123846,0.5401921,-0.54484403,0.61578435,0.3212667,-1.3312881,-2.2402725,-0.7193547,1.9628288,1.8302408,-0.83509916,0.3706441,-1.2886915,-2.2614434,-0.7457154,1.9161218,1.8824711,-0.89259446,-1.1049067,-1.0153035,0.43592477,0.48596632,0.743759,-0.23257233,0.40985918,-0.5278473,-0.46870804,0.55667114,-0.69774234,0.31076613,-0.53644866,-0.5328064,-0.47263718,0.52427113,0.9808413,0.068704,0.1691141,0.068047136,-0.88298774,0.6315997,-0.41592535,0.0,1.0,0.0,0.0,0.0,0.0,0.0,-0.122152686,0.06870803,-0.0066711307,3.5202026,7.3195457,11.081034,-0.7139325,5.056393,-2.860713,0.6238699
24.248224,107.88747,27.002104,16.117903,1.481678,0.39724857,0.08249615,-0.58142364,-0.48961252,0.3551841,0.24480195,0.5742836,-0.53542525,0.6185872,0.31250173,-1.3376528,-2.225925,-0.72123516,1.9735502,1.8289286,-0.83073574,0.35989004,-1.2982435,-2.2562175,-0.74105114,1.9239049,1.8799733,-0.8884487,-1.0656047,-0.9355258,0.5525481,0.4600065,0.7895623,-0.2550317,0.41595536,-0.5343857,-0.46572113,0.55187094,-0.64074,0.29476017,-0.46374142,-0.5413208,-0.4663658,0.5206644,0.98269445,0.0669369,0.16096275,0.06262537,-0.83787274,0.6306787,-0.344384,0.0,1.0,0.0,0.0,0.0,0.0,0.0,-0.115614295,0.065721124,-0.0018709302,3.9216042,7.9073787,11.872739,-2.5530279,4.528153,-2.1250486,0.57294965
