Afshin1997/kuka_rl_ros2/src/catch_and_throw/input_files/idealpd/polynomial_regressor/optimizer_files/env_97_data.csv
torque0,torque1,torque2,torque3,torque4,torque5,torque6,action0,action1,action2,action3,action4,action5,action6,set_target_0,set_target_1,set_target_2,set_target_3,set_target_4,set_target_5,set_target_6,joint_pos_0,joint_pos_1,joint_pos_2,joint_pos_3,joint_pos_4,joint_pos_5,joint_pos_6,joint_vel_0,joint_vel_1,joint_vel_2,joint_vel_3,joint_vel_4,joint_vel_5,joint_vel_6,tennisball_pos_0,tennisball_pos_1,tennisball_pos_2,tennisball_lin_vel_0,tennisball_lin_vel_1,tennisball_lin_vel_2,end_effector_pos_0,end_effector_pos_1,end_effector_pos_2,end_effector_rot_0,end_effector_rot_1,end_effector_rot_2,end_effector_rot_3,end_effector_lin_vel_0,end_effector_lin_vel_1,end_effector_lin_vel_2,obs_task_0,obs_task_1,obs_task_2,obs_task_3,obs_task_4,obs_task_5,obs_task_6,to_final_target_0,to_final_target_1,to_final_target_2,joint_acc_0,joint_acc_1,joint_acc_2,joint_acc_3,joint_acc_4,joint_acc_5,joint_acc_6
0.0,0.0,0.0,0.0,0.0,0.0,0.0,0.0,0.0,0.0,0.0,0.0,0.0,0.0,1.7802359,-1.0646509,-1.8151424,-1.1170107,1.9373155,1.1170107,-0.91629785,1.7802359,-1.0646509,-1.8151424,-1.1170107,1.9373155,1.1170107,-0.91629785,0.0,0.0,0.0,0.0,0.0,0.0,0.0,2.7714844,-0.45533752,0.4169828,-2.8533707,-0.018525228,5.1663227,0.5304184,-0.45449448,0.693097,0.5745483,0.17512383,0.15255436,0.7848268,0.0,0.0,0.0,1.0,0.0,0.0,0.0,0.0,0.0,0.0,-3.4214845,0.05533752,0.13301721,0.0,0.0,0.0,0.0,0.0,0.0,0.0
0.0,0.0,0.0,0.0,0.0,0.0,0.0,0.0,0.0,0.0,0.0,0.0,0.0,0.0,1.7802359,-1.0646509,-1.8151424,-1.1170107,1.9373155,1.1170107,-0.91629785,1.7802359,-1.0646509,-1.8151424,-1.1170107,1.9373155,1.1170107,-0.91629785,0.0,0.0,0.0,0.0,0.0,0.0,0.0,2.7714844,-0.45533752,0.4169828,-2.8533707,-0.018525228,5.1663227,0.5304184,-0.45449448,0.693097,0.5745483,0.17512383,0.15255436,0.7848268,0.0,0.0,0.0,1.0,0.0,0.0,0.0,0.0,0.0,0.0,-3.4214845,0.05533752,0.13301721,0.0,0.0,0.0,0.0,0.0,0.0,0.0
0.0,0.0,0.0,0.0,0.0,0.0,0.0,0.0,0.0,0.0,0.0,0.0,0.0,0.0,1.7802359,-1.0646509,-1.8151424,-1.1170107,1.9373155,1.1170107,-0.91629785,1.7802359,-1.0646509,-1.8151424,-1.1170107,1.9373155,1.1170107,-0.91629785,0.0,0.0,0.0,0.0,0.0,0.0,0.0,2.7714844,-0.45533752,0.4169828,-2.8533707,-0.018525228,5.1663227,0.5304184,-0.45449448,0.693097,0.5745483,0.17512383,0.15255436,0.7848268,0.0,0.0,0.0,1.0,0.0,0.0,0.0,0.0,0.0,0.0,-3.4214845,0.05533752,0.13301721,0.0,0.0,0.0,0.0,0.0,0.0,0.0
-176.0,81.670715,-0.52386284,110.0,11.148766,5.328862,-3.7779982,-0.82185185,0.4097051,-0.5228313,0.7307119,0.40800387,0.6441684,-0.5939541,1.6980507,-1.0236803,-1.8674256,-1.0439395,1.9781158,1.1814276,-0.9756933,1.7785097,-1.061788,-1.8210304,-1.112969,1.9438691,1.1221167,-0.91877264,-0.2301093,0.38109794,-0.7841156,0.5389794,0.87280494,0.67850405,-0.32951215,2.7429733,-0.45552254,0.46787083,-2.850518,-0.018506706,5.062971,0.5281563,-0.4576559,0.6940588,0.57853127,0.17382745,0.15079692,0.7825253,-0.3014539,-0.42155543,0.12803994,1.0,0.0,0.0,0.0,0.0,0.0,0.0,-3.3929734,0.05552253,0.08212918,-22.975788,37.882034,-78.13533,53.93773,86.95591,67.1677,-32.81072
-176.0,18.177608,-25.26951,110.0,11.809235,3.1598792,-3.2333457,-0.80606693,0.09269492,-0.5447551,0.6994661,0.50889635,0.6314257,-0.5992671,1.697903,-1.0525185,-1.8755059,-1.0430224,1.9947587,1.1852592,-0.9786993,1.7755648,-1.0568975,-1.8353546,-1.1014773,1.95715,1.1344248,-0.9220218,-0.3142246,0.52282995,-1.6485426,1.354567,1.4784871,1.407873,-0.3206438,2.7144928,-0.45570755,0.5177261,-2.8476682,-0.018488202,4.959723,0.52305603,-0.46553993,0.69565916,0.5872581,0.17073326,0.1467203,0.7774646,-0.58002377,-0.90939885,0.17130049,1.0,0.0,0.0,0.0,0.0,0.0,0.0,-3.364493,0.055707544,0.03227389,-7.9024196,13.567871,-86.48801,82.17964,60.18376,70.83011,1.70663
-155.76295,109.94484,28.209303,94.24434,8.036957,7.3640065,-2.0461733,-0.7766401,0.3826359,-0.08715757,0.63246614,0.5089494,0.67568016,-0.5648171,1.6979008,-1.018634,-1.8440703,-1.0382307,2.008045,1.2019929,-0.9785035,1.7692286,-1.0506796,-1.8506038,-1.0860106,1.9720178,1.1483523,-0.9254121,-0.74041176,0.6513546,-1.4770331,1.611578,1.4849668,1.379656,-0.34700224,2.6860352,-0.45589256,0.56654966,-2.8448212,-0.018469717,4.8565784,0.5150299,-0.47623825,0.69897366,0.5990384,0.16614527,0.1415492,0.77039766,-0.88516307,-1.1170098,0.38911185,1.0,0.0,0.0,0.0,0.0,0.0,0.0,-3.3360353,0.055892557,-0.016549647,-42.735897,11.815464,19.125175,26.023174,-0.69196224,-5.225253,-3.193593
-94.55561,120.170296,43.256393,60.84423,4.5332246,7.6201143,-0.7157594,-0.78368926,0.34816426,-0.008932044,0.62736464,0.5218994,0.64298314,-0.5820995,1.6908597,-1.0158632,-1.851497,-1.0232741,2.0242076,1.2126505,-0.9836221,1.7589022,-1.0438589,-1.8615406,-1.069966,1.9855771,1.1612631,-0.92901033,-1.1313475,0.68978083,-0.9582117,1.6024729,1.3085563,1.2564894,-0.3669748,2.657608,-0.45607758,0.6143426,-2.8419771,-0.018451251,4.7535367,0.5044899,-0.4876833,0.70435554,0.6120461,0.16010962,0.13581331,0.7624428,-1.1226149,-1.1427145,0.5934615,1.0,0.0,0.0,0.0,0.0,0.0,0.0,-3.3076081,0.05607757,-0.06434256,-39.511013,3.0462027,54.17224,-0.80463886,-18.951988,-13.8023615,-2.857703
-33.800278,137.24178,55.6379,33.365494,1.398781,7.1577926,0.12752071,-0.7996492,0.4587434,0.062102493,0.61253196,0.5541286,0.6314106,-0.57767344,1.6789373,-0.9979845,-1.8553303,-1.0087128,2.0409899,1.2244042,-0.98677766,1.7454764,-1.0364717,-1.8667228,-1.0551382,1.9971509,1.1728026,-0.93279356,-1.4147531,0.75297314,-0.36466208,1.4423231,1.1037767,1.117247,-0.385282,2.6292114,-0.4562626,0.6611058,-2.839136,-0.018432803,4.650598,0.4922142,-0.4983616,0.7116949,0.6249919,0.15262403,0.12980373,0.7544812,-1.2744633,-1.0291419,0.78444827,1.0,0.0,0.0,0.0,0.0,0.0,0.0,-3.2792115,0.056262583,-0.1111058,-28.877567,5.733061,61.44424,-16.17403,-21.472813,-14.633107,-2.7780414
3.6358538,123.90803,49.670723,14.453597,-0.54153544,5.04973,0.35830587,-0.81075287,0.51337224,0.009001604,0.61210656,0.5704131,0.6189203,-0.5902956,1.664401,-0.9851345,-1.8658227,-0.9939276,2.0541923,1.2346946,-0.99182314,1.7302176,-1.0283445,-1.8673866,-1.0420691,2.0070243,1.1830736,-0.936737,-1.5643296,0.8313765,0.03778944,1.2609884,0.94669366,0.9963143,-0.3997782,2.6008415,-0.4564476,0.70684046,-2.8362975,-0.018414374,4.5477624,0.4790535,-0.5076246,0.72043836,0.63732225,0.14411399,0.12394897,0.74678516,-1.341006,-0.87670195,0.9055571,1.0,0.0,0.0,0.0,0.0,0.0,0.0,-3.2508416,0.056447595,-0.15684044,-15.384078,7.4689984,41.641598,-18.361855,-16.250563,-12.2678995,-2.1798372
22.100704,113.01744,43.187973,6.3239,-1.3852656,3.4347572,0.29570988,-0.8226983,0.5785923,0.017916333,0.61673725,0.57731456,0.62493104,-0.5724283,1.6479478,-0.97048527,-1.865595,-0.9803954,2.0647557,1.2455667,-0.9939798,1.7142264,-1.0192713,-1.8655174,-1.0304705,2.015779,1.1922938,-0.94078535,-1.6118699,0.93189645,0.23959255,1.1252013,0.8507157,0.89729923,-0.40831277,2.5724983,-0.4566307,0.7515475,-2.833462,-0.018395964,4.4450293,0.46561432,-0.5153856,0.730072,0.64896935,0.13502228,0.11860678,0.7392835,-1.3543597,-0.7265885,0.98198026,1.0,0.0,0.0,0.0,0.0,0.0,0.0,-3.2224984,0.0566307,-0.2015475,-5.0788403,9.797859,21.098364,-13.801122,-9.867883,-9.86389,-1.4199793
28.165844,99.63714,35.67237,3.31181,-1.5776255,2.1682935,0.15270664,-0.82277423,0.6239201,0.016144061,0.6082989,0.5852042,0.6299483,-0.56896794,1.631949,-0.95687926,-1.8639029,-0.9696406,2.0742993,1.2552886,-0.99768215,1.6982447,-1.0091699,-1.8628414,-1.0198103,2.0239615,1.2006651,-0.9448938,-1.5944927,1.0356878,0.27888373,1.045784,0.80708975,0.81733567,-0.41304684,2.5441856,-0.4568138,0.795228,-2.830629,-0.018377572,4.3423986,0.45225525,-0.52181625,0.74020445,0.6600591,0.12570079,0.11397683,0.7317994,-1.3377687,-0.59944683,1.0221467,1.0,0.0,0.0,0.0,0.0,0.0,0.0,-3.1941857,0.056813806,-0.24522799,1.4938593,10.209095,4.522586,-8.154941,-4.4772744,-7.8793645,-0.91338754
27.029755,91.523056,31.440125,4.2081327,-1.280545,1.6336467,0.073849775,-0.82512593,0.6602338,0.057078533,0.59942454,0.60062927,0.6242685,-0.5597736,1.6157321,-0.9431466,-1.8571335,-0.95986784,2.0840244,1.2630919,-1.0008712,1.6826197,-0.9981054,-1.8602531,-1.0095984,2.0319953,1.2083403,-0.949027,-1.5524336,1.1294587,0.25367036,1.0124489,0.8015757,0.75119233,-0.4147217,2.5159035,-0.45699692,0.83788294,-2.8277988,-0.0183592,4.239871,0.4390831,-0.527153,0.75064546,0.6707271,0.11632032,0.11001669,0.72421753,-1.315055,-0.49553505,1.0494138,1.0,0.0,0.0,0.0,0.0,0.0,0.0,-3.1659036,0.05699691,-0.28788292,4.013777,9.246755,-2.071619,-3.5307646,-0.6072402,-6.530106,-0.5364239
25.298923,86.13357,29.30154,5.0635304,-0.9567097,1.4607055,0.093381904,-0.81796557,0.68812203,0.098299764,0.57850146,0.6191268,0.6357727,-0.5572166,1.6008232,-0.9292932,-1.8504231,-0.95174825,2.093908,1.2719176,-1.0047487,1.6674467,-0.98624265,-1.8579376,-0.99956965,2.0401473,1.215449,-0.95316786,-1.5059923,1.2048588,0.22562265,0.99892133,0.81963706,0.6976684,-0.4150375,2.4876442,-0.45718002,0.8795134,-2.8249714,-0.018340845,4.1374454,0.42611694,-0.53155327,0.7613236,0.6810244,0.10691486,0.10654215,0.716536,-1.2940301,-0.40542942,1.0718257,1.0,0.0,0.0,0.0,0.0,0.0,0.0,-3.1376443,0.057180017,-0.32951337,4.476166,7.4281454,-2.3917346,-1.5458226,1.7632842,-5.309832,-0.37161112
21.317024,80.79902,27.17659,6.319584,-0.6241219,1.3959723,0.11442076,-0.81455135,0.7100278,0.11540125,0.5631555,0.6318431,0.6400809,-0.55047035,1.5859916,-0.9152399,-1.8463974,-0.9432541,2.1033316,1.2794571,-1.008215,1.6526629,-0.97377527,-1.8557994,-0.9896314,2.048551,1.222098,-0.957303,-1.4697865,1.2603637,0.21123241,0.9915212,0.8470453,0.65399605,-0.41415483,2.4594154,-0.45736313,0.92012036,-2.822147,-0.018322507,4.035123,0.41331863,-0.53514194,0.77218884,0.6909642,0.097480096,0.103363544,0.70878917,-1.279307,-0.32728532,1.0892549,1.0,0.0,0.0,0.0,0.0,0.0,0.0,-3.1094155,0.057363123,-0.37012035,3.464198,5.4514647,-1.0368496,-0.92988014,2.7060747,-4.3572903,-0.23160577
17.680058,74.25556,24.381613,6.7026377,-0.4390847,1.2395911,0.12340065,-0.80757123,0.7260458,0.104272164,0.54655504,0.6389764,0.6432933,-0.53958607,1.5719057,-0.9011707,-1.8453722,-0.9349759,2.1124487,1.2864274,-1.0112616,1.6381556,-0.96088636,-1.8537872,-0.9797971,2.0572257,1.2283732,-0.96142095,-1.4449909,1.2981037,0.19925165,0.9800586,0.874163,0.61863256,-0.41192672,2.4312172,-0.45754623,0.9597049,-2.8193252,-0.018304188,3.9329028,0.40063095,-0.53802586,0.78315103,0.70055753,0.08804312,0.10037876,0.70099336,-1.2678049,-0.25920042,1.0962029,1.0,0.0,0.0,0.0,0.0,0.0,0.0,-3.0812173,0.05754623,-0.40970486,2.3281813,3.6913157,-0.81443787,-1.3460398,2.6929975,-3.5206914,-0.07969737
13.470009,68.25705,21.619324,7.4312687,-0.27266338,1.0939227,0.09848638,-0.8058532,0.7378531,0.08925388,0.53700113,0.64548624,0.65080124,-0.54262,1.5575702,-0.88710105,-1.8448617,-0.92609704,2.1217744,1.2934533,-1.0156829,1.6238009,-0.9477228,-1.8519199,-0.9700992,2.0661407,1.2343489,-0.96551794,-1.4327081,1.3222157,0.18382785,0.9657069,0.89702785,0.59053844,-0.40988892,2.4030457,-0.45772934,0.998268,-2.8165064,-0.018285887,3.830785,0.38802338,-0.5403042,0.794111,0.709835,0.07864252,0.097547464,0.6931335,-1.2600927,-0.20119537,1.0935032,1.0,0.0,0.0,0.0,0.0,0.0,0.0,-3.0530457,0.057729334,-0.448268,1.0801554,2.3441076,-1.1856169,-1.6433954,2.2865415,-2.7855039,-0.07712841
11.994932,64.46477,20.029526,7.0658007,-0.25749815,0.99059826,0.12254076,-0.8067694,0.7460652,0.0920541,0.50927657,0.64940417,0.6550757,-0.5334482,1.543124,-0.87311625,-1.8427144,-0.9191716,2.131081,1.2998564,-1.0188627,1.609492,-0.9343895,-1.8501594,-0.9606483,2.0752387,1.2400862,-0.9695892,-1.4307418,1.336818,0.17458421,0.93753624,0.9139488,0.56835896,-0.4071137,2.3749008,-0.45791245,1.0358107,-2.8136904,-0.018267605,3.7287693,0.3754921,-0.5420227,0.8049892,0.7187918,0.06930801,0.09485613,0.6852277,-1.2521788,-0.14616695,1.0833468,1.0,0.0,0.0,0.0,0.0,0.0,0.0,-3.024901,0.05791244,-0.4858107,0.042176247,1.404357,-0.56557953,-3.0382276,1.6991019,-2.168858,0.004541874
12.6316185,62.76146,19.539244,6.524269,-0.26865852,0.92571884,0.16591972,-0.8017942,0.7495299,0.10420086,0.49031484,0.66018283,0.6538938,-0.52432054,1.5293125,-0.8594365,-1.8397393,-0.9116168,2.141257,1.3054756,-1.0220212,1.5951868,-0.92096555,-1.848397,-0.9515321,2.0844855,1.2456347,-0.973628,-1.4310133,1.344049,0.17808457,0.90225005,0.9284693,0.5504617,-0.40374184,2.3467865,-0.45809555,1.0723339,-2.8108773,-0.018249342,3.6268556,0.36305618,-0.54319286,0.8157463,0.72739804,0.06003938,0.09227182,0.677328,-1.2419786,-0.091406666,1.070418,1.0,0.0,0.0,0.0,0.0,0.0,0.0,-2.9967866,0.058095545,-0.5223339,-0.18224716,0.67498684,0.71642697,-3.7536263,1.4604926,-1.7200947,0.064110756
13.758621,60.599728,18.610163,5.484872,-0.38211033,0.7736064,0.18514977,-0.7979687,0.7543397,0.091300495,0.46177906,0.6623269,0.66550666,-0.5209378,1.5153899,-0.8455316,-1.839267,-0.9053542,2.1507182,1.3121853,-1.0257218,1.5808836,-0.9074911,-1.8466327,-0.9428375,2.0938506,1.2510401,-0.9776334,-1.4304788,1.3484566,0.17712264,0.8577011,0.93881726,0.5374362,-0.40034014,2.318699,-0.45827866,1.1078389,-2.808067,-0.018231096,3.5250437,0.35075378,-0.5438156,0.82633156,0.73563516,0.050856583,0.08980468,0.6694697,-1.2262026,-0.03709453,1.0516953,1.0,0.0,0.0,0.0,0.0,0.0,0.0,-2.968699,0.05827865,-0.55783886,-0.099897385,0.4039049,0.25627315,-4.687321,1.0528564,-1.1959195,0.074929
14.00279,57.65229,17.304693,4.6246634,-0.45559186,0.5919768,0.19612543,-0.8008733,0.7539498,0.08086907,0.4260489,0.6672618,0.6647147,-0.51751345,1.5007963,-0.8320961,-1.8385458,-0.9002326,2.1605768,1.3175116,-1.0293847,1.5665709,-0.89399755,-1.8449275,-0.93466926,2.1032996,1.2563349,-0.9816045,-1.431872,1.3495854,0.16934131,0.8024573,0.9471094,0.5273611,-0.39693743,2.290638,-0.4584608,1.1423265,-2.8052597,-0.018212868,3.4233336,0.3386383,-0.5439167,0.836679,0.74349594,0.041806296,0.08749095,0.6616731,-1.2056162,0.014260513,1.0260901,1.0,0.0,0.0,0.0,0.0,0.0,0.0,-2.940638,0.0584608,-0.59232646,-0.2906084,0.089645386,-0.4492104,-5.764878,0.8606553,-0.8625865,0.089240074
18.74497,60.15871,18.683167,2.1766047,-0.7365973,0.5762528,0.32238787,-0.80561626,0.7624816,0.124001086,0.34808478,0.6747467,0.6617977,-0.5213065,1.4860092,-0.8177494,-1.8325274,-0.8998608,2.1707742,1.3225147,-1.0337352,1.5522219,-0.8804649,-1.8430965,-0.92730784,2.1128287,1.2615458,-0.9855489,-1.4364479,1.3543133,0.1889198,0.713226,0.9549239,0.51950526,-0.394501,2.2626076,-0.458642,1.1757977,-2.8024552,-0.018194659,3.3217251,0.3268013,-0.543417,0.8467697,0.7508937,0.032901306,0.0853287,0.65406054,-1.1747276,0.07622397,1.0001743,1.0,0.0,0.0,0.0,0.0,0.0,0.0,-2.9126077,0.058642,-0.6257977,-0.6240368,0.45323372,2.3333669,-9.16512,0.79666376,-0.59028864,-0.016194582
24.510298,62.269524,19.896957,-0.62127304,-1.0673207,0.48194802,0.44521838,-0.7988511,0.769435,0.15053801,0.27541798,0.67470306,0.6616647,-0.50003964,1.4723368,-0.8035214,-1.8280427,-0.899766,2.180299,1.3277123,-1.0355529,1.5378615,-0.8668579,-1.8409297,-0.92104125,2.1224189,1.2666918,-0.9894571,-1.4364353,1.362829,0.22720443,0.5970855,0.96040285,0.51383436,-0.3904496,2.234604,-0.4588232,1.2082536,-2.7996533,-0.018176468,3.2202184,0.31537628,-0.54222584,0.8565916,0.75771844,0.024151819,0.08332496,0.6467892,-1.130109,0.1473481,0.97285795,1.0,0.0,0.0,0.0,0.0,0.0,0.0,-2.884604,0.058823198,-0.6582536,-0.16264915,0.84302425,4.209155,-11.848175,0.5661726,-0.3073573,0.14699697
25.65079,62.673557,20.009361,-0.83383656,-1.112607,0.39478007,0.4631868,-0.7979772,0.77475905,0.16572177,0.22891086,0.6785759,0.65982664,-0.49027526,1.4580637,-0.789382,-1.8243575,-0.89815015,2.1902764,1.3326745,-1.0384846,1.5235163,-0.8531498,-1.8383453,-0.915941,2.1320586,1.2717882,-0.99331945,-1.4344308,1.3734412,0.27008665,0.48034534,0.965459,0.5093748,-0.38563678,2.206627,-0.4590044,1.2396953,-2.796854,-0.018158296,3.118813,0.3044243,-0.54032516,0.86614895,0.7639446,0.015555338,0.0814845,0.63992715,-1.0811404,0.21743971,0.9464221,1.0,0.0,0.0,0.0,0.0,0.0,0.0,-2.856627,0.059004396,-0.6896953,0.05414486,1.066494,4.6204,-11.88572,0.5510688,-0.1647234,0.24549365
26.159842,62.117622,19.91895,-0.70758057,-1.068239,0.30865467,0.47973436,-0.7947253,0.77423817,0.20084582,0.17569408,0.68615395,0.65156585,-0.4854061,1.4440438,-0.77572596,-1.8182607,-0.8983716,2.200674,1.3369448,-1.0418601,1.5092093,-0.8393568,-1.8352573,-0.91196895,2.1417594,1.2768427,-0.9971332,-1.4297597,1.3812724,0.32259566,0.3689082,0.9721513,0.50514376,-0.3807018,2.1786804,-0.4591856,1.2701235,-2.7940576,-0.01814014,3.017509,0.2939644,-0.53774166,0.8754529,0.76957697,0.007099613,0.07977039,0.6335121,-1.0302182,0.28419912,0.92116445,1.0,0.0,0.0,0.0,0.0,0.0,0.0,-2.8286805,0.059185594,-0.72012347,0.34401417,0.8032322,5.525589,-11.331421,0.74613094,-0.1276493,0.27871132
27.880178,60.698288,19.535181,-2.1309862,-1.1859334,0.14776978,0.5372245,-0.7957935,0.77694416,0.2372184,0.084754355,0.6892696,0.64887756,-0.47071126,1.4296299,-0.76166236,-1.8115355,-0.9034935,2.2106864,1.3417305,-1.0442044,1.4949423,-0.82549894,-1.8315856,-0.90923,2.1515288,1.281859,-1.0008903,-1.4261172,1.3874105,0.38275322,0.24163859,0.9789276,0.5017855,-0.37475163,2.1507607,-0.4593668,1.2995396,-2.791264,-0.018122004,2.9163065,0.28406906,-0.53449154,0.88447315,0.7745888,-0.0011824219,0.0781695,0.6276147,-0.9722216,0.34998223,0.8914185,1.0,0.0,0.0,0.0,0.0,0.0,0.0,-2.8007607,0.059366792,-0.74953955,0.25832653,0.6492615,6.2444153,-12.896887,0.7773638,0.0039219856,0.4057169
33.182755,58.647366,19.210815,-6.398797,-1.5821655,-0.14134514,0.680223,-0.7931589,0.7785523,0.28313917,-0.05015682,0.69119835,0.64738667,-0.45239606,1.4156264,-0.7476437,-1.8032718,-0.91424567,2.2206488,1.3465977,-1.0461298,1.4807154,-0.8115934,-1.8272312,-0.90809894,2.1613593,1.2868506,-1.0045791,-1.4219207,1.3917634,0.45354617,0.069746815,0.9849165,0.49981976,-0.36741552,2.1228676,-0.459548,1.3279443,-2.7884734,-0.018103886,2.815205,0.27487564,-0.5305481,0.89311135,0.77888757,-0.009186229,0.07671348,0.62238634,-0.89635,0.41898683,0.85005826,1.0,0.0,0.0,0.0,0.0,0.0,0.0,-2.7728677,0.05954799,-0.77794427,0.3377676,0.48878193,7.2642803,-17.338676,0.7139802,0.2379775,0.5754292
34.739666,57.378773,18.916973,-7.693532,-1.687928,-0.3071279,0.7364321,-0.79132444,0.7799501,0.32974058,-0.14089322,0.693471,0.6506771,-0.42039177,1.401583,-0.7335984,-1.7942572,-0.9221883,2.2307065,1.3519182,-1.0466182,1.4665304,-0.7976545,-1.822108,-0.9087875,2.1712432,1.2918307,-1.0081744,-1.417634,1.3948928,0.53221333,-0.11533061,0.9902791,0.4990805,-0.35737947,2.095005,-0.4597292,1.3553388,-2.7856855,-0.018085785,2.7142048,0.26648712,-0.52592564,0.9013104,0.7824225,-0.016848598,0.07541473,0.61793494,-0.8135608,0.48576084,0.80508786,1.0,0.0,0.0,0.0,0.0,0.0,0.0,-2.7450051,0.05972919,-0.8053388,0.38104057,0.38366318,7.969922,-18.621407,0.6905198,0.3959775,0.8843124
32.404827,58.040913,19.005379,-5.4512296,-1.4828386,-0.2975475,0.69001365,-0.78797287,0.7860955,0.37289053,-0.19136244,0.69795805,0.6458604,-0.3702278,1.3877331,-0.719045,-1.784819,-0.92792374,2.241039,1.3564167,-1.0451972,1.4523951,-0.78366697,-1.81618,-0.9111383,2.181188,1.2968012,-1.0116382,-1.4123422,1.4003704,0.6128966,-0.27529123,0.9963338,0.49796838,-0.34302068,2.0671692,-0.4599104,1.381724,-2.7829006,-0.018067703,2.6133056,0.25888062,-0.520668,0.90911573,0.78523463,-0.024204444,0.07425132,0.6142535,-0.7367259,0.5470125,0.7672049,1.0,0.0,0.0,0.0,0.0,0.0,0.0,-2.7171693,0.059910387,-0.831724,0.5125046,0.6360769,8.0668335,-16.07223,0.8208871,0.33370852,1.3531208
28.818722,58.872,19.218483,-1.9028988,-1.1539465,-0.20685734,0.6067694,-0.7801502,0.7872126,0.42362458,-0.22419389,0.6937566,0.64293045,-0.31965053,1.3743801,-0.7049457,-1.7738175,-0.9335577,2.2505639,1.3610942,-1.0436032,1.4383379,-0.769627,-1.8094146,-0.9147632,2.1911712,1.3017584,-1.0149302,-1.4033834,1.4055519,0.69739074,-0.39183903,0.99986887,0.4963178,-0.3248025,2.03936,-0.4600916,1.407101,-2.7801182,-0.018049639,2.512507,0.2519455,-0.51483536,0.9166275,0.78740597,-0.03135641,0.073177956,0.6112721,-0.6712508,0.60225725,0.7403302,1.0,0.0,0.0,0.0,0.0,0.0,0.0,-2.6893601,0.060091585,-0.857101,0.9034872,0.62384605,8.349144,-11.707127,0.6350517,0.23834705,1.7597377
22.709904,57.89565,18.508934,2.7633085,-0.7060316,-0.109983236,0.46654722,-0.7780514,0.78762597,0.45548254,-0.23390138,0.6891165,0.64317876,-0.25935742,1.3605328,-0.6908644,-1.7638664,-0.9381533,2.2600827,1.3660762,-1.040866,1.4243685,-0.755545,-1.8018711,-0.91916347,2.2011657,1.3066984,-1.0180087,-1.394832,1.4094367,0.77294344,-0.4563021,1.0003238,0.49425665,-0.30237314,2.0115814,-0.4602728,1.4314709,-2.7773385,-0.018031593,2.4118092,0.24554062,-0.5085163,0.92394847,0.7890588,-0.038416974,0.07215515,0.60885453,-0.6225007,0.6476293,0.7235842,1.0,0.0,0.0,0.0,0.0,0.0,0.0,-2.6615815,0.060272783,-0.88147086,0.86421967,0.5088091,7.38765,-6.501955,0.3761053,0.13985038,2.191782
15.570063,56.34992,17.482445,7.9178524,-0.21092546,0.01019223,0.29829884,-0.77971756,0.78918964,0.48075032,-0.21952005,0.6865188,0.64299303,-0.2140945,1.3463967,-0.6766261,-1.753796,-0.9411155,2.2698176,1.3709978,-1.0394181,1.4104563,-0.74143064,-1.7936733,-0.9238069,2.2111487,1.3116156,-1.0208468,-1.3902497,1.412573,0.83466274,-0.46738625,0.9989744,0.49169946,-0.2778697,1.9838295,-0.46045208,1.4548343,-2.7745616,-0.018013565,2.311212,0.23949051,-0.5018215,0.9311792,0.7903419,-0.045497626,0.07115215,0.60681695,-0.59313196,0.6825153,0.7168326,1.0,0.0,0.0,0.0,0.0,0.0,0.0,-2.6338296,0.060452074,-0.90483433,0.44813156,0.44484138,5.9729695,-1.18469,0.22621155,0.023579597,2.4008334
7.80641,51.907375,15.286233,12.500883,0.26313514,0.048292607,0.114918634,-0.7870826,0.7849295,0.48601535,-0.19083725,0.677307,0.6510426,-0.1766414,1.331748,-0.6629377,-1.7450718,-0.94289064,2.2788794,1.3767198,-1.038511,1.3965307,-0.7273153,-1.7850387,-0.9282253,2.221086,1.3165098,-1.0234351,-1.3936938,1.411623,0.8725147,-0.43381718,0.9936265,0.48952758,-0.25270283,1.9561043,-0.46063137,1.4771926,-2.7717876,-0.017995555,2.2107155,0.23357773,-0.4948759,0.9383759,0.7914206,-0.052667715,0.07016587,0.6049432,-0.5822723,0.7038542,0.7143479,1.0,0.0,0.0,0.0,0.0,0.0,0.0,-2.6061044,0.060631365,-0.9271926,-0.38981438,0.040650368,3.594613,3.2394707,-0.17280579,-0.003707409,2.4623454
4.4585757,47.75844,13.465796,13.774279,0.4202776,-0.047269873,0.028299913,-0.7917659,0.78318274,0.48875618,-0.18734816,0.67935324,0.6510176,-0.16365063,1.3173542,-0.648997,-1.7361631,-0.9469601,2.2890213,1.3816116,-1.0398002,1.3825308,-0.7132267,-1.776181,-0.93222976,2.2309813,1.321385,-1.0257869,-1.4022783,1.4084156,0.88946676,-0.38978708,0.9891694,0.4874111,-0.22961819,1.9284096,-0.46081066,1.4985467,-2.7690165,-0.017977564,2.1103196,0.2277298,-0.48777962,0.9455269,0.7923974,-0.059918616,0.06921426,0.6030965,-0.5769867,0.716915,0.70898885,1.0,0.0,0.0,0.0,0.0,0.0,0.0,-2.5784097,0.060810655,-0.9485467,-0.92492104,-0.18825531,1.5332222,4.2625666,-0.10868311,-0.024044514,2.2542744
4.288213,45.26775,12.573039,13.463788,0.40188408,-0.16649067,0.019941043,-0.78927153,0.78080213,0.49389973,-0.17475732,0.67536825,0.64823794,-0.11002103,1.3036036,-0.63514644,-1.726791,-0.9497055,2.2985182,1.3862088,-1.036789,1.3684603,-0.6991819,-1.767245,-0.9357946,2.240827,1.3262392,-1.0278964,-1.4088436,1.4036453,0.8945216,-0.34582147,0.98418933,0.48530477,-0.20468654,1.9007378,-0.46098995,1.5188977,-2.7662482,-0.01795959,2.0100238,0.22195053,-0.48057747,0.95260036,0.7933022,-0.06721433,0.068327606,0.60123646,-0.57010376,0.72674984,0.7003855,1.0,0.0,0.0,0.0,0.0,0.0,0.0,-2.5507379,0.060989946,-0.96889764,-0.7236242,-0.34868717,0.3609419,4.25064,-0.18246174,-0.025981665,2.4378867
3.71729,42.537647,11.597735,13.193769,0.40873832,-0.27147347,0.00826228,-0.79683656,0.7754938,0.4946921,-0.15885662,0.67530495,0.6492263,-0.09196751,1.2887766,-0.6216325,-1.7177758,-0.95168024,2.3083575,1.3911619,-1.0370932,1.3543078,-0.68520296,-1.758311,-0.9389541,2.2506309,1.3310724,-1.0297656,-1.4176027,1.3964353,0.89250714,-0.3064766,0.9801515,0.48351023,-0.18127479,1.8730965,-0.46116924,1.5382464,-2.7634823,-0.017941633,1.9098282,0.21624374,-0.47329998,0.9595611,0.7941461,-0.07451481,0.06752031,0.5993501,-0.562609,0.7330398,0.6881612,1.0,0.0,0.0,0.0,0.0,0.0,0.0,-2.5230966,0.061169237,-0.9882464,-0.9498596,-0.59826374,-0.3216505,3.7814915,-0.10937452,-2.9802322e-05,2.2851646
8.216235,42.683083,11.872443,9.465119,0.0057626963,-0.47951365,0.11323001,-0.7983779,0.78046966,0.49941927,-0.19977996,0.6776012,0.6475383,-0.07555419,1.27447,-0.607156,-1.7083691,-0.9589321,2.318391,1.3958263,-1.037321,1.340079,-0.67126215,-1.7493942,-0.9420259,2.2604117,1.3358923,-1.0314136,-1.4246875,1.3937753,0.89099485,-0.3078195,0.9780574,0.48225513,-0.15950881,1.8454819,-0.46134853,1.5565939,-2.7607193,-0.017923696,1.8097327,0.21072006,-0.4659233,0.9663334,0.79487073,-0.08172615,0.06684473,0.59752244,-0.53905207,0.7444291,0.66717446,1.0,0.0,0.0,0.0,0.0,0.0,0.0,-2.495482,0.061348528,-1.006594,-0.7656574,-0.15268326,-0.24323463,-0.2594471,0.048148632,0.09543896,2.1315157
10.666066,42.226128,11.936164,7.514017,-0.19374603,-0.61855936,0.18806297,-0.7977309,0.77771485,0.5026387,-0.20647864,0.67170286,0.6468363,0.0061128577,1.2603059,-0.59349066,-1.6991303,-0.9626738,2.3275821,1.400576,-1.0308022,1.3258063,-0.65734327,-1.7404773,-0.9452474,2.2701583,1.3407027,-1.0328078,-1.4283429,1.3916665,0.8916259,-0.3273842,0.9746187,0.48143432,-0.13291706,1.817894,-0.46152782,1.5739412,-2.7579591,-0.017905775,1.7097373,0.205513,-0.45841694,0.97286373,0.7954109,-0.08877843,0.06634485,0.5958508,-0.506681,0.75738055,0.641896,1.0,0.0,0.0,0.0,0.0,0.0,0.0,-2.467894,0.06152782,-1.0239413,-0.40733814,-0.10049343,-0.02272129,-2.0665705,-0.10274649,0.15962124,2.6184707
9.576252,41.93814,11.884538,8.650067,-0.100850224,-0.59999424,0.17717643,-0.8025145,0.77725947,0.501914,-0.18308914,0.6668558,0.6557957,0.09739312,1.2455548,-0.5796173,-1.6902859,-0.96355635,2.336844,1.4062822,-1.0230685,1.3114935,-0.6434368,-1.7315547,-0.94857955,2.2798629,1.3455111,-1.0338912,-1.4323854,1.3906456,0.8923555,-0.3354272,0.9700094,0.48153043,-0.10032761,1.7903366,-0.46170712,1.5902894,-2.7552018,-0.017887874,1.609842,0.20059204,-0.4507866,0.9791668,0.7957591,-0.09568701,0.06602443,0.5943502,-0.477997,0.76933837,0.6200769,1.0,0.0,0.0,0.0,0.0,0.0,0.0,-2.4403367,0.06170711,-1.0402894,-0.4528761,0.012135506,-0.017988682,-0.917083,-0.20750761,0.23425221,3.2180815
9.028356,39.677948,11.155282,8.56732,-0.054720163,-0.68163264,0.19108513,-0.8073675,0.7711846,0.5003549,-0.19477198,0.66809285,0.65618485,0.18057697,1.2307568,-0.56631833,-1.6815193,-0.96805674,2.346672,1.4111296,-1.0158335,1.2971274,-0.6295637,-1.7226303,-0.95200706,2.2895331,1.3503233,-1.0346141,-1.4379512,1.3865894,0.89218116,-0.34558445,0.96677667,0.48176315,-0.0629938,1.7628059,-0.4618864,1.6056392,-2.7524474,-0.017869988,1.5100465,0.19595718,-0.44305992,0.9852385,0.7959134,-0.10244558,0.065873966,0.59303236,-0.4495139,0.7777553,0.59639275,1.0,0.0,0.0,0.0,0.0,0.0,0.0,-2.412806,0.0618864,-1.0556393,-0.6078243,-0.29189587,-0.10154247,-1.1338711,-0.07818937,0.24396181,3.6932259
7.9086027,41.118633,11.916624,10.897056,0.11542487,-0.55863774,0.16217181,-0.80109495,0.77317,0.51047003,-0.15420412,0.6606367,0.6601318,0.26390862,1.2170179,-0.5522467,-1.6715833,-0.9674275,2.3555968,1.4163365,-1.0082232,1.2827479,-0.61571825,-1.7136619,-0.95531726,2.2991576,1.3551394,-1.0349326,-1.4382204,1.3842899,0.897874,-0.32651687,0.96206677,0.4821639,-0.021765364,1.735302,-0.4620657,1.6199919,-2.7496953,-0.017852122,1.4103507,0.1915474,-0.43523216,0.9911445,0.7958818,-0.10913616,0.06586143,0.5918814,-0.4285133,0.7880594,0.5822244,1.0,0.0,0.0,0.0,0.0,0.0,0.0,-2.385302,0.06206569,-1.0699918,-0.0808239,-0.10795593,0.45951605,1.7883778,-0.19328594,0.23500323,4.0772433
5.887059,39.776775,11.455538,12.811272,0.3048581,-0.5251188,0.09833719,-0.80136496,0.7700333,0.50096816,-0.124047235,0.6600301,0.66187274,0.29843122,1.2026113,-0.5387149,-1.663565,-0.967722,2.3651607,1.4213266,-1.0050895,1.268376,-0.6019014,-1.7046821,-0.9582708,2.308744,1.3599592,-1.0348525,-1.4369096,1.3812312,0.8975294,-0.2853962,0.9581771,0.48243544,0.017798092,1.7078285,-0.462245,1.6333483,-2.746946,-0.017834274,1.3107545,0.18729782,-0.42732048,0.996943,0.79570836,-0.115830906,0.06595338,0.59083116,-0.4147767,0.79551053,0.572564,1.0,0.0,0.0,0.0,0.0,0.0,0.0,-2.3578286,0.06224498,-1.0833483,0.0651598,-0.1805067,-0.1476407,3.9804459,-0.10148287,0.19706488,3.9064176
6.8355927,38.484394,11.225201,11.715076,0.2361365,-0.61509085,0.1365057,-0.8030517,0.76416445,0.5134347,-0.13896057,0.6618101,0.6603265,0.33050272,1.1880708,-0.525485,-1.6533387,-0.97216684,2.374925,1.4259919,-1.0018022,1.2540137,-0.5881361,-1.6956584,-0.9609134,2.3183036,1.364781,-1.0343947,-1.4361101,1.375414,0.9035899,-0.2576109,0.95610833,0.482578,0.054891173,1.680378,-0.46242237,1.6457096,-2.7441998,-0.017816443,1.211258,0.1832161,-0.41933632,1.0026197,0.7953832,-0.122515246,0.06613584,0.5898996,-0.39712545,0.8026372,0.5595784,1.0,0.0,0.0,0.0,0.0,0.0,0.0,-2.330378,0.062422365,-1.0957096,0.021600723,-0.4621029,0.50758123,2.656132,0.06302595,0.19224286,3.659521
7.5062513,35.970814,10.368095,10.3283825,0.15268284,-0.7708828,0.15391779,-0.8011445,0.75771546,0.5072705,-0.14238496,0.65976024,0.65655106,0.35200465,1.1738992,-0.5123645,-1.6449314,-0.9751519,2.3842797,1.4304361,-0.99919426,1.2396666,-0.5744518,-1.6866062,-0.96338725,2.3278403,1.3696009,-1.0335917,-1.4342752,1.3665103,0.9055341,-0.24440737,0.95401883,0.48239812,0.08855409,1.6529579,-0.46259975,1.6570767,-2.7414563,-0.01779863,1.111861,0.17934036,-0.41130447,1.0081252,0.7948964,-0.12912531,0.06641885,0.5891136,-0.3743722,0.806423,0.5410834,1.0,0.0,0.0,0.0,0.0,0.0,0.0,-2.302958,0.06259975,-1.1070766,0.13620853,-0.7764816,0.10955334,1.2022108,0.03377199,0.1708746,3.318794
8.228838,35.822525,10.477431,9.942539,0.10870427,-0.82533085,0.17028174,-0.7953403,0.7557644,0.51324385,-0.12978165,0.66064155,0.649998,0.38417897,1.1601325,-0.49887535,-1.6352818,-0.9763654,2.3939044,1.4346007,-0.9951739,1.2253634,-0.56085145,-1.6775177,-0.9657514,2.3373656,1.3744131,-1.0324683,-1.4290378,1.3581804,0.9096484,-0.23409937,0.9529644,0.48155642,0.12014522,1.6255646,-0.46277714,1.6674505,-2.7387152,-0.017780835,1.0125633,0.17570496,-0.40322876,1.0134461,0.79423684,-0.13563848,0.06679934,0.5884963,-0.34925774,0.81070817,0.5226516,1.0,0.0,0.0,0.0,0.0,0.0,0.0,-2.2755647,0.06277713,-1.1174505,0.4872322,-0.7199526,0.32368898,0.92352927,0.1306653,0.1064837,3.1138883
5.5694475,34.33625,9.872317,12.4361,0.3315271,-0.7608584,0.08171935,-0.79467475,0.75250196,0.4995321,-0.07814343,0.6549881,0.6537918,0.4155127,1.145896,-0.48560125,-1.6275644,-0.97356576,2.4028645,1.4397923,-0.990917,1.2111117,-0.54732835,-1.6684597,-0.96781516,2.3468719,1.3792177,-1.0310416,-1.4241573,1.3507005,0.90417147,-0.19761644,0.9504659,0.48081002,0.14998738,1.5981979,-0.46295452,1.6768321,-2.735977,-0.017763058,0.913365,0.17226791,-0.3951273,1.0186265,0.79345447,-0.14210874,0.06726677,0.5879713,-0.3336088,0.8123086,0.5100648,1.0,0.0,0.0,0.0,0.0,0.0,0.0,-2.248198,0.062954515,-1.126832,0.42757988,-0.629735,-0.63750744,3.5219193,0.0037789345,0.0846982,2.9367387
6.6913986,32.52128,9.174372,10.432526,0.17476135,-0.9337392,0.11324959,-0.7955415,0.7474244,0.4957642,-0.111976296,0.65793097,0.64832234,0.4199255,1.1315575,-0.47258592,-1.6188833,-0.9790128,2.412665,1.44405,-0.9890491,1.1968924,-0.5338825,-1.6594837,-0.9697015,2.356359,1.3840147,-1.029346,-1.4212554,1.3428988,0.89530873,-0.18599999,0.9491309,0.4797767,0.17582856,1.570858,-0.4631319,1.6852225,-2.7332416,-0.0177453,0.81426585,0.16903305,-0.38702393,1.0236285,0.7925597,-0.14848007,0.06784695,0.5875368,-0.31021923,0.8116712,0.4905941,1.0,0.0,0.0,0.0,0.0,0.0,0.0,-2.220858,0.0631319,-1.1352224,0.23965836,-0.6704092,-0.95250607,1.0471255,0.08651018,0.0713408,2.5424747
9.006826,32.831295,9.269137,7.803094,-0.10646689,-1.0990962,0.17807713,-0.79598063,0.74937296,0.49811065,-0.14696027,0.6557568,0.64768267,0.43418396,1.1172943,-0.4589452,-1.6096725,-0.98439753,2.4219346,1.448783,-0.9859276,1.1826884,-0.5204853,-1.6505744,-0.9717138,2.365831,1.3888022,-1.0274138,-1.4202558,1.3389369,0.88918465,-0.20648752,0.9471334,0.47900322,0.19892514,1.5435448,-0.4633093,1.6926225,-2.730509,-0.017727558,0.71526575,0.16612244,-0.37891483,1.0283853,0.79152024,-0.15465112,0.06859003,0.58725977,-0.27516338,0.8125141,0.4644766,1.0,0.0,0.0,0.0,0.0,0.0,0.0,-2.1935449,0.06330928,-1.1426225,0.066781044,-0.2945423,-0.6584525,-2.1357627,-0.012624264,0.11867881,2.2774458
9.753145,30.95142,8.697506,6.419529,-0.17767894,-1.23036,0.20987904,-0.7917551,0.7390034,0.4983158,-0.16099952,0.6525124,0.6511695,0.44744024,1.1035129,-0.44658494,-1.6007428,-0.9878137,2.4310822,1.4539192,-0.98266983,1.1685072,-0.5071567,-1.6417053,-0.9740417,2.375276,1.3935858,-1.0252681,-1.4175295,1.3311682,0.88602793,-0.2418563,0.94416934,0.4787863,0.2195878,1.516262,-0.46348667,1.6990334,-2.727779,-0.017709833,0.61636466,0.16360474,-0.37081814,1.0328475,0.7903151,-0.16055332,0.069510154,0.5871908,-0.23519361,0.81034255,0.43397364,1.0,0.0,0.0,0.0,0.0,0.0,0.0,-2.1662621,0.063486665,-1.1490333,0.2613306,-0.6780863,-0.36497116,-3.6138654,-0.12991428,0.18377304,2.0374715
9.084063,29.1884,8.161497,6.8061333,-0.090895,-1.274553,0.19927947,-0.78711146,0.73197013,0.49396622,-0.16051154,0.6524448,0.6426991,0.47734374,1.0897961,-0.43395972,-1.5923086,-0.9900929,2.4405205,1.4578557,-0.9775337,1.1543719,-0.49392596,-1.6328704,-0.97668815,2.3846946,1.3983599,-1.0229182,-1.4123691,1.3207306,0.88236445,-0.27254114,0.9416219,0.47778216,0.23990634,1.4890022,-0.46366405,1.704456,-2.7250516,-0.017692126,0.5175624,0.16147232,-0.3627615,1.0370111,0.7889491,-0.16617376,0.07058854,0.5873354,-0.19716445,0.8050556,0.40431905,1.0,0.0,0.0,0.0,0.0,0.0,0.0,-2.1390023,0.06366405,-1.1544559,0.51112175,-0.9423971,-0.42814016,-3.148359,-0.08670092,0.096833706,2.0039737
4.907262,27.339325,7.7341137,11.922816,0.3887359,-1.0479447,0.059840575,-0.7779857,0.72351855,0.48388097,-0.08456158,0.6420015,0.646736,0.4890759,1.0765733,-0.42157412,-1.5844823,-0.9851443,2.4488947,1.4630334,-0.97401065,1.1403223,-0.4808201,-1.62411,-0.9792049,2.3940635,1.4031264,-1.0203815,-1.4027568,1.3075641,0.87357557,-0.24515648,0.9362341,0.47672972,0.25825673,1.4617729,-0.46384144,1.7088913,-2.7223272,-0.017674439,0.418859,0.15956116,-0.3547659,1.0409842,0.7874949,-0.17166494,0.07175727,0.58756584,-0.17943974,0.798279,0.38891342,1.0,0.0,0.0,0.0,0.0,0.0,0.0,-2.111773,0.06384143,-1.1588912,0.9110689,-1.2001991,-0.963068,2.613625,-0.3119111,0.040602684,1.7951399
4.0906,23.256474,5.8770776,10.642925,0.35339248,-1.2351608,0.028363287,-0.7845357,0.7164933,0.45232004,-0.13387239,0.6420738,0.6502882,0.47341982,1.0618688,-0.40917075,-1.5788779,-0.99259216,2.4582708,1.4681551,-0.97303945,1.1263262,-0.46785346,-1.6155765,-0.98159575,2.4033866,1.4078852,-1.0176921,-1.398874,1.293341,0.8465783,-0.23748294,0.93123853,0.4761995,0.27223754,1.4345703,-0.46401882,1.7123402,-2.7196054,-0.017656768,0.3202543,0.1578598,-0.34689522,1.0447474,0.78601635,-0.17698853,0.07303205,0.58780926,-0.15819623,0.78375596,0.36620486,1.0,0.0,0.0,0.0,0.0,0.0,0.0,-2.0845704,0.064018816,-1.1623402,0.33466816,-1.3146639,-2.7524352,0.6385356,-0.31124353,0.09595156,1.3645351
3.119129,22.793549,5.736646,11.808707,0.4323424,-1.2044702,-0.009736106,-0.78305364,0.7138333,0.44457328,-0.112311505,0.636679,0.64528084,0.4809126,1.0480208,-0.39647013,-1.5711192,-0.9928269,2.4670546,1.4724133,-0.96960086,1.1123511,-0.4550089,-1.6073272,-0.9838426,2.4126525,1.4126345,-1.0148787,-1.3972976,1.2818379,0.81746477,-0.22093987,0.9255715,0.47510904,0.28434896,1.4073944,-0.46419525,1.7148039,-2.7168863,-0.017639114,0.22174816,0.15634155,-0.33916283,1.0483091,0.7845511,-0.18214463,0.07442895,0.5880163,-0.1407246,0.7696174,0.34701762,1.0,0.0,0.0,0.0,0.0,0.0,0.0,-2.0573945,0.064195246,-1.164804,0.08101463,-1.0414124,-2.952075,1.5187591,-0.36896467,0.02271533,1.1781216
4.253069,19.964863,4.3321853,8.345831,0.1991182,-1.4837948,0.034987465,-0.79052085,0.7059463,0.41575903,-0.17661275,0.6387549,0.6501566,0.47961223,1.033299,-0.38441426,-1.5657513,-1.001504,2.476528,1.4776502,-0.9669175,1.0983454,-0.44228068,-1.5994442,-0.9862573,2.4218764,1.41738,-1.0119605,-1.4019707,1.2701445,0.77855873,-0.24876246,0.9214303,0.4748347,0.29429778,1.3802452,-0.46437073,1.7162833,-2.71417,-0.017621478,0.12334052,0.15509033,-0.33162498,1.051586,0.78310734,-0.18699919,0.07599973,0.588216,-0.11088693,0.74863493,0.31563288,1.0,0.0,0.0,0.0,0.0,0.0,0.0,-2.0302453,0.06437072,-1.1662834,-0.51538944,-1.0737896,-3.9044142,-2.8948605,-0.2753377,0.12603402,0.97240806
6.7924914,20.10078,4.340779,4.9250474,-0.093456686,-1.7068486,0.1271538,-0.7861069,0.7003956,0.40795192,-0.23092659,0.63459015,0.63969344,0.48601615,1.0197347,-0.3722411,-1.558649,-1.00935,2.4853354,1.4813493,-0.9633589,1.0843092,-0.42966405,-1.591912,-0.9892404,2.4310546,1.4221159,-1.0089507,-1.4040109,1.2591733,0.74460137,-0.3151498,0.9167738,0.4738697,0.3032395,1.3531227,-0.4645462,1.7167794,-2.7114565,-0.017603861,0.02503126,0.15424728,-0.32430267,1.0544839,0.78164905,-0.19139892,0.07779334,0.5885059,-0.06693577,0.7261162,0.2757376,1.0,0.0,0.0,0.0,0.0,0.0,0.0,-2.0031228,0.0645462,-1.1667793,-0.19156933,-1.0094643,-3.4217358,-6.7094145,-0.3724575,0.078076124,0.8813977
9.3619175,19.957047,4.1496162,0.93883896,-0.42759514,-1.9654554,0.22467011,-0.78612554,0.69468844,0.39495346,-0.31377256,0.6258343,0.6402107,0.48768356,1.0056967,-0.3601952,-1.5524167,-1.0206177,2.493638,1.486137,-0.96018237,1.0702654,-0.41715327,-1.5846851,-0.9932296,2.440164,1.4268461,-1.0058608,-1.4042025,1.2486292,0.7150909,-0.4269323,0.90925777,0.47321346,0.31098518,1.3260307,-0.46472168,1.7162931,-2.7087455,-0.017586261,-0.073179714,0.15396118,-0.3172245,1.0569003,0.78012615,-0.19518344,0.07986242,0.5890065,-0.0070187715,0.7007192,0.22504541,1.0,0.0,0.0,0.0,0.0,0.0,0.0,-1.9760307,0.064721674,-1.1662931,0.07207394,-0.97436905,-3.001833,-11.198306,-0.7120848,0.12771487,0.7745683
8.27586,17.754646,3.1701977,1.1621075,-0.36415857,-2.0298297,0.18860748,-0.78568834,0.6889807,0.35856375,-0.34349653,0.61450136,0.6451693,0.50019795,0.9916966,-0.3482552,-1.5488287,-1.0275793,2.5016143,1.491363,-0.955841,1.0562292,-0.4047455,-1.5778339,-0.99832606,2.4491744,1.4315726,-1.0026946,-1.4028792,1.2384367,0.6749687,-0.537395,0.89839697,0.4729672,0.31867373,1.2989616,-0.46489716,1.7148254,-2.7060373,-0.017568678,-0.1712925,0.15427399,-0.31042957,1.0588049,0.7785612,-0.19829392,0.08223441,0.5897113,0.05143293,0.67062473,0.17383781,1.0,0.0,0.0,0.0,0.0,0.0,0.0,-1.9489616,0.06489715,-1.1648254,0.2402544,-0.9376526,-4.078102,-11.066496,-1.0563135,0.14461875,0.7697284
6.564473,14.441864,1.7555305,1.705504,-0.2152442,-2.0891285,0.13357921,-0.7849226,0.6811262,0.31912357,-0.3939398,0.6121158,0.65028256,0.49913996,0.97773695,-0.33663288,-1.5459216,-1.0377201,2.510386,1.4966009,-0.9527806,1.042214,-0.3924488,-1.57149,-1.0045007,2.4580817,1.436299,-0.99945974,-1.4006897,1.2270339,0.62081677,-0.6442514,0.88836354,0.47304076,0.3250693,1.2719231,-0.46507263,1.7123772,-2.703332,-0.017551113,-0.2693072,0.15513611,-0.3039837,1.0601935,0.77700996,-0.20070797,0.08490867,0.590561,0.10583048,0.6337556,0.12219107,1.0,0.0,0.0,0.0,0.0,0.0,0.0,-1.921923,0.065072626,-1.1623771,0.3383398,-1.059103,-5.487156,-10.714447,-0.9882331,0.14716983,0.6369591
6.805858,12.5408945,1.376355,0.69444036,-0.23906678,-2.1455147,0.18714997,-0.7784524,0.6602817,0.3246199,-0.47703254,0.57029164,0.6561352,0.5238123,0.9643688,-0.32642063,-1.539028,-1.052204,2.515111,1.5019125,-0.9470785,1.0282522,-0.38033667,-1.5655639,-1.0118421,2.4667869,1.4410311,-0.9961505,-1.3940613,1.2061912,0.5827103,-0.76406854,0.8642759,0.47366026,0.33280212,1.2449074,-0.4652481,1.7089497,-2.700629,-0.017533565,-0.3672239,0.15656662,-0.29791927,1.0610387,0.7754561,-0.20239691,0.08787702,0.5915918,0.16263941,0.59452987,0.06702808,1.0,0.0,0.0,0.0,0.0,0.0,0.0,-1.8949074,0.0652481,-1.1589496,0.84769726,-2.004552,-3.9368153,-11.989033,-2.4044871,0.19017458,0.7668555
4.878689,9.889723,0.61855793,2.4085398,0.031238496,-2.0696504,0.14646938,-0.7791925,0.6467607,0.3032176,-0.51714385,0.57362515,0.6659559,0.51458913,0.950333,-0.3156606,-1.5352422,-1.0635566,2.5241494,1.5076267,-0.9446916,1.0143458,-0.36846772,-1.5599868,-1.020286,2.4752822,1.4457747,-0.99277925,-1.3887762,1.1807779,0.5490054,-0.87140137,0.8444997,0.47492132,0.33852983,1.2179222,-0.46542358,1.7045438,-2.697929,-0.017516036,-0.46504268,0.15850449,-0.2922659,1.0613575,0.7739105,-0.2033895,0.09107776,0.59279,0.20995894,0.5521538,0.015254433,1.0,0.0,0.0,0.0,0.0,0.0,0.0,-1.8679222,0.06542358,-1.1545439,0.6980181,-2.4622917,-3.4943938,-10.759581,-1.9645452,0.21781921,0.55722594
5.101844,9.24044,0.9741851,2.3528728,0.10502732,-2.0260081,0.20744683,-0.7730044,0.6225892,0.32385483,-0.59259915,0.5540159,0.6621509,0.5190972,0.93704534,-0.3062088,-1.5276014,-1.0795459,2.5306838,1.5119897,-0.9408695,1.0005099,-0.3569173,-1.5545413,-1.0298513,2.48356,1.4505278,-0.9893546,-1.3811167,1.1467147,0.54232454,-0.98491156,0.82269067,0.4755791,0.3436504,1.1909637,-0.46559906,1.6991605,-2.6952317,-0.017498523,-0.56276375,0.16090012,-0.2870245,1.061157,0.77232873,-0.20370528,0.0944294,0.5942185,0.2557821,0.5106808,-0.036580153,1.0,0.0,0.0,0.0,0.0,0.0,0.0,-1.8409637,0.065599054,-1.1491604,0.9722948,-3.3272743,-0.84114075,-11.363018,-2.1532774,0.14089942,0.49721003
3.5747533,6.9067974,0.83665633,4.7686653,0.32583058,-1.8489547,0.19733335,-0.75780874,0.587638,0.33549756,-0.6136581,0.4788794,0.66353863,0.54243004,0.924729,-0.2981535,-1.5209916,-1.0912172,2.5314481,1.5168817,-0.9351116,0.9868066,-0.34580746,-1.5490196,-1.0403627,2.491445,1.4552866,-0.9858699,-1.3660116,1.0993265,0.5547986,-1.0732938,0.77715427,0.47601035,0.35001335,1.164032,-0.46577454,1.6928005,-2.6925368,-0.017481029,-0.6603871,0.16368484,-0.28217983,1.0604837,0.7706795,-0.20344497,0.097884916,0.5958874,0.29151723,0.47159043,-0.08231366,1.0,0.0,0.0,0.0,0.0,0.0,0.0,-1.814032,0.06577453,-1.1428006,1.7045498,-4.6589375,1.0411859,-8.880329,-4.4808865,0.09539127,0.6021142
0.3750211,-0.2646768,-1.2921358,7.1324525,0.75913924,-1.752869,0.14918835,-0.7376682,0.53308207,0.33166474,-0.6374105,0.42262378,0.65787137,0.55189514,0.91303974,-0.29249924,-1.515853,-1.1041038,2.5337074,1.5210738,-0.9306804,0.97333115,-0.3353447,-1.5433586,-1.051576,2.498754,1.4600416,-0.98232126,-1.340747,1.0288545,0.569272,-1.1377271,0.7153086,0.47547427,0.3562244,1.1371269,-0.46595,1.6854652,-2.6898448,-0.017463552,-0.7579129,0.16672134,-0.2777815,1.05938,0.7689737,-0.202699,0.10137431,0.5977589,0.3125129,0.42483455,-0.12440894,1.0,0.0,0.0,0.0,0.0,0.0,0.0,-1.7871269,0.065950006,-1.1354651,2.7240038,-6.98092,1.2208581,-6.531739,-6.101477,-0.030010939,0.55457354
-4.236511,-8.565852,-4.401767,10.250084,1.2714298,-1.665302,0.025850598,-0.7289214,0.48282656,0.30496404,-0.6467305,0.37250924,0.6491825,0.553192,0.900439,-0.28706205,-1.5128622,-1.1162491,2.536005,1.5249599,-0.9270021,0.9601123,-0.32570735,-1.5376937,-1.0632318,2.5053725,1.4647814,-0.9787183,-1.3151848,0.9421818,0.5649912,-1.175478,0.6442312,0.47356698,0.3613404,1.1102486,-0.46612453,1.6771553,-2.6871557,-0.017446091,-0.85534114,0.16983795,-0.2739315,1.0578889,0.7672939,-0.20153223,0.10484319,0.59971046,0.31527746,0.36746368,-0.16187552,1.0,0.0,0.0,0.0,0.0,0.0,0.0,-1.7602485,0.06612453,-1.1271553,2.700448,-8.622372,-0.5930543,-3.924179,-7.043588,-0.21111965,0.4085958
-5.868087,-10.967196,-5.490143,11.204464,1.3813275,-1.6423185,-0.026408909,-0.72030383,0.44512022,0.29368216,-0.68363804,0.3164408,0.6324651,0.5381879,0.8880819,-0.2811953,-1.5083256,-1.1315956,2.5370166,1.5280279,-0.92489946,0.947128,-0.31694403,-1.5321605,-1.0752558,2.511232,1.4694887,-0.9750829,-1.2924107,0.85447294,0.5491233,-1.2117912,0.5666421,0.4697377,0.3639596,1.0833969,-0.4662981,1.6678718,-2.684469,-0.01742865,-0.95267195,0.17295456,-0.2706747,1.0560263,0.76570606,-0.1999516,0.108302034,0.60165125,0.3134699,0.3076945,-0.19844528,1.0,0.0,0.0,0.0,0.0,0.0,0.0,-1.7333969,0.0662981,-1.1178718,2.4012804,-8.737909,-1.7171502,-3.7867785,-7.7162504,-0.43527484,0.14887452
-16.77093,-38.41024,-16.34822,13.401269,2.520089,-1.801963,-0.24200538,-0.6839145,0.28844237,0.20572886,-0.6777016,0.16141245,0.64428926,0.5549649,0.87873656,-0.2880998,-1.5115876,-1.1430259,2.527373,1.5339177,-0.91958636,0.93448037,-0.30957976,-1.5271976,-1.0875009,2.5159888,1.4741656,-0.9714198,-1.2548428,0.69694203,0.47821105,-1.2296338,0.44510776,0.46646178,0.36639622,1.056572,-0.46647167,1.6576158,-2.681785,-0.017411225,-1.0499054,0.17580414,-0.26836014,1.0537388,0.7643899,-0.19790323,0.11168788,0.6033806,0.27806392,0.20222418,-0.24254036,1.0,0.0,0.0,0.0,0.0,0.0,0.0,-1.7065719,0.066471666,-1.1076157,3.9830685,-15.799022,-7.2148323,-2.0126343,-12.237906,-0.46589375,0.02015233
-34.69021,-82.0044,-34.772064,15.444026,4.4413915,-2.2278721,-0.62828237,-0.6600791,0.084627055,0.01982612,-0.6886463,0.06572212,0.6190365,0.51823604,0.86847246,-0.30111706,-1.525215,-1.1563655,2.522561,1.5360692,-0.9195962,0.9222676,-0.30452338,-1.5237796,-1.0998815,2.5193877,1.4787852,-0.96777105,-1.208671,0.44124106,0.29615322,-1.2417631,0.30401924,0.45933977,0.36322603,1.0297737,-0.46664524,1.6463882,-2.6791039,-0.017393816,-1.1470417,0.17790985,-0.2677164,1.0508854,0.76372737,-0.19515519,0.11478176,0.60453296,0.18934493,0.015110431,-0.3024801,1.0,0.0,0.0,0.0,0.0,0.0,0.0,-1.6797737,0.066645235,-1.0963881,5.0348043,-25.75391,-18.285126,-1.4743567,-14.447397,-1.0299981,-0.6921172
-61.50375,-148.53009,-63.084908,16.816734,6.842559,-2.8645494,-1.1693097,-0.6236909,-0.25813156,-0.24724048,-0.70612836,-0.3393386,0.59209585,0.5032351,0.8598985,-0.33033654,-1.5485036,-1.1704943,2.4854538,1.5379947,-0.91744757,0.91062135,-0.30327454,-1.5232894,-1.1124014,2.5203757,1.4832999,-0.9641795,-1.1471274,0.018162603,-0.033783074,-1.2556136,0.028299449,0.44654247,0.35578227,1.0030022,-0.4668188,1.6341898,-2.6764252,-0.017376427,-1.2440809,0.17860413,-0.2698269,1.0471793,0.76429164,-0.19132575,0.11750899,0.60451984,0.029202906,-0.28860077,-0.3950863,1.0,0.0,0.0,0.0,0.0,0.0,0.0,-1.6530021,0.0668188,-1.0841899,7.012415,-42.703827,-33.164783,-1.5004635,-28.258589,-1.9417226,-1.3673425
-59.243286,-148.58452,-59.859745,17.80756,7.079482,-2.3378754,-0.816802,-0.5470528,-0.490121,-0.14010067,-0.71875954,-0.53044754,0.5936649,0.5161485,0.8559161,-0.35228664,-1.5372995,-1.1842773,2.467331,1.5426663,-0.91256464,0.89984196,-0.30673876,-1.5252025,-1.1250623,2.5183272,1.4876868,-0.96064425,-1.0515339,-0.46934748,-0.24528646,-1.2688332,-0.28437886,0.4334085,0.35109326,0.9762573,-0.46699238,1.6210219,-2.6737494,-0.017359054,-1.3410231,0.17761612,-0.27484226,1.0425647,0.76592505,-0.18648186,0.11960696,0.603554,-0.14383152,-0.5729742,-0.4847101,1.0,0.0,0.0,0.0,0.0,0.0,0.0,-1.6262573,0.06699237,-1.0710218,10.553503,-49.16854,-21.581861,-1.0588884,-31.810274,-2.1101117,-0.9821892
-39.27784,-105.338264,-37.416504,17.84283,5.7362804,-1.2484615,-0.06958336,-0.49329656,-0.64726985,0.081395164,-0.7376413,-0.57671213,0.62128764,0.51457006,0.8505123,-0.37146574,-1.517063,-1.1988264,2.460656,1.5498155,-0.90918726,0.89010876,-0.31481066,-1.5274284,-1.1378988,2.513536,1.4919802,-0.95713377,-0.94496185,-0.92083883,-0.21678865,-1.2870795,-0.544825,0.4258215,0.35046226,0.9495392,-0.46716595,1.6068852,-2.671076,-0.017341698,-1.4378684,0.17516327,-0.28196812,1.0372204,0.7678774,-0.1810821,0.12069604,0.6024997,-0.28355235,-0.75750536,-0.5523089,1.0,0.0,0.0,0.0,0.0,0.0,0.0,-1.5995392,0.06716594,-1.0568852,11.371744,-45.470177,2.3287983,-1.3715982,-26.263922,-1.4284253,-0.24751425
-2.0476317,-28.032831,-1.4240012,12.046599,2.4879596,-0.45313567,0.8862432,-0.25754797,-0.6972772,0.21566074,-0.75057304,-0.59404176,0.61108375,0.48500133,0.86435395,-0.38453838,-1.5058624,-1.2129561,2.4541318,1.5530885,-0.90863365,0.88227814,-0.3263835,-1.528096,-1.1509527,2.5067458,1.496226,-0.95362616,-0.72944015,-1.2364144,-0.017517125,-1.3106794,-0.7230502,0.42331412,0.35143697,0.92284775,-0.46733952,1.5917809,-2.6684055,-0.01732436,-1.5346168,0.17207718,-0.28987026,1.0314221,0.76914966,-0.17569675,0.12065412,0.6024798,-0.3208712,-0.7969428,-0.59120524,1.0,0.0,0.0,0.0,0.0,0.0,0.0,-1.5728477,0.06733951,-1.041781,21.46175,-31.658792,19.683474,-2.128458,-17.626059,-0.4919529,0.28723478
26.713123,30.160694,23.760342,6.056303,-0.19541556,-0.34880108,1.383489,0.029071214,-0.73782825,0.17344256,-0.7291042,-0.6058507,0.6205562,0.41241828,0.88518524,-0.40016633,-1.5107517,-1.2238631,2.4461608,1.5582815,-0.91238433,0.8776309,-0.34008446,-1.52686,-1.1641115,2.4987235,1.5004793,-0.9501529,-0.3795116,-1.4144739,0.17162973,-1.3179269,-0.8273212,0.42623577,0.34709165,0.896183,-0.46751308,1.5757098,-2.6657376,-0.01730704,-1.6312685,0.16930771,-0.29748535,1.0254014,0.7690776,-0.17072271,0.11962534,0.6042046,-0.26551738,-0.74409366,-0.6084561,1.0,0.0,0.0,0.0,0.0,0.0,0.0,-1.546183,0.06751308,-1.0257099,34.09264,-17.750072,19.206059,-0.81415176,-10.03772,0.3683865,-0.0761807
27.532747,39.939358,22.664322,5.0324116,-0.73331666,-0.941942,0.9438939,0.15561424,-0.75936997,-0.087708525,-0.70242286,-0.56668603,0.6319277,0.35211492,0.8931923,-0.41602147,-1.5356308,-1.2343538,2.442055,1.5636721,-0.9149414,0.87656754,-0.35474864,-1.5253456,-1.1771635,2.4901862,1.5047747,-0.94677496,-0.01890782,-1.4836341,0.14694817,-1.3014995,-0.86206466,0.43058795,0.3354119,0.869545,-0.46768665,1.5586729,-2.6630723,-0.017289735,-1.7278236,0.16723251,-0.3046589,1.0192118,0.76788324,-0.16607587,0.117981516,0.60733396,-0.18811992,-0.7023511,-0.62534225,1.0,0.0,0.0,0.0,0.0,0.0,0.0,-1.519545,0.06768665,-1.008673,34.980335,-6.8792343,-1.7804801,1.4922142,-3.290379,0.47596693,-0.9273529
19.577862,27.934967,11.195354,2.5627782,-0.34193075,-1.9175688,0.37904906,0.32019708,-0.78060955,-0.38234067,-0.716807,-0.45986605,0.613317,0.3088142,0.9085873,-0.4328096,-1.5635797,-1.2488441,2.4441996,1.5661064,-0.91589355,0.8790414,-0.36964932,-1.5259407,-1.1900896,2.4818702,1.5090872,-0.9435525,0.33216548,-1.4923552,-0.12488241,-1.2900736,-0.82178706,0.43098027,0.31815138,0.84293365,-0.46786022,1.5406711,-2.66041,-0.01727245,-1.8242822,0.16591263,-0.3118477,1.0126977,0.76618165,-0.16126564,0.11600559,0.6111479,-0.11261958,-0.7180804,-0.6632205,1.0,0.0,0.0,0.0,0.0,0.0,0.0,-1.4929336,0.067860216,-0.9906711,33.93193,-0.91347694,-26.1325,1.0240793,3.9945006,-0.11766553,-1.646632
17.784145,24.020376,6.7668915,-0.4347341,-0.2431567,-2.405562,0.22482795,0.4773768,-0.7933063,-0.48709416,-0.7527073,-0.3630442,0.6060651,0.32397723,0.92677903,-0.44897994,-1.57465,-1.2653604,2.4455657,1.5696937,-0.91115475,0.8848254,-0.3844451,-1.5298202,-1.2030977,2.4743514,1.5133902,-0.9404826,0.656855,-1.4755411,-0.4723268,-1.3046254,-0.7286972,0.4289654,0.30345118,0.816349,-0.46803284,1.5217055,-2.65775,-0.017255181,-1.9206443,0.16536713,-0.3193779,1.0056868,0.764296,-0.15587983,0.11376362,0.6153136,-0.03292084,-0.7590242,-0.7175931,1.0,0.0,0.0,0.0,0.0,0.0,0.0,-1.466349,0.06803283,-0.9717055,31.37685,1.6157627,-33.73467,-1.5534639,9.244263,-0.46802163,-1.4144659
14.235856,21.600407,4.882329,0.7200041,0.04857558,-2.3110435,0.11590473,0.5308979,-0.79298264,-0.54291064,-0.7735589,-0.268234,0.5879625,0.30571252,0.9379152,-0.46374336,-1.5841112,-1.2804536,2.447528,1.5721865,-0.9099114,0.89319867,-0.39900914,-1.5369022,-1.2163786,2.468,1.5176569,-0.9375558,0.8950573,-1.4503002,-0.7845098,-1.3359091,-0.6040291,0.4247692,0.2892966,0.7897911,-0.4682045,1.501777,-2.6550927,-0.01723793,-2.01691,0.16551208,-0.32734966,0.99811316,0.76236564,-0.14974456,0.11120996,0.6196834,0.03423592,-0.8047453,-0.77559507,1.0,0.0,0.0,0.0,0.0,0.0,0.0,-1.4397911,0.06820449,-0.95177704,23.115612,2.4533749,-30.578768,-3.1559706,12.3891115,-0.7005632,-1.3368189
10.361781,20.946787,5.146222,4.4743094,0.39346856,-1.8668265,0.04703356,0.561867,-0.7931321,-0.5857069,-0.7768186,-0.1923782,0.5709523,0.28200006,0.94938534,-0.47832236,-1.5954729,-1.2940605,2.4487622,1.5747521,-0.90935576,0.90324944,-0.41334954,-1.5464599,-1.2299627,2.462957,1.5218722,-0.934772,1.0406771,-1.4288529,-1.0120993,-1.3656704,-0.47157288,0.41945937,0.27511826,0.7632599,-0.46837616,1.4808866,-2.6524382,-0.017220696,-2.1130793,0.16615677,-0.3357134,0.99001926,0.7604452,-0.14290552,0.10826961,0.6241625,0.080943175,-0.8418107,-0.8267185,1.0,0.0,0.0,0.0,0.0,0.0,0.0,-1.4132599,0.06837615,-0.93088657,14.249849,2.071619,-22.482216,-2.9348612,13.147104,-0.7683456,-1.3160706
9.188466,26.033358,8.70844,8.351184,0.11336148,-1.2491298,0.046885286,0.58227825,-0.78599405,-0.5907712,-0.77341175,-0.30271024,0.5768971,0.28273776,0.9614773,-0.49194896,-1.605537,-1.3073039,2.4326859,1.5795618,-0.90649825,0.9141862,-0.42750207,-1.5574901,-1.2437547,2.4586616,1.5260454,-0.9321151,1.1111798,-1.4109381,-1.1335168,-1.3835387,-0.41592366,0.4160795,0.2627886,0.7367554,-0.46854782,1.4590352,-2.6497862,-0.017203478,-2.2091525,0.16720581,-0.3442316,0.98150945,0.7585002,-0.13558544,0.105143115,0.6286802,0.11952855,-0.8498922,-0.86595404,1.0,0.0,0.0,0.0,0.0,0.0,0.0,-1.3867553,0.068547815,-0.90903515,7.0132732,1.7304659,-12.140846,-1.7240524,5.4699,-0.49423575,-1.1531115
6.496193,26.577524,9.508704,11.451515,-0.12991297,-0.8352034,-0.01642505,0.5991327,-0.7886171,-0.6423244,-0.7641072,-0.4554682,0.5823578,0.27844018,0.97409946,-0.50636375,-1.6217226,-1.3201655,2.4131148,1.5842812,-0.90427107,0.9254729,-0.44154683,-1.5693328,-1.2576021,2.454187,1.5301958,-0.92957354,1.1349443,-1.4025437,-1.2016647,-1.3846896,-0.45824897,0.41431695,0.251405,0.71027756,-0.46871948,1.4362237,-2.6471372,-0.017186278,-2.3051295,0.1685791,-0.35270596,0.97265923,0.7565363,-0.12799092,0.1022011,0.63310826,0.15100476,-0.8412319,-0.8985609,1.0,0.0,0.0,0.0,0.0,0.0,0.0,-1.3602775,0.06871948,-0.88622373,2.4836063,0.77331066,-6.930566,-0.023674965,-4.3502035,-0.2985239,-1.1202693
6.1048713,28.863485,11.67351,13.515724,-0.2352984,-0.46969736,0.019640915,0.6094066,-0.79578304,-0.6331338,-0.75833124,-0.51170844,0.6000885,0.26622826,0.9864136,-0.52112514,-1.6326462,-1.3334352,2.403016,1.5902047,-0.9029507,0.9368159,-0.45559016,-1.5814312,-1.271377,2.4489646,1.53435,-0.92714167,1.1346364,-1.405184,-1.213147,-1.3749127,-0.54399455,0.41534626,0.24045399,0.68382645,-0.46889114,1.4124533,-2.6444905,-0.017169096,-2.4010108,0.17023468,-0.36098862,0.96354586,0.754508,-0.120311975,0.09962485,0.6374303,0.17705785,-0.81771696,-0.92295724,1.0,0.0,0.0,0.0,0.0,0.0,0.0,-1.3338264,0.06889114,-0.8624533,0.12786388,-0.3279686,-1.3261795,1.0732174,-8.6923485,0.023144484,-1.0889143
4.946126,27.900454,11.635188,14.313337,-0.031363487,-0.3423153,0.035543904,0.6119411,-0.8038967,-0.6513193,-0.7607196,-0.49204713,0.5946187,0.26528215,0.99801004,-0.5359798,-1.646563,-1.347449,2.3997598,1.5938119,-0.9006134,0.9480769,-0.46972647,-1.593518,-1.2850507,2.4429793,1.5385119,-0.9248071,1.1238521,-1.4167299,-1.2076781,-1.3645003,-0.6169904,0.41618812,0.23114212,0.65740204,-0.4690628,1.3877248,-2.6418467,-0.01715193,-2.496796,0.17209625,-0.36904526,0.9542038,0.75238436,-0.112614505,0.0973598,0.6416828,0.19562413,-0.7953642,-0.9451774,1.0,0.0,0.0,0.0,0.0,0.0,0.0,-1.307402,0.0690628,-0.83772475,-0.9007931,-1.2247324,0.35645962,1.156187,-7.4326873,0.008165836,-0.91243386
4.6126537,26.8713,11.318026,13.917997,0.27648783,-0.35032326,0.08324844,0.61384624,-0.8111158,-0.66351545,-0.7718882,-0.41061988,0.5714587,0.3044603,1.0094615,-0.55083805,-1.6598696,-1.3622396,2.4019175,1.5956577,-0.894361,0.9592244,-0.484013,-1.6055381,-1.2986902,2.436666,1.5426642,-0.922523,1.1122836,-1.4328763,-1.2008913,-1.3634453,-0.6365284,0.4145431,0.22765146,0.63100433,-0.46923447,1.3620391,-2.6392052,-0.017134782,-2.5924854,0.17409897,-0.37693596,0.94462895,0.7501315,-0.10485647,0.09517008,0.64594936,0.20856352,-0.7802002,-0.9687698,1.0,0.0,0.0,0.0,0.0,0.0,0.0,-1.2810043,0.06923446,-0.8120391,-0.97978115,-1.6886234,0.48754215,0.23648739,-2.0931363,-0.25233626,-0.2927065
4.129094,28.483265,12.124603,14.17369,0.38072705,-0.2242412,0.10784029,0.58055764,-0.80957913,-0.63810307,-0.782619,-0.39382032,0.573528,0.33559054,1.0172802,-0.5649709,-1.6693485,-1.376952,2.397284,1.600017,-0.88896394,0.9701249,-0.49842873,-1.617377,-1.3123964,2.430368,1.5468012,-0.9202399,1.083304,-1.4447675,-1.1791073,-1.372544,-0.6280625,0.41311622,0.22878245,0.6046295,-0.46940613,1.3353972,-2.6365666,-0.017117651,-2.6880794,0.17619705,-0.38466263,0.93482697,0.7477219,-0.097011104,0.09290136,0.65028465,0.21702208,-0.7631254,-0.9909491,1.0,0.0,0.0,0.0,0.0,0.0,0.0,-1.2546295,0.06940612,-0.78539723,-2.6685715,-1.2590647,1.9388199,-0.76987743,0.6994486,-0.21897554,0.18537045
2.9025283,30.296093,12.676382,15.074424,0.3657608,-0.077555254,0.07120303,0.54697996,-0.8049342,-0.6278191,-0.78188306,-0.42647552,0.57648546,0.33870408,1.024823,-0.57892215,-1.680159,-1.3905847,2.3877203,1.6044497,-0.8863695,0.9806096,-0.51290256,-1.6289699,-1.3261999,2.424127,1.5509287,-0.9179387,1.0378052,-1.4484785,-1.1535364,-1.3823019,-0.6236205,0.4122828,0.23078501,0.5782852,-0.4695778,1.3078002,-2.6339304,-0.017100537,-2.7835774,0.17835617,-0.3921919,0.9248228,0.7451728,-0.0890921,0.09056732,0.6546583,0.2217144,-0.7420763,-1.0102799,1.0,0.0,0.0,0.0,0.0,0.0,0.0,-1.2282852,0.06957778,-0.75780016,-4.271102,-0.4390955,2.2871733,-0.8276701,0.2829194,-0.14349222,0.2592981
4.002611,34.95589,15.090897,15.700383,0.13761634,0.09951629,0.0922094,0.5300422,-0.79712665,-0.5986643,-0.77731556,-0.4712427,0.6030702,0.36751482,1.0336138,-0.59261525,-1.6888363,-1.4039315,2.3770027,1.6112357,-0.8811872,0.9906241,-0.52734214,-1.6402175,-1.3400625,2.4177947,1.5550696,-0.9155965,0.9903908,-1.4426517,-1.1162174,-1.3870561,-0.6374282,0.41463614,0.23560637,0.5519638,-0.46974945,1.2792488,-2.631297,-0.01708344,-2.8789802,0.18057632,-0.39943027,0.9146721,0.74246573,-0.08117596,0.08827047,0.65906245,0.22868425,-0.70979744,-1.0231904,1.0,0.0,0.0,0.0,0.0,0.0,0.0,-1.2019638,0.069749445,-0.7292488,-4.460168,0.5282402,3.44882,-0.3461361,-1.5332818,0.20643473,0.5346805
0.52352715,32.356976,13.263129,16.918344,0.35305965,0.17486237,0.008444086,0.48874274,-0.8042553,-0.6072722,-0.7748563,-0.48417005,0.60343975,0.37082228,1.0394984,-0.6077677,-1.7009448,-1.4175482,2.3693776,1.6154135,-0.87851423,1.0000817,-0.54174167,-1.6511981,-1.3539346,2.4112678,1.5592352,-0.9132056,0.93190676,-1.4393681,-1.0927461,-1.3865716,-0.65828645,0.41711602,0.24031189,0.5256729,-0.46992016,1.2497442,-2.6286664,-0.01706636,-2.9742875,0.18280411,-0.406394,0.9043872,0.73965645,-0.07327715,0.08606611,0.663424,0.22651383,-0.6838764,-1.0363333,1.0,0.0,0.0,0.0,0.0,0.0,0.0,-1.1756729,0.06992015,-0.69974416,-5.5482626,0.26187897,2.0783901,0.20740032,-2.2663593,0.21476746,0.5052358
-3.7226462,29.371407,11.008156,18.162045,0.63673794,0.24763927,-0.08137636,0.4356869,-0.8038674,-0.61217266,-0.77573794,-0.4869871,0.5925294,0.39137635,1.0436504,-0.6221284,-1.7124155,-1.4315084,2.362569,1.6184882,-0.87406796,1.0088307,-0.55611736,-1.6620567,-1.3677877,2.4045424,1.5634142,-0.9107585,0.85702884,-1.4371905,-1.084338,-1.384226,-0.6780318,0.41823903,0.24631993,0.4994049,-0.4700899,1.2192872,-2.6260383,-0.017049298,-3.0694995,0.18493652,-0.4131651,0.89395744,0.7368403,-0.0653604,0.08396084,0.6676412,0.21335728,-0.66622657,-1.0509316,1.0,0.0,0.0,0.0,0.0,0.0,0.0,-1.1494049,0.07008991,-0.66928715,-7.156694,0.13635159,0.5801916,0.42774677,-2.1880388,0.07118583,0.6179333
-11.583683,25.047407,7.4076333,20.6436,1.0814327,0.4391241,-0.251189,0.33440393,-0.7981991,-0.61568475,-0.7794405,-0.50682193,0.5843063,0.3798029,1.042271,-0.6359373,-1.7236252,-1.4457318,2.3538601,1.6218449,-0.8727782,1.0165077,-0.5704568,-1.6729171,-1.3816293,2.397596,1.567597,-0.90826654,0.73926157,-1.4331269,-1.0876855,-1.3832966,-0.7008759,0.41815472,0.2501251,0.4731636,-0.47025967,1.1878787,-2.6234128,-0.01703225,-3.1646163,0.18678284,-0.41983318,0.8833678,0.734177,-0.057378124,0.08198533,0.6715432,0.1802363,-0.65887284,-1.0671135,1.0,0.0,0.0,0.0,0.0,0.0,0.0,-1.1231636,0.07025966,-0.6378787,-11.353958,0.29962063,-0.6171942,0.34253597,-2.5597215,-0.05352497,0.3602773
-34.128857,8.965623,-4.5142274,27.07399,2.5312295,0.82170284,-0.7111164,0.099465944,-0.8084404,-0.65438104,-0.7944235,-0.49330503,0.5138904,0.32231152,1.0264543,-0.65130085,-1.7383553,-1.4610717,2.3482654,1.6189861,-0.8760354,1.0221039,-0.5848134,-1.6840293,-1.3955263,2.390493,1.5717226,-0.9057889,0.50207114,-1.4371532,-1.1202183,-1.3906276,-0.71449804,0.41040748,0.24659045,0.446949,-0.47042942,1.1555198,-2.62079,-0.017015222,-3.259638,0.18787766,-0.4267063,0.8725405,0.7320898,-0.049158923,0.080120385,0.67469144,0.08969798,-0.68816686,-1.0932418,1.0,0.0,0.0,0.0,0.0,0.0,0.0,-1.096949,0.070429415,-0.60551983,-23.03499,-0.59456825,-3.6090612,-0.30622482,-1.8125176,-0.86372495,-0.4572183
-48.73004,1.4556828,-10.773166,31.550259,3.4952655,1.2041827,-0.95705086,-0.08206182,-0.8080895,-0.6647801,-0.8009601,-0.4588406,0.45970565,0.33942512,1.0138978,-0.66562235,-1.7505074,-1.4756223,2.3446088,1.6176932,-0.8718464,1.0247685,-0.5992215,-1.6955173,-1.4095262,2.3834014,1.575728,-0.90333986,0.19064543,-1.442937,-1.159724,-1.4011512,-0.7093972,0.39664027,0.24394344,0.4207611,-0.47059917,1.1222115,-2.6181698,-0.01699821,-3.354565,0.18777466,-0.43401432,0.86143064,0.73090565,-0.0405784,0.0782715,0.6767598,-0.040580418,-0.7365059,-1.1219795,1.0,0.0,0.0,0.0,0.0,0.0,0.0,-1.0707611,0.07059917,-0.57221144,-30.288918,-0.8406639,-4.361391,-0.49619675,-0.0672698,-1.5220702,-0.3977418
-55.27571,0.98417616,-11.721213,34.106342,3.8990104,1.594942,-1.0184261,-0.24597147,-0.81509775,-0.6481936,-0.7957792,-0.46200207,0.4454025,0.3455359,1.0001713,-0.6807313,-1.7603366,-1.4891042,2.337201,1.6202683,-0.8687863,1.024099,-0.61371833,-1.707257,-1.4235872,2.3763785,1.5795885,-0.90090895,-0.1497278,-1.4529868,-1.1803758,-1.4057025,-0.7018057,0.3817401,0.24239916,0.3945999,-0.47076893,1.0879545,-2.6155522,-0.016981216,-3.4493968,0.18622208,-0.44181347,0.85006964,0.7307378,-0.031662785,0.07634512,0.6776364,-0.19181399,-0.78540856,-1.1459475,1.0,0.0,0.0,0.0,0.0,0.0,0.0,-1.0445999,0.07076892,-0.5379545,-33.117867,-1.3152599,-2.5097132,0.18088818,0.11829138,-1.6877592,-0.27149916
-49.1718,7.497761,-7.3000345,31.94561,3.4973977,1.6477792,-0.854775,-0.331603,-0.81938255,-0.6542301,-0.7919842,-0.46260142,0.45218128,0.33969736,0.99093866,-0.6956566,-1.77268,-1.5027857,2.3301184,1.6248066,-0.8669392,1.0203892,-0.62832195,-1.7191322,-1.4376501,2.369432,1.5833155,-0.8984904,-0.44207478,-1.4638522,-1.1913042,-1.4044495,-0.69426656,0.3689096,0.24138649,0.3684616,-0.47093868,1.05275,-2.6129372,-0.016964238,-3.544134,0.18327332,-0.44999504,0.8384973,0.7314653,-0.022495659,0.07426425,0.677449,-0.33007723,-0.81985044,-1.1659622,1.0,0.0,0.0,0.0,0.0,0.0,0.0,-1.0184616,0.07093868,-0.50275,-28.421873,-1.390171,-1.5039206,0.74408054,0.16309023,-1.5117347,-0.16103685
-41.435745,13.898757,-3.0489922,28.422459,2.9733999,1.5521789,-0.682958,-0.42792857,-0.81945634,-0.6768413,-0.79966563,-0.4464037,0.42762074,0.329514,0.97759634,-0.7102676,-1.7868164,-1.5176166,2.3247917,1.6260775,-0.865539,1.0141732,-0.64301044,-1.7311542,-1.4517225,2.3625998,1.5869108,-0.89608526,-0.67916965,-1.4714419,-1.2070725,-1.4062344,-0.68154806,0.35543784,0.24021502,0.34235382,-0.47110844,1.0165988,-2.6103249,-0.016947277,-3.6387763,0.17908478,-0.45842648,0.8267179,0.732905,-0.013106558,0.07197299,0.67638624,-0.4488579,-0.8408893,-1.1867238,1.0,0.0,0.0,0.0,0.0,0.0,0.0,-0.9923538,0.07110843,-0.4665988,-23.02078,-1.040411,-1.9406319,0.40295124,0.74299574,-1.598835,-0.12835562
-38.399223,16.73296,-1.5097423,26.506779,2.75323,1.530658,-0.6350199,-0.54467237,-0.8236741,-0.71011186,-0.79639864,-0.43592215,0.42894027,0.27437466,0.9597059,-0.72537786,-1.8021654,-1.5313624,2.3190076,1.6298048,-0.8686478,1.0058342,-0.6577657,-1.7434528,-1.4657987,2.3559089,1.5903841,-0.8937297,-0.8835497,-1.4778858,-1.238461,-1.4059402,-0.66650635,0.34364194,0.23403905,0.31626892,-0.4712782,0.9795019,-2.607715,-0.016930334,-3.733324,0.17378616,-0.46703434,0.81471086,0.7349654,-0.00349041,0.06943784,0.67453104,-0.56012994,-0.85630614,-1.2099758,1.0,0.0,0.0,0.0,0.0,0.0,0.0,-0.9662689,0.071278185,-0.4295019,-19.8228,-0.92117786,-3.459859,0.60794353,1.0021925,-1.4651418,-0.60485303
-36.640186,19.71083,-0.030816078,25.330967,2.6896076,1.5863979,-0.6454769,-0.65132266,-0.82285905,-0.7312083,-0.79497385,-0.37349826,0.41977623,0.10039999,0.94070196,-0.74005157,-1.8165736,-1.5452961,2.318559,1.6323618,-0.8836897,0.9956051,-0.67256004,-1.7561233,-1.4798616,2.3495345,1.5937449,-0.89156294,-1.0673864,-1.480857,-1.2775114,-1.4044384,-0.62951314,0.3324687,0.21103385,0.29021072,-0.47144794,0.9414602,-2.6051078,-0.016913407,-3.8277771,0.16739655,-0.47576714,0.8024707,0.7376368,0.0063500497,0.0665573,0.6718793,-0.66925925,-0.8669723,-1.2332237,1.0,0.0,0.0,0.0,0.0,0.0,0.0,-0.9402107,0.07144794,-0.39146018,-17.820667,-0.5743027,-4.188323,0.72698593,3.2164335,-1.434499,-2.2586436
-33.491238,24.183706,3.044833,24.714289,2.6559253,1.7437673,-0.6362607,-0.7303152,-0.8270796,-0.72762406,-0.7788504,-0.277374,0.45966178,-0.12592968,0.92257357,-0.755268,-1.8288857,-1.5577466,2.3217971,1.639711,-0.9041559,0.9837223,-0.6873849,-1.7690933,-1.4938349,2.3437896,1.597037,-0.8897872,-1.2270497,-1.4840047,-1.3041689,-1.3930637,-0.5574572,0.3270664,0.16665132,0.26417923,-0.4716177,0.90247464,-2.602503,-0.016896497,-3.9221358,0.15993118,-0.48455715,0.7900489,0.74090725,0.016320845,0.063145295,0.66843295,-0.7764065,-0.8696624,-1.2495855,1.0,0.0,0.0,0.0,0.0,0.0,0.0,-0.9141792,0.07161769,-0.35247463,-15.479207,-0.57919025,-2.9022694,1.6804934,6.780195,-0.85127354,-4.349518
-26.91929,31.250576,7.9482164,23.371616,2.4119008,1.8105873,-0.5637435,-0.773811,-0.8209186,-0.7286938,-0.76249963,-0.16228828,0.47913307,-0.30496904,0.90634125,-0.7694768,-1.8419627,-1.5700848,2.3275607,1.6449503,-0.9202841,0.9705292,-0.7022012,-1.782233,-1.507625,2.3390517,1.6003023,-0.88856745,-1.3488402,-1.481576,-1.3178335,-1.3727629,-0.4473524,0.32557023,0.10753355,0.23817444,-0.4717865,0.8625383,-2.5999012,-0.016879603,-4.0174656,0.15148544,-0.49329662,0.7775284,0.7447134,0.026296267,0.059008524,0.6642503,-0.871892,-0.86098576,-1.2571533,1.0,0.0,0.0,0.0,0.0,0.0,0.0,-0.8881744,0.07178649,-0.31253827,-11.801982,0.01437664,-1.5387774,2.490425,10.675276,-0.42306185,-5.7799444
-18.39734,37.97713,13.132772,21.350254,2.1725373,1.7738045,-0.4418363,-0.78774816,-0.8133125,-0.73044115,-0.74141514,0.026790516,0.49952897,-0.41520825,0.8917544,-0.78353244,-1.8552771,-1.5817665,2.3417308,1.6502552,-0.9300883,0.9564806,-0.7169469,-1.7954357,-1.5211424,2.3358512,1.6035792,-0.8879771,-1.4227575,-1.4728172,-1.3213094,-1.3435642,-0.27810726,0.327578,0.043418128,0.21219635,-0.47195435,0.8216493,-2.5973017,-0.016862728,-4.1126995,0.14221191,-0.50189686,0.76499766,0.74894327,0.036157228,0.053907342,0.6594472,-0.95179373,-0.8440553,-1.2559423,1.0,0.0,0.0,0.0,0.0,0.0,0.0,-0.8621963,0.07195434,-0.2716493,-7.144165,0.69823265,-0.4399538,3.2658815,16.705692,-0.022560358,-6.2330894
-11.377742,41.016563,16.05962,18.279522,1.9235696,1.6193585,-0.3118958,-0.8003859,-0.8148986,-0.73671716,-0.7428942,0.20575736,0.4856795,-0.47456363,0.876442,-0.79843676,-1.8691074,-1.5954318,2.356427,1.652147,-0.9354335,0.9419733,-0.73161346,-1.8086536,-1.534427,2.3346725,1.6068693,-0.8880124,-1.4595957,-1.4649438,-1.3223407,-1.3224207,-0.06461966,0.32881406,-0.01843736,0.18624115,-0.4721222,0.7798087,-2.594705,-0.016845867,-4.207838,0.1322403,-0.5103016,0.7524664,0.7534697,0.045877207,0.047613636,0.6541496,-1.0166032,-0.8234874,-1.2563074,0.0,1.0,0.0,0.0,0.0,0.0,0.0,-0.8362411,0.07212219,-0.22980869,-3.5246372,0.6502867,-0.15261173,2.3878813,21.220022,-0.07545352,-5.9730105
-4.533247,44.769196,19.200912,15.135155,1.3490529,1.5121192,-0.18434215,-0.8022261,-0.8060904,-0.733406,-0.7442694,0.28612512,0.5007905,-0.5017552,0.8617507,-0.8122225,-1.8819942,-1.6088539,2.363285,1.6569483,-0.93818796,0.9273405,-0.74605846,-1.8230336,-1.5481261,2.3331466,1.611665,-0.88792396,-1.4630637,-1.4391325,-1.4694282,-1.3797629,-0.16823213,0.50238234,0.002173514,0.16872787,-0.47458458,0.77731484,-1.6075124,-0.25211596,0.79050213,0.12189865,-0.51816463,0.73945904,0.7579421,0.05528348,0.04140022,0.64865506,-1.0444862,-0.76037115,-1.3161504,0.0,1.0,0.0,0.0,0.0,0.0,0.0,-0.81872785,0.07458457,-0.22731483,-0.32434464,0.9633541,-0.29468536,1.8480062,19.892803,-0.1339674,-5.7704406
68.3078,176.0,110.0,104.38737,-6.1880083,10.724795,-0.53123134,-0.77370423,0.54058576,0.6532692,0.74043894,-0.32020938,0.67096,-0.39992115,0.8499701,-0.6919999,-1.7577066,-1.4740822,2.3011255,1.678761,-0.92791605,0.91837215,-0.7591772,-1.83764,-1.5493697,2.3201919,1.6265061,-0.88623023,-0.7131695,-1.2687045,-1.4497801,0.28886643,-1.6659126,1.8205763,0.21999805,0.15266418,-0.47710323,0.7844695,-1.6059052,-0.2518639,0.6904606,0.111968994,-0.52351,0.73059,0.7624696,0.05493027,0.041749127,0.6433348,-0.9790039,-0.4426586,-0.74549234,1.0,0.0,0.0,0.0,0.0,0.0,0.0,-0.80266416,0.07710323,-0.23446947,73.4734,17.26613,4.3115377,165.27324,-148.29675,134.61757,20.251892
-14.177935,142.73734,74.37267,97.698364,2.352554,6.015327,-1.3823556,-0.81182724,-0.4914536,-0.14599963,0.7840443,-0.64119554,0.5193055,-0.2334218,0.83718944,-0.80832255,-1.85224,-1.4709653,2.2560723,1.6784366,-0.9095724,0.9112854,-0.7704029,-1.8490021,-1.5392112,2.3018813,1.6446774,-0.88421893,-0.7063965,-1.0755925,-1.0289537,1.2582475,-1.8895015,1.8216008,0.19422637,0.13661575,-0.47961998,0.79062444,-1.6042995,-0.25161207,0.59051913,0.1015892,-0.52735806,0.7265731,0.76792294,0.047628734,0.04606766,0.6371057,-1.0577226,-0.35461873,-0.29198438,1.0,0.0,0.0,0.0,0.0,0.0,0.0,-0.7866157,0.079619974,-0.24062443,0.87929964,18.781567,42.95218,96.93068,-23.363281,1.7402649,-2.7608185
-32.57996,150.56741,61.065063,78.116325,2.141942,4.6376467,-1.5456223,-0.8082966,-0.044669677,-0.47468042,0.7541165,-0.6575826,0.5979671,0.15480801,0.8304557,-0.77486986,-1.8964702,-1.4637995,2.236123,1.7044741,-0.8687381,0.9028168,-0.7779579,-1.8576806,-1.5227622,2.2836814,1.661834,-0.8823507,-0.89170736,-0.6509723,-0.81412077,1.7741604,-1.8007754,1.6837103,0.18314871,0.12058258,-0.48213482,0.7957808,-1.6026956,-0.2513605,0.49067757,0.09038544,-0.53024197,0.7262727,0.7745876,0.037564106,0.052485257,0.6291647,-1.1397408,-0.25803417,0.050129175,1.0,0.0,0.0,0.0,0.0,0.0,0.0,-0.77058256,0.08213481,-0.24578077,-17.931438,41.800213,21.503819,51.70591,7.7430964,-12.749267,-1.4781088
-44.561283,106.02873,32.689716,51.489773,2.5966473,2.792436,-1.3085964,-0.81198865,-0.086584575,-0.5352792,0.79789734,-0.66064286,0.59693354,-0.06916828,0.8216179,-0.7866164,-1.9112085,-1.4429724,2.217617,1.7215273,-0.8892675,0.8919754,-0.7819519,-1.8653595,-1.5039405,2.2675033,1.6772263,-0.88078666,-1.146964,-0.31728598,-0.7532433,1.9186372,-1.559148,1.4924035,0.14664112,0.10456467,-0.4846468,0.7999394,-1.6010932,-0.2511092,0.39093584,0.07829666,-0.53245735,0.7280687,0.78228176,0.027129361,0.059968602,0.6194377,-1.2316691,-0.20074686,0.21590316,1.0,0.0,0.0,0.0,0.0,0.0,0.0,-0.75456464,0.08464679,-0.24993938,-25.103807,32.85957,5.853963,14.5926,23.440933,-18.753242,-3.9021432
-37.966896,65.76141,13.782888,27.17339,1.978715,1.2252327,-0.8029893,-0.8156192,-0.105133876,-0.5595,0.78596365,-0.6463662,0.6379365,-0.15563679,0.8104135,-0.79246527,-1.9213096,-1.4253441,2.2028666,1.74102,-0.8963503,0.878912,-0.7836504,-1.8732426,-1.4853858,2.2537742,1.6908276,-0.87963367,-1.3589418,-0.12166249,-0.80021787,1.8343227,-1.3119402,1.3159856,0.10414745,0.08856583,-0.4871559,0.80310136,-1.5994924,-0.25085816,0.2912938,0.065475464,-0.5343218,0.7304673,0.79060405,0.017790481,0.067635395,0.6083208,-1.2979082,-0.1710374,0.24283078,1.0,0.0,0.0,0.0,0.0,0.0,0.0,-0.7385658,0.08715591,-0.25310135,-21.057844,19.254808,-4.811454,-8.402324,24.292969,-17.607355,-4.45399
-27.366302,35.554386,2.9022174,12.333654,1.4606853,0.15162933,-0.37682453,-0.82186145,-0.12787196,-0.5792595,0.7923186,-0.638895,0.63603634,-0.1848969,0.7967258,-0.7964376,-1.9311686,-1.4061539,2.1898847,1.7544312,-0.8981234,0.86431694,-0.78442574,-1.881944,-1.4682711,2.242124,1.702842,-0.87889075,-1.4929274,-0.06329833,-0.89337707,1.670535,-1.1168911,1.1630838,0.06382045,0.07258606,-0.48966312,0.80526763,-1.5978932,-0.25060734,0.19175139,0.052165985,-0.53609943,0.7325126,0.79917747,0.010167104,0.074950874,0.59631723,-1.3406426,-0.16767225,0.18842223,1.0,0.0,0.0,0.0,0.0,0.0,0.0,-0.72258604,0.08966312,-0.25526762,-13.374257,5.6886477,-9.316671,-16.389824,19.223976,-15.360522,-4.1657133
-18.088482,12.0391245,-3.702422,4.552835,1.306664,-0.5302377,-0.07484174,-0.8184035,-0.20738506,-0.5942503,0.79108,-0.6239006,0.6242308,-0.20071387,0.7824766,-0.8051642,-1.9413689,-1.3891631,2.179734,1.7652651,-0.89896214,0.84898186,-0.7855873,-1.8915913,-1.4527262,2.2319617,1.7135079,-0.878515,-1.5468917,-0.13381906,-0.9884844,1.5158714,-0.98334116,1.0341005,0.028720343,0.05662155,-0.49216747,0.8064392,-1.5962957,-0.25035676,0.092308514,0.038532257,-0.53803825,0.73367375,0.80774456,0.0043274285,0.081529684,0.58385175,-1.372287,-0.18972401,0.089842126,1.0,0.0,0.0,0.0,0.0,0.0,0.0,-0.7066215,0.09216747,-0.2564392,-5.3637266,-7.083948,-9.484423,-15.422988,13.184082,-12.972999,-3.543355
-11.40788,8.272215,-2.3728254,4.243317,1.1517798,-0.61080694,0.054698505,-0.8223687,-0.23315918,-0.60165584,0.797778,-0.61564416,0.6221198,-0.17793904,0.766745,-0.8089032,-1.951757,-1.3729484,2.1703973,1.7757199,-0.8963089,0.8334923,-0.78781605,-1.9020092,-1.4383162,2.2227263,1.7230504,-0.8784282,-1.5496166,-0.25256607,-1.0593219,1.4163812,-0.9044572,0.9274064,0.0020488047,0.040672302,-0.49466896,0.8066142,-1.5946997,-0.25010648,-0.0074286773,0.024620056,-0.5402231,0.7338707,0.8161712,-6.807473e-06,0.08729353,0.571178,-1.3962495,-0.21501324,-0.005187325,1.0,0.0,0.0,0.0,0.0,0.0,0.0,-0.6906723,0.094668955,-0.2566142,-0.22907257,-11.887103,-7.0314407,-9.848189,7.7455997,-10.722483,-2.6610367
-4.170871,16.055414,3.988381,6.0865726,0.8635253,-0.39779067,0.1350157,-0.8112274,-0.25883758,-0.57700175,0.79503137,-0.6000394,0.62724775,-0.2147913,0.7523695,-0.8136998,-1.9597094,-1.358813,2.1627223,1.7857752,-0.89990735,0.81821823,-0.79125214,-1.9127667,-1.4245013,2.2140098,1.7316716,-0.878597,-1.5199038,-0.37404746,-1.0808569,1.3701051,-0.8614247,0.84045726,-0.02315733,0.024738312,-0.49716854,0.8057926,-1.5931053,-0.24985643,-0.10706615,0.010585785,-0.54256916,0.73331094,0.82437223,-0.003279545,0.09235176,0.5584538,-1.4070915,-0.22802669,-0.07441301,1.0,0.0,0.0,0.0,0.0,0.0,0.0,-0.6747383,0.097168535,-0.25579262,2.9716492,-12.181044,-2.0226479,-4.528713,4.1202545,-8.718133,-2.5131443
-4.1466646,19.545687,6.1953735,8.880751,0.96668994,-0.16831315,0.102179244,-0.813403,-0.3215274,-0.57791805,0.7974818,-0.5889539,0.62831825,-0.240212,0.7368779,-0.82340485,-1.9705585,-1.3447531,2.1551144,1.7945035,-0.9026182,0.8032732,-0.7959175,-1.9235413,-1.410839,2.2055602,1.7395432,-0.87900615,-1.4860909,-0.497603,-1.0757116,1.365464,-0.8399733,0.76938355,-0.046764497,0.00881958,-0.49966526,0.8039754,-1.5915126,-0.24960662,-0.206604,-0.0035858154,-0.54500103,0.7321806,0.8323429,-0.0058449227,0.0968069,0.5457099,-1.4213836,-0.23523213,-0.12748168,1.0,0.0,0.0,0.0,0.0,0.0,0.0,-0.65881956,0.099665254,-0.2539754,3.3866882,-12.413132,0.6743908,-0.32753944,1.9589782,-7.1303368,-2.3422234
-2.7262409,29.090628,10.836279,11.287359,0.8530737,0.1436302,0.09926936,-0.8082363,-0.34812862,-0.5482495,0.7967271,-0.5759853,0.63604504,-0.24168289,0.72244954,-0.8307304,-1.9783663,-1.3311663,2.1479616,1.8031477,-0.90317446,0.7886324,-0.8016281,-1.9340317,-1.3970717,2.1972518,1.7468083,-0.879627,-1.4568537,-0.59589356,-1.0395871,1.3809993,-0.82843,0.71211314,-0.06716802,-0.007083893,-0.5021591,0.8011635,-1.5899214,-0.24935706,-0.30604237,-0.017860413,-0.54739475,0.73068726,0.8400791,-0.00799115,0.100796595,0.532957,-1.430952,-0.22777435,-0.15858363,1.0,0.0,0.0,0.0,0.0,0.0,0.0,-0.6429161,0.10215911,-0.25116348,2.9028177,-9.923708,3.8285494,1.6716719,0.91364384,-5.739391,-2.0436234
-3.2835405,34.200005,12.693382,12.518951,0.83568895,0.334512,0.08126856,-0.80550843,-0.38853496,-0.52958304,0.7932809,-0.56056005,0.6326986,-0.25431466,0.70808154,-0.84048164,-1.98699,-1.3177437,2.1411958,1.8100781,-0.90505844,0.77421,-0.8081894,-1.9440701,-1.3831252,2.1890464,1.7535756,-0.88043666,-1.4374574,-0.67662644,-0.9910345,1.3996862,-0.818497,0.665031,-0.08559259,-0.022972107,-0.50465107,0.797358,-1.5883317,-0.24910776,-0.40538132,-0.032234192,-0.54964924,0.72895753,0.84758437,-0.009879085,0.104419105,0.52019197,-1.4400742,-0.2119069,-0.17994094,1.0,0.0,0.0,0.0,0.0,0.0,0.0,-0.62702787,0.10465106,-0.24735796,1.9155741,-8.189702,5.0882816,1.9830704,0.72398186,-4.7193766,-1.8569887
-3.0103216,36.705624,13.205167,12.275812,0.7093738,0.37591863,0.09348999,-0.79108584,-0.42506292,-0.52532583,0.7900243,-0.56645054,0.63299644,-0.22713377,0.6951014,-0.85069567,-1.9966027,-1.3041228,2.1324012,1.8168752,-0.90315,0.75996876,-0.81545544,-1.9536774,-1.3690337,2.1808944,1.7599366,-0.8813884,-1.4197353,-0.7436598,-0.9497972,1.4125826,-0.8149084,0.6265601,-0.098482706,-0.038845062,-0.50714016,0.7925598,-1.5867437,-0.2488587,-0.50462097,-0.046669006,-0.5517168,0.7270213,0.85485244,-0.011547328,0.107761174,0.50742626,-1.4455868,-0.19200963,-0.20074177,1.0,0.0,0.0,0.0,0.0,0.0,0.0,-0.6111549,0.10714015,-0.24255979,1.7440319,-6.8255424,4.3547153,1.3955116,0.08736849,-3.85046,-1.3175414
0.48322105,44.530285,16.654142,12.29549,0.38769895,0.45475394,0.13517594,-0.7686939,-0.42789862,-0.49691686,0.7973027,-0.58395666,0.64201,-0.21013846,0.6830994,-0.8582453,-2.003369,-1.2893034,2.1224988,1.8241376,-0.9024023,0.7459507,-0.8231821,-1.9628556,-1.3548297,2.1727042,1.7659733,-0.8824384,-1.3960419,-0.78283745,-0.90623045,1.4232239,-0.8216277,0.5962123,-0.10744453,-0.05470276,-0.5096264,0.78677,-1.5851573,-0.24860989,-0.6037613,-0.06105423,-0.55351734,0.72495574,0.8618454,-0.013047333,0.11097719,0.49470818,-1.437484,-0.16344887,-0.21126097,1.0,0.0,0.0,0.0,0.0,0.0,0.0,-0.5952972,0.10962638,-0.23676997,2.303052,-4.054868,4.6278834,1.1169195,-0.9846449,-3.0139804,-0.96515864
-2.9981039,35.65805,11.694697,10.627294,0.5767567,0.28912443,0.12688972,-0.76734644,-0.50242287,-0.5138534,0.78294665,-0.5695328,0.62989044,-0.1733248,0.66921604,-0.8734244,-2.014241,-1.276535,2.115751,1.8289623,-0.8997709,0.73213005,-0.8314638,-1.9717953,-1.3406199,2.1644835,1.7717392,-0.8835342,-1.3774401,-0.84369165,-0.8890168,1.4204103,-0.82335776,0.5700972,-0.11036322,-0.0705452,-0.5121107,0.77998954,-1.5835724,-0.24836133,-0.70280254,-0.0754509,-0.55510616,0.7226328,0.8685792,-0.014285039,0.114015035,0.48204422,-1.4401467,-0.14501743,-0.24217197,1.0,0.0,0.0,0.0,0.0,0.0,0.0,-0.5794548,0.112110704,-0.22998953,1.8346786,-6.199372,1.9251227,-0.16942024,-0.41395426,-2.6156545,-0.3219366
-4.2060695,32.885754,9.687302,9.915657,0.5863256,0.20910192,0.10865079,-0.75266814,-0.532538,-0.524211,0.7854245,-0.58132654,0.6369428,-0.17607585,0.6568632,-0.8847176,-2.0242164,-1.2620775,2.106351,1.8354335,-0.90114176,0.7185068,-0.840374,-1.9807255,-1.326456,2.156217,1.7772839,-0.88465095,-1.3573198,-0.9071792,-0.89361006,1.415468,-0.82837963,0.54912674,-0.112111345,-0.086372375,-0.5145922,0.7722194,-1.5819892,-0.24811302,-0.80174476,-0.08988953,-0.5565357,0.71993643,0.87507933,-0.015168915,0.11685513,0.4694155,-1.4454997,-0.12995297,-0.28182712,1.0,0.0,0.0,0.0,0.0,0.0,0.0,-0.5636276,0.114592165,-0.22221941,2.001977,-6.4563036,-0.28641224,-0.3563404,-0.70666075,-2.1124482,-0.19619614
-2.3218262,29.847197,8.76809,8.158992,0.5010681,0.10845512,0.14242712,-0.7241997,-0.5799388,-0.51947635,0.7841042,-0.5811909,0.650704,-0.17459753,0.6460868,-0.8983679,-2.0326731,-1.2480456,2.098098,1.8423543,-0.9021107,0.70516586,-0.8499956,-1.9897416,-1.3123492,2.1479087,1.7826569,-0.8857782,-1.3264208,-0.98073,-0.90361506,1.4095573,-0.8322654,0.53324157,-0.11292116,-0.10218048,-0.5170717,0.763469,-1.5804075,-0.24786495,-0.8994649,-0.10436249,-0.55784035,0.7167904,0.8813434,-0.01567574,0.11945842,0.45685625,-1.4482586,-0.11848036,-0.32871217,1.0,0.0,0.0,0.0,0.0,0.0,0.0,-0.5478195,0.11707172,-0.21346897,3.069353,-7.449198,-0.829947,-0.4475832,-0.56973696,-1.613617,-0.08596629
1.8161864,32.254974,10.746433,7.000084,0.28936756,0.102341115,0.20987533,-0.6963879,-0.6141978,-0.49488705,0.78106934,-0.59606487,0.6646799,-0.16339956,0.6355271,-0.9114154,-2.0392303,-1.2342423,2.0883021,1.8491249,-0.90211815,0.69221115,-0.86034775,-1.9987423,-1.2983054,2.1395278,1.787904,-0.8869026,-1.2854053,-1.0536894,-0.89818096,1.4030733,-0.84109616,0.52192754,-0.11236416,-0.11796951,-0.5195484,0.7537421,-1.5788274,-0.24761714,-0.9970873,-0.11879349,-0.5590172,0.713198,0.88733536,-0.015865577,0.12181648,0.44446033,-1.4408092,-0.10525419,-0.37290204,0.0,1.0,0.0,0.0,0.0,0.0,0.0,-0.53203046,0.11954841,-0.20374209,4.045248,-7.3895693,0.7548094,-0.53298473,-1.0911465,-1.1503577,0.04800707
-0.15107441,28.761152,8.195867,6.3893566,0.3179165,-0.003630042,0.1952533,-0.68164444,-0.6562032,-0.5458333,0.7752531,-0.6002244,0.65839535,-0.09394333,0.6240467,-0.92596805,-2.0533257,-1.2207801,2.0795054,1.8537436,-0.8962969,0.6796627,-0.87143993,-2.007909,-1.284336,2.1310554,1.793052,-0.8879688,-1.2448282,-1.1279656,-0.92201376,1.3953476,-0.8499731,0.51218927,-0.10463636,-0.13374329,-0.5220232,0.7430397,-1.5772489,-0.24736957,-1.0946121,-0.13318634,-0.56009674,0.70908916,0.8930657,-0.015668072,0.12394532,0.43223348,-1.438086,-0.096986264,-0.42720097,0.0,1.0,0.0,0.0,0.0,0.0,0.0,-0.5162567,0.122023195,-0.19303972,4.0241003,-7.517886,-2.2144556,-0.61826706,-1.0507107,-1.0138154,0.77587664
5.9401827,31.802238,10.365859,4.7945323,0.04829535,-0.12728155,0.24825516,-0.62371844,-0.6891504,-0.5519118,0.77360135,-0.5942968,0.6763114,-0.12935229,0.61729085,-0.94035494,-2.0631003,-1.2069758,2.0716257,1.8606831,-0.900904,0.66770655,-0.8832382,-2.0174153,-1.2704659,2.1224513,1.7981144,-0.8890684,-1.1741118,-1.1973534,-0.98418003,1.3761499,-0.8591059,0.5389426,-0.11801414,-0.14993286,-0.5233183,0.734043,-1.5437624,0.096861824,-0.005783294,-0.14743423,-0.56112576,0.70441043,0.8985313,-0.015024667,0.12588622,0.42020044,-1.4211279,-0.09142323,-0.49456573,0.0,1.0,0.0,0.0,0.0,0.0,0.0,-0.5000671,0.123318285,-0.18404299,7.783413,-7.0379257,-9.447586,-3.0299664,-1.5412807,5.9276342,-3.084323
-3.852479,70.34235,23.157875,17.518728,0.4593183,1.0130757,0.05029451,-0.7321732,-0.53940034,-0.42560628,0.79635674,-0.60375565,0.6361495,-0.1506376,0.5944892,-0.93717825,-2.0599759,-1.1908302,2.0620759,1.8617294,-0.9041322,0.6558247,-0.8948406,-2.0268261,-1.2566376,2.1138034,1.8034416,-0.8902481,-1.1931214,-1.1485283,-0.925755,1.3850325,-0.86791307,0.5306862,-0.118440285,-0.16535568,-0.5223503,0.73323303,-1.542219,0.09676498,-0.10605672,-0.1615181,-0.561718,0.6997052,0.90375954,-0.014380906,0.12804426,0.40818673,-1.4033228,-0.037243523,-0.46676424,0.0,1.0,0.0,0.0,0.0,0.0,0.0,-0.4846443,0.122350305,-0.18323302,-1.9613504,4.655051,6.195557,0.90339184,-1.3537407,-0.81267357,-0.19670725
-3.8368096,85.909706,29.393955,21.355816,0.6348508,1.3879132,0.03423926,-0.7298327,-0.5213859,-0.36240542,0.79429173,-0.5761804,0.6410586,-0.14947483,0.58284146,-0.94697917,-2.0630667,-1.1772084,2.0561852,1.8675475,-0.9051956,0.64360625,-0.9056858,-2.0352643,-1.2427082,2.1051745,1.8086983,-0.8914297,-1.2316788,-1.0640815,-0.8150579,1.3954527,-0.8632245,0.5243167,-0.11861081,-0.18076324,-0.5213833,0.7314211,-1.5406771,0.096668236,-0.20622988,-0.17538834,-0.5616522,0.69553113,0.9087412,-0.014025474,0.1305592,0.3961653,-1.3795408,0.03258293,-0.40499306,0.0,1.0,0.0,0.0,0.0,0.0,0.0,-0.46923673,0.12138328,-0.1814211,-3.9441586,8.182168,11.511887,0.99265575,-0.12725592,-0.6035209,-0.20355731
-10.132032,82.50675,25.71632,22.322126,0.900066,1.2943709,-0.016567986,-0.74804413,-0.5102129,-0.41246936,0.78199595,-0.56997365,0.6190098,-0.050952062,0.5688018,-0.95670706,-2.0765111,-1.1645086,2.0481772,1.8705993,-0.8965249,0.6308995,-0.91568506,-2.0428593,-1.2287178,2.096622,1.8138481,-0.8925293,-1.2837665,-0.9794258,-0.7397227,1.400286,-0.85414964,0.5118156,-0.10760176,-0.19615555,-0.5204172,0.7286082,-1.5391368,0.09657159,-0.3063029,-0.18912506,-0.56091595,0.69190687,0.913504,-0.013886208,0.1334438,0.3840708,-1.3685815,0.09808315,-0.3518336,0.0,1.0,0.0,0.0,0.0,0.0,0.0,-0.45384443,0.12041721,-0.17860818,-5.2518606,8.210969,7.9027414,0.4976511,0.37753582,-1.2372255,0.93520284
-6.164582,79.102585,24.593075,20.278938,0.7375016,1.0175462,0.03386828,-0.7241799,-0.4858777,-0.40318003,0.7964584,-0.5764004,0.62129915,0.010490321,0.5584815,-0.96427286,-2.0831773,-1.1490719,2.038982,1.875978,-0.89148027,0.61787134,-0.9249214,-2.0499127,-1.2146378,2.088142,1.8188816,-0.8934725,-1.3094144,-0.9058077,-0.69263214,1.4105228,-0.8477344,0.5004427,-0.09038404,-0.2115326,-0.5194521,0.7247953,-1.5375979,0.096475035,-0.40627587,-0.20269394,-0.5596037,0.68873554,0.91803837,-0.013840153,0.13668416,0.3719292,-1.351473,0.15303071,-0.30873916,0.0,1.0,0.0,0.0,0.0,0.0,0.0,-0.43846738,0.11945209,-0.17479527,-2.633667,7.132745,5.078101,1.0286331,0.15468597,-1.1324644,1.5593245
-3.1281614,67.741295,20.39207,16.419634,0.58561313,0.6251055,0.07777686,-0.70996433,-0.49172994,-0.4158586,0.79542404,-0.57559764,0.6247668,0.015147516,0.5468749,-0.9740944,-2.0914986,-1.1350954,2.0305822,1.8813583,-0.89195776,0.6047812,-0.9336685,-2.0567791,-1.2004757,2.0797153,1.8238121,-0.8942469,-1.3091257,-0.8650325,-0.68340486,1.4181445,-0.8421856,0.49072513,-0.07358858,-0.22689438,-0.51848793,0.7199834,-1.5360607,0.09637858,-0.5061489,-0.21609879,-0.5578613,0.68579733,0.9223375,-0.013725071,0.1401852,0.359796,-1.334428,0.19140163,-0.29158363,0.0,1.0,0.0,0.0,0.0,0.0,0.0,-0.4231056,0.118487924,-0.16998339,-0.04374981,3.890562,1.2486339,0.7842064,0.1614213,-0.9850025,1.5433699
-3.6422195,57.18807,15.454236,13.7195635,0.4658612,0.3071397,0.12169428,-0.70640904,-0.48494756,-0.46586803,0.79476345,-0.59171236,0.61425775,0.15659995,0.5341403,-0.98216325,-2.103366,-1.1209993,2.020544,1.8852379,-0.8785869,0.591796,-0.94217527,-2.063932,-1.1862621,2.0712888,1.8286507,-0.8947635,-1.2920024,-0.8470229,-0.73641866,1.4202209,-0.8282737,0.46121144,-0.033430267,-0.2422409,-0.517519,0.71417916,-1.4521873,0.39313647,-0.2666304,-0.22936249,-0.5558348,0.6828399,0.9263996,-0.0133028235,0.14388813,0.34771097,-1.3242279,0.21115077,-0.30259869,0.0,1.0,0.0,0.0,0.0,0.0,0.0,-0.40775907,0.11751899,-0.16417915,1.9761562,1.5838623,-6.178248,0.03042221,2.680552,-5.00204,5.0213537
-26.323093,36.401352,1.129891,15.424392,1.090961,0.13813072,-0.107536286,-0.78801376,-0.49558023,-0.6355692,0.7834695,-0.60486335,0.5097177,0.19317983,0.5129946,-0.9917333,-2.1274889,-1.1079152,2.0108025,1.8796225,-0.87544554,0.57862574,-0.9506792,-2.0724845,-1.1720982,2.0629766,1.8331891,-0.8948723,-1.325001,-0.8520732,-0.8947749,1.4161721,-0.83250856,0.45081845,-0.0035427948,-0.2566452,-0.51379013,0.7111565,-1.4369724,0.3666632,-0.31509677,-0.24290848,-0.55364037,0.6794331,0.9303506,-0.011923414,0.14768139,0.33540383,-1.361445,0.23229627,-0.35575426,0.0,1.0,0.0,0.0,0.0,0.0,0.0,-0.39335477,0.113790125,-0.16115648,-3.1813383,-0.655818,-15.839397,-0.13129711,-0.48542023,-1.1266053,2.9135275
-26.298794,41.0999,2.5612612,16.05029,1.0264266,0.2693022,-0.09443776,-0.78127146,-0.461604,-0.6566017,0.78999925,-0.6077835,0.55922335,0.22901939,0.5004986,-0.9968396,-2.1381447,-1.0930983,2.0021982,1.8891115,-0.87197036,0.5651284,-0.9591392,-2.082643,-1.157959,2.0546112,1.8376783,-0.89468664,-1.3575815,-0.84459794,-1.0558602,1.4141569,-0.8382506,0.44770676,0.025514752,-0.2708969,-0.51035595,0.707712,-1.4215543,0.3359533,-0.3549374,-0.25678635,-0.5511837,0.6755409,0.9341972,-0.009581438,0.15171589,0.3227478,-1.3938884,0.26074034,-0.40257514,0.0,1.0,0.0,0.0,0.0,0.0,0.0,-0.37910306,0.11035594,-0.15771198,-3.1550646,0.56717396,-16.049873,0.060248375,-0.7007599,-0.44526458,2.79157
-23.836351,30.411144,0.11613512,12.403992,0.94163585,0.19207889,-0.0028344244,-0.7780823,-0.54033923,-0.6935706,0.78240144,-0.6150163,0.5698387,0.27041575,0.48732015,-1.0131731,-2.1520002,-1.0797188,1.9931096,1.8946621,-0.8676451,0.5513688,-0.967893,-2.0942128,-1.1438578,2.0461385,1.8421469,-0.8942183,-1.3816913,-0.88619953,-1.1904609,1.4098717,-0.85076034,0.44594753,0.053773273,-0.28504562,-0.507143,0.70370054,-1.4129584,0.31644753,-0.41645378,-0.27100754,-0.5484867,0.67103994,0.93790585,-0.0063128946,0.15582722,0.30985555,-1.4278061,0.28390115,-0.46804705,0.0,1.0,0.0,0.0,0.0,0.0,0.0,-0.36495435,0.107143015,-0.15370053,-2.300644,-4.3146253,-13.405728,-0.12142658,-1.3483524,-0.34325123,2.763278
-12.059328,40.584587,7.1427927,10.998451,0.6551785,0.32338834,0.14521644,-0.75681263,-0.53227276,-0.677466,0.7919105,-0.60998595,0.60662144,0.33905357,0.4756875,-1.0211203,-2.1619594,-1.0646667,1.98514,1.902809,-0.86031294,0.5375491,-0.97703683,-2.1066256,-1.1297567,2.0375626,1.8466579,-0.89345515,-1.3820442,-0.9243285,-1.2576692,1.4108549,-0.86055344,0.4522709,0.08345141,-0.29909897,-0.50420475,0.6992427,-1.4026233,0.28563088,-0.45423654,-0.2853775,-0.5455351,0.66603935,0.9413997,-0.0023961952,0.15991987,0.29696178,-1.4364717,0.310877,-0.5128576,0.0,1.0,0.0,0.0,0.0,0.0,0.0,-0.350901,0.104204744,-0.1492427,-0.03118515,-3.9715528,-6.4918995,0.28443336,-1.2157798,0.46369433,2.8736308
-6.3375926,40.153183,8.977952,8.961484,0.5510012,0.32795835,0.23201722,-0.7566517,-0.5808147,-0.681694,0.78869003,-0.6173764,0.58727854,0.3656495,0.4618839,-1.0351183,-2.174795,-1.0508877,1.975825,1.9053857,-0.8568902,0.5237932,-0.98671186,-2.1193552,-1.1156535,2.028884,1.8512166,-0.89240754,-1.3735143,-0.98233825,-1.2775327,1.4108425,-0.87108433,0.45676687,0.11163437,-0.3130722,-0.5015688,0.6944103,-1.3957536,0.25573492,-0.49136174,-0.29976273,-0.54233265,0.6606014,0.9446389,0.0019463076,0.16386916,0.28425407,-1.4361787,0.33561534,-0.5562603,0.0,1.0,0.0,0.0,0.0,0.0,0.0,-0.33692777,0.10156879,-0.14441031,0.81744194,-5.9413314,-1.6998291,0.15501976,-1.3356328,0.27850866,2.745566
4.7442446,54.132263,16.514639,8.768023,0.32284808,0.45623088,0.33179834,-0.7282942,-0.5655568,-0.6414262,0.79285705,-0.60974526,0.60898405,0.41190302,0.4509638,-1.0432675,-2.183498,-1.0363678,1.9679095,1.912115,-0.8512172,0.5102672,-0.99679315,-2.1318743,-1.101539,2.020144,1.855839,-0.8910766,-1.3460846,-1.0172802,-1.2417824,1.4116901,-0.87569857,0.46219185,0.14064838,-0.3269348,-0.49917603,0.6894094,-1.3792614,0.24197684,-0.50263464,-0.3139763,-0.5388708,0.6549311,0.94757926,0.0064371345,0.16766584,0.27191934,-1.4099662,0.36178857,-0.57283664,0.0,1.0,0.0,0.0,0.0,0.0,0.0,-0.32306516,0.09917602,-0.13940936,2.6022673,-3.64635,4.03738,0.10781288,-0.77403784,-0.019395351,3.00076
12.410118,61.172264,20.398802,7.9736986,0.0946708,0.4507394,0.39433512,-0.7003765,-0.5746055,-0.621548,0.79002124,-0.62920237,0.62447816,0.42455697,0.44022954,-1.0542537,-2.194029,-1.0225369,1.9572238,1.9182868,-0.84862095,0.49712807,-1.0071268,-2.143856,-1.0874323,2.0113425,1.8604835,-0.88945097,-1.3039124,-1.0393085,-1.1821272,1.4098783,-0.8834674,0.46505624,0.1693029,-0.34046936,-0.4966793,0.68433803,-1.3443891,0.25183806,-0.50655484,-0.3277893,-0.535182,0.6491888,0.9501936,0.010920404,0.17133753,0.26010814,-1.3668331,0.38334775,-0.5771997,0.0,1.0,0.0,0.0,0.0,0.0,0.0,-0.30953062,0.0966793,-0.13433802,4.0044546,-2.3449183,6.524205,-0.27649403,-1.2982368,0.20042062,2.7079253
15.385157,64.54763,22.052706,8.216656,0.15141413,0.41908276,0.39054766,-0.68008995,-0.5908708,-0.58348936,0.7967355,-0.6136806,0.606572,0.4449436,0.42911908,-1.0662138,-2.202205,-1.0077587,1.9499744,1.9211407,-0.84495664,0.4844446,-1.0176516,-2.1551201,-1.0733178,2.0025222,1.8651388,-0.8875535,-1.2572644,-1.0572935,-1.1058819,1.4115324,-0.8831797,0.46540514,0.1961119,-0.35363007,-0.49408722,0.6792773,-1.3060462,0.2611907,-0.50393665,-0.34114075,-0.5312958,0.64345956,0.95249695,0.015286192,0.17487743,0.248865,-1.3196576,0.40164036,-0.5738101,0.0,1.0,0.0,0.0,0.0,0.0,0.0,-0.2963699,0.09408721,-0.12927729,4.433489,-1.9407749,8.224678,0.04310608,-0.5344391,-0.048077106,2.5279074
9.731116,63.02611,19.679462,9.677907,0.35085684,0.40015143,0.32149124,-0.68205345,-0.60005134,-0.58537346,0.79681796,-0.6221372,0.5830798,0.48234388,0.41623923,-1.0776567,-2.2136574,-0.99363595,1.9403086,1.9234468,-0.8393191,0.47211874,-1.0283327,-2.1657703,-1.0591822,1.9936905,1.8697715,-0.88539195,-1.2249706,-1.0722775,-1.0499665,1.4141649,-0.8848271,0.46238586,0.22234873,-0.3664322,-0.49140835,0.6742027,-1.2709866,0.2699622,-0.5063539,-0.35409927,-0.52721405,0.6377377,0.9545307,0.019588515,0.17830141,0.2381093,-1.282696,0.4207922,-0.5740936,0.0,1.0,0.0,0.0,0.0,0.0,0.0,-0.2835678,0.09140834,-0.12420267,3.0440092,-1.650548,6.1404705,0.20308495,-0.6979704,-0.40582418,2.4865718
7.8149986,61.454872,18.237104,9.645109,0.40253747,0.34434366,0.2977063,-0.6663945,-0.6094695,-0.56539094,0.7852877,-0.61634153,0.54989815,0.4908604,0.40547928,-1.0892797,-2.2223094,-0.9806534,1.9320563,1.9247613,-0.8363059,0.46007043,-1.0391569,-2.1759589,-1.0450734,1.9848626,1.8743461,-0.88299096,-1.1986774,-1.0864271,-1.0068758,1.4096023,-0.8837271,0.45540395,0.2455841,-0.3788948,-0.48865414,0.6690694,-1.2375443,0.27726465,-0.51391625,-0.36671448,-0.52294827,0.6319789,0.95632976,0.023915205,0.18160158,0.22777697,-1.2494967,0.4383538,-0.57895607,0.0,1.0,0.0,0.0,0.0,0.0,0.0,-0.27110517,0.08865413,-0.1190694,2.4643183,-1.5645266,4.823804,-0.49221516,-0.40334463,-0.8157134,2.1969795
-2.0669353,53.280495,13.0252075,10.51208,0.6770523,0.31858256,0.2132962,-0.68482465,-0.64095336,-0.5753815,0.7815026,-0.61610305,0.52107173,0.51290214,0.39158797,-1.1032523,-2.2334971,-0.9669231,1.9232522,1.9264534,-0.83170074,0.44810793,-1.0502291,-2.1859262,-1.0310258,1.9760404,1.8788204,-0.8803715,-1.1957351,-1.1147445,-0.9921153,1.4032769,-0.88293374,0.44433957,0.26723513,-0.39109802,-0.48582935,0.66372013,-1.2142259,0.28433546,-0.5400971,-0.3791504,-0.51847744,0.62605214,0.95794505,0.02842251,0.1847243,0.21773921,-1.2359993,0.45946857,-0.59971875,0.0,1.0,0.0,0.0,0.0,0.0,0.0,-0.25890195,0.08582935,-0.11372012,0.2094984,-2.9796839,1.8652081,-0.55065155,-0.3265977,-1.2494028,2.091366
-3.3504202,52.106373,11.959301,10.373256,0.6720906,0.28819478,0.20582919,-0.67257464,-0.6493558,-0.56892025,0.77744824,-0.6203387,0.49002174,0.54046774,0.38085046,-1.1151646,-2.242818,-0.9532809,1.9140065,1.9278226,-0.82632476,0.43615973,-1.0615873,-2.1958363,-1.0170542,1.9672108,1.8831649,-0.8775403,-1.1947706,-1.1432863,-0.98956156,1.3955767,-0.88406825,0.43056083,0.28823096,-0.4030838,-0.48294163,0.658073,-1.1924206,0.29040796,-0.57088244,-0.39146423,-0.51379585,0.6198871,0.9593975,0.033210065,0.1876538,0.20794134,-1.2241691,0.48016438,-0.6244725,0.0,1.0,0.0,0.0,0.0,0.0,0.0,-0.24691617,0.08294162,-0.108072996,0.023293495,-3.0007124,0.6218314,-0.6704807,-0.50228834,-1.5278935,2.0284474
4.637191,57.1194,15.121991,9.257757,0.48380423,0.2737773,0.2554094,-0.63610476,-0.6533984,-0.5277634,0.7807877,-0.6236956,0.5217478,0.5452162,0.37254924,-1.1269271,-2.2486126,-0.93897545,1.9048412,1.9353397,-0.82301867,0.42436698,-1.073184,-2.2055824,-1.0031322,1.9583648,1.8874084,-0.87451744,-1.174522,-1.1656376,-0.96853375,1.3912424,-0.8862027,0.42184377,0.30673876,-0.41479874,-0.48000717,0.65218705,-1.1633877,0.2944359,-0.59216213,-0.403553,-0.5089483,0.6135419,0.96067727,0.038187534,0.19041273,0.19845375,-1.1980093,0.49518695,-0.6403143,0.0,1.0,0.0,0.0,0.0,0.0,0.0,-0.23520124,0.080007166,-0.10218704,1.8969297,-2.376914,2.559054,-0.41208267,-0.67231655,-1.0195196,1.754421
10.026553,59.124413,16.771833,8.0828495,0.38870758,0.21937609,0.28944468,-0.61763674,-0.66774833,-0.5022103,0.7715807,-0.6096381,0.48582548,0.5516866,0.3626033,-1.1399589,-2.2558033,-0.92597413,1.8974011,1.9359909,-0.8193488,0.41285795,-1.0849962,-2.2150154,-0.989278,1.9495434,1.8915526,-0.8713268,-1.1435305,-1.1868683,-0.93325424,1.3833308,-0.8823328,0.41151363,0.32300353,-0.42619705,-0.47705173,0.6461148,-1.1306233,0.29603297,-0.60965735,-0.41532898,-0.50399303,0.60706604,0.96178657,0.04325451,0.19297776,0.18935436,-1.1641389,0.5043923,-0.6524194,0.0,1.0,0.0,0.0,0.0,0.0,0.0,-0.22380292,0.07705173,-0.096114814,2.9407501,-2.2571564,4.0321827,-0.8152008,-0.11501312,-1.1890948,1.5285313
15.500224,60.121677,17.84138,6.496964,0.21418184,0.118626714,0.33365023,-0.58837634,-0.6752295,-0.49516422,0.7565454,-0.59729105,0.45202634,0.56227964,0.35402033,-1.1525192,-2.2645319,-0.91362345,1.8898143,1.9367552,-0.8150988,0.40175378,-1.0969933,-2.2241051,-0.9755631,1.9408027,1.8955806,-0.8679846,-1.099952,-1.2043374,-0.8991765,1.367323,-0.87279123,0.3993615,0.3376084,-0.43724442,-0.47410488,0.63988316,-1.0947945,0.29448995,-0.6256353,-0.42669296,-0.49900055,0.6004695,0.9627318,0.0483761,0.19531661,0.18071716,-1.1225404,0.50584173,-0.66435295,0.0,1.0,0.0,0.0,0.0,0.0,0.0,-0.21275556,0.074104875,-0.08988315,4.1740656,-1.8719673,3.9388537,-1.6675949,0.4278183,-1.3752878,1.3520241
21.776905,62.970642,19.775414,5.442735,0.09233543,0.05121082,0.37044322,-0.5506985,-0.6800593,-0.46077597,0.7500936,-0.58898103,0.44058982,0.5760646,0.34668392,-1.1649992,-2.2701826,-0.90055376,1.8819046,1.9396397,-0.81037813,0.39118654,-1.1091298,-2.2327754,-0.9620237,1.9321821,1.8994906,-0.86450326,-1.0430511,-1.2172366,-0.85431665,1.3491199,-0.86026776,0.38773116,0.3512434,-0.44789886,-0.47119617,0.63353884,-1.0540662,0.28980136,-0.6354339,-0.43758774,-0.4940462,0.5937932,0.96351826,0.053483244,0.19742206,0.17261672,-1.0722682,0.4998112,-0.67113924,0.0,1.0,0.0,0.0,0.0,0.0,0.0,-0.20210111,0.07119617,-0.08353883,5.475068,-1.4102936,5.0717354,-1.9357443,0.6770134,-1.3229668,1.2434125
25.541996,60.614643,19.849522,3.4431643,0.10342616,-0.07489985,0.39787847,-0.5243425,-0.70047224,-0.42116717,0.7110022,-0.5128701,0.31898212,0.5740627,0.3387523,-1.179177,-2.274892,-0.89092344,1.880895,1.9313889,-0.807097,0.38120484,-1.1214417,-2.2409003,-0.9488132,1.923897,1.9032038,-0.8609027,-0.9839112,-1.2362711,-0.7967245,1.3112899,-0.81975806,0.36540666,0.3626627,-0.45815277,-0.46835327,0.6270663,-1.0146049,0.28212464,-0.6488427,-0.44797897,-0.48919487,0.58702475,0.9641909,0.058498427,0.19912745,0.16511203,-1.0217088,0.48722464,-0.68112993,0.0,1.0,0.0,0.0,0.0,0.0,0.0,-0.1918472,0.068353266,-0.0770663,5.695927,-2.0094633,6.3367367,-3.9095879,3.4665704,-2.3953974,1.0455787
19.504452,60.551266,18.135622,5.158163,0.3825366,-0.10598713,0.3304057,-0.5216394,-0.6980189,-0.42111528,0.6919701,-0.46645242,0.16648994,0.59603256,0.3290409,-1.1912436,-2.283012,-0.8796162,1.8772517,1.9198529,-0.80129945,0.37168846,-1.1338967,-2.2485633,-0.9360214,1.9161279,1.9065874,-0.85718703,-0.94150406,-1.2489522,-0.75425416,1.2682468,-0.7643103,0.32882723,0.37431544,-0.46803284,-0.46557903,0.6204358,-0.9784042,0.2755922,-0.6654747,-0.4579506,-0.4844389,0.58015394,0.96479875,0.06347075,0.20032795,0.15812452,-0.9824833,0.47834522,-0.6912344,0.0,1.0,0.0,0.0,0.0,0.0,0.0,-0.18196714,0.06557903,-0.07043576,4.0620685,-1.3801813,4.7647357,-4.380679,4.998982,-3.8242877,1.089561
23.407505,69.51265,22.064215,6.2365856,0.8068608,-0.06169027,0.2996518,-0.50025415,-0.6868544,-0.292985,0.6471373,-0.33278954,-0.06798744,0.59868157,0.32166305,-1.2025821,-2.2778618,-0.8713077,1.882849,1.8997886,-0.7973189,0.36254123,-1.1463803,-2.255345,-0.92378753,1.9092449,1.909453,-0.85336465,-0.90642893,-1.248548,-0.6505279,1.2079685,-0.665006,0.2718228,0.38479412,-0.47750854,-0.46288013,0.61377645,-0.936073,0.26756954,-0.6639283,-0.46749878,-0.47976398,0.5733533,0.9654181,0.0681693,0.20082012,0.15163158,-0.9406297,0.4700733,-0.67846686,0.0,1.0,0.0,0.0,0.0,0.0,0.0,-0.17249143,0.06288013,-0.06377643,3.3020735,-0.07352829,10.984219,-6.159115,9.271526,-5.874288,0.99422336
9.546459,66.41434,18.525059,9.043174,1.6299437,0.009716511,0.1451032,-0.54440653,-0.69698596,-0.2646732,0.58270717,-0.11990584,-0.31426442,0.6057621,0.30810058,-1.2160789,-2.2818124,-0.86551684,1.8972543,1.8780266,-0.79278845,0.35341975,-1.1588696,-2.2610784,-0.9123424,1.9038736,1.9115899,-0.849445,-0.91447747,-1.2494254,-0.54621434,1.1231704,-0.49617743,0.19357999,0.394497,-0.48664856,-0.4602251,0.6070552,-0.90586096,0.26465827,-0.67377776,-0.47682953,-0.47504234,0.56667024,0.96617514,0.07245662,0.2002449,0.14545612,-0.92648566,0.47845104,-0.6671452,0.0,1.0,0.0,0.0,0.0,0.0,0.0,-0.16335142,0.0602251,-0.057055175,-0.9280801,-0.19869804,10.893715,-8.510208,16.339375,-8.0191765,0.9992361
