Afshin1997/kuka_rl_ros2/src/catch_and_throw/input_files/idealpd/polynomial_regressor/optimizer_files/env_471_data.csv
torque0,torque1,torque2,torque3,torque4,torque5,torque6,action0,action1,action2,action3,action4,action5,action6,set_target_0,set_target_1,set_target_2,set_target_3,set_target_4,set_target_5,set_target_6,joint_pos_0,joint_pos_1,joint_pos_2,joint_pos_3,joint_pos_4,joint_pos_5,joint_pos_6,joint_vel_0,joint_vel_1,joint_vel_2,joint_vel_3,joint_vel_4,joint_vel_5,joint_vel_6,tennisball_pos_0,tennisball_pos_1,tennisball_pos_2,tennisball_lin_vel_0,tennisball_lin_vel_1,tennisball_lin_vel_2,end_effector_pos_0,end_effector_pos_1,end_effector_pos_2,end_effector_rot_0,end_effector_rot_1,end_effector_rot_2,end_effector_rot_3,end_effector_lin_vel_0,end_effector_lin_vel_1,end_effector_lin_vel_2,obs_task_0,obs_task_1,obs_task_2,obs_task_3,obs_task_4,obs_task_5,obs_task_6,to_final_target_0,to_final_target_1,to_final_target_2,joint_acc_0,joint_acc_1,joint_acc_2,joint_acc_3,joint_acc_4,joint_acc_5,joint_acc_6
0.0,0.0,0.0,0.0,0.0,0.0,0.0,0.0,0.0,0.0,0.0,0.0,0.0,0.0,1.7802359,-1.0646509,-1.8151424,-1.1170107,1.9373155,1.1170107,-0.91629785,1.7802359,-1.0646509,-1.8151424,-1.1170107,1.9373155,1.1170107,-0.91629785,0.0,0.0,0.0,0.0,0.0,0.0,0.0,2.8333893,-0.55306053,0.1919959,-3.0869527,-0.16710702,5.4372153,0.5304184,-0.45449448,0.693097,0.5745483,0.17512383,0.15255436,0.7848268,0.0,0.0,0.0,1.0,0.0,0.0,0.0,0.0,0.0,0.0,-3.4833894,0.15306053,0.3580041,0.0,0.0,0.0,0.0,0.0,0.0,0.0
0.0,0.0,0.0,0.0,0.0,0.0,0.0,0.0,0.0,0.0,0.0,0.0,0.0,0.0,1.7802359,-1.0646509,-1.8151424,-1.1170107,1.9373155,1.1170107,-0.91629785,1.7802359,-1.0646509,-1.8151424,-1.1170107,1.9373155,1.1170107,-0.91629785,0.0,0.0,0.0,0.0,0.0,0.0,0.0,2.8333893,-0.55306053,0.1919959,-3.0869527,-0.16710702,5.4372153,0.5304184,-0.45449448,0.693097,0.5745483,0.17512383,0.15255436,0.7848268,0.0,0.0,0.0,1.0,0.0,0.0,0.0,0.0,0.0,0.0,-3.4833894,0.15306053,0.3580041,0.0,0.0,0.0,0.0,0.0,0.0,0.0
0.0,0.0,0.0,0.0,0.0,0.0,0.0,0.0,0.0,0.0,0.0,0.0,0.0,0.0,1.7802359,-1.0646509,-1.8151424,-1.1170107,1.9373155,1.1170107,-0.91629785,1.7802359,-1.0646509,-1.8151424,-1.1170107,1.9373155,1.1170107,-0.91629785,0.0,0.0,0.0,0.0,0.0,0.0,0.0,2.8333893,-0.55306053,0.1919959,-3.0869527,-0.16710702,5.4372153,0.5304184,-0.45449448,0.693097,0.5745483,0.17512383,0.15255436,0.7848268,0.0,0.0,0.0,1.0,0.0,0.0,0.0,0.0,0.0,0.0,-3.4833894,0.15306053,0.3580041,0.0,0.0,0.0,0.0,0.0,0.0,0.0
-176.0,53.07688,-12.17263,110.0,10.391952,4.2119126,-3.906567,-0.7932712,0.26186866,-0.54454195,0.7544431,-0.038360436,0.6893736,-0.5703026,1.7009088,-1.0384641,-1.8695966,-1.0415664,1.9334794,1.1859481,-0.9733281,1.7789847,-1.0628713,-1.820977,-1.111138,1.9399304,1.1219908,-0.9171342,-0.16644844,0.23665516,-0.7777789,0.7837181,0.34839255,0.66277,-0.11112666,2.8025436,-0.5547304,0.2455908,-3.0838664,-0.16693994,5.333593,0.5283127,-0.45788288,0.6938119,0.57855374,0.17341627,0.15185304,0.78239566,-0.27987143,-0.45216897,0.095129065,1.0,0.0,0.0,0.0,0.0,0.0,0.0,-3.4525437,0.15473041,0.3044092,-16.532734,23.48513,-77.721924,78.51973,34.70754,65.8861,-10.999476
-176.0,-54.08256,-52.686317,101.88542,11.169979,0.3923543,-3.0636907,-0.78316915,-0.30043283,-0.56882834,0.7207736,-0.07772823,0.6666099,-0.54882747,1.7006677,-1.0929146,-1.8778598,-1.0390606,1.9321576,1.1886518,-0.972017,1.7772204,-1.0614599,-1.8354747,-1.0956732,1.9443974,1.1342455,-0.9166116,-0.17705369,0.10820026,-1.6768742,1.8048493,0.4814148,1.4100907,0.1096051,2.7717285,-0.5563984,0.29815027,-3.0807831,-0.16677304,5.2300744,0.52373505,-0.46654892,0.6941364,0.58709186,0.16981885,0.1499406,0.7771759,-0.51876354,-1.0034748,0.012221424,1.0,0.0,0.0,0.0,0.0,0.0,0.0,-3.4217286,0.15639839,0.25184974,-0.22399724,-13.157387,-90.86995,103.29621,13.857222,73.786804,22.933365
-147.88641,72.404724,18.309994,81.0492,7.9986672,6.492039,-1.4772229,-0.74427074,0.022698937,0.20343523,0.6996544,0.033220794,0.711265,-0.472911,1.7027932,-1.05919,-1.8151312,-1.0257077,1.9477196,1.205372,-0.9639027,1.7722975,-1.0607752,-1.8496807,-1.075852,1.9486852,1.1482893,-0.9157724,-0.5968778,0.05261708,-1.3300304,2.0434244,0.40635237,1.3980048,0.07553166,2.740944,-0.55806446,0.34967536,-3.077703,-0.1666063,5.126659,0.51639557,-0.47823238,0.69546396,0.59824693,0.16478255,0.14677577,0.7703273,-0.81286705,-1.2160456,0.17629011,1.0,0.0,0.0,0.0,0.0,0.0,0.0,-3.390944,0.15806445,0.20032465,-41.823822,-6.302835,36.21681,24.54927,-9.019774,-2.532792,-3.354457
-94.94161,63.42147,26.28915,46.710064,5.559815,6.201273,0.11592965,-0.7540957,-0.21942797,0.31789806,0.70459956,0.16928148,0.6857371,-0.5433093,1.696888,-1.082718,-1.8178909,-1.0053921,1.9656134,1.216863,-0.9701033,1.7632529,-1.0616716,-1.8575962,-1.0561548,1.952229,1.1614596,-0.91546243,-1.0070227,-0.13833402,-0.60598737,1.9467609,0.33107162,1.287752,0.016606083,2.7101898,-0.5597296,0.40016705,-3.074626,-0.16643973,5.0233474,0.5065994,-0.49098682,0.6980737,0.61002606,0.15874507,0.14173938,0.76326805,-1.0463163,-1.2838833,0.2923151,1.0,0.0,0.0,0.0,0.0,0.0,0.0,-3.36019,0.15972957,0.14983296,-41.070152,-19.533205,74.18448,-9.234166,-9.31881,-11.724782,-5.743039
-37.68163,119.23728,50.048565,27.00589,2.6255932,6.918248,0.63670653,-0.76998836,0.028603544,0.35448262,0.7028372,0.2926088,0.7038398,-0.5517944,1.686254,-1.0588113,-1.8221478,-0.98587114,1.9814899,1.2318436,-0.97064185,1.7508551,-1.063125,-1.8581779,-1.0385977,1.9554391,1.173369,-0.915801,-1.3180913,-0.1490443,0.12989607,1.6918004,0.31239858,1.1574287,-0.051466253,2.6794662,-0.5613928,0.4496264,-3.071552,-0.16627333,4.920139,0.4949646,-0.5032511,0.7022719,0.62134254,0.15163013,0.13502944,0.75677526,-1.2130585,-1.1950885,0.46222606,1.0,0.0,0.0,0.0,0.0,0.0,0.0,-3.3294663,0.16139278,0.100373626,-31.31771,-1.5329957,75.294426,-25.537014,-3.426063,-13.415742,-7.0491815
-5.089246,122.949455,46.981075,13.50242,0.6460675,5.0851727,0.535353,-0.7847451,0.10424958,0.23455304,0.68788856,0.38915086,0.6823814,-0.5814707,1.6723806,-1.0527,-1.8347226,-0.9698088,1.9943541,1.2416072,-0.97394806,1.7363611,-1.0639089,-1.8536499,-1.0236307,1.9589448,1.1840693,-0.91678995,-1.4938744,-0.05601579,0.56368685,1.4312301,0.3603107,1.0408236,-0.11581749,2.6487732,-0.5630541,0.49805441,-3.068481,-0.16610709,4.8170333,0.48227692,-0.51433086,0.707826,0.63194567,0.14376855,0.12746446,0.7508182,-1.3007759,-1.0674264,0.5837786,1.0,0.0,0.0,0.0,0.0,0.0,0.0,-3.2987733,0.16305408,0.051945597,-17.765617,8.9506235,44.39479,-26.16005,3.9514363,-11.680055,-6.7451897
9.024112,139.70518,44.974705,11.291385,-0.9336654,3.761913,-0.10840741,-0.8065371,0.3415618,0.013351269,0.68200725,0.40296814,0.67491287,-0.57819337,1.6557075,-1.0297527,-1.8523147,-0.95543003,1.9992416,1.2515606,-0.97460926,1.7208849,-1.0625013,-1.8477733,-1.0107332,1.9630685,1.1937414,-0.9183559,-1.566233,0.20529787,0.59754795,1.2426288,0.42873034,0.9432153,-0.17154501,2.6181107,-0.5647135,0.5454522,-3.0654132,-0.16594101,4.7140307,0.46910858,-0.5240135,0.71446997,0.6422003,0.13555256,0.120411165,0.7447854,-1.3334836,-0.9244671,0.6880023,1.0,0.0,0.0,0.0,0.0,0.0,0.0,-3.2681108,0.16471347,0.0045478344,-7.455325,25.825369,3.9058447,-18.889952,6.568134,-9.571028,-5.955887
14.026737,134.26863,37.606068,9.983696,-1.7282965,2.3697388,-0.550663,-0.8138314,0.4688797,-0.13987273,0.66408974,0.41202497,0.6628222,-0.57599884,1.6395018,-1.0156133,-1.8617606,-0.94432425,2.004271,1.2600237,-0.9759558,1.7051989,-1.0580572,-1.8436286,-0.9991251,1.967854,1.2025553,-0.9204082,-1.57001,0.5234387,0.35433355,1.1333569,0.4950726,0.86142206,-0.21763344,2.5874786,-0.5663719,0.5918207,-3.0623484,-0.1657751,4.611131,0.45588684,-0.5323782,0.72189176,0.6525271,0.12735413,0.11492895,0.7380925,-1.3269836,-0.79548234,0.75734955,1.0,0.0,0.0,0.0,0.0,0.0,0.0,-3.2374787,0.16637191,-0.041820705,-0.6197691,31.577188,-24.049128,-10.970092,6.6152334,-7.980156,-4.960379
13.722274,123.693504,32.489674,10.59287,-1.6694343,1.7053422,-0.68779266,-0.82338685,0.5570412,-0.1918388,0.65357095,0.43409902,0.6509364,-0.5651266,1.6228602,-1.0023531,-1.8628125,-0.93376803,2.0112638,1.2676489,-0.97692084,1.6896902,-1.0505918,-1.8425167,-0.9881207,1.9732423,1.2106425,-0.9228515,-1.5452143,0.8203403,0.031060651,1.0890781,0.5533723,0.7912602,-0.2541971,2.5568771,-0.56802845,0.637161,-3.0592866,-0.16560936,4.5083346,0.4428177,-0.5396242,0.7298713,0.6631432,0.119363636,0.111329004,0.73047876,-1.3085215,-0.68818396,0.8095664,1.0,0.0,0.0,0.0,0.0,0.0,0.0,-3.2068772,0.16802844,-0.087161005,2.2542715,29.49121,-32.096977,-4.5566797,5.848205,-6.9746614,-3.9756207
14.15459,109.42501,29.11297,10.327021,-1.2150452,1.4470321,-0.5558044,-0.8151464,0.6095845,-0.20277964,0.6460195,0.46993098,0.648746,-0.5581401,1.6081756,-0.9896334,-1.8627946,-0.9235187,2.0202353,1.2755171,-0.97866553,1.6745249,-1.040706,-1.8442295,-0.97726023,1.9791799,1.2181078,-0.92560285,-1.507684,1.0440449,-0.2378265,1.0842602,0.6071567,0.7313845,-0.2831664,2.5263062,-0.5696831,0.6814741,-3.056228,-0.1654438,4.405641,0.42990875,-0.54595184,0.73828864,0.67402506,0.11158567,0.109303415,0.72200525,-1.2904186,-0.6000948,0.8514799,1.0,0.0,0.0,0.0,0.0,0.0,0.0,-3.1763062,0.16968307,-0.13147408,3.5522223,22.197224,-26.601887,-0.70455074,5.358553,-6.097722,-3.2130122
13.482679,94.55438,26.178354,9.699662,-0.7005181,1.3609705,-0.34828076,-0.808488,0.6460001,-0.21990708,0.63475215,0.48950782,0.66046995,-0.55826396,1.5936761,-0.97610605,-1.8662201,-0.91378504,2.0281305,1.2841548,-0.9814292,1.6597201,-1.0292047,-1.8479125,-0.9663445,1.9855866,1.2250563,-0.9286031,-1.4720546,1.1850127,-0.41053587,1.0930115,0.6516128,0.6821842,-0.3066853,2.4957657,-0.57133675,0.724761,-3.0531723,-0.16527838,4.30305,0.4171219,-0.55152035,0.74703735,0.68502957,0.10395136,0.10832691,0.71287715,-1.2783175,-0.527351,0.88262206,1.0,0.0,0.0,0.0,0.0,0.0,0.0,-3.1457658,0.17133674,-0.174761,3.3771276,13.949561,-16.91398,0.60133934,4.3926954,-5.097568,-2.6737154
11.835508,82.45734,23.981916,9.104263,-0.23341164,1.3830326,-0.13474797,-0.81072646,0.67000574,-0.21952017,0.6146342,0.5146181,0.6649213,-0.5669759,1.5786474,-0.96220416,-1.8698646,-0.90488106,2.0370483,1.2915484,-0.9853007,1.6451708,-1.0168146,-1.8525741,-0.95539916,1.9923959,1.2315813,-0.9318122,-1.4498491,1.2564912,-0.4832778,1.0940908,0.6904135,0.64204395,-0.3268056,2.4652557,-0.5729885,0.7670228,-3.0501199,-0.16511314,4.2005615,0.4044037,-0.5564394,0.75602424,0.6959799,0.09638004,0.107878864,0.7033385,-1.2744235,-0.46494403,0.90448385,1.0,0.0,0.0,0.0,0.0,0.0,0.0,-3.1152558,0.1729885,-0.21702278,2.0341873,7.023573,-6.833702,-0.17921925,3.7923694,-4.200852,-2.3410797
10.806517,73.81243,22.087547,8.526951,0.018038869,1.3507782,-0.0013549253,-0.80501586,0.68867314,-0.23337525,0.6062786,0.522373,0.67711544,-0.5640888,1.5646693,-0.94794726,-1.8759116,-0.8947713,2.0446332,1.2992929,-0.9882211,1.630776,-1.0040468,-1.8575084,-0.94449675,1.9995179,1.2377707,-0.9351949,-1.436675,1.2832963,-0.495288,1.0880336,0.7190707,0.6106353,-0.34317204,2.4347763,-0.57463837,0.80826044,-3.0470703,-0.16494805,4.0981755,0.39169312,-0.5607872,0.7651592,0.706746,0.0888147,0.107616134,0.69357103,-1.2744195,-0.408839,0.9173696,1.0,0.0,0.0,0.0,0.0,0.0,0.0,-3.0847764,0.17463836,-0.25826043,1.1328459,2.5768518,-0.7186353,-0.89051723,2.7662396,-3.3002377,-1.9687474
9.485597,68.975624,20.82492,8.585741,0.17369634,1.3331054,0.06306119,-0.8035369,0.7003288,-0.23379187,0.6013271,0.5266761,0.67997116,-0.5633736,1.5504223,-0.9340139,-1.8808876,-0.884364,2.0521855,1.3057678,-0.99153227,1.6164519,-0.991189,-1.8623073,-0.93368495,2.0068533,1.243693,-0.93871874,-1.4315069,1.2863866,-0.47305205,1.0779476,0.73811597,0.58564925,-0.35653886,2.4043274,-0.5762863,0.84847504,-3.044024,-0.16478314,3.995892,0.3789444,-0.56460285,0.77438444,0.71726006,0.081213266,0.10736286,0.68367803,-1.2772894,-0.35651213,0.9250275,1.0,0.0,0.0,0.0,0.0,0.0,0.0,-3.0543275,0.17628631,-0.29847503,0.33388138,0.21636486,2.7316809,-1.283288,1.7985225,-2.6371717,-1.6682208
8.300103,66.780655,19.871813,8.824959,0.22252959,1.2949373,0.07814731,-0.8050865,0.71051925,-0.23690267,0.5916471,0.53366685,0.6840238,-0.5637434,1.5359433,-0.92013705,-1.8859975,-0.87452024,2.06022,1.3120954,-0.9950931,1.6021315,-0.97835064,-1.8668277,-0.92300856,2.0143378,1.2494055,-0.942357,-1.4327028,1.2827013,-0.44320634,1.0633855,0.75122225,0.5659654,-0.36744568,2.373909,-0.5779333,0.88766754,-3.0409806,-0.16461839,3.8937113,0.3661728,-0.5679083,0.783659,0.7274969,0.0735586,0.10706693,0.6737017,-1.2810293,-0.30592477,0.928849,1.0,0.0,0.0,0.0,0.0,0.0,0.0,-3.023909,0.1779333,-0.33766752,-0.30136108,-0.45394897,3.4934223,-1.7237663,1.2073278,-2.0872831,-1.4147282
8.794893,67.026566,19.834545,8.819643,0.2183857,1.2909973,0.10479245,-0.8039079,0.71576697,-0.2188959,0.5797152,0.54924613,0.6839839,-0.56020045,1.5217407,-0.9067739,-1.8887173,-0.865037,2.0692625,1.3178039,-0.998377,1.5877863,-0.96554756,-1.8709991,-0.9125086,2.021952,1.2549483,-0.9460878,-1.4356669,1.2791723,-0.4067118,1.0445755,0.7645476,0.5501163,-0.376036,2.343521,-0.5795784,0.925839,-3.03794,-0.1644538,3.7916327,0.35334778,-0.57069683,0.792974,0.737435,0.065831415,0.10671146,0.663678,-1.2834597,-0.2535888,0.93262637,1.0,0.0,0.0,0.0,0.0,0.0,0.0,-2.9935212,0.1795784,-0.375839,-0.48160553,-0.4357338,4.17192,-2.1447659,1.2257576,-1.693821,-1.183492
7.977266,67.219315,19.316286,9.623978,0.197999,1.2479424,0.056364115,-0.802676,0.72188383,-0.22431923,0.5864485,0.5335688,0.6918622,-0.5570129,1.5075188,-0.8933592,-1.8934311,-0.8538638,2.0753088,1.3241345,-1.0017891,1.5734183,-0.9527464,-1.8749053,-0.90212977,2.0296233,1.2603613,-0.9498901,-1.4379319,1.2801547,-0.38356847,1.0348091,0.7675619,0.53801554,-0.38262972,2.3131638,-0.5812216,0.96299046,-3.0349028,-0.16428939,3.689656,0.34052277,-0.5729618,0.8023276,0.7470988,0.058012456,0.106354214,0.65357995,-1.2852404,-0.20196672,0.93626374,1.0,0.0,0.0,0.0,0.0,0.0,0.0,-2.9631639,0.18122157,-0.41299045,-0.40545464,0.016093254,2.8155625,-1.2309074,0.20838976,-1.3166189,-0.97495914
7.163387,66.536934,18.486805,10.109985,0.1851821,1.162091,0.020367905,-0.8039616,0.7257841,-0.23232847,0.5834684,0.53734154,0.6974467,-0.5523281,1.4930221,-0.88016796,-1.8981382,-0.8437829,2.0833573,1.330106,-1.0051229,1.5590273,-0.939908,-1.8787105,-0.8918158,2.037306,1.2656752,-0.9537439,-1.4400948,1.2848319,-0.37784654,1.0293797,0.76858175,0.52888066,-0.38739702,2.282837,-0.58286285,0.9991229,-3.0318685,-0.16412513,3.5877814,0.32767487,-0.5747309,0.81170213,0.7565217,0.050109018,0.1060676,0.6433611,-1.285977,-0.15228066,0.9376139,1.0,0.0,0.0,0.0,0.0,0.0,0.0,-2.932837,0.18286285,-0.4491229,-0.39141178,0.3877163,1.0534704,-0.794816,0.021803379,-1.0167837,-0.785172
8.098995,69.21046,19.330273,10.48696,0.19207698,1.2355618,0.04403995,-0.8062108,0.73329264,-0.19965304,0.5753779,0.54759806,0.69378215,-0.55045563,1.4784062,-0.86657876,-1.8986758,-0.834278,2.0920658,1.3350534,-1.0087894,1.5446097,-0.92698765,-1.8823726,-0.8815628,2.0450194,1.270909,-0.9576368,-1.4429674,1.2942172,-0.36060202,1.0231798,0.77188826,0.5210536,-0.39103618,2.2525406,-0.5845032,1.0342374,-3.0288372,-0.16396104,3.4860086,0.3148117,-0.5759659,0.82112974,0.76569295,0.042086724,0.105843365,0.6330403,-1.2859784,-0.09810903,0.94396305,1.0,0.0,0.0,0.0,0.0,0.0,0.0,-2.9025407,0.18450317,-0.48423737,-0.47278404,0.8533716,2.2435188,-0.86710453,0.228858,-0.8999944,-0.6779134
9.975668,69.44026,19.397396,9.689787,0.10063225,1.1957904,0.09006675,-0.8064501,0.735767,-0.18366106,0.55629086,0.55168146,0.6982215,-0.5464186,1.4639647,-0.85341096,-1.9007387,-0.82593375,2.1001875,1.3407311,-1.0122787,1.5301672,-0.91397095,-1.8858135,-0.87144434,2.0527747,1.2760798,-0.96155924,-1.4452498,1.3039019,-0.33672044,1.007278,0.77648765,0.51531774,-0.3936082,2.2222748,-0.5861416,1.0683348,-3.025809,-0.16379711,3.3843377,0.30197144,-0.5766344,0.8306106,0.77457315,0.03393422,0.10566752,0.622671,-1.2810516,-0.04044273,0.9487124,1.0,0.0,0.0,0.0,0.0,0.0,0.0,-2.8722749,0.18614158,-0.5183348,-0.4199028,0.88875294,2.9251814,-1.8414497,0.35595894,-0.664711,-0.57617426
14.306981,71.00878,20.285067,8.015985,-0.06593484,1.177129,0.1875076,-0.80013865,0.7410144,-0.14486255,0.5283603,0.5633232,0.6951046,-0.5397857,1.4501534,-0.8398695,-1.9002998,-0.8186083,2.109107,1.3455902,-1.0155379,1.5157381,-0.90085316,-1.888869,-0.86159956,2.0606062,1.281201,-0.9654979,-1.4427314,1.314072,-0.2932588,0.9760199,0.7847151,0.5107708,-0.39508274,2.1920395,-0.5877781,1.1014163,-3.0227838,-0.16363335,3.2827682,0.28926086,-0.57667446,0.840142,0.78308135,0.02563849,0.10549648,0.6123698,-1.2671669,0.024305101,0.95356464,1.0,0.0,0.0,0.0,0.0,0.0,0.0,-2.8420396,0.18777809,-0.55141634,0.052404404,0.9448528,4.916996,-3.3807158,0.7013321,-0.50758123,-0.47634244
15.355974,70.26004,19.983086,7.4706573,-0.12617308,1.1052969,0.2199226,-0.8025445,0.74333364,-0.12078852,0.51079357,0.5581061,0.6966812,-0.53115916,1.4354837,-0.8265198,-1.9009479,-0.81052023,2.116417,1.3508692,-1.0186138,1.50133,-0.8876486,-1.8914363,-0.8521143,2.068495,1.286286,-0.96944135,-1.4408137,1.3224128,-0.24256913,0.938561,0.7897361,0.5075772,-0.39523616,2.1618347,-0.5894127,1.1334829,-3.0197616,-0.16346975,3.1813004,0.27671814,-0.57605934,0.8497056,0.7911765,0.017198384,0.10531724,0.602206,-1.2490869,0.0895186,0.9558746,1.0,0.0,0.0,0.0,0.0,0.0,0.0,-2.8118348,0.18941268,-0.5834829,-0.0041484833,0.77109337,5.6325583,-3.993702,0.38648844,-0.34041405,-0.33712387
17.00927,68.62718,19.34029,6.0835285,-0.24933058,0.9596032,0.2730836,-0.8042101,0.7487175,-0.09996588,0.46668914,0.57781047,0.69917834,-0.52539897,1.420909,-0.8127768,-1.9014329,-0.80544543,2.126276,1.3562038,-1.0219812,1.4869295,-0.87436104,-1.8935001,-0.84313834,2.0764754,1.2913481,-0.97338,-1.4403824,1.3307282,-0.19253965,0.88310474,0.8006399,0.5058773,-0.39450926,2.1316605,-0.59104633,1.1645356,-3.0167425,-0.16330631,3.079934,0.2644043,-0.57479286,0.8592476,0.7988227,0.008658525,0.10512688,0.5922462,-1.2240089,0.15432417,0.95181483,1.0,0.0,0.0,0.0,0.0,0.0,0.0,-2.7816606,0.19104633,-0.6145356,-0.15063286,0.7831812,5.5478754,-5.7947993,0.98888874,-0.13568401,-0.23825765
16.768633,66.50248,18.26587,6.0013123,-0.2807434,0.799238,0.25322312,-0.7998538,0.7531373,-0.09520419,0.45180166,0.57733184,0.70064557,-0.510246,1.4069442,-0.7990473,-1.9030205,-0.7979582,2.1342087,1.3614126,-1.0244046,1.47255,-0.8609915,-1.8951728,-0.83469164,2.084555,1.2963988,-0.9772987,-1.4378024,1.3388969,-0.15721527,0.8310241,0.81004214,0.50512356,-0.39202616,2.1015167,-0.59267807,1.1945754,-3.0137262,-0.16314304,2.978669,0.25234222,-0.5729122,0.868721,0.80603075,6.261268e-05,0.104956806,0.58249325,-1.1959602,0.21430288,0.94361115,1.0,0.0,0.0,0.0,0.0,0.0,0.0,-2.7515168,0.19267806,-0.6445754,0.08022785,0.78127384,4.018545,-5.4478526,0.86836815,-0.011622906,-0.041353703
22.729727,65.861206,18.416685,2.1348257,-0.6607268,0.602863,0.40266928,-0.7961199,0.76165015,-0.051478513,0.35180086,0.60873973,0.6947678,-0.5092736,1.392938,-0.78482646,-1.9003206,-0.79951155,2.145429,1.3658755,-1.028226,1.4582106,-0.8475218,-1.8964183,-0.82710135,2.0928023,1.3014456,-0.9811925,-1.4331851,1.3496964,-0.112171024,0.734162,0.82945603,0.50512767,-0.389504,2.0714035,-0.5943079,1.2236032,-3.010713,-0.16297993,2.877505,0.24069977,-0.57039356,0.878046,0.8127174,-0.00850399,0.10481129,0.5730904,-1.1501368,0.27898398,0.9262734,1.0,0.0,0.0,0.0,0.0,0.0,0.0,-2.7214036,0.1943079,-0.67360324,0.28104782,1.0657549,4.992202,-9.936798,1.8710852,0.16688108,-0.032907724
24.018578,69.01662,19.614666,2.7111773,-0.6147452,0.6737246,0.44113642,-0.79370433,0.77088064,0.013958639,0.3298867,0.60997254,0.69504356,-0.4890258,1.3788402,-0.7704337,-1.8950225,-0.7941127,2.1537995,1.37095,-1.0300951,1.4439226,-0.83392143,-1.8970115,-0.8204428,2.101229,1.3064944,-0.9850492,-1.4276901,1.3634346,-0.040033497,0.64245147,0.84674144,0.50528044,-0.3852081,2.0413208,-0.5959368,1.2516202,-3.007703,-0.16281699,2.7764423,0.22951508,-0.56719494,0.88725615,0.8188398,-0.017082354,0.10464204,0.5641449,-1.103258,0.34683532,0.9163968,1.0,0.0,0.0,0.0,0.0,0.0,0.0,-2.691321,0.19593677,-0.70162016,0.37884712,1.3636112,7.6899247,-9.389877,1.6744971,0.17774105,0.15312433
27.109089,68.696495,19.895899,0.98659706,-0.7399459,0.5734113,0.54049313,-0.7911721,0.77296746,0.07565214,0.25090295,0.63070303,0.6875881,-0.47767973,1.3648055,-0.7566247,-1.8894463,-0.7953525,2.1642992,1.3752532,-1.0328171,1.4296938,-0.820199,-1.8967083,-0.8148447,2.1098578,1.3115431,-0.9888553,-1.421837,1.375143,0.0552991,0.5315906,0.86787045,0.5053497,-0.38000014,2.0112686,-0.59756374,1.2786274,-3.004696,-0.1626542,2.6754806,0.21886444,-0.5633049,0.89635026,0.8243424,-0.025682013,0.10438397,0.55579126,-1.0479357,0.4158064,0.9036861,1.0,0.0,0.0,0.0,0.0,0.0,0.0,-2.6612687,0.19756374,-0.7286274,0.43230057,1.1776447,9.969005,-11.281406,2.0848632,0.2303958,0.2629459
38.783127,67.05002,20.562408,-7.398061,-1.5425072,0.24628046,0.8808889,-0.79217625,0.77910805,0.18098268,0.036850102,0.65834486,0.67662084,-0.45628497,1.3504761,-0.74228823,-1.87861,-0.81115973,2.1756923,1.3792052,-1.0344838,1.415505,-0.80636406,-1.895129,-0.81111395,2.1187422,1.3165938,-0.99259657,-1.4182183,1.3864422,0.19338083,0.31975576,0.8951864,0.50644016,-0.37297013,1.981247,-0.5991888,1.3046256,-3.0016918,-0.16249159,2.57462,0.20903015,-0.558651,0.9051711,0.829014,-0.034141406,0.10400635,0.54840934,-0.95673543,0.49359092,0.8711661,1.0,0.0,0.0,0.0,0.0,0.0,0.0,-2.631247,0.1991888,-0.7546256,0.22826195,1.1691332,14.219776,-21.359676,2.7198434,0.5470514,0.47287345
52.14145,63.736362,20.644024,-17.422958,-2.5677006,-0.26130265,1.2314513,-0.78336775,0.787243,0.27352756,-0.20071483,0.6709114,0.6684901,-0.42369565,1.3371682,-0.72763973,-1.8677762,-0.83118546,2.1858335,1.3834428,-1.0349661,1.401383,-0.792408,-1.891978,-0.8103329,2.1278975,1.3216616,-0.9962463,-1.4104685,1.3989255,0.3565423,-0.0028063057,0.9224998,0.50915146,-0.3628051,1.9512558,-0.60081196,1.3296161,-2.9986908,-0.16232912,2.47386,0.20043945,-0.55317116,0.9134773,0.83260065,-0.04219439,0.103561334,0.54246724,-0.82081544,0.5757339,0.8128367,1.0,0.0,0.0,0.0,0.0,0.0,0.0,-2.601256,0.20081195,-0.77961606,0.7104635,1.324606,16.590738,-32.370327,2.7846932,0.95198154,0.85681677
51.240456,65.15586,21.184435,-15.525975,-2.3752227,-0.29400578,1.2121509,-0.7685944,0.792386,0.37260154,-0.25113904,0.66603047,0.6503257,-0.33420762,1.3245236,-0.7131694,-1.8547179,-0.8354468,2.1945004,1.3866942,-1.029667,1.3874022,-0.77833176,-1.887078,-0.8125187,2.1372664,1.3267428,-0.999731,-1.3939083,1.4108965,0.5342767,-0.29044843,0.9423081,0.5098464,-0.34397635,1.9212952,-0.60243416,1.3535997,-2.9956927,-0.16216683,2.373201,0.19316101,-0.54689693,0.9212765,0.8350777,-0.049842596,0.103039294,0.5380926,-0.6890705,0.6526494,0.7640925,1.0,0.0,0.0,0.0,0.0,0.0,0.0,-2.5712953,0.20243415,-0.80359966,1.6887426,1.2944937,17.781073,-28.772282,2.197051,0.7317424,1.8026054
35.708626,65.82687,20.016508,-3.8392425,-1.2085207,-0.03270874,0.822511,-0.7615666,0.7958226,0.41291428,-0.1847574,0.65101147,0.6579241,-0.20215397,1.3112456,-0.6987495,-1.8457866,-0.8309944,2.2023675,1.3925352,-1.0199465,1.3736044,-0.76414967,-1.8806388,-0.81649363,2.1467383,1.331824,-1.002939,-1.3749727,1.4209634,0.67993426,-0.43311206,0.9500723,0.5092257,-0.31301484,1.891365,-0.60405445,1.3765775,-2.9926975,-0.1620047,2.2726424,0.1868515,-0.53996277,0.92880625,0.83670956,-0.057342034,0.10241788,0.5349201,-0.6047284,0.7130667,0.7439204,1.0,0.0,0.0,0.0,0.0,0.0,0.0,-2.5413651,0.20405445,-0.8265775,1.9575596,1.1225939,14.348972,-14.251184,1.1496305,0.41561127,3.0536234
8.770655,65.30514,17.569805,15.446222,0.7775106,0.5250339,0.17620611,-0.77095854,0.7918317,0.43059343,0.0033697884,0.63234645,0.6648502,-0.04105319,1.2965086,-0.6849665,-1.8375795,-0.8161566,2.2099729,1.398309,-1.0070443,1.3599097,-0.74991703,-1.873122,-0.82023966,2.156191,1.336888,-1.0057333,-1.367609,1.424492,0.7747206,-0.3552709,0.94532466,0.50609237,-0.26872152,1.8614655,-0.6056738,1.3985504,-2.9897056,-0.16184272,2.1721845,0.18074036,-0.5325947,0.9364608,0.8379646,-0.065139085,0.10163378,0.53220546,-0.60358727,0.7505596,0.7668659,1.0,0.0,0.0,0.0,0.0,0.0,0.0,-2.5114655,0.20567378,-0.8485504,0.7238865,0.48470497,9.193123,7.706815,-0.0064730644,-0.13768673,4.3514194
-15.473184,63.041046,14.807798,32.424427,2.5389116,1.0289295,-0.40901828,-0.78423846,0.78687876,0.43070567,0.20705582,0.6221113,0.6661641,0.08933516,1.2814858,-0.6712291,-1.8300514,-0.7995341,2.2184021,1.4035044,-0.9967997,1.3461729,-0.73569965,-1.8650596,-0.8217875,2.1655447,1.3419062,-1.0080183,-1.3758423,1.4212836,0.81581706,-0.08843812,0.9339429,0.5002222,-0.21569717,1.8315964,-0.6072912,1.4195195,-2.9867165,-0.1616809,2.071827,0.17408752,-0.5249882,0.9446081,0.8393088,-0.07366273,0.10062232,0.52915937,-0.6777425,0.76932156,0.8245092,1.0,0.0,0.0,0.0,0.0,0.0,0.0,-2.4815965,0.20729122,-0.86951953,-0.9245634,-0.18293858,3.8363576,26.513227,-0.63512325,-0.6969929,5.1836014
-32.73078,60.165066,12.405849,44.53059,3.71739,1.410958,-0.8596184,-0.79427624,0.7806461,0.41017896,0.4422222,0.5803059,0.67920536,0.19142973,1.2667453,-0.65763503,-1.8240417,-0.77756524,2.2235754,1.4098268,-0.98887527,1.3322798,-0.7215576,-1.8569648,-0.81962454,2.1746657,1.3468653,-1.0097425,-1.3942405,1.4122832,0.8063162,0.3172186,0.90648246,0.49320397,-0.1582692,1.8017578,-0.60890675,1.4394859,-2.9837303,-0.16151926,1.9715697,0.16629028,-0.5172739,0.95349884,0.84109294,-0.08324238,0.09938653,0.52512443,-0.80568504,0.7785053,0.90405744,1.0,0.0,0.0,0.0,0.0,0.0,0.0,-2.451758,0.20890674,-0.8894859,-1.9692421,-0.7751703,-1.2281656,40.382504,-2.23279,-1.0787427,5.616787
-31.203579,54.135464,10.341088,41.413315,3.3115535,1.1831561,-0.8765992,-0.7982265,0.7762565,0.37563598,0.51452255,0.5586144,0.67722166,0.14190026,1.2524571,-0.643932,-1.8194013,-0.76817226,2.2305272,1.4145875,-0.9955525,1.3181959,-0.70752335,-1.8492687,-0.81364024,2.1834624,1.3517557,-1.0109804,-1.4132413,1.4006909,0.7565184,0.6917131,0.8723766,0.4862043,-0.1124717,1.7719498,-0.61052036,1.4584504,-2.9807472,-0.16135778,1.8714124,0.1572876,-0.5094795,0.9630436,0.84338695,-0.09381505,0.09805835,0.51988614,-0.9225239,0.7882296,0.9643167,1.0,0.0,0.0,0.0,0.0,0.0,0.0,-2.4219499,0.21052036,-0.9084504,-1.9889355,-1.0728598,-5.219853,37.327183,-2.9736996,-1.1161149,4.486999
-17.240955,50.277332,10.102321,29.0261,2.0323353,0.7058375,-0.53268,-0.8089827,0.7757787,0.38297394,0.48594725,0.5842385,0.6684944,0.044576194,1.2372977,-0.62994546,-1.8109713,-0.7650455,2.2418861,1.4186052,-1.0065228,1.3039137,-0.69359016,-1.842036,-0.80501807,2.1920378,1.3565851,-1.0118902,-1.4333818,1.390989,0.71185815,0.9188135,0.85356843,0.4808605,-0.08413333,1.7421646,-0.612133,1.4764141,-2.9777672,-0.16119644,1.7713553,0.14750671,-0.5015316,0.97291166,0.8459786,-0.10502181,0.09675085,0.513741,-0.9885719,0.8071218,0.9869256,1.0,0.0,0.0,0.0,0.0,0.0,0.0,-2.3921647,0.21213302,-0.9264141,-2.091241,-0.9287834,-4.5385838,22.624004,-1.592803,-0.7776797,2.741523
-1.0593853,47.019367,10.124815,15.196671,0.5974072,0.13198519,-0.14476222,-0.8097684,0.7735812,0.3724665,0.44957277,0.59368443,0.67610615,-0.05317956,1.2229369,-0.61623204,-1.8047893,-0.7600608,2.2514062,1.4241958,-1.0172081,1.289477,-0.6797371,-1.8351848,-0.7952982,2.200514,1.361386,-1.0126417,-1.4474669,1.3834038,0.6765652,0.98928696,0.8460447,0.47987452,-0.07256438,1.7124023,-0.6137438,1.4933779,-2.97479,-0.16103528,1.6713983,0.1375122,-0.49336338,0.9827241,0.84858525,-0.11642993,0.095575966,0.5071611,-0.9952724,0.83146137,0.97162986,1.0,0.0,0.0,0.0,0.0,0.0,0.0,-2.3624024,0.21374378,-0.9433779,-1.4981031,-0.7452488,-3.4045577,6.9480658,-0.6232381,-0.0767529,1.0390282
12.573192,46.77304,10.859911,4.3936667,-0.5481173,-0.32019842,0.18655671,-0.80624455,0.7763027,0.370273,0.4061091,0.59909654,0.68466705,-0.09590678,1.2088525,-0.6021068,-1.7981575,-0.7546873,2.2604237,1.4298526,-1.0222323,1.2749659,-0.6659212,-1.8285682,-0.785771,2.2089713,1.366202,-1.0133455,-1.4524571,1.3808955,0.6577212,0.94022185,0.84553343,0.4827918,-0.07008165,1.6826706,-0.61535263,1.5093429,-2.9718158,-0.16087428,1.5715412,0.12781525,-0.48492813,0.9921999,0.85096484,-0.12770067,0.09462402,0.50059724,-0.9528361,0.85939467,0.93185204,1.0,0.0,0.0,0.0,0.0,0.0,0.0,-2.3326707,0.21535262,-0.9593429,-0.59342384,-0.2537012,-1.6006112,-5.0101995,-0.05762577,0.53330064,0.10677576
20.524395,46.67688,11.274227,-1.9482937,-1.1906719,-0.6420071,0.39987233,-0.8072544,0.77669984,0.37399486,0.35425964,0.6078885,0.684998,-0.09426898,1.1942405,-0.58825123,-1.7911687,-0.75034505,2.2697601,1.4347018,-1.0227724,1.2604414,-0.6521082,-1.8220203,-0.77726424,2.2174666,1.3710562,-1.0140398,-1.4525341,1.381424,0.6551704,0.82047224,0.8506524,0.48745865,-0.06969157,1.6529694,-0.6169605,1.5243101,-2.9688444,-0.16071343,1.471784,0.118751526,-0.47621822,1.0011836,0.85296303,-0.13862252,0.093934566,0.4943824,-0.88107526,0.8860832,0.8796838,1.0,0.0,0.0,0.0,0.0,0.0,0.0,-2.3029695,0.21696052,-0.9743101,-0.088477135,0.04863739,0.08974075,-12.064862,0.4387021,0.83949566,-0.103347
24.206898,46.817047,11.563085,-4.6925898,-1.436818,-0.8386529,0.5310162,-0.8057362,0.7757619,0.38753328,0.29777816,0.61250824,0.67569053,-0.011958277,1.1798677,-0.57453203,-1.783267,-0.7474864,2.2787175,1.4386252,-1.0152355,1.2459456,-0.6382837,-1.8153732,-0.77016795,2.2260306,1.3759505,-1.014673,-1.4487315,1.3827333,0.6691206,0.6724878,0.8580184,0.49146527,-0.061649233,1.6232986,-0.6185665,1.5382805,-2.9658763,-0.16055275,1.3721266,0.11049652,-0.4672556,1.0096247,0.8544932,-0.14909922,0.09350395,0.48874092,-0.79614615,0.90981746,0.8248617,1.0,0.0,0.0,0.0,0.0,0.0,0.0,-2.2732987,0.2185665,-0.9882805,0.33204556,0.13346672,1.7225027,-14.856648,0.65004826,0.821054,0.67686737
21.662457,47.638847,11.744807,-1.9056759,-1.119859,-0.79399633,0.51040095,-0.80185896,0.7744189,0.39921582,0.2997772,0.6100804,0.6722098,0.1508136,1.1657597,-0.56084186,-1.7754517,-0.7401902,2.2870386,1.4431714,-0.99959165,1.2315127,-0.62445164,-1.8085163,-0.7642733,2.2346556,1.3808752,-1.015104,-1.4417228,1.3834243,0.6919026,0.5617798,0.8638645,0.49390522,-0.03736275,1.5936584,-0.6201706,1.551255,-2.9629111,-0.16039222,1.2725688,0.103004456,-0.45805454,1.017598,0.8555516,-0.15920293,0.093288004,0.4837181,-0.7226551,0.93203336,0.78093356,1.0,0.0,0.0,0.0,0.0,0.0,0.0,-2.2436585,0.22017059,-1.001255,0.6839037,0.08382797,2.5183797,-11.0986595,0.55053234,0.5948782,2.3192704
13.466182,45.318672,10.589288,4.847715,-0.41192257,-0.6509759,0.29014894,-0.79451245,0.7651486,0.37511173,0.36262456,0.5872389,0.6741483,0.2502751,1.1520615,-0.5479368,-1.771005,-0.72801083,2.2933795,1.4482901,-0.99007654,1.217177,-0.61065865,-1.8015792,-0.7588211,2.2432616,1.3858153,-1.0152242,-1.4310336,1.3781215,0.6948346,0.5395959,0.8596703,0.4947078,-0.0039313114,1.5640488,-0.62177277,1.5632347,-2.9599488,-0.16023187,1.1731105,0.09603119,-0.448658,1.025248,0.8562581,-0.16911982,0.09325347,0.47908694,-0.6796644,0.94969034,0.75270975,1.0,0.0,0.0,0.0,0.0,0.0,0.0,-2.2140489,0.22177276,-1.0132346,1.0607004,-0.49536228,0.4021287,-2.2591472,-0.35117865,0.303334,3.2467062
4.6843123,37.862915,7.646124,10.262627,0.11829609,-0.6708226,0.02607572,-0.78901094,0.7489764,0.30536425,0.4153611,0.53060275,0.6786818,0.34481865,1.138276,-0.535761,-1.7710428,-0.71728504,2.2963219,1.4536835,-0.98074234,1.2029558,-0.59699535,-1.7949989,-0.7530304,2.25165,1.3907591,-1.014961,-1.4192408,1.3626411,0.6456803,0.5918928,0.832055,0.4947486,0.03620769,1.5344696,-0.623374,1.5742205,-2.9569893,-0.16007167,1.0737516,0.089286804,-0.43916607,1.0326593,0.8567993,-0.17896405,0.09347942,0.474477,-0.662723,0.9560767,0.7302112,1.0,0.0,0.0,0.0,0.0,0.0,0.0,-2.1844697,0.22337398,-1.0242205,1.1578321,-1.4934063,-4.921663,5.135095,-2.5990605,0.14820099,3.9303906
2.1903996,31.736946,5.6665926,10.48716,0.17973524,-0.82962656,-0.03596867,-0.7884679,0.73250777,0.2775039,0.3977322,0.5007705,0.6693321,0.39965585,1.124109,-0.5237446,-1.7672485,-0.7132572,2.301727,1.4576923,-0.97499543,1.1888281,-0.5835533,-1.7890632,-0.7466847,2.2596762,1.3956953,-1.0142877,-1.4105734,1.3382852,0.5760386,0.64839077,0.79325426,0.49374202,0.07754525,1.504921,-0.6249733,1.5842135,-2.954033,-0.15991163,0.974492,0.08267975,-0.4296751,1.0398108,0.8572741,-0.18870272,0.09404957,0.46970952,-0.6496825,0.95328766,0.70317227,1.0,0.0,0.0,0.0,0.0,0.0,0.0,-2.154921,0.22497329,-1.0342135,0.8395195,-2.3759127,-6.998384,5.5286765,-3.6972642,0.053733587,4.058125
3.8962464,26.69907,4.1551256,6.9595494,-0.16232377,-1.1250669,0.023006037,-0.791347,0.71805173,0.24094845,0.34384912,0.46572065,0.6635277,0.4324797,1.1096934,-0.51174814,-1.7649684,-0.71229976,2.3062482,1.462048,-0.9710397,1.1747442,-0.5703888,-1.7839,-0.74011576,2.2672522,1.4006201,-1.0132158,-1.4077048,1.3094232,0.49620897,0.6592803,0.7462606,0.49289235,0.116908416,1.4754028,-0.62657166,1.5932146,-2.9510796,-0.15975176,0.8753317,0.076309204,-0.42028522,1.0466006,0.8576999,-0.19816954,0.0950569,0.46480516,-0.6229689,0.9407448,0.66418505,1.0,0.0,0.0,0.0,0.0,0.0,0.0,-2.125403,0.22657165,-1.0432146,0.2604246,-2.827382,-8.000827,0.9600282,-4.544115,0.1484394,3.8721232
8.218213,20.670296,2.777909,1.2522264,-0.66849357,-1.5222906,0.16267376,-0.7815336,0.68601054,0.21715261,0.2768422,0.39611974,0.65664655,0.4707392,1.0965909,-0.5017877,-1.7621847,-0.71243155,2.3068643,1.4662848,-0.9661419,1.1607138,-0.55760384,-1.7794788,-0.73389685,2.2742255,1.4055372,-1.0117643,-1.401549,1.2683294,0.4240903,0.60896933,0.6810858,0.49263078,0.15445144,1.4459152,-0.6281681,1.6012249,-2.9481292,-0.15959203,0.77627057,0.070373535,-0.41111565,1.0528835,0.85804415,-0.20713906,0.09658988,0.45991725,-0.57406026,0.9149293,0.6099983,1.0,0.0,0.0,0.0,0.0,0.0,0.0,-2.0959153,0.2281681,-1.051225,0.63171387,-4.0453434,-7.2291794,-5.1493287,-6.412661,0.32358766,3.7009418
9.870713,16.218319,1.4833305,-2.0799265,-0.9461628,-1.8331445,0.22290869,-0.7857949,0.6652052,0.16297704,0.21813941,0.3619841,0.6530762,0.49520883,1.0821342,-0.49108332,-1.7631811,-0.7120829,2.3104239,1.4708449,-0.9622434,1.146712,-0.5452547,-1.77583,-0.72851527,2.2805388,1.4104544,-1.0099599,-1.3994275,1.223996,0.34508857,0.5142061,0.61463374,0.4927487,0.1889321,1.4164581,-0.62976265,1.6082453,-2.9451816,-0.15943247,0.67730844,0.06500244,-0.4022932,1.058554,0.8583074,-0.21541367,0.09871218,0.4551496,-0.5130919,0.8767635,0.5470196,1.0,0.0,0.0,0.0,0.0,0.0,0.0,-2.0664582,0.22976264,-1.0582452,0.24461746,-4.363942,-7.9246817,-9.589947,-6.564641,0.41787624,3.4052134
13.621658,16.45402,2.0420723,-5.303,-1.1790888,-2.0075998,0.3685517,-0.77865475,0.64000094,0.1748783,0.13247332,0.32778105,0.64985836,0.53174895,1.0688465,-0.4812546,-1.7583421,-0.71526796,2.3133168,1.4754403,-0.956785,1.132754,-0.53336716,-1.772721,-0.7243887,2.2862074,1.4153715,-1.0078237,-1.3943068,1.1772043,0.2996242,0.37854668,0.5508683,0.49285698,0.2217205,1.3870316,-0.6313553,1.6142769,-2.942237,-0.15927307,0.57844526,0.06036377,-0.39387417,1.0635699,0.8584376,-0.22288726,0.10138527,0.45069623,-0.4392118,0.8347266,0.4813503,1.0,0.0,0.0,0.0,0.0,0.0,0.0,-2.0370317,0.23135528,-1.0642769,0.58481693,-4.608512,-4.559231,-13.640446,-6.3483834,0.4356146,3.2369971
12.017832,18.422096,2.6832218,-2.9070654,-0.91621137,-1.9258331,0.32627547,-0.7754414,0.6209046,0.15423273,0.12198953,0.29482904,0.6439402,0.5504151,1.0552099,-0.4712767,-1.7572978,-0.7121898,2.3156903,1.4797655,-0.9527822,1.1188551,-0.52192307,-1.7699592,-0.7214476,2.291281,1.420283,-1.0053823,-1.3881795,1.1337246,0.26812214,0.26575416,0.49251944,0.49164596,0.2513487,1.3576355,-0.63294697,1.6193205,-2.939295,-0.15911382,0.479681,0.056381226,-0.38584328,1.0680013,0.85843104,-0.22962727,0.10452123,0.44659016,-0.37531868,0.79594535,0.42586118,1.0,0.0,0.0,0.0,0.0,0.0,0.0,-2.0076356,0.23294696,-1.0693204,0.6849289,-4.277706,-3.1807601,-11.343175,-5.795896,0.22881627,2.9183865
5.327681,20.555782,3.1281881,4.821744,-0.13321924,-1.5958604,0.10720129,-0.7708568,0.6010625,0.116774715,0.19092378,0.27148837,0.64500356,0.5638173,1.0417694,-0.46181682,-1.7582817,-0.7023552,2.3184297,1.4847833,-0.9490006,1.1050249,-0.51088524,-1.7675483,-0.71898425,2.2958357,1.4251772,-1.002672,-1.3812066,1.0939727,0.23186006,0.23964493,0.44352964,0.489259,0.27748588,1.32827,-0.63453674,1.6233773,-2.9363565,-0.15895474,0.38101545,0.05279541,-0.37811565,1.072031,0.85836655,-0.23589109,0.108004816,0.44260255,-0.3445201,0.76743734,0.3913438,1.0,0.0,0.0,0.0,0.0,0.0,0.0,-1.9782699,0.23453674,-1.0733774,0.72073936,-3.9073706,-3.6813765,-2.708158,-4.7964215,-0.01885295,2.5561094
3.4598804,17.74907,2.6843865,6.467156,0.20062333,-1.5815517,0.068851486,-0.760345,0.5605597,0.11503696,0.15900037,0.246489,0.6392033,0.5735919,1.0289904,-0.45482928,-1.7560446,-0.70308423,2.3204846,1.4890976,-0.94531274,1.0912997,-0.5003185,-1.7654178,-0.7166201,2.2999518,1.430041,-0.9997251,-1.3696629,1.0444338,0.20643267,0.23501576,0.40131763,0.48610088,0.30027848,1.2989349,-0.63612556,1.6264482,-2.933421,-0.15879582,0.2824486,0.049430847,-0.37068558,1.0757446,0.8582765,-0.24181263,0.111699134,0.43864733,-0.32543752,0.7368378,0.36094567,1.0,0.0,0.0,0.0,0.0,0.0,0.0,-1.9489349,0.23612556,-1.0764482,1.1847019,-4.885316,-2.6213527,-0.56599677,-4.1081724,-0.12409687,2.2187233
1.1725736,19.12868,3.0819242,9.426594,0.53638285,-1.4502124,0.00033196062,-0.7588292,0.5439209,0.09909609,0.1758096,0.24871898,0.63781595,0.57525283,1.0154167,-0.44592643,-1.7555082,-0.6990391,2.3248236,1.4938226,-0.9421998,1.0776755,-0.49021912,-1.7635238,-0.7140986,2.3037627,1.4348723,-0.996577,-1.3598499,0.99865717,0.18346542,0.2575384,0.37461853,0.48255503,0.31945294,1.2696228,-0.6377125,1.6285341,-2.930488,-0.15863705,0.18398026,0.046165466,-0.36351585,1.0792174,0.85817933,-0.2475035,0.115496576,0.4346616,-0.3194487,0.71195567,0.33931798,1.0,0.0,0.0,0.0,0.0,0.0,0.0,-1.9196228,0.23771247,-1.0785341,0.98400116,-4.514873,-2.361673,2.1414251,-2.548027,-0.21266341,1.8562496
-2.098302,18.176239,2.507115,12.440656,0.7827201,-1.3802598,-0.12946585,-0.754014,0.52255774,0.043449465,0.22300401,0.21489358,0.6351656,0.5780852,1.002274,-0.43796334,-1.7591789,-0.69179815,2.325252,1.4983888,-0.9387685,1.0641447,-0.4805541,-1.7620475,-0.711105,2.307299,1.4396673,-0.99326015,-1.3509312,0.9559683,0.13549039,0.31286934,0.3469056,0.4788117,0.33557665,1.2403336,-0.6392975,1.629636,-2.9275582,-0.15847844,0.085610375,0.042869568,-0.35657597,1.0825185,0.8581377,-0.25305012,0.1193996,0.43047515,-0.3257079,0.6895713,0.32385692,1.0,0.0,0.0,0.0,0.0,0.0,0.0,-1.8903335,0.23929748,-1.0796361,0.8713722,-4.2110085,-4.866907,5.406356,-2.6265264,-0.26890635,1.5490294
-3.9407358,13.181221,0.67710257,12.24329,0.75653034,-1.5522574,-0.21252072,-0.75138116,0.49656224,-0.043418624,0.22602913,0.19831292,0.62751573,0.5770545,0.98900664,-0.4308979,-1.7663894,-0.6885021,2.32713,1.5024189,-0.9355547,1.0506884,-0.47131538,-1.7613971,-0.70758593,2.310572,1.4444224,-0.9898031,-1.3438443,0.9133746,0.041244388,0.36451173,0.32120514,0.47485477,0.34885532,1.2110748,-0.6408806,1.629755,-2.924631,-0.15832,-0.012661169,0.039497375,-0.34993172,1.0856333,0.8582424,-0.25838205,0.12349325,0.42592028,-0.33356142,0.6578969,0.30439407,1.0,0.0,0.0,0.0,0.0,0.0,0.0,-1.8610748,0.24088058,-1.0797551,0.6943464,-4.2027473,-9.52034,5.0306263,-2.4160087,-0.28081536,1.2704194
-0.33881092,0.67438126,-2.0164323,4.6605906,0.26938885,-2.0590618,-0.03017126,-0.73878795,0.4197649,-0.031157358,0.1270565,0.09528509,0.62906766,0.5898814,0.9768096,-0.4293389,-1.7645129,-0.6948803,2.3201003,1.5073291,-0.9308149,1.0373446,-0.46274805,-1.7615249,-0.7041365,2.3133337,1.4491488,-0.9862201,-1.3311174,0.83813006,-0.03136884,0.33817914,0.2615325,0.47261563,0.3612138,1.1818466,-0.64246273,1.6288921,-2.921707,-0.1581617,-0.110834464,0.036201477,-0.34381294,1.0883828,0.8584892,-0.26322377,0.12783082,0.42115173,-0.32111275,0.5981271,0.26257756,1.0,0.0,0.0,0.0,0.0,0.0,0.0,-1.8318466,0.24246272,-1.078892,1.3624907,-7.4532747,-7.4234896,-2.7260005,-5.859494,-0.0040113926,1.1918843
5.231609,-16.768412,-5.1150255,-5.981445,-0.18469533,-2.7110362,0.2930562,-0.719481,0.30766138,0.040592402,-0.01935902,-0.0048295036,0.635534,0.58565825,0.96539646,-0.43198192,-1.7574657,-0.7060724,2.3128507,1.5127022,-0.92765427,1.024203,-0.45534563,-1.7618301,-0.7017714,2.3152525,1.4538676,-0.9825313,-1.3074876,0.7079471,-0.030959962,0.2025547,0.16841793,0.47262695,0.37129706,1.1526489,-0.64404297,1.6270481,-2.9187858,-0.15800357,-0.20890959,0.033210754,-0.33859348,1.0904926,0.85878676,-0.26720908,0.13229774,0.41663152,-0.2862228,0.49803847,0.19167756,1.0,0.0,0.0,0.0,0.0,0.0,0.0,-1.8026489,0.24404296,-1.0770481,2.596569,-12.926376,-0.1949288,-13.594395,-9.281388,0.32378435,0.97530484
0.80830884,-68.50343,-16.650064,-15.895128,0.24013263,-3.8180778,0.38916075,-0.6838873,0.04585442,0.076360054,-0.12558973,-0.25915882,0.645485,0.5780235,0.95581424,-0.4507602,-1.7541941,-0.7143304,2.2893367,1.518416,-0.924729,1.0114466,-0.45029593,-1.7617671,-0.70124114,2.3155806,1.4585978,-0.97876334,-1.2635103,0.43768057,0.017405244,0.0030888699,-0.012587753,0.47412154,0.3784618,1.1234818,-0.64562225,1.6242241,-2.9158678,-0.1578456,-0.30688667,0.030433655,-0.33504963,1.0915437,0.8591902,-0.26986033,0.13664973,0.41266736,-0.27004135,0.30755797,0.07480576,1.0,0.0,0.0,0.0,0.0,0.0,0.0,-1.7734817,0.24562225,-1.074224,4.834628,-26.930088,4.4378514,-19.967777,-18.118048,0.47788024,0.64830184
-7.5606365,-114.603806,-27.722761,-21.025215,1.0595595,-4.7361894,0.30470794,-0.6600471,-0.19196229,0.036457557,-0.23775624,-0.36605427,0.64079815,0.506771,0.9454419,-0.46949217,-1.7581214,-0.7250168,2.2789752,1.5226775,-0.9280862,0.9991917,-0.44876146,-1.7613533,-0.70294726,2.313944,1.4633242,-0.97499347,-1.2112865,0.058785047,0.048392396,-0.22864681,-0.21424808,0.47232857,0.3758782,1.0943451,-0.64719963,1.620421,-2.9129527,-0.15768778,-0.40476578,0.027557373,-0.33399677,1.0911651,0.8598967,-0.2707206,0.14056566,0.4093034,-0.2911589,0.038374033,-0.07606554,1.0,0.0,0.0,0.0,0.0,0.0,0.0,-1.7443451,0.24719962,-1.070421,5.700302,-37.869923,2.8375044,-23.207945,-20.333836,-0.14855266,-0.43575764
-11.305451,-132.0361,-29.581957,-18.608227,2.4795582,-4.6087313,0.3863495,-0.5827851,-0.45683894,0.26723012,-0.2560231,-0.4565341,0.6509518,0.46801594,0.9409132,-0.49444535,-1.7346302,-0.7285496,2.2682908,1.5284194,-0.9281919,0.98771423,-0.45164537,-1.7596309,-0.7065741,2.3103507,1.4680163,-0.97129035,-1.1253483,-0.40448153,0.21363099,-0.40740424,-0.40881187,0.46660388,0.3677861,1.065239,-0.6487751,1.61564,-2.9100404,-0.15753013,-0.5025471,0.024124146,-0.33572578,1.0892833,0.86085504,-0.26994917,0.14333749,0.40682963,-0.36038122,-0.24259123,-0.22569683,1.0,0.0,0.0,0.0,0.0,0.0,0.0,-1.7152389,0.2487751,-1.06564,8.961272,-46.42437,16.555708,-17.894447,-19.749058,-1.0273874,-1.0357916
-13.477502,-125.85251,-26.937534,-11.373253,3.419029,-3.9966164,0.2928597,-0.4812502,-0.67240703,0.35601142,-0.21399991,-0.55063975,0.6667724,0.37199637,0.9395892,-0.5188861,-1.7240298,-0.72797406,2.2552867,1.5346935,-0.93409073,0.97742885,-0.4592538,-1.7559173,-0.7112042,2.3049376,1.4726454,-0.96773696,-0.99574816,-0.880236,0.42481002,-0.48162535,-0.58640945,0.45897338,0.35057443,1.0361633,-0.65034866,1.609882,-2.907131,-0.15737264,-0.60023063,0.019767761,-0.34004402,1.0860534,0.8619592,-0.26806128,0.14444034,0.40534732,-0.46209505,-0.493213,-0.3556641,1.0,0.0,0.0,0.0,0.0,0.0,0.0,-1.6861633,0.25034866,-1.0598819,13.101435,-47.753513,21.428883,-7.4427547,-18.089687,-1.5788674,-1.8937886
5.486514,-69.52893,-11.981041,-10.7549925,2.203505,-3.066478,0.54728526,-0.2571536,-0.73905724,0.4296394,-0.24700372,-0.5821507,0.6637342,0.23225217,0.9517135,-0.5331595,-1.7129533,-0.7359045,2.2467225,1.5390189,-0.9445118,0.9692597,-0.47077084,-1.7500732,-0.71623385,2.2980711,1.477202,-0.96444774,-0.75857735,-1.2427486,0.6398826,-0.510665,-0.72105277,0.4519848,0.32149082,1.0071182,-0.6519213,1.6031476,-2.9042244,-0.1572153,-0.69781655,0.014862061,-0.34622478,1.0818034,0.86290246,-0.26567176,0.14379787,0.405142,-0.50263256,-0.65610343,-0.4490097,1.0,0.0,0.0,0.0,0.0,0.0,0.0,-1.6571182,0.25192127,-1.0531476,23.329508,-36.405373,22.191965,-3.0675888,-13.713991,-1.4737785,-2.9631376
16.645449,-14.764835,0.27823925,-7.035287,0.8287801,-2.206077,0.53031886,-0.16980356,-0.76184887,0.41549858,-0.27530167,-0.5964875,0.6601869,0.09794787,0.9522793,-0.5469557,-1.7085234,-0.74376404,2.2384224,1.5432208,-0.95465297,0.96354717,-0.48477793,-1.742665,-0.7214247,2.2901976,1.4817072,-0.96153045,-0.5109016,-1.4537643,0.7771871,-0.5226792,-0.810063,0.4483803,0.2818349,0.97810364,-0.653492,1.5954381,-2.9013207,-0.1570581,-0.7953049,0.00995636,-0.3534279,1.076891,0.86351,-0.2631911,0.1418348,0.4061572,-0.4872502,-0.7371699,-0.5071384,1.0,0.0,0.0,0.0,0.0,0.0,0.0,-1.6281036,0.25349197,-1.045438,24.143291,-21.21899,14.498484,-1.4062166,-9.10405,-0.8529842,-3.9394736
22.848362,23.021711,7.62856,-5.152832,-0.3639127,-1.771606,0.4363822,-0.10050485,-0.7779215,0.36904347,-0.33264405,-0.56863165,0.65486693,-0.05564284,0.9534967,-0.5625701,-1.7057607,-0.7546891,2.2333345,1.5471939,-0.9670947,0.96008056,-0.49994326,-1.7346656,-0.7268988,2.2818244,1.4861933,-0.9590976,-0.29389113,-1.5377555,0.80969685,-0.5562199,-0.8470041,0.44783932,0.23062941,0.94911194,-0.6550617,1.5867547,-2.8984199,-0.15690108,-0.8926957,0.00554657,-0.3610754,1.0715582,0.8637886,-0.2607125,0.13911682,0.40809885,-0.42839932,-0.76894414,-0.5443535,1.0,0.0,0.0,0.0,0.0,0.0,0.0,-1.5991119,0.25506172,-1.0367546,21.08612,-8.491015,3.9045691,-3.5266638,-3.870213,-0.29007792,-5.0778747
23.954134,42.29856,10.652986,-3.5678463,-1.0284996,-1.5957428,0.32750636,-0.03865568,-0.7931586,0.3296466,-0.37936896,-0.55222696,0.645351,-0.13180608,0.956215,-0.5792591,-1.7017009,-0.7648357,2.2266016,1.5507284,-0.97227824,0.9584364,-0.5153661,-1.7269466,-0.7328812,2.2733443,1.4906794,-0.95719504,-0.12278702,-1.5439061,0.7606131,-0.61260414,-0.84881306,0.44858578,0.1769524,0.9201431,-0.65662956,1.577098,-2.8955219,-0.15674421,-0.9899892,0.0018615723,-0.36886883,1.065933,0.86382276,-0.25815576,0.13611029,0.41065755,-0.34888223,-0.77752614,-0.57132626,1.0,0.0,0.0,0.0,0.0,0.0,0.0,-1.5701431,0.25662956,-1.027098,16.638113,-0.68643093,-4.4754505,-5.7394624,-0.3170371,-0.0101566315,-5.3260508
25.793316,48.449284,10.742772,-5.2947464,-1.5787692,-1.7808262,0.28485674,0.062744595,-0.79246783,0.21568705,-0.43966585,-0.5051132,0.62557805,-0.15567434,0.9647109,-0.59461284,-1.7053779,-0.7768478,2.222833,1.5532372,-0.97276247,0.95839065,-0.5305419,-1.720412,-0.7396351,2.265093,1.4951617,-0.95579886,0.033393513,-1.5090035,0.6191575,-0.6966414,-0.8176973,0.4476942,0.12719251,0.89120483,-0.6581955,1.5664691,-2.8926268,-0.1565875,-1.0871854,-0.00091552734,-0.37675953,1.0600225,0.86371124,-0.25530165,0.13313663,0.41364053,-0.25188297,-0.7881894,-0.60038894,1.0,0.0,0.0,0.0,0.0,0.0,0.0,-1.5412048,0.2581955,-1.016469,15.177016,3.4270048,-13.75736,-8.493126,2.9857874,-0.1670599,-4.977724
25.232534,43.44431,8.624612,-6.1463575,-1.5936496,-2.0289807,0.212271,0.17267622,-0.8030456,0.08044278,-0.45603114,-0.44336963,0.62207246,-0.16414584,0.9756583,-0.61084646,-1.7123678,-0.7852382,2.220756,1.5573689,-0.97221345,0.9599442,-0.54535055,-1.7158477,-0.74717295,2.2573607,1.4996287,-0.95485187,0.19446847,-1.4716753,0.40340963,-0.77308154,-0.7590199,0.44578904,0.08368876,0.86229706,-0.6597605,1.5548689,-2.8897345,-0.15643094,-1.1842844,-0.0027236938,-0.38486576,1.0537775,0.8635515,-0.25195614,0.1303063,0.41691387,-0.15647699,-0.8135614,-0.6354969,1.0,0.0,0.0,0.0,0.0,0.0,0.0,-1.512297,0.25976047,-1.004869,15.664181,3.6722898,-21.145517,-7.7302933,5.73045,-0.3353238,-4.3795733
18.003069,31.062283,3.8254128,-3.6939154,-1.3771077,-2.2417905,-0.030097967,0.23357834,-0.79894096,-0.15204403,-0.44205463,-0.45485738,0.6385282,-0.116289236,0.983302,-0.6252446,-1.7310522,-0.79137844,2.211875,1.5634815,-0.9664808,0.9629788,-0.55983114,-1.7142189,-0.75520384,2.250128,1.5040842,-0.9542539,0.33847034,-1.4404831,0.08429707,-0.813106,-0.7120033,0.44475573,0.051462017,0.8334198,-0.66132355,1.5422986,-2.8868456,-0.15627454,-1.2812864,-0.003730774,-0.39337254,1.0471145,0.8635427,-0.2479066,0.12784944,0.4201081,-0.07889184,-0.85859746,-0.679832,1.0,0.0,0.0,0.0,0.0,0.0,0.0,-1.4834198,0.26132354,-0.99229854,14.037859,3.0534744,-31.435787,-4.0212393,4.499769,-0.3317356,-3.3078744
13.589405,20.87642,0.31674886,-3.153636,-1.2967892,-2.3785894,-0.10112548,0.28791642,-0.8014589,-0.3207863,-0.4747178,-0.48655826,0.64313924,-0.0011166737,0.99177045,-0.63997704,-1.7462975,-0.8026756,2.2014723,1.5683981,-0.95436555,0.96729225,-0.57410955,-1.7160556,-0.76357996,2.2431586,1.5085284,-0.95384765,0.46129352,-1.4238224,-0.2714431,-0.8456642,-0.6925019,0.44335708,0.036609508,0.80457306,-0.66288567,1.5287588,-2.8839595,-0.1561183,-1.3781914,-0.0040283203,-0.40244198,1.0399218,0.8638187,-0.2429504,0.12598848,0.42298824,-0.010903857,-0.918495,-0.73632365,1.0,0.0,0.0,0.0,0.0,0.0,0.0,-1.454573,0.26288566,-0.97875875,12.003958,1.5904665,-35.114647,-3.230214,1.7170191,-0.4734993,-1.612655
10.338792,19.63918,0.09049952,-1.8227923,-1.1956306,-2.161927,-0.033627786,0.2932949,-0.7972282,-0.39034718,-0.52998257,-0.53696585,0.65172356,0.12782604,0.9966217,-0.6538324,-1.7550904,-0.8165782,2.189462,1.5737007,-0.9410651,0.9724774,-0.5882869,-1.7210147,-0.7724091,2.236132,1.5129668,-0.9534557,0.5371557,-1.415931,-0.569777,-0.89507097,-0.70683634,0.44269714,0.03957961,0.77575684,-0.6644459,1.5142508,-2.8810763,-0.15596221,-1.4749994,-0.003730774,-0.41205883,1.0321347,0.86436254,-0.23702595,0.12483954,0.42557162,0.04970726,-0.97205347,-0.79756236,1.0,0.0,0.0,0.0,0.0,0.0,0.0,-1.4257568,0.26444587,-0.96425074,7.459646,0.7213831,-29.564112,-4.8713803,-1.6359448,-0.4292667,0.17406046
8.46945,22.099882,1.4564025,-0.67942,-0.99177486,-1.8302653,0.10493291,0.28698233,-0.7981213,-0.43168765,-0.59736806,-0.5440939,0.64369285,0.22590604,1.0011756,-0.668099,-1.7641835,-0.83214587,2.1817224,1.5773361,-0.9308651,0.97806305,-0.60244226,-1.7282512,-0.7819563,2.2288878,1.5173937,-0.9529388,0.5656354,-1.4155439,-0.7746558,-0.9742002,-0.73099023,0.44140264,0.05542695,0.74697113,-0.6660042,1.4987754,-2.878196,-0.15580629,-1.5717107,-0.002861023,-0.42211533,1.0237342,0.86505777,-0.23018184,0.12434412,0.4280534,0.10267048,-1.0124412,-0.8598031,1.0,0.0,0.0,0.0,0.0,0.0,0.0,-1.3969711,0.26600417,-0.94877535,2.8538823,-0.01513958,-20.422924,-7.812512,-2.5796533,-0.49369335,1.5015565
7.712591,32.054108,5.730075,2.5611587,-0.5738929,-1.2291635,0.24051645,0.28258303,-0.7975044,-0.39227018,-0.6223234,-0.55229986,0.6528694,0.26767376,1.0063213,-0.6821927,-1.7674782,-0.84418863,2.173658,1.5826807,-0.9261714,0.98368686,-0.6166158,-1.7365425,-0.7922932,2.221392,1.5218207,-0.9522264,0.56159717,-1.4180481,-0.84777087,-1.0531837,-0.7559226,0.44228196,0.07650396,0.71821594,-0.6675606,1.4823335,-2.8753185,-0.15565051,-1.6683253,-0.0015716553,-0.4323578,1.0148181,0.8657156,-0.2226973,0.124271356,0.4306959,0.14380096,-1.0236504,-0.90860206,1.0,0.0,0.0,0.0,0.0,0.0,0.0,-1.3682159,0.26756057,-0.9323335,-0.32391548,-0.2774477,-7.464707,-7.809305,-2.5690317,-0.16050935,2.112639
3.3696115,42.802086,10.02314,8.664358,0.050320715,-0.5208669,0.26301467,0.23951802,-0.79349244,-0.32630277,-0.62395364,-0.58634305,0.66690457,0.30999723,1.0076387,-0.695965,-1.7691728,-0.8546885,2.1627576,1.5885111,-0.9212267,0.98896736,-0.6308007,-1.7446678,-0.8032385,2.2135909,1.5262781,-0.95128036,0.51751053,-1.4185961,-0.8019402,-1.1080021,-0.7877487,0.44655684,0.10088193,0.6894913,-0.669116,1.4649264,-2.872444,-0.1554949,-1.7648433,-2.2888184e-05,-0.4424715,1.0055759,0.86618316,-0.21497808,0.12439589,0.4336321,0.16336408,-1.0020448,-0.93616885,1.0,0.0,0.0,0.0,0.0,0.0,0.0,-1.3394912,0.269116,-0.91492635,-4.2402983,-0.059866905,4.229629,-5.3881645,-3.195572,0.36102533,2.528645
-3.2819629,42.33604,9.881801,12.8462715,0.58781487,-0.25846788,0.17544487,0.18936324,-0.7975719,-0.35583666,-0.64884883,-0.5759119,0.6662397,0.3541776,1.0079037,-0.71055794,-1.7802514,-0.8681234,2.1559997,1.5929021,-0.9158626,0.99356693,-0.6450057,-1.752198,-0.81463873,2.205557,1.5307795,-0.9500768,0.44161427,-1.421141,-0.7380869,-1.1501123,-0.8088087,0.4512873,0.1271665,0.66078186,-0.67066956,1.4465548,-2.8695722,-0.15533943,-1.8612648,0.0015563965,-0.4523325,0.9961026,0.8664552,-0.20720139,0.124598175,0.43680456,0.16081002,-0.9748083,-0.9577632,1.0,0.0,0.0,0.0,0.0,0.0,0.0,-1.3107818,0.27066955,-0.89655477,-7.3341427,-0.26767254,5.988574,-4.054594,-2.164805,0.45850277,2.7457998
-2.8745203,53.627907,14.60448,16.318552,0.9624404,0.24111655,0.22502176,0.16921587,-0.79629135,-0.19878721,-0.6369036,-0.6001451,0.681728,0.3667486,1.0104885,-0.7246348,-1.7720767,-0.8783291,2.1455426,1.5989523,-0.91340196,0.9974026,-0.659225,-1.7584064,-0.8262459,2.1973135,1.5353457,-0.9486215,0.36502963,-1.4221346,-0.5835561,-1.1638662,-0.82967716,0.458981,0.15235132,0.63210297,-0.67222214,1.4272196,-2.8667033,-0.15518412,-1.95759,0.0030517578,-0.46173,0.9865767,0.866443,-0.19969591,0.124686144,0.4402856,0.14954743,-0.92212754,-0.95729923,1.0,0.0,0.0,0.0,0.0,0.0,0.0,-1.282103,0.27222213,-0.8772196,-7.414359,-0.077557564,14.889658,-1.2596846,-2.0118594,0.9388447,2.7297914
-6.0428905,50.688824,13.133428,17.335714,1.0568957,0.15943754,0.119094424,0.12896775,-0.7929742,-0.24394765,-0.6508527,-0.60495925,0.67831045,0.38399947,1.0102993,-0.7385224,-1.7828012,-0.8913312,2.1368177,1.6031767,-0.9102216,1.000463,-0.6734338,-1.7634342,-0.83793414,2.188887,1.5399805,-0.9469297,0.2873191,-1.4204416,-0.4775234,-1.1699778,-0.84650606,0.46553025,0.17541282,0.6034546,-0.6737728,1.406922,-2.8638372,-0.15502897,-2.0538185,0.004386902,-0.47066402,0.9770397,0.8661925,-0.19249168,0.124671616,0.44397575,0.13232534,-0.87728906,-0.958354,1.0,0.0,0.0,0.0,0.0,0.0,0.0,-1.2534546,0.2737728,-0.856922,-7.5073123,0.18193722,10.096991,-0.45170784,-1.6624331,0.806278,2.495882
-2.8131533,49.69792,13.05083,15.404068,0.9414569,-0.0066840947,0.13397965,0.13383354,-0.79919696,-0.21557854,-0.6568857,-0.58735514,0.67156446,0.3873747,1.0138464,-0.7533535,-1.784992,-0.9036227,2.1301513,1.607137,-0.9081922,1.0029674,-0.68765116,-1.7676132,-0.84965765,2.1803954,1.5446688,-0.9450309,0.23879936,-1.4221071,-0.3995455,-1.1727278,-0.8502457,0.4702452,0.19531368,0.57483673,-0.6753216,1.3856628,-2.860974,-0.15487397,-2.149951,0.0055999756,-0.479208,0.9674686,0.86573327,-0.18553118,0.12452893,0.4478577,0.1221048,-0.8402708,-0.9619435,1.0,0.0,0.0,0.0,0.0,0.0,0.0,-1.2248367,0.27532157,-0.8356628,-4.6469984,-0.1511097,7.3401093,-0.12671947,-0.33597946,0.59826374,2.183932
-1.2285857,46.88108,11.7853155,13.403086,0.72834873,-0.23112658,0.11118595,0.11808544,-0.79533154,-0.23488715,-0.67277837,-0.583214,0.67064774,0.38867974,1.0147759,-0.7671843,-1.7911019,-0.9169355,2.122074,1.6117336,-0.906163,1.0051131,-0.7018695,-1.7714088,-0.86146224,2.1719115,1.5493933,-0.9429586,0.20727088,-1.4217944,-0.37413877,-1.1824828,-0.847555,0.4732659,0.21171041,0.5462494,-0.6768694,1.3634429,-2.8581138,-0.15471913,-2.2459872,0.006790161,-0.48746872,0.95779926,0.8651074,-0.17867854,0.12430508,0.45189744,0.11949638,-0.81428385,-0.97341305,1.0,0.0,0.0,0.0,0.0,0.0,0.0,-1.1962494,0.2768694,-0.8134429,-2.9779315,0.039434433,2.1657348,-0.8181572,0.27227402,0.36517978,1.8028826
0.6877551,41.78778,9.895438,10.892625,0.53268886,-0.5032754,0.099892825,0.12098947,-0.80341995,-0.27246305,-0.68361557,-0.5705382,0.6654703,0.39630803,1.017212,-0.7822115,-1.7986552,-0.9298238,2.1148577,1.6159403,-0.90332776,1.0071025,-0.7161212,-1.7753437,-0.8734051,2.163504,1.554133,-0.94074035,0.19662496,-1.4263813,-0.40089613,-1.1976718,-0.8383992,0.47413772,0.22563066,0.51769257,-0.6784153,1.3402634,-2.8552563,-0.15456444,-2.3419275,0.007987976,-0.49557304,0.9479264,0.8643623,-0.1717554,0.12404499,0.45605996,0.123966835,-0.8025851,-0.99641204,1.0,0.0,0.0,0.0,0.0,0.0,0.0,-1.1676925,0.2784153,-0.79026335,-0.92906356,-0.46505928,-2.947712,-1.3511896,0.876987,0.06210208,1.5226007
0.09857249,40.14294,8.932617,10.609193,0.44092274,-0.57969165,0.05103965,0.10996714,-0.7993786,-0.30884805,-0.6801589,-0.5873311,0.672723,0.40706033,1.0180992,-0.7960591,-1.8062285,-0.941421,2.1047707,1.6214054,-0.9000343,1.009027,-0.7303996,-1.7798145,-0.88546145,2.1551383,1.5588824,-0.93839526,0.19154926,-1.428487,-0.46318215,-1.207758,-0.8365617,0.47487426,0.23786548,0.48916626,-0.67996025,1.3161252,-2.8524017,-0.1544099,-2.4377718,0.009254456,-0.503603,0.9377871,0.8635474,-0.16464438,0.12383896,0.46026304,0.1299158,-0.79586667,-1.0242579,1.0,0.0,0.0,0.0,0.0,0.0,0.0,-1.1391662,0.27996024,-0.76612514,-0.38112402,-0.22461414,-6.437874,-0.8304596,0.10674,0.012969971,1.3225675
-3.6918607,45.441963,10.966797,13.884693,0.7275285,-0.2177332,0.02226545,0.0631194,-0.79628295,-0.23913446,-0.6694042,-0.61589116,0.6833883,0.42422003,1.0153389,-0.8100279,-1.803728,-0.9524019,2.0935493,1.6272212,-0.89597327,1.0107245,-0.7446761,-1.7845485,-0.8975321,2.146685,1.5636488,-0.9359281,0.16303267,-1.4273812,-0.47778308,-1.2062776,-0.8480091,0.4773235,0.2500072,0.46067047,-0.6815033,1.2910292,-2.84955,-0.15425552,-2.5335202,0.0104904175,-0.51146126,0.92745864,0.8626613,-0.1574566,0.12370452,0.46445674,0.124468274,-0.7750632,-1.0401278,1.0,0.0,0.0,0.0,0.0,0.0,0.0,-1.1106704,0.2815033,-0.7410292,-2.6886253,0.10752678,-1.7460406,0.32668114,-1.1944771,0.26978254,1.3376534
-6.28811,41.608845,9.218686,13.888752,0.772632,-0.2953478,-0.028224818,0.04983755,-0.80050534,-0.31702095,-0.6840555,-0.6085237,0.6722671,0.42307445,1.0157083,-0.82472664,-1.8162506,-0.9659377,2.0858326,1.6308756,-0.89362067,1.0120921,-0.7589555,-1.7896507,-0.90962565,2.1381285,1.5684286,-0.93335605,0.12860525,-1.4281555,-0.5217087,-1.2096492,-0.8582736,0.47796863,0.26001418,0.43218994,-0.68304443,1.2649765,-2.8467011,-0.1541013,-2.629173,0.011642456,-0.5191717,0.91691715,0.8617465,-0.15014407,0.12367029,0.46856734,0.11486187,-0.7620335,-1.0631167,1.0,0.0,0.0,0.0,0.0,0.0,0.0,-1.0821899,0.28304443,-0.7149765,-3.2676249,-0.09801388,-4.619342,-0.12507439,-1.1354327,0.03350973,1.1002064
-3.3289666,42.543972,9.78768,12.281893,0.627766,-0.3383168,0.019695334,0.059142586,-0.8003986,-0.33807078,-0.6932133,-0.6033698,0.6653095,0.43072623,1.0180063,-0.83899534,-1.8234577,-0.978947,2.0777915,1.6349596,-0.8902834,1.0132174,-0.7732425,-1.7952201,-0.9217926,2.1295073,1.5732065,-0.9306905,0.107674636,-1.4289039,-0.56946194,-1.2183841,-0.86388576,0.47747424,0.26909083,0.40373993,-0.6845846,1.2379681,-2.8438551,-0.15394723,-2.7247303,0.012756348,-0.52675533,0.9061294,0.86079246,-0.14265522,0.12372288,0.4726292,0.11234545,-0.74981093,-1.0882735,1.0,0.0,0.0,0.0,0.0,0.0,0.0,-1.0537399,0.2845846,-0.6879681,-1.9441411,-0.09264946,-4.99115,-0.6753683,-0.65728426,-0.10111928,1.0083318
-6.743287,45.433388,11.043698,14.633749,0.93483454,-0.07343829,-0.004262358,0.012375252,-0.8014004,-0.30311155,-0.68431705,-0.60441273,0.6723657,0.432073,1.014455,-0.8533825,-1.8255312,-0.99022436,2.069066,1.6404431,-0.88748324,1.0140033,-0.78753996,-1.8010089,-0.9339987,2.120848,1.5779845,-0.927943,0.069283135,-1.4301457,-0.582903,-1.2207044,-0.8669166,0.47802174,0.27709568,0.37532043,-0.6861229,1.2100048,-2.841012,-0.15379332,-2.8201919,0.013763428,-0.53416157,0.89515245,0.85978687,-0.13508159,0.12379098,0.47665,0.098595,-0.7296578,-1.1052109,1.0,0.0,0.0,0.0,0.0,0.0,0.0,-1.0253204,0.2861229,-0.6600048,-3.6682143,-0.13856888,-1.6027093,-0.028514862,-0.38808584,0.054967403,0.9278774
-9.090466,43.701176,10.105986,14.808514,0.98632836,-0.07146287,-0.030920155,-0.015016603,-0.8013515,-0.3525095,-0.70077586,-0.604762,0.66205114,0.43606418,1.0125016,-0.8676751,-1.8362598,-1.0040762,2.0603716,1.6441896,-0.8843366,1.0143409,-0.8018489,-1.80704,-0.9462849,2.1121657,1.5827605,-0.925123,0.022395374,-1.4312019,-0.6105969,-1.2304763,-0.86863613,0.47722477,0.28408518,0.34693146,-0.6876602,1.1810876,-2.8381717,-0.15363955,-2.9155579,0.014602661,-0.5413923,0.8839724,0.8587544,-0.12739633,0.12387063,0.4805903,0.08106762,-0.71274495,-1.1263684,1.0,0.0,0.0,0.0,0.0,0.0,0.0,-0.99693143,0.2876602,-0.6310876,-4.5032525,-0.13113022,-3.00169,-0.7471323,-0.2935171,-0.11360645,0.8157313
-3.5649788,44.21541,10.643314,12.014769,0.69660294,-0.20838535,0.03679599,0.009278219,-0.8025061,-0.3904602,-0.7084673,-0.5971454,0.655689,0.44501173,1.0152687,-0.8820995,-1.846086,-1.0171316,2.0524511,1.6483294,-0.8806218,1.0144095,-0.81617117,-1.8134677,-0.958696,2.1035025,1.5875212,-0.9222343,0.0021498215,-1.4325483,-0.65411615,-1.2439135,-0.86600703,0.47547793,0.2907858,0.318573,-0.68919563,1.1512175,-2.8353343,-0.15348594,-3.0108285,0.01537323,-0.54847527,0.8725481,0.85766876,-0.11953933,0.12395221,0.48451054,0.076828204,-0.69877416,-1.1518294,1.0,0.0,0.0,0.0,0.0,0.0,0.0,-0.968573,0.28919563,-0.60121745,-1.8815018,-0.15361309,-4.56295,-1.1363506,0.16446114,-0.24034977,0.7829249
-4.821786,41.53711,9.382772,11.592052,0.6715789,-0.25422347,0.014749438,-0.017138807,-0.80672646,-0.43836474,-0.7180889,-0.60785455,0.65342104,0.4459005,1.0126957,-0.8968438,-1.8573042,-1.030505,2.042717,1.6528633,-0.87764424,1.0142703,-0.83052397,-1.8204887,-0.9712645,2.0948355,1.592261,-0.9192865,-0.018870909,-1.4362549,-0.7187149,-1.2603189,-0.8673449,0.47305334,0.29637998,0.29024506,-0.69072914,1.1203953,-2.8324997,-0.15333249,-3.1060042,0.016067505,-0.5554552,0.8608167,0.8565377,-0.11142473,0.124066986,0.4884004,0.07158518,-0.689381,-1.1842679,1.0,0.0,0.0,0.0,0.0,0.0,0.0,-0.94024503,0.29072914,-0.5703953,-1.9542322,-0.40183067,-6.633103,-1.4089584,-0.26465654,-0.35635233,0.6548941
-11.694443,39.052837,7.662644,13.625527,0.93452865,-0.151425,-0.0675568,-0.0717589,-0.8051451,-0.48550192,-0.7284862,-0.6056343,0.6346669,0.45475623,1.0070944,-0.91103846,-1.8690389,-1.0441132,2.0342722,1.6557276,-0.8738109,1.0137382,-0.84490347,-1.8282707,-0.9840094,2.0861533,1.5969607,-0.9162843,-0.064237766,-1.4387525,-0.7984423,-1.2783647,-0.8690816,0.46858767,0.30172333,0.26194763,-0.6922617,1.0886221,-2.829668,-0.15317918,-3.2010846,0.01663208,-0.56236076,0.8487313,0.855422,-0.10296232,0.12425445,0.49215096,0.05215187,-0.6821699,-1.2207115,1.0,0.0,0.0,0.0,0.0,0.0,0.0,-0.9119476,0.2922617,-0.5386221,-4.3509007,-0.30539036,-8.101988,-1.5244722,-0.38012266,-0.5991101,0.6127119
-26.62025,33.53902,4.0349665,18.20997,1.5518916,0.08076674,-0.23506036,-0.17265105,-0.80834097,-0.5437962,-0.7478467,-0.6046724,0.61280197,0.4460797,0.9964731,-0.92573756,-1.8826503,-1.058794,2.025686,1.6582409,-0.8716763,1.0123382,-0.85931826,-1.8369625,-0.99697936,2.0774481,1.6015993,-0.91324306,-0.16454966,-1.4427251,-0.8931091,-1.3019338,-0.8718186,0.46154696,0.30518314,0.23366547,-0.69379234,1.0558988,-2.8268387,-0.15302603,-3.2960699,0.01676178,-0.56922245,0.83623344,0.8544482,-0.094036736,0.12455024,0.49554256,0.0007909527,-0.6786476,-1.2636502,1.0,0.0,0.0,0.0,0.0,0.0,0.0,-0.88366544,0.29379234,-0.5058988,-9.761813,-0.50714016,-9.523594,-1.9699097,-0.6298423,-0.9258449,0.40476322
-42.84695,30.024975,1.2112789,23.823215,2.3247948,0.44466773,-0.39996737,-0.28809905,-0.81299347,-0.5794627,-0.7564316,-0.59983736,0.5933308,0.45683643,0.98352826,-0.9406176,-1.8949088,-1.0726225,2.0174644,1.6609324,-0.86755943,1.0095,-0.87379026,-1.846566,-1.0101744,2.0687277,1.6061541,-0.9101646,-0.32246616,-1.4492887,-0.9827524,-1.3235801,-0.87371206,0.45258278,0.30900937,0.20541382,-0.6953211,1.0222263,-2.8240123,-0.15287304,-3.3909602,0.016105652,-0.57604885,0.8233021,0.8537527,-0.08459014,0.12493896,0.49833828,-0.087680034,-0.6746023,-1.3072611,1.0,0.0,0.0,0.0,0.0,0.0,0.0,-0.8554138,0.29532108,-0.47222632,-15.44247,-0.8276701,-8.954514,-1.6662121,-0.69829226,-1.1734009,0.4433334
-54.121967,27.958002,-0.8942708,27.323301,2.8153934,0.69709754,-0.5159048,-0.39381915,-0.81484395,-0.6376287,-0.76806617,-0.6040117,0.56118804,0.44125926,0.9701181,-0.95527464,-1.9103289,-1.086981,2.0083265,1.6622729,-0.8660387,1.0048156,-0.88833094,-1.8570964,-1.0235754,2.059973,1.6105982,-0.9070623,-0.5155667,-1.4563588,-1.0761964,-1.3436264,-0.87794137,0.4404903,0.31082702,0.17719269,-0.69684887,0.9876057,-2.8211887,-0.1527202,-3.4857557,0.014381409,-0.5828333,0.80992085,0.8534385,-0.07457363,0.1254058,0.5003546,-0.20089023,-0.66998154,-1.35277,1.0,0.0,0.0,0.0,0.0,0.0,0.0,-0.82719266,0.29684886,-0.43760568,-18.909348,-0.9364128,-9.264827,-1.4066458,-1.0638595,-1.5649498,0.246346
-63.96112,27.039839,-2.3870015,30.512474,3.3486779,0.95459527,-0.6139683,-0.51740235,-0.8191628,-0.6882426,-0.7716511,-0.57258654,0.51974064,0.43017438,0.95307535,-0.9702472,-1.9259207,-1.1007406,2.0027144,1.6625723,-0.86404485,0.9980025,-0.9029498,-1.8685558,-1.037129,2.0512679,1.6148955,-0.9039514,-0.73518264,-1.4647274,-1.1686888,-1.3570365,-0.87032217,0.42461857,0.311376,0.14900208,-0.69837475,0.9520379,-2.818368,-0.1525675,-3.5804563,0.011352539,-0.5895672,0.79609054,0.85358626,-0.06396447,0.1258699,0.5014535,-0.33818036,-0.6639738,-1.3976078,1.0,0.0,0.0,0.0,0.0,0.0,0.0,-0.79900205,0.29837474,-0.40203786,-21.522152,-1.1260271,-9.103417,-0.6429672,0.0045895576,-2.025956,0.14799237
-63.4291,33.14547,0.13985825,31.29493,3.485429,1.2426113,-0.6080828,-0.6032352,-0.81850976,-0.69881386,-0.752886,-0.56380725,0.563511,0.40889832,0.937679,-0.9848008,-1.9384372,-1.1124177,1.9948871,1.6712465,-0.86306155,0.9890733,-0.9176316,-1.8807456,-1.050675,2.0426733,1.6190783,-0.90085196,-0.94412875,-1.4703574,-1.2353777,-1.3515376,-0.85798496,0.41477966,0.30998158,0.12084198,-0.6998987,0.9155237,-2.81555,-0.15241496,-3.6750624,0.006919861,-0.5961647,0.7819018,0.8541915,-0.052904498,0.12622453,0.50162256,-0.47845292,-0.6470603,-1.4306144,1.0,0.0,0.0,0.0,0.0,0.0,0.0,-0.77084196,0.2998987,-0.3655237,-20.4859,-0.85902214,-6.5276384,1.2452364,0.49966574,-1.4143467,-0.0036656857
-62.843643,38.50076,1.8386897,31.769028,3.5342355,1.4021254,-0.6395902,-0.69992375,-0.81109196,-0.75412536,-0.73300266,-0.5488858,0.57199496,0.3398248,0.9190809,-0.9987408,-1.9561582,-1.1239753,1.9877847,1.6762778,-0.8668695,0.9781585,-0.93231535,-1.8936164,-1.0640341,2.034239,1.6231848,-0.8978174,-1.1392918,-1.4687028,-1.3038721,-1.3282744,-0.8409907,0.40766615,0.30183116,0.0927124,-0.70142174,0.8780562,-2.812735,-0.15226258,-3.7706392,0.0011062622,-0.60255337,0.76743823,0.85525167,-0.041506343,0.12642121,0.5008386,-0.61891156,-0.6235836,-1.4562075,1.0,0.0,0.0,0.0,0.0,0.0,0.0,-0.7427124,0.30142173,-0.32805622,-19.136524,-0.13916492,-6.683707,3.0214787,0.97225904,-1.1616468,-0.66126585
-54.855415,44.455975,4.970714,29.571663,3.3552444,1.4495674,-0.59570026,-0.75749004,-0.80863005,-0.78192544,-0.7089547,-0.48800465,0.57691866,0.22378777,0.9024095,-1.0131783,-1.971809,-1.1349295,1.9854386,1.6808766,-0.8754386,0.96557474,-0.94695234,-1.9071109,-1.0770518,2.0261405,1.627236,-0.89494777,-1.2970513,-1.4630275,-1.3642969,-1.2909437,-0.8017353,0.4028993,0.28263196,0.06460571,-0.70294285,0.83963364,-2.809923,-0.15211035,-3.8661206,-0.0060195923,-0.6086664,0.7527823,0.85673344,-0.029892039,0.12634721,0.49914974,-0.74603146,-0.5939126,-1.4733775,1.0,0.0,0.0,0.0,0.0,0.0,0.0,-0.7146057,0.30294284,-0.28963363,-15.464735,0.2910614,-5.889821,4.3589354,3.2983303,-0.90340376,-1.7363131
-41.96502,51.601532,9.587877,25.790539,3.086536,1.4479434,-0.4939281,-0.79188627,-0.80585885,-0.77970266,-0.69032425,-0.36846742,0.55979735,0.06304758,0.8863861,-1.0275382,-1.9850812,-1.1460842,1.9892937,1.6832157,-0.888643,0.95176935,-0.96151686,-1.921025,-1.089665,2.0187666,1.6312395,-0.8923805,-1.4077182,-1.4549438,-1.4000452,-1.2497976,-0.7174476,0.3982305,0.24884215,0.03652191,-0.704463,0.800257,-2.8071136,-0.15195827,-3.9615066,-0.014251709,-0.6144438,0.73803645,0.8585651,-0.01823671,0.1257582,0.49670735,-0.8514289,-0.55789614,-1.4794002,1.0,0.0,0.0,0.0,0.0,0.0,0.0,-0.6865219,0.304463,-0.25025702,-10.845876,0.59301853,-3.477192,4.612112,7.972038,-0.8206427,-3.1469345
-30.24642,55.67726,13.051744,22.427593,3.176954,1.3190793,-0.46054605,-0.8095117,-0.8054338,-0.796578,-0.66317487,-0.08187834,0.49092945,-0.21746606,0.8708182,-1.0420603,-2.0006828,-1.1559825,2.0105789,1.6803324,-0.9141271,0.93720865,-0.97600794,-1.9352119,-1.1018339,2.0130332,1.6351515,-0.8903396,-1.47179,-1.4476733,-1.424832,-1.2048594,-0.5263333,0.3878857,0.19022517,0.008468628,-0.70598125,0.7599272,-2.8043072,-0.15180634,-4.056797,-0.02342987,-0.6198931,0.7232948,0.8607397,-0.0067143636,0.1241649,0.49362442,-0.94464016,-0.52504075,-1.4767311,0.0,1.0,0.0,0.0,0.0,0.0,0.0,-0.6584686,0.30598125,-0.2099272,-6.26657,0.5674362,-2.4132013,4.8686743,18.81535,-1.3453603,-5.5460067
-21.648716,59.575134,16.252823,20.247469,3.4491408,1.2892455,-0.39669773,-0.82681084,-0.8010959,-0.7928642,-0.64032304,0.25866723,0.46035486,-0.2842037,0.8545276,-1.0561175,-2.0144982,-1.1658663,2.0389,1.681187,-0.91876,0.922129,-0.99032634,-1.9502789,-1.1141068,2.0112588,1.6374917,-0.8892651,-1.5175395,-1.4285977,-1.5225607,-1.225203,-0.08492978,0.19266285,0.09290744,-0.009231567,-0.70532227,0.75061643,-1.6365248,0.14931022,-0.33727273,-0.033561707,-0.62540054,0.70840096,0.8634634,0.0055185994,0.1204287,0.48979315,-1.0389636,-0.53869504,-1.4949123,0.0,1.0,0.0,0.0,0.0,0.0,0.0,-0.6407684,0.30532226,-0.20061642,-2.9634,0.56102276,-0.5880594,5.111146,30.006372,-2.4715066,-5.3130226
19.698126,176.0,110.0,109.99572,5.4917617,10.701833,-1.6327744,-0.7764984,0.5164406,0.6860444,0.6311712,-0.3469125,0.70870847,-0.33307213,0.84447914,-0.9386823,-1.8816744,-1.0509896,1.9765676,1.7083626,-0.9225723,0.91031104,-1.0070882,-1.955482,-1.111219,1.998739,1.6455864,-0.88655764,-1.0593599,-1.6762156,-0.32979026,0.75976956,-1.506119,1.0793703,0.3574567,-0.02558136,-0.7038307,0.7465018,-1.6348886,0.14916094,-0.4361867,-0.04462433,-0.6287823,0.698299,0.86619264,0.0082282685,0.120554686,0.4848804,-1.1293038,-0.25441426,-0.85375804,0.0,1.0,0.0,0.0,0.0,0.0,0.0,-0.6244186,0.3038307,-0.19650179,48.978497,-0.00030994415,76.208336,188.41235,-101.665474,107.96188,34.679394
-41.363346,145.04335,52.390423,75.56,7.092208,3.6791234,-1.9582777,-0.75749624,-0.72457564,-0.24812964,0.65850264,-0.29299086,0.625044,-0.4352561,0.8345614,-1.0795457,-1.980295,-1.0453688,1.9694399,1.7080908,-0.9300833,0.9001439,-1.0235028,-1.9559493,-1.097284,1.9831312,1.6566433,-0.8833886,-1.0012616,-1.6308684,0.050364736,1.6066662,-1.5818056,1.1170753,0.3053027,-0.041915894,-0.7023401,0.74139875,-1.633254,0.1490118,-0.53500175,-0.057136536,-0.6309023,0.6921829,0.8698245,0.0049991794,0.12269566,0.47783467,-1.2924582,-0.18694805,-0.5349146,0.0,1.0,0.0,0.0,0.0,0.0,0.0,-0.6080841,0.30234012,-0.19139874,6.182885,4.238057,38.80491,85.273575,-8.406258,4.565358,-4.628557
-47.468372,136.31401,36.432053,52.706676,4.5385075,2.2272608,-1.3881795,-0.7661165,-0.5334821,-0.33643922,0.6480471,-0.41827548,0.5915676,-0.12489819,0.8235323,-1.076851,-1.9895933,-1.0324793,1.9413036,1.7158,-0.8958784,0.8896602,-1.0379281,-1.9556499,-1.0789143,1.968662,1.6674274,-0.88070494,-1.0629709,-1.3810972,0.02368434,1.9154222,-1.4038359,1.0670316,0.2561252,-0.05823517,-0.70085144,0.7353083,-1.6316211,0.14886282,-0.633718,-0.070884705,-0.6323328,0.68825173,0.87438875,0.00022722752,0.12552044,0.46870974,-1.4005415,-0.1194487,-0.35241315,0.0,1.0,0.0,0.0,0.0,0.0,0.0,-0.5917648,0.30085143,-0.18530828,-5.8228493,24.626017,-2.5154788,31.365108,17.244434,-4.5829773,-4.8811016
-27.138432,112.596634,32.74505,29.443895,2.886787,1.8320179,-0.51486135,-0.742477,-0.65065813,0.15961987,0.7515986,-0.5163492,0.6138036,-0.25603718,0.81541246,-1.102994,-1.9396878,-1.0037544,1.9170271,1.7288078,-0.90630865,0.8782247,-1.0504956,-1.9545283,-1.0598885,1.9563138,1.6774048,-0.87865835,-1.1699843,-1.2163287,0.14250146,1.8990622,-1.1809129,0.9749372,0.18764861,-0.074539185,-0.6993637,0.72823143,-1.6299899,0.14871399,-0.73233557,-0.085243225,-0.6330185,0.68560785,0.8793741,-0.0049668914,0.12815374,0.4585337,-1.4477675,-0.0420332,-0.24181205,0.0,1.0,0.0,0.0,0.0,0.0,0.0,-0.5754608,0.2993637,-0.17823142,-10.5828285,16.164516,12.154849,-1.4622927,21.508526,-9.065938,-6.8041534
-5.4259987,79.47545,22.36139,7.927647,0.7623606,0.8341548,0.11336554,-0.71580255,-0.65050715,0.103796504,0.6777385,-0.5015881,0.63820946,-0.293605,0.80664444,-1.1155463,-1.9441487,-0.99211466,1.906155,1.7412257,-0.9080188,0.86591357,-1.0619253,-1.952753,-1.0425923,1.9460213,1.6863202,-0.87720233,-1.2525918,-1.117751,0.17593065,1.6634644,-0.9743818,0.83044606,0.14295205,-0.09114838,-0.69711685,0.7231831,-1.6906383,0.38593265,0.17540932,-0.099601746,-0.6331358,0.6833015,0.88433206,-0.009742065,0.13008188,0.4482638,-1.4291669,0.001553006,-0.23781583,0.0,1.0,0.0,0.0,0.0,0.0,0.0,-0.5588516,0.29711685,-0.17318308,-8.477139,9.879613,1.2508094,-25.17252,20.830132,-20.171356,-2.3604333
0.8831363,126.21836,39.041996,14.374208,0.5819572,1.6269349,0.103297696,-0.77619576,-0.3507052,0.23616305,0.732061,-0.44806758,0.60573936,-0.33740905,0.788294,-1.0969958,-1.9291366,-0.96938616,1.9012146,1.7468941,-0.9109432,0.8527443,-1.071462,-1.950159,-1.027528,1.9374859,1.694043,-0.876241,-1.3387977,-0.89997023,0.2886761,1.4538656,-0.81610805,0.7537663,0.07995374,-0.108039856,-0.69326115,0.7241914,-1.688948,0.3855468,0.07598277,-0.11354065,-0.632473,0.68172026,0.8890941,-0.0141735375,0.1316754,0.43814632,-1.3831179,0.098208144,-0.13648356,0.0,1.0,0.0,0.0,0.0,0.0,0.0,-0.5419601,0.29326114,-0.17419142,-8.7538,21.485031,11.718697,-21.072912,14.9802685,-7.4177146,-6.472059
3.4403086,115.306,34.75803,13.254439,0.49193835,1.165746,0.08221935,-0.77047384,-0.34234327,0.18862686,0.7140872,-0.3840809,0.6048963,-0.28510317,0.7756969,-1.1056963,-1.9312962,-0.9561193,1.8990779,1.7545327,-0.90475136,0.83897036,-1.0790762,-1.9468344,-1.0141842,1.9303029,1.7011098,-0.87580615,-1.3905998,-0.71620697,0.34810364,1.2943428,-0.68773955,0.6915587,0.030917501,-0.12491608,-0.68940926,0.7242033,-1.6872594,0.38516134,-0.023738096,-0.12703705,-0.630991,0.6809925,0.8936618,-0.018631952,0.13323537,0.4281001,-1.337213,0.17457007,-0.055435456,0.0,1.0,0.0,0.0,0.0,0.0,0.0,-0.5250839,0.28940925,-0.17420328,-5.2954197,18.141567,6.315124,-15.988779,12.197006,-6.001568,-5.0282946
2.0421462,112.82997,32.291687,15.7744665,0.39709216,0.8531526,-0.050504174,-0.7697991,-0.2411958,0.11617103,0.7247148,-0.42902657,0.58503515,-0.21296364,0.7619904,-1.1031958,-1.9352174,-0.94171274,1.8874002,1.7596133,-0.89710253,0.82490844,-1.0848764,-1.9434745,-1.0017964,1.9239094,1.7076617,-0.8757558,-1.4118111,-0.53473055,0.32639977,1.2175407,-0.6096313,0.62934804,-0.0055924677,-0.14176178,-0.6855469,0.7232442,-1.5928097,0.48555633,0.095886245,-0.14007568,-0.6288433,0.6810337,0.8980707,-0.02300278,0.13517101,0.41793388,-1.2946343,0.23420705,0.019767344,0.0,1.0,0.0,0.0,0.0,0.0,0.0,-0.5082382,0.28554687,-0.17324418,-2.223158,17.988014,-2.5173187,-7.921195,8.863592,-7.4732184,-3.9360118
-7.5409493,98.080956,24.500196,18.32646,0.62607116,0.42211542,-0.23365933,-0.7911982,-0.17288546,-0.01063849,0.7336738,-0.3962251,0.5653044,-0.19338392,0.74578863,-1.102165,-1.9445384,-0.928429,1.8842869,1.7641922,-0.89509416,0.8106939,-1.0890421,-1.9411516,-0.9896985,1.918145,1.7136341,-0.875994,-1.4248396,-0.3776087,0.20138805,1.2076645,-0.56573844,0.5857766,-0.03032158,-0.15758514,-0.68073845,0.72461325,-1.5740608,0.48933572,0.14771135,-0.15287018,-0.62625504,0.6816,0.9024392,-0.026889369,0.13770503,0.40732992,-1.2738007,0.27559656,0.06677372,0.0,1.0,0.0,0.0,0.0,0.0,0.0,-0.49241483,0.28073844,-0.17461324,-1.3357162,15.542263,-12.332877,-0.86393356,4.2987585,-4.531288,-2.610721
-15.068047,83.71566,16.870447,19.243393,0.5502479,-0.0062211156,-0.3559083,-0.79621136,-0.0983013,-0.19332184,0.74808,-0.41327468,0.5491574,-0.1818821,0.7310728,-1.0988722,-1.9604838,-0.9148905,1.8768175,1.7685499,-0.89418226,0.7964031,-1.091762,-1.9409441,-0.9773743,1.9126171,1.7191895,-0.8764334,-1.4305472,-0.23725566,-0.039284296,1.2410315,-0.5491039,0.5460009,-0.04900114,-0.173172,-0.675683,0.7261648,-1.5530049,0.5087263,0.15765715,-0.16557312,-0.6233959,0.68239427,0.9068314,-0.029912151,0.14118645,0.3960158,-1.267248,0.29800442,0.081888944,0.0,1.0,0.0,0.0,0.0,0.0,0.0,-0.47682798,0.27568302,-0.1761648,-0.5838156,13.889438,-24.001427,3.4419537,1.5207171,-3.8885236,-2.0070567
-17.905092,73.38224,13.015864,18.89028,0.6053088,-0.14060122,-0.37237003,-0.80208385,-0.058712438,-0.28157708,0.76139253,-0.40454966,0.5464397,-0.19749437,0.71619475,-1.0976332,-1.9691018,-0.90123504,1.8721621,1.7738335,-0.89618284,0.78206915,-1.0933222,-1.9432807,-0.96457785,1.9071444,1.7244059,-0.8770403,-1.4344188,-0.12944773,-0.2982597,1.2928586,-0.5471932,0.51345676,-0.06512539,-0.188591,-0.6704407,0.72767437,-1.5373766,0.5287805,0.14891855,-0.17828369,-0.6203718,0.6832043,0.911259,-0.031880062,0.14567274,0.38388813,-1.270075,0.31293312,0.07947536,0.0,1.0,0.0,0.0,0.0,0.0,0.0,-0.46140897,0.27044067,-0.17767435,-0.38704872,10.632881,-25.826687,5.2600384,0.062799454,-3.2518983,-1.7695628
-21.537767,53.13213,6.0337863,16.47692,0.653118,-0.37422276,-0.32948554,-0.8116323,-0.07072092,-0.4339957,0.76740056,-0.38254184,0.5398087,-0.15415853,0.7009059,-1.1003942,-1.9866803,-0.88783777,1.8688903,1.7783867,-0.8924562,0.76767343,-1.0942396,-1.9483619,-0.9512893,1.9016966,1.7293473,-0.87775546,-1.4411839,-0.07958695,-0.57806444,1.3410168,-0.54415375,0.48733497,-0.07413167,-0.20392609,-0.6650877,0.7287971,-1.5323176,0.537701,0.10061968,-0.19113922,-0.6172981,0.68371046,0.9157101,-0.032619882,0.15098262,0.37096518,-1.288244,0.3146151,0.040395718,0.0,1.0,0.0,0.0,0.0,0.0,0.0,-0.4460739,0.2650877,-0.17879707,-0.6390333,4.8627706,-27.983105,4.8906803,0.26472807,-2.6907682,-1.0520921
-14.947702,57.96945,8.959741,14.528805,0.40596905,-0.24351609,-0.16938266,-0.8004854,-0.011715253,-0.5028993,0.7714398,-0.42257994,0.53724945,-0.054358628,0.6876249,-1.0954111,-1.9986517,-0.8741453,1.8594385,1.7830722,-0.88319135,0.753272,-1.0946877,-1.95589,-0.93762976,1.8961498,1.7340564,-0.87847155,-1.4399413,-0.0336866,-0.8107524,1.3742012,-0.5586793,0.46489707,-0.07144549,-0.21914673,-0.6596174,0.7295465,-1.5183254,0.5503428,0.067171596,-0.20406342,-0.61416435,0.6838913,0.9200767,-0.032190483,0.15703312,0.35743958,-1.2913603,0.32261145,0.010594827,0.0,1.0,0.0,0.0,0.0,0.0,0.0,-0.43085325,0.25961742,-0.17954648,0.11599064,4.4398994,-23.112154,3.3159494,-1.6304374,-2.3647428,0.06942302
-11.249784,51.555252,8.454291,11.925523,0.3872305,-0.1956721,-0.05212295,-0.80051994,-0.040248413,-0.5589205,0.7758875,-0.44487375,0.534297,-0.042204555,0.67322,-1.0987126,-2.0117822,-0.860041,1.8516624,1.7874861,-0.882692,0.7388982,-1.0949777,-1.9652835,-0.9237479,1.8903834,1.7385687,-0.87914026,-1.4366952,-0.028010774,-0.9814836,1.3928213,-0.5833103,0.44613802,-0.06606504,-0.23422241,-0.65402985,0.7299102,-1.5036262,0.56168735,0.027478296,-0.21701813,-0.6109581,0.6837126,0.924269,-0.030746892,0.16362034,0.34352538,-1.2927516,0.32996276,-0.026886318,0.0,1.0,0.0,0.0,0.0,0.0,0.0,-0.41577756,0.25402984,-0.17991018,0.3019333,0.430239,-16.841484,1.8387079,-2.690637,-2.0137072,0.3451094
-11.067467,40.66639,5.78282,9.536665,0.34969795,-0.20270568,0.06615415,-0.81024486,-0.084161565,-0.6334417,0.76953983,-0.4953145,0.53136975,0.07164368,0.65787375,-1.1033939,-2.0286276,-0.8467939,1.8408519,1.7917056,-0.8719759,0.724513,-1.0955404,-1.9760882,-0.90980303,1.8842351,1.7429199,-0.8796704,-1.4391618,-0.06597126,-1.112711,1.3950572,-0.6259109,0.43110907,-0.049156033,-0.24918365,-0.64835835,0.7297377,-1.4926722,0.5692669,-0.030158242,-0.22999573,-0.60770226,0.68302226,0.92822516,-0.028344983,0.17052583,0.32941684,-1.2983204,0.33403766,-0.08219523,0.0,1.0,0.0,0.0,0.0,0.0,0.0,-0.40081632,0.24835834,-0.17973769,-0.25439262,-3.9058895,-12.898397,0.23190975,-4.4683337,-1.6217709,1.5197605
-7.254669,38.088837,6.279362,7.711339,0.36846673,-0.13798064,0.14881636,-0.8009175,-0.11001867,-0.6573809,0.76975244,-0.5042205,0.53622043,0.09812663,0.6444212,-1.1065422,-2.0418262,-0.8328278,1.8338131,1.7965419,-0.8698577,0.71013826,-1.0966448,-1.9878255,-0.8958926,1.8776808,1.7471452,-0.8800156,-1.4369245,-0.12550522,-1.1930841,1.3896521,-0.666118,0.41933405,-0.03012847,-0.2640152,-0.64261246,0.7289969,-1.4801004,0.57657075,-0.087077074,-0.24304199,-0.6044035,0.68177485,0.9319029,-0.025124816,0.17753859,0.3152867,-1.3013066,0.33912066,-0.13781475,0.0,1.0,0.0,0.0,0.0,0.0,0.0,-0.38598478,0.24261245,-0.17899686,0.19993782,-6.0507193,-7.759738,-0.53236485,-4.2669415,-1.3039052,1.7524723
-7.5712185,31.30972,4.653535,6.6299105,0.45490527,-0.14625835,0.19432881,-0.8044705,-0.16901518,-0.69528764,0.7699513,-0.5284661,0.53625137,0.1668418,0.62969124,-1.1135463,-2.0573542,-0.8188975,1.8248341,1.8007703,-0.86333144,0.695774,-1.0985483,-2.0001712,-0.8820488,1.8707275,1.7512732,-0.8801318,-1.4363045,-0.2122198,-1.247702,1.3828346,-0.7056711,0.4101829,-0.005828997,-0.27876282,-0.63681316,0.72759783,-1.4713547,0.5814323,-0.15506049,-0.25614166,-0.6010647,0.67989904,0.93529224,-0.02117586,0.18447277,0.30124688,-1.310347,0.34249744,-0.20317699,0.0,1.0,0.0,0.0,0.0,0.0,0.0,-0.37123716,0.23681316,-0.17759782,0.057578087,-8.751595,-5.2120686,-0.6221533,-4.169619,-1.0409892,2.3178394
-10.761699,13.216952,-0.6515795,4.294389,0.5122635,-0.2994703,0.2366464,-0.8135363,-0.28568643,-0.7294559,0.76212037,-0.5540127,0.5031939,0.24423006,0.6144204,-1.1271169,-2.0731168,-0.80583674,1.8153262,1.8015926,-0.8557088,0.6813745,-1.1017221,-2.012981,-0.8682911,1.8633862,1.7553053,-0.879963,-1.4409571,-0.3524986,-1.2918881,1.3741056,-0.74379337,0.40044707,0.024325443,-0.29346466,-0.6310034,0.72530943,-1.4698836,0.58085096,-0.25342715,-0.2694397,-0.59775543,0.67714614,0.93842286,-0.016454402,0.19107078,0.2873739,-1.335623,0.33767778,-0.29846162,0.0,1.0,0.0,0.0,0.0,0.0,0.0,-0.35653532,0.23100337,-0.17530942,-0.39522648,-14.063538,-4.3410063,-0.67870617,-3.862679,-1.0731816,2.9785779
-7.4032145,28.699718,4.1987247,6.033145,0.562479,-0.08699292,0.26524454,-0.8028,-0.27529997,-0.7318348,0.7693506,-0.58153087,0.5394101,0.33835614,0.6010945,-1.1292521,-2.0861645,-0.791356,1.8052331,1.8092463,-0.8461274,0.66697305,-1.1060423,-2.0260794,-0.8545732,1.8556571,1.759273,-0.87944704,-1.4398862,-0.45873788,-1.3150176,1.3713216,-0.7830463,0.39481023,0.06042091,-0.30815125,-0.6251879,0.7221059,-1.4669437,0.5832917,-0.3315116,-0.2829361,-0.59441376,0.67362916,0.94127375,-0.011070851,0.19735764,0.27373517,-1.3482879,0.3438323,-0.3687613,0.0,1.0,0.0,0.0,0.0,0.0,0.0,-0.34184873,0.22518787,-0.17210591,0.11510849,-10.702049,-2.1103144,-0.17492771,-4.104483,-0.75449944,3.5496979
-9.326598,20.185406,1.7825649,4.907323,0.6431912,-0.11176431,0.2678703,-0.81258345,-0.38778013,-0.7400869,0.7600266,-0.58469427,0.5436511,0.3373757,0.5857147,-1.1448203,-2.1000881,-0.77857053,1.7971877,1.8136382,-0.84570944,0.6525478,-1.1116174,-2.0393279,-0.8408994,1.8476119,1.7631965,-0.87859863,-1.4432925,-0.5906614,-1.3276033,1.3667759,-0.8121874,0.3909936,0.09299926,-0.3228073,-0.6193514,0.71809584,-1.4647337,0.5841743,-0.42229924,-0.29660797,-0.59102345,0.66930926,0.9438681,-0.005081898,0.20321982,0.260363,-1.3699358,0.3487705,-0.45278445,0.0,1.0,0.0,0.0,0.0,0.0,0.0,-0.32719266,0.21935138,-0.16809583,-0.29203892,-13.25624,-1.0860205,-0.23262501,-3.063476,-0.5554378,3.2527878
-5.147988,39.688595,7.674964,7.249153,0.7881101,0.16078609,0.26675528,-0.80034727,-0.37453973,-0.72632134,0.7689256,-0.57541823,0.58847654,0.41162336,0.57251304,-1.1490715,-2.11196,-0.76400685,1.79007,1.8220441,-0.8374363,0.6381416,-1.118152,-2.0525572,-0.82722837,1.8393829,1.7671126,-0.8774053,-1.4398427,-0.6746417,-1.3202646,1.3675175,-0.82740897,0.39108098,0.12791228,-0.33737946,-0.6134443,0.7134754,-1.452774,0.5928036,-0.4740238,-0.3103714,-0.5874853,0.66440594,0.9461963,0.0013316463,0.20870735,0.24728918,-1.3759079,0.36644167,-0.5028452,0.0,1.0,0.0,0.0,0.0,0.0,0.0,-0.31262052,0.21344432,-0.1634754,0.3080845,-8.512354,1.1383057,0.18575191,-1.8535733,-0.22652149,3.4419804
-7.503648,34.75135,5.788703,6.780858,0.79248834,0.11628485,0.2615983,-0.8115943,-0.46090546,-0.74748373,0.7592927,-0.5876976,0.5361221,0.42537925,0.55698216,-1.1642426,-2.1273055,-0.7512991,1.7806132,1.8207248,-0.83486736,0.6237249,-1.1256002,-2.065775,-0.8135794,1.8310337,1.7709981,-0.87588763,-1.4422822,-0.7686188,-1.321237,1.3645389,-0.8385205,0.3867356,0.15966776,-0.35182953,-0.60747147,0.70824194,-1.4420296,0.5988886,-0.5388543,-0.3242569,-0.58378506,0.6589318,0.94827724,0.008168269,0.21379708,0.23450889,-1.3872228,0.38298416,-0.562575,0.0,1.0,0.0,0.0,0.0,0.0,0.0,-0.29817045,0.20747146,-0.15824193,-0.2509594,-9.504616,0.2423048,-0.1332283,-1.4374137,-0.6782651,3.151372
-6.0564723,36.193943,6.5497975,6.6374655,0.9227763,0.19220746,0.26220047,-0.8050295,-0.51736635,-0.71726644,0.7657193,-0.5567309,0.5712514,0.47475758,0.54322195,-1.1773368,-2.1375015,-0.73700744,1.7753606,1.8281232,-0.8284119,0.60930914,-1.1340021,-2.0788667,-0.7999294,1.8227041,1.7748656,-0.8740499,-1.4413848,-0.8643217,-1.3037751,1.3656648,-0.8322504,0.38571844,0.19188647,-0.36616516,-0.60144234,0.70238185,-1.4301852,0.6054574,-0.6008494,-0.33824158,-0.5798931,0.6528936,0.9501405,0.015338407,0.21838924,0.22204494,-1.3977244,0.40293851,-0.6179634,0.0,1.0,0.0,0.0,0.0,0.0,0.0,-0.28383482,0.20144233,-0.15238184,0.0729084,-9.679281,2.1169424,0.27997494,0.27202368,-0.3945589,3.2336295
-3.4849663,30.751194,5.449808,4.518197,0.7763981,0.14461201,0.29537314,-0.79470724,-0.5955629,-0.7043412,0.7629743,-0.56558955,0.5689114,0.49874318,0.52983844,-1.1935583,-2.1493008,-0.723632,1.7661451,1.8317567,-0.8241756,0.59495443,-1.1434854,-2.0917258,-0.7862732,1.8144363,1.7787262,-0.87190497,-1.433552,-0.97673404,-1.2789291,1.366283,-0.82600343,0.38521877,0.22219174,-0.38039398,-0.59536076,0.695827,-1.4208286,0.6097855,-0.6726816,-0.3523178,-0.5758295,0.6462309,0.9518111,0.022787753,0.22238855,0.20995156,-1.4060366,0.41950056,-0.6831795,0.0,1.0,0.0,0.0,0.0,0.0,0.0,-0.269606,0.19536075,-0.145827,0.7778883,-11.330485,2.798915,0.25811195,0.3216982,-0.33717752,3.0803442
-0.14754152,33.849323,6.576954,3.887828,0.70720696,0.18350351,0.30929282,-0.78293663,-0.6384735,-0.68487823,0.7643839,-0.5611163,0.550824,0.52129924,0.51666075,-1.2073327,-2.1602137,-0.7098348,1.7583247,1.8338087,-0.81977504,0.58073133,-1.1540445,-2.104276,-0.77260596,1.806241,1.7825683,-0.8694739,-1.4186323,-1.0826088,-1.2460467,1.3674043,-0.81844294,0.38302723,0.25024045,-0.39450073,-0.58923244,0.68859553,-1.4070997,0.61385006,-0.738758,-0.36642456,-0.571599,0.63895375,0.9533029,0.030464524,0.22577515,0.19827025,-1.4065006,0.43628016,-0.74368066,0.0,1.0,0.0,0.0,0.0,0.0,0.0,-0.25549924,0.18923244,-0.13859552,1.4622688,-10.679245,3.6522865,0.279665,0.41491985,-0.48927665,2.8431506
3.224813,43.419285,9.082858,4.4128036,0.63139796,0.29280537,0.32388318,-0.7722346,-0.6565237,-0.66769487,0.7584256,-0.57879657,0.5355099,0.55494046,0.50350785,-1.2196969,-2.1710455,-0.6967634,1.7483613,1.8361193,-0.8139798,0.56668943,-1.1654638,-2.116479,-0.7589626,1.7980579,1.786377,-0.86677116,-1.3996426,-1.1620725,-1.2098765,1.3636129,-0.81967753,0.37913248,0.27694926,-0.4084015,-0.5830612,0.680826,-1.3832961,0.618249,-0.7881625,-0.38043213,-0.56718636,0.6311792,0.95460355,0.038323924,0.22865343,0.1870317,-1.3936625,0.4551024,-0.7899965,0.0,1.0,0.0,0.0,0.0,0.0,0.0,-0.24159849,0.18306121,-0.130826,1.8204451,-8.055425,4.1108847,-0.29013157,-0.59865713,-0.6617367,2.6641428
0.025602818,52.256203,10.071117,6.5540323,0.66384363,0.37923485,0.31207615,-0.7863868,-0.66061413,-0.6943251,0.7326381,-0.57910043,0.44660354,0.5863929,0.48805076,-1.2315252,-2.1859114,-0.68569875,1.7401478,1.8310373,-0.8081319,0.55273527,-1.1774153,-2.1285253,-0.7454842,1.7898465,1.790079,-0.86380994,-1.3942679,-1.2066948,-1.2008005,1.3428112,-0.8234943,0.36627868,0.3023476,-0.42201996,-0.57684135,0.672647,-1.3543248,0.62316203,-0.82701695,-0.3942871,-0.5625534,0.623021,0.95569545,0.04645954,0.23117024,0.17620449,-1.3766632,0.47832888,-0.8259438,0.0,1.0,0.0,0.0,0.0,0.0,0.0,-0.22798002,0.17684135,-0.12264699,0.44195652,-4.5971394,1.4752388,-2.0307064,-0.9649873,-1.5706241,2.4814188
2.5885105,63.401665,12.844696,8.12366,0.8492546,0.47485197,0.28713596,-0.7684056,-0.66372305,-0.67013204,0.7334333,-0.5367695,0.41420266,0.6090088,0.4758947,-1.2437875,-2.1955385,-0.67214084,1.7361696,1.8314992,-0.8029091,0.53886884,-1.1896032,-2.1404536,-0.7322098,1.7817225,1.7936288,-0.86060727,-1.3845024,-1.2233227,-1.187912,1.3222371,-0.81097835,0.35028994,0.3259164,-0.43527985,-0.57057476,0.6642152,-1.3162837,0.627691,-0.84735996,-0.40790558,-0.5576649,0.6146527,0.95657974,0.054819882,0.2333918,0.16576572,-1.351845,0.50412405,-0.8421738,0.0,1.0,0.0,0.0,0.0,0.0,0.0,-0.21472013,0.17057475,-0.114215195,0.829792,-1.8154144,2.0058155,-2.0980358,0.5213976,-1.899761,2.2611618
4.429267,69.812325,14.400147,8.772171,0.9932505,0.528291,0.27885464,-0.76383936,-0.6671932,-0.6488418,0.7088406,-0.49906656,0.35635838,0.6121468,0.4624849,-1.2563225,-2.2053378,-0.66132575,1.7318159,1.8292646,-0.7993926,0.5250978,-1.2018331,-2.1521912,-0.7192159,1.7738444,1.7969873,-0.8571948,-1.3752583,-1.2235316,-1.1666454,1.2913827,-0.78295153,0.32987648,0.3460608,-0.44812775,-0.5642729,0.6556544,-1.2732468,0.6308365,-0.85802007,-0.42126465,-0.5525131,0.60621023,0.9572759,0.06330534,0.23530197,0.15571804,-1.3222283,0.5304476,-0.8467723,0.0,1.0,0.0,0.0,0.0,0.0,0.0,-0.20187223,0.16427287,-0.10565436,0.7466793,-0.17716885,2.9352665,-3.185439,1.9735217,-2.3495555,1.9044936
6.792698,77.121315,16.084822,9.668844,1.097111,0.5376052,0.26601952,-0.75413674,-0.6513807,-0.6342815,0.69270176,-0.4841201,0.24199137,0.6258764,0.4496841,-1.2669712,-2.2156193,-0.64994574,1.7254324,1.8211864,-0.79460716,0.51143926,-1.2139295,-2.1636808,-0.70655775,1.7662734,1.8000712,-0.8535967,-1.3633475,-1.2056108,-1.139871,1.2568158,-0.75161964,0.30015653,0.36392897,-0.460495,-0.55795765,0.6470739,-1.2240856,0.63154733,-0.85716194,-0.43426514,-0.5471096,0.5978169,0.95779747,0.07186373,0.23691076,0.14605771,-1.2867136,0.55495024,-0.838356,0.0,1.0,0.0,0.0,0.0,0.0,0.0,-0.18950498,0.15795764,-0.09707391,0.980258,1.6328335,3.583765,-3.6228657,2.2027373,-3.2788754,1.6490281
8.36631,69.838394,14.516573,7.1345496,1.2223397,0.2949741,0.30887863,-0.75537956,-0.6734334,-0.6274271,0.61866254,-0.2835601,-0.091703765,0.6334922,0.4359013,-1.2812729,-2.2264235,-0.64469147,1.7379174,1.7909008,-0.79024744,0.4978704,-1.2259382,-2.1749222,-0.6945156,1.7595587,1.8026295,-0.8498344,-1.3553287,-1.1996909,-1.1160979,1.1861517,-0.6473066,0.24000797,0.38006723,-0.47245026,-0.55165577,0.63837385,-1.184104,0.6295548,-0.87243545,-0.44698334,-0.5415087,0.58943087,0.9582409,0.080467485,0.2378632,0.13682196,-1.2594169,0.57246906,-0.8400247,0.0,1.0,0.0,0.0,0.0,0.0,0.0,-0.17754972,0.15165576,-0.08837384,0.6140709,0.46539307,3.167057,-7.216716,9.5895405,-6.342429,1.5448332
9.828165,69.61913,14.46291,6.021575,1.3898294,0.1885814,0.33908015,-0.75892156,-0.65366375,-0.6204587,0.53733164,-0.10662669,-0.3594269,0.64223176,0.42197824,-1.2913046,-2.236968,-0.6407824,1.748896,1.7666868,-0.7856112,0.48433584,-1.2378286,-2.1859577,-0.6834747,1.7543528,1.8044164,-0.8459234,-1.3534484,-1.1858832,-1.0969601,1.0761962,-0.480988,0.1570258,0.39461645,-0.48401642,-0.5453863,0.62949455,-1.146882,0.6257609,-0.89146334,-0.45944214,-0.5357523,0.581033,0.9587107,0.08906146,0.2377887,0.128056,-1.2346396,0.5872791,-0.8410452,0.0,1.0,0.0,0.0,0.0,0.0,0.0,-0.16598356,0.14538631,-0.079494536,0.0016927719,1.2753487,2.6598454,-11.173606,15.816647,-8.634747,1.4113188
16.015018,69.127,15.780974,4.227127,1.8303713,0.2060225,0.3204891,-0.7404409,-0.6611497,-0.5441121,0.47247714,0.18385875,-0.41624483,0.6243841,0.41029173,-1.3039436,-2.2403688,-0.636227,1.7727387,1.762792,-0.783485,0.47088283,-1.249637,-2.1965122,-0.6736766,1.7515019,1.8053854,-0.84189504,-1.3432422,-1.1795254,-1.0390495,0.9469121,-0.22210442,0.07571647,0.40562692,-0.495224,-0.5391617,0.6204302,-1.1107955,0.6209641,-0.909112,-0.47167206,-0.5298414,0.5726827,0.95935744,0.097264536,0.2362587,0.11981072,-1.2120793,0.6022302,-0.8342974,0.0,1.0,0.0,0.0,0.0,0.0,0.0,-0.15477598,0.13916168,-0.07043016,0.8255005,0.56102276,6.514454,-13.143385,25.135002,-8.474239,1.1190593
20.7227,64.840225,15.519807,1.5152112,1.6450353,0.21577609,0.36835203,-0.7374485,-0.67261237,-0.4861019,0.37575728,0.26818904,-0.5065132,0.5954909,0.39713797,-1.3168982,-2.2451224,-0.6361009,1.7783208,1.754734,-0.78234595,0.4575376,-1.2614664,-2.2062736,-0.6653614,1.7511828,1.8055589,-0.8377943,-1.3321832,-1.1841592,-0.95295197,0.7923938,0.02933483,-0.003104955,0.4116512,-0.50606537,-0.53300476,0.61116636,-1.0743676,0.6136732,-0.9307816,-0.48363495,-0.5238228,0.56434566,0.9602572,0.10484691,0.23308988,0.112171054,-1.1832852,0.6117072,-0.8345075,0.0,1.0,0.0,0.0,0.0,0.0,0.0,-0.14393461,0.13300475,-0.061166346,0.9289503,-0.50623417,9.240317,-15.658892,24.502647,-8.162958,0.6278634
30.491978,72.16321,18.840601,0.3240106,1.5737795,0.40640473,0.39947388,-0.71791583,-0.66023326,-0.32587683,0.29170254,0.30144608,-0.5241156,0.5768872,0.385746,-1.3274897,-2.2388613,-0.6361911,1.7813274,1.7531474,-0.7801056,0.44437212,-1.2733034,-2.214555,-0.6586628,1.752997,1.8050208,-0.83366096,-1.311969,-1.1836718,-0.7841965,0.6280218,0.23019737,-0.07134069,0.41385338,-0.5164337,-0.52696323,0.6018531,-1.0240833,0.60073835,-0.9311936,-0.4951706,-0.51774883,0.5561306,0.96142524,0.111515135,0.22835614,0.10525789,-1.135464,0.61530375,-0.8183398,0.0,1.0,0.0,0.0,0.0,0.0,0.0,-0.13356626,0.12696323,-0.05185306,1.8235445,0.03182888,17.528677,-16.710234,19.476418,-6.9955387,0.20611286
29.50217,70.033226,17.421993,-0.83518624,1.0536414,0.4317152,0.48653468,-0.7327786,-0.64477295,-0.3192652,0.14915721,0.3327634,-0.5661945,0.57622206,0.37109426,-1.3377807,-2.2464817,-0.6437471,1.7862734,1.7484014,-0.77603877,0.43131346,-1.2850565,-2.2213333,-0.65388304,1.7563903,1.8038572,-0.8295153,-1.3043137,-1.1726902,-0.6409367,0.42717946,0.37440342,-0.13174294,0.41472065,-0.5262909,-0.52107143,0.59249234,-0.9732133,0.58501405,-0.9366699,-0.5061493,-0.5116787,0.54798186,0.9628009,0.11737097,0.22226928,0.09917022,-1.0801108,0.613085,-0.81523794,0.0,1.0,0.0,0.0,0.0,0.0,0.0,-0.12370908,0.12107143,-0.04249233,0.6174803,1.0915995,14.785517,-20.296455,13.97928,-6.126955,0.0551641
36.91257,85.066315,22.447002,0.9611621,1.5018063,0.70520324,0.4433349,-0.7135151,-0.61662334,-0.07442373,0.06645199,0.43025118,-0.5606545,0.577422,0.35996193,-1.3467188,-2.2287757,-0.64723784,1.7994155,1.7477918,-0.7717731,0.41837454,-1.2965654,-2.2259336,-0.6510802,1.7610921,1.8021712,-0.82536316,-1.2908678,-1.1436411,-0.39854208,0.23048888,0.50118446,-0.18077993,0.41516328,-0.5355377,-0.51538086,0.5833329,-0.90759814,0.5634717,-0.908135,-0.5164795,-0.5056219,0.54012865,0.9644016,0.12208008,0.21493272,0.0939666,-1.0126085,0.61112773,-0.7769093,0.0,1.0,0.0,0.0,0.0,0.0,0.0,-0.11446226,0.11538085,-0.033332884,1.1992455,2.9193878,24.613602,-19.927206,12.387049,-4.870662,-0.006610155
44.15123,92.19737,26.437159,0.41314292,2.0331686,0.9675464,0.46912897,-0.7190094,-0.6163152,0.23186348,-0.08841345,0.5756028,-0.5653469,0.6041097,0.3464736,-1.358197,-2.202747,-0.6599215,1.8186524,1.7456366,-0.7649522,0.4055195,-1.3078054,-2.2270894,-0.6504656,1.7671883,1.800062,-0.8211864,-1.28404,-1.1171445,-0.020761015,0.004392564,0.64571476,-0.22031347,0.4184493,-0.54405975,-0.5099373,0.57464045,-0.8343849,0.5378801,-0.8571983,-0.5260849,-0.49956894,0.53284943,0.96634495,0.12496942,0.20615463,0.089779474,-0.9389044,0.61094725,-0.7130914,0.0,1.0,0.0,0.0,0.0,0.0,0.0,-0.10594022,0.10993728,-0.024640441,0.59428215,2.68147,37.89207,-22.822496,14.451849,-3.9826334,0.38380027
40.89348,98.63736,26.87497,2.613614,2.0565555,1.0101564,0.45044553,-0.7264568,-0.56256324,0.30529755,-0.21576403,0.6526957,-0.5779431,0.6155424,0.3328738,-1.3640617,-2.1965597,-0.672042,1.8324579,1.7422676,-0.7596322,0.39267114,-1.3185896,-2.224715,-0.6521836,1.7747056,1.7976105,-0.8169685,-1.2851026,-1.0656117,0.32260036,-0.23086922,0.7881717,-0.25264472,0.42297038,-0.55184937,-0.5047817,0.566539,-0.76050967,0.50998133,-0.7968162,-0.53497314,-0.49350643,0.52626234,0.96861964,0.12591916,0.19600897,0.08660756,-0.8669516,0.61107767,-0.6424584,0.0,1.0,0.0,0.0,0.0,0.0,0.0,-0.09815061,0.10478172,-0.016538978,-0.1032114,5.185199,34.07232,-23.619099,14.624966,-2.9325633,0.46269298
33.99478,103.99929,24.778662,5.1068325,1.3921654,0.85713845,0.45619324,-0.7230541,-0.46802363,0.21631111,-0.34937057,0.69004714,-0.5645149,0.6012468,0.32036573,-1.365392,-2.203084,-0.6871207,1.8437104,1.7411591,-0.7568438,0.3798099,-1.3284868,-2.2202444,-0.6562986,1.7834797,1.7948955,-0.812718,-1.2861843,-0.9642699,0.4865317,-0.47156417,0.9095486,-0.2766316,0.42598125,-0.5589142,-0.49991798,0.5590176,-0.68851286,0.4793977,-0.7381162,-0.54312134,-0.4874897,0.5202947,0.9710364,0.12554319,0.18496546,0.084350094,-0.79402214,0.6040075,-0.5830665,0.0,1.0,0.0,0.0,0.0,0.0,0.0,-0.09108579,0.09991798,-0.009017587,-0.025463104,10.177612,15.804869,-24.016375,12.861502,-2.1213293,0.3904879
20.714151,125.84876,27.09658,16.11095,2.0487995,0.9817717,0.13451181,-0.71993744,-0.37076342,0.3082132,-0.30973384,0.69140965,-0.5355721,0.5893861,0.30781615,-1.3655632,-2.189423,-0.68727195,1.8526206,1.7413384,-0.75377935,0.36695465,-1.3370317,-2.2146523,-0.6620217,1.7931925,1.7919981,-0.80844945,-1.2848107,-0.8174941,0.5807283,-0.60553247,0.99513406,-0.29255572,0.42734218,-0.56523895,-0.49536133,0.552338,-0.614798,0.44812658,-0.6465355,-0.55065155,-0.4814415,0.51519734,0.97343886,0.124209456,0.1736829,0.08260071,-0.73641515,0.60996777,-0.48645207,0.0,1.0,0.0,0.0,0.0,0.0,0.0,-0.08476102,0.09536132,-0.0023379922,0.29063225,14.781904,8.563995,-13.292789,9.595001,-1.097393,0.2030909
24.082579,114.621086,25.607115,13.146454,1.6898215,0.8322747,0.16221645,-0.69913757,-0.3831212,0.4518772,-0.40055516,0.7125544,-0.5065409,0.5949018,0.29704088,-1.3753438,-2.1694646,-0.7020772,1.864448,1.7413441,-0.74895924,0.35421458,-1.3443998,-2.207993,-0.6688778,1.8035576,1.7889924,-0.8041673,-1.2697709,-0.7093886,0.6910483,-0.7118891,1.0539666,-0.30168656,0.42885286,-0.5708771,-0.49112225,0.5464854,-0.5482774,0.41627148,-0.56646526,-0.5576248,-0.4753933,0.5109346,0.97579044,0.121973105,0.16233505,0.081257805,-0.6816928,0.60740685,-0.40717128,0.0,1.0,0.0,0.0,0.0,0.0,0.0,-0.0791229,0.09112224,0.0035145879,1.6792059,10.923266,10.105252,-10.49788,6.9986105,-0.4509449,0.25259852
29.919222,105.61107,24.90651,10.149353,1.339356,0.7167889,0.18306372,-0.6635435,-0.36343354,0.5402232,-0.435215,0.73016655,-0.38914165,0.59639734,0.2878602,-1.3807431,-2.1539707,-0.7123993,1.8765743,1.7500782,-0.7445275,0.34179154,-1.3509477,-2.2001123,-0.67653674,1.8143655,1.7860051,-0.79987097,-1.232533,-0.63624513,0.8172295,-0.7833316,1.0934476,-0.2961817,0.4302366,-0.57588196,-0.48721313,0.54138863,-0.4863464,0.3830085,-0.4929728,-0.564064,-0.46943665,0.5073677,0.97808295,0.11878283,0.15095277,0.08035819,-0.6266744,0.59527045,-0.34070185,0.0,1.0,0.0,0.0,0.0,0.0,0.0,-0.07411802,0.08721313,0.008611381,3.9152384,7.432449,11.658991,-6.9880366,5.103183,1.0304391,0.25337338
37.632305,93.903625,23.703796,6.2298846,0.85773677,0.5687877,0.20849663,-0.6067054,-0.36412475,0.6046541,-0.42765513,0.7321394,-0.16196826,0.59915805,0.281121,-1.3873602,-2.139647,-0.71930224,1.8875794,1.7698083,-0.7399552,0.32997695,-1.357076,-2.1909423,-0.6845762,1.8254288,1.7832562,-0.7955613,-1.1637728,-0.6047829,0.94734,-0.8101589,1.1142521,-0.26618546,0.43167543,-0.580307,-0.4836445,0.5369377,-0.42945784,0.34859335,-0.43073344,-0.5699234,-0.46368885,0.50432605,0.9803022,0.114578545,0.13960099,0.07994306,-0.57015085,0.5711323,-0.29267272,0.0,1.0,0.0,0.0,0.0,0.0,0.0,-0.06969297,0.08364448,0.013062298,7.0706367,3.2572389,12.117314,-2.5174737,3.1708002,3.4840286,0.27182102
41.833492,85.00535,22.556517,4.239018,0.5703333,0.46318662,0.17583008,-0.5443566,-0.3731235,0.66091967,-0.3835145,0.7312432,0.11223086,0.5984968,0.27554128,-1.3943884,-2.1248503,-0.7229277,1.8985531,1.7944793,-0.73571163,0.3190588,-1.363149,-2.1805208,-0.6924642,1.8365934,1.7810112,-0.7912383,-1.0671635,-0.60776305,1.0714772,-0.7810809,1.1202321,-0.20909277,0.4328807,-0.5842056,-0.48041725,0.5330504,-0.3783101,0.31472033,-0.3775989,-0.57522583,-0.4582281,0.5016606,0.9824293,0.10931051,0.12839626,0.07998782,-0.5164138,0.5404391,-0.25818962,0.0,1.0,0.0,0.0,0.0,0.0,0.0,-0.06579435,0.080417246,0.016949594,9.853625,-0.19946098,11.648965,3.0837774,1.5528202,6.174514,0.26421547
