Afshin1997/kuka_rl_ros2/src/catch_and_throw/input_files/idealpd/polynomial_regressor/optimizer_files/env_484_data.csv
torque0,torque1,torque2,torque3,torque4,torque5,torque6,action0,action1,action2,action3,action4,action5,action6,set_target_0,set_target_1,set_target_2,set_target_3,set_target_4,set_target_5,set_target_6,joint_pos_0,joint_pos_1,joint_pos_2,joint_pos_3,joint_pos_4,joint_pos_5,joint_pos_6,joint_vel_0,joint_vel_1,joint_vel_2,joint_vel_3,joint_vel_4,joint_vel_5,joint_vel_6,tennisball_pos_0,tennisball_pos_1,tennisball_pos_2,tennisball_lin_vel_0,tennisball_lin_vel_1,tennisball_lin_vel_2,end_effector_pos_0,end_effector_pos_1,end_effector_pos_2,end_effector_rot_0,end_effector_rot_1,end_effector_rot_2,end_effector_rot_3,end_effector_lin_vel_0,end_effector_lin_vel_1,end_effector_lin_vel_2,obs_task_0,obs_task_1,obs_task_2,obs_task_3,obs_task_4,obs_task_5,obs_task_6,to_final_target_0,to_final_target_1,to_final_target_2,joint_acc_0,joint_acc_1,joint_acc_2,joint_acc_3,joint_acc_4,joint_acc_5,joint_acc_6
0.0,0.0,0.0,0.0,0.0,0.0,0.0,0.0,0.0,0.0,0.0,0.0,0.0,0.0,1.7802359,-1.0646509,-1.8151424,-1.1170107,1.9373155,1.1170107,-0.91629785,1.7802359,-1.0646509,-1.8151424,-1.1170107,1.9373155,1.1170107,-0.91629785,0.0,0.0,0.0,0.0,0.0,0.0,0.0,2.7394714,-0.26210785,0.4220766,-2.9698381,-0.24027045,5.188575,0.5304184,-0.45448303,0.693097,0.5745483,0.17512383,0.15255436,0.7848268,0.0,0.0,0.0,1.0,0.0,0.0,0.0,0.0,0.0,0.0,-3.3894715,-0.13789216,0.1279234,0.0,0.0,0.0,0.0,0.0,0.0,0.0
0.0,0.0,0.0,0.0,0.0,0.0,0.0,0.0,0.0,0.0,0.0,0.0,0.0,0.0,1.7802359,-1.0646509,-1.8151424,-1.1170107,1.9373155,1.1170107,-0.91629785,1.7802359,-1.0646509,-1.8151424,-1.1170107,1.9373155,1.1170107,-0.91629785,0.0,0.0,0.0,0.0,0.0,0.0,0.0,2.7394714,-0.26210785,0.4220766,-2.9698381,-0.24027045,5.188575,0.5304184,-0.45448303,0.693097,0.5745483,0.17512383,0.15255436,0.7848268,0.0,0.0,0.0,1.0,0.0,0.0,0.0,0.0,0.0,0.0,-3.3894715,-0.13789216,0.1279234,0.0,0.0,0.0,0.0,0.0,0.0,0.0
0.0,0.0,0.0,0.0,0.0,0.0,0.0,0.0,0.0,0.0,0.0,0.0,0.0,0.0,1.7802359,-1.0646509,-1.8151424,-1.1170107,1.9373155,1.1170107,-0.91629785,1.7802359,-1.0646509,-1.8151424,-1.1170107,1.9373155,1.1170107,-0.91629785,0.0,0.0,0.0,0.0,0.0,0.0,0.0,2.7394714,-0.26210785,0.4220766,-2.9698381,-0.24027045,5.188575,0.5304184,-0.45448303,0.693097,0.5745483,0.17512383,0.15255436,0.7848268,0.0,0.0,0.0,1.0,0.0,0.0,0.0,0.0,0.0,0.0,-3.3894715,-0.13789216,0.1279234,0.0,0.0,0.0,0.0,0.0,0.0,0.0
-176.0,88.45132,2.00984,110.0,10.931115,5.543133,-3.8505428,-0.82112235,0.4455378,-0.52812636,0.7337837,0.3500777,0.63703406,-0.57639885,1.6981237,-1.0200971,-1.867955,-1.0436324,1.9723232,1.1807141,-0.97393775,1.7785307,-1.0620741,-1.8203323,-1.1129786,1.9439149,1.1220995,-0.91860956,-0.2272155,0.34285587,-0.691247,0.5378294,0.87900513,0.676299,-0.30765745,2.7098007,-0.26450348,0.473187,-2.966869,-0.24003023,5.0852013,0.5281296,-0.4576187,0.6941545,0.5783242,0.17373636,0.1504828,0.782759,-0.30450442,-0.41589904,0.14074865,1.0,0.0,0.0,0.0,0.0,0.0,0.0,-3.3598008,-0.13549653,0.07681301,-22.691479,34.096092,-68.89462,53.82614,87.620255,67.00907,-30.606112
-176.0,21.556885,-26.63303,110.0,11.224173,3.0688286,-3.6849916,-0.81505674,0.09685658,-0.55523664,0.7104094,0.41868702,0.63719726,-0.60189104,1.6970251,-1.0523884,-1.8758559,-1.0419376,1.9857836,1.1858193,-0.9787987,1.7757689,-1.0574812,-1.83409,-1.1014315,1.957499,1.1348006,-0.92184347,-0.29085213,0.4963836,-1.6043622,1.3622198,1.5170232,1.4612876,-0.32558998,2.6801605,-0.2668991,0.5232644,-2.963903,-0.23979026,4.9819307,0.5230255,-0.46544647,0.6958376,0.58687365,0.17041403,0.1459664,0.7779667,-0.58065104,-0.9027837,0.177913,1.0,0.0,0.0,0.0,0.0,0.0,0.0,-3.3301606,-0.1331009,0.026735604,-5.867374,14.828062,-91.480804,83.02668,63.48858,76.46747,-0.87934136
-160.40594,120.58478,29.848274,95.666435,7.452618,7.327567,-2.3617816,-0.7778773,0.39534464,-0.052364394,0.63269705,0.43070865,0.6578956,-0.5611999,1.6979811,-1.0179467,-1.8393264,-1.0381618,2.0005698,1.2005901,-0.97796345,1.7696539,-1.0513891,-1.8489234,-1.0858885,1.9725137,1.1492544,-0.9252996,-0.7185142,0.6436656,-1.4369577,1.6192003,1.4922572,1.4325938,-0.35420313,2.6505508,-0.26929474,0.57230985,-2.9609396,-0.23955053,4.878763,0.51499176,-0.47599792,0.69927365,0.59855586,0.16548492,0.14051466,0.77110386,-0.88540345,-1.1009804,0.4027455,1.0,0.0,0.0,0.0,0.0,0.0,0.0,-3.300551,-0.13070527,-0.02230984,-42.880013,13.771069,18.57276,25.969553,-3.6807299,-5.1638126,-3.4503996
-100.2113,133.42863,45.93289,63.15675,4.0925484,7.690427,-0.9411046,-0.79142535,0.3818339,0.012829884,0.62610984,0.43519485,0.6254225,-0.5724049,1.6905113,-1.0132058,-1.8476405,-1.0232775,2.0160332,1.2117966,-0.9825401,1.759463,-1.0444063,-1.8595092,-1.0697886,1.9858251,1.1626421,-0.92896646,-1.1206815,0.7139236,-0.92524153,1.6070392,1.2732861,1.3027248,-0.3738096,2.6209564,-0.27169037,0.62032443,-2.9579792,-0.23931104,4.7756996,0.5044327,-0.48719025,0.70489,0.6115495,0.15899752,0.13479732,0.76325405,-1.1255399,-1.1159087,0.6197367,1.0,0.0,0.0,0.0,0.0,0.0,0.0,-3.2709565,-0.12830964,-0.07032442,-40.632713,6.266618,53.373493,-1.143074,-23.145723,-14.413881,-2.8584063
-39.39729,143.30937,55.171158,34.894295,1.1929172,6.8850675,-0.006812498,-0.80031914,0.47768855,0.036767915,0.61862254,0.48539558,0.61097246,-0.57114,1.6794311,-0.99663746,-1.8558325,-1.0079263,2.0343647,1.2237394,-0.98608047,1.7460848,-1.0366548,-1.864598,-1.0549074,1.9968114,1.1745726,-0.93280405,-1.4119772,0.79375947,-0.3634002,1.4482011,1.0373557,1.1544056,-0.39005294,2.5913925,-0.274086,0.66730917,-2.9550216,-0.23907179,4.672739,0.49212646,-0.497612,0.71247226,0.62457657,0.15106657,0.12910844,0.7552575,-1.2771109,-1.0025505,0.8081494,1.0,0.0,0.0,0.0,0.0,0.0,0.0,-3.2413926,-0.125914,-0.11730915,-29.639101,7.4370027,58.140976,-16.024231,-24.543499,-15.503812,-2.521962
-1.1861265,125.863396,48.125896,15.744448,-0.48309225,4.7377768,0.30166486,-0.8140377,0.52299523,-0.0086372,0.6250033,0.5190847,0.6042456,-0.5809163,1.6646811,-0.98435533,-1.8654617,-0.9924071,2.04872,1.2349972,-0.9908957,1.7308031,-1.0281156,-1.8654277,-1.0417315,2.0059183,1.1851526,-0.93677706,-1.5681196,0.8728512,0.014750861,1.273203,0.8669456,1.0252688,-0.4019731,2.5618591,-0.27648163,0.713265,-2.9520674,-0.23883277,4.5698814,0.4789276,-0.5066681,0.72140265,0.6370669,0.14218596,0.12374685,0.7474059,-1.3445208,-0.85745543,0.9224181,1.0,0.0,0.0,0.0,0.0,0.0,0.0,-3.2118592,-0.12351838,-0.16326499,-16.017818,7.5726867,39.11173,-17.70575,-17.559696,-13.091493,-1.8549085
21.833902,114.92331,42.681263,6.088915,-1.2848718,3.19058,0.3508543,-0.8206904,0.5849288,0.022981633,0.6189576,0.5494706,0.6050657,-0.573974,1.6487341,-0.96962273,-1.8631296,-0.97983575,2.0608654,1.2456592,-0.9941745,1.7147719,-1.0186914,-1.8637931,-1.0300165,2.0139139,1.1946055,-0.9408397,-1.6159878,0.9648589,0.21604723,1.1369126,0.7762373,0.9187227,-0.40947458,2.5323563,-0.278862,0.7581931,-2.949116,-0.238594,4.467126,0.46546173,-0.51426697,0.73116344,0.6488735,0.1328102,0.118905276,0.7397202,-1.3562735,-0.7107792,0.9934958,1.0,0.0,0.0,0.0,0.0,0.0,0.0,-3.1823564,-0.12113801,-0.20819306,-5.1027536,8.974528,21.006836,-13.85231,-9.348404,-10.621452,-1.2752175
31.530933,106.271286,37.96145,3.2089438,-1.4739652,2.1982627,0.24945611,-0.8142423,0.63465047,0.05743075,0.6258547,0.54233897,0.6163113,-0.5645681,1.6333476,-0.95522636,-1.8580501,-0.96743107,2.0681477,1.2562366,-0.9972965,1.6987959,-1.0083193,-1.8611133,-1.0191828,2.021383,1.2031466,-0.94495195,-1.5924062,1.061013,0.28714332,1.0648081,0.7366437,0.83278024,-0.413294,2.502884,-0.28124237,0.8020944,-2.9461675,-0.23835546,4.3644733,0.4520874,-0.5205078,0.7414683,0.660069,0.123187564,0.11466525,0.7321103,-1.3387587,-0.5797955,1.0412512,1.0,0.0,0.0,0.0,0.0,0.0,0.0,-3.152884,-0.118757635,-0.2520944,2.1215916,9.452987,7.721922,-7.41446,-4.105675,-8.503973,-0.81694126
30.53764,97.36388,33.11359,3.8683424,-1.2405427,1.6057246,0.1361851,-0.81415313,0.673984,0.068863064,0.61655456,0.55926317,0.623299,-0.55378,1.6173806,-0.9409208,-1.854227,-0.95752734,2.0773094,1.2654765,-1.00033,1.6832548,-0.9970302,-1.8583267,-1.0087286,2.0287416,1.2109514,-0.94908136,-1.5419899,1.1511694,0.27749988,1.0382013,0.7356627,0.76313806,-0.41410196,2.473442,-0.28362274,0.8449699,-2.9432218,-0.23811716,4.261924,0.43891907,-0.52563477,0.7521315,0.6707919,0.11347349,0.11100764,0.72445786,-1.3136078,-0.4725835,1.0726448,1.0,0.0,0.0,0.0,0.0,0.0,0.0,-3.1234422,-0.116377264,-0.29496992,4.859376,8.892703,-0.5154431,-2.8472424,-0.17437935,-6.892061,-0.44344068
24.11433,88.757744,28.794739,6.155995,-0.80532235,1.3237085,0.049920093,-0.81534135,0.7015188,0.075729966,0.61029524,0.5784373,0.6320799,-0.55179065,1.6017207,-0.92687833,-1.8507537,-0.94769907,2.0865853,1.2741594,-1.0042604,1.6682001,-0.98495764,-1.8558815,-0.99833965,2.0362642,1.2181574,-0.9532098,-1.4939307,1.2255874,0.23469391,1.0386178,0.7575303,0.7066657,-0.4135304,2.4440308,-0.2860031,0.88682073,-2.940279,-0.2378791,4.1594763,0.42595673,-0.5298462,0.7630276,0.6811673,0.10375678,0.10781717,0.71667355,-1.2942076,-0.38889727,1.0930103,1.0,0.0,0.0,0.0,0.0,0.0,0.0,-3.0940309,-0.11399689,-0.33682072,4.655981,7.3421717,-3.9192736,-0.1354456,2.152133,-5.622542,-0.25369525
18.60978,80.96548,25.609058,7.627671,-0.45406932,1.2039487,0.040119477,-0.80992633,0.7148067,0.09111636,0.60269946,0.5803169,0.63869554,-0.548153,1.5872076,-0.91347694,-1.8467698,-0.9380697,2.094296,1.282027,-1.0080252,1.6535364,-0.9723186,-1.8538215,-0.9878826,2.0440347,1.2248808,-0.9573278,-1.4575756,1.2763674,0.19753504,1.0475258,0.78340656,0.6608728,-0.41213804,2.41465,-0.28838348,0.9276478,-2.9373393,-0.23764127,4.0571313,0.41313934,-0.5333557,0.77406347,0.6912579,0.09406278,0.104949445,0.7087314,-1.2821171,-0.3205562,1.1048325,1.0,0.0,0.0,0.0,0.0,0.0,0.0,-3.06465,-0.11161652,-0.37764782,3.4989119,4.993534,-3.378448,0.7093191,2.5673509,-4.5837164,-0.14809966
14.328516,74.93125,23.43035,8.38091,-0.17394346,1.171591,0.085806996,-0.80945575,0.7240918,0.10817552,0.5871169,0.60169023,0.6407772,-0.5461392,1.5725908,-0.8999094,-1.843004,-0.9291709,2.1042037,1.2889585,-1.0119417,1.6391112,-0.9593343,-1.8519638,-0.9773922,2.0520952,1.2312113,-0.96142954,-1.4379741,1.305613,0.18318072,1.0488893,0.8132102,0.6235533,-0.4104956,2.3852997,-0.29076385,0.9674522,-2.9344027,-0.23740369,3.9548888,0.40037537,-0.53622437,0.7851663,0.70105904,0.08439812,0.102242246,0.70067084,-1.2770296,-0.26131275,1.1098278,1.0,0.0,0.0,0.0,0.0,0.0,0.0,-3.0352998,-0.10923615,-0.41745222,1.8212795,2.8487682,-1.0792762,-0.053739548,2.956283,-3.748536,-0.115543604
11.9368305,70.17873,21.513128,8.434425,-0.07959747,1.0824289,0.10648168,-0.8037542,0.7348867,0.09743219,0.577882,0.6091789,0.6491839,-0.53498423,1.5587357,-0.88584566,-1.8422205,-0.919604,2.113013,1.2961297,-1.014928,1.624806,-0.94615453,-1.8501976,-0.9669504,2.0604227,1.2372252,-0.96550745,-1.428516,1.321886,0.17559034,1.0419879,0.8392029,0.5939852,-0.40783805,2.35598,-0.2931366,1.006235,-2.931469,-0.23716635,3.852749,0.3876419,-0.5385666,0.79626375,0.7105591,0.07477318,0.09962147,0.6925245,-1.2740327,-0.20727146,1.1072427,1.0,0.0,0.0,0.0,0.0,0.0,0.0,-3.00598,-0.10686341,-0.456235,0.80485344,1.5623808,-0.40389895,-0.8912325,2.588582,-2.9580235,-0.007855892
11.811381,68.28371,20.852367,7.9998965,-0.09050858,1.0448177,0.14824581,-0.8000956,0.7432452,0.10526475,0.5624422,0.6178841,0.6500844,-0.52976435,1.5447965,-0.87183,-1.8396711,-0.9107062,2.122211,1.3022336,-1.0184839,1.6105505,-0.9328632,-1.848418,-0.95665836,2.0689752,1.2429873,-0.96955675,-1.4251845,1.331337,0.18020603,1.0242047,0.8604981,0.5701498,-0.4049276,2.3266907,-0.2955017,1.0439972,-2.928538,-0.23692924,3.7507114,0.3749466,-0.54035187,0.80730873,0.71973175,0.06518419,0.097054645,0.6843373,-1.2700999,-0.15279774,1.1010805,1.0,0.0,0.0,0.0,0.0,0.0,0.0,-2.9766908,-0.1044983,-0.49399716,0.18541813,0.8839369,0.8399576,-1.9857645,2.1125674,-2.3707747,0.014865398
11.240881,66.98212,20.31643,7.905488,-0.085906625,1.0230585,0.1764787,-0.80512035,0.74696225,0.11857072,0.5446414,0.6248428,0.65125257,-0.52555424,1.5300385,-0.85816693,-1.836561,-0.9021942,2.1314595,1.3081125,-1.0221121,1.5962721,-0.9195108,-1.846503,-0.9466152,2.077707,1.2485434,-0.9735765,-1.4292576,1.3363128,0.1964857,0.9969867,0.8771191,0.55101275,-0.4019317,2.297432,-0.29786682,1.0807397,-2.92561,-0.23669237,3.6487758,0.3622818,-0.54159546,0.8182767,0.7285541,0.055620205,0.094520085,0.67615175,-1.2660372,-0.098262265,1.0925415,1.0,0.0,0.0,0.0,0.0,0.0,0.0,-2.947432,-0.102133185,-0.5307397,-0.5608797,0.44090748,2.0205557,-2.93051,1.6471028,-1.8862247,0.025314093
13.203218,67.71109,20.698856,7.29411,-0.17431742,1.0047755,0.21852444,-0.79952735,0.7524783,0.13658775,0.5286613,0.6297662,0.65155154,-0.5189096,1.5163194,-0.84426296,-1.8328443,-0.8937491,2.1406837,1.3136985,-1.0254674,1.5819651,-0.9061126,-1.8443458,-0.93687916,2.0865724,1.2539374,-0.97756475,-1.4315692,1.3408568,0.22368109,0.96507794,0.8893488,0.535603,-0.3987136,2.2682037,-0.30023193,1.1164638,-2.922685,-0.23645574,3.546942,0.34968567,-0.5422592,0.82916415,0.7369966,0.04605244,0.09201083,0.66801876,-1.2580066,-0.0399882,1.0846336,1.0,0.0,0.0,0.0,0.0,0.0,0.0,-2.9182038,-0.09976807,-0.56646377,-0.38456917,0.40032864,3.1243472,-3.3940196,1.2021661,-1.4963746,0.045740604
12.632196,65.30027,19.43253,7.301555,-0.18699646,0.8622397,0.19193462,-0.799671,0.75317466,0.12473326,0.5185147,0.6362921,0.656993,-0.513558,1.501998,-0.83079517,-1.8318725,-0.8850277,2.1502016,1.3196367,-1.0289205,1.5676409,-0.89268106,-1.8420074,-0.92744446,2.0955408,1.2592036,-0.9815187,-1.433088,1.3438047,0.23838021,0.93555164,0.8993694,0.52381974,-0.3952505,2.239006,-0.30259705,1.1511703,-2.9197626,-0.23621932,3.44521,0.33717346,-0.54237366,0.8399414,0.7450718,0.03648878,0.089551814,0.6599371,-1.2476935,0.014266767,1.0721653,1.0,0.0,0.0,0.0,0.0,0.0,0.0,-2.8890061,-0.09740296,-0.60117024,-0.2970934,0.25119781,1.8400431,-3.154683,1.0014653,-1.1138916,0.08548498
13.9737835,65.307594,19.295801,6.5531363,-0.30159426,0.7837736,0.2182546,-0.8018225,0.75919366,0.13856687,0.4864769,0.6393281,0.6570073,-0.5064262,1.4874587,-0.8167617,-1.8281507,-0.87879676,2.1594737,1.3249043,-1.0321614,1.5532995,-0.87920374,-1.8395202,-0.91837406,2.104593,1.2643706,-0.98543733,-1.434969,1.3489627,0.25324735,0.89675903,0.906915,0.51455617,-0.3915049,2.2098236,-0.30496216,1.1848601,-2.9168437,-0.23598313,3.3435798,0.3248062,-0.5419235,0.85058135,0.75277233,0.026943224,0.087174736,0.65192664,-1.2325416,0.07058423,1.057782,1.0,0.0,0.0,0.0,0.0,0.0,0.0,-2.8598237,-0.09503785,-0.6348601,-0.33528805,0.4771948,1.8568724,-4.08051,0.7587671,-0.8371234,0.117355585
17.572449,66.02644,19.714554,4.7450204,-0.5056529,0.6906476,0.29747576,-0.7973942,0.76401776,0.16088782,0.4436328,0.64412934,0.65555286,-0.49320665,1.4735601,-0.80280197,-1.8234315,-0.8740108,2.1690059,1.3299259,-1.034758,1.5389639,-0.8656606,-1.836829,-0.9098139,2.1137102,1.2694594,-0.9893121,-1.4334958,1.3560109,0.27587447,0.8417467,0.91342056,0.50733936,-0.3869682,2.1806717,-0.30731964,1.2175343,-2.9139276,-0.23574719,3.2420511,0.31266022,-0.54087067,0.8610627,0.76004624,0.017427694,0.08490195,0.6440634,-1.2082845,0.13204905,1.0412784,1.0,0.0,0.0,0.0,0.0,0.0,0.0,-2.8306718,-0.092680365,-0.6675343,-0.0012397766,0.6706476,2.6479304,-5.7016015,0.64709187,-0.5922079,0.19446015
19.666267,66.42911,19.892424,3.7851543,-0.61837214,0.6088439,0.3451414,-0.7958379,0.7687677,0.17966771,0.4088347,0.6489572,0.65376395,-0.48603755,1.4593801,-0.78878385,-1.8188622,-0.8689304,2.1786058,1.3348358,-1.0379158,1.524655,-0.8520364,-1.833863,-0.9018707,2.1228883,1.2744852,-0.99314016,-1.4304045,1.3644961,0.3049714,0.77782,0.91957587,0.5016102,-0.38219288,2.1515503,-0.3096695,1.249194,-2.9110143,-0.23551148,3.140624,0.30077362,-0.5391998,0.8713734,0.7668538,0.00794999,0.0827382,0.6364168,-1.1780034,0.1954621,1.0238874,1.0,0.0,0.0,0.0,0.0,0.0,0.0,-2.8015504,-0.09033051,-0.699194,0.16493797,0.8213997,3.2888472,-6.5848947,0.6188631,-0.41571856,0.22389293
21.286858,66.42235,19.932264,2.9427004,-0.6947215,0.5232534,0.39327878,-0.79556894,0.773119,0.20407844,0.36515775,0.6587539,0.6537658,-0.4818583,1.445098,-0.77472454,-1.8134552,-0.86535496,2.1887636,1.3398619,-1.041326,1.5103766,-0.83832353,-1.8305442,-0.8946371,2.1321466,1.2794653,-0.9969205,-1.4272835,1.3734809,0.3420429,0.70456856,0.9278829,0.49725786,-0.37754074,2.1224594,-0.31201935,1.2798402,-2.908104,-0.23527601,3.0392983,0.28923798,-0.5368576,0.88150394,0.77316564,-0.0014838831,0.08067108,0.6290506,-1.1426456,0.25955325,1.0053014,1.0,0.0,0.0,0.0,0.0,0.0,0.0,-2.7724595,-0.08798066,-0.7298402,0.17411709,0.8797169,4.0724874,-7.5060725,0.8389473,-0.24996996,0.2234757
23.347374,65.61571,19.767843,1.5699439,-0.8041076,0.39561033,0.45797044,-0.79378814,0.77551246,0.23371749,0.3083623,0.666576,0.65151685,-0.47380108,1.4309977,-0.7607723,-1.8071725,-0.8638009,2.1988041,1.344617,-1.0443007,1.4961325,-0.8245296,-1.8267887,-0.88823986,2.1415002,1.2844073,-1.0006541,-1.423892,1.3812369,0.38782936,0.61751586,0.9377539,0.49394926,-0.3726866,2.093399,-0.3143692,1.309474,-2.9051964,-0.23504078,2.9380739,0.27809143,-0.53388214,0.8914269,0.77894485,-0.010847418,0.07868929,0.6220412,-1.1004263,0.32384816,0.9834399,1.0,0.0,0.0,0.0,0.0,0.0,0.0,-2.7433991,-0.085630804,-0.759474,0.21028519,0.7680416,4.924554,-8.876551,1.0098696,-0.106954575,0.25381446
24.157078,65.630226,19.797548,1.2741022,-0.83657867,0.326413,0.48882964,-0.792933,0.7804307,0.26921108,0.2632233,0.6686539,0.65135795,-0.46129134,1.4168392,-0.74648654,-1.7998675,-0.86191756,2.2083657,1.3495431,-1.0467832,1.4819189,-0.8106584,-1.8225029,-0.88273716,2.1509416,1.2893206,-1.0043334,-1.420895,1.3890564,0.4431121,0.5272988,0.9463691,0.491482,-0.36712566,2.0643692,-0.31671906,1.3380963,-2.9022918,-0.2348058,2.8369505,0.26741028,-0.5302658,0.901135,0.7841732,-0.020136146,0.07678117,0.61544406,-1.0551072,0.38751107,0.9618675,1.0,0.0,0.0,0.0,0.0,0.0,0.0,-2.7143693,-0.08328095,-0.78809625,0.18458366,0.78377724,5.8407307,-9.172034,0.9001732,-0.0014126301,0.34266114
28.317368,62.080738,18.778028,-2.6088505,-1.1610615,0.014715552,0.60734046,-0.7904697,0.7787034,0.29720291,0.15450668,0.6743717,0.64773756,-0.46086216,1.402872,-0.7327881,-1.7927825,-0.8672865,2.2183788,1.3540944,-1.0504196,1.4677378,-0.7967376,-1.8176486,-0.87842655,2.160467,1.2942168,-1.0079612,-1.4174205,1.3931131,0.5003291,0.3984403,0.9546675,0.4900942,-0.3620207,2.0353699,-0.3190689,1.365708,-2.89939,-0.23457104,2.7359283,0.25727844,-0.526001,0.9105343,0.7887902,-0.029252693,0.074977145,0.6093707,-0.9936796,0.45058417,0.92759603,1.0,0.0,0.0,0.0,0.0,0.0,0.0,-2.68537,-0.0809311,-0.815708,0.24619102,0.4228592,6.0072184,-13.0333185,0.87554455,0.19710064,0.3188789
30.251194,61.205856,18.479979,-4.201255,-1.3223183,-0.15774763,0.6654986,-0.7896931,0.7852018,0.3326659,0.07666237,0.6762878,0.6470754,-0.43805584,1.3887684,-0.71821743,-1.7843821,-0.8707603,2.2280958,1.3589243,-1.0517668,1.4535872,-0.7827653,-1.8121974,-0.8755331,2.1700609,1.2991034,-1.011526,-1.4143249,1.3986665,0.5606105,0.2524774,0.9615327,0.48947054,-0.35517693,2.006401,-0.32141876,1.3923103,-2.896491,-0.23433653,2.6350071,0.24782562,-0.52111816,0.9195634,0.79275686,-0.038122192,0.07331622,0.6039105,-0.92372286,0.5124136,0.8893799,1.0,0.0,0.0,0.0,0.0,0.0,0.0,-2.6564012,-0.078581244,-0.84231025,0.22850037,0.5863905,6.2600255,-14.720541,0.75837374,0.3158629,0.5222738
35.46038,59.2673,18.166368,-8.323841,-1.6896175,-0.45100185,0.8092437,-0.7819838,0.7851448,0.37746555,-0.05185248,0.6772643,0.65071845,-0.41476554,1.3753887,-0.7042509,-1.7744509,-0.88071835,2.2377872,1.3641752,-1.0530026,1.4394976,-0.76875013,-1.8060882,-0.87438774,2.179712,1.3039919,-1.0150088,-1.4071879,1.4025943,0.62844443,0.06822028,0.966573,0.49027577,-0.34647793,1.9774628,-0.32375336,1.4179041,-2.893595,-0.23410225,2.534187,0.23918915,-0.5156021,0.92813563,0.79599756,-0.046641927,0.07183955,0.5992089,-0.83575845,0.5750713,0.84110755,1.0,0.0,0.0,0.0,0.0,0.0,0.0,-2.6274629,-0.07624665,-0.8679041,0.66816807,0.43842793,6.960404,-18.520311,0.5898237,0.54035187,0.7409513
37.102207,55.800755,16.876717,-10.982113,-1.9172626,-0.75294155,0.8797528,-0.78788525,0.7876645,0.4028422,-0.18317819,0.67904794,0.6485745,-0.37625214,1.3607091,-0.68998367,-1.7658039,-0.89270556,2.2476168,1.3688494,-1.052634,1.4254462,-0.7546968,-1.7993419,-0.8753271,2.1894052,1.30889,-1.018381,-1.4044904,1.4064534,0.6904737,-0.14820068,0.9706732,0.4914974,-0.33442158,1.948555,-0.32608795,1.4424906,-2.8907018,-0.23386818,2.4334676,0.23152924,-0.5094757,0.9361482,0.79847157,-0.054678462,0.07061712,0.59537095,-0.73591894,0.63260305,0.7824685,1.0,0.0,0.0,0.0,0.0,0.0,0.0,-2.598555,-0.073912054,-0.89249057,0.25556087,0.44744015,6.3034654,-21.706234,0.52331686,0.6305337,1.1256576
35.17985,54.58115,16.396229,-9.550802,-1.7483397,-0.8286167,0.8511237,-0.7811637,0.78748184,0.44094247,-0.25073245,0.684021,0.6444221,-0.30203578,1.3473297,-0.6759486,-1.7552477,-0.90040034,2.2578073,1.3733321,-1.0485846,1.4114405,-0.7406158,-1.7919738,-0.87828636,2.1991441,1.3137976,-1.0215853,-1.3993361,1.4088829,0.75216514,-0.3453074,0.975706,0.4920575,-0.31583947,1.9196625,-0.32842255,1.4660705,-2.8878117,-0.23363435,2.3328488,0.22483063,-0.5028229,0.94360393,0.80020684,-0.062213838,0.06964696,0.5924085,-0.6401084,0.68269926,0.7274568,1.0,0.0,0.0,0.0,0.0,0.0,0.0,-2.5696626,-0.07157746,-0.9160705,0.5400419,0.3232479,6.1583757,-19.740677,0.67157745,0.5407572,1.814717
27.047453,54.86729,16.033432,-2.5932708,-1.1197169,-0.6394323,0.6320275,-0.7732384,0.7901187,0.46069652,-0.23945467,0.67818356,0.6430039,-0.21585548,1.3341167,-0.6616039,-1.7459042,-0.9022318,2.2669625,1.378098,-1.0431709,1.397513,-0.7265071,-1.7840698,-0.882617,2.2089136,1.3187033,-1.0245513,-1.39048,1.4118638,0.8027563,-0.46240625,0.97805536,0.49143928,-0.2901463,1.8908005,-0.33075714,1.4886451,-2.8849247,-0.23340076,2.2323306,0.21891022,-0.49575806,0.95064527,0.8013509,-0.06939477,0.06887054,0.59015083,-0.5695205,0.7218374,0.6903581,1.0,0.0,0.0,0.0,0.0,0.0,0.0,-2.5408006,-0.069242865,-0.93864506,0.91814995,0.4023075,4.9339175,-11.741549,0.48632622,0.33103228,2.5408924
12.778575,54.23896,14.885549,8.613592,-0.123467684,-0.26375198,0.25187054,-0.7794031,0.7934675,0.45765775,-0.16630949,0.66613215,0.6487147,-0.11950065,1.3195727,-0.64716035,-1.738304,-0.89924794,2.2755268,1.3835747,-1.0365013,1.3836294,-0.71235937,-1.7758415,-0.88724804,2.218664,1.3235995,-1.0272063,-1.3876137,1.4161905,0.82910144,-0.46366337,0.975087,0.4898822,-0.2573704,1.861969,-0.33309174,1.5102152,-2.8820405,-0.23316741,2.131913,0.21334076,-0.48838043,0.95750487,0.8021699,-0.07648384,0.06821643,0.5882348,-0.54189414,0.7457797,0.67836297,1.0,0.0,0.0,0.0,0.0,0.0,0.0,-2.511969,-0.06690827,-0.96021515,0.26552677,0.5589485,2.4513364,-0.214988,0.033307076,0.09855032,3.2370389
0.9567852,50.446133,12.895151,16.748583,0.6510049,-0.03511958,-0.04901506,-0.7959581,0.78857493,0.45599198,-0.12055636,0.658098,0.645725,-0.07461227,1.3040336,-0.6335019,-1.7302423,-0.8993037,2.2844737,1.3881719,-1.0346675,1.3696734,-0.69819826,-1.7674968,-0.8913202,2.2283533,1.3284727,-1.0295256,-1.3985027,1.4165612,0.83576363,-0.38898465,0.9683252,0.4869897,-0.22366334,1.833168,-0.33542633,1.5307819,-2.8791592,-0.2329343,2.0315957,0.2078247,-0.48088837,0.964348,0.8029096,-0.08367574,0.067626365,0.5863115,-0.5474277,0.7555953,0.6799833,1.0,0.0,0.0,0.0,0.0,0.0,0.0,-2.4831681,-0.064573675,-0.98078185,-1.1772156,0.17037392,0.4947424,7.312709,-0.31876564,-0.14129281,3.3117056
-5.0737915,47.68991,11.732127,21.361275,1.0981598,0.07992518,-0.21926476,-0.79634506,0.7847807,0.4500693,-0.05718726,0.6549552,0.6449421,-0.020690255,1.2900388,-0.6197202,-1.7224898,-0.89703894,2.2938488,1.392967,-1.0315946,1.3555933,-0.684061,-1.759198,-0.89427185,2.237974,1.3333136,-1.0315017,-1.4114672,1.4131875,0.82747024,-0.2645252,0.96093965,0.48349938,-0.18907711,1.8043976,-0.33776093,1.5503461,-2.8762808,-0.23270142,1.9313786,0.20211029,-0.47336578,0.9712709,0.8037204,-0.09109259,0.06705096,0.5841573,-0.571636,0.75774133,0.6899468,1.0,0.0,0.0,0.0,0.0,0.0,0.0,-2.4543977,-0.06223908,-1.0003462,-1.4144421,-0.20446777,-0.99161863,12.257224,-0.37187338,-0.2658546,3.383419
-10.125461,46.22951,11.154181,25.748486,1.502573,0.24503514,-0.36324108,-0.8029986,0.7816656,0.44314304,0.048934795,0.6491589,0.65066916,0.03367217,1.2752935,-0.60589445,-1.7148837,-0.88937837,2.3028898,1.3983805,-1.0281345,1.3413702,-0.6699752,-1.751046,-0.8956289,2.2475145,1.3381239,-1.0331248,-1.4262576,1.4073662,0.81079423,-0.09345826,0.9530983,0.48019433,-0.15384343,1.7756577,-0.34008026,1.568909,-2.8734052,-0.23246875,1.8312616,0.19599915,-0.46583557,0.97836447,0.80470383,-0.09886401,0.06643862,0.58160424,-0.6137038,0.7560921,0.70941323,1.0,0.0,0.0,0.0,0.0,0.0,0.0,-2.4256577,-0.059919745,-1.018909,-1.6172886,-0.4525423,-1.8284202,16.902657,-0.4028201,-0.31718016,3.4369469
-13.358919,47.15117,11.531991,29.648663,1.8098953,0.45564535,-0.47635368,-0.80599374,0.7826652,0.43403363,0.18241264,0.6465836,0.65865463,0.07413457,1.2607708,-0.5917087,-1.7076426,-0.87738764,2.312173,1.4039894,-1.0257113,1.3270193,-0.6559381,-1.7430904,-0.89494324,2.2569826,1.3429056,-1.0344027,-1.4386061,1.4029412,0.7899376,0.12191653,0.94634986,0.47736335,-0.119408034,1.7469482,-0.3423996,1.5864716,-2.8705325,-0.23223633,1.7312448,0.18936157,-0.458313,0.9857354,0.8059285,-0.10714183,0.06572977,0.5785147,-0.6708195,0.7564822,0.7399083,1.0,0.0,0.0,0.0,0.0,0.0,0.0,-2.3969483,-0.05760041,-1.0364716,-1.3752699,-0.31917095,-2.2560716,21.344656,-0.27434826,-0.34623742,3.3492193
-13.897828,46.014748,11.316055,30.328651,1.8618191,0.49300015,-0.508384,-0.8133591,0.776409,0.42108333,0.28503224,0.6439358,0.65639997,0.07376399,1.2456834,-0.5782972,-1.7009821,-0.86644,2.321376,1.4085456,-1.0270263,1.3125483,-0.641962,-1.7353637,-0.89204025,2.2663934,1.3476588,-1.0353736,-1.4504359,1.3962392,0.7663223,0.34584016,0.9405693,0.4742657,-0.08992717,1.7182693,-0.34471893,1.6030346,-2.8676627,-0.23200414,1.6313279,0.18213654,-0.45078278,0.9934146,0.8074118,-0.1159922,0.06489317,0.57482237,-0.73148936,0.75912875,0.770678,1.0,0.0,0.0,0.0,0.0,0.0,0.0,-2.3682694,-0.055281073,-1.0530345,-1.3114452,-0.56381226,-2.5130868,22.222605,-0.19996166,-0.41776896,2.8504372
-6.9328394,46.716793,12.023374,24.76366,1.3035506,0.28888953,-0.33168072,-0.81274736,0.775879,0.42339182,0.30926117,0.6430949,0.65712947,0.045894656,1.2312735,-0.5643741,-1.6930245,-0.86111414,2.330703,1.4133717,-1.0307841,1.2979952,-0.6280431,-1.7278068,-0.8873186,2.2757585,1.3523871,-1.036106,-1.4570838,1.3906509,0.7517307,0.5138648,0.9357474,0.4720827,-0.06803419,1.689621,-0.34703827,1.6185992,-2.8647957,-0.23177218,1.5315108,0.17446136,-0.443161,1.001305,0.80904764,-0.12532246,0.06396791,0.57065254,-0.76966006,0.771403,0.7884405,1.0,0.0,0.0,0.0,0.0,0.0,0.0,-2.339621,-0.052961737,-1.0685992,-0.7601023,-0.47819614,-1.5409708,16.679256,-0.17838478,-0.28013587,2.0888507
2.9126935,46.433346,12.244147,15.683344,0.43635833,-0.14008924,-0.07252652,-0.8119443,0.77648765,0.41592398,0.2823673,0.6445228,0.6547196,-0.0015630735,1.2168008,-0.55039436,-1.6862144,-0.85908186,2.3402107,1.4178591,-1.0362623,1.2834135,-0.6141624,-1.7203662,-0.88162327,2.2850854,1.3571001,-1.0366877,-1.4587834,1.387325,0.7415584,0.5877689,0.9320183,0.4712459,-0.055174265,1.6609879,-0.3493576,1.6331663,-2.8619316,-0.23154047,1.4317936,0.1667099,-0.4353485,1.0092026,0.81066716,-0.13488913,0.06306752,0.56625617,-0.7705707,0.79077375,0.78333944,1.0,0.0,0.0,0.0,0.0,0.0,0.0,-2.310988,-0.0506424,-1.0831664,-0.24085045,-0.27737617,-0.9919286,7.2973013,-0.17771721,-0.025242567,1.1828668
11.094009,44.51547,11.575764,6.8676796,-0.37936348,-0.6366862,0.15317717,-0.8189624,0.77752435,0.40010622,0.22915727,0.64442885,0.6526467,-0.04173463,1.2015173,-0.53641,-1.6803557,-0.85870755,2.3495283,1.4223648,-1.0408612,1.2688051,-0.6002969,-1.7130535,-0.8759155,2.294378,1.3618132,-1.0371951,-1.4619395,1.386487,0.7284028,0.56484365,0.9286268,0.4719367,-0.049608022,1.6323853,-0.35167694,1.6467371,-2.8590703,-0.23130897,1.332176,0.15918732,-0.42734528,1.0168697,0.8121297,-0.14438237,0.06234443,0.56188273,-0.73516035,0.8107754,0.75439227,1.0,0.0,0.0,0.0,0.0,0.0,0.0,-2.2823853,-0.048323065,-1.0967371,-0.38039684,-0.04479885,-1.1945128,-2.3772955,-0.23509264,0.2669692,0.45905113
17.11709,43.885147,11.471952,0.9247999,-0.8976405,-0.98973995,0.35479304,-0.8148463,0.7774842,0.4000705,0.18591198,0.64885974,0.6558009,0.024262056,1.1873205,-0.5225485,-1.6730465,-0.8573243,2.359264,1.4273933,-1.0347689,1.254191,-0.5864305,-1.705838,-0.87089443,2.3036554,1.3665415,-1.0376147,-1.4612676,1.3869075,0.71968037,0.4810146,0.9275197,0.47406405,-0.039505273,1.6038132,-0.35398865,1.6593124,-2.856212,-0.2310777,1.232658,0.15222168,-0.41915894,1.0241474,0.8133153,-0.15357666,0.061893094,0.55776495,-0.67470217,0.82999676,0.7121227,1.0,0.0,0.0,0.0,0.0,0.0,0.0,-2.2538133,-0.04601136,-1.1093123,0.027799606,0.075984,-0.7132411,-8.44742,-0.06262064,0.50100684,0.9196788
18.836178,43.60894,11.59047,-0.4371748,-0.98070055,-1.1068909,0.46029288,-0.80929446,0.7734609,0.4114414,0.17015025,0.6435444,0.66295487,0.15685771,1.1732616,-0.5090844,-1.6646938,-0.8538794,2.3680098,1.432837,-1.0219289,1.2396208,-0.5725736,-1.6986263,-0.86678696,2.3129137,1.3712984,-1.0378398,-1.455877,1.3854102,0.7222679,0.38712737,0.9252402,0.47708237,-0.017148716,1.5752716,-0.35629272,1.6708933,-2.8533564,-0.23084667,1.1332396,0.14590454,-0.4107666,1.0309955,0.81414396,-0.16240668,0.061728206,0.5540606,-0.608281,0.84762424,0.6690533,1.0,0.0,0.0,0.0,0.0,0.0,0.0,-2.2252717,-0.04370728,-1.1208932,0.5308151,-0.10933876,0.39055347,-9.430999,-0.18087626,0.6066263,2.1535046
13.189341,38.86962,9.768578,3.5758014,-0.51365435,-1.0746791,0.31281453,-0.8148179,0.7652492,0.38094893,0.1995281,0.6490386,0.6688911,0.21824963,1.158139,-0.4960487,-1.6605314,-0.8468341,2.3778176,1.4381876,-1.0160148,1.2250773,-0.5587701,-1.691508,-0.86330223,2.322172,1.376084,-1.0378035,-1.4538636,1.3789136,0.7085274,0.3353753,0.9261631,0.4799337,0.010168668,1.5467606,-0.3585968,1.6814808,-2.8505037,-0.23061588,1.0339206,0.1401062,-0.40229034,1.0374627,0.81468546,-0.17092493,0.061805278,0.5506835,-0.5601594,0.8548362,0.6327443,1.0,0.0,0.0,0.0,0.0,0.0,0.0,-2.1967607,-0.041403204,-1.1314807,0.18033981,-0.59251785,-1.309824,-5.2438498,0.19700527,0.53412914,2.6607842
8.954474,37.64429,9.338642,7.895225,-0.122451365,-0.93498784,0.18606928,-0.8087183,0.76273197,0.37224892,0.22716336,0.6401559,0.66874784,0.2814449,1.1442055,-0.48249692,-1.6542832,-0.8405859,2.3861876,1.4429587,-1.009659,1.2105719,-0.5450401,-1.6845691,-0.8599663,2.3314188,1.3808924,-1.0374678,-1.4496876,1.371286,0.68899065,0.33272043,0.9245573,0.4817442,0.04103491,1.51828,-0.36090088,1.6910757,-2.8476539,-0.2303853,0.93470097,0.13465881,-0.3937378,1.0436503,0.8150262,-0.17926349,0.062071446,0.54748863,-0.52946776,0.8600145,0.6076243,1.0,0.0,0.0,0.0,0.0,0.0,0.0,-2.1682801,-0.039099127,-1.1410756,0.38502216,-0.69463253,-1.9389272,-0.34959316,-0.006902218,0.36661625,3.015326
5.9798946,33.695873,7.7937436,9.417435,0.052594483,-0.987553,0.08681969,-0.8146813,0.7560923,0.34105423,0.21337272,0.63717246,0.6640626,0.29547015,1.1291038,-0.46943083,-1.6504637,-0.838629,2.3951359,1.4472986,-1.0079209,1.1960722,-0.5314025,-1.6779487,-0.85655975,2.3406389,1.3857123,-1.0368403,-1.450371,1.3614285,0.6530923,0.3430143,0.92195994,0.4825189,0.069679625,1.48983,-0.36320496,1.6996793,-2.844807,-0.23015496,0.83558047,0.1294632,-0.38516998,1.0495911,0.81524915,-0.1874552,0.06252707,0.5443525,-0.50599587,0.858673,0.58321404,1.0,0.0,0.0,0.0,0.0,0.0,0.0,-2.13983,-0.03679505,-1.1496792,-0.12075901,-0.91245174,-3.589058,0.9223819,-0.08606911,0.24603009,2.7993739
4.91601,32.074867,7.1968174,10.082734,0.1139099,-1.0233738,0.05140106,-0.8129257,0.7519041,0.3193735,0.21552062,0.6335841,0.66650695,0.34083757,1.1147797,-0.4562121,-1.6460114,-0.83500767,2.4039972,1.452363,-1.0027566,1.1815611,-0.51786417,-1.6717422,-0.8530016,2.3498285,1.3905379,-1.0359248,-1.4513472,1.3515234,0.609891,0.3598041,0.9182984,0.4830789,0.098667316,1.4614029,-0.36550903,1.7072924,-2.8419628,-0.22992486,0.73655903,0.12448883,-0.37664795,1.0552963,0.8153992,-0.195503,0.063180335,0.5412125,-0.48517093,0.8552073,0.5601352,1.0,0.0,0.0,0.0,0.0,0.0,0.0,-2.111403,-0.034490973,-1.1572924,-0.15559196,-0.9170532,-4.3227315,1.5666068,-0.18786192,0.21033287,2.8351262
5.3747635,29.99729,6.415517,8.838489,0.008478403,-1.1661123,0.05588659,-0.8120383,0.74579304,0.28796542,0.19760948,0.62483406,0.66736287,0.35968256,1.1003573,-0.44328487,-1.6429456,-0.8332406,2.4123118,1.4572742,-0.99995655,1.1670443,-0.50442976,-1.6660316,-0.8493767,2.358957,1.3953692,-1.0347346,-1.451879,1.3410234,0.5582258,0.3629555,0.9117451,0.48373026,0.12550318,1.4329987,-0.3678131,1.713916,-2.8391216,-0.22969498,0.6376366,0.119758606,-0.3681717,1.0607425,0.815495,-0.20336102,0.0640711,0.5380586,-0.45919132,0.8481834,0.53338784,1.0,0.0,0.0,0.0,0.0,0.0,0.0,-2.0829988,-0.032186896,-1.1639159,-0.10211468,-0.97768307,-5.1680207,0.20543337,-0.49154758,0.23574233,2.62606
5.3278284,27.173862,5.3398933,7.7925687,-0.048291743,-1.3204604,0.045404706,-0.81273156,0.7387948,0.2437527,0.18668933,0.6247518,0.6692177,0.3802356,1.0857711,-0.43055028,-1.6416563,-0.8307077,2.4214323,1.462291,-0.996711,1.1525236,-0.49110693,-1.6609371,-0.84581184,2.3680246,1.4002081,-1.0332927,-1.4523547,1.3296293,0.49335027,0.35395944,0.9059095,0.48464105,0.15043122,1.4046249,-0.37010193,1.719551,-2.8362832,-0.22946532,0.5388131,0.11531067,-0.35983276,1.0658919,0.81556463,-0.2109571,0.06523794,0.53487873,-0.42955875,0.83548605,0.5030466,1.0,0.0,0.0,0.0,0.0,0.0,0.0,-2.054625,-0.029898077,-1.1695509,-0.08764267,-1.0660648,-6.4962626,-1.010853,-0.4308343,0.27657747,2.4434865
6.401678,23.1188,3.759163,4.7690344,-0.25534278,-1.6116532,0.06802694,-0.813312,0.72974825,0.18682237,0.1364364,0.6192335,0.66794914,0.38607666,1.0711924,-0.4181321,-1.6422548,-0.8321682,2.4299479,1.467003,-0.994685,1.1379973,-0.47791284,-1.6566284,-0.8425894,2.377031,1.4050566,-1.0316237,-1.4526986,1.3162317,0.41015786,0.3112901,0.89925957,0.48576966,0.17224614,1.3762817,-0.37239075,1.7241987,-2.8334477,-0.2292359,0.44008848,0.11125183,-0.35165405,1.0706688,0.81563795,-0.21814963,0.06674442,0.5316865,-0.3887156,0.8132611,0.46368942,1.0,0.0,0.0,0.0,0.0,0.0,0.0,-2.0262818,-0.027609259,-1.1741986,-0.04515648,-1.2649059,-8.338088,-4.371083,-0.54454803,0.34008622,2.148229
7.5244074,21.241772,3.1075916,2.6294093,-0.43266773,-1.7988592,0.11584368,-0.8144846,0.7209628,0.15146522,0.092208475,0.5957574,0.66267693,0.42835957,1.0565488,-0.40581656,-1.6414819,-0.83336854,2.436607,1.4713243,-0.9887878,1.1234652,-0.46486467,-1.6531532,-0.8399849,2.3859155,1.4099127,-1.0297316,-1.4533571,1.3012632,0.32636523,0.24323125,0.88468105,0.4865056,0.19483297,1.347969,-0.37467957,1.7278599,-2.830615,-0.22900672,0.34146252,0.107681274,-0.34375763,1.0750144,0.81572187,-0.22482203,0.06865444,0.5285256,-0.33915085,0.786164,0.41967672,1.0,0.0,0.0,0.0,0.0,0.0,0.0,-1.997969,-0.02532044,-1.1778598,-0.048422813,-1.4202118,-8.405632,-6.895253,-1.3630271,0.3236413,2.2338867
8.587364,18.9091,2.4080102,0.53226376,-0.52034116,-1.9936941,0.16525468,-0.81084913,0.70889795,0.10760897,0.034436394,0.60108757,0.6605196,0.4431473,1.0423802,-0.39397487,-1.6423923,-0.83654124,2.4460242,1.4759647,-0.9854169,1.1089464,-0.4519891,-1.6505191,-0.8382406,2.3946779,1.4147764,-1.0276259,-1.4511089,1.2833066,0.24242274,0.15124036,0.8736865,0.48708048,0.21580583,1.3196869,-0.37696838,1.7305354,-2.8277848,-0.22877775,0.24293518,0.10462952,-0.33615875,1.0788842,0.81581366,-0.23087494,0.070980154,0.52545846,-0.28277746,0.7520987,0.37132716,1.0,0.0,0.0,0.0,0.0,0.0,0.0,-1.9696869,-0.023031622,-1.1805353,0.28538704,-1.7140388,-8.446076,-9.269556,-1.0312557,0.32470226,2.0832686
7.0890923,15.75976,1.4427342,1.1697321,-0.38194898,-2.0541914,0.13120338,-0.81220084,0.69453883,0.056707095,0.0054963804,0.589082,0.6568986,0.47701117,1.0277264,-0.38253522,-1.6448485,-0.837691,2.453586,1.4804664,-0.9799248,1.0944449,-0.43932146,-1.6487434,-0.83738995,2.403322,1.4196421,-1.0253085,-1.449395,1.2615212,0.15563773,0.062746815,0.86131424,0.48699647,0.23703027,1.2914352,-0.3792572,1.7322265,-2.8249574,-0.22854902,0.14450637,0.102127075,-0.3289566,1.0822775,0.8159392,-0.23627736,0.073700465,0.52247906,-0.2310671,0.7122267,0.32426912,1.0,0.0,0.0,0.0,0.0,0.0,0.0,-1.9414352,-0.020742804,-1.1822264,0.2424717,-2.0926952,-8.751404,-8.924709,-1.1692405,0.23777485,2.1102042
4.054738,10.355618,-0.64055425,2.540875,-0.17911384,-2.1535683,0.003635317,-0.80802226,0.6830733,-0.046910122,-0.019828591,0.5840698,0.6594799,0.4959772,1.0136427,-0.37101412,-1.6534344,-0.8393728,2.461729,1.4855901,-0.97571075,1.0799795,-0.4268803,-1.6481025,-0.8373184,2.4118516,1.4245058,-1.022787,-1.4454341,1.2386461,0.033221923,-0.01168782,0.85039103,0.48679048,0.25713852,1.2632065,-0.38154602,1.732934,-2.8221328,-0.22832052,0.04617594,0.10007477,-0.3222046,1.085205,0.8161945,-0.24100684,0.07683108,0.5194604,-0.18754123,0.66232747,0.2782547,1.0,0.0,0.0,0.0,0.0,0.0,0.0,-1.9132065,-0.018453985,-1.182934,0.4769802,-2.1978378,-12.346472,-7.5413423,-1.0215759,0.19620061,1.9987732
2.2507818,7.7036805,-1.4763244,3.732316,-0.05022663,-2.1588135,-0.054070238,-0.8096531,0.6674501,-0.10090011,-0.05768738,0.5544629,0.66192114,0.51340497,0.99901426,-0.3601353,-1.6581925,-0.84308714,2.467298,1.490698,-0.97144645,1.0655409,-0.41468662,-1.6487148,-0.8379345,2.4202058,1.4293658,-1.0200747,-1.4430956,1.2132698,-0.09289121,-0.07860888,0.8308988,0.48653597,0.2759368,1.2350006,-0.3838272,1.732659,-2.8193111,-0.22809224,-0.052056175,0.09841919,-0.31598663,1.0876873,0.8166439,-0.24507003,0.08038635,0.51630557,-0.15013382,0.60934836,0.2346121,1.0,0.0,0.0,0.0,0.0,0.0,0.0,-1.8850006,-0.016172796,-1.1826589,0.31409264,-2.448821,-12.717024,-6.8004074,-1.8833518,0.16263127,1.8598497
2.0056546,6.011877,-1.7458806,3.6115456,-0.012997985,-2.1846983,-0.035822082,-0.8069528,0.6461739,-0.1424485,-0.1115911,0.521696,0.6665563,0.5266783,0.98484564,-0.35006922,-1.6629596,-0.8490936,2.4723754,1.4960214,-0.96740687,1.0511309,-0.40278667,-1.6504829,-0.83926773,2.4282892,1.4342276,-1.017187,-1.440082,1.1825236,-0.20537494,-0.15182689,0.80138385,0.48667392,0.29315612,1.2068253,-0.38610077,1.7314024,-2.8164923,-0.22786419,-0.15019009,0.09713745,-0.3102951,1.0897306,0.81728977,-0.24846971,0.08435535,0.51301485,-0.1138105,0.5543589,0.1910428,1.0,0.0,0.0,0.0,0.0,0.0,0.0,-1.8568252,-0.013899237,-1.1814024,0.40678978,-2.9853344,-11.367893,-7.418129,-2.8989792,0.19002557,1.69729
7.800481,10.524738,0.62955797,-1.490695,-0.49132082,-2.303077,0.25364816,-0.8017638,0.6219218,-0.093316965,-0.24961221,0.4521121,0.66560024,0.53679764,0.97095454,-0.3405945,-1.6598146,-0.86422896,2.4735005,1.5007876,-0.96350724,1.0367724,-0.39124244,-1.6528194,-0.841794,2.4359071,1.4390932,-1.0141371,-1.4338232,1.1454098,-0.2438371,-0.2863263,0.74866545,0.4872097,0.308935,1.1786804,-0.38837433,1.7291652,-2.8136764,-0.22763638,-0.24822587,0.09638977,-0.30513763,1.0912783,0.8179871,-0.25112715,0.08871777,0.50986403,-0.054940004,0.5042432,0.13978527,1.0,0.0,0.0,0.0,0.0,0.0,0.0,-1.8286804,-0.011625677,-1.1791651,0.8244753,-3.6088467,-4.0214005,-13.455033,-5.249095,0.2716601,1.5754104
11.2914915,16.168587,2.8745618,-3.739923,-0.7117437,-2.3242729,0.41798428,-0.8016971,0.61849374,-0.09111866,-0.34430233,0.4619262,0.6715372,0.5277075,0.9566027,-0.32939306,-1.6619313,-0.8762242,2.4820998,1.5062469,-0.9613664,1.0224711,-0.38000768,-1.6552284,-0.84591866,2.4430826,1.4439684,-1.0109538,-1.4281734,1.116533,-0.2408095,-0.45438614,0.707461,0.48822376,0.3215401,1.1505661,-0.3906479,1.7259483,-2.8108633,-0.22740878,-0.34616363,0.09631348,-0.30041504,1.0923012,0.8186043,-0.25298554,0.093407445,0.5071097,0.015103915,0.45969102,0.08707543,1.0,0.0,0.0,0.0,0.0,0.0,0.0,-1.8005661,-0.009352118,-1.1759484,0.79796314,-2.775097,0.093603134,-16.759771,-4.098189,0.30801892,1.2808621
13.300596,20.380547,4.5214233,-4.7244534,-0.8621733,-2.3087375,0.51439226,-0.8012078,0.610753,-0.07442153,-0.43944374,0.43266818,0.67242676,0.5291273,0.94235027,-0.31893238,-1.6626705,-0.889863,2.4863493,1.511211,-0.9580411,1.0082175,-0.3690042,-1.6573837,-0.8518543,2.4498575,1.4488531,-1.0076598,-1.4237359,1.0953642,-0.2079991,-0.63977355,0.6677993,0.4890703,0.3321836,1.1224823,-0.39292145,1.7217528,-2.808053,-0.22718142,-0.4440035,0.09702301,-0.29608917,1.0927957,0.81906325,-0.2540279,0.09837363,0.50490373,0.09176213,0.42034203,0.034232352,1.0,0.0,0.0,0.0,0.0,0.0,0.0,-1.7724823,-0.007078558,-1.1717527,0.70436,-1.9946575,3.0178041,-18.455505,-3.9227843,0.2681613,1.1067569
12.1054,21.085915,4.6888633,-2.9601922,-0.7185383,-2.2387607,0.46177512,-0.79871726,0.60612226,-0.08575187,-0.504433,0.4247072,0.6648606,0.5288411,0.92834574,-0.30839196,-1.6659589,-0.9022976,2.4923282,1.5153391,-0.9547757,0.9940039,-0.3581528,-1.6592453,-0.85953045,2.4563081,1.4537379,-1.0042723,-1.4199123,1.0821295,-0.17984045,-0.8099635,0.63755363,0.48856592,0.34087172,1.094429,-0.395195,1.7165797,-2.8052456,-0.2269543,-0.54174554,0.09843445,-0.29214478,1.0927927,0.81936884,-0.2542848,0.10357632,0.50323534,0.16187467,0.3828162,-0.014596983,1.0,0.0,0.0,0.0,0.0,0.0,0.0,-1.744429,-0.0048049986,-1.1665797,0.6252289,-1.2015104,2.5430083,-16.949415,-2.9603124,0.0841558,0.911963
9.206574,19.249733,4.0078583,0.40290356,-0.44129837,-2.1040602,0.33661592,-0.7923026,0.5967008,-0.09501121,-0.547065,0.38403472,0.6669219,0.5353563,0.91477364,-0.29848272,-1.6687464,-0.91423696,2.4947116,1.5204301,-0.9507367,0.9798418,-0.3474173,-1.6609333,-0.8686352,2.4624193,1.458613,-1.0008086,-1.4142314,1.0710347,-0.16608669,-0.94386584,0.6024562,0.4876953,0.34836653,1.066391,-0.39746857,1.7104298,-2.8024411,-0.22672738,-0.6393899,0.10044098,-0.2885666,1.0923513,0.81957895,-0.25384623,0.10900307,0.5019669,0.21840641,0.34688562,-0.05710013,1.0,0.0,0.0,0.0,0.0,0.0,0.0,-1.716391,-0.002531439,-1.1604297,0.76179504,-0.9941101,1.1296123,-13.3668785,-3.425455,0.00094771385,0.76885223
6.1636243,15.986374,3.0383978,3.6989648,-0.113083884,-1.9663286,0.22211738,-0.7872423,0.581117,-0.088755205,-0.5873968,0.33935776,0.6634193,0.5309169,0.9011176,-0.2893056,-1.6698087,-0.92737484,2.496355,1.5249549,-0.9477169,0.9657475,-0.33682674,-1.6625297,-0.87881374,2.4681108,1.4634768,-0.99728423,-1.4073517,1.0554099,-0.15823692,-1.0425545,0.5586852,0.48613894,0.353751,1.0383835,-0.3997345,1.7033043,-2.7996395,-0.2265007,-0.7369366,0.10292816,-0.28530884,1.091529,0.81974727,-0.25282302,0.11463479,0.5009527,0.2601968,0.31147027,-0.093822025,1.0,0.0,0.0,0.0,0.0,0.0,0.0,-1.6883835,-0.0002655089,-1.1533043,0.824666,-1.4584064,0.5866587,-9.895695,-4.2814612,-0.1034677,0.5263746
1.448767,10.289953,0.7603661,7.699375,0.2791779,-1.8585956,0.020433377,-0.788256,0.57175976,-0.13572134,-0.6005106,0.2965132,0.66699076,0.5288138,0.8869219,-0.27965078,-1.6761018,-0.9388648,2.4977622,1.5301758,-0.9444029,0.95169985,-0.3264069,-1.6643074,-0.88966846,2.4733064,1.4683253,-0.99371845,-1.4038736,1.037762,-0.18446875,-1.1002086,0.5069169,0.48462817,0.35726425,1.0104065,-0.4019928,1.6952039,-2.7968402,-0.22627425,-0.8343859,0.10568237,-0.28244781,1.0903852,0.81997985,-0.2513097,0.12049081,0.49995846,0.28328517,0.2728768,-0.12470185,1.0,0.0,0.0,0.0,0.0,0.0,0.0,-1.6604065,0.001992792,-1.1452038,0.38735867,-1.683712,-2.686119,-5.8697224,-5.118501,-0.14537573,0.28287768
-2.3675413,1.4124858,-2.3176484,9.097095,0.38046423,-1.8806064,-0.112074144,-0.7808274,0.5343915,-0.16055927,-0.628983,0.11286523,0.66879284,0.535758,0.8736171,-0.27296776,-1.6803633,-0.95256674,2.484593,1.5352045,-0.94014263,0.9377037,-0.31630224,-1.6664855,-0.9009533,2.4775217,1.4731623,-0.99012214,-1.3980309,1.0015727,-0.22901714,-1.1383501,0.39297616,0.4832344,0.35991555,0.98246,-0.4042511,1.6861298,-2.7940438,-0.22604802,-0.93173766,0.10861969,-0.28002167,1.088916,0.8203806,-0.24933213,0.12673308,0.49874616,0.29786277,0.2261905,-0.15774116,1.0,0.0,0.0,0.0,0.0,0.0,0.0,-1.63246,0.0042510927,-1.1361299,0.63245296,-3.5636902,-4.476473,-3.946352,-11.383277,-0.15766025,0.12646914
-7.407758,-11.209572,-6.1465325,11.361645,0.56288815,-1.8159877,-0.23712352,-0.77717096,0.4616548,-0.15170114,-0.61650133,-0.18956795,0.6844711,0.54051995,0.85998666,-0.27013677,-1.6816556,-0.96260345,2.4585648,1.5416094,-0.93607014,0.9237715,-0.30685705,-1.6690185,-0.912385,2.4797914,1.4779993,-0.9865058,-1.3914714,0.92550915,-0.26140475,-1.1452947,0.17175664,0.4835267,0.36142623,0.95454407,-0.4065094,1.676083,-2.7912502,-0.22582203,-1.0289922,0.111595154,-0.2781372,1.0871034,0.8210214,-0.2469489,0.13360894,0.49708033,0.29879645,0.17193308,-0.19250189,1.0,0.0,0.0,0.0,0.0,0.0,0.0,-1.604544,0.0065093935,-1.1260829,0.7103205,-7.589817,-3.2322824,-0.85361004,-22.132948,-0.0002682209,-0.09214282
-15.011893,-40.461964,-13.825458,11.516327,1.5354488,-1.928676,-0.218652,-0.7588608,0.27866423,-0.06537998,-0.6183216,-0.46196827,0.69962156,0.53375304,0.84788543,-0.27899063,-1.6755565,-0.9742172,2.4335945,1.5479615,-0.9331305,0.9099871,-0.29895157,-1.6713741,-0.9237795,2.4792383,1.4828497,-0.98288757,-1.3733772,0.7453759,-0.22718085,-1.1379895,-0.13113034,0.48536602,0.36078003,0.92665863,-0.4087677,1.6650643,-2.7884595,-0.22559625,-1.1261494,0.11433411,-0.27703857,1.0848696,0.8218891,-0.24418755,0.14100885,0.49496183,0.26633936,0.08328755,-0.23687622,1.0,0.0,0.0,0.0,0.0,0.0,0.0,-1.5766586,0.008767694,-1.1150644,2.0527363,-18.069994,3.2929688,0.60498714,-30.320099,0.14006495,-0.41537285
-28.204088,-88.5408,-26.485498,12.522054,3.8564203,-2.1175253,-0.15261124,-0.7434418,-0.022096694,0.08488581,-0.5967746,-0.5847311,0.7094228,0.5311774,0.83564293,-0.30116123,-1.6628855,-0.98345697,2.4207652,1.553792,-0.9297698,0.89645064,-0.2940902,-1.6725967,-0.93496037,2.4756944,1.4877211,-0.97928363,-1.3453501,0.39912486,-0.088226564,-1.1116985,-0.42885894,0.48719057,0.35873428,0.89878845,-0.411026,1.6530749,-2.7856717,-0.2253707,-1.2232095,0.1162262,-0.27731323,1.0821218,0.8229203,-0.24107517,0.1481485,0.49268317,0.16040254,-0.067556776,-0.29012194,1.0,0.0,0.0,0.0,0.0,0.0,0.0,-1.5487884,0.011025995,-1.1030748,3.2987118,-34.804535,13.60702,2.5416613,-29.829645,0.03722906,-0.644207
-40.843636,-132.23006,-38.93452,12.464232,6.1520333,-2.423472,-0.1278167,-0.72397953,-0.32706207,0.17341699,-0.6007772,-0.5723661,0.69427454,0.48030776,0.8240527,-0.3267964,-1.655255,-0.9950381,2.4184577,1.5571486,-0.93125284,0.8832594,-0.29372257,-1.6720665,-0.9459028,2.4698007,1.4925829,-0.9757388,-1.3078887,-0.08500872,0.09874331,-1.0884678,-0.64337134,0.4846522,0.35159087,0.8709488,-0.4132843,1.6401155,-2.7828867,-0.22514537,-1.3201725,0.116493225,-0.27957153,1.0787671,0.82412094,-0.23755208,0.15395926,0.4906019,-0.01733443,-0.28114668,-0.35249737,1.0,0.0,0.0,0.0,0.0,0.0,0.0,-1.5209488,0.013284296,-1.0901155,4.485631,-48.71087,18.301605,2.3097515,-21.585691,-0.6676853,-1.1559904
-40.545334,-138.55278,-39.6841,9.983404,6.8622823,-2.4538305,0.13394614,-0.6746987,-0.5599561,0.29751062,-0.6509904,-0.52280897,0.6776096,0.49340385,0.8157895,-0.34971818,-1.6423154,-1.0110018,2.4175198,1.5603439,-0.92639846,0.8706118,-0.29849046,-1.6693866,-0.9568987,2.4625375,1.4973913,-0.9722455,-1.2477801,-0.6085155,0.3228818,-1.1029825,-0.75443953,0.47703487,0.34766874,0.84313965,-0.41552734,1.6261872,-2.7801046,-0.22492027,-1.4170386,0.11487579,-0.28406525,1.0747418,0.82539475,-0.2335592,0.15762705,0.48921087,-0.21173725,-0.5053092,-0.42039368,1.0,0.0,0.0,0.0,0.0,0.0,0.0,-1.4931396,0.015527338,-1.0761871,6.8017244,-52.685757,21.950542,-1.354003,-11.249256,-1.4909387,-0.6675482
-28.025076,-106.33252,-28.86644,6.341489,5.706158,-2.1898882,0.46043187,-0.60410976,-0.69340706,0.38818085,-0.72215736,-0.50030625,0.6334622,0.48779866,0.8102008,-0.36783117,-1.6305685,-1.0291145,2.4125068,1.5607376,-0.92346567,0.85879195,-0.30793756,-1.6644943,-0.96843433,2.454725,1.5020853,-0.9687789,-1.1582431,-1.0577831,0.54345953,-1.1699338,-0.79052836,0.46372584,0.34609082,0.815361,-0.4177704,1.6112909,-2.777325,-0.2246954,-1.5138078,0.11167145,-0.29050446,1.0700277,0.8265466,-0.2290825,0.15895987,0.48895156,-0.36107942,-0.68579435,-0.48944026,1.0,0.0,0.0,0.0,0.0,0.0,0.0,-1.465361,0.01777038,-1.061291,9.482837,-45.22723,21.71312,-6.559968,-3.7252426,-2.2050738,-0.22791028
-5.7835603,-45.900097,-8.670577,4.2373347,3.344635,-1.616623,0.7724006,-0.42698413,-0.7446129,0.4152305,-0.7300888,-0.51522,0.6112809,0.43218932,0.81609356,-0.38239884,-1.6229712,-1.0414432,2.403203,1.5632135,-0.92556,0.84852564,-0.32076305,-1.6578186,-0.9806671,2.446802,1.5066477,-0.9653552,-0.9829669,-1.3580652,0.7087204,-1.2408335,-0.79292077,0.45150262,0.34157762,0.7876129,-0.42001343,1.5954278,-2.774548,-0.22447075,-1.6104802,0.10762024,-0.2980957,1.0647347,0.82729185,-0.22432067,0.15832718,0.4901029,-0.4232924,-0.77982813,-0.54406893,1.0,0.0,0.0,0.0,0.0,0.0,0.0,-1.4376129,0.020013422,-1.0454278,17.462276,-30.206036,16.488838,-7.042122,-0.21488667,-1.8444777,-0.32916665
9.023076,2.1266508,5.6137395,5.153145,1.3314449,-1.2336454,0.6956023,-0.27566946,-0.7683192,0.31627998,-0.7025522,-0.54023033,0.62152576,0.3346269,0.8209587,-0.397595,-1.6261905,-1.0509224,2.3927789,1.5688003,-0.9318925,0.8404814,-0.33546823,-1.6505191,-0.9933405,2.438894,1.5111243,-0.96204406,-0.74676037,-1.5082636,0.7380388,-1.2762492,-0.7895083,0.44564813,0.32817554,0.7598877,-0.42225647,1.5785986,-2.771774,-0.22424632,-1.707056,0.10345459,-0.30615997,1.0590317,0.8275317,-0.21950164,0.15643504,0.4924819,-0.41700226,-0.80876017,-0.581038,1.0,0.0,0.0,0.0,0.0,0.0,0.0,-1.4098877,0.022256464,-1.0285985,23.089016,-15.086508,3.2331944,-3.5563946,0.4166007,-0.83532333,-1.1620879
15.320788,28.15232,11.618956,5.6832104,0.032055795,-1.2257776,0.46331763,-0.16309544,-0.78076684,0.18162629,-0.70606226,-0.54051197,0.619702,0.29702204,0.82417184,-0.41354492,-1.6323565,-1.0639467,2.3848429,1.5730945,-0.9323419,0.8349091,-0.35084432,-1.6440151,-1.0062027,2.4310434,1.5155665,-0.9588941,-0.49656215,-1.5474551,0.62309444,-1.2896072,-0.78370965,0.44363195,0.31110805,0.73218536,-0.4244995,1.5608044,-2.769003,-0.22402212,-1.8035353,0.09964752,-0.31433105,1.0530224,0.8273757,-0.214655,0.15399455,0.49563915,-0.3699508,-0.81077564,-0.6099937,1.0,0.0,0.0,0.0,0.0,0.0,0.0,-1.3821853,0.024499506,-1.0108044,24.290234,-3.932619,-10.9596615,-1.3657093,0.6007314,-0.23405552,-1.5721738
13.301213,29.554928,8.245168,4.8439484,-0.4829458,-1.6816275,0.087868795,-0.028702462,-0.7865449,-0.082906745,-0.71071124,-0.52348804,0.60860044,0.2810603,0.8320388,-0.42949882,-1.6523057,-1.0772738,2.3786945,1.5764265,-0.93078804,0.83187926,-0.36614698,-1.6400478,-1.019104,2.423292,1.5199877,-0.9559215,-0.24130985,-1.524646,0.32413697,-1.290351,-0.77316594,0.44135427,0.29262888,0.70451355,-0.42674255,1.5420461,-2.7662346,-0.22379814,-1.8999182,0.0963974,-0.3226471,1.0466753,0.8271207,-0.20953526,0.15157914,0.49898905,-0.31077406,-0.8296491,-0.64582855,1.0,0.0,0.0,0.0,0.0,0.0,0.0,-1.3545135,0.026742548,-0.99204606,24.680328,2.2492886,-29.046375,-0.09417534,0.914073,-0.2953589,-1.846981
12.292997,23.331688,3.7461245,1.1423645,-0.7371822,-2.2328637,-0.047444634,0.13469914,-0.79684526,-0.31528127,-0.73911345,-0.50918055,0.58963805,0.33974415,0.8453492,-0.4458315,-1.6715759,-1.0930153,2.3723738,1.5789515,-0.92194706,0.831514,-0.38109535,-1.6399391,-1.0320969,2.4156702,1.524367,-0.9530776,0.028632915,-1.4851341,-0.09011403,-1.3024896,-0.75933534,0.43608618,0.28123996,0.67687225,-0.4289856,1.5223247,-2.763469,-0.22357439,-1.9962047,0.09378815,-0.3313446,1.0398523,0.8269924,-0.20378485,0.14949825,0.5022006,-0.2434229,-0.8762488,-0.6981456,1.0,0.0,0.0,0.0,0.0,0.0,0.0,-1.3268722,0.02898559,-0.97232467,26.05907,3.8857937,-40.36796,-1.258421,1.1592865,-0.7524371,-1.2394607
10.013178,19.785677,1.9121172,1.3719931,-0.60553074,-2.2461977,-0.07750108,0.19765954,-0.79658604,-0.41968325,-0.75272334,-0.5056091,0.57401675,0.38568684,0.85128,-0.46075395,-1.6819074,-1.1073692,2.3651092,1.5817686,-0.91450894,0.83348906,-0.3956675,-1.6438091,-1.0452633,2.4081743,1.5286833,-0.9502948,0.2515144,-1.4481272,-0.48338655,-1.3214095,-0.7467563,0.42900696,0.27689502,0.6492615,-0.43121338,1.5016412,-2.760706,-0.22335085,-2.0923948,0.091796875,-0.34054565,1.0324712,0.8270668,-0.19723405,0.1478261,0.5051797,-0.18330169,-0.9283875,-0.75613034,1.0,0.0,0.0,0.0,0.0,0.0,0.0,-1.2992615,0.031213373,-0.95164114,21.611849,3.6263704,-38.529385,-1.9004107,1.0426044,-0.9894073,-0.5375385
8.679447,19.094648,2.4420533,2.6618674,-0.4070884,-1.9855797,-0.0041120052,0.24804357,-0.80208147,-0.48439842,-0.7723912,-0.52169466,0.5549302,0.39930472,0.8582934,-0.47587565,-1.692249,-1.1225024,2.3560047,1.5841763,-0.91036433,0.8372437,-0.40998834,-1.6509197,-1.0586853,2.4007318,1.5329157,-0.9475301,0.41540545,-1.4269452,-0.7853921,-1.3490019,-0.7437772,0.42056057,0.27610824,0.6216812,-0.43344116,1.4799964,-2.7579458,-0.22312754,-2.1884887,0.09030914,-0.3502121,1.0245165,0.8272948,-0.18989538,0.14649609,0.507998,-0.13275115,-0.9726976,-0.8144213,1.0,0.0,0.0,0.0,0.0,0.0,0.0,-1.2716812,0.033441156,-0.92999643,15.991676,2.045703,-29.739607,-2.7257442,0.12776852,-1.1327147,-0.14181137
8.541054,23.781908,5.7432785,5.6092396,-0.2034894,-1.475454,0.11329273,0.2818152,-0.80164975,-0.50527126,-0.7776731,-0.53345984,0.55997014,0.41316122,0.86542517,-0.4901533,-1.7014468,-1.1364527,2.347386,1.5889127,-0.906214,0.8421923,-0.42419285,-1.6601188,-1.072361,2.3932626,1.5370795,-0.944753,0.52071947,-1.4185379,-0.9642021,-1.373604,-0.748474,0.414212,0.27819663,0.5941162,-0.43566895,1.4573915,-2.7551885,-0.22290446,-2.2844863,0.089263916,-0.3601303,1.0160533,0.8275404,-0.18195759,0.14537874,0.5108162,-0.091748856,-0.99506176,-0.8637857,1.0,0.0,0.0,0.0,0.0,0.0,0.0,-1.2441162,0.03566894,-0.9073915,10.357285,0.78122616,-17.724026,-2.4049044,-0.58550835,-0.8536637,0.21035671
0.7141249,22.27303,5.4575157,12.2198515,0.45304424,-0.86146045,-0.0017015189,0.20824379,-0.8043314,-0.5142611,-0.77547246,-0.54193574,0.5524327,0.40293747,0.86301666,-0.504626,-1.711545,-1.1499082,2.3390691,1.5923227,-0.90445924,0.8474003,-0.43839306,-1.6703136,-1.0862007,2.3857057,1.541186,-0.94196063,0.52149355,-1.4208264,-1.0382632,-1.3868486,-0.7587298,0.40905145,0.2796301,0.5665817,-0.43789673,1.4338273,-2.752434,-0.2226816,-2.380388,0.088378906,-0.3701706,1.0071912,0.8277883,-0.17363489,0.14437713,0.51358795,-0.08240806,-1.0014272,-0.9011146,1.0,0.0,0.0,0.0,0.0,0.0,0.0,-1.2165817,0.037896723,-0.88382727,0.27635098,-0.31044483,-7.555771,-1.1654854,-1.2092948,-0.659585,0.15835762
-2.037016,26.079609,7.7100935,16.288383,0.80785584,-0.35959044,0.007184595,0.1852942,-0.8046233,-0.49125206,-0.7788781,-0.52565646,0.5574491,0.3957441,0.8659297,-0.5188554,-1.7194388,-1.1640885,2.3331401,1.5969309,-0.90238625,0.852203,-0.4526481,-1.6805999,-1.1001205,2.378103,1.5452563,-0.93915874,0.46776152,-1.4273659,-1.0265666,-1.3930365,-0.7617931,0.40622053,0.280566,0.53907776,-0.4401245,1.4093049,-2.749682,-0.22245896,-2.476194,0.08748627,-0.3801422,0.9980501,0.828002,-0.16514789,0.14336684,0.51631856,-0.08900519,-0.9898918,-0.92611444,1.0,0.0,0.0,0.0,0.0,0.0,0.0,-1.1890777,0.040124506,-0.85930485,-5.0114098,-0.73492527,0.8469343,-0.42922497,-0.49722195,-0.34094453,0.14850497
-4.3881755,27.96116,8.710922,18.829563,1.0467253,-0.06593263,-0.0054281503,0.15276824,-0.80780274,-0.48270276,-0.78005975,-0.5223949,0.556376,0.408788,0.86747986,-0.5334284,-1.7288702,-1.1781266,2.3258636,1.6008939,-0.89827996,0.8562523,-0.4669847,-1.6904724,-1.1140633,2.3704927,1.5493075,-0.93633777,0.38540336,-1.4360479,-0.97547436,-1.3939832,-0.76117533,0.40457782,0.2828077,0.5116043,-0.4423523,1.3838251,-2.7469327,-0.22223654,-2.571904,0.08642578,-0.38993073,0.9887147,0.82815605,-0.1566419,0.1422685,0.5190189,-0.106268495,-0.96954864,-0.9436002,1.0,0.0,0.0,0.0,0.0,0.0,0.0,-1.1616043,0.04235229,-0.83382505,-7.795888,-0.9496212,4.706812,0.11870861,-0.13713837,-0.17310977,0.30071735
-5.102463,29.781963,9.396536,19.610249,1.0715218,0.05416423,-0.014010981,0.123189084,-0.80782753,-0.47915694,-0.7822169,-0.5341982,0.55896544,0.41258284,0.8685712,-0.54776746,-1.7383881,-1.192285,2.3170729,1.605204,-0.8950795,0.8594452,-0.48139375,-1.6997936,-1.1280041,2.362867,1.5533491,-0.93349296,0.29878438,-1.4427857,-0.919097,-1.3934128,-0.7639405,0.40389934,0.28536916,0.48416138,-0.44457245,1.3573889,-2.7441864,-0.22201435,-2.6675184,0.08518982,-0.399498,0.97922355,0.8282466,-0.148174,0.14107035,0.521681,-0.12556116,-0.9454266,-0.9582637,1.0,0.0,0.0,0.0,0.0,0.0,0.0,-1.1341614,0.044572443,-0.80738884,-8.217997,-0.7511854,5.221927,0.27644634,-0.46947002,-0.057029724,0.33987164
-4.708991,29.185482,8.937989,18.580414,1.0736849,-0.050474018,-0.014489114,0.11250347,-0.8122806,-0.50193226,-0.7876357,-0.5063883,0.5304018,0.41692534,0.8706956,-0.56262183,-1.7499868,-1.2067677,2.3122282,1.6063893,-0.8918004,0.8619162,-0.49587005,-1.7087638,-1.1419582,2.3552988,1.5573622,-0.9306205,0.2312504,-1.44946,-0.8908505,-1.3954124,-0.75533485,0.400361,0.28813842,0.4567337,-0.44678497,1.3299972,-2.741443,-0.22179238,-2.7630372,0.08377838,-0.40885925,0.9695599,0.8282868,-0.13969909,0.13974705,0.52430516,-0.14322197,-0.92749447,-0.9760689,1.0,0.0,0.0,0.0,0.0,0.0,0.0,-1.1067337,0.046784967,-0.77999717,-6.3701034,-0.7455826,2.4679422,0.021004677,0.67112446,-0.37008524,0.36439896
-6.4645185,26.268368,6.9894314,18.06744,1.1902677,-0.17620075,-0.085684,0.078613766,-0.81459486,-0.53614813,-0.79152197,-0.47163147,0.50227433,0.39707917,0.86977756,-0.5773295,-1.7623787,-1.2211105,2.3081355,1.6075896,-0.8909126,0.8637768,-0.510405,-1.7177532,-1.1559505,2.3479211,1.561318,-0.9277385,0.17231329,-1.4551723,-0.9026953,-1.399657,-0.7326562,0.39368722,0.28846708,0.42933655,-0.4489975,1.301651,-2.738702,-0.22157064,-2.8584604,0.08215332,-0.41812134,0.9596749,0.82833827,-0.1311118,0.13826697,0.52682793,-0.16479065,-0.91968703,-0.9993467,1.0,0.0,0.0,0.0,0.0,0.0,0.0,-1.0793365,0.04899749,-0.751651,-5.5300055,-0.66223145,-1.4825344,-0.17848015,2.0531297,-0.7294893,0.107854605
-5.9372244,25.774876,6.5223503,16.89742,1.1180799,-0.26946723,-0.09981476,0.06502539,-0.81855845,-0.55659443,-0.79609185,-0.46839267,0.47374722,0.36035433,0.8702793,-0.59226084,-1.7734126,-1.2355597,2.301082,1.6086928,-0.89170307,0.865172,-0.5249981,-1.7270477,-1.170002,2.3407686,1.5651861,-0.9248832,0.12966472,-1.4610425,-0.93907547,-1.4062713,-0.71027255,0.38421288,0.28468183,0.4019699,-0.45121002,1.2723514,-2.7359638,-0.22134912,-2.9537883,0.08035278,-0.42736816,0.9495195,0.8284366,-0.12232414,0.13662711,0.5292094,-0.18327506,-0.91662556,-1.0275242,1.0,0.0,0.0,0.0,0.0,0.0,0.0,-1.0519699,0.051210016,-0.7223514,-3.9497554,-0.68130493,-3.8837552,-0.41365623,2.0252109,-1.0450244,-0.31004548
-6.0310173,25.03211,6.0352917,16.216011,1.0748544,-0.3032657,-0.10403463,0.046199262,-0.82644874,-0.5811258,-0.7979094,-0.47394025,0.44904733,0.3636363,0.869792,-0.607643,-1.7851603,-1.2497929,2.2933745,1.6100909,-0.8885195,0.86621153,-0.5396723,-1.7368133,-1.1841183,2.33378,1.5689455,-0.92206603,0.09632198,-1.469851,-0.98976904,-1.4125912,-0.6955016,0.37278298,0.28102967,0.3746338,-0.45342255,1.2420992,-2.7332284,-0.22112781,-3.0490208,0.07837677,-0.4365692,0.93905246,0.8285919,-0.113277756,0.13484779,0.5314317,-0.20070066,-0.9164847,-1.0596751,1.0,0.0,0.0,0.0,0.0,0.0,0.0,-1.0246338,0.05342254,-0.69209915,-3.0481787,-0.98092556,-5.2803874,-0.37474632,1.2590885,-1.2701094,-0.3041327
-14.316725,21.157988,2.8491638,19.268915,1.4622698,-0.12063986,-0.29700565,-0.054010324,-0.8269006,-0.6084677,-0.7976787,-0.47800934,0.40958667,0.31161052,0.8608105,-0.6223624,-1.7976601,-1.2638861,2.285979,1.6099042,-0.89090496,0.8665768,-0.5544228,-1.7471359,-1.1982784,2.3268754,1.5725695,-0.9193223,0.01791868,-1.4772612,-1.0472032,-1.4158953,-0.68946457,0.35839516,0.27222338,0.3473282,-0.45563507,1.2108953,-2.730496,-0.22090673,-3.1441581,0.076049805,-0.44582367,0.9282574,0.82891464,-0.10391905,0.13298471,0.5333071,-0.23896055,-0.91915154,-1.0927728,1.0,0.0,0.0,0.0,0.0,0.0,0.0,-0.99732816,0.055635065,-0.6608953,-7.4260073,-0.8764267,-5.988288,0.0069379807,0.30560493,-1.5909493,-0.8533001
-23.758823,17.441835,-0.3050568,22.897758,1.973801,0.15440464,-0.47799492,-0.15598835,-0.83145195,-0.62938833,-0.79710305,-0.46573687,0.39605793,0.28407857,0.85097796,-0.637568,-1.8100747,-1.2779887,2.2803018,1.6121752,-0.89091444,0.8657795,-0.5692496,-1.7580097,-1.2124462,2.320028,1.5760504,-0.91668445,-0.11043203,-1.485101,-1.1016146,-1.4156717,-0.6839938,0.34394184,0.2610195,0.32003784,-0.4578476,1.1787409,-2.7277658,-0.22068587,-3.2392004,0.07316589,-0.45509338,0.9171373,0.82954156,-0.09422718,0.13105565,0.53460866,-0.30311736,-0.92284226,-1.1251266,1.0,0.0,0.0,0.0,0.0,0.0,0.0,-0.9700378,0.05784759,-0.62874085,-12.286884,-0.96132755,-5.72598,0.44953823,0.16036034,-1.6222894,-1.1145115
-39.089058,12.252274,-5.1559086,28.844166,2.7882783,0.5952835,-0.750524,-0.33054322,-0.83097434,-0.6443659,-0.79783905,-0.4542176,0.36049676,0.27332032,0.83272517,-0.652347,-1.8224462,-1.2922301,2.2746062,1.6121001,-0.88935244,0.8630682,-0.5841355,-1.7693546,-1.2265968,2.3132493,1.5793711,-0.9141601,-0.3220601,-1.4906824,-1.1466298,-1.4129149,-0.677744,0.3274084,0.24952939,0.29277802,-0.4600525,1.1456367,-2.7250385,-0.22046523,-3.3341477,0.0693512,-0.46443176,0.9057147,0.83065677,-0.08418209,0.1290629,0.5350377,-0.40830052,-0.9266319,-1.1547453,1.0,0.0,0.0,0.0,0.0,0.0,0.0,-0.942778,0.060052484,-0.59563667,-20.392624,-0.8061409,-4.860902,0.8486986,0.08985996,-1.8738151,-1.1729002
-49.972992,8.4202175,-8.914695,32.240788,3.406785,0.86232686,-0.9452336,-0.47047353,-0.8341317,-0.6832619,-0.8013237,-0.41429847,0.28756502,0.19569185,0.81602085,-0.66754866,-1.8376808,-1.3067292,2.2718196,1.6081276,-0.8945909,0.85789645,-0.5990767,-1.7811897,-1.2407265,2.3066347,1.5824839,-0.91179687,-0.57917756,-1.4962208,-1.1969192,-1.4108235,-0.65822273,0.30478603,0.23183449,0.2655487,-0.46224976,1.1115837,-2.7223141,-0.22024481,-3.429,0.06425476,-0.47381592,0.89398843,0.8324232,-0.07373365,0.12694576,0.5343404,-0.5433157,-0.9326002,-1.1853435,1.0,0.0,0.0,0.0,0.0,0.0,0.0,-0.9155487,0.06224975,-0.5615837,-24.813944,-0.86677074,-5.415225,0.90675354,1.3065219,-2.5643766,-1.7951548
-53.35419,10.4033,-8.499137,33.669205,3.7517598,1.1717716,-1.0050311,-0.58578694,-0.83989674,-0.6877348,-0.7932718,-0.33474022,0.31806552,0.031131158,0.7993178,-0.68306637,-1.8499632,-1.3200537,2.2731607,1.6142905,-0.9086838,0.8501164,-0.6140856,-1.7934253,-1.2548008,2.3004396,1.585406,-0.9097188,-0.8412963,-1.5036222,-1.2334886,-1.4037833,-0.6089848,0.2870034,0.19987644,0.23834991,-0.46444702,1.076583,-2.7195923,-0.2200246,-3.5237572,0.05770874,-0.4832077,0.8819883,0.83489746,-0.06294826,0.124521725,0.5324265,-0.6925346,-0.93160135,-1.2116985,1.0,0.0,0.0,0.0,0.0,0.0,0.0,-0.8883499,0.064447016,-0.526583,-25.306522,-1.0854483,-4.0418625,1.4534473,4.258919,-2.128011,-3.1730175
-51.33434,17.756458,-4.7336135,34.078148,3.8618193,1.5073541,-0.96093714,-0.6921989,-0.83615786,-0.67833084,-0.7760691,-0.2211385,0.38081488,-0.09744262,0.7808965,-0.6977014,-1.8612584,-1.3324077,2.2783258,1.6234875,-0.9194631,0.83985865,-0.6291365,-1.8058498,-1.2687302,2.2950456,1.5882212,-0.9080356,-1.0845494,-1.5067307,-1.24677,-1.3869585,-0.51834625,0.27844968,0.15815051,0.21117401,-0.4666443,1.0406353,-2.7168732,-0.21980463,-3.61842,0.049674988,-0.4925003,0.8698045,0.8380407,-0.052019175,0.12154911,0.5293464,-0.84316576,-0.9164912,-1.2274231,1.0,0.0,0.0,0.0,0.0,0.0,0.0,-0.861174,0.06664428,-0.49063534,-23.494602,-0.6536722,-1.6888142,2.4086237,8.454454,-1.2027621,-4.079461
-43.297337,25.956308,0.28077602,31.49816,3.7530339,1.5969903,-0.84001577,-0.7532077,-0.8315748,-0.6913566,-0.77161,-0.016832517,0.42365423,-0.29247642,0.7645379,-0.712294,-1.8749855,-1.3458911,2.2933624,1.6305866,-0.9372832,0.8275591,-0.64417785,-1.8183601,-1.2824898,2.2910898,1.5910021,-0.9068807,-1.2762424,-1.5042392,-1.2534788,-1.3701613,-0.35660985,0.27689815,0.10190356,0.184021,-0.46884155,1.0037419,-2.7141569,-0.21958487,-3.712988,0.040229797,-0.50159454,0.8575086,0.84176624,-0.041121185,0.117685184,0.5252512,-0.9811754,-0.8922857,-1.2369075,1.0,0.0,0.0,0.0,0.0,0.0,0.0,-0.834021,0.06884155,-0.45374185,-18.49873,-0.056791306,-0.9627104,2.317977,15.678215,-0.49907565,-5.445266
-30.883865,36.568226,7.2669234,27.96483,3.5597868,1.6026089,-0.6265335,-0.77923614,-0.81891024,-0.6898646,-0.75980216,0.28434446,0.45712233,-0.38798398,0.7496355,-0.72606885,-1.8873465,-1.35847,2.3195243,1.6367143,-0.94567907,0.8138596,-0.65912,-1.8308761,-1.296072,2.2894914,1.5938078,-0.9063123,-1.3996525,-1.491668,-1.2516335,-1.3526648,-0.0952083,0.2806502,0.042681765,0.1568985,-0.47103882,0.96590334,-2.7114434,-0.21936533,-3.8074615,0.029579163,-0.51039124,0.84518874,0.8459335,-0.030445987,0.11248288,0.5204008,-1.0982401,-0.859758,-1.2368838,1.0,0.0,0.0,0.0,0.0,0.0,0.0,-0.8068985,0.07103881,-0.41590333,-11.88724,1.0209322,-0.006341934,2.2270203,25.810871,0.07665157,-5.6494064
-19.604155,45.134052,12.7505865,24.170206,2.8644109,1.5442152,-0.46551773,-0.79783595,-0.80376095,-0.7033276,-0.74649835,0.37776822,0.49745387,-0.4545359,0.73407596,-0.7394961,-1.9012089,-1.3707218,2.3272681,1.6435533,-0.9517659,0.79936564,-0.6738648,-1.8434093,-1.3094692,2.2904947,1.596686,-0.9063304,-1.464984,-1.4692923,-1.254342,-1.3342316,0.16471323,0.2896483,-0.015751213,0.12980652,-0.47323608,0.9271208,-2.7087324,-0.21914601,-3.9018407,0.017982483,-0.5187912,0.83288765,0.85039514,-0.020110806,0.1058596,0.5149926,-1.1846769,-0.81809235,-1.234242,1.0,0.0,0.0,0.0,0.0,0.0,0.0,-0.7798065,0.07323608,-0.3771208,-6.2553644,2.0683765,-0.37574768,2.1765947,25.811243,0.67439675,-5.5749145
-9.663389,50.5223,16.338196,19.804928,1.8120786,1.3657703,-0.31778443,-0.7980116,-0.792588,-0.72782516,-0.74400425,0.33914888,0.5035279,-0.47682238,0.7195645,-0.7531236,-1.9161918,-1.3838696,2.3244095,1.6470388,-0.95401263,0.7845789,-0.6883568,-1.8560817,-1.3227215,2.2934892,1.5996615,-0.90689117,-1.4826967,-1.4428463,-1.2716521,-1.3215032,0.34419397,0.29964495,-0.0687938,0.102745056,-0.47542572,0.8873872,-2.7060242,-0.2189269,-3.997191,0.0058135986,-0.5267334,0.82056344,0.8550005,-0.010094168,0.09815544,0.5091538,-1.2339959,-0.76995206,-1.2380918,1.0,0.0,0.0,0.0,0.0,0.0,0.0,-0.75274503,0.075425714,-0.3373872,-1.6204357,2.5312662,-1.7846346,1.5002489,17.875343,0.84852576,-5.102072
-5.202806,50.81131,16.914713,16.833185,0.83120644,1.2501321,-0.25215387,-0.80658096,-0.793687,-0.7481206,-0.7315081,0.18580398,0.5224156,-0.49309614,0.70392084,-0.7677255,-1.9308938,-1.3958722,2.3120697,1.651903,-0.9562008,0.7697817,-0.70263904,-1.8690174,-1.3358383,2.2972734,1.6027457,-0.90793735,-1.4784502,-1.4237387,-1.3010243,-1.3077346,0.38990086,0.3110732,-0.11615117,0.07569885,-0.47760773,0.84670085,-2.7033188,-0.21870802,-4.092445,-0.0066833496,-0.53417206,0.8081303,0.85963273,-0.00029782104,0.08996295,0.50292945,-1.2554747,-0.7171337,-1.2512281,1.0,0.0,0.0,0.0,0.0,0.0,0.0,-0.7256988,0.07760772,-0.29670084,0.52673817,1.8231869,-2.9884815,1.5745163,4.543519,1.0479927,-4.628135
-1.7614276,50.401447,17.146381,13.929083,-0.25933528,1.1645654,-0.17384897,-0.805445,-0.7965899,-0.76083934,-0.727518,-0.08637761,0.53215563,-0.5050045,0.68923724,-0.782298,-1.9451013,-1.4085901,2.2886357,1.6559613,-0.9584378,0.7551075,-0.7168097,-1.8822696,-1.3488369,2.3002794,1.6059443,-0.90941364,-1.4634659,-1.4150952,-1.3337667,-1.2966305,0.27114126,0.32276297,-0.15813276,0.048683167,-0.47978973,0.80506265,-2.700616,-0.21848936,-4.187604,-0.019126892,-0.5410309,0.7954929,0.86418056,0.009417512,0.082023785,0.49636194,-1.2476766,-0.65793496,-1.2739636,0.0,1.0,0.0,0.0,0.0,0.0,0.0,-0.69868314,0.07978973,-0.25506264,1.5788078,0.79631805,-3.3549786,1.2996435,-11.8855,1.1395574,-4.1970344
-0.6056013,48.12522,16.536846,12.192574,-0.77969825,1.0908859,-0.10477291,-0.8002195,-0.8096899,-0.7717603,-0.7190135,-0.25750378,0.5149213,-0.5133199,0.67508554,-0.79777867,-1.9594456,-1.4207382,2.274529,1.6574364,-0.96074563,0.7407834,-0.7309084,-1.8973979,-1.3620666,2.2982328,1.6128259,-0.91011375,-1.4250258,-1.4110862,-1.5349416,-1.3212154,-0.28821146,0.7132258,-0.07696643,0.03325653,-0.481575,0.80829316,-1.4795675,-0.14991692,0.689168,-0.03125,-0.5468292,0.7820376,0.8682273,0.018337842,0.076764956,0.48984912,-1.2056438,-0.54737574,-1.3606052,0.0,1.0,0.0,0.0,0.0,0.0,0.0,-0.6832565,0.081575006,-0.25829315,2.3771524,-0.82571507,-3.6711216,1.970458,-21.045277,0.57849884,-4.3329773
65.9059,176.0,110.0,110.0,-3.8906126,11.400868,-0.523633,-0.7927927,0.46962228,0.6733968,0.74122286,-0.36255938,0.6490017,-0.45051685,0.66150415,-0.6839462,-1.8300582,-1.2879443,2.261977,1.677726,-0.95516545,0.7316558,-0.74648285,-1.9088382,-1.3616222,2.2824934,1.6285653,-0.91020817,-0.7475967,-1.605198,-1.0076079,0.4955412,-1.9983952,1.8725914,0.009308825,0.018470764,-0.48307037,0.81443524,-1.4780883,-0.14976703,0.58922774,-0.042289734,-0.5498581,0.77268726,0.8716821,0.017795565,0.07885286,0.48335886,-1.0692791,-0.20329371,-0.79573035,1.0,0.0,0.0,0.0,0.0,0.0,0.0,-0.66847074,0.08307037,-0.26443523,66.06134,-19.088411,54.623962,180.44257,-169.69423,119.451836,7.4904256
-4.2319555,174.94241,83.544655,97.480034,3.1273906,6.0810986,-0.98015344,-0.7788157,-0.61606383,0.16243966,0.7745867,-0.6498392,0.6269799,-0.22597109,0.6537742,-0.80808926,-1.8925942,-1.2841636,2.2175095,1.6912633,-0.9328053,0.72430485,-0.7617407,-1.9141425,-1.3495563,2.2609136,1.6471372,-0.9101786,-0.72998214,-1.5006034,-0.368694,1.4443072,-2.216411,1.8586508,0.002719032,0.0037002563,-0.48456573,0.81957865,-1.4766104,-0.14961728,0.48938748,-0.053230286,-0.5506897,0.76824397,0.8751772,0.010176345,0.08479198,0.4762054,-1.0985055,-0.034008175,-0.33317414,1.0,0.0,0.0,0.0,0.0,0.0,0.0,-0.65370023,0.08456573,-0.26957864,2.0649314,10.076904,64.674355,95.04293,-23.368883,0.592947,-0.107393414
-33.24537,146.52638,52.67681,73.201935,3.7770007,3.7079015,-1.1699085,-0.7654243,-0.45684892,-0.17500046,0.7218865,-0.6645512,0.61880744,0.08105943,0.6477624,-0.80742556,-1.9316425,-1.2773677,2.1944585,1.7090179,-0.90207267,0.71585053,-0.7748194,-1.9156569,-1.3318256,2.240009,1.6645951,-0.91005844,-0.8813896,-1.2450161,-0.07990791,1.8842396,-2.0521464,1.7124721,0.016185308,-0.011054993,-0.4860611,0.8237244,-1.475134,-0.14946769,0.389647,-0.06479645,-0.55018616,0.7671246,0.87908596,-0.00017722332,0.091740556,0.4677515,-1.1741438,0.08358633,-0.04709152,1.0,0.0,0.0,0.0,0.0,0.0,0.0,-0.638945,0.08606109,-0.27372438,-14.38787,25.157118,28.650707,44.434048,15.328264,-13.353729,1.6661707
-27.666237,133.94528,44.862347,48.612846,2.6793823,2.520211,-0.6225654,-0.75564027,-0.38696536,0.066522986,0.7767502,-0.65451986,0.57785094,0.055765826,0.6402865,-0.8135159,-1.9090046,-1.2541506,2.174557,1.7223802,-0.9044818,0.70544785,-0.7850952,-1.91477,-1.3125004,2.2220151,1.6802411,-0.90984577,-1.0916497,-0.95638114,0.14369239,1.9493206,-1.717964,1.5179293,0.023329968,-0.025794983,-0.48755646,0.8268735,-1.4736593,-0.14931825,0.29000628,-0.07682037,-0.5485916,0.7680888,0.88323855,-0.011257767,0.09861657,0.4582985,-1.2114353,0.19279864,0.13502315,1.0,0.0,0.0,0.0,0.0,0.0,0.0,-0.624205,0.08755645,-0.27687347,-20.551216,28.506767,21.994995,6.712222,32.555412,-18.645573,0.81202126
-29.065395,86.55694,20.494717,26.789127,1.8883048,0.71868193,-0.44803736,-0.7582166,-0.37872258,-0.11622864,0.7735856,-0.65635633,0.58383226,0.041660152,0.6296262,-0.82296747,-1.9263929,-1.2351418,2.1563795,1.7386243,-0.90567976,0.6932046,-0.7930107,-1.9134997,-1.2940334,2.2072484,1.6940465,-0.90958923,-1.2679148,-0.7371941,0.11998036,1.8128985,-1.3971391,1.3362076,0.026173767,-0.040519714,-0.48905182,0.8290269,-1.472186,-0.14916895,0.19046518,-0.08918762,-0.5463104,0.76978636,0.8875474,-0.02151809,0.104985386,0.44807872,-1.2432452,0.24326263,0.17350072,1.0,0.0,0.0,0.0,0.0,0.0,0.0,-0.60948026,0.08905181,-0.27902687,-17.453362,21.729206,-2.7800992,-13.563395,31.84998,-17.7006,0.21094531
-16.09568,61.534122,12.802771,13.340691,0.89006996,-0.2387793,-0.122892424,-0.7454798,-0.36121184,-0.090461336,0.7795401,-0.65452665,0.5802064,-0.009836429,0.6186566,-0.8291319,-1.9225458,-1.2160794,2.1417959,1.7520671,-0.9105729,0.67976063,-0.7993841,-1.9129657,-1.277327,2.1950872,1.7062116,-0.9093546,-1.3699944,-0.6044546,0.030705718,1.6232762,-1.156513,1.1775076,0.022171635,-0.055229187,-0.49054718,0.83018565,-1.4707141,-0.14901981,0.09102359,-0.10165405,-0.54382324,0.77137893,0.8919001,-0.030278191,0.11076522,0.43741098,-1.2460365,0.26126406,0.14846529,1.0,0.0,0.0,0.0,0.0,0.0,0.0,-0.5947708,0.090547174,-0.28018564,-10.231829,13.156128,-9.099428,-18.995262,23.889042,-15.601802,-0.5195178
-8.000229,40.66987,7.6433654,7.4641876,0.6047829,-0.7456458,0.052367415,-0.7481355,-0.38871577,-0.072194576,0.7824941,-0.6408116,0.57634985,-0.03770692,0.6049471,-0.8382557,-1.9201851,-1.1990775,2.131006,1.7638465,-0.91312534,0.66576546,-0.80517673,-1.9133319,-1.262276,2.1846921,1.7169747,-0.90918297,-1.4095762,-0.5709842,-0.05920214,1.4655814,-1.0006891,1.0430189,0.015260941,-0.0699234,-0.49204254,0.83035076,-1.4692436,-0.14887081,-0.008318577,-0.114097595,-0.54132843,0.7724767,0.89620805,-0.03751653,0.11591466,0.42657623,-1.243249,0.25423554,0.09241108,1.0,0.0,0.0,0.0,0.0,0.0,0.0,-0.5800766,0.092042536,-0.28035074,-4.008651,3.28331,-9.027013,-15.799403,15.418553,-13.304043,-0.76258427
-6.5069876,22.769007,1.6610523,5.8151994,0.692208,-1.1131905,0.06897196,-0.73985,-0.42270285,-0.15536955,0.779363,-0.6361092,0.563794,0.038536172,0.5917805,-0.84744704,-1.9288688,-1.1843398,2.121081,1.7733542,-0.90532935,0.65173024,-0.8111954,-1.9147929,-1.2483505,2.1753309,1.7265534,-0.909018,-1.4014926,-0.6123323,-0.17524678,1.3682358,-0.91511875,0.9295581,0.016746389,-0.084602356,-0.49353027,0.8295202,-1.4677746,-0.14872196,-0.10795516,-0.1266098,-0.5390625,0.77284443,0.90046424,-0.043320805,0.12045927,0.4156644,-1.2513391,0.22524956,0.014606043,1.0,0.0,0.0,0.0,0.0,0.0,0.0,-0.5653976,0.09353027,-0.2795202,0.8039236,-4.1583776,-11.6334305,-9.69646,8.477318,-11.275232,0.12417436
-3.5841122,23.030891,2.608174,7.4067936,0.5831728,-1.1157724,0.03597399,-0.7159987,-0.4118618,-0.21847184,0.7869196,-0.65019435,0.5746369,0.04967031,0.58013034,-0.8523815,-1.93664,-1.1696585,2.1103115,1.7840171,-0.90405095,0.63803357,-0.8177309,-1.9174727,-1.2349266,2.166412,1.7351499,-0.90882343,-1.3590505,-0.6672976,-0.2988419,1.3340172,-0.88459986,0.8366603,0.02019003,-0.09926605,-0.49501038,0.82769406,-1.466307,-0.14857326,-0.20749211,-0.13919067,-0.537117,0.7724913,0.90467256,-0.047870934,0.1246128,0.4046573,-1.2567477,0.19495872,-0.05492991,1.0,0.0,0.0,0.0,0.0,0.0,0.0,-0.5507339,0.09501037,-0.27769405,4.255438,-5.526316,-12.351134,-3.338647,2.9775143,-9.239256,0.31723082
-5.1959925,22.991697,2.2118044,9.535448,0.6472341,-1.0430174,-0.03416734,-0.70241106,-0.4297151,-0.3019189,0.7901818,-0.6582647,0.58517444,0.08302066,0.5677925,-0.8607024,-1.9476646,-1.1559083,2.1005857,1.7936673,-0.90052134,0.6248366,-0.8248396,-1.9214934,-1.2215332,2.1575582,1.742949,-0.9085688,-1.3064393,-0.7256321,-0.4362857,1.341763,-0.8859954,0.76121855,0.02706443,-0.11391449,-0.49649048,0.8248733,-1.4648411,-0.14842471,-0.3069296,-0.15184784,-0.5354614,0.77147865,0.9088498,-0.05130996,0.1285931,0.39347568,-1.2675984,0.1661485,-0.1194411,1.0,0.0,0.0,0.0,0.0,0.0,0.0,-0.5360855,0.09649047,-0.27487332,5.299735,-5.8751345,-13.737881,0.91125965,-0.18737316,-7.5161457,0.6609801
-9.89032,22.590164,0.861371,11.709187,0.8168011,-0.91844034,-0.12140083,-0.696472,-0.4528219,-0.39847162,0.79561925,-0.6571841,0.59582376,0.116687395,0.55518943,-0.8701218,-1.9613405,-1.1419712,2.0918398,1.8025314,-0.89690006,0.612107,-0.8325062,-1.9270209,-1.2079014,2.1486013,1.7501054,-0.90822357,-1.2615818,-0.78049105,-0.59169716,1.3710573,-0.89901596,0.70034945,0.03690802,-0.1285553,-0.49797058,0.8210589,-1.4633766,-0.14827631,-0.40626764,-0.16468811,-0.5340347,0.7698327,0.9130287,-0.05369302,0.1325421,0.38200536,-1.2889266,0.14141224,-0.18238677,1.0,0.0,0.0,0.0,0.0,0.0,0.0,-0.5214447,0.097970575,-0.27105892,4.5627594,-5.544722,-15.563512,3.1252623,-1.3169765,-6.0871005,0.95909685
-5.676614,24.459578,2.442765,10.238675,0.5798904,-0.8848658,-0.03800056,-0.6445769,-0.48603743,-0.46430045,0.7964548,-0.664702,0.6293958,0.14185256,0.54764926,-0.88110995,-1.9734509,-1.1282558,2.0821311,1.8130449,-0.8940383,0.5999362,-0.84072685,-1.9340571,-1.1939644,2.1394765,1.7567601,-0.90776867,-1.2020926,-0.8361403,-0.7407926,1.4018078,-0.9170604,0.65385795,0.04830106,-0.14318085,-0.49945068,0.8162519,-1.4619136,-0.14812806,-0.50550634,-0.1776886,-0.53287506,0.7675612,0.91717553,-0.05508598,0.13650964,0.37029684,-1.3012794,0.11875992,-0.24489374,1.0,0.0,0.0,0.0,0.0,0.0,0.0,-0.5068191,0.09945068,-0.26625186,5.994749,-5.632508,-14.8801565,3.257513,-1.8405318,-4.66702,1.0998912
2.3138423,25.083323,4.5180135,6.709756,0.21884394,-0.9354907,0.12085302,-0.581813,-0.53275627,-0.5171942,0.79167986,-0.6660742,0.6471894,0.15367089,0.5417549,-0.8940025,-1.9857765,-1.1147964,2.072869,1.8214791,-0.8924016,0.58852834,-0.849576,-1.9424323,-1.1798061,2.1301877,1.7630315,-0.9072003,-1.1203525,-0.90141636,-0.8694538,1.4207975,-0.9330733,0.618035,0.05955147,-0.15779114,-0.5009308,0.81045324,-1.460452,-0.14797996,-0.6046458,-0.19068909,-0.5319443,0.76464057,0.9212137,-0.055578273,0.1404353,0.35854456,-1.2985522,0.09402302,-0.3107455,1.0,0.0,0.0,0.0,0.0,0.0,0.0,-0.49220884,0.10093078,-0.26045322,8.157849,-6.5903306,-12.762308,2.038312,-1.6687274,-3.6142588,1.0795444
6.6322002,16.326006,2.6860778,2.4850569,0.119644135,-1.0650239,0.2162472,-0.53068864,-0.6209795,-0.5723607,0.77967995,-0.6517567,0.6647178,0.07510878,0.53545946,-0.91167396,-1.9996684,-1.1018381,2.065012,1.8295033,-0.8996894,0.57802933,-0.8593445,-1.9519557,-1.1655945,2.1208189,1.7690072,-0.906588,-1.0264609,-1.0021755,-0.9797413,1.4217854,-0.938324,0.590661,0.061879463,-0.17238617,-0.5024109,0.80366397,-1.4589918,-0.147832,-0.7036861,-0.20366669,-0.53131104,0.76093286,0.92511064,-0.05522443,0.14410031,0.34692293,-1.2952385,0.060539935,-0.39397803,1.0,0.0,0.0,0.0,0.0,0.0,0.0,-0.4776138,0.10241088,-0.25366396,9.348989,-10.112106,-10.92093,0.25601387,-0.55941343,-2.8048396,0.23582056
27.302517,21.663536,8.599229,-4.7988462,-0.8597099,-1.3275481,0.53717196,-0.38850975,-0.6573626,-0.6118626,0.7691831,-0.68105024,0.68091977,0.118067674,0.5391784,-0.9250807,-2.0131419,-1.0886761,2.0527139,1.8370992,-0.89478123,0.5689284,-0.8701248,-1.962408,-1.1514877,2.1113393,1.7747636,-0.9059338,-0.87204504,-1.1034666,-1.0662925,1.4070492,-0.951335,0.57033974,0.06658029,-0.18696594,-0.503891,0.795885,-1.457533,-0.1476842,-0.80262744,-0.21630096,-0.5311203,0.75638795,0.92874914,-0.05411811,0.1474248,0.33580053,-1.2496967,0.015952248,-0.47806746,1.0,0.0,0.0,0.0,0.0,0.0,0.0,-0.46303403,0.103890985,-0.24588501,15.2379875,-10.14421,-8.391666,-1.4587164,-1.3982892,-2.0959377,0.4425302
36.94587,25.248798,11.641974,-8.123139,-1.2679946,-1.4272983,0.6895309,-0.30632794,-0.69967574,-0.65073884,0.7493969,-0.6617068,0.673776,0.15236677,0.5382956,-0.9400924,-2.0274818,-1.076548,2.0451686,1.8421412,-0.8906971,0.5615136,-0.88187504,-1.9736041,-1.1376384,2.1018064,1.7803407,-0.90521187,-0.69881994,-1.1990296,-1.1362761,1.3774775,-0.9547661,0.5531717,0.07397928,-0.20153046,-0.5053711,0.78711736,-1.4560757,-0.14753655,-0.9014698,-0.22833252,-0.5314026,0.75101596,0.9320582,-0.05234314,0.15035747,0.32545394,-1.1857284,-0.034301218,-0.560723,0.0,1.0,0.0,0.0,0.0,0.0,0.0,-0.44846952,0.10537109,-0.23711735,17.04458,-9.571719,-6.6672087,-3.0026436,-0.4790783,-1.8100858,0.7076904
44.41819,28.78312,14.253962,-10.336782,-1.6177604,-1.4751543,0.8061672,-0.21012957,-0.74410856,-0.67576635,0.7331675,-0.67806554,0.6600799,0.20639426,0.54050064,-0.9562859,-2.0411806,-1.0643218,2.034,1.8463486,-0.88457245,0.5559127,-0.8945246,-1.9853724,-1.1241363,2.0922086,1.7857575,-0.9043812,-0.5149033,-1.2870139,-1.1888837,1.3410317,-0.9620376,0.53743404,0.08606057,-0.21607971,-0.5068512,0.77737045,-1.4546199,-0.14738904,-0.9990902,-0.23962402,-0.5322037,0.7448511,0.9350004,-0.04996855,0.15290675,0.31606463,-1.1063764,-0.08819564,-0.6391016,0.0,1.0,0.0,0.0,0.0,0.0,0.0,-0.43392026,0.10685119,-0.22737044,18.063915,-8.820486,-4.8788548,-3.7308216,-0.90078115,-1.6961694,1.1717737
36.522755,30.634758,12.956736,-7.4409466,-1.4044708,-1.3007221,0.6970744,-0.17977728,-0.77268285,-0.72210747,0.7089594,-0.7087492,0.6328205,0.18433458,0.53793496,-0.9717929,-2.057583,-1.0532404,2.0213337,1.8490396,-0.88594776,0.55185384,-0.90793514,-1.9976901,-1.1110386,2.0824544,1.7910142,-0.90345424,-0.3703405,-1.3592203,-1.2449611,1.2991112,-0.98018944,0.5211635,0.094819136,-0.23061371,-0.50832367,0.76664805,-1.4531657,-0.14724168,-1.096613,-0.250206,-0.53347015,0.7379315,0.9376159,-0.04697029,0.15517502,0.3075564,-1.0379382,-0.1345565,-0.7140746,0.0,1.0,0.0,0.0,0.0,0.0,0.0,-0.41938627,0.10832366,-0.21664804,14.197582,-7.273698,-5.2798986,-4.214549,-1.9971132,-1.7828465,0.8333579
21.801647,35.761955,11.709336,-1.5600691,-0.8441227,-0.90130943,0.5052011,-0.18356632,-0.7817543,-0.74133533,0.67636526,-0.7098791,0.6070721,0.1474577,0.5334972,-0.98611057,-2.0718236,-1.0434021,2.0114665,1.8517214,-0.8887085,0.5487525,-0.92187595,-2.0105119,-1.0984195,2.0725286,1.7961049,-0.90248054,-0.2905446,-1.4060487,-1.2936445,1.2497143,-0.99740154,0.50442404,0.09813065,-0.24513245,-0.5097885,0.7549512,-1.4517128,-0.14709447,-1.1940383,-0.26024628,-0.53507996,0.7303502,0.9399849,-0.043329086,0.15727405,0.2996929,-0.99055225,-0.16166714,-0.77753663,0.0,1.0,0.0,0.0,0.0,0.0,0.0,-0.40486753,0.10978851,-0.20495117,7.829756,-4.778743,-4.60217,-4.888177,-1.9444227,-1.8452525,0.27419925
8.332024,43.213833,11.660175,4.759077,-0.2030865,-0.4980656,0.3212263,-0.18695433,-0.7882764,-0.7467843,0.6546525,-0.6967913,0.58775896,0.1147272,0.5300571,-1.0007036,-2.0851903,-1.0329543,2.0028496,1.8548808,-0.89100784,0.5460674,-0.93611616,-2.0239089,-1.0863518,2.0623868,1.8011563,-0.9016418,-0.26176742,-1.4304371,-1.3530725,1.1936468,-1.0146707,0.50740814,0.08272789,-0.25914764,-0.50896454,0.74906737,-1.3583676,0.11666705,-0.44852528,-0.26996613,-0.5368118,0.7221735,0.9421866,-0.039048046,0.15935588,0.29217342,-0.9615182,-0.16998647,-0.83518434,0.0,1.0,0.0,0.0,0.0,0.0,0.0,-0.39085233,0.10896453,-0.19906735,2.409941,-2.6198149,-3.0968904,-4.6702385,-1.0577202,-1.8651962,-0.27547032
-45.769863,56.660667,6.6583676,28.662346,2.3171272,0.7801777,-0.33355212,-0.41008055,-0.74660516,-0.7256575,0.7338925,-0.70923644,0.5656082,0.38125676,0.50505936,-1.0107766,-2.0964746,-1.0129625,1.9914631,1.8577172,-0.8635161,0.54235286,-0.9502744,-2.0374663,-1.0742706,2.0521748,1.8061135,-0.900629,-0.40715167,-1.4118806,-1.3559215,1.2143513,-1.0244689,0.49152192,0.107162826,-0.27272034,-0.5078049,0.74383336,-1.3570094,0.1165504,-0.5483561,-0.2800827,-0.53809357,0.71385306,0.9443847,-0.03435747,0.16160004,0.2843279,-1.0235386,-0.11082761,-0.83584607,0.0,1.0,0.0,0.0,0.0,0.0,0.0,-0.37727964,0.107804865,-0.19383335,-14.300495,1.5822172,-0.10328293,2.4450302,-1.4057875,-1.7200887,2.3715048
-54.439926,70.50618,10.348994,35.51905,3.054282,1.2765335,-0.46352538,-0.42917514,-0.7318419,-0.67775893,0.7527003,-0.67104304,0.6117067,0.42332658,0.49943534,-1.0234586,-2.1052423,-0.99900055,1.9850705,1.8672842,-0.85829633,0.53698653,-0.96410173,-2.050669,-1.0617489,2.042024,1.8109505,-0.8993253,-0.5790323,-1.3741099,-1.3075682,1.2661121,-1.0143034,0.48078156,0.13788071,-0.28627777,-0.5066452,0.73760176,-1.3556527,0.116433874,-0.648087,-0.2909088,-0.53861237,0.7057713,0.9466338,-0.029567357,0.16407508,0.27584302,-1.0976498,-0.02658926,-0.803724,0.0,1.0,0.0,0.0,0.0,0.0,0.0,-0.3637222,0.1066452,-0.18760175,-16.949463,3.4546375,5.129838,5.5519104,0.45239925,-1.2082517,3.0137658
-49.789753,67.334526,10.050034,32.206802,2.8722575,1.1785996,-0.38751996,-0.45728117,-0.75303966,-0.6797075,0.7302312,-0.657825,0.5903647,0.3834407,0.4912584,-1.0394057,-2.1186397,-0.9887257,1.9762414,1.869987,-0.8609812,0.53003806,-0.97767156,-2.0633566,-1.048817,2.0320294,1.8156731,-0.89776033,-0.7328114,-1.3522656,-1.2547531,1.3033786,-0.99657774,0.46889108,0.16262792,-0.29982758,-0.50548553,0.7303736,-1.3542974,0.116317466,-0.7477182,-0.30242157,-0.5383301,0.6979384,0.9489173,-0.024757937,0.16666695,0.2667679,-1.1644526,0.052654874,-0.7808729,0.0,1.0,0.0,0.0,0.0,0.0,0.0,-0.3501724,0.10548553,-0.18037361,-15.175879,1.8809557,5.5823326,4.104686,1.2376547,-1.3569951,2.4556696
-32.796383,64.89798,12.130531,24.684874,2.1566598,0.88139045,-0.15693788,-0.46378258,-0.75881004,-0.65910697,0.7199161,-0.6314876,0.5751899,0.40280876,0.4836598,-1.0535526,-2.1292672,-0.9768254,1.9688807,1.8731921,-0.85747945,0.521949,-0.99113363,-2.0755103,-1.035683,2.022279,1.8202775,-0.89596266,-0.8338878,-1.3451455,-1.201012,1.3177863,-0.9697951,0.4569985,0.1853525,-0.31336212,-0.50432587,0.7221499,-1.3529433,0.11620118,-0.8472498,-0.31438446,-0.5373993,0.6902408,0.95117366,-0.019925077,0.16920799,0.25737178,-1.2027591,0.1147854,-0.7701501,0.0,1.0,0.0,0.0,0.0,0.0,0.0,-0.33663785,0.10432586,-0.1721499,-10.010349,0.45495033,5.7217836,1.7201424,2.1653771,-1.3744116,2.2592516
-4.447172,66.13311,17.60869,14.842213,1.0870458,0.47273535,0.1543906,-0.4166132,-0.7630971,-0.6112296,0.72147334,-0.60181284,0.5959147,0.3919854,0.48028767,-1.0674434,-2.1366332,-0.9635357,1.9620978,1.879869,-0.85676414,0.5134775,-1.0046107,-2.0870306,-1.0225147,2.012849,1.8247921,-0.8939752,-0.85180265,-1.3491064,-1.1341462,1.316814,-0.93574643,0.44890773,0.20306395,-0.3268814,-0.5031662,0.71293163,-1.3515906,0.116085,-0.94668186,-0.3263855,-0.53604126,0.68260574,0.9533097,-0.015163298,0.17155406,0.24807234,-1.1947044,0.15033069,-0.7651152,0.0,1.0,0.0,0.0,0.0,0.0,0.0,-0.32311857,0.10316619,-0.16293162,-1.8637419,-0.59227943,7.1572304,-0.017762184,2.8694868,-0.9820521,1.7284214
6.999485,60.73193,17.146603,9.135197,0.4631441,0.13640046,0.2918926,-0.419302,-0.77283347,-0.63145185,0.7106458,-0.59837466,0.57372016,0.40361145,0.4715473,-1.081894,-2.1501758,-0.9514501,1.9530116,1.8821641,-0.85361403,0.5051243,-1.0181986,-2.0981972,-1.0094922,2.0036843,1.8292694,-0.8918868,-0.8301757,-1.3626775,-1.1092223,1.2977237,-0.9085238,0.4482595,0.212105,-0.3404007,-0.50105286,0.7054973,-1.3346643,0.2288464,-0.6860067,-0.33818054,-0.5344925,0.67486376,0.95528173,-0.010368918,0.1736828,0.239089,-1.1685239,0.16596845,-0.7808915,0.0,1.0,0.0,0.0,0.0,0.0,0.0,-0.30959928,0.10105285,-0.15549731,1.9076228,-1.501894,3.62916,-1.5537024,3.5375476,-0.25464296,1.8479049
0.14758706,68.39004,17.803448,13.593098,0.7649227,0.3167438,0.1681431,-0.46917406,-0.74158305,-0.6003979,0.7446427,-0.6146871,0.5648521,0.42000982,0.45820686,-1.0923569,-2.158237,-0.9350279,1.9422156,1.8857546,-0.84988576,0.49684548,-1.0317732,-2.1090813,-0.9964858,1.9947541,1.8337361,-0.88964975,-0.8273931,-1.3563683,-1.0798047,1.3016844,-0.8899575,0.44512972,0.22714722,-0.35343933,-0.498703,0.6986589,-1.2962404,0.23974194,-0.6847659,-0.3497696,-0.5326843,0.66709733,0.9570969,-0.005561219,0.17570147,0.2303551,-1.149983,0.19226593,-0.77883995,0.0,1.0,0.0,0.0,0.0,0.0,0.0,-0.29656065,0.098703,-0.14865887,0.18280745,0.44357777,3.4258842,0.43444633,1.2392521,-0.52782893,1.3634324
-6.3230467,69.08036,16.211735,15.782483,0.93423235,0.37404957,0.10601732,-0.48657554,-0.73848873,-0.60792035,0.7456796,-0.6262537,0.5519497,0.47194856,0.44818792,-1.105622,-2.1698732,-0.92191786,1.9321287,1.888931,-0.8424549,0.48848367,-1.045241,-2.1197972,-0.9833957,1.9859074,1.8381584,-0.8872418,-0.83930373,-1.344368,-1.0675849,1.3117648,-0.8845576,0.4399249,0.24524994,-0.36618042,-0.49619293,0.69183385,-1.2655392,0.25794908,-0.68356335,-0.3612213,-0.5306015,0.6593533,0.9587677,-0.0006632863,0.17774148,0.22174771,-1.1394135,0.22281918,-0.77652234,0.0,1.0,0.0,0.0,0.0,0.0,0.0,-0.28381956,0.096192926,-0.14183384,-1.2551308,1.002121,1.6754866,1.093483,0.052440166,-0.72733164,1.732719
-16.158371,68.760796,13.783499,18.59495,1.2485384,0.47634062,0.0072568804,-0.5226236,-0.73108405,-0.6181845,0.74561274,-0.61831737,0.5299404,0.48608923,0.4362213,-1.1183494,-2.1816156,-0.9088344,1.9240757,1.8911524,-0.8386329,0.47981626,-1.0585581,-2.1305168,-0.97019786,1.977085,1.842512,-0.88466066,-0.87592816,-1.3283422,-1.0719116,1.3229783,-0.88300216,0.4329321,0.26222804,-0.37864685,-0.493515,0.684998,-1.2408259,0.27195036,-0.6852409,-0.37268066,-0.5281372,0.6516216,0.9603166,0.0044349213,0.17986296,0.21312329,-1.1424693,0.2617827,-0.77547634,0.0,1.0,0.0,0.0,0.0,0.0,0.0,-0.27135313,0.09351501,-0.13499796,-3.6803722,1.3910055,-0.021624565,1.2701273,-0.31437874,-0.91322064,1.6241729
-20.222204,62.85187,10.946759,17.777649,1.3383851,0.43190584,0.00611341,-0.54524654,-0.7437606,-0.62826395,0.7255157,-0.5826649,0.4613624,0.5099437,0.4252916,-1.1329342,-2.1933432,-0.8976463,1.9188185,1.8886483,-0.83366627,0.47069958,-1.0718037,-2.1413696,-0.95700026,1.9683645,1.8467361,-0.88190776,-0.9235712,-1.3238924,-1.0885274,1.3193071,-0.86980265,0.41812232,0.27945906,-0.3909073,-0.49067688,0.6780248,-1.2210866,0.2875,-0.70117074,-0.38423157,-0.5252838,0.6438078,0.96176887,0.0098447595,0.18196586,0.20443131,-1.1539158,0.3011728,-0.786468,0.0,1.0,0.0,0.0,0.0,0.0,0.0,-0.2590927,0.090676874,-0.12802482,-4.7555447,0.24321079,-1.3094664,-0.17299652,0.8919835,-1.675278,1.6646266
-12.938714,62.900158,11.907967,15.212826,1.0217068,0.34393704,0.08365916,-0.52606523,-0.7397121,-0.6381349,0.73166955,-0.5922903,0.48208237,0.5216904,0.41809306,-1.1457748,-2.205183,-0.8838333,1.9091355,1.8949443,-0.82973874,0.46127436,-1.0850254,-2.1524322,-0.9438408,1.9597471,1.8508371,-0.8789912,-0.9489476,-1.3220589,-1.1108273,1.3152386,-0.86052513,0.40649518,0.29555157,-0.40294647,-0.48771667,0.67088467,-1.1977763,0.29946133,-0.7187715,-0.395813,-0.52207947,0.6358606,0.9631078,0.015595507,0.18402085,0.19574572,-1.153391,0.33284426,-0.80041087,0.0,1.0,0.0,0.0,0.0,0.0,0.0,-0.2470535,0.08771667,-0.12088466,-2.5691748,-0.005531311,-1.8399,-0.26311874,0.48679113,-1.3692677,1.5309691
-8.908063,63.01406,12.753026,13.833555,0.978441,0.33689076,0.122130044,-0.5379989,-0.74705505,-0.6175708,0.72857684,-0.56851256,0.46030268,0.53168553,0.40747446,-1.1597309,-2.2141893,-0.8709831,1.9028958,1.8968674,-0.82582265,0.45165557,-1.0982796,-2.163586,-0.9307382,1.9512724,1.8548187,-0.8759233,-0.9663155,-1.3272201,-1.1152377,1.3089541,-0.8446125,0.39457422,0.31032637,-0.41474152,-0.48464966,0.66355443,-1.173901,0.30894777,-0.7364472,-0.40734863,-0.51860046,0.62777865,0.96432745,0.02161624,0.18596078,0.18714634,-1.1479423,0.3618373,-0.8136243,0.0,1.0,0.0,0.0,0.0,0.0,0.0,-0.23525846,0.08464965,-0.11355442,-1.7931104,-0.69475174,-0.01244545,-0.5139351,1.1250615,-1.3992429,1.4060795
0.8478997,65.18638,14.984418,11.085051,0.6795509,0.26371777,0.21475215,-0.51869607,-0.7457122,-0.6093433,0.7185333,-0.5598032,0.4446428,0.5366525,0.39978597,-1.1728508,-2.2245202,-0.8588849,1.895292,1.8992829,-0.822258,0.44203246,-1.1115853,-2.1746864,-0.9177396,1.9429673,1.8586825,-0.8727188,-0.9613467,-1.3322252,-1.1066816,1.2969079,-0.82746816,0.38300028,0.32353848,-0.4262619,-0.48150635,0.65607244,-1.1435627,0.3161302,-0.75081176,-0.41871643,-0.51488495,0.61958164,0.965415,0.027817363,0.18773599,0.17876017,-1.1274878,0.38156998,-0.82444835,0.0,1.0,0.0,0.0,0.0,0.0,0.0,-0.22373807,0.08150634,-0.106072426,0.38645267,-0.6630182,1.3539553,-1.172471,1.1972666,-1.3622165,1.2266159
3.9938147,67.308914,16.11807,10.38225,0.6869028,0.27210528,0.24274202,-0.5258431,-0.74531865,-0.58629686,0.7016504,-0.5283862,0.3949081,0.5478813,0.38944814,-1.1861172,-2.2333162,-0.8475746,1.8901287,1.8981733,-0.8179307,0.43247536,-1.124931,-2.1855698,-0.90492785,1.9348993,1.8624097,-0.8693898,-0.9542649,-1.3357676,-1.0803243,1.2759172,-0.80174816,0.3685945,0.33571687,-0.43746185,-0.47831726,0.6484819,-1.1118426,0.3197544,-0.7617,-0.42985535,-0.5110245,0.61130637,0.9663759,0.034107685,0.18928076,0.17066632,-1.1025804,0.39922723,-0.83113796,0.0,1.0,0.0,0.0,0.0,0.0,0.0,-0.21253812,0.078317255,-0.09848189,0.5781412,-0.5082607,3.1692743,-2.1015167,2.018559,-1.6383588,1.1268854
6.1767197,71.26493,17.441668,10.8321085,0.74525785,0.29679683,0.23457766,-0.5194618,-0.73917454,-0.5660138,0.7030881,-0.5110377,0.3768528,0.56521714,0.38052917,-1.1988485,-2.242171,-0.83461905,1.8837955,1.900095,-0.81286806,0.4230196,-1.1382691,-2.1961055,-0.89229417,1.9271066,1.8659879,-0.8659398,-0.9431987,-1.3336834,-1.0429051,1.2591244,-0.77370024,0.35378963,0.3478288,-0.44831848,-0.47507477,0.6408113,-1.0763111,0.32446918,-0.76664877,-0.4407196,-0.5069504,0.6030216,0.9672202,0.040399026,0.19058357,0.16288276,-1.0743113,0.4157772,-0.8300831,0.0,1.0,0.0,0.0,0.0,0.0,0.0,-0.2016815,0.07507476,-0.09081131,0.9584427,0.054335594,4.324317,-1.7124891,2.2123456,-1.6771555,1.1131227
6.3377504,73.63829,18.217983,11.33741,0.9393288,0.33119205,0.21153584,-0.5253812,-0.74059725,-0.513961,0.6842163,-0.46698776,0.29170623,0.5603964,0.37048146,-1.2123288,-2.2475016,-0.82387257,1.8804078,1.8951585,-0.80990016,0.41362917,-1.1515824,-2.2060804,-0.8798686,1.9196756,1.8693724,-0.8623848,-0.9381668,-1.3310513,-0.9804483,1.2369603,-0.7349054,0.33258715,0.35779172,-0.45881653,-0.4718094,0.63312364,-1.0403836,0.32718265,-0.7677641,-0.45130157,-0.50271606,0.594796,0.9679764,0.04657638,0.19157667,0.15540437,-1.0471314,0.43350255,-0.8224822,0.0,1.0,0.0,0.0,0.0,0.0,0.0,-0.19118345,0.07180938,-0.083123624,0.35270452,0.11270046,6.85364,-2.2561073,3.2481909,-2.338916,0.92410445
2.6713085,74.35132,17.582897,12.2757225,1.1991017,0.33172098,0.17261475,-0.5429295,-0.73424107,-0.48579994,0.65193075,-0.39522922,0.13882524,0.5757087,0.35933623,-1.2250065,-2.2546604,-0.81467557,1.8801527,1.8832549,-0.8048139,0.40418106,-1.1648422,-2.2153916,-0.8677674,1.9127873,1.8724426,-0.8587322,-0.9474812,-1.324688,-0.91274333,1.2010417,-0.6755132,0.29784837,0.36761877,-0.46897125,-0.46852112,0.62541884,-1.0068685,0.3298083,-0.7701404,-0.46166992,-0.49827576,0.5866614,0.9686899,0.052600905,0.19212992,0.14818603,-1.0267973,0.45450008,-0.8126979,0.0,1.0,0.0,0.0,0.0,0.0,0.0,-0.18102872,0.06852111,-0.07541883,-1.0635138,0.4885435,7.354009,-3.6131144,5.3124547,-3.696078,0.93518496
-4.067314,73.03608,15.327157,13.4817295,1.3086789,0.2515474,0.13245495,-0.56583387,-0.72286147,-0.4970151,0.62111837,-0.36933702,-0.09971334,0.5905956,0.3475977,-1.2371284,-2.265093,-0.80565554,1.8758537,1.8624712,-0.79967266,0.39451692,-1.1779903,-2.2242258,-0.85611296,1.906491,1.8750033,-0.85498255,-0.9730733,-1.312065,-0.8722046,1.1536574,-0.61613655,0.24147713,0.37729636,-0.47882843,-0.46520233,0.6176327,-0.9776565,0.3324266,-0.7789751,-0.4718933,-0.49360657,0.57858753,0.9693851,0.05863329,0.19218361,0.14113833,-1.0153682,0.47763714,-0.80786055,0.0,1.0,0.0,0.0,0.0,0.0,0.0,-0.17117155,0.065202326,-0.067632675,-2.6551723,1.1153936,4.5603037,-4.7147274,5.3650618,-5.8629513,0.9284198
-9.306213,72.68996,13.747189,14.341406,1.5106364,0.1994713,0.092829935,-0.59029007,-0.7055755,-0.5007269,0.5740483,-0.25549942,-0.31026772,0.603736,0.3354879,-1.2485479,-2.2742984,-0.79870814,1.8809412,1.8439766,-0.79460895,0.38449803,-1.190945,-2.2328503,-0.8450664,1.9010118,1.8768721,-0.85113776,-1.0117383,-1.2904769,-0.85759413,1.0884862,-0.52689946,0.16787206,0.38675523,-0.4884262,-0.46185303,0.609721,-0.9528628,0.33520982,-0.7932611,-0.48207092,-0.48869324,0.57054156,0.9700921,0.064814195,0.19162117,0.13417034,-1.0126244,0.5042892,-0.80560076,0.0,1.0,0.0,0.0,0.0,0.0,0.0,-0.16157377,0.06185302,-0.059720993,-3.940022,2.0145893,1.9082904,-6.4697027,8.385027,-7.6061754,0.9172201
-10.777821,71.91434,13.1828375,14.384165,1.6675686,0.22351038,0.06032379,-0.60963726,-0.7020599,-0.47431064,0.53787655,-0.16393165,-0.39745814,0.5910167,0.3235343,-1.2611511,-2.2802813,-0.7912788,1.8846186,1.8371263,-0.79203606,0.3740586,-1.2036976,-2.241326,-0.8347228,1.8965727,1.8779889,-0.8472184,-1.0548615,-1.2705201,-0.8433124,1.0164973,-0.41785082,0.09216735,0.393649,-0.4977951,-0.4584732,0.60163885,-0.93064106,0.33820954,-0.81131476,-0.49224854,-0.4834671,0.5625099,0.9708416,0.07112081,0.19031829,0.12722914,-1.0138516,0.53377855,-0.80430114,0.0,1.0,0.0,0.0,0.0,0.0,0.0,-0.15220487,0.0584732,-0.05163884,-4.3765306,1.8598318,1.8469572,-7.140684,10.398209,-7.8301697,0.6809056
3.8889508,77.17039,18.176819,11.68959,1.8769836,0.2977146,0.09653424,-0.5910745,-0.7018365,-0.33621916,0.4930488,0.038934153,-0.4220804,0.5962861,0.31495115,-1.2738812,-2.2749481,-0.7854179,1.9004661,1.8357809,-0.7875898,0.36336547,-1.2162975,-2.2490692,-0.82515633,1.8936663,1.8784075,-0.84323364,-1.0745087,-1.2569253,-0.74959695,0.9365694,-0.25000155,0.02426459,0.40008676,-0.50688934,-0.45509338,0.5934775,-0.9015173,0.3375222,-0.8152663,-0.5023651,-0.4780197,0.5546249,0.9717057,0.07707418,0.18800811,0.12041857,-1.0030152,0.55706376,-0.7850314,0.0,1.0,0.0,0.0,0.0,0.0,0.0,-0.14311063,0.055093378,-0.043477476,-2.0874739,1.2517691,9.894156,-8.045113,16.216969,-7.043764,0.649029
9.987526,79.05363,20.426872,10.601645,2.0873668,0.4006139,0.0877503,-0.60624903,-0.70377034,-0.23624386,0.44519266,0.1730589,-0.44739103,0.5892692,0.30274057,-1.2866745,-2.2726936,-0.7806371,1.9109721,1.8336684,-0.7843067,0.35251504,-1.2288246,-2.2554467,-0.8164301,1.8926257,1.8782076,-0.83919686,-1.0889617,-1.2514149,-0.5988896,0.85102534,-0.057102077,-0.03533571,0.40496844,-0.5156708,-0.45172882,0.5853282,-0.8698794,0.33516967,-0.8122379,-0.5123215,-0.47232056,0.54700077,0.9727556,0.08220762,0.18448459,0.11381479,-0.9884512,0.57959384,-0.7565054,0.0,1.0,0.0,0.0,0.0,0.0,0.0,-0.1343292,0.051728815,-0.03532821,-1.5738249,0.46408176,15.593314,-8.634579,18.749943,-6.1869597,0.51240325
31.595356,104.81282,32.550106,12.17527,2.4514344,0.75647247,0.08949974,-0.5748347,-0.6691183,0.10004775,0.44638798,0.21379994,-0.4306602,0.59529495,0.29503158,-1.2957364,-2.245442,-0.7717913,1.9140056,1.8351415,-0.7796674,0.34173182,-1.2411728,-2.2589405,-0.80836105,1.8933375,1.8775157,-0.8351125,-1.07545,-1.229535,-0.2636194,0.7912877,0.11162929,-0.08069803,0.40946072,-0.52394867,-0.44846344,0.57766163,-0.8133498,0.3239922,-0.74981767,-0.52191925,-0.4664688,0.54011905,0.97404253,0.085679255,0.17980023,0.1075735,-0.9443104,0.5938499,-0.66703475,0.0,1.0,0.0,0.0,0.0,0.0,0.0,-0.1260513,0.048463434,-0.027661622,1.1478662,2.112484,34.28479,-6.224084,16.179865,-4.65001,0.39944053
52.04186,113.33787,38.86092,9.737669,2.3220913,0.70003414,0.13620213,-0.5151439,-0.6705105,0.31354755,0.4350082,0.32862365,-0.45485806,0.58921635,0.29021743,-1.3082238,-2.2275858,-0.7648602,1.9261999,1.8320298,-0.7761909,0.3314059,-1.2533283,-2.2584443,-0.80072397,1.8957047,1.8764303,-0.8309926,-1.018947,-1.2111686,0.15657844,0.75356317,0.2762005,-0.117791064,0.41256234,-0.53157043,-0.44537354,0.57083875,-0.7442666,0.30306336,-0.6588286,-0.53092957,-0.4606247,0.5343065,0.9756027,0.08684688,0.17401639,0.10185922,-0.881871,0.5879344,-0.5545001,0.0,1.0,0.0,0.0,0.0,0.0,0.0,-0.11842954,0.04537353,-0.020838737,5.456805,1.753211,42.831985,-4.0344357,15.7659,-3.7241771,0.21560192
54.223446,117.23381,38.74022,11.411005,2.1553853,0.48815262,0.058419667,-0.46394143,-0.6350686,0.3643806,0.46838972,0.43679628,-0.45209873,0.60554576,0.28501177,-1.3168352,-2.2220063,-0.753885,1.9393843,1.8312204,-0.770438,0.32187113,-1.2651825,-2.2542715,-0.7931289,1.8996804,1.8750341,-0.8268353,-0.93206084,-1.1772498,0.506484,0.7610726,0.4361048,-0.14702263,0.41643354,-0.5384903,-0.4425354,0.56500566,-0.6746325,0.27768448,-0.55883914,-0.5393448,-0.45489502,0.52963305,0.9773943,0.08572991,0.16738571,0.096606806,-0.82274574,0.57238823,-0.4403436,0.0,1.0,0.0,0.0,0.0,0.0,0.0,-0.11150968,0.042535394,-0.015005648,8.56756,3.273368,35.734642,0.6287575,15.409869,-2.8927267,0.2832353
46.14688,113.990265,34.31765,12.203732,1.7187306,0.31955785,0.07053663,-0.44020987,-0.5863348,0.38555664,0.4269638,0.512774,-0.41648358,0.6149716,0.27785015,-1.323816,-2.215716,-0.75043255,1.9509578,1.8333857,-0.7653381,0.31319898,-1.2765198,-2.2475545,-0.7855312,1.905135,1.8734094,-0.822636,-0.84577984,-1.119741,0.7286477,0.7594345,0.5803739,-0.16744633,0.42083368,-0.544754,-0.43994904,0.56009513,-0.6113992,0.25276825,-0.47050554,-0.54719543,-0.44934082,0.52594703,0.9793154,0.082832396,0.16021176,0.09171848,-0.77035123,0.55528426,-0.3470369,0.0,1.0,0.0,0.0,0.0,0.0,0.0,-0.10524595,0.03994903,-0.0100951195,8.569277,5.616617,22.79309,-0.13753176,14.001346,-1.9745111,0.3629923
