Afshin1997/kuka_rl_ros2/src/catch_and_throw/input_files/idealpd/polynomial_regressor/optimizer_files/env_458_data.csv
torque0,torque1,torque2,torque3,torque4,torque5,torque6,action0,action1,action2,action3,action4,action5,action6,set_target_0,set_target_1,set_target_2,set_target_3,set_target_4,set_target_5,set_target_6,joint_pos_0,joint_pos_1,joint_pos_2,joint_pos_3,joint_pos_4,joint_pos_5,joint_pos_6,joint_vel_0,joint_vel_1,joint_vel_2,joint_vel_3,joint_vel_4,joint_vel_5,joint_vel_6,tennisball_pos_0,tennisball_pos_1,tennisball_pos_2,tennisball_lin_vel_0,tennisball_lin_vel_1,tennisball_lin_vel_2,end_effector_pos_0,end_effector_pos_1,end_effector_pos_2,end_effector_rot_0,end_effector_rot_1,end_effector_rot_2,end_effector_rot_3,end_effector_lin_vel_0,end_effector_lin_vel_1,end_effector_lin_vel_2,obs_task_0,obs_task_1,obs_task_2,obs_task_3,obs_task_4,obs_task_5,obs_task_6,to_final_target_0,to_final_target_1,to_final_target_2,joint_acc_0,joint_acc_1,joint_acc_2,joint_acc_3,joint_acc_4,joint_acc_5,joint_acc_6
0.0,0.0,0.0,0.0,0.0,0.0,0.0,0.0,0.0,0.0,0.0,0.0,0.0,0.0,1.7802359,-1.0646509,-1.8151424,-1.1170107,1.9373155,1.1170107,-0.91629785,1.7802359,-1.0646509,-1.8151424,-1.1170107,1.9373155,1.1170107,-0.91629785,0.0,0.0,0.0,0.0,0.0,0.0,0.0,2.712059,-0.4475937,0.2848753,-2.7810194,0.0059607504,5.2059608,0.5304184,-0.45449448,0.693097,0.5745483,0.17512383,0.15255436,0.7848268,0.0,0.0,0.0,1.0,0.0,0.0,0.0,0.0,0.0,0.0,-3.362059,0.047593683,0.2651247,0.0,0.0,0.0,0.0,0.0,0.0,0.0
0.0,0.0,0.0,0.0,0.0,0.0,0.0,0.0,0.0,0.0,0.0,0.0,0.0,0.0,1.7802359,-1.0646509,-1.8151424,-1.1170107,1.9373155,1.1170107,-0.91629785,1.7802359,-1.0646509,-1.8151424,-1.1170107,1.9373155,1.1170107,-0.91629785,0.0,0.0,0.0,0.0,0.0,0.0,0.0,2.712059,-0.4475937,0.2848753,-2.7810194,0.0059607504,5.2059608,0.5304184,-0.45449448,0.693097,0.5745483,0.17512383,0.15255436,0.7848268,0.0,0.0,0.0,1.0,0.0,0.0,0.0,0.0,0.0,0.0,-3.362059,0.047593683,0.2651247,0.0,0.0,0.0,0.0,0.0,0.0,0.0
0.0,0.0,0.0,0.0,0.0,0.0,0.0,0.0,0.0,0.0,0.0,0.0,0.0,0.0,1.7802359,-1.0646509,-1.8151424,-1.1170107,1.9373155,1.1170107,-0.91629785,1.7802359,-1.0646509,-1.8151424,-1.1170107,1.9373155,1.1170107,-0.91629785,0.0,0.0,0.0,0.0,0.0,0.0,0.0,2.712059,-0.4475937,0.2848753,-2.7810194,0.0059607504,5.2059608,0.5304184,-0.45449448,0.693097,0.5745483,0.17512383,0.15255436,0.7848268,0.0,0.0,0.0,1.0,0.0,0.0,0.0,0.0,0.0,0.0,-3.362059,0.047593683,0.2651247,0.0,0.0,0.0,0.0,0.0,0.0,0.0
-176.0,77.481964,-2.4933014,110.0,11.173977,5.142814,-3.7717814,-0.8238969,0.3953325,-0.5382642,0.72525764,0.4130992,0.6413524,-0.5957772,1.6978462,-1.0251176,-1.8689688,-1.044485,1.9786254,1.1811459,-0.97587556,1.7786032,-1.0618719,-1.8211906,-1.1126066,1.9428334,1.1219183,-0.91745466,-0.21756047,0.3697902,-0.80551785,0.5874291,0.7345879,0.6521863,-0.15396321,2.6842728,-0.44753265,0.3361594,-2.778239,0.005954791,5.1025696,0.52822876,-0.4576683,0.69400036,0.57819813,0.17386936,0.15114963,0.78269416,-0.29180306,-0.4225457,0.12024922,1.0,0.0,0.0,0.0,0.0,0.0,0.0,-3.3342729,0.047532648,0.2138406,-21.707949,36.749844,-80.30575,58.795666,73.17397,64.58013,-15.290065
-176.0,-18.522583,-39.96709,110.0,12.567459,1.906647,-3.323608,-0.8088871,-0.0937453,-0.55950594,0.6994445,0.48099655,0.63874096,-0.6049501,1.6977144,-1.0712464,-1.8771412,-1.0426621,1.9909331,1.1857924,-0.9779497,1.7764021,-1.0580686,-1.8361747,-1.0993754,1.9537206,1.1344248,-0.9179258,-0.22228469,0.37509513,-1.7104236,1.5691781,1.1961547,1.4255615,-0.015212328,2.6565094,-0.44747162,0.3864104,-2.7754612,0.0059488374,4.999282,0.52337265,-0.46592712,0.69513834,0.5863585,0.170754,0.14753596,0.7779845,-0.55089664,-0.95913404,0.114056684,1.0,0.0,0.0,0.0,0.0,0.0,0.0,-3.3065095,0.047471613,0.16358963,-0.8854121,-2.0881057,-84.79047,98.47327,42.96577,69.987015,12.750021
-154.80263,101.02474,26.14952,91.648834,8.478059,7.518456,-2.013167,-0.7802625,0.30302635,-0.009740371,0.6266704,0.5114853,0.6778175,-0.5636855,1.6983758,-1.027766,-1.8371488,-1.0367084,2.004869,1.2022066,-0.9742943,1.770949,-1.0536779,-1.8516357,-1.0818812,1.965981,1.1485621,-0.9183931,-0.6532618,0.45698807,-1.4848624,1.8108612,1.2309656,1.4024755,-0.05848479,2.6287766,-0.44741058,0.43562925,-2.7726862,0.0059428895,4.896097,0.51561356,-0.4771576,0.6978035,0.59744585,0.16617674,0.14256719,0.7714391,-0.85912365,-1.1711892,0.3216641,1.0,0.0,0.0,0.0,0.0,0.0,0.0,-3.2787766,0.047410578,0.11437076,-43.14005,7.170832,24.535465,24.58973,1.968193,-4.497838,-4.7333097
-97.41115,104.42425,38.635002,57.438942,5.1786065,7.6659718,-0.48307633,-0.78739667,0.17543848,0.09258085,0.63676167,0.52328306,0.646045,-0.5899373,1.6922094,-1.0361341,-1.8423777,-1.018205,2.0183094,1.2131666,-0.97738683,1.7612845,-1.0493215,-1.8620002,-1.0642515,1.9774919,1.1616904,-0.9193925,-1.0717967,0.42615902,-0.8792029,1.7475156,1.1194053,1.2786199,-0.11579412,2.6010704,-0.44734955,0.48381707,-2.7699142,0.005936948,4.7930155,0.5052643,-0.489254,0.7023375,0.60961115,0.16030206,0.13647129,0.76423365,-1.1047468,-1.2111555,0.50255466,1.0,0.0,0.0,0.0,0.0,0.0,0.0,-3.2510705,0.047349542,0.06618294,-42.195404,-3.8151205,62.885796,-6.1507225,-12.742877,-13.693118,-6.347056
-37.34022,121.9343,50.538754,29.77229,1.9752442,7.134523,0.41529956,-0.7987522,0.26587802,0.16472425,0.61578465,0.5882917,0.6482168,-0.580475,1.6814092,-1.0227337,-1.8455278,-1.002673,2.036321,1.2265121,-0.97744,1.7482306,-1.0449919,-1.8658588,-1.0484892,1.9878163,1.1734473,-0.9209642,-1.3846672,0.43334702,-0.2145851,1.5186611,0.99928856,1.13953,-0.17343265,2.573391,-0.4472885,0.5309748,-2.767145,0.0059310123,4.690037,0.4931183,-0.50074387,0.70857775,0.62155825,0.1532053,0.12945515,0.75725484,-1.2648487,-1.1136024,0.6673158,1.0,0.0,0.0,0.0,0.0,0.0,0.0,-3.223391,0.047288507,0.019025207,-31.735802,0.19001365,68.50459,-23.02153,-13.207197,-14.4777775,-6.512192
3.0049772,124.93772,50.627827,12.886459,-0.28052682,5.4935613,0.55751026,-0.81048894,0.36766845,0.1465793,0.60642624,0.60144305,0.64008266,-0.589165,1.6671817,-1.008225,-1.8512008,-0.9878466,2.0479608,1.2374555,-0.9798807,1.7331034,-1.0400976,-1.8645275,-1.0350996,1.9971623,1.1839377,-0.92306036,-1.556747,0.50685143,0.25379488,1.2783815,0.9108902,1.018607,-0.22390401,2.545742,-0.44722748,0.57710356,-2.7643785,0.0059250826,4.587161,0.47998428,-0.5108185,0.71618795,0.63278586,0.14515348,0.1221125,0.7507336,-1.3412045,-0.9596147,0.79243594,1.0,0.0,0.0,0.0,0.0,0.0,0.0,-3.1957421,0.047227472,-0.027103543,-17.585182,6.969351,48.23436,-24.248623,-9.487104,-12.174916,-5.7346344
24.027424,127.6774,47.890514,5.8635597,-1.6384683,4.026853,0.30304024,-0.8227719,0.4962467,0.10439773,0.5846212,0.61148256,0.631559,-0.589397,1.6508262,-0.9904729,-1.8540877,-0.9766375,2.0583105,1.2470936,-0.98200005,1.7170893,-1.0338529,-1.8604419,-1.0237223,2.0059235,1.1933676,-0.9255962,-1.6172439,0.66251594,0.4631477,1.090211,0.8634682,0.9182923,-0.26545852,2.518116,-0.44716644,0.6222043,-2.7616146,0.005919159,4.4843884,0.46651077,-0.5192642,0.7248566,0.6433329,0.13646889,0.1151881,0.7444667,-1.3589582,-0.7912318,0.8899391,1.0,0.0,0.0,0.0,0.0,0.0,0.0,-3.168116,0.047166437,-0.07220429,-6.364274,15.270734,21.839874,-19.000267,-5.015576,-9.887338,-4.743901
31.071754,121.48626,42.591232,3.9298472,-2.0528102,2.870438,0.060368873,-0.8302654,0.5715087,0.11028163,0.56235677,0.6169753,0.62718695,-0.5818168,1.6340628,-0.9767021,-1.8494138,-0.9674866,2.067621,1.2560863,-0.9837779,1.7009817,-1.0258459,-1.8556125,-1.0137068,2.0144417,1.2019278,-0.92848104,-1.6092951,0.84621125,0.49156675,0.9716743,0.8474369,0.83577585,-0.29776573,2.4905205,-0.4471054,0.66627806,-2.7588534,0.005913241,4.3817186,0.45309448,-0.52612686,0.73431844,0.65340024,0.1274251,0.10915316,0.7381846,-1.3446412,-0.6372778,0.9627271,1.0,0.0,0.0,0.0,0.0,0.0,0.0,-3.1405206,0.0471054,-0.11627805,0.5364418,18.148935,3.4510672,-11.986876,-1.699698,-8.056664,-3.6994874
29.919672,111.62076,37.03633,4.9623375,-1.8939056,2.109983,-0.12597531,-0.8253375,0.6340739,0.10572994,0.5585024,0.6161653,0.6385167,-0.57420623,1.618448,-0.96243846,-1.8450395,-0.95785654,2.0760581,1.2657795,-0.98590165,1.6852137,-1.0160593,-1.8512523,-1.0043646,2.0229218,1.2097784,-0.93163294,-1.5667001,1.022292,0.41899765,0.92134416,0.8482906,0.76871735,-0.32224134,2.4629555,-0.44704437,0.7093259,-2.7560952,0.005907329,4.279152,0.43987656,-0.53165054,0.7443738,0.6631975,0.11819188,0.104163505,0.731676,-1.3190045,-0.5092141,1.0172344,1.0,0.0,0.0,0.0,0.0,0.0,0.0,-3.1129556,0.047044367,-0.1593259,4.053545,17.442513,-6.8230686,-5.147493,0.06839037,-6.5627933,-2.821684
24.22799,98.0797,31.260567,6.6689253,-1.3936725,1.6133522,-0.19106796,-0.8219137,0.67252773,0.10190722,0.5529814,0.6258022,0.6347322,-0.5656888,1.6030223,-0.9488065,-1.8410616,-0.94906646,2.085502,1.2732517,-0.9882018,1.6699148,-1.0047926,-1.8478363,-0.99519414,2.0314934,1.2170435,-0.9349832,-1.5182809,1.1611345,0.31701076,0.9150615,0.86017853,0.7127183,-0.3403612,2.4354134,-0.44698334,0.75134885,-2.7533398,0.005901423,4.1766872,0.42690277,-0.53611755,0.7548384,0.6728585,0.10888313,0.10010733,0.7248341,-1.2956568,-0.41046742,1.0536919,1.0,0.0,0.0,0.0,0.0,0.0,0.0,-3.0854135,0.04698333,-0.20134884,4.6775103,13.760591,-9.865785,-0.7590413,1.2055635,-5.5305004,-2.1233559
20.941624,85.53822,27.13832,6.5239496,-0.98146385,1.3391819,-0.0961503,-0.813158,0.6942598,0.12010026,0.5276193,0.6391103,0.6416401,-0.57322156,1.5885991,-0.9353666,-1.8358263,-0.9424322,2.0954044,1.2812076,-0.99230534,1.6550509,-0.99249995,-1.8452327,-0.98603123,2.040229,1.223828,-0.93849176,-1.4761016,1.2515324,0.24273956,0.91611165,0.8784616,0.6670401,-0.35533932,2.4079018,-0.4469223,0.7923479,-2.750587,0.0058955224,4.074325,0.4141121,-0.53972626,0.765548,0.6823755,0.0995586,0.09671691,0.71770304,-1.2760177,-0.32964617,1.0742426,1.0,0.0,0.0,0.0,0.0,0.0,0.0,-3.0579019,0.046922296,-0.2423479,4.0708303,8.942485,-7.1036634,-0.06341934,1.8422246,-4.5286417,-1.7936885
15.226488,73.74257,22.821636,7.2842093,-0.5614847,1.1116691,-0.05766775,-0.809961,0.71272475,0.09644098,0.5237165,0.64245236,0.64966315,-0.5625935,1.5740547,-0.92122746,-1.8355886,-0.93365955,2.1044743,1.2887943,-0.9947511,1.6405035,-0.97960436,-1.8432338,-0.9768321,2.049144,1.2302214,-0.94211954,-1.4482168,1.3019117,0.18648113,0.92047656,0.8956632,0.63024396,-0.36626932,2.3804169,-0.44686127,0.83232415,-2.7478368,0.005889628,3.9720654,0.40146637,-0.542675,0.77634525,0.691729,0.09027084,0.09375642,0.71033216,-1.2634474,-0.26768476,1.0790473,1.0,0.0,0.0,0.0,0.0,0.0,0.0,-3.030417,0.04686126,-0.28232414,2.654624,4.96552,-5.3281574,0.24268627,1.7465472,-3.6522627,-1.3677835
11.921803,63.755177,19.181723,6.788929,-0.35406244,0.8655672,-0.0025220513,-0.8050668,0.72083545,0.070274375,0.5053194,0.64828366,0.65187997,-0.5623568,1.5599968,-0.90752083,-1.8362064,-0.92630017,2.1139724,1.2954094,-0.9983552,1.6261431,-0.966436,-1.841708,-0.96767586,2.0582154,1.236302,-0.9458398,-1.4324635,1.3216717,0.14218184,0.9133092,0.9107102,0.6006695,-0.3748419,2.3529587,-0.44680023,0.8712785,-2.7450895,0.00588374,3.8699086,0.38893127,-0.54510117,0.7870686,0.7008931,0.08109048,0.091079354,0.7027644,-1.25295,-0.2178554,1.0676455,1.0,0.0,0.0,0.0,0.0,0.0,0.0,-3.0029588,0.046800226,-0.3212785,1.4445782,1.9257784,-4.145628,-0.9402156,1.5404582,-2.9031754,-1.1200368
10.667997,59.93016,18.052223,6.4072404,-0.25410485,0.82902324,0.07820478,-0.8069661,0.72866154,0.07791501,0.48000732,0.6557817,0.65382576,-0.5566709,1.5454465,-0.8935699,-1.8339164,-0.9196751,2.1237936,1.3016846,-1.0015069,1.6118475,-0.9531914,-1.84043,-0.95871896,2.0674202,1.242129,-0.9496297,-1.4290667,1.3252956,0.12411842,0.88892734,0.9236707,0.576915,-0.3811991,2.325531,-0.4467392,0.9092121,-2.742345,0.005877857,3.7678537,0.37646866,-0.54703903,0.79763544,0.70981085,0.072040014,0.08857582,0.6950778,-1.2441376,-0.17072967,1.050738,1.0,0.0,0.0,0.0,0.0,0.0,0.0,-2.975531,0.04673919,-0.3592121,0.20024776,0.31998158,-1.4928907,-2.674234,1.3245225,-2.306497,-0.90005994
13.130329,59.858692,18.437449,4.8419795,-0.37800843,0.8172706,0.19105372,-0.8045325,0.7362706,0.09148673,0.4380312,0.66544396,0.6542672,-0.55716205,1.5313942,-0.87956434,-1.8312813,-0.91491586,2.1339645,1.3075557,-1.005346,1.5975462,-0.9399468,-1.8391426,-0.95019215,2.076751,1.2477537,-0.953474,-1.4308237,1.3241715,0.13151227,0.8397201,0.9360097,0.55793774,-0.38643116,2.2981262,-0.44667816,0.9461259,-2.7396033,0.0058719805,3.665901,0.36414337,-0.5484619,0.8080184,0.71839046,0.06311138,0.086174645,0.6873907,-1.2305183,-0.11775192,1.0318471,1.0,0.0,0.0,0.0,0.0,0.0,0.0,-2.9481263,0.046678156,-0.3961259,-0.32835007,-0.15041828,1.0943711,-5.166042,1.2514949,-1.7938614,-0.7982373
15.865522,60.440952,18.790901,3.427516,-0.544046,0.7566229,0.26744875,-0.8015241,0.7425454,0.094406165,0.39791918,0.6740873,0.65811664,-0.5537482,1.5173938,-0.86569226,-1.8297019,-0.9104002,2.1441598,1.3135654,-1.0088488,1.5832239,-0.9267031,-1.8377006,-0.94229287,2.0862038,1.2532202,-0.95736116,-1.4330224,1.3243604,0.14954443,0.7724027,0.9480752,0.54327047,-0.39038184,2.270752,-0.44661713,0.982021,-2.736864,0.00586611,3.5640502,0.35198593,-0.54932785,0.8182028,0.72655797,0.05430175,0.0838612,0.67980295,-1.2101768,-0.059842672,1.0113734,1.0,0.0,0.0,0.0,0.0,0.0,0.0,-2.920752,0.04661712,-0.43202096,-0.37779808,-0.012922287,2.1716714,-6.978917,1.2248039,-1.3259768,-0.67088604
17.695955,61.586292,18.97741,2.7133164,-0.71125585,0.67320967,0.28649467,-0.7997292,0.75397134,0.08738385,0.35972112,0.67392516,0.65901566,-0.543572,1.5032511,-0.85130596,-1.8289622,-0.90632075,2.1535964,1.3191217,-1.0117184,1.5688902,-0.91340315,-1.8361156,-0.9351327,2.0957482,1.2585627,-0.9612741,-1.4338862,1.331771,0.16268948,0.6963229,0.95667166,0.53181934,-0.39247507,2.2434044,-0.4465561,1.0168983,-2.7341278,0.005860245,3.462301,0.34008026,-0.5495682,0.8281804,0.73428744,0.045615245,0.08168486,0.6723605,-1.183441,0.0010652737,0.99043417,1.0,0.0,0.0,0.0,0.0,0.0,0.0,-2.8934045,0.046556085,-0.46689826,-0.24311543,0.71733,1.6665459,-7.8496814,0.89007616,-0.97522736,-0.47360063
24.914999,63.661224,20.194597,-0.88295364,-1.1493248,0.53482115,0.43457657,-0.78769034,0.7614226,0.11759329,0.27393466,0.67865795,0.65837914,-0.534568,1.4901211,-0.8372609,-1.8243563,-0.9077392,2.163614,1.3244005,-1.0147309,1.5546118,-0.89999354,-1.8342979,-0.928971,2.105365,1.2638117,-0.96519655,-1.4264932,1.3439966,0.18939807,0.5885698,0.9637809,0.5233196,-0.3931469,2.2160835,-0.44649506,1.0507588,-2.7313943,0.0058543854,3.3606536,0.32855988,-0.54912186,0.8379283,0.7414769,0.0370711,0.079685025,0.6651978,-1.1398795,0.07361154,0.9666556,1.0,0.0,0.0,0.0,0.0,0.0,0.0,-2.8660836,0.04649505,-0.5007588,0.5823612,1.2113333,3.031859,-11.019289,0.7450104,-0.60065985,-0.33540726
25.251877,61.161037,18.846767,-1.7159872,-1.2592702,0.29386955,0.4283624,-0.7888058,0.76830554,0.09670011,0.21768813,0.6835577,0.66324615,-0.5215323,1.4757313,-0.823163,-1.8246279,-0.9072022,2.1737208,1.3301363,-1.0173497,1.540404,-0.8864428,-1.8323505,-0.9239575,2.1150506,1.2689921,-0.9691133,-1.4192606,1.3587544,0.19742316,0.47158307,0.9705912,0.5174611,-0.39189765,2.1887894,-0.44643402,1.0836037,-2.7286634,0.0058485325,3.2591078,0.31752396,-0.54797745,0.8473884,0.74810976,0.028733391,0.07792317,0.6583571,-1.089474,0.14149101,0.9359166,1.0,0.0,0.0,0.0,0.0,0.0,0.0,-2.8387895,0.046434015,-0.5336037,0.57976246,1.4845848,1.1016667,-11.937893,0.74555874,-0.29512644,-0.11162758
31.521446,62.19737,19.92622,-5.4734592,-1.6270545,0.16465504,0.6213444,-0.7882692,0.7727722,0.16385071,0.08977988,0.6897865,0.651666,-0.5180433,1.461577,-0.80916554,-1.8159654,-0.9149795,2.184029,1.3341587,-1.0209177,1.5262572,-0.87275183,-1.8300712,-0.9204499,2.1248124,1.2741209,-0.97301286,-1.4135724,1.3726468,0.23924044,0.30972975,0.9779735,0.5126147,-0.3901167,2.161522,-0.446373,1.1154339,-2.7259352,0.0058426852,3.1576636,0.3071022,-0.5460663,0.85650885,0.75407296,0.020655911,0.07639134,0.6520059,-1.0235603,0.21899061,0.90069824,1.0,0.0,0.0,0.0,0.0,0.0,0.0,-2.811522,0.04637298,-0.5654339,0.43087006,1.4163256,4.4774323,-16.412163,0.81356764,-0.10842085,-0.04746318
36.36151,61.43973,19.993935,-8.986692,-1.9815576,-0.06559765,0.7656898,-0.7881319,0.7811703,0.19712031,-0.041548077,0.692223,0.6459238,-0.5079301,1.447444,-0.7946348,-1.8103592,-0.9246047,2.1940346,1.3387133,-1.0238059,1.5121523,-0.8589188,-1.827254,-0.9188735,2.1346428,1.2792078,-0.97688764,-1.4100552,1.3870836,0.29678312,0.10624285,0.9846937,0.50901526,-0.38712874,2.134285,-0.44631195,1.1462504,-2.7232099,0.0058368435,3.056321,0.2974472,-0.5433464,0.86521715,0.759246,0.012919832,0.07510144,0.6463267,-0.9419653,0.30096444,0.85720456,1.0,0.0,0.0,0.0,0.0,0.0,0.0,-2.784285,0.046311945,-0.59625036,0.23488998,1.4944315,5.9973955,-20.550373,0.7760167,0.1013875,0.10916591
41.102837,59.90404,19.843767,-12.374643,-2.30406,-0.33284712,0.89454156,-0.7816185,0.7854949,0.23791352,-0.1801888,0.6933465,0.64734644,-0.5004515,1.4339905,-0.7803693,-1.8034627,-0.9368924,2.2039776,1.3439425,-1.0269328,1.4980971,-0.84495604,-1.8237617,-0.91958493,2.1445267,1.2842699,-0.9807262,-1.4041697,1.3995826,0.36726844,-0.13075739,0.9901691,0.50707525,-0.38325575,2.107071,-0.44625092,1.1760542,-2.7204874,0.005831008,2.9550793,0.288723,-0.53977585,0.8734301,0.7635361,0.0056127333,0.07407424,0.64147806,-0.8448435,0.38482517,0.8052855,1.0,0.0,0.0,0.0,0.0,0.0,0.0,-2.757071,0.04625091,-0.6260542,0.5147457,1.3272762,7.198292,-23.859385,0.69590807,0.34576654,0.24562478
42.708282,58.40399,19.582834,-13.371576,-2.3710206,-0.5136717,0.94538075,-0.77371454,0.78718877,0.2863842,-0.2967462,0.6906813,0.64503044,-0.47655156,1.4207256,-0.76623714,-1.7951233,-0.9492595,2.213595,1.348773,-1.0283813,1.4841295,-0.830897,-1.8194854,-0.9227025,2.154445,1.2893168,-0.98450845,-1.3942584,1.4084125,0.44794685,-0.37246245,0.99326247,0.50578445,-0.37694004,2.0798874,-0.44618988,1.2048464,-2.7177672,0.005825178,2.853939,0.28100586,-0.53539276,0.8811077,0.7669077,-0.0012214256,0.073301606,0.63755625,-0.74125904,0.4650559,0.7507496,1.0,0.0,0.0,0.0,0.0,0.0,0.0,-2.7298875,0.046189874,-0.6548464,0.9724617,0.9850025,8.090532,-24.275774,0.518775,0.4385829,0.5417347
38.705673,58.916405,19.937593,-9.514889,-1.9145408,-0.40718246,0.8724956,-0.76658857,0.7866018,0.3539351,-0.35160142,0.70043576,0.642916,-0.44377545,1.4074707,-0.7522368,-1.784092,-0.9578626,2.2244885,1.3536084,-1.028886,1.4702841,-0.8167845,-1.8142688,-0.92789143,2.1644166,1.2943503,-0.98820585,-1.3811876,1.4125584,0.5457437,-0.567899,0.99966663,0.5041783,-0.36759287,2.0527306,-0.44612885,1.2326279,-2.71505,0.005819354,2.7529001,0.27422714,-0.5302582,0.88833576,0.76942366,-0.007674764,0.07267834,0.6345441,-0.6508386,0.5357836,0.70845574,1.0,0.0,0.0,0.0,0.0,0.0,0.0,-2.7027307,0.04612884,-0.68262786,1.33214,0.5388975,9.656185,-19.602257,0.9407878,0.36035776,0.88343024
36.354244,61.863674,21.28023,-5.9357643,-1.5856094,-0.23820738,0.8110955,-0.7490256,0.79236645,0.42687133,-0.41046768,0.69789004,0.6334927,-0.4044338,1.3953816,-0.7375479,-1.7715816,-0.96893823,2.2342055,1.3576995,-1.0286492,1.4566294,-0.80262816,-1.807946,-0.9346768,2.1744416,1.2993609,-0.99178594,-1.35983,1.41716,0.6603429,-0.7155128,1.0050479,0.50156236,-0.3549694,2.0256004,-0.4460678,1.2593998,-2.7123356,0.005813536,2.651962,0.2682686,-0.5244293,0.89525723,0.7711574,-0.013899089,0.07210022,0.6323958,-0.5712901,0.603552,0.68133444,1.0,0.0,0.0,0.0,0.0,0.0,0.0,-2.6756005,0.046067804,-0.70939976,2.1984816,0.6067991,11.202717,-14.780939,0.93495846,0.23009777,1.2353003
28.883278,62.207302,21.170622,0.18403196,-0.9773272,-0.026772872,0.63510275,-0.7417756,0.793306,0.47763318,-0.41729504,0.6962806,0.630025,-0.34528708,1.3824519,-0.72329754,-1.7601826,-0.97640634,2.2440696,1.3623633,-1.0263146,1.4431921,-0.7884346,-1.8004901,-0.94242734,2.1845086,1.304341,-0.99520487,-1.3381981,1.4206522,0.77290404,-0.7949069,1.008962,0.49813825,-0.3376358,1.998497,-0.44600677,1.285163,-2.7096238,0.0058077234,2.5511248,0.2629242,-0.5180092,0.9020281,0.77224445,-0.020062579,0.07148677,0.63097197,-0.5138172,0.66030514,0.6697905,1.0,0.0,0.0,0.0,0.0,0.0,0.0,-2.648497,0.04600677,-0.73516303,2.2272348,0.5129099,10.914766,-7.9609036,0.85630417,0.08379221,1.7150342
20.590204,60.355846,19.923145,5.8576717,-0.4221489,0.09854451,0.4229246,-0.73798895,0.7964603,0.506341,-0.41259325,0.69665545,0.6291311,-0.30924705,1.3693932,-0.7087886,-1.749856,-0.9836867,2.254174,1.367254,-1.0261296,1.429938,-0.77420294,-1.7920654,-0.95053166,2.194606,1.3092848,-0.9984359,-1.3211182,1.4246823,0.86449486,-0.8157483,1.0116767,0.49425212,-0.31841308,1.9714203,-0.44594574,1.3099188,-2.7069147,0.005801917,2.4503884,0.2580185,-0.5111122,0.9087598,0.772867,-0.026285304,0.07080901,0.6300568,-0.47732234,0.7039312,0.6681018,1.0,0.0,0.0,0.0,0.0,0.0,0.0,-2.6214204,0.045945734,-0.75991875,1.7475843,0.57668686,8.799421,-2.132225,0.7517576,-0.03182888,1.9046962
13.575415,55.485905,17.514204,9.454811,-0.032506943,0.055698752,0.25201344,-0.7368625,0.7949131,0.5197152,-0.4107583,0.6946135,0.6250849,-0.25398293,1.3562517,-0.6947116,-1.7400938,-0.9916075,2.2640674,1.3717933,-1.0238342,1.416802,-0.75994647,-1.7829578,-0.9585845,2.204715,1.3141867,-1.0014515,-1.3112868,1.4264323,0.9251639,-0.80205584,1.0120624,0.48980495,-0.29603362,1.9443741,-0.4458847,1.3336679,-2.7042084,0.0057961163,2.349753,0.2533493,-0.5038872,0.9154785,0.7731864,-0.032592572,0.07009434,0.62945,-0.45487005,0.7333033,0.66664565,1.0,0.0,0.0,0.0,0.0,0.0,0.0,-2.5943742,0.0458847,-0.78366786,0.9884834,0.34735203,5.745375,1.2817383,0.48558712,-0.1460433,2.2144198
7.75743,52.81617,16.109673,13.191484,0.3367306,0.102862775,0.10442855,-0.73326457,0.7975287,0.5382383,-0.3699387,0.6925029,0.6285532,-0.18579239,1.3434756,-0.6801936,-1.729134,-0.99557835,2.2739654,1.377042,-1.0200307,1.403731,-0.74567187,-1.7734096,-0.9662177,2.2148163,1.3190466,-1.0042133,-1.3059577,1.4285066,0.96376735,-0.7508088,1.0106256,0.4856789,-0.26958472,1.9173508,-0.44582367,1.3564113,-2.7015047,0.005790321,2.2492177,0.248806,-0.4964409,0.9222194,0.77333695,-0.03902289,0.069361724,0.62898016,-0.4464456,0.752693,0.6699317,1.0,0.0,0.0,0.0,0.0,0.0,0.0,-2.5673509,0.045823663,-0.8064113,0.5040407,0.38216114,3.566277,5.0031066,0.29108524,-0.16697645,2.6127815
-0.7909756,47.617226,13.49636,17.505424,0.8160343,0.15865217,-0.08792308,-0.7582889,0.79536813,0.5394886,-0.3216001,0.6875553,0.63758487,-0.15780023,1.3279021,-0.6661351,-1.7194607,-0.9983777,2.283572,1.3828051,-1.0199933,1.3905607,-0.7313925,-1.763644,-0.973128,2.2248795,1.3238722,-1.006712,-1.3210849,1.4283066,0.97995675,-0.6716819,1.0065963,0.482306,-0.24344939,1.890358,-0.44576263,1.3781502,-2.6988037,0.005784532,2.1487832,0.24420547,-0.48890305,0.92900366,0.77347696,-0.0456043,0.068636455,0.62844455,-0.45676208,0.75820065,0.67441887,1.0,0.0,0.0,0.0,0.0,0.0,0.0,-2.540358,0.04576263,-0.8281502,-1.60923,0.1490593,1.3953447,7.738352,0.002360344,-0.16491413,2.573371
-0.64056873,42.653152,11.516096,15.667729,0.68039405,-0.09399399,-0.085712105,-0.7621193,0.79153484,0.53256387,-0.33451572,0.6854581,0.6367666,-0.13852876,1.3143488,-0.652239,-1.7103876,-1.0065796,2.2934253,1.3875489,-1.0205648,1.3772036,-0.71713793,-1.7538631,-0.9794175,2.234897,1.3286692,-1.0089626,-1.3409643,1.4249079,0.9770162,-0.61540174,1.0013305,0.47942498,-0.21891735,1.8633881,-0.4457016,1.3988855,-2.6961055,0.005778749,2.0484493,0.23954773,-0.48134995,0.9357444,0.77365416,-0.05224252,0.06797619,0.6277811,-0.46055433,0.75890654,0.66706073,1.0,0.0,0.0,0.0,0.0,0.0,0.0,-2.5133882,0.045701593,-0.8488855,-2.0932436,-0.18765926,-0.45591593,5.445242,-0.18286705,-0.116574764,2.4144144
-1.440733,39.728474,10.41322,15.5429945,0.6943735,-0.19544488,-0.10779038,-0.77354324,0.7880679,0.53111255,-0.30061558,0.67971843,0.6387587,-0.11260162,1.2998493,-0.6383312,-1.7007518,-1.009479,2.3028688,1.3925451,-1.0202228,1.3636194,-0.7029358,-1.7441738,-0.98517674,2.2448533,1.3334433,-1.0109749,-1.3646334,1.4190953,0.9658907,-0.56333816,0.9945946,0.47710836,-0.19549316,1.8364487,-0.44564056,1.4186182,-2.69341,0.0057729715,1.9482152,0.23485184,-0.47381973,0.9423828,0.7738851,-0.058876455,0.06741657,0.6269693,-0.46407366,0.7559022,0.6559353,1.0,0.0,0.0,0.0,0.0,0.0,0.0,-2.4864488,0.045640558,-0.8686182,-2.484274,-0.43697357,-1.2416005,5.0135016,-0.35481453,-0.071537495,2.3014545
1.9450645,37.77718,9.98796,12.505815,0.4253453,-0.41889662,-0.017500803,-0.7787177,0.78281677,0.53056926,-0.31396088,0.6820785,0.63869596,-0.08739257,1.2857476,-0.6246541,-1.6911168,-1.0165728,2.313061,1.3973129,-1.0197141,1.3498255,-0.68881094,-1.7346008,-0.9906394,2.2547562,1.3381964,-1.0127583,-1.3847991,1.4107475,0.9541485,-0.54119074,0.9897047,0.47544494,-0.17298913,1.8095322,-0.44557953,1.4373493,-2.690717,0.0057671997,1.8480814,0.23021698,-0.46630478,0.94884235,0.77412236,-0.065420054,0.06698378,0.6260734,-0.45553902,0.7543822,0.6358175,1.0,0.0,0.0,0.0,0.0,0.0,0.0,-2.4595323,0.045579523,-0.8873493,-2.1143436,-0.70250034,-1.278007,2.037537,-0.20884275,0.019675493,2.2115679
5.4213924,37.55463,10.171058,9.871496,0.15069366,-0.5947638,0.06879715,-0.78427106,0.78236973,0.52686185,-0.32580945,0.6838443,0.63723445,-0.05946595,1.2713984,-0.61057395,-1.6819146,-1.0232203,2.3231406,1.4019198,-1.0187049,1.3358637,-0.67475855,-1.7251384,-0.9960744,2.2646286,1.3429362,-1.0143223,-1.4002814,1.4038855,0.94342446,-0.5447881,0.9869836,0.47420865,-0.15097895,1.7826462,-0.4455185,1.4550798,-2.688027,0.0057614334,1.7480476,0.22574615,-0.4587822,0.95505583,0.7742987,-0.071792535,0.066705465,0.62518615,-0.43551436,0.7561834,0.6098274,1.0,0.0,0.0,0.0,0.0,0.0,0.0,-2.4326463,0.045518488,-0.9050798,-1.625061,-0.56085587,-1.1635065,-0.51494837,-0.01732111,0.08734465,2.1676154
6.76859,37.615864,10.430681,9.170842,0.07333696,-0.65785456,0.10995236,-0.7918212,0.7797353,0.5262845,-0.31995222,0.6855588,0.63977593,-0.011035961,1.2566816,-0.596785,-1.67251,-1.0280696,2.3331845,1.4069138,-1.0154259,1.3217665,-0.66076624,-1.7157543,-1.0015951,2.2744896,1.3476664,-1.0156536,-1.4130515,1.3980725,0.936424,-0.5549928,0.9864008,0.47356656,-0.12732226,1.7557869,-0.44545746,1.4718107,-2.6853395,0.005755673,1.648114,0.2215004,-0.45121765,0.96100646,0.77437216,-0.07796821,0.06658605,0.6243677,-0.4117535,0.7594279,0.5834247,1.0,0.0,0.0,0.0,0.0,0.0,0.0,-2.405787,0.045457453,-0.9218107,-1.3451099,-0.45661926,-0.7902026,-1.1644125,0.19170046,0.15083551,2.3344426
7.4997125,39.062138,11.392938,9.781194,0.09858084,-0.60274386,0.1522296,-0.79441154,0.7771441,0.54008937,-0.30385756,0.683143,0.64316535,0.08951099,1.2423253,-0.58305186,-1.6617453,-1.0319809,2.342804,1.4119829,-1.0067025,1.3075758,-0.6468245,-1.7063472,-1.0071493,2.284343,1.3523947,-1.0166969,-1.4214952,1.3932271,0.9417385,-0.5559991,0.98592776,0.47341487,-0.096719325,1.7289543,-0.44539642,1.4875431,-2.6826546,0.005749919,1.5482801,0.21748734,-0.4435959,0.96673393,0.774303,-0.083994605,0.06659789,0.6236701,-0.38898632,0.7658973,0.56246203,1.0,0.0,0.0,0.0,0.0,0.0,0.0,-2.3789544,0.045396417,-0.9375431,-0.90551376,-0.35464764,0.42241812,-0.23393631,0.22437572,0.19574165,3.0271902
7.0604124,38.32556,11.377774,10.67689,0.19054288,-0.59333926,0.15305448,-0.79488635,0.77006036,0.5396062,-0.28681454,0.67605364,0.6495044,0.17326774,1.2280872,-0.56981844,-1.6523867,-1.0358307,2.3519483,1.4173452,-0.99937016,1.2933317,-0.6329495,-1.6968696,-1.0126101,2.2941773,1.3571268,-1.017395,-1.4254662,1.3860878,0.94938,-0.5433866,0.9830534,0.47393394,-0.061078567,1.7021484,-0.4453354,1.5022777,-2.6799726,0.0057441704,1.4485462,0.21368027,-0.43592453,0.9722763,0.774079,-0.08992248,0.06671219,0.6231092,-0.36892185,0.77129745,0.5447684,1.0,0.0,0.0,0.0,0.0,0.0,0.0,-2.3521485,0.045335382,-0.9522777,-0.45535564,-0.58090687,0.6442189,1.1243701,-0.0046014786,0.2527833,3.5253458
7.792603,38.453724,11.67063,10.633982,0.15278953,-0.6182607,0.18017928,-0.7928703,0.7681656,0.5448709,-0.28464076,0.66895705,0.6527643,0.2522972,1.2140447,-0.5561329,-1.6423825,-1.0410742,2.361073,1.4224032,-0.9921653,1.2790838,-0.6191412,-1.6872966,-1.0179278,2.3039582,1.3618685,-1.0177097,-1.4248147,1.37954,0.95945233,-0.52815866,0.97756064,0.47480947,-0.02159223,1.6753693,-0.44527435,1.5160158,-2.677293,0.0057384274,1.3489119,0.21008682,-0.4281807,0.9776515,0.7736795,-0.095778584,0.06693201,0.6227091,-0.34732118,0.7782435,0.52848214,1.0,0.0,0.0,0.0,0.0,0.0,0.0,-2.3253694,0.045274347,-0.96601576,0.015950203,-0.5210161,0.8813143,1.3946056,-0.26612282,0.2885878,3.9097488
9.591872,36.718376,10.995269,7.9895535,-0.07570863,-0.82861435,0.24047858,-0.8018933,0.76526874,0.54507446,-0.3341315,0.67573726,0.6524158,0.26635018,1.1988945,-0.54261434,-1.6327891,-1.0513409,2.371532,1.4271101,-0.99107474,1.2648131,-0.60539496,-1.6776397,-1.0233485,2.3137085,1.3666178,-1.0176544,-1.427824,1.3734145,0.9674898,-0.5469615,0.9749192,0.47576904,0.01453241,1.6486168,-0.44521332,1.5287584,-2.6746163,0.00573269,1.2493773,0.2067833,-0.420372,0.9827922,0.7730715,-0.101471655,0.06728942,0.62252396,-0.31553224,0.7846576,0.50264764,1.0,0.0,0.0,0.0,0.0,0.0,0.0,-2.298617,0.045213312,-0.9787584,-0.33922195,-0.48911572,0.70854425,-1.9912124,-0.02077818,0.31406283,3.58293
9.246638,37.051876,11.386808,9.149803,0.00012475252,-0.7860176,0.23114567,-0.79471725,0.7621343,0.5575106,-0.30108342,0.6645034,0.65043557,0.3421827,1.1853414,-0.52918154,-1.6218886,-1.0534568,2.380159,1.4316614,-0.98343617,1.250548,-0.5917069,-1.6678703,-1.0288397,2.3234131,1.3713747,-1.0172215,-1.4261917,1.3677332,0.9797656,-0.550102,0.96946687,0.476301,0.052825473,1.621891,-0.44515228,1.5405064,-2.6719422,0.005726958,1.1499422,0.2037735,-0.41248703,0.98771375,0.77224666,-0.10701879,0.06778248,0.62256527,-0.2867419,0.79182136,0.4819888,1.0,0.0,0.0,0.0,0.0,0.0,0.0,-2.271891,0.045152277,-0.99050635,0.12712479,-0.4379511,1.1127114,-0.4237175,-0.28336048,0.261122,3.7985377
8.663633,35.9953,11.085402,9.948571,0.079423666,-0.8084134,0.1975156,-0.7870599,0.7582946,0.5528569,-0.28686884,0.66195357,0.65285033,0.37445396,1.171842,-0.5158774,-1.6125846,-1.0575266,2.3896084,1.4366598,-0.979776,1.2363402,-0.57807696,-1.6580226,-1.034268,2.3330567,1.3761374,-1.0164204,-1.4189404,1.361846,0.9861182,-0.540792,0.9638461,0.47686738,0.08911391,1.595192,-0.44509506,1.5512607,-2.6692708,0.0057212324,1.0506065,0.20103836,-0.40454102,0.9924459,0.77122843,-0.11245625,0.06840215,0.6228013,-0.2600752,0.7969674,0.46364883,1.0,0.0,0.0,0.0,0.0,0.0,0.0,-2.245192,0.045095056,-1.0012608,0.69212914,-0.4560709,0.5126715,0.81743,-0.3006935,0.2541542,3.5963104
8.566179,34.19244,10.442609,9.40516,0.07185513,-0.90131676,0.2016815,-0.7899722,0.75305825,0.5570566,-0.30621257,0.66616935,0.64871514,0.39517877,1.1573429,-0.50277114,-1.602317,-1.0648893,2.3996737,1.4410089,-0.9769025,1.2221915,-0.5645157,-1.6481197,-1.0396754,2.3426697,1.3809019,-1.0152817,-1.4137052,1.3546766,0.991314,-0.54107755,0.9610256,0.4768859,0.12218179,1.5685196,-0.44504166,1.5610224,-2.6666021,0.0057155127,0.95137006,0.19858551,-0.39656448,0.99697185,0.77002466,-0.11775456,0.06913761,0.6232302,-0.23163018,0.79966503,0.44222707,1.0,0.0,0.0,0.0,0.0,0.0,0.0,-2.2185197,0.04504165,-1.0110223,0.49090385,-0.5887985,0.41267872,-0.13968945,-0.037777424,0.19636154,3.2765985
8.320568,32.85032,10.078447,9.64463,0.12222636,-0.9444803,0.19232598,-0.7804346,0.7469813,0.5584933,-0.29615188,0.663382,0.65007836,0.42735416,1.144148,-0.48981756,-1.5922704,-1.0692905,2.409008,1.4459097,-0.9725463,1.2081248,-0.5510384,-1.6381805,-1.0450541,2.3522599,1.3856665,-1.0138264,-1.404443,1.3457463,0.9946262,-0.5372846,0.9587575,0.47690797,0.15326986,1.5418739,-0.44498825,1.5697925,-2.663936,0.0057097985,0.8522329,0.19640732,-0.38856888,1.0012869,0.7686444,-0.12290532,0.06997746,0.62384546,-0.20378642,0.80035037,0.42126724,1.0,0.0,0.0,0.0,0.0,0.0,0.0,-2.191874,0.044988245,-1.0197926,0.9003639,-0.76475143,0.21984577,0.26743412,0.013124943,0.19103885,3.0772
6.1616225,32.470432,10.223338,12.66239,0.38630307,-0.797812,0.12002419,-0.7718997,0.7428241,0.5639038,-0.24068147,0.65638703,0.6489098,0.4712137,1.1309348,-0.47675598,-1.5817901,-1.0691222,2.4178987,1.4505575,-0.966705,1.1941744,-0.5376526,-1.6281974,-1.0501429,2.3618119,1.3904291,-1.012064,-1.3921404,1.336714,0.9992508,-0.49973294,0.9548739,0.47651586,0.1839315,1.515255,-0.44493484,1.577572,-2.6612725,0.00570409,0.7531948,0.19442749,-0.3805771,1.0054654,0.7671243,-0.12800397,0.07088015,0.6245889,-0.18671699,0.80057716,0.41014275,1.0,0.0,0.0,0.0,0.0,0.0,0.0,-2.165255,0.04493484,-1.0275719,1.1818409,-0.7655859,0.33774376,3.625673,-0.11572838,0.12215376,3.0287414
2.3812642,28.75418,8.738596,15.571877,0.72393095,-0.7238798,-0.003783606,-0.7754915,0.7333043,0.5473632,-0.19616039,0.6501782,0.6512376,0.48200715,1.1166253,-0.46432218,-1.573461,-1.0697589,2.4268298,1.4555529,-0.96386325,1.1803061,-0.5243794,-1.6182525,-1.0546557,2.3713105,1.395188,-1.0100193,-1.3853986,1.3246928,0.9924869,-0.43571046,0.94925743,0.4760237,0.21116878,1.4886627,-0.44488144,1.5843618,-2.6586118,0.005698387,0.6542558,0.19252777,-0.37262344,1.0095704,0.76555246,-0.13313092,0.07181434,0.6253385,-0.18201901,0.79410326,0.40404302,1.0,0.0,0.0,0.0,0.0,0.0,0.0,-2.1386628,0.044881433,-1.0343618,0.581193,-1.0621071,-0.77934265,6.237507,-0.27817488,0.078856945,2.680993
3.9101214,26.494425,7.5769825,12.230861,0.4579203,-0.98894536,0.047023237,-0.7793803,0.7292146,0.53744334,-0.25091836,0.6529169,0.6506185,0.46998104,1.102368,-0.45145792,-1.5645082,-1.0797476,2.436602,1.4602498,-0.9630212,1.1664568,-0.5112215,-1.6084316,-1.0588595,2.380767,1.3999411,-1.0077419,-1.3849887,1.3131461,0.9784079,-0.4158352,0.94520575,0.47566837,0.23300417,1.4620972,-0.44482803,1.590163,-2.6559536,0.0056926897,0.5554157,0.19077301,-0.36475754,1.0135183,0.763942,-0.1381681,0.072826505,0.62609786,-0.1649723,0.7848274,0.38517132,1.0,0.0,0.0,0.0,0.0,0.0,0.0,-2.1120973,0.044828027,-1.040163,-0.034809113,-1.0320187,-1.4689445,1.8453896,-0.18172264,0.10997653,2.1509914
4.8075256,25.77999,7.2163677,10.6491585,0.30829763,-1.1211147,0.07719553,-0.7807583,0.7261334,0.5340711,-0.25486767,0.64993125,0.6446197,0.48218352,1.0883809,-0.43860817,-1.5550245,-1.0843463,2.4457603,1.464403,-0.95952356,1.1525847,-0.49816558,-1.5987575,-1.0630347,2.3901856,1.4046885,-1.0052681,-1.3882442,1.3035349,0.96377265,-0.41843465,0.94120795,0.47482336,0.25215846,1.4355583,-0.44477463,1.5949765,-2.6532984,0.005686998,0.45667443,0.18922806,-0.3569908,1.0172354,0.76228034,-0.14300887,0.07396217,0.62690234,-0.14133553,0.7751214,0.36097378,1.0,0.0,0.0,0.0,0.0,0.0,0.0,-2.0855584,0.04477462,-1.0449765,-0.39479733,-0.84614754,-1.5031099,-0.38662553,-0.20134449,0.06632209,1.8888533
6.3735332,25.701416,7.3016295,9.019531,0.16290766,-1.2411197,0.13119742,-0.7737984,0.71980786,0.5329064,-0.26630935,0.6508947,0.64393044,0.49223903,1.0752048,-0.42618477,-1.5454669,-1.0896655,2.455275,1.4690815,-0.9560442,1.1387087,-0.48520467,-1.5892017,-1.0673681,2.3995736,1.4094282,-1.0026188,-1.3875234,1.2939597,0.9527064,-0.43878666,0.9385584,0.47408295,0.2690829,1.4090462,-0.44472122,1.5988034,-2.6506455,0.0056813117,0.3580319,0.18798065,-0.349308,1.0206807,0.7605364,-0.14759202,0.075236954,0.6278059,-0.11065812,0.76603025,0.3328079,1.0,0.0,0.0,0.0,0.0,0.0,0.0,-2.0590463,0.044721216,-1.0488033,0.03194809,-0.8473158,-1.1505842,-2.1407008,-0.08803606,0.08544922,1.6694427
6.991623,24.77312,6.929069,7.9552755,0.09025359,-1.3519541,0.15094644,-0.7712686,0.71430063,0.5212042,-0.2847315,0.6510645,0.64528066,0.49508402,1.0615819,-0.4137746,-1.5370812,-1.0958413,2.46468,1.4739563,-0.9531104,1.1248575,-0.47233865,-1.5797718,-1.0719992,2.4089425,1.4141604,-0.9998186,-1.3842145,1.2844748,0.9394429,-0.47153053,0.93686116,0.47357595,0.28355312,1.3825569,-0.44466782,1.6016446,-2.6479955,0.0056756316,0.259488,0.18707657,-0.34172058,1.0238186,0.7586959,-0.15186134,0.076657556,0.62884206,-0.07557941,0.75537795,0.30126214,1.0,0.0,0.0,0.0,0.0,0.0,0.0,-2.032557,0.04466781,-1.0516446,0.3111601,-0.84159374,-1.3727307,-3.3676684,-0.011348724,0.10974407,1.4271677
7.8596964,24.920702,6.998278,6.858519,-0.030897379,-1.4354279,0.18270542,-0.77211267,0.712781,0.51961416,-0.3175969,0.64766335,0.6465498,0.5030987,1.0476463,-0.40106055,-1.5278103,-1.1037589,2.4737089,1.4788153,-0.9495087,1.1110369,-0.45954987,-1.5704525,-1.0770689,2.4182885,1.4188906,-0.9968861,-1.3811382,1.2773407,0.92932564,-0.5190927,0.9345201,0.47330683,0.29640427,1.3560982,-0.4446144,1.6035012,-2.6453478,0.0056699575,0.1610426,0.18655396,-0.33423615,1.0266181,0.75674486,-0.15576991,0.07824356,0.6300403,-0.035405837,0.7455822,0.2668332,1.0,0.0,0.0,0.0,0.0,0.0,0.0,-2.0060983,0.044614404,-1.0535011,0.30374527,-0.6090164,-1.0579944,-4.831481,-0.08970499,0.13293028,1.2711108
7.3193874,22.154617,5.7502785,6.0523386,-0.014494717,-1.56333,0.17100807,-0.7720697,0.7034767,0.5008928,-0.3531122,0.64686364,0.6460176,0.49710986,1.0338299,-0.3892022,-1.5203632,-1.1123801,2.4829748,1.4834924,-0.9471751,1.097243,-0.4468517,-1.5612876,-1.0827032,2.4276154,1.423617,-0.99384576,-1.378743,1.2676628,0.9119449,-0.57841307,0.9321434,0.47302127,0.30653974,1.3296623,-0.444561,1.604374,-2.642703,0.005664289,0.06269564,0.18645477,-0.32689285,1.0290384,0.7546965,-0.15925217,0.080003604,0.63140416,0.006793288,0.73011225,0.22775282,1.0,0.0,0.0,0.0,0.0,0.0,0.0,-1.9796623,0.044561,-1.054374,0.25126934,-0.86824894,-1.781106,-6.0051203,-0.11839867,0.12307167,1.0017157
6.205283,20.13173,4.7497735,6.308133,0.041662216,-1.6187268,0.12467909,-0.77377146,0.7013555,0.47888163,-0.3786102,0.6393097,0.64965117,0.49468735,1.0198658,-0.37671614,-1.5133995,-1.1205642,2.4915464,1.4885821,-0.944377,1.0834566,-0.43423983,-1.5523727,-1.0889345,2.4368966,1.4283434,-0.99072057,-1.3785313,1.2593514,0.8847822,-0.63835806,0.92727137,0.47295913,0.31456515,1.303257,-0.4445076,1.6042641,-2.640061,0.005658626,-0.035552997,0.1867714,-0.31972504,1.0310596,0.7525989,-0.16227189,0.08196336,0.63288605,0.047851715,0.7107026,0.18770002,1.0,0.0,0.0,0.0,0.0,0.0,0.0,-1.953257,0.044507593,-1.0542641,0.027394295,-0.73263645,-2.7489662,-6.0721397,-0.37959814,0.12730956,0.7917762
4.1159043,16.614513,3.3161716,7.6176457,0.2622219,-1.621017,0.053945355,-0.77148426,0.69057125,0.45356986,-0.39070827,0.6334943,0.6562082,0.4932472,1.0063082,-0.3651827,-1.5070157,-1.1280054,2.500246,1.4939642,-0.9413959,1.069676,-0.42173764,-1.5438049,-1.0956751,2.4461167,1.4330736,-0.98752767,-1.3779404,1.2474682,0.8472665,-0.6863124,0.92058504,0.47338048,0.3208591,1.2768745,-0.4444542,1.6031724,-2.6374214,0.005652969,-0.1337034,0.18745041,-0.31279755,1.0326928,0.7505102,-0.16483735,0.084109515,0.63441986,0.08244348,0.6849592,0.1493472,1.0,0.0,0.0,0.0,0.0,0.0,0.0,-1.9268745,0.044454187,-1.0531723,0.05326271,-1.0899067,-3.7783146,-4.8941493,-0.5636096,0.15157461,0.6127298
3.9708052,13.368764,1.5977315,5.558739,0.18903732,-1.8427874,0.053117726,-0.76899904,0.68177354,0.4153299,-0.46459162,0.62312526,0.6530507,0.4761722,0.99277616,-0.35356027,-1.5022719,-1.1421343,2.5084293,1.4983788,-0.9399105,1.0559126,-0.40937373,-1.5357273,-1.1030852,2.4552453,1.4378058,-0.9842928,-1.3755302,1.2329917,0.79452693,-0.75938183,0.91051614,0.4734106,0.32423735,1.2505226,-0.4444008,1.6010998,-2.6347845,0.005647317,-0.23175566,0.18852997,-0.30618286,1.0338728,0.7484722,-0.16684869,0.086472265,0.63598216,0.123481736,0.6514131,0.10189454,1.0,0.0,0.0,0.0,0.0,0.0,0.0,-1.9005226,0.04440078,-1.0510998,0.2880335,-1.360631,-5.30771,-7.389176,-0.95398426,0.10341406,0.3202319
4.554055,12.309204,1.4941757,4.54272,0.15989813,-1.8963493,0.115510136,-0.76154906,0.664586,0.4174496,-0.5159177,0.60738367,0.65148574,0.48824817,0.9797577,-0.34291512,-1.4939823,-1.1546769,2.5159836,1.5029544,-0.93546796,1.0422121,-0.39720675,-1.5280769,-1.1113306,2.4642365,1.4425341,-0.98102266,-1.3681111,1.2115849,0.75483865,-0.846501,0.8957696,0.47316703,0.32785183,1.2241936,-0.44434738,1.5980476,-2.6321502,0.005641671,-0.3297099,0.19003677,-0.29990387,1.0345544,0.7464536,-0.16824469,0.089042164,0.63763016,0.16734262,0.616944,0.051265895,1.0,0.0,0.0,0.0,0.0,0.0,0.0,-1.8741935,0.044347376,-1.0480475,0.84364414,-2.0560741,-4.0449977,-8.773994,-1.4312506,0.06771088,0.34261942
3.0302525,8.2494135,0.24725997,5.2640276,0.36329973,-1.8779377,0.11373001,-0.75256526,0.63513786,0.39983368,-0.5456515,0.5723253,0.6503416,0.50965303,0.9669556,-0.33369297,-1.4880935,-1.1658958,2.521469,1.5075682,-0.93005735,1.0286242,-0.38535544,-1.5207794,-1.1204115,2.4729989,1.4472605,-0.9777058,-1.3553724,1.1765686,0.72095513,-0.928878,0.86956936,0.47257942,0.33286467,1.1978912,-0.44429398,1.5940166,-2.6295185,0.0056360303,-0.4275662,0.19195175,-0.29400253,1.0347294,0.7444409,-0.16903047,0.091778904,0.63938487,0.2055937,0.5771251,0.0007168062,1.0,0.0,0.0,0.0,0.0,0.0,0.0,-1.8478912,0.04429397,-1.0440166,1.405549,-3.4213066,-3.49859,-8.310711,-2.5764465,0.01090765,0.4687965
1.8336655,4.295018,-0.8035164,5.729615,0.54091537,-1.8454666,0.13599525,-0.7382656,0.59743685,0.39504296,-0.59072703,0.5266907,0.6520452,0.5239236,0.9547976,-0.32561177,-1.4812751,-1.1794842,2.525668,1.512465,-0.9253134,1.0152155,-0.37397954,-1.5137336,-1.1303087,2.4813912,1.4519793,-0.9743317,-1.3354623,1.1248214,0.69852936,-1.0102402,0.8290038,0.47203735,0.3386514,1.1716156,-0.44424057,1.5890076,-2.6268895,0.0056303954,-0.5253247,0.19421005,-0.28853607,1.0343934,0.74241424,-0.1692207,0.094639614,0.64127123,0.23890829,0.5331333,-0.050318822,1.0,0.0,0.0,0.0,0.0,0.0,0.0,-1.8216156,0.044240564,-1.0390077,2.1657705,-5.1003933,-2.4026155,-8.214855,-4.008949,-0.0044703484,0.53192973
0.38331735,1.78346,-1.6109183,6.5951457,0.74189115,-1.7984279,0.12346924,-0.73703855,0.5712853,0.38265073,-0.63822705,0.5223962,0.6413949,0.5213601,0.94151163,-0.31685102,-1.4754685,-1.1941315,2.5336308,1.5161188,-0.9221957,1.0019823,-0.36316106,-1.5068767,-1.1410223,2.4894135,1.4566866,-0.970908,-1.3187937,1.067708,0.68075734,-1.0921123,0.7930997,0.4701663,0.34347755,1.1453667,-0.44418716,1.5830219,-2.6242633,0.005624766,-0.6229855,0.19676971,-0.2835312,1.0335535,0.740374,-0.16882099,0.09756183,0.6432942,0.26620403,0.48575,-0.10038435,1.0,0.0,0.0,0.0,0.0,0.0,0.0,-1.7953666,0.04418716,-1.0330219,1.8341303,-5.6440115,-1.9318223,-8.272386,-3.5459995,-0.16849041,0.43269992
-0.2839874,-1.5721756,-1.9880807,7.1766133,0.88803566,-1.6943758,0.1863546,-0.71280646,0.50832766,0.41225705,-0.6826547,0.440829,0.6332965,0.53207403,0.9307017,-0.31232828,-1.465651,-1.2092878,2.5334964,1.5200163,-0.9177006,0.98898375,-0.35308453,-1.4999969,-1.1525484,2.4969094,1.4613672,-0.9674347,-1.2927626,0.9878305,0.6895348,-1.1732055,0.73517734,0.46745062,0.34843588,1.1191444,-0.44413376,1.5760603,-2.6216395,0.005619142,-0.7205486,0.19955826,-0.27900696,1.0322155,0.73826873,-0.16786489,0.10048793,0.6455097,0.2883783,0.4380012,-0.14986433,1.0,0.0,0.0,0.0,0.0,0.0,0.0,-1.7691444,0.044133753,-1.0260603,2.818966,-7.9259872,0.64718723,-8.1974745,-5.7230115,-0.2692461,0.43365955
-5.302108,-11.519038,-5.8828974,9.850599,1.554957,-1.6235977,0.077381894,-0.7009106,0.4395891,0.37587076,-0.69821423,0.42325523,0.6207326,0.52652943,0.9188927,-0.30912563,-1.4624099,-1.2223699,2.5392349,1.5234405,-0.91478175,0.97625506,-0.3439841,-1.4931495,-1.1647478,2.5038483,1.4660097,-0.9639223,-1.2655879,0.8842468,0.6823827,-1.235943,0.68034595,0.46314737,0.35184988,1.0929451,-0.44408035,1.5681237,-2.6190186,0.005613524,-0.8180142,0.20243835,-0.27508545,1.030401,0.73615,-0.16637877,0.10329561,0.6478666,0.2914386,0.37323835,-0.19657986,1.0,0.0,0.0,0.0,0.0,0.0,0.0,-1.7429451,0.044080347,-1.0181236,2.917838,-10.322261,-0.9243965,-6.4114094,-5.4377675,-0.47916174,0.25181174
-17.302952,-38.29903,-17.732964,12.986704,2.9509532,-1.7916563,-0.21313582,-0.6662134,0.3016258,0.24919151,-0.70347637,0.35196844,0.60786355,0.5359212,0.9096337,-0.31382152,-1.4682304,-1.2350955,2.539045,1.5267961,-0.9103302,0.9639021,-0.3363752,-1.4869735,-1.1773897,2.5101273,1.4705988,-0.96037847,-1.224252,0.7196338,0.5954835,-1.2743982,0.61040264,0.45687816,0.35461128,1.0667763,-0.44402695,1.5592133,-2.6164,0.0056079114,-0.9153824,0.20508575,-0.27220154,1.0280724,0.73426276,-0.16428897,0.10581311,0.6501314,0.25955182,0.2557826,-0.24899055,1.0,0.0,0.0,0.0,0.0,0.0,0.0,-1.7167763,0.04402694,-1.0092132,4.402089,-16.50256,-8.875227,-4.070282,-7.0821166,-0.78303814,0.09736419
-51.66337,-128.06778,-55.53704,16.117172,7.3510776,-2.5287182,-0.7301829,-0.55094635,-0.17278494,-0.003852611,-0.7256999,0.18285173,0.5750876,0.5292791,0.90880746,-0.3536537,-1.4873588,-1.2499597,2.5284126,1.5281075,-0.90745056,0.9524571,-0.33239266,-1.4828537,-1.1903502,2.5153,1.4750868,-0.9568289,-1.1154312,0.2901115,0.34953344,-1.3042567,0.48457697,0.44450828,0.35363564,1.0406303,-0.44397354,1.5493299,-2.613784,0.0056023044,-1.0126531,0.2066803,-0.27182388,1.0249236,0.73310894,-0.16119647,0.10731113,0.6519596,0.12744729,-0.037409756,-0.33987617,1.0,0.0,0.0,0.0,0.0,0.0,0.0,-1.6906303,0.043973535,-0.99932986,11.638975,-43.250256,-24.982899,-3.3187628,-13.052684,-1.7312467,-0.53216815
-61.835434,-153.32288,-66.69096,17.458511,7.7194495,-2.6005542,-0.95956653,-0.4358347,-0.40178472,-0.17222975,-0.7196936,-0.4047114,0.5356156,0.53658223,0.9088736,-0.37257114,-1.5000767,-1.2623196,2.474829,1.5286484,-0.90317065,0.9425446,-0.3333921,-1.4818084,-1.2034498,2.517585,1.4794127,-0.9532898,-0.94692713,-0.2312437,0.021551026,-1.3120366,0.14129663,0.42621434,0.3522621,1.0145111,-0.44392014,1.5384744,-2.6111708,0.005596703,-1.1098267,0.20683289,-0.2746086,1.0207479,0.7330027,-0.1570044,0.107995294,0.65298826,-0.023028655,-0.36010987,-0.44500956,1.0,0.0,0.0,0.0,0.0,0.0,0.0,-1.6645111,0.04392013,-0.9884744,17.695654,-52.525513,-33.214195,-0.82764626,-34.885674,-2.600652,-0.6521225
-54.033684,-141.84256,-59.77954,15.764719,7.0799427,-2.2835255,-0.6118881,-0.25393614,-0.62865335,-0.23842292,-0.73380256,-0.5645235,0.5712062,0.5181986,0.917151,-0.39625746,-1.5056508,-1.2768301,2.4611328,1.5365334,-0.90146995,0.9349171,-0.3397164,-1.4838035,-1.2165915,2.5161965,1.4835898,-0.9497717,-0.69954646,-0.76737416,-0.2739786,-1.3138554,-0.23344514,0.41194287,0.35044906,0.9884186,-0.44386673,1.526648,-2.60856,0.005591107,-1.2069031,0.20559692,-0.28038025,1.0155159,0.7337098,-0.15187246,0.107968286,0.65341216,-0.1592304,-0.6490875,-0.55010384,1.0,0.0,0.0,0.0,0.0,0.0,0.0,-1.6384186,0.043866724,-0.97664803,25.279724,-53.994328,-29.782158,0.13151169,-37.883198,-2.298516,-0.5618751
-10.924467,-65.63434,-21.884151,5.097069,3.17397,-1.9231488,0.607516,0.19661577,-0.7161338,-0.22998808,-0.7369183,-0.6249218,0.6058765,0.48484197,0.9545787,-0.41132978,-1.5068023,-1.2902833,2.4537044,1.5441774,-0.9012875,0.9314114,-0.3504934,-1.4878719,-1.2297331,2.511512,1.4876829,-0.9462765,-0.23657945,-1.1816994,-0.44937143,-1.313378,-0.54651755,0.4068256,0.34915602,0.96235275,-0.44381332,1.5138515,-2.605952,0.005585517,-1.3038825,0.20388031,-0.2879181,1.0093906,0.734173,-0.14623122,0.107210405,0.65430295,-0.1801202,-0.78629917,-0.6349358,1.0,0.0,0.0,0.0,0.0,0.0,0.0,-1.6123527,0.043813318,-0.9638515,45.601852,-41.60398,-17.042053,0.29821396,-31.21866,-1.0454953,-0.14848709
15.908504,-8.138399,3.1343555,-0.29791737,0.3502015,-1.7969855,1.0382042,0.40247956,-0.754942,-0.35180104,-0.72362363,-0.65468866,0.6287507,0.42110422,0.97165936,-0.4259876,-1.523052,-1.3020954,2.4460433,1.550558,-0.90416604,0.9328581,-0.36419198,-1.4934356,-1.2428099,2.50439,1.4917704,-0.94283086,0.26659384,-1.4327768,-0.588323,-1.3056574,-0.7670555,0.40823933,0.34355572,0.9363136,-0.44375992,1.5000861,-2.6033466,0.005579932,-1.400765,0.20254135,-0.2960968,1.0025736,0.7337286,-0.14040029,0.10593791,0.6562829,-0.119734325,-0.82251906,-0.700523,1.0,0.0,0.0,0.0,0.0,0.0,0.0,-1.5863136,0.043759912,-0.95008606,48.776585,-25.167679,-12.779963,0.7693052,-21.80456,-0.17770529,-0.3961265
21.708366,15.644474,9.552152,-1.5512016,-0.53035975,-1.9754713,0.789006,0.47477314,-0.7879546,-0.53268856,-0.74677134,-0.56446964,0.60568124,0.3001265,0.9803354,-0.44298744,-1.5467045,-1.317487,2.447943,1.5523385,-0.9128182,0.9385973,-0.3793864,-1.500695,-1.2559229,2.4960206,1.4958636,-0.9395302,0.6715882,-1.5484936,-0.7681158,-1.3133007,-0.8601932,0.40872425,0.32617426,0.9102974,-0.4437065,1.4853524,-2.6007438,0.005574353,-1.4975504,0.20198059,-0.30444336,0.99514866,0.73246497,-0.13430968,0.104369044,0.659214,-0.033711147,-0.8349857,-0.7614114,1.0,0.0,0.0,0.0,0.0,0.0,0.0,-1.5602974,0.043706506,-0.9353524,39.05142,-11.6184,-16.897953,-0.8563757,-9.159279,-0.25023818,-1.5627265
24.260944,33.15378,15.43398,0.49304867,-0.90708315,-1.72752,0.61173,0.5519511,-0.803163,-0.55237633,-0.75351745,-0.4759226,0.6054213,0.22343971,0.9937924,-0.4597027,-1.5559326,-1.3312746,2.4484284,1.5564057,-0.9171862,0.9474722,-0.39504144,-1.5094726,-1.2691599,2.487487,1.4999663,-0.9364565,0.9561851,-1.5712557,-0.9120151,-1.3276948,-0.8503848,0.41024512,0.30182454,0.8843117,-0.4436531,1.4696517,-2.5981436,0.0055687795,-1.5942391,0.2022667,-0.3127365,0.98722696,0.73057276,-0.12791412,0.10257416,0.66285735,0.05491288,-0.82209694,-0.80865675,1.0,0.0,0.0,0.0,0.0,0.0,0.0,-1.5343117,0.0436531,-0.9196517,27.48375,-2.3032904,-13.722253,-1.557684,1.0647535,-0.04876256,-2.2494078
23.552729,42.19877,18.729977,4.053665,-0.8259233,-1.3719982,0.4400316,0.629206,-0.8041288,-0.57093215,-0.7486531,-0.3757512,0.598415,0.118801735,1.0103928,-0.47545433,-1.5665659,-1.3440253,2.449912,1.5598078,-0.92457634,0.95845187,-0.4105353,-1.5193508,-1.2825094,2.4796135,1.5040842,-0.9336899,1.1434615,-1.5421708,-1.0120112,-1.3376372,-0.7662317,0.41194737,0.2689605,0.85834885,-0.4435997,1.4529848,-2.595546,0.0055632116,-1.6908312,0.20335388,-0.32079697,0.97895396,0.7282028,-0.12125978,0.10049507,0.6670212,0.13205908,-0.7945648,-0.84045357,1.0,0.0,0.0,0.0,0.0,0.0,0.0,-1.5083488,0.043599695,-0.9029848,18.21611,2.8906822,-9.716606,-1.0981798,8.436167,0.06530881,-3.1012297
19.337263,41.995113,18.178741,7.80311,-0.29765916,-1.0816987,0.25453892,0.681675,-0.8025372,-0.60914516,-0.7470883,-0.23823479,0.5862713,0.01743041,1.0266193,-0.49078903,-1.5802653,-1.3572183,2.45579,1.5627114,-0.9319469,0.9707438,-0.425611,-1.5300205,-1.2959143,2.4730256,1.5082117,-0.93130475,1.2571353,-1.4960798,-1.0851307,-1.3417479,-0.6230969,0.41281873,0.22897325,0.8324127,-0.4435463,1.4353527,-2.5929508,0.0055576493,-1.7873267,0.20503616,-0.32860184,0.9704421,0.7255182,-0.11437978,0.097975016,0.6715217,0.18805459,-0.77025616,-0.8620591,1.0,0.0,0.0,0.0,0.0,0.0,0.0,-1.4824127,0.04354629,-0.8853527,11.191916,4.58014,-7.267022,-0.4637003,14.275085,0.03386736,-3.8244872
16.612495,41.835403,18.704144,10.51907,0.071632385,-0.7616609,0.24593377,0.7080196,-0.79622227,-0.58560514,-0.7571087,-0.1129535,0.5500251,0.081948,1.0415457,-0.5052332,-1.588581,-1.3716252,2.4617302,1.5632143,-0.92310995,0.9837538,-0.44023797,-1.5410297,-1.3093764,2.4681046,1.5123221,-0.9292391,1.3156985,-1.4517108,-1.1066623,-1.3478278,-0.44853175,0.41027853,0.19973996,0.8065033,-0.4434929,1.4167564,-2.5903585,0.0055520926,-1.8837258,0.20715714,-0.33616638,0.96177655,0.7225567,-0.10730808,0.094846934,0.6763142,0.22756706,-0.7444509,-0.8753245,1.0,0.0,0.0,0.0,0.0,0.0,0.0,-1.4565033,0.043492883,-0.8667564,5.890298,4.4052362,-2.272725,-0.62532425,17.40086,-0.2646625,-2.7458787
10.469168,36.99987,16.479769,14.152822,0.13430434,-0.37892038,0.09775093,0.6884221,-0.79702306,-0.5809235,-0.7394727,-0.25290507,0.59116083,0.13625042,1.052596,-0.51994026,-1.599122,-1.3833237,2.442814,1.5714382,-0.91561407,0.9969212,-0.45453593,-1.5520313,-1.3228003,2.4642403,1.5164381,-0.92738897,1.3177143,-1.4226524,-1.0984833,-1.3403332,-0.36642504,0.4118436,0.18045758,0.78061676,-0.44343948,1.3971969,-2.5877686,0.0055465414,-1.9800285,0.20954514,-0.343441,0.9530065,0.71940625,-0.100164644,0.09134749,0.68123215,0.25030786,-0.71623623,-0.8845564,1.0,0.0,0.0,0.0,0.0,0.0,0.0,-1.4306167,0.043439478,-0.8471969,0.39875507,2.8568506,0.60658455,0.79336166,8.11063,0.15839338,-1.8301755
5.739961,31.340279,13.451965,15.500285,0.032103658,-0.25049448,-0.009600259,0.6851617,-0.8011342,-0.600135,-0.7357787,-0.39206582,0.5862168,0.19171298,1.0654373,-0.5346494,-1.6120448,-1.3963782,2.4250338,1.5750598,-0.90821767,1.0099083,-0.46868083,-1.5629508,-1.3361136,2.4604256,1.5205637,-0.92565995,1.2930309,-1.4120164,-1.0905728,-1.3280182,-0.38698196,0.4128025,0.17048101,0.75476074,-0.44338608,1.3766749,-2.5851815,0.005540996,-2.0762346,0.21211243,-0.35046387,0.94411224,0.7161697,-0.09302,0.08789315,0.68609256,0.26614156,-0.69020087,-0.8978089,1.0,0.0,0.0,0.0,0.0,0.0,0.0,-1.4047607,0.043386072,-0.8266749,-2.2239447,0.999856,0.565362,1.3261318,-2.186364,0.06275177,-0.9698212
1.888207,25.567387,10.098789,16.092922,0.12049186,-0.2529227,-0.1100671,0.68506557,-0.8064282,-0.63764966,-0.7247987,-0.45575514,0.59723693,0.19896683,1.0784149,-0.5493237,-1.6267158,-1.4085934,2.41485,1.5802875,-0.90576327,1.0226055,-0.48283193,-1.5739677,-1.349259,2.4559891,1.5247046,-0.9240044,1.262691,-1.4163926,-1.1060011,-1.3097392,-0.4629378,0.41438025,0.1638508,0.7289276,-0.44333267,1.3551916,-2.5825968,0.005535456,-2.1723447,0.21478653,-0.35728836,0.9350404,0.7129504,-0.08587396,0.08475463,0.6907561,0.27610558,-0.6733517,-0.9168277,1.0,0.0,0.0,0.0,0.0,0.0,0.0,-1.3789276,0.043332666,-0.8051916,-2.798605,-0.52006245,-1.7312527,1.9661903,-7.7604713,0.08435249,-0.67468584
1.1854744,23.568048,9.087202,15.770963,0.19300926,-0.27217734,-0.11649956,0.6892468,-0.8130415,-0.65068954,-0.7165176,-0.47088963,0.60863423,0.17027988,1.0915302,-0.5641361,-1.6390367,-1.4209108,2.4089003,1.585568,-0.9069764,1.0350643,-0.49709794,-1.585221,-1.3622137,2.45074,1.5288702,-0.92242414,1.2408903,-1.4303406,-1.1320873,-1.2899892,-0.54639435,0.41675928,0.15607628,0.7031212,-0.44327927,1.3327479,-2.5800147,0.0055299215,-2.2683585,0.21757126,-0.36398315,0.9257508,0.7097825,-0.078708194,0.08198222,0.6951926,0.28472304,-0.66136354,-0.9391896,1.0,0.0,0.0,0.0,0.0,0.0,0.0,-1.3531212,0.04327926,-0.7827479,-1.9830704,-1.4852524,-2.7612448,2.1301985,-8.5183735,0.14383197,-0.78713894
2.4966068,25.101439,10.130292,14.712578,0.1362831,-0.25083113,-0.030748338,0.6771478,-0.81637985,-0.6399733,-0.7248271,-0.47716337,0.61050326,0.20611545,1.1027792,-0.57873595,-1.6492183,-1.4346964,2.4030237,1.5899205,-0.9018126,1.0473229,-0.5115175,-1.5966594,-1.3750521,2.4447663,1.5330569,-0.92088586,1.2215778,-1.4461067,-1.1481928,-1.2812965,-0.6148709,0.41902903,0.15313399,0.67734146,-0.44322586,1.3093449,-2.5774353,0.0055243927,-2.3642764,0.22045135,-0.37054825,0.91622376,0.706609,-0.071496606,0.079516865,0.69947755,0.29542553,-0.6469326,-0.9633996,1.0,0.0,0.0,0.0,0.0,0.0,0.0,-1.3273414,0.043225855,-0.7593449,-1.7440796,-1.6617298,-1.7758131,1.0256529,-7.0142984,0.124418736,-0.2828598
4.4376593,29.949604,12.939669,14.435841,-0.051062465,-0.0949488,0.049390152,0.65392196,-0.80942166,-0.6149888,-0.7253893,-0.5048831,0.63209033,0.2258724,1.112715,-0.5924597,-1.6581583,-1.4475911,2.394278,1.5962659,-0.8982986,1.059343,-0.5260315,-1.6080825,-1.387858,2.4381974,1.5372816,-0.9193533,1.1963052,-1.4533644,-1.14079,-1.279794,-0.6716204,0.42331672,0.15336709,0.6515846,-0.44317245,1.2849834,-2.5748582,0.0055188695,-2.4600983,0.22344589,-0.37688828,0.9064866,0.70334584,-0.064267434,0.07731288,0.70370233,0.30785647,-0.62157005,-0.98321855,1.0,0.0,0.0,0.0,0.0,0.0,0.0,-1.3015846,0.04317245,-0.7349834,-2.3190022,-0.79710484,0.5362272,0.2904415,-5.83663,0.34655333,0.049188733
5.207305,32.72124,14.5846195,14.748219,-0.08244455,0.029920936,0.06984193,0.6417496,-0.8112203,-0.6082314,-0.716033,-0.5262072,0.6464303,0.1958903,1.123518,-0.60715353,-1.6689057,-1.4594613,2.3855767,1.6019247,-0.8997643,1.0711056,-0.5405855,-1.6193492,-1.4006354,2.4311478,1.5415579,-0.917836,1.1704454,-1.4563085,-1.1227442,-1.2766004,-0.716589,0.42893714,0.15129244,0.6258545,-0.44311905,1.2596644,-2.572284,0.005513352,-2.5558245,0.22656631,-0.3829422,0.89658654,0.69995236,-0.057070747,0.07532336,0.7079096,0.31900716,-0.59130836,-0.9982491,1.0,0.0,0.0,0.0,0.0,0.0,0.0,-1.2758545,0.043119043,-0.7096644,-2.3767471,-0.359416,1.5947819,0.4511118,-4.658079,0.4989922,-0.17026961
6.2942524,33.958527,15.312439,13.93412,-0.1090945,0.017225191,0.1161729,0.6396422,-0.81476724,-0.61027,-0.7250193,-0.5287648,0.6393991,0.21740617,1.1350698,-0.62206227,-1.6803763,-1.4731373,2.3782713,1.6054978,-0.8960954,1.0826622,-0.5551605,-1.63045,-1.4134318,2.4237664,1.5458819,-0.9163216,1.1514509,-1.4581186,-1.1064726,-1.2801578,-0.74587345,0.4332456,0.15160169,0.60015106,-0.44306564,1.2333889,-2.5697122,0.00550784,-2.651455,0.2298088,-0.38868332,0.8865272,0.6963903,-0.049889214,0.073484294,0.71214575,0.33207285,-0.5604925,-1.014101,1.0,0.0,0.0,0.0,0.0,0.0,0.0,-1.250151,0.043065637,-0.6833889,-1.7065048,-0.24123192,1.420641,-0.22394657,-3.086102,0.36039948,0.084507465
3.706621,33.654675,14.679658,14.959409,0.06473136,0.1473603,0.06408565,0.5965592,-0.8101705,-0.6050053,-0.7242254,-0.5426959,0.64490217,0.24918395,1.1423181,-0.63617754,-1.6909505,-1.4858543,2.3694968,1.6103721,-0.8914032,1.0938984,-0.5697222,-1.6414039,-1.4262663,2.4161484,1.5502478,-0.9147795,1.1149364,-1.4556906,-1.0925225,-1.2840564,-0.7674657,0.4374902,0.15518351,0.57447433,-0.44301224,1.2061578,-2.567143,0.0055023334,-2.7469897,0.23313141,-0.39414978,0.8763198,0.69268787,-0.04270868,0.07176902,0.7163858,0.3372317,-0.53268117,-1.0283278,1.0,0.0,0.0,0.0,0.0,0.0,0.0,-1.2244743,0.04301223,-0.6561578,-3.4190416,0.17886162,1.1745691,-0.24168491,-2.3367524,0.36471486,0.40161908
2.5459104,34.254272,14.881983,15.250446,0.12939215,0.26359934,0.058554173,0.56754124,-0.80846536,-0.58629215,-0.7337499,-0.5481394,0.6527642,0.26045987,1.1506525,-0.6505687,-1.7000332,-1.4996413,2.3613346,1.6155242,-0.8887335,1.1046883,-0.5842457,-1.6521747,-1.4391791,2.4083703,1.5546576,-0.9131926,1.0676988,-1.4514441,-1.0728467,-1.2931612,-0.7819996,0.44193807,0.15994036,0.5488243,-0.44295883,1.1779721,-2.5645764,0.0054968325,-2.8424292,0.23646927,-0.39933395,0.86597717,0.68886465,-0.03552555,0.0701484,0.7206126,0.33789986,-0.50466067,-1.041333,1.0,0.0,0.0,0.0,0.0,0.0,0.0,-1.1988243,0.042958826,-0.62797207,-4.4710636,0.3626585,1.7307997,-0.7543802,-1.6371369,0.3935039,0.52095056
-4.9852104,29.187504,10.661564,17.147942,0.6285956,0.3768623,-0.11594421,0.492673,-0.80559886,-0.6179928,-0.73941875,-0.5567656,0.6393559,0.29046425,1.1539556,-0.6648056,-1.713974,-1.5131209,2.3526938,1.6185932,-0.88414615,1.1147419,-0.59871864,-1.662936,-1.4521967,2.40047,1.559096,-0.9115408,0.9855371,-1.446082,-1.0781974,-1.3039623,-0.7938183,0.44442576,0.16696589,0.5231972,-0.44290543,1.1488327,-2.5620122,0.005491337,-2.9377732,0.23968887,-0.4043579,0.85546815,0.68506175,-0.028267577,0.068626545,0.72469413,0.3214152,-0.49269295,-1.0588742,1.0,0.0,0.0,0.0,0.0,0.0,0.0,-1.1731972,0.04290542,-0.59883267,-7.8982472,0.4534483,-0.7793665,-0.8729696,-1.4116764,0.19424558,0.71433485
-22.797676,18.80798,2.1243248,22.81271,1.7512869,0.82029593,-0.52364326,0.31245297,-0.80426526,-0.6417272,-0.74238557,-0.5792879,0.63188905,0.2567783,1.1459873,-0.67914516,-1.7271087,-1.5264353,2.3425412,1.6222849,-0.88586295,1.1232544,-0.6131439,-1.6739128,-1.4653116,2.3924096,1.5635496,-0.9098528,0.80808496,-1.4417216,-1.1052353,-1.3128418,-0.8112308,0.44570455,0.16924791,0.49759674,-0.44285202,1.1187406,-2.5594509,0.005485846,-3.033022,0.24243164,-0.40948868,0.8447509,0.6816482,-0.020847112,0.06723996,0.72828555,0.26194587,-0.5108824,-1.0804642,1.0,0.0,0.0,0.0,0.0,0.0,0.0,-1.1475967,0.042852014,-0.56874055,-17.254936,0.30345917,-2.9929638,-0.5768776,-2.0786762,0.08812547,0.16403496
-61.388054,-1.4541836,-14.810651,35.06338,4.1534,1.9287214,-1.3176452,-0.09367781,-0.804177,-0.6500207,-0.7692064,-0.5758055,0.60525537,0.20790483,1.1138866,-0.6935616,-1.7389148,-1.5422323,2.334829,1.6240752,-0.88906235,1.1283013,-0.62754345,-1.68521,-1.4786001,2.3842003,1.5679957,-0.9081915,0.40680435,-1.4402872,-1.139428,-1.3323771,-0.8263395,0.44397345,0.16445129,0.472023,-0.4427986,1.0876967,-2.556892,0.005480361,-3.1281753,0.24386978,-0.41523743,0.8337755,0.67936605,-0.013131512,0.0659812,0.73070914,0.10703191,-0.5872811,-1.107596,1.0,0.0,0.0,0.0,0.0,0.0,0.0,-1.122023,0.04279861,-0.53769666,-39.21463,-0.10993481,-3.8729906,-1.3988972,-2.1001935,-0.20846128,-0.67860484
-86.23796,-12.050312,-24.121517,42.713963,5.7643523,2.7735577,-1.7096734,-0.40226552,-0.80926275,-0.6361066,-0.79270315,-0.5260476,0.5290092,0.2705082,1.0880747,-0.70846975,-1.7488207,-1.5578705,2.3315957,1.6208966,-0.8811407,1.1283089,-0.64197254,-1.6967361,-1.4921557,2.3760102,1.5723597,-0.90653497,-0.1305332,-1.4449924,-1.1587298,-1.3608438,-0.8191656,0.43320006,0.1653908,0.44647217,-0.4427452,1.055702,-2.5543356,0.0054748817,-3.2232335,0.24326706,-0.42200089,0.8225246,0.6787466,-0.005011675,0.064703174,0.7314995,-0.11281333,-0.697545,-1.1350242,1.0,0.0,0.0,0.0,0.0,0.0,0.0,-1.0964721,0.042745203,-0.50570196,-52.53422,-0.8522272,-2.5202274,-2.0570278,-0.08440018,-1.2351692,-0.12345314
-73.46354,0.48130083,-14.6698265,38.9711,4.9700155,2.825096,-1.2828934,-0.46691355,-0.80609614,-0.58933234,-0.79351836,-0.48355275,0.52471435,0.42731848,1.0816176,-0.72258216,-1.7556694,-1.5715075,2.3276548,1.6248311,-0.86380315,1.1235443,-0.6564398,-1.7081478,-1.5059572,2.3680527,1.5766073,-0.90474015,-0.5883964,-1.4486445,-1.1373044,-1.383912,-0.7903522,0.42118928,0.18391864,0.42094803,-0.4426918,1.0227574,-2.551782,0.005469408,-3.3181965,0.24066544,-0.4296379,0.8110953,0.6795567,0.0034134623,0.0632005,0.7308876,-0.30996868,-0.77562076,-1.1495228,1.0,0.0,0.0,0.0,0.0,0.0,0.0,-1.070948,0.042691797,-0.4727574,-44.72992,-0.74846745,1.5788555,-1.5339136,2.125883,-1.4531553,1.7666459
-53.824833,12.592106,-5.126443,32.006508,3.716115,2.399361,-0.8539227,-0.5304702,-0.8075706,-0.61582345,-0.7897253,-0.48426473,0.52180123,0.44634208,1.0704973,-0.73719686,-1.7697301,-1.5849298,2.3196263,1.6287875,-0.86010593,1.1152111,-0.6709404,-1.7194049,-1.5199057,2.3603852,1.5807406,-0.9027384,-0.9123026,-1.451609,-1.1232449,-1.3963215,-0.7609288,0.40979612,0.20556027,0.3954506,-0.4426384,0.9888639,-2.5492306,0.0054639396,-3.4130647,0.23645782,-0.43779755,0.7995406,0.6813427,0.012040922,0.061378162,0.7292872,-0.46105367,-0.82027495,-1.1610777,1.0,0.0,0.0,0.0,0.0,0.0,0.0,-1.0454506,0.04263839,-0.43886387,-31.604385,-0.6216526,0.9594679,-0.5738497,2.3296833,-1.4173031,2.1757097
-37.14295,19.478016,0.44787693,24.811537,2.6663141,1.7821901,-0.5594833,-0.59761804,-0.8104382,-0.6819543,-0.7948416,-0.4782324,0.50418955,0.43021092,1.0554494,-0.75198424,-1.7876004,-1.5993898,2.312562,1.6311595,-0.8597173,1.1045662,-0.6854706,-1.7308547,-1.5339419,2.3529885,1.5847594,-0.90054494,-1.11353,-1.4543855,-1.1532345,-1.4043441,-0.7343254,0.39813876,0.22419825,0.36997604,-0.442585,0.95402235,-2.546682,0.005458477,-3.5078382,0.23107147,-0.4462738,0.7878,0.68375236,0.020900229,0.05923366,0.72700566,-0.56841,-0.8451192,-1.1817445,1.0,0.0,0.0,0.0,0.0,0.0,0.0,-1.019976,0.042584985,-0.40402234,-19.575214,-0.5379915,-3.3170462,-0.23794174,2.1765113,-1.4582753,1.9186437
-28.838932,23.890938,3.7282157,21.242981,2.215273,1.5421634,-0.44811863,-0.69777477,-0.80930215,-0.7059489,-0.7962609,-0.41345525,0.48315078,0.3323568,1.0347887,-0.7664008,-1.8014497,-1.613568,2.311643,1.6330744,-0.8673093,1.0923687,-0.70001316,-1.7427528,-1.5480314,2.3459961,1.588658,-0.8982571,-1.253711,-1.4549398,-1.202844,-1.4087198,-0.6892388,0.3859383,0.23051497,0.3445282,-0.4425316,0.9182338,-2.5441358,0.00545302,-3.602517,0.22476959,-0.45492935,0.77582884,0.6866165,0.030032756,0.056702275,0.7241827,-0.6561606,-0.8597818,-1.2054354,1.0,0.0,0.0,0.0,0.0,0.0,0.0,-0.9945282,0.04253158,-0.3682338,-13.596678,-0.2810955,-5.2010775,0.06611347,4.0947795,-1.5179873,0.7153362
-22.19759,27.81912,7.0221334,19.262226,2.0496473,1.437106,-0.4161178,-0.74888396,-0.8139257,-0.72046447,-0.78199327,-0.2864951,0.4652724,0.07039847,1.0174804,-0.78140575,-1.8147992,-1.6262307,2.3173466,1.6351852,-0.89121723,1.0791317,-0.7145729,-1.7551601,-1.5620772,2.3397782,1.5924326,-0.89612085,-1.346008,-1.4570296,-1.2540447,-1.4017705,-0.60014474,0.37370268,0.20844157,0.31910706,-0.44247818,0.88149923,-2.5415921,0.0054475684,-3.6971009,0.21768188,-0.4636879,0.76364374,0.6898832,0.039418567,0.053584564,0.7208579,-0.73212075,-0.86854094,-1.2260324,1.0,0.0,0.0,0.0,0.0,0.0,0.0,-0.96910703,0.042478174,-0.33149922,-8.916736,-0.40245056,-5.2867174,1.1321545,8.577717,-1.5076458,-2.0807056
-18.058538,31.089966,9.82349,18.864897,2.286756,1.4639459,-0.45724452,-0.78390515,-0.8165847,-0.73144764,-0.7613241,-0.037413333,0.47107905,-0.28116035,1.0007412,-0.7962314,-1.8283049,-1.6382096,2.336037,1.6395406,-0.9242369,1.0652119,-0.7291622,-1.7680118,-1.5759455,2.3351204,1.5961024,-0.8944748,-1.4066638,-1.4601408,-1.2957113,-1.3806326,-0.42192623,0.3637675,0.15058902,0.2937088,-0.44242477,0.8438195,-2.539051,0.0054421215,-3.7915902,0.20985413,-0.47256088,0.7513075,0.6935914,0.048998136,0.049474947,0.7169953,-0.80664545,-0.87859887,-1.2392015,1.0,0.0,0.0,0.0,0.0,0.0,0.0,-0.9437088,0.04242477,-0.2938195,-5.8338165,-0.48384666,-4.262328,2.4909973,17.57428,-1.2747109,-5.5945873
-12.637884,36.972736,14.5128,18.782814,2.38934,1.597649,-0.39892304,-0.7960242,-0.8087179,-0.7182977,-0.733927,0.23888236,0.5152918,-0.4188504,0.9856095,-0.81003404,-1.8398416,-1.6493382,2.3590088,1.6476315,-0.9363598,1.0508972,-0.7437401,-1.781081,-1.5894896,2.3329155,1.5997206,-0.89349157,-1.4393694,-1.4574224,-1.3105665,-1.3448592,-0.15382761,0.36040512,0.081676915,0.26833725,-0.44237137,0.80519557,-2.5365126,0.0054366803,-3.8859851,0.20129395,-0.48150253,0.7389459,0.69772476,0.0586317,0.043940254,0.7126091,-0.8780261,-0.8839227,-1.2383317,1.0,0.0,0.0,0.0,0.0,0.0,0.0,-0.9183372,0.042371362,-0.25519556,-3.1245708,0.1303196,-1.5041113,3.8589954,26.671844,-0.57625175,-6.648746
-8.851947,41.46925,17.474882,17.786499,2.0494883,1.6526008,-0.35470605,-0.81063384,-0.79896,-0.727426,-0.7225368,0.34715816,0.5294714,-0.48429683,0.96983385,-0.82363605,-1.8538235,-1.6617433,2.3676314,1.6526678,-0.94192123,1.0363632,-0.75823593,-1.7942226,-1.6026732,2.3333924,1.6033293,-0.8931959,-1.4577427,-1.4473542,-1.3152083,-1.3087215,0.1145663,0.3603018,0.012979877,0.2429924,-0.44231796,0.7656204,-2.5339766,0.0054312446,-3.9813511,0.19208908,-0.4904213,0.72662437,0.70222455,0.06821034,0.03690684,0.70771873,-0.94084567,-0.8788854,-1.2334027,0.0,1.0,0.0,0.0,0.0,0.0,0.0,-0.8929924,0.042317957,-0.2156204,-1.7347813,0.88677406,-0.44574738,3.8402796,26.775751,-0.21273494,-6.6439757
-5.4014983,44.614716,19.135988,15.263712,1.2652558,1.6107546,-0.30576304,-0.81890005,-0.78280336,-0.74729204,-0.7248954,0.33674774,0.53390783,-0.51542896,0.95447326,-0.83651626,-1.8689518,-1.6751627,2.367067,1.65672,-0.9447388,1.021727,-0.7725144,-1.8078656,-1.6157739,2.335096,1.6077116,-0.893217,-1.4617679,-1.4148753,-1.45069,-1.3394362,0.03474565,0.5600809,0.02663754,0.22212219,-0.44439697,0.7417298,-1.3842243,-0.5136491,0.9327049,0.18237305,-0.49902725,0.714176,0.70689946,0.077482045,0.029147325,0.7024529,-0.984249,-0.8198059,-1.2781758,0.0,1.0,0.0,0.0,0.0,0.0,0.0,-0.87212217,0.044396967,-0.19172978,0.26967525,4.3990374,-26.132488,-8.248401,-35.575535,39.647984,9.204549
71.62253,176.0,110.0,96.075035,-7.780382,10.531342,-0.50341433,-0.72864556,0.5302414,0.6918749,0.73547786,-0.35067317,0.6659676,-0.3452603,0.94886243,-0.7194903,-1.7386781,-1.5422261,2.3000286,1.6743083,-0.9277431,1.0125232,-0.7845839,-1.8227365,-1.6174728,2.3240519,1.6230748,-0.8909302,-0.7442424,-1.1371509,-1.4900075,0.21506174,-1.4751995,1.8681296,0.28992805,0.20836258,-0.44955826,0.75080675,-1.3828404,-0.51313555,0.8325212,0.17296219,-0.5050049,0.70563835,0.7116888,0.07671611,0.02834931,0.69771767,-0.9313854,-0.5092758,-0.71312195,0.0,1.0,0.0,0.0,0.0,0.0,0.0,-0.85836256,0.049558252,-0.20080674,70.4766,27.973843,-1.6999245,153.82553,-149.44232,133.32108,24.58986
6.6336923,158.42996,95.020805,92.82602,-0.17919916,7.1118135,-0.88851494,-0.80147827,-0.46632567,0.26117584,0.78962165,-0.6381751,0.55824935,-0.24425246,0.9323754,-0.8312165,-1.7966189,-1.5385106,2.2602344,1.6788998,-0.91535544,1.0051665,-0.79441726,-1.8327825,-1.6081935,2.3069735,1.641803,-0.8882246,-0.73268354,-0.93365735,-0.83956844,1.1644492,-1.7892611,1.8804421,0.26301166,0.19454193,-0.4546852,0.75838125,-1.3814579,-0.5126225,0.73243773,0.16339111,-0.5092201,0.702433,0.7171822,0.06828686,0.031549882,0.6928139,-0.9661987,-0.38088724,-0.19372782,1.0,0.0,0.0,0.0,0.0,0.0,0.0,-0.8445419,0.054685205,-0.20838124,1.1774063,19.870365,66.00586,94.67704,-32.532097,3.03123,-3.0312538
-27.951006,123.66226,57.961445,72.510574,2.2118354,4.7396564,-1.3904034,-0.7906396,-0.25031468,-0.25598955,0.75313354,-0.65694743,0.6307814,-0.16762409,0.9261026,-0.8194487,-1.8583815,-1.5328802,2.2412786,1.7048812,-0.90498704,0.99657774,-0.80178344,-1.838474,-1.5925609,2.2893763,1.6595166,-0.8859558,-0.89915615,-0.6725353,-0.4792737,1.6970203,-1.7535037,1.7382679,0.21467668,0.18073654,-0.45980835,0.7649557,-1.3800766,-0.51211,0.6324543,0.15306473,-0.5126877,0.7029887,0.72378105,0.05649516,0.036377743,0.68675023,-1.0559229,-0.32754993,0.13223556,1.0,0.0,0.0,0.0,0.0,0.0,0.0,-0.8307365,0.059808344,-0.21495569,-16.091585,25.625288,36.003788,53.505493,2.4756432,-13.199234,-4.863396
-26.0462,121.386024,51.089584,49.31464,1.1573291,3.5557752,-1.0176629,-0.79331356,-0.011243488,-0.1245789,0.7893144,-0.6506731,0.5944194,-0.11288849,0.9172464,-0.80290776,-1.8509319,-1.5136294,2.224309,1.7189585,-0.89724463,0.9858165,-0.8060025,-1.8412244,-1.5743228,2.2734308,1.6754067,-0.8841772,-1.1338799,-0.33986622,-0.20801157,1.8666413,-1.5451928,1.5415506,0.16525538,0.16694641,-0.46492767,0.77053106,-1.3786968,-0.511598,0.5325708,0.1420517,-0.5153885,0.7060412,0.73123133,0.043576315,0.04212815,0.6794314,-1.1154742,-0.24349983,0.35608074,1.0,0.0,0.0,0.0,0.0,0.0,0.0,-0.8169464,0.06492767,-0.22053105,-23.109509,32.81925,26.871431,17.080093,19.832588,-19.025898,-5.0614567
-37.922802,61.00043,12.775168,26.671072,2.113914,1.216223,-1.002884,-0.8118442,-0.11414566,-0.3871518,0.7826008,-0.6506752,0.63232,-0.22950032,0.90463203,-0.8174171,-1.8799396,-1.4960628,2.2083633,1.7386386,-0.90712726,0.9729352,-0.8080119,-1.8436391,-1.5560886,2.2597132,1.6894467,-0.88293076,-1.338951,-0.1553017,-0.25371498,1.8093543,-1.3147267,1.3590093,0.11077531,0.15317154,-0.47003937,0.77510834,-1.3773184,-0.51108646,0.43278715,0.13038254,-0.5178375,0.70981145,0.7394047,0.031492718,0.048151985,0.6707982,-1.1856915,-0.23525575,0.37821117,1.0,0.0,0.0,0.0,0.0,0.0,0.0,-0.8031715,0.07003936,-0.22510833,-20.333504,18.265322,-4.870424,-5.643964,22.808123,-17.989063,-5.5327682
-33.807632,21.46564,-5.959058,11.753176,2.1835518,-0.19708192,-0.68743575,-0.8138869,-0.18814327,-0.4159604,0.78605676,-0.6367019,0.6248845,-0.29203013,0.8915465,-0.8268262,-1.8852352,-1.4774829,2.196043,1.7519351,-0.91213375,0.9585595,-0.8093413,-1.8474138,-1.5390979,2.2480097,1.7018368,-0.8822222,-1.4701209,-0.12566279,-0.41922316,1.6625348,-1.1225305,1.1992357,0.057442427,0.13941193,-0.47514725,0.77868855,-1.3759414,-0.5105755,0.33310327,0.11809921,-0.52051544,0.71297395,0.74810815,0.021322334,0.05386955,0.66104275,-1.2438515,-0.26824093,0.291415,1.0,0.0,0.0,0.0,0.0,0.0,0.0,-0.7894119,0.07514724,-0.22868854,-13.029671,2.9209642,-16.738016,-14.6475315,19.220661,-15.919137,-5.3777905
-20.48833,10.603642,-6.167632,5.10376,1.5857137,-0.6502658,-0.29863793,-0.80833834,-0.20461848,-0.36213332,0.7880457,-0.6130862,0.6416926,-0.31994492,0.87772566,-0.82980317,-1.883627,-1.4602933,2.186701,1.7660061,-0.91421664,0.9434533,-0.81103027,-1.8526723,-1.5235645,2.2378244,1.7128346,-0.8820095,-1.5240498,-0.18327169,-0.5615378,1.5170317,-0.98384553,1.0664825,0.0091184685,0.12565994,-0.4802513,0.78127265,-1.3745657,-0.510065,0.23351905,0.1054306,-0.5235367,0.71510303,0.75703084,0.013123558,0.058989264,0.6505785,-1.2765167,-0.30257395,0.18372679,1.0,0.0,0.0,0.0,0.0,0.0,0.0,-0.7756599,0.08025131,-0.23127264,-5.3488255,-5.7643056,-14.289546,-14.522839,13.81439,-13.280988,-4.8512325
-7.849221,15.108267,1.5939517,4.625781,1.0117683,-0.52964973,-0.0004288666,-0.8051604,-0.22872579,-0.3016987,0.79525703,-0.59111226,0.6318603,-0.32521015,0.8629373,-0.83390284,-1.8828422,-1.4440387,2.1787133,1.7760206,-0.9145305,0.9282117,-0.81358707,-1.8587072,-1.5091258,2.2286615,1.7226708,-0.882226,-1.524107,-0.27985895,-0.6172842,1.4196014,-0.89390326,0.9560614,-0.031947173,0.11192322,-0.48534775,0.78286165,-1.3731914,-0.50955504,0.13403443,0.09259033,-0.5267906,0.7163356,0.76589274,0.0064128214,0.06342866,0.63979983,-1.2877523,-0.32152212,0.10080391,1.0,0.0,0.0,0.0,0.0,0.0,0.0,-0.7619232,0.08534774,-0.23286164,-0.004005432,-9.673056,-5.5131197,-9.712505,8.830118,-11.033047,-4.104235
2.1964798,26.40699,11.760372,6.693808,0.52471375,-0.14553785,0.20802315,-0.7991717,-0.2622177,-0.21888383,0.7977557,-0.5817444,0.6391245,-0.342296,0.8482945,-0.8398088,-1.8805956,-1.4293503,2.1704872,1.7865832,-0.91645557,0.9131875,-0.81717384,-1.8645151,-1.495269,2.2201052,1.7315571,-0.88281345,-1.4953705,-0.38510564,-0.56818974,1.3745592,-0.84386843,0.86639655,-0.06773304,0.09820175,-0.49044037,0.78345656,-1.3718184,-0.50904554,0.034649264,0.079776764,-0.5300598,0.71703917,0.77448064,0.0005258517,0.067220785,0.62901574,-1.2821146,-0.31773257,0.05812607,1.0,0.0,0.0,0.0,0.0,0.0,0.0,-0.7482017,0.09044036,-0.23345655,2.823329,-10.57021,5.0858974,-4.4922113,4.7285676,-8.908749,-3.57218
10.567394,38.734585,21.771788,8.63554,0.12870044,0.27581233,0.40552625,-0.7886688,-0.3117918,-0.08494311,0.7891648,-0.5665245,0.628893,-0.3373552,0.8343206,-0.848353,-1.8730093,-1.4163525,2.1634526,1.7944465,-0.91654897,0.8985324,-0.8218192,-1.8689954,-1.4816161,2.211873,1.7396653,-0.88371086,-1.455802,-0.49128035,-0.40719086,1.3621148,-0.81757283,0.7925484,-0.097014196,0.084495544,-0.49552917,0.7830554,-1.3704469,-0.50853664,-0.065030284,0.06712341,-0.5331192,0.71760714,0.7826094,-0.005179354,0.07038786,0.61849904,-1.2617224,-0.29052684,0.054219823,1.0,0.0,0.0,0.0,0.0,0.0,0.0,-0.7344955,0.09552917,-0.23305541,3.8591385,-10.695404,16.379684,-1.2681246,2.2376657,-7.271993,-2.9192998
17.935253,51.60199,31.102184,10.085318,-0.29542893,0.6577658,0.57207084,-0.77220774,-0.35169435,0.08635607,0.7843177,-0.5777991,0.63104993,-0.3406085,0.8213116,-0.8569886,-1.8603598,-1.4031844,2.1540933,1.8027703,-0.9177717,0.8842931,-0.8274449,-1.8711202,-1.4679595,2.2037363,1.7471383,-0.8848648,-1.4137726,-0.5866655,-0.14638259,1.3666275,-0.8139933,0.7327985,-0.121568814,0.070804596,-0.50061035,0.7816582,-1.3690768,-0.5080282,-0.16461018,0.054779053,-0.5357208,0.7184004,0.7901156,-0.011258756,0.07297585,0.60849404,-1.2256851,-0.2399027,0.08532853,1.0,0.0,0.0,0.0,0.0,0.0,0.0,-0.7208046,0.100610346,-0.23165816,4.0833235,-9.649384,26.431784,0.38969517,-0.15332699,-5.80436,-2.456163
14.955079,50.65258,28.84748,10.851915,-0.19347695,0.58923334,0.4960021,-0.7602761,-0.39303237,0.109594874,0.77807444,-0.60749143,0.62653965,-0.28743452,0.80826545,-0.86674815,-1.8601607,-1.3901521,2.1429873,1.8097923,-0.91360825,0.8704362,-0.8339404,-1.8708799,-1.4542304,2.1954813,1.7540925,-0.8861933,-1.3766277,-0.67080504,0.08178659,1.3747586,-0.8309258,0.68352175,-0.13654262,0.057121277,-0.5056877,0.7792659,-1.367708,-0.50752026,-0.2640905,0.042778015,-0.53785324,0.7194655,0.7970171,-0.017820938,0.075119145,0.5990018,-1.1942464,-0.1943329,0.11089651,1.0,0.0,0.0,0.0,0.0,0.0,0.0,-0.70712125,0.10568771,-0.22926587,3.6523104,-8.522808,23.100481,0.78902245,-2.1574259,-4.7529817,-1.4988452
12.021971,45.097538,23.506464,9.902432,-0.114873946,0.26587832,0.3943954,-0.72272325,-0.43337244,0.11411979,0.77064717,-0.63904166,0.6367559,-0.2476478,0.7981639,-0.8772776,-1.8594679,-1.3771657,2.131577,1.8177681,-0.91095805,0.857018,-0.8412074,-1.8689592,-1.4404556,2.1869478,1.760627,-0.88761425,-1.3302962,-0.74564195,0.22965632,1.3784127,-0.86225694,0.6440883,-0.14403951,0.043453217,-0.51076126,0.77587956,-1.3663405,-0.50701284,-0.36347142,0.031066895,-0.53962326,0.7206269,0.80341107,-0.024665298,0.07697944,0.5899122,-1.1663063,-0.16249117,0.11507441,1.0,0.0,0.0,0.0,0.0,0.0,0.0,-0.6934532,0.110761255,-0.22587955,4.5977592,-7.57339,15.004569,0.37100315,-3.5061598,-3.7745833,-0.75452924
0.3881712,32.167236,11.997448,10.362309,0.48009753,-0.12339193,0.108656436,-0.7186937,-0.4692645,0.027504466,0.7686324,-0.6414129,0.61801153,-0.2102004,0.7851486,-0.8881338,-1.8662088,-1.3635923,2.1228065,1.8224282,-0.9086343,0.8439841,-0.849161,-1.8665922,-1.4266692,2.1781244,1.7668068,-0.88906384,-1.2943457,-0.8120893,0.23926426,1.379012,-0.8892923,0.6097359,-0.14522061,0.029800415,-0.5158272,0.7715002,-1.3649745,-0.50650597,-0.46275294,0.019439697,-0.541275,0.72155404,0.80953085,-0.031346384,0.07869612,0.5809337,-1.1629153,-0.15850982,0.0823055,1.0,0.0,0.0,0.0,0.0,0.0,0.0,-0.6798004,0.11582717,-0.22150016,3.6081314,-6.6970944,1.045239,0.13952255,-2.882266,-3.296852,-0.10533929
-4.1099486,28.967215,7.47638,10.519627,0.62932324,-0.33796167,-0.03469653,-0.69468755,-0.47705796,-0.008121328,0.7690336,-0.64320326,0.6120456,-0.18840605,0.7745154,-0.8968668,-1.8674043,-1.3497659,2.113804,1.8280114,-0.90790445,0.8313079,-0.85761154,-1.864742,-1.4128848,2.1690874,1.7726815,-0.89050007,-1.2586931,-0.8562976,0.16721365,1.378581,-0.9083177,0.58059454,-0.14304027,0.016162872,-0.5208893,0.76612866,-1.3636098,-0.50599957,-0.5619352,0.0078048706,-0.54296875,0.72204363,0.81555027,-0.037526965,0.08040428,0.571843,-1.1669592,-0.16505696,0.034666397,1.0,0.0,0.0,0.0,0.0,0.0,0.0,-0.66616285,0.120889276,-0.21612865,3.5835505,-4.4627905,-7.1780353,0.068593025,-1.9881129,-2.7836204,0.2207905
-10.14719,19.015068,0.3865857,9.940644,0.983951,-0.5683216,-0.17113629,-0.67939925,-0.53061444,-0.09769556,0.76257277,-0.63466537,0.6155678,-0.20065424,0.76336795,-0.91067296,-1.8745116,-1.3366276,2.1056209,1.8342383,-0.9105655,0.8189597,-0.8665751,-1.8641508,-1.3991367,2.159955,1.7783024,-0.89191914,-1.2267243,-0.90975106,0.022965873,1.3742255,-0.9147142,0.55630326,-0.14152265,0.0025367737,-0.5259476,0.75976616,-1.3622464,-0.50549364,-0.66101825,-0.003993988,-0.5448494,0.7218681,0.8216082,-0.04292203,0.082103,0.56247365,-1.1860911,-0.1884213,-0.038151342,0.0,1.0,0.0,0.0,0.0,0.0,0.0,-0.65253675,0.12594756,-0.20976615,3.2364607,-5.36772,-14.457241,-0.2724886,-0.616014,-2.3474097,0.17024875
-12.759511,17.377272,-1.8845619,10.31229,1.0485033,-0.65366846,-0.24914107,-0.6590053,-0.54186887,-0.19526789,0.7752881,-0.64710104,0.6122616,-0.18615773,0.7530592,-0.920762,-1.8836776,-1.3216078,2.095245,1.8395286,-0.9105349,0.8069339,-0.8759955,-1.8653257,-1.3853694,2.1507692,1.7837098,-0.89331436,-1.1943468,-0.9529062,-0.16443543,1.3782907,-0.919657,0.5356678,-0.13880621,-0.011077881,-0.53099823,0.7524135,-1.3608844,-0.50498825,-0.7600022,-0.016017914,-0.5470047,0.72091544,0.8277933,-0.04736035,0.083854206,0.55270565,-1.2101959,-0.21619177,-0.11760652,0.0,1.0,0.0,0.0,0.0,0.0,0.0,-0.6389221,0.13099822,-0.2024135,3.2952547,-4.3433905,-18.79952,0.61011314,-0.42629242,-2.013278,0.2815932
-6.3965855,16.663584,-1.2082334,7.4133863,0.73581636,-0.86821896,-0.1606875,-0.59308946,-0.58091396,-0.28110188,0.77203083,-0.63699543,0.6263956,-0.22415596,0.74762493,-0.9340869,-1.8934358,-1.3081664,2.0870697,1.8463494,-0.91572994,0.79548526,-0.8858864,-1.8686349,-1.3716439,2.141567,1.7889423,-0.8947581,-1.1287668,-1.0010202,-0.38779426,1.3705157,-0.9124198,0.54276276,-0.14188805,-0.025241852,-0.53359985,0.75178456,-1.2992136,-0.2854737,0.22008693,-0.02817154,-0.5494728,0.7190534,0.83409107,-0.050690815,0.08566079,0.5425722,-1.2219396,-0.24730046,-0.21327455,0.0,1.0,0.0,0.0,0.0,0.0,0.0,-0.6247581,0.13359985,-0.20178455,6.1781406,-4.99326,-19.6868,0.5359411,0.28287172,-1.5905976,-0.1525402
-3.2302215,72.045784,26.219414,17.718481,0.13969076,0.6374839,-0.10451742,-0.6975202,-0.35945648,-0.050473668,0.79211026,-0.58906853,0.62950206,-0.31112,0.7257332,-0.921832,-1.8736823,-1.2924329,2.0826602,1.8518926,-0.9258701,0.784086,-0.8951189,-1.8724344,-1.3578385,2.1325872,1.7942791,-0.89626205,-1.1437045,-0.89791965,-0.37679666,1.3839185,-0.8942676,0.5311703,-0.15378751,-0.038223267,-0.53645325,0.7532448,-1.2979146,-0.2851883,0.12134521,-0.040290833,-0.5516243,0.7172402,0.8403393,-0.053849377,0.08783195,0.53217995,-1.2101254,-0.19553344,-0.17434826,0.0,1.0,0.0,0.0,0.0,0.0,0.0,-0.6117767,0.13645324,-0.2032448,-1.4840126,10.113335,1.240319,1.3660431,1.4535546,-1.0375738,-1.3396889
-6.515781,82.6055,33.145626,21.479202,0.60817254,1.3115802,-0.045172684,-0.7438165,-0.39700112,0.04663294,0.77559525,-0.510476,0.60618985,-0.30110925,0.70970434,-0.934819,-1.867771,-1.280279,2.0815396,1.8548981,-0.926373,0.7721689,-0.90337485,-1.8751047,-1.3439664,2.1240232,1.7995014,-0.89786994,-1.2076017,-0.8021504,-0.22982387,1.3884356,-0.8455291,0.5196187,-0.16353297,-0.051193237,-0.5393028,0.7537184,-1.296617,-0.28490317,0.022702204,-0.052387238,-0.55308914,0.7160866,0.8464424,-0.057408426,0.09026354,0.52162427,-1.2102342,-0.121116504,-0.09908967,0.0,1.0,0.0,0.0,0.0,0.0,0.0,-0.59880674,0.13930282,-0.20371836,-6.362033,9.347248,14.895579,0.47545433,4.3789744,-1.040566,-1.0784686
-1.3542185,88.56991,37.653503,20.656342,0.34141093,1.3962939,0.1104918,-0.73361605,-0.37239555,0.11631872,0.7695556,-0.55350244,0.60677993,-0.2506856,0.69880724,-0.9406144,-1.8634728,-1.2670108,2.068673,1.8601794,-0.9229385,0.75964713,-0.91073054,-1.8758485,-1.330098,2.1157682,1.8045998,-0.89953125,-1.2671444,-0.7140235,-0.021593245,1.3862072,-0.82078826,0.5069875,-0.16726096,-0.064151764,-0.5421486,0.75320625,-1.2953206,-0.28461832,-0.07584219,-0.06437683,-0.5537224,0.7157821,0.8522706,-0.061662257,0.09287814,0.5110834,-1.1959713,-0.036512215,-0.010561744,0.0,1.0,0.0,0.0,0.0,0.0,0.0,-0.5858482,0.14214858,-0.20320624,-5.9559345,8.58494,21.07681,-0.21634102,1.9227982,-1.1147738,-0.46438575
3.0590272,75.8496,32.79608,16.52494,0.29102892,0.9428634,0.20228432,-0.7094401,-0.40820262,0.14977428,0.765285,-0.57668424,0.59869397,-0.24380372,0.6887031,-0.9515508,-1.8608711,-1.2535695,2.0580997,1.8644692,-0.92391163,0.74677825,-0.9176256,-1.8746488,-1.3162888,2.1076047,1.809578,-0.9012116,-1.2935277,-0.6819447,0.16796607,1.3792132,-0.816171,0.49505442,-0.16840993,-0.07709503,-0.54499435,0.7516962,-1.2940255,-0.28433377,-0.17604557,-0.076187134,-0.55366135,0.7161342,0.8577506,-0.066566244,0.09554462,0.5007035,-1.1766552,0.0287272,0.04767086,0.0,1.0,0.0,0.0,0.0,0.0,0.0,-0.57290494,0.14499435,-0.20169622,-2.647543,3.0308127,19.20477,-0.6686449,-0.010955334,-1.0521293,-0.16180873
4.1566787,58.439953,24.571896,12.252098,0.34662044,0.4251339,0.21373393,-0.69831693,-0.43866888,0.16272978,0.7524308,-0.57769006,0.59814036,-0.23630083,0.6769466,-0.9614925,-1.8583758,-1.2410457,2.0498357,1.8693919,-0.9248417,0.73385596,-0.924576,-1.8720014,-1.3026074,2.099426,1.8144455,-0.90289104,-1.2917544,-0.69985384,0.29773068,1.3644973,-0.81943923,0.4845861,-0.16776097,-0.09002304,-0.5478325,0.74918497,-1.2927318,-0.28404948,-0.27614874,-0.08782959,-0.5531311,0.71676207,0.8628963,-0.071861535,0.09809231,0.49053404,-1.1605347,0.06849856,0.06522864,0.0,1.0,0.0,0.0,0.0,0.0,0.0,-0.55997694,0.14783248,-0.19918495,0.17232895,-1.9122005,13.180015,-1.4228344,-0.682497,-0.92535615,0.050404668
7.2165704,45.744843,18.437984,8.486818,0.26553097,-0.09742147,0.24915726,-0.66148007,-0.46153584,0.16754973,0.7513787,-0.5809411,0.58537054,-0.14176874,0.667708,-0.9707296,-1.8552464,-1.2274696,2.041332,1.8729825,-0.9170679,0.7212338,-0.9319286,-1.8686382,-1.2891022,2.0911715,1.8190204,-0.9044991,-1.2526399,-0.7473546,0.3503327,1.3461295,-0.8276069,0.4507566,-0.15839946,-0.10398483,-0.54829407,0.74934375,-1.4191232,0.01557471,0.09547441,-0.09926987,-0.5524254,0.7173004,0.86774266,-0.07712217,0.100421615,0.48061445,-1.1395636,0.07977275,0.047585078,0.0,1.0,0.0,0.0,0.0,0.0,0.0,-0.54601514,0.14829406,-0.19934374,3.6888123,-4.8669457,6.4213095,-1.3860703,-0.9294152,-1.3357639,1.0287821
-14.797211,41.563114,8.993131,14.805345,0.9911707,-0.1281141,-0.18559992,-0.75358343,-0.36373523,-0.015803337,0.75267494,-0.52538073,0.53239137,-0.12956618,0.64587545,-0.9683021,-1.8702185,-1.2138348,2.0386333,1.8722595,-0.91745573,0.70857185,-0.93928427,-1.8659203,-1.2757014,2.0830386,1.8234184,-0.9059963,-1.2704524,-0.7319038,0.24543871,1.3384525,-0.8084357,0.43691465,-0.14681123,-0.11822128,-0.5479622,0.75005597,-1.4241362,0.037030477,0.062148366,-0.110816956,-0.5516319,0.71756065,0.87255645,-0.081898384,0.10280274,0.47049904,-1.1607724,0.0868615,0.016074926,0.0,1.0,0.0,0.0,0.0,0.0,0.0,-0.5317787,0.14796218,-0.20005596,-1.719141,1.4868736,-10.5614395,-0.6093979,1.9314647,-1.1575222,1.1606961
-25.44173,41.44745,4.270527,18.158916,1.2080729,-0.24170238,-0.42726916,-0.7649442,-0.30583936,-0.17469782,0.7644066,-0.49793273,0.50679606,-0.11568147,0.63207746,-0.9698682,-1.8833901,-1.1992607,2.0332453,1.874098,-0.91756445,0.6956019,-0.9461095,-1.8651879,-1.2622756,2.0752006,1.827698,-0.90737695,-1.3055447,-0.6662445,0.015282136,1.3448555,-0.77520835,0.42519537,-0.13523544,-0.1324997,-0.547493,0.75037915,-1.429225,0.050429158,0.021085639,-0.12269974,-0.55080795,0.7174425,0.87756723,-0.08573963,0.10558898,0.4597559,-1.1974171,0.08917911,-0.023700831,0.0,1.0,0.0,0.0,0.0,0.0,0.0,-0.5175003,0.14749297,-0.20037913,-3.4070969,6.5027,-23.20137,0.8530855,3.4234285,-1.0595739,1.1258006
-30.685184,34.99778,0.06007111,18.664476,1.4850448,-0.3324123,-0.52120256,-0.77630335,-0.31826267,-0.2872173,0.7673614,-0.4381896,0.46196994,-0.11461227,0.61797154,-0.97793573,-1.8939096,-1.1855395,2.0313816,1.8738949,-0.91883814,0.68223906,-0.952336,-1.8671126,-1.2487411,2.0678463,1.8318393,-0.90865386,-1.3460293,-0.6083733,-0.26244462,1.3571614,-0.7219079,0.4103279,-0.12530544,-0.14686203,-0.5469246,0.75018406,-1.4390665,0.059530526,-0.034350883,-0.1350441,-0.54999924,0.71682614,0.8828786,-0.088382,0.10881213,0.44818947,-1.2479063,0.08467577,-0.07670173,0.0,1.0,0.0,0.0,0.0,0.0,0.0,-0.50313795,0.14692459,-0.20018405,-3.9099216,5.713773,-27.983969,1.4703989,5.4574847,-1.4654636,0.9494275
-28.942722,42.983223,3.2476637,19.253998,1.209561,-0.27410346,-0.47722194,-0.78467,-0.24764362,-0.4102299,0.78383833,-0.4442388,0.45643568,-0.07041127,0.60377204,-0.9771004,-1.9081357,-1.1703573,2.0234225,1.8774829,-0.915695,0.6685138,-0.95779485,-1.8718684,-1.2350159,2.0609477,1.8358378,-0.90981156,-1.3809664,-0.5254483,-0.54719824,1.3783934,-0.6792513,0.39613783,-0.11289357,-0.16129303,-0.54621506,0.7495461,-1.4445238,0.074280426,-0.0746116,-0.14783096,-0.54919434,0.71577287,0.88845986,-0.08977021,0.1126014,0.43577647,-1.2885767,0.08926222,-0.116932936,0.0,1.0,0.0,0.0,0.0,0.0,0.0,-0.48870695,0.14621505,-0.1995461,-3.3606768,8.166623,-28.61039,2.3299932,4.301882,-1.4647543,1.1346847
-17.320038,62.46354,14.27498,18.593838,0.6364662,-0.055728793,-0.26129463,-0.7744785,-0.17039622,-0.4229203,0.79502046,-0.43868974,0.46046746,-0.04950752,0.59106594,-0.97483444,-1.9141604,-1.1555138,2.0170786,1.8818846,-0.9147623,0.6545863,-0.9622218,-1.8788321,-1.2210637,2.0543978,1.839714,-0.910839,-1.396597,-0.41585338,-0.745763,1.400958,-0.647527,0.38450417,-0.1000378,-0.17567825,-0.54525757,0.7488174,-1.4364187,0.103357315,-0.07230954,-0.1607933,-0.5481796,0.7146013,0.8941271,-0.09020021,0.11706923,0.4227237,-1.2978297,0.11498091,-0.118906714,0.0,1.0,0.0,0.0,0.0,0.0,0.0,-0.47432172,0.14525756,-0.19881737,-1.525259,10.763561,-19.762861,2.3230553,2.982521,-1.261729,1.0996252
-14.81362,59.9806,14.578112,16.978004,0.60722125,-0.007622957,-0.15251103,-0.79029715,-0.17658237,-0.5146916,0.79042804,-0.4286188,0.42138427,-0.010411049,0.5755566,-0.97988003,-1.9303013,-1.142021,2.011536,1.8818525,-0.91188014,0.6405215,-0.9657838,-1.8874646,-1.2069589,2.0480998,1.8434571,-0.9117212,-1.4097075,-0.33706132,-0.90169334,1.413673,-0.6249021,0.37051547,-0.084901445,-0.18997192,-0.54401016,0.74809,-1.4267784,0.13202196,-0.072552286,-0.17382812,-0.5469055,0.7133866,0.8997552,-0.08984387,0.122108504,0.40921643,-1.3042921,0.14126928,-0.12345822,0.0,1.0,0.0,0.0,0.0,0.0,0.0,-0.46002805,0.14401016,-0.19809002,-1.3000965,7.678151,-15.4152155,1.3064384,2.0127892,-1.5414536,1.3279378
-9.828467,54.473587,14.258434,14.010057,0.540578,-0.022106707,-0.008384354,-0.7810009,-0.19009696,-0.56146884,0.7865649,-0.42194283,0.4212024,0.049119852,0.56242144,-0.9847935,-1.9436115,-1.1283025,2.0059054,1.8855773,-0.9068093,0.6264205,-0.9688918,-1.8972892,-1.1928045,2.0419729,1.847073,-0.91242045,-1.4102823,-0.30265313,-1.0086741,1.4159073,-0.6096166,0.35809484,-0.06546452,-0.20415878,-0.54250336,0.7472809,-1.4158331,0.15760215,-0.08201651,-0.18690109,-0.54540634,0.71206087,0.9052437,-0.08882812,0.12748726,0.39546221,-1.3063576,0.16439645,-0.13634104,0.0,1.0,0.0,0.0,0.0,0.0,0.0,-0.4458412,0.14250335,-0.19728088,-0.078201294,3.2596648,-10.452986,0.23593903,1.2536526,-1.3938189,1.7754331
-6.9414973,57.017258,15.929576,13.208538,0.3512711,0.02610594,0.09262595,-0.78319633,-0.14962295,-0.6128774,0.7874398,-0.45711464,0.40662158,0.124466404,0.5481009,-0.9838541,-1.9585769,-1.1140605,1.9962614,1.8877351,-0.8999738,0.6123376,-0.9716937,-1.9079833,-1.178667,2.0358388,1.8505676,-0.91288394,-1.4077508,-0.27329844,-1.0888054,1.4129382,-0.6153662,0.3461398,-0.040590905,-0.2182045,-0.5407257,0.74641216,-1.4006171,0.18486828,-0.08642949,-0.19992065,-0.54364777,0.7106331,0.9105084,-0.087234735,0.1331688,0.38161588,-1.2995714,0.190584,-0.14524566,0.0,1.0,0.0,0.0,0.0,0.0,0.0,-0.43179548,0.1407257,-0.19641215,0.19803047,2.7469337,-7.6953173,-0.31945705,-0.90664625,-1.3486326,2.300045
-8.11599,40.15033,9.780363,10.453666,0.5264454,-0.08861405,0.12933746,-0.78094715,-0.23021099,-0.6605741,0.78066504,-0.4808408,0.39197776,0.156088,0.53424287,-0.9947148,-1.9740407,-1.1006005,1.9877548,1.8897654,-0.89727515,0.5983014,-0.9746968,-1.9193871,-1.1645962,2.0295327,1.8539443,-0.91309386,-1.4022379,-0.3097042,-1.1568061,1.4051598,-0.6360079,0.33436528,-0.014851567,-0.23215485,-0.5387573,0.7452494,-1.392338,0.20166864,-0.123340815,-0.21298218,-0.5417175,0.70889586,0.91553617,-0.08503975,0.13895342,0.36776862,-1.3054987,0.204158,-0.18336903,0.0,1.0,0.0,0.0,0.0,0.0,0.0,-0.41784513,0.13875732,-0.19524938,0.5379677,-3.7753344,-6.5485477,-0.71980953,-2.3024797,-1.305157,2.4473076
-12.321983,27.917559,4.438576,9.383683,0.6461388,-0.15561008,0.13991499,-0.7930343,-0.2764705,-0.7197279,0.77532077,-0.53889745,0.32020515,0.24220225,0.51899797,-1.0023439,-1.99136,-1.0870641,1.9756429,1.8859649,-0.88887364,0.58426124,-0.9783599,-1.931519,-1.1506187,2.0228417,1.8571594,-0.91300637,-1.4044626,-0.3855109,-1.2313528,1.395856,-0.68035066,0.31689084,0.01633223,-0.24606705,-0.5366745,0.7435335,-1.3905793,0.2111531,-0.1849346,-0.22618866,-0.5397148,0.70660824,0.9203467,-0.08210979,0.14470528,0.3539496,-1.3241254,0.21058911,-0.24388835,0.0,1.0,0.0,0.0,0.0,0.0,0.0,-0.40393293,0.1366745,-0.19353348,-0.18253326,-7.6897383,-7.2730064,-0.77774525,-4.6072006,-1.8612266,3.0314896
-10.709669,34.464336,7.196222,9.809897,0.5579975,-0.035928845,0.18211487,-0.79059476,-0.26437023,-0.72892565,0.7719026,-0.55601054,0.34141186,0.29178885,0.50520176,-1.0047969,-2.0044117,-1.0734284,1.9672407,1.8913006,-0.8838275,0.5701973,-0.9826724,-1.9442501,-1.1367347,2.0156972,1.8602268,-0.91259634,-1.4070634,-0.44693738,-1.2864559,1.386387,-0.72665215,0.30304337,0.048888844,-0.25992966,-0.5344696,0.7412838,-1.3843558,0.22453439,-0.23486236,-0.23953629,-0.53759,0.7038001,0.92491615,-0.07848043,0.15043692,0.34020528,-1.3355383,0.22433458,-0.29348174,0.0,1.0,0.0,0.0,0.0,0.0,0.0,-0.39007032,0.1344696,-0.19128376,-0.25057793,-6.2752304,-5.259943,-0.81796646,-4.8740506,-1.5203416,3.149265
-11.052124,33.17778,6.8689175,9.6331005,0.6728759,0.0011228323,0.17546114,-0.7933479,-0.31817517,-0.74506676,0.7683428,-0.5646738,0.3117393,0.29447907,0.4908625,-1.0144899,-2.0187569,-1.0599004,1.9592298,1.8914007,-0.88314843,0.5560952,-0.9876783,-1.9574177,-1.1229349,2.00814,1.8631498,-0.9118896,-1.4112333,-0.5189034,-1.3259697,1.378254,-0.76595163,0.28821477,0.07769223,-0.27373886,-0.532135,0.73851544,-1.3789765,0.23708259,-0.28791222,-0.2530098,-0.5353241,0.7004861,0.929243,-0.07421513,0.15607618,0.32655737,-1.3498832,0.23904328,-0.3444241,0.0,1.0,0.0,0.0,0.0,0.0,0.0,-0.37626112,0.132135,-0.18851542,-0.4052639,-7.3295536,-3.6906242,-0.65801144,-4.1849375,-1.6384482,2.7943776
-7.564872,37.720364,9.00433,9.107353,0.52906907,0.031412482,0.23717338,-0.7804219,-0.340891,-0.7591549,0.76625896,-0.5981825,0.32299954,0.37770867,0.47805297,-1.0217674,-2.0333333,-1.046309,1.9483218,1.8954498,-0.87411875,0.5420161,-0.99333936,-1.9708881,-1.1092037,2.0001888,1.8659482,-0.9108665,-1.4067956,-0.5823951,-1.3530601,1.3716812,-0.8057348,0.2766477,0.110259615,-0.28746033,-0.5296669,0.73526406,-1.3691229,0.2509309,-0.33400652,-0.26656342,-0.53289795,0.69671494,0.9333016,-0.06938348,0.16160655,0.31307706,-1.3551478,0.2560657,-0.38875976,0.0,1.0,0.0,0.0,0.0,0.0,0.0,-0.36253965,0.1296669,-0.18526405,0.42302608,-6.4886093,-2.4004698,-0.5362749,-4.2752743,-1.3181508,3.1567678
-5.456415,38.140327,9.568815,8.393815,0.5180568,0.051198006,0.25938374,-0.77322155,-0.38769314,-0.76210487,0.7641529,-0.61380273,0.34468707,0.39969414,0.46469393,-1.0321087,-2.0470986,-1.0327884,1.9388086,1.9004169,-0.87089705,0.5280247,-0.9996727,-1.9845269,-1.0955259,1.9918795,1.8686635,-0.90953165,-1.3966633,-0.6508261,-1.3665532,1.3667113,-0.84018743,0.26921386,0.14095643,-0.30107498,-0.5270653,0.731548,-1.357965,0.26408443,-0.38050964,-0.280159,-0.5302849,0.69250536,0.93707854,-0.06406856,0.16698141,0.2998268,-1.3575735,0.27316815,-0.43262237,0.0,1.0,0.0,0.0,0.0,0.0,0.0,-0.348925,0.12706527,-0.181548,0.9786844,-6.978047,-1.0240793,-0.37977695,-3.7498116,-0.9114325,2.9807181
-6.0668974,38.87977,9.712823,8.762817,0.618847,0.09390074,0.243581,-0.7763266,-0.42644083,-0.7637345,0.7664802,-0.628176,0.31868997,0.4257157,0.450392,-1.0423168,-2.0609002,-1.0188779,1.9290619,1.9005326,-0.8669601,0.5141143,-1.0067012,-1.9982285,-1.0818689,1.9832631,1.8712958,-0.907903,-1.3892751,-0.72060466,-1.370346,1.365745,-0.86957693,0.26068315,0.1699244,-0.3145752,-0.52433014,0.7273717,-1.3466126,0.27723396,-0.426503,-0.2937889,-0.5275154,0.6878725,0.9405859,-0.058324818,0.17214677,0.28681305,-1.3614655,0.2922044,-0.4746073,0.0,1.0,0.0,0.0,0.0,0.0,0.0,-0.33542478,0.12433013,-0.17737168,0.70438385,-7.118821,-0.040102005,0.035905838,-3.2617927,-1.0389745,2.8215468
-4.9783616,39.45428,10.067594,8.393169,0.6601083,0.13241196,0.24212922,-0.7675533,-0.46708977,-0.7589422,0.7647086,-0.62696844,0.35239562,0.43768582,0.43735898,-1.0534102,-2.0741227,-1.005398,1.9205663,1.9065354,-0.86413443,0.50029546,-1.0144413,-2.0118997,-1.0682157,1.9744327,1.8738754,-0.9060083,-1.3795549,-0.79224277,-1.365154,1.3655549,-0.8885019,0.25651348,0.19584173,-0.32796097,-0.5214653,0.7227314,-1.3345397,0.28998923,-0.4729302,-0.30744553,-0.5245285,0.6828271,0.9438364,-0.052226186,0.17703943,0.27404776,-1.3641784,0.31236202,-0.51588404,0.0,1.0,0.0,0.0,0.0,0.0,0.0,-0.322039,0.121465296,-0.1727314,0.9295225,-7.303047,0.86853504,0.113630295,-2.2205114,-0.61483383,2.5300236
-5.2164583,39.380833,9.724198,8.043109,0.6313937,0.12596357,0.25354785,-0.7681244,-0.5048734,-0.7621156,0.75569916,-0.6521286,0.28190258,0.47033307,0.423483,-1.0649285,-2.0881112,-0.9926458,1.9092199,1.9020656,-0.858975,0.48655003,-1.0228927,-2.0255175,-1.0546008,1.9654,1.8763696,-0.90386075,-1.373019,-0.8631681,-1.359704,1.3606013,-0.90909284,0.24636567,0.22093321,-0.34122086,-0.5184822,0.7176088,-1.3222485,0.30162683,-0.5217297,-0.32112122,-0.5213394,0.67735744,0.94684255,-0.045760438,0.18162888,0.26154566,-1.3657153,0.33244443,-0.55885524,0.0,1.0,0.0,0.0,0.0,0.0,0.0,-0.30877912,0.1184822,-0.1676088,0.61290264,-7.2319508,0.89337826,-0.3526926,-2.3983717,-1.2177706,2.4544387
-5.7403445,40.07014,9.661106,8.124842,0.66815555,0.15128666,0.24317251,-0.767798,-0.54172134,-0.7572768,0.7545294,-0.65959144,0.24881421,0.4834506,0.40977022,-1.0770649,-2.1012452,-0.9791479,1.8994409,1.901251,-0.8555157,0.47284752,-1.0320385,-2.0390666,-1.041039,1.9561825,1.878742,-0.90148,-1.3694676,-0.93226135,-1.3522485,1.3551701,-0.9268688,0.23345126,0.24366283,-0.35435867,-0.5153885,0.71199405,-1.3096974,0.3128919,-0.5711003,-0.3348236,-0.5179405,0.6714634,0.9496199,-0.038919527,0.18589297,0.24930096,-1.3672032,0.35378912,-0.6014052,0.0,1.0,0.0,0.0,0.0,0.0,0.0,-0.2956413,0.11538848,-0.16199404,0.3160715,-7.0526123,1.0986328,-0.39007664,-2.1299005,-1.5067935,2.226922
-6.331701,41.038445,9.6752825,8.366568,0.74057937,0.17852491,0.22801735,-0.7670812,-0.5772303,-0.75350887,0.75476336,-0.6531197,0.21556231,0.5114193,0.39613938,-1.0897615,-2.1144176,-0.96556264,1.8908706,1.9002982,-0.8503381,0.4591646,-1.0418556,-2.052539,-1.0275211,1.9468484,1.8809677,-0.8988777,-1.3680211,-0.99869215,-1.3442765,1.3513286,-0.9365934,0.21817277,0.26571164,-0.3673706,-0.5121803,0.7058868,-1.2970623,0.32392326,-0.62055665,-0.34853745,-0.5143242,0.6651543,0.95218706,-0.031715717,0.18979743,0.23729917,-1.3693302,0.37670144,-0.64268947,0.0,1.0,0.0,0.0,0.0,0.0,0.0,-0.28262937,0.11218032,-0.15588677,0.107359886,-6.790793,1.154089,-0.22194386,-1.3354778,-1.7596602,2.1692336
-5.749593,34.879597,7.372943,6.328141,0.6078732,0.014508545,0.25240275,-0.7609107,-0.63964397,-0.7676855,0.7388237,-0.67197025,0.024691066,0.5065764,0.3830735,-1.10582,-2.1293077,-0.9536388,1.8796513,1.8834368,-0.84822005,0.4455145,-1.0524452,-2.0660157,-1.0140972,1.9373975,1.8829099,-0.8960828,-1.3640656,-1.0796301,-1.3477923,1.3399417,-0.9488591,0.18557397,0.28409737,-0.38028717,-0.5088959,0.69917554,-1.2884872,0.33056277,-0.68452775,-0.36229324,-0.51052094,0.6583354,0.95457065,-0.024038423,0.19325066,0.22554629,-1.3727742,0.39272672,-0.6972974,0.0,1.0,0.0,0.0,0.0,0.0,0.0,-0.2697128,0.10889587,-0.14917552,0.3784418,-8.220577,-0.057935715,-0.93746185,-1.5381575,-3.4899712,1.8307209
1.2520423,32.391285,7.496337,3.0566325,0.29147112,-0.12163198,0.32799387,-0.7251243,-0.6894009,-0.7723225,0.7291714,-0.66481024,0.005425324,0.509997,0.37300205,-1.1213852,-2.143248,-0.94118005,1.8709165,1.8834524,-0.8450831,0.43206516,-1.0639026,-2.0795686,-1.0008233,1.9278725,1.8845292,-0.89312536,-1.3387083,-1.1678947,-1.3569535,1.3238211,-0.9544825,0.1533363,0.29970184,-0.39310837,-0.50556946,0.6917726,-1.2787573,0.33345774,-0.75516146,-0.3760147,-0.5066376,0.6509121,0.9567751,-0.015853021,0.19615914,0.21412987,-1.3666366,0.39995468,-0.7597096,0.0,1.0,0.0,0.0,0.0,0.0,0.0,-0.2568916,0.10556945,-0.14177257,2.4929285,-8.925772,-0.64406395,-1.4445305,-0.83202124,-3.448525,1.5572906
4.84116,35.156204,8.878966,2.1500204,0.2319504,-0.07444894,0.3448769,-0.7114876,-0.72078377,-0.7657182,0.7170343,-0.6314225,0.038063407,0.49935296,0.3609164,-1.135981,-2.1561403,-0.9291198,1.8647302,1.8883356,-0.8431901,0.4189234,-1.076184,-2.093182,-0.98774415,1.9184165,1.8858796,-0.8900401,-1.3062352,-1.2487193,-1.3617334,1.3029991,-0.9432777,0.12816864,0.31154576,-0.4058075,-0.50221634,0.6836933,-1.2657431,0.336252,-0.82168823,-0.38963318,-0.5026703,0.6428937,0.9588028,-0.0072459355,0.19847177,0.20310946,-1.3538269,0.40696552,-0.8187617,0.0,1.0,0.0,0.0,0.0,0.0,0.0,-0.24419248,0.10221633,-0.13369328,3.1774282,-8.180237,-0.17938614,-1.952815,0.83289146,-2.7587442,1.1798024
11.675613,43.089798,12.305139,1.3917146,0.058774263,-0.03189528,0.39368886,-0.676179,-0.73500687,-0.7600751,0.70383114,-0.608803,0.062309336,0.5141693,0.3513055,-1.1496847,-2.1691897,-0.917361,1.8575362,1.8921106,-0.83862317,0.40621623,-1.089114,-2.1067958,-0.97490174,1.9091625,1.8870299,-0.88684267,-1.2592808,-1.3080753,-1.3600105,1.2780224,-0.92050385,0.10999743,0.32234237,-0.41830826,-0.49883652,0.6750644,-1.2437149,0.33899444,-0.8735852,-0.4030037,-0.4986534,0.634377,0.9606414,0.0016516324,0.20021078,0.19256431,-1.325975,0.41174364,-0.86569226,0.0,1.0,0.0,0.0,0.0,0.0,0.0,-0.23169172,0.09883651,-0.12506437,4.5651674,-6.035733,0.5525589,-2.4718046,1.9194007,-2.0648658,1.0356486
20.453701,54.739048,17.501663,1.4935479,0.03672409,0.08048612,0.41836107,-0.6262271,-0.74236804,-0.72446275,0.7064397,-0.55158085,0.19706824,0.54021204,0.34359354,-1.1633507,-2.1792421,-0.9042578,1.8540044,1.9067367,-0.8328215,0.39412856,-1.1024559,-2.120211,-0.9622546,1.9002997,1.8881301,-0.88353175,-1.1926178,-1.343244,-1.333384,1.259893,-0.8762243,0.10911954,0.333729,-0.43049622,-0.49542618,0.666096,-1.209265,0.34201798,-0.9012802,-0.4159851,-0.49459457,0.6255572,0.96227527,0.010566823,0.20143639,0.18258712,-1.2816567,0.4152657,-0.8905295,0.0,1.0,0.0,0.0,0.0,0.0,0.0,-0.21950376,0.09542617,-0.11609596,6.454563,-3.6230803,3.1765938,-1.9268751,3.9693713,-0.3416583,1.0526359
