Afshin1997/kuka_rl_ros2/src/catch_and_throw/input_files/idealpd/polynomial_regressor/optimizer_files/env_320_data.csv
torque0,torque1,torque2,torque3,torque4,torque5,torque6,action0,action1,action2,action3,action4,action5,action6,set_target_0,set_target_1,set_target_2,set_target_3,set_target_4,set_target_5,set_target_6,joint_pos_0,joint_pos_1,joint_pos_2,joint_pos_3,joint_pos_4,joint_pos_5,joint_pos_6,joint_vel_0,joint_vel_1,joint_vel_2,joint_vel_3,joint_vel_4,joint_vel_5,joint_vel_6,tennisball_pos_0,tennisball_pos_1,tennisball_pos_2,tennisball_lin_vel_0,tennisball_lin_vel_1,tennisball_lin_vel_2,end_effector_pos_0,end_effector_pos_1,end_effector_pos_2,end_effector_rot_0,end_effector_rot_1,end_effector_rot_2,end_effector_rot_3,end_effector_lin_vel_0,end_effector_lin_vel_1,end_effector_lin_vel_2,obs_task_0,obs_task_1,obs_task_2,obs_task_3,obs_task_4,obs_task_5,obs_task_6,to_final_target_0,to_final_target_1,to_final_target_2,joint_acc_0,joint_acc_1,joint_acc_2,joint_acc_3,joint_acc_4,joint_acc_5,joint_acc_6
0.0,0.0,0.0,0.0,0.0,0.0,0.0,0.0,0.0,0.0,0.0,0.0,0.0,0.0,1.7802359,-1.0646509,-1.8151424,-1.1170107,1.9373155,1.1170107,-0.91629785,1.7802359,-1.0646509,-1.8151424,-1.1170107,1.9373155,1.1170107,-0.91629785,0.0,0.0,0.0,0.0,0.0,0.0,0.0,3.1788292,-0.53215027,0.10493617,-3.8382542,0.03555228,5.1541715,0.5304146,-0.45449448,0.693097,0.5745483,0.17512383,0.15255436,0.7848268,0.0,0.0,0.0,1.0,0.0,0.0,0.0,0.0,0.0,0.0,-3.8288293,0.13215026,0.44506383,0.0,0.0,0.0,0.0,0.0,0.0,0.0
0.0,0.0,0.0,0.0,0.0,0.0,0.0,0.0,0.0,0.0,0.0,0.0,0.0,0.0,1.7802359,-1.0646509,-1.8151424,-1.1170107,1.9373155,1.1170107,-0.91629785,1.7802359,-1.0646509,-1.8151424,-1.1170107,1.9373155,1.1170107,-0.91629785,0.0,0.0,0.0,0.0,0.0,0.0,0.0,3.1788292,-0.53215027,0.10493617,-3.8382542,0.03555228,5.1541715,0.5304146,-0.45449448,0.693097,0.5745483,0.17512383,0.15255436,0.7848268,0.0,0.0,0.0,1.0,0.0,0.0,0.0,0.0,0.0,0.0,-3.8288293,0.13215026,0.44506383,0.0,0.0,0.0,0.0,0.0,0.0,0.0
0.0,0.0,0.0,0.0,0.0,0.0,0.0,0.0,0.0,0.0,0.0,0.0,0.0,0.0,1.7802359,-1.0646509,-1.8151424,-1.1170107,1.9373155,1.1170107,-0.91629785,1.7802359,-1.0646509,-1.8151424,-1.1170107,1.9373155,1.1170107,-0.91629785,0.0,0.0,0.0,0.0,0.0,0.0,0.0,3.1788292,-0.53215027,0.10493617,-3.8382542,0.03555228,5.1541715,0.5304146,-0.45449448,0.693097,0.5745483,0.17512383,0.15255436,0.7848268,0.0,0.0,0.0,1.0,0.0,0.0,0.0,0.0,0.0,0.0,-3.8288293,0.13215026,0.44506383,0.0,0.0,0.0,0.0,0.0,0.0,0.0
-176.0,50.516342,-13.8736,110.0,11.142829,4.097601,-3.7816803,-0.8140876,0.2685599,-0.5754759,0.7396923,0.26287118,0.6460037,-0.58337384,1.6988271,-1.037795,-1.87269,-1.0430415,1.9636025,1.1816111,-0.97463524,1.7791544,-1.0629209,-1.821141,-1.1115557,1.9417882,1.1224295,-0.9178514,-0.14379899,0.23009272,-0.7994287,0.7278654,0.59578645,0.720898,-0.20647058,3.1404743,-0.5317955,0.15570277,-3.8344166,0.03551673,5.0508323,0.5283375,-0.4579277,0.6937027,0.57851,0.17357543,0.15111667,0.78253525,-0.2768936,-0.45794967,0.08059856,1.0,0.0,0.0,0.0,0.0,0.0,0.0,-3.7904744,0.1317955,0.39429724,-14.274901,22.831963,-79.864624,72.92633,59.3849,71.598274,-20.457813
-176.0,-46.165764,-51.335724,110.0,12.383421,0.91173023,-2.9942048,-0.8111627,-0.24480896,-0.5517572,0.7071222,0.33887726,0.6326474,-0.57769626,1.6980381,-1.0874019,-1.8763168,-1.0408435,1.975676,1.1856942,-0.975621,1.7781378,-1.0613397,-1.8361919,-1.0959784,1.9502072,1.1359221,-0.9181642,-0.090467386,0.122123405,-1.7104225,1.8354002,0.90865463,1.5237411,0.019966075,3.1021576,-0.53144073,0.20543677,-3.8305829,0.035481222,4.947596,0.5237465,-0.46677113,0.6941474,0.58700323,0.16995507,0.14753932,0.7776725,-0.5206287,-1.0240394,0.03601021,1.0,0.0,0.0,0.0,0.0,0.0,0.0,-3.7521577,0.13144073,0.34456325,4.457958,-14.373675,-82.17816,111.02085,26.676178,69.768074,20.519115
-154.522,111.85852,30.027271,88.62654,8.040432,7.570432,-1.6842444,-0.75729877,0.250989,0.06881208,0.62678003,0.39005575,0.68240225,-0.51376384,1.702408,-1.0362408,-1.8293107,-1.0333004,1.9892128,1.2041624,-0.9695406,1.7739683,-1.0594419,-1.8513076,-1.0760981,1.9594483,1.1510092,-0.9181976,-0.52557,0.20927213,-1.4391154,2.0400472,0.9243483,1.4976176,-0.012396175,3.063879,-0.53108597,0.25413916,-3.826753,0.03544575,4.844463,0.5163021,-0.47846413,0.6960751,0.5982205,0.16479996,0.14270058,0.7711094,-0.82612365,-1.2098858,0.24874035,1.0,0.0,0.0,0.0,0.0,0.0,0.0,-3.713879,0.13108596,0.29586086,-43.47091,7.8018847,28.949047,20.855522,0.07016659,-4.434204,-3.6070797
-101.6469,99.98668,36.916203,52.66865,5.12998,7.2466297,-0.14230531,-0.7621728,0.0010978302,0.1779791,0.641676,0.41215184,0.6511213,-0.5614223,1.697751,-1.0593321,-1.8335097,-1.0119305,2.0006635,1.2161213,-0.9743398,1.7653929,-1.0577883,-1.8608043,-1.0567709,1.9680734,1.1650072,-0.9187202,-0.96881616,0.14863087,-0.77951175,1.8975844,0.8360332,1.3639804,-0.066893265,3.0256386,-0.5307312,0.30181098,-3.8229268,0.03541031,4.741433,0.5063076,-0.49089813,0.69972235,0.61021,0.15850092,0.13659064,0.76411,-1.0694057,-1.2428249,0.4073157,1.0,0.0,0.0,0.0,0.0,0.0,0.0,-3.6756387,0.1307312,0.24818903,-44.568253,-6.6594152,68.10411,-14.068103,-10.565245,-14.318514,-5.846437
-46.745487,120.331726,47.450047,28.107813,2.2699878,6.643093,0.507877,-0.7796435,0.12720703,0.17446968,0.63740003,0.5091257,0.6692842,-0.5456066,1.6874286,-1.0450675,-1.8433573,-0.9930309,2.018986,1.2319356,-0.97328085,1.7531286,-1.0562261,-1.8637245,-1.0400339,1.9759545,1.1775442,-0.9198112,-1.3135077,0.15722054,-0.12353891,1.5987806,0.7678199,1.2157155,-0.12492909,2.9874363,-0.5303774,0.34845328,-3.8191044,0.035374906,4.638507,0.49448013,-0.50275993,0.7048543,0.6218078,0.15128122,0.12941012,0.75744444,-1.2330503,-1.1541984,0.5499653,1.0,0.0,0.0,0.0,0.0,0.0,0.0,-3.6374364,0.13037738,0.20154673,-34.80141,0.41113198,67.37607,-30.009247,-8.118689,-15.193582,-6.32765
-14.142344,109.97526,39.803425,13.602577,0.33430105,4.3830256,0.395521,-0.7990157,0.19412169,0.04312438,0.6472413,0.5121893,0.6557508,-0.56568015,1.6732271,-1.036814,-1.8594121,-0.9753098,2.0271735,1.2431194,-0.9763792,1.7384878,-1.0541929,-1.8622158,-1.0260931,1.9833264,1.1887232,-0.921442,-1.5152588,0.2178119,0.24562578,1.3251382,0.7249568,1.0853841,-0.17715056,2.9492722,-0.5300245,0.3940671,-3.815286,0.035339538,4.5356827,0.48163223,-0.51355267,0.71093005,0.63276213,0.14360043,0.12190765,0.7510856,-1.313996,-1.0416003,0.62578106,1.0,0.0,0.0,0.0,0.0,0.0,0.0,-3.5992723,0.13002452,0.1559329,-20.424534,5.7730346,37.896164,-27.52924,-4.8935056,-12.996912,-5.6455345
8.214113,130.72502,41.76374,10.028946,-1.2693127,3.3595088,-0.09358146,-0.8134723,0.4214461,-0.09061405,0.63222253,0.492685,0.6501101,-0.55358714,1.6571406,-1.0120482,-1.8712772,-0.9628709,2.032595,1.2537342,-0.9768007,1.7227274,-1.0504621,-1.8593872,-1.014279,1.9903874,1.1987559,-0.9235286,-1.5970587,0.4239818,0.2971185,1.1328498,0.6992516,0.97643226,-0.2206996,2.9111462,-0.52967167,0.43865347,-3.8114712,0.035304207,4.4329615,0.4683895,-0.5230169,0.7177737,0.6433424,0.13570963,0.11521566,0.744593,-1.3380411,-0.90231216,0.7017865,1.0,0.0,0.0,0.0,0.0,0.0,0.0,-3.5611463,0.12967166,0.11134654,-8.442283,20.359713,5.741489,-19.38634,-2.764368,-10.711348,-4.8234224
18.08606,133.61565,39.750202,9.361259,-1.7584261,2.511868,-0.37109748,-0.8264417,0.5272395,-0.13786365,0.61086404,0.52888155,0.63001996,-0.5577251,1.6400832,-0.9977382,-1.8731735,-0.9531926,2.0432756,1.2617579,-0.9793011,1.7067133,-1.0442957,-1.857436,-1.0037543,1.997416,1.2078253,-0.9259948,-1.6037306,0.6802152,0.1624051,1.0250756,0.7038314,0.88410264,-0.25668618,2.8730583,-0.5293188,0.48221338,-3.8076603,0.03526891,4.3303432,0.45512962,-0.53113747,0.7253267,0.65383905,0.12775989,0.1099821,0.737615,-1.3303744,-0.76888365,0.77119285,1.0,0.0,0.0,0.0,0.0,0.0,0.0,-3.5230584,0.1293188,0.067786634,-0.92418194,25.40971,-13.046148,-10.935354,0.41463375,-9.088003,-4.0243683
25.70782,127.07758,37.46283,7.3177853,-1.8479278,1.9761701,-0.35033673,-0.8210814,0.5920721,-0.13455752,0.56577975,0.551217,0.6274908,-0.5592,1.6246052,-0.98508847,-1.8708917,-0.9471763,2.0525377,1.2705743,-0.9819148,1.690951,-1.0357069,-1.8571651,-0.9939631,2.0046234,1.2160841,-0.92877287,-1.5677637,0.9179348,-0.01669634,0.96295005,0.7263478,0.8068621,-0.28616586,2.8350086,-0.52896595,0.5247479,-3.8038533,0.035233647,4.2278275,0.44207,-0.5379858,0.7334974,0.66432214,0.11983124,0.10626326,0.7300853,-1.3042554,-0.643177,0.83099407,1.0,0.0,0.0,0.0,0.0,0.0,0.0,-3.4850087,0.12896594,0.025252104,3.3500433,23.597324,-17.513142,-6.4308763,2.2323847,-7.650268,-3.34813
28.693151,119.0843,36.456318,6.846052,-1.477824,1.8891461,-0.19178127,-0.81304795,0.64599776,-0.09089792,0.54196644,0.57455766,0.6365805,-0.5657393,1.6096462,-0.9711071,-1.8662549,-0.93976647,2.0620792,1.2797421,-0.9853468,1.675654,-1.0251249,-1.8582485,-0.9845685,2.0121346,1.2236754,-0.9318103,-1.5177256,1.1043532,-0.13738519,0.9307228,0.7589819,0.743096,-0.3108463,2.796997,-0.5286131,0.566258,-3.80005,0.03519842,4.1254144,0.4292736,-0.5436592,0.74225765,0.674714,0.111860156,0.10370391,0.7221452,-1.2768571,-0.5276739,0.8900306,1.0,0.0,0.0,0.0,0.0,0.0,0.0,-3.4469972,0.12861308,-0.016258001,4.774618,18.492722,-11.632964,-3.475225,3.2263637,-6.395018,-2.8557897
27.830425,108.54908,34.69117,6.9329557,-0.9925177,1.8977406,-0.015353757,-0.80614364,0.6816783,-0.04681027,0.5242675,0.5759304,0.64542246,-0.5679979,1.5950397,-0.9569571,-1.8629295,-0.9321417,2.0697277,1.2882177,-0.9886101,1.6608244,-1.0131487,-1.8598888,-0.97538745,2.0199394,1.2307192,-0.93506235,-1.4720135,1.228506,-0.17124988,0.91310763,0.7870027,0.69106215,-0.33127865,2.7590237,-0.52826214,0.60674477,-3.7962506,0.03516323,4.0231037,0.41669464,-0.5482693,0.751571,0.6848942,0.103737414,0.10183165,0.71399486,-1.2555379,-0.4239413,0.94464827,1.0,0.0,0.0,0.0,0.0,0.0,0.0,-3.4090238,0.12826213,-0.056744754,4.359317,12.288499,-2.9069662,-2.013886,2.745986,-5.271709,-2.4205208
23.162157,95.840485,31.140543,7.614299,-0.49878705,1.7897121,0.08874079,-0.8025818,0.7058339,-0.030557927,0.5136605,0.5850895,0.6530605,-0.5658269,1.5805663,-0.94256526,-1.8629446,-0.9240214,2.0784483,1.2960253,-0.99164504,1.6463476,-1.0003389,-1.8614357,-0.9663266,2.0279846,1.2373167,-0.9384889,-1.4401476,1.298223,-0.14753419,0.9029052,0.81019735,0.6490128,-0.34765214,2.7210884,-0.5279112,0.6462092,-3.792455,0.035128076,3.9208958,0.40425682,-0.5519695,0.7613374,0.69478625,0.09541151,0.10026118,0.70577353,-1.2429425,-0.33697644,0.98671657,1.0,0.0,0.0,0.0,0.0,0.0,0.0,-3.3710885,0.12791118,-0.09620917,2.9964924,6.8680525,2.8527231,-1.2559175,2.2631407,-4.2853594,-1.9926071
19.605902,85.26917,27.858845,7.757875,-0.17464131,1.6300186,0.16319673,-0.79405105,0.72146535,-0.00774425,0.5028376,0.59986985,0.6537832,-0.5599866,1.5669426,-0.9281924,-1.86221,-0.9160428,2.0879717,1.302695,-0.9944876,1.6321093,-0.9871229,-1.8624942,-0.95736206,2.0362434,1.2435519,-0.9420518,-1.4191175,1.3291217,-0.09021925,0.8935362,0.8311548,0.61489725,-0.36026847,2.6831913,-0.52756023,0.68465227,-3.7886631,0.035092954,3.81879,0.39190292,-0.5548973,0.77142656,0.704338,0.086886555,0.0987267,0.6975755,-1.2355543,-0.26296872,1.0154788,1.0,0.0,0.0,0.0,0.0,0.0,0.0,-3.3331914,0.12756023,-0.13465226,1.9318581,3.0074358,6.197254,-1.1604548,2.0463824,-3.471744,-1.5983462
15.557671,75.932846,24.176497,7.6724377,-0.02138877,1.3918908,0.17594564,-0.7947802,0.73265094,-0.0025475812,0.48236915,0.6089354,0.66354114,-0.5653126,1.5526313,-0.9138578,-1.862749,-0.90912515,2.097137,1.309906,-0.9985831,1.6179854,-0.9737638,-1.8629806,-0.9485558,2.0446892,1.2495028,-0.9457254,-1.4107642,1.3380423,-0.033308946,0.8755907,0.84919393,0.5884184,-0.37074018,2.6453323,-0.5272093,0.7220751,-3.7848752,0.03505787,3.7167861,0.3795948,-0.5571718,0.78168267,0.7135364,0.078223035,0.09712189,0.6894304,-1.2307084,-0.20032325,1.0277874,1.0,0.0,0.0,0.0,0.0,0.0,0.0,-3.2953324,0.12720928,-0.1720751,0.67710876,0.8298874,6.119034,-2.0171046,1.7733574,-2.6664376,-1.3583183
15.0724325,70.25797,21.972944,6.360835,-0.06486535,1.18114,0.22883159,-0.79312074,0.7379997,0.023036385,0.44530362,0.62692237,0.66360885,-0.5578054,1.5386733,-0.89996386,-1.860677,-0.90402544,2.1073813,1.3158636,-1.001506,1.6038901,-0.9603952,-1.8629081,-0.94007766,2.0533257,1.2552305,-0.94948286,-1.4096899,1.3362647,0.022277765,0.8377678,0.8685877,0.5676251,-0.37842357,2.6075115,-0.5268583,0.7584786,-3.781091,0.035022818,3.6148844,0.36735153,-0.5588455,0.79196805,0.7223445,0.069499426,0.0954166,0.68138385,-1.2224957,-0.14117359,1.0271723,1.0,0.0,0.0,0.0,0.0,0.0,0.0,-3.2575116,0.12685832,-0.20847857,-0.047922134,-0.2222538,5.964746,-4.013264,1.9235492,-2.0371795,-1.0644138
14.771288,68.74836,21.100262,6.3187423,-0.092668295,1.0806077,0.22612669,-0.7891274,0.74565804,0.045631036,0.43281904,0.6326853,0.6682704,-0.55663437,1.5249773,-0.8858294,-1.858345,-0.89679575,2.116594,1.3220576,-1.0051463,1.5897948,-0.9470457,-1.8623245,-0.9319943,2.0621338,1.2607847,-0.95330423,-1.410057,1.3343533,0.07168787,0.7977562,0.8852067,0.5515227,-0.38432515,2.5697289,-0.52650833,0.7938639,-3.7773106,0.0349878,3.5130844,0.35521126,-0.5599346,0.80222225,0.7307543,0.060742263,0.09362777,0.6734555,-1.2122619,-0.083844356,1.0228394,1.0,0.0,0.0,0.0,0.0,0.0,0.0,-3.219729,0.12650833,-0.24386388,-0.18529892,-0.22714138,5.32045,-4.2250276,1.6621828,-1.5435576,-0.87172985
15.146221,66.96464,19.99044,5.496941,-0.24557549,0.9166359,0.2290587,-0.7911649,0.7508184,0.053936083,0.3953806,0.6302747,0.66527295,-0.54314774,1.5106783,-0.87196386,-1.8569309,-0.89245623,2.1251612,1.327312,-1.007619,1.5756785,-0.9336933,-1.8613555,-0.92440116,2.071064,1.2662016,-0.95716566,-1.4126825,1.3354378,0.106454864,0.74580926,0.8956949,0.5386829,-0.38757536,2.5319843,-0.5261593,0.82823193,-3.773534,0.03495282,3.4113863,0.3432045,-0.5604553,0.8123849,0.73876446,0.051994894,0.0918309,0.66565055,-1.1964957,-0.02673705,1.0117152,1.0,0.0,0.0,0.0,0.0,0.0,0.0,-3.1819844,0.12615928,-0.27823192,-0.40957928,0.082826614,3.8290904,-5.420673,1.0671258,-1.1734724,-0.5908251
18.391373,66.37983,19.51796,3.458971,-0.5332688,0.71818364,0.2692138,-0.78497314,0.75975317,0.05799368,0.34252286,0.6400035,0.66357315,-0.53325224,1.4971812,-0.857718,-1.8555561,-0.8901489,2.1350644,1.3325589,-1.0104909,1.5615641,-0.9202827,-1.8601558,-0.9174708,2.0800934,1.2715098,-0.9610452,-1.4114302,1.342899,0.12563829,0.6745753,0.90542156,0.52871037,-0.38886493,2.494278,-0.52581024,0.86158377,-3.7697613,0.034917872,3.30979,0.33143044,-0.5603771,0.82238865,0.7463442,0.04332205,0.09012179,0.6580057,-1.1695517,0.033710435,0.99394166,1.0,0.0,0.0,0.0,0.0,0.0,0.0,-3.144278,0.12581024,-0.31158376,-0.021028519,0.7329464,2.2480428,-7.356584,1.0065794,-0.82616806,-0.38388968
22.73281,64.74157,18.838673,0.12481499,-0.9161641,0.4601075,0.356105,-0.78563625,0.7673188,0.062473588,0.25436985,0.6548749,0.66813713,-0.53213,1.4830005,-0.84355086,-1.8539084,-0.8920338,2.1455808,1.3383235,-1.0142581,1.547465,-0.9067615,-1.8588455,-0.911538,2.089241,1.2767397,-0.9649314,-1.4098934,1.3551681,0.13397068,0.56525993,0.91779625,0.52200073,-0.38938358,2.4566097,-0.5254612,0.89392036,-3.7659924,0.034882963,3.208295,0.32003975,-0.5596571,0.83213437,0.75342244,0.03482773,0.08858668,0.6506104,-1.1275096,0.09841438,0.96522164,1.0,0.0,0.0,0.0,0.0,0.0,0.0,-3.1066098,0.12546119,-0.34392035,0.0038146973,1.2317657,1.1463225,-11.179304,1.2832642,-0.4117608,-0.29302835
26.776644,63.80114,18.665531,-2.534318,-1.20491,0.26134914,0.4453963,-0.7838582,0.7729592,0.08090862,0.17078064,0.66155124,0.6688408,-0.52312565,1.4690791,-0.8294656,-1.8507546,-0.89445996,2.1553962,1.3436238,-1.017244,1.5333887,-0.89310586,-1.8574264,-0.90691745,2.0985107,1.2819182,-0.9688148,-1.4072486,1.3691126,0.14548975,0.42690867,0.93024135,0.5175876,-0.38864014,2.4189796,-0.52511215,0.9252428,-3.7622273,0.034848087,3.1069016,0.3091545,-0.5582609,0.84154373,0.7599251,0.02659233,0.08727424,0.6435758,-1.0725954,0.16607095,0.9297866,1.0,0.0,0.0,0.0,0.0,0.0,0.0,-3.0689797,0.12511215,-0.37524277,0.12087822,1.4180422,1.4390707,-14.082443,1.3079882,-0.11224747,-0.1506567
33.724842,63.506023,19.302061,-6.815462,-1.6142361,0.0612112,0.62363046,-0.7810443,0.7765902,0.12901613,0.04012828,0.67188,0.6565434,-0.5142861,1.4552844,-0.81544685,-1.8445247,-0.9029046,2.1656988,1.3475726,-1.0202434,1.5193487,-0.87932146,-1.8556964,-0.9040297,2.107914,1.2870566,-0.97268194,-1.403255,1.3816781,0.18298276,0.24192885,0.94368625,0.5140207,-0.3868209,2.381384,-0.5247631,0.95555204,-3.758466,0.034813248,3.0056095,0.29895592,-0.5561247,0.85054463,0.76572037,0.018692087,0.08617809,0.63709986,-0.9994268,0.24128348,0.886834,1.0,0.0,0.0,0.0,0.0,0.0,0.0,-3.031384,0.1247631,-0.40555203,0.26800632,1.3026476,4.014149,-18.734432,1.4260173,0.069749355,-0.026619434
41.00895,62.463543,19.598974,-11.463647,-2.0864408,-0.21295083,0.7871659,-0.7728046,0.782567,0.16395919,-0.10709909,0.6734863,0.6523125,-0.51380336,1.4420683,-0.8010647,-1.8393005,-0.9147396,2.1752627,1.3522878,-1.0240623,1.5053831,-0.86541784,-1.853461,-0.90333545,2.1174278,1.2921683,-0.97653,-1.3945807,1.3935441,0.23782292,0.011158753,0.95471627,0.5117951,-0.38473204,2.3438263,-0.52441597,0.9848491,-3.7547083,0.034778442,2.904419,0.2896328,-0.5531807,0.85904425,0.7706721,0.011221084,0.08531613,0.63139516,-0.9053985,0.3222639,0.8341011,1.0,0.0,0.0,0.0,0.0,0.0,0.0,-2.9938264,0.124415964,-0.43484908,0.7689953,1.259923,5.6803255,-23.284603,1.221025,0.30727386,0.035464764
42.170284,60.06991,18.795256,-12.508547,-2.1677387,-0.44740593,0.81365144,-0.7671798,0.7880614,0.17836854,-0.21735859,0.684708,0.6480454,-0.49757808,1.4286652,-0.7866117,-1.8356242,-0.9250713,2.1858985,1.3569728,-1.0262878,1.4915243,-0.8514017,-1.8506973,-0.90500915,2.12706,1.297259,-0.98034567,-1.3832031,1.4045733,0.28965035,-0.22744118,0.9670044,0.50998586,-0.38083747,2.3063068,-0.52406883,1.0131351,-3.7509542,0.03474367,2.8033295,0.2813034,-0.5494633,0.8669826,0.7747514,0.0042549446,0.084702834,0.62655216,-0.8042792,0.39723,0.77640516,1.0,0.0,0.0,0.0,0.0,0.0,0.0,-2.956307,0.12406883,-0.46313506,1.0846615,1.1998892,5.2657366,-24.025389,1.398325,0.37584305,0.2682805
35.044426,58.329536,17.634174,-7.745468,-1.666349,-0.4420901,0.65736616,-0.7667146,0.79110116,0.19327655,-0.25861707,0.68151754,0.6476073,-0.4657675,1.4148529,-0.77229154,-1.8313696,-0.93087083,2.1952116,1.3620197,-1.0269225,1.4777647,-0.8372921,-1.8474834,-0.9086846,2.1367912,1.3023306,-0.9840993,-1.373843,1.4134737,0.33196485,-0.41473496,0.9755169,0.5077508,-0.3737554,2.2688255,-0.5237217,1.0404109,-3.7472038,0.034708936,2.702341,0.27385712,-0.5451031,0.8744116,0.77809143,-0.0022503345,0.08431488,0.6224625,-0.718889,0.45625263,0.72731954,1.0,0.0,0.0,0.0,0.0,0.0,0.0,-2.9188256,0.12372169,-0.49041086,0.9120941,1.0014772,4.2008457,-18.863796,1.0811806,0.2562046,0.62600374
27.446787,58.5663,17.313568,-1.6373396,-1.0317848,-0.29715025,0.47836798,-0.75811344,0.7944645,0.21892379,-0.280245,0.6856237,0.6487929,-0.43736622,1.4019533,-0.75784564,-1.825591,-0.9367091,2.2053535,1.3672099,-1.027836,1.46411,-0.8231071,-1.843869,-0.9137124,2.146595,1.3073775,-0.9877643,-1.3627273,1.4206513,0.3709287,-0.53255606,0.9829571,0.5050509,-0.36423483,2.2313824,-0.52337456,1.0666776,-3.7434573,0.034674235,2.6014535,0.2671032,-0.54024696,0.8814697,0.7808786,-0.008434099,0.08408807,0.6189398,-0.6547788,0.5016534,0.6939222,1.0,0.0,0.0,0.0,0.0,0.0,0.0,-2.8813825,0.12337455,-0.51667756,1.099205,0.8407116,3.7771344,-11.906367,1.0340571,0.12077093,0.8845568
25.949299,57.214664,17.128368,-0.56691074,-0.8850653,-0.30471903,0.46870992,-0.75504273,0.79046595,0.26699308,-0.3750372,0.6837934,0.6528199,-0.42791954,1.3886057,-0.7440605,-1.8171697,-0.9512161,2.2149744,1.3726594,-1.0305562,1.4505545,-0.8088926,-1.8397586,-0.9198359,2.1564484,1.3124014,-0.99133295,-1.3530396,1.4221427,0.42371303,-0.6394357,0.98719734,0.50292593,-0.35458264,2.1939774,-0.5230274,1.0919362,-3.7397146,0.034639567,2.5006669,0.26095772,-0.5349579,0.8882132,0.7831749,-0.014365402,0.08396093,0.6159393,-0.5946436,0.54334325,0.6627542,1.0,0.0,0.0,0.0,0.0,0.0,0.0,-2.8439775,0.123027414,-0.5419362,0.968647,0.28057098,5.11266,-10.800325,0.74521303,0.16801357,0.91011524
23.731686,58.26233,17.825998,1.6935091,-0.6442282,-0.1804937,0.45211408,-0.7545948,0.79024154,0.3268013,-0.41873434,0.68254584,0.6496124,-0.3993827,1.375095,-0.7298685,-1.8070785,-0.9617094,2.2247028,1.3773626,-1.0312712,1.4370714,-0.7946838,-1.8349483,-0.92687786,2.1663284,1.3174044,-0.9947929,-1.3466974,1.4209417,0.49935764,-0.7261469,0.98938465,0.50062084,-0.34329054,2.1566067,-0.52268124,1.1161878,-3.7359757,0.034604937,2.399981,0.25535393,-0.5292578,0.89470977,0.7850024,-0.020127557,0.08386087,0.61346006,-0.54278696,0.5837733,0.63995326,1.0,0.0,0.0,0.0,0.0,0.0,0.0,-2.8066068,0.12268123,-0.5661878,0.63848495,0.019788742,7.349044,-8.769226,0.5879402,0.1286149,1.0835528
25.038328,59.41088,18.671827,1.5086212,-0.6937892,-0.17726564,0.4892952,-0.7461328,0.793192,0.37844542,-0.4823974,0.6841436,0.64136875,-0.38656732,1.3624581,-0.71536463,-1.7971038,-0.9751176,2.2347429,1.3815413,-1.0334496,1.4236666,-0.78048074,-1.829272,-0.93479717,2.1762238,1.3223807,-0.9981393,-1.3383408,1.4206451,0.589423,-0.8140311,0.9911606,0.4979593,-0.3319517,2.1192741,-0.522336,1.1394333,-3.7322407,0.03457034,2.2993958,0.25027847,-0.5231247,0.90099734,0.7863453,-0.025763594,0.08375347,0.6115411,-0.4886377,0.62728506,0.6194652,1.0,0.0,0.0,0.0,0.0,0.0,0.0,-2.7692742,0.122336,-0.58943325,0.859499,0.119662285,8.7417965,-8.8605995,0.5810857,0.10726452,1.1058927
22.682972,60.182568,18.946707,3.880939,-0.5045125,-0.10594588,0.42680788,-0.73949397,0.79621017,0.4169265,-0.49011967,0.6815029,0.6418735,-0.3596194,1.3497171,-0.7008597,-1.7875794,-0.9838091,2.244374,1.3865681,-1.0341012,1.4103571,-0.7662643,-1.8227012,-0.9433898,2.186123,1.3273321,-1.0013639,-1.328327,1.4225323,0.67861617,-0.87452906,0.99143106,0.49544224,-0.31941277,2.0819798,-0.5219908,1.1616735,-3.7285092,0.034535777,2.1989112,0.2456913,-0.51657104,0.90713507,0.7872413,-0.031338602,0.083626494,0.610144,-0.44176692,0.668575,0.6060851,1.0,0.0,0.0,0.0,0.0,0.0,0.0,-2.7319798,0.12199077,-0.61167353,1.0294914,0.3476143,8.613169,-6.1156034,0.4610896,0.101310015,1.2353659
17.504684,60.64496,18.82976,8.155465,-0.12423122,0.03658077,0.3037649,-0.73788226,0.8003094,0.45289305,-0.46720147,0.6789988,0.64110357,-0.30942306,1.3365688,-0.6862334,-1.7774119,-0.9901099,2.2540228,1.3914425,-1.0323062,1.3971335,-0.75200784,-1.8152969,-0.95225036,2.1960182,1.3322588,-1.0044385,-1.3202195,1.4272672,0.7598022,-0.8901252,0.9905018,0.49276748,-0.3035118,2.0447235,-0.52164555,1.1829097,-3.7247813,0.034501247,2.098527,0.24145508,-0.50964355,0.9132225,0.7877875,-0.036959168,0.083464295,0.6091457,-0.40993348,0.70453995,0.6034823,1.0,0.0,0.0,0.0,0.0,0.0,0.0,-2.6947236,0.12164554,-0.6329097,0.82104206,0.6407738,7.795477,-1.6388297,0.36451817,0.03989339,1.5705585
14.657781,58.71109,18.15104,10.522602,0.09832281,0.044294164,0.23056659,-0.7236551,0.7952574,0.4850888,-0.44892922,0.66428536,0.64115334,-0.23514152,1.324768,-0.67248213,-1.766788,-0.99714327,2.2624466,1.3963741,-1.0279527,1.3840338,-0.7377304,-1.8071659,-0.9610051,2.2058601,1.3371607,-1.007311,-1.3065826,1.4284154,0.829727,-0.87090063,0.9835719,0.49019545,-0.2820326,2.0075035,-0.5213003,1.2031428,-3.7210572,0.03446675,1.998243,0.23748016,-0.5023947,0.91931915,0.7880598,-0.042701147,0.083268434,0.60844445,-0.3860242,0.7347658,0.6052921,1.0,0.0,0.0,0.0,0.0,0.0,0.0,-2.6575036,0.12130031,-0.65314275,1.3714314,0.2857685,6.6625834,1.8266201,-0.23599863,0.02540946,2.1182477
7.3319683,55.380405,16.327787,14.731258,0.5243371,0.1079289,0.08147389,-0.73762786,0.7972479,0.49770308,-0.40706298,0.65870774,0.6368259,-0.16812354,1.310271,-0.6580056,-1.7573955,-1.0017114,2.271731,1.4008433,-1.0241233,1.3709799,-0.7234434,-1.7984931,-0.969303,2.2156143,1.3420321,-1.0099355,-1.3051676,1.4293782,0.8788736,-0.81651276,0.9742599,0.48689815,-0.25607273,1.9703197,-0.5209551,1.2223737,-3.717337,0.034432292,1.8980591,0.23361206,-0.4949274,0.92546815,0.78817683,-0.04861151,0.083057985,0.60787785,-0.37923002,0.7543993,0.6115756,1.0,0.0,0.0,0.0,0.0,0.0,0.0,-2.6203198,0.12095508,-0.6723737,0.10075569,0.264287,4.636383,5.304718,-0.49991608,-0.110685825,2.5573552
3.3621502,50.921005,14.45964,16.286957,0.72492605,0.054744378,0.018277463,-0.74402153,0.79216695,0.5129329,-0.38358417,0.65147096,0.64546245,-0.089997664,1.2965777,-0.6442267,-1.7471999,-1.0076615,2.2807615,1.4065783,-1.0189353,1.3578764,-0.7091764,-1.7894466,-0.9769763,2.2252617,1.3468786,-1.0122625,-1.3123813,1.4263538,0.91261584,-0.7514153,0.9631855,0.4844654,-0.22521342,1.9331741,-0.52061176,1.2406037,-3.7136204,0.034397867,1.7979755,0.22975731,-0.4873209,0.9316615,0.7882157,-0.05468619,0.0828556,0.60733867,-0.37995073,0.76591754,0.6153612,1.0,0.0,0.0,0.0,0.0,0.0,0.0,-2.5831742,0.12061176,-0.6906037,-0.7913828,-0.14224052,3.1474352,6.349969,-0.7127285,-0.058346987,3.0403466
-1.4386759,44.715565,11.495163,17.404968,0.8846621,-0.09316799,-0.08956296,-0.76267695,0.79103935,0.48996815,-0.3563008,0.645619,0.6469499,-0.06522298,1.2816087,-0.6300725,-1.7404498,-1.0126064,2.2898235,1.4115736,-1.0187848,1.3445994,-0.69494855,-1.7803066,-0.98399246,2.2347984,1.3517023,-1.01429,-1.3332931,1.4221666,0.91384363,-0.6856005,0.95162493,0.48222342,-0.19536452,1.8960667,-0.52026844,1.2578335,-3.7099078,0.034363475,1.6979918,0.22584534,-0.4796896,0.937839,0.7882728,-0.06085021,0.08272334,0.60669607,-0.38684794,0.7658002,0.6118635,1.0,0.0,0.0,0.0,0.0,0.0,0.0,-2.5460668,0.120268434,-0.70783347,-2.204752,-0.2710104,-0.024211407,6.387341,-0.82193613,-0.077301264,2.9381812
-5.0067787,41.019943,9.695476,19.095741,1.087533,-0.15350609,-0.18979678,-0.77491343,0.7910863,0.47094965,-0.29982617,0.6486298,0.6532543,-0.039031494,1.267108,-0.6158399,-1.7332116,-1.013975,2.2996614,1.4170277,-1.0181931,1.3310667,-0.6807569,-1.7713401,-0.99025047,2.2442474,1.3565108,-1.0160295,-1.3604357,1.4186447,0.890558,-0.60661465,0.9439642,0.48061275,-0.16708666,1.8589954,-0.5199251,1.2740643,-3.7061985,0.03432912,1.5981082,0.22180939,-0.47212029,0.94397575,0.7884464,-0.067067355,0.08269994,0.6058176,-0.4009041,0.75741625,0.6075752,1.0,0.0,0.0,0.0,0.0,0.0,0.0,-2.5089955,0.11992511,-0.7240643,-2.8596401,-0.21092892,-2.430141,7.678461,-0.46229362,-0.048559904,2.7778535
-7.8021727,38.995472,8.841968,21.408504,1.3466618,-0.1274496,-0.26128685,-0.785605,0.7876857,0.45567083,-0.22229742,0.6483821,0.6520916,0.045925055,1.2525063,-0.6019884,-1.7257731,-1.0124803,2.3090856,1.4217199,-1.0114369,1.3172556,-0.6666063,-1.7627017,-0.99552906,2.253643,1.361302,-1.0174562,-1.388383,1.4143311,0.8546151,-0.50236624,0.9393074,0.47885135,-0.13457678,1.8219604,-0.5195818,1.2892969,-3.702493,0.0342948,1.4983244,0.21756363,-0.464674,0.9501049,0.7888083,-0.073369,0.082771555,0.604605,-0.42383656,0.7437686,0.6080436,1.0,0.0,0.0,0.0,0.0,0.0,0.0,-2.4719605,0.11958179,-0.73929685,-2.9597998,-0.29337406,-3.6802292,10.185671,-0.16230345,-0.09890199,3.1918378
-16.428432,37.608253,8.111956,29.902199,2.2097597,0.22014594,-0.49838313,-0.7967706,0.7789718,0.42484358,-0.023812685,0.6357377,0.6574556,0.14841624,1.2375785,-0.5887091,-1.7202173,-0.9979103,2.3172169,1.4270476,-1.0026145,1.3031794,-0.6525301,-1.754523,-0.9990357,2.2629738,1.3660761,-1.0185109,-1.4147586,1.4058971,0.8052101,-0.30105555,0.9326196,0.47679734,-0.09606764,1.7849636,-0.5192385,1.3035324,-3.6987913,0.03426051,1.3986403,0.21284676,-0.4574356,0.956415,0.78951544,-0.07998524,0.08284855,0.6028299,-0.47938362,0.7208231,0.6321437,1.0,0.0,0.0,0.0,0.0,0.0,0.0,-2.4349637,0.119238466,-0.75353235,-2.8419495,-0.6995201,-5.054331,19.846905,-0.30943155,-0.23203492,3.766945
-30.5509,36.082123,6.9173975,43.702686,3.5389507,0.8242128,-0.92221093,-0.8102461,0.77182585,0.3591805,0.28134662,0.60823154,0.673566,0.22376469,1.2221547,-0.5753475,-1.718605,-0.9709011,2.323797,1.4334327,-0.99613446,1.2888476,-0.63856065,-1.7470634,-0.99935806,2.272171,1.370833,-1.0191575,-1.4401772,1.3944762,0.72546524,0.056324683,0.91742975,0.4746515,-0.054530613,1.7480049,-0.5188961,1.3167717,-3.6950934,0.034226257,1.2990558,0.20717049,-0.4505186,0.9632462,0.7908661,-0.087341495,0.08280987,0.60003734,-0.58794343,0.686023,0.69374317,1.0,0.0,0.0,0.0,0.0,0.0,0.0,-2.398005,0.1188961,-0.76677173,-2.7826786,-0.9936571,-8.167564,35.417305,-1.0602951,-0.43423176,4.0505514
-32.90496,30.557974,4.0484986,43.952538,3.5045605,0.6544546,-1.0710975,-0.8238307,0.7719932,0.23927896,0.38914555,0.58260006,0.6662244,0.18690243,1.2064645,-0.5613613,-1.7231355,-0.9604435,2.330431,1.4374555,-1.0004673,1.2742697,-0.6246866,-1.7408454,-0.99606407,2.2811546,1.3755633,-1.0194532,-1.4643244,1.385505,0.5864423,0.4194561,0.8937321,0.4713501,-0.021455983,1.7110806,-0.5185547,1.3290161,-3.6913989,0.034192037,1.199571,0.20040512,-0.44399548,0.9706316,0.7930353,-0.09548892,0.08274618,0.59592766,-0.6978505,0.6460317,0.74732596,1.0,0.0,0.0,0.0,0.0,0.0,0.0,-2.3610806,0.11855468,-0.7790161,-2.606678,-0.7744312,-14.139676,36.03352,-1.9199133,-0.6132543,3.2350469
-21.766972,29.964426,4.569626,33.632587,2.4232311,0.21251291,-0.7980006,-0.8281709,0.7643709,0.20630544,0.38881794,0.5708865,0.6614782,0.12894782,1.1914526,-0.5482495,-1.7202148,-0.9571823,2.3382432,1.4417111,-1.0065584,1.2594992,-0.6109108,-1.7359817,-0.98997295,2.2898903,1.380263,-1.0195028,-1.4815252,1.3751373,0.45248634,0.67159754,0.86834383,0.46881416,0.0003494287,1.6741943,-0.5182133,1.3402663,-3.6877081,0.034157854,1.1001856,0.19283676,-0.4377823,0.9783311,0.795869,-0.104162246,0.08280386,0.59066594,-0.76801246,0.6204646,0.7715716,1.0,0.0,0.0,0.0,0.0,0.0,0.0,-2.3241944,0.118213266,-0.79026634,-1.8399715,-0.95083714,-13.584339,25.002897,-2.1657944,-0.4342258,2.1181076
-6.833768,29.702707,5.2094817,19.044432,0.9461582,-0.46055508,-0.39525047,-0.8318439,0.7612183,0.1504056,0.33417523,0.5671498,0.6626236,0.087759145,1.1763148,-0.53478897,-1.7209412,-0.9565554,2.3466053,1.4465253,-1.0107268,1.2446066,-0.5972303,-1.7323864,-0.98256576,2.2984009,1.3849512,-1.0194017,-1.4921546,1.3659103,0.328401,0.7631794,0.8462162,0.46894392,0.013154349,1.6373463,-0.51787186,1.3505235,-3.6840212,0.0341237,1.0008997,0.18499565,-0.43173218,0.9859627,0.79905653,-0.1129131,0.08315234,0.584675,-0.780925,0.6080146,0.75484383,1.0,0.0,0.0,0.0,0.0,0.0,0.0,-2.2873464,0.11787185,-0.80052346,-1.1567831,-0.8590698,-12.46438,8.9646225,-1.9646168,0.051629543,1.2109969
10.284433,30.25457,6.881342,2.8624635,-0.6215735,-1.1570249,0.15606508,-0.833354,0.74249953,0.15656544,0.20464112,0.5414822,0.66779315,0.14651181,1.1612712,-0.52298033,-1.7167298,-0.96210164,2.352549,1.4517305,-1.0047505,1.2296511,-0.58370435,-1.7296379,-0.97558296,2.3066597,1.3896605,-1.0191556,-1.4968477,1.34837,0.25738946,0.6759633,0.81922364,0.47277513,0.028191524,1.6005325,-0.51753044,1.3597885,-3.6803381,0.034089584,0.901713,0.1775074,-0.42572212,0.99311465,0.8021871,-0.12125415,0.08392524,0.57857555,-0.72996324,0.6079624,0.6967437,1.0,0.0,0.0,0.0,0.0,0.0,0.0,-2.2505326,0.117530435,-0.8097885,-0.5491495,-1.6952515,-6.9761753,-8.908606,-2.6070476,0.69758296,1.4098357
19.257488,32.710285,8.484567,-4.845402,-1.3762447,-1.5188533,0.45608547,-0.8336573,0.74104315,0.13726534,0.13763781,0.54253185,0.670729,0.2229119,1.1462854,-0.50960004,-1.7159113,-0.9618192,2.3609128,1.4567333,-0.99686444,1.2146803,-0.57033575,-1.7273548,-0.9701308,2.3146935,1.3944193,-1.0187169,-1.4972386,1.3333035,0.2193801,0.5010949,0.79820615,0.47819316,0.048714194,1.563757,-0.517189,1.3680625,-3.6766584,0.0340555,0.8026255,0.17077446,-0.41966915,0.9995633,0.8049846,-0.12889402,0.08517265,0.5728278,-0.6462558,0.61258495,0.6228583,1.0,0.0,0.0,0.0,0.0,0.0,0.0,-2.213757,0.11718902,-0.8180625,-0.097203255,-1.4429331,-3.6098182,-17.645432,-2.0852685,0.9681046,1.9569092
25.275524,33.65224,9.577782,-9.871653,-1.8253871,-1.7864658,0.6962542,-0.82725877,0.7265166,0.14613494,0.027583562,0.518905,0.6801764,0.35918036,1.1319544,-0.4976841,-1.7127413,-0.9673724,2.366584,1.4624369,-0.9827989,1.1997553,-0.55714357,-1.725188,-0.9668292,2.3224983,1.3992392,-1.0179864,-1.4908605,1.3146873,0.21639371,0.27279413,0.7744385,0.48485398,0.08090224,1.5270176,-0.5168495,1.3753463,-3.6729825,0.034021452,0.703637,0.16504097,-0.4135542,1.0052042,0.80726475,-0.13567846,0.08689183,0.5677716,-0.54107165,0.6177066,0.54000866,1.0,0.0,0.0,0.0,0.0,0.0,0.0,-2.1770177,0.11684951,-0.8253463,0.6360531,-1.7854214,-0.12398958,-22.939665,-2.3958325,1.1493862,3.137329
22.221474,31.67272,8.604368,-7.359946,-1.4741867,-1.8313203,0.62264186,-0.8260069,0.7205888,0.10517436,-0.016256953,0.5308153,0.67293775,0.41961077,1.1171546,-0.48508468,-1.7146705,-0.9684549,2.3755798,1.466533,-0.97602534,1.1849066,-0.544124,-1.7231243,-0.96561325,2.3301506,1.4041125,-1.0169069,-1.4828154,1.297982,0.20317867,0.070894726,0.7620642,0.48939642,0.11659003,1.4903145,-0.51651,1.3816409,-3.6693103,0.03398744,0.6047475,0.16027832,-0.40744972,1.0100701,0.809049,-0.14160316,0.08902691,0.56343806,-0.4462694,0.61301845,0.46450654,1.0,0.0,0.0,0.0,0.0,0.0,0.0,-2.1403146,0.116510004,-0.8316409,0.8372545,-1.5833378,-1.2384772,-20.277672,-1.2238503,0.86492896,3.5130143
10.6409645,22.818392,3.9651241,0.88530064,-0.51025647,-1.8048089,0.23494416,-0.82128406,0.712751,-0.025325049,0.013860554,0.5296356,0.6733244,0.45391655,1.1027782,-0.4728489,-1.7256567,-0.9642272,2.383114,1.4714448,-0.9715152,1.1701475,-0.5312618,-1.7217796,-0.9657134,2.3377266,1.4090163,-1.0154783,-1.4734657,1.2826066,0.111483976,-0.037391346,0.7561702,0.49173862,0.15163133,1.4536495,-0.5161705,1.3869474,-3.6656418,0.033953458,0.5059568,0.15619087,-0.40155506,1.0142915,0.8106217,-0.1467672,0.09155809,0.5594363,-0.38764295,0.58494633,0.40390775,1.0,0.0,0.0,0.0,0.0,0.0,0.0,-2.1036496,0.116170496,-0.8369474,0.96268654,-1.4448166,-9.185404,-10.965212,-0.5214453,0.5040169,3.458482
6.0531416,15.661127,0.9049723,2.5209007,-0.17387274,-1.9428864,0.11047222,-0.8244321,0.69328785,-0.076066695,-0.083152294,0.5233046,0.6687279,0.4750792,1.0877043,-0.46193302,-1.7293862,-0.9740286,2.390057,1.4758891,-0.9679703,1.1554476,-0.5185989,-1.721564,-0.9668044,2.345253,1.4139334,-1.0137197,-1.4686654,1.2611084,-0.008498401,-0.13349351,0.7518716,0.4924419,0.18388689,1.4170208,-0.515831,1.3912667,-3.6619768,0.033919513,0.407265,0.1526165,-0.3960476,1.0178969,0.81216675,-0.15115878,0.0944798,0.55552644,-0.34028977,0.54175407,0.3422469,1.0,0.0,0.0,0.0,0.0,0.0,0.0,-2.067021,0.11583099,-0.8412667,0.5163193,-2.0567179,-12.033042,-9.765535,-0.37714243,0.29494762,3.1824975
9.090568,15.714825,1.4320601,-0.7871361,-0.4799896,-2.0896008,0.23218858,-0.82593954,0.67962813,-0.06819672,-0.23168637,0.5002444,0.6662055,0.46843192,1.0728537,-0.4506361,-1.7283838,-0.989973,2.3952775,1.480554,-0.9668765,1.1407667,-0.5061735,-1.7223232,-0.9692048,2.352684,1.4188524,-1.0116788,-1.4675953,1.2366354,-0.09839248,-0.27597988,0.74013865,0.49265346,0.21068422,1.3804283,-0.5154915,1.3945999,-3.6583157,0.0338856,0.3086719,0.14960861,-0.39095974,1.0208248,0.8136591,-0.15467633,0.09778774,0.5517896,-0.2803227,0.49912894,0.2728463,1.0,0.0,0.0,0.0,0.0,0.0,0.0,-2.0304284,0.11549148,-0.8445999,0.17793179,-2.3482084,-9.025212,-14.365655,-1.1561275,0.26237965,2.648446
12.686281,20.542727,3.9177623,-2.294632,-0.75749576,-2.0375276,0.35337204,-0.8214784,0.673269,-0.057113107,-0.32560682,0.46384698,0.66965497,0.4695792,1.0586189,-0.4388466,-1.7280345,-1.0017655,2.3990688,1.4858179,-0.9647209,1.126103,-0.4939698,-1.7236316,-0.9732083,2.3599014,1.4237753,-1.0094033,-1.4655813,1.2152569,-0.1420465,-0.44204587,0.71530354,0.4930103,0.23304868,1.343874,-0.51515293,1.3969479,-3.654658,0.03385172,0.21017733,0.14728165,-0.38621712,1.0230675,0.8150006,-0.157313,0.10147182,0.5483886,-0.21056126,0.46640927,0.20479938,1.0,0.0,0.0,0.0,0.0,0.0,0.0,-1.993874,0.115152925,-0.84694785,0.2944708,-2.0290852,-4.422826,-16.68023,-2.4602652,0.27305484,2.216363
15.526567,26.492226,6.9480658,-2.0923553,-0.96696234,-1.8566661,0.44950444,-0.8152137,0.6628568,-0.025723003,-0.39969736,0.3833915,0.67383623,0.49909177,1.0445817,-0.42768413,-1.7262039,-1.013178,2.3982406,1.491159,-0.9594942,1.1114851,-0.4819659,-1.7249763,-0.9788741,2.3666496,1.4287039,-1.0069124,-1.4602103,1.1957963,-0.1324483,-0.608225,0.66144896,0.49368486,0.25441816,1.307354,-0.51481533,1.3983115,-3.651004,0.033817876,0.111781254,0.14569855,-0.38168716,1.0246797,0.8160912,-0.15916894,0.10554608,0.5454542,-0.1351299,0.4479313,0.14349484,1.0,0.0,0.0,0.0,0.0,0.0,0.0,-1.957354,0.114815325,-0.8483115,0.64058304,-1.8256187,0.85414946,-16.65591,-5.31348,0.29485822,2.1229684
14.349939,27.663559,7.2960443,-0.36217976,-0.9321518,-1.7683243,0.3924588,-0.81659496,0.65972084,-0.05072527,-0.4647595,0.32502866,0.6767498,0.49383318,1.0298257,-0.4159938,-1.7300488,-1.0253501,2.3991525,1.4963789,-0.957529,1.0969092,-0.47011316,-1.7262008,-0.9860858,2.3727303,1.4336382,-1.0042363,-1.456368,1.1821572,-0.11945401,-0.7589348,0.59043735,0.4941921,0.27188557,1.2708721,-0.5144777,1.398692,-3.647354,0.033784065,0.013483548,0.14484787,-0.3773136,1.0257157,0.8169368,-0.16032395,0.1100621,0.54295194,-0.06327486,0.4324802,0.08705707,1.0,0.0,0.0,0.0,0.0,0.0,0.0,-1.9208721,0.114477724,-0.848692,0.4806757,-1.2412548,1.1737257,-15.107286,-7.0092916,0.23528337,1.730299
8.739234,24.245697,5.0636153,3.968401,-0.60876286,-1.7026894,0.16242993,-0.8152569,0.6600796,-0.12685822,-0.48053443,0.23897123,0.6787923,0.49529302,1.0153835,-0.4041052,-1.7388866,-1.0341392,2.3966274,1.5015174,-0.954707,1.0823637,-0.4583434,-1.727639,-0.9944438,2.3779411,1.4385763,-1.0014096,-1.4536757,1.1756163,-0.15238863,-0.86179316,0.49798396,0.49410278,0.28606725,1.2344246,-0.5141401,1.3980904,-3.6437073,0.03375029,-0.08471589,0.144598,-0.37312984,1.0262444,0.8176865,-0.16085373,0.11514208,0.5406081,-0.007440873,0.4111499,0.037970737,1.0,0.0,0.0,0.0,0.0,0.0,0.0,-1.8844246,0.11414012,-0.84809035,0.32680035,-0.54323673,-3.3802867,-10.369658,-9.170383,0.101447105,1.3662994
-0.31252933,14.672843,-0.069000185,9.176921,-0.008466959,-1.7470503,-0.1751185,-0.81642187,0.654997,-0.25424883,-0.4734462,0.1604901,0.6760771,0.4824414,1.0007216,-0.3928437,-1.7530638,-1.0417883,2.39399,1.5061841,-0.95316553,1.0678259,-0.44662464,-1.7300308,-1.0033952,2.3821259,1.4435068,-0.99847424,-1.4536682,1.1708797,-0.26808804,-0.90690607,0.3920658,0.49277717,0.29566076,1.1980152,-0.5138025,1.3965074,-3.6400642,0.033716545,-0.18281713,0.14472008,-0.3692932,1.0263199,0.8186004,-0.1607863,0.12092585,0.53797585,0.022748021,0.3715127,-0.006213271,1.0,0.0,0.0,0.0,0.0,0.0,0.0,-1.8480152,0.11380252,-0.8465074,0.009179115,-0.39348602,-11.551142,-4.674554,-10.5955715,-0.11250377,0.8393109
-4.752571,3.1490998,-4.584031,9.185439,-0.17433114,-1.9036098,-0.30350354,-0.81334376,0.6057835,-0.29554662,-0.5192465,-0.19123451,0.6876618,0.5025917,0.98649156,-0.3860463,-1.7595854,-1.0553199,2.3630023,1.5122731,-0.94821507,1.0532976,-0.43516386,-1.7337196,-1.0127107,2.3843765,1.4484316,-0.99544823,-1.452163,1.138048,-0.4022695,-0.9404904,0.1693919,0.49253562,0.3042524,1.1616421,-0.5134649,1.3939441,-3.636425,0.033682834,-0.2808203,0.14513779,-0.3659439,1.0258734,0.819824,-0.16008307,0.12776792,0.534731,0.0512728,0.31937036,-0.061059818,1.0,0.0,0.0,0.0,0.0,0.0,0.0,-1.811642,0.11346492,-0.84394413,0.22301674,-3.226614,-13.415611,-3.5182595,-22.316563,-0.007933378,0.6471634
-9.953516,2.1742873,-4.832118,16.442402,0.2592004,-1.4817803,-0.48202765,-0.80837977,0.5831872,-0.3252519,-0.4179281,-0.4477395,0.68869764,0.5054308,0.9724597,-0.37684512,-1.7662448,-1.0545034,2.3396025,1.5173013,-0.94490516,1.0388018,-0.42412508,-1.7386348,-1.0217344,2.38385,1.4533564,-0.9923488,-1.4487582,1.0926148,-0.5210234,-0.89050806,-0.12667212,0.49242082,0.3108486,1.1253052,-0.5131283,1.3904016,-3.6327894,0.033649158,-0.3787255,0.14567566,-0.36304092,1.0250293,0.82141805,-0.15898238,0.13589898,0.53059256,0.057361122,0.27668878,-0.09572463,1.0,0.0,0.0,0.0,0.0,0.0,0.0,-1.7753052,0.113128275,-0.8404016,0.31921864,-4.5127153,-11.813122,4.785967,-29.613564,-0.005632639,0.36936402
-19.5041,-6.617231,-7.973056,26.129295,1.5367718,-1.093346,-0.7144859,-0.80659586,0.52091366,-0.3972345,-0.2637077,-0.5960219,0.6830049,0.5345009,0.9581422,-0.37203372,-1.7783582,-1.0481051,2.3242478,1.5216569,-0.9388987,1.0243422,-0.4137677,-1.7447307,-1.0294439,2.3803253,1.4582754,-0.98917305,-1.4455111,1.0167516,-0.6385341,-0.7319989,-0.42768776,0.49179146,0.31864038,1.0890045,-0.5127926,1.3858807,-3.6291573,0.033615515,-0.4765328,0.1459446,-0.36061,1.0240266,0.823462,-0.1578281,0.14520004,0.52527857,0.018077355,0.22773357,-0.10513707,1.0,0.0,0.0,0.0,0.0,0.0,0.0,-1.7390045,0.11279258,-0.8358807,0.20968914,-7.609129,-11.606943,15.579212,-30.095364,-0.060731173,0.43965578
-27.751001,-2.1838038,-6.337752,41.692917,3.2323859,-0.2440416,-0.99805766,-0.79997337,0.49817035,-0.4494464,0.015175072,-0.63920945,0.6709843,0.5564519,0.9443448,-0.36395067,-1.7896754,-1.0279263,2.3164043,1.5253738,-0.9335279,1.0099264,-0.40416706,-1.7519176,-1.0343419,2.3742485,1.4631792,-0.9859077,-1.4412316,0.9408762,-0.74446553,-0.41013682,-0.66777015,0.4899018,0.32829997,1.0527401,-0.5124569,1.3803825,-3.625529,0.033581905,-0.5742423,0.14539719,-0.3585329,1.0233374,0.82603025,-0.15720563,0.15528917,0.5185033,-0.07757367,0.1974794,-0.059834056,1.0,0.0,0.0,0.0,0.0,0.0,0.0,-1.7027401,0.11245689,-0.8303825,0.11618137,-7.666898,-10.322118,31.842304,-23.964273,-0.19267797,0.6879151
-32.179375,-15.263455,-10.435473,42.540783,4.2756457,-0.395662,-0.9596099,-0.8011978,0.3938786,-0.50217855,0.09399981,-0.6261711,0.67019355,0.5768369,0.92980665,-0.3647792,-1.8021355,-1.0249419,2.3116314,1.5301986,-0.92822397,0.99554825,-0.39563644,-1.7601097,-1.0359918,2.3664398,1.468064,-0.9825326,-1.4371561,0.8234645,-0.8438242,-0.08378764,-0.81850016,0.48802963,0.3399688,1.0165119,-0.5121212,1.3739079,-3.6219041,0.033548333,-0.6718542,0.14369774,-0.35692978,1.0230973,0.8291129,-0.15722907,0.16561887,0.51031476,-0.19945179,0.14511321,-0.014317261,1.0,0.0,0.0,0.0,0.0,0.0,0.0,-1.6665119,0.112121195,-0.8239079,0.27959347,-11.840761,-9.845913,32.414616,-15.016651,-0.18742085,0.9794712
-23.051472,-5.8432417,-4.4680176,37.985096,4.0962167,-0.31327662,-0.5608746,-0.7925289,0.3431113,-0.4078663,0.14403138,-0.5851876,0.66693175,0.5593744,0.91629535,-0.36132532,-1.8008963,-1.0215887,2.3079212,1.5347571,-0.9265952,0.98124313,-0.38831794,-1.7685707,-1.0348741,2.3577843,1.4729296,-0.9790555,-1.4283946,0.7010759,-0.84689665,0.17673852,-0.8814316,0.4858082,0.3501535,0.98032,-0.5117855,1.3664579,-3.618283,0.03351479,-0.7693685,0.1409092,-0.3557291,1.0232937,0.8324601,-0.15785666,0.17566039,0.50123316,-0.3032515,0.11028483,0.029334366,1.0,0.0,0.0,0.0,0.0,0.0,0.0,-1.63032,0.1117855,-0.8164579,0.829339,-12.311888,-0.30299425,25.964672,-6.245184,-0.24445653,0.96926093
-19.939367,-34.401215,-12.382503,19.852663,3.7412148,-1.4905897,-0.048172366,-0.7826245,0.14209381,-0.3955289,0.019315317,-0.55368215,0.66259205,0.5416667,0.9029807,-0.37410855,-1.8081236,-1.0329425,2.302416,1.5391889,-0.92488885,0.96708107,-0.38288057,-1.7767589,-1.0325776,2.348957,1.4777743,-0.9754993,-1.4110594,0.4913681,-0.81052655,0.24744587,-0.8828105,0.48392835,0.35746643,0.9441643,-0.5114498,1.3580335,-3.6146655,0.033481285,-0.86678535,0.13723183,-0.3553362,1.0234275,0.83585256,-0.15845698,0.18485169,0.49200788,-0.38780203,0.015507791,0.0069557237,1.0,0.0,0.0,0.0,0.0,0.0,0.0,-1.5941643,0.11144981,-0.8080335,2.0570278,-20.957691,3.296554,7.1654053,-0.04426241,-0.15806556,0.71666837
-25.253826,-78.26923,-25.20016,6.6338463,4.3577266,-2.5430744,0.31336692,-0.7668278,-0.15198913,-0.30885714,-0.016202677,-0.52797705,0.6600756,0.50561917,0.89039826,-0.39807948,-1.8076446,-1.0341979,2.2961593,1.5437819,-0.92493737,0.95316505,-0.38059747,-1.7841232,-1.0304586,2.3403778,1.482598,-0.97190297,-1.382913,0.1408366,-0.71415937,0.20103483,-0.84948236,0.48172,0.36045742,0.9080448,-0.511116,1.3486358,-3.6110516,0.03344781,-0.9641047,0.1325512,-0.35646343,1.0229237,0.8392047,-0.15839691,0.19243829,0.48333552,-0.49395514,-0.15452984,-0.070041806,1.0,0.0,0.0,0.0,0.0,0.0,0.0,-1.5580448,0.11111602,-0.7986358,3.487587,-34.98533,8.939421,-4.3521137,3.5011053,-0.22656322,0.35316348
-23.60023,-127.485214,-39.007446,-20.21711,3.6670308,-4.250959,1.0284189,-0.72926474,-0.49521396,-0.19098142,-0.37015063,-0.49568397,0.6568928,0.46290207,0.8802386,-0.43011886,-1.8032213,-1.0674736,2.2908094,1.5482873,-0.92561275,0.9396763,-0.38293397,-1.7900493,-1.0307657,2.3322601,1.4873816,-0.96831715,-1.3348186,-0.35817856,-0.5545258,-0.10640404,-0.7990805,0.47626144,0.35814357,0.8719616,-0.51078224,1.3382655,-3.6074414,0.03341437,-1.0613267,0.12694359,-0.36001778,1.0208867,0.8423827,-0.15668263,0.19768591,0.47619537,-0.5832869,-0.42044988,-0.24841994,1.0,0.0,0.0,0.0,0.0,0.0,0.0,-1.5219616,0.110782236,-0.7882655,5.6291103,-49.81556,15.18408,-30.311617,5.1504135,-0.8777797,-0.16831756
-10.435766,-124.19301,-35.58663,-36.754196,1.9288642,-4.6913753,1.6037675,-0.6850367,-0.66923004,-0.062980026,-0.6697483,-0.48990458,0.6679814,0.45778832,0.8711726,-0.449857,-1.7963473,-1.0977405,2.2832696,1.5541797,-0.92253834,0.9267912,-0.39025533,-1.7939708,-1.0355073,2.3245964,1.4920927,-0.9647647,-1.2716763,-0.85694027,-0.33904997,-0.595362,-0.7558823,0.4662107,0.35445917,0.8359146,-0.51044846,1.3269237,-3.6038346,0.033380963,-1.1584516,0.120866776,-0.3662529,1.016678,0.8451512,-0.1526489,0.20039509,0.47144395,-0.61889744,-0.6881866,-0.47889036,1.0,0.0,0.0,0.0,0.0,0.0,0.0,-1.4859146,0.11044845,-0.7769237,6.733513,-49.93031,21.242601,-48.514294,4.183638,-1.9439697,-0.32453537
4.1397266,-77.97827,-20.108223,-33.153687,0.3397357,-3.7824621,1.5808606,-0.58636314,-0.718034,-0.06963683,-0.7417122,-0.5728463,0.64647406,0.46286064,0.8681549,-0.46205872,-1.8009346,-1.1096785,2.2673118,1.5567402,-0.91847867,0.9148655,-0.40158594,-1.796128,-1.0448438,2.3170128,1.4966799,-0.96124566,-1.166379,-1.2256476,-0.17445676,-1.0456619,-0.75970674,0.4524235,0.35121152,0.79990196,-0.51011467,1.3146114,-3.6002316,0.033347588,-1.2554793,0.114851,-0.3745718,1.0103573,0.84735465,-0.14645106,0.20111088,0.46914452,-0.60036504,-0.8749758,-0.6849615,1.0,0.0,0.0,0.0,0.0,0.0,0.0,-1.4499019,0.110114664,-0.7646114,10.490203,-37.0394,16.523119,-44.78029,-0.5989671,-2.5413334,-0.28377175
16.252022,-21.532738,-1.6556568,-20.022589,-0.6131424,-2.33881,1.2952894,-0.47793207,-0.7482375,-0.07382808,-0.75693226,-0.6395096,0.6510141,0.47452825,0.8670723,-0.47640967,-1.8035108,-1.120537,2.2530618,1.5617813,-0.91379285,0.90432835,-0.41543424,-1.7971828,-1.0575982,2.309101,1.5011584,-0.9577447,-1.0172038,-1.4383368,-0.08206872,-1.3516155,-0.80160373,0.44355613,0.34990382,0.76392746,-0.5097809,1.3013296,-3.596632,0.033314247,-1.3524101,0.10931778,-0.38400364,1.0024453,0.84891176,-0.1387956,0.20063469,0.46886072,-0.5426166,-0.9590397,-0.8298483,1.0,0.0,0.0,0.0,0.0,0.0,0.0,-1.4139274,0.10978088,-0.7513296,14.599919,-21.396328,9.36593,-30.48389,-4.2668343,-1.7115176,-0.039464235
20.745743,26.65354,13.569863,-2.8395295,-0.6870536,-0.8251267,0.8843953,-0.44549325,-0.75380576,-0.026390126,-0.7572522,-0.6524573,0.6593575,0.48191443,0.859779,-0.4908148,-1.7998219,-1.1333234,2.2438555,1.5670941,-0.9095533,0.8951855,-0.43037736,-1.7975681,-1.0722104,2.300724,1.5055968,-0.9542457,-0.88072526,-1.5130001,-0.024227895,-1.4976914,-0.8492859,0.44339,0.35051587,0.7279873,-0.50944805,1.2870792,-3.5930362,0.03328094,-1.4492439,0.10442734,-0.39361572,0.9936384,0.84983605,-0.13054398,0.19963585,0.46998122,-0.47517118,-0.95259166,-0.90182483,1.0,0.0,0.0,0.0,0.0,0.0,0.0,-1.3779873,0.109448045,-0.7370792,13.390422,-7.476425,5.6703196,-14.5720005,-4.6762466,-0.23236275,0.24077892
11.158399,42.773376,15.539482,11.906805,0.12945673,-0.058923066,0.32509655,-0.46880355,-0.76878744,-0.07750995,-0.76109797,-0.62936336,0.6452428,0.4726104,0.8483051,-0.5072561,-1.8053191,-1.1483202,2.2377877,1.570121,-0.9069846,0.8869486,-0.4454745,-1.7979133,-1.0874006,2.2920074,1.5100523,-0.9507457,-0.80452406,-1.5085211,-0.03890974,-1.5257615,-0.8790208,0.44678432,0.3503731,0.69208336,-0.5091162,1.2718612,-3.589444,0.033247665,-1.5459809,0.099962234,-0.40294266,0.98446363,0.85036033,-0.12221836,0.1985467,0.4717298,-0.43975592,-0.9156235,-0.927125,1.0,0.0,0.0,0.0,0.0,0.0,0.0,-1.3420833,0.10911617,-0.7218612,7.651961,0.47578812,-1.778847,-2.6940584,-2.9265046,0.46769977,0.16935468
15.401617,66.97973,25.837887,20.143606,0.33320665,0.8541316,0.3012745,-0.4263873,-0.7661815,0.10688837,-0.75701624,-0.64105695,0.65816534,0.48326105,0.84430987,-0.52209264,-1.7872245,-1.1631021,2.2279017,1.5758688,-0.90241957,0.87930965,-0.46022308,-1.7977283,-1.1023675,2.2830658,1.5145746,-0.9472343,-0.7498816,-1.4631854,0.035927232,-1.4870353,-0.898994,0.4558308,0.35236284,0.65621567,-0.5087843,1.2556765,-3.5858552,0.033214424,-1.6426213,0.09587097,-0.41153526,0.9753791,0.85048157,-0.11437219,0.19748048,0.47392154,-0.40043524,-0.83023185,-0.90649676,1.0,0.0,0.0,0.0,0.0,0.0,0.0,-1.3062156,0.10878429,-0.7056765,5.5696487,4.652214,6.9432936,3.9079905,-1.8091083,1.4132023,0.49130917
9.659804,60.38919,21.908716,22.41805,0.72714,0.64114606,0.08542142,-0.37862906,-0.77259076,0.002955581,-0.74579763,-0.641649,0.64939964,0.45308298,0.84144676,-0.53748214,-1.7974328,-1.1769472,2.218901,1.5795146,-0.901926,0.8722048,-0.47450912,-1.7972858,-1.1167413,2.273983,1.5191771,-0.94372857,-0.69698894,-1.4167414,0.04567824,-1.4206257,-0.9107014,0.46311074,0.3507165,0.6203842,-0.5084524,1.2385261,-3.5822701,0.033181217,-1.739165,0.092048645,-0.41940403,0.9665191,0.8503131,-0.107101254,0.196497,0.47632542,-0.37752166,-0.76268923,-0.8827487,1.0,0.0,0.0,0.0,0.0,0.0,0.0,-1.2703842,0.10845241,-0.6885261,5.4064393,4.7350407,0.5626224,6.721115,-1.0824919,1.1737943,0.07120371
4.449588,46.394695,15.162096,20.695454,0.9541702,0.099648,-0.046398915,-0.32273084,-0.77790713,-0.10758368,-0.7362915,-0.63380784,0.64920783,0.45426863,0.8399317,-0.55229986,-1.8080442,-1.1903704,2.2106023,1.5840979,-0.8983017,0.86573124,-0.48844945,-1.7973926,-1.1304647,2.2648506,1.5238329,-0.9402448,-0.6306105,-1.3863802,-0.030096045,-1.3556485,-0.91415846,0.4674889,0.3481665,0.584589,-0.50812054,1.2204111,-3.5786886,0.033148043,-1.8356122,0.088350296,-0.4268465,0.95776993,0.85002756,-0.10016334,0.19560893,0.478704,-0.36787525,-0.7286225,-0.87528104,1.0,0.0,0.0,0.0,0.0,0.0,0.0,-1.234589,0.10812053,-0.67041105,6.7034483,3.070569,-7.7780375,6.6221,-0.37641525,0.6907761,-0.10418296
-4.7503777,25.97847,4.6257887,17.929586,1.2251406,-0.5841098,-0.21950558,-0.3088129,-0.7826445,-0.26470968,-0.74351203,-0.62876856,0.64530206,0.45789889,0.83484995,-0.5667139,-1.8238636,-1.2048159,2.2019737,1.5883632,-0.8944549,0.859848,-0.50223386,-1.799052,-1.1437207,2.255722,1.5285097,-0.9367877,-0.57399476,-1.3760037,-0.21136245,-1.3149853,-0.9131635,0.46767694,0.34497666,0.5488281,-0.50778866,1.2013323,-3.5751107,0.033114903,-1.9319628,0.08459091,-0.43427086,0.94886434,0.8498362,-0.093117766,0.1948386,0.4807758,-0.37994754,-0.73830545,-0.8986037,1.0,0.0,0.0,0.0,0.0,0.0,0.0,-1.1988281,0.10778865,-0.6513323,5.7509184,0.9886265,-18.155678,4.2872667,-0.083100796,0.0050365925,-0.27689934
-5.753294,15.592598,0.0033802986,13.653828,1.1200688,-1.032483,-0.19174841,-0.24797378,-0.791839,-0.37396356,-0.74997044,-0.62027633,0.638146,0.45473132,0.83505064,-0.58141774,-1.8364483,-1.2187178,2.1936944,1.5923244,-0.89131457,0.85464764,-0.51605165,-1.8028877,-1.1567708,2.2466354,1.5331694,-0.933365,-0.501828,-1.3839077,-0.4406186,-1.3008016,-0.90789086,0.46458602,0.34132066,0.5131035,-0.50745773,1.1812906,-3.5715363,0.033081792,-2.028217,0.0806942,-0.44196415,0.9395458,0.8498228,-0.08560505,0.19414873,0.48247185,-0.39326373,-0.7715497,-0.9461389,1.0,0.0,0.0,0.0,0.0,0.0,0.0,-1.1631035,0.10745773,-0.6312906,7.26887,-0.88243484,-22.84966,1.6717911,0.2929926,-0.5048454,-0.37167668
-10.074124,12.174723,-1.6580389,14.290287,1.3892459,-0.86773175,-0.1929692,-0.2854942,-0.80162513,-0.39844087,-0.7482616,-0.61236936,0.64278316,0.4523411,0.8260982,-0.5962142,-1.8427317,-1.231597,2.1853986,1.5974478,-0.8881309,0.84984493,-0.5300354,-1.8087261,-1.1697904,2.2376251,1.5377966,-0.92997754,-0.4725339,-1.4036721,-0.6318978,-1.3012518,-0.8997936,0.46122792,0.33798757,0.47741508,-0.50712776,1.1602871,-3.5679655,0.03304872,-2.1243749,0.07655716,-0.4499874,0.9297208,0.8500029,-0.07752662,0.19344246,0.48380217,-0.42046645,-0.8042237,-0.99855244,1.0,0.0,0.0,0.0,0.0,0.0,0.0,-1.1274151,0.107127756,-0.61028713,3.1059742,-2.0966291,-19.160414,0.2739668,0.5516052,-0.5766094,-0.3226161
-17.092491,12.390121,-2.4848552,17.196644,1.7798378,-0.46121538,-0.24401936,-0.36449772,-0.80206454,-0.42815608,-0.7609183,-0.60674375,0.62246823,0.45875,0.81339514,-0.61024183,-1.8515416,-1.2458823,2.1769507,1.6000434,-0.8841025,0.8447952,-0.5442127,-1.8160541,-1.1829244,2.2286987,1.5423781,-0.926613,-0.5146009,-1.4228344,-0.7671908,-1.3159734,-0.89109975,0.4561267,0.33601147,0.44176102,-0.5067978,1.1383228,-3.5643983,0.033015676,-2.2204368,0.07200241,-0.4582615,0.91939765,0.8504031,-0.068893954,0.19265315,0.4847193,-0.46749192,-0.8266346,-1.0480397,1.0,0.0,0.0,0.0,0.0,0.0,0.0,-1.091761,0.106797785,-0.5883228,-3.8383186,-2.0651102,-13.7245655,-1.0681868,0.56312084,-0.7477224,-0.1656115
-19.792677,19.794653,0.8001814,20.442986,2.0429626,0.13816005,-0.22443238,-0.42620748,-0.8026603,-0.40502557,-0.7634651,-0.5960498,0.61318046,0.45495844,0.80217445,-0.6244787,-1.8565567,-1.2592709,2.1690938,1.6036961,-0.8811171,0.83893585,-0.5585407,-1.8241088,-1.1962243,2.2198753,1.546908,-0.9232646,-0.6080668,-1.436576,-0.81931657,-1.3331512,-0.8802618,0.45139155,0.3346894,0.4061432,-0.5064678,1.1153986,-3.5608346,0.03298267,-2.3164024,0.06690788,-0.46658993,0.90869427,0.85099643,-0.05987284,0.19170497,0.485252,-0.52377045,-0.82594776,-1.0826832,1.0,0.0,0.0,0.0,0.0,0.0,0.0,-1.0561432,0.10646781,-0.56539863,-8.869255,-1.5241146,-5.547583,-1.2934923,0.77747107,-0.6287873,-0.04940033
-26.12365,23.485535,1.2923753,24.213572,2.4197495,0.6027198,-0.3038392,-0.5227964,-0.79869264,-0.42615098,-0.7666499,-0.58974606,0.6105342,0.46677706,0.7866562,-0.63841,-1.8667239,-1.2728894,2.1609008,1.6079614,-0.8765869,0.8317604,-0.57293737,-1.8323982,-1.2096769,2.2111588,1.551396,-0.9199172,-0.7521252,-1.4412532,-0.83339417,-1.3477957,-0.8696568,0.44744802,0.3351011,0.3705616,-0.50613785,1.0915155,-3.5572746,0.032949694,-2.4122722,0.061128616,-0.47481537,0.89772666,0.85180116,-0.050598968,0.19057375,0.48534116,-0.5968705,-0.8114745,-1.10653,1.0,0.0,0.0,0.0,0.0,0.0,0.0,-1.0205616,0.10613784,-0.5415155,-13.815487,-0.6365061,-1.8320918,-0.9883642,0.71377754,-0.509423,0.1439929
-31.994879,21.364285,-1.2187238,25.645773,2.6833243,0.6785753,-0.41539916,-0.591178,-0.80105376,-0.512169,-0.7696736,-0.5762438,0.6049168,0.4484846,0.7726426,-0.65304273,-1.883615,-1.2866442,2.1535344,1.6118877,-0.8750688,0.8230381,-0.58735406,-1.8410385,-1.2232438,2.202568,1.555844,-0.9165784,-0.9101807,-1.4424561,-0.8755882,-1.3578675,-0.8571102,0.4430995,0.33384845,0.33501434,-0.5058079,1.0666745,-3.553718,0.03291675,-2.5080462,0.05450821,-0.48292255,0.88650054,0.8528948,-0.041042022,0.18926412,0.48483518,-0.684917,-0.7997014,-1.1329952,1.0,0.0,0.0,0.0,0.0,0.0,0.0,-0.9850143,0.10580787,-0.51667446,-15.175009,-0.32126904,-4.623246,-0.46565533,0.8503556,-0.60756207,-0.03300309
-36.22446,20.270144,-3.337431,26.382359,2.8384538,0.6957734,-0.5178777,-0.6618085,-0.792254,-0.59636515,-0.76630956,-0.5572074,0.61407936,0.42491704,0.7568573,-0.6665795,-1.9006749,-1.2998748,2.1468472,1.6172519,-0.87408674,0.81274986,-0.601725,-1.8504322,-1.2368528,2.19413,1.5602537,-0.91326916,-1.0662835,-1.4360796,-0.96153814,-1.3600001,-0.84053063,0.43949914,0.3300959,0.29950333,-0.5054798,1.0408764,-3.5501652,0.03288384,-2.6037245,0.04693222,-0.49093914,0.87497735,0.8543565,-0.03110925,0.18780445,0.48356637,-0.7834411,-0.79090697,-1.1636626,1.0,0.0,0.0,0.0,0.0,0.0,0.0,-0.9495033,0.10547981,-0.49087638,-14.976418,0.40466785,-8.934188,0.37789345,1.194346,-0.6097555,-0.3044963
-35.9418,21.282299,-3.446861,25.474112,2.7313614,0.6986654,-0.5387424,-0.7132042,-0.7886455,-0.6629911,-0.7630586,-0.5604326,0.61933357,0.3634699,0.74142945,-0.68058956,-1.9167312,-1.3131586,2.1380868,1.6221871,-0.8769222,0.8010626,-0.616011,-1.8608997,-1.2504388,2.1858253,1.564633,-0.91004384,-1.2008827,-1.4268932,-1.0760697,-1.3560098,-0.82892627,0.4363867,0.32023,0.26402855,-0.50515175,1.0141222,-3.5466156,0.032850962,-2.699307,0.038389206,-0.4988718,0.8631144,0.8562071,-0.02074091,0.1862158,0.4814592,-0.88036865,-0.78131837,-1.1987764,1.0,0.0,0.0,0.0,0.0,0.0,0.0,-0.9140285,0.10515174,-0.46412224,-12.877512,0.6714821,-11.715913,0.99885464,0.6801605,-0.6225765,-0.9319365
-30.231524,26.682774,0.003909111,23.474995,2.5088103,0.7900219,-0.4352467,-0.7446963,-0.7855282,-0.6917763,-0.7620993,-0.51118207,0.6083822,0.3102666,0.72659296,-0.69456387,-1.9300773,-1.3266487,2.1347072,1.6254712,-0.8790172,0.7882881,-0.6302017,-1.8724468,-1.2639714,2.1777534,1.568976,-0.906952,-1.3014205,-1.4171824,-1.181591,-1.3505359,-0.8014234,0.43276247,0.30578429,0.2285881,-0.5048237,0.986413,-3.5430698,0.03281812,-2.794794,0.02897644,-0.50665665,0.8509201,0.8583795,-0.009980969,0.18441841,0.47861755,-0.9642794,-0.7637518,-1.2314577,1.0,0.0,0.0,0.0,0.0,0.0,0.0,-0.8785881,0.10482368,-0.436413,-9.57768,0.74226856,-10.753131,1.0889053,2.3164272,-0.67065954,-1.364702
-24.331148,34.350735,4.802493,22.514477,2.285485,1.0256357,-0.33420923,-0.7827089,-0.77863497,-0.7004675,-0.7482083,-0.4931065,0.60765684,0.259607,0.7100172,-0.7080652,-1.9424936,-1.3387923,2.1284428,1.6297417,-0.88099134,0.7746916,-0.64428365,-1.8848064,-1.2773935,2.1699867,1.5732886,-0.9040319,-1.3777826,-1.4058425,-1.2545459,-1.3379943,-0.76973647,0.43010578,0.28777096,0.1931839,-0.5044956,0.9577496,-3.5395274,0.032785308,-2.8901858,0.018842697,-0.51417446,0.83847183,0.8607766,0.0010216493,0.18233298,0.4752024,-1.0333325,-0.73271126,-1.2544351,1.0,0.0,0.0,0.0,0.0,0.0,0.0,-0.8431839,0.104495615,-0.4077496,-7.263303,0.9347439,-7.4562073,1.714468,2.804172,-0.5141914,-1.6952693
-17.650116,39.889572,8.7761135,20.329716,1.9375457,1.127499,-0.24128318,-0.79753685,-0.7758424,-0.7261147,-0.7474294,-0.47987014,0.6012147,0.13077685,0.6949379,-0.7218679,-1.9574178,-1.3521364,2.1219997,1.63341,-0.8909542,0.76054287,-0.6582626,-1.8977306,-1.2907048,2.162529,1.5775763,-0.901373,-1.4263672,-1.3957434,-1.3054104,-1.3276278,-0.7385239,0.4278113,0.2589568,0.15781593,-0.50416756,0.928133,-3.5359886,0.03275253,-2.9854822,0.008155823,-0.5213251,0.8258232,0.863308,0.012140571,0.17991947,0.47136065,-1.0840646,-0.69329816,-1.2734903,1.0,0.0,0.0,0.0,0.0,0.0,0.0,-0.8078159,0.10416755,-0.378133,-4.5860767,0.84609985,-5.2143335,1.4177322,2.831912,-0.42911172,-2.758932
-12.881525,44.034073,12.009448,19.308384,1.7634006,1.2518647,-0.18271294,-0.81123567,-0.7786788,-0.731433,-0.72913766,-0.45976624,0.59407014,0.024936214,0.6794193,-0.7361305,-1.9708738,-1.3636186,2.1165524,1.6369833,-0.8988794,0.7460556,-0.67218053,-1.9109733,-1.3038598,2.155384,1.581843,-0.8990623,-1.455516,-1.3909309,-1.330936,-1.3103228,-0.7071208,0.425801,0.22219183,0.1224823,-0.5038395,0.8975642,-3.5324533,0.032719783,-3.0806832,-0.0029468536,-0.52803993,0.8130335,0.86591256,0.02324291,0.17713411,0.4672031,-1.1225187,-0.64751214,-1.2858759,1.0,0.0,0.0,0.0,0.0,0.0,0.0,-0.7724823,0.10383949,-0.34756416,-2.7198315,0.3466606,-2.6584387,2.0493984,2.921319,-0.34422874,-3.5346806
-9.600765,47.880875,14.546083,18.851158,1.5980895,1.365075,-0.1930671,-0.8218531,-0.774084,-0.73696595,-0.710013,-0.45778105,0.5892966,-0.17603372,0.6638703,-0.7495889,-1.9846699,-1.3748611,2.109606,1.6407727,-0.9166657,0.73137,-0.6860546,-1.9243495,-1.316784,2.1484985,1.5860907,-0.89724267,-1.4725173,-1.3866313,-1.3399466,-1.2854455,-0.68307006,0.42415822,0.16902474,0.087184906,-0.50351334,0.86604404,-3.5289216,0.032687068,-3.1757889,-0.0143585205,-0.5342617,0.8001658,0.8685722,0.03421095,0.17399204,0.46275115,-1.1506397,-0.5966556,-1.2918259,1.0,0.0,0.0,0.0,0.0,0.0,0.0,-0.7371849,0.10351333,-0.31604403,-1.559186,0.31740665,-0.9856701,2.755785,2.2378564,-0.2579987,-5.174196
-9.560788,49.312675,15.212963,19.762598,1.6909338,1.4279757,-0.24543242,-0.8291597,-0.7739644,-0.7550449,-0.66830826,-0.4343987,0.5743029,-0.2768112,0.648454,-0.76345104,-1.9998541,-1.3836149,2.1050587,1.643521,-0.9249238,0.71656704,-0.699901,-1.9378135,-1.3293058,2.1418571,1.5903136,-0.89599335,-1.4825181,-1.3843551,-1.3487648,-1.2401464,-0.6581862,0.42146814,0.11066141,0.051921844,-0.5031872,0.8335735,-3.5253935,0.03265439,-3.2707996,-0.026058197,-0.539979,0.78728706,0.8713085,0.04495703,0.17051584,0.4579569,-1.1791238,-0.5459807,-1.2911353,1.0,0.0,0.0,0.0,0.0,0.0,0.0,-0.7019218,0.10318717,-0.2835735,-0.88722706,0.11882782,-0.9319067,4.7810316,2.3463607,-0.34683347,-5.696212
-10.065739,52.05262,16.155626,21.27448,1.7398379,1.5420638,-0.3173865,-0.8359145,-0.7663883,-0.76152194,-0.61723834,-0.448508,0.57098013,-0.38418093,0.6329756,-0.7765398,-2.0139656,-1.3910296,2.0970063,1.6474116,-0.93441147,0.70168304,-0.71370065,-1.9513595,-1.3411962,2.1353683,1.5945097,-0.8953582,-1.4900309,-1.378873,-1.3565414,-1.1712221,-0.6460897,0.41894004,0.04825593,0.016695023,-0.502861,0.80015355,-3.5218687,0.03262174,-3.3657153,-0.03804779,-0.54517365,0.7744802,0.87415284,0.05540322,0.16679645,0.45273203,-1.2071729,-0.4934468,-1.2815833,0.0,1.0,0.0,0.0,0.0,0.0,0.0,-0.666695,0.10286102,-0.25015354,-0.6615162,0.43990612,-0.7860422,7.1220636,1.0808706,-0.3076613,-6.122514
-11.496158,56.35099,17.774294,24.789785,1.980078,1.7453859,-0.39870712,-0.83904356,-0.7598675,-0.75139296,-0.5194303,-0.4660794,0.5602257,-0.37625772,0.61777866,-0.7896874,-2.0264988,-1.3931392,2.0887604,1.6505322,-0.932984,0.6867861,-0.727396,-1.9653423,-1.3521414,2.128681,1.5997217,-0.8949957,-1.4806043,-1.362324,-1.487042,-1.0862207,-0.73886085,0.7157565,0.059740853,-0.011487961,-0.5027752,0.77897316,-1.5599446,0.05615021,0.6946067,-0.050401688,-0.5497217,0.76177025,0.87704766,0.06513705,0.16319177,0.44711635,-1.2501802,-0.4086446,-1.2973346,0.0,1.0,0.0,0.0,0.0,0.0,0.0,-0.638512,0.10277519,-0.22897315,2.5115728,2.3424387,-26.270771,5.6332827,-18.505383,59.634598,7.7729278
68.7915,176.0,110.0,110.0,3.0878935,12.102507,-1.4217832,-0.8073828,0.5100481,0.6802894,0.7310942,-0.15611188,0.62893987,-0.45546412,0.6060478,-0.6763912,-1.8973134,-1.279032,2.1130698,1.6626157,-0.9405421,0.6769642,-0.7424164,-1.9760978,-1.3496618,2.1137578,1.6165235,-0.8939419,-0.82104546,-1.5476667,-0.932245,0.68890667,-1.7393248,2.0128472,0.11931437,-0.027074814,-0.50221443,0.7851775,-1.558385,0.05609407,0.59572625,-0.06222534,-0.5516386,0.75315857,0.87947416,0.06439973,0.16521646,0.44168022,-1.1589012,-0.103289045,-0.7179617,0.0,1.0,0.0,0.0,0.0,0.0,0.0,-0.62292516,0.102214426,-0.23517752,64.45249,-18.240952,57.33061,176.38412,-98.82741,133.06384,5.575253
-8.739332,160.59117,69.79558,90.650345,6.4246106,5.4271164,-1.5777498,-0.8127173,-0.5743141,-0.013810395,0.76406974,-0.56572914,0.599224,-0.16292378,0.5956925,-0.7998478,-1.9774789,-1.2732549,2.057185,1.676446,-0.9102343,0.66887134,-0.7570095,-1.9817817,-1.3363047,2.0960233,1.6366422,-0.8928814,-0.8043269,-1.4310601,-0.44497377,1.5521064,-1.7879926,2.01771,0.10327545,-0.042646408,-0.5016537,0.7903939,-1.556827,0.05603799,0.4969447,-0.07413864,-0.5517845,0.74912506,0.8822883,0.05699856,0.17016071,0.43515956,-1.198923,0.025389988,-0.30445823,1.0,0.0,0.0,0.0,0.0,0.0,0.0,-0.60735357,0.101653665,-0.24039388,1.9997716,11.281538,49.371338,86.58316,-5.8526754,2.292776,-1.1307389
-35.714146,133.48965,41.06241,66.33119,5.2765145,3.029757,-1.3037773,-0.7889095,-0.44170424,-0.31846064,0.7310597,-0.6274207,0.594258,0.26090637,0.58998036,-0.80117995,-2.0136278,-1.2631987,2.0332813,1.696068,-0.8667908,0.65974087,-0.7694664,-1.9849117,-1.3179884,2.0793684,1.6555536,-0.89175224,-0.94721544,-1.1852989,-0.2698346,1.9261329,-1.6267525,1.8523335,0.11656563,-0.058202744,-0.5010929,0.7946232,-1.5552704,0.05598196,0.39826193,-0.08666611,-0.5509014,0.7479494,0.8856992,0.047684345,0.17604835,0.42693102,-1.2682352,0.11599793,-0.06414773,1.0,0.0,0.0,0.0,0.0,0.0,0.0,-0.59179723,0.101092905,-0.24462318,-13.646483,24.185062,17.28418,37.80236,15.531659,-15.4664755,1.4397964
-28.18872,109.491394,32.665665,40.744183,3.5293858,1.9839835,-0.503222,-0.7718248,-0.4907433,0.00081972673,0.7852721,-0.6178863,0.5400294,0.2259982,0.5825584,-0.81854075,-1.9848297,-1.2394612,2.0175798,1.7095566,-0.8691524,0.64879364,-0.7798042,-1.9861267,-1.2985449,2.0649412,1.6723974,-0.89051723,-1.1426263,-0.9843288,-0.072728775,1.9509578,-1.3833368,1.6304322,0.12613508,-0.07374382,-0.50053406,0.7978664,-1.5537155,0.05592599,0.2996778,-0.09959602,-0.54918957,0.74836653,0.8894118,0.038236648,0.18184906,0.41763073,-1.2996025,0.19738278,0.0683201,1.0,0.0,0.0,0.0,0.0,0.0,0.0,-0.57625616,0.10053405,-0.24786639,-19.167137,19.787132,19.47353,2.6473522,23.710419,-21.58351,1.0343969
-24.338045,72.54976,16.669855,20.872337,1.9756905,0.6619369,-0.10425258,-0.7781873,-0.4861391,-0.080459476,0.77129865,-0.6183591,0.5463306,0.14444181,0.5709749,-0.82841814,-1.9941726,-1.221415,2.0031052,1.7270304,-0.87607306,0.6361231,-0.7886648,-1.9864223,-1.2802267,2.052738,1.6871412,-0.8892584,-1.3080202,-0.8538471,-0.015831064,1.7922643,-1.1674721,1.4234557,0.12575628,-0.08926964,-0.4999752,0.80012447,-1.552162,0.055870075,0.20119222,-0.11274338,-0.5469513,0.7492344,0.89321446,0.029740633,0.18704264,0.407797,-1.3178747,0.24150479,0.08549733,1.0,0.0,0.0,0.0,0.0,0.0,0.0,-0.56073034,0.0999752,-0.25012445,-16.398071,12.87855,5.451483,-15.825915,21.243359,-20.354176,-0.051665306
-13.470997,54.562775,11.738632,10.9974785,0.98158205,-0.06611258,0.11126328,-0.77047604,-0.46567637,-0.07315869,0.7834216,-0.60559344,0.53713137,0.03526894,0.55907553,-0.83523244,-1.9937382,-1.2018845,1.9921786,1.7408543,-0.8857315,0.6223044,-0.7966776,-1.9866092,-1.2637377,2.0422628,1.7000196,-0.88809776,-1.406437,-0.7841169,-0.019949446,1.6011276,-1.0084856,1.2433962,0.112720214,-0.1047802,-0.49941635,0.80139047,-1.5506102,0.055814218,0.10173991,-0.12591553,-0.54446316,0.7499004,0.8969945,0.0226217,0.19153826,0.39774653,-1.3153409,0.26074868,0.054362148,1.0,0.0,0.0,0.0,0.0,0.0,0.0,-0.5452198,0.099416345,-0.25139046,-9.843707,6.866431,-0.5055733,-19.127728,15.597153,-17.778587,-1.3451054
-9.667061,34.99537,4.7707057,6.514985,0.6181456,-0.693983,0.14150842,-0.7681601,-0.48564428,-0.14251155,0.7791881,-0.59996736,0.5404114,0.019909533,0.54548836,-0.845242,-2.0008605,-1.1858189,1.9822661,1.7540607,-0.8861068,0.607964,-0.80447197,-1.9874008,-1.2488813,2.032932,1.7113168,-0.88708115,-1.4432137,-0.77804714,-0.09932864,1.4471366,-0.9083407,1.0921468,0.097905934,-0.1202755,-0.4988594,0.8016626,-1.5490599,0.055758413,0.0023870373,-0.1390934,-0.5419893,0.74997956,0.9007319,0.017007744,0.19538608,0.3875782,-1.3170329,0.25274137,-0.012240249,1.0,0.0,0.0,0.0,0.0,0.0,0.0,-0.5297245,0.0988594,-0.2516626,-3.692317,0.55310726,-8.005628,-15.373611,9.833086,-14.994907,-1.5124321
-5.624832,27.459797,3.480751,6.220633,0.5898781,-0.8790372,0.13158995,-0.7593247,-0.5075167,-0.15606429,0.77820015,-0.5921047,0.55327505,0.026807435,0.53203154,-0.85522366,-2.0030072,-1.1710613,1.9737216,1.7666444,-0.8844004,0.59359974,-0.8125305,-1.9890773,-1.2350874,2.0242689,1.7213037,-0.8861952,-1.4341534,-0.81519127,-0.19045179,1.3570442,-0.853141,0.967767,0.0853978,-0.13575554,-0.49830246,0.800942,-1.5475111,0.055702668,-0.0968665,-0.15230751,-0.53967667,0.7493563,0.90442896,0.0127606075,0.19867472,0.3773243,-1.3209229,0.23405686,-0.08280956,1.0,0.0,0.0,0.0,0.0,0.0,0.0,-0.51424444,0.098302454,-0.250942,0.90379715,-3.754878,-9.127503,-8.935142,5.3697824,-12.366724,-1.2557596
-7.482419,19.834959,0.24824971,7.4275312,0.77320826,-1.0099299,0.03774534,-0.749571,-0.54049563,-0.24341722,0.7770809,-0.5817111,0.56513214,0.02174396,0.51864266,-0.86658007,-2.0134192,-1.1573793,1.9660977,1.7778169,-0.8840208,0.5795111,-0.8211708,-1.9919155,-1.2217684,2.0159528,1.7302206,-0.8854227,-1.400308,-0.8805261,-0.31521818,1.3241955,-0.8250182,0.86617285,0.07463352,-0.15122032,-0.4977455,0.7992296,-1.5459639,0.055646975,-0.1960208,-0.16566277,-0.53760815,0.7479793,0.90812117,0.009752107,0.20150201,0.36690283,-1.3390507,0.20734353,-0.15944156,1.0,0.0,0.0,0.0,0.0,0.0,0.0,-0.49877965,0.09774551,-0.24922961,3.4252405,-6.567192,-12.513238,-3.1315565,2.7442932,-10.146499,-1.0561407
-4.407248,24.87827,3.2976635,9.096569,0.7881571,-0.8259673,0.027711079,-0.72281146,-0.55599123,-0.26295218,0.7848695,-0.591896,0.60432255,0.05266168,0.50723,-0.8767699,-2.0182106,-1.1432815,1.9567633,1.7906528,-0.8801565,0.5658917,-0.83046913,-1.995858,-1.2084608,2.0077436,1.7382886,-0.8847208,-1.3490059,-0.94648886,-0.42054024,1.33357,-0.81990063,0.7868,0.06877472,-0.16666985,-0.49718952,0.79652643,-1.5444182,0.05559134,-0.29507598,-0.17916298,-0.5357599,0.7459431,0.9117925,0.0077532325,0.20401204,0.3563052,-1.3516444,0.18716882,-0.22163415,1.0,0.0,0.0,0.0,0.0,0.0,0.0,-0.48333013,0.097189516,-0.24652642,5.160618,-6.648636,-10.501755,1.1075258,0.42054653,-7.9328895,-0.5666435
-8.723685,27.238735,2.977059,11.34528,0.9220772,-0.6400374,-0.035577938,-0.72780246,-0.57193476,-0.34117693,0.7837308,-0.6031886,0.60573894,0.08191003,0.49311143,-0.8876626,-2.0299757,-1.1300877,1.9474248,1.7988626,-0.8765298,0.5526919,-0.8403511,-2.0009174,-1.1949377,1.9994806,1.7456739,-0.8840437,-1.310163,-1.002271,-0.5342519,1.3593245,-0.8288223,0.72241294,0.06735862,-0.18210411,-0.49663448,0.79283345,-1.5428741,0.05553576,-0.39403215,-0.19283867,-0.5340576,0.743321,0.9154371,0.006664627,0.20635557,0.34546736,-1.3710338,0.17455943,-0.27902484,1.0,0.0,0.0,0.0,0.0,0.0,0.0,-0.46789587,0.09663448,-0.24283344,3.9453983,-5.6519985,-11.356693,2.7922392,-0.9634137,-6.45113,-0.12909919
-9.951061,32.183414,4.159442,12.498687,0.88090485,-0.4587409,-0.043362733,-0.71187186,-0.58126736,-0.4100745,0.7905445,-0.6212542,0.62189186,0.11882294,0.48150468,-0.89847785,-2.041925,-1.1158832,1.9373552,1.8078631,-0.8721614,0.5398316,-0.85066223,-2.0071468,-1.1811228,1.9910501,1.7525156,-0.8833475,-1.2777774,-1.0410862,-0.6521765,1.3898026,-0.8480906,0.67147225,0.07035577,-0.19752312,-0.49607944,0.7881516,-1.5413315,0.055480234,-0.49288937,-0.20669365,-0.53242207,0.74017113,0.91903126,0.006452777,0.20868304,0.33435187,-1.3878934,0.1701476,-0.3304305,1.0,0.0,0.0,0.0,0.0,0.0,0.0,-0.45247686,0.09607944,-0.23815161,3.3005476,-3.9782047,-11.759127,3.2710075,-2.0115614,-5.1145554,0.2850741
-12.805246,29.680916,2.3607657,12.042858,0.85925555,-0.4108178,-0.018115975,-0.70366406,-0.6177501,-0.49307945,0.7885659,-0.6265947,0.61793095,0.18725753,0.46946517,-0.91243726,-2.056455,-1.1022662,1.9283906,1.8143086,-0.86462176,0.527224,-0.8613806,-2.0146503,-1.1670656,1.9824232,1.7589166,-0.8825674,-1.2547538,-1.0823526,-0.78310704,1.4118217,-0.86776364,0.6294076,0.08054095,-0.21292305,-0.4955244,0.78248197,-1.5397905,0.055424765,-0.59164774,-0.22075462,-0.53081703,0.7364505,0.92255485,0.0071621346,0.21102484,0.32297012,-1.4099963,0.16798502,-0.38960543,1.0,0.0,0.0,0.0,0.0,0.0,0.0,-0.43707693,0.0955244,-0.23248196,2.3839474,-4.230809,-13.082922,2.4573803,-2.0305872,-4.2582273,1.0029852
-6.708293,32.31004,5.0052342,9.86986,0.6367794,-0.32974792,0.096645795,-0.66453284,-0.6491523,-0.5127562,0.7908761,-0.6259498,0.6369379,0.21593843,0.46077073,-0.9262958,-2.065926,-1.087978,1.9198282,1.8226104,-0.86097354,0.5149388,-0.87254524,-2.0232449,-1.1528559,1.9736341,1.7649667,-0.8816662,-1.2196853,-1.1282539,-0.8845562,1.4246238,-0.88305306,0.5967582,0.09330135,-0.22830772,-0.49497128,0.7758255,-1.538251,0.05536935,-0.6903074,-0.23494339,-0.52921677,0.73215735,0.9259569,0.008703447,0.21332729,0.31147927,-1.4187657,0.16813782,-0.44637907,0.0,1.0,0.0,0.0,0.0,0.0,0.0,-0.42169225,0.09497127,-0.22582549,3.5355806,-4.69687,-10.05267,1.491046,-1.6498446,-3.328991,1.2576625
-7.0606136,33.081127,5.447099,9.462326,0.6348268,-0.19592834,0.13779838,-0.66614145,-0.67648286,-0.55225986,0.7885127,-0.6369324,0.6370518,0.25042862,0.44832462,-0.94019353,-2.078471,-1.0740047,1.9099408,1.8286719,-0.8566233,0.5029301,-0.88419056,-2.0327015,-1.1385927,1.9646982,1.7707384,-0.88062,-1.19449,-1.1770685,-0.96587926,1.4275348,-0.89751184,0.5701376,0.10840437,-0.24367714,-0.49441814,0.7681832,-1.5367131,0.055313993,-0.78886837,-0.24920845,-0.52758026,0.7273005,0.92920846,0.010987353,0.21553901,0.29998976,-1.4263971,0.17319997,-0.5028193,0.0,1.0,0.0,0.0,0.0,0.0,0.0,-0.40632284,0.09441814,-0.21818316,2.5461435,-4.9964666,-8.018684,0.50837994,-1.5951753,-2.743423,1.5001893
-1.9953701,34.9427,7.60571,7.5478816,0.53550893,-0.12979138,0.23774634,-0.6370136,-0.7109326,-0.56256896,0.77877146,-0.60929585,0.6330234,0.30968612,0.43922874,-0.9552838,-2.0889585,-1.0607156,1.9037687,1.8340406,-0.8496514,0.49122328,-0.896369,-2.0427303,-1.1243887,1.9557337,1.7762754,-0.8793907,-1.1628104,-1.2317624,-1.0148169,1.4186378,-0.8968848,0.54791147,0.12787467,-0.2590313,-0.493865,0.75955594,-1.5351766,0.05525869,-0.88733083,-0.26348495,-0.5258837,0.7218999,0.9322852,0.013882801,0.21754459,0.28866228,-1.4245774,0.17947741,-0.5566457,0.0,1.0,0.0,0.0,0.0,0.0,0.0,-0.39096868,0.09386501,-0.20955592,3.150773,-5.581188,-4.716432,-0.71041584,-0.13788939,-2.3176312,1.9526436
6.024787,41.419178,11.656767,6.022088,0.32035506,-0.076449394,0.3299891,-0.594063,-0.7276756,-0.5645939,0.7780636,-0.61284226,0.6365605,0.35186648,0.43181697,-0.96913654,-2.0991898,-1.0465823,1.8944495,1.8399315,-0.84420407,0.47995847,-0.9090462,-2.0530262,-1.1102953,1.946792,1.7816217,-0.87795067,-1.1146724,-1.2801095,-1.0338187,1.4066453,-0.89434654,0.53000563,0.14934164,-0.2743702,-0.49331284,0.7499419,-1.5336418,0.055203445,-0.9860886,-0.2776127,-0.524127,0.7160324,0.93514746,0.017221812,0.21930885,0.27768007,-1.4047546,0.18541089,-0.60113686,0.0,1.0,0.0,0.0,0.0,0.0,0.0,-0.37562978,0.09331283,-0.19994187,4.726076,-4.947686,-1.6204596,-1.0985136,-0.02464056,-1.8805385,2.1365972
17.976215,43.9232,14.484117,1.9089482,-0.22781998,-0.24753648,0.47192854,-0.5214563,-0.75126195,-0.5993224,0.7571484,-0.6205781,0.6421626,0.3899475,0.42781284,-0.98417234,-2.1129584,-1.0345805,1.8847342,1.845838,-0.83895594,0.46944162,-0.9221768,-2.0635753,-1.0964352,1.9377404,1.7868316,-0.87638634,-1.029241,-1.3241184,-1.0757917,1.3753113,-0.8901215,0.5400852,0.1606066,-0.2900715,-0.49182987,0.7418729,-1.3620826,0.22030216,-0.28778163,-0.2913494,-0.52240753,0.70967364,0.9377408,0.020979075,0.22089641,0.2672203,-1.3624309,0.18042602,-0.655877,0.0,1.0,0.0,0.0,0.0,0.0,0.0,-0.3599285,0.091829866,-0.1918729,8.703303,-4.4718027,-6.046915,-3.8667917,0.5427718,3.330958,-0.023412704
-0.34467125,63.17624,18.039139,13.239159,0.95962363,0.5376504,0.20422745,-0.631796,-0.70915055,-0.4942464,0.78358847,-0.62748104,0.58420163,0.3956668,0.406262,-0.9930918,-2.113,-1.0180763,1.8749924,1.8452518,-0.83681965,0.4591405,-0.9354233,-2.0739245,-1.0827042,1.9288121,1.7921054,-0.87463063,-1.0306427,-1.3254297,-1.0201539,1.3723398,-0.8952487,0.5230557,0.18050748,-0.30368233,-0.4896288,0.73824984,-1.3607209,0.22008191,-0.3871388,-0.30483055,-0.52044487,0.7031472,0.9401171,0.024818989,0.22238272,0.25711802,-1.3386847,0.21192618,-0.6561337,0.0,1.0,0.0,0.0,0.0,0.0,0.0,-0.34631765,0.089628786,-0.18824983,-0.21986961,-0.30994415,5.97322,-0.23431778,-0.9866357,-1.7788529,1.948309
-8.847532,73.00648,19.45004,18.51424,1.5184634,0.86300635,0.07741214,-0.64302635,-0.69368577,-0.47998986,0.78633577,-0.62225807,0.592754,0.4336748,0.39483786,-1.0047919,-2.1219234,-1.0040706,1.8665863,1.8513808,-0.8312631,0.44857857,-0.9484934,-2.0835872,-1.0689293,1.9198686,1.7972305,-0.87266034,-1.0648451,-1.3015361,-0.9465886,1.3794643,-0.89576125,0.508846,0.20238891,-0.3172779,-0.48742962,0.73363394,-1.3593603,0.21986188,-0.48639667,-0.31814003,-0.51804066,0.6967747,0.94231486,0.028630987,0.22391014,0.24715832,-1.3238542,0.25975847,-0.63520163,0.0,1.0,0.0,0.0,0.0,0.0,0.0,-0.33272207,0.08742961,-0.18363392,-3.460312,2.1773338,7.781899,0.7966995,-0.58033466,-1.4914513,2.1412015
-10.051113,72.54912,18.43014,18.743261,1.5543944,0.78650236,0.050695132,-0.62623686,-0.69848627,-0.49983498,0.78606945,-0.6098748,0.592961,0.4586881,0.3859549,-1.018342,-2.1335707,-0.99032235,1.8588811,1.8565266,-0.8267915,0.43769714,-0.9613165,-2.0926585,-1.0550495,1.9109327,1.8022068,-0.8704726,-1.0960261,-1.2765403,-0.89263314,1.3910842,-0.89448094,0.49368185,0.22408272,-0.33086205,-0.48523235,0.7280262,-1.3580012,0.21964206,-0.5855552,-0.33132744,-0.5151739,0.690593,0.9443524,0.03243501,0.22551097,0.23725756,-1.3120129,0.3053354,-0.61664873,0.0,1.0,0.0,0.0,0.0,0.0,0.0,-0.31913793,0.08523235,-0.1780262,-3.1503916,2.29187,5.8002114,1.2607098,-0.37244558,-1.5947938,2.1224527
-8.796408,70.273575,17.376047,17.387691,1.4267468,0.679048,0.06788494,-0.62816054,-0.6954186,-0.48844132,0.77966505,-0.6105985,0.5869891,0.4625595,0.3748811,-1.0308584,-2.1415026,-0.977083,1.8498728,1.8609056,-0.82421666,0.426563,-0.9739203,-2.101318,-1.0410954,1.9020139,1.8070419,-0.8680875,-1.1193441,-1.2556748,-0.8557478,1.3971521,-0.8927832,0.47992986,0.24313897,-0.34443092,-0.48303795,0.7214276,-1.3566436,0.21942246,-0.68461466,-0.34438705,-0.51188755,0.68454033,0.94623446,0.036302105,0.22716953,0.22741218,-1.2989393,0.34591484,-0.6054372,0.0,1.0,0.0,0.0,0.0,0.0,0.0,-0.30556905,0.08303794,-0.17142761,-2.3705006,1.8914461,4.0777206,0.70436,-0.30331612,-1.4608979,1.8572301
-7.0784616,65.7018,15.306602,15.518946,1.1817151,0.4667596,0.09446168,-0.619496,-0.690253,-0.5222942,0.78783286,-0.61548036,0.5835821,0.50366825,0.36461338,-1.0429456,-2.1535473,-0.9623121,1.8404659,1.8654001,-0.81772065,0.41532013,-0.9863562,-2.1099238,-1.0270706,1.893097,1.8117511,-0.8655049,-1.1261064,-1.240079,-0.86107785,1.4047009,-0.89264214,0.46777564,0.26311535,-0.35798836,-0.48084545,0.71383923,-1.3552872,0.21920308,-0.783575,-0.35731316,-0.50826454,0.67849845,0.9479541,0.040380426,0.22888929,0.21762842,-1.2859145,0.37734804,-0.6074096,0.0,1.0,0.0,0.0,0.0,0.0,0.0,-0.29201162,0.080845445,-0.16383922,-0.7190943,1.3790607,-0.17976761,0.8574009,-0.39857626,-1.3157248,1.9354224
1.1473489,60.893417,15.116557,11.3829975,0.82760453,0.25141984,0.1895898,-0.59088176,-0.70343846,-0.5109724,0.77715087,-0.5899591,0.5838595,0.5043578,0.35623196,-1.0567,-2.161021,-0.94935554,1.8341011,1.8701371,-0.81506914,0.40421882,-0.99875396,-2.118707,-1.0130706,1.8841795,1.8163725,-0.86281663,-1.1052591,-1.2401798,-0.88200456,1.3991187,-0.88984174,0.46033907,0.27221566,-0.3715477,-0.47768688,0.7081714,-1.3440355,0.32803103,-0.53426045,-0.37003708,-0.5044346,0.67231727,0.9495007,0.04475036,0.23061542,0.20799619,-1.2628595,0.3946482,-0.6247141,0.0,1.0,0.0,0.0,0.0,0.0,0.0,-0.27845228,0.077686876,-0.15817142,1.9017696,-0.1619339,-1.1413217,-0.21035671,0.98392963,-0.8370578,1.6792834
-6.546114,62.656624,13.76841,14.033609,1.0448952,0.37333113,0.12319213,-0.6350543,-0.68170464,-0.5178264,0.78434646,-0.62782687,0.557485,0.5284614,0.34071338,-1.0669245,-2.1704895,-0.93463594,1.8213968,1.872121,-0.8099705,0.39314047,-1.0110946,-2.1276944,-0.999084,1.8752724,1.8209127,-0.8599671,-1.1088271,-1.2327014,-0.9033483,1.398769,-0.8922019,0.45144552,0.28903413,-0.38474655,-0.47435188,0.70268244,-1.3116331,0.3358789,-0.5539498,-0.3826065,-0.50035477,0.6660068,0.9508814,0.049433842,0.23234764,0.19848241,-1.2498221,0.42137057,-0.6367153,0.0,1.0,0.0,0.0,0.0,0.0,0.0,-0.26525342,0.07435188,-0.15268242,-0.40409565,0.5761862,-1.7845631,0.071549416,-0.62782764,-1.0296345,1.6231477
-7.3963013,61.228683,13.075651,13.7958555,1.1006031,0.38548562,0.1239814,-0.6312984,-0.6865518,-0.52522224,0.78146845,-0.6109373,0.5528417,0.55331194,0.33001062,-1.0797497,-2.1802166,-0.9209372,1.8141787,1.8761969,-0.80463594,0.3820068,-1.0233932,-2.1368837,-0.98510873,1.8663917,1.8253666,-0.8569419,-1.1149985,-1.2295591,-0.9229875,1.3975707,-0.8879178,0.4428844,0.3069229,-0.39764023,-0.4709425,0.69696915,-1.281365,0.3430354,-0.57652605,-0.39506721,-0.4960022,0.6595657,0.9521063,0.05443769,0.23406191,0.1890637,-1.2390792,0.4489424,-0.649919,0.0,1.0,0.0,0.0,0.0,0.0,0.0,-0.25235975,0.07094249,-0.14696914,-0.6617546,0.14584064,-1.614356,-0.0074386597,0.038433075,-1.0099113,1.7404914
-5.015265,61.796124,13.230154,12.9608755,0.9596165,0.32646573,0.14800353,-0.61575246,-0.68060154,-0.5537838,0.78132695,-0.62153643,0.5345913,0.5648981,0.32043156,-1.0914533,-2.1922622,-0.90697604,1.804238,1.8788258,-0.80045205,0.3708774,-1.0356479,-2.1463478,-0.97114307,1.857522,1.8297303,-0.8537455,-1.112446,-1.2246721,-0.9531198,1.3965353,-0.88801765,0.4335568,0.3235861,-0.4102249,-0.4674778,0.6910207,-1.2499151,0.3480886,-0.60009205,-0.40738297,-0.49140167,0.6529789,0.9531664,0.059792243,0.23576309,0.1797617,-1.2238396,0.47235847,-0.6648385,0.0,1.0,0.0,0.0,0.0,0.0,0.0,-0.23977506,0.06747779,-0.14102072,0.19276142,0.32308102,-2.6419878,-0.014185905,-0.41157007,-1.0973573,1.5987158
-3.6332955,58.91818,12.32389,11.708254,0.86954343,0.23786485,0.17581603,-0.6089799,-0.6910605,-0.579668,0.77902895,-0.60863173,0.50516653,0.5978078,0.3099794,-1.104754,-2.2043145,-0.89324015,1.7966589,1.8802469,-0.79396474,0.3598195,-1.0479121,-2.1561818,-0.95719546,1.8486832,1.8339852,-0.8503772,-1.1037946,-1.2277126,-0.99223673,1.394518,-0.88370264,0.42213964,0.34108615,-0.42251205,-0.4639759,0.6847858,-1.2209477,0.3511356,-0.63019574,-0.41955757,-0.48660088,0.6461943,0.9540613,0.06554242,0.23741147,0.1706074,-1.2090312,0.49149516,-0.68606913,0.0,1.0,0.0,0.0,0.0,0.0,0.0,-0.22748792,0.0639759,-0.13478577,0.79898834,-0.46145916,-3.5474539,-0.11262894,0.043296814,-1.31585,1.6821921
-1.5626581,57.72527,11.865469,10.211314,0.7153227,0.13281459,0.22944762,-0.602013,-0.6934497,-0.6126298,0.75725114,-0.5985285,0.42226756,0.61871845,0.2996182,-1.1172571,-2.217445,-0.8814703,1.7888304,1.876212,-0.7885054,0.34887892,-1.0602298,-2.1664886,-0.94336706,1.8399147,1.8380722,-0.8468363,-1.0910645,-1.2337149,-1.0422089,1.3791336,-0.8756944,0.40344778,0.35820037,-0.4345188,-0.46045876,0.6781964,-1.1928695,0.35186252,-0.6666682,-0.43156433,-0.4816475,0.63914335,0.954792,0.07176101,0.2389358,0.16165435,-1.1918064,0.50524664,-0.7144612,0.0,1.0,0.0,0.0,0.0,0.0,0.0,-0.21548116,0.06045875,-0.12819636,1.1965036,-0.7506609,-4.631233,-1.4632702,0.40578842,-2.0528018,1.6307175
10.614608,64.94935,16.335154,8.203457,0.5500436,0.105358005,0.3052122,-0.5554621,-0.68202645,-0.5828696,0.75454825,-0.57977015,0.38961068,0.63011557,0.2933327,-1.1284324,-2.2247756,-0.86791223,1.7819377,1.8770332,-0.7838248,0.3382616,-1.0725513,-2.177055,-0.92970836,1.8312829,1.841963,-0.8431327,-1.0525208,-1.2321595,-1.0598153,1.3613604,-0.86070496,0.3836573,0.37400723,-0.44615746,-0.45696735,0.6713532,-1.1531128,0.3479162,-0.6880812,-0.44325447,-0.47663307,0.63190645,0.9553524,0.078311525,0.2403028,0.15304716,-1.1553677,0.5087975,-0.7296132,0.0,1.0,0.0,0.0,0.0,0.0,0.0,-0.20384252,0.056967348,-0.12135321,3.6954165,0.013756752,-1.2510538,-1.8248558,0.98712444,-2.1777332,1.4739573
12.412719,68.26789,18.02687,8.553564,0.78864026,0.18546706,0.29393047,-0.55743366,-0.68819577,-0.543234,0.74047947,-0.5444151,0.33728346,0.63121635,0.28251824,-1.1413708,-2.2313783,-0.85566044,1.7768414,1.8756914,-0.78001106,0.32798856,-1.0848727,-2.1874866,-0.9162624,1.8228897,1.8456327,-0.8392877,-1.0194694,-1.2325759,-1.0356919,1.3386817,-0.8339292,0.36090544,0.38773635,-0.4573784,-0.4535246,0.66434383,-1.1103424,0.3428727,-0.7027433,-0.45457458,-0.47157001,0.6245927,0.9557751,0.08497747,0.24143432,0.14485264,-1.1171842,0.513444,-0.7346395,0.0,1.0,0.0,0.0,0.0,0.0,0.0,-0.19262159,0.053524584,-0.11434382,3.128934,-0.1814127,2.9874563,-2.3399353,2.0938277,-2.4652123,1.285243
13.306611,72.34219,19.87975,9.490609,1.1909554,0.25416172,0.25373328,-0.5533036,-0.6903291,-0.4798582,0.72382057,-0.47040218,0.21022186,0.63469106,0.2726582,-1.1539056,-2.2354724,-0.84388036,1.7758495,1.8666549,-0.7758186,0.31798017,-1.0972056,-2.1973124,-0.9030786,1.8149557,1.8490006,-0.8353187,-0.9952331,-1.2341849,-0.96254444,1.3113239,-0.78192145,0.3281081,0.39986548,-0.468153,-0.45013618,0.6572476,-1.0650744,0.33703098,-0.70921975,-0.46551704,-0.46643925,0.61733013,0.9561308,0.09150348,0.2421797,0.13707641,-1.0802028,0.5207448,-0.72602403,0.0,1.0,0.0,0.0,0.0,0.0,0.0,-0.18184698,0.05013618,-0.10724759,2.237761,-0.29978752,7.951045,-2.8214931,4.550338,-3.4960032,1.1767447
22.42784,81.265144,25.11186,8.9664545,1.7183102,0.26565439,0.2478357,-0.529671,-0.68320596,-0.33165315,0.6781946,-0.28874314,-0.08345168,0.63964623,0.26501307,-1.1655263,-2.2304776,-0.83525914,1.7860814,1.8406554,-0.7713541,0.30823258,-1.1095233,-2.2057457,-0.8903317,1.8080366,1.8518474,-0.8312367,-0.9687329,-1.2312363,-0.80085945,1.2618731,-0.6643821,0.26951134,0.41102916,-0.4784031,-0.44683456,0.65023917,-1.0102383,0.32735074,-0.6954454,-0.47603416,-0.46125793,0.61035174,0.956554,0.097433835,0.2422095,0.12979105,-1.035615,0.52442706,-0.69075435,0.0,1.0,0.0,0.0,0.0,0.0,0.0,-0.17159688,0.04683456,-0.10023916,2.4127483,0.16701221,16.941225,-5.119133,10.951746,-6.0620666,1.1260808
18.316076,77.09637,23.929808,8.817632,2.4771698,0.25424325,0.16326377,-0.5544755,-0.7024042,-0.24109481,0.6025416,0.021265425,-0.29275742,0.61946315,0.25278503,-1.1797637,-2.229855,-0.8300775,1.8101631,1.8225716,-0.7692904,0.2985661,-1.1218963,-2.212295,-0.878362,1.8031201,1.853977,-0.82706934,-0.96650374,-1.2397199,-0.60445005,1.1749494,-0.43638638,0.19347635,0.41900206,-0.48817825,-0.44361115,0.64331126,-0.9652802,0.32023737,-0.68955255,-0.48623848,-0.4559698,0.6037464,0.9572544,0.10234621,0.24097645,0.122961394,-1.0096884,0.53682417,-0.6529029,0.0,1.0,0.0,0.0,0.0,0.0,0.0,-0.16182172,0.04361114,-0.09331125,0.039315224,-0.9601593,20.310284,-8.808422,22.077387,-7.8252196,0.9061754
28.280457,80.87762,28.090277,5.6798058,2.962014,0.39024803,0.20238537,-0.5483554,-0.7029411,-0.012067843,0.47543573,0.34355348,-0.4057146,0.6004708,0.24373056,-1.1921904,-2.213502,-0.8308184,1.8374755,1.8134055,-0.76702225,0.288882,-1.1343608,-2.216177,-0.8677456,1.8012403,1.855318,-0.82284683,-0.96965015,-1.2488546,-0.31395218,1.0232308,-0.107521325,0.11383965,0.42381057,-0.4974537,-0.44047546,0.6365395,-0.91388917,0.3107975,-0.6709685,-0.49612427,-0.4505539,0.5976429,0.9584473,0.105606765,0.23791489,0.116714805,-0.97562444,0.5492907,-0.5983786,0.0,1.0,0.0,0.0,0.0,0.0,0.0,-0.15254629,0.040475458,-0.08653951,-0.5088806,-1.0034561,29.737972,-15.346384,32.14849,-8.147283,0.61675906
35.28677,85.2675,31.062439,4.690198,3.0934613,0.4613378,0.19660994,-0.5378284,-0.7061206,0.19142467,0.40846762,0.49137777,-0.49273837,0.57679415,0.23509915,-1.2049729,-2.1970346,-0.8268988,1.8503782,1.8060441,-0.7651674,0.27919644,-1.1469169,-2.2167032,-0.8587564,1.802682,1.855879,-0.8186041,-0.96869814,-1.2580131,0.036649022,0.85688287,0.22598344,0.03657945,0.42472154,-0.5061531,-0.43746376,0.63006794,-0.8547188,0.29762083,-0.6377479,-0.5056038,-0.4450426,0.5921754,0.9602229,0.10675013,0.23285426,0.11115345,-0.9334511,0.55800563,-0.5317903,0.0,1.0,0.0,0.0,0.0,0.0,0.0,-0.14384687,0.037463754,-0.08006793,-0.067055225,-1.00348,35.695988,-16.80168,32.70071,-7.8173065,0.18671155
55.502872,85.700554,33.75349,-0.21267414,2.2078414,0.11050439,0.30323896,-0.4360131,-0.71372306,0.30362207,0.3763006,0.57699096,-0.5150739,0.57457006,0.23559514,-1.2182891,-2.186341,-0.82112634,1.8603811,1.8043716,-0.7611471,0.27000257,-1.1595759,-2.2139032,-0.8512262,1.8070978,1.8557435,-0.81436205,-0.9034727,-1.268798,0.363226,0.7178874,0.5115677,-0.030034412,0.42395803,-0.5141678,-0.43467426,0.62402445,-0.784119,0.27270225,-0.5933145,-0.51449203,-0.43967915,0.5873333,0.9625035,0.10572235,0.22601932,0.106418915,-0.86999416,0.5348762,-0.470843,0.0,1.0,0.0,0.0,0.0,0.0,0.0,-0.13583219,0.034674257,-0.07402444,6.359577,-1.1753798,33.284256,-14.058256,28.018242,-6.6418967,-0.08010268
50.56892,84.652176,30.587753,1.9411303,1.7083361,-0.0929279,0.25215584,-0.41281626,-0.6999022,0.33551142,0.36102277,0.6127757,-0.5035287,0.58908105,0.22872095,-1.2295661,-2.180352,-0.8151239,1.8683753,1.8053906,-0.75545394,0.26157352,-1.1722541,-2.2085779,-0.8447233,1.8137857,1.8550359,-0.81012094,-0.8230367,-1.2678232,0.59081453,0.6276476,0.71990025,-0.08410524,0.42405337,-0.52150154,-0.43214798,0.61840284,-0.71759695,0.24627513,-0.5536434,-0.522789,-0.43459034,0.58299375,0.96510893,0.10295125,0.21789356,0.10241164,-0.81337035,0.50549614,-0.42432046,0.0,1.0,0.0,0.0,0.0,0.0,0.0,-0.12849844,0.032147974,-0.06840283,7.9492927,-0.009322166,23.22836,-9.055853,20.486843,-5.3277364,-0.0146865845
51.634716,92.53984,31.563705,4.5995,1.3805844,-0.15441492,0.20714407,-0.35167846,-0.6741744,0.45524836,0.36296022,0.6269383,-0.45601398,0.5912185,0.22640568,-1.2396715,-2.163053,-0.8084273,1.8764795,1.8094345,-0.7509991,0.25410864,-1.1847758,-2.2012928,-0.8387276,1.8219843,1.853901,-0.8058778,-0.72118676,-1.2472563,0.7758077,0.590418,0.85208166,-0.122985855,0.42427105,-0.52812576,-0.42991543,0.61329335,-0.6457799,0.21619858,-0.49961635,-0.5304775,-0.42984676,0.5791709,0.96785724,0.098779075,0.2090273,0.099007726,-0.75225466,0.46910477,-0.3712191,0.0,1.0,0.0,0.0,0.0,0.0,0.0,-0.12187421,0.029915422,-0.06329334,10.129177,1.9395351,18.926609,-3.676474,12.965894,-3.74963,-0.017768145
43.183517,89.69329,28.600761,5.09054,1.1149863,-0.06471524,0.25600326,-0.35199356,-0.6649102,0.5561989,0.25883466,0.6755051,-0.41980228,0.58629733,0.21890928,-1.2512668,-2.1456728,-0.81284416,1.8895348,1.8119208,-0.74724805,0.2474621,-1.1970439,-2.1923528,-0.83331776,1.8311715,1.8524615,-0.80163383,-0.6458397,-1.2202027,0.9342863,0.52488077,0.9403817,-0.15041566,0.42430082,-0.5340748,-0.4279604,0.6086677,-0.58001196,0.1893827,-0.45398194,-0.5375824,-0.4254198,0.5757791,0.9706381,0.093484044,0.19967327,0.09619256,-0.69538426,0.438789,-0.33160275,0.0,1.0,0.0,0.0,0.0,0.0,0.0,-0.11592519,0.02796039,-0.05866766,7.5284123,2.5901556,16.122437,-6.4352036,8.699083,-2.5609672,0.0019311905
35.500374,79.49729,23.508812,1.5658631,0.41689593,-0.009187043,0.45448458,-0.3610007,-0.6456209,0.58645177,0.077086315,0.7065107,-0.38023642,0.5767934,0.21136202,-1.261606,-2.1337075,-0.82560915,1.9018226,1.8144379,-0.7439545,0.2412745,-1.2089896,-2.182207,-0.8292791,1.841019,1.8508197,-0.7973947,-0.6096943,-1.1864583,1.041693,0.3641146,0.99939007,-0.16802463,0.4239279,-0.5394306,-0.4262457,0.6043233,-0.52338445,0.16644911,-0.43317568,-0.5440998,-0.42128086,0.57253844,0.9733719,0.08746235,0.18983659,0.09412499,-0.63691455,0.41014493,-0.3249028,0.0,1.0,0.0,0.0,0.0,0.0,0.0,-0.11056936,0.026245683,-0.054323316,3.6320925,3.269434,10.793936,-15.918976,5.9289813,-1.5116662,0.023376942
32.014633,64.16778,17.91642,-6.096427,-0.61210835,0.029111937,0.79903066,-0.39235896,-0.62789565,0.61272115,-0.2075148,0.73746914,-0.36444783,0.5720969,0.20203862,-1.2717792,-2.120935,-0.8500306,1.914766,1.8143749,-0.740185,0.23508625,-1.2205825,-2.1713026,-0.8280243,1.8513452,1.8490427,-0.7931591,-0.62178123,-1.1504998,1.1061797,0.046523187,1.044147,-0.17990014,0.42387295,-0.5442848,-0.42473888,0.59992695,-0.47518593,0.14627233,-0.44704452,-0.54994965,-0.4174633,0.5690308,0.97600335,0.081150316,0.17930293,0.09317954,-0.5677231,0.3763458,-0.36250612,0.0,1.0,0.0,0.0,0.0,0.0,0.0,-0.105715156,0.024738878,-0.049926937,-1.1825562,3.49226,6.250024,-31.577148,4.670191,-0.8689076,0.13356209
37.562313,46.97225,13.372972,-13.901394,-1.6194801,-0.25435376,1.0252829,-0.36317986,-0.645849,0.5894287,-0.38865775,0.7605981,-0.37087566,0.57149214,0.19876826,-1.2851673,-2.1123598,-0.8668901,1.927405,1.8119551,-0.7360099,0.22879328,-1.2319846,-2.1601758,-0.8304296,1.8620498,1.8471606,-0.78892004,-0.63169664,-1.1371901,1.1140816,-0.33530673,1.0797982,-0.19008702,0.4246748,-0.5487232,-0.42344284,0.59513366,-0.43526798,0.12470582,-0.49478528,-0.5550537,-0.41412258,0.5648415,0.97848403,0.07492816,0.16787109,0.09367013,-0.49141276,0.3233257,-0.44030604,0.0,1.0,0.0,0.0,0.0,0.0,0.0,-0.101276755,0.023442835,-0.04513365,-0.95802546,1.2128115,0.50258636,-37.930737,3.8006783,-0.73586404,0.30748844
22.146694,44.75872,10.303026,-7.119644,-0.9965169,-0.30178565,0.7308164,-0.37229562,-0.6567827,0.5557985,-0.37985256,0.7610738,-0.35124236,0.5894871,0.19156371,-1.2976629,-2.104596,-0.8684149,1.9381572,1.8120364,-0.72997135,0.22236124,-1.2433944,-2.149327,-0.83587795,1.8730011,1.8451991,-0.7846581,-0.6467556,-1.1426395,1.0740596,-0.6135094,1.1011053,-0.19766907,0.42758542,-0.55286217,-0.42231178,0.58977956,-0.407684,0.10971339,-0.5518473,-0.55960274,-0.41118526,0.55987686,0.9807763,0.06900902,0.15566602,0.09530738,-0.44266155,0.28643996,-0.51701975,0.0,1.0,0.0,0.0,0.0,0.0,0.0,-0.09713781,0.022311777,-0.039779544,-1.4164448,-0.62077045,-4.376769,-27.501398,2.4273396,-0.5829245,0.5718708
24.983524,55.10805,13.588212,-2.0865166,-0.63466114,-0.4186069,0.48048788,-0.3064255,-0.6480535,0.5466892,-0.3691047,0.7504413,-0.3156319,0.5963774,0.19171868,-1.3081998,-2.0946581,-0.8727884,1.9480453,1.813636,-0.72502035,0.21611658,-1.2548652,-2.1389818,-0.8430973,1.8840564,1.8432026,-0.78036463,-0.61666656,-1.1487617,1.0199938,-0.75702244,1.1081854,-0.19972494,0.43082294,-0.556715,-0.42134094,0.5840014,-0.3788947,0.093038835,-0.5878755,-0.5637264,-0.40863323,0.5543365,0.9828427,0.063365914,0.14303337,0.09770599,-0.4008946,0.24703327,-0.5676258,0.0,1.0,0.0,0.0,0.0,0.0,0.0,-0.093284965,0.021340936,-0.03400141,3.1262875,-0.6341934,-5.7748556,-14.0318985,1.0633707,-0.020483136,0.617975
33.71784,67.343735,18.837751,0.97610307,-0.3609819,-0.44950408,0.30605438,-0.23649144,-0.64835674,0.57629776,-0.36118686,0.7532331,-0.20419638,0.5886146,0.19246744,-1.3197008,-2.081352,-0.879216,1.9593798,1.822783,-0.7215032,0.2105383,-1.2663951,-2.128972,-0.85091937,1.8951474,1.8412833,-0.7760495,-0.5377776,-1.1542984,0.99321896,-0.78963035,1.1109357,-0.18855491,0.43252787,-0.5602455,-0.42055702,0.5780695,-0.34487128,0.073423244,-0.5951184,-0.5674267,-0.40651512,0.54852116,0.9846637,0.057742774,0.13030107,0.1006208,-0.35839745,0.20187728,-0.5869057,0.0,1.0,0.0,0.0,0.0,0.0,0.0,-0.08975446,0.020557016,-0.028069496,8.023548,-0.52633286,-3.0469537,-2.9786468,0.72381496,1.3632894,0.4260242
34.17193,75.6356,21.807436,4.3089366,-0.029448137,-0.35482222,0.16661033,-0.19988845,-0.64840895,0.5887249,-0.35359117,0.7491421,-0.0848194,0.58005196,0.19054945,-1.331236,-2.0700996,-0.8862785,1.9700617,1.8328013,-0.7180443,0.20587195,-1.2779632,-2.119046,-0.8585688,1.9062344,1.8395716,-0.77172923,-0.44242498,-1.1574183,0.99120986,-0.75589335,1.1095454,-0.1645527,0.43266502,-0.5634403,-0.41996193,0.57220006,-0.31106997,0.0546708,-0.58342534,-0.57073975,-0.40481377,0.5426725,0.98623824,0.05189553,0.11770192,0.10386167,-0.320194,0.16103053,-0.5847631,0.0,1.0,0.0,0.0,0.0,0.0,0.0,-0.08655965,0.019961923,-0.022200048,9.681648,-0.25486946,-0.57919025,3.6314964,0.36830902,2.67874,0.24709105
27.474857,86.42868,24.252474,9.296914,0.41912347,-0.10208447,0.030597668,-0.17631571,-0.6211218,0.5935,-0.3285021,0.7472386,0.07526179,0.57609326,0.18824038,-1.3400754,-2.059696,-0.891419,1.9809582,1.8470978,-0.7141199,0.20209587,-1.2894168,-2.1090324,-0.86560684,1.917293,1.8382117,-0.7674129,-0.35545102,-1.1411238,1.0029577,-0.6856309,1.1067053,-0.12551157,0.43195137,-0.56630516,-0.41952705,0.5665977,-0.2780679,0.039900802,-0.5516678,-0.5737114,-0.40341568,0.5370181,0.9875697,0.04566149,0.10545302,0.10724156,-0.28826588,0.13427596,-0.55979764,0.0,1.0,0.0,0.0,0.0,0.0,0.0,-0.083694816,0.019527048,-0.016597688,8.861566,1.7140388,0.75478554,7.275021,0.2897501,4.221499,0.15497208
19.579496,91.88186,24.601788,11.931508,0.55723304,0.07503733,-0.010223893,-0.16177298,-0.58898395,0.57475877,-0.3400217,0.7381692,0.1394172,0.560182,0.18591857,-1.3483152,-2.0515566,-0.899609,1.9911098,1.8521534,-0.7113947,0.19901882,-1.3005462,-2.0989728,-0.8720422,1.9282963,1.8372658,-0.7631175,-0.29121113,-1.1033285,1.0054637,-0.6285866,1.1002327,-0.083116256,0.42960864,-0.5688591,-0.4192133,0.5613659,-0.24786252,0.028695561,-0.5130233,-0.5763874,-0.4022026,0.53167367,0.98866236,0.039065816,0.09368208,0.110653564,-0.25963828,0.11820997,-0.5268212,0.0,1.0,0.0,0.0,0.0,0.0,0.0,-0.081140876,0.019213289,-0.0113658905,6.596833,3.870988,-0.2007246,5.9625626,-0.04878044,4.569772,-0.00038146973
4.26974,103.277245,25.558968,19.048565,1.104783,0.33858883,-0.17843157,-0.1589018,-0.5278446,0.5470971,-0.26864272,0.72869676,0.20425338,0.5634283,0.18312864,-1.3533306,-2.0442631,-0.89890647,2.001166,1.8576912,-0.70677465,0.19636475,-1.3110404,-2.089047,-0.8777337,1.9392102,1.8367548,-0.7588431,-0.2561967,-1.0309771,0.9866256,-0.54859996,1.0906409,-0.039200556,0.42740482,-0.5711422,-0.41896248,0.55665463,-0.22223566,0.023807447,-0.45670116,-0.5788746,-0.40098763,0.5268129,0.9895317,0.03220328,0.08259474,0.113877594,-0.24396811,0.12360755,-0.47335857,0.0,1.0,0.0,0.0,0.0,0.0,0.0,-0.07885778,0.018962473,-0.00665462,3.6852837,7.359886,-2.3904204,8.246481,-0.29792786,4.761884,0.005084276
17.343607,100.63443,26.760553,13.26416,0.41645145,0.13095842,-0.004908655,-0.08451804,-0.51637995,0.57137555,-0.28565052,0.7177487,0.20442064,0.5540956,0.18791294,-1.3626784,-2.0319095,-0.90629876,2.0109851,1.8571968,-0.7034336,0.19422518,-1.3208442,-2.079205,-0.8828626,1.9500096,1.8366389,-0.75459504,-0.19931094,-0.96315175,0.98215926,-0.5001965,1.0783126,-0.0010190376,0.424661,-0.57315445,-0.41878986,0.5524942,-0.19455536,0.014938921,-0.40230504,-0.581089,-0.39986897,0.5224455,0.99018294,0.025099106,0.07217437,0.117041275,-0.21355255,0.108973004,-0.42538103,0.0,1.0,0.0,0.0,0.0,0.0,0.0,-0.07684553,0.018789858,-0.002494216,5.85829,6.8722606,-0.87246895,5.098212,-0.64606667,4.184676,-0.06095171
2.6438744,113.435646,27.406103,19.721336,0.69269544,0.28137216,-0.1354996,-0.105313234,-0.39520094,0.45991257,-0.23475857,0.71207297,0.19461478,0.5554245,0.18369386,-1.3603643,-2.0332139,-0.9063385,2.0212169,1.8561004,-0.6990526,0.19244634,-1.3295665,-2.069901,-0.887466,1.9606851,1.8368522,-0.75037307,-0.17019875,-0.8414878,0.91182435,-0.4461883,1.0662615,0.030068574,0.4221592,-0.57491684,-0.41866493,0.54899204,-0.17110108,0.01154747,-0.3328074,-0.58306694,-0.39877892,0.5186933,0.9906295,0.01801452,0.06260211,0.120039836,-0.19207063,0.109927446,-0.35936597,0.0,1.0,0.0,0.0,0.0,0.0,0.0,-0.07508314,0.018664926,0.0010079741,3.081423,12.287676,-7.5088024,5.6565104,-0.5547285,3.508616,-0.038778782
12.505069,136.8949,34.99442,21.97732,0.37295806,0.19393823,-0.14598629,-0.014497824,-0.26064783,0.43519184,-0.12801023,0.690682,0.1981364,0.5513631,0.19099656,-1.3556312,-2.0263817,-0.90026706,2.0297534,1.8566658,-0.69523674,0.19124971,-1.3366218,-2.0614018,-0.8911787,1.9712117,1.8373424,-0.7461769,-0.10225594,-0.65975875,0.8279481,-0.3454756,1.0504891,0.05667179,0.41928494,-0.5764046,-0.4185953,0.5465183,-0.1412528,0.005825739,-0.21938378,-0.58473206,-0.39778042,0.5159294,0.990885,0.011063631,0.05425189,0.12280496,-0.15790318,0.09734019,-0.24970756,0.0,1.0,0.0,0.0,0.0,0.0,0.0,-0.073595405,0.018595308,0.003481686,6.965539,18.303753,-8.822214,10.324311,-0.87890625,3.1060555,-0.12673736
16.531282,163.34053,42.708565,25.971855,0.19416758,0.26590186,-0.1679572,0.036870442,-0.0857329,0.38792884,-0.047249764,0.6689301,0.2499948,0.54081964,0.19493675,-1.345195,-2.022609,-0.8959037,2.0381048,1.8623419,-0.6920949,0.19087897,-1.3413234,-2.0538297,-0.89364684,1.9815476,1.8381052,-0.742016,-0.014797358,-0.40657154,0.7321825,-0.213046,1.0301478,0.08442538,0.4154297,-0.5775776,-0.41858482,0.5455396,-0.1125368,-0.000352987,-0.057587657,-0.58597374,-0.39693546,0.5146274,0.99096835,0.004277346,0.047559272,0.12530592,-0.11288468,0.080682755,-0.091434576,0.0,1.0,0.0,0.0,0.0,0.0,0.0,-0.072422385,0.018584818,0.0044603944,8.913982,25.443762,-9.978115,13.496563,-1.3335228,3.2508388,-0.26322603
24.772104,125.47858,31.390965,14.81048,-0.8637046,-0.40417653,0.0030048848,0.10081582,-0.10114508,0.19338988,-0.06961579,0.64042026,0.24168563,0.50161964,0.20096055,-1.3514379,-2.0344906,-0.9006084,2.0455897,1.8622738,-0.69185406,0.19152439,-1.344007,-2.0478864,-0.895127,1.9916127,1.8390988,-0.73791736,0.09128599,-0.22217534,0.547659,-0.12564547,0.9998405,0.1051415,0.40846837,-0.5784817,-0.41867352,0.5455772,-0.08419081,-0.011538945,0.023629911,-0.5867481,-0.39646435,0.5143335,0.99090654,-0.0019095334,0.042331167,0.12770495,-0.066170156,0.03644299,-0.009782491,0.0,0.0,1.0,0.0,0.0,0.0,0.0,-0.0715183,0.01867351,0.004422784,10.695047,18.489733,-18.636917,8.9448,-2.6539564,2.3487225,-0.5537152
