Afshin1997/kuka_rl_ros2/src/catch_and_throw/input_files/idealpd/polynomial_regressor/optimizer_files/env_352_data.csv
torque0,torque1,torque2,torque3,torque4,torque5,torque6,action0,action1,action2,action3,action4,action5,action6,set_target_0,set_target_1,set_target_2,set_target_3,set_target_4,set_target_5,set_target_6,joint_pos_0,joint_pos_1,joint_pos_2,joint_pos_3,joint_pos_4,joint_pos_5,joint_pos_6,joint_vel_0,joint_vel_1,joint_vel_2,joint_vel_3,joint_vel_4,joint_vel_5,joint_vel_6,tennisball_pos_0,tennisball_pos_1,tennisball_pos_2,tennisball_lin_vel_0,tennisball_lin_vel_1,tennisball_lin_vel_2,end_effector_pos_0,end_effector_pos_1,end_effector_pos_2,end_effector_rot_0,end_effector_rot_1,end_effector_rot_2,end_effector_rot_3,end_effector_lin_vel_0,end_effector_lin_vel_1,end_effector_lin_vel_2,obs_task_0,obs_task_1,obs_task_2,obs_task_3,obs_task_4,obs_task_5,obs_task_6,to_final_target_0,to_final_target_1,to_final_target_2,joint_acc_0,joint_acc_1,joint_acc_2,joint_acc_3,joint_acc_4,joint_acc_5,joint_acc_6
0.0,0.0,0.0,0.0,0.0,0.0,0.0,0.0,0.0,0.0,0.0,0.0,0.0,0.0,1.7802359,-1.0646509,-1.8151424,-1.1170107,1.9373155,1.1170107,-0.91629785,1.7802359,-1.0646509,-1.8151424,-1.1170107,1.9373155,1.1170107,-0.91629785,0.0,0.0,0.0,0.0,0.0,0.0,0.0,3.1224556,-0.3807602,0.34358114,-3.6039693,-0.4435744,4.459119,0.5304184,-0.45448303,0.693097,0.5745483,0.17512383,0.15255436,0.7848268,0.0,0.0,0.0,1.0,0.0,0.0,0.0,0.0,0.0,0.0,-3.7724557,-0.019239813,0.20641887,0.0,0.0,0.0,0.0,0.0,0.0,0.0
0.0,0.0,0.0,0.0,0.0,0.0,0.0,0.0,0.0,0.0,0.0,0.0,0.0,0.0,1.7802359,-1.0646509,-1.8151424,-1.1170107,1.9373155,1.1170107,-0.91629785,1.7802359,-1.0646509,-1.8151424,-1.1170107,1.9373155,1.1170107,-0.91629785,0.0,0.0,0.0,0.0,0.0,0.0,0.0,3.1224556,-0.3807602,0.34358114,-3.6039693,-0.4435744,4.459119,0.5304184,-0.45448303,0.693097,0.5745483,0.17512383,0.15255436,0.7848268,0.0,0.0,0.0,1.0,0.0,0.0,0.0,0.0,0.0,0.0,-3.7724557,-0.019239813,0.20641887,0.0,0.0,0.0,0.0,0.0,0.0,0.0
0.0,0.0,0.0,0.0,0.0,0.0,0.0,0.0,0.0,0.0,0.0,0.0,0.0,0.0,1.7802359,-1.0646509,-1.8151424,-1.1170107,1.9373155,1.1170107,-0.91629785,1.7802359,-1.0646509,-1.8151424,-1.1170107,1.9373155,1.1170107,-0.91629785,0.0,0.0,0.0,0.0,0.0,0.0,0.0,3.1224556,-0.3807602,0.34358114,-3.6039693,-0.4435744,4.459119,0.5304184,-0.45448303,0.693097,0.5745483,0.17512383,0.15255436,0.7848268,0.0,0.0,0.0,1.0,0.0,0.0,0.0,0.0,0.0,0.0,-3.7724557,-0.019239813,0.20641887,0.0,0.0,0.0,0.0,0.0,0.0,0.0
-176.0,55.40177,-10.922207,110.0,9.918991,4.177865,-3.889218,-0.77657765,0.27335915,-0.54704046,0.72982216,-0.10761726,0.6964852,-0.5807023,1.7025781,-1.037315,-1.8698465,-1.0440285,1.9265537,1.1866592,-0.9743681,1.7789026,-1.0628275,-1.8206699,-1.1118208,1.9413438,1.1220156,-0.9183273,-0.1774453,0.24246329,-0.7367663,0.6923317,0.53650254,0.6657555,-0.2700475,3.086443,-0.38519287,0.38740242,-3.600366,-0.4431309,4.3564744,0.52830505,-0.45780182,0.6938211,0.57865673,0.17354651,0.15133974,0.78239,-0.28127635,-0.44134393,0.09624325,1.0,0.0,0.0,0.0,0.0,0.0,0.0,-3.736443,-0.014807135,0.1625976,-17.652256,24.064241,-73.568146,69.35605,53.4587,66.12649,-26.862093
-176.0,-40.445656,-48.978935,106.164764,10.190472,0.8341462,-3.1020532,-0.77038926,-0.23217466,-0.5435721,0.71229815,-0.10560061,0.67185026,-0.596816,1.7018638,-1.0860449,-1.8750271,-1.040591,1.9307837,1.1892006,-0.97800887,1.7771498,-1.0609964,-1.8347175,-1.097262,1.9477067,1.1342531,-0.9194278,-0.17205715,0.16222376,-1.6298952,1.714109,0.6708687,1.4059931,-0.054055315,3.0504665,-0.38961792,0.430198,-3.5967665,-0.44268787,4.2539325,0.5237503,-0.46618652,0.69436973,0.5873389,0.16998823,0.14883943,0.77716386,-0.5154113,-0.96893793,0.041728396,1.0,0.0,0.0,0.0,0.0,0.0,0.0,-3.7004666,-0.010382086,0.119802,1.3187617,-8.389226,-90.103676,103.24202,13.8484955,72.921684,22.399488
-144.06288,90.60707,25.197105,84.39362,7.0641546,6.6121445,-1.5390532,-0.72265744,0.10280329,0.21913359,0.67332095,0.023770995,0.68420434,-0.50032705,1.704884,-1.050716,-1.8128041,-1.0299299,1.9500839,1.2026736,-0.9694605,1.7723948,-1.0594114,-1.8484523,-1.0782992,1.9535661,1.1482283,-0.9201326,-0.5763824,0.1543114,-1.2823374,1.9587462,0.552601,1.3899992,-0.07665239,3.0145264,-0.39404297,0.47196898,-3.5931704,-0.44224527,4.151493,0.51649094,-0.4773178,0.6962029,0.5986372,0.16475983,0.1453532,0.7702986,-0.80280805,-1.1547377,0.23380552,1.0,0.0,0.0,0.0,0.0,0.0,0.0,-3.6645265,-0.005957037,0.07803103,-40.362095,-1.6216904,36.454247,25.01626,-13.319576,-3.0083418,-2.4595394
-94.30326,84.63591,33.683594,51.160915,5.0445724,6.4467583,-0.0020888,-0.75408244,-0.09432702,0.31483284,0.67195374,0.21956766,0.66231185,-0.5662627,1.6969866,-1.0688441,-1.816969,-1.0111037,1.9755229,1.2144594,-0.97675884,1.7635504,-1.0588182,-1.856015,-1.0593687,1.9583268,1.1612974,-0.92120355,-0.9877529,0.025881791,-0.5744582,1.8723123,0.44468835,1.2765553,-0.11755656,2.9786224,-0.39846802,0.5127163,-3.589578,-0.44180313,4.049156,0.50678253,-0.4893036,0.6996354,0.6106059,0.15829794,0.14032947,0.7631577,-1.0376983,-1.2041948,0.38296983,1.0,0.0,0.0,0.0,0.0,0.0,0.0,-3.6286225,-0.0015319884,0.03728372,-41.276134,-13.378981,72.7194,-8.320236,-12.543553,-12.150764,-4.1859446
-46.410347,98.562805,41.564587,27.903748,2.8136055,5.754948,0.6240919,-0.7830203,-0.013759538,0.31355822,0.66873854,0.34112456,0.6720783,-0.57892215,1.6852484,-1.0601941,-1.8246591,-0.9924949,1.9924393,1.2285053,-0.97909576,1.7512404,-1.0590585,-1.8566082,-1.0424887,1.9624963,1.1730791,-0.922738,-1.3125187,-0.042098563,0.11761725,1.6267334,0.40328953,1.144023,-0.16595495,2.9427528,-0.4028778,0.55244106,-3.5859892,-0.4413614,3.9469218,0.49525452,-0.5010376,0.7043952,0.6221383,0.15095443,0.13371961,0.75648904,-1.2024916,-1.1499398,0.50723803,1.0,0.0,0.0,0.0,0.0,0.0,0.0,-3.592753,0.0028778017,-0.0024410486,-32.65524,-7.1881385,70.73957,-24.53468,-5.5082617,-13.632774,-5.0096483
-11.974974,111.533356,42.80586,15.257546,0.74484277,4.4367523,0.46272528,-0.7965218,0.1288194,0.22635186,0.67345876,0.33079258,0.6765316,-0.5940695,1.6715882,-1.0461766,-1.8339729,-0.97514284,1.9955755,1.2407323,-0.98214495,1.7366949,-1.0590471,-1.8523395,-1.0280367,1.9664826,1.1836497,-0.92473406,-1.502444,0.014481347,0.53308254,1.3843714,0.39462718,1.028014,-0.2117927,2.9069176,-0.4072876,0.5911442,-3.582404,-0.44092014,3.8447897,0.48263168,-0.5118103,0.71021354,0.6330039,0.14303277,0.12636626,0.75025284,-1.2928807,-1.0424567,0.6045309,1.0,0.0,0.0,0.0,0.0,0.0,0.0,-3.5569177,0.0072875917,-0.041144192,-19.157124,5.3393064,42.476887,-24.301147,-1.6187489,-11.6408825,-4.8547
9.388693,136.68228,45.79459,10.747378,-1.0716677,3.5313253,-0.027405955,-0.8195851,0.3697742,0.06801193,0.6245134,0.3397289,0.66543967,-0.5768124,1.6547364,-1.0220697,-1.8455383,-0.96558535,2.0004556,1.2501936,-0.9824153,1.721049,-1.0571207,-1.8465068,-1.0157,1.9705548,1.1931998,-0.92713255,-1.586114,0.25097898,0.601956,1.1834412,0.41049975,0.9311271,-0.25049412,2.8711205,-0.4116974,0.6288268,-3.5788224,-0.4404793,3.7427602,0.46954727,-0.521225,0.7170074,0.6434492,0.13476042,0.11960894,0.7439801,-1.3247573,-0.8953064,0.70132715,1.0,0.0,0.0,0.0,0.0,0.0,0.0,-3.5211205,0.011697382,-0.078826785,-8.595061,23.344957,7.4513793,-20.133091,1.2766302,-9.508169,-4.24411
26.641819,155.55595,50.46045,8.784689,-1.8608344,3.1555805,-0.20792076,-0.81352645,0.5349354,0.0676703,0.5899194,0.45333248,0.6465159,-0.548074,1.6396964,-1.0036272,-1.8397398,-0.9567081,2.015888,1.2578514,-0.98194,1.7051779,-1.0521196,-1.8412635,-1.0048949,1.9751706,1.2018915,-0.9298505,-1.5882571,0.5819719,0.500065,1.0460572,0.4781656,0.84914947,-0.28012457,2.8353615,-0.41609955,0.66548985,-3.5752442,-0.44003892,3.6408324,0.45640564,-0.52900696,0.7249116,0.65367013,0.12619457,0.114176966,0.73739666,-1.3193913,-0.7265317,0.8171465,1.0,0.0,0.0,0.0,0.0,0.0,0.0,-3.4853616,0.016099542,-0.11548984,-0.49245358,32.803173,-9.664226,-13.76009,6.574869,-8.032727,-3.3618152
39.213852,160.08128,52.967934,6.689991,-2.0533574,2.9876375,-0.1385896,-0.7934506,0.6424183,0.13157679,0.5573616,0.5097996,0.643801,-0.5352325,1.6258328,-0.9878778,-1.8281058,-0.94915867,2.0261505,1.2662716,-0.98337376,1.6896693,-1.0438074,-1.8371475,-0.9950615,1.9806161,1.2098643,-0.9328117,-1.5393695,0.9133059,0.38399696,0.9621784,0.5659606,0.77999973,-0.302733,2.7996368,-0.42049408,0.7011344,-3.5716698,-0.43959898,3.5390065,0.44345474,-0.5350342,0.73405826,0.6636659,0.1172473,0.11010557,0.73053217,-1.2935148,-0.549525,0.944796,1.0,0.0,0.0,0.0,0.0,0.0,0.0,-3.449637,0.020494074,-0.15113437,4.607296,32.857277,-11.022162,-8.427418,8.577132,-6.867957,-2.6486993
38.319855,144.37451,48.27461,6.705902,-1.588511,2.6263072,-0.051091343,-0.7869328,0.70121974,0.16003612,0.5496563,0.5400463,0.6531085,-0.52156204,1.610976,-0.9736854,-1.8211439,-0.9400959,2.0346208,1.2751751,-0.9849679,1.6747404,-1.0327123,-1.8339069,-0.98570216,1.9869161,1.2172343,-0.9359531,-1.4780674,1.1742675,0.30607396,0.92695576,0.65091157,0.7225645,-0.31901717,2.7639465,-0.4248886,0.73576146,-3.5680988,-0.43915945,3.4372826,0.4307518,-0.53946686,0.7443582,0.6734072,0.10788119,0.10706071,0.7234794,-1.2671349,-0.39576364,1.0562975,1.0,0.0,0.0,0.0,0.0,0.0,0.0,-3.4139466,0.024888605,-0.18576145,5.8954,25.870085,-7.2371244,-3.5747766,8.315802,-5.818367,-1.9664526
33.135864,119.843925,40.266457,6.5122566,-1.0264511,2.1100433,0.028336812,-0.76786083,0.73694724,0.16699123,0.55299073,0.5544784,0.66771716,-0.5170879,1.5979544,-0.95901763,-1.8172078,-0.9304031,2.042364,1.284006,-0.98766184,1.660422,-1.0197042,-1.8311203,-0.97642577,1.993937,1.224116,-0.9392261,-1.4169877,1.3422209,0.27131167,0.92751646,0.718835,0.6762519,-0.33116126,2.7282944,-0.42928314,0.76937205,-3.5645316,-0.43872038,3.3356602,0.4182701,-0.5426483,0.7555325,0.6828679,0.09814269,0.10462391,0.71631926,-1.2450588,-0.2745162,1.1354375,1.0,0.0,0.0,0.0,0.0,0.0,0.0,-3.3782945,0.029283136,-0.21937203,5.9276104,16.625381,-2.9869616,-0.02746582,6.6531897,-4.7450066,-1.5220046
23.64059,91.95573,30.474937,6.856165,-0.42340776,1.5293471,0.06654215,-0.7593188,0.74363023,0.16770706,0.5600992,0.5555475,0.6665824,-0.5028501,1.5844901,-0.9453412,-1.8143495,-0.9204159,2.049492,1.2907742,-0.98951113,1.6466051,-1.0057138,-1.8284519,-0.9669882,2.0014634,1.2305971,-0.94259065,-1.3703896,1.417549,0.26670092,0.9486362,0.763871,0.6386019,-0.33913255,2.6926765,-0.4336624,0.80196714,-3.5609677,-0.43828174,3.2341394,0.405941,-0.54486847,0.7671977,0.6920493,0.08816566,0.10243572,0.70908487,-1.231877,-0.19150162,1.1743003,1.0,0.0,0.0,0.0,0.0,0.0,0.0,-3.3426766,0.03366241,-0.25196713,4.5271397,7.4229956,-0.06671548,1.9813895,4.423964,-3.8435817,-1.0803759
15.333518,70.443825,22.409767,6.4448047,-0.07239258,1.0446998,0.0969277,-0.76120925,0.7541984,0.15377508,0.53677183,0.57642335,0.6768901,-0.50378144,1.5704842,-0.930294,-1.8130744,-0.913311,2.0591056,1.2982862,-0.9929688,1.6330858,-0.9914211,-1.8257797,-0.9574305,2.009356,1.2367655,-0.946021,-1.3461941,1.432995,0.26861134,0.9575075,0.79758453,0.6095668,-0.3451705,2.657093,-0.4380417,0.83354783,-3.5574074,-0.43784356,3.1327202,0.3936844,-0.54649353,0.7789821,0.70094776,0.07812909,0.100283876,0.70179135,-1.2247449,-0.13577323,1.1770762,1.0,0.0,0.0,0.0,0.0,0.0,0.0,-3.3070931,0.03804168,-0.28354782,2.3011923,1.4819384,0.5190313,0.69942474,3.342867,-2.9065132,-0.8671403
11.369508,59.78343,18.426186,6.103135,0.068567395,0.80130327,0.12102376,-0.7545807,0.76195025,0.15960582,0.52677685,0.585981,0.6740155,-0.50887275,1.5576278,-0.9152261,-1.8098191,-0.9047528,2.067954,1.304167,-0.9969083,1.6197077,-0.9771942,-1.8230293,-0.94787467,2.017508,1.2426859,-0.94950575,-1.3353791,1.419148,0.27805793,0.9542046,0.8211909,0.58636737,-0.350345,2.6215477,-0.44242096,0.86411506,-3.5538507,-0.43740582,3.0314023,0.38147354,-0.5476532,0.7906617,0.7095511,0.068142086,0.09807619,0.6944601,-1.219818,-0.09253933,1.1618966,1.0,0.0,0.0,0.0,0.0,0.0,0.0,-3.2715478,0.042420954,-0.31411505,0.96657276,-1.4230967,1.2478232,-0.54661036,2.3546934,-2.2713304,-0.7702112
9.854755,53.800613,15.691231,5.108172,-0.028390825,0.5608649,0.12361704,-0.75121206,0.7675385,0.1320459,0.50231,0.58942485,0.6781393,-0.4991374,1.5445865,-0.90044034,-1.8098247,-0.8976437,2.0764506,1.3104999,-0.9994195,1.6063753,-0.96315706,-1.820317,-0.9384991,2.0258317,1.2484118,-0.9530267,-1.332925,1.3983825,0.26986063,0.9311704,0.8361453,0.5685608,-0.35347798,2.5860367,-0.4467926,0.8936699,-3.5502975,-0.4369685,2.9301858,0.36935425,-0.5484085,0.8020838,0.7178515,0.05830157,0.09586198,0.68709564,-1.2109047,-0.054191206,1.1323907,1.0,0.0,0.0,0.0,0.0,0.0,0.0,-3.2360368,0.046792597,-0.3436699,0.12528896,-2.0979881,-0.54507256,-2.543199,1.5124559,-1.6721845,-0.5497217
12.510562,52.146492,14.902939,2.5759835,-0.29382187,0.38912556,0.19969663,-0.7509391,0.7683961,0.12587532,0.4432757,0.61026996,0.6801757,-0.49214292,1.5312815,-0.88631743,-1.8077295,-0.89417154,2.0868587,1.3164294,-1.002241,1.5930296,-0.94930685,-1.8177364,-0.9296318,2.0343118,1.2539927,-0.9565677,-1.335401,1.380535,0.25522333,0.87109745,0.8521961,0.5550853,-0.355152,2.55056,-0.45115662,0.9222134,-3.546748,-0.43653163,2.8290706,0.35738754,-0.5487442,0.8131404,0.7257876,0.04869516,0.093715735,0.67976356,-1.1919183,-0.011094022,1.0936356,1.0,0.0,0.0,0.0,0.0,0.0,0.0,-3.20056,0.05115661,-0.37221336,-0.38383007,-1.798296,-1.1738479,-6.268108,1.6245246,-1.1740685,-0.40209293
18.482754,56.802757,16.79941,0.14134121,-0.6361078,0.38155085,0.29653883,-0.7414498,0.77760184,0.14271985,0.38874125,0.6153052,0.671972,-0.48904842,1.5188847,-0.8715467,-1.8034644,-0.8907577,2.0958424,1.3211899,-1.0054725,1.5796934,-0.93554246,-1.8152092,-0.9215723,2.042933,1.2594553,-0.96012014,-1.3336447,1.3750509,0.25286534,0.78331554,0.86526227,0.5438944,-0.356125,2.5151215,-0.45552063,0.94974643,-3.543202,-0.4360952,2.7280564,0.3456993,-0.5485382,0.82383496,0.73326325,0.03932816,0.09169837,0.67258435,-1.1603668,0.04531067,1.058066,1.0,0.0,0.0,0.0,0.0,0.0,0.0,-3.1651216,0.055520624,-0.39974642,0.029754639,-0.5650997,0.09551644,-9.032642,1.3070226,-0.9083152,-0.3404677
24.236814,57.72162,17.140898,-3.4375048,-1.0332897,0.20544589,0.41318902,-0.74036825,0.7805636,0.13350338,0.29320884,0.63288105,0.67445916,-0.46899107,1.5056566,-0.8574861,-1.8018588,-0.89225143,2.1062212,1.3269012,-1.0070193,1.566382,-0.9217695,-1.8127143,-0.9147059,2.051703,1.2648245,-0.96366495,-1.3308215,1.3780777,0.24942411,0.6535384,0.88102895,0.53576666,-0.35481572,2.4797134,-0.45988464,0.9762701,-3.5396595,-0.4356592,2.6271431,0.33444214,-0.547699,0.83412504,0.74017024,0.030256987,0.08988704,0.66569716,-1.1124153,0.11080364,1.0160156,1.0,0.0,0.0,0.0,0.0,0.0,0.0,-3.1297135,0.059884638,-0.42627007,0.12874603,0.29785633,-0.0059247017,-13.240361,1.582098,-0.5242348,-0.10803938
29.86073,58.914307,17.771545,-6.7998104,-1.3730717,0.05579868,0.5390838,-0.7399606,0.7852234,0.1476431,0.18259317,0.653451,0.672981,-0.4669417,1.492386,-0.8432472,-1.79795,-0.8964466,2.117048,1.3321226,-1.0103592,1.5530993,-0.90792024,-1.8101737,-0.9094435,2.0606637,1.2701288,-0.9671945,-1.3280554,1.3871776,0.25662252,0.48297033,0.9011826,0.52987117,-0.35308075,2.4443436,-0.4642334,1.0017853,-3.5361204,-0.43522364,2.5263307,0.32378006,-0.5461426,0.84396213,0.7463969,0.02154355,0.08832185,0.65926236,-1.0490612,0.18417199,0.9693794,1.0,0.0,0.0,0.0,0.0,0.0,0.0,-3.0943437,0.06423339,-0.45178527,0.12509823,0.9209633,1.0511398,-17.312748,2.031982,-0.2294898,-0.05300641
35.989616,60.594017,18.829226,-9.991366,-1.6949983,-0.06621513,0.6717766,-0.7328457,0.7899907,0.18127275,0.0631055,0.65728575,0.6736136,-0.4530502,1.4798146,-0.8289212,-1.7920464,-0.903133,2.1263924,1.3374902,-1.0124996,1.5398718,-0.8939594,-1.8073967,-0.90613234,2.0698113,1.2753874,-0.97069734,-1.3215053,1.3991549,0.28562325,0.2797521,0.9189687,0.52603745,-0.34995812,2.409008,-0.46858215,1.0262932,-3.5325851,-0.4347885,2.4256191,0.31386185,-0.54377747,0.85331845,0.75183,0.013222859,0.087015584,0.6534562,-0.97041214,0.26553693,0.92067575,1.0,0.0,0.0,0.0,0.0,0.0,0.0,-3.0590081,0.06858215,-0.47629315,0.52382946,1.228714,3.1960785,-20.551216,1.8217921,0.044584274,0.1044929
44.53119,62.071136,20.092335,-14.654198,-2.1379018,-0.25185585,0.85482574,-0.7184567,0.7953158,0.22937351,-0.095197976,0.66318107,0.65910417,-0.4391463,1.4680262,-0.81442785,-1.7844594,-0.91565216,2.1361294,1.3412979,-1.014612,1.5267721,-0.8798727,-1.8041198,-0.905172,2.0791116,1.2806097,-0.9741582,-1.3065562,1.4120413,0.34241715,0.03419465,0.9341708,0.5225937,-0.34545803,2.3737068,-0.4729309,1.0497947,-3.5290532,-0.4343538,2.3250082,0.30487442,-0.5405121,0.86215454,0.7563215,0.0053371275,0.08597838,0.64850354,-0.8707635,0.35724765,0.8672927,1.0,0.0,0.0,0.0,0.0,0.0,0.0,-3.023707,0.0729309,-0.49979466,1.4041185,1.3448715,5.908799,-24.740294,1.6036272,0.17567873,0.2723813
52.832504,67.16743,23.174353,-17.377394,-2.3794405,-0.23960978,1.0362996,-0.68940437,0.79833865,0.333141,-0.22350894,0.6593448,0.64381313,-0.39445394,1.4578317,-0.8000388,-1.7708057,-0.9275229,2.145046,1.3449911,-1.0136036,1.5139471,-0.86567056,-1.7998588,-0.9067522,2.0885186,1.285792,-0.9775428,-1.2746371,1.4231826,0.45442703,-0.22236243,0.9435008,0.51884377,-0.33662337,2.3384438,-0.47727203,1.0722909,-3.5255249,-0.43391952,2.2244978,0.2969818,-0.53622437,0.87051916,0.75971425,-0.002170695,0.08512825,0.6446571,-0.7573946,0.46078983,0.82181656,1.0,0.0,0.0,0.0,0.0,0.0,0.0,-2.9884439,0.07727203,-0.5222909,3.17564,1.1975288,11.294633,-25.751144,1.1066198,0.20192862,0.7424176
50.351604,69.114914,24.070417,-14.157873,-2.0708103,-0.16630286,0.99242663,-0.6706589,0.80349576,0.3913155,-0.28487647,0.6589088,0.6317638,-0.31899428,1.4468813,-0.785321,-1.7607273,-0.93523985,2.1544094,1.3489684,-1.0094422,1.5014979,-0.85136545,-1.7943428,-0.910565,2.0979943,1.2909323,-0.9807853,-1.2348253,1.4333754,0.5835299,-0.43425167,0.94948965,0.51408964,-0.3205158,2.303215,-0.48160553,1.0937828,-3.522,-0.4334857,2.124088,0.2901497,-0.53095245,0.8785274,0.7620183,-0.009423415,0.08436822,0.6419666,-0.6530158,0.55765754,0.7888728,1.0,0.0,0.0,0.0,0.0,0.0,0.0,-2.9532151,0.081605524,-0.5437828,4.0294886,1.1260271,12.82742,-21.211195,0.88415146,0.069749355,1.5161157
46.11946,69.82417,24.583353,-9.674686,-1.6189752,-0.064563334,0.925776,-0.6368766,0.8002057,0.4683629,-0.323268,0.65015835,0.6133552,-0.16010623,1.4378102,-0.7713449,-1.7475065,-0.94289184,2.1630101,1.3522679,-0.99679595,1.4895369,-0.83700216,-1.787442,-0.9160067,2.1074815,1.2960135,-0.983756,-1.18296,1.4376886,0.7247003,-0.58075434,0.9500034,0.50764275,-0.28948337,2.2680206,-0.48593903,1.1142713,-3.5184786,-0.4330523,2.0237787,0.28424835,-0.5247574,0.88631856,0.76331043,-0.016570741,0.083599605,0.64038545,-0.5633721,0.6446621,0.77023584,1.0,0.0,0.0,0.0,0.0,0.0,0.0,-2.9180207,0.08593902,-0.5642713,5.289817,0.5594492,13.8714075,-14.627493,0.4393816,-0.1414895,3.0332446
34.235027,66.15986,22.70048,-2.8579707,-0.92065257,0.047786742,0.7840809,-0.64095265,0.7973547,0.52444553,-0.35494938,0.64954877,0.60384834,0.085177526,1.4254416,-0.7572667,-1.7349974,-0.9515016,2.1724362,1.3563983,-0.97523826,1.4779745,-0.822636,-1.7792003,-0.92247736,2.1169648,1.3010222,-0.98624796,-1.1469148,1.4367272,0.8563411,-0.6690113,0.9488349,0.5000151,-0.23587306,2.2328644,-0.49027252,1.1337574,-3.514961,-0.43261933,1.9235693,0.27903366,-0.5178604,0.8939877,0.76372284,-0.023704669,0.082751624,0.63977945,-0.5010011,0.7120031,0.7597995,1.0,0.0,0.0,0.0,0.0,0.0,0.0,-2.8828645,0.090272516,-0.58375734,3.6954641,0.042891502,12.854338,-8.813,0.32088757,-0.341475,5.308089
14.699955,58.51024,18.469265,7.8455997,0.08923435,0.18580556,0.4362478,-0.6569704,0.79206467,0.53104126,-0.30104932,0.6237539,0.6114581,0.28608426,1.4122775,-0.74342954,-1.7260962,-0.9525823,2.1793401,1.362168,-0.9576395,1.4665667,-0.80831945,-1.7699745,-0.9291531,2.1263528,1.3059603,-0.9880819,-1.1387712,1.430541,0.9437404,-0.66741604,0.93707883,0.4927014,-0.16610219,2.1977386,-0.49459076,1.1522421,-3.5114467,-0.4321868,1.8234602,0.27413177,-0.5105133,0.9016193,0.763554,-0.030910658,0.081839845,0.6397906,-0.4805215,0.7466797,0.7579129,1.0,0.0,0.0,0.0,0.0,0.0,0.0,-2.8477387,0.09459075,-0.60224205,0.825119,-0.46811104,8.4416275,0.08710623,-0.7317066,-0.43746233,6.9228706
-3.971734,50.223564,14.014173,18.577566,1.0652108,0.31562433,0.027584076,-0.6679511,0.782526,0.52000046,-0.19898267,0.58371043,0.6323183,0.398029,1.3997716,-0.73006684,-1.7179744,-0.9490514,2.1847239,1.3691921,-0.94827896,1.4550787,-0.79410875,-1.7602756,-0.9350697,2.1355042,1.3108412,-0.9891862,-1.1523837,1.4184052,0.97770053,-0.5670904,0.9093003,0.48724347,-0.09205661,2.162651,-0.498909,1.1697266,-3.507936,-0.4317547,1.7234511,0.26912308,-0.5030594,0.9093044,0.7631963,-0.038295474,0.080914855,0.63993555,-0.5008882,0.7487475,0.76534164,1.0,0.0,0.0,0.0,0.0,0.0,0.0,-2.8126512,0.09890899,-0.6197266,-1.4446259,-1.0520697,3.1375885,9.852433,-2.3449183,-0.37608743,7.335095
-14.568351,44.021152,10.781063,23.832811,1.5189141,0.32773045,-0.21258026,-0.69402546,0.7789384,0.5131136,-0.15329555,0.5594873,0.63792855,0.4491269,1.3856761,-0.7162149,-1.7089642,-0.9503992,2.191453,1.374634,-0.94427353,1.4432894,-0.78002393,-1.7505252,-0.93971884,2.1443238,1.3156763,-0.9895801,-1.1883665,1.4057281,0.9735018,-0.43158564,0.87420404,0.4826162,-0.022094756,2.1275978,-0.50322723,1.1862117,-3.5044289,-0.43132305,1.6235421,0.26376343,-0.49573517,0.9170638,0.7629305,-0.045888174,0.08005517,0.6398612,-0.54165053,0.7331817,0.77284396,1.0,0.0,0.0,0.0,0.0,0.0,0.0,-2.777598,0.10322723,-0.6362117,-3.7481546,-1.1097431,-0.61899424,13.315582,-3.1072855,-0.36417842,6.929497
-15.915914,39.28331,8.801903,23.220268,1.458009,0.16980052,-0.25593,-0.7144409,0.76998675,0.50683224,-0.13649198,0.54030377,0.63828456,0.482722,1.3718454,-0.7030253,-1.699842,-0.95336807,2.1983542,1.3795048,-0.9413079,1.4310652,-0.76608026,-1.7409675,-0.94313395,2.1527848,1.3204714,-0.98932546,-1.2344756,1.3910011,0.9493598,-0.3122329,0.83758855,0.47871876,0.04112481,2.092579,-0.50753784,1.2016985,-3.500925,-0.4308918,1.5237329,0.2579956,-0.4886093,0.9248295,0.76285344,-0.05361732,0.07934035,0.639441,-0.58030474,0.7130243,0.7711914,1.0,0.0,0.0,0.0,0.0,0.0,0.0,-2.742579,0.107537836,-0.6516985,-4.7777414,-1.3307095,-2.559936,11.692577,-3.307414,-0.30121207,6.264104
-15.510013,36.726765,8.245257,23.286018,1.514669,0.11229571,-0.27331722,-0.72267663,0.75076646,0.5099766,-0.05244751,0.5201563,0.63889104,0.52324647,1.3587976,-0.6910036,-1.6899699,-0.9483787,2.2048004,1.3843606,-0.9370008,1.4184214,-0.7523416,-1.7316501,-0.94529307,2.1608834,1.3252321,-0.98848337,-1.2750505,1.3685853,0.92540854,-0.18469816,0.8020897,0.475436,0.098409116,2.057598,-0.5118408,1.216188,-3.4974248,-0.430461,1.4240235,0.25185013,-0.48168945,0.93257344,0.76299083,-0.06147218,0.07875769,0.6386417,-0.6194708,0.6903377,0.76900095,1.0,0.0,0.0,0.0,0.0,0.0,0.0,-2.7075982,0.111840814,-0.66618794,-4.210782,-2.107668,-2.538681,12.512788,-3.2090187,-0.24810433,5.663584
-13.898358,36.282524,8.765034,23.929024,1.5688667,0.13271041,-0.28946608,-0.7179945,0.72847486,0.51310873,0.061787568,0.46785524,0.6419213,0.5774249,1.346622,-0.67949414,-1.6803392,-0.93911433,2.207669,1.3894243,-0.9307409,1.4055086,-0.7388958,-1.7225082,-0.9459654,2.1685472,1.3299662,-0.9870958,-1.297069,1.3371308,0.9098692,-0.028753297,0.7556573,0.4728654,0.15198392,2.0226479,-0.5161438,1.229681,-3.4939282,-0.4300306,1.3244138,0.24530792,-0.47499084,0.9403374,0.76334786,-0.069539264,0.07825251,0.6374486,-0.65995634,0.6688582,0.772568,1.0,0.0,0.0,0.0,0.0,0.0,0.0,-2.672648,0.11614379,-0.679681,-2.314067,-3.016138,-1.7269492,15.374954,-4.309237,-0.19167066,5.284536
-13.783219,39.089973,9.940174,25.331017,1.6195362,0.24273841,-0.34015048,-0.7352671,0.7293017,0.49856484,0.15698582,0.456672,0.64647096,0.563866,1.3319819,-0.6659656,-1.6726518,-0.93026686,2.2142143,1.3946133,-0.9307092,1.3924071,-0.72570646,-1.7135265,-0.9449593,2.1757913,1.3346812,-0.98524374,-1.3150642,1.3132956,0.8936323,0.14309525,0.7148695,0.47092748,0.19610853,1.9877357,-0.5204468,1.2421788,-3.490435,-0.4296007,1.2249037,0.23831558,-0.46847534,0.94819635,0.7639522,-0.07791562,0.077792354,0.63581014,-0.70485616,0.6526043,0.7841038,1.0,0.0,0.0,0.0,0.0,0.0,0.0,-2.6377358,0.12044677,-0.6921788,-1.8983126,-2.2615433,-1.799047,17.002476,-3.748989,-0.15791059,4.348901
-8.213304,40.98022,11.065775,22.102718,1.3374145,0.1406954,-0.23392662,-0.73377794,0.719245,0.49576825,0.1942949,0.47234142,0.63873065,0.5633394,1.3190292,-0.65378195,-1.6639496,-0.9255298,2.2230253,1.3985542,-0.9289098,1.3792025,-0.71272695,-1.7046726,-0.94244826,2.1827607,1.3393732,-0.9830083,-1.3224148,1.2932388,0.8821605,0.2866249,0.6920934,0.46872523,0.23256265,1.952858,-0.5247345,1.2536823,-3.4869452,-0.42917117,1.125493,0.23097229,-0.46203613,0.9561396,0.76473206,-0.08658215,0.07734056,0.63380337,-0.7373777,0.64564973,0.79166883,1.0,0.0,0.0,0.0,0.0,0.0,0.0,-2.602858,0.12473449,-0.70368224,-0.8034706,-1.9020796,-1.2859225,14.211342,-1.9923449,-0.16969442,3.5792975
-3.82092,42.77199,11.917758,19.123152,1.0592339,0.04685952,-0.14195585,-0.739434,0.71500355,0.49090636,0.23429875,0.4862228,0.63953596,0.5524408,1.3052591,-0.6412266,-1.655582,-0.9190184,2.231383,1.4033269,-0.92776424,1.3659483,-0.699901,-1.6959102,-0.9387537,2.189631,1.3440462,-0.9804639,-1.3265945,1.2793194,0.87379944,0.3966899,0.68616676,0.4669893,0.26141906,1.9180145,-0.5290222,1.2641922,-3.483459,-0.42874208,1.0261818,0.22337723,-0.45563507,0.96412134,0.765588,-0.09547616,0.07687255,0.6315456,-0.7586083,0.64704084,0.7942685,1.0,0.0,0.0,0.0,0.0,0.0,0.0,-2.5680146,0.12902221,-0.7141922,-0.4765272,-1.3073683,-0.9209871,10.89344,-0.35345554,-0.11020899,2.8159022
2.2998428,43.92924,12.22919,14.294729,0.50170124,-0.18160248,-0.038288243,-0.73326385,0.71558404,0.46708226,0.24389595,0.4585091,0.6440669,0.54676235,1.292622,-0.62834257,-1.649202,-0.9143641,2.235482,1.4084529,-0.9257877,1.3527075,-0.68715703,-1.6873081,-0.9343077,2.1964135,1.3487097,-0.9776754,-1.32321,1.2729102,0.8556416,0.46026912,0.6762266,0.4664933,0.28432164,1.8832054,-0.53330994,1.2737099,-3.4799762,-0.42831343,0.9269699,0.21574783,-0.44914246,0.97204643,0.7664278,-0.10448432,0.07648932,0.62914294,-0.75830793,0.65791464,0.78585446,1.0,0.0,0.0,0.0,0.0,0.0,0.0,-2.5332055,0.13330993,-0.7237099,0.29037,-0.57594776,-1.8388867,6.2640247,-0.81700087,0.06119609,2.2167861
7.231256,43.80083,11.93961,9.255555,0.022145748,-0.4483758,0.08341791,-0.74331874,0.71808887,0.45112532,0.21029136,0.4806081,0.6358437,0.5311795,1.2783756,-0.61534816,-1.6421956,-0.9132786,2.2444744,1.412294,-0.92455745,1.3394667,-0.67442644,-1.6789329,-0.9296938,2.2031808,1.3533674,-0.9747028,-1.324508,1.2732658,0.83147436,0.4614405,0.6773584,0.466012,0.30131194,1.8484306,-0.53759,1.2822362,-3.476497,-0.4278852,0.82785714,0.20827103,-0.44249725,0.9797835,0.7671539,-0.113429636,0.07628832,0.6267285,-0.7374471,0.67390364,0.7635915,1.0,0.0,0.0,0.0,0.0,0.0,0.0,-2.4984307,0.13759002,-0.7322362,-0.19109249,0.08313656,-2.364266,0.025337934,0.23517609,0.120055676,1.6225696
13.762587,41.57081,11.148267,3.1032133,-0.5863577,-0.80693156,0.22947067,-0.7268611,0.70486796,0.44014946,0.16307048,0.42601848,0.642299,0.5496953,1.2667806,-0.60393965,-1.634918,-0.91338676,2.2457826,1.4175973,-0.9197332,1.3262888,-0.66173303,-1.6708076,-0.92548716,2.2098107,1.3580309,-0.9715728,-1.3157451,1.2681301,0.80650294,0.4068033,0.65851974,0.46711057,0.31664357,1.813694,-0.5418625,1.2897722,-3.4730213,-0.42745742,0.72884345,0.20119476,-0.43567657,0.98717433,0.7676559,-0.1221302,0.0764056,0.62446034,-0.6897845,0.693024,0.7249725,1.0,0.0,0.0,0.0,0.0,0.0,0.0,-2.463694,0.14186248,-0.73977214,0.8391619,-0.47576427,-2.4003148,-5.554843,-1.8213868,0.35791397,1.4491081
18.874153,38.123634,10.004423,-2.1899672,-1.0500197,-1.1562032,0.35956758,-0.7127452,0.6877949,0.43472347,0.09497331,0.37864643,0.63955367,0.55859774,1.2550143,-0.59295356,-1.6273353,-0.9159898,2.2476754,1.4219863,-0.9157131,1.3132654,-0.6491684,-1.6628978,-0.92218935,2.2161126,1.3627058,-0.96830267,-1.2978178,1.2527577,0.7862591,0.30376294,0.62068874,0.4686619,0.33020723,1.7789879,-0.54613495,1.2963187,-3.469549,-0.42703006,0.62992877,0.194767,-0.42865753,0.9940682,0.7678339,-0.13041762,0.07695471,0.62249523,-0.6196558,0.71062624,0.67177004,1.0,0.0,0.0,0.0,0.0,0.0,0.0,-2.428988,0.14613494,-0.74631864,1.7897129,-1.5025616,-1.9104123,-10.392153,-3.7684202,0.46707988,1.268059
20.41679,34.254917,8.561262,-4.7179556,-1.2077041,-1.4120697,0.408363,-0.7039305,0.6736688,0.41720927,0.030863198,0.35520908,0.6422343,0.55736154,1.2428724,-0.5818015,-1.621177,-0.919103,2.2516334,1.4269292,-0.91256654,1.3004481,-0.6368135,-1.6552074,-0.92011607,2.2219949,1.3673998,-0.96491426,-1.2763098,1.2299017,0.76362455,0.17495227,0.57717025,0.4706309,0.34145176,1.7443199,-0.5504074,1.3018767,-3.46608,-0.4266031,0.53111297,0.18912125,-0.42152405,1.0003649,0.7676492,-0.13816503,0.07798508,0.6209215,-0.5390651,0.7214003,0.61006725,1.0,0.0,0.0,0.0,0.0,0.0,0.0,-2.39432,0.1504074,-0.75187665,2.1750689,-2.2464752,-2.1686673,-12.965009,-4.353726,0.53042173,1.0427177
28.781017,29.702076,6.837373,-14.068672,-1.934794,-1.9976249,0.6557213,-0.68028957,0.6497729,0.40685433,-0.17510761,0.3253027,0.6353192,0.5612516,1.2324191,-0.57183623,-1.614522,-0.93762684,2.2545252,1.4309317,-0.9087891,1.2879187,-0.62476575,-1.6477344,-0.920056,2.2274156,1.372111,-0.96142477,-1.2447166,1.1965151,0.7422215,-0.050452664,0.53006315,0.47249106,0.35107368,1.7096825,-0.5546646,1.3064474,-3.4626145,-0.42617658,0.43239602,0.18455887,-0.41429138,1.0058483,0.7669656,-0.14508039,0.079582326,0.6199854,-0.4207653,0.7277223,0.5224965,1.0,0.0,0.0,0.0,0.0,0.0,0.0,-2.3596826,0.1546646,-0.7564474,3.254962,-3.3095837,-2.029717,-22.592161,-4.794693,0.59202313,0.8820653
30.769156,26.704456,6.2254553,-16.055273,-1.9161482,-2.188278,0.7501677,-0.6463642,0.6165153,0.42287686,-0.2666892,0.3089086,0.6369236,0.5801464,1.2232822,-0.5631142,-1.6054467,-0.9467249,2.2583065,1.4358033,-0.90341014,1.2758166,-0.6131519,-1.6403472,-0.92235625,2.2324052,1.3768374,-0.95783895,-1.1983399,1.1497461,0.7376838,-0.2898445,0.48813897,0.4739236,0.3609037,1.6750832,-0.5589218,1.3100317,-3.4591527,-0.4257505,0.3337778,0.18123245,-0.4070511,1.0104272,0.7656827,-0.1510375,0.081680775,0.6198757,-0.29644212,0.7265526,0.4314486,1.0,0.0,0.0,0.0,0.0,0.0,0.0,-2.3250833,0.15892181,-0.76003164,4.8118353,-4.641652,-0.4257083,-23.952496,-4.2779207,0.5141854,0.91040134
25.762636,16.874247,2.871521,-13.071016,-1.5530257,-2.3127344,0.5959613,-0.59599423,0.55936223,0.3799285,-0.29504195,0.16595408,0.6401217,0.59190065,1.2162172,-0.5572157,-1.6023544,-0.9518604,2.2490005,1.4408495,-0.89864886,1.26434,-0.60219324,-1.6331546,-0.9266554,2.2366433,1.3815771,-0.95415777,-1.1300234,1.078093,0.7128204,-0.47672254,0.4022468,0.47476333,0.37024462,1.6405182,-0.563179,1.3126304,-3.4556942,-0.42532483,0.23525813,0.1790657,-0.39994812,1.0141029,0.7639011,-0.1560718,0.08427716,0.62047887,-0.18415943,0.706034,0.3416864,1.0,0.0,0.0,0.0,0.0,0.0,0.0,-2.2905183,0.16317901,-0.7626304,7.059145,-7.121134,-2.5671363,-18.725002,-8.645672,0.38452744,0.8477509
10.579784,-7.886466,-6.491583,-6.0296736,-0.8092556,-2.5216568,0.1654454,-0.5716022,0.4571046,0.27153164,-0.2934077,-0.11421428,0.64557165,0.573293,1.2071798,-0.5564828,-1.6060015,-0.95599616,2.2252219,1.4461343,-0.8968285,1.2535483,-0.592317,-1.6266963,-0.932202,2.2392716,1.3863207,-0.95041174,-1.0618047,0.9575725,0.6233057,-0.5812546,0.21624857,0.47497198,0.375538,1.6059875,-0.5674286,1.3142447,-3.4522393,-0.42489958,0.13683698,0.1777916,-0.3933792,1.0168258,0.7620002,-0.16020246,0.087570764,0.62130684,-0.10204636,0.64168376,0.24486883,1.0,0.0,0.0,0.0,0.0,0.0,0.0,-2.2559876,0.16742858,-0.76424474,7.0100307,-12.022268,-9.022581,-10.61995,-18.667894,0.22211075,0.3682077
-14.726961,-101.55945,-37.888615,-6.34302,1.6414425,-4.0614586,-0.12356512,-0.47924152,0.018224683,0.15868072,-0.35348326,-0.3415822,0.65381104,0.5585389,1.2056241,-0.5904945,-1.6108283,-0.9675503,2.2051134,1.4517018,-0.89455783,1.2437102,-0.5855373,-1.6216037,-0.9385649,2.2395043,1.3910643,-0.9466476,-0.9568371,0.58435833,0.47149473,-0.6561422,-0.041847702,0.474236,0.37525108,1.5714912,-0.57167053,1.3148756,-3.4487877,-0.42447478,0.038514223,0.17699814,-0.38869476,1.0179745,0.7603986,-0.16293082,0.09110751,0.6220506,-0.066343725,0.40922982,0.0681036,1.0,0.0,0.0,0.0,0.0,0.0,0.0,-2.2214913,0.17167053,-0.7648756,10.776579,-37.42411,-15.109861,-7.9326987,-26.100143,-0.033724308,-0.46343803
-27.989496,-176.0,-76.27959,-19.243702,3.9354856,-6.7358494,-0.11647348,-0.17161845,-0.5582274,-0.11079833,-0.4325054,-0.52342564,0.625914,0.49735802,1.2265483,-0.64136004,-1.6326835,-0.98181546,2.1871617,1.4536557,-0.8969118,1.2362639,-0.5819267,-1.6252906,-0.94592345,2.242453,1.3982493,-0.9409713,-0.6720962,0.28587893,-0.64725685,-0.7630028,0.40333793,0.79861075,0.6303604,1.5370293,-0.5759125,1.314524,-3.4453397,-0.4240504,-0.05971023,0.17651749,-0.38799286,1.0163883,0.75934815,-0.16320486,0.09396251,0.6228367,-0.03955763,-0.04240793,-0.23581359,1.0,0.0,0.0,0.0,0.0,0.0,0.0,-2.1870294,0.17591247,-0.76452404,29.033173,-30.066174,-111.41302,-10.860527,43.45197,32.068382,25.105022
13.190796,-170.76688,-55.912323,-25.582165,3.1795151,-6.5733533,0.39789516,0.50708133,-0.6871018,-0.22401986,-0.094860114,-0.57325035,0.66820616,0.44090182,1.286972,-0.6506369,-1.6476926,-0.95540947,2.185128,1.4650699,-0.8968811,1.2345263,-0.5840715,-1.6341846,-0.9523026,2.2447228,1.4062239,-0.9347257,-0.0061504534,-0.38138863,-0.97219235,-0.59457844,0.1685601,0.796174,0.6230592,1.5026016,-0.5801544,1.3131909,-3.441895,-0.42362642,-0.15783648,0.17671585,-0.39124298,1.0123398,0.7583277,-0.16154754,0.095201716,0.62432206,0.03882476,-0.41936612,-0.46168104,1.0,0.0,0.0,0.0,0.0,0.0,0.0,-2.1526017,0.18015441,-0.7631909,67.06103,-66.77649,-33.173145,17.34146,-23.379496,-0.5242586,-0.57559013
-8.967057,-141.944,-44.53823,5.6118245,4.7280054,-4.47841,-0.49415776,0.541821,-0.7705256,-0.5784756,0.34433618,-0.62210196,0.70994574,0.26738858,1.2887083,-0.66112405,-1.6920321,-0.917869,2.1825128,1.4772185,-0.9079868,1.2389399,-0.5924524,-1.645642,-0.9546648,2.243937,1.4139429,-0.92887205,0.5893816,-0.9908184,-1.2031609,-0.11433179,-0.16043329,0.76274556,0.5741373,1.4682083,-0.5843811,1.3108773,-3.4384537,-0.42320287,-0.25586462,0.17695999,-0.39781952,1.0067979,0.75764656,-0.15922785,0.09469681,0.62582004,0.017385036,-0.7366901,-0.5858968,1.0,0.0,0.0,0.0,0.0,0.0,0.0,-2.1182084,0.1843811,-0.7608773,59.17956,-61.088562,-22.951103,48.771423,-32.65726,-3.728342,-4.485047
-6.8753996,-77.68833,-23.245111,13.969965,3.5042596,-2.7660859,-0.6186451,0.5514871,-0.7992617,-0.6398468,0.3233104,-0.57645184,0.6961334,-0.0061890185,1.2940886,-0.6723786,-1.7096267,-0.9223338,2.186292,1.4835563,-0.9294909,1.2478472,-0.60555017,-1.6583107,-0.95257914,2.24013,1.4212385,-0.9237661,0.98908585,-1.4166561,-1.2863035,0.31869784,-0.45366827,0.7176955,0.4911548,1.4338493,-0.5886078,1.3075842,-3.435016,-0.42277977,-0.35379475,0.1769371,-0.40664673,1.0004636,0.7575142,-0.15695044,0.09294246,0.62681764,-0.007123512,-0.93123764,-0.6524047,1.0,0.0,0.0,0.0,0.0,0.0,0.0,-2.0838494,0.18860778,-0.75758415,39.39196,-42.720055,-7.7720165,44.071667,-29.229557,-4.8113346,-7.774186
6.508558,-14.470818,-4.087226,9.531597,1.0919774,-1.8293468,-0.4500047,0.6231419,-0.8175712,-0.6813722,0.2710708,-0.6451214,0.70160806,-0.194167,1.3101614,-0.6873073,-1.7264478,-0.9254721,2.1756177,1.4913993,-0.94318277,1.2594782,-0.6213554,-1.6713321,-0.9474789,2.2338204,1.4281203,-0.9195995,1.2194792,-1.6356368,-1.3055242,0.5753505,-0.69063944,0.67746896,0.39286754,1.3995247,-0.5928345,1.3033124,-3.4315817,-0.42235708,-0.451627,0.1769867,-0.41657257,0.99366385,0.7578413,-0.15481308,0.09077164,0.62727183,0.015339186,-1.0082475,-0.69519824,1.0,0.0,0.0,0.0,0.0,0.0,0.0,-2.0495248,0.19283447,-0.7533124,22.58179,-22.032093,-1.3620615,26.121838,-23.784494,-4.259789,-9.515071
17.037931,31.932623,9.358944,4.4402847,-0.6957403,-1.2637854,-0.22212753,0.6621803,-0.82035893,-0.7088135,0.24891351,-0.6471238,0.69372123,-0.24811195,1.3256962,-0.7033913,-1.7422135,-0.9225875,2.1691082,1.4974924,-0.9444107,1.272431,-0.63805044,-1.6845233,-0.9411112,2.2259011,1.4347006,-0.9163446,1.3198884,-1.6762154,-1.332774,0.65689266,-0.81679106,0.6549837,0.3063824,1.3652344,-0.59706116,1.298063,-3.428151,-0.4219348,-0.5493614,0.17750931,-0.426651,0.9865547,0.758459,-0.1526571,0.08887508,0.6273251,0.07459562,-1.0028518,-0.72439855,1.0,0.0,0.0,0.0,0.0,0.0,0.0,-2.0152345,0.19706115,-0.748063,9.873676,-2.6873589,-5.4905176,8.053362,-10.001553,-1.2259007,-7.6692047
20.78692,56.809006,16.2318,2.3535109,-1.4947968,-0.9038454,-0.07208877,0.67731285,-0.8244647,-0.7149052,0.24008276,-0.6498204,0.6974086,-0.29599035,1.3401623,-0.7204969,-1.7560139,-0.91710293,2.1609192,1.5044415,-0.9459436,1.2857481,-0.65453565,-1.6977718,-0.9347607,2.2170968,1.4410425,-0.91394705,1.3354133,-1.6398101,-1.32145,0.6274331,-0.90288234,0.6268437,0.21700472,1.3309784,-0.6012726,1.2918371,-3.4247234,-0.42151296,-0.64699817,0.17872238,-0.43634796,0.97922844,0.7592305,-0.15032558,0.08759847,0.6271345,0.1467464,-0.9549163,-0.7441784,1.0,0.0,0.0,0.0,0.0,0.0,0.0,-1.9809784,0.20127258,-0.7418371,1.4843702,3.4895182,1.3697147,-3.0434608,-8.890974,-2.9735327,-9.086847
21.091755,64.77676,18.280209,1.6108685,-1.5940249,-0.7643137,0.045272008,0.687446,-0.82386065,-0.718418,0.21618725,-0.6277579,0.6852584,-0.30650064,1.3544927,-0.7369217,-1.7696136,-0.91314197,2.154321,1.5095683,-0.9445971,1.298926,-0.6704191,-1.7108829,-0.9291531,2.207831,1.4471251,-0.9123582,1.3118542,-1.5717444,-1.3073857,0.53810215,-0.935189,0.60166293,0.13892095,1.2967567,-0.605484,1.2846355,-3.4212992,-0.42109153,-0.7445373,0.18064499,-0.4454956,0.9717173,0.7600481,-0.14770485,0.08698509,0.6268523,0.21855725,-0.89611685,-0.7618789,1.0,0.0,0.0,0.0,0.0,0.0,0.0,-1.9467567,0.205484,-0.73463553,-2.3397207,6.670046,1.5428782,-9.088278,-3.5265326,-2.6829123,-7.999796
18.932285,61.596916,17.078089,1.9612207,-1.333493,-0.756455,0.10570802,0.69274336,-0.8250395,-0.7257759,0.19256762,-0.6321418,0.6832468,-0.27447924,1.3682003,-0.7529231,-1.7834605,-0.9098963,2.1446166,1.5154498,-0.93980616,1.3117968,-0.68568265,-1.7238777,-0.92454207,2.1984162,1.4529806,-0.91143507,1.2791349,-1.5115651,-1.2964365,0.43501553,-0.944239,0.5794531,0.07638925,1.2625694,-0.60969543,1.2764593,-3.4178786,-0.4206705,-0.8419789,0.18323517,-0.45410156,0.96399957,0.7608428,-0.14472963,0.086935386,0.62658906,0.28265506,-0.84516275,-0.7827183,1.0,0.0,0.0,0.0,0.0,0.0,0.0,-1.9125694,0.20969543,-0.7264593,-3.2280684,5.901122,1.1788368,-10.423506,-1.1798143,-2.4033666,-6.408608
11.87504,56.129326,15.196962,6.3642673,-0.65055704,-0.6092644,0.035016112,0.67369914,-0.82033485,-0.7188137,0.21052846,-0.6359446,0.6741502,-0.24449658,1.3791667,-0.76771617,-1.7957591,-0.90348923,2.134822,1.5203956,-0.9358847,1.3242918,-0.7004808,-1.7367656,-0.92067873,2.1889977,1.4586359,-0.91102594,1.2398468,-1.469518,-1.2860333,0.37008408,-0.9419902,0.56027025,0.02872414,1.2284164,-0.61389923,1.2673094,-3.4144614,-0.42024994,-0.93932307,0.18628311,-0.4623108,0.9561023,0.7616342,-0.14145716,0.087292485,0.62632513,0.32231146,-0.80834645,-0.79904485,1.0,0.0,0.0,0.0,0.0,0.0,0.0,-1.8784164,0.21389922,-0.7173094,-3.839159,4.0871143,1.1146307,-6.51558,-0.061821938,-2.0712852,-4.865289
14.273996,48.537716,12.656416,2.4305744,-0.7930992,-0.88240516,0.14689843,0.67477167,-0.81781137,-0.73612624,0.10058734,-0.64345217,0.6503962,-0.26315442,1.3917689,-0.78226197,-1.8103782,-0.91062,2.1246526,1.5236756,-0.9373414,1.336476,-0.7150072,-1.7496631,-0.9177166,2.1796136,1.4641024,-0.91103643,1.211639,-1.4473252,-1.2909648,0.27159628,-0.93778837,0.541226,-0.011208533,1.1942978,-0.6180954,1.2571868,-3.4110477,-0.4198298,-1.03657,0.18981934,-0.47023773,0.9479056,0.7623701,-0.13777098,0.08799634,0.6261529,0.37339047,-0.7826159,-0.83317494,1.0,0.0,0.0,0.0,0.0,0.0,0.0,-1.8442978,0.21809539,-0.70718676,-2.7650833,2.1283627,-0.46360493,-9.843874,0.21160841,-2.1246195,-4.0633388
12.774567,44.530678,11.62153,3.4837313,-0.5332352,-0.8449719,0.14447537,0.6734499,-0.8224952,-0.726351,0.10044897,-0.6606672,0.65972865,-0.24578877,1.403821,-0.7972567,-1.8222982,-0.90767175,2.1135468,1.5300753,-0.9356153,1.3484713,-0.72945535,-1.762593,-0.9155413,2.1702256,1.4694067,-0.9113769,1.1956228,-1.444338,-1.2933906,0.19965495,-0.94026464,0.5258764,-0.04182367,1.1602135,-0.62229156,1.2460923,-3.4076374,-0.41941005,-1.1337196,0.19381332,-0.4779663,0.9393591,0.76301676,-0.13367324,0.088971,0.6261158,0.4167318,-0.76402414,-0.86820024,1.0,0.0,0.0,0.0,0.0,0.0,0.0,-1.8102134,0.22229156,-0.6960923,-1.5596151,0.20916462,-0.20003319,-7.14325,-0.446558,-1.7608643,-3.090686
5.1015615,46.566917,12.384151,10.739304,0.22885293,-0.45929378,-0.004625991,0.65489817,-0.8169476,-0.7053339,0.17896527,-0.6549923,0.67366856,-0.18966998,1.413961,-0.81115013,-1.8331264,-0.89764476,2.1047263,1.5367736,-0.93034387,1.3603026,-0.7439207,-1.7754428,-0.9134785,2.1608148,1.4745909,-0.9119367,1.1791208,-1.4476736,-1.2816461,0.20880008,-0.94215465,0.51545775,-0.060628906,1.1261635,-0.62648773,1.2340273,-3.4042304,-0.41899073,-1.2307721,0.19802094,-0.4855423,0.9306101,0.7636451,-0.12940714,0.090089835,0.62608594,0.4288804,-0.74922395,-0.88330865,1.0,0.0,0.0,0.0,0.0,0.0,0.0,-1.7761635,0.22648773,-0.68402725,-1.5855551,-0.45063496,1.2867451,1.0120988,-0.46043396,-1.1796117,-1.8750503
2.588385,47.26391,12.597608,12.996866,0.49081886,-0.32981977,-0.048101634,0.646216,-0.819466,-0.697839,0.17790347,-0.65782523,0.6694762,-0.18580395,1.4249241,-0.8258673,-1.8452268,-0.8956882,2.0950322,1.5415385,-0.9305171,1.3719774,-0.7584528,-1.7881286,-0.911121,2.1513772,1.4796854,-0.91264623,1.1638134,-1.4554261,-1.2637589,0.24501072,-0.9453226,0.5071431,-0.07429239,1.092144,-0.63066864,1.2209923,-3.4008267,-0.41857183,-1.3277276,0.20226288,-0.4929886,0.92175525,0.7642995,-0.12512577,0.09127615,0.6259859,0.43097702,-0.73666704,-0.892358,1.0,0.0,0.0,0.0,0.0,0.0,0.0,-1.742144,0.23066863,-0.6709923,-1.4649391,-0.9028673,1.9331932,3.737834,-0.61364174,-0.9441376,-1.3473451
10.8564205,44.505253,11.605,5.415574,-0.25370252,-0.6723735,0.13574922,0.6510317,-0.8201181,-0.7262485,0.050863657,-0.6678736,0.6511986,-0.23258217,1.4370806,-0.8404646,-1.8607534,-0.90603465,2.08459,1.5448053,-0.93590444,1.3835627,-0.77305925,-1.8007934,-0.9089695,2.1418862,1.4846903,-0.9135055,1.156952,-1.4627023,-1.2670631,0.20548536,-0.9510828,0.4976035,-0.08979024,1.0581627,-0.63484955,1.2069886,-3.3974266,-0.41815335,-1.4245862,0.20676422,-0.50029755,0.9126399,0.76487947,-0.12063678,0.092622824,0.62596095,0.46365726,-0.7209465,-0.92405987,1.0,0.0,0.0,0.0,0.0,0.0,0.0,-1.7081627,0.23484954,-0.65698856,-0.65083504,-0.82690716,-0.24924278,-3.863153,-0.7945776,-1.1745512,-1.5542418
7.6826825,47.636536,12.448056,8.34296,-0.005918503,-0.46057108,0.082025975,0.63440466,-0.817804,-0.7093337,0.1095976,-0.6742168,0.6631646,-0.19361119,1.4470031,-0.8548396,-1.8717268,-0.8980098,2.0744646,1.5510068,-0.93286663,1.395043,-0.78771055,-1.8134544,-0.9070145,2.1323228,1.4896208,-0.9144754,1.1453067,-1.4662786,-1.2653155,0.19241188,-0.9589444,0.49088937,-0.09930376,1.0242119,-0.63903046,1.192017,-3.3940299,-0.41773528,-1.5213479,0.21149826,-0.5074234,0.90327394,0.76537365,-0.11595765,0.09415546,0.6260125,0.48423904,-0.7030229,-0.9467694,1.0,0.0,0.0,0.0,0.0,0.0,0.0,-1.6742119,0.23903045,-0.64201695,-1.115942,-0.46510696,0.2777815,-1.2124747,-1.0360479,-0.8554518,-0.9545505
5.2683063,50.500046,13.213497,10.968985,0.23949718,-0.30331534,0.021078378,0.6329197,-0.8171721,-0.7092674,0.14681329,-0.67128974,0.667033,-0.17948759,1.458335,-0.86942774,-1.8843812,-0.89233315,2.065194,1.5563241,-0.9324241,1.4064242,-0.8023752,-1.8261001,-0.9049622,2.1226983,1.4944979,-0.915513,1.1358627,-1.4669669,-1.2638916,0.20983596,-0.96444297,0.48615113,-0.10528873,0.9902992,-0.64320374,1.1760784,-3.3906364,-0.41731763,-1.6180129,0.21636963,-0.51436615,0.89374864,0.7658221,-0.11120479,0.09585248,0.6260689,0.49470302,-0.6850219,-0.9604654,1.0,0.0,0.0,0.0,0.0,0.0,0.0,-1.6402992,0.24320373,-0.6260784,-0.8967161,-0.18725395,0.28207302,1.8399686,-0.83049536,-0.62488914,-0.5983338
9.694601,47.568466,12.264617,6.190592,-0.17789292,-0.4801672,0.14881814,0.62288636,-0.82428074,-0.7182728,0.04451897,-0.67177635,0.65449077,-0.22146448,1.4687128,-0.8848033,-1.8979274,-0.9005103,2.0555208,1.559947,-0.93765944,1.4176909,-0.8170675,-1.8387783,-0.90316355,2.1130357,1.4993216,-0.91663164,1.1238004,-1.4703346,-1.2687749,0.17016466,-0.96763515,0.4804577,-0.11401167,0.9564171,-0.6473694,1.159174,-3.3872466,-0.4169004,-1.7145813,0.2214737,-0.52111816,0.8839631,0.76615846,-0.10625846,0.0977403,0.6262246,0.52172744,-0.6653421,-0.9905697,1.0,0.0,0.0,0.0,0.0,0.0,0.0,-1.6064171,0.24736938,-0.60917395,-1.1604071,-0.43563843,-0.4034996,-3.873232,-0.5531192,-0.7947087,-0.88059455
18.285492,44.890392,11.810128,-1.1808567,-0.871138,-0.70110416,0.36933854,0.6215126,-0.8281697,-0.72044134,-0.07967842,-0.674399,0.6490334,-0.24754955,1.4798422,-0.89988446,-1.9108224,-0.9111314,2.045596,1.564225,-0.9413866,1.4288565,-0.83180654,-1.8515232,-0.9023701,2.1033502,1.5040842,-0.91785043,1.1142756,-1.4753349,-1.2764416,0.049310643,-0.96946293,0.47389796,-0.12445993,0.9225693,-0.65153503,1.1413046,-3.38386,-0.41648358,-1.811053,0.22704315,-0.52762604,0.8737151,0.7662096,-0.10088473,0.0998697,0.6267146,0.5750978,-0.6376527,-1.0420849,1.0,0.0,0.0,0.0,0.0,0.0,0.0,-1.5725693,0.25153503,-0.5913046,-0.91428757,-0.5656481,-0.7716179,-12.007219,-0.34646988,-0.9888172,-1.0572493
19.547066,47.62558,12.842911,-1.8689666,-0.98913395,-0.5575342,0.43379888,0.60717744,-0.82224125,-0.70600295,-0.12011916,-0.690454,0.673704,-0.21095635,1.4895742,-0.9140307,-1.9221234,-0.91438204,2.0343049,1.5714546,-0.93894607,1.4398905,-0.8465599,-1.8642719,-0.90290797,2.0936074,1.5088049,-0.91913694,1.0999495,-1.4755274,-1.2743747,-0.08797669,-0.97656,0.47043774,-0.13013239,0.8887558,-0.6557007,1.1224712,-3.380477,-0.41606718,-1.9074283,0.23316193,-0.5337982,0.86295223,0.76586914,-0.09503906,0.10226931,0.6276567,0.6293336,-0.60114133,-1.0936089,1.0,0.0,0.0,0.0,0.0,0.0,0.0,-1.5387558,0.25570068,-0.5724712,-1.3792515,-0.07121563,0.15883446,-13.654809,-0.8648753,-0.6917894,-0.57589114
12.957771,52.97184,14.282193,3.5925279,-0.48181927,-0.18114099,0.3241688,0.5844416,-0.8166322,-0.684767,-0.10366351,-0.7014137,0.6889715,-0.16342184,1.4983346,-0.92822313,-1.9327486,-0.91327435,2.023466,1.577702,-0.9354791,1.4507014,-0.861277,-1.8768814,-0.9044777,2.0837617,1.5135142,-0.92043394,1.0751477,-1.4706458,-1.2565176,-0.17974247,-0.98780495,0.4702215,-0.12959196,0.85497665,-0.6598587,1.1026747,-3.3770971,-0.4156512,-2.0037072,0.23964691,-0.5395889,0.8518038,0.76517326,-0.088892646,0.104906105,0.6289695,0.6606835,-0.5626723,-1.1277834,1.0,0.0,0.0,0.0,0.0,0.0,0.0,-1.5049766,0.2598587,-0.5526747,-2.4074316,0.42972565,1.7556906,-9.097752,-1.3200879,-0.28241873,0.05773306
-0.4226637,56.27793,14.306575,12.724158,0.4553367,0.21078864,0.07030927,0.55076313,-0.8158465,-0.6824302,-0.047293082,-0.7050082,0.694545,-0.12561555,1.5057777,-0.9428616,-1.9451244,-0.90920705,2.0132608,1.5829687,-0.9329955,1.4611422,-0.8759388,-1.8892963,-0.9063498,2.0738015,1.5182368,-0.9216909,1.0340965,-1.4650222,-1.2363359,-0.18943827,-0.9995772,0.47251722,-0.124306224,0.82123184,-0.6640091,1.0819162,-3.3737206,-0.41523564,-2.0998898,0.24617386,-0.54507446,0.84047693,0.7643078,-0.0826913,0.107717894,0.63039076,0.6547764,-0.535036,-1.1400788,1.0,0.0,0.0,0.0,0.0,0.0,0.0,-1.4712318,0.2640091,-0.5319162,-4.0132284,0.47905445,2.061057,-0.86701214,-1.4420748,0.10485649,0.5388215
-8.483346,55.12796,13.123617,17.116888,1.0054144,0.32140192,-0.08127554,0.52446574,-0.8210758,-0.6899846,-0.042990617,-0.68969,0.68215364,-0.14879338,1.5135888,-0.9580464,-1.9582947,-0.9106488,2.0048325,1.5864521,-0.9365702,1.47111,-0.8905796,-1.9015796,-0.9080273,2.0637918,1.5229765,-0.92291063,0.9845204,-1.464112,-1.2253045,-0.16001198,-1.002641,0.4742672,-0.12112728,0.78751755,-0.6681595,1.0601966,-3.3703475,-0.4148205,-2.195976,0.25250626,-0.5503769,0.82907206,0.76343775,-0.07654614,0.11063903,0.6317139,0.6295799,-0.52000064,-1.1461384,1.0,0.0,0.0,0.0,0.0,0.0,0.0,-1.4375175,0.26815948,-0.5101966,-4.8556924,-0.009870529,1.1902809,3.07689,-0.6019831,0.1036942,0.33566058
-9.395611,50.889137,11.192219,15.267505,0.8647674,0.19660802,-0.06215419,0.49019453,-0.82103586,-0.71089315,-0.111114725,-0.6954959,0.6689127,-0.19519238,1.5201294,-0.9726832,-1.9726689,-0.9191388,1.9942422,1.5898678,-0.94242984,1.480517,-0.90522516,-1.913903,-0.90964854,2.0537553,1.5277201,-0.924138,0.9266805,-1.4651208,-1.2343466,-0.16225488,-1.0046823,0.47394615,-0.12326431,0.7538414,-0.6723099,1.037517,-3.366978,-0.41440576,-2.2919662,0.2586136,-0.5555649,0.8175063,0.7626011,-0.070347354,0.11370512,0.6328995,0.60898304,-0.50943047,-1.1654143,1.0,0.0,0.0,0.0,0.0,0.0,0.0,-1.4038414,0.27230987,-0.48751694,-5.6615353,-0.20251274,-0.8369684,-0.05712211,-0.486207,-0.15916228,-0.20866096
-5.933608,44.575443,9.117982,9.917527,0.4078281,-0.004169315,0.08356121,0.45170608,-0.82883096,-0.7231612,-0.21151486,-0.69574827,0.6595105,-0.22714761,1.5256877,-0.9881083,-1.9862192,-0.9308,1.9841805,1.5936711,-0.94685274,1.4892927,-0.9199232,-1.9264114,-0.9118115,2.043715,1.5324465,-0.925415,0.8615854,-1.4716278,-1.2562896,-0.23367316,-1.0050963,0.4713399,-0.12913105,0.7201958,-0.676445,1.013878,-3.3636117,-0.41399145,-2.3878605,0.26464844,-0.56064606,0.80557233,0.7617044,-0.06385654,0.1169612,0.6340731,0.6035805,-0.49749792,-1.2080004,1.0,0.0,0.0,0.0,0.0,0.0,0.0,-1.3701957,0.276445,-0.46387798,-6.3627005,-0.74141026,-2.190137,-6.936264,-0.2900839,-0.49846768,-0.58383346
-27.274078,43.278137,6.088269,17.53277,1.2068727,0.41168636,-0.08958143,0.30227298,-0.8194761,-0.71649736,-0.22154514,-0.723474,0.6781502,-0.17080732,1.51952,-1.0018708,-1.9980612,-0.933966,1.9713676,1.6002616,-0.9424957,1.4968687,-0.9346422,-1.9390953,-0.9147469,2.0335832,1.5371634,-0.92670816,0.7236464,-1.4724487,-1.2723491,-0.31254852,-1.0170206,0.47101057,-0.12957135,0.6865845,-0.68058014,0.9892808,-3.3602488,-0.41357756,-2.483659,0.27031326,-0.5656738,0.79322666,0.7608429,-0.056997508,0.12047462,0.6351024,0.55741346,-0.49799064,-1.2486645,1.0,0.0,0.0,0.0,0.0,0.0,0.0,-1.3365844,0.28058013,-0.4392808,-13.554645,-0.20534992,-1.5706778,-7.6042056,-1.5581846,-0.22531152,-0.07132888
-76.943214,36.739983,-2.0242333,34.78225,3.2159858,1.1842207,-0.5192601,0.0025974466,-0.81580365,-0.70486736,-0.27625224,-0.7186732,0.67512435,-0.15461202,1.4971285,-1.0162226,-2.009582,-0.9423721,1.9617158,1.6046758,-0.94216937,1.5018374,-0.94934404,-1.9518325,-0.9185749,2.023333,1.5418802,-0.92799085,0.4225152,-1.4701424,-1.273607,-0.40446576,-1.0298228,0.47131476,-0.1279765,0.6530075,-0.6847153,0.9637264,-3.3568892,-0.41316405,-2.5793617,0.27482605,-0.57102966,0.78048974,0.76039314,-0.049710065,0.12425147,0.6355256,0.41729346,-0.5380747,-1.287086,1.0,0.0,0.0,0.0,0.0,0.0,0.0,-1.3030075,0.28471527,-0.4137264,-29.673243,0.0073194504,0.0145196915,-8.68957,-1.9374609,-0.09380579,0.10305345
-154.74384,21.832764,-16.967863,59.194588,6.151304,2.1549888,-1.1311464,-0.4746072,-0.81059873,-0.721629,-0.40106276,-0.70568126,0.6424179,-0.09007423,1.4543767,-1.0304039,-2.0239954,-0.9586812,1.952765,1.606122,-0.93699825,1.501887,-0.9640039,-1.9646041,-0.923679,2.0129838,1.5465685,-0.9292068,-0.13150147,-1.4661454,-1.2770002,-0.5423922,-1.0404243,0.4673391,-0.1195019,0.61946106,-0.6888504,0.9372156,-3.353533,-0.41275096,-2.6749685,0.27689362,-0.57727814,0.7672861,0.7609589,-0.04173458,0.12830782,0.6346154,0.13736483,-0.6446503,-1.336327,1.0,0.0,0.0,0.0,0.0,0.0,0.0,-1.269461,0.2888504,-0.3872156,-54.624557,-0.053095818,0.020241737,-12.794643,-2.275157,-0.63839555,0.8030832
-149.49124,22.660812,-16.234573,51.328938,5.6161127,2.2920985,-0.628093,-0.65426403,-0.7957961,-0.6599265,-0.6716194,-0.6568136,0.6427101,0.30970317,1.4364606,-1.0435835,-2.0305967,-0.9908409,1.9473025,1.6108395,-0.89823645,1.4962412,-0.97856367,-1.9771068,-0.93118346,2.002688,1.5511996,-0.9300279,-0.70600563,-1.4544427,-1.2401186,-0.8156535,-1.0303662,0.45953652,-0.06923877,0.58595276,-0.6929703,0.9097495,-3.3501801,-0.4123383,-2.77048,0.276268,-0.58441925,0.75345206,0.7623339,-0.032779895,0.13246785,0.6326331,-0.13202949,-0.7292954,-1.403782,1.0,0.0,0.0,0.0,0.0,0.0,0.0,-1.2359527,0.29297027,-0.3597495,-56.62007,0.6234169,4.0309668,-26.07639,-0.43184757,-1.41114,5.1605673
-82.534355,59.65916,6.665016,33.397182,3.84333,2.5868165,0.18815458,-0.616845,-0.76407367,-0.39728972,-0.7326976,-0.56975657,0.6819017,0.52171093,1.4345567,-1.054971,-2.0168357,-1.0044532,1.9457123,1.6193898,-0.8778568,1.486302,-0.99285734,-1.9880207,-0.9413935,1.992804,1.5557963,-0.9301805,-1.0882157,-1.4220269,-1.0421648,-1.0867935,-0.97716016,0.4585906,0.0039407937,0.552475,-0.69709015,0.881329,-3.3468306,-0.41192603,-2.8658957,0.2736435,-0.5917282,0.7393847,0.7637457,-0.023322895,0.13607489,0.63058066,-0.30934596,-0.7229933,-1.412188,1.0,0.0,0.0,0.0,0.0,0.0,0.0,-1.202475,0.29709014,-0.331329,-37.717712,2.9305696,19.710278,-26.30192,4.436505,-0.47716498,7.7073083
-37.120056,68.584816,14.933611,20.155787,2.2342608,1.9460179,0.421002,-0.6369308,-0.7533047,-0.49342686,-0.7384925,-0.54972845,0.6869815,0.54846394,1.422609,-1.0681878,-2.0373633,-1.0152427,1.9378312,1.6244944,-0.8753341,1.473931,-1.0067924,-1.9974887,-0.9537283,1.9835267,1.5604044,-0.92962354,-1.2857873,-1.3844727,-0.91595954,-1.2807581,-0.9123106,0.4609834,0.07411183,0.5190315,-0.70121,0.85195506,-3.3434844,-0.4115142,-2.961216,0.26989746,-0.5987549,0.72529113,0.7647921,-0.013666567,0.13896565,0.62896335,-0.40381134,-0.68575186,-1.41219,1.0,0.0,0.0,0.0,0.0,0.0,0.0,-1.1690315,0.30121002,-0.30195504,-19.469284,3.635478,12.312305,-18.907404,6.1162233,0.05748272,7.3925266
-6.646294,60.86638,14.851834,9.12261,0.78586584,0.9401181,0.4481128,-0.6376395,-0.7574526,-0.64026815,-0.7643376,-0.55576795,0.67068326,0.5249596,1.410167,-1.0825377,-2.0615156,-1.0301621,1.9279499,1.6274728,-0.8771276,1.4607016,-1.0204357,-2.0067976,-0.9674221,1.9748063,1.5650297,-0.928461,-1.3347712,-1.3578048,-0.93690836,-1.3979902,-0.859151,0.4626,0.13110462,0.4856224,-0.70532227,0.82162863,-3.3401415,-0.41110277,-3.0564413,0.26572037,-0.6054001,0.7110014,0.7653785,-0.003704847,0.14143187,0.62783676,-0.43012825,-0.6467964,-1.4375281,1.0,0.0,0.0,0.0,0.0,0.0,0.0,-1.1356224,0.30532226,-0.27162862,-4.734969,2.6484966,-2.3785353,-11.416054,5.1761866,0.016152859,5.933386
4.236348,60.97561,15.493285,7.3347645,0.28926486,0.58448267,0.32743746,-0.65718985,-0.7343673,-0.6851027,-0.756499,-0.58269614,0.6913427,0.53830796,1.3949826,-1.0938724,-2.0753078,-1.043072,1.9165367,1.634164,-0.8746302,1.4475256,-1.0337967,-2.0169027,-0.98170054,1.966414,1.5696875,-0.92679876,-1.3115519,-1.328776,-1.0357313,-1.4372122,-0.8328632,0.4666438,0.17826554,0.4522438,-0.7094269,0.7903507,-3.336802,-0.41069177,-3.1515713,0.26145935,-0.6116562,0.69643927,0.765554,0.0065969885,0.14381212,0.62705785,-0.4319151,-0.60924494,-1.4648108,1.0,0.0,0.0,0.0,0.0,0.0,0.0,-1.1022438,0.30942687,-0.24035066,2.4158955,2.9330254,-10.090971,-3.7413597,2.5791645,0.31004548,4.8334417
-2.168555,54.928207,12.4199915,9.847876,0.62682307,0.4621583,0.1324668,-0.6965575,-0.74293196,-0.7289792,-0.75295806,-0.5502974,0.67489177,0.4702458,1.3778698,-1.1080899,-2.0898006,-1.0569963,1.9113842,1.6371766,-0.87977415,1.4346224,-1.046986,-2.02824,-0.9959961,1.95826,1.5743681,-0.92478174,-1.2829463,-1.3157502,-1.1662885,-1.4262521,-0.80987453,0.46798965,0.20980488,0.41890335,-0.7135315,0.75812215,-3.3334658,-0.41028115,-3.246606,0.25709534,-0.6177063,0.6815537,0.76548296,0.017266136,0.14621168,0.62638634,-0.44481474,-0.5890245,-1.4986817,1.0,0.0,0.0,0.0,0.0,0.0,0.0,-1.0689033,0.3135315,-0.20812213,2.9497385,1.2894154,-13.138866,1.3171911,2.1833658,-0.041663647,3.2427251
-9.185783,61.80941,14.248264,14.69514,1.1312042,0.839027,0.010531262,-0.7219956,-0.71641064,-0.72084534,-0.7352605,-0.547115,0.689323,0.50266653,1.3624228,-1.1186271,-2.1003244,-1.0695221,1.9035486,1.6433004,-0.87451506,1.4218718,-1.059996,-2.04063,-1.0099465,1.9502759,1.5790716,-0.92247766,-1.2722964,-1.2961789,-1.263452,-1.3840145,-0.7949649,0.4706489,0.2375935,0.3855934,-0.7176361,0.724944,-3.330133,-0.40987095,-3.3415458,0.25247574,-0.6235199,0.66648316,0.7652927,0.028161194,0.14860235,0.6256608,-0.4761021,-0.56889606,-1.512198,1.0,0.0,0.0,0.0,0.0,0.0,0.0,-1.0355934,0.3176361,-0.17494398,1.1356354,1.9292355,-9.756637,4.4205427,1.3590336,0.121212006,2.8702617
-14.164217,55.788364,12.078344,14.854164,1.4149312,0.87929404,-0.02747269,-0.73541063,-0.7433837,-0.75148505,-0.7450688,-0.5091272,0.6565412,0.41105947,1.3483307,-1.1343343,-2.1157787,-1.0844533,1.8993632,1.6447258,-0.88137174,1.4090925,-1.072985,-2.0538137,-1.0235134,1.9425015,1.5837694,-0.91999906,-1.2794544,-1.2999065,-1.3363485,-1.346484,-0.77194,0.46894678,0.2517224,0.352314,-0.72172546,0.6908172,-3.3268034,-0.40946117,-3.4363906,0.2474556,-0.6292114,0.65122074,0.7650589,0.039264638,0.15082519,0.6248159,-0.51838696,-0.55658257,-1.5329603,1.0,0.0,0.0,0.0,0.0,0.0,0.0,-1.002314,0.32172546,-0.14081717,-0.63266754,-0.44374466,-7.301283,4.032302,2.1302104,-0.39159656,1.5514225
-14.393402,59.474045,14.038448,15.435913,1.6513805,1.1234928,-0.0144238025,-0.741472,-0.7353416,-0.74626,-0.73207307,-0.44831178,0.64394367,0.40932724,1.3349453,-1.1465192,-2.1284397,-1.0967207,1.8976704,1.6481638,-0.87906635,1.3961741,-1.0860199,-2.0674245,-1.0367333,1.9351068,1.5884424,-0.9174089,-1.2958759,-1.3048298,-1.3693633,-1.3130738,-0.72906184,0.4659721,0.2621268,0.31907272,-0.7258148,0.6557426,-3.3234773,-0.40905178,-3.5311408,0.24196243,-0.63475037,0.6358383,0.7648059,0.05049475,0.15266208,0.62387216,-0.56633717,-0.54019064,-1.542069,1.0,0.0,0.0,0.0,0.0,0.0,0.0,-0.9690727,0.3258148,-0.105742574,-1.5723228,-0.55794716,-3.336835,3.6043406,4.144311,-0.4887879,1.2252927
-17.6974,55.82568,12.596536,15.311996,1.8742545,1.1643293,-0.047172114,-0.76240987,-0.75522864,-0.7743072,-0.72051984,-0.37963843,0.61460316,0.32893223,1.319933,-1.1615428,-2.1448553,-1.1087853,1.8971429,1.6499028,-0.88451564,1.382862,-1.099079,-2.0820634,-1.050204,1.9296856,1.5910684,-0.9155136,-1.3407466,-1.308113,-1.4878585,-1.3519187,-0.5040294,0.19424385,0.18852863,0.30083084,-0.7275772,0.6485709,-1.5883831,-0.08977462,0.005701863,0.23600769,-0.6406021,0.6200505,0.7649221,0.0631853,0.15351987,0.6223611,-0.6115036,-0.58237535,-1.5922555,0.0,1.0,0.0,0.0,0.0,0.0,0.0,-0.9508308,0.3275772,-0.09857088,-2.5458574,-2.0637035,-2.020955,3.5799742,5.6913853,-1.7546684,0.7416725
53.97869,176.0,110.0,110.0,7.9581804,11.1209955,-1.7631754,-0.51250035,0.5133759,0.7455025,0.43307525,-0.079523966,0.6667154,-0.48085663,1.331612,-1.0477414,-2.0075133,-1.0068965,1.9217331,1.6577399,-0.96359926,1.3738154,-1.1158408,-2.0868928,-1.046767,1.9154147,1.6018411,-0.9105535,-0.73816985,-1.6762152,-0.3706071,0.84118354,-1.5256857,1.450385,0.621923,0.2849579,-0.7284775,0.6478914,-1.5867951,-0.08968487,-0.092489794,0.22877884,-0.6456375,0.6090736,0.7657001,0.06508003,0.1550471,0.6208288,-0.7686175,-0.464207,-0.936397,1.0,0.0,0.0,0.0,0.0,0.0,0.0,-0.93495786,0.32847747,-0.09789139,66.601524,-0.00011920929,44.965332,198.96605,-39.441345,149.21597,50.369358
-52.359844,176.0,67.021385,93.09003,10.5039625,5.3483906,-2.2149312,-0.7759329,-0.73177284,0.33582726,0.6765839,-0.10249464,0.63623816,-0.41731134,1.2962221,-1.1890181,-2.0533102,-0.97910863,1.9051652,1.6654649,-0.95228463,1.3663138,-1.1326026,-2.0851648,-1.0316284,1.9009608,1.6166116,-0.9047809,-0.75262773,-1.6762148,0.3558861,1.7393152,-1.4208057,1.490259,0.56664586,0.2691002,-0.72937775,0.64623076,-1.5852087,-0.0895952,-0.19058327,0.21943283,-0.65073395,0.6029966,0.7684641,0.05979115,0.15545845,0.6178353,-0.9915022,-0.51344126,-0.5011028,1.0,0.0,0.0,0.0,0.0,0.0,0.0,-0.91910017,0.32937774,-0.096230745,-0.9938359,2.3841858e-05,73.12208,90.211555,9.833002,5.279541,-4.2506814
-72.914085,132.74161,29.432236,59.571754,6.507998,2.6846972,-1.6092275,-0.7403334,-0.6705185,-0.09827462,0.56376535,-0.3245461,0.68729293,-0.41005853,1.2922804,-1.1996545,-2.0949922,-0.97525185,1.8685062,1.6853409,-0.9457868,1.3577155,-1.148117,-2.0808046,-1.0124633,1.8887652,1.6309224,-0.8999172,-0.89406186,-1.510778,0.46218535,1.9773699,-1.1533487,1.4130778,0.46096796,0.25325775,-0.730278,0.64358985,-1.5836238,-0.08950562,-0.2885787,0.20819855,-0.6561737,0.59935236,0.77302384,0.052586265,0.1548988,0.61292344,-1.1698916,-0.54749894,-0.325759,1.0,0.0,0.0,0.0,0.0,0.0,0.0,-0.9032577,0.330278,-0.09358984,-13.679647,16.322445,10.508084,24.414421,26.49827,-7.208991,-10.1441145
-55.88745,124.099724,31.82061,38.785633,5.072626,2.8739011,-0.7028344,-0.79314077,-0.6983112,0.5714488,0.6368573,-0.24564263,0.60137,-0.37618345,1.2784014,-1.2179481,-2.0236597,-0.9487776,1.864201,1.6910595,-0.9375355,1.347042,-1.1621073,-2.073961,-0.9936664,1.8795012,1.6439687,-0.8961721,-1.124374,-1.3625469,0.75825447,1.8478781,-0.85250676,1.2695763,0.3469441,0.23743057,-0.7311783,0.63996977,-1.5820404,-0.08941613,-0.3864761,0.19548798,-0.6614914,0.59721184,0.7786201,0.044878345,0.15294483,0.606914,-1.3076932,-0.52005553,-0.18459836,0.0,1.0,0.0,0.0,0.0,0.0,0.0,-0.88743055,0.33117828,-0.089969754,-22.747444,14.618111,29.55681,-12.706733,29.509045,-14.015985,-11.039602
-32.90741,93.35954,23.338665,18.0657,2.9335573,1.9282093,-0.14532265,-0.79185134,-0.687482,0.55466354,0.5855084,-0.10257757,0.6319502,-0.44120875,1.2678568,-1.2308556,-2.0184946,-0.9351156,1.8692435,1.7071637,-0.94029295,1.3343486,-1.1748885,-2.0649354,-0.9774711,1.8732146,1.6556493,-0.8935266,-1.3173932,-1.2503468,0.95002896,1.5435469,-0.55506784,1.1352538,0.23775916,0.22161865,-0.73207855,0.63537145,-1.5804586,-0.08932673,-0.48427564,0.18187332,-0.66642,0.5958047,0.7846441,0.037341483,0.14936985,0.6005229,-1.385631,-0.47487956,-0.13333082,0.0,1.0,0.0,0.0,0.0,0.0,0.0,-0.8716186,0.33207855,-0.085371435,-19.208694,11.100435,18.962646,-30.373882,29.435646,-13.130665,-10.705927
-10.007188,83.09113,21.872826,6.7804976,1.9791642,1.198827,0.13534686,-0.7936942,-0.6003918,0.5158968,0.48586756,0.34975916,0.58723855,-0.45109484,1.2549791,-1.2349277,-2.0133457,-0.9288844,1.9081905,1.7143731,-0.9386361,1.3202552,-1.1865386,-2.0548265,-0.96469283,1.8706492,1.6660863,-0.89186627,-1.4402031,-1.1368922,1.0307,1.1892866,-0.15767036,1.0141603,0.1427141,0.2058258,-0.7329712,0.62979585,-1.5788785,-0.08923742,-0.5819774,0.1678009,-0.6708832,0.5946476,0.7907746,0.030380325,0.1439968,0.5941526,-1.4204458,-0.4289651,-0.115967244,0.0,1.0,0.0,0.0,0.0,0.0,0.0,-0.8558258,0.3329712,-0.07979584,-12.315536,11.241889,7.858765,-35.42256,39.549793,-11.811018,-9.348404
15.930606,70.28242,20.59525,-5.217369,0.65814495,0.51731974,0.4374841,-0.7906049,-0.57317173,0.53562754,0.30244046,0.5567554,0.5666846,-0.45370296,1.2411947,-1.2438557,-2.0012639,-0.9344488,1.9263247,1.7227547,-0.93723655,1.3054705,-1.1972381,-2.0444396,-0.9556697,1.8720158,1.6752653,-0.8909569,-1.492331,-1.0467225,1.0248069,0.7970348,0.23058708,0.8409577,0.0936628,0.18952942,-0.7336197,0.6256705,-1.7331312,0.0124368835,0.32851714,0.1538086,-0.674881,0.5933714,0.79668945,0.024295123,0.13681942,0.58819735,-1.3921552,-0.3883046,-0.14335094,0.0,1.0,0.0,0.0,0.0,0.0,0.0,-0.8395294,0.33361968,-0.07567048,-5.442381,9.11622,-3.0490875,-40.66483,37.788097,-23.942434,-1.6616225
2.0391216,113.65349,31.784494,17.298523,1.850629,1.0006516,-0.2888048,-0.7971892,-0.38199636,0.53738654,0.577889,0.5006837,0.6180189,-0.46428958,1.2257515,-1.2354378,-1.990701,-0.8978808,1.9220842,1.7370672,-0.93738586,1.2905111,-1.206441,-2.0343344,-0.94833404,1.8763646,1.6830626,-0.89053345,-1.4967914,-0.8784489,1.0059083,0.71314335,0.5031068,0.76069456,0.025310613,0.1722107,-0.7334976,0.62821674,-1.7313983,0.012424449,0.23000273,0.13983154,-0.67853546,0.5925773,0.8026239,0.018699713,0.128777,0.5821183,-1.404247,-0.34779638,-0.061943408,0.0,1.0,0.0,0.0,0.0,0.0,0.0,-0.82221067,0.3334976,-0.07821673,-0.3976822,16.747797,-1.9683838,-8.1707,27.312523,-7.6137185,-6.786935
-10.874598,127.046524,32.94194,28.267822,2.0021386,1.1053321,-0.6608764,-0.8129159,-0.28129327,0.45392329,0.6124821,0.42958537,0.63796616,-0.48203546,1.2092196,-1.2345704,-1.9889421,-0.88708586,1.9193231,1.7468592,-0.938737,1.2756205,-1.2137386,-2.0248816,-0.9406827,1.8824071,1.6901999,-0.89073086,-1.486256,-0.6803857,0.9250068,0.783481,0.638423,0.69938225,-0.034711834,0.15491104,-0.73337555,0.62977856,-1.7296673,0.012412027,0.13158683,0.12562561,-0.6818161,0.5927875,0.8089069,0.012836178,0.12091447,0.57522565,-1.431255,-0.31154504,0.045246188,0.0,1.0,0.0,0.0,0.0,0.0,0.0,-0.804911,0.33337554,-0.07977855,1.1648893,19.73914,-8.179867,7.369399,13.729322,-5.784154,-5.99914
-17.42816,123.09094,30.44308,31.05715,1.8920971,1.0860671,-0.7713356,-0.8178014,-0.22564502,0.4078856,0.62225556,0.4248511,0.6323835,-0.50693154,1.1938403,-1.2363031,-1.9840931,-0.8784571,1.9248922,1.7534382,-0.941424,1.2608576,-1.2191879,-2.0163748,-0.9318393,1.8891591,1.6968584,-0.8914957,-1.4725773,-0.5001209,0.82574296,0.9192107,0.68816173,0.655409,-0.090373084,0.13762665,-0.7332535,0.630357,-1.727938,0.012399618,0.033269327,0.111091614,-0.6847458,0.59402394,0.8156125,0.0066107074,0.11384752,0.5672487,-1.4650838,-0.2775224,0.14636633,0.0,1.0,0.0,0.0,0.0,0.0,0.0,-0.7876266,0.33325347,-0.080357015,1.4880657,17.939877,-9.962475,13.931429,5.151868,-4.193723,-5.5679126
-18.305216,118.78913,28.918352,29.9188,1.6431229,1.091949,-0.7039687,-0.820308,-0.14692405,0.38106135,0.64055914,0.4432582,0.6485806,-0.5182359,1.1788268,-1.2338803,-1.9782687,-0.86778337,1.9334849,1.7617165,-0.9433193,1.2462015,-1.2229682,-2.008814,-0.9216369,1.8961037,1.7031546,-0.8927603,-1.463106,-0.33770406,0.73343706,1.055037,0.697029,0.6212973,-0.13846292,0.12035751,-0.7331314,0.62994504,-1.7262105,0.012387221,-0.06601509,0.09623337,-0.68730927,0.59619683,0.8226825,2.7345028e-05,0.10778118,0.5581905,-1.4968327,-0.23869863,0.23783259,0.0,1.0,0.0,0.0,0.0,0.0,0.0,-0.7703575,0.3331314,-0.07994503,1.0439873,16.119677,-9.178758,13.9128685,0.98000765,-3.3056855,-4.821034
-14.49796,91.02143,21.282957,22.22985,1.1407863,0.7918944,-0.5041339,-0.8123056,-0.18004312,0.3719481,0.6616656,0.3932595,0.6666257,-0.5301371,1.164971,-1.2409725,-1.9716192,-0.8554703,1.9354297,1.7698171,-0.94577396,1.231639,-1.2257571,-2.0020788,-0.91034675,1.9028797,1.7089727,-0.8943993,-1.4537417,-0.25975326,0.6561763,1.1555197,0.67107373,0.5735564,-0.17403112,0.10291672,-0.73236847,0.6328223,-1.7370814,0.08458683,0.31786108,0.08114624,-0.6895523,0.5988651,0.8299637,-0.006605394,0.102569476,0.54826635,-1.5173198,-0.21002853,0.2742431,0.0,1.0,0.0,0.0,0.0,0.0,0.0,-0.7529167,0.33236846,-0.08282226,1.0134697,7.6260624,-6.7002177,10.702515,-2.9214501,-3.0434608,-4.0630074
-7.4413342,147.17244,38.865093,28.37553,0.80512404,1.5837865,-0.42364272,-0.81415147,0.15804908,0.3674619,0.69360524,0.34546396,0.66413766,-0.5189056,1.1502239,-1.2099522,-1.9653326,-0.84098625,1.9374261,1.7753865,-0.94628984,1.2171298,-1.2266307,-1.9958099,-0.89822537,1.909212,1.7144836,-0.8963902,-1.4497916,-0.030843616,0.6185309,1.2318542,0.6199676,0.5437628,-0.20781475,0.08576965,-0.7311859,0.63703644,-1.7072539,0.12981197,0.45727742,0.06600571,-0.69114685,0.6026612,0.8373059,-0.013706341,0.09859945,0.5375956,-1.516837,-0.13073105,0.4119029,0.0,1.0,0.0,0.0,0.0,0.0,0.0,-0.7357696,0.3311859,-0.08703643,0.389266,22.628668,-3.3432841,7.894206,-5.335772,-2.9119492,-3.5083115
-4.860362,127.34877,33.282646,22.496813,0.54454195,1.3812989,-0.26289102,-0.8185688,0.118728474,0.35167888,0.6932046,0.3363152,0.68226206,-0.54227185,1.135273,-1.2147578,-1.960642,-0.8289049,1.9428436,1.7827098,-0.9506174,1.2026149,-1.2256598,-1.9897653,-0.885629,1.9150324,1.7197717,-0.8986974,-1.4521645,0.13890427,0.6013378,1.2695978,0.56839144,0.5237529,-0.23857974,0.06889725,-0.72958374,0.6423646,-1.6815677,0.17142275,0.55942935,0.050891876,-0.6919861,0.60755306,0.84458107,-0.021294596,0.095783904,0.52636,-1.5107569,-0.055797506,0.51251644,0.0,1.0,0.0,0.0,0.0,0.0,0.0,-0.7188972,0.32958373,-0.09236461,-0.27582645,16.732466,-1.2547493,3.9627552,-5.448854,-1.9721508,-3.1669526
-0.79404974,131.62318,34.446114,20.653294,0.13192916,1.3952277,-0.14129065,-0.8167665,0.24633469,0.32443088,0.70016694,0.24948132,0.68538064,-0.516846,1.1209383,-1.2010263,-1.9573222,-0.8156123,1.9399805,1.7883098,-0.950382,1.1880695,-1.222898,-1.9838959,-0.87284184,1.9201703,1.7248966,-0.901258,-1.4556606,0.3211025,0.5841638,1.2823213,0.49439895,0.50849545,-0.26218697,0.052303314,-0.72753143,0.64875674,-1.652242,0.21782212,0.66788065,0.035964966,-0.6920166,0.6134732,0.85167056,-0.029316466,0.09415072,0.51471674,-1.4896243,0.028757248,0.61641645,0.0,1.0,0.0,0.0,0.0,0.0,0.0,-0.7023033,0.32753143,-0.09875673,-0.4279852,17.951933,-1.1539936,1.43435,-7.7841997,-1.5079141,-2.4697275
-3.5499492,113.66263,28.189974,17.846495,0.063852966,1.1274934,-0.10516808,-0.8290287,0.28109008,0.2683532,0.7071246,0.23458324,0.67174387,-0.5264526,1.1051666,-1.194789,-1.9570606,-0.8021294,1.9436287,1.792071,-0.95390326,1.1734325,-1.2186332,-1.9783967,-0.8600186,1.9246249,1.7298923,-0.904027,-1.4666662,0.46083423,0.5400782,1.2826453,0.42800862,0.49634978,-0.28206322,0.03596115,-0.72506714,0.65595365,-1.6286337,0.25852305,0.7390167,0.021205902,-0.6912689,0.62016696,0.8585386,-0.0375746,0.09363062,0.5027254,-1.470868,0.10192465,0.68502617,0.0,1.0,0.0,0.0,0.0,0.0,0.0,-0.6859611,0.32506713,-0.105953634,-1.1859894,13.749266,-3.9217114,0.1408577,-6.9823446,-1.1881769,-2.074635
-3.9925833,106.09087,25.387165,16.45045,-0.0665952,0.97574025,-0.07932022,-0.8323131,0.35150218,0.2316694,0.71684086,0.16675055,0.66724557,-0.5230997,1.0902011,-1.183483,-1.9552298,-0.78833455,1.9412999,1.7966168,-0.956337,1.1586791,-1.2131095,-1.9734617,-0.84719753,1.9283525,1.734785,-0.9069656,-1.4787529,0.58202875,0.47945765,1.28212,0.35334155,0.48666078,-0.29805988,0.01984024,-0.7222061,0.6637434,-1.6065687,0.29773507,0.79479563,0.0066490173,-0.6898346,0.627429,0.8651701,-0.045904838,0.094200596,0.49040756,-1.4494075,0.17057306,0.7380671,0.0,1.0,0.0,0.0,0.0,0.0,0.0,-0.6698402,0.3222061,-0.113743365,-1.3045788,11.913145,-5.5903378,0.015211105,-7.80226,-0.9543538,-1.6879737
-4.739157,95.032646,21.695007,14.85911,-0.10305759,0.77561593,-0.0748464,-0.83555406,0.3896256,0.18360418,0.72666913,0.12567705,0.6560481,-0.52885824,1.0751237,-1.1741469,-1.9551014,-0.77453065,1.9409202,1.8003898,-0.95985144,1.1438125,-1.2065884,-1.9692575,-0.83434653,1.9313508,1.739591,-0.910046,-1.4896933,0.6746754,0.40198517,1.2861824,0.28097358,0.47843075,-0.31174037,0.0039138794,-0.7189789,0.6719342,-1.5871236,0.33334777,0.8295488,-0.0076942444,-0.6877823,0.6350659,0.8715674,-0.054163273,0.095807716,0.4777628,-1.4283265,0.23040019,0.77048874,0.0,1.0,0.0,0.0,0.0,0.0,0.0,-0.65391386,0.31897888,-0.121934175,-1.193881,9.085262,-7.311964,0.42357445,-7.551175,-0.80818534,-1.462543
-2.9790096,86.213745,19.177988,12.844021,-0.25595164,0.61789364,-0.040325545,-0.83383304,0.4149159,0.15638436,0.734996,0.02583771,0.6528933,-0.5223993,1.0604292,-1.1650968,-1.953619,-0.7608469,1.9339346,1.8048804,-0.96228594,1.1288761,-1.1993538,-1.9658045,-0.82141644,1.9334763,1.7443286,-0.91324174,-1.495541,0.73921776,0.3277435,1.2951673,0.18866521,0.472039,-0.3225981,-0.011810303,-0.71541595,0.68035704,-1.5678252,0.36678007,0.8494663,-0.02180481,-0.6851883,0.64290756,0.87771446,-0.06225006,0.09841812,0.46481842,-1.4025853,0.28418073,0.7873027,0.0,1.0,0.0,0.0,0.0,0.0,0.0,-0.6381897,0.31541595,-0.13035703,-0.6902456,6.2926173,-6.9802523,0.8656502,-9.55801,-0.6182909,-1.1985838
-1.5474386,76.21097,16.526505,10.671422,-0.3039593,0.47041285,-0.0007060319,-0.83660644,0.41948736,0.13416633,0.73352706,-0.038648434,0.6485208,-0.5112572,1.0452155,-1.1574051,-1.9523878,-0.74806374,1.9296114,1.8091807,-0.96436745,1.1138958,-1.191713,-1.9630036,-0.80841273,1.9346337,1.7490139,-0.9165243,-1.4991841,0.77191687,0.2656558,1.3018527,0.09052767,0.4671684,-0.3305453,-0.027355194,-0.7115402,0.68885267,-1.5494705,0.39706296,0.8527451,-0.035655975,-0.6820984,0.65078884,0.8835906,-0.070093066,0.101924665,0.45162576,-1.3753464,0.3303967,0.7871541,0.0,1.0,0.0,0.0,0.0,0.0,0.0,-0.6226448,0.31154022,-0.13885266,-0.4723549,3.132093,-5.765587,0.58705807,-10.1425705,-0.45865178,-0.9277165
-2.7810018,59.60159,11.216432,8.23889,-0.3224635,0.17260844,0.005356537,-0.8377217,0.40396836,0.03029234,0.73044026,-0.041546237,0.62722737,-0.49516156,1.0301236,-1.1513162,-1.9599744,-0.7353687,1.930479,1.8117366,-0.96604043,1.0988926,-1.1840016,-1.9611129,-0.7953769,1.9349816,1.7536507,-0.91986215,-1.5009636,0.77041733,0.16448423,1.3036005,0.015760837,0.4626963,-0.3353656,-0.042747498,-0.70742035,0.6971384,-1.5349126,0.41853943,0.8230335,-0.04925537,-0.6786728,0.6584383,0.88921183,-0.07748428,0.10618525,0.43820447,-1.3515965,0.36018175,0.75618505,0.0,1.0,0.0,0.0,0.0,0.0,0.0,-0.6072525,0.30742034,-0.14713842,-0.2747059,-0.23618937,-9.818855,0.035500526,-7.6876802,-0.3398955,-0.6256044
-5.135229,46.803036,7.3102374,7.3151236,0.004562795,-0.08043152,-0.034451,-0.8374714,0.38148454,-0.053301413,0.7382179,0.05755689,0.5828418,-0.48475978,1.0151454,-1.1458532,-1.966443,-0.7215551,1.9407372,1.8119348,-0.96833813,1.0838856,-1.1765171,-1.9604559,-0.7823073,1.9350798,1.7582194,-0.9232315,-1.5008538,0.7409966,0.033373743,1.3075722,0.0076117124,0.45525753,-0.3378937,-0.058036804,-0.7031479,0.70494044,-1.5261863,0.4318297,0.76880383,-0.06272888,-0.67505646,0.6656184,0.89463645,-0.084246084,0.11089878,0.4245345,-1.3408544,0.37365836,0.704323,0.0,1.0,0.0,0.0,0.0,0.0,0.0,-0.5919632,0.30314788,-0.15494043,-0.065374374,-2.9904485,-12.943089,0.23155212,-0.90093595,-0.6656289,-0.39855838
-8.308436,36.120296,3.8808837,6.894468,0.17037982,-0.2588728,-0.061994687,-0.842042,0.35073596,-0.15096101,0.74241734,0.079077065,0.56592923,-0.4650288,0.99968135,-1.1414435,-1.975552,-0.70806557,1.9429876,1.8148123,-0.9697344,1.0688652,-1.1694885,-1.9613287,-0.7691846,1.9353285,1.762711,-0.9266046,-1.5025636,0.69013923,-0.1274743,1.3131826,0.030785419,0.44743377,-0.3375815,-0.073272705,-0.6987839,0.71204454,-1.5221075,0.43839696,0.6945955,-0.07616806,-0.671402,0.67214805,0.8999171,-0.090235725,0.115868226,0.41058636,-1.3401283,0.37539658,0.6352017,0.0,1.0,0.0,0.0,0.0,0.0,0.0,-0.5767273,0.29878387,-0.16204453,-0.22435188,-5.106294,-16.036705,0.3878832,2.325489,-0.6647706,-0.10908842
-6.6092377,30.99036,2.9260466,5.8038054,0.29359272,-0.36350334,-0.05608422,-0.83081985,0.3102587,-0.20970005,0.747096,0.13061947,0.5536534,-0.46753818,0.9857832,-1.1384627,-1.9822987,-0.694475,1.9483905,1.8180764,-0.97335845,1.053883,-1.163097,-1.9637614,-0.7559924,1.9360139,1.7671232,-0.929973,-1.4970013,0.622013,-0.2817974,1.32062,0.081355415,0.4394309,-0.3370626,-0.08847809,-0.6943817,0.71835405,-1.5195811,0.44187447,0.61319774,-0.08963013,-0.6677704,0.67794067,0.9050745,-0.09543005,0.12089266,0.39638144,-1.3430294,0.37080774,0.56024575,0.0,1.0,0.0,0.0,0.0,0.0,0.0,-0.5615219,0.2943817,-0.16835403,0.51562786,-6.823528,-15.404013,0.5723715,5.0807214,-0.7041991,-0.08728504
-7.7473187,30.71845,2.652322,6.3570566,0.19098741,-0.36973494,-0.04431356,-0.8346472,0.28001836,-0.29251328,0.7579528,0.0547207,0.54966307,-0.44491932,0.9704182,-1.1350952,-1.9930128,-0.6801971,1.941486,1.8220896,-0.97446495,1.0389408,-1.1574093,-1.967722,-0.74268746,1.9369454,1.7714605,-0.9333185,-1.4932721,0.55083305,-0.43418768,1.333223,0.09732,0.43201467,-0.3342053,-0.103652954,-0.6899414,0.7238563,-1.516414,0.4457251,0.5329508,-0.10310364,-0.6641922,0.68298393,0.91010237,-0.099815376,0.12603539,0.38192368,-1.3448795,0.36641404,0.48576978,0.0,1.0,0.0,0.0,0.0,0.0,0.0,-0.546347,0.2899414,-0.17385626,0.34167767,-7.139349,-15.193642,1.1143208,1.606889,-0.65938234,0.14882684
-6.9650483,25.05089,1.4941759,5.274799,0.15219262,-0.42325604,-0.010611631,-0.82887095,0.21138582,-0.3522565,0.7622083,0.04625349,0.5420397,-0.41369337,0.9560537,-1.1362708,-2.0029478,-0.66646665,1.9415708,1.8256645,-0.9746878,1.0240558,-1.1525875,-1.9730767,-0.72925305,1.9379189,1.7757281,-0.9366125,-1.4871012,0.4591568,-0.56926495,1.3463639,0.09755273,0.4253562,-0.3282446,-0.11880493,-0.68548584,0.728489,-1.5142345,0.44610265,0.44508004,-0.11661148,-0.6606903,0.6872224,0.9149856,-0.103378266,0.13129632,0.36725393,-1.3475589,0.35778293,0.4037632,0.0,1.0,0.0,0.0,0.0,0.0,0.0,-0.53119504,0.28548583,-0.17848897,0.6026268,-9.177769,-13.483227,1.1905909,0.055488944,-0.5644381,0.464648
-8.117881,18.945042,-0.23659277,4.522812,-0.08154094,-0.4773525,0.031512886,-0.8331116,0.14350645,-0.42640892,0.76519585,-0.07456583,0.507381,-0.3877675,0.9407447,-1.1382369,-2.0157175,-0.65273345,1.9304624,1.8264662,-0.97538924,1.0092033,-1.1488167,-1.9797295,-0.7157004,1.9384816,1.7799128,-0.93982923,-1.4847363,0.34977984,-0.69730264,1.357999,0.042656958,0.41649067,-0.3198943,-0.13393784,-0.6810303,0.73218906,-1.5127207,0.44565663,0.34499013,-0.13011932,-0.6572876,0.6905611,0.91970474,-0.1060258,0.13679197,0.3524056,-1.3479534,0.34500825,0.31158915,0.0,1.0,0.0,0.0,0.0,0.0,0.0,-0.51606214,0.28103027,-0.18218905,0.24602413,-10.937423,-12.82506,1.082325,-5.4223833,-0.7633865,0.71685314
-4.331233,35.349735,4.3645525,6.147811,-0.26062626,-0.29335177,0.09305468,-0.82460254,0.14249979,-0.4328616,0.7781042,-0.20957276,0.53699815,-0.35469922,0.92674303,-1.1345668,-2.0230157,-0.63789,1.9175243,1.8336127,-0.9752992,0.99439543,-1.1459211,-1.9873195,-0.702007,1.9380811,1.7840347,-0.9429468,-1.4795902,0.26949835,-0.7788341,1.3726335,-0.0679369,0.41073397,-0.3095524,-0.148983,-0.67652893,0.73511666,-1.5008707,0.4538648,0.2823508,-0.14352798,-0.6539154,0.69318366,0.9241873,-0.10787182,0.14275329,0.3374357,-1.3344254,0.346144,0.24714568,0.0,1.0,0.0,0.0,0.0,0.0,0.0,-0.501017,0.27652892,-0.18511665,0.47278404,-8.088917,-7.8727484,1.3741255,-11.265574,-0.5503416,0.8751571
-3.9973722,32.28066,3.627094,5.37053,-0.31397393,-0.3367226,0.1367521,-0.82474357,0.06897329,-0.49165908,0.77373946,-0.26010376,0.52256787,-0.3064467,0.9119211,-1.1390238,-2.0364854,-0.6246331,1.9120708,1.8362916,-0.97359145,0.97963065,-1.1438955,-1.9956574,-0.68821764,1.936509,1.788096,-0.94593275,-1.4755853,0.18010502,-0.8515292,1.3806837,-0.1874627,0.4047236,-0.29546446,-0.16391754,-0.67194366,0.7373816,-1.4898157,0.46119592,0.21262012,-0.15679932,-0.65055084,0.6951221,0.9283967,-0.108926795,0.14921844,0.32241008,-1.3205336,0.34369913,0.17738125,0.0,1.0,0.0,0.0,0.0,0.0,0.0,-0.48608243,0.27194366,-0.18738157,0.36594868,-8.993017,-7.0028067,0.73297024,-12.14815,-0.5455792,1.2452841
-4.202785,36.84575,4.7644086,6.3348665,-0.17300811,-0.3109041,0.15381084,-0.82582355,0.03413169,-0.52314126,0.77819175,-0.29536125,0.50098747,-0.24793448,0.8970483,-1.1404823,-2.0479715,-0.6103985,1.9069729,1.8381947,-0.9707262,0.9648878,-1.1426996,-2.004621,-0.67436427,1.9338353,1.7920847,-0.9487442,-1.4739523,0.09936427,-0.91041833,1.3865569,-0.29470712,0.39680776,-0.2769814,-0.17873001,-0.66726685,0.73901653,-1.4773082,0.47129416,0.1517154,-0.16994858,-0.6471863,0.69642496,0.9323178,-0.109218195,0.15612596,0.3073751,-1.308656,0.34379163,0.115998395,0.0,1.0,0.0,0.0,0.0,0.0,0.0,-0.47126997,0.26726684,-0.18901652,0.1155138,-8.148406,-5.526328,0.5233526,-11.017558,-0.79012513,1.6776025
-3.3633034,30.563602,3.791966,4.9832935,0.06474513,-0.3619733,0.17479064,-0.8213175,-0.043995295,-0.52883625,0.7731713,-0.27033144,0.47644258,-0.18534759,0.88275605,-1.1470991,-2.0575047,-0.59704715,1.9068022,1.839729,-0.96727896,0.9501726,-1.1424459,-2.0140042,-0.66049933,1.9304079,1.7959822,-0.95133704,-1.4708318,0.00044037143,-0.9468611,1.3863486,-0.3593623,0.38733217,-0.25377548,-0.19344711,-0.66252136,0.73997796,-1.4683963,0.4776139,0.08216089,-0.18303299,-0.6438675,0.6970656,0.93596256,-0.1088026,0.16319416,0.29241025,-1.3052547,0.339309,0.04805332,0.0,1.0,0.0,0.0,0.0,0.0,0.0,-0.45655286,0.26252136,-0.18997794,0.2821684,-9.946392,-3.3343196,-0.053310394,-6.7160788,-0.9669602,2.1847427
-3.373879,35.940952,5.018024,6.0401063,0.24938339,-0.34842765,0.18160258,-0.82101774,-0.06943881,-0.5570018,0.77373904,-0.2764156,0.43013734,-0.11490805,0.86807084,-1.1493897,-2.0697045,-0.5831254,1.9027663,1.8389959,-0.96282786,0.93548316,-1.1430849,-2.0237164,-0.64665085,1.9265443,1.7997538,-0.95366305,-1.4684529,-0.08555697,-0.97839993,1.3841283,-0.39618632,0.3735897,-0.22595358,-0.20806122,-0.6576843,0.7403169,-1.458016,0.48671585,0.021651212,-0.19611359,-0.6405487,0.6970992,0.93934166,-0.10773969,0.17025511,0.27756512,-1.3042839,0.3382295,-0.010241423,0.0,1.0,0.0,0.0,0.0,0.0,0.0,-0.44193876,0.25768432,-0.19031692,0.19204617,-8.674998,-2.7537584,-0.25539398,-4.027611,-1.451838,2.6472986
-5.469878,23.59556,2.1518147,4.47924,0.3933308,-0.48113,0.18885525,-0.82351494,-0.16825385,-0.58754736,0.76842105,-0.24792047,0.35527742,-0.031244218,0.85313165,-1.1599103,-2.0824711,-0.5698087,1.9017522,1.8352815,-0.95678747,0.92080134,-1.1447977,-2.0337834,-0.63284737,1.922556,1.803346,-0.9556678,-1.4680533,-0.19999626,-1.0156252,1.3791822,-0.40017468,0.35424647,-0.19233285,-0.22262573,-0.6528168,0.73987657,-1.4556984,0.4873492,-0.06056384,-0.20927048,-0.637352,0.6964131,0.9424992,-0.10597403,0.17708696,0.26287797,-1.3158345,0.32825857,-0.08690325,0.0,1.0,0.0,0.0,0.0,0.0,0.0,-0.42737424,0.25281677,-0.18987656,0.048708916,-11.484456,-3.5285711,-0.4540205,-0.5752802,-1.9863367,3.2786012
-4.479605,29.28666,3.4265885,5.1753445,0.45123917,-0.45946765,0.20451373,-0.8196182,-0.2025698,-0.59310997,0.7660102,-0.2664651,0.31971496,0.0208819,0.83883953,-1.1650547,-2.0930943,-0.55624634,1.8959095,1.8353175,-0.9535796,0.90613383,-1.1475824,-2.0441585,-0.61910164,1.9185623,1.806729,-0.9573256,-1.4663051,-0.304849,-1.0440598,1.373179,-0.39982167,0.3324715,-0.15725397,-0.23714447,-0.6479187,0.7386822,-1.4498426,0.4916469,-0.13566306,-0.22252655,-0.63417816,0.69501716,0.9454493,-0.10352327,0.18360996,0.24838635,-1.3256109,0.3222,-0.15605621,0.0,1.0,0.0,0.0,0.0,0.0,0.0,-0.4128555,0.2479187,-0.1886822,0.16508102,-10.54669,-2.542591,-0.56135654,-0.24060607,-2.284819,3.4293473
-5.47424,20.538939,1.348622,3.6590831,0.30829793,-0.50953877,0.24631885,-0.82178897,-0.29484302,-0.61762506,0.76034075,-0.317676,0.29906237,0.12135294,0.82395494,-1.1770667,-2.105921,-0.5430676,1.8867947,1.8366352,-0.9451903,0.89147395,-1.151565,-2.054844,-0.60542536,1.914445,1.8098977,-0.95859015,-1.4657623,-0.42957333,-1.0763698,1.3660728,-0.41592932,0.31157678,-0.116330765,-0.25162888,-0.6430054,0.7366101,-1.44789,0.49089202,-0.2258908,-0.23590851,-0.63111115,0.69281775,0.94820124,-0.10031349,0.1898232,0.23413396,-1.3383366,0.31103408,-0.24023557,0.0,1.0,0.0,0.0,0.0,0.0,0.0,-0.3983711,0.24300537,-0.1866101,0.08621216,-12.512255,-3.079176,-0.60346127,-1.7497361,-2.1843195,4.0453
-5.2243156,16.928692,0.74649847,2.869734,0.3628927,-0.5371454,0.26474562,-0.81725377,-0.3718287,-0.6223209,0.7609175,-0.2871958,0.23147304,0.21954398,0.8097486,-1.1887479,-2.117076,-0.5293336,1.8857255,1.833045,-0.93663573,0.8768379,-1.156875,-2.065796,-0.59179926,1.9102603,1.8128254,-0.95940554,-1.4626801,-0.5648458,-1.1011094,1.3619565,-0.41948476,0.28621247,-0.069982104,-0.26609802,-0.6380997,0.73360074,-1.4464425,0.49040124,-0.32594416,-0.24944687,-0.6281738,0.68974084,0.95077753,-0.096319295,0.19562742,0.22016917,-1.3552275,0.29853207,-0.32922947,0.0,1.0,0.0,0.0,0.0,0.0,0.0,-0.38390195,0.23809966,-0.18360072,0.35967827,-13.561535,-2.378273,-0.25742054,-0.44925213,-2.6610553,4.626004
-3.735514,23.546305,2.0640984,3.2313714,0.34091228,-0.5807807,0.3072484,-0.81836677,-0.40830368,-0.641288,0.73728627,-0.2766635,-0.015274191,0.30768424,0.7950012,-1.1977054,-2.1299248,-0.51807064,1.882594,1.811298,-0.92863715,0.86222476,-1.1633943,-2.0769997,-0.57830954,1.9060946,1.8153393,-0.9597351,-1.4608736,-0.6811868,-1.1260831,1.344993,-0.4163151,0.23950918,-0.020741638,-0.2805481,-0.6332016,0.72968155,-1.443696,0.48927608,-0.40863633,-0.2631111,-0.62535095,0.6858501,0.9531925,-0.09149752,0.20097385,0.20654696,-1.3669465,0.28834412,-0.4083629,0.0,1.0,0.0,0.0,0.0,0.0,0.0,-0.36945188,0.2332016,-0.17968154,0.20258427,-11.688733,-2.269435,-1.5665054,0.07510185,-4.842618,4.905024
-2.4817855,35.64911,4.337494,4.7355633,0.35856062,-0.5442008,0.3467233,-0.82313055,-0.4304219,-0.65560853,0.7100177,-0.27573892,-0.2027838,0.4029936,0.7799117,-1.2064365,-2.1425605,-0.50730777,1.8785206,1.795061,-0.91943574,0.8475973,-1.1708349,-2.0884423,-0.5651094,1.9019712,1.8172746,-0.9595526,-1.4634304,-0.76521856,-1.1489456,1.3118482,-0.41228983,0.17729808,0.031127835,-0.29493713,-0.62831116,0.72508794,-1.4353324,0.4905476,-0.4729687,-0.2768402,-0.6225815,0.6813023,0.9554405,-0.08583592,0.20589589,0.19331925,-1.3707793,0.2846989,-0.46968699,0.0,1.0,0.0,0.0,0.0,0.0,0.0,-0.35506284,0.22831115,-0.17508793,-0.2871275,-8.491146,-1.83146,-3.2506227,-0.046265125,-6.493801,5.14193
-3.451761,40.98459,4.896427,5.709106,0.2538864,-0.5087624,0.36946234,-0.8338956,-0.47079402,-0.6801583,0.6837345,-0.33705524,-0.3274524,0.4450354,0.7642077,-1.2179143,-2.1564581,-0.49673593,1.8682657,1.7845293,-0.9150491,0.8328878,-1.1789888,-2.1001606,-0.55232906,1.8977033,1.8185304,-0.9588707,-1.47368,-0.83231103,-1.1777176,1.2668014,-0.43350154,0.10773552,0.08021537,-0.3091812,-0.6233673,0.71990526,-1.4200631,0.49695894,-0.53109366,-0.2905655,-0.619812,0.6761848,0.9575082,-0.07926842,0.21051031,0.18049884,-1.3695363,0.2837375,-0.52536935,0.0,1.0,0.0,0.0,0.0,0.0,0.0,-0.34081876,0.2233673,-0.16990525,-1.0746241,-6.8103313,-2.3281097,-4.46527,-2.7134597,-7.170872,4.8118124
-5.105258,34.275715,3.3885775,4.783719,0.25253105,-0.5220311,0.36244172,-0.84029365,-0.54575634,-0.6997406,0.6632779,-0.32493672,-0.38942286,0.4751858,0.74885845,-1.2335645,-2.1701345,-0.48600125,1.8652096,1.7795881,-0.91135216,0.8180515,-1.1879228,-2.112199,-0.5400149,1.8932496,1.8191066,-0.95772725,-1.4870483,-0.9138631,-1.2112982,1.2198732,-0.45068803,0.040061127,0.12554812,-0.32331467,-0.6183853,0.7140475,-1.4096162,0.50007945,-0.60076743,-0.30431747,-0.61709595,0.670424,0.95941156,-0.07174293,0.21478648,0.16807489,-1.3743541,0.28066078,-0.59279215,0.0,1.0,0.0,0.0,0.0,0.0,0.0,-0.3266853,0.21838531,-0.16404748,-1.3489485,-8.241582,-2.9453516,-4.5909643,-2.192241,-6.9971747,4.470107
-2.862859,27.459656,2.3406126,2.4682052,0.12467411,-0.51943165,0.38355213,-0.836859,-0.61323726,-0.70232695,0.63437736,-0.34145877,-0.42972925,0.4893605,0.73436564,-1.2492466,-2.1824317,-0.4765772,1.8591038,1.7761337,-0.9087912,0.80311984,-1.1977991,-2.1245162,-0.528193,1.8886065,1.8190476,-0.9561712,-1.4951702,-1.0124208,-1.2375627,1.1701136,-0.46990788,-0.022102043,0.16547692,-0.33736038,-0.61338806,0.70742404,-1.4019786,0.5000684,-0.68082815,-0.31811905,-0.614418,0.6638991,0.9611679,-0.063254945,0.21862194,0.15607564,-1.3789483,0.27435938,-0.67252123,0.0,1.0,0.0,0.0,0.0,0.0,0.0,-0.3126396,0.21338806,-0.15742403,-0.80184937,-9.922075,-2.3212671,-4.834175,-2.2921205,-6.4548345,3.9640756
-2.4016678,37.483562,4.1529713,4.838098,0.21689528,-0.34880942,0.33056343,-0.83405584,-0.63061595,-0.69550854,0.6492347,-0.43104348,-0.41699672,0.49898243,0.7197143,-1.2608607,-2.194067,-0.46326953,1.8455023,1.7773479,-0.90627295,0.7881519,-1.2085394,-2.1369784,-0.5166801,1.883542,1.8184448,-0.9542591,-1.4975032,-1.0948187,-1.2470287,1.1453717,-0.5202744,-0.07404347,0.19961545,-0.35126877,-0.60835266,0.7001412,-1.3865361,0.5049516,-0.74276733,-0.33192444,-0.6117401,0.6566932,0.96275043,-0.05391973,0.2221205,0.14445327,-1.3776944,0.2767141,-0.7369671,0.0,1.0,0.0,0.0,0.0,0.0,0.0,-0.2987312,0.20835266,-0.15014118,-0.26288033,-8.332634,-0.44255257,-2.3697138,-5.5790663,-5.471871,3.3616753
1.6711302,43.365353,5.806311,4.9888988,0.44707537,-0.20984918,0.3072998,-0.8225937,-0.6716785,-0.6682669,0.6328881,-0.37296745,-0.37506375,0.5268652,0.70589256,-1.2757072,-2.203805,-0.4533913,1.8462452,1.7809385,-0.9015726,0.77323645,-1.2200483,-2.1493263,-0.50536525,1.8781885,1.8174181,-0.9520276,-1.4897455,-1.1699505,-1.2286367,1.126957,-0.5426091,-0.113367885,0.23071425,-0.36499023,-0.6032486,0.6923194,-1.3664975,0.5122002,-0.79415137,-0.3456955,-0.60900116,0.648927,0.96415955,-0.043991867,0.22520107,0.13321269,-1.373184,0.2851557,-0.79061615,0.0,1.0,0.0,0.0,0.0,0.0,0.0,-0.28500974,0.20324859,-0.14231938,0.70528984,-7.609391,2.4892092,-1.7930984,-2.8954506,-4.2499676,3.0469208
1.7691545,56.181652,8.080765,7.7298155,0.8453678,-0.044620275,0.2496225,-0.82911247,-0.6733898,-0.6561193,0.60830426,-0.31512097,-0.40118006,0.5094706,0.6903252,-1.2873873,-2.2149382,-0.44453484,1.8466763,1.7773001,-0.90108055,0.75837535,-1.2320913,-2.1613882,-0.49427533,1.8728687,1.8160325,-0.9495375,-1.4853257,-1.2161306,-1.195862,1.1029483,-0.53124064,-0.14820342,0.25486284,-0.37845612,-0.5980377,0.6841311,-1.339402,0.5236981,-0.8262365,-0.35940552,-0.606102,0.64078724,0.9654121,-0.03372683,0.22776286,0.122335695,-1.3667867,0.30449125,-0.8227555,0.0,1.0,0.0,0.0,0.0,0.0,0.0,-0.27154386,0.19803771,-0.13413107,0.31893253,-4.7340155,4.167652,-2.4339676,0.24415255,-3.8437815,2.3230524
6.023729,63.656235,9.670428,7.9756002,0.99849206,0.0600273,0.24198341,-0.81551003,-0.68935794,-0.630576,0.584363,-0.2661214,-0.3914166,0.50707424,0.67682433,-1.301027,-2.2244458,-0.43583903,1.8462565,1.7768909,-0.8988301,0.7436058,-1.24447,-2.1730266,-0.48349062,1.8678693,1.8143504,-0.94684154,-1.4746994,-1.2454028,-1.1499363,1.0699611,-0.49274582,-0.17614527,0.2740741,-0.39160538,-0.5927124,0.6757062,-1.3062989,0.53581417,-0.84684694,-0.37300873,-0.6029663,0.63242126,0.9665288,-0.023346774,0.22971462,0.1118399,-1.3535849,0.3274257,-0.84232396,0.0,1.0,0.0,0.0,0.0,0.0,0.0,-0.2583946,0.1927124,-0.1257062,0.89423656,-3.0428648,5.645275,-3.4137487,2.8117418,-3.1643093,1.8028736
5.397344,67.74294,10.391601,9.002707,1.4610806,0.13047874,0.19891737,-0.82142997,-0.69856405,-0.613309,0.5426426,-0.06780511,-0.41540903,0.51667213,0.6614628,-1.3143264,-2.2343574,-0.42922637,1.8610888,1.7728095,-0.8951743,0.72890013,-1.257045,-2.1842034,-0.4731733,1.8638409,1.8124084,-0.94397384,-1.4697458,-1.2617128,-1.1030203,1.0184897,-0.37642783,-0.20163098,0.29067966,-0.4044304,-0.58727264,0.6671081,-1.2745743,0.5477466,-0.86401695,-0.38652802,-0.5995636,0.6239282,0.96757764,-0.013084819,0.23080955,0.1017311,-1.3466216,0.35712975,-0.85262054,0.0,1.0,0.0,0.0,0.0,0.0,0.0,-0.24556959,0.18727264,-0.11710811,0.32022,-1.7433882,5.7725906,-5.286479,10.561776,-2.9416113,1.5584528
9.172254,74.6273,11.408103,9.244686,1.3754241,0.19486827,0.21200407,-0.8077581,-0.6862526,-0.60107076,0.510056,-0.059049223,-0.4320858,0.50238955,0.64812434,-1.3256702,-2.2443104,-0.4221677,1.857936,1.7691998,-0.8937349,0.7142831,-1.2696354,-2.1949608,-0.4634477,1.8609377,1.8102305,-0.94097364,-1.4597815,-1.258546,-1.0626988,0.9565146,-0.26541454,-0.2242264,0.30264983,-0.41688156,-0.5817108,0.65841174,-1.2356948,0.5589819,-0.8708855,-0.39988708,-0.59586334,0.6154049,0.96857405,-0.0030410846,0.23105547,0.092024215,-1.3287171,0.38598984,-0.8534557,0.0,1.0,0.0,0.0,0.0,0.0,0.0,-0.23311841,0.18171081,-0.10841173,0.7888317,0.21002293,5.2135944,-6.4095974,9.94668,-2.60925,1.0498405
10.550406,75.25347,11.382727,8.614953,1.405398,0.20390522,0.24202177,-0.8112021,-0.6841255,-0.5831961,0.44089496,0.072805576,-0.48572487,0.5150969,0.6331629,-1.338048,-2.2532804,-0.4193582,1.8682183,1.761658,-0.88946396,0.6997329,-1.2821324,-2.205352,-0.45454413,1.8593372,1.8078159,-0.9378621,-1.4541609,-1.2470148,-1.0278112,0.8675299,-0.12846625,-0.24827869,0.31349716,-0.42894745,-0.5760422,0.64963657,-1.1965115,0.5685314,-0.87877685,-0.41306305,-0.5918884,0.6068764,0.96954554,0.0067374827,0.23040347,0.082766436,-1.3090731,0.41353598,-0.8538053,0.0,1.0,0.0,0.0,0.0,0.0,0.0,-0.22105253,0.17604217,-0.099636555,0.35924911,1.0635376,4.62296,-9.127771,12.583777,-2.7430205,0.94565153
13.432875,76.03217,11.302334,7.4318056,1.1666739,0.21301222,0.31112272,-0.8104021,-0.6697239,-0.56712794,0.36221454,0.10893032,-0.5318518,0.5241872,0.6186927,-1.3491048,-2.262065,-0.41832268,1.8702302,1.7546307,-0.8854434,0.68521893,-1.2944405,-2.215438,-0.44674498,1.8589847,1.8051568,-0.9346503,-1.4511077,-1.2257227,-0.9983219,0.7498424,-0.0075370106,-0.2727895,0.3232374,-0.44060135,-0.5703125,0.64079535,-1.1549152,0.5742156,-0.88570684,-0.4259796,-0.5876541,0.5983317,0.9704978,0.016285723,0.2288828,0.07403705,-1.2808187,0.4359263,-0.8559141,0.0,1.0,0.0,0.0,0.0,0.0,0.0,-0.20939863,0.1703125,-0.09079534,0.106692314,2.0628452,4.015088,-12.023317,11.047847,-2.7430594,0.82672834
19.412811,74.60839,10.980553,4.6572647,0.6614055,0.18106931,0.42556944,-0.801438,-0.65326566,-0.5651772,0.26194283,0.11651946,-0.5731707,0.5202172,0.6050751,-1.3597671,-2.2719555,-0.4205507,1.8706367,1.7478398,-0.88262856,0.67076045,-1.3064816,-2.2253218,-0.44037816,1.8596009,1.8022519,-0.9313563,-1.4447219,-1.1970878,-0.98180157,0.59799814,0.08181117,-0.29708254,0.33089405,-0.45180893,-0.56455994,0.6318745,-1.1096311,0.57482976,-0.8940004,-0.4385109,-0.58330536,0.58971095,0.97140986,0.025724668,0.22660339,0.06596858,-1.238484,0.4468737,-0.8653582,0.0,1.0,0.0,0.0,0.0,0.0,0.0,-0.19819105,0.16455993,-0.08187449,0.44720173,2.831149,2.5859594,-15.470433,8.014841,-2.6451766,0.6017387
21.02735,73.39899,10.584215,3.752919,0.4850117,0.16040432,0.46396634,-0.8001725,-0.63772243,-0.564547,0.17620665,0.17950977,-0.6041918,0.52402663,0.5907432,-1.3702538,-2.2817764,-0.4227575,1.8775519,1.7418327,-0.87895364,0.6563638,-1.3182118,-2.2351255,-0.43564126,1.8610485,1.7991104,-0.9279936,-1.4385709,-1.1651112,-0.97723603,0.4313546,0.16310439,-0.32048553,0.33757952,-0.46256638,-0.55883026,0.6228602,-1.0643892,0.5721922,-0.90417117,-0.4505844,-0.57886505,0.58096445,0.9722751,0.03513471,0.22362758,0.05863003,-1.1927271,0.4523255,-0.87906504,0.0,1.0,0.0,0.0,0.0,0.0,0.0,-0.1874336,0.15883026,-0.07286018,0.44808388,3.1896353,1.2195349,-16.942198,7.376602,-2.5202334,0.5171597
12.882894,76.77883,10.455678,8.2894945,0.90677613,0.2339927,0.29742622,-0.80374175,-0.6295426,-0.5429019,0.18253334,0.19375834,-0.59121823,0.5140482,0.5759896,-1.3811661,-2.2894158,-0.41738793,1.8804243,1.7399886,-0.87658876,0.6419986,-1.3296559,-2.2448416,-0.43216226,1.8631506,1.7957708,-0.9245804,-1.4362605,-1.1374323,-0.96756166,0.3193746,0.22393356,-0.33922324,0.3421945,-0.47289276,-0.5531235,0.61377686,-1.0223898,0.5700324,-0.909833,-0.46229553,-0.5743103,0.5721458,0.97308767,0.04447539,0.22007947,0.051838297,-1.1594917,0.4667472,-0.88403326,0.0,1.0,0.0,0.0,0.0,0.0,0.0,-0.17710721,0.15312347,-0.06377685,0.097203255,2.7543783,1.5998125,-11.413664,5.4802775,-2.0629823,0.337404
13.357103,79.748726,11.156418,9.545408,1.1251734,0.31280842,0.2373542,-0.7933509,-0.61699265,-0.4790695,0.12740017,0.2149501,-0.58696,0.5091823,0.5626635,-1.3913552,-2.2927485,-0.41942224,1.8846456,1.7370747,-0.8736622,0.62768966,-1.3408444,-2.2541878,-0.42963412,1.8657566,1.7922714,-0.92113096,-1.4295542,-1.1126726,-0.9218206,0.22991352,0.27113864,-0.3539442,0.3454026,-0.4827881,-0.5474396,0.60468644,-0.9794846,0.5672892,-0.90967023,-0.4736786,-0.56959534,0.5633423,0.9738609,0.05359717,0.21599449,0.045482773,-1.1272587,0.4835439,-0.8805498,0.0,1.0,0.0,0.0,0.0,0.0,0.0,-0.16721189,0.14743957,-0.054686427,0.5431175,2.4759054,5.120766,-9.164432,4.2271194,-1.6198933,0.19690394
14.816739,78.01115,11.185089,8.524282,1.1949105,0.34646213,0.26720852,-0.7982567,-0.60417074,-0.43635538,0.023731986,0.29584318,-0.59396666,0.5133642,0.54786396,-1.4012614,-2.2978234,-0.42726094,1.8953409,1.7328748,-0.86979455,0.613417,-1.3518002,-2.2629046,-0.42815462,1.8689443,1.7886412,-0.9176502,-1.4267986,-1.0897526,-0.85366464,0.11993962,0.33309495,-0.36608067,0.34839755,-0.4922676,-0.5417862,0.5955747,-0.9407072,0.5624161,-0.9117741,-0.48474503,-0.5647125,0.5545624,0.97463554,0.062365323,0.21125439,0.039592642,-1.0954213,0.49971667,-0.8786127,0.0,1.0,0.0,0.0,0.0,0.0,0.0,-0.15773237,0.14178619,-0.045574665,0.16920567,2.3079157,7.228744,-11.196227,5.8086634,-1.2998343,0.18405914
20.767939,72.718834,10.92271,4.9614887,0.9552756,0.32024914,0.36615285,-0.7909662,-0.5972098,-0.39765796,-0.08808469,0.3668245,-0.6075613,0.51051533,0.5343204,-1.4115212,-2.3026705,-0.43696308,1.9056268,1.7278851,-0.86659867,0.599193,-1.3625596,-2.270863,-0.42804787,1.8728671,1.7848964,-0.9141426,-1.4211782,-1.0711987,-0.77602583,-0.0262794,0.4113522,-0.3780089,0.3514826,-0.5013504,-0.53619385,0.58638024,-0.8971051,0.56004,-0.9233813,-0.49545288,-0.5597153,0.545731,0.97545505,0.07071698,0.20569415,0.034298513,-1.0578848,0.5077211,-0.88622516,0.0,1.0,0.0,0.0,0.0,0.0,0.0,-0.14864957,0.13619384,-0.03638023,0.48208237,1.8944025,7.981062,-14.800546,7.624042,-1.2935638,0.24607778
27.802094,69.82901,11.696952,1.8850012,1.0014275,0.37386453,0.43373835,-0.7859851,-0.5970923,-0.2502917,-0.19826308,0.43719986,-0.60172737,0.48156828,0.5205945,-1.4222687,-2.2958922,-0.4478742,1.9165871,1.7247236,-0.86598575,0.58504134,-1.373193,-2.2775352,-0.4296434,1.8776746,1.7810634,-0.9106303,-1.4134383,-1.0604347,-0.6309876,-0.20443968,0.5040448,-0.38508785,0.351025,-0.5100403,-0.53069305,0.5770706,-0.8612707,0.545849,-0.93489087,-0.50574875,-0.5546646,0.536815,0.9763957,0.07841871,0.19904044,0.029744282,-1.0157408,0.5123414,-0.89490885,0.0,1.0,0.0,0.0,0.0,0.0,0.0,-0.1399597,0.13069305,-0.027070582,0.723052,1.1417866,14.450455,-17.970232,9.361416,-0.75229406,-0.049060583
22.119337,75.91283,12.428018,5.9375796,1.5165057,0.47997892,0.3002991,-0.7897142,-0.5805896,-0.18231799,-0.21640818,0.512498,-0.5866841,0.50148696,0.5060699,-1.431252,-2.295767,-0.4512842,1.9289243,1.7223951,-0.8604816,0.5709384,-1.383693,-2.2826474,-0.4327425,1.8834889,1.7771765,-0.90710825,-1.4093724,-1.0462755,-0.47234276,-0.34538174,0.60814995,-0.39006275,0.3527682,-0.5183563,-0.5252762,0.5677066,-0.8223363,0.54086846,-0.93853396,-0.5156975,-0.5494919,0.527923,0.97749376,0.08524976,0.19123715,0.02582011,-0.98368275,0.52664965,-0.88916206,0.0,1.0,0.0,0.0,0.0,0.0,0.0,-0.13164365,0.12527618,-0.017706573,0.38893223,1.4793873,15.596599,-14.194256,10.734868,-0.48456192,0.19963384
22.130188,101.631294,17.305817,13.793773,2.6225066,0.83460975,0.10555778,-0.7770501,-0.5279996,0.08157556,-0.21992917,0.5505465,-0.5661112,0.5299399,0.49323338,-1.4364929,-2.2744899,-0.45473543,1.9385436,1.7205653,-0.85411423,0.55691653,-1.3938363,-2.2853029,-0.43682665,1.8903055,1.7732817,-0.90355146,-1.3997844,-1.0033774,-0.19855718,-0.42987016,0.70854765,-0.38916543,0.35680103,-0.5262222,-0.51994324,0.55864066,-0.7748833,0.5322598,-0.89801866,-0.5253372,-0.5440521,0.51950496,0.97880113,0.09064948,0.18229753,0.022329766,-0.9539037,0.55691195,-0.8277625,0.0,1.0,0.0,0.0,0.0,0.0,0.0,-0.12377775,0.11994323,-0.008640647,0.957489,4.3866873,26.777979,-8.594066,10.784435,0.19327998,0.43584704
23.487535,110.48695,18.314848,15.193033,2.4376912,0.9012419,0.13620017,-0.77644175,-0.47310024,0.111351706,-0.33459878,0.60029143,-0.5422121,0.5309039,0.47927237,-1.4411463,-2.2741678,-0.47028652,1.9503347,1.7190604,-0.85046107,0.54298335,-1.4033291,-2.2855093,-0.44189608,1.8980865,1.7694299,-0.8999531,-1.3909744,-0.9307588,0.035864547,-0.5328744,0.8044716,-0.3834789,0.3611435,-0.53357697,-0.51474,0.5500921,-0.7227902,0.5185932,-0.84281933,-0.534626,-0.53835297,0.5117796,0.98029214,0.09451593,0.17240536,0.019247018,-0.91615456,0.5816252,-0.75582767,0.0,1.0,0.0,0.0,0.0,0.0,0.0,-0.11642301,0.114739984,-9.2089176e-05,0.9337425,7.3689938,22.563662,-10.38292,10.621798,0.77512264,0.49521327
17.527857,136.97478,21.094532,23.864412,2.7358277,1.1159767,0.0049813874,-0.7771609,-0.35315388,0.14898683,-0.3471542,0.6341679,-0.49513876,0.5366781,0.46526727,-1.4386445,-2.2706106,-0.4766115,1.9615034,1.7199161,-0.84628534,0.529116,-1.4116242,-2.2838664,-0.44779667,1.9067495,1.7656832,-0.89631087,-1.3848442,-0.79536533,0.20300233,-0.6092399,0.89157194,-0.3706192,0.3655093,-0.5403366,-0.50969696,0.54240155,-0.6615453,0.49973187,-0.7471751,-0.54351044,-0.53235626,0.50507796,0.9818727,0.09694011,0.16204469,0.016435038,-0.87548685,0.611592,-0.64314854,0.0,1.0,0.0,0.0,0.0,0.0,0.0,-0.10966337,0.109696954,0.0075984597,0.72648525,13.681591,15.491682,-7.681906,10.140789,1.6279101,0.5053818
