Afshin1997/kuka_rl_ros2/src/catch_and_throw/input_files/idealpd/polynomial_regressor/optimizer_files/env_433_data.csv
torque0,torque1,torque2,torque3,torque4,torque5,torque6,action0,action1,action2,action3,action4,action5,action6,set_target_0,set_target_1,set_target_2,set_target_3,set_target_4,set_target_5,set_target_6,joint_pos_0,joint_pos_1,joint_pos_2,joint_pos_3,joint_pos_4,joint_pos_5,joint_pos_6,joint_vel_0,joint_vel_1,joint_vel_2,joint_vel_3,joint_vel_4,joint_vel_5,joint_vel_6,tennisball_pos_0,tennisball_pos_1,tennisball_pos_2,tennisball_lin_vel_0,tennisball_lin_vel_1,tennisball_lin_vel_2,end_effector_pos_0,end_effector_pos_1,end_effector_pos_2,end_effector_rot_0,end_effector_rot_1,end_effector_rot_2,end_effector_rot_3,end_effector_lin_vel_0,end_effector_lin_vel_1,end_effector_lin_vel_2,obs_task_0,obs_task_1,obs_task_2,obs_task_3,obs_task_4,obs_task_5,obs_task_6,to_final_target_0,to_final_target_1,to_final_target_2,joint_acc_0,joint_acc_1,joint_acc_2,joint_acc_3,joint_acc_4,joint_acc_5,joint_acc_6
0.0,0.0,0.0,0.0,0.0,0.0,0.0,0.0,0.0,0.0,0.0,0.0,0.0,0.0,1.7802359,-1.0646509,-1.8151424,-1.1170107,1.9373155,1.1170107,-0.91629785,1.7802359,-1.0646509,-1.8151424,-1.1170107,1.9373155,1.1170107,-0.91629785,0.0,0.0,0.0,0.0,0.0,0.0,0.0,3.1036339,-0.22086525,0.4285295,-3.4547853,-0.22848605,5.0868587,0.5304184,-0.45449638,0.693097,0.5745483,0.17512383,0.15255436,0.7848268,0.0,0.0,0.0,1.0,0.0,0.0,0.0,0.0,0.0,0.0,-3.753634,-0.17913476,0.12147051,0.0,0.0,0.0,0.0,0.0,0.0,0.0
0.0,0.0,0.0,0.0,0.0,0.0,0.0,0.0,0.0,0.0,0.0,0.0,0.0,0.0,1.7802359,-1.0646509,-1.8151424,-1.1170107,1.9373155,1.1170107,-0.91629785,1.7802359,-1.0646509,-1.8151424,-1.1170107,1.9373155,1.1170107,-0.91629785,0.0,0.0,0.0,0.0,0.0,0.0,0.0,3.1036339,-0.22086525,0.4285295,-3.4547853,-0.22848605,5.0868587,0.5304184,-0.45449638,0.693097,0.5745483,0.17512383,0.15255436,0.7848268,0.0,0.0,0.0,1.0,0.0,0.0,0.0,0.0,0.0,0.0,-3.753634,-0.17913476,0.12147051,0.0,0.0,0.0,0.0,0.0,0.0,0.0
0.0,0.0,0.0,0.0,0.0,0.0,0.0,0.0,0.0,0.0,0.0,0.0,0.0,0.0,1.7802359,-1.0646509,-1.8151424,-1.1170107,1.9373155,1.1170107,-0.91629785,1.7802359,-1.0646509,-1.8151424,-1.1170107,1.9373155,1.1170107,-0.91629785,0.0,0.0,0.0,0.0,0.0,0.0,0.0,3.1036339,-0.22086525,0.4285295,-3.4547853,-0.22848605,5.0868587,0.5304184,-0.45449638,0.693097,0.5745483,0.17512383,0.15255436,0.7848268,0.0,0.0,0.0,1.0,0.0,0.0,0.0,0.0,0.0,0.0,-3.753634,-0.17913476,0.12147051,0.0,0.0,0.0,0.0,0.0,0.0,0.0
-176.0,88.69011,2.0107536,110.0,10.842524,5.5310926,-3.8525202,-0.82386225,0.44927153,-0.5312836,0.72299945,0.33544424,0.62904286,-0.576932,1.6978496,-1.0197238,-1.8682708,-1.0447108,1.9708599,1.179915,-0.97399104,1.778464,-1.0614809,-1.821202,-1.1135985,1.9434114,1.121863,-0.91806215,-0.23606263,0.4217447,-0.8068088,0.45508143,0.81166583,0.6445755,-0.23491232,3.0691109,-0.22314835,0.47862348,-3.4513311,-0.22825761,4.9835863,0.5282898,-0.4573307,0.69397765,0.5781114,0.17398797,0.15122612,0.7827171,-0.28266218,-0.3779278,0.11717048,1.0,0.0,0.0,0.0,0.0,0.0,0.0,-3.719111,-0.17685166,0.07137653,-23.592793,41.9295,-80.34022,45.512726,80.81545,63.7846,-23.409304
-176.0,41.38605,-17.469584,110.0,12.418133,4.2986903,-3.7993803,-0.8219104,0.22584076,-0.5577082,0.69037503,0.49682552,0.6151836,-0.6198308,1.696273,-1.0388968,-1.8769729,-1.0445609,1.9930938,1.1833813,-0.9800452,1.7752138,-1.0552496,-1.8361347,-1.1044184,1.9586797,1.134461,-0.9222688,-0.35520133,0.6843989,-1.710423,1.0725256,1.7572316,1.448066,-0.48315018,3.034626,-0.22542953,0.5276855,-3.4478805,-0.2280294,4.880418,0.523304,-0.46447182,0.6955984,0.58655447,0.17114694,0.14722241,0.77780974,-0.57192117,-0.824892,0.178625,1.0,0.0,0.0,0.0,0.0,0.0,0.0,-3.684626,-0.17457047,0.022314489,-12.100851,24.473274,-86.90629,61.82233,92.10329,75.32668,-24.984337
-158.471,122.04124,33.143845,99.11941,8.339817,8.074439,-2.3310559,-0.77910125,0.4577966,-0.1199917,0.5482194,0.4936183,0.6384889,-0.58070886,1.6973038,-1.0094699,-1.8481338,-1.0495964,2.0080416,1.1983099,-0.9803397,1.7684599,-1.0471491,-1.8520935,-1.0920111,1.976378,1.1487738,-0.92737955,-0.7832156,0.84807503,-1.5498552,1.2972646,1.7691638,1.4168439,-0.52287394,3.0001717,-0.22770691,0.5757166,-3.4444335,-0.22780141,4.7773523,0.51540756,-0.47420883,0.69904447,0.5981563,0.16683495,0.14206229,0.77083945,-0.8700902,-1.0179479,0.40432292,1.0,0.0,0.0,0.0,0.0,0.0,0.0,-3.6501718,-0.1722931,-0.025716603,-43.10776,15.223801,18.38696,22.629951,-0.2655983,-5.8092117,-4.712391
-96.606,134.39839,49.572506,67.671844,4.6960077,8.478962,-0.98966545,-0.7880194,0.46298534,-0.048196718,0.5537862,0.48869315,0.6196904,-0.57780904,1.6896579,-1.0008506,-1.8569131,-1.0366324,2.0252473,1.2107428,-0.98516047,1.7577578,-1.0381769,-1.8637722,-1.0788523,1.9922662,1.1619974,-0.9326448,-1.1676478,0.9104692,-1.0323988,1.3223641,1.5248276,1.2852284,-0.53139174,2.9657555,-0.22998428,0.62271786,-3.4409897,-0.22757366,4.67439,0.50505066,-0.48459816,0.7047317,0.6110927,0.1609236,0.13661121,0.7628936,-1.102638,-1.0367839,0.62911433,1.0,0.0,0.0,0.0,0.0,0.0,0.0,-3.6157556,-0.17001572,-0.072717845,-39.007614,5.3573847,54.22232,2.5427103,-25.640179,-14.852977,-1.9495845
-35.189644,142.41293,59.86774,39.46733,1.7059821,7.790181,0.017752782,-0.80301666,0.5260553,0.0672829,0.55818826,0.539264,0.60863924,-0.5753134,1.6774561,-0.9855714,-1.8570439,-1.0230335,2.0461926,1.2228614,-0.99017614,1.7440611,-1.0287641,-1.8694847,-1.0662733,2.0053732,1.17376,-0.93789476,-1.4390509,0.94966334,-0.41057423,1.2357726,1.2365193,1.1372538,-0.5264319,2.9313698,-0.23225784,0.66869026,-3.4375494,-0.22734614,4.5715303,0.49297714,-0.49427986,0.7125227,0.62408453,0.15335836,0.13104758,0.75486827,-1.2522,-0.93201625,0.83312654,1.0,0.0,0.0,0.0,0.0,0.0,0.0,-3.5813699,-0.16774216,-0.11869025,-27.72832,3.3162951,64.29041,-8.774567,-29.65672,-15.611529,-0.5575776
3.4565697,129.45285,55.362938,20.279291,-0.08555561,5.7941947,0.38422328,-0.81807923,0.57154435,0.090554744,0.58145255,0.56564933,0.5992579,-0.5885746,1.6622531,-0.9716097,-1.8604292,-1.008128,2.0619383,1.2336859,-0.9967522,1.728623,-1.0189623,-1.8700283,-1.0546519,2.0160735,1.184178,-0.9430751,-1.5799941,0.98898304,0.06921402,1.1370631,1.0130663,1.0088015,-0.5179097,2.8970222,-0.2345295,0.71363485,-3.4341125,-0.22711883,4.468774,0.47998428,-0.5026417,0.7219221,0.636522,0.14448887,0.1255517,0.7471275,-1.324905,-0.78927207,0.97681856,1.0,0.0,0.0,0.0,0.0,0.0,0.0,-3.5470223,-0.16547051,-0.16363484,-14.514279,3.547418,49.413544,-10.021782,-22.812675,-13.1358385,0.071012974
27.225437,120.053154,50.323433,9.415882,-1.1272682,4.1251907,0.44574618,-0.8134373,0.63240796,0.14100935,0.5949628,0.57372373,0.60354173,-0.57105786,1.6472793,-0.9557215,-1.8559273,-0.9951556,2.0734458,1.2445321,-1.000181,1.7125899,-1.008592,-1.8671253,-1.0438029,2.02516,1.1934782,-0.9481515,-1.6119894,1.0520263,0.36727238,1.0670575,0.8727047,0.9036453,-0.5062189,2.8627052,-0.23679924,0.7575526,-3.430679,-0.22689177,4.3661194,0.46666336,-0.5095234,0.73245037,0.6482285,0.13473159,0.120324425,0.7397089,-1.3423256,-0.6383604,1.0772673,1.0,0.0,0.0,0.0,0.0,0.0,0.0,-3.5127053,-0.16320077,-0.20755261,-3.4961462,6.02901,30.799326,-7.1547747,-14.307535,-10.563385,0.55582523
34.4675,107.61524,43.041183,4.8548536,-1.4138634,2.8087778,0.36809242,-0.8169706,0.6724712,0.18213896,0.58919555,0.58707654,0.6017397,-0.55372965,1.6308928,-0.94134486,-1.8489114,-0.9848833,2.0838678,1.2536522,-1.0035245,1.6966807,-0.9975027,-1.8624198,-1.0334288,2.0333922,1.2018725,-0.9530992,-1.5844393,1.127219,0.5071733,1.0270842,0.8061316,0.81809807,-0.49250087,2.8284264,-0.23906517,0.8004446,-3.4272492,-0.22666492,4.263568,0.45337296,-0.5150261,0.74370867,0.65924156,0.1244634,0.115497515,0.73250914,-1.3304113,-0.504034,1.139791,1.0,0.0,0.0,0.0,0.0,0.0,0.0,-3.4784265,-0.16093484,-0.2504446,2.5386333,7.316065,14.690524,-4.1389465,-6.8259716,-8.505095,0.8917868
32.835625,93.75686,35.283894,3.4560432,-1.3079482,1.8359188,0.2594645,-0.8119766,0.69942814,0.19399242,0.57909745,0.6062918,0.6138939,-0.5450607,1.615483,-0.92755985,-1.8430206,-0.97551906,2.0940213,1.2632619,-1.0076053,1.6812311,-0.9856819,-1.8571765,-1.0232989,2.041361,1.20954,-0.9579095,-1.5324734,1.199943,0.531829,1.0077615,0.7931864,0.7497953,-0.47845903,2.794178,-0.2413311,0.84231186,-3.4238226,-0.2264383,4.161119,0.44029617,-0.51937294,0.75535446,0.6696742,0.11400317,0.11111216,0.7253921,-1.3061273,-0.39513156,1.1698422,1.0,0.0,0.0,0.0,0.0,0.0,0.0,-3.444178,-0.1586689,-0.29231185,5.0267696,7.126665,2.9644132,-2.0812511,-1.3895512,-6.7420244,1.0211587
27.500412,81.28626,28.70275,3.455514,-1.0563556,1.2112169,0.1818592,-0.8060503,0.7199941,0.19270794,0.56089824,0.62299883,0.618548,-0.5395852,1.6006261,-0.91368246,-1.8379058,-0.96720904,2.103661,1.2713948,-1.011868,1.6662966,-0.97322404,-1.8521717,-1.0133253,2.049433,1.216622,-0.9625854,-1.4809331,1.2607924,0.4913364,0.99342924,0.81145084,0.6948421,-0.465062,2.7599678,-0.24359322,0.88315535,-3.4203994,-0.2262119,4.0587726,0.42745972,-0.52281,0.7671174,0.67963463,0.103587255,0.10714971,0.71825165,-1.2797214,-0.30974677,1.1751474,1.0,0.0,0.0,0.0,0.0,0.0,0.0,-3.409968,-0.15640679,-0.33315533,5.005336,5.9832335,-3.6765337,-1.6078115,1.7895341,-5.387056,1.0222375
20.295523,71.32254,23.835604,4.955303,-0.6771823,0.91673577,0.12402766,-0.8024036,0.72935146,0.19268823,0.55477154,0.62809837,0.6271772,-0.52967256,1.5860562,-0.9002889,-1.8329028,-0.9578482,2.112243,1.2793397,-1.0155526,1.651774,-0.96030366,-1.8477161,-1.0034605,2.0577567,1.2232386,-0.9671325,-1.4430761,1.3021864,0.4313202,0.98360586,0.83955026,0.6508401,-0.45221907,2.725788,-0.24585342,0.9229762,-3.4169798,-0.22598574,3.9565284,0.4148445,-0.5255394,0.7788257,0.689213,0.093332775,0.10353822,0.71102345,-1.2592398,-0.2449056,1.1659385,1.0,0.0,0.0,0.0,0.0,0.0,0.0,-3.3757882,-0.15414658,-0.37297618,3.6497355,4.067731,-5.698162,-1.1774898,2.8140903,-4.300916,1.0080934
17.405575,65.77975,21.57865,4.6691914,-0.5299363,0.80579054,0.18048987,-0.8001028,0.7398649,0.20096499,0.5137375,0.64719844,0.6259768,-0.5205704,1.5717638,-0.8863172,-1.8276196,-0.9520868,2.1224766,1.2858362,-1.0191896,1.6375071,-0.94708765,-1.8437583,-0.9938459,2.0664008,1.2294756,-0.9715585,-1.4219142,1.3279911,0.38494372,0.9533455,0.87249184,0.6150223,-0.44029304,2.6916466,-0.24811172,0.9617753,-3.4135635,-0.2257598,3.8543868,0.4024048,-0.5276737,0.79037344,0.6984079,0.08329779,0.10017642,0.70374185,-1.2412924,-0.18662256,1.147764,1.0,0.0,0.0,0.0,0.0,0.0,0.0,-3.3416467,-0.15188828,-0.4117753,1.9694805,2.5228262,-4.322803,-3.247583,3.3059835,-3.4724474,0.92455745
14.49382,63.920135,20.82608,5.8840594,-0.35376358,0.85383904,0.1820926,-0.79676664,0.74971765,0.20298065,0.5053245,0.6473083,0.6280374,-0.51959884,1.5578305,-0.87211585,-1.8234602,-0.9433134,2.1311316,1.2922794,-1.0235184,1.6233584,-0.9336885,-1.8401096,-0.9845447,2.0753233,1.2354056,-0.97587866,-1.4131033,1.3438147,0.35917506,0.92164844,0.8984652,0.58576536,-0.4300425,2.6575356,-0.25036812,0.9995538,-3.4101505,-0.22553408,3.7523472,0.39009857,-0.5292587,0.80174357,0.7072279,0.07345273,0.09698904,0.6964385,-1.2282659,-0.13289471,1.1300484,1.0,0.0,0.0,0.0,0.0,0.0,0.0,-3.3075356,-0.14963189,-0.4495538,0.73275566,1.5298843,-2.250445,-3.3897042,2.6124477,-2.8331876,0.7629812
12.630008,62.4034,20.218866,6.6396465,-0.25105506,0.8754386,0.18951261,-0.7973292,0.75377584,0.20207863,0.48735788,0.6500009,0.6360149,-0.50885683,1.5436255,-0.85831094,-1.8199017,-0.9358089,2.1403234,1.299007,-1.0267644,1.6092268,-0.9201883,-1.8365924,-0.9755792,2.0844405,1.2410876,-0.9801006,-1.4136081,1.3518786,0.3503488,0.88749635,0.91659826,0.5625908,-0.4203956,2.6234589,-0.2526226,1.0363127,-3.4067411,-0.2253086,3.6504097,0.37789536,-0.5303192,0.81293595,0.71568257,0.06375403,0.09393372,0.68913734,-1.2181654,-0.08172261,1.1121676,1.0,0.0,0.0,0.0,0.0,0.0,0.0,-3.273459,-0.1473774,-0.4863127,-0.20062923,0.75924397,-0.5483329,-3.6334395,1.8336415,-2.2284865,0.70723295
12.798206,61.98201,19.974726,6.5262203,-0.28328717,0.8342726,0.20442289,-0.79619426,0.7618207,0.19507809,0.46081528,0.6592018,0.63023597,-0.49899316,1.5296074,-0.84400624,-1.8170847,-0.92949766,2.1503606,1.3041111,-1.0299999,1.5950648,-0.9066185,-1.8331153,-0.96699613,2.0937102,1.2465655,-0.984229,-1.4175675,1.3586011,0.34801695,0.8477389,0.9306376,0.5432263,-0.4112373,2.5894165,-0.25487328,1.072053,-3.403335,-0.22508334,3.5485742,0.36579895,-0.5308647,0.8239447,0.72376883,0.054180972,0.09099698,0.68186706,-1.2065046,-0.030113563,1.0935661,1.0,0.0,0.0,0.0,0.0,0.0,0.0,-3.2394166,-0.14512673,-0.52205294,-0.5485773,0.6291151,0.10637641,-4.192817,1.4264107,-1.8390775,0.66186786
15.204885,64.41695,21.23446,6.177235,-0.37821314,0.89422023,0.25683403,-0.79232806,0.76729685,0.22243452,0.43826008,0.6535672,0.63139206,-0.4843647,1.515832,-0.8298888,-1.8108718,-0.92317015,2.159067,1.3097047,-1.0326655,1.580876,-0.8929819,-1.8294971,-0.9588279,2.1030638,1.2518774,-0.98826593,-1.4197015,1.365186,0.3676451,0.80576515,0.936898,0.5274864,-0.4021112,2.5554085,-0.25712204,1.1067756,-3.3999324,-0.2248583,3.4468405,0.3538475,-0.53084946,0.83480376,0.7314557,0.044672973,0.08816467,0.6746879,-1.1918114,0.027331574,1.07971,1.0,0.0,0.0,0.0,0.0,0.0,0.0,-3.2054086,-0.14287797,-0.5567756,-0.36506653,0.61326027,2.3277164,-4.4014215,0.6404996,-1.4732957,0.649631
19.48695,64.76728,21.558468,3.6152163,-0.6702234,0.76413864,0.3488438,-0.7908253,0.7738514,0.23203023,0.37792587,0.6636586,0.6390607,-0.48588446,1.5017935,-0.81559676,-1.8062941,-0.92103535,2.1694298,1.3157835,-1.0368544,1.5666815,-0.8792671,-1.8256271,-0.9512624,2.1124785,1.2570616,-0.9922227,-1.4198707,1.3734963,0.39482072,0.7394315,0.9428889,0.5159241,-0.3944867,2.5214348,-0.2593689,1.1404817,-3.396533,-0.22463349,3.3452086,0.34210587,-0.5302067,0.8454927,0.7386764,0.035230387,0.085450985,0.667693,-1.1667887,0.09166418,1.061445,1.0,0.0,0.0,0.0,0.0,0.0,0.0,-3.1714349,-0.14063111,-0.5904817,-0.172925,0.79238415,3.0973017,-6.841147,0.60999393,-1.0003924,0.49889088
23.579693,65.32081,21.996689,1.2781897,-0.9375902,0.6376617,0.4425788,-0.7893831,0.77914876,0.25846165,0.31982172,0.66404337,0.63677317,-0.47802553,1.4877431,-0.8013522,-1.799781,-0.91928023,2.1788828,1.3207389,-1.0400252,1.5524985,-0.8654617,-1.8213966,-0.94452375,2.1219351,1.2621485,-0.996108,-1.4181814,1.3828629,0.43361333,0.65135676,0.9467003,0.5069808,-0.3873683,2.4874954,-0.26161385,1.1731722,-3.3931372,-0.2244089,3.2436783,0.33068085,-0.5288696,0.8559767,0.7453568,0.025874002,0.08287533,0.66098815,-1.1315347,0.16180918,1.0399381,1.0,0.0,0.0,0.0,0.0,0.0,0.0,-3.1374955,-0.13838616,-0.6231722,0.015234947,0.9062052,4.2628107,-9.0100765,0.3935814,-0.6862998,0.45193434
27.466187,66.216034,22.727959,-0.40255404,-1.0903533,0.54041696,0.53866214,-0.78040576,0.7811306,0.30036476,0.2697357,0.67417413,0.63708764,-0.4606436,1.4744579,-0.7873486,-1.7913601,-0.9175502,2.1893525,1.3258573,-1.0421723,1.5383765,-0.8515724,-1.8166511,-0.9387407,2.131449,1.267161,-0.999917,-1.4104955,1.3908391,0.48957172,0.5532829,0.95296,0.5002614,-0.37961462,2.4535904,-0.2638569,1.2048483,-3.3897448,-0.22418454,3.1422496,0.31967163,-0.52680016,0.8662469,0.75142884,0.016602324,0.080409914,0.65468556,-1.088115,0.23557444,1.0183312,1.0,0.0,0.0,0.0,0.0,0.0,0.0,-3.1035905,-0.13614312,-0.6548483,0.6333113,0.7779598,5.958414,-9.989368,0.6488204,-0.42390823,0.52313805
25.252434,63.368446,21.256096,0.441916,-0.9835457,0.38791454,0.49235564,-0.7845037,0.7824051,0.3081952,0.23457222,0.67485785,0.6368724,-0.4526627,1.4599261,-0.7733319,-1.7858316,-0.91528344,2.1989348,1.3308482,-1.0451832,1.5243098,-0.8376211,-1.8114059,-0.9338855,2.14102,1.2721182,-1.0036497,-1.4055927,1.3966115,0.53712386,0.4623223,0.95865285,0.49499777,-0.37181133,2.419716,-0.26609612,1.2355108,-3.3863556,-0.2239604,3.0409222,0.30908966,-0.5240536,0.87628376,0.7569191,0.0074285595,0.07805053,0.64878833,-1.0453999,0.30112258,0.994101,1.0,0.0,0.0,0.0,0.0,0.0,0.0,-3.069716,-0.13390389,-0.6855108,0.37271976,0.5746126,5.0498247,-9.263384,0.6257653,-0.26710033,0.5602658
30.54275,59.8774,20.057499,-4.6368823,-1.4711082,-0.0039058626,0.6330023,-0.7846266,0.7850069,0.33479384,0.09717307,0.67799973,0.63316345,-0.45415965,1.445847,-0.7591204,-1.7779266,-0.9241682,2.20882,1.3354346,-1.0490657,1.5102774,-0.82362115,-1.8056953,-0.93033403,2.1506484,1.2770315,-1.0073118,-1.4028399,1.4012266,0.58312297,0.31891072,0.9640079,0.49147323,-0.3650449,2.3858795,-0.26833534,1.2651608,-3.38297,-0.2237365,2.939696,0.29906464,-0.5206127,0.8859612,0.761761,-0.00151324,0.07586517,0.64339894,-0.98357517,0.3700564,0.9539602,1.0,0.0,0.0,0.0,0.0,0.0,0.0,-3.0358796,-0.13166466,-0.7151608,0.16393661,0.47426224,4.8796177,-14.511055,0.5928278,0.013309717,0.48100948
34.71316,56.162704,18.571417,-9.063432,-1.9045494,-0.42096692,0.7371542,-0.784597,0.7896697,0.34718442,-0.028021967,0.6812038,0.6322572,-0.44162735,1.4318177,-0.7446542,-1.7709769,-0.9331362,2.2187688,1.3402573,-1.0514746,1.4962584,-0.8095678,-1.7996032,-0.9285583,2.1603224,1.2819201,-1.0109034,-1.4018178,1.4067699,0.61892045,0.12984282,0.96915954,0.4895373,-0.35778412,2.3520737,-0.27057076,1.2937993,-3.379588,-0.2235128,2.8385713,0.2897911,-0.5164776,0.8951263,0.7658822,-0.010054762,0.0739619,0.6386336,-0.90363806,0.43860462,0.8988915,1.0,0.0,0.0,0.0,0.0,0.0,0.0,-3.0020738,-0.12942925,-0.74379927,0.009346008,0.5854368,3.8141847,-19.065996,0.58430433,0.26176572,0.56945086
36.853867,52.779686,17.363419,-11.351839,-2.0829918,-0.73831666,0.7970621,-0.7787756,0.78585255,0.3706197,-0.13033962,0.6801702,0.62766695,-0.41118404,1.4183809,-0.73098254,-1.7625413,-0.9415923,2.2283394,1.3446867,-1.0520217,1.4822699,-0.7954887,-1.7931678,-0.92881006,2.1700385,1.2867934,-1.0144072,-1.3979591,1.4084271,0.65228033,-0.07726021,0.9725567,0.48821133,-0.34817117,2.318306,-0.27280426,1.3214272,-3.376209,-0.22328934,2.7375476,0.28139114,-0.5116863,0.9036829,0.76924753,-0.018080086,0.0723891,0.6345795,-0.81299603,0.5023307,0.8358908,1.0,0.0,0.0,0.0,0.0,0.0,0.0,-2.968306,-0.12719575,-0.7714272,0.3326416,0.21715164,3.491044,-20.841824,0.434947,0.36679506,0.84396005
33.581516,55.075085,18.269733,-7.424844,-1.6897361,-0.59758,0.72761494,-0.7725744,0.7895104,0.4173668,-0.16279398,0.6861488,0.63117325,-0.36950344,1.4050125,-0.71653765,-1.7514311,-0.94508946,2.2386534,1.3499107,-1.0513575,1.4683481,-0.7813896,-1.7862861,-0.9308166,2.1798003,1.2916552,-1.0177908,-1.3903079,1.4107385,0.7002991,-0.24204093,0.977809,0.4870915,-0.33516663,2.2845688,-0.27503586,1.3480457,-3.3728335,-0.22306609,2.636625,0.2738037,-0.50629425,0.91171855,0.7719113,-0.025671232,0.07107947,0.6312222,-0.733602,0.5598332,0.7872522,1.0,0.0,0.0,0.0,0.0,0.0,0.0,-2.934569,-0.12496415,-0.7980457,0.74994564,0.30641556,4.8364043,-16.564972,0.69491863,0.33647418,1.214683
29.783344,55.765717,18.35102,-4.018334,-1.375647,-0.5248653,0.6383954,-0.77117467,0.79405135,0.44033894,-0.22283673,0.6864166,0.625746,-0.33180484,1.3912307,-0.70198447,-1.7422522,-0.95310026,2.248442,1.3542298,-1.0509713,1.4545008,-0.7672514,-1.7789123,-0.93421835,2.1896079,1.2965018,-1.0210218,-1.3826658,1.4151858,0.7497681,-0.3731519,0.9825596,0.48525813,-0.31944638,2.250866,-0.27726364,1.3736557,-3.3694613,-0.22284308,2.535803,0.26693726,-0.5003643,0.91933924,0.77396023,-0.03292669,0.069978714,0.62849367,-0.66408247,0.61103195,0.7479966,1.0,0.0,0.0,0.0,0.0,0.0,0.0,-2.900866,-0.122736365,-0.82365566,0.7671833,0.53999424,4.8927546,-13.175386,0.7015109,0.2253592,1.5130162
26.216282,54.723385,17.83167,-1.2544608,-1.105925,-0.5095281,0.5548229,-0.766601,0.7932472,0.461463,-0.27416176,0.6812141,0.62426656,-0.2866674,1.3778406,-0.68792665,-1.732766,-0.9616345,2.2577293,1.3589284,-1.0496886,1.4407355,-0.75307596,-1.7710636,-0.9387111,2.1994383,1.3013293,-1.0240755,-1.3743951,1.4185953,0.7961592,-0.47486168,0.98435855,0.48315418,-0.30080932,2.2171974,-0.27949142,1.3982582,-3.3660924,-0.22262028,2.435082,0.26070404,-0.49397087,0.92661285,0.7754764,-0.039912157,0.06905903,0.62631786,-0.6028484,0.6551395,0.71443677,1.0,0.0,0.0,0.0,0.0,0.0,0.0,-2.8671975,-0.12050858,-0.8482582,0.8404732,0.45278072,4.5194507,-10.229593,0.44754744,0.16896725,1.8214583
23.108614,53.24823,17.056324,0.8049383,-0.9221612,-0.53299034,0.47338763,-0.7639602,0.7971003,0.47345713,-0.32008475,0.6792554,0.6311709,-0.2503835,1.3643395,-0.67336595,-1.7237178,-0.9707196,2.2673638,1.3644464,-1.0491139,1.4270464,-0.73885953,-1.7628257,-0.9440698,2.2092726,1.3061415,-1.0269327,-1.3670703,1.423163,0.83245784,-0.55644894,0.9842832,0.4817132,-0.28060406,2.1835594,-0.2817154,1.4218543,-3.362727,-0.2223977,2.3344617,0.2550354,-0.4871769,0.9335728,0.7765388,-0.04665946,0.068325065,0.6246135,-0.5475894,0.69307995,0.6836984,1.0,0.0,0.0,0.0,0.0,0.0,0.0,-2.8335595,-0.11828461,-0.87185425,0.74636936,0.5805254,3.4739017,-8.21867,0.27930737,0.21032691,1.9931018
18.595743,49.770645,15.486428,3.053165,-0.66575366,-0.5730885,0.38313922,-0.7719954,0.7951463,0.48531693,-0.35625058,0.6759425,0.6270361,-0.20742834,1.3498468,-0.6593449,-1.7142941,-0.97969484,2.276867,1.3688451,-1.0476756,1.4133688,-0.7246145,-1.7542942,-0.9501285,2.2190955,1.3109366,-1.0295725,-1.3678182,1.4252727,0.8594925,-0.62263584,0.9822968,0.4798017,-0.25857338,2.1499596,-0.28393745,1.4444449,-3.359365,-0.22217534,2.233942,0.24984741,-0.4800682,0.94022995,0.7772288,-0.053173307,0.06778284,0.6232924,-0.5004739,0.7219326,0.65325296,1.0,0.0,0.0,0.0,0.0,0.0,0.0,-2.7999597,-0.11606255,-0.8944449,-0.07903576,0.34122467,2.5423884,-6.69713,0.09353161,0.13013482,2.1832228
17.642673,46.763462,14.316036,2.9216795,-0.64155173,-0.7173083,0.36755705,-0.76957035,0.7940016,0.4939429,-0.40753034,0.6767164,0.62112683,-0.16928688,1.3364118,-0.6452143,-1.7048999,-0.9908815,2.286767,1.3730493,-1.0465012,1.399676,-0.71036565,-1.7455547,-0.9568624,2.2288954,1.3157107,-1.0319834,-1.3697044,1.4252504,0.8783038,-0.6906048,0.9803909,0.47745532,-0.23546006,2.1163902,-0.2861576,1.4660311,-3.3560064,-0.22195321,2.1335227,0.24514008,-0.47270966,0.94655526,0.7775859,-0.059415016,0.06745251,0.6223183,-0.45245108,0.74561507,0.6191496,1.0,0.0,0.0,0.0,0.0,0.0,0.0,-2.7663903,-0.1138424,-0.91603106,-0.19142628,0.12993813,1.7205596,-6.879616,0.0890851,0.08010864,2.2985578
15.941271,46.382225,14.263355,4.6294303,-0.47289354,-0.6904746,0.3287297,-0.766272,0.79624945,0.5101697,-0.41768414,0.6797732,0.6241131,-0.11734857,1.3230487,-0.6307407,-1.6945378,-0.9986308,2.2968729,1.378122,-1.0437182,1.3859774,-0.696113,-1.7366283,-0.9641399,2.2386916,1.3204619,-1.0341482,-1.3699569,1.4257319,0.89674294,-0.74046516,0.9802238,0.47547284,-0.21021171,2.0828552,-0.28837585,1.4866139,-3.3526511,-0.2217313,2.033204,0.24087524,-0.46512604,0.95257574,0.77764195,-0.06540687,0.06731247,0.62166214,-0.40967688,0.7663171,0.5896509,1.0,0.0,0.0,0.0,0.0,0.0,0.0,-2.7328553,-0.11162415,-0.93661386,-0.030875206,0.1904726,1.6600013,-5.0735354,0.28210878,0.09806752,2.5156288
12.723235,45.156876,13.8916025,7.5436945,-0.1737333,-0.6149918,0.25124377,-0.7644058,0.79287755,0.51957077,-0.40556842,0.6745095,0.6256062,-0.0581065,1.3095368,-0.6168252,-1.6846712,-1.0046967,2.3061426,1.3830225,-1.0399588,1.3722883,-0.6818718,-1.7275283,-0.97168344,2.2484763,1.3251978,-1.0360403,-1.3686547,1.4240652,0.91362584,-0.7593331,0.97881174,0.47363284,-0.1823548,2.0493546,-0.2905922,1.5061941,-3.3492992,-0.22150962,1.9329853,0.23696136,-0.45737267,0.9583526,0.7774529,-0.07122314,0.06732189,0.6212584,-0.37678483,0.7818303,0.5668733,1.0,0.0,0.0,0.0,0.0,0.0,0.0,-2.6993546,-0.10940781,-0.9561941,0.1098156,-0.0150203705,1.488769,-1.9957304,0.17935038,0.08150935,2.7698665
8.573541,43.303726,13.077255,10.619256,0.12481266,-0.5385097,0.1561298,-0.7731523,0.7932449,0.51892275,-0.39496097,0.6690954,0.6281985,0.012648944,1.2949731,-0.6025473,-1.675636,-1.0111796,2.3153858,1.3880177,-1.0347754,1.3585707,-0.66764677,-1.718312,-0.97922415,2.2582343,1.3299147,-1.0376291,-1.3729658,1.4225414,0.92370784,-0.7528278,0.9754327,0.47199854,-0.15095572,2.0158844,-0.29280472,1.524773,-3.3459506,-0.22128816,1.8328667,0.23328781,-0.44950676,0.9639418,0.7770945,-0.0769246,0.06746012,0.62101185,-0.35468772,0.7915943,0.5493771,1.0,0.0,0.0,0.0,0.0,0.0,0.0,-2.6658845,-0.10719529,-0.974773,-0.48630238,0.004029274,0.8233309,0.5132675,-0.008440018,0.06420016,3.1187236
5.74284,39.686123,11.616366,11.909754,0.3021217,-0.5841156,0.091549516,-0.78253746,0.78760564,0.5152468,-0.3981695,0.6671766,0.6317369,0.04392014,1.280317,-0.5888862,-1.6667874,-1.0190411,2.324952,1.3930883,-1.0332371,1.3447634,-0.6534599,-1.7090557,-0.9866466,2.2679503,1.3346201,-1.038907,-1.3837403,1.4178504,0.92576057,-0.73925173,0.97142524,0.4706774,-0.12032322,1.9824524,-0.29501724,1.5423515,-3.3426054,-0.2210669,1.7328482,0.2298088,-0.44159317,0.9693488,0.7766275,-0.08252041,0.06772703,0.6208488,-0.3377771,0.7947435,0.5308937,1.0,0.0,0.0,0.0,0.0,0.0,0.0,-2.6324525,-0.10498276,-0.9923515,-1.1590481,-0.31695366,0.054621696,1.1966944,-0.0898242,0.06979704,3.0369208
2.0968614,38.416634,11.13977,15.394997,0.6300707,-0.46839684,0.006355908,-0.78423315,0.7871962,0.50892806,-0.34183434,0.6592696,0.64037025,0.17253298,1.2663401,-0.5747403,-1.6581628,-1.02083,2.3338773,1.3986571,-1.0216538,1.3308436,-0.63931787,-1.6998394,-0.99367136,2.277609,1.3393179,-1.0398169,-1.3949052,1.4135267,0.9198714,-0.6908709,0.965184,0.47011885,-0.08120016,1.9490509,-0.29722595,1.5589305,-3.3392634,-0.2208459,1.6329297,0.22639847,-0.43367386,0.9746325,0.77611727,-0.08807898,0.06810366,0.6206819,-0.3325543,0.7932248,0.5205639,1.0,0.0,0.0,0.0,0.0,0.0,0.0,-2.599051,-0.102774054,-1.0089304,-1.2313843,-0.274539,-0.7318735,4.646778,-0.29560328,0.10893941,3.8750753
-5.619787,34.550808,9.691872,22.04158,1.3362314,-0.212578,-0.1949993,-0.7973633,0.77360123,0.50038826,-0.233639,0.64595944,0.65161103,0.23711182,1.2511072,-0.5619577,-1.6498005,-1.0170352,2.342205,1.404479,-1.0161057,1.316773,-0.62527215,-1.6907299,-0.9997396,2.2871764,1.3440176,-1.0403185,-1.4117934,1.4021059,0.9073784,-0.5796631,0.9551383,0.47016162,-0.040213976,1.9156837,-0.29943275,1.574511,-3.3359249,-0.22062509,1.5331111,0.22285843,-0.42585945,0.979915,0.7756896,-0.09376093,0.06850963,0.6203394,-0.35224313,0.7807569,0.5239,1.0,0.0,0.0,0.0,0.0,0.0,0.0,-2.5656838,-0.10056725,-1.0245111,-1.8690586,-0.97768307,-1.3790369,10.864031,-0.64212084,0.100791454,4.037743
-5.631833,34.798126,9.961193,22.794897,1.3651912,-0.18236911,-0.21889332,-0.80306035,0.77577114,0.49537766,-0.20179178,0.64824456,0.6552826,0.25141418,1.236467,-0.54769504,-1.6411921,-1.0199188,2.3520007,1.4095459,-1.015177,1.3025366,-0.6113199,-1.6817577,-1.004651,2.2966635,1.3487192,-1.0404406,-1.428345,1.3935647,0.89326733,-0.46236977,0.9476022,0.47052813,-0.0029166106,1.8823509,-0.30163765,1.5890943,-3.3325896,-0.2204045,1.4333923,0.21910858,-0.41814995,0.9852536,0.7753946,-0.099635944,0.06891311,0.6197474,-0.37354487,0.77021384,0.5304049,1.0,0.0,0.0,0.0,0.0,0.0,0.0,-2.532351,-0.09836236,-1.0390942,-1.8394232,-0.69417953,-1.5301585,11.483031,-0.39242506,0.118768215,3.6703262
-4.0260887,34.74217,10.206018,21.98489,1.2587472,-0.23822907,-0.19223073,-0.8054031,0.7712143,0.49002638,-0.15819089,0.6435843,0.65806705,0.2761303,1.2219963,-0.53419846,-1.632755,-1.02047,2.361022,1.414526,-1.0128275,1.2881628,-0.5974487,-1.6729248,-1.0084332,2.3060782,1.3534266,-1.0402117,-1.4409276,1.3854591,0.8796413,-0.35110348,0.94062954,0.47114387,0.031162404,1.8490486,-0.30383873,1.602681,-3.3292577,-0.22018415,1.3337733,0.21517563,-0.41052628,0.9906499,0.7752163,-0.105711475,0.069316745,0.61891836,-0.39089364,0.7624349,0.5360175,1.0,0.0,0.0,0.0,0.0,0.0,0.0,-2.4990487,-0.096161276,-1.052681,-1.4264822,-0.6592989,-1.4730573,10.900873,-0.35036802,0.14418364,3.3486269
0.7257681,36.431957,11.05109,18.273888,0.8183999,-0.42597023,-0.07889554,-0.8068355,0.77481407,0.48455042,-0.15013318,0.64095414,0.6566413,0.29972094,1.2074792,-0.5199673,-1.6244698,-1.0234466,2.3701737,1.4190907,-1.0102396,1.2737032,-0.58361757,-1.6642177,-1.0113667,2.3154318,1.3581415,-1.0396643,-1.4482458,1.3827336,0.86761135,-0.27484587,0.9344613,0.4718708,0.06237985,1.8157806,-0.3060398,1.6152723,-3.3259292,-0.21996401,1.2342538,0.21118927,-0.4029255,0.9960475,0.77508223,-0.111918435,0.06977088,0.6179431,-0.39275908,0.76216066,0.5344519,1.0,0.0,0.0,0.0,0.0,0.0,0.0,-2.4657807,-0.093960196,-1.0652723,-0.8646488,-0.13523102,-1.2926817,7.444996,-0.3091216,0.18410683,3.0697732
2.4445906,36.12933,11.120404,17.000443,0.68535084,-0.5235552,-0.038508184,-0.807087,0.7707752,0.47550127,-0.1030695,0.6389708,0.66084903,0.3313376,1.1929945,-0.50654006,-1.6166676,-1.0216737,2.379329,1.4242264,-1.0065305,1.2592055,-0.5698122,-1.6556346,-1.0136136,2.324732,1.362866,-1.0388174,-1.4507434,1.3802497,0.8548944,-0.20853415,0.9293634,0.47301194,0.09183639,1.782547,-0.30823708,1.6268691,-3.322604,-0.2197441,1.1348338,0.20721054,-0.39531898,1.0014098,0.77494615,-0.11821421,0.07030029,0.6168806,-0.38914812,0.7635351,0.5302972,1.0,0.0,0.0,0.0,0.0,0.0,0.0,-2.432547,-0.09176293,-1.076869,-0.36542416,-0.118112564,-1.3522267,6.4664245,-0.21920204,0.23331642,2.8921902
4.2078376,35.07924,10.9125185,15.241658,0.5435517,-0.6570901,0.016267803,-0.8061359,0.76490885,0.47135752,-0.08134062,0.63780963,0.6614568,0.352974,1.1785918,-0.4933213,-1.6084989,-1.0217476,2.388513,1.4290117,-1.00352,1.2447096,-0.55604875,-1.6471641,-1.0153188,2.3339903,1.367602,-1.037694,-1.449438,1.3754202,0.84410816,-0.15820095,0.92524904,0.47423634,0.11899265,1.7493439,-0.31043243,1.6374725,-3.319282,-0.2195244,1.0355132,0.20332336,-0.3876896,1.0066953,0.7747699,-0.12455276,0.07090998,0.61578393,-0.37900698,0.76538014,0.5215748,1.0,0.0,0.0,0.0,0.0,0.0,0.0,-2.399344,-0.08956757,-1.0874724,0.03540516,-0.36070347,-1.1480808,4.8835573,-0.14742613,0.25494695,2.661617
4.732468,32.517555,9.7017765,13.355577,0.3895442,-0.8522195,0.024189007,-0.81530195,0.7637813,0.44913384,-0.08069979,0.6322011,0.65967894,0.35084257,1.1631794,-0.4796706,-1.6022507,-1.0233887,2.3972104,1.4335699,-1.0026097,1.2301947,-0.542333,-1.6388729,-1.0166978,2.343199,1.3723494,-1.0363321,-1.452524,1.3706938,0.8240914,-0.13145831,0.92005926,0.4752722,0.14178708,1.7161789,-0.31262589,1.6470834,-3.3159635,-0.21930492,0.9362919,0.1995964,-0.380064,1.0118351,0.7745512,-0.13084416,0.07164728,0.61466813,-0.36212113,0.7642738,0.5051301,1.0,0.0,0.0,0.0,0.0,0.0,0.0,-2.366179,-0.08737412,-1.0970833,-0.4034996,-0.35963058,-2.0394683,2.5288553,-0.28802156,0.24854541,2.2303553
3.1365933,30.431263,8.96794,14.993772,0.5934823,-0.8486008,-0.030043751,-0.8073327,0.75865763,0.42791477,-0.019170953,0.6368074,0.6610731,0.39127406,1.1494614,-0.46646723,-1.5960814,-1.0186149,2.4068797,1.4384567,-0.9972047,1.2156855,-0.52867734,-1.6308525,-1.0176629,2.3523772,1.3771044,-1.0347414,-1.4507364,1.3642579,0.7946498,-0.08534187,0.91797894,0.4760864,0.16471507,1.6830444,-0.31481743,1.6557028,-3.3126483,-0.21908566,0.83716977,0.1959877,-0.3724785,1.0168389,0.77432305,-0.13709357,0.07249749,0.6134927,-0.3510888,0.75907296,0.49255246,1.0,0.0,0.0,0.0,0.0,0.0,0.0,-2.3330445,-0.08518258,-1.1057029,0.0797987,-0.52804947,-2.992475,4.4540524,0.031650066,0.20611882,2.2406757
3.4023218,29.621094,8.541869,14.37874,0.51124954,-0.9376594,-0.03813409,-0.8101604,0.76080304,0.4064455,-0.014939925,0.63245624,0.66345,0.39484754,1.1346694,-0.45259702,-1.5902079,-1.0191569,2.4156227,1.4434494,-0.99525666,1.2011858,-0.51506364,-1.6231773,-1.0182332,2.3615324,1.381869,-1.0329428,-1.4500747,1.3607813,0.75823975,-0.04794423,0.9154161,0.4769775,0.18469186,1.6499405,-0.31700706,1.6633317,-3.3093364,-0.21886662,0.7381468,0.19251633,-0.36494827,1.0217005,0.77410424,-0.14328627,0.07347653,0.6122359,-0.3370051,0.7535738,0.4778687,1.0,0.0,0.0,0.0,0.0,0.0,0.0,-2.2999406,-0.08299294,-1.1133318,-0.03540516,-0.23703575,-3.6722302,3.5875506,-0.030076504,0.2137363,1.9484848
5.0275087,26.245693,6.91222,10.616325,0.2520951,-1.2624296,0.016511366,-0.8135295,0.75421,0.3727996,-0.058333002,0.63601214,0.662488,0.38925052,1.1198329,-0.43964264,-1.5858973,-1.0240664,2.4251337,1.4481177,-0.9940177,1.1866766,-0.5015005,-1.6159523,-1.0187386,2.3706763,1.386643,-1.0309725,-1.4514599,1.355169,0.71054673,-0.05202405,0.9145972,0.4779941,0.20097357,1.6168747,-0.3191929,1.6699712,-3.3060277,-0.2186478,0.6392228,0.18927383,-0.35751152,1.026317,0.7738905,-0.14927752,0.07464388,0.6109321,-0.31015423,0.7425528,0.45021048,1.0,0.0,0.0,0.0,0.0,0.0,0.0,-2.2668748,-0.08080712,-1.1199713,-0.21426678,-0.46219826,-4.7744393,-0.547193,0.09045601,0.25901198,1.5858412
8.49123,23.97259,5.6975994,4.8228335,-0.21506536,-1.6792771,0.14474955,-0.8157701,0.74931055,0.34666982,-0.13621527,0.6317597,0.6629726,0.40208825,1.1050996,-0.42656943,-1.5812852,-1.0323602,2.4338522,1.4529403,-0.99076366,1.1721426,-0.4880061,-1.6092346,-1.0197533,2.3797972,1.3914286,-1.0288496,-1.4540316,1.3478315,0.658817,-0.11825066,0.911998,0.47944322,0.21572699,1.5838394,-0.3213787,1.6756222,-3.3027222,-0.2184292,0.5403977,0.1864624,-0.350214,1.0305262,0.77363217,-0.1548402,0.07609178,0.6096947,-0.26269543,0.72749543,0.40530193,1.0,0.0,0.0,0.0,0.0,0.0,0.0,-2.2338395,-0.0786213,-1.1256223,-0.27825832,-0.6476879,-5.1575184,-6.727028,-0.16012192,0.3532648,1.4435738
8.772196,23.19054,5.6607356,4.5623336,-0.18516296,-1.7246047,0.18239824,-0.813083,0.7406848,0.33960316,-0.13968517,0.63084054,0.66108894,0.43364292,1.0908344,-0.4139376,-1.5752742,-1.0337218,2.4428813,1.4575375,-0.9854853,1.1575991,-0.4746122,-1.6029499,-1.0214623,2.3888953,1.3962275,-1.026576,-1.454377,1.3368945,0.6182547,-0.18880273,0.9093332,0.48052818,0.23122337,1.5508347,-0.3235607,1.6802857,-3.29942,-0.2182108,0.4416715,0.184124,-0.3430729,1.0342879,0.77329546,-0.15991263,0.077812865,0.6085944,-0.21457607,0.7110225,0.360833,1.0,0.0,0.0,0.0,0.0,0.0,0.0,-2.2008348,-0.07643929,-1.1302857,-0.03478527,-1.0051012,-4.058254,-7.1486354,-0.16913414,0.31104088,1.5193284
8.924982,23.351965,5.787298,4.4394555,-0.21491012,-1.7560724,0.19082552,-0.8174689,0.740156,0.32182628,-0.17727399,0.62574506,0.66065204,0.43540156,1.0758522,-0.40059662,-1.5707673,-1.0391897,2.45147,1.4622927,-0.98303586,1.1430403,-0.4613118,-1.5970218,-1.023919,2.397959,1.401034,-1.0241613,-1.4565428,1.3280551,0.58429545,-0.26490486,0.90525436,0.4813209,0.24478719,1.517868,-0.3257408,1.6839626,-3.2961214,-0.21799263,0.34304398,0.18228912,-0.33608818,1.0376084,0.7728728,-0.16448675,0.0797999,0.60765415,-0.16522981,0.6950012,0.3169557,1.0,0.0,0.0,0.0,0.0,0.0,0.0,-2.1678681,-0.07425919,-1.1339626,-0.21183491,-0.79295635,-3.4025073,-7.6920776,-0.31267405,0.27134418,1.3315827
8.078621,22.587317,5.6151066,5.714905,-0.1069746,-1.7353629,0.1549945,-0.8080677,0.7345467,0.29417393,-0.19198017,0.6113858,0.66439617,0.45161778,1.0622336,-0.3878571,-1.5676044,-1.043117,2.4590976,1.4674736,-0.97899956,1.1285063,-0.4480991,-1.5914524,-1.0270222,2.4069426,1.40585,-1.021615,-1.4524117,1.3192846,0.54794776,-0.325925,0.89621234,0.4821128,0.25782326,1.484932,-0.327919,1.686654,-3.292826,-0.21777469,0.24451508,0.1809082,-0.3292656,1.0405207,0.7723864,-0.16860183,0.082048774,0.6068449,-0.11951195,0.6779569,0.27729934,1.0,0.0,0.0,0.0,0.0,0.0,0.0,-2.134932,-0.072081,-1.1366539,0.42612553,-0.78024864,-3.6675096,-6.186825,-0.7954359,0.25076866,1.2776554
4.884267,18.628979,3.921608,7.943469,0.1821369,-1.7177684,0.05167334,-0.8157606,0.72725534,0.25244957,-0.2055082,0.60701543,0.66836935,0.4708386,1.0469302,-0.37537357,-1.5662074,-1.0475731,2.4676442,1.472687,-0.9745312,1.113978,-0.43498418,-1.5863464,-1.0306062,2.4158309,1.4106737,-1.018939,-1.452876,1.3092406,0.49814564,-0.36951423,0.88645315,0.48287225,0.2707486,1.4520264,-0.3300953,1.6883608,-3.2895339,-0.21755695,0.14608468,0.1799202,-0.32266235,1.0430602,0.77190644,-0.17229024,0.08454594,0.6060763,-0.083244585,0.6539298,0.24100994,1.0,0.0,0.0,0.0,0.0,0.0,0.0,-2.1020265,-0.069904715,-1.1383607,-0.06592274,-0.90613365,-4.999149,-4.4723153,-0.8607149,0.21376014,1.2632787
4.015821,14.821668,2.038921,6.919999,0.18199313,-1.910464,0.013582075,-0.8099259,0.72104806,0.19772586,-0.2594231,0.5967502,0.66830444,0.4687663,1.0329854,-0.36287937,-1.5665739,-1.0565485,2.4755058,1.4775041,-0.9720624,1.0994688,-0.42197606,-1.5819023,-1.0347089,2.4246047,1.4155031,-1.0161505,-1.4502021,1.2983485,0.42657918,-0.4241237,0.8744965,0.48344293,0.28162566,1.4191551,-0.33226967,1.6890842,-3.2862449,-0.21733944,0.04775268,0.1793251,-0.31636047,1.0451967,0.77149737,-0.17549062,0.08732124,0.60528487,-0.044258807,0.62159806,0.19952144,1.0,0.0,0.0,0.0,0.0,0.0,0.0,-2.0691552,-0.06773034,-1.1390841,0.28338432,-0.9946346,-7.1870923,-5.5699644,-1.1145115,0.18861294,1.0597229
5.858692,13.039857,1.2131846,2.894114,-0.07501739,-2.1843934,0.118740395,-0.81099415,0.7096427,0.17985173,-0.3612178,0.59090793,0.6717784,0.47869053,1.0183694,-0.35101178,-1.563917,-1.0708306,2.4836955,1.482681,-0.96828145,1.0849844,-0.4091048,-1.5781372,-1.0397042,2.4332564,1.4203421,-1.013257,-1.447525,1.2836933,0.35975528,-0.5250451,0.86232805,0.48443455,0.29177445,1.3863182,-0.33444023,1.6888249,-3.2829592,-0.21712215,-0.050481014,0.17921448,-0.31041336,1.0468258,0.7711352,-0.17804785,0.09040723,0.6045461,0.0074141687,0.5841554,0.1458925,1.0,0.0,0.0,0.0,0.0,0.0,0.0,-2.0363183,-0.065559775,-1.1388249,0.37035942,-1.3762712,-6.744182,-10.152727,-1.1911154,0.24702549,0.9971678
7.6953034,15.64089,2.5488381,1.7543473,-0.26230437,-2.1900897,0.20085815,-0.8080179,0.70791996,0.1780238,-0.41624105,0.56831545,0.6718249,0.48507845,1.0041826,-0.3383128,-1.5603348,-1.0813283,2.490088,1.4875246,-0.96474916,1.0705382,-0.3963599,-1.5748756,-1.0458306,2.441744,1.4251887,-1.0102701,-1.4432747,1.2717526,0.31461734,-0.6418415,0.84434766,0.48531044,0.3010491,1.3535118,-0.3366108,1.687584,-3.279677,-0.21690507,-0.14861651,0.17965317,-0.3047943,1.0479099,0.770759,-0.17990609,0.093815155,0.6039562,0.06485702,0.55205095,0.09123284,1.0,0.0,0.0,0.0,0.0,0.0,0.0,-2.003512,-0.06338921,-1.137584,0.5651474,-1.0992527,-4.609382,-11.704981,-1.7709851,0.22909045,0.91803074
7.1396294,15.136208,2.269718,1.9140587,-0.2398355,-2.2114797,0.18067856,-0.81059116,0.7065635,0.13919976,-0.47241706,0.56176406,0.6670731,0.47311366,0.98947906,-0.32570353,-1.5609556,-1.0930723,2.4979205,1.4918959,-0.96295875,1.0561167,-0.38370463,-1.5720699,-1.0531529,2.4500563,1.430039,-1.0072088,-1.4413829,1.2637699,0.26890668,-0.762407,0.8270868,0.485324,0.30766052,1.3207397,-0.33877754,1.6853626,-3.276398,-0.21668822,-0.24665385,0.18068695,-0.29950333,1.0484439,0.77037096,-0.18104753,0.09754921,0.60351837,0.12168436,0.5185369,0.03620517,1.0,0.0,0.0,0.0,0.0,0.0,0.0,-1.9707397,-0.061222464,-1.1353626,0.34034252,-0.7016182,-4.67391,-12.0725155,-1.70753,0.11510849,0.65487623
5.762877,13.03329,1.7309347,3.1004896,-0.053507775,-2.1496468,0.16250472,-0.8099913,0.69152176,0.12698473,-0.5244835,0.5414625,0.66700524,0.47244433,0.97511756,-0.31455246,-1.5593714,-1.1056013,2.5042026,1.4967396,-0.9599644,1.0417067,-0.3711662,-1.5696476,-1.0616273,2.4581702,1.4348875,-1.0040941,-1.4404277,1.2508031,0.23308009,-0.8759769,0.80636966,0.48494777,0.31280375,1.288002,-0.34094238,1.6821615,-3.2731223,-0.21647157,-0.3445932,0.18223953,-0.29455376,1.0484428,0.7699849,-0.18148912,0.10157179,0.60321474,0.17239034,0.48278216,-0.016866438,1.0,0.0,0.0,0.0,0.0,0.0,0.0,-1.938002,-0.059057623,-1.1321614,0.24831295,-1.2003422,-3.6960423,-11.378384,-2.0467997,0.046020746,0.5015254
4.4383025,13.916817,2.7530386,6.9145684,0.21973354,-1.863682,0.12357603,-0.80311096,0.68604404,0.12892592,-0.53297204,0.5132786,0.67454803,0.4910782,0.96139556,-0.3025618,-1.556755,-1.1149244,2.5094981,1.5023423,-0.95498633,1.0273291,-0.35875985,-1.5674522,-1.0709656,2.4660323,1.439736,-1.0009222,-1.4367718,1.2376184,0.21459533,-0.9533663,0.7798819,0.48497903,0.31863782,1.2552948,-0.34310532,1.6779816,-3.2698498,-0.21625514,-0.4424346,0.18421173,-0.28991508,1.0479995,0.7695949,-0.18137474,0.10581866,0.60301685,0.21086743,0.45354384,-0.058156867,1.0,0.0,0.0,0.0,0.0,0.0,0.0,-1.9052948,-0.05689469,-1.1279817,0.44445992,-1.215148,-1.9442201,-7.797909,-2.5656223,0.055015087,0.5599022
1.6339052,12.0145035,2.2490811,10.952708,0.56637233,-1.6383274,0.019416803,-0.80592555,0.6791969,0.10538931,-0.53786236,0.48125547,0.67546135,0.5056875,0.9467365,-0.29084015,-1.5569133,-1.1247519,2.5141578,1.5072821,-0.95035344,1.0129668,-0.34648654,-1.5654476,-1.0808018,2.4735777,1.4445845,-0.99768734,-1.436289,1.2242134,0.19551536,-0.9940384,0.7464343,0.48476836,0.32495904,1.2226181,-0.34526634,1.6728241,-3.2665806,-0.21603893,-0.54017824,0.1864624,-0.2855549,1.0472201,0.76924187,-0.18085894,0.110255666,0.6028272,0.23525764,0.42551243,-0.08924814,1.0,0.0,0.0,0.0,0.0,0.0,0.0,-1.8726181,-0.054733664,-1.1228242,0.025177002,-1.2400627,-1.9336998,-4.181206,-3.2326937,-0.006979704,0.58781505
1.5816418,12.463397,3.1347628,12.685766,0.68692076,-1.464862,0.04527222,-0.8002635,0.6643042,0.12806834,-0.5632925,0.4478269,0.67946047,0.51616746,0.9329404,-0.28005612,-1.5526407,-1.1371311,2.5183604,1.5125306,-0.9460706,0.9986237,-0.33438203,-1.5634677,-1.0909375,2.4807456,1.449433,-0.9943876,-1.4338032,1.2061605,0.19861051,-1.0204998,0.7070521,0.48490524,0.33149993,1.1899796,-0.34742546,1.66669,-3.2633147,-0.21582294,-0.6378242,0.18893433,-0.2814331,1.0461721,0.76890546,-0.18005267,0.114835724,0.60264266,0.25452992,0.40283263,-0.11462709,1.0,0.0,0.0,0.0,0.0,0.0,0.0,-1.8399795,-0.052574545,-1.1166899,0.18479824,-1.7009735,0.28970242,-2.7739763,-3.7882566,0.021201372,0.607568
-3.6206226,3.0849874,-1.7996962,14.098467,1.1100738,-1.6302786,-0.16553387,-0.80000055,0.6567781,0.01496878,-0.5705031,0.44381362,0.6828093,0.50585574,0.9186237,-0.2687042,-1.5619708,-1.1479878,2.525127,1.5177139,-0.94380206,0.98430336,-0.32246014,-1.5619342,-1.1012429,2.48757,1.4542834,-0.9910393,-1.4316834,1.1877886,0.13838439,-1.0344397,0.67409456,0.484871,0.33577284,1.1573715,-0.34958076,1.65958,-3.260052,-0.21560715,-0.7353725,0.19151306,-0.27767944,1.0448545,0.7687225,-0.17892228,0.1195683,0.6022921,0.2626771,0.3605533,-0.14209959,1.0,0.0,0.0,0.0,0.0,0.0,0.0,-1.8073715,-0.05041924,-1.10958,0.14808178,-1.7600536,-5.97291,-1.561451,-3.2300591,-0.047528744,0.34590364
-4.278796,-0.18667483,-3.1942713,13.062287,1.0825074,-1.7238042,-0.15774047,-0.7908485,0.63514507,0.004022367,-0.6078803,0.3743109,0.6831476,0.50813574,0.9052185,-0.25894564,-1.561532,-1.1620309,2.525001,1.5225981,-0.9402257,0.9700459,-0.31077954,-1.5610511,-1.1117829,2.4939291,1.4591337,-0.9876528,-1.4237378,1.1617126,0.07167668,-1.0610484,0.6236376,0.48480386,0.33924636,1.124794,-0.35173607,1.6514953,-3.2567925,-0.21539159,-0.8328233,0.19418335,-0.274395,1.0432222,0.7687467,-0.17740244,0.12450217,0.60171086,0.2723236,0.31316718,-0.17471388,1.0,0.0,0.0,0.0,0.0,0.0,0.0,-1.774794,-0.048263937,-1.1014953,0.80833435,-2.5393486,-6.671892,-2.8072834,-5.0082684,-0.05875826,0.25231242
-5.475011,-1.9477956,-3.8891335,14.1520195,1.1293039,-1.6552148,-0.19056751,-0.79091537,0.6209317,-0.022912703,-0.6073105,0.29796004,0.6857951,0.519877,0.8909544,-0.24868637,-1.5633425,-1.172514,2.523725,1.5277133,-0.9356651,0.955861,-0.29937884,-1.5608432,-1.1225423,2.4996283,1.4639841,-0.98422813,-1.4168007,1.1330676,0.003971846,-1.0814412,0.55220795,0.48480552,0.3430432,1.0922508,-0.35388756,1.642437,-3.2535365,-0.21517624,-0.9301766,0.19692993,-0.2715721,1.0412728,0.76899177,-0.17550291,0.129699,0.6008565,0.2782778,0.26622048,-0.20588982,1.0,0.0,0.0,0.0,0.0,0.0,0.0,-1.7422508,-0.046112448,-1.092437,0.68945885,-2.8038263,-6.7499914,-2.19388,-7.1114182,-0.0703156,0.26607513
-8.118975,-8.873847,-6.916417,13.791393,1.2427273,-1.738535,-0.22792204,-0.7829692,0.58068895,-0.0780027,-0.6317204,0.18352292,0.6882624,0.5261197,0.8775641,-0.24130994,-1.5686435,-1.1857142,2.5179806,1.5328103,-0.9316162,0.9417695,-0.28839108,-1.5614021,-1.1335591,2.5043662,1.4688345,-0.98076725,-1.4062369,1.0875094,-0.07588389,-1.1087646,0.44763505,0.48489842,0.34656674,1.059742,-0.35603905,1.6324056,-3.2502837,-0.21496111,-1.0274326,0.19971085,-0.26929665,1.0389674,0.76949173,-0.17318986,0.13523911,0.59966505,0.28033605,0.20922539,-0.24267957,1.0,0.0,0.0,0.0,0.0,0.0,0.0,-1.709742,-0.04396096,-1.0824056,1.1378765,-4.5155525,-8.013604,-2.8755665,-10.46747,-0.07815957,0.2004981
-8.611246,-11.861015,-7.7963095,12.775586,0.76587814,-1.7038851,-0.19757691,-0.77835053,0.5292883,-0.07707715,-0.66225207,-0.14478207,0.68786687,0.5256987,0.8639344,-0.23546225,-1.5691098,-1.1997843,2.489888,1.5376213,-0.9281974,0.9277915,-0.27802655,-1.5625808,-1.1449307,2.507212,1.4736868,-0.9772787,-1.3944645,1.0195282,-0.13240297,-1.1471295,0.23024625,0.48509672,0.3489384,1.0272636,-0.35818672,1.6214025,-3.247034,-0.21474619,-1.1245914,0.20257568,-0.26755142,1.0362338,0.7702236,-0.17046696,0.14144257,0.59807235,0.28943384,0.15753981,-0.2874158,1.0,0.0,0.0,0.0,0.0,0.0,0.0,-1.6772636,-0.041813284,-1.0714025,1.3439178,-6.7670584,-5.7673097,-3.9432526,-21.748627,-0.054848194,0.025433302
-19.712029,-34.116047,-18.252682,15.493725,1.6260438,-1.8468924,-0.4904974,-0.771701,0.43629062,-0.22622749,-0.6356945,-0.36639613,0.69207346,0.5198483,0.8506214,-0.23439749,-1.5852035,-1.2085001,2.4705722,1.5428941,-0.92529386,0.9139441,-0.2686729,-1.5648258,-1.156495,2.507418,1.478541,-0.9737816,-1.3805825,0.9071499,-0.25544858,-1.1601481,-0.04993593,0.4851615,0.34888655,0.9948158,-0.3603325,1.6094285,-3.2437878,-0.2145315,-1.221653,0.20532608,-0.2665844,1.0330198,0.7713606,-0.167296,0.14850168,0.5957869,0.27005318,0.07054424,-0.3363695,1.0,0.0,0.0,0.0,0.0,0.0,0.0,-1.6448158,-0.039667517,-1.0594285,1.6766071,-11.279308,-12.434292,-1.4349222,-28.138712,-0.12543201,-0.3516376
-40.946228,-86.917435,-38.867687,19.276688,4.523365,-1.97726,-0.61528367,-0.7534664,0.12746096,-0.2466811,-0.62293833,-0.53587896,0.69685495,0.5405705,0.8385975,-0.25592682,-1.5894939,-1.2187889,2.45383,1.5482265,-0.9197245,0.9003123,-0.26173446,-1.5682495,-1.1680363,2.5047057,1.4833952,-0.97027874,-1.355037,0.62204695,-0.37262264,-1.1522399,-0.34584108,0.48493588,0.34909102,0.96240234,-0.36247635,1.5964847,-3.2405446,-0.21431701,-1.3186176,0.20729828,-0.26712418,1.0292687,0.7730508,-0.16359246,0.15585637,0.5927384,0.17152326,-0.099869065,-0.39098492,1.0,0.0,0.0,0.0,0.0,0.0,0.0,-1.6124023,-0.037523657,-1.0464847,3.2660007,-28.703451,-12.151575,0.7118702,-29.807434,-0.23085475,-0.4738927
-51.5346,-110.29232,-47.21501,24.45883,6.460788,-1.6896576,-0.62513167,-0.7664591,-0.067355536,-0.23722889,-0.5946351,-0.5856301,0.70082754,0.50814337,0.8236664,-0.26847002,-1.5919724,-1.2274998,2.4461427,1.553478,-0.9194644,0.88684833,-0.2582998,-1.5725257,-1.1793069,2.4994376,1.4882456,-0.9667969,-1.3405834,0.24967852,-0.4478722,-1.1184883,-0.5879089,0.48398232,0.34632155,0.9300232,-0.3646183,1.5825719,-3.2373047,-0.21410273,-1.4154853,0.20787048,-0.26960182,1.0250518,0.77532494,-0.15939716,0.16274738,0.5890475,0.017259983,-0.30094194,-0.43406257,1.0,0.0,0.0,0.0,0.0,0.0,0.0,-1.5800232,-0.035381705,-1.0325718,2.3159504,-37.51896,-8.088154,3.437376,-24.444061,-0.41638017,-0.7402897
-53.343708,-116.309006,-49.062164,22.678495,7.150903,-1.66307,-0.44931486,-0.7750601,-0.25604218,-0.2388664,-0.66194856,-0.577207,0.6874318,0.44646782,0.8093423,-0.28390402,-1.5964124,-1.2455018,2.441717,1.5569888,-0.9221501,0.8734454,-0.258841,-1.5772655,-1.1905507,2.4923842,1.4930693,-0.9633837,-1.3365471,-0.15646142,-0.48521724,-1.1252548,-0.745183,0.48008305,0.33861333,0.89767456,-0.36675835,1.5676911,-3.2340682,-0.21388867,-1.5122561,0.2067833,-0.27418327,1.0203534,0.77812,-0.15460889,0.16855931,0.58498985,-0.15455855,-0.5129045,-0.48309973,1.0,0.0,0.0,0.0,0.0,0.0,0.0,-1.5476745,-0.03324166,-1.0176911,1.5236139,-40.934216,-4.528606,-0.37913322,-15.992939,-0.8743584,-1.1124611
-37.473473,-89.9354,-33.17457,19.038733,6.2810125,-0.9983278,0.28400883,-0.75770503,-0.453266,0.018965904,-0.7313288,-0.57929206,0.67833143,0.474296,0.7976749,-0.3041676,-1.5753689,-1.2636836,2.434455,1.5609025,-0.91595405,0.86011493,-0.26344535,-1.5809524,-1.2022523,2.484297,1.4978453,-0.9600086,-1.3283963,-0.56266946,-0.33306152,-1.183549,-0.8303992,0.4751173,0.33700353,0.86535645,-0.36889458,1.5518434,-3.2308347,-0.21367483,-1.6089302,0.2041893,-0.28046227,1.0151817,0.78095096,-0.1493171,0.17276667,0.58135325,-0.29961672,-0.6660779,-0.52975124,1.0,0.0,0.0,0.0,0.0,0.0,0.0,-1.5153564,-0.031105429,-1.0018435,1.8482685,-40.88561,14.275718,-5.4011106,-8.651007,-1.0053515,-0.2081871
-12.3410425,-41.397236,-7.676913,16.103632,4.1993923,-0.113894045,1.0112274,-0.71650934,-0.5661354,0.27163583,-0.7737302,-0.5853731,0.65738493,0.49819168,0.788464,-0.32005888,-1.5537888,-1.2796253,2.4257598,1.5635837,-0.91018945,0.8470286,-0.27159068,-1.5818145,-1.2147473,2.4757254,1.5025679,-0.9566088,-1.2997296,-0.89897627,-0.007064798,-1.270137,-0.8661045,0.470492,0.34175566,0.83307266,-0.3710308,1.5350298,-3.2276046,-0.2134612,-1.7055076,0.2006073,-0.2875595,1.0096418,0.7831687,-0.14385559,0.17519172,0.57901657,-0.38272962,-0.721128,-0.5635595,1.0,0.0,0.0,0.0,0.0,0.0,0.0,-1.4830726,-0.028969198,-0.98502976,3.5898447,-33.7682,31.634075,-8.317208,-3.4977913,-0.76768994,0.7294595
-1.6185856,-16.720572,3.413117,15.950902,3.1479404,0.16807541,1.1088417,-0.6567063,-0.6870337,0.30027068,-0.7773845,-0.5686426,0.60706216,0.49429443,0.781358,-0.34029406,-1.5517875,-1.2924857,2.4188612,1.5632741,-0.90717936,0.834483,-0.28259608,-1.5795581,-1.2280091,2.4670622,1.5072218,-0.9531565,-1.2374947,-1.1679432,0.30000243,-1.3438205,-0.8655794,0.46303707,0.3475864,0.8008232,-0.37316322,1.517251,-3.2243776,-0.21324779,-1.8019885,0.19643402,-0.29490852,1.0038441,0.7845311,-0.13846816,0.17592761,0.57826203,-0.43364403,-0.73378354,-0.5867437,1.0,0.0,0.0,0.0,0.0,0.0,0.0,-1.4508232,-0.026836783,-0.967251,6.8195105,-26.967167,29.7487,-7.1112394,0.19264221,-0.8980036,0.93972087
5.263096,3.6775992,10.256558,16.204329,2.0928328,0.13434303,0.9160124,-0.56370485,-0.738032,0.25854322,-0.775316,-0.56001794,0.59623206,0.4629926,0.77811253,-0.3563993,-1.5537038,-1.3055407,2.4110603,1.566845,-0.9068572,0.8229197,-0.29559752,-1.575156,-1.2417916,2.4585326,1.5118071,-0.94967365,-1.1280735,-1.3442817,0.48457202,-1.3890814,-0.8482472,0.45690072,0.34966743,0.7686043,-0.37529373,1.4985081,-3.221154,-0.21303459,-1.8983728,0.19197845,-0.30220604,0.9978708,0.7851096,-0.13326278,0.17533246,0.57888037,-0.45354986,-0.72119004,-0.60243535,1.0,0.0,0.0,0.0,0.0,0.0,0.0,-1.4186043,-0.024706274,-0.9485081,11.299515,-17.649555,17.74801,-4.333949,1.8605947,-0.6006539,0.54807067
11.683782,20.658222,15.427166,15.2034025,0.9873351,-0.11663008,0.72244704,-0.41630948,-0.7641393,0.19410147,-0.7702595,-0.5859499,0.5983248,0.44403377,0.7812888,-0.37201145,-1.5557458,-1.3188176,2.3999376,1.5716395,-0.9052703,0.8129786,-0.30973193,-1.5700042,-1.2558049,2.4501173,1.5163447,-0.9461937,-0.94965005,-1.4364005,0.52445865,-1.4050219,-0.83916116,0.4531714,0.3483202,0.73641586,-0.37742233,1.4788022,-3.2179334,-0.21282159,-1.9946607,0.1875763,-0.30927277,0.991758,0.7850328,-0.12826246,0.17390434,0.5805424,-0.43920022,-0.69365513,-0.6156097,1.0,0.0,0.0,0.0,0.0,0.0,0.0,-1.3864158,-0.022577673,-0.9288022,17.781616,-9.185672,3.7561893,-1.4699221,0.9983659,-0.23559332,0.13457537
6.09329,14.642189,7.1035604,13.141823,0.884547,-1.010236,0.22087768,-0.26985517,-0.78000396,-0.0867919,-0.76920956,-0.5580827,0.58778,0.4304136,0.7859931,-0.38773233,-1.5786834,-1.3327259,2.394309,1.5751227,-0.90315235,0.80522907,-0.3243408,-1.5663002,-1.2698373,2.4418356,1.5208365,-0.94275,-0.7183398,-1.4690953,0.32026875,-1.4021869,-0.82455933,0.44788688,0.34329426,0.70425797,-0.37954903,1.458134,-3.2147162,-0.21260881,-2.0908525,0.18334961,-0.31637,0.9853982,0.78468233,-0.123179644,0.1721004,0.58265066,-0.41931793,-0.7055848,-0.64410764,1.0,0.0,0.0,0.0,0.0,0.0,0.0,-1.354258,-0.02045098,-0.90813404,22.645426,-3.2964468,-19.992512,0.3970623,1.3645768,-0.536263,-0.41446686
3.2316682,7.865557,-0.5129857,8.385316,0.6247698,-1.9888074,-0.07223794,-0.05595638,-0.78886104,-0.3849157,-0.77470165,-0.5793545,0.572696,0.43947625,0.79963344,-0.4032269,-1.6047918,-1.3473074,2.3839002,1.578106,-0.89880234,0.8003472,-0.33902308,-1.5662029,-1.2838067,2.4336073,1.5252596,-0.9393568,-0.41454908,-1.4681756,-0.09055145,-1.3950592,-0.8228325,0.43971485,0.33770847,0.6721382,-0.3816738,1.4365048,-3.211502,-0.21239625,-2.1869478,0.17941284,-0.32387543,0.97857654,0.7844033,-0.11758642,0.17028631,0.5847114,-0.38691604,-0.7571316,-0.69686276,1.0,0.0,0.0,0.0,0.0,0.0,0.0,-1.3221382,-0.018326193,-0.8865048,29.452223,0.0145196915,-40.06357,0.79135895,-0.037574768,-1.0297596,-0.61837435
2.1398408,7.462586,-1.842344,8.163556,0.5863209,-2.0628104,-0.15008129,0.011781057,-0.79579645,-0.46720025,-0.7707178,-0.584728,0.5902243,0.45450208,0.8015253,-0.41860273,-1.6129229,-1.3608785,2.3751345,1.584282,-0.8939066,0.7982539,-0.35360476,-1.5702274,-1.2976826,2.4253523,1.5296179,-0.9360056,-0.14346626,-1.4551454,-0.50364447,-1.384593,-0.82704955,0.4335668,0.333968,0.640049,-0.3837967,1.4139153,-3.2082913,-0.2121839,-2.282947,0.17578888,-0.33192253,0.9711955,0.7843209,-0.111311056,0.16862287,0.58652943,-0.35522315,-0.81326264,-0.7549993,1.0,0.0,0.0,0.0,0.0,0.0,0.0,-1.290049,-0.016203314,-0.86391526,26.349085,1.2099981,-40.444916,1.1437893,-0.6378174,-0.86568594,-0.4503429
-0.5040281,10.232773,-0.047560453,11.892933,0.7712952,-1.4712064,-0.18908685,-0.039421916,-0.7908259,-0.4569633,-0.7763172,-0.58540756,0.59735847,0.44476944,0.7943117,-0.43268734,-1.6159238,-1.3753144,2.3668115,1.5893538,-0.89152867,0.79790676,-0.36801383,-1.5774162,-1.3114918,2.41704,1.5339304,-0.9326935,0.000879003,-1.4365664,-0.7896696,-1.3791832,-0.8331542,0.42976347,0.33017075,0.60799026,-0.38591766,1.3903666,-3.2050836,-0.21197176,-2.3788502,0.17234802,-0.34039116,0.9633111,0.7844501,-0.10443604,0.16713642,0.5880447,-0.33899716,-0.85126513,-0.8042446,1.0,0.0,0.0,0.0,0.0,0.0,0.0,-1.2579902,-0.014082342,-0.84036654,14.239888,1.7526865,-28.297508,0.70319176,-0.8394599,-0.5658865,-0.4359722
-5.5529943,11.594795,1.7616496,17.68533,1.2877781,-0.6104369,-0.2321553,-0.1317992,-0.793257,-0.421172,-0.7812938,-0.55983603,0.59853405,0.4365619,0.78472686,-0.44733953,-1.6195334,-1.3896213,2.3610566,1.5937839,-0.8890373,0.79786766,-0.3822765,-1.5862434,-1.3252915,2.4087508,1.5382162,-0.9294195,-0.004204824,-1.423289,-0.9145547,-1.3793175,-0.82878375,0.42788866,0.3263791,0.57596207,-0.38803482,1.3658594,-3.201879,-0.21175984,-2.4746575,0.16885757,-0.3490715,0.9550624,0.7847877,-0.09716347,0.16572835,0.5892381,-0.35063928,-0.86755645,-0.83729166,1.0,0.0,0.0,0.0,0.0,0.0,0.0,-1.225962,-0.011965185,-0.8158594,-0.11178693,1.197052,-12.734699,0.23281574,0.15693903,-0.2841711,-0.41303635
-6.6957064,16.375145,5.8691974,21.400108,1.4884198,0.12865278,-0.15095514,-0.18101802,-0.7963685,-0.3776487,-0.78877044,-0.5497997,0.591047,0.4437647,0.77976584,-0.46191335,-1.6240083,-1.4041686,2.3537707,1.5973209,-0.885043,0.7971028,-0.3964667,-1.5952995,-1.3391427,2.4005454,1.5424868,-0.9261713,-0.09829885,-1.4180248,-0.90450346,-1.3861799,-0.8188593,0.42685553,0.32430658,0.5439644,-0.39015198,1.340395,-3.1986778,-0.21154812,-2.5703692,0.1651535,-0.3577385,0.9465999,0.7852549,-0.08972915,0.16427223,0.5902016,-0.37634933,-0.8591547,-0.8551296,1.0,0.0,0.0,0.0,0.0,0.0,0.0,-1.1939644,-0.009848028,-0.79039496,-8.725904,0.3934145,0.45626163,-0.41179657,0.70557594,-0.10616183,-0.19841194
-6.0391855,20.510427,9.184862,23.081709,1.5299764,0.5284092,-0.0701779,-0.20104595,-0.7988835,-0.36773142,-0.7860518,-0.54302746,0.5817106,0.4441473,0.7769982,-0.47635505,-1.6320726,-1.4177479,2.3462427,1.6006578,-0.88175654,0.7952241,-0.41065404,-1.6037815,-1.353053,2.3924544,1.5467478,-0.9229374,-0.21535899,-1.4193517,-0.83163345,-1.391715,-0.8066096,0.42591467,0.32323468,0.51200485,-0.39226532,1.313974,-3.1954799,-0.21133661,-2.665985,0.16115952,-0.3662033,0.93803453,0.7857595,-0.08231408,0.16267055,0.5910537,-0.40577015,-0.83585787,-0.8628271,1.0,0.0,0.0,0.0,0.0,0.0,0.0,-1.1620048,-0.007734686,-0.763974,-10.989383,-0.2550602,6.665385,-0.282979,0.963819,-0.032293797,-0.057333708
-4.59842,22.025408,10.091217,21.930733,1.4260411,0.47950146,-0.019908391,-0.19726844,-0.7986079,-0.40614554,-0.7926768,-0.5319041,0.5634002,0.44397968,0.7754972,-0.4905148,-1.6443961,-1.4323206,2.339264,1.6030878,-0.87853944,0.7923764,-0.4248714,-1.6116512,-1.3670357,2.3845046,1.5509859,-0.9197111,-0.3058543,-1.4229057,-0.773926,-1.3997428,-0.79196095,0.42330867,0.32270557,0.48007584,-0.39437675,1.2865977,-3.192285,-0.21112531,-2.7615056,0.15690613,-0.37443924,0.9293783,0.7862546,-0.07494169,0.16087781,0.5918663,-0.4300907,-0.81284124,-0.87196076,1.0,0.0,0.0,0.0,0.0,0.0,0.0,-1.1300758,-0.005623251,-0.7365977,-8.452707,-0.46403408,5.232823,-0.5478382,1.2342215,-0.20367503,0.015807152
-4.9661245,18.92333,7.5389338,19.872643,1.3384057,0.15796676,-0.06799509,-0.18436831,-0.8035798,-0.48907748,-0.79193175,-0.5642917,0.5580706,0.42717487,0.77393955,-0.5052294,-1.6605589,-1.446229,2.3280754,1.606793,-0.87699366,0.7889699,-0.4391484,-1.6194751,-1.3810815,2.3765776,1.5551916,-0.916502,-0.35085088,-1.4296842,-0.78657246,-1.4052006,-0.79345566,0.41962793,0.32047912,0.44817734,-0.39648628,1.2582669,-3.1890934,-0.21091422,-2.8569303,0.15246964,-0.382555,0.9205489,0.7867699,-0.067502685,0.15894978,0.5925971,-0.4498696,-0.8032343,-0.8915587,1.0,0.0,0.0,0.0,0.0,0.0,0.0,-1.0981773,-0.0035137236,-0.7082669,-4.0578723,-0.788188,-1.6452312,-0.2873659,-0.37781,-0.37879348,-0.17607212
-9.028521,11.452687,1.8232989,18.337158,1.529588,-0.21348876,-0.22424887,-0.20154962,-0.81187266,-0.58778006,-0.7980061,-0.5754436,0.53172684,0.36695382,0.7688149,-0.5203357,-1.6782532,-1.4608821,2.3190331,1.6083643,-0.87980664,0.7852839,-0.453526,-1.6280429,-1.3951882,2.3685706,1.5593363,-0.91336155,-0.373221,-1.4408807,-0.88127595,-1.4114223,-0.8038128,0.41250795,0.31192115,0.41630936,-0.3985939,1.2289826,-3.185905,-0.21070336,-2.9522595,0.14776611,-0.39074135,0.9114082,0.787437,-0.05978949,0.15694524,0.5930736,-0.4757313,-0.815832,-0.926448,1.0,0.0,0.0,0.0,0.0,0.0,0.0,-1.0663093,-0.0014061034,-0.67898256,-1.8499672,-1.2585878,-9.745073,-0.31425953,-1.3086915,-0.8357346,-0.85167885
-15.345835,6.3952446,-2.2600036,19.97289,1.9331028,-0.14109695,-0.40307814,-0.28141034,-0.81643045,-0.6193982,-0.79332197,-0.5816253,0.5201346,0.327127,0.7571429,-0.535169,-1.6899828,-1.4745204,2.310408,1.6113498,-0.88064885,0.7811526,-0.4680228,-1.6377208,-1.409314,2.3604338,1.5634028,-0.9103365,-0.42485178,-1.4532402,-0.99772185,-1.411773,-0.81794494,0.4041502,0.29932198,0.3844719,-0.40069962,1.1987457,-3.1827197,-0.2104927,-3.0474935,0.14268494,-0.39912605,0.90189123,0.7884078,-0.051688388,0.15488876,0.5930858,-0.5192639,-0.83761096,-0.9652305,1.0,0.0,0.0,0.0,0.0,0.0,0.0,-1.0344719,0.0006996095,-0.6487457,-4.6667156,-1.4147043,-11.95792,0.34692287,-1.7525434,-1.0140002,-1.288265
-19.47467,5.980495,-3.0952258,21.692219,2.2556722,0.13419247,-0.48550847,-0.35987416,-0.8180926,-0.62952805,-0.7993316,-0.5456078,0.49595714,0.28456217,0.74516517,-0.54983205,-1.7006736,-1.4892472,2.305873,1.6129985,-0.8818803,0.77621543,-0.4826264,-1.6484191,-1.4234532,2.3522818,1.5673739,-0.90746117,-0.5145655,-1.4634149,-1.0951998,-1.4132296,-0.81588554,0.39407116,0.28346825,0.35266876,-0.40280342,1.1675571,-3.1795375,-0.21028225,-3.1426325,0.13705826,-0.40771675,0.8920059,0.78976893,-0.04318516,0.15271445,0.5925186,-0.5776657,-0.85703516,-1.0016869,1.0,0.0,0.0,0.0,0.0,0.0,0.0,-1.0026687,0.002803415,-0.6175571,-8.35734,-1.2255907,-10.135722,0.28772354,-0.17956495,-1.2035608,-1.6144156
-26.52275,3.9201326,-5.2482495,24.551947,2.7387013,0.50770426,-0.6316198,-0.47470903,-0.823074,-0.6572695,-0.79953027,-0.5313945,0.46623105,0.2388808,0.7287445,-0.5649338,-1.7141461,-1.5034063,2.2991424,1.613997,-0.8835731,0.76996887,-0.49732634,-1.6599357,-1.4376,2.3442175,1.5712286,-0.90476704,-0.65877753,-1.4730089,-1.1721587,-1.4133021,-0.80525273,0.38182184,0.2646198,0.32089996,-0.40490532,1.1354179,-3.1763587,-0.21007201,-3.2376761,0.13067245,-0.41649055,0.8817832,0.7916225,-0.03429123,0.15035257,0.5912292,-0.658823,-0.8747482,-1.0347083,1.0,0.0,0.0,0.0,0.0,0.0,0.0,-0.97089994,0.0049053133,-0.5854179,-13.638735,-1.2149096,-8.184123,0.5101919,0.60333014,-1.4515817,-1.9239962
-31.095442,4.3780317,-5.701434,26.599089,3.0126858,0.884499,-0.7364496,-0.5734173,-0.82650167,-0.6844091,-0.7948966,-0.5252071,0.4701426,0.13629304,0.7126271,-0.5799765,-1.7283766,-1.5170897,2.2916968,1.6182429,-0.8911377,0.76203334,-0.51211214,-1.6720855,-1.4517182,2.3362753,1.5749727,-0.9023218,-0.83557093,-1.481365,-1.2308556,-1.4094329,-0.7921619,0.37110087,0.2376868,0.28916168,-0.4070034,1.102329,-3.173183,-0.20986198,-3.332625,0.123371124,-0.42539787,0.87126327,0.7940487,-0.025058284,0.14776115,0.58908856,-0.75536305,-0.8858093,-1.0635487,1.0,0.0,0.0,0.0,0.0,0.0,0.0,-0.93916166,0.0070033967,-0.552329,-16.80647,-1.126504,-6.407881,0.962162,0.80480576,-1.3204217,-2.7324586
-32.32791,9.217683,-3.2252297,28.115778,3.0722294,1.3162988,-0.77392864,-0.6737771,-0.8195984,-0.6851903,-0.786816,-0.49455118,0.497435,0.012253343,0.69465566,-0.594072,-1.7406045,-1.5303998,2.2868202,1.6247163,-0.90109646,0.7522048,-0.5269246,-1.6846111,-1.4657563,2.3285391,1.5786444,-0.900218,-1.0290828,-1.4821973,-1.2614805,-1.4001471,-0.7693653,0.3648809,0.20115885,0.25745392,-0.4091015,1.0682913,-3.1700103,-0.20965216,-3.4274788,0.1150589,-0.43432617,0.8605223,0.79706794,-0.0156062,0.14489035,0.58604246,-0.85828394,-0.88248897,-1.0835212,1.0,0.0,0.0,0.0,0.0,0.0,0.0,-0.9074539,0.00910148,-0.5182913,-18.460882,-0.38986206,-3.6093473,1.513648,1.7655492,-0.8578718,-3.6739647
-29.745699,15.565163,0.7430136,28.165688,3.0256739,1.5785408,-0.7477085,-0.73916894,-0.8157692,-0.69304085,-0.7731025,-0.41002867,0.4971227,-0.17609295,0.67828786,-0.60850155,-1.7539152,-1.5430665,2.2875364,1.6283567,-0.9178273,0.7405728,-0.5417037,-1.6973083,-1.4796475,2.3212607,1.5822645,-0.898592,-1.2053143,-1.4775198,-1.2741877,-1.3836858,-0.7157325,0.36042756,0.14984205,0.22577667,-0.41119576,1.0333058,-3.166841,-0.20944254,-3.5222378,0.10575104,-0.4431324,0.8496484,0.80065566,-0.0060706516,0.14161266,0.58211637,-0.9580832,-0.8669303,-1.0944967,1.0,0.0,0.0,0.0,0.0,0.0,0.0,-0.87577665,0.011195749,-0.48330575,-16.829418,0.17268658,-1.7521143,2.1917582,4.894066,-0.6577134,-5.1065893
-23.363949,23.458324,6.295739,26.752668,2.7743235,1.7006724,-0.6237885,-0.77554685,-0.810872,-0.69198996,-0.7573758,-0.30568618,0.48863164,-0.3165304,0.6630181,-0.62279093,-1.7665073,-1.5553851,2.290692,1.6311277,-0.93024504,0.727496,-0.5564046,-1.7100227,-1.493327,2.314791,1.5858446,-0.8975458,-1.3397996,-1.4684525,-1.271943,-1.3610982,-0.6252293,0.35661182,0.08991683,0.19412994,-0.41328812,0.99737334,-3.1636748,-0.20923313,-3.616902,0.09555817,-0.4517002,0.83872634,0.8047236,0.0034095373,0.13775598,0.5774352,-1.0439537,-0.8395634,-1.0970397,1.0,0.0,0.0,0.0,0.0,0.0,0.0,-0.8441299,0.0132881105,-0.44737333,-12.832332,0.65147877,-0.14300346,2.714491,8.672595,-0.54769516,-5.9116616
-14.750679,31.06913,12.21463,24.156738,2.3439112,1.7029506,-0.42941839,-0.78537554,-0.8088801,-0.6856681,-0.7419057,-0.20587742,0.5052185,-0.39259118,0.64895844,-0.6372926,-1.7785895,-1.5675176,2.2942033,1.6363665,-0.93680495,0.71349037,-0.57101107,-1.722636,-1.506751,2.3094351,1.5894076,-0.89710236,-1.4193995,-1.4587142,-1.2584738,-1.3351356,-0.50644004,0.35584491,0.02964601,0.16251373,-0.41537857,0.960495,-3.1605117,-0.20902394,-3.7114716,0.08465958,-0.45993042,0.82782024,0.809125,0.012703235,0.13317287,0.5722064,-1.1084791,-0.8023292,-1.0938834,1.0,0.0,0.0,0.0,0.0,0.0,0.0,-0.8125137,0.015378565,-0.41049498,-7.552862,0.77815056,1.1057854,2.93653,11.621607,-0.17629862,-5.897523
-8.807443,35.41542,15.578002,21.727158,2.0967588,1.610029,-0.29719904,-0.7992203,-0.8027048,-0.69370794,-0.7332183,-0.06516477,0.5119594,-0.44869438,0.63356835,-0.65128154,-1.7920067,-1.5800728,2.3029187,1.6406035,-0.9419718,0.6989964,-0.5855098,-1.7351425,-1.5199345,2.305525,1.5929743,-0.8972397,-1.4584876,-1.4474299,-1.2485248,-1.3119265,-0.3532138,0.35657224,-0.027723879,0.13093567,-0.41746712,0.9226717,-3.157352,-0.20881495,-3.8059466,0.07323456,-0.46778107,0.8169497,0.8137448,0.02174615,0.12771264,0.56660026,-1.1585318,-0.7629335,-1.089936,1.0,0.0,0.0,0.0,0.0,0.0,0.0,-0.78093565,0.017467111,-0.37267166,-3.6419392,0.97506046,0.84426403,2.5836706,15.148288,-0.00076293945,-5.5742273
-4.3240986,39.15238,18.093468,19.579836,1.3894993,1.570193,-0.21296169,-0.8095315,-0.7944501,-0.696841,-0.7170001,-0.141264,0.5498045,-0.46854055,0.6180433,-0.6649548,-1.8048266,-1.5916345,2.2913988,1.6479547,-0.94409376,0.6843022,-0.59987974,-1.7475879,-1.5328816,2.302687,1.5965811,-0.8979044,-1.4723923,-1.4339496,-1.2435801,-1.288075,-0.26105335,0.36185402,-0.079012826,0.09938812,-0.41955376,0.8839043,-3.1541953,-0.20860618,-3.9003272,0.06144333,-0.47518158,0.8060974,0.81847376,0.030514907,0.121585876,0.5607017,-1.1882532,-0.7156758,-1.0885395,1.0,0.0,0.0,0.0,0.0,0.0,0.0,-0.7493881,0.01955375,-0.33390427,-1.2117147,1.2286901,0.39339066,2.5927782,9.102261,0.5080879,-5.007953
-2.7364752,37.177162,16.666182,16.310379,0.7079227,1.3216336,-0.17105174,-0.80684346,-0.8027705,-0.73752856,-0.7206789,-0.2628357,0.53906006,-0.5001815,0.60361785,-0.68015677,-1.8213408,-1.6049495,2.2764034,1.6504871,-0.9479225,0.669608,-0.614182,-1.7602012,-1.5456685,2.3001044,1.6002299,-0.89904785,-1.4678457,-1.4293032,-1.2677857,-1.2747879,-0.25798228,0.36592156,-0.12583147,0.067871094,-0.4216385,0.8441938,-3.1510417,-0.20839763,-3.9946134,0.049476624,-0.4821186,0.79514116,0.8232242,0.039129004,0.11517924,0.5545308,-1.2023556,-0.6695222,-1.1027782,1.0,0.0,0.0,0.0,0.0,0.0,0.0,-0.71787107,0.021638483,-0.2941938,0.6018877,0.358963,-2.519679,1.5508652,0.19823313,0.37868023,-4.61383
-1.1143188,37.371,16.908972,14.693701,0.15970612,1.2445595,-0.1109515,-0.8009198,-0.8088148,-0.74505764,-0.7078708,-0.37844902,0.5381164,-0.50469834,0.58951604,-0.6950635,-1.834707,-1.6164556,2.2622595,1.6540415,-0.94951767,0.6551044,-0.6284757,-1.7734395,-1.5584584,2.296839,1.6050016,-0.9004498,-1.4266951,-1.4242027,-1.4244889,-1.3130323,-0.40176705,0.75763965,-0.1265142,0.040920258,-0.42356873,0.8168765,-1.6466588,-0.04170843,1.0608928,0.037395477,-0.48846436,0.7838833,0.8278583,0.04731182,0.10897181,0.5482127,-1.2256515,-0.5824007,-1.166495,0.0,1.0,0.0,0.0,0.0,0.0,0.0,-0.69092023,0.02356872,-0.26687646,6.851721,1.2781143,-28.335117,-8.728051,-21.546162,77.97455,3.91784
84.984825,176.0,110.0,109.07361,-4.599144,10.774222,-0.7382484,-0.8102128,0.49704018,0.6595511,0.74017316,-0.16604401,0.62309813,-0.48319864,0.5740831,-0.5787717,-1.7074844,-1.4844412,2.2802346,1.6673114,-0.9487697,0.648506,-0.6407524,-1.790373,-1.5589544,2.2840216,1.623478,-0.89975744,-0.4357745,-1.1821666,-1.7104234,0.35475558,-1.5754914,2.1728113,0.10049952,0.024467468,-0.42398453,0.826733,-1.6450125,-0.04166673,0.96058095,0.026374817,-0.49211884,0.77601266,0.8317559,0.045500625,0.10986428,0.542256,-1.0584035,-0.27522942,-0.65857714,1.0,0.0,0.0,0.0,0.0,0.0,0.0,-0.67446744,0.023984522,-0.27673298,89.61409,18.20879,-6.8175316,161.7386,-117.42157,130.04794,12.490152
-16.336563,124.76386,62.95631,103.88655,4.110612,5.483648,-1.9615508,-0.8306184,-0.4171283,-0.36740285,0.78222805,-0.61495495,0.50409245,-0.15409775,0.5654442,-0.6824652,-1.8271133,-1.4807316,2.222526,1.6738873,-0.9151672,0.64408284,-0.65081173,-1.8056871,-1.5483781,2.267073,1.6451589,-0.8987408,-0.44311577,-0.949512,-1.4692748,1.292284,-1.7375432,2.1717916,0.10031435,0.008029938,-0.42440033,0.83558714,-1.6433678,-0.04162507,0.8603694,0.0153923035,-0.4941578,0.772451,0.83617723,0.037780806,0.1149903,0.5349367,-1.1098633,-0.16987701,-0.26156494,1.0,0.0,0.0,0.0,0.0,0.0,0.0,-0.6580299,0.024400324,-0.28558713,-0.3156662,22.57526,24.847746,93.85594,-16.975857,1.4558315,-0.52610934
-29.325737,136.59834,57.114315,83.62476,3.230662,4.3505454,-1.7229979,-0.80450666,-0.023735749,-0.5540552,0.76365,-0.65497017,0.5700576,0.35546833,0.5636322,-0.6531853,-1.8610926,-1.4720131,2.201576,1.7021646,-0.863194,0.6376532,-0.65723664,-1.818535,-1.5317422,2.2503684,1.6654092,-0.8975678,-0.7067967,-0.54280025,-1.2233639,1.7876216,-1.6514344,1.979512,0.12086044,-0.008392334,-0.42481613,0.84343994,-1.6417247,-0.041583456,0.760258,0.003967285,-0.49497223,0.77224886,0.84141105,0.028031364,0.12241244,0.52560145,-1.1490991,-0.044606663,0.05209164,1.0,0.0,0.0,0.0,0.0,0.0,0.0,-0.64160764,0.024816126,-0.29343992,-25.546085,39.859344,24.531937,49.612164,7.4997425,-18.255377,1.4307439
-45.58875,87.0871,26.534746,55.62007,3.576148,2.6031556,-1.2855533,-0.81632495,-0.12063727,-0.60872704,0.7950756,-0.6756013,0.580663,0.19336784,0.5560207,-0.6693004,-1.8794076,-1.4522346,2.1828082,1.7234755,-0.87823105,0.62794954,-0.6606193,-1.8296129,-1.512909,2.2353537,1.6833764,-0.896329,-1.0562775,-0.27201676,-1.0701562,1.9158378,-1.4542083,1.7369205,0.12387717,-0.024799347,-0.42523193,0.8502924,-1.6400833,-0.04154188,0.66024673,-0.0081214905,-0.49489594,0.77392834,0.84729266,0.018314844,0.13082504,0.5144362,-1.2259308,0.03348914,0.199276,1.0,0.0,0.0,0.0,0.0,0.0,0.0,-0.6252006,0.025231928,-0.30029237,-34.35372,26.491379,15.074348,12.978911,18.972015,-23.933388,-0.022555888
-42.249393,43.62403,6.032613,30.007849,2.8989835,1.0346115,-0.6528953,-0.8204259,-0.18832876,-0.6277477,0.78875816,-0.6857997,0.62364894,0.11299147,0.54590696,-0.6794522,-1.8923876,-1.4340333,2.1667738,1.7457414,-0.88502985,0.6152428,-0.66255146,-1.8398896,-1.4944154,2.2222426,1.6990854,-0.89512545,-1.3412597,-0.1681196,-1.0138091,1.8275702,-1.2648938,1.5156252,0.11868256,-0.0411911,-0.42564774,0.85614544,-1.6384436,-0.04150035,0.56033546,-0.020965576,-0.49438286,0.77605796,0.8535471,0.009858742,0.13913722,0.5019969,-1.3007085,0.06711147,0.21198647,1.0,0.0,0.0,0.0,0.0,0.0,0.0,-0.6088089,0.02564773,-0.30614543,-28.221035,10.066289,5.521703,-8.713412,18.47837,-22.109676,-0.6590858
-35.26965,6.423975,-8.647184,13.388164,2.5625892,-0.20678145,-0.16107975,-0.8230112,-0.29024374,-0.6453667,0.79527354,-0.67409444,0.6022116,0.12354094,0.53294164,-0.6915758,-1.9044263,-1.414888,2.154833,1.7593066,-0.8827714,0.6005295,-0.66471153,-1.8501474,-1.4773484,2.2107146,1.7128011,-0.8939639,-1.5141352,-0.2322238,-1.0300722,1.6669265,-1.1159395,1.3232446,0.11546773,-0.057559967,-0.42606354,0.8610002,-1.6368055,-0.041458856,0.46052405,-0.034564972,-0.4938984,0.7776414,0.85993844,0.0031817982,0.14657682,0.4888874,-1.3774343,0.054760624,0.13646352,1.0,0.0,0.0,0.0,0.0,0.0,0.0,-0.59244,0.026063532,-0.31100017,-17.097782,-6.515953,-1.7043829,-15.905905,14.670897,-19.31541,-0.28551072
-25.281939,-8.158941,-12.28362,5.4093657,1.9939047,-0.8280996,0.1369166,-0.8257065,-0.33936036,-0.66870755,0.7864847,-0.6831638,0.59226775,0.164816,0.5179588,-0.69864756,-1.9170182,-1.3987,2.142398,1.7720279,-0.8774823,0.5848616,-0.66811806,-1.8608876,-1.461836,2.2002547,1.7248231,-0.8927966,-1.583835,-0.3768201,-1.0889146,1.5131513,-1.0230052,1.1615773,0.11750795,-0.073913574,-0.42647934,0.8648575,-1.635169,-0.041417405,0.36081246,-0.04883957,-0.4936962,0.77820927,0.8663054,-0.0016603168,0.15285975,0.47554797,-1.4412148,0.021916656,0.027000664,1.0,0.0,0.0,0.0,0.0,0.0,0.0,-0.5760864,0.026479334,-0.31485748,-6.8059444,-14.467562,-5.957222,-15.172267,9.16338,-16.242933,0.30059665
-15.957312,-3.251246,-7.272681,5.229826,1.5282967,-0.8301636,0.23233394,-0.82966167,-0.36175793,-0.66984504,0.79154384,-0.673604,0.5881724,0.16738857,0.5018954,-0.70429385,-1.9278722,-1.3826816,2.1328943,1.7836404,-0.87605774,0.5690029,-0.6730152,-1.8722249,-1.4474641,2.1904204,1.7354356,-0.8916026,-1.586245,-0.5274677,-1.1485515,1.4126306,-0.97071254,1.0277145,0.12030981,-0.09025192,-0.42689323,0.86771846,-1.6335342,-0.041376,0.26120055,-0.06359863,-0.4937935,0.7777677,0.87255365,-0.0049395114,0.15809347,0.4622036,-1.4855734,-0.0069781085,-0.070697606,1.0,0.0,0.0,0.0,0.0,0.0,0.0,-0.55974805,0.026893228,-0.31771845,-0.12435913,-15.0758505,-5.977559,-9.832239,5.089593,-13.439274,0.3696248
-10.879097,4.068903,-2.2763758,7.50134,1.371515,-0.632437,0.2089731,-0.8285644,-0.41717106,-0.6756476,0.7894363,-0.6540705,0.5795806,0.113304086,0.48614648,-0.7147323,-1.9397897,-1.3685205,2.1250134,1.7933936,-0.88027215,0.5533741,-0.67935234,-1.8840543,-1.4336988,2.1809409,1.7448827,-0.8904229,-1.5549214,-0.6693838,-1.1943125,1.3653233,-0.94069904,0.91690314,0.11750786,-0.10657501,-0.42730522,0.869584,-1.631901,-0.04133463,0.16168824,-0.07871628,-0.49412346,0.77649724,0.87865454,-0.0070253154,0.16246454,0.44891214,-1.5191404,-0.026844043,-0.14886917,1.0,0.0,0.0,0.0,0.0,0.0,0.0,-0.54342496,0.027305216,-0.319584,3.2120943,-14.229023,-4.5280457,-4.499531,2.8466702,-11.120439,-0.19975305
-7.28138,18.475557,4.848839,11.345489,1.1619811,-0.24622929,0.13762759,-0.82851654,-0.43000492,-0.6769597,0.7923783,-0.64587164,0.57548684,0.07668872,0.47052246,-0.72235286,-1.9517503,-1.354461,2.1163538,1.8024313,-0.882754,0.5381058,-0.68678147,-1.896187,-1.4200937,2.171652,1.7533685,-0.8893042,-1.517351,-0.76772696,-1.219158,1.359394,-0.9255989,0.82569796,0.11005065,-0.12288284,-0.4277172,0.87045527,-1.6302694,-0.041293304,0.06227543,-0.09405899,-0.49450874,0.7746643,0.88459855,-0.008256783,0.16625468,0.43563345,-1.5377096,-0.028370539,-0.19811009,1.0,0.0,0.0,0.0,0.0,0.0,0.0,-0.52711713,0.027717203,-0.32045525,3.7905931,-9.929681,-2.351737,-0.40061474,1.2905836,-9.136271,-0.7249892
-6.358042,30.30679,9.659075,14.474299,0.9994608,0.08028567,0.08421226,-0.8275481,-0.44172361,-0.6926538,0.79312754,-0.65549034,0.57686347,0.11798521,0.45535097,-0.7309538,-1.9654523,-1.3407809,2.106103,1.8110548,-0.8775057,0.52315694,-0.6948734,-1.9085103,-1.4063874,2.162409,1.7610666,-0.88823134,-1.4874079,-0.8235055,-1.2360739,1.3748077,-0.9248312,0.75114286,0.10624956,-0.13917542,-0.4281292,0.87033015,-1.6286395,-0.041252017,-0.037431736,-0.10949707,-0.49479866,0.7724943,0.8903685,-0.008845808,0.16976734,0.42230877,-1.5458655,-0.014603815,-0.22700624,1.0,0.0,0.0,0.0,0.0,0.0,0.0,-0.51082456,0.02812919,-0.32033014,3.008914,-5.7247996,-1.5067339,1.6978741,-0.19615889,-7.4548125,-0.4253462
-2.6661003,45.28619,16.246298,16.477308,0.6247175,0.3866694,0.09607452,-0.81306326,-0.41766375,-0.69209635,0.7945441,-0.6634045,0.595736,0.1567261,0.4418506,-0.73663974,-1.97772,-1.326933,2.0960686,1.8206402,-0.8725587,0.50847703,-0.70312554,-1.9209176,-1.3924829,2.153105,1.7681352,-0.8871651,-1.461647,-0.8265173,-1.2411317,1.3957776,-0.9334614,0.69218856,0.106293626,-0.15545273,-0.42854118,0.8692087,-1.6270112,-0.041210774,-0.13703921,-0.124874115,-0.49482727,0.7701973,0.89591247,-0.008937666,0.1733082,0.40893164,-1.5335358,0.015293857,-0.23442209,1.0,0.0,0.0,0.0,0.0,0.0,0.0,-0.49454725,0.028541178,-0.31920868,2.5288343,-0.49721003,-0.23117065,2.159667,-1.2247682,-5.8715343,-0.12841225
-6.386219,42.002304,13.560293,16.448435,0.81354225,0.41960013,0.06444218,-0.81794256,-0.46627894,-0.7156743,0.7867449,-0.65647537,0.58873385,0.16377807,0.42668277,-0.7497534,-1.992485,-1.3138084,2.0874574,1.8270086,-0.8707873,0.49395013,-0.71146256,-1.9334356,-1.3784295,2.1437285,1.7746907,-0.88608843,-1.4497253,-0.8367126,-1.2546352,1.4087704,-0.94031686,0.64329326,0.1078281,-0.17170715,-0.42895317,0.86709195,-1.6253846,-0.041169573,-0.23654708,-0.14020157,-0.49456406,0.7677771,0.9012358,-0.008549495,0.176912,0.39547807,-1.5309842,0.044464897,-0.24847992,1.0,0.0,0.0,0.0,0.0,0.0,0.0,-0.47829282,0.028953165,-0.31709194,1.1841774,-1.2153149,-1.1143684,1.4056444,-1.0196209,-4.8939586,0.036029518
-2.103273,49.283676,17.515448,16.207542,0.5685165,0.55072737,0.13118179,-0.79166657,-0.4492713,-0.69329464,0.7931233,-0.66187304,0.6349871,0.16308591,0.41478348,-0.7563897,-2.002765,-1.2991172,2.077541,1.8381895,-0.8697798,0.4795916,-0.7197805,-1.9459592,-1.3642713,2.1342757,1.7808591,-0.8849974,-1.4314549,-0.8307793,-1.2504202,1.4181306,-0.9481498,0.60792446,0.10908405,-0.18794632,-0.42936516,0.8639808,-1.6237595,-0.041128412,-0.33595553,-0.15539551,-0.4939556,0.7652818,0.9063004,-0.0077702273,0.18062314,0.38201344,-1.5136745,0.080003835,-0.2536798,1.0,0.0,0.0,0.0,0.0,0.0,0.0,-0.46205366,0.029365152,-0.31398082,1.7529488,0.38665533,0.7367134,0.9747505,-1.170826,-3.5339475,-0.021533668
-7.6185164,36.634735,10.689298,14.575634,0.8469145,0.36906648,0.13343734,-0.79447615,-0.5170737,-0.73440415,0.78926307,-0.6870422,0.6154529,0.2482199,0.40014398,-0.7714879,-2.0193996,-1.285345,2.0655715,1.8424044,-0.86017543,0.46536613,-0.7283321,-1.9586087,-1.350073,2.1246893,1.7867109,-0.8838282,-1.4195458,-0.863923,-1.2689974,1.4209253,-0.96299684,0.5775161,0.1192856,-0.20417023,-0.42977715,0.8598764,-1.6221361,-0.041087292,-0.43526456,-0.17056656,-0.4930687,0.7625679,0.91111946,-0.0065360265,0.18433444,0.36856383,-1.5165685,0.10546449,-0.28099853,1.0,0.0,0.0,0.0,0.0,0.0,0.0,-0.44582975,0.02977714,-0.30987638,1.191926,-3.488195,-1.6395807,0.4237175,-1.7707825,-3.065765,0.93235373
-6.9349947,40.166294,11.834037,14.456202,0.74022186,0.44340175,0.16956303,-0.78846985,-0.4949014,-0.7375671,0.7855646,-0.6904846,0.63941634,0.31391054,0.38651913,-0.77782226,-2.0323656,-1.2715166,2.055641,1.8506525,-0.85243714,0.45124316,-0.73711735,-1.9714547,-1.3358918,2.114958,1.7923185,-0.88251024,-1.409954,-0.8839845,-1.289113,1.4175168,-0.9773139,0.5548741,0.13562651,-0.22037888,-0.43018913,0.8547796,-1.6205143,-0.041046213,-0.5344743,-0.18572998,-0.4918995,0.75959575,0.9156836,-0.004820689,0.18804193,0.35516235,-1.5140988,0.13467972,-0.3063076,1.0,0.0,0.0,0.0,0.0,0.0,0.0,-0.4296211,0.030189127,-0.3047796,0.94242096,-2.1908283,-1.7695904,-0.21858215,-1.7411113,-2.2957563,1.5248537
-4.6089,42.254986,13.377062,14.037729,0.7115011,0.48352098,0.20614184,-0.77211744,-0.512959,-0.7186861,0.7901624,-0.68774354,0.6549045,0.30498996,0.37403142,-0.7884132,-2.0433233,-1.2568756,2.0461836,1.857809,-0.85201126,0.4372561,-0.7461267,-1.9843789,-1.3217355,2.10512,1.797743,-0.88104254,-1.3951231,-0.90713334,-1.2925965,1.4153717,-0.98701,0.53816974,0.15003088,-0.23657227,-0.4305992,0.84869146,-1.6188941,-0.041005176,-0.6335848,-0.20083618,-0.4904251,0.7563947,0.9199763,-0.002704048,0.19172351,0.34187466,-1.5064297,0.164886,-0.3284342,1.0,0.0,0.0,0.0,0.0,0.0,0.0,-0.4134277,0.030599207,-0.29869145,1.4338493,-2.4975061,-0.06406307,-0.113105774,-1.3009429,-1.7078161,1.3382405
-3.2600145,40.715908,13.049986,12.928005,0.6866623,0.42594278,0.251738,-0.75532186,-0.54371804,-0.723863,0.78836143,-0.6960205,0.66342056,0.3528449,0.3617239,-0.8004985,-2.0567653,-1.2428994,2.035518,1.864085,-0.8457581,0.42346883,-0.75544983,-1.9973108,-1.3076059,2.095194,1.803032,-0.8794108,-1.3735081,-0.9411928,-1.2923714,1.4127326,-0.99582624,0.525691,0.16729133,-0.2527504,-0.4310074,0.84161294,-1.6172756,-0.04096418,-0.7325962,-0.21585464,-0.48867607,0.752943,0.9239896,-0.00023885822,0.19532174,0.32877415,-1.4978526,0.19202754,-0.3544698,1.0,0.0,0.0,0.0,0.0,0.0,0.0,-0.39724958,0.03100738,-0.29161292,2.0998478,-3.5750628,0.31371117,-0.15940666,-1.2001753,-1.2907028,1.641655
-5.1331677,32.505394,9.126498,11.099568,0.74842906,0.25448847,0.25508612,-0.74381256,-0.59771055,-0.75105435,0.78145134,-0.71381176,0.6487209,0.36072925,0.34908757,-0.8152209,-2.0724163,-1.2294607,2.023813,1.8679042,-0.8433379,0.4099176,-0.76530606,-2.0103495,-1.2935239,2.08515,1.8082048,-0.8776141,-1.349103,-1.0008949,-1.3070216,1.4072652,-1.0080602,0.5141669,0.18363404,-0.26891327,-0.43141556,0.8335451,-1.6156586,-0.040923223,-0.83150864,-0.2308693,-0.48670387,0.7491139,0.927748,0.0026244677,0.1987339,0.31588188,-1.4990702,0.21198606,-0.39621276,1.0,0.0,0.0,0.0,0.0,0.0,0.0,-0.3810867,0.031415552,-0.28354508,2.4142027,-6.113553,-1.2354374,-0.3800869,-1.4711857,-1.2101173,1.5919685
-6.7523885,27.230833,6.699192,10.035453,0.8461834,0.20030487,0.23944606,-0.73618,-0.64326143,-0.7522205,0.7811111,-0.7112908,0.63746816,0.35039544,0.3362996,-0.8296322,-2.0855715,-1.2154129,2.014021,1.8719516,-0.84257454,0.39659476,-0.77588993,-2.0235407,-1.2794877,2.0750144,1.8132669,-0.87567717,-1.3266548,-1.0779546,-1.3225349,1.4030185,-1.0164094,0.50325185,0.19701649,-0.28506088,-0.43182373,0.8244973,-1.6140434,-0.040882308,-0.929199,-0.2459526,-0.48454666,0.74480814,0.931289,0.0059032124,0.20184606,0.30318952,-1.5077102,0.22979571,-0.44611815,1.0,0.0,0.0,0.0,0.0,0.0,0.0,-0.3649391,0.031823725,-0.27449727,2.2450447,-7.8364134,-1.3618231,-0.20823479,-1.0403872,-1.1667848,1.3360739
-1.0607696,30.189512,9.308405,8.608165,0.61284536,0.1641708,0.3195693,-0.6917901,-0.6738781,-0.7386021,0.7879491,-0.72169495,0.6546065,0.39181584,0.32741576,-0.84327775,-2.097401,-1.2006928,2.0028448,1.8787276,-0.8364956,0.38363957,-0.78724724,-2.036793,-1.2654535,2.0647833,1.818245,-0.87359244,-1.2853395,-1.1554145,-1.3251686,1.4042546,-1.0258745,0.4957256,0.21219869,-0.30118942,-0.4322319,0.8144733,-1.6124296,-0.040841434,-1.0267917,-0.2610283,-0.48223305,0.740025,0.93459725,0.009526203,0.20463921,0.29079172,-1.5040374,0.24490759,-0.49331743,1.0,0.0,0.0,0.0,0.0,0.0,0.0,-0.34881055,0.032231897,-0.26447326,4.0701866,-7.8689337,-0.011110306,0.29375553,-1.1777878,-0.8248925,1.5157998
10.922243,34.648544,13.834089,4.8988314,0.07847357,-0.029557705,0.47413397,-0.6141869,-0.70741034,-0.73542744,0.7781981,-0.70957965,0.64933413,0.39886546,0.3222209,-0.8579883,-2.1103358,-1.1876336,1.9938253,1.8831785,-0.8337059,0.37139487,-0.7993446,-2.050011,-1.2514459,2.0545142,1.8231565,-0.8713675,-1.2047796,-1.228117,-1.3194088,1.3998011,-1.0283558,0.48927626,0.22589865,-0.3172989,-0.43264008,0.80347407,-1.6108176,-0.0408006,-1.1242868,-0.27589798,-0.47984695,0.7347821,0.93763083,0.013401338,0.20709589,0.27889082,-1.4763899,0.2491165,-0.5392153,1.0,0.0,0.0,0.0,0.0,0.0,0.0,-0.3327011,0.03264007,-0.25347406,7.868314,-7.3687077,0.935936,-0.39508343,-0.52113533,-0.71281195,1.3492107
13.498638,36.743576,14.555588,4.1274033,-0.086701035,-0.15262735,0.48270646,-0.58191776,-0.7355702,-0.76135904,0.7702359,-0.7177176,0.6185032,0.37465844,0.3132031,-0.8729016,-2.1261468,-1.1744223,1.9827424,1.8850068,-0.83390164,0.36000943,-0.8120981,-2.0632746,-1.2375203,2.0442145,1.8279878,-0.86904055,-1.1171294,-1.2913861,-1.3275793,1.3902445,-1.031569,0.48078507,0.23486671,-0.3333931,-0.43304825,0.79148746,-1.609207,-0.04075981,-1.223442,-0.29044342,-0.47745895,0.72906655,0.9403876,0.01755431,0.20923914,0.26754785,-1.443043,0.24755985,-0.5872908,0.0,1.0,0.0,0.0,0.0,0.0,0.0,-0.31660688,0.033048242,-0.24148744,8.556342,-6.4293385,-0.4425764,-0.9250164,-0.607872,-0.9310901,0.857985
21.20931,40.10849,17.282867,1.5062082,-0.46167976,-0.290448,0.56857497,-0.51212925,-0.76020896,-0.75950825,0.74611354,-0.7027033,0.60373414,0.34239152,0.3087965,-0.888119,-2.1392255,-1.162909,1.9739442,1.8883612,-0.8348014,0.34963775,-0.8254047,-2.0766184,-1.2238008,2.03393,1.8327295,-0.866664,-1.0114493,-1.3440543,-1.3352132,1.3657433,-1.0281097,0.47162554,0.23834583,-0.34947205,-0.43345642,0.77851003,-1.6075982,-0.04071906,-1.322498,-0.30454254,-0.47514534,0.7228714,0.9428629,0.021991767,0.21107125,0.2568555,-1.3940858,0.23736738,-0.63537854,0.0,1.0,0.0,0.0,0.0,0.0,0.0,-0.30052793,0.033456415,-0.22851002,10.287333,-5.359602,-0.330472,-2.499938,0.02026558,-1.0113239,0.28541386
32.770042,49.14987,23.093586,-0.028831482,-0.878759,-0.41096663,0.67689157,-0.41389316,-0.7630837,-0.7485649,0.7464274,-0.69610727,0.598194,0.3759096,0.30824843,-0.9017131,-2.151475,-1.149158,1.9643193,1.8925488,-0.829073,0.34059986,-0.8390828,-2.090162,-1.2104363,2.024166,1.8375866,-0.8641927,-0.8690097,-1.3760409,-1.3613319,1.3254797,-0.9434154,0.49920252,0.25326055,-0.36351776,-0.43165588,0.77386385,-1.2257489,0.19124144,-0.1401294,-0.31803513,-0.47299385,0.71622676,0.9450575,0.026546951,0.21248434,0.24700585,-1.3311559,0.22013783,-0.67936146,0.0,1.0,0.0,0.0,0.0,0.0,0.0,-0.28648221,0.031655878,-0.22386384,13.215363,-3.250718,0.6821394,-2.404356,0.32252073,-1.1983097,0.5016923
5.7165475,68.66362,23.889885,16.283989,0.8323971,0.6749127,0.23879918,-0.5617248,-0.70411086,-0.6391214,0.78891724,-0.68643093,0.5880752,0.48107785,0.28442737,-0.90949386,-2.1540742,-1.1315446,1.955523,1.8963941,-0.8160849,0.33199057,-0.85266215,-2.1032426,-1.1970887,2.0148048,1.842519,-0.86154914,-0.858776,-1.3526838,-1.28836,1.3379962,-0.9354329,0.49102995,0.2676607,-0.37576675,-0.42974472,0.77171147,-1.2245234,0.19105025,-0.24026851,-0.33107758,-0.47064018,0.7096028,0.94702864,0.03096745,0.21379746,0.23763056,-1.2898813,0.24984558,-0.6619453,0.0,1.0,0.0,0.0,0.0,0.0,0.0,-0.27423322,0.029744714,-0.22171146,0.85366964,2.1066904,7.826352,1.219511,0.23537874,-0.89533925,1.3117135
-5.7506056,84.334175,26.554102,24.799385,1.5499172,1.2674289,0.047161393,-0.5817833,-0.65860456,-0.581893,0.78895336,-0.6888634,0.6170775,0.52150023,0.27381223,-0.9185226,-2.161432,-1.1181934,1.9459186,1.9042268,-0.8093991,0.32304272,-0.8657008,-2.1152666,-1.1835198,2.0054016,1.8473809,-0.8587434,-0.9070892,-1.288521,-1.1722302,1.3631696,-0.9442541,0.48447034,0.28431958,-0.3880005,-0.42783546,0.76855844,-1.2232991,0.19085923,-0.3403075,-0.3437462,-0.4677925,0.70340943,0.9487872,0.03515938,0.2154061,0.2284004,-1.2535794,0.30538392,-0.61028963,0.0,1.0,0.0,0.0,0.0,0.0,0.0,-0.2619995,0.027835459,-0.21855843,-4.933727,6.123352,12.182379,2.5058746,-1.5709043,-0.7002771,1.4947534
-18.640331,75.608444,19.125801,26.474773,1.8871194,1.1674933,-0.08621642,-0.6008076,-0.66857207,-0.6362736,0.78471947,-0.6937165,0.56277144,0.54570335,0.26296195,-0.932558,-2.178894,-1.105048,1.9360299,1.903658,-0.8041731,0.31341633,-0.8781701,-2.126516,-1.1697068,1.9958153,1.8521283,-0.8557689,-0.98114294,-1.2340003,-1.107909,1.3877212,-0.9649733,0.47131252,0.3013309,-0.4002266,-0.42592812,0.7644057,-1.222076,0.19066842,-0.44024646,-0.35623932,-0.46435928,0.69760484,0.95037407,0.0393252,0.21737008,0.21907274,-1.2430891,0.36456788,-0.57515585,0.0,1.0,0.0,0.0,0.0,0.0,0.0,-0.24977338,0.02592811,-0.21440572,-7.3928,5.163169,6.8406343,2.5877237,-2.630055,-1.3701975,1.5647054
-21.401962,62.826733,12.729253,23.05761,1.6817694,0.7842233,-0.06337966,-0.59707046,-0.67304766,-0.686101,0.77872586,-0.6970016,0.5050259,0.5725387,0.2537093,-0.94547486,-2.1951263,-1.0918342,1.9261152,1.9026308,-0.7985151,0.30315718,-0.89025503,-2.1376398,-1.1557317,1.9860287,1.8567078,-0.8526199,-1.0406597,-1.2008661,-1.1129134,1.4014896,-0.9843985,0.45306808,0.3190255,-0.41243744,-0.42402267,0.7592544,-1.2208543,0.19047779,-0.5400855,-0.36872864,-0.46041107,0.691927,0.9518155,0.043801688,0.21957892,0.20955606,-1.2455881,0.41306534,-0.56955975,0.0,1.0,0.0,0.0,0.0,0.0,0.0,-0.23756254,0.024022669,-0.20925438,-5.9039354,3.058052,-0.21176338,1.5804529,-2.3593187,-1.9086242,1.6584158
-19.73531,53.551067,9.182042,19.099165,1.3623397,0.49855456,0.016750447,-0.603251,-0.67349225,-0.7089767,0.77399915,-0.7079507,0.48759657,0.600652,0.24283208,-0.9576043,-2.2085373,-1.0783317,1.9152336,1.9054675,-0.7925547,0.2924522,-0.9021588,-2.1491258,-1.141705,1.976059,1.8611023,-0.8492906,-1.0803303,-1.1876448,-1.1598247,1.4039601,-1.0022486,0.43440545,0.33729056,-0.42463684,-0.42211914,0.75310546,-1.2196337,0.19028735,-0.6398247,-0.38127136,-0.4560566,0.6861321,0.9531121,0.048826706,0.22189708,0.1998873,-1.2511941,0.45117077,-0.58674026,0.0,1.0,0.0,0.0,0.0,0.0,0.0,-0.22536314,0.022119135,-0.20310545,-3.9233208,1.0960579,-4.4535875,0.47106743,-2.1209002,-1.9791245,1.7264962
-4.058726,55.45873,13.567267,13.866814,0.75454813,0.2830066,0.2158438,-0.5581516,-0.66104734,-0.691882,0.7706458,-0.6953027,0.5302363,0.62624776,0.23663703,-0.9682635,-2.218314,-1.0646404,1.9065287,1.9141259,-0.78666586,0.28172144,-0.913971,-2.1610277,-1.1277165,1.9659882,1.8653576,-0.8457792,-1.0709431,-1.1797712,-1.1991956,1.3972723,-1.0100223,0.4221827,0.3553619,-0.4368248,-0.4202175,0.7459598,-1.2184143,0.19009711,-0.7394642,-0.3936882,-0.4514656,0.68014795,0.95422596,0.054362494,0.22423534,0.1903048,-1.2328532,0.47137165,-0.60617787,0.0,1.0,0.0,0.0,0.0,0.0,0.0,-0.21317518,0.020217508,-0.1959598,0.8548975,0.5940199,-3.573966,-0.58341026,-1.1739016,-1.3541043,1.676017
-0.57232666,50.01912,12.648737,11.098175,0.6425931,0.12801576,0.26881126,-0.5647386,-0.6859029,-0.7040525,0.7657009,-0.6856943,0.4831198,0.6103226,0.22524759,-0.9825613,-2.231433,-1.0511465,1.8974187,1.9136696,-0.78474694,0.27117,-0.92586714,-2.173288,-1.113833,1.9559078,1.8694756,-0.8421161,-1.0502019,-1.1935223,-1.2335579,1.3856814,-1.0085472,0.4076356,0.3695971,-0.4489975,-0.4183178,0.73781854,-1.2171961,0.18990704,-0.8390041,-0.40592957,-0.44672012,0.67389256,0.9551632,0.06035111,0.22645113,0.1809446,-1.2153324,0.48382568,-0.6355833,0.0,1.0,0.0,0.0,0.0,0.0,0.0,-0.20100248,0.018317789,-0.18781853,1.9770622,-1.5431166,-3.0804634,-1.0746002,-0.2220869,-1.6078472,1.3229847
16.816286,55.420685,18.639446,6.94273,0.09351611,-0.066182435,0.44041896,-0.48690343,-0.6773702,-0.6981948,0.7638941,-0.67725354,0.49848047,0.62906384,0.22247964,-0.9936042,-2.2431076,-1.0374435,1.8881825,1.9193237,-0.77920973,0.26119074,-0.9378844,-2.185747,-1.1000733,1.9458847,1.8734715,-0.83831763,-0.9812403,-1.2048609,-1.2482173,1.3726792,-1.0017731,0.3964956,0.3827156,-0.46116257,-0.41641998,0.72868264,-1.2159791,0.18971717,-0.93844444,-0.41780472,-0.44199944,0.6673883,0.9559019,0.06664836,0.22850111,0.17203672,-1.1715367,0.4764069,-0.6587565,0.0,1.0,0.0,0.0,0.0,0.0,0.0,-0.18883741,0.016419977,-0.17868263,6.666398,-1.273346,-0.961709,-1.3775826,0.2168417,-1.2761354,1.1706173
29.564285,57.376522,23.059786,4.246907,-0.009595275,-0.1963191,0.51771253,-0.43028235,-0.70813906,-0.6400284,0.77081984,-0.63029367,0.48520744,0.6088429,0.2181625,-1.0086983,-2.2497497,-1.0229913,1.8828553,1.9219923,-0.77743334,0.25212422,-0.95013624,-2.1980312,-1.0864228,1.936124,1.8773438,-0.8343939,-0.882411,-1.2323741,-1.2219406,1.3603693,-0.9649409,0.38318795,0.39633593,-0.47305298,-0.41382027,0.7211607,-1.1582276,0.30584392,-0.5775461,-0.42914963,-0.43746567,0.66069305,0.9564636,0.07297881,0.23026182,0.1638017,-1.1165897,0.45354107,-0.6773425,0.0,1.0,0.0,0.0,0.0,0.0,0.0,-0.176947,0.013820261,-0.1711607,9.43706,-2.8509378,3.890562,-0.82407,3.306508,-0.89580417,0.98116994
16.87649,64.26993,21.911213,10.257763,0.5886282,0.13141197,0.35462666,-0.47799525,-0.6802397,-0.62651193,0.7681203,-0.66979736,0.43419698,0.6246668,0.20432469,-1.0181602,-2.2606823,-1.0096108,1.8691442,1.9207635,-0.77192724,0.24366882,-0.9625016,-2.2099059,-1.0728424,1.926654,1.8811046,-0.8303477,-0.83404446,-1.2385073,-1.1740377,1.3570153,-0.94266504,0.37309372,0.40703908,-0.4839859,-0.41111565,0.7151081,-1.070365,0.25742134,-0.61343455,-0.44003677,-0.43300056,0.6539419,0.95688397,0.07922928,0.23178457,0.15611434,-1.0733755,0.4515684,-0.677812,0.0,1.0,0.0,0.0,0.0,0.0,0.0,-0.16601408,0.01111564,-0.16510808,4.595387,-0.7739544,5.39546,-0.42140484,1.6552091,-1.1937737,0.955528
24.59135,76.13054,28.064552,11.653858,0.82108825,0.30897173,0.34463662,-0.4178254,-0.67172766,-0.5185082,0.7704523,-0.61458266,0.47900677,0.6158944,0.20188628,-1.0296743,-2.2617567,-0.99579716,1.8651958,1.9290053,-0.7687583,0.23573658,-0.9748278,-2.2208383,-1.0592635,1.917502,1.8848034,-0.82621557,-0.7806272,-1.2312067,-1.0635918,1.3574955,-0.90923375,0.36788505,0.4148934,-0.49409866,-0.40880203,0.708937,-0.9960513,0.22837,-0.6120956,-0.45038223,-0.42856026,0.6473765,0.957184,0.085098475,0.233161,0.14897238,-1.0152552,0.44764256,-0.6527937,0.0,1.0,0.0,0.0,0.0,0.0,0.0,-0.15590131,0.0088020265,-0.15893698,5.0328255,0.55925846,11.82301,-0.14419556,2.3218513,-0.83138347,0.6594837
22.647558,74.865265,27.46249,12.34211,1.129759,0.3347758,0.2807756,-0.4073913,-0.69807523,-0.44352707,0.7656889,-0.5806719,0.43394822,0.5879443,0.19499744,-1.0446353,-2.265191,-0.98269457,1.8594348,1.9281982,-0.7674211,0.22822896,-0.9871741,-2.2304204,-1.0456825,1.9086905,1.8884139,-0.82203865,-0.74171865,-1.2363688,-0.9206431,1.3578281,-0.87395066,0.3582906,0.41849166,-0.5036659,-0.40659523,0.70287645,-0.94208807,0.21768953,-0.6019018,-0.46018982,-0.42414665,0.6410777,0.9574143,0.090392955,0.23435,0.14236236,-0.9636153,0.4453892,-0.6253994,0.0,1.0,0.0,0.0,0.0,0.0,0.0,-0.14633405,0.006595224,-0.15287644,3.6153913,-0.6815672,15.036702,-0.09586811,2.8089404,-1.1358261,0.29345155
23.513876,73.702126,27.762234,11.753165,1.3745372,0.35105816,0.25745684,-0.3972089,-0.7164469,-0.3196038,0.744709,-0.51865077,0.37560862,0.5598893,0.18850806,-1.0588188,-2.2623808,-0.9712117,1.8568254,1.9259747,-0.76604974,0.22102179,-0.9996682,-2.23824,-1.0321937,1.9003485,1.8918902,-0.81785315,-0.7145319,-1.2542702,-0.7333335,1.3453885,-0.8232693,0.34352624,0.41854188,-0.5126991,-0.40449905,0.69690865,-0.8897152,0.20648763,-0.59345293,-0.4695053,-0.4197445,0.63507205,0.9576514,0.0949101,0.23520835,0.1362819,-0.9146419,0.443341,-0.5954233,0.0,1.0,0.0,0.0,0.0,0.0,0.0,-0.13730085,0.004499048,-0.14690864,2.4674773,-1.945138,19.460678,-1.3478041,4.334545,-1.6376495,-0.010216236
19.833092,76.42868,28.509727,13.723325,2.016341,0.55329996,0.15427917,-0.42043248,-0.7264423,-0.14175272,0.7269493,-0.41937312,0.3346286,0.5417992,0.17897853,-1.0723124,-2.2524152,-0.95949876,1.8584112,1.925353,-0.76367325,0.21386907,-1.0123825,-2.2437062,-1.0189127,1.8927354,1.8951944,-0.81368107,-0.71618575,-1.2777191,-0.4825319,1.3221663,-0.7429637,0.32558498,0.41691753,-0.52122116,-0.40249634,0.6910542,-0.8385313,0.19788423,-0.58072203,-0.47836685,-0.4152813,0.62946296,0.9579989,0.09833218,0.23556232,0.13068768,-0.8726439,0.45205268,-0.5525556,0.0,1.0,0.0,0.0,0.0,0.0,0.0,-0.12877882,0.002496332,-0.14105421,-0.36321878,-2.5008202,25.779987,-2.3830414,7.283044,-1.9294381,-0.11213422
49.05716,98.40507,44.621864,11.60633,2.220697,0.80424273,0.2704506,-0.3538114,-0.7314683,0.28709146,0.70791215,-0.338492,0.33238444,0.5055734,0.17848793,-1.0855293,-2.214997,-0.9481214,1.8588861,1.9284328,-0.76312375,0.20692869,-1.0253162,-2.2451174,-1.0059426,1.8860917,1.8983339,-0.80954605,-0.68769455,-1.2993982,-0.023449775,1.2880067,-0.6418888,0.30962202,0.41255334,-0.52897644,-0.400671,0.68573636,-0.7540682,0.17725621,-0.514346,-0.48648834,-0.41086197,0.62468296,0.9585577,0.09974085,0.23531136,0.12588617,-0.7870679,0.44242346,-0.45607468,0.0,1.0,0.0,0.0,0.0,0.0,0.0,-0.121023536,0.0006709993,-0.13573635,2.5387168,-2.3526192,46.973312,-3.6309958,8.9704275,-1.6983092,-0.37984252
50.658726,89.356476,42.417675,7.964939,2.7396948,0.53225553,0.1836099,-0.35352105,-0.76939666,0.42789927,0.619128,0.030421017,0.16305,0.4064465,0.17157657,-1.102256,-2.2023275,-0.9440298,1.8891338,1.9146389,-0.7689014,0.20026515,-1.0385876,-2.2418978,-0.9936671,1.8814019,1.9012026,-0.80552906,-0.6599144,-1.3371259,0.44003963,1.2069038,-0.41483086,0.27899826,0.39841753,-0.53598404,-0.3990364,0.6809526,-0.6835611,0.15872315,-0.4667404,-0.4938774,-0.40654373,0.6207956,0.9595232,0.09859664,0.23394041,0.12192498,-0.7197498,0.4315872,-0.36930525,0.0,1.0,0.0,0.0,0.0,0.0,0.0,-0.11401594,-0.0009635985,-0.1309526,2.576387,-3.9649963,47.240715,-8.226609,21.69485,-3.1529188,-1.294297
30.012838,73.718636,30.948095,8.947558,3.1745646,0.24729222,-0.005957689,-0.38367057,-0.7742614,0.42989197,0.555847,0.31118992,0.04652627,0.4208303,0.16189809,-1.1160138,-2.1989086,-0.93808246,1.9125209,1.9058552,-0.76344603,0.1936896,-1.0522003,-2.2351124,-0.98240715,1.8796078,1.9036955,-0.80164367,-0.6568955,-1.3698331,0.7595425,1.0992473,-0.10311572,0.23934855,0.38559768,-0.5424957,-0.39751244,0.6763573,-0.6414769,0.15051274,-0.45871612,-0.5009041,-0.40221214,0.6175164,0.96100974,0.09515958,0.23101406,0.11847917,-0.69504154,0.4380643,-0.3170633,0.0,1.0,0.0,0.0,0.0,0.0,0.0,-0.10750425,-0.00248757,-0.12635732,0.26375055,-3.425765,32.390118,-10.727119,30.603054,-3.9836674,-1.1446297
31.16764,57.994488,22.775507,3.0097039,2.0906444,-0.60386527,0.12254208,-0.2838059,-0.7622597,0.33008972,0.48378038,0.52896315,-0.16872665,0.50421506,0.16530901,-1.1284263,-2.2021034,-0.9340291,1.932504,1.8868228,-0.75122213,0.18753684,-1.0659924,-2.226817,-0.972372,1.8811684,1.905666,-0.7978218,-0.60165405,-1.3829912,0.85404134,0.97195095,0.24118549,0.18299244,0.381279,-0.5486984,-0.3961029,0.6715885,-0.6148218,0.13827422,-0.48589933,-0.50777054,-0.397995,0.61438626,0.9629567,0.0902605,0.22638601,0.115398124,-0.6826364,0.42069697,-0.31479022,0.0,1.0,0.0,0.0,0.0,0.0,0.0,-0.10130155,-0.0038971007,-0.12158847,5.445993,-1.4492035,9.748972,-12.631023,34.103992,-5.6258173,-0.346601
26.693634,50.55557,17.259676,1.7249472,1.3340958,-0.9761406,0.18586946,-0.25885987,-0.7625291,0.3334909,0.43308017,0.60032445,-0.3185723,0.52905846,0.16165085,-1.1422453,-2.1934679,-0.929064,1.9412009,1.8738087,-0.74491596,0.18203025,-1.0798264,-2.2185013,-0.9635775,1.885781,1.9070033,-0.7940134,-0.53393865,-1.3841408,0.82510847,0.84924597,0.53363556,0.11756778,0.38086858,-0.55467606,-0.3948288,0.6664401,-0.59458804,0.12432089,-0.5292522,-0.51454544,-0.3940239,0.6110649,0.96522236,0.08468904,0.22021034,0.11260933,-0.67631906,0.39329374,-0.3410947,0.0,1.0,0.0,0.0,0.0,0.0,0.0,-0.09532392,-0.0051712096,-0.11644012,6.6942096,-0.22602081,-2.7075171,-12.121868,29.08346,-6.496701,0.043141842
38.391693,59.36233,21.598127,1.0533981,0.59621066,-1.1132393,0.29343054,-0.17841108,-0.74982613,0.41376522,0.4216228,0.61051893,-0.3434248,0.53805274,0.16418913,-1.154809,-2.1771247,-0.9214152,1.9468329,1.8726608,-0.7402081,0.17746603,-1.0935688,-2.210495,-0.95574343,1.8926618,1.9077239,-0.79019594,-0.43091986,-1.3712891,0.79379165,0.7620445,0.73850393,0.057229172,0.38212588,-0.56033325,-0.39375877,0.66103435,-0.5584608,0.10198511,-0.5491175,-0.52111053,-0.39047813,0.6075487,0.9676379,0.078754924,0.21291026,0.11019841,-0.64868134,0.3460443,-0.3584057,0.0,1.0,0.0,0.0,0.0,0.0,0.0,-0.089666724,-0.006241232,-0.11103433,10.202098,1.150775,-2.8321743,-8.565033,20.28594,-5.9595118,0.17588139
24.048555,57.578915,17.689056,4.030748,0.58780205,-0.8764713,0.26953995,-0.21778314,-0.75036305,0.41110295,0.33740962,0.63853455,-0.404865,0.54177356,0.15568772,-1.1686051,-2.1693847,-0.9220025,1.9565153,1.8672374,-0.7360186,0.17358132,-1.107172,-2.2028255,-0.94884807,1.9010344,1.9078605,-0.7863598,-0.37442818,-1.3569895,0.75839275,0.66597706,0.8695842,-0.00051011227,0.38435683,-0.5656624,-0.39286995,0.6553926,-0.5271657,0.085101515,-0.57447994,-0.52744675,-0.38728714,0.60380256,0.9700954,0.07272429,0.20477545,0.10813394,-0.62914044,0.31411937,-0.38358897,0.0,1.0,0.0,0.0,0.0,0.0,0.0,-0.08433759,-0.0071300566,-0.105392575,5.6206584,1.3276815,-3.433597,-9.427786,13.063299,-5.66602,0.31031966
32.137714,62.199436,20.94925,1.808067,0.107871376,-0.77856064,0.41638142,-0.16083658,-0.7427118,0.4708324,0.25715256,0.6614101,-0.3989881,0.5446074,0.15749766,-1.1814432,-2.1557424,-0.92313284,1.9671754,1.8679618,-0.731899,0.1702814,-1.1206207,-2.195152,-0.94303966,1.9103203,1.9074866,-0.7824995,-0.31529626,-1.3412343,0.7709821,0.55309004,0.94761056,-0.04908826,0.38673127,-0.57061005,-0.39217758,0.64959913,-0.48648173,0.064489156,-0.586332,-0.53347015,-0.3844757,0.59984875,0.97252035,0.06661317,0.19598553,0.106567025,-0.5915717,0.27322957,-0.40295556,0.0,1.0,0.0,0.0,0.0,0.0,0.0,-0.07938993,-0.007822424,-0.09959912,5.8856306,1.4600039,1.3968945,-11.124349,7.743919,-4.7276893,0.30947328
31.210995,62.564274,21.232939,1.0997188,-0.018001884,-0.5744643,0.475786,-0.15504351,-0.7430085,0.51480067,0.1662399,0.6836041,-0.35257623,0.5192487,0.15477705,-1.1949216,-2.143672,-0.9264157,1.9786807,1.872229,-0.7305746,0.16742311,-1.1339493,-2.1870627,-0.9385389,1.9201423,1.9067212,-0.77863485,-0.27597713,-1.3304696,0.82197064,0.41632816,0.99333084,-0.08495756,0.3865409,-0.5751419,-0.39167976,0.64370644,-0.44478804,0.045325108,-0.59597045,-0.5390625,-0.38204956,0.59569895,0.9748718,0.06033683,0.18661907,0.10563011,-0.5489801,0.23597592,-0.422524,0.0,1.0,0.0,0.0,0.0,0.0,0.0,-0.07485807,-0.008320242,-0.09370643,3.939134,0.96759796,5.156839,-13.5039625,4.5734167,-3.4327328,0.07363558
19.70085,47.062298,13.875851,-5.0799785,-0.6274408,-0.29757065,0.7686709,-0.24584876,-0.73495966,0.49272522,-0.15495463,0.70741373,-0.41130835,0.5335253,0.14283824,-1.2074453,-2.1377902,-0.9540344,1.9908837,1.8655905,-0.7252823,0.1643803,-1.1471729,-2.1785722,-0.93662155,1.9302909,1.9056088,-0.7747627,-0.31356406,-1.319982,0.8574525,0.11752375,1.0221618,-0.11925599,0.38786256,-0.5793495,-0.39133644,0.6374088,-0.41508326,0.031246098,-0.6456187,-0.54421616,-0.3799057,0.5910431,0.9771372,0.054154206,0.1764138,0.10558585,-0.5038606,0.20941848,-0.4834838,0.0,1.0,0.0,0.0,0.0,0.0,0.0,-0.07065046,-0.008663565,-0.08740878,-3.7133217,0.95317364,3.3376455,-29.6956,3.0296564,-3.2468126,0.30252337
