Afshin1997/kuka_rl_ros2/src/catch_and_throw/input_files/idealpd/polynomial_regressor/optimizer_files/env_315_data.csv
torque0,torque1,torque2,torque3,torque4,torque5,torque6,action0,action1,action2,action3,action4,action5,action6,set_target_0,set_target_1,set_target_2,set_target_3,set_target_4,set_target_5,set_target_6,joint_pos_0,joint_pos_1,joint_pos_2,joint_pos_3,joint_pos_4,joint_pos_5,joint_pos_6,joint_vel_0,joint_vel_1,joint_vel_2,joint_vel_3,joint_vel_4,joint_vel_5,joint_vel_6,tennisball_pos_0,tennisball_pos_1,tennisball_pos_2,tennisball_lin_vel_0,tennisball_lin_vel_1,tennisball_lin_vel_2,end_effector_pos_0,end_effector_pos_1,end_effector_pos_2,end_effector_rot_0,end_effector_rot_1,end_effector_rot_2,end_effector_rot_3,end_effector_lin_vel_0,end_effector_lin_vel_1,end_effector_lin_vel_2,obs_task_0,obs_task_1,obs_task_2,obs_task_3,obs_task_4,obs_task_5,obs_task_6,to_final_target_0,to_final_target_1,to_final_target_2,joint_acc_0,joint_acc_1,joint_acc_2,joint_acc_3,joint_acc_4,joint_acc_5,joint_acc_6
0.0,0.0,0.0,0.0,0.0,0.0,0.0,0.0,0.0,0.0,0.0,0.0,0.0,0.0,1.7802359,-1.0646509,-1.8151424,-1.1170107,1.9373155,1.1170107,-0.91629785,1.7802359,-1.0646509,-1.8151424,-1.1170107,1.9373155,1.1170107,-0.91629785,0.0,0.0,0.0,0.0,0.0,0.0,0.0,2.9071789,-0.37042618,0.2017285,-3.3334851,-0.014167914,5.0950084,0.5304146,-0.45449638,0.693097,0.5745483,0.17512383,0.15255436,0.7848268,0.0,0.0,0.0,1.0,0.0,0.0,0.0,0.0,0.0,0.0,-3.557179,-0.029573828,0.34827152,0.0,0.0,0.0,0.0,0.0,0.0,0.0
0.0,0.0,0.0,0.0,0.0,0.0,0.0,0.0,0.0,0.0,0.0,0.0,0.0,0.0,1.7802359,-1.0646509,-1.8151424,-1.1170107,1.9373155,1.1170107,-0.91629785,1.7802359,-1.0646509,-1.8151424,-1.1170107,1.9373155,1.1170107,-0.91629785,0.0,0.0,0.0,0.0,0.0,0.0,0.0,2.9071789,-0.37042618,0.2017285,-3.3334851,-0.014167914,5.0950084,0.5304146,-0.45449638,0.693097,0.5745483,0.17512383,0.15255436,0.7848268,0.0,0.0,0.0,1.0,0.0,0.0,0.0,0.0,0.0,0.0,-3.557179,-0.029573828,0.34827152,0.0,0.0,0.0,0.0,0.0,0.0,0.0
0.0,0.0,0.0,0.0,0.0,0.0,0.0,0.0,0.0,0.0,0.0,0.0,0.0,0.0,1.7802359,-1.0646509,-1.8151424,-1.1170107,1.9373155,1.1170107,-0.91629785,1.7802359,-1.0646509,-1.8151424,-1.1170107,1.9373155,1.1170107,-0.91629785,0.0,0.0,0.0,0.0,0.0,0.0,0.0,2.9071789,-0.37042618,0.2017285,-3.3334851,-0.014167914,5.0950084,0.5304146,-0.45449638,0.693097,0.5745483,0.17512383,0.15255436,0.7848268,0.0,0.0,0.0,1.0,0.0,0.0,0.0,0.0,0.0,0.0,-3.557179,-0.029573828,0.34827152,0.0,0.0,0.0,0.0,0.0,0.0,0.0
-176.0,72.210335,-5.2222996,110.0,11.162187,4.9009113,-3.8049674,-0.8294558,0.379513,-0.5640482,0.7246201,0.37752205,0.6172161,-0.56919754,1.6972903,-1.0266995,-1.8715472,-1.0445487,1.9750676,1.1787323,-0.9732176,1.778752,-1.0620226,-1.8213413,-1.1125151,1.9425664,1.1220652,-0.9177417,-0.19745386,0.34982935,-0.82579505,0.5997594,0.69928217,0.6718089,-0.19213314,2.873869,-0.37056732,0.25190392,-3.3301523,-0.014153749,4.9917283,0.5282917,-0.45765114,0.6938864,0.578315,0.17381302,0.15126789,0.7825975,-0.28290543,-0.42105958,0.105081566,1.0,0.0,0.0,0.0,0.0,0.0,0.0,-3.523869,-0.029432684,0.2980961,-19.685738,34.760326,-82.361374,60.04076,69.65274,66.57235,-19.093552
-176.0,-19.60677,-41.043705,110.0,12.931239,1.9220755,-3.228506,-0.8154281,-0.09074068,-0.5689049,0.69717133,0.4893968,0.6167375,-0.6051856,1.6972091,-1.0710967,-1.8782318,-1.0427979,1.9915061,1.183739,-0.9782603,1.7767779,-1.0584234,-1.8365066,-1.0993639,1.9536633,1.1348902,-0.9190759,-0.2017964,0.34849933,-1.7104235,1.5530673,1.2268652,1.4458061,-0.123170815,2.8405933,-0.37070847,0.30104733,-3.3268228,-0.014139598,4.888551,0.52352905,-0.46588326,0.6948507,0.586691,0.170647,0.14760804,0.7777435,-0.54083586,-0.9549059,0.09741462,1.0,0.0,0.0,0.0,0.0,0.0,0.0,-3.4905934,-0.02929154,0.24895269,-1.7776281,-4.4983625,-77.53892,95.12594,46.87768,65.32211,4.088308
-155.32127,101.061554,25.515484,90.22318,8.402219,7.3717203,-1.8801908,-0.77538174,0.30799758,-0.058129236,0.5724472,0.51357055,0.6566119,-0.567892,1.6992397,-1.0276237,-1.8423195,-1.0421193,2.0050204,1.2005514,-0.9758651,1.7715136,-1.0542349,-1.8521602,-1.0823122,1.9662957,1.149201,-0.9205951,-0.6349304,0.43918443,-1.5105107,1.757169,1.2705294,1.4191688,-0.16284655,2.8073502,-0.3708496,0.34915972,-3.3234966,-0.014125462,4.785477,0.5159321,-0.47701645,0.69723856,0.5979342,0.16617668,0.14260793,0.7710532,-0.84071815,-1.159508,0.2904165,1.0,0.0,0.0,0.0,0.0,0.0,0.0,-3.4573503,-0.029150397,0.2008403,-43.355827,8.091074,21.902847,20.78271,2.9082537,-4.7905684,-4.3768463
-97.521515,119.9186,43.900074,58.70733,4.892982,8.127593,-0.5243797,-0.7869127,0.25282425,0.0443274,0.5939655,0.49919525,0.6323023,-0.5848218,1.6928223,-1.0289525,-1.8477274,-1.0229157,2.0162153,1.2124313,-0.9790773,1.761973,-1.049642,-1.8629558,-1.0654055,1.9780889,1.1624514,-0.9225511,-1.0616648,0.4634752,-0.9280825,1.668833,1.143791,1.2892356,-0.20902173,2.7741394,-0.37099075,0.39624214,-3.3201737,-0.014111339,4.682506,0.505785,-0.48885345,0.70158416,0.610222,0.16040768,0.13675486,0.7636731,-1.0844384,-1.1803665,0.48779815,1.0,0.0,0.0,0.0,0.0,0.0,0.0,-3.4241395,-0.029009253,0.15375787,-43.07109,1.6579092,60.620987,-8.754444,-14.227533,-14.326,-5.381343
-40.724766,130.79558,51.57821,31.223162,1.6362387,7.147913,0.22191207,-0.8022786,0.3406815,0.022230623,0.5670958,0.5567822,0.62030333,-0.57413673,1.6817452,-1.0155739,-1.8607328,-1.008696,2.033767,1.2244817,-0.9799648,1.7489535,-1.044536,-1.8679245,-1.0505453,1.9884877,1.174275,-0.92494196,-1.3836695,0.5244204,-0.346585,1.4245491,1.0017395,1.1448936,-0.25181264,2.740963,-0.3711319,0.44229564,-3.3168542,-0.0140972305,4.579638,0.49386787,-0.49997902,0.70766723,0.62236726,0.1534844,0.13044606,0.7563632,-1.2398407,-1.0772483,0.6515608,1.0,0.0,0.0,0.0,0.0,0.0,0.0,-3.390963,-0.028868109,0.10770437,-32.681202,5.558884,60.111515,-24.612926,-15.293837,-15.006757,-5.0801306
-0.69247705,130.99109,51.06929,14.843219,-0.41788602,5.4780655,0.3874106,-0.81717026,0.43764418,0.017976077,0.5645924,0.58335227,0.6025235,-0.5746213,1.6672364,-1.0007715,-1.8661269,-0.9940861,2.046823,1.2345273,-0.9824041,1.733769,-1.038463,-1.8684032,-1.0381037,1.9977498,1.1847769,-0.9277105,-1.5646391,0.63348633,0.055937566,1.1831692,0.8990068,1.0181776,-0.28741595,2.707819,-0.37127304,0.48732123,-3.313538,-0.014083136,4.476873,0.4809971,-0.5097103,0.7151157,0.6338998,0.14571202,0.1242007,0.74934185,-1.3140746,-0.92493993,0.77646154,1.0,0.0,0.0,0.0,0.0,0.0,0.0,-3.357819,-0.028726965,0.062678784,-18.511272,10.536623,41.590004,-24.383688,-10.8433485,-12.788081,-4.247981
23.913908,129.47801,48.817196,6.726823,-1.5369923,4.0723495,0.313223,-0.8233697,0.53057396,0.04750542,0.5486854,0.600704,0.6004063,-0.5764379,1.651432,-0.9854056,-1.8636527,-0.9832352,2.0578203,1.2448175,-0.98535424,1.7176634,-1.0309957,-1.8662708,-1.0276133,2.0063443,1.1941687,-0.9307851,-1.6269693,0.78369266,0.2686839,1.0037043,0.8454267,0.913336,-0.3161086,2.6747074,-0.37141418,0.5313199,-3.3102252,-0.014069056,4.374211,0.46779823,-0.5178318,0.723632,0.64476496,0.13735561,0.118449524,0.74255043,-1.3306681,-0.760171,0.8759584,1.0,0.0,0.0,0.0,0.0,0.0,0.0,-3.3247075,-0.028585821,0.018680096,-6.5730095,14.751589,22.186508,-18.170094,-5.612755,-10.3894,-3.4515321
33.049316,121.182076,43.756107,4.145005,-1.8277962,2.9395878,0.16347997,-0.82813257,0.59826416,0.06861721,0.5291138,0.6163283,0.604317,-0.58266675,1.6348501,-0.9711693,-1.8594091,-0.9747019,2.0679772,1.2546004,-0.9890518,1.7014834,-1.0219587,-1.8631046,-1.0183703,2.0146985,1.2026564,-0.93410677,-1.6157534,0.94311833,0.33464175,0.8970812,0.83153063,0.82791996,-0.33908272,2.6416302,-0.37155533,0.5742928,-3.3069158,-0.014054989,4.2716513,0.4546528,-0.5244236,0.7329687,0.6550884,0.12862943,0.11341992,0.7358326,-1.3159353,-0.61072826,0.95133406,1.0,0.0,0.0,0.0,0.0,0.0,0.0,-3.2916303,-0.028444678,-0.024292767,0.85668564,15.749216,7.225066,-10.843611,-1.4865518,-8.393645,-2.7689695
35.61509,112.48915,39.576088,3.8148155,-1.7422855,2.2671008,0.08127785,-0.81767076,0.6540386,0.10458098,0.51246995,0.61787826,0.6183735,-0.5756454,1.6197163,-0.95655483,-1.8526465,-0.96712327,2.0764863,1.2644937,-0.9916713,1.6857096,-1.0114282,-1.859803,-1.0097605,2.0230603,1.2104174,-0.9376182,-1.5651821,1.0890759,0.33019575,0.84856486,0.83764863,0.7592631,-0.35641643,2.6085854,-0.37169647,0.6162408,-3.3036096,-0.014040938,4.169194,0.44175148,-0.5296593,0.74294984,0.6649919,0.11964783,0.109141044,0.72908056,-1.2876998,-0.47975078,1.0116006,1.0,0.0,0.0,0.0,0.0,0.0,0.0,-3.2585855,-0.028303534,-0.06624079,4.8495293,14.4498825,0.03543496,-5.0112724,0.5821109,-6.736207,-2.1357954
31.319035,99.346535,34.086113,4.5785413,-1.3301027,1.7730734,0.061635744,-0.81417614,0.6855839,0.12651633,0.49129352,0.6366978,0.6247094,-0.5668286,1.604292,-0.94286984,-1.8471513,-0.96063113,2.08673,1.2728883,-0.9943011,1.6704794,-0.99970186,-1.8567188,-1.0014063,2.03159,1.217589,-0.94126695,-1.5093993,1.2001846,0.30233148,0.8304702,0.8583892,0.703524,-0.36885783,2.575573,-0.37183762,0.657165,-3.3003068,-0.014026899,4.0668397,0.42910767,-0.5337696,0.75339115,0.6745525,0.110508606,0.10546889,0.72224855,-1.2598825,-0.37380028,1.052697,1.0,0.0,0.0,0.0,0.0,0.0,0.0,-3.225573,-0.02816239,-0.10716498,5.4131746,11.002994,-2.4017096,-1.9691586,2.0782828,-5.4813385,-1.588434
24.905993,84.64065,28.280643,4.9216423,-0.9104638,1.3752018,0.08913663,-0.8139988,0.7014477,0.13874258,0.45951685,0.64940333,0.6274478,-0.5678853,1.5890795,-0.9295571,-1.8428445,-0.95545465,2.0965304,1.2803338,-0.99805546,1.6557032,-0.9871801,-1.853894,-0.9932174,2.0403676,1.2242819,-0.94501966,-1.4675096,1.2692654,0.2768217,0.8144626,0.8842152,0.6581804,-0.37836003,2.542595,-0.37197876,0.6970664,-3.297007,-0.014012875,3.9645877,0.41670227,-0.53699875,0.7640758,0.6837931,0.10132464,0.10220791,0.7153417,-1.2370148,-0.29074904,1.0712516,1.0,0.0,0.0,0.0,0.0,0.0,0.0,-3.192595,-0.028021246,-0.14706641,4.0456295,6.8333626,-2.2217035,-1.7818213,2.6064873,-4.446733,-1.2534797
18.576973,74.56182,24.367521,6.2686357,-0.4969164,1.1955906,0.09627273,-0.80825,0.7166816,0.1492515,0.45499238,0.6549376,0.6372983,-0.5587869,1.5748782,-0.91551197,-1.8389689,-0.94771814,2.1058614,1.2880118,-1.0008984,1.6412321,-0.9742092,-1.8512199,-0.98514265,2.0493855,1.2305895,-0.9488439,-1.4409107,1.3062077,0.26520216,0.80448747,0.9077073,0.62191874,-0.38480118,2.5096493,-0.3721199,0.7359461,-3.2937107,-0.013998865,3.862438,0.4044609,-0.5395298,0.77485377,0.69273466,0.09214919,0.09918442,0.70837104,-1.2222743,-0.22565496,1.0773566,1.0,0.0,0.0,0.0,0.0,0.0,0.0,-3.1596494,-0.027880102,-0.1859461,2.530837,3.6394596,-0.8620739,-1.1870623,2.3872972,-3.5539865,-0.92238784
17.84719,67.79643,22.015104,4.6392555,-0.49762046,0.9994917,0.18872696,-0.80210346,0.7291613,0.16033855,0.40330437,0.6675412,0.63242346,-0.5622016,1.5610218,-0.90129304,-1.835186,-0.94481224,2.1161397,1.2938318,-1.005064,1.6269366,-0.96101797,-1.848542,-0.9773683,2.0586247,1.2365843,-0.9527244,-1.4264263,1.3232759,0.2696806,0.7677403,0.9293165,0.5923491,-0.390086,2.476736,-0.37226105,0.7738051,-3.2904177,-0.013984869,3.7603908,0.39237404,-0.54143906,0.78559136,0.7013232,0.083041385,0.0962969,0.70141053,-1.2054193,-0.16396709,1.0698143,1.0,0.0,0.0,0.0,0.0,0.0,0.0,-3.1267362,-0.027738959,-0.22380507,1.3127089,1.6685724,0.75627565,-3.8894176,2.2004485,-2.8371692,-0.80067515
20.039288,65.74633,21.64073,2.508688,-0.65636384,0.9123864,0.31026885,-0.7975277,0.7408136,0.18882073,0.34672913,0.6774691,0.6316515,-0.551542,1.5471838,-0.8869366,-1.8296599,-0.9426954,2.1263716,1.2997495,-1.0078785,1.6127249,-0.947719,-1.8456447,-0.9701976,2.0680585,1.2423254,-0.95664304,-1.4198643,1.3320054,0.2974842,0.69950616,0.9481611,0.5686394,-0.39335552,2.4438572,-0.3724022,0.8106443,-3.287128,-0.013970887,3.6584454,0.38049316,-0.54268646,0.796204,0.70945704,0.07403581,0.09349208,0.69458514,-1.1827074,-0.09762494,1.0555651,1.0,0.0,0.0,0.0,0.0,0.0,0.0,-3.0938573,-0.027597815,-0.26064432,0.5103588,0.84474087,3.1137466,-7.050514,1.9232154,-2.1972299,-0.6015241
20.289198,62.89037,20.28567,1.5361729,-0.7628717,0.721539,0.33060828,-0.7932516,0.74969196,0.17779207,0.30814973,0.68174607,0.6377051,-0.5391587,1.5333997,-0.8727498,-1.8278655,-0.9393827,2.136233,1.306096,-1.010559,1.5985533,-0.93434846,-1.8425224,-0.96381086,2.0776486,1.2478701,-0.9605779,-1.4167347,1.3387214,0.3179584,0.61764544,0.962713,0.5503577,-0.3944449,2.4110107,-0.37254333,0.8464649,-3.2838416,-0.013956919,3.5566018,0.3688736,-0.54328537,0.80661815,0.717097,0.065173075,0.09079339,0.6879541,-1.1547395,-0.033293974,1.0335393,1.0,0.0,0.0,0.0,0.0,0.0,0.0,-3.0610108,-0.027456671,-0.29646486,0.17075539,0.65824986,2.3505688,-8.416319,1.5133262,-1.6104698,-0.3637731
20.541002,60.314907,19.05037,0.5420418,-0.87415606,0.5315902,0.35076028,-0.79592496,0.7540748,0.18043901,0.24904267,0.68647134,0.6380029,-0.53256583,1.5189608,-0.85894096,-1.8244785,-0.9389066,2.1462958,1.3116704,-1.0138345,1.5843779,-0.92091787,-1.8392437,-0.95836157,2.087357,1.2532603,-0.9645147,-1.4181855,1.3445506,0.33211544,0.519957,0.97388166,0.5360775,-0.39417237,2.3781967,-0.37268448,0.8812678,-3.2805583,-0.013942965,3.4548602,0.35757065,-0.54325485,0.816759,0.7242341,0.05651031,0.08825204,0.68154466,-1.121342,0.029062215,1.0043174,1.0,0.0,0.0,0.0,0.0,0.0,0.0,-3.0281968,-0.027315527,-0.33126777,-0.2846241,0.5841732,1.689446,-10.000908,1.1924744,-1.1688352,-0.20602942
21.596645,59.739826,18.550419,0.0024580956,-1.0002146,0.37611538,0.34427273,-0.7896449,0.7644871,0.1753841,0.19946274,0.68595994,0.64404786,-0.5226251,1.5054134,-0.8444692,-1.8217052,-0.9384153,2.155953,1.3176651,-1.0167772,1.5702082,-0.9073976,-1.8359077,-0.9539146,2.0971417,1.2585341,-0.96843904,-1.4170082,1.3545157,0.33483344,0.4188004,0.980675,0.52542406,-0.39251983,2.345417,-0.37282562,0.91505396,-3.2772784,-0.013929025,3.3532202,0.34664154,-0.5425968,0.8265905,0.73087686,0.048077267,0.08593296,0.6753688,-1.0819575,0.0903775,0.9725955,1.0,0.0,0.0,0.0,0.0,0.0,0.0,-2.995417,-0.027174383,-0.36505395,-0.01142025,1.0110378,0.5052388,-10.339928,0.7757902,-0.7796645,-0.04709959
23.578896,58.7585,18.199142,-1.4139013,-1.162137,0.21316066,0.39113382,-0.7905482,0.76881355,0.18619244,0.12070618,0.69124734,0.64256674,-0.5152271,1.4911534,-0.8305163,-1.8172884,-0.941844,2.1662664,1.3227907,-1.0199617,1.556048,-0.8937725,-1.8325355,-0.9506025,2.1069875,1.2637182,-0.9723405,-1.4161912,1.3652207,0.3385795,0.30128297,0.9864161,0.5171785,-0.38997597,2.3126678,-0.37296295,0.9478246,-3.2740018,-0.013915099,3.2516818,0.33615685,-0.541317,0.836075,0.73700505,0.039911658,0.08387302,0.6694743,-1.0349693,0.1523947,0.93664604,1.0,0.0,0.0,0.0,0.0,0.0,0.0,-2.962668,-0.027037054,-0.3978246,-0.040483475,1.0990381,0.58252215,-11.971319,0.6846428,-0.50029755,0.059622526
28.503937,59.02838,18.613762,-4.248338,-1.4983565,0.03001076,0.4901734,-0.7833863,0.777247,0.20218234,0.022027273,0.6900052,0.64206654,-0.50960463,1.4777094,-0.8160478,-1.8123173,-0.9483997,2.175988,1.3279248,-1.023301,1.5419279,-0.88002336,-1.829068,-0.94866365,2.1168714,1.2688357,-0.9762134,-1.4109639,1.3782184,0.35005936,0.1572853,0.9896752,0.5111365,-0.38694537,2.279953,-0.37310028,0.9795806,-3.2707286,-0.013901187,3.150245,0.326231,-0.5393677,0.8451677,0.74255043,0.032058977,0.082109,0.6639647,-0.9745103,0.22028351,0.89617777,1.0,0.0,0.0,0.0,0.0,0.0,0.0,-2.929953,-0.026899725,-0.42958057,0.4138708,1.3444185,1.3299823,-14.608526,0.45126677,-0.21829605,0.123894215
37.079506,55.826927,18.13754,-11.0044985,-2.1438127,-0.38621086,0.718354,-0.78205514,0.77547616,0.22889847,-0.15554267,0.69459385,0.6340746,-0.50849617,1.4637225,-0.80247575,-1.8061781,-0.9642179,2.1863308,1.3322431,-1.027063,1.527865,-0.8661798,-1.8253696,-0.94869894,2.1267934,1.2739035,-0.9800567,-1.4050279,1.3866673,0.37672308,-0.05787066,0.9930803,0.50686234,-0.38390538,2.2472706,-0.3732376,1.0103229,-3.2674584,-0.013887289,3.0489094,0.31710243,-0.53666496,0.85371846,0.7473418,0.024670074,0.080684364,0.65906113,-0.8883612,0.29728508,0.83728147,1.0,0.0,0.0,0.0,0.0,0.0,0.0,-2.8972707,-0.026762396,-0.46032292,0.50559044,0.9126425,2.8237224,-21.714703,0.46747923,0.08870363,0.15383363
40.576706,57.240322,19.089914,-12.539447,-2.322474,-0.4869573,0.8035008,-0.77498776,0.7853534,0.2663224,-0.25690588,0.6945635,0.63709253,-0.49915764,1.4503663,-0.7876445,-1.7987374,-0.97438955,2.1962497,1.3376127,-1.0299724,1.5138861,-0.8522371,-1.8212593,-0.95099825,2.1367383,1.2789389,-0.9838638,-1.3956624,1.3971726,0.4225677,-0.28780264,0.99588466,0.5041516,-0.38003477,2.2146206,-0.37337494,1.0400527,-3.2641916,-0.013873405,2.9476755,0.30890274,-0.53315544,0.8616868,0.75128865,0.017791739,0.07960539,0.6549134,-0.7932307,0.37722406,0.7790366,1.0,0.0,0.0,0.0,0.0,0.0,0.0,-2.8646207,-0.026625067,-0.49005264,0.8897066,1.1406898,4.6547947,-23.142088,0.45529604,0.27616024,0.2767861
43.636166,56.594208,19.358845,-14.132431,-2.445898,-0.6589622,0.8806793,-0.76155216,0.784932,0.3050496,-0.38316396,0.6996918,0.6307799,-0.49332166,1.4377309,-0.7737439,-1.7907543,-0.9893146,2.2067075,1.3420169,-1.033196,1.5000521,-0.8382143,-1.8165767,-0.95566744,2.1467252,1.2839476,-0.98762983,-1.3793473,1.404341,0.48343816,-0.5270195,1.0001928,0.5018146,-0.37567505,2.182003,-0.37351227,1.0687709,-3.2609282,-0.013859534,2.8465426,0.3017006,-0.52884483,0.8690599,0.7543429,0.011444257,0.07883433,0.6516294,-0.6896361,0.45671543,0.7186696,1.0,0.0,0.0,0.0,0.0,0.0,0.0,-2.832003,-0.026487738,-0.5187709,1.6397953,0.830245,6.0475407,-24.018377,0.65778494,0.3430128,0.36882758
41.531647,60.153805,20.938074,-10.756324,-2.134694,-0.48603943,0.8331686,-0.74916506,0.79461366,0.36240494,-0.44779456,0.7011621,0.63171005,-0.46622112,1.4251356,-0.75875294,-1.7803363,-1.0004469,2.2168415,1.3471186,-1.0342519,1.4864203,-0.8240999,-1.8111312,-0.96243566,2.1567578,1.2889372,-0.99133486,-1.3578027,1.414343,0.5643541,-0.72685504,1.0054092,0.49967283,-0.36886606,2.1494179,-0.3736496,1.0964785,-3.2576678,-0.0138456775,2.7455108,0.29546928,-0.5237503,0.8759464,0.75654113,0.0055194325,0.078291595,0.6492191,-0.59526694,0.5328978,0.67350614,1.0,0.0,0.0,0.0,0.0,0.0,0.0,-2.799418,-0.026350409,-0.54647845,2.2048712,1.1390686,7.914388,-20.027805,0.8450508,0.32567382,0.65050125
37.20742,60.37025,21.181608,-6.8230658,-1.7063012,-0.3643763,0.7441671,-0.7372994,0.7920387,0.41544494,-0.50808805,0.7006481,0.62227786,-0.45200157,1.4126903,-0.74489605,-1.7695868,-1.0132445,2.2268226,1.351165,-1.036535,1.4730211,-0.80991685,-1.8047836,-0.9708614,2.1668363,1.2938982,-0.99496454,-1.3336532,1.4201231,0.65731543,-0.88119394,1.0099806,0.49655747,-0.36111555,2.1168652,-0.37378693,1.1231766,-3.2544107,-0.013831834,2.6445801,0.2900753,-0.51795197,0.8824696,0.7579755,-0.00010927145,0.077878565,0.64761716,-0.5138418,0.60057384,0.6396334,1.0,0.0,0.0,0.0,0.0,0.0,0.0,-2.7668653,-0.02621308,-0.57317656,2.4913788,0.73599815,9.011877,-15.455639,0.85458755,0.18666983,0.76533556
32.980217,62.436256,21.922354,-2.380126,-1.315227,-0.18950975,0.6280147,-0.7173598,0.8025814,0.45945874,-0.54197156,0.70193225,0.61792165,-0.41829777,1.4012852,-0.7296587,-1.7588377,-1.0250585,2.2370296,1.3556904,-1.0367943,1.4599062,-0.7956499,-1.7975032,-0.9804372,2.1769605,1.2988249,-0.9984979,-1.3039912,1.4295003,0.7501989,-0.98312944,1.0144475,0.49290076,-0.35080597,2.0843449,-0.37392426,1.1488662,-3.251157,-0.013818005,2.5437503,0.28539658,-0.51151466,0.88876563,0.75875485,-0.005581346,0.07753047,0.64672166,-0.44598103,0.66239834,0.620111,1.0,0.0,0.0,0.0,0.0,0.0,0.0,-2.734345,-0.02607575,-0.59886616,3.0549765,1.1168003,8.916569,-10.204649,0.9110451,0.094383955,1.0355055
23.983383,59.388714,20.222084,3.1619902,-0.7288043,-0.07805054,0.43852583,-0.71973366,0.80260634,0.4859767,-0.5539425,0.6976132,0.61142397,-0.37941408,1.3879329,-0.71538925,-1.7489055,-1.0358315,2.2467217,1.3599674,-1.0364393,1.4470125,-0.7813066,-1.7894065,-0.99065584,2.1871076,1.3037096,-1.0019075,-1.2842802,1.4365506,0.8280756,-1.0348514,1.0159539,0.48825145,-0.3377631,2.051859,-0.37406158,1.1735482,-3.2479067,-0.01380419,2.4430213,0.28123856,-0.5045738,0.89492524,0.75904566,-0.010989193,0.07722145,0.6463479,-0.39862466,0.70891255,0.6080784,1.0,0.0,0.0,0.0,0.0,0.0,0.0,-2.701859,-0.025938421,-0.6235482,2.0273685,0.8900404,7.416308,-5.215478,0.6204605,-0.079631805,1.3072014
17.020039,56.855236,18.854729,8.076235,-0.22692412,0.006870568,0.25823456,-0.7042669,0.8049839,0.5051573,-0.53187186,0.69558245,0.6119576,-0.34775028,1.3765858,-0.7008082,-1.7388908,-1.043843,2.2566657,1.3649054,-1.0366825,1.4343115,-0.76690423,-1.7806861,-1.0009879,2.1972508,1.3085486,-1.0051748,-1.265153,1.442219,0.8853754,-1.0329257,1.0153342,0.48355162,-0.32308462,2.0194035,-0.3741989,1.1972237,-3.2446594,-0.013790389,2.342393,0.27742767,-0.49726105,0.90102786,0.7590207,-0.016418751,0.076935045,0.64629626,-0.36825824,0.7421688,0.604233,1.0,0.0,0.0,0.0,0.0,0.0,0.0,-2.6694036,-0.025801092,-0.64722365,1.9385576,0.75867176,5.36716,0.10893345,0.40495396,-0.14329553,1.4584482
8.833748,51.064262,15.981663,11.965538,0.24089581,-0.00056505203,0.093408145,-0.71583396,0.803107,0.5108774,-0.5231819,0.6936823,0.6132138,-0.3082152,1.3627281,-0.68659353,-1.7295984,-1.0533061,2.266619,1.36987,-1.0359963,1.4216887,-0.75247324,-1.7715766,-1.0110949,2.207375,1.3133417,-1.0082799,-1.2615666,1.443961,0.9184197,-1.0035905,1.0128386,0.47885537,-0.3063433,1.9869823,-0.37433624,1.2198936,-3.2414155,-0.013776601,2.2418652,0.273798,-0.48974037,0.90708953,0.75883853,-0.021887172,0.076679476,0.6463785,-0.35381868,0.7594681,0.59984505,1.0,0.0,0.0,0.0,0.0,0.0,0.0,-2.6369824,-0.025663763,-0.66989356,0.32773018,0.35762787,3.0162334,2.798009,0.1698494,-0.21377802,1.6525626
5.8354,45.44817,13.512577,11.992828,0.3255772,-0.17166841,0.044756673,-0.7228246,0.8003054,0.51578546,-0.5456541,0.6966758,0.61649364,-0.30120957,1.3494062,-0.6724427,-1.7199981,-1.0656604,2.2770426,1.374991,-1.0384009,1.4090143,-0.73805463,-1.7622745,-1.0209845,2.2174802,1.3180948,-1.0112287,-1.2693663,1.4417311,0.9334291,-0.98455197,1.0110289,0.474829,-0.29092395,1.9545918,-0.37447357,1.2415589,-3.2381747,-0.013762827,2.141438,0.2702961,-0.48210526,0.91304016,0.75857973,-0.027319087,0.07649019,0.6464981,-0.34103915,0.7679879,0.5863661,1.0,0.0,0.0,0.0,0.0,0.0,0.0,-2.6045918,-0.025526434,-0.6915589,-0.83830357,-0.054764748,1.2855649,1.7462611,0.17631054,-0.17656684,1.518774
4.041786,42.188454,12.01125,12.067079,0.3546815,-0.28857058,0.009962218,-0.73059744,0.8029512,0.5137787,-0.5443374,0.69521856,0.6166524,-0.27179277,1.3359545,-0.6577595,-1.7108966,-1.0754182,2.287002,1.3797601,-1.0384079,1.3962065,-0.72365415,-1.7529304,-1.0307368,2.2275662,1.3228098,-1.0140153,-1.2849758,1.4400648,0.93407536,-0.97268564,1.0087757,0.47124442,-0.27481917,1.9222355,-0.3746109,1.2622207,-3.2349372,-0.013749067,2.0411112,0.266922,-0.47442627,0.9188174,0.7582815,-0.0326402,0.07641431,0.64660996,-0.32868794,0.77146983,0.5676941,1.0,0.0,0.0,0.0,0.0,0.0,0.0,-2.5722356,-0.025389105,-0.7122207,-1.6407251,-0.007200241,-0.09998083,1.0171175,0.0921011,-0.15404224,1.5896142
4.753401,40.683647,11.638701,11.436338,0.31171447,-0.3837287,0.03129249,-0.7314843,0.8005178,0.5216851,-0.5419556,0.69850177,0.61532557,-0.2406983,1.3230581,-0.6436024,-1.7007619,-1.0849323,2.2974164,1.3843424,-1.0380851,1.3832518,-0.70927846,-1.7435939,-1.0404166,2.2376409,1.3274943,-1.016636,-1.2993077,1.4372692,0.9330709,-0.9669207,1.0082178,0.46806952,-0.25780672,1.8899097,-0.37474823,1.2818801,-3.231703,-0.01373532,1.9408846,0.26369476,-0.46671677,0.9243884,0.7579449,-0.037814196,0.07646601,0.6467168,-0.31342712,0.7741383,0.5464449,1.0,0.0,0.0,0.0,0.0,0.0,0.0,-2.5399098,-0.025251776,-0.7318801,-1.5101194,-0.12423992,-0.25024414,0.40909052,0.2458334,-0.11532307,1.6797245
6.615946,40.5232,11.979609,10.50465,0.20313156,-0.4503991,0.07744086,-0.73193103,0.79850435,0.5328871,-0.5452451,0.69572926,0.61497927,-0.21064785,1.3100587,-0.629428,-1.6903052,-1.0949411,2.3072138,1.3889922,-1.0377008,1.3701864,-0.69493616,-1.734225,-1.0500888,2.2477078,1.3321501,-1.0190793,-1.3091018,1.4338403,0.93755835,-0.9678921,1.0070649,0.46547544,-0.24005654,1.8576183,-0.37488556,1.300538,-3.228472,-0.013721588,1.8407581,0.26065063,-0.4589615,0.92974013,0.75753295,-0.04282841,0.07664054,0.6468661,-0.29355374,0.7792824,0.5241834,1.0,0.0,0.0,0.0,0.0,0.0,0.0,-2.5076184,-0.025114447,-0.75053793,-1.0419846,-0.18835068,0.29460192,-0.2518654,0.18384457,-0.049561262,1.7545968
4.32329,38.404137,11.111897,11.735088,0.35775626,-0.4488085,0.031703286,-0.7516652,0.79573447,0.52821046,-0.532681,0.69724256,0.6192013,-0.19486643,1.29502,-0.6153627,-1.681404,-1.1033568,2.3174322,1.3940703,-1.038566,1.3569685,-0.6806339,-1.7248313,-1.0597323,2.257771,1.336785,-1.0213529,-1.3263404,1.4295195,0.9396873,-0.963695,1.0067339,0.4634822,-0.2230837,1.8253574,-0.3750229,1.3181953,-3.225244,-0.01370787,1.7407317,0.25776482,-0.4511814,0.9348737,0.7570706,-0.047684453,0.076932296,0.64703304,-0.27862152,0.77997184,0.50246894,1.0,0.0,0.0,0.0,0.0,0.0,0.0,-2.4753575,-0.024977118,-0.76819533,-1.8115997,-0.28026104,0.08827448,0.25023222,0.2551794,-0.014829636,1.6750872
4.8911576,37.605034,11.058655,11.569613,0.34533465,-0.4971882,0.050404567,-0.75396395,0.7925181,0.5322995,-0.5330149,0.69736946,0.6197074,-0.15106449,1.2815721,-0.6013821,-1.6716014,-1.1130338,2.327508,1.3987557,-1.0364593,1.3435961,-0.66638124,-1.7154033,-1.0693358,2.2678304,1.3414046,-1.0234414,-1.3411007,1.4243481,0.9432654,-0.9599411,1.0066365,0.46192586,-0.20423307,1.793129,-0.37516022,1.334853,-3.2220194,-0.013694164,1.6408054,0.2550373,-0.4433956,0.93978965,0.7565568,-0.05238462,0.07733317,0.6472226,-0.2621448,0.7805805,0.48062798,1.0,0.0,0.0,0.0,0.0,0.0,0.0,-2.443129,-0.024839789,-0.78485304,-1.5594721,-0.36611557,0.23583174,0.20914078,0.27503967,0.0269413,1.8617541
3.0134978,35.439674,10.14979,12.683825,0.46983683,-0.51259327,-0.0024932586,-0.7689042,0.7889422,0.52417326,-0.5190121,0.6904081,0.62358314,-0.13945922,1.2667056,-0.58748704,-1.662986,-1.121237,2.3368711,1.4037628,-1.0373874,1.3300463,-0.65218675,-1.7059848,-1.0788459,2.2778707,1.3460108,-1.0253507,-1.3600618,1.4183172,0.94114476,-0.9485824,1.0037483,0.4608322,-0.1866397,1.7609329,-0.37529755,1.3505123,-3.2187982,-0.013680473,1.5409789,0.25244904,-0.43563652,0.9444915,0.75602645,-0.05693152,0.077847056,0.6473968,-0.24945864,0.7769112,0.45942655,1.0,0.0,0.0,0.0,0.0,0.0,0.0,-2.410933,-0.02470246,-0.80051225,-1.9999743,-0.4545927,-0.30944347,0.95511675,-0.015735626,0.050878525,1.7329723
3.5197167,35.150726,10.217447,12.637981,0.43737686,-0.5451262,0.005826881,-0.7750896,0.7884302,0.5259995,-0.5175114,0.6865703,0.6273869,-0.102685705,1.2525374,-0.57334375,-1.6533849,-1.130597,2.3465276,1.4087495,-1.0356193,1.3163172,-0.63804185,-1.6965854,-1.0882453,2.287869,1.3506113,-1.0270749,-1.3774723,1.4136962,0.9390216,-0.9376361,0.9994007,0.46030045,-0.16795273,1.7287693,-0.37543488,1.365174,-3.21558,-0.013666796,1.4412522,0.2500019,-0.4278984,0.9489854,0.7554875,-0.061334956,0.07848626,0.64754647,-0.23525701,0.77406424,0.43870905,1.0,0.0,0.0,0.0,0.0,0.0,0.0,-2.3787694,-0.02456513,-0.81517404,-1.8441439,-0.31404495,-0.30419827,0.91905594,-0.16525984,0.10338426,1.8433392
4.3125563,33.18754,9.590555,11.513109,0.36454737,-0.67054254,0.03612812,-0.7846019,0.7811773,0.5239442,-0.5329453,0.68514043,0.6264371,-0.077984706,1.237857,-0.5599241,-1.644191,-1.1415398,2.356383,1.4132551,-1.0348734,1.3024164,-0.62396276,-1.6872146,-1.0976313,2.2978215,1.355208,-1.0286142,-1.3945256,1.4065102,0.9360953,-0.93954396,0.9948123,0.45987096,-0.149311,1.6966381,-0.3755722,1.3788394,-3.212365,-0.013653131,1.3416253,0.24772072,-0.42020416,0.95323616,0.75492245,-0.06555453,0.07926098,0.6476977,-0.21671338,0.76997405,0.41326228,1.0,0.0,0.0,0.0,0.0,0.0,0.0,-2.3466382,-0.024427801,-0.82883936,-1.7990828,-0.5772114,-0.36997795,-0.36000013,-0.21027327,0.1141727,1.8387765
5.5386486,33.847042,10.318597,11.654806,0.36112505,-0.6653143,0.08523422,-0.7823843,0.77838206,0.53337634,-0.5169514,0.6862825,0.62997663,0.019077834,1.2241781,-0.5461246,-1.633877,-1.1493264,2.3664498,1.4182057,-1.0267063,1.2884032,-0.60995424,-1.6778247,-1.1069907,2.3077397,1.3598028,-1.0299131,-1.4037713,1.399357,0.93952876,-0.93523526,0.9920026,0.45992047,-0.12357697,1.6645374,-0.37570953,1.391509,-3.2091532,-0.013639481,1.242098,0.2456398,-0.41252518,0.9572575,0.7542883,-0.06960427,0.080150194,0.6479046,-0.19704019,0.7681089,0.39113268,1.0,0.0,0.0,0.0,0.0,0.0,0.0,-2.3145375,-0.024290472,-0.84150904,-1.0038376,-0.5694151,0.24548769,0.27087927,-0.0182271,0.16592741,2.546543
4.8992023,33.29664,10.286125,12.599367,0.4507717,-0.63711464,0.08706094,-0.7917897,0.77591324,0.5327095,-0.5027464,0.6846876,0.6404388,0.106665924,1.2092242,-0.53236294,-1.6245538,-1.1572653,2.3762085,1.4238467,-1.0192465,1.2742983,-0.5960125,-1.6683967,-1.1162432,2.317635,1.3644053,-1.0309087,-1.41299,1.3929791,0.9436073,-0.92255235,0.98989666,0.46095902,-0.09170307,1.6324711,-0.37584686,1.4031843,-3.2059448,-0.013625844,1.1426702,0.24372864,-0.4048729,0.96107954,0.7535704,-0.07351851,0.081133336,0.64818525,-0.18007739,0.7654999,0.37198073,1.0,0.0,0.0,0.0,0.0,0.0,0.0,-2.2824712,-0.024153143,-0.8531843,-1.0115147,-0.49023628,0.31588078,1.104629,0.057780743,0.25328398,3.1591609
6.592001,33.696613,10.852005,11.866064,0.342363,-0.6827439,0.14298671,-0.788291,0.7718871,0.54332656,-0.5089645,0.67741764,0.6412689,0.17399551,1.1954693,-0.51882374,-1.6140641,-1.1671396,2.385377,1.4285321,-1.0135092,1.2601477,-0.58213365,-1.6588829,-1.1254042,2.327496,1.369021,-1.031561,-1.415877,1.3865627,0.95352,-0.914529,0.98587525,0.46219715,-0.056467302,1.6004353,-0.3759842,1.4138659,-3.2027395,-0.013612221,1.0433418,0.24202538,-0.3972187,0.9647091,0.75272745,-0.07730802,0.08221031,0.6485878,-0.15876989,0.76612407,0.35261455,1.0,0.0,0.0,0.0,0.0,0.0,0.0,-2.2504354,-0.024015814,-0.8638659,-0.3578186,-0.4932642,0.8858204,0.6547928,-0.13098717,0.28187037,3.4962282
5.452468,32.8598,10.745041,13.345636,0.46981382,-0.6209026,0.12359443,-0.79304814,0.7669754,0.5480532,-0.47958085,0.6664421,0.65117496,0.25793174,1.1808429,-0.5054361,-1.6040776,-1.1733624,2.3941402,1.4341385,-1.0057678,1.2459704,-0.5683254,-1.6492584,-1.1343764,2.3372884,1.373654,-1.03183,-1.418683,1.379441,0.96508485,-0.89197105,0.9782193,0.46418095,-0.017145451,1.5684319,-0.37612152,1.423555,-3.1995373,-0.013598612,0.94411266,0.2404995,-0.38956642,0.968177,0.75175565,-0.081013694,0.0833737,0.6491141,-0.14201772,0.7657177,0.33764762,1.0,0.0,0.0,0.0,0.0,0.0,0.0,-2.218432,-0.023878485,-0.873555,-0.36478043,-0.56090355,1.0542989,2.0991683,-0.48321486,0.34224987,3.9009311
3.2489285,29.103722,9.082983,14.350719,0.64013445,-0.6679212,0.061476164,-0.79997164,0.75733954,0.53434014,-0.46208587,0.6561176,0.65782595,0.28973967,1.1659732,-0.49259144,-1.5958244,-1.180585,2.4029002,1.4394366,-1.002856,1.2317435,-0.55461633,-1.6396034,-1.1430644,2.3469815,1.3783098,-1.0317174,-1.424396,1.3684419,0.96534336,-0.8618794,0.9672025,0.4664326,0.020472715,1.5364609,-0.37625885,1.4322526,-3.1963384,-0.013585016,0.84498274,0.23910904,-0.38196754,0.97149,0.7507042,-0.08464634,0.084624186,0.6497052,-0.12942603,0.7582972,0.32183033,1.0,0.0,0.0,0.0,0.0,0.0,0.0,-2.186461,-0.023741156,-0.88225263,-0.67374706,-0.9544134,-0.04951954,2.8329253,-0.83891153,0.34781694,3.7247868
4.1523137,27.418505,8.251795,12.730888,0.5169735,-0.84918255,0.07751747,-0.7977627,0.75571865,0.5222129,-0.4805605,0.6578459,0.6533545,0.3136825,1.1519672,-0.47904447,-1.5873821,-1.1911204,2.4127662,1.4436452,-1.0003492,1.2174784,-0.5410074,-1.6300304,-1.1515883,2.356583,1.3829829,-1.0312501,-1.4276019,1.3588133,0.95430505,-0.84980816,0.95845276,0.4680291,0.055147566,1.5045204,-0.37639618,1.4399596,-3.1931427,-0.013571434,0.74595195,0.23789406,-0.3744545,0.9745939,0.74958545,-0.088131525,0.08599169,0.65035355,-0.11028693,0.7488811,0.2993989,1.0,0.0,0.0,0.0,0.0,0.0,0.0,-2.1545205,-0.023603827,-0.88995963,-0.40392876,-0.8259535,-1.1638641,1.0444522,-0.6473541,0.28530955,3.434629
5.659649,27.01922,7.99679,10.651963,0.30951178,-1.0123967,0.113862656,-0.80231804,0.75614536,0.5184074,-0.506911,0.656599,0.65188694,0.3232261,1.1372466,-0.46539286,-1.5781896,-1.2022794,2.422243,1.4481715,-0.99892753,1.2031733,-0.52746713,-1.6205947,-1.1601886,2.3661122,1.3876692,-1.03047,-1.4317325,1.352846,0.9399867,-0.8639168,0.95167786,0.46920964,0.08550725,1.4726143,-0.3765335,1.4466771,-3.1899502,-0.013557865,0.6470201,0.23693275,-0.36702728,0.9774186,0.7483839,-0.09137317,0.08752199,0.6510855,-0.08287217,0.74051845,0.26977476,1.0,0.0,0.0,0.0,0.0,0.0,0.0,-2.1226144,-0.023466498,-0.8966771,-0.4778862,-0.46737194,-1.4754176,-1.5498757,-0.48068762,0.24833083,3.0116901
5.670669,25.603348,7.51749,10.382336,0.31388158,-1.0739341,0.11796321,-0.80131537,0.7479465,0.5124544,-0.50428724,0.6479513,0.6560688,0.35665572,1.1230417,-0.45267248,-1.5693493,-1.2106173,2.4309072,1.453276,-0.99480444,1.1888415,-0.5139984,-1.6113079,-1.1689605,2.375565,1.392367,-1.0294,-1.4337981,1.3452367,0.92481554,-0.88208836,0.9439091,0.47051588,0.11421732,1.4407387,-0.37667084,1.452406,-3.186761,-0.01354431,0.5481872,0.23625374,-0.35969543,0.9799343,0.7470936,-0.09433047,0.08922569,0.6519139,-0.054190602,0.73042786,0.23848395,1.0,0.0,0.0,0.0,0.0,0.0,0.0,-2.0907388,-0.023329169,-0.90240604,-0.26123524,-0.63369274,-1.5611291,-1.9523859,-0.59030056,0.25485754,2.8461323
6.3845496,24.776903,7.36069,9.511726,0.2600618,-1.1538198,0.15196985,-0.7996553,0.74175745,0.5101747,-0.5262152,0.64638287,0.6515466,0.38747075,1.108876,-0.43982264,-1.5602903,-1.2215819,2.4402034,1.4575217,-0.9906529,1.1745096,-0.5006174,-1.6021488,-1.1779975,2.384953,1.3970743,-1.0280515,-1.4332106,1.3361355,0.91296035,-0.9111618,0.9374377,0.47117987,0.14163052,1.4088936,-0.37680435,1.4571474,-3.183575,-0.013530768,0.44945318,0.23589134,-0.35246277,0.98211455,0.74569404,-0.09696726,0.091094084,0.65287024,-0.022107735,0.7201139,0.20434336,1.0,0.0,0.0,0.0,0.0,0.0,0.0,-2.0588937,-0.023195654,-0.90714735,0.025177002,-0.7854223,-1.236248,-3.02943,-0.47159195,0.18941164,2.718553
6.401241,24.339441,7.462269,9.878293,0.28104514,-1.1409111,0.15645424,-0.7965339,0.73598444,0.50998604,-0.5313886,0.6331351,0.6543165,0.41524452,1.0948563,-0.42701894,-1.5511502,-1.2311363,2.4482665,1.4625059,-0.986527,1.1602045,-0.48733556,-1.5930698,-1.1873015,2.3942494,1.4017893,-1.0264379,-1.4296712,1.3259505,0.90608805,-0.9374204,0.92787004,0.47189453,0.16773377,1.3770828,-0.37693787,1.460902,-3.180392,-0.01351724,0.35081786,0.23584366,-0.34532356,0.9839658,0.744175,-0.09929313,0.093120106,0.65396714,0.009467436,0.7104325,0.17175448,1.0,0.0,0.0,0.0,0.0,0.0,0.0,-2.027083,-0.02306214,-0.91090196,0.3267765,-0.89161396,-0.7485509,-2.7440667,-0.77484846,0.1868248,2.5871248
5.270067,21.998587,6.344558,10.0830555,0.3686444,-1.1947427,0.11479114,-0.79959404,0.7302049,0.49118248,-0.54996485,0.63328946,0.656725,0.39686233,1.0802451,-0.41431507,-1.5439515,-1.242298,2.4575784,1.4674618,-0.9867517,1.1459204,-0.4741596,-1.584111,-1.196886,2.4034657,1.4065119,-1.0246068,-1.4280863,1.3151827,0.89209,-0.9660493,0.9200123,0.47255418,0.18807837,1.3453026,-0.37707138,1.463671,-3.1772122,-0.013503726,0.25228116,0.23610687,-0.33831024,0.9854778,0.74256855,-0.101288505,0.09529488,0.6551729,0.03968382,0.6962511,0.13739695,1.0,0.0,0.0,0.0,0.0,0.0,0.0,-1.9953026,-0.022928625,-0.91367096,0.12688637,-0.9539604,-1.4457703,-2.9851317,-0.62098503,0.16410947,2.0115347
3.972178,19.4597,4.9457674,10.104551,0.4422363,-1.276303,0.064916395,-0.8035865,0.72672945,0.46708643,-0.5730117,0.6300499,0.6540021,0.38760275,1.0655618,-0.40148664,-1.5374024,-1.2541871,2.4664707,1.4719121,-0.9858465,1.1316248,-0.46108186,-1.5753849,-1.2067965,2.4126096,1.4112364,-1.0226079,-1.429997,1.3056492,0.8660859,-0.9997704,0.9131611,0.47263288,0.20377058,1.3135529,-0.3772049,1.4654555,-3.1740358,-0.013490225,0.15384299,0.23666954,-0.33148003,0.98662335,0.740931,-0.10290474,0.09763189,0.6564296,0.0691683,0.6766526,0.10013046,1.0,0.0,0.0,0.0,0.0,0.0,0.0,-1.9635528,-0.022795111,-0.9154555,-0.22954941,-0.83692074,-2.6212692,-3.4978986,-0.5467415,0.08473396,1.546663
3.3816755,18.514994,4.848012,11.292566,0.54245627,-1.2180245,0.05203955,-0.79351866,0.7173031,0.46249247,-0.56772745,0.6075613,0.6624265,0.43370715,1.0522729,-0.38935155,-1.5291356,-1.2635692,2.4733658,1.4774791,-0.9792372,1.117354,-0.44811618,-1.5669105,-1.2169455,2.4216352,1.4159666,-1.0204412,-1.4263449,1.2939607,0.8412842,-1.020442,0.89969236,0.47333455,0.22096191,1.2818375,-0.3773384,1.4662564,-3.1708624,-0.013476738,0.055503223,0.23749924,-0.32484627,0.987426,0.7392801,-0.104174875,0.10012493,0.65771383,0.09532933,0.6567343,0.06691381,1.0,0.0,0.0,0.0,0.0,0.0,0.0,-1.9318374,-0.022661597,-0.91625637,0.32691956,-1.0490894,-2.5143504,-2.1997929,-1.1954904,0.13449788,1.691109
1.8028941,14.633624,2.854007,10.840502,0.6534311,-1.328773,0.014159298,-0.80215657,0.70629936,0.43223342,-0.60537523,0.60891867,0.6620144,0.40903902,1.0371383,-0.37748623,-1.5236871,-1.2774831,2.482527,1.4821681,-0.97953725,1.1030833,-0.43529356,-1.5587623,-1.2273921,2.4305425,1.4207026,-1.0181371,-1.4276288,1.2787181,0.8059333,-1.0532494,0.88843995,0.47375897,0.23330261,1.2501526,-0.37747192,1.4660745,-3.1676922,-0.013463263,-0.042738218,0.23859024,-0.31846428,0.98785466,0.73765314,-0.10505168,0.10276794,0.6589922,0.120613575,0.62886244,0.02816387,1.0,0.0,0.0,0.0,0.0,0.0,0.0,-1.9001526,-0.022528082,-0.91607445,-0.16078949,-1.4158487,-3.5474896,-3.415513,-1.0098934,0.084763765,1.20368
2.3506858,13.842294,2.7422552,9.98715,0.616912,-1.3808432,0.05149751,-0.795903,0.6951888,0.42780575,-0.6390333,0.603071,0.657949,0.40696117,1.0234929,-0.36577466,-1.5159818,-1.2912954,2.4908495,1.4864975,-0.97744095,1.088822,-0.42264593,-1.550925,-1.238262,2.4393468,1.4254385,-1.01573,-1.4255197,1.260425,0.7764011,-1.0985748,0.8780849,0.47365054,0.24309717,1.2184982,-0.37760544,1.464911,-3.1645253,-0.013449803,-0.14088143,0.239954,-0.31236458,0.9878713,0.7360436,-0.10548168,0.10554189,0.66028345,0.14845273,0.60079676,-0.013633902,1.0,0.0,0.0,0.0,0.0,0.0,0.0,-1.8684982,-0.022394568,-0.914911,0.21336079,-1.7235756,-2.9881954,-4.65014,-0.92805624,0.025486946,0.9507507
1.5845205,12.727564,2.4342074,10.888914,0.7326327,-1.333391,0.03449875,-0.7940501,0.6859993,0.41092858,-0.6467065,0.59714997,0.66054374,0.4145507,1.009417,-0.354046,-1.5098321,-1.3029327,2.4990618,1.4914929,-0.97427493,1.0745913,-0.41018713,-1.5433757,-1.2495421,2.4480557,1.4301726,-1.0132333,-1.4223086,1.2413938,0.7477442,-1.1383141,0.8687119,0.47355577,0.25171298,1.1868782,-0.37773895,1.4627668,-3.1613615,-0.013436356,-0.23892653,0.24157524,-0.3065529,0.9874878,0.7344529,-0.10547447,0.108418904,0.6615885,0.17284305,0.5714998,-0.053012386,1.0,0.0,0.0,0.0,0.0,0.0,0.0,-1.8368782,-0.022261053,-0.91276675,0.31747818,-1.79739,-2.8998137,-4.0949345,-0.8262396,0.008785725,0.83230734
0.5284686,11.852444,2.1588483,12.202864,0.88465977,-1.2581048,0.0022143302,-0.79790235,0.6794928,0.39400464,-0.6576566,0.60325205,0.6587511,0.41711798,0.99480104,-0.34223783,-1.5039753,-1.3153077,2.508381,1.4960476,-0.9715215,1.0603701,-0.39790332,-1.5361106,-1.2611598,2.4567075,1.4349047,-1.0106603,-1.4221348,1.2244221,0.71961737,-1.1701512,0.8647139,0.47307885,0.25916255,1.1552887,-0.37787247,1.4596428,-3.1582007,-0.013422922,-0.3368736,0.2434063,-0.30103683,0.98673797,0.7329065,-0.10505922,0.111364834,0.6628789,0.19237204,0.5410565,-0.088568404,1.0,0.0,0.0,0.0,0.0,0.0,0.0,-1.8052887,-0.022127539,-0.90964276,-0.016236305,-1.5912294,-2.8240442,-3.3123493,-0.283885,-0.051134825,0.7182598
-0.14431906,11.171855,1.9136488,13.163679,0.97564393,-1.2147974,-0.026633635,-0.7950558,0.6729343,0.37265548,-0.6697258,0.59855103,0.650152,0.41883767,0.9808645,-0.3306099,-1.4988451,-1.3281324,2.5165625,1.4999199,-0.9687765,1.0461565,-0.3857702,-1.5291488,-1.2730464,2.4653287,1.4396235,-1.0080205,-1.4214134,1.20996,0.6883627,-1.195221,0.86153036,0.4716032,0.2655335,1.1237297,-0.37800598,1.4555401,-3.1550431,-0.013409502,-0.43472275,0.24541664,-0.29582787,0.98565274,0.7314286,-0.10425751,0.11436001,0.6641267,0.20912004,0.5099742,-0.12130851,1.0,0.0,0.0,0.0,0.0,0.0,0.0,-1.7737297,-0.021994025,-0.90554005,0.021719933,-1.3401747,-3.1231642,-2.6399374,-0.20008087,-0.16889572,0.61103106
-0.19067693,10.647369,2.047648,13.5958805,0.997672,-1.1565322,-0.011379999,-0.79286116,0.65929765,0.3695919,-0.6875004,0.58180386,0.65182114,0.43239424,0.9668704,-0.31984043,-1.4921896,-1.3417964,2.523509,1.5048056,-0.9647811,1.0319563,-0.37379968,-1.5224407,-1.2851771,2.4738774,1.4443308,-1.005314,-1.4196514,1.1931052,0.66507757,-1.2195499,0.8533432,0.47024134,0.27219406,1.0922031,-0.3781395,1.4504596,-3.1518886,-0.013396095,-0.5324741,0.24758339,-0.29091835,0.98424923,0.73001355,-0.1030964,0.11739865,0.66533357,0.22457887,0.48050612,-0.1526735,1.0,0.0,0.0,0.0,0.0,0.0,0.0,-1.7422031,-0.02186051,-0.9004596,0.12562275,-1.5787601,-2.332306,-2.5626183,-0.6913185,-0.16676188,0.6400049
-0.50192416,10.035252,2.1180289,14.44095,1.0318174,-1.0749356,-0.011870973,-0.7912591,0.64799315,0.36192036,-0.6935665,0.5572807,0.6522009,0.44926465,0.95283043,-0.30900037,-1.4862486,-1.3545338,2.5296054,1.5095509,-0.9603875,1.017779,-0.3620113,-1.5159194,-1.29751,2.4822774,1.4490248,-1.002535,-1.4172779,1.1744707,0.6476323,-1.2382791,0.8363146,0.46901518,0.27958804,1.060709,-0.378273,1.4444025,-3.1487374,-0.013382701,-0.6301277,0.249897,-0.28628922,0.9825511,0.7286492,-0.10161523,0.120485105,0.6665043,0.23774959,0.45286068,-0.18141147,1.0,0.0,0.0,0.0,0.0,0.0,0.0,-1.710709,-0.021726996,-0.89440244,0.17402172,-1.755476,-1.7460823,-2.0049095,-1.5642524,-0.16331673,0.7114291
-0.98079085,9.390566,1.9065387,15.151783,1.0798984,-1.0275828,-0.033701584,-0.7907859,0.6419333,0.34445187,-0.7008598,0.54627883,0.65256506,0.44577107,0.9387004,-0.29781798,-1.4814743,-1.367596,2.5369053,1.5142813,-0.95795786,1.0036227,-0.3503946,-1.509589,-1.3100013,2.4904943,1.4537073,-0.99969304,-1.4152511,1.1577326,0.62831235,-1.2530423,0.81692016,0.46785045,0.28569773,1.0292454,-0.37840652,1.4373695,-3.1455894,-0.013369321,-0.7276837,0.25232697,-0.28193283,0.98057765,0.72734874,-0.09984086,0.12362609,0.6676167,0.24896133,0.4254643,-0.20834602,1.0,0.0,0.0,0.0,0.0,0.0,0.0,-1.6792454,-0.021593481,-0.88736945,0.12140274,-1.5664816,-1.9168139,-1.6104937,-1.8005848,-0.1717627,0.5829394
-1.2374592,6.4440813,1.5360553,15.347344,1.1497047,-0.94905853,0.03199045,-0.7777268,0.60028774,0.3644408,-0.7134919,0.48962206,0.65194315,0.47787648,0.92585,-0.29036584,-1.4731449,-1.3813504,2.5394564,1.5189017,-0.95190537,0.989545,-0.3390931,-1.50331,-1.3226451,2.4983754,1.4583803,-0.99677384,-1.4053869,1.1213176,0.62737954,-1.2686001,0.7792047,0.46685252,0.2939162,0.9978123,-0.37854004,1.4293616,-3.1424444,-0.013355955,-0.82514215,0.2548523,-0.2778473,0.97833335,0.72606033,-0.09780957,0.12680191,0.66872334,0.25758398,0.39814842,-0.23539527,1.0,0.0,0.0,0.0,0.0,0.0,0.0,-1.6478122,-0.021459967,-0.87936157,0.9523392,-3.5364628,-0.142622,-1.6876221,-3.6153793,-0.1519084,0.7848084
-4.3451834,0.28708386,-1.6929562,15.8912735,1.4132357,-0.9961639,-0.037512567,-0.7746214,0.57321197,0.3162442,-0.7199506,0.44427574,0.6584531,0.49586877,0.91208285,-0.2817719,-1.4716855,-1.3946401,2.542803,1.5242257,-0.94718695,0.9755765,-0.32823837,-1.4972179,-1.3354338,2.5057797,1.4630476,-0.99376595,-1.3940413,1.0738182,0.60291696,-1.2827854,0.72808164,0.46637583,0.30286908,0.9664116,-0.37867355,1.4203799,-3.1393027,-0.013342601,-0.9225032,0.2574196,-0.27411652,0.97579557,0.72482306,-0.09550208,0.13001926,0.66978043,0.25974765,0.35910013,-0.26530674,1.0,0.0,0.0,0.0,0.0,0.0,0.0,-1.6164116,-0.021326452,-0.87037987,1.1275291,-4.662013,-2.5033355,-1.5635967,-4.9960494,-0.12971759,0.84031224
-11.147385,-11.248263,-9.179469,15.950722,1.9967042,-1.2815136,-0.25004286,-0.7764194,0.54473567,0.19426283,-0.7383558,0.42595857,0.63985556,0.48555216,0.89793456,-0.2737648,-1.4777917,-1.4092695,2.5483756,1.5270332,-0.94521075,0.96169484,-0.3179115,-1.4919269,-1.3484133,2.5126805,1.4676939,-0.99068654,-1.3859797,1.0191408,0.50419,-1.3033146,0.6778543,0.46347642,0.30939478,0.93504333,-0.37880707,1.4104253,-3.136164,-0.013329261,-1.0197668,0.25992966,-0.27101898,0.9728832,0.72383964,-0.09276418,0.13329719,0.67058396,0.25089985,0.28881603,-0.30486545,1.0,0.0,0.0,0.0,0.0,0.0,0.0,-1.5850433,-0.021192938,-0.8604253,0.85799694,-5.4210186,-9.912109,-2.2161007,-5.0245523,-0.4427135,0.56574345
-21.09358,-29.54194,-20.05959,16.11076,2.9690568,-1.608503,-0.49601418,-0.7700036,0.47344595,0.04434345,-0.7604642,0.3878033,0.63372195,0.4729641,0.88469446,-0.2705669,-1.4874926,-1.4244598,2.5514607,1.5310662,-0.94339013,0.94790375,-0.30835092,-1.48828,-1.3616637,2.5190587,1.4723021,-0.9875623,-1.3761417,0.934936,0.3176208,-1.3326982,0.6242512,0.45909232,0.31292456,0.9037056,-0.37894058,1.3994988,-3.1330285,-0.013315935,-1.1169333,0.26220512,-0.26896667,0.9694767,0.72338796,-0.08936908,0.13658345,0.670871,0.22176033,0.17270094,-0.3570963,1.0,0.0,0.0,0.0,0.0,0.0,0.0,-1.5537056,-0.021059424,-0.8494988,1.1938095,-8.43451,-18.764805,-3.112626,-5.509305,-0.68809986,0.21349788
-27.781357,-41.745216,-26.777317,17.079851,3.5198414,-1.6542506,-0.64637285,-0.7631211,0.3977518,-0.06815443,-0.77208793,0.24996011,0.6359309,0.4626,0.8715916,-0.26857573,-1.4950955,-1.4388725,2.5440547,1.5358951,-0.9413023,0.93422806,-0.29985082,-1.4868228,-1.3752097,2.52459,1.4768664,-0.9844209,-1.3635476,0.8214592,0.087692544,-1.3623831,0.528827,0.45447305,0.31395775,0.8723984,-0.3790741,1.3876014,-3.1298962,-0.013302621,-1.2140026,0.26407433,-0.26825333,0.96550393,0.7236581,-0.08521755,0.13989922,0.6704365,0.17598067,0.033269566,-0.4145168,1.0,0.0,0.0,0.0,0.0,0.0,0.0,-1.5223984,-0.02092591,-0.83760136,1.6177177,-11.405158,-23.20954,-3.1140804,-9.770441,-0.7891774,-0.08837581
-42.650257,-69.03748,-41.8294,18.816193,4.6940155,-1.8091044,-0.9718581,-0.76588273,0.24380134,-0.29728886,-0.78231746,-0.031823177,0.62776613,0.4495503,0.8576398,-0.27547067,-1.5165517,-1.4534414,2.5214076,1.5396429,-0.9394659,0.9206573,-0.29301107,-1.4883201,-1.3890246,2.5284238,1.4813753,-0.981289,-1.3526611,0.6376638,-0.23025386,-1.3882798,0.33375895,0.44823983,0.31185323,0.8411217,-0.3792076,1.374734,-3.126767,-0.013289321,-1.3109748,0.26523018,-0.26932907,0.9608502,0.7249371,-0.08020223,0.14337206,0.66893804,0.095125325,-0.15861395,-0.48530492,1.0,0.0,0.0,0.0,0.0,0.0,0.0,-1.4911216,-0.020792395,-0.82473403,1.7648697,-18.52852,-32.24706,-2.6650667,-19.89239,-1.0867059,-0.5309284
-67.59895,-119.706985,-66.40985,22.628004,7.278384,-1.7639817,-1.2698525,-0.7738996,-0.09272207,-0.5154943,-0.78922373,-0.37925428,0.6267385,0.43812126,0.8432673,-0.3022833,-1.5398695,-1.467947,2.4904983,1.5440491,-0.9374769,0.907158,-0.28931653,-1.4934719,-1.4030417,2.5294347,1.4858176,-0.9781953,-1.3446903,0.27902606,-0.61327714,-1.4056737,0.021718286,0.440604,0.30683863,0.8098774,-0.37934113,1.3608977,-3.1236408,-0.013276035,-1.4078501,0.2650318,-0.27300262,0.95536566,0.7275418,-0.074194595,0.14681272,0.66605103,-0.061044045,-0.44004428,-0.5713704,1.0,0.0,0.0,0.0,0.0,0.0,0.0,-1.4598774,-0.02065888,-0.81089765,2.0855427,-36.17546,-39.289062,-1.5674591,-31.763517,-1.4220834,-0.98695755
-61.72312,-111.12564,-57.56096,25.910099,7.0566344,-0.8355367,-0.9000844,-0.75946504,-0.23584822,-0.4770086,-0.7708216,-0.5184361,0.65027064,0.47423515,0.8312115,-0.31290135,-1.5411727,-1.4801239,2.477591,1.5508447,-0.93077177,0.8937789,-0.28944433,-1.5015018,-1.4170626,2.527268,1.4902083,-0.97511876,-1.3312745,-0.11115615,-0.86978346,-1.3992887,-0.29717216,0.43652618,0.30654818,0.77866554,-0.37947464,1.3460932,-3.1205177,-0.013262762,-1.5046287,0.2632122,-0.27916336,0.94917184,0.73121756,-0.06744105,0.14994802,0.6620333,-0.22865318,-0.67612076,-0.6364259,1.0,0.0,0.0,0.0,0.0,0.0,0.0,-1.4286655,-0.020525366,-0.79609317,2.6382446,-39.350025,-26.731956,1.0969877,-32.321438,-1.0279775,-0.43352246
-56.12253,-107.45933,-49.903625,26.75118,7.334574,-0.016761422,-0.36509106,-0.7488462,-0.5146465,-0.4262419,-0.79323053,-0.5176751,0.64213085,0.4861744,0.8188943,-0.34090897,-1.544126,-1.4963857,2.4755003,1.5544213,-0.92650133,0.88056576,-0.29395664,-1.510905,-1.4310569,2.5225148,1.4945608,-0.9720212,-1.3136706,-0.5657809,-0.967777,-1.3970327,-0.5356949,0.43300757,0.3101862,0.7474842,-0.37960815,1.3303217,-3.1173978,-0.013249502,-1.6013104,0.25961113,-0.2874756,0.9424232,0.7354569,-0.060192853,0.1521036,0.65752906,-0.41156885,-0.881219,-0.688722,1.0,0.0,0.0,0.0,0.0,0.0,0.0,-1.3974842,-0.020391852,-0.78032166,3.0616999,-45.822273,-10.99242,0.9640932,-24.183142,-0.93161464,0.16677976
-29.569323,-62.5227,-21.189741,24.496286,5.006378,0.96527505,0.4051058,-0.7168065,-0.6211437,-0.24224496,-0.8052549,-0.5347692,0.64582497,0.5201729,0.8088851,-0.356071,-1.5351295,-1.5115824,2.469038,1.5591433,-0.92000395,0.8676244,-0.30250633,-1.5196579,-1.4450873,2.5160031,1.4989039,-0.9688455,-1.2847897,-0.95219743,-0.84745115,-1.4028268,-0.69013953,0.4337775,0.32029063,0.7163334,-0.37974167,1.3135841,-3.114281,-0.013236254,-1.6978954,0.25457954,-0.29698372,0.93533576,0.7395196,-0.052852187,0.15293927,0.65339655,-0.5416225,-0.9696594,-0.7173815,1.0,0.0,0.0,0.0,0.0,0.0,0.0,-1.3663334,-0.020258337,-0.7635841,3.7350893,-38.90388,11.099863,0.091934204,-15.577745,-0.18540025,1.0891795
6.058912,-3.1317124,15.166901,20.164991,1.5334148,1.7475653,1.2432348,-0.60953915,-0.6832149,-0.00075720623,-0.81075794,-0.56565255,0.6221799,0.5464996,0.8066705,-0.37082782,-1.5197335,-1.5261631,2.4594378,1.5611218,-0.91419554,0.85539925,-0.31405056,-1.5256946,-1.4592284,2.508408,1.503266,-0.96554005,-1.2010828,-1.2221557,-0.5241626,-1.4166222,-0.78204143,0.43786803,0.3350106,0.6852131,-0.37987518,1.2958814,-3.1111674,-0.013223021,-1.7943839,0.24893951,-0.30634308,0.92818004,0.7425335,-0.045952186,0.15254977,0.6505851,-0.5788736,-0.9174898,-0.7177816,1.0,0.0,0.0,0.0,0.0,0.0,0.0,-1.3352131,-0.020124823,-0.7458814,8.57749,-27.080297,31.79555,-1.0714054,-9.070265,0.6613314,1.7811894
12.692739,15.268662,20.274714,17.452137,0.5451997,1.2188021,1.0335867,-0.53213686,-0.7331924,-0.16963783,-0.8037878,-0.5675943,0.60524076,0.51814365,0.80218554,-0.3873698,-1.5426584,-1.5396072,2.4516487,1.5637901,-0.9137257,0.84429467,-0.32746637,-1.5294502,-1.4734706,2.500256,1.5076586,-0.9621202,-1.0801619,-1.3814818,-0.32698488,-1.4262505,-0.8260018,0.44046062,0.34524214,0.6541233,-0.3800087,1.2772145,-3.1080568,-0.013209801,-1.8907758,0.24319458,-0.31510353,0.92100734,0.74444443,-0.039543048,0.15126558,0.64912057,-0.578656,-0.8542892,-0.72021675,1.0,0.0,0.0,0.0,0.0,0.0,0.0,-1.3041233,-0.019991308,-0.7272145,12.135506,-15.963268,19.408047,-0.80087185,-4.3225408,0.51978827,1.2903929
15.358902,24.663824,19.81653,14.083513,-0.018082827,0.39548358,0.74637806,-0.38111556,-0.7570566,-0.31756464,-0.8012197,-0.56316614,0.6033887,0.5014177,0.8061831,-0.40317202,-1.5612067,-1.5535926,2.4439394,1.5679975,-0.9119784,0.8349019,-0.34179962,-1.5326183,-1.4877719,2.4919019,1.5120684,-0.9586297,-0.8931913,-1.4506683,-0.31319883,-1.4313109,-0.8385412,0.44178686,0.35094464,0.62306595,-0.3801422,1.2575845,-3.1049495,-0.013196594,-1.9870714,0.23765373,-0.32334137,0.91371495,0.74553126,-0.03338131,0.1494587,0.6486377,-0.55026543,-0.8043719,-0.7352282,1.0,0.0,0.0,0.0,0.0,0.0,0.0,-1.2730659,-0.019857794,-0.70758444,18.414974,-6.926298,1.4831305,-0.43513775,-1.2447,0.31359196,0.74540377
21.218056,33.67398,21.223204,9.785794,-0.81687415,-0.39893,0.6466205,-0.15475702,-0.76449555,-0.4392977,-0.79444927,-0.61280483,0.61775476,0.5031689,0.81942624,-0.4182492,-1.5765481,-1.5672168,2.4306214,1.5738438,-0.90831286,0.8281232,-0.35636747,-1.5367954,-1.5020713,2.4833913,1.5164953,-0.9550973,-0.6085777,-1.4587302,-0.45040628,-1.4296652,-0.8554376,0.44337368,0.35438266,0.592041,-0.38027573,1.2369921,-3.101845,-0.0131834,-2.0832708,0.23264885,-0.33112717,0.90616655,0.7459392,-0.02723308,0.14749587,0.64890516,-0.4864886,-0.7604983,-0.76435393,1.0,0.0,0.0,0.0,0.0,0.0,0.0,-1.242041,-0.01972428,-0.6869921,27.71976,-0.78783035,-13.122749,0.12907982,-1.6874433,0.26596785,0.4443109
16.212027,29.068764,15.309563,9.667982,-0.5160481,-0.7997791,0.35517788,-0.09527433,-0.77696127,-0.52969456,-0.7910145,-0.6373255,0.61150223,0.4621188,0.81859577,-0.4340636,-1.5897648,-1.5811727,2.4196587,1.5776455,-0.9088854,0.8240243,-0.37083519,-1.5429218,-1.5163211,2.4746747,1.5209261,-0.9515716,-0.34575164,-1.4428129,-0.66495144,-1.4234207,-0.8772059,0.4428634,0.35202375,0.5610466,-0.38040924,1.2154385,-3.098744,-0.013170219,-2.1793737,0.22823334,-0.33865547,0.89825565,0.74590844,-0.020890053,0.14560357,0.6496028,-0.4280217,-0.74207586,-0.8033008,1.0,0.0,0.0,0.0,0.0,0.0,0.0,-1.2110466,-0.019590765,-0.6654385,25.637924,1.5757084,-20.885134,0.62747,-2.2460818,-0.06604195,-0.19724965
3.5044453,17.601244,6.176922,13.557559,0.5836492,-0.6439646,-0.036301307,-0.16150273,-0.78650725,-0.56479985,-0.79148453,-0.6123718,0.5965501,0.41827574,0.807874,-0.4494859,-1.5994017,-1.5954695,2.4134376,1.5805812,-0.909744,0.8215829,-0.3851303,-1.5511138,-1.5305041,2.4658437,1.525334,-0.9481107,-0.21072097,-1.4253432,-0.87018234,-1.4161828,-0.8857859,0.43978348,0.34417555,0.5300827,-0.38054085,1.1929247,-3.0956457,-0.013157051,-2.2753806,0.22410011,-0.3462162,0.8899557,0.74581075,-0.014209172,0.14378968,0.650299,-0.40879878,-0.7525983,-0.8428229,1.0,0.0,0.0,0.0,0.0,0.0,0.0,-1.1800827,-0.019459158,-0.6429247,13.368615,1.6616821,-20.360874,0.8624315,-1.044631,-0.40640235,-0.79283714
-8.758373,8.645941,-0.31632876,18.432291,1.6131979,-0.12035069,-0.33389318,-0.25972983,-0.7890885,-0.5622845,-0.7949863,-0.59281886,0.58836156,0.40938714,0.79560995,-0.46403915,-1.6073422,-1.6100028,2.4065619,1.5841701,-0.90717196,0.81935513,-0.39929235,-1.5608585,-1.5446376,2.4570203,1.5297037,-0.94473565,-0.225426,-1.4136372,-1.0100777,-1.4115202,-0.8818933,0.43560365,0.3351801,0.49914932,-0.38067055,1.1694516,-3.0925508,-0.013143897,-2.3712914,0.21982574,-0.35398865,0.88131315,0.74596703,-0.007163196,0.1419687,0.65063566,-0.43317762,-0.7774144,-0.87583125,1.0,0.0,0.0,0.0,0.0,0.0,0.0,-1.1491493,-0.019329458,-0.6194516,-1.0592759,1.0210276,-14.274799,0.73997974,0.09069443,-0.53988695,-0.9427905
-13.457791,8.907022,0.22483516,21.978348,1.9179051,0.5321198,-0.4005134,-0.3264649,-0.78192043,-0.53024673,-0.7905224,-0.60151905,0.60260564,0.42492798,0.78670865,-0.4774844,-1.6138831,-1.6236898,2.3968685,1.5899643,-0.90224284,0.8162471,-0.41335046,-1.5713203,-1.5587176,2.4482312,1.5340468,-0.9414321,-0.33682373,-1.4037802,-1.0602403,-1.4058906,-0.8787674,0.43359095,0.3286107,0.46824646,-0.38080025,1.14502,-3.0894587,-0.013130756,-2.4671063,0.2151413,-0.3619213,0.8724432,0.746487,0.00012383779,0.14008431,0.65048707,-0.47975925,-0.7909701,-0.89557964,1.0,0.0,0.0,0.0,0.0,0.0,0.0,-1.1182464,-0.019199759,-0.59502,-10.425639,0.8078098,-5.5613995,0.88808537,-0.03529787,-0.28214455,-0.7078588
-17.625704,7.1294613,-0.951169,23.44831,2.1907425,0.85327375,-0.45997426,-0.38846064,-0.7863125,-0.5660571,-0.7933064,-0.6104109,0.5909981,0.41004756,0.77740103,-0.49198171,-1.627926,-1.6380483,2.38719,1.5931466,-0.90042734,0.8116847,-0.4273666,-1.582051,-1.5727652,2.439446,1.5383631,-0.9381963,-0.4932166,-1.4015669,-1.0794811,-1.4032165,-0.87975454,0.43085554,0.32178837,0.43737411,-0.38092995,1.1196309,-3.08637,-0.013117628,-2.5628254,0.20988083,-0.3699894,0.86339915,0.7474255,0.007587246,0.13809592,0.64979,-0.54209477,-0.8035014,-0.9121635,1.0,0.0,0.0,0.0,0.0,0.0,0.0,-1.0873741,-0.019070059,-0.5696309,-14.802498,0.019598007,-2.5735855,0.6446123,-0.48100948,-0.36497712,-0.7349193
-16.215082,9.95362,1.2991157,22.930862,2.0458274,1.0226486,-0.3768865,-0.42166167,-0.78712,-0.5802329,-0.7937808,-0.60251635,0.5971154,0.40777,0.76951855,-0.5060786,-1.6400744,-1.6521434,2.3791943,1.5980747,-0.8974193,0.80563176,-0.44139135,-1.5928504,-1.5868033,2.4306684,1.5426604,-0.93502057,-0.640201,-1.4034559,-1.0820792,-1.4027858,-0.8783754,0.42919183,0.31604308,0.4065323,-0.38105965,1.0932854,-3.0832841,-0.013104513,-2.658449,0.20401192,-0.3781166,0.8542037,0.7487312,0.015178276,0.13595447,0.64860433,-0.6026465,-0.8068726,-0.92669773,1.0,0.0,0.0,0.0,0.0,0.0,0.0,-1.0565323,-0.01894036,-0.5432854,-13.926947,-0.38621426,-0.8696079,0.41248798,-0.22751093,-0.25021434,-0.60287714
-15.769846,9.970638,1.3710084,21.80484,2.0366569,0.9911447,-0.34311572,-0.46042532,-0.79825974,-0.6237785,-0.79369706,-0.59241617,0.57874876,0.36462694,0.7595892,-0.52121735,-1.6552283,-1.666173,2.3714268,1.6005353,-0.8985579,0.7983037,-0.4554981,-1.6038043,-1.6008452,2.4219365,1.546929,-0.9319259,-0.7614703,-1.4137604,-1.1017425,-1.4033543,-0.87291324,0.4258041,0.3071916,0.37572098,-0.38118935,1.0659845,-3.0802016,-0.013091411,-2.7539768,0.19754791,-0.3862934,0.8448323,0.75036305,0.022910029,0.1335914,0.6469805,-0.66216564,-0.81130993,-0.9451504,1.0,0.0,0.0,0.0,0.0,0.0,0.0,-1.025721,-0.01881066,-0.5159845,-11.451733,-1.2259483,-2.5027275,0.32081604,0.19589663,-0.44955015,-0.8924842
-16.043467,11.865139,2.3508406,21.86531,2.054484,1.1436353,-0.33997452,-0.5461547,-0.79527867,-0.6195682,-0.7911927,-0.56362134,0.5798249,0.34368902,0.7436882,-0.53502595,-1.6657612,-1.6799645,2.3655744,1.6049114,-0.897557,0.7897512,-0.4696921,-1.6149166,-1.6148833,2.413342,1.5511671,-0.9289285,-0.8843186,-1.4219382,-1.1162174,-1.4026346,-0.8561551,0.4227672,0.29728436,0.3449421,-0.38131905,1.0377289,-3.077122,-0.013078323,-2.849409,0.19047737,-0.39448357,0.8352921,0.75231206,0.030771434,0.1309428,0.64492905,-0.72429335,-0.8114809,-0.9613648,1.0,0.0,0.0,0.0,0.0,0.0,0.0,-0.99494207,-0.01868096,-0.4877289,-11.626697,-1.0167837,-1.9687653,0.4553318,1.3252735,-0.41772127,-0.9830117
-19.844515,10.195558,0.53268814,22.89153,2.3427734,1.3031598,-0.45876968,-0.6419074,-0.8049628,-0.64201856,-0.7808457,-0.5574832,0.57559663,0.23439716,0.7255604,-0.5501884,-1.6791184,-1.6929679,2.3575938,1.6087267,-0.9054888,0.77985775,-0.48399293,-1.6262405,-1.6288604,2.404923,1.5553728,-0.92610276,-1.0219985,-1.4335226,-1.1395005,-1.3948107,-0.8384615,0.4193864,0.2776423,0.31419563,-0.38144875,1.0085196,-3.0740457,-0.013065247,-2.944746,0.18268585,-0.40271378,0.8255936,0.75466233,0.038749024,0.12796116,0.64234656,-0.79896617,-0.8152792,-0.97698283,1.0,0.0,0.0,0.0,0.0,0.0,0.0,-0.9641956,-0.01855126,-0.45851964,-13.07137,-1.3797045,-2.8683186,1.2160778,1.3958812,-0.4850328,-1.9552171
-17.915009,14.698615,3.3745475,22.432188,2.1448998,1.4659184,-0.43386346,-0.6941595,-0.79897845,-0.6343627,-0.77761793,-0.52149475,0.581459,0.13613968,0.7104418,-0.56389076,-1.6896768,-1.7066221,2.3527734,1.6135187,-0.9124888,0.76866066,-0.49835813,-1.637717,-1.6427478,2.3967595,1.5595537,-0.92353547,-1.1500812,-1.4382372,-1.1519548,-1.3853507,-0.810003,0.4172025,0.24977042,0.2834797,-0.38157845,0.9783578,-3.0709722,-0.013052184,-3.0399876,0.1741867,-0.41090965,0.81576955,0.7574164,0.046791438,0.1246143,0.63921994,-0.8693447,-0.8084533,-0.9883699,1.0,0.0,0.0,0.0,0.0,0.0,0.0,-0.93347967,-0.01842156,-0.42835778,-12.172174,-0.6850004,-1.7354727,1.3548374,2.4949074,-0.3478408,-2.7611108
-17.500475,17.468906,4.769987,22.366098,2.2111087,1.5731834,-0.4781287,-0.7577094,-0.7951076,-0.64597464,-0.7699137,-0.42438456,0.5590256,-0.06187277,0.69288975,-0.5778689,-1.7023145,-1.7197391,2.354321,1.6154563,-0.9297227,0.75623524,-0.5127243,-1.6493137,-1.6565207,2.389134,1.5636984,-0.92137635,-1.2714162,-1.4367878,-1.1637744,-1.3733239,-0.7474738,0.41314593,0.20481692,0.25279427,-0.38170815,0.9472443,-3.0679018,-0.013039134,-3.135134,0.16497993,-0.41901588,0.80585873,0.76060474,0.05486328,0.120786764,0.63551635,-0.9409436,-0.7986229,-0.9960454,1.0,0.0,0.0,0.0,0.0,0.0,0.0,-0.90279424,-0.01829186,-0.39724427,-11.5439415,-0.067806244,-1.624012,1.6002655,5.9172034,-0.5440712,-4.443735
-14.796961,21.026993,7.189377,21.543926,2.142972,1.5908645,-0.46903637,-0.7867997,-0.7935797,-0.65820235,-0.75876445,-0.31741682,0.5279318,-0.27422243,0.67755526,-0.59208226,-1.7151339,-1.7323972,2.3573923,1.6164916,-0.9487986,0.742797,-0.5270513,-1.6610401,-1.6701487,2.3824086,1.567782,-0.9197961,-1.3663511,-1.4319814,-1.1769601,-1.3578594,-0.6488733,0.4063553,0.14261563,0.22213936,-0.38183784,0.91517997,-3.0648346,-0.013026098,-3.2301853,0.15509796,-0.42700577,0.79589266,0.7642391,0.06293544,0.116321206,0.6312266,-1.0069952,-0.7847766,-1.0006835,1.0,0.0,0.0,0.0,0.0,0.0,0.0,-0.87213933,-0.018162161,-0.36517996,-9.008718,0.282979,-1.667285,1.9047022,9.570349,-0.81516504,-6.1384945
-10.694691,25.89697,10.956524,21.425926,1.8536574,1.6808933,-0.42404544,-0.79997945,-0.7898924,-0.6572163,-0.7219376,-0.27794293,0.54677427,-0.4066459,0.66279906,-0.6060406,-1.7267617,-1.7423425,2.3546143,1.6224594,-0.9604607,0.72866356,-0.5413116,-1.672858,-1.6834811,2.3766751,1.571818,-0.91889393,-1.4278256,-1.4245801,-1.1841221,-1.3240435,-0.54885554,0.40246573,0.07300785,0.19151497,-0.38196754,0.8821659,-3.0617702,-0.013013074,-3.3251414,0.14464378,-0.43479156,0.7859422,0.7682751,0.07089123,0.11119892,0.62638843,-1.061699,-0.76158386,-0.9968859,1.0,0.0,0.0,0.0,0.0,0.0,0.0,-0.84151495,-0.018032461,-0.3321659,-5.7920694,0.5682707,-0.94475746,3.6736488,9.783876,-0.47447085,-6.8739862
-8.22216,28.821888,12.921473,20.953127,1.643991,1.6845801,-0.38902524,-0.81763947,-0.78305113,-0.67382544,-0.69669104,-0.2222916,0.55163765,-0.46604177,0.64689964,-0.61961675,-1.7402406,-1.7531502,2.354446,1.6269817,-0.9654981,0.7140943,-0.55547464,-1.6847866,-1.6963958,2.371922,1.5758272,-0.9186717,-1.46574,-1.4141011,-1.1963018,-1.279926,-0.4513378,0.4001093,0.005567722,0.1609211,-0.38209724,0.84820294,-3.0587091,-0.013000064,-3.4200027,0.13369751,-0.44231987,0.77605295,0.77265877,0.07864899,0.105457336,0.6210406,-1.1082969,-0.7344396,-0.990057,1.0,0.0,0.0,0.0,0.0,0.0,0.0,-0.8109211,-0.017902762,-0.29820293,-3.5209894,0.8930445,-1.3641596,4.663348,9.581507,-0.30172467,-6.663377
-4.7200994,31.057396,14.663868,18.43779,1.1780888,1.5766273,-0.28586644,-0.81770885,-0.7809435,-0.6864196,-0.69704974,-0.20518906,0.5615373,-0.50077635,0.6323234,-0.633569,-1.7534285,-1.7661008,2.351403,1.631981,-0.96874934,0.6993238,-0.5695394,-1.6968696,-1.7089518,2.367989,1.579827,-0.91907895,-1.4801338,-1.4044139,-1.2126765,-1.246741,-0.37441757,0.3995967,-0.055878475,0.13035774,-0.38222694,0.81329215,-3.055651,-0.012987066,-3.514769,0.12239647,-0.44953346,0.7661881,0.77728623,0.0862181,0.099192835,0.6152669,-1.140782,-0.70129997,-0.98899645,1.0,0.0,0.0,0.0,0.0,0.0,0.0,-0.7803577,-0.017773062,-0.26329213,-1.2456179,0.83658695,-1.7364979,3.5339117,7.557863,-0.09826422,-6.0724626
-1.4641609,33.40111,16.591785,16.19103,0.6149988,1.521922,-0.17810658,-0.8167557,-0.7776301,-0.68716425,-0.6887689,-0.24138483,0.5765207,-0.5037971,0.6176482,-0.64730245,-1.765586,-1.7778287,2.3438506,1.6374791,-0.96945864,0.6846265,-0.5834827,-1.7095542,-1.7214552,2.364105,1.5855643,-0.9197494,-1.4467707,-1.3854183,-1.3698325,-1.2877711,-0.47809753,0.9100353,-0.043204162,0.105623245,-0.38347435,0.79229546,-1.4336864,-0.27161774,1.0752184,0.11074638,-0.45616722,0.7561711,0.78195155,0.09298588,0.0927706,0.60934293,-1.1944138,-0.60557306,-1.034622,0.0,1.0,0.0,0.0,0.0,0.0,0.0,-0.7556232,-0.016525656,-0.24229544,6.7210197,2.8315783,-30.23336,-10.364747,-24.366962,101.905205,7.8254604
80.27575,176.0,110.0,94.66436,-5.949337,9.437521,-0.6254308,-0.803124,0.39072704,0.6722849,0.7483131,-0.18359554,0.61169535,-0.5052218,0.6043141,-0.54441,-1.6423258,-1.6466238,2.3457453,1.6467338,-0.9702716,0.676053,-0.5934648,-1.7252574,-1.7243334,2.353134,1.6031004,-0.9183761,-0.6664225,-0.86876607,-1.627627,0.039953787,-1.2993226,2.0421922,0.19240125,0.09129715,-0.3861885,0.80230314,-1.4322529,-0.27134618,0.97595745,0.10014725,-0.4601097,0.7496409,0.7863357,0.0908649,0.09211631,0.60409784,-1.0162541,-0.30841336,-0.52815866,0.0,1.0,0.0,0.0,0.0,0.0,0.0,-0.7412971,-0.013811499,-0.25230312,76.35949,51.787567,-22.91441,131.16568,-80.848885,115.41727,22.047949
25.176514,132.8158,91.17495,95.6654,0.4386627,7.0727644,-0.76928157,-0.8201957,-0.43067646,0.32488352,0.78530663,-0.57147455,0.53565633,-0.24863979,0.5940334,-0.6365324,-1.692769,-1.6458027,2.2959864,1.656666,-0.94324005,0.66940206,-0.6005334,-1.7366385,-1.7169863,2.3392065,1.6234118,-0.9165813,-0.66464335,-0.65443563,-0.97211987,0.96504366,-1.4267193,2.0334818,0.17392682,0.076984406,-0.38890076,0.81131893,-1.4308208,-0.2710749,0.8767957,0.09039688,-0.4620304,0.7481045,0.7909437,0.082118794,0.095141135,0.5988428,-0.9606284,-0.14319466,-0.03303103,1.0,0.0,0.0,0.0,0.0,0.0,0.0,-0.7269844,-0.011099249,-0.26131892,0.17812252,20.984627,66.390144,92.177246,-13.509727,0.9522438,-2.2094488
-10.422926,99.533936,51.8857,74.76694,2.3777432,4.2709227,-1.2567109,-0.79922277,-0.13020568,-0.29441035,0.7326156,-0.62991977,0.60301864,0.23584485,0.5894798,-0.613554,-1.7660795,-1.6437247,2.2762146,1.6837137,-0.8929968,0.661292,-0.6050891,-1.7436309,-1.703139,2.3253171,1.6424052,-0.91481316,-0.8575373,-0.39062312,-0.6093021,1.5250497,-1.3784372,1.8581437,0.17725365,0.06268692,-0.3916092,0.81934386,-1.4293902,-0.27080387,0.7777331,0.080610275,-0.46290588,0.75014424,0.7962182,0.07036802,0.1000205,0.5925207,-0.9839137,-0.062361915,0.27712718,1.0,0.0,0.0,0.0,0.0,0.0,0.0,-0.7126869,-0.008390814,-0.26934385,-18.633057,25.964397,35.99402,56.145622,4.1098595,-16.511272,0.15514195
-38.67032,44.686653,10.680515,50.658855,4.1144795,1.9814761,-1.350793,-0.7992201,-0.18589212,-0.47797975,0.79357594,-0.6596187,0.567239,0.116967574,0.58137,-0.6236783,-1.7914288,-1.6237813,2.2593553,1.6991291,-0.9031164,0.65074915,-0.60802263,-1.7490058,-1.6860834,2.3124692,1.6592985,-0.91313374,-1.117722,-0.26175615,-0.5151785,1.7665486,-1.253973,1.6345458,0.16487853,0.048404694,-0.39431572,0.8263789,-1.427961,-0.2705331,0.6787695,0.069999695,-0.46359253,0.7538128,0.8023767,0.058200076,0.10559407,0.58451205,-1.0859953,-0.06330296,0.39079556,1.0,0.0,0.0,0.0,0.0,0.0,0.0,-0.69840467,-0.0056842864,-0.27637887,-25.362158,12.652981,8.855236,24.425173,12.24947,-21.914196,-1.2241393
-43.34102,11.930379,-10.395072,28.600874,3.8570125,0.40588742,-1.0467042,-0.80417,-0.2143769,-0.5249899,0.79090124,-0.6690136,0.61909443,0.009926155,0.57033217,-0.62946033,-1.8015047,-1.6069933,2.2455678,1.721208,-0.91214114,0.6379537,-0.6104545,-1.7548041,-1.6683356,2.3008459,1.6741186,-0.9116546,-1.3319135,-0.23728676,-0.6028111,1.7782224,-1.1316501,1.4315197,0.14234774,0.03413582,-0.39701843,0.8324171,-1.4265332,-0.27026263,0.5788397,0.058296204,-0.464571,0.7575764,0.8093118,0.047214266,0.11106191,0.5748481,-1.1983811,-0.10024018,0.36624196,1.0,0.0,0.0,0.0,0.0,0.0,0.0,-0.6841358,-0.0029815733,-0.28241706,-20.961689,2.349627,-9.197545,1.3791084,12.302184,-20.165777,-2.2412062
-39.26865,-9.754244,-19.808582,14.4019375,3.3532145,-0.46208733,-0.6383513,-0.8117733,-0.29920542,-0.54794276,0.7913645,-0.66646355,0.609049,-0.06942257,0.55677634,-0.640375,-1.8095984,-1.5891991,2.2341995,1.7350235,-0.91859686,0.6236133,-0.6134605,-1.7620025,-1.6513106,2.2902372,1.6871134,-0.91044724,-1.4668974,-0.32177874,-0.75986487,1.6779373,-1.0371838,1.2553842,0.11362778,0.019880295,-0.39971924,0.83745664,-1.4251069,-0.26999244,0.47900984,0.04551506,-0.46607018,0.7605241,0.81676835,0.03811212,0.11590685,0.56391704,-1.3041837,-0.1553984,0.26645538,1.0,0.0,0.0,0.0,0.0,0.0,0.0,-0.6698803,-0.00028076768,-0.28745663,-13.160634,-8.462501,-15.98686,-9.813213,9.545612,-17.633606,-2.8243275
-28.336164,-11.633083,-16.437906,8.066483,2.4908864,-0.6542112,-0.26657385,-0.811616,-0.34600827,-0.5471978,0.7946178,-0.6527958,0.6039109,-0.10122975,0.5424517,-0.64806134,-1.8167223,-1.5718488,2.2249577,1.7475045,-0.9205702,0.60850996,-0.6176624,-1.7706504,-1.6354548,2.2803495,1.6985613,-0.9095298,-1.5239938,-0.4529557,-0.90030843,1.5555676,-0.97266805,1.1076072,0.08476036,0.00564003,-0.40241623,0.8414987,-1.423682,-0.2697225,0.37927973,0.031887054,-0.46806908,0.7623653,0.8244616,0.030901337,0.1199257,0.552201,-1.3828299,-0.20221785,0.15284757,1.0,0.0,0.0,0.0,0.0,0.0,0.0,-0.65564,0.0024162233,-0.29149866,-5.477786,-13.11816,-14.193678,-12.01086,6.440258,-14.821005,-2.8252199
-17.667913,-2.1559682,-7.76777,7.5414515,1.7094102,-0.44849402,-0.04907663,-0.8141404,-0.3709942,-0.55002415,0.80006206,-0.6420229,0.59664345,-0.122242644,0.5270959,-0.6547618,-1.8256528,-1.5554485,2.2161472,1.7582257,-0.92175406,0.5932254,-0.6231441,-1.7803435,-1.620608,2.2709234,1.708718,-0.908888,-1.5295442,-0.57993144,-0.9924316,1.4617352,-0.9334172,0.9851444,0.057479195,-0.008584976,-0.4051113,0.8445442,-1.4222585,-0.26945284,0.27964938,0.017702103,-0.47039223,0.76322174,0.8321737,0.025229368,0.123195305,0.5400678,-1.4318615,-0.22882609,0.059552055,1.0,0.0,0.0,0.0,0.0,0.0,0.0,-0.641415,0.005111307,-0.29454416,-0.4187107,-12.725639,-9.252763,-9.174657,3.8009644,-12.248158,-2.682419
-12.877029,3.445964,-2.7950904,9.296079,1.4849863,-0.21554208,0.011713808,-0.81193995,-0.43737268,-0.580408,0.8028107,-0.6354108,0.59099084,-0.15808645,0.51203144,-0.6668814,-1.8383844,-1.540327,2.2073822,1.767817,-0.9246966,0.57809347,-0.62989324,-1.7907157,-1.6063792,2.2617567,1.7178122,-0.9085151,-1.507365,-0.7067576,-1.052226,1.4106685,-0.91208005,0.8840729,0.030698895,-0.022798538,-0.4078045,0.8465941,-1.4208364,-0.26918343,0.18011864,0.003107071,-0.47289658,0.76329124,0.83980685,0.020699564,0.12582739,0.52769625,-1.4701271,-0.24415125,-0.01436097,1.0,0.0,0.0,0.0,0.0,0.0,0.0,-0.62720144,0.007804483,-0.29659408,2.319026,-12.732863,-5.9611797,-4.8862457,1.9753814,-10.084438,-2.6307664
-9.033314,12.60237,3.1777627,11.638256,1.2236109,0.122122824,0.021911984,-0.81113493,-0.47487673,-0.5749153,0.80204964,-0.63065106,0.6045639,-0.22366567,0.49697998,-0.6773809,-1.8482072,-1.5261742,2.1986916,1.7782686,-0.9308817,0.56323427,-0.6377525,-1.8013854,-1.5924002,2.252712,1.7260424,-0.9084321,-1.4786648,-0.8125801,-1.0714917,1.3942387,-0.902267,0.80283576,0.0010040352,-0.03699684,-0.41049385,0.8476495,-1.4194158,-0.2689143,0.080687396,-0.011777878,-0.47543144,0.76280093,0.8473159,0.016944453,0.1279798,0.51515996,-1.4962851,-0.24292953,-0.064680934,1.0,0.0,0.0,0.0,0.0,0.0,0.0,-0.61300313,0.010493845,-0.2976495,2.9384851,-10.667825,-1.8565178,-1.4433384,0.77500343,-8.065224,-2.9440114
-5.691156,20.306932,8.099154,12.990506,1.0092915,0.37780058,0.03795643,-0.7981222,-0.5177483,-0.555253,0.7988535,-0.6151803,0.6131305,-0.30469725,0.48342204,-0.6895273,-1.8569107,-1.5125148,2.191194,1.7873554,-0.93890184,0.54868025,-0.6465387,-1.811975,-1.5784422,2.243755,1.7335802,-0.9086791,-1.4475113,-0.90108114,-1.0542543,1.3971199,-0.89397776,0.73765945,-0.033171337,-0.051179886,-0.4131813,0.8477113,-1.4179966,-0.26864544,-0.01864443,-0.02684021,-0.4778576,0.7619406,0.8546653,0.013662009,0.12976699,0.50251466,-1.5114033,-0.22858183,-0.09749649,1.0,0.0,0.0,0.0,0.0,0.0,0.0,-0.5988201,0.013181299,-0.2977113,3.1497955,-8.960438,1.8392563,0.4553318,0.5795002,-6.4288616,-3.4064643
-3.2405033,28.369102,12.206072,13.746456,0.7211349,0.56755483,0.0604784,-0.7904448,-0.5341797,-0.53930664,0.7946249,-0.6213641,0.6151655,-0.29994324,0.46963575,-0.69995666,-1.8659056,-1.4989797,2.1816187,1.7950968,-0.93867344,0.5344009,-0.6559972,-1.8222365,-1.5644099,2.2348363,1.7405592,-0.9092351,-1.4213303,-0.9612306,-1.0164213,1.4056723,-0.89195955,0.6851012,-0.063145384,-0.06534767,-0.41586685,0.8467806,-1.4165789,-0.26837686,-0.11787695,-0.041967392,-0.48005486,0.7608519,0.86181647,0.010667699,0.13133661,0.48980534,-1.514428,-0.20246562,-0.11749257,1.0,0.0,0.0,0.0,0.0,0.0,0.0,-0.5846523,0.015866846,-0.2967806,2.630043,-6.148815,3.921008,0.9790659,-0.08406639,-5.1370144,-3.0195765
-0.1263256,34.84974,15.886481,13.55763,0.44212615,0.6882512,0.1228364,-0.7743259,-0.55672926,-0.49858928,0.78825563,-0.61601585,0.62814754,-0.30304375,0.45696828,-0.71167016,-1.8720955,-1.4855843,2.1732347,1.8033739,-0.9395395,0.5203771,-0.6659202,-1.8319488,-1.5503184,2.2259367,1.7470976,-0.91006005,-1.3961065,-1.0031432,-0.95565593,1.4105092,-0.8906474,0.6438132,-0.08900247,-0.07950401,-0.41854858,0.8448583,-1.4151626,-0.26810852,-0.21701026,-0.05703354,-0.48191833,0.7596311,0.8687149,0.007830577,0.13278958,0.47711635,-1.504682,-0.16775969,-0.12868187,1.0,0.0,0.0,0.0,0.0,0.0,0.0,-0.57049596,0.018548578,-0.29485828,2.4992943,-4.336846,6.24367,0.56049824,-0.1927495,-3.9832592,-2.626723
0.8391261,36.98966,16.726648,13.067027,0.3423699,0.6889626,0.15808786,-0.7596377,-0.58261526,-0.4779401,0.78324246,-0.6162793,0.6373061,-0.276964,0.44441333,-0.7241817,-1.8797427,-1.4719942,2.1643088,1.8108282,-0.9377564,0.5066022,-0.6762075,-1.841043,-1.536223,2.2170408,1.7532889,-0.91109097,-1.3714108,-1.0376945,-0.89346147,1.4094839,-0.89051783,0.6113066,-0.107969336,-0.093645096,-0.4212265,0.84194535,-1.4137477,-0.26784047,-0.31604448,-0.071964264,-0.48342705,0.75830144,0.8753279,0.005098313,0.13416733,0.46451497,-1.4903858,-0.13177301,-0.13946731,1.0,0.0,0.0,0.0,0.0,0.0,0.0,-0.5563549,0.021226496,-0.29194534,2.4369478,-3.6002874,6.387806,-0.038266182,-0.3114462,-3.1015754,-1.9407719
2.2415333,38.16844,16.892067,12.322792,0.19226158,0.57802004,0.1960647,-0.72900915,-0.5981093,-0.4730433,0.7857336,-0.64365065,0.6445522,-0.21597545,0.4337013,-0.7360184,-1.8883473,-1.4576497,2.1526756,1.8177441,-0.93268853,0.4931497,-0.6867904,-1.8496356,-1.5221411,2.2080572,1.7592055,-0.91223824,-1.3366964,-1.0656084,-0.84736407,1.4078474,-0.9017141,0.5857234,-0.11717476,-0.10777092,-0.4239025,0.83804286,-1.4123342,-0.26757267,-0.41497967,-0.08671379,-0.48459053,0.7568441,0.88163126,0.0024868785,0.13553788,0.45205033,-1.4705508,-0.098465376,-0.15300487,1.0,0.0,0.0,0.0,0.0,0.0,0.0,-0.54222906,0.023902506,-0.28804284,3.4210205,-2.9303074,4.7855735,-0.10933876,-1.4279127,-2.406633,-0.9730324
0.02969551,33.32286,13.424388,11.657059,0.3868717,0.39637047,0.15894043,-0.70893615,-0.63683176,-0.48953086,0.7829527,-0.64276904,0.64969254,-0.21579503,0.42225608,-0.75047356,-1.8985887,-1.4438459,2.1437802,1.8241748,-0.93381774,0.48007387,-0.6977367,-1.8580089,-1.5080878,2.1989667,1.7649065,-0.9134551,-1.2979429,-1.1048208,-0.8334918,1.4047736,-0.91210955,0.56516075,-0.123278745,-0.12188339,-0.4265766,0.8331488,-1.4109222,-0.26730517,-0.5142097,-0.10133934,-0.48548698,0.7551606,0.8876549,7.569562e-05,0.13686945,0.43969923,-1.460145,-0.07437851,-0.17861624,1.0,0.0,0.0,0.0,0.0,0.0,0.0,-0.5281166,0.026576608,-0.28314877,3.845501,-4.045224,1.534462,-0.20964146,-1.2923837,-1.9402981,-0.6404966
-5.552258,28.455479,8.744709,12.10048,0.6886007,0.2921701,0.047984198,-0.7105626,-0.6541391,-0.5314765,0.78329855,-0.65439236,0.644135,-0.19394207,0.40901762,-0.7631506,-1.9111565,-1.429758,2.1335275,1.8293201,-0.93284935,0.46729654,-0.7090787,-1.8665748,-1.4940573,2.1897619,1.7704226,-0.91470444,-1.2708629,-1.1444701,-0.864079,1.4030583,-0.9240075,0.54746115,-0.12549235,-0.13598251,-0.4292469,0.8272631,-1.4095116,-0.2670379,-0.61334044,-0.11598396,-0.4861889,0.75313526,0.893477,-0.0019887912,0.13814634,0.4273293,-1.4659632,-0.056620155,-0.2157971,1.0,0.0,0.0,0.0,0.0,0.0,0.0,-0.51401746,0.029246897,-0.2772631,2.740693,-4.085827,-2.9797435,-0.006341934,-1.3734579,-1.6973734,-0.2418086
-6.4183216,24.251394,6.150167,10.715008,0.7539898,0.1412248,0.04496824,-0.67837936,-0.6928167,-0.5575004,0.7737944,-0.6512148,0.65104103,-0.19439131,0.3994586,-0.77836037,-1.9223248,-1.4166778,2.1246405,1.8355267,-0.93414354,0.45484203,-0.72090334,-1.875627,-1.4800802,2.1804693,1.7757899,-0.91596806,-1.2368684,-1.1954646,-0.918681,1.3967115,-0.9312497,0.5331232,-0.12659228,-0.15006638,-0.43191528,0.82038695,-1.4081024,-0.26677093,-0.71237206,-0.13072968,-0.48675537,0.75064814,0.89913434,-0.0036000255,0.13930762,0.4148949,-1.477234,-0.044905577,-0.26493427,1.0,0.0,0.0,0.0,0.0,0.0,0.0,-0.4999336,0.031915277,-0.27038693,3.4306526,-5.2093267,-5.38857,-0.43888092,-0.86860657,-1.397109,-0.111460686
1.5055108,25.901176,8.967024,7.4987183,0.34573308,-0.04043591,0.20209777,-0.6053422,-0.7296501,-0.54978013,0.7628929,-0.64197147,0.66981536,-0.19491772,0.39430782,-0.79386836,-1.930605,-1.403791,2.1162722,1.8427714,-0.93545985,0.44298643,-0.7333059,-1.8851352,-1.4662138,2.1711576,1.7810465,-0.9172393,-1.1687214,-1.2554866,-0.96079886,1.3837714,-0.93185943,0.52324986,-0.12720735,-0.16413689,-0.43458176,0.81252116,-1.4066947,-0.2665042,-0.81130475,-0.1454544,-0.48723793,0.7476493,0.904568,-0.004789244,0.14026217,0.40256706,-1.4704534,-0.037521113,-0.3170873,1.0,0.0,0.0,0.0,0.0,0.0,0.0,-0.4858631,0.03458175,-0.26252115,6.7410707,-6.0979366,-4.048574,-1.1563778,-0.23212433,-0.9525299,-0.05400777
3.8884182,23.193262,7.887563,4.7542663,0.19775516,-0.2414589,0.25744954,-0.56894696,-0.76992273,-0.59772956,0.7332324,-0.62416816,0.6549892,-0.21029118,0.38609174,-0.81029814,-1.9449081,-1.3928906,2.1087408,1.8465455,-0.9382684,0.43189615,-0.74637026,-1.8951602,-1.4526011,2.1619146,1.7862078,-0.91852486,-1.0894885,-1.323655,-1.0157534,1.3541558,-0.92271435,0.5136854,-0.12900627,-0.17819405,-0.43724442,0.8036668,-1.4052883,-0.26623777,-0.9101385,-0.16009521,-0.48770142,0.74404156,0.9097545,-0.005513539,0.14090164,0.39046508,-1.4604394,-0.03741263,-0.38123682,1.0,0.0,0.0,0.0,0.0,0.0,0.0,-0.47180593,0.03724441,-0.25366676,7.813549,-6.8992615,-5.321276,-2.824831,0.7618189,-0.95204115,-0.15426576
19.512165,34.434246,16.543793,1.3205528,-0.6877809,-0.43708146,0.50935584,-0.4501274,-0.77205795,-0.5752597,0.7293432,-0.62987363,0.6641332,-0.15482363,0.3868834,-0.82357603,-1.9526862,-1.3796668,2.0989273,1.8526211,-0.9340072,0.4219889,-0.7599744,-1.9055018,-1.4392821,2.1527402,1.7912928,-0.9197885,-0.9587086,-1.3729047,-1.0391223,1.3244027,-0.9162187,0.5069579,-0.12557597,-0.19223595,-0.43990517,0.79382485,-1.4038833,-0.26597157,-1.0088735,-0.17432022,-0.48818207,0.73989195,0.91457874,-0.005873984,0.14127234,0.37888435,-1.4085746,-0.040725674,-0.43232787,1.0,0.0,0.0,0.0,0.0,0.0,0.0,-0.45776403,0.03990516,-0.24382484,12.79298,-5.0049305,-2.0039082,-2.9967308,0.40795803,-0.63256025,0.32986104
23.388863,37.334423,17.90832,0.26975536,-0.9788002,-0.60116565,0.5755835,-0.39035755,-0.7870799,-0.6232604,0.71458876,-0.65022963,0.6552641,-0.046660893,0.38295314,-0.8386824,-1.9678279,-1.3678231,2.0877173,1.8568192,-0.92445457,0.41346782,-0.7739677,-1.9161658,-1.4262644,2.1435544,1.7963129,-0.9209367,-0.81761867,-1.4084215,-1.0742514,1.2940462,-0.91984004,0.5005622,-0.11141911,-0.2062645,-0.442564,0.78299624,-1.4024796,-0.26570567,-1.1075097,-0.18795395,-0.488739,0.7352379,0.91898644,-0.0058707343,0.14147928,0.36798513,-1.3461529,-0.050338972,-0.48283574,0.0,1.0,0.0,0.0,0.0,0.0,0.0,-0.44373548,0.042564005,-0.23299623,13.798178,-3.6361456,-3.1646729,-3.083539,-0.6077051,-0.61172247,1.380676
22.97675,40.31339,18.387459,1.1413217,-1.003058,-0.61151016,0.53165317,-0.34103242,-0.7905064,-0.6525071,0.7043707,-0.66288596,0.6538711,-0.046201803,0.37936458,-0.85301834,-1.9814166,-1.3558273,2.0772657,1.8617,-0.9255569,0.4062795,-0.7881908,-1.9272361,-1.4135214,2.134281,1.8012758,-0.9219476,-0.6868048,-1.4273432,-1.116816,1.2676479,-0.93048364,0.4949241,-0.09782021,-0.2202797,-0.44521904,0.771182,-1.4010774,-0.26544002,-1.2060474,-0.20095634,-0.48938942,0.73011357,0.92299944,-0.0054671867,0.14163712,0.3577444,-1.2827595,-0.060876254,-0.52877545,0.0,1.0,0.0,0.0,0.0,0.0,0.0,-0.42972028,0.045219034,-0.22118199,12.800968,-1.992321,-3.93188,-2.6815653,-1.3129115,-0.55380464,1.303339
22.718693,42.345936,18.667356,1.4109488,-1.035898,-0.61421204,0.5147393,-0.2819042,-0.7947121,-0.67365694,0.6811392,-0.6730728,0.6525806,-0.031300303,0.37808907,-0.867662,-1.9946017,-1.3454075,2.0669737,1.8665339,-0.9250776,0.40031427,-0.8025226,-1.9387469,-1.4010702,2.1248739,1.8061873,-0.922824,-0.5631067,-1.4354956,-1.1735756,1.2298583,-0.9572341,0.4936477,-0.1027239,-0.23427963,-0.44787025,0.7583832,-1.5219731,-0.04207008,-0.7536832,-0.2133236,-0.490139,0.724547,0.9266445,-0.0046329973,0.14182185,0.34813067,-1.215548,-0.07381204,-0.5783311,0.0,1.0,0.0,0.0,0.0,0.0,0.0,-0.41572034,0.04787025,-0.2083832,12.534094,-0.93746185,-6.577325,-4.5627832,-4.158771,0.23998618,-2.3771093
-13.612661,39.50038,8.471842,15.707913,0.85496277,0.29858992,-0.03953915,-0.44803068,-0.764742,-0.7275711,0.7411705,-0.7073462,0.62764317,0.21517494,0.3555112,-0.8789968,-2.011504,-1.3269532,2.0541391,1.8689516,-0.9013065,0.39449605,-0.8167362,-1.9510727,-1.3886676,2.1153264,1.8113168,-0.92351866,-0.5880872,-1.4174334,-1.2497921,1.2455766,-0.9606378,0.51219416,-0.060676884,-0.24813843,-0.4482422,0.7530152,-1.3812957,-0.032902867,-0.537966,-0.22563934,-0.49074364,0.7185909,0.930145,-0.0033322133,0.14223428,0.33850935,-1.2319977,-0.049199175,-0.6072483,0.0,1.0,0.0,0.0,0.0,0.0,0.0,-0.40186155,0.04824218,-0.20301521,-2.5199652,1.594162,-6.8401337,2.1157265,-2.4264216,-0.42196512,3.498345
-15.99798,54.575966,15.036267,21.435883,1.1115401,0.83631766,-0.098786496,-0.4194996,-0.719465,-0.65730286,0.78272295,-0.71554524,0.65218216,0.2969228,0.3525461,-0.8886827,-2.016803,-1.3103952,2.043772,1.876535,-0.89382637,0.38822812,-0.830533,-1.9636451,-1.3758141,2.1055624,1.8164545,-0.92380965,-0.6392606,-1.3679677,-1.2593192,1.2993466,-0.98276967,0.51395935,-0.019077117,-0.26179123,-0.44841003,0.7477519,-1.3608887,-0.011341068,-0.52657825,-0.23805428,-0.49096298,0.7126559,0.93353564,-0.0017602901,0.14310466,0.32867774,-1.2407707,-0.0055650724,-0.5953377,0.0,1.0,0.0,0.0,0.0,0.0,0.0,-0.38820875,0.04841003,-0.19775188,-4.971361,4.697323,-0.8282423,5.557871,-2.5305033,0.1737833,4.008616
-15.1366,55.296494,15.650805,20.837543,1.0848395,0.8436347,-0.06567675,-0.40625426,-0.7263086,-0.6804959,0.77348256,-0.7282417,0.6501295,0.2804718,0.3476027,-0.9031639,-2.0316947,-1.2984658,2.0327382,1.8814675,-0.89576244,0.38147008,-0.8438988,-1.9762061,-1.3624533,2.095571,1.821585,-0.9237152,-0.68761456,-1.3269196,-1.2544407,1.3489139,-1.0059161,0.5124128,0.018521152,-0.27523232,-0.44836807,0.7426032,-1.3394657,0.009554454,-0.514485,-0.25053215,-0.49074364,0.7068429,0.9367976,-1.8311564e-05,0.1444475,0.31866124,-1.2467648,0.038161084,-0.58267355,0.0,1.0,0.0,0.0,0.0,0.0,0.0,-0.37476766,0.048368067,-0.19260317,-4.720378,3.8563251,0.65193176,5.1267147,-2.6614547,-0.1660347,3.6114705
-16.298367,58.02132,16.289225,21.20295,1.1500671,0.9167463,-0.05623284,-0.44299594,-0.7000388,-0.6811944,0.78395694,-0.7310086,0.63614905,0.3282727,0.33717048,-0.91390264,-2.0443256,-1.2840576,2.0224702,1.8852,-0.8908879,0.3741738,-0.8568411,-1.9886575,-1.348666,2.0853865,1.8266878,-0.92324996,-0.7432785,-1.2841364,-1.2412194,1.389146,-1.0240304,0.5092447,0.05531073,-0.28845215,-0.4481144,0.73758507,-1.3169454,0.03098544,-0.5008703,-0.26306915,-0.49006844,0.701169,0.9399216,0.0018900564,0.14622252,0.30848458,-1.2523345,0.08508308,-0.5680676,0.0,1.0,0.0,0.0,0.0,0.0,0.0,-0.36154783,0.04811439,-0.18758506,-5.461335,4.0213823,1.5090704,4.187441,-2.1928787,-0.337255,3.5229416
-22.178047,57.21067,14.289899,22.065937,1.3880358,1.0438049,-0.09678688,-0.50774205,-0.67748946,-0.6832973,0.79164755,-0.73714226,0.60561794,0.39067286,0.32339957,-0.92459005,-2.0569873,-1.2695012,2.0116723,1.8872496,-0.8841827,0.36614734,-0.86936283,-2.0009887,-1.3345726,2.0750492,1.8317306,-0.9224115,-0.82199055,-1.2424383,-1.2297527,1.4168447,-1.0385877,0.5022201,0.0929057,-0.3014698,-0.44763947,0.7326679,-1.2973526,0.05336135,-0.4914185,-0.27573586,-0.48888206,0.69561857,0.94292223,0.0040212297,0.14837828,0.2981027,-1.2673103,0.13803276,-0.5561817,0.0,1.0,0.0,0.0,0.0,0.0,0.0,-0.34853017,0.04763946,-0.18266791,-7.736051,3.9049149,1.3149977,2.9711485,-1.8393993,-0.7440567,3.6089942
-21.286797,56.978474,14.253521,20.826132,1.3731173,1.0306287,-0.06373597,-0.53095406,-0.66394603,-0.6722548,0.79565936,-0.72050804,0.6040465,0.40657112,0.31305194,-0.93575746,-2.0682142,-1.2550067,2.0029984,1.8921353,-0.8817544,0.3573646,-0.88151455,-2.0131776,-1.3202945,2.0646546,1.8367016,-0.92122316,-0.89669293,-1.2070205,-1.2148876,1.4320672,-1.0411911,0.4948655,0.12709607,-0.31429482,-0.4469509,0.7278113,-1.2781124,0.07461395,-0.4861259,-0.28853798,-0.48716927,0.6901608,0.9457992,0.0063922727,0.15081517,0.2875373,-1.280112,0.19073102,-0.54754585,0.0,1.0,0.0,0.0,0.0,0.0,0.0,-0.33570516,0.046950907,-0.17781126,-7.3631763,3.2850504,1.6766548,1.7137527,-0.652647,-0.7982135,3.281951
-9.927083,59.228497,17.548845,16.603575,0.8420185,0.7973379,0.102292545,-0.50457615,-0.6478668,-0.6563106,0.7914872,-0.7163662,0.61237514,0.42438397,0.30690697,-0.9463012,-2.0788088,-1.2411457,1.9930179,1.8979392,-0.8787848,0.34814495,-0.8933467,-2.0251718,-1.3059686,2.0542862,1.841614,-0.91971564,-0.93044555,-1.1759837,-1.1935588,1.4330221,-1.037184,0.48964646,0.1581808,-0.3268814,-0.44608498,0.7229977,-1.2528094,0.09121737,-0.48118484,-0.30129242,-0.48501778,0.68476844,0.9485012,0.008969349,0.15343839,0.27698678,-1.2701062,0.23217572,-0.5413445,0.0,1.0,0.0,0.0,0.0,0.0,0.0,-0.32311857,0.04608497,-0.17299771,-3.375125,2.8757095,2.400732,0.19025803,-0.024747849,-0.57985187,2.9602857
-5.3010073,54.618008,16.390854,13.321358,0.64252365,0.5372536,0.17525631,-0.51054174,-0.65547174,-0.6712355,0.7824804,-0.69955456,0.5810559,0.43842536,0.29709077,-0.9588939,-2.0922954,-1.2277206,1.9843308,1.8997196,-0.8758731,0.33875513,-0.9049997,-2.0370588,-1.2917246,2.0440176,1.8464537,-0.9179225,-0.9419201,-1.1623242,-1.1862057,1.4219245,-1.0247923,0.48164186,0.18595894,-0.33922577,-0.4450817,0.71812963,-1.2286601,0.103293955,-0.48965186,-0.3139267,-0.4825325,0.67933506,0.95100945,0.011792356,0.15611413,0.26658988,-1.2559664,0.2624602,-0.54848313,0.0,1.0,0.0,0.0,0.0,0.0,0.0,-0.3107742,0.045081705,-0.16812962,-1.183331,1.1704683,1.0033607,-1.0283709,0.84950924,-0.8668363,2.6498528
0.6112108,59.509342,19.46025,12.411339,0.4114195,0.48627618,0.24164191,-0.50629735,-0.62627494,-0.6428771,0.78821826,-0.70646983,0.5868111,0.47746918,0.2881254,-0.96762717,-2.1013465,-1.2129028,1.9733706,1.9051348,-0.8701756,0.3293829,-0.9164619,-2.048789,-1.2775816,2.0338514,1.8512262,-0.9158551,-0.93594664,-1.1415569,-1.1676296,1.4120082,-1.0153402,0.47552764,0.21323268,-0.35128593,-0.44396973,0.7132316,-1.1987554,0.113856494,-0.4900527,-0.3263092,-0.4797783,0.67388356,0.95330125,0.01481967,0.15883633,0.25645298,-1.2282854,0.28832927,-0.54837424,0.0,1.0,0.0,0.0,0.0,0.0,0.0,-0.29871404,0.04396972,-0.16323161,0.50845146,1.8857479,2.1847248,-0.9743929,0.5143881,-0.66725016,2.5792956
-1.0147357,59.780987,18.611088,12.925552,0.4791111,0.4574777,0.21164596,-0.5205535,-0.61117923,-0.65772283,0.7860261,-0.7083606,0.5633233,0.507969,0.27732754,-0.97757983,-2.1145613,-1.1989789,1.9630153,1.9075586,-0.8650582,0.32004833,-0.9276933,-2.0604315,-1.2635244,2.0237536,1.8559245,-0.91352254,-0.932855,-1.1176411,-1.162106,1.4037119,-1.0094415,0.46761572,0.23942892,-0.36304855,-0.44275665,0.70831835,-1.1692426,0.12379593,-0.49207863,-0.33844185,-0.4767704,0.6684241,0.95538104,0.018079218,0.16163543,0.2465647,-1.2035427,0.31324467,-0.5492068,0.0,1.0,0.0,0.0,0.0,0.0,0.0,-0.28695142,0.042756647,-0.15831834,0.23008585,2.1993399,0.8732796,-0.8015871,0.1686573,-0.8592427,2.4662137
1.0599813,55.56958,17.352589,11.294403,0.43047982,0.3052374,0.23854741,-0.5022181,-0.6303974,-0.6536371,0.78073806,-0.70506084,0.5480773,0.51720077,0.26982653,-0.990733,-2.1257951,-1.1854506,1.9532475,1.9107323,-0.86180246,0.31082532,-0.9388246,-2.0720394,-1.2495474,2.013698,1.8605348,-0.9109497,-0.9190782,-1.112208,-1.1593164,1.3958771,-1.0052212,0.4585328,0.2628222,-0.3745365,-0.44146538,0.70330787,-1.141771,0.13098513,-0.50383306,-0.35033417,-0.47356415,0.6628892,0.95725983,0.021595802,0.16445182,0.23694444,-1.1797506,0.33136356,-0.55872947,0.0,1.0,0.0,0.0,0.0,0.0,0.0,-0.27546346,0.04146537,-0.15330786,1.290369,0.37112236,0.59490204,-0.7442236,0.03721714,-0.9940028,2.2170007
12.403678,60.030056,21.442822,8.819397,0.017654836,0.11114144,0.35135075,-0.44122925,-0.61233914,-0.6314289,0.782505,-0.70274556,0.55320984,0.5369594,0.26670238,-1.0000585,-2.1351821,-1.1712968,1.9434235,1.9158558,-0.8572538,0.30201238,-0.9498767,-2.0835369,-1.2356218,2.0036879,1.8650708,-0.9081556,-0.8692556,-1.1034006,-1.145305,1.3911197,-1.0010858,0.45176724,0.28454927,-0.3856926,-0.44013596,0.6982394,-1.1064683,0.1337942,-0.5074132,-0.3618393,-0.47027206,0.6573026,0.95891285,0.02529226,0.16727805,0.22773774,-1.1362635,0.33664227,-0.5623562,0.0,1.0,0.0,0.0,0.0,0.0,0.0,-0.26430738,0.04013595,-0.14823937,4.81714,0.7245064,1.7904282,-0.5300522,-0.00846386,-0.7627964,2.0367682
17.974436,55.628197,20.790117,6.065713,-0.21669257,-0.16217512,0.4209023,-0.4012731,-0.6345358,-0.64041966,0.7754862,-0.7110137,0.500649,0.559483,0.26188508,-1.0133303,-2.1475787,-1.1580732,1.9325864,1.9151357,-0.8522073,0.29385415,-0.96096987,-2.0949464,-1.2217572,1.993684,1.8695078,-0.90515274,-0.7986386,-1.1117135,-1.1379535,1.3848137,-1.0013256,0.440825,0.30512717,-0.39650154,-0.43881416,0.69306505,-1.0720779,0.13163857,-0.52011526,-0.37288475,-0.46702194,0.65159976,0.9603318,0.02917713,0.17006363,0.2190658,-1.0890142,0.3287574,-0.576308,0.0,1.0,0.0,0.0,0.0,0.0,0.0,-0.25349844,0.038814157,-0.14306504,6.876564,-0.962615,1.120472,-0.6927252,-0.41491985,-1.1887252,1.9406617
16.493044,52.19487,18.955423,5.7806215,-0.1259855,-0.23803508,0.39942527,-0.38723505,-0.6467466,-0.64065415,0.7699014,-0.70873666,0.45589247,0.5644335,0.25513065,-1.0256445,-2.1590118,-1.144767,1.9228104,1.915097,-0.8487094,0.28636065,-0.9722232,-2.1063104,-1.207965,1.9836737,1.8738054,-0.90196466,-0.73345107,-1.1303741,-1.1346515,1.377261,-1.002254,0.42581877,0.3230715,-0.40699005,-0.4375229,0.6877081,-1.0408545,0.12821943,-0.5403218,-0.38350487,-0.46385765,0.64570946,0.9615417,0.033286482,0.17274192,0.21092592,-1.0481889,0.31839725,-0.5967567,0.0,1.0,0.0,0.0,0.0,0.0,0.0,-0.24300992,0.037522882,-0.13770807,6.3540936,-1.9922018,0.6906986,-0.78265667,-0.46061277,-1.6076684,1.6971588
26.646801,59.03075,24.03741,4.524679,-0.34834066,-0.26831102,0.47749323,-0.31462237,-0.6392944,-0.5776035,0.77146727,-0.6985925,0.5010505,0.56085527,0.25489843,-1.0361526,-2.1640706,-1.1308182,1.9138144,1.9239105,-0.84587914,0.27968493,-0.9836177,-2.117369,-1.1942302,1.973692,1.8780031,-0.89861935,-0.64637953,-1.1429193,-1.0946636,1.3718153,-0.9984511,0.41736144,0.33794385,-0.41709328,-0.43628693,0.68226475,-1.0001825,0.121724926,-0.5450683,-0.3935852,-0.4608612,0.6397178,0.96253765,0.037450805,0.17531449,0.20342918,-0.9897781,0.29991114,-0.60329723,0.0,1.0,0.0,0.0,0.0,0.0,0.0,-0.2329067,0.03628692,-0.13226473,8.477222,-1.3786316,4.449415,-0.65517426,-0.07286072,-0.94776154,1.3761401
19.417526,54.55531,21.151081,6.0900574,0.12607282,-0.1636866,0.3725956,-0.32448366,-0.678537,-0.5430281,0.7674524,-0.67917347,0.4649981,0.5250131,0.24723656,-1.0514715,-2.1716719,-1.1174849,1.9057747,1.924503,-0.84611803,0.27366152,-0.99527925,-2.1278746,-1.180545,1.9637994,1.882096,-0.8951711,-0.5882403,-1.1744084,-1.0347834,1.3673298,-0.9875713,0.40622085,0.34688887,-0.42683792,-0.43510246,0.676714,-0.9657304,0.117237784,-0.557998,-0.4032116,-0.45798874,0.6336363,0.9633706,0.04154695,0.17768863,0.1965133,-0.94853723,0.28854093,-0.613229,0.0,1.0,0.0,0.0,0.0,0.0,0.0,-0.22316206,0.035102457,-0.12671399,5.638969,-3.2752752,6.398964,-0.4754305,0.6596327,-1.2312174,0.8424103
25.215393,57.26901,23.19592,4.902016,-0.03779614,-0.24370593,0.41160378,-0.2572332,-0.6789809,-0.5123881,0.7600326,-0.67357296,0.46756226,0.5243597,0.2479382,-1.0631773,-2.1791134,-1.1045417,1.896442,1.9288523,-0.8427351,0.26831904,-1.0072212,-2.1377203,-1.1669265,1.9540316,1.8860912,-0.8916501,-0.5169293,-1.2012115,-0.96635544,1.3598307,-0.97477525,0.3969372,0.35361865,-0.436203,-0.43398476,0.67107826,-0.92680436,0.10985112,-0.5653552,-0.4123516,-0.45527458,0.6274836,0.9640601,0.045500576,0.17983946,0.19019862,-0.89838016,0.27016312,-0.61929274,0.0,1.0,0.0,0.0,0.0,0.0,0.0,-0.21379697,0.03398475,-0.12107825,6.9309235,-2.8048515,7.2864056,-0.8091688,0.81933737,-1.0480642,0.6168127
-5.2159934,51.96124,14.531598,13.127757,1.2933593,0.3017401,0.06737144,-0.37903762,-0.7057723,-0.48004034,0.7603647,-0.65378815,0.4233662,0.49458456,0.23041528,-1.0777985,-2.1857245,-1.09089,1.8886528,1.9284278,-0.84219164,0.26295558,-1.0194874,-2.1468794,-1.1533576,1.9444114,1.8899558,-0.88809663,-0.5429384,-1.2356868,-0.8979357,1.3564525,-0.9588956,0.3826766,0.3559554,-0.4453125,-0.4328575,0.6652589,-0.90571487,0.113812536,-0.58749765,-0.4213562,-0.45246124,0.6212486,0.9646995,0.049354177,0.1817169,0.18411408,-0.8966744,0.28958577,-0.6282428,0.0,1.0,0.0,0.0,0.0,0.0,0.0,-0.20468748,0.032857507,-0.11525887,-2.6295066,-3.598404,7.13284,-0.19471645,1.2248278,-1.5444458,0.24983287
-13.082985,55.41017,13.52627,16.135763,1.6430379,0.53017664,-0.02876027,-0.37766728,-0.6983435,-0.45568895,0.76202947,-0.63697237,0.47720715,0.52915853,0.22518885,-1.0893217,-2.1924484,-1.0771546,1.8807142,1.9376764,-0.83518076,0.25716153,-1.031992,-2.155413,-1.1397945,1.9349735,1.8937249,-0.8845014,-0.591537,-1.2558305,-0.8377483,1.3567348,-0.9400513,0.37466857,0.36076093,-0.45422363,-0.43166542,0.65923774,-0.88617873,0.12105434,-0.6069754,-0.43040657,-0.44935226,0.6149695,0.96533173,0.053129956,0.1833552,0.17802414,-0.9033175,0.32195553,-0.6311887,0.0,1.0,0.0,0.0,0.0,0.0,0.0,-0.19577634,0.031665415,-0.10923773,-4.8506737,-2.1776915,6.2791705,0.20253658,1.5349507,-0.9093821,0.49158335
-8.807244,60.38175,16.707224,15.533608,1.682518,0.6440757,-0.0029042512,-0.37744167,-0.7130035,-0.34731698,0.7412417,-0.5929466,0.46798438,0.4912747,0.21941736,-1.1032923,-2.1901445,-1.0656703,1.8756788,1.9405234,-0.83537394,0.2508869,-1.0446796,-2.1630194,-1.1263171,1.9258274,1.8974211,-0.88088727,-0.6394896,-1.273745,-0.7337375,1.3452227,-0.9075302,0.36763236,0.3617406,-0.46290016,-0.43040657,0.6530939,-0.86125755,0.12747222,-0.6166243,-0.43945503,-0.44592476,0.6087462,0.96597236,0.0566536,0.18471417,0.17195459,-0.900641,0.3548272,-0.6227237,0.0,1.0,0.0,0.0,0.0,0.0,0.0,-0.18709981,0.030406564,-0.10309386,-4.8128724,-1.9503117,10.709572,-1.02036,2.8372407,-0.8051753,0.12162328
-8.2565155,54.77897,14.623608,13.305787,1.6307148,0.5125054,0.009397827,-0.39618352,-0.7460268,-0.33313572,0.7153451,-0.5334425,0.39909416,0.46581796,0.21126853,-1.1192824,-2.196333,-1.0547826,1.8724831,1.9373305,-0.83430547,0.24415798,-1.0576401,-2.1696835,-1.1130725,1.9171416,1.9010028,-0.8772864,-0.6840375,-1.3037392,-0.64294046,1.3180909,-0.8566527,0.35464036,0.3597021,-0.47136497,-0.4290924,0.64674896,-0.8413244,0.13272804,-0.6400434,-0.44849777,-0.44218445,0.6025108,0.9666527,0.05989826,0.1856387,0.16593045,-0.90125036,0.38403478,-0.6269429,0.0,1.0,0.0,0.0,0.0,0.0,0.0,-0.178635,0.029092401,-0.09674895,-4.4603467,-3.1376362,9.330618,-2.5636196,4.7352195,-1.4049709,-0.14823079
-5.2991214,54.091103,14.37187,11.538355,1.4391146,0.36979353,0.049952418,-0.40413782,-0.74774045,-0.3179089,0.69148016,-0.4857048,0.322354,0.487194,0.2037442,-1.1324141,-2.2014744,-1.0439245,1.868571,1.9332381,-0.82856697,0.23707193,-1.070858,-2.1756115,-1.1001884,1.9090482,1.9044034,-0.8736923,-0.71684396,-1.3282858,-0.5752473,1.2789801,-0.7946573,0.33495384,0.35945243,-0.47963142,-0.427742,0.64013785,-0.82138747,0.13580124,-0.66766703,-0.45752335,-0.43820572,0.5961923,0.9673843,0.06294621,0.18604128,0.15998127,-0.8979703,0.40703958,-0.6367404,0.0,1.0,0.0,0.0,0.0,0.0,0.0,-0.17036855,0.027741998,-0.09013784,-3.294313,-2.582717,6.995845,-3.7753582,5.873847,-2.072519,0.025433302
15.732609,72.1072,26.649757,10.309511,1.3128285,0.48202014,0.16506094,-0.36953387,-0.74476904,-0.06981793,0.6970367,-0.43546495,0.35965282,0.49428776,0.20011854,-1.145335,-2.1825933,-1.0304847,1.8655018,1.9403688,-0.8242635,0.22993533,-1.084238,-2.179945,-1.0876209,1.9016472,1.9076574,-0.8700893,-0.71299314,-1.3415095,-0.3848747,1.249421,-0.7238056,0.32182458,0.36070636,-0.48752213,-0.42641258,0.63359475,-0.7780167,0.1319353,-0.6493058,-0.4662552,-0.4341011,0.590101,0.9681622,0.06529028,0.1859464,0.15434739,-0.8602337,0.41620177,-0.60310966,0.0,1.0,0.0,0.0,0.0,0.0,0.0,-0.16247785,0.026412576,-0.08359474,0.2660513,-1.4593363,19.488121,-2.9781342,6.528008,-1.3797998,0.15982985
18.844505,70.765724,27.018824,8.425379,1.4170563,0.37410858,0.1676955,-0.38994786,-0.767413,0.00122063,0.6345624,-0.29468718,0.2070355,0.45226085,0.19094054,-1.1609794,-2.179823,-1.0241647,1.8721784,1.9283609,-0.8248632,0.2228357,-1.0977879,-2.1822376,-1.0755454,1.8952502,1.9106826,-0.8665044,-0.70928717,-1.3597503,-0.17623793,1.1935005,-0.6133604,0.29590112,0.35796198,-0.49498367,-0.42513466,0.627227,-0.7355742,0.12635793,-0.63262755,-0.474617,-0.42993546,0.5843382,0.96903735,0.066655114,0.18516742,0.14911966,-0.8237167,0.4208691,-0.570444,0.0,1.0,0.0,0.0,0.0,0.0,0.0,-0.1550163,0.025134653,-0.077227,0.26532412,-1.9502163,21.277586,-5.612564,10.50626,-2.6476622,-0.2099216
27.124638,77.14893,31.656216,7.114414,1.5180521,0.38262236,0.19937772,-0.38478786,-0.77094114,0.19318406,0.58204323,-0.17537826,0.09611938,0.429942,0.18435691,-1.1748819,-2.1629193,-1.0173411,1.8777124,1.9202945,-0.82351017,0.21581118,-1.1114922,-2.181967,-1.0641948,1.8901787,1.9133834,-0.86296326,-0.700537,-1.3745323,0.09611821,1.1153542,-0.4739024,0.26131552,0.35307553,-0.50195885,-0.42393684,0.62116605,-0.68495077,0.1176942,-0.5977668,-0.4825344,-0.42576218,0.57902944,0.97006434,0.066732556,0.18350874,0.14438324,-0.7770597,0.41996664,-0.5209112,0.0,1.0,0.0,0.0,0.0,0.0,0.0,-0.14804113,0.023936838,-0.07116604,0.7689953,-1.6070604,27.67449,-7.868147,13.35808,-3.4721136,-0.42104125
31.595934,72.58399,30.58219,3.9552503,1.9027612,-0.015612006,0.14747933,-0.35681605,-0.7751571,0.24787822,0.4894098,0.27173853,-0.19564217,0.4178748,0.18012957,-1.1890079,-2.157179,-1.0152538,1.9173526,1.8938191,-0.82117575,0.208996,-1.1253204,-2.1792586,-1.0539294,1.8876274,1.9155425,-0.8594803,-0.67548996,-1.3858974,0.33067116,0.99689484,-0.18401858,0.20063242,0.346909,-0.5084839,-0.4228363,0.6153739,-0.6423303,0.10759321,-0.5744282,-0.4900818,-0.42166138,0.5741515,0.971369,0.06533149,0.18040054,0.14010553,-0.7442709,0.41124755,-0.4795593,0.0,1.0,0.0,0.0,0.0,0.0,0.0,-0.14151609,0.022836298,-0.0653739,2.4163723,-1.2563705,23.802778,-11.878538,28.507877,-6.0914097,-0.53403974
28.10606,57.393486,21.595945,1.3099103,1.4164914,-0.6520479,0.13153842,-0.297726,-0.77444196,0.08891148,0.46234068,0.43577933,-0.28327855,0.48572248,0.1792234,-1.2027646,-2.1703675,-1.0076954,1.9312053,1.8872147,-0.8109081,0.20268795,-1.1392174,-2.1756163,-1.0447766,1.8881813,1.9170629,-0.8560096,-0.6161848,-1.3911759,0.3760228,0.88827556,0.13417877,0.13579713,0.34733385,-0.51470566,-0.4218483,0.6095207,-0.6163693,0.09607866,-0.59112406,-0.49743843,-0.41774178,0.5693443,0.9729569,0.0629831,0.17565453,0.13613725,-0.7301931,0.38917857,-0.4839839,0.0,1.0,0.0,0.0,0.0,0.0,0.0,-0.13529432,0.021848291,-0.05952066,5.8541536,-0.62572956,4.7423306,-10.80035,31.578598,-6.5131516,0.11433959
32.476124,61.864216,22.136164,2.6557405,0.8455991,-0.94852746,0.124640316,-0.22331356,-0.7512251,0.11290363,0.50357133,0.40721723,-0.3299441,0.4923435,0.18035659,-1.2143399,-2.164326,-0.99441946,1.9289031,1.8840685,-0.8067753,0.19726658,-1.1530247,-2.1720502,-1.0362304,1.8913122,1.917961,-0.8525255,-0.517764,-1.3776298,0.35100865,0.8436356,0.37179065,0.074466035,0.34892723,-0.520628,-0.42101288,0.60357577,-0.5855353,0.07966,-0.59872746,-0.5045948,-0.41416168,0.5644933,0.97470593,0.060185697,0.16970602,0.13238484,-0.7089993,0.35165736,-0.48847696,0.0,1.0,0.0,0.0,0.0,0.0,0.0,-0.129372,0.021012872,-0.053575754,9.757376,1.2526274,-2.2564292,-4.3750525,23.57475,-6.133139,0.19525886
41.214043,73.565025,28.043978,4.241986,0.51803756,-0.884602,0.16874816,-0.16089314,-0.7461968,0.25955808,0.5247264,0.38685545,-0.30804387,0.5130101,0.18117726,-1.2276443,-2.1460943,-0.9837578,1.9299978,1.8871566,-0.80122447,0.19298941,-1.1666565,-2.1682973,-1.0277429,1.8961183,1.9183295,-0.84900796,-0.39802042,-1.3587232,0.38486862,0.85071415,0.5158543,0.024495607,0.35269123,-0.5261402,-0.42037582,0.5978006,-0.5413007,0.058707573,-0.57400644,-0.51141167,-0.4110222,0.5597846,0.97649354,0.056929745,0.16309564,0.12891512,-0.6700301,0.30441764,-0.46799698,0.0,1.0,0.0,0.0,0.0,0.0,0.0,-0.12385976,0.020375818,-0.0478006,11.886078,1.768136,3.7395477,0.77952147,14.172745,-4.9682345,0.3711462
