Afshin1997/kuka_rl_ros2/src/catch_and_throw/input_files/idealpd/polynomial_regressor/optimizer_files/env_345_data.csv
torque0,torque1,torque2,torque3,torque4,torque5,torque6,action0,action1,action2,action3,action4,action5,action6,set_target_0,set_target_1,set_target_2,set_target_3,set_target_4,set_target_5,set_target_6,joint_pos_0,joint_pos_1,joint_pos_2,joint_pos_3,joint_pos_4,joint_pos_5,joint_pos_6,joint_vel_0,joint_vel_1,joint_vel_2,joint_vel_3,joint_vel_4,joint_vel_5,joint_vel_6,tennisball_pos_0,tennisball_pos_1,tennisball_pos_2,tennisball_lin_vel_0,tennisball_lin_vel_1,tennisball_lin_vel_2,end_effector_pos_0,end_effector_pos_1,end_effector_pos_2,end_effector_rot_0,end_effector_rot_1,end_effector_rot_2,end_effector_rot_3,end_effector_lin_vel_0,end_effector_lin_vel_1,end_effector_lin_vel_2,obs_task_0,obs_task_1,obs_task_2,obs_task_3,obs_task_4,obs_task_5,obs_task_6,to_final_target_0,to_final_target_1,to_final_target_2,joint_acc_0,joint_acc_1,joint_acc_2,joint_acc_3,joint_acc_4,joint_acc_5,joint_acc_6
0.0,0.0,0.0,0.0,0.0,0.0,0.0,0.0,0.0,0.0,0.0,0.0,0.0,0.0,1.7802359,-1.0646509,-1.8151424,-1.1170107,1.9373155,1.1170107,-0.91629785,1.7802359,-1.0646509,-1.8151424,-1.1170107,1.9373155,1.1170107,-0.91629785,0.0,0.0,0.0,0.0,0.0,0.0,0.0,2.739355,-0.2776394,0.11370535,-2.8579037,-0.33330792,5.246965,0.5304146,-0.45449638,0.693097,0.5745483,0.17512383,0.15255436,0.7848268,0.0,0.0,0.0,1.0,0.0,0.0,0.0,0.0,0.0,0.0,-3.3893552,-0.12236062,0.43629467,0.0,0.0,0.0,0.0,0.0,0.0,0.0
0.0,0.0,0.0,0.0,0.0,0.0,0.0,0.0,0.0,0.0,0.0,0.0,0.0,0.0,1.7802359,-1.0646509,-1.8151424,-1.1170107,1.9373155,1.1170107,-0.91629785,1.7802359,-1.0646509,-1.8151424,-1.1170107,1.9373155,1.1170107,-0.91629785,0.0,0.0,0.0,0.0,0.0,0.0,0.0,2.739355,-0.2776394,0.11370535,-2.8579037,-0.33330792,5.246965,0.5304146,-0.45449638,0.693097,0.5745483,0.17512383,0.15255436,0.7848268,0.0,0.0,0.0,1.0,0.0,0.0,0.0,0.0,0.0,0.0,-3.3893552,-0.12236062,0.43629467,0.0,0.0,0.0,0.0,0.0,0.0,0.0
0.0,0.0,0.0,0.0,0.0,0.0,0.0,0.0,0.0,0.0,0.0,0.0,0.0,0.0,1.7802359,-1.0646509,-1.8151424,-1.1170107,1.9373155,1.1170107,-0.91629785,1.7802359,-1.0646509,-1.8151424,-1.1170107,1.9373155,1.1170107,-0.91629785,0.0,0.0,0.0,0.0,0.0,0.0,0.0,2.739355,-0.2776394,0.11370535,-2.8579037,-0.33330792,5.246965,0.5304146,-0.45449638,0.693097,0.5745483,0.17512383,0.15255436,0.7848268,0.0,0.0,0.0,1.0,0.0,0.0,0.0,0.0,0.0,0.0,-3.3893552,-0.12236062,0.43629467,0.0,0.0,0.0,0.0,0.0,0.0,0.0
-176.0,71.904076,-4.7583714,110.0,10.763206,4.891177,-3.840986,-0.8109643,0.36548123,-0.54547906,0.73141015,0.23425198,0.6618666,-0.5857021,1.6991395,-1.0281028,-1.8696903,-1.0438697,1.9607407,1.1831974,-0.97486806,1.778689,-1.0620817,-1.8210838,-1.1126353,1.9425073,1.1219431,-0.9182891,-0.20610283,0.34194294,-0.7915989,0.5836242,0.6912858,0.65562534,-0.26505873,2.7107983,-0.28096962,0.1653992,-2.8550463,-0.3329747,5.1435328,0.5282898,-0.457613,0.6939082,0.5784666,0.1737851,0.15128355,0.78248864,-0.28344464,-0.41572085,0.107922815,1.0,0.0,0.0,0.0,0.0,0.0,0.0,-3.3607984,-0.119030386,0.38460082,-20.555796,33.974762,-78.93622,58.425957,68.853096,64.97709,-26.392143
-176.0,-39.316486,-48.715294,110.0,12.572233,1.1900984,-3.0310876,-0.8003118,-0.2073857,-0.53798974,0.6971434,0.36358416,0.6403711,-0.62604743,1.6986579,-1.0828203,-1.8748827,-1.042921,1.9788656,1.1859802,-0.98089385,1.7769514,-1.0590795,-1.8360794,-1.0990187,1.9525628,1.1348139,-0.919651,-0.16529329,0.2753104,-1.7104236,1.621765,1.0966483,1.468045,-0.09890695,2.6822681,-0.28429604,0.2160595,-2.8521917,-0.33264178,5.040204,0.5236244,-0.46591187,0.6946873,0.58692086,0.17050402,0.14780493,0.7775641,-0.5275788,-0.96602273,0.07081229,1.0,0.0,0.0,0.0,0.0,0.0,0.0,-3.3322682,-0.11570397,0.3339405,3.3753662,-9.936172,-84.33864,104.044815,36.440815,72.33133,14.902219
-155.28854,81.087456,20.964144,89.38109,8.83183,7.0022507,-1.495295,-0.76958686,0.124142125,0.14512233,0.6063341,0.48756298,0.6587461,-0.55176747,1.6999928,-1.0466653,-1.8215672,-1.0383853,2.0013192,1.2006885,-0.9748277,1.7720991,-1.0564646,-1.8508499,-1.0810782,1.9638238,1.1493765,-0.9208459,-0.59179944,0.25391594,-1.3930578,1.8533902,1.1306027,1.4460323,-0.12685378,2.6537685,-0.28762054,0.2656873,-2.84934,-0.33230922,4.9369783,0.5161438,-0.47730827,0.6966911,0.59801793,0.16585557,0.14253199,0.7710714,-0.8295485,-1.1909552,0.24762756,1.0,0.0,0.0,0.0,0.0,0.0,0.0,-3.3037686,-0.11237946,0.28431273,-42.612682,-3.041017,33.59196,23.749088,1.8394232,-4.057789,-2.9593363
-102.24824,68.90685,28.220127,54.12161,6.036476,6.771694,0.040551074,-0.7761975,-0.12842083,0.30125517,0.6417942,0.4945773,0.6450655,-0.5882874,1.6944793,-1.0693066,-1.8207244,-1.0168988,2.0132816,1.213883,-0.9796747,1.7629896,-1.0553411,-1.8593299,-1.063088,1.9744191,1.1629206,-0.9224128,-1.0176142,0.06318998,-0.65963984,1.782047,1.0302143,1.3206471,-0.16730161,2.6252956,-0.29094124,0.31428358,-2.846491,-0.33197698,4.833856,0.5061016,-0.48989105,0.7000903,0.6098102,0.16015786,0.13529304,0.7643145,-1.0738016,-1.2697209,0.37442237,1.0,0.0,0.0,0.0,0.0,0.0,0.0,-3.2752957,-0.10905877,0.23571643,-42.729176,-19.607967,75.35715,-6.7165375,-11.687589,-13.479638,-4.238078
-52.84537,63.920753,29.602161,26.31195,3.2812245,5.3553104,0.7644628,-0.80150026,-0.15900566,0.32338566,0.6341694,0.55858487,0.6398821,-0.5715335,1.6828396,-1.0712417,-1.8269913,-0.9996711,2.0302775,1.2269088,-0.97956616,1.7503229,-1.0561556,-1.8604629,-1.0469996,1.983973,1.1750628,-0.9243888,-1.3498849,-0.13057491,0.073703125,1.551533,0.9264256,1.1779029,-0.20830007,2.5968533,-0.29425812,0.36184943,-2.843645,-0.33164507,4.7308373,0.49423027,-0.5025425,0.7043198,0.6211028,0.15378138,0.12618636,0.7580631,-1.2372798,-1.2512769,0.43969446,1.0,0.0,0.0,0.0,0.0,0.0,0.0,-3.2468534,-0.10574189,0.18815058,-33.341576,-19.661963,74.753716,-22.94116,-11.546743,-14.530921,-4.2877555
-14.418091,65.17577,28.841234,10.093359,1.1276331,3.6878667,0.7974789,-0.8074025,-0.1359194,0.3489535,0.64226764,0.55908513,0.6298655,-0.58766484,1.6695827,-1.0697474,-1.8255676,-0.9827728,2.0398815,1.2380493,-0.9831553,1.7354285,-1.0584024,-1.8558223,-1.0331999,1.9926534,1.1858946,-0.92674917,-1.5363369,-0.25676614,0.5968586,1.32265,0.84664166,1.0520437,-0.24609458,2.5684376,-0.2975731,0.40838584,-2.840802,-0.3313135,4.6279216,0.48131943,-0.5146351,0.7089229,0.63150495,0.14706072,0.11583533,0.75243384,-1.3220373,-1.1841898,0.46452036,1.0,0.0,0.0,0.0,0.0,0.0,0.0,-3.2184377,-0.10242692,0.14161417,-18.710445,-12.813073,53.142063,-22.949005,-8.624053,-12.480736,-4.0013103
8.99365,93.15771,34.8479,6.260264,-0.66569805,3.0357258,0.3350548,-0.8205086,0.026139386,0.3057001,0.6307992,0.521874,0.62932557,-0.58918893,1.6533775,-1.0557885,-1.8252523,-0.97012,2.0448408,1.2488272,-0.98566806,1.7195402,-1.0606436,-1.8480976,-1.0212427,2.0006642,1.1956259,-0.92945284,-1.6067612,-0.21405664,0.83268845,1.1531543,0.78492016,0.9477807,-0.27969426,2.5400505,-0.30088425,0.4538939,-2.8379617,-0.33098224,4.5251083,0.46795082,-0.5257454,0.7139069,0.6412082,0.14008382,0.10533498,0.74708307,-1.3539014,-1.0764402,0.5054238,1.0,0.0,0.0,0.0,0.0,0.0,0.0,-3.1900506,-0.09911576,0.09610611,-7.1368217,4.054207,24.100447,-17.011738,-6.4358115,-10.120047,-3.7122428
23.479975,138.29883,46.539093,8.695954,-2.1949506,3.2619925,-0.22852698,-0.827589,0.2855231,0.20945404,0.5975104,0.5028835,0.6282361,-0.5814749,1.6367813,-1.0320913,-1.8271521,-0.9614917,2.0509527,1.2584496,-0.9876003,1.7034937,-1.0608686,-1.8399875,-1.0105311,2.0081944,1.2044569,-0.9324531,-1.6043617,0.040364545,0.8051875,1.0439227,0.74258846,0.8629717,-0.30846718,2.511692,-0.3041916,0.49837458,-2.8351243,-0.33065134,4.4223976,0.4544983,-0.53543663,0.71971595,0.65063107,0.13271675,0.09595929,0.74152356,-1.3535987,-0.9231989,0.60184747,1.0,0.0,0.0,0.0,0.0,0.0,0.0,-3.1616921,-0.09580842,0.05162543,0.07288456,25.171106,-2.3409486,-10.889745,-4.245329,-8.053457,-3.3573985
26.017965,153.20241,48.528404,11.230651,-2.666019,3.0291958,-0.5590622,-0.8288872,0.42724764,0.119737476,0.58320624,0.52254665,0.63515687,-0.5877879,1.620605,-1.0181439,-1.8280138,-0.9522104,2.0604491,1.2679726,-0.9912319,1.6877257,-1.0578874,-1.8333862,-1.0004927,2.0155072,1.2125555,-0.935708,-1.5683392,0.38317403,0.61314756,0.99063045,0.72767764,0.7931933,-0.3327119,2.4833622,-0.30749512,0.54182893,-2.8322897,-0.33032075,4.31979,0.4411602,-0.5435581,0.72661173,0.6601239,0.124937095,0.08845481,0.7353929,-1.3371754,-0.7655401,0.7153803,1.0,0.0,0.0,0.0,0.0,0.0,0.0,-3.1333623,-0.09250489,0.008171082,3.4006834,34.01179,-18.8483,-5.2562118,-1.4282346,-6.6566944,-2.8688133
26.078272,152.65643,47.664635,12.06277,-2.5336912,2.8414092,-0.57373905,-0.82411754,0.5393938,0.091599405,0.56212705,0.55870533,0.63431543,-0.58882236,1.6053139,-1.0039481,-1.8242263,-0.94427997,2.0713778,1.275987,-0.9945902,1.672381,-1.0514807,-1.8289344,-0.99076235,2.0228772,1.22004,-0.93917364,-1.5239733,0.72554237,0.3905776,0.96723515,0.7402925,0.7338092,-0.352435,2.455061,-0.31079483,0.58425796,-2.829458,-0.3299905,4.2172847,0.4279976,-0.5501766,0.7346528,0.669805,0.116774194,0.08290218,0.7285961,-1.316773,-0.6153961,0.83090574,1.0,0.0,0.0,0.0,0.0,0.0,0.0,-3.105061,-0.089205176,-0.03425795,4.2176485,33.972145,-21.850765,-2.3177147,1.2769222,-5.828643,-2.3719728
24.163954,139.09067,43.435272,11.4835205,-2.0991635,2.5376155,-0.44523275,-0.814329,0.6237566,0.06587596,0.5490754,0.5709743,0.63760805,-0.5911798,1.5909481,-0.989105,-1.8223468,-0.9358548,2.0799747,1.2838007,-0.9982916,1.6574522,-1.0420965,-1.8264301,-0.9811541,2.030457,1.2269999,-0.94280905,-1.4832498,1.0086478,0.20527543,0.95841825,0.76340914,0.68328124,-0.36841643,2.4267864,-0.31409264,0.6256627,-2.8266292,-0.32966056,4.114882,0.41500854,-0.55542755,0.7437216,0.67962694,0.108279645,0.07898886,0.72120976,-1.2978908,-0.48247832,0.9301858,1.0,0.0,0.0,0.0,0.0,0.0,0.0,-3.0767865,-0.08590737,-0.07566267,3.8525105,28.0702,-18.073734,-0.9418726,2.2702813,-5.1145196,-1.9596398
23.019537,117.638626,37.183693,8.876686,-1.5841814,2.0930085,-0.2078636,-0.80163145,0.67156243,0.05664488,0.5235798,0.59899026,0.6465848,-0.598641,1.5772891,-0.97494024,-1.8207656,-0.9287961,2.090356,1.2916584,-1.0026731,1.6428801,-1.0305551,-1.8252571,-0.9716774,2.0383344,1.233523,-0.94658655,-1.449337,1.2021917,0.08975745,0.9435809,0.79587555,0.64171654,-0.3819768,2.3985424,-0.31738663,0.6660442,-2.8238032,-0.32933098,4.012582,0.4022007,-0.5595169,0.7535516,0.68942726,0.09954524,0.07620828,0.7134235,-1.2798177,-0.3702667,0.99911994,1.0,0.0,0.0,0.0,0.0,0.0,0.0,-3.0485425,-0.08261338,-0.11604416,3.1791449,19.160866,-11.066736,-1.6297817,3.1741023,-4.2702913,-1.6981542
19.172832,95.7582,30.48328,7.6393533,-0.9952028,1.6738641,-0.04487725,-0.7935665,0.6990569,0.04890645,0.5223507,0.602062,0.65143603,-0.5955725,1.5635234,-0.96064943,-1.8203664,-0.91944236,2.0985405,1.2986666,-1.0061438,1.628575,-1.0177263,-1.8247631,-0.9623257,2.0465055,1.2396895,-0.9504785,-1.424685,1.309233,0.03734573,0.9317677,0.82381886,0.6081296,-0.39266968,2.370325,-0.3206768,0.70540345,-2.82098,-0.3290017,3.9103844,0.38951683,-0.5626793,0.76384556,0.6990693,0.09065927,0.07406489,0.7054058,-1.2665318,-0.2831614,1.0379214,1.0,0.0,0.0,0.0,0.0,0.0,0.0,-3.0203252,-0.0793232,-0.15540344,2.2785425,10.563564,-4.7799544,-1.3749123,2.7306795,-3.4567237,-1.3933897
14.229937,77.87131,24.518959,7.444729,-0.5102569,1.3063848,0.025251705,-0.78878576,0.7184019,0.028991785,0.5255078,0.6000794,0.6593874,-0.5868055,1.5496964,-0.94588614,-1.8218639,-0.9097749,2.1065135,1.3056282,-1.0091591,1.6144491,-1.0043005,-1.8245399,-0.95304453,2.0548902,1.2455736,-0.9544553,-1.4092604,1.3532974,0.018564703,0.9262832,0.8429229,0.5818625,-0.4002953,2.3421364,-0.32396507,0.7437415,-2.8181598,-0.32867277,3.808289,0.37693024,-0.5651436,0.77433765,0.70849204,0.08170272,0.07222392,0.6972427,-1.258704,-0.21902592,1.051399,1.0,0.0,0.0,0.0,0.0,0.0,0.0,-2.9921365,-0.07603493,-0.1937415,1.3827562,4.309821,-1.4699261,-0.7669091,1.8735528,-2.6833177,-1.0658622
11.468725,66.50798,20.77053,6.912362,-0.23655605,1.0659165,0.09257239,-0.7881828,0.72734517,0.032936,0.50908273,0.60937655,0.65807897,-0.5903981,1.5356308,-0.93156594,-1.8212463,-0.90213627,2.1158278,1.3113816,-1.0134951,1.6004092,-0.99072874,-1.8243091,-0.94386256,2.0634313,1.2512347,-0.9584989,-1.4026829,1.3581673,0.025801443,0.914741,0.8576527,0.5609182,-0.40658167,2.3139763,-0.32724953,0.7810594,-2.8153424,-0.32834417,3.7062957,0.3643875,-0.56707,0.7848389,0.71764946,0.07273737,0.070471786,0.6890009,-1.2535194,-0.16794458,1.0479597,1.0,0.0,0.0,0.0,0.0,0.0,0.0,-2.9639764,-0.07275048,-0.23105937,0.5104065,0.41821003,1.1100214,-1.3890147,1.4486432,-2.1048903,-0.9213507
14.280169,64.13026,20.630268,5.0087104,-0.27905017,1.0217111,0.23026562,-0.7825464,0.7348348,0.07709103,0.46980312,0.62706256,0.6645006,-0.58796316,1.5221546,-0.91724527,-1.8166,-0.89688224,2.1261375,1.3176847,-1.0172952,1.5864149,-0.9772295,-1.8237255,-0.9349619,2.0721288,1.256724,-0.9625949,-1.3989121,1.3469254,0.07050128,0.8810412,0.8733173,0.54502493,-0.4115631,2.285843,-0.33053017,0.8173581,-2.8125277,-0.3280159,3.6044044,0.35193062,-0.56845665,0.79527277,0.7264322,0.06376627,0.068654016,0.6808206,-1.2441956,-0.11348374,1.0399818,1.0,0.0,0.0,0.0,0.0,0.0,0.0,-2.935843,-0.06946984,-0.26735806,0.22428036,-1.1827469,4.894906,-3.6126018,1.5263677,-1.554215,-0.80210567
14.166544,63.682365,20.352774,5.2144957,-0.27557415,0.98886883,0.24170716,-0.78084254,0.7401293,0.08886976,0.46303824,0.62277067,0.66472477,-0.58056545,1.5083307,-0.90321654,-1.8148385,-0.8886581,2.1344059,1.3231965,-1.0206515,1.5724436,-0.9638561,-1.822644,-0.92640364,2.080933,1.2620798,-0.96672815,-1.3970205,1.3339367,0.122200295,0.8467157,0.8829402,0.5324323,-0.41480702,2.257738,-0.333807,0.85263866,-2.8097155,-0.32768795,3.502615,0.33956337,-0.5692997,0.80562484,0.7348067,0.054767523,0.066738404,0.6727597,-1.2339995,-0.05955342,1.0314981,1.0,0.0,0.0,0.0,0.0,0.0,0.0,-2.9077382,-0.066193014,-0.30263865,0.04234314,-1.3524294,5.585666,-3.6622882,0.9282708,-1.2088299,-0.6190419
17.35826,66.49051,21.35881,3.8897476,-0.49083644,0.9816382,0.31021494,-0.77933764,0.74908984,0.12386597,0.4166273,0.63336873,0.66667145,-0.577221,1.4945098,-0.8889471,-1.8102574,-0.8847409,2.14427,1.328747,-1.0244503,1.5584856,-0.95055234,-1.8209732,-0.91833174,2.0898366,1.2673289,-0.9708852,-1.3958546,1.32909,0.18363276,0.7933099,0.89236,0.5227683,-0.41702145,2.229662,-0.3370819,0.88690203,-2.8069062,-0.32736033,3.4009273,0.32735252,-0.56954384,0.8159036,0.74272066,0.045726698,0.064739585,0.66489375,-1.2168756,0.002486465,1.0243448,1.0,0.0,0.0,0.0,0.0,0.0,0.0,-2.879662,-0.0629181,-0.33690202,-0.036644936,-0.5378723,6.5805225,-5.562544,0.9022713,-0.8829236,-0.5168617
19.400772,66.18923,20.800457,2.7399373,-0.6930461,0.7994578,0.31473196,-0.77125895,0.7535346,0.12212868,0.38456672,0.6380787,0.6690782,-0.568096,1.4813597,-0.8751989,-1.8087603,-0.87987506,2.1536446,1.3342366,-1.0276948,1.5445715,-0.9372419,-1.8188274,-0.910854,2.098824,1.2724997,-0.9750537,-1.3903642,1.3315374,0.22617248,0.7318992,0.900873,0.51566964,-0.41766354,2.2016144,-0.340353,0.9201494,-2.8040998,-0.32703304,3.2993412,0.31536484,-0.56915283,0.8260819,0.7501582,0.03667297,0.06273756,0.6572532,-1.1912941,0.06561472,1.0128044,1.0,0.0,0.0,0.0,0.0,0.0,0.0,-2.8516145,-0.059646994,-0.37014937,0.40340424,0.20241737,4.6533732,-6.3583136,0.83214045,-0.5808115,-0.34158826
23.02699,66.03233,20.403568,0.15536404,-1.0168074,0.57590485,0.37716317,-0.77057797,0.7640288,0.13232563,0.3088444,0.65864736,0.66102344,-0.56070775,1.4675137,-0.860839,-1.8055948,-0.87996954,2.1646888,1.3386021,-1.0311245,1.5307108,-0.923839,-1.8163631,-0.90421736,2.1079373,1.2776095,-0.9792194,-1.3849521,1.3431132,0.2542632,0.6401331,0.9149674,0.5099654,-0.41710883,2.1735954,-0.3436203,0.9523816,-2.8012962,-0.32670608,3.1978567,0.3037243,-0.56809616,0.83609307,0.7570771,0.02769283,0.060821436,0.6498986,-1.15284,0.13285682,0.994053,1.0,0.0,0.0,0.0,0.0,0.0,0.0,-2.8235955,-0.056379706,-0.4023816,0.39186478,1.1284828,3.1893194,-9.39933,1.4036894,-0.3709793,-0.20506382
23.93726,63.7177,19.250986,-0.922163,-1.1433141,0.35740638,0.38683388,-0.76854384,0.7656754,0.13944195,0.25788265,0.6603582,0.6639732,-0.5496331,1.4538565,-0.84727144,-1.802419,-0.8784291,2.173973,1.3440068,-1.0341827,1.5169035,-0.910313,-1.8137138,-0.8985821,2.1171803,1.2826754,-0.9833688,-1.3797052,1.3556678,0.26966473,0.5373378,0.92768073,0.5061202,-0.4150873,2.1456032,-0.34688568,0.9835997,-2.7984955,-0.32637945,3.0964737,0.29251862,-0.56638145,0.84587,0.7634667,0.01886285,0.05906062,0.64286435,-1.1072334,0.19697945,0.9688766,1.0,0.0,0.0,0.0,0.0,0.0,0.0,-2.7956033,-0.053114325,-0.4335997,0.3850937,1.2447596,1.8690765,-10.49993,1.2942791,-0.13846159,-0.033009052
26.690247,61.946033,18.38716,-3.079318,-1.3968828,0.09824836,0.42503232,-0.76263815,0.77576,0.13691498,0.17741704,0.66709924,0.6621919,-0.5424976,1.4406397,-0.832737,-1.8000222,-0.8808404,2.1838903,1.3488946,-1.0376185,1.503163,-0.8966373,-1.8110073,-0.89413035,2.1265492,1.2877089,-0.9874925,-1.3725406,1.3714817,0.2718869,0.41370076,0.93979996,0.5035685,-0.41220003,2.1176395,-0.35014725,1.0138048,-2.7956977,-0.32605314,2.995192,0.2818508,-0.5640297,0.8553416,0.7693122,0.010269737,0.0575279,0.63619477,-1.049952,0.26055843,0.93624794,1.0,0.0,0.0,0.0,0.0,0.0,0.0,-2.7676396,-0.04985276,-0.46380478,0.5863428,1.5901804,0.5058527,-12.583601,1.2582779,0.05210638,0.07850528
27.36845,61.560158,18.314419,-3.2912846,-1.4181938,0.010220885,0.4483989,-0.7605488,0.78021747,0.16410169,0.11640655,0.666805,0.6625419,-0.53307843,1.427108,-0.81861556,-1.7945971,-0.8824897,2.1932297,1.353963,-1.0408003,1.4894911,-0.88281476,-1.8082016,-0.8909365,2.1360097,1.2927252,-0.9915809,-1.3657827,1.3859428,0.28415108,0.2871621,0.9484623,0.5018538,-0.4084485,2.0897045,-0.353405,1.0429978,-2.7929027,-0.32572713,2.8940115,0.2717743,-0.5610447,0.8644903,0.774606,0.0019317103,0.056238852,0.6299357,-0.989487,0.32209098,0.9039033,1.0,0.0,0.0,0.0,0.0,0.0,0.0,-2.7397046,-0.046595007,-0.49299783,0.56123734,1.4717817,1.4624715,-12.856066,0.9418011,0.15387535,0.18624663
35.839256,59.246693,18.028313,-9.62589,-2.002926,-0.36369127,0.6588993,-0.7559806,0.7839558,0.192585,-0.057276495,0.6797957,0.65152043,-0.52794224,1.413893,-0.80441916,-1.788943,-0.89666414,2.2039893,1.3578773,-1.0443752,1.4758917,-0.86886823,-1.8051555,-0.8895117,2.1455693,1.2977244,-0.9956302,-1.3583392,1.397743,0.31197295,0.093581945,0.95885384,0.50075996,-0.40434074,2.0617962,-0.35665894,1.0711797,-2.7901106,-0.32540148,2.7929325,0.26248932,-0.5573902,0.8732028,0.77921534,-0.006019589,0.055216786,0.62429017,-0.90359664,0.39043665,0.8563405,1.0,0.0,0.0,0.0,0.0,0.0,0.0,-2.7117963,-0.04334107,-0.52117974,0.6463766,1.2301207,2.9939115,-19.551983,1.1203766,0.34207106,0.24885535
46.2784,59.19211,18.745869,-16.607992,-2.6860867,-0.7144194,0.90876734,-0.74546516,0.7929255,0.23941499,-0.24184161,0.6874053,0.6506895,-0.511666,1.4013453,-0.7895757,-1.781214,-0.9136959,2.21431,1.3627933,-1.0467968,1.462401,-0.8547987,-1.8016422,-0.890556,2.1552358,1.3027216,-0.99962896,-1.3462764,1.4102947,0.3649084,-0.17084205,0.9700031,0.50109553,-0.39873162,2.0339165,-0.35991096,1.0983517,-2.7873209,-0.32507613,2.6919544,0.25427628,-0.55296326,0.8813465,0.7829431,-0.013430024,0.05449639,0.619556,-0.78855443,0.46871537,0.796193,1.0,0.0,0.0,0.0,0.0,0.0,0.0,-2.6839166,-0.04008904,-0.5483517,1.1529922,1.3340235,5.436927,-26.588934,1.2240648,0.6109178,0.4453063
49.495457,60.979202,19.913406,-17.719934,-2.7829006,-0.7927359,1.0003074,-0.7333169,0.79901814,0.3006702,-0.35270974,0.69081,0.6400316,-0.4818637,1.3890693,-0.77489686,-1.7715752,-0.92582697,2.2243168,1.3667247,-1.0478153,1.4490706,-0.8406061,-1.7973831,-0.89429533,2.165009,1.307715,-1.0035506,-1.3284936,1.4226128,0.44618696,-0.44184354,0.98060906,0.50087047,-0.39023146,2.0060654,-0.36315918,1.1245147,-2.784534,-0.32475114,2.591077,0.24726105,-0.5477371,0.8889143,0.7856968,-0.020277306,0.054039545,0.6159132,-0.66656834,0.5482455,0.73904365,1.0,0.0,0.0,0.0,0.0,0.0,0.0,-2.6560655,-0.036840826,-0.5745147,1.791048,1.3405561,8.118713,-27.168114,1.2573838,0.5794585,0.79315305
46.517384,64.35847,21.533495,-13.4057,-2.3444388,-0.59628266,0.94147485,-0.7108801,0.8022717,0.37319928,-0.39917067,0.6941582,0.638386,-0.4405901,1.3779826,-0.7603789,-1.7600632,-0.9342124,2.2344248,1.3715537,-1.0476097,1.4359976,-0.82630575,-1.7921035,-0.9003111,2.1748853,1.3127047,-1.0073615,-1.2998837,1.432967,0.55447614,-0.65480494,0.9909037,0.5000908,-0.3780318,1.978241,-0.36640358,1.1496696,-2.78175,-0.32442644,2.490301,0.24135399,-0.5417328,0.89604723,0.7875171,-0.026719501,0.053717602,0.6133656,-0.55874425,0.62306726,0.6995641,1.0,0.0,0.0,0.0,0.0,0.0,0.0,-2.628241,-0.033596426,-0.59966964,2.9341698,1.1750221,10.623991,-21.299303,1.3610601,0.48051476,1.2051463
46.685326,68.53947,23.792263,-10.621431,-2.075432,-0.43731877,0.93808526,-0.670791,0.8044398,0.4651927,-0.46725214,0.7004437,0.60894203,-0.39640555,1.3689185,-0.74586177,-1.7455842,-0.9470363,2.2449296,1.3735989,-1.0470021,1.4233595,-0.81192243,-1.7855155,-0.9080645,2.1848645,1.3176638,-1.0110255,-1.2511381,1.4406792,0.69220245,-0.8153905,1.0020452,0.49640718,-0.36233488,1.9504433,-0.36964607,1.1738175,-2.7789688,-0.32410207,2.3896253,0.23646355,-0.53497696,0.90291345,0.7884303,-0.032946426,0.05338104,0.6119172,-0.45887214,0.69838744,0.6766558,1.0,0.0,0.0,0.0,0.0,0.0,0.0,-2.6004434,-0.030353934,-0.6238175,5.016184,0.941658,13.3731,-16.002869,1.5791178,0.18759966,1.5836418
36.76268,69.16012,23.806042,-2.5524182,-1.303694,-0.1499604,0.7230726,-0.65117294,0.8083168,0.5155146,-0.44954652,0.69798833,0.5942401,-0.32034615,1.3582423,-0.7310907,-1.7339641,-0.95301914,2.2546635,1.3770878,-1.0430602,1.4112364,-0.79747045,-1.7775867,-0.9167448,2.1949315,1.3225714,-1.0144874,-1.1991334,1.4472636,0.82457775,-0.8853296,1.0101848,0.49054807,-0.34068772,1.9226742,-0.37288475,1.1969594,-2.7761905,-0.32377803,2.2890503,0.23234749,-0.52754974,0.9096996,0.78858316,-0.039170768,0.05292248,0.611393,-0.3887245,0.7616021,0.67308164,1.0,0.0,0.0,0.0,0.0,0.0,0.0,-2.5726743,-0.027115256,-0.64695936,5.3428173,0.85065365,12.730765,-6.9485188,1.366663,-0.106453896,2.180916
22.11061,64.00567,20.87251,5.8264832,-0.4715907,0.015214607,0.41713417,-0.65666556,0.81412345,0.5229513,-0.43460172,0.7026037,0.5988338,-0.26495776,1.3455698,-0.71605814,-1.7252916,-0.960205,2.2651918,1.3824548,-1.0409832,1.3994871,-0.7829479,-1.7686412,-0.92560065,2.205071,1.3274218,-1.017707,-1.1664788,1.4546163,0.9162269,-0.88578176,1.0171177,0.4844944,-0.3157584,1.8949337,-0.3761196,1.2190963,-2.773415,-0.32345432,2.188576,0.22868347,-0.51963997,0.9165096,0.7882362,-0.045506917,0.052343745,0.61145145,-0.35198075,0.80442977,0.67709464,1.0,0.0,0.0,0.0,0.0,0.0,0.0,-2.5449338,-0.023880392,-0.6690963,3.3380985,0.93152523,8.70173,-0.06722212,1.2304306,-0.23393631,2.4987578
9.733607,56.29016,17.107256,11.643639,0.15191126,0.0418607,0.17545235,-0.6664207,0.8127309,0.5342047,-0.42448834,0.69756794,0.595342,-0.20130219,1.3328451,-0.7016748,-1.7152208,-0.96804947,2.2748277,1.386956,-1.0378373,1.387879,-0.7683767,-1.759074,-0.9341742,2.2152448,1.3322111,-1.0206538,-1.158792,1.4586238,0.9689921,-0.8482554,1.0190395,0.47788864,-0.28752184,1.8672199,-0.37935066,1.2402292,-2.770642,-0.32313094,2.088202,0.22519493,-0.51145554,0.92335105,0.7876275,-0.05196327,0.051704314,0.61177546,-0.33990744,0.8277387,0.679695,1.0,0.0,0.0,0.0,0.0,0.0,0.0,-2.51722,-0.020649344,-0.69022924,0.7566452,0.58960915,4.915488,3.651905,0.6759405,-0.38113594,2.8123677
-3.4939156,48.93645,13.4317665,18.258001,0.8466078,0.15480143,-0.08492878,-0.6936627,0.81289905,0.5347482,-0.36862507,0.6883975,0.6079086,-0.13518472,1.3185128,-0.6870868,-1.7055992,-0.9710367,2.2840846,1.393002,-1.0341723,1.3761183,-0.75378263,-1.7492378,-0.94206965,2.2253919,1.3369433,-1.0232936,-1.1822925,1.4602176,0.98760176,-0.770581,1.0148762,0.47235736,-0.25626332,1.8395348,-0.3825798,1.2603592,-2.7678719,-0.32280788,1.9879284,0.22162247,-0.5031681,0.9302289,0.78699166,-0.058549937,0.051068213,0.6120523,-0.3560169,0.8320938,0.68350303,1.0,0.0,0.0,0.0,0.0,0.0,0.0,-2.4895349,-0.017420202,-0.71035916,-2.4696589,0.34327507,1.6088605,7.5760007,0.028729439,-0.371629,3.0972838
-12.143121,40.966816,10.003594,22.185318,1.3439385,0.14485835,-0.24933909,-0.71717733,0.8022426,0.52736473,-0.311739,0.6814014,0.61896557,-0.052263748,1.3044006,-0.67355835,-1.6965013,-0.97324353,2.293532,1.3988398,-1.02852,1.3639723,-0.73923624,-1.7394092,-0.94899905,2.2354665,1.3416315,-1.0255901,-1.2261612,1.4533331,0.98071766,-0.6679496,1.0065582,0.46810532,-0.22071333,1.8118763,-0.38580513,1.279487,-2.7651045,-0.32248515,1.8877549,0.21775055,-0.4949684,0.9371233,0.7865053,-0.06526442,0.050465837,0.6120482,-0.39001936,0.8201102,0.6844212,1.0,0.0,0.0,0.0,0.0,0.0,0.0,-2.4618764,-0.014194876,-0.729487,-4.579544,-0.5161047,-0.85237026,10.000383,-0.4267454,-0.31132698,3.5073996
-11.497614,36.049248,8.118561,20.263287,1.2115327,-0.091375425,-0.24541661,-0.7341205,0.7981447,0.51389647,-0.3117981,0.68115884,0.62097895,-0.03349693,1.2905602,-0.65942174,-1.6880195,-0.98017883,2.3035824,1.4037294,-1.0289397,1.3513476,-0.7247852,-1.729779,-0.9550806,2.2454648,1.3462855,-1.0275489,-1.275341,1.4428855,0.9566236,-0.58912605,0.99830735,0.46482664,-0.18753755,1.7842464,-0.38902855,1.297614,-2.76234,-0.32216272,1.7876816,0.2135868,-0.4869194,0.94394577,0.7862108,-0.072012246,0.049948044,0.6117123,-0.41704813,0.8036902,0.6745029,1.0,0.0,0.0,0.0,0.0,0.0,0.0,-2.4342465,-0.010971457,-0.74761397,-5.116749,-0.8924484,-2.5118232,7.616198,-0.4793167,-0.21646023,3.2718272
-4.848233,37.46785,9.105027,16.32716,0.7696698,-0.29300624,-0.10861054,-0.7359363,0.80107665,0.5174575,-0.30542907,0.67987967,0.61408985,0.054983158,1.277754,-0.6446775,-1.6780332,-0.98562354,2.3134527,1.4076945,-1.0220506,1.3383242,-0.7104124,-1.720372,-0.9605948,2.2553868,1.3509089,-1.0291435,-1.3117325,1.4358189,0.9350712,-0.5396831,0.99128586,0.4618246,-0.1502284,1.7566433,-0.39224815,1.314741,-2.7595785,-0.3218406,1.6877083,0.20928383,-0.4789791,0.9506305,0.7860193,-0.07871278,0.049567156,0.6111637,-0.42615867,0.7951986,0.65955794,1.0,0.0,0.0,0.0,0.0,0.0,0.0,-2.4066434,-0.0077518523,-0.764741,-3.794074,-0.5662203,-2.253437,4.723656,-0.38621426,-0.15361309,3.691548
1.146924,37.880104,9.674249,12.263784,0.35013056,-0.515114,0.026911255,-0.74711806,0.79731846,0.5125825,-0.31252614,0.6769262,0.61923206,0.13095707,1.2636124,-0.63068056,-1.6691138,-0.9918474,2.3230793,1.412832,-1.0160477,1.3250147,-0.6961044,-1.7111518,-0.96586955,2.265244,1.3555094,-1.0303432,-1.3379649,1.4296288,0.91752726,-0.5239844,0.98488206,0.46019596,-0.109992154,1.7290688,-0.39546394,1.3308691,-2.7568192,-0.32151884,1.5878348,0.2050209,-0.47107506,0.9571101,0.78581196,-0.08528346,0.04936193,0.61056495,-0.41776744,0.7927494,0.6373994,1.0,0.0,0.0,0.0,0.0,0.0,0.0,-2.3790689,-0.0045360625,-0.78086907,-2.7390003,-0.4896164,-1.8418789,1.3859749,-0.35905838,0.02143383,3.9889529
-2.4833918,36.099606,9.236984,15.927839,0.7216258,-0.3903669,-0.060831923,-0.7624643,0.7837846,0.49832195,-0.20862189,0.6540352,0.6304039,0.23777875,1.2487683,-0.61772597,-1.6613196,-0.9867317,2.3306475,1.4185498,-1.0065653,1.3114725,-0.6819004,-1.7021148,-0.9706503,2.2749867,1.3601042,-1.0311004,-1.3599856,1.4177843,0.898689,-0.46349308,0.9717526,0.45972833,-0.064352356,1.7015209,-0.39867592,1.3459991,-2.754063,-0.3211974,1.4880613,0.20074272,-0.46323395,0.96343815,0.78561324,-0.09181011,0.049300607,0.60987866,-0.42317215,0.7848016,0.6245376,1.0,0.0,0.0,0.0,0.0,0.0,0.0,-2.351521,-0.0013240874,-0.7959991,-2.3328304,-1.0481596,-1.9910693,5.8365583,-1.0029554,0.09877086,4.512471
-6.8298655,35.928722,9.320512,20.724253,1.1463504,-0.17068481,-0.1886161,-0.7738541,0.7799139,0.4815964,-0.109070465,0.6422145,0.645957,0.3021943,1.2340871,-0.603909,-1.6539552,-0.98155737,2.3392081,1.4246999,-1.000881,1.297732,-0.66781557,-1.6932971,-0.974424,2.284577,1.3647047,-1.0313941,-1.3793448,1.4058626,0.8757394,-0.34938264,0.95611846,0.4606093,-0.017922072,1.6740017,-0.401886,1.3601321,-2.7513094,-0.32087627,1.3883874,0.1962719,-0.45549583,0.9697386,0.7855141,-0.09846107,0.049324352,0.60896647,-0.44621748,0.7738863,0.6253179,1.0,0.0,0.0,0.0,0.0,0.0,0.0,-2.3240018,0.0018859804,-0.8101321,-2.0899534,-1.0485172,-2.4227142,11.176533,-1.2134671,0.1809597,4.5789266
-16.25785,34.970818,9.006091,30.274218,2.0485468,0.2654369,-0.46324056,-0.78291965,0.77391297,0.44673938,0.086098105,0.6407424,0.65260553,0.35537928,1.21944,-0.5904243,-1.6486232,-0.9658142,2.3486512,1.4299653,-0.99585617,1.2838141,-0.6538509,-1.6848266,-0.9762732,2.2940335,1.3693148,-1.0312301,-1.3966596,1.3939687,0.83692604,-0.1309939,0.9439124,0.4611408,0.027487488,1.6465092,-0.40509224,1.3732691,-2.7485588,-0.32055545,1.2888132,0.19129181,-0.44792557,0.97623205,0.7857001,-0.105522424,0.049310956,0.6075432,-0.50596195,0.7549332,0.6509338,1.0,0.0,0.0,0.0,0.0,0.0,0.0,-2.2965093,0.0050922334,-0.82326907,-1.9287348,-1.0316133,-4.058373,21.563648,-0.7903576,0.03722906,4.4603686
-22.592735,34.975708,9.404037,37.744785,2.719263,0.6710768,-0.6525644,-0.786108,0.7633089,0.4303612,0.27765346,0.6268064,0.6564217,0.40363294,1.2052033,-0.57752,-1.6417905,-0.94850785,2.3567142,1.4349569,-0.9908668,1.2697588,-0.64002264,-1.6767662,-0.97530425,2.3033643,1.3739268,-1.0306236,-1.4089969,1.3796372,0.79494005,0.1719526,0.93110734,0.46083766,0.07120207,1.6190434,-0.40829468,1.385411,-2.7458107,-0.32023495,1.1893387,0.185503,-0.4405594,0.9831395,0.7863196,-0.11329338,0.049125936,0.60535324,-0.5947446,0.73496133,0.6976292,1.0,0.0,0.0,0.0,0.0,0.0,0.0,-2.2690434,0.008294672,-0.835411,-1.4279366,-1.2735367,-4.4377804,30.028694,-0.780952,-0.15812516,4.2817345
-18.751904,35.455196,9.942837,34.850708,2.398795,0.5846114,-0.56953055,-0.7932027,0.7563891,0.41922885,0.33468,0.62636524,0.65787846,0.38218653,1.1904385,-0.56438375,-1.6348432,-0.94183624,2.366001,1.4397146,-0.9924049,1.2555968,-0.62634027,-1.6690853,-0.97154105,2.312592,1.3785349,-1.0296451,-1.4190565,1.3649069,0.7584084,0.44384196,0.9214032,0.46040323,0.10651578,1.5916061,-0.4114952,1.396559,-2.7430654,-0.3199148,1.0899636,0.17890167,-0.43333626,0.99045986,0.78733593,-0.12180013,0.04874866,0.6024039,-0.67287785,0.7238842,0.73722786,1.0,0.0,0.0,0.0,0.0,0.0,0.0,-2.2416062,0.011495203,-0.846559,-1.1492014,-1.3413429,-3.8670897,26.990192,-0.51795244,-0.18285513,3.4481823
-8.364614,36.680634,10.592745,25.106274,1.43921,0.14410469,-0.2994663,-0.79756767,0.75293106,0.41017273,0.32281452,0.6383437,0.6568204,0.35815102,1.17584,-0.55104715,-1.628068,-0.9392596,2.3764265,1.444217,-0.99382997,1.2413508,-0.6127876,-1.6617,-0.9658514,2.3217778,1.3831431,-1.0283786,-1.4266157,1.3523825,0.7317425,0.61023587,0.9187873,0.4607419,0.13327275,1.5641956,-0.41469193,1.406714,-2.7403228,-0.31959492,0.9906878,0.17180443,-0.42613792,0.9979892,0.7885562,-0.13079926,0.0482672,0.59894973,-0.713171,0.72513986,0.75196826,1.0,0.0,0.0,0.0,0.0,0.0,0.0,-2.2141957,0.014691919,-0.85671395,-0.85647106,-1.1613369,-2.7640343,16.49722,0.06732941,-0.012457371,2.589047
2.665598,38.278744,11.139257,14.487398,0.36130738,-0.38772663,-0.016456403,-0.7961783,0.751787,0.3977145,0.30001256,0.63185114,0.6494166,0.352624,1.1617329,-0.5376089,-1.6219286,-0.93585014,2.384963,1.4480847,-0.9931162,1.2270666,-0.5993284,-1.6545322,-0.9593359,2.330933,1.387755,-1.026887,-1.429343,1.3439002,0.7119318,0.66486526,0.91511804,0.4617375,0.15420902,1.5368137,-0.41788483,1.415877,-2.7375832,-0.3192754,0.89151126,0.1646328,-0.41885376,1.0054706,0.78975797,-0.13996004,0.04783653,0.5953194,-0.7100523,0.73645234,0.74051976,1.0,0.0,0.0,0.0,0.0,0.0,0.0,-2.1868138,0.01788482,-0.865877,-0.35037994,-0.7920742,-1.9433975,5.3500414,-0.17248392,0.18914342,1.9969732
12.401332,38.27044,10.974695,4.354439,-0.59884226,-0.9643133,0.2502792,-0.7936801,0.74559635,0.38869217,0.23796877,0.62444365,0.64644825,0.36969876,1.1476986,-0.52476877,-1.6156629,-0.93553907,2.3933775,1.4523998,-0.98991716,1.2127882,-0.58595026,-1.6475208,-0.9530703,2.340035,1.3923823,-1.0252029,-1.427353,1.3358628,0.69792956,0.613434,0.9084569,0.46392122,0.17277694,1.5094585,-0.42107582,1.4240489,-2.734846,-0.3189562,0.7924339,0.15780258,-0.411438,1.0126461,0.7907469,-0.14893669,0.047616117,0.59183604,-0.6655064,0.751139,0.7036045,1.0,0.0,0.0,0.0,0.0,0.0,0.0,-2.1594586,0.021075815,-0.8740489,0.14326572,-0.7700443,-1.2530327,-5.2416325,-0.5923748,0.45681,1.7558604
18.570644,36.196423,9.731307,-3.1034088,-1.2672703,-1.5128658,0.40355393,-0.7871797,0.74183434,0.35515553,0.16320089,0.61377156,0.64341724,0.38851467,1.1340703,-0.5117668,-1.6120052,-0.9367502,2.401412,1.4567239,-0.98635143,1.1985747,-0.5726465,-1.6407478,-0.94788516,2.3490415,1.3970343,-1.0233413,-1.4196168,1.3286914,0.6708938,0.48650375,0.89762074,0.46686783,0.1901937,1.48213,-0.424263,1.4312309,-2.7321117,-0.3186373,0.69345564,0.15164757,-0.40390205,1.0193025,0.79141873,-0.15741996,0.047760356,0.58872247,-0.58968973,0.76088405,0.6468505,1.0,0.0,0.0,0.0,0.0,0.0,0.0,-2.1321301,0.024262995,-0.8812309,0.75256824,-0.68871975,-2.5249004,-12.778133,-1.0861397,0.6442368,1.6564518
20.500069,33.706295,8.862599,-6.0223293,-1.4374182,-1.7739286,0.49362436,-0.7870789,0.7259154,0.36529383,0.09664642,0.5979054,0.64347583,0.43831939,1.1198667,-0.50005496,-1.6042184,-0.9382205,2.408832,1.4613819,-0.97950935,1.1844374,-0.5594667,-1.6341598,-0.9442154,2.3578992,1.4017168,-1.0212909,-1.4116437,1.3144692,0.6554747,0.32692513,0.88167256,0.4699465,0.20998205,1.4548302,-0.42744637,1.4374237,-2.7293801,-0.31831875,0.59457636,0.14633179,-0.396307,1.0253342,0.7917241,-0.16524659,0.048320994,0.5861157,-0.5028135,0.764418,0.58284354,1.0,0.0,0.0,0.0,0.0,0.0,0.0,-2.1048303,0.02744636,-0.8874237,0.8133888,-1.3874769,-1.3828754,-16.023218,-1.6238809,0.68962574,1.9085884
21.840443,34.71298,9.309452,-7.1779814,-1.5334414,-1.8787832,0.55199206,-0.78617346,0.7242756,0.3805891,0.008725493,0.59636325,0.6442354,0.4521441,1.1058201,-0.48703915,-1.5961009,-0.94334286,2.4175355,1.4661404,-0.9760765,1.1703688,-0.54641664,-1.6275928,-0.942268,2.366612,1.406428,-1.0190479,-1.4050648,1.301883,0.65766406,0.1505796,0.86771846,0.47268668,0.22875567,1.427557,-0.43062782,1.4426285,-2.7266514,-0.3180005,0.4957959,0.14193344,-0.38867188,1.0307258,0.79162484,-0.17236319,0.049284108,0.5841164,-0.41036808,0.76753,0.51908505,1.0,0.0,0.0,0.0,0.0,0.0,0.0,-2.077557,0.030627817,-0.8926285,0.7044554,-1.218009,0.34840107,-17.664045,-1.4306307,0.6468415,1.8230855
22.71035,36.15082,9.994797,-7.420949,-1.531728,-1.9321386,0.5936087,-0.7777633,0.7209898,0.39659044,-0.08209255,0.6035838,0.6393977,0.46928304,1.0925925,-0.47431767,-1.5879338,-0.95047724,2.4269702,1.4703678,-0.97211957,1.1563879,-0.5334753,-1.6208827,-0.94211066,2.375237,1.4111582,-1.0166236,-1.3955017,1.291679,0.6757556,-0.029094007,0.86093736,0.47431576,0.24670275,1.4003105,-0.43380547,1.4468462,-2.7239254,-0.31768256,0.39711428,0.1384716,-0.3809948,1.0355021,0.7910935,-0.17876375,0.050597705,0.5827987,-0.31605554,0.7706586,0.45843574,1.0,0.0,0.0,0.0,0.0,0.0,0.0,-2.0503106,0.03380546,-0.89684623,1.0421276,-0.96998215,1.8814683,-17.958242,-0.7014394,0.51336884,1.758799
20.698633,35.479893,10.017628,-4.7686734,-1.255512,-1.8590269,0.54039574,-0.7601757,0.709918,0.40477175,-0.12377217,0.5857856,0.6401396,0.49880075,1.0803703,-0.46248347,-1.5804056,-0.95448786,2.4338155,1.4751722,-0.9667435,1.1425673,-0.5206531,-1.6139514,-0.94349253,2.3837743,1.4159018,-1.0140182,-1.3770497,1.2792643,0.69878525,-0.17442843,0.85159236,0.47518235,0.26493448,1.3730927,-0.4369793,1.4500779,-2.721202,-0.31736496,0.29853132,0.13587952,-0.37330055,1.0397365,0.7901503,-0.18453537,0.0521909,0.5821384,-0.2319139,0.7715938,0.4065355,1.0,0.0,0.0,0.0,0.0,0.0,0.0,-2.0230927,0.036979288,-0.9000779,1.9605398,-1.1740446,2.2847176,-14.514444,-0.9079337,0.39117932,1.7987788
16.110989,31.147121,8.519789,-1.1287813,-0.80562514,-1.783082,0.4183521,-0.7580591,0.6953833,0.40049782,-0.16537286,0.57729805,0.6390859,0.51623315,1.0667614,-0.4511148,-1.5739017,-0.96002984,2.441504,1.4798104,-0.96239483,1.1289202,-0.50799406,-1.6068504,-0.9460541,2.3922124,1.4206473,-1.0112373,-1.3605032,1.2616968,0.7136582,-0.28338864,0.841754,0.4752059,0.28234178,1.3459015,-0.4401512,1.4523245,-2.7184813,-0.31704766,0.20004691,0.13399887,-0.36563873,1.0435011,0.7888796,-0.18976754,0.05400002,0.58201474,-0.1643469,0.7647755,0.3612397,1.0,0.0,0.0,0.0,0.0,0.0,0.0,-1.9959015,0.04015121,-0.9023245,1.7536879,-1.6767025,1.4217257,-10.90542,-0.9124875,0.25781393,1.7209172
12.007496,25.185719,6.3620267,1.4188151,-0.41462788,-1.789025,0.30428,-0.7488439,0.6754531,0.38859558,-0.20975684,0.56410205,0.6410011,0.524893,1.0540358,-0.44044873,-1.5679908,-0.9670298,2.4486227,1.4847474,-0.958748,1.1154372,-0.4955728,-1.5997169,-0.9495112,2.400536,1.4253908,-1.0082961,-1.3439258,1.2359022,0.71310383,-0.36656424,0.8292707,0.47490492,0.29799145,1.318737,-0.44331932,1.453587,-2.7157636,-0.31673068,0.10166097,0.13270378,-0.35811996,1.0468307,0.7873835,-0.19450511,0.055978544,0.5822897,-0.10983832,0.7475427,0.3184147,1.0,0.0,0.0,0.0,0.0,0.0,0.0,-1.968737,0.043319315,-0.90358704,1.7442942,-2.4937153,-0.14504194,-8.3623705,-1.1591434,0.19075274,1.5424192
8.9374275,18.454033,3.4719906,1.8257523,-0.2335,-1.9531804,0.19957751,-0.74342823,0.6594047,0.3464763,-0.27486852,0.5476726,0.6429516,0.5212597,1.0410943,-0.42963234,-1.5650693,-0.97699803,2.4553034,1.489686,-0.95617014,1.1020991,-0.48344207,-1.5928276,-0.953796,2.4087033,1.4301325,-1.0052196,-1.3300755,1.2057396,0.68039316,-0.4493962,0.81271803,0.4745622,0.31076515,1.2915993,-0.4464836,1.4538664,-2.7130482,-0.31641403,0.003373377,0.13191795,-0.35087013,1.0496974,0.7857787,-0.19869398,0.05815726,0.5828295,-0.059484143,0.71713746,0.2711045,1.0,0.0,0.0,0.0,0.0,0.0,0.0,-1.9415992,0.046483606,-0.90386635,1.4675379,-2.935052,-3.3493161,-8.353556,-1.5934348,0.16396642,1.253587
6.9213495,13.144669,1.203614,1.6814852,-0.15648144,-2.104659,0.13409357,-0.73562104,0.63911074,0.31165972,-0.332855,0.511264,0.64275616,0.5355106,1.0285369,-0.419531,-1.5616616,-0.9870815,2.4598298,1.4944081,-0.9516685,1.0888945,-0.47164607,-1.586438,-0.9589468,2.4166188,1.4348704,-1.002021,-1.3169768,1.1711547,0.62486017,-0.53724074,0.7844954,0.47402334,0.32263705,1.2644882,-0.449646,1.4531636,-2.7103357,-0.31609768,-0.09481595,0.13163948,-0.34399986,1.0520566,0.78416157,-0.20225225,0.060602102,0.58353406,-0.010093146,0.67674226,0.2194179,1.0,0.0,0.0,0.0,0.0,0.0,0.0,-1.9144882,0.04964599,-0.9031636,1.4029741,-3.383398,-5.6242704,-8.866578,-2.7917624,0.1221478,1.1580765
6.0827894,8.660064,-0.49620926,0.599349,-0.1139701,-2.2518816,0.1338135,-0.7292364,0.609958,0.291103,-0.4076436,0.48340294,0.6476634,0.5451487,1.0159708,-0.41065028,-1.5573276,-0.99971116,2.4649591,1.4996367,-0.94750607,1.0758139,-0.46025681,-1.5806358,-0.9651085,2.4241986,1.4396044,-0.9987136,-1.3046349,1.1284269,0.56500214,-0.64278615,0.7491437,0.47381195,0.33349362,1.2374058,-0.45280457,1.4514797,-2.707626,-0.31578165,-0.19290711,0.13186455,-0.33758545,1.0538529,0.7825739,-0.20509219,0.06334132,0.5843826,0.040817928,0.6278171,0.1618863,1.0,0.0,0.0,0.0,0.0,0.0,0.0,-1.8874058,0.05280456,-0.90147966,1.3594627,-4.206538,-6.0591817,-10.630131,-3.541696,0.13378263,1.050514
4.529352,-2.5477026,-4.3139467,-1.31705,-0.038952827,-2.5050473,0.13481104,-0.6923171,0.5355715,0.25559577,-0.47437146,0.32973716,0.6563267,0.57444316,1.0065821,-0.40669966,-1.5550762,-1.0125457,2.4571724,1.5052371,-0.9412693,1.0630022,-0.4495561,-1.5754726,-0.97241175,2.4310155,1.4443423,-0.99528897,-1.2727647,1.0507295,0.49978638,-0.7597171,0.6588413,0.47435343,0.34515145,1.21035,-0.45595932,1.4488156,-2.7049189,-0.31546593,-0.2909002,0.13262177,-0.33179474,1.0549845,0.78104305,-0.20711951,0.06644421,0.5853702,0.093772575,0.56137866,0.09267033,1.0,0.0,0.0,0.0,0.0,0.0,0.0,-1.86035,0.055959314,-0.8988156,3.4244537,-7.7227354,-6.660688,-11.767936,-9.090912,0.18989444,1.0910034
-3.9599504,-32.356674,-14.997507,-2.8344584,0.97874177,-2.9897475,0.03141247,-0.67631906,0.39450634,0.17481132,-0.56895554,0.27441713,0.65543807,0.565027,0.9953703,-0.41010547,-1.5579915,-1.0293074,2.4584572,1.509886,-0.93878627,1.0505568,-0.44019055,-1.5711849,-0.98106444,2.4368253,1.449082,-0.99177086,-1.2340641,0.8984235,0.40485585,-0.9008287,0.55427647,0.47406992,0.3534482,1.183321,-0.45911217,1.4451723,-2.7022145,-0.31515053,-0.38879532,0.1337738,-0.32707024,1.055238,0.779687,-0.20809238,0.069770396,0.5864451,0.1271232,0.44001046,-0.0008672393,1.0,0.0,0.0,0.0,0.0,0.0,0.0,-1.833321,0.05911216,-0.8951723,4.223919,-15.25141,-9.610659,-14.231146,-10.67189,0.025558472,0.6674528
-18.249977,-74.1377,-29.40703,-0.70884466,2.782513,-3.349658,-0.16005205,-0.6385566,0.17375068,0.09950261,-0.6088052,0.1443081,0.6436016,0.58334947,0.98670113,-0.42281547,-1.5612346,-1.041945,2.451256,1.5134422,-0.9334359,1.038611,-0.43320775,-1.5680282,-0.99101794,2.4413495,1.4538008,-0.9881755,-1.1800594,0.63113546,0.28571945,-1.0274899,0.4173417,0.47089675,0.36050668,1.1563187,-0.4622612,1.4405508,-2.699513,-0.31483543,-0.48659253,0.13492203,-0.3240986,1.0543945,0.7786895,-0.20779732,0.07297158,0.58748436,0.11498432,0.24734986,-0.11528678,1.0,0.0,0.0,0.0,0.0,0.0,0.0,-1.8063186,0.062261194,-0.8905508,5.865097,-26.860535,-11.981112,-12.846494,-14.078564,-0.43269992,0.40134788
-36.013115,-128.21255,-47.9532,0.97565913,4.728109,-3.7401564,-0.3791071,-0.5916839,-0.1649192,0.048834935,-0.67016125,-0.22844838,0.6215697,0.5443419,0.97944266,-0.44969967,-1.5631447,-1.0580341,2.4185047,1.5159577,-0.93374133,1.0273348,-0.43014312,-1.5660675,-1.0021698,2.4435887,1.4584566,-0.9845582,-1.1080669,0.19719256,0.16625898,-1.1449053,0.15746038,0.46241003,0.36041075,1.129343,-0.46540642,1.434952,-2.6968138,-0.31452066,-0.58429205,0.13557816,-0.32367516,1.0521656,0.7782763,-0.20603734,0.07576118,0.5882982,0.051178113,-0.028764924,-0.26083025,1.0,0.0,0.0,0.0,0.0,0.0,0.0,-1.779343,0.06540641,-0.884952,7.8140497,-43.697956,-11.942363,-11.886406,-26.57751,-1.2773752,-0.51143765
-43.593685,-160.57764,-58.646988,0.73432934,5.9018655,-4.0296006,-0.40640858,-0.42392173,-0.48875314,-0.05790553,-0.6918988,-0.52959937,0.6006101,0.5312476,0.9849426,-0.47901842,-1.571858,-1.0713598,2.3906288,1.5185176,-0.93143344,1.0174357,-0.43231702,-1.5654991,-1.0142453,2.442593,1.4629942,-0.9809648,-0.94840044,-0.35703924,0.020418456,-1.2284459,-0.18740675,0.4482199,0.3570443,1.102396,-0.46854973,1.428377,-2.6941175,-0.3142062,-0.6818939,0.1354084,-0.32640076,1.0483327,0.7785155,-0.20272551,0.077869296,0.58885676,-0.039950058,-0.35459736,-0.4252873,1.0,0.0,0.0,0.0,0.0,0.0,0.0,-1.752396,0.06854972,-0.878377,16.611898,-55.85649,-14.504078,-8.306313,-35.128395,-2.2439003,-0.93281865
-19.385637,-127.49922,-43.42846,-6.874617,4.6219287,-3.9215422,0.27268538,-0.039499942,-0.69199955,-0.07535111,-0.6981406,-0.6198885,0.62791675,0.511009,1.0134857,-0.501517,-1.5730342,-1.0840594,2.3806043,1.5257859,-0.92986387,1.0107294,-0.43995357,-1.5661476,-1.0268681,2.4383779,1.4674116,-0.97741044,-0.5779756,-0.9003389,-0.09243782,-1.2729352,-0.50034076,0.43630192,0.35371697,1.0754757,-0.47168922,1.4208268,-2.6914241,-0.31389207,-0.7793981,0.13473892,-0.33198547,1.0429566,0.7788426,-0.19813013,0.07889518,0.58985096,-0.07850182,-0.6253382,-0.5759261,1.0,0.0,0.0,0.0,0.0,0.0,0.0,-1.7254757,0.07168922,-0.8708268,37.079704,-54.681946,-10.999945,-4.301071,-31.528013,-2.1573186,-0.6992936
17.697119,-58.703613,-17.435598,-17.701145,1.4700321,-3.9193316,0.8949592,0.3823739,-0.7468547,-0.2570803,-0.693813,-0.6520398,0.63789433,0.43214256,1.0489668,-0.514639,-1.5918556,-1.0962495,2.373174,1.5312011,-0.9341962,1.0092818,-0.45189595,-1.5683792,-1.0396836,2.431641,1.4717337,-0.9739305,-0.004180972,-1.2927918,-0.26341504,-1.2848233,-0.7312348,0.4281949,0.34571683,1.0485821,-0.4748249,1.4123021,-2.688733,-0.31357825,-0.8768048,0.13449478,-0.3395157,1.0362848,0.7785742,-0.19260702,0.07884455,0.5920373,-0.009216273,-0.79222935,-0.69956076,1.0,0.0,0.0,0.0,0.0,0.0,0.0,-1.698582,0.0748249,-0.8623021,56.20696,-39.42089,-16.135565,-1.284051,-22.888374,-1.6654968,-0.8773267
29.99638,-12.640945,-3.140472,-16.280828,-0.37117374,-3.5277853,0.75496125,0.5097598,-0.7777857,-0.46345893,-0.66752315,-0.69206786,0.6489163,0.3576323,1.0602577,-0.52967453,-1.6147251,-1.1064359,2.3624344,1.5366253,-0.9381673,1.0133101,-0.46647,-1.5729549,-1.0523579,2.4231496,1.4760062,-0.9705783,0.53318447,-1.5126649,-0.5179225,-1.2622831,-0.88754594,0.42461196,0.33187276,1.0217152,-0.47795868,1.4028043,-2.686045,-0.31326473,-0.9741142,0.13524818,-0.3481846,1.0285995,0.7776269,-0.18639076,0.07820806,0.5953472,0.10361696,-0.88661224,-0.795157,1.0,0.0,0.0,0.0,0.0,0.0,0.0,-1.6717151,0.07795867,-0.85280424,52.13624,-22.092772,-24.19877,2.0424843,-15.381325,-1.0421991,-1.3455033
34.773945,18.39423,5.674966,-14.356742,-1.477884,-3.183666,0.5446126,0.62365586,-0.79938936,-0.6035721,-0.70214915,-0.6403777,0.6229092,0.2155932,1.0756756,-0.54640895,-1.6333121,-1.1225728,2.3591118,1.538297,-0.949019,1.021876,-0.48221135,-1.5803287,-1.0649178,2.4137769,1.4802405,-0.96746075,0.9597659,-1.5947859,-0.80708677,-1.2547892,-0.9527999,0.42129406,0.30528536,0.99487495,-0.48108864,1.3923339,-2.6833596,-0.31295153,-1.0713263,0.13725471,-0.35744095,1.0200971,0.7761853,-0.17951357,0.077438034,0.59942853,0.23633064,-0.93293613,-0.87421197,1.0,0.0,0.0,0.0,0.0,0.0,0.0,-1.6448749,0.08108863,-0.84233385,41.267513,-8.263564,-27.91283,0.5233288,-6.2952757,-0.86444616,-2.5681734
35.683365,41.76644,13.725588,-9.789322,-1.985127,-2.5109606,0.40575403,0.72268873,-0.8067797,-0.6375189,-0.71459705,-0.60504067,0.60466975,0.033062313,1.0941448,-0.56288934,-1.6440806,-1.1363775,2.353273,1.5407075,-0.96415454,1.0337569,-0.49811482,-1.5901611,-1.0774987,2.4042249,1.4844443,-0.96473134,1.2612891,-1.5888442,-1.0404304,-1.2598933,-0.95493203,0.4187095,0.262642,0.96806145,-0.4842167,1.3808922,-2.6806767,-0.31263864,-1.1684412,0.14053917,-0.3668213,1.0109746,0.7743753,-0.17207108,0.076758906,0.6040218,0.3655011,-0.9333758,-0.9321003,1.0,0.0,0.0,0.0,0.0,0.0,0.0,-1.6180614,0.084216684,-0.83089215,29.233456,0.5998373,-22.83187,-0.72402954,0.0034809113,-0.6063938,-4.125184
29.888763,52.713287,18.386082,-1.6660185,-1.6584203,-1.616315,0.22955379,0.76850796,-0.8139347,-0.63385415,-0.6956164,-0.5667842,0.6037161,-0.1757571,1.1106076,-0.5795083,-1.6535465,-1.1470603,2.3475463,1.5448159,-0.982307,1.0477015,-0.51368463,-1.6015956,-1.0900681,2.3949513,1.4886328,-0.9625598,1.437542,-1.5463219,-1.1777116,-1.2565705,-0.91794884,0.41836268,0.20256688,0.94127464,-0.48734093,1.3684801,-2.6779966,-0.31232607,-1.265459,0.14485931,-0.3759861,1.0014616,0.77230114,-0.16429733,0.076166235,0.60889727,0.46288902,-0.90317625,-0.9659062,1.0,0.0,0.0,0.0,0.0,0.0,0.0,-1.5912746,0.08734092,-0.8184801,17.197968,4.27773,-13.642597,0.1757145,3.8296819,-0.20375848,-5.84566
21.492752,54.95778,19.872082,6.1866627,-1.0336087,-0.855463,0.086866476,0.7886697,-0.81177866,-0.6374023,-0.6767727,-0.53956735,0.59811807,-0.2409055,1.1265684,-0.5948625,-1.6653359,-1.1577454,2.3409946,1.5484446,-0.98665035,1.0626494,-0.5287775,-1.6137855,-1.1025078,2.3861623,1.4928232,-0.9609977,1.5138192,-1.4968643,-1.2333643,-1.2400442,-0.8661944,0.41914275,0.1412464,0.91451454,-0.49046135,1.3550986,-2.6753192,-0.3120138,-1.3623798,0.14986801,-0.38475037,0.99175173,0.7700571,-0.1564298,0.075584814,0.6138638,0.523149,-0.85907274,-0.98113054,1.0,0.0,0.0,0.0,0.0,0.0,0.0,-1.5645145,0.09046134,-0.8050986,7.545638,4.962826,-5.7008743,1.5652895,5.193937,0.03464222,-5.98318
14.560057,52.313423,19.533484,11.039135,-0.40848172,-0.36947632,0.035156764,0.79748315,-0.81320995,-0.6234899,-0.6780618,-0.48864907,0.6009913,-0.26366618,1.1423976,-0.6100985,-1.6761345,-1.170314,2.3372974,1.5529224,-0.9873643,1.07787,-0.54347074,-1.6260517,-1.1147873,2.3779798,1.497029,-0.9600078,1.5251776,-1.4601377,-1.2252055,-1.2240812,-0.80264,0.42098093,0.08540786,0.88778114,-0.49357986,1.3407487,-2.6726444,-0.31170186,-1.4592036,0.15525627,-0.3930683,0.98195213,0.7676833,-0.14861502,0.07488064,0.6188446,0.554418,-0.8138713,-0.9877675,1.0,0.0,0.0,0.0,0.0,0.0,0.0,-1.5377811,0.09357986,-0.79074866,1.2344122,3.6741018,0.5837679,1.5732527,6.297612,0.19647479,-5.439001
5.663152,43.579384,15.672144,15.085244,0.19902873,-0.13849086,-0.10006283,0.7808439,-0.81434274,-0.6576134,-0.6582432,-0.50039697,0.6259524,-0.22582822,1.1559544,-0.624905,-1.691813,-1.1806116,2.32794,1.5596242,-0.9825906,1.0928675,-0.5579294,-1.6381958,-1.1268437,2.3702893,1.5012709,-0.9594861,1.4920734,-1.441166,-1.2117362,-1.1993995,-0.7582765,0.4253163,0.04137492,0.86107445,-0.49669456,1.3254312,-2.6699724,-0.31139022,-1.5559306,0.16077614,-0.4010296,0.97208023,0.7652857,-0.14089374,0.07404412,0.623702,0.5602454,-0.7816073,-0.9948726,1.0,0.0,0.0,0.0,0.0,0.0,0.0,-1.5110744,0.09669456,-0.7754312,-3.106618,1.8633127,1.1348963,2.5321722,4.287088,0.44950247,-4.309192
2.8897295,41.727013,15.184116,16.94261,0.29731905,0.037963092,-0.12139632,0.7815571,-0.8116271,-0.6376361,-0.62915003,-0.55896443,0.64749163,-0.21572755,1.1710232,-0.6390921,-1.7019594,-1.1897587,2.3143928,1.56602,-0.9810589,1.1074663,-0.5722898,-1.6500919,-1.1385586,2.36274,1.505572,-0.9593383,1.4498751,-1.434591,-1.1828852,-1.1619245,-0.7545176,0.43168506,0.006151015,0.83439445,-0.49980545,1.3091472,-2.6673028,-0.31107888,-1.6525611,0.16629982,-0.40867233,0.9621559,0.76290834,-0.1333369,0.07317157,0.6283614,0.5581077,-0.7491833,-0.99909127,1.0,0.0,0.0,0.0,0.0,0.0,0.0,-1.4843944,0.099805444,-0.7591472,-4.0154457,0.6129265,2.6954174,3.8332462,0.20782948,0.6626189,-3.4510374
1.3911829,36.986675,12.804527,15.863474,0.25254142,-0.096037224,-0.11222048,0.77221686,-0.8155764,-0.6644285,-0.63180524,-0.60376126,0.6429765,-0.13474093,1.184688,-0.65384746,-1.7165347,-1.2017392,2.3023639,1.5698696,-0.9728124,1.121657,-0.58666646,-1.6618564,-1.1499665,2.3549886,1.5099245,-0.9594337,1.4095412,-1.4388133,-1.1747766,-1.1335202,-0.7825454,0.436502,-0.014662301,0.80774117,-0.5029144,1.2918977,-2.6646361,-0.31076786,-1.7490948,0.17181778,-0.4160576,0.9521178,0.7605682,-0.1258858,0.07240883,0.63280773,0.558212,-0.7254025,-1.0124537,1.0,0.0,0.0,0.0,0.0,0.0,0.0,-1.4577411,0.10291442,-0.74189764,-3.839755,-0.47852993,0.6485224,2.966237,-2.9798508,0.44879317,-2.036113
-4.420805,32.90741,10.816221,19.953869,0.75677043,0.0781841,-0.2242213,0.74239427,-0.82488734,-0.67373776,-0.54513264,-0.62412906,0.6678851,-0.06199471,1.1958964,-0.6691552,-1.7292302,-1.2044797,2.2925756,1.5767131,-0.96563315,1.135409,-0.60115564,-1.6736438,-1.1607754,2.3468633,1.51434,-0.9596454,1.3644565,-1.4525955,-1.1802697,-1.0625873,-0.8232665,0.44338018,-0.023208197,0.7811146,-0.5060196,1.2736834,-2.661972,-0.31045717,-1.8455321,0.17720604,-0.4232731,0.9419944,0.7583421,-0.11859721,0.0718045,0.6369428,0.539956,-0.7114863,-1.0190763,1.0,0.0,0.0,0.0,0.0,0.0,0.0,-1.4311146,0.10601959,-0.7236834,-4.321265,-1.4647007,-0.6225109,7.2499514,-4.309392,0.6949842,-0.83488375
-3.5488148,31.25536,9.784137,17.980373,0.6915929,-0.097959474,-0.16816907,0.73443466,-0.82865196,-0.69784904,-0.55083543,-0.6255146,0.6567618,0.017596843,1.2088524,-0.6840208,-1.7434287,-1.2158589,2.2843118,1.5800163,-0.9578857,1.1487795,-0.61579645,-1.6856334,-1.1709797,2.338368,1.518809,-0.9598571,1.3285263,-1.4682115,-1.2053219,-1.0057732,-0.85879076,0.44793406,-0.020351728,0.7545147,-0.50912094,1.2545055,-2.6593106,-0.31014678,-1.941873,0.18245506,-0.43040466,0.93174344,0.75623184,-0.11140621,0.071373425,0.6407868,0.527881,-0.7041056,-1.0337694,1.0,0.0,0.0,0.0,0.0,0.0,0.0,-1.4045147,0.109120935,-0.7045055,-3.4214735,-1.6528368,-2.5672197,5.8576584,-3.7818432,0.4140854,0.30629784
-0.71810913,32.29187,10.028577,14.481287,0.38024127,-0.24560224,-0.050822243,0.7111885,-0.8279381,-0.7063294,-0.5788856,-0.63588005,0.65760523,0.09136036,1.2198983,-0.6985903,-1.7562664,-1.2288682,2.27478,1.5845695,-0.9507211,1.1617972,-0.6305603,-1.6979091,-1.1809037,2.3295674,1.5233141,-0.95997155,1.2935216,-1.4793427,-1.2353269,-0.9873686,-0.8877416,0.4510823,-0.008419462,0.7279415,-0.5122204,1.2343649,-2.656652,-0.3098367,-2.0381174,0.18767929,-0.4374447,0.9212655,0.7541583,-0.10415979,0.07114508,0.64446425,0.5276869,-0.6948576,-1.05915,1.0,0.0,0.0,0.0,0.0,0.0,0.0,-1.3779415,0.11222038,-0.68436486,-3.3188581,-1.1941671,-3.10843,2.0253181,-3.100419,0.21286607,1.2188964
3.8250804,38.241207,13.157125,12.444693,0.03482735,-0.18760559,0.07609461,0.7029256,-0.82429945,-0.68460405,-0.57374895,-0.6490466,0.6688222,0.11209607,1.2320898,-0.7129902,-1.7663696,-1.2382786,2.2646627,1.5901964,-0.94876194,1.1745249,-0.6453775,-1.7103317,-1.1907799,2.320519,1.5278536,-0.95995057,1.266553,-1.4827005,-1.2450722,-0.9872244,-0.91130435,0.45453933,0.0058091707,0.70139503,-0.515316,1.2132624,-2.6539958,-0.30952692,-2.1342657,0.1929779,-0.4442978,0.91054434,0.75200087,-0.09682609,0.07111595,0.6481218,0.5372534,-0.6729788,-1.0830822,1.0,0.0,0.0,0.0,0.0,0.0,0.0,-1.351395,0.115316,-0.6632624,-2.5304317,-0.3974676,-1.1224985,0.16855001,-2.533114,0.23695827,1.4705163
6.933284,42.533493,15.596277,11.535525,-0.15299523,-0.1083104,0.15764171,0.6982521,-0.82639325,-0.6751646,-0.56465465,-0.6640437,0.66988724,0.1388942,1.2443501,-0.72801685,-1.7778481,-1.2472454,2.2541146,1.5948423,-0.94606113,1.1870543,-0.66020525,-1.7227333,-1.2006867,2.311253,1.5324255,-0.95977604,1.2487944,-1.4829355,-1.2390488,-0.99143624,-0.9321326,0.4576555,0.021537362,0.67487526,-0.5184097,1.1911994,-2.6513424,-0.30921745,-2.2303176,0.19841003,-0.4508705,0.8996111,0.74965876,-0.08943998,0.07126059,0.65186965,0.55182844,-0.64233416,-1.1033173,1.0,0.0,0.0,0.0,0.0,0.0,0.0,-1.3248752,0.11840972,-0.6411994,-1.6313076,-0.07250309,0.4395008,-0.28972626,-2.241528,0.20868778,1.6400522
7.837816,45.23452,16.939,11.542961,-0.22210509,-0.015373141,0.1690292,0.6853633,-0.82282823,-0.675242,-0.561853,-0.6801616,0.6767699,0.13365056,1.2555906,-0.7424881,-1.7902575,-1.2568719,2.243237,1.6001025,-0.946411,1.1994196,-0.6750034,-1.7350357,-1.2106354,2.301785,1.5370299,-0.9594623,1.2330905,-1.4790126,-1.2279801,-0.9956532,-0.95243716,0.4610711,0.034863412,0.6483822,-0.52149963,1.1681765,-2.6486914,-0.3089083,-2.3262734,0.20399284,-0.45710182,0.8884997,0.7470964,-0.08203701,0.07156874,0.65573984,0.56688446,-0.6068454,-1.120231,1.0,0.0,0.0,0.0,0.0,0.0,0.0,-1.2983822,0.12149963,-0.6181765,-1.4295578,0.3494501,0.9391546,-0.29906034,-2.1868467,0.24776459,1.4041476
6.620578,45.44822,16.943794,12.595781,-0.07191974,0.060229912,0.10558118,0.67720544,-0.82372403,-0.68281263,-0.5448614,-0.6806978,0.6779637,0.063691385,1.2671402,-0.75737584,-1.803317,-1.2651216,2.2337153,1.6048262,-0.9530932,1.2116419,-0.6897644,-1.7472694,-1.2205384,2.2921567,1.5416666,-0.9590837,1.2191566,-1.4753284,-1.2221347,-0.988138,-0.96695465,0.4642996,0.039028652,0.6219158,-0.5245857,1.1441947,-2.6460433,-0.30859947,-2.4221334,0.20969391,-0.46299744,0.87723994,0.74435335,-0.07464794,0.07201256,0.6596817,0.5770168,-0.5736676,-1.133948,1.0,0.0,0.0,0.0,0.0,0.0,0.0,-1.2719158,0.12458572,-0.5941947,-1.2599707,0.32103062,0.44093132,0.87862015,-1.6172886,0.2438724,0.48917383
5.1491456,44.07695,16.008873,12.563858,0.006967306,0.06444287,0.06288798,0.66207665,-0.8241075,-0.69350815,-0.553683,-0.6905492,0.6751797,0.026185779,1.2778496,-0.77217513,-1.8166202,-1.2759067,2.2231019,1.6091846,-0.9564651,1.2236983,-0.70449865,-1.7595203,-1.2303956,2.282395,1.5463282,-0.958707,1.2015876,-1.4729729,-1.2263666,-0.9844766,-0.9798204,0.46665835,0.037406854,0.59547424,-0.5276699,1.1192552,-2.6433978,-0.30829093,-2.5178976,0.2154808,-0.4685974,0.8658181,0.7414787,-0.06724617,0.07258468,0.66364044,0.5846352,-0.54432744,-1.1508178,1.0,0.0,0.0,0.0,0.0,0.0,0.0,-1.2454742,0.1276699,-0.5692552,-1.6155243,0.18279552,-0.5591154,0.5123615,-1.459372,0.14332533,-0.096574426
3.0786905,43.124996,15.200972,12.762245,0.101828516,0.120327175,0.008341819,0.63889426,-0.82211,-0.6974555,-0.5621278,-0.69490695,0.67766863,-0.060672916,1.2875876,-0.78670967,-1.8292658,-1.2866083,2.2129042,1.6140951,-0.96477425,1.2355086,-0.71921,-1.7718494,-1.240268,2.2725224,1.5510126,-0.95841897,1.1747084,-1.4707202,-1.235468,-0.9875167,-0.99003696,0.46872485,0.026098987,0.5690594,-0.5307503,1.0933586,-2.640755,-0.30798268,-2.613566,0.22131538,-0.473917,0.8542066,0.7385269,-0.05979261,0.07328449,0.6675568,0.5879288,-0.51761234,-1.1702279,1.0,0.0,0.0,0.0,0.0,0.0,0.0,-1.2190593,0.13075027,-0.5433586,-2.5292873,0.16767979,-1.0463238,-0.1398921,-1.2042522,0.105404854,-1.0733243
-0.41471958,41.972614,14.317655,13.858472,0.3003329,0.2568395,-0.044792533,0.6056999,-0.8251744,-0.6937299,-0.5613553,-0.70439357,0.68329775,-0.10362137,1.2960786,-0.8017275,-1.8412224,-1.2964035,2.202083,1.6193424,-0.9687811,1.2469393,-0.73392045,-1.7842472,-1.2501767,2.2625508,1.55572,-0.95827687,1.1330774,-1.4713904,-1.2416083,-0.9914882,-1.0004795,0.47107005,0.010452225,0.5426712,-0.53382874,1.066506,-2.6381147,-0.30767477,-2.7091386,0.22711945,-0.47899818,0.8423988,0.73555374,-0.05227799,0.0740948,0.6713699,0.58245164,-0.49420744,-1.1897991,1.0,0.0,0.0,0.0,0.0,0.0,0.0,-1.1926712,0.13382873,-0.516506,-3.9857864,-0.13179779,-0.7473469,-0.21425486,-1.2442231,0.13943315,-1.5140077
-7.7970963,38.4382,11.430199,15.439346,0.6495595,0.3943957,-0.16747192,0.53864074,-0.8236737,-0.7133697,-0.58279324,-0.70185184,0.66709644,-0.20606184,1.3008034,-0.8162878,-1.8555841,-1.308456,2.1923656,1.6224296,-0.978883,1.2577063,-0.74863756,-1.7967784,-1.2602208,2.252503,1.5604368,-0.95835984,1.058684,-1.4721011,-1.2572912,-1.0078846,-1.0071716,0.4714034,-0.0144586675,0.51630974,-0.5369034,1.0386986,-2.635477,-0.30736715,-2.8046157,0.23276329,-0.48391533,0.83035326,0.73267287,-0.04463419,0.07501982,0.6749594,0.5622304,-0.48001507,-1.2147532,1.0,0.0,0.0,0.0,0.0,0.0,0.0,-1.1663097,0.13690338,-0.48869854,-7.2082996,-0.1534462,-1.7024755,-1.412797,-0.90596676,-0.06905198,-2.4671106
-18.144918,35.068035,8.298064,17.782366,1.10105,0.6853625,-0.25520146,0.43224815,-0.8219169,-0.7101515,-0.62205005,-0.7012432,0.65972674,-0.1826423,1.3009311,-0.83082926,-1.8677936,-1.3224257,2.1823785,1.6264095,-0.9766241,1.2673346,-0.76335466,-1.8094337,-1.2706006,2.2424054,1.565148,-0.95866024,0.9318871,-1.4719664,-1.2687567,-1.0470043,-1.0114161,0.47065854,-0.03525978,0.48997498,-0.5399742,1.0099369,-2.6328423,-0.30705985,-2.8999975,0.23804092,-0.48875427,0.8180217,0.72999036,-0.0367743,0.07606115,0.6782155,0.52007884,-0.47418115,-1.2443967,1.0,0.0,0.0,0.0,0.0,0.0,0.0,-1.139975,0.1399742,-0.45993692,-12.367988,-0.09059906,-1.3009548,-3.6308289,-0.71897507,-0.17953515,-2.085897
-65.02289,19.928493,-5.6714544,33.308224,3.4967282,1.8783897,-0.83848345,0.05679305,-0.82186776,-0.7029156,-0.6619539,-0.6883181,0.6302509,-0.12971109,1.2730138,-0.8455414,-1.8797252,-1.3367959,2.1735735,1.6281731,-0.97163135,1.2741228,-0.7780746,-1.8221328,-1.2815125,2.232308,1.5698305,-0.95911133,0.5965708,-1.4727569,-1.2708659,-1.1042312,-1.0111518,0.46742404,-0.04882307,0.46366692,-0.54304314,0.9802222,-2.63021,-0.30675286,-2.9952838,0.24213982,-0.49388885,0.80537426,0.72799623,-0.02858046,0.07719952,0.68062085,0.3759895,-0.51561856,-1.2764049,1.0,0.0,0.0,0.0,0.0,0.0,0.0,-1.1136669,0.14304313,-0.4302222,-32.92924,-0.30186176,-0.34971237,-5.232358,-0.5484104,-0.37038326,-1.4862753
-135.11157,-0.80506253,-26.335283,55.680305,7.0438666,3.6318347,-1.6202172,-0.50057817,-0.8125302,-0.6940351,-0.74256265,-0.63945174,0.58446246,0.13206616,1.2240651,-0.8593277,-1.8915364,-1.3557688,2.1683626,1.6282768,-0.94590473,1.2752672,-0.79277074,-1.8347785,-1.2932656,2.222344,1.5744444,-0.95948327,-0.042763613,-1.4701926,-1.262878,-1.1958054,-0.9949523,0.45877746,-0.03417637,0.43738556,-0.54610825,0.9495554,-2.6275804,-0.30644616,-3.0904748,0.24367905,-0.49995804,0.7923703,0.7274741,-0.019844668,0.07836832,0.68135595,0.081001565,-0.6270799,-1.3128704,1.0,0.0,0.0,0.0,0.0,0.0,0.0,-1.0873855,0.14610824,-0.3995554,-62.883156,-0.21400452,0.6798506,-8.238769,0.5440712,-1.0048926,1.2216843
-130.00513,12.75312,-18.762407,54.803947,6.950648,4.089835,-1.3220123,-0.6282191,-0.78921944,-0.5966356,-0.7905097,-0.51552135,0.58879143,0.3815694,1.2124454,-0.87169266,-1.8944421,-1.3723166,2.1707919,1.6333236,-0.92132634,1.2701651,-0.80733526,-1.8468807,-1.3060124,2.2129102,1.5789667,-0.95949376,-0.6626573,-1.4536105,-1.1931633,-1.2975168,-0.92990744,0.44911155,0.009957963,0.411129,-0.54917145,0.9179374,-2.6249533,-0.30613977,-3.1855707,0.24226952,-0.50696945,0.77916825,0.72839993,-0.010640646,0.07925162,0.68047,-0.2159696,-0.71584773,-1.3267387,1.0,0.0,0.0,0.0,0.0,0.0,0.0,-1.061129,0.14917144,-0.3679374,-60.958652,1.1232853,6.782818,-9.132147,5.3542733,-1.2957454,4.390188
-88.531,34.774246,-0.70320296,43.351463,5.0369854,3.695548,-0.6921891,-0.63685983,-0.7979941,-0.50079155,-0.7709224,-0.50944275,0.63005036,0.44360316,1.2064791,-0.8871347,-1.8969598,-1.3831047,2.1619658,1.6419718,-0.9151334,1.2602888,-0.8217739,-1.8578537,-1.3194745,2.2041326,1.5834357,-0.95901215,-1.0936413,-1.4419266,-1.0661297,-1.3596675,-0.8628155,0.4451223,0.06166609,0.38489914,-0.55223083,0.8853691,-2.622329,-0.3058337,-3.2805715,0.23848343,-0.51444435,0.7660358,0.73018575,-0.001335696,0.0795566,0.6785997,-0.43644974,-0.74729383,-1.3121943,1.0,0.0,0.0,0.0,0.0,0.0,0.0,-1.0348991,0.15223083,-0.3353691,-42.391098,0.77602863,12.442732,-5.3884506,5.8947206,-0.67211986,5.3762755
-52.28867,37.741623,5.0031037,28.99994,3.1840715,2.327158,-0.3523554,-0.6584825,-0.8041165,-0.64011353,-0.77301073,-0.5115986,0.6061206,0.41842395,1.1944406,-0.90218556,-1.921865,-1.3967755,2.1529727,1.6440477,-0.91716975,1.2476279,-0.83615243,-1.8683479,-1.3333161,2.1959233,1.587855,-0.958068,-1.3222436,-1.4373589,-1.0445269,-1.3902193,-0.80861276,0.43988338,0.10602917,0.35869598,-0.5552864,0.8518515,-2.619707,-0.30552793,-3.3754773,0.2331562,-0.5220928,0.75288457,0.7323939,0.008087826,0.07933045,0.6761955,-0.57058066,-0.7593797,-1.3188527,1.0,0.0,0.0,0.0,0.0,0.0,0.0,-1.008696,0.1552864,-0.3018515,-22.427034,0.1960516,1.9672632,-2.4164915,4.8894525,-0.81198215,4.65464
-31.581562,37.139862,6.888379,20.465498,2.2836423,1.4101273,-0.21965958,-0.7254435,-0.80518174,-0.7129396,-0.77331185,-0.41668198,0.57134473,0.35355198,1.1750835,-0.9166706,-1.9396418,-1.4106473,2.1542552,1.6449895,-0.9227128,1.2336127,-0.85051954,-1.8792598,-1.3472836,2.1884122,1.5921999,-0.95678055,-1.4271865,-1.4371191,-1.1070869,-1.397158,-0.7333798,0.431716,0.13689773,0.33251762,-0.5583401,0.8173856,-2.617088,-0.30522245,-3.4702883,0.22685432,-0.5298462,0.73952544,0.7348347,0.017815704,0.07859993,0.67344093,-0.65612996,-0.76841486,-1.3438653,1.0,0.0,0.0,0.0,0.0,0.0,0.0,-0.9825176,0.15834007,-0.2673856,-10.219741,-0.16233921,-6.361532,-0.17857552,7.1376085,-1.1257112,3.28812
-20.521902,38.99073,9.43036,17.084885,2.187673,1.0685742,-0.2049419,-0.7758796,-0.804749,-0.72769636,-0.75948113,-0.1938247,0.547101,0.1566221,1.1560247,-0.93099445,-1.9520295,-1.4232317,2.1690297,1.6469101,-0.94111836,1.2190367,-0.8648962,-1.89099,-1.3611615,2.1822095,1.5964514,-0.95537865,-1.4671388,-1.4382664,-1.1950202,-1.3831475,-0.58389676,0.42185718,0.1420141,0.30636597,-0.5613899,0.7819723,-2.6144714,-0.3049173,-3.5650046,0.2198391,-0.5377178,0.7259073,0.73747724,0.027927024,0.077099614,0.67037517,-0.72377634,-0.77921194,-1.3699231,1.0,0.0,0.0,0.0,0.0,0.0,0.0,-0.95636594,0.16138992,-0.23197228,-3.8159847,-0.25634766,-8.838534,1.8182039,14.666975,-1.2922466,0.7512778
-18.156088,40.63932,10.902955,17.972965,2.9677727,1.0461878,-0.35416532,-0.80792487,-0.8039028,-0.7565062,-0.72496015,0.22056656,0.5087446,-0.22324117,1.1382442,-0.94528645,-1.9666406,-1.4336575,2.204266,1.6473259,-0.9777028,1.2042643,-0.8792833,-1.9036205,-1.3747056,2.178597,1.6005808,-0.9542419,-1.4802469,-1.4392262,-1.2855818,-1.3436921,-0.28755313,0.4088214,0.105337925,0.280241,-0.56443787,0.7456125,-2.6118577,-0.30461246,-3.659626,0.2120781,-0.5458088,0.71209365,0.74047285,0.03842651,0.07420244,0.6668713,-0.8001692,-0.8049294,-1.3874367,0.0,1.0,0.0,0.0,0.0,0.0,0.0,-0.930241,0.16443786,-0.19561249,-1.1840343,-0.23157597,-9.025741,4.3087244,29.42205,-1.6493082,-3.3312187
-18.052063,50.739716,16.330122,22.77573,3.2817802,1.5485456,-0.50220245,-0.8282663,-0.78333336,-0.74024814,-0.6251873,0.3684485,0.5648302,-0.3509824,1.1214377,-0.9576166,-1.9776453,-1.4372243,2.2154417,1.6570638,-0.9893401,1.1893812,-0.8935447,-1.9171149,-1.3875893,2.1780658,1.604606,-0.95351946,-1.4950303,-1.4163024,-1.414541,-1.2984492,0.009022586,0.36799258,0.06902104,0.25811005,-0.5680237,0.72070056,-1.5873586,-0.37161657,0.07179993,0.20350075,-0.554142,0.6982384,0.7439598,0.049161382,0.06972197,0.6627562,-0.87686294,-0.83333814,-1.4073161,0.0,1.0,0.0,0.0,0.0,0.0,0.0,-0.90811,0.16802368,-0.17070055,-2.2103548,3.2262325,-20.585155,-0.4564762,27.224308,-7.900399,-1.8276944
54.211372,176.0,110.0,110.0,-1.68825,11.9019165,-1.1495286,-0.72031814,0.5414265,0.70257354,0.6989818,-0.38255733,0.69002163,-0.38231403,1.1173494,-0.839402,-1.8468575,-1.3176912,2.13981,1.6736082,-0.99175084,1.1793734,-0.90876055,-1.9277903,-1.3863286,2.1664424,1.6182646,-0.9512869,-0.8399285,-1.555617,-0.9464037,0.5963342,-1.5471109,1.7080718,0.27080062,0.24224854,-0.5717373,0.7206816,-1.5857716,-0.37124503,-0.026457809,0.19425774,-0.56077194,0.68857527,0.74791133,0.04916162,0.069342345,0.6583338,-0.9458039,-0.5916087,-0.81994003,0.0,1.0,0.0,0.0,0.0,0.0,0.0,-0.8922485,0.17173728,-0.1706816,64.35611,-13.630629,48.420273,188.12082,-153.91211,136.89563,19.035425
-20.11043,170.11382,82.79865,92.765366,4.1497364,6.370117,-1.4852474,-0.8112637,-0.6048877,0.15586874,0.74725753,-0.553433,0.58623606,-0.26746464,1.098247,-0.9692493,-1.9122034,-1.3116028,2.111099,1.6768881,-0.97803336,1.1710917,-0.92342997,-1.9329344,-1.373473,2.149364,1.6354402,-0.94884074,-0.8233054,-1.4389762,-0.36751172,1.5160176,-1.7651457,1.726313,0.23655899,0.22640228,-0.5754471,0.7196728,-1.5841861,-0.37087384,-0.1256825,0.18393135,-0.5663433,0.6837989,0.75297904,0.04145421,0.07116496,0.65287024,-1.063324,-0.53432465,-0.3681448,0.0,1.0,0.0,0.0,0.0,0.0,0.0,-0.87640226,0.17544708,-0.16967279,1.9376278,11.2172365,58.803314,92.1442,-22.973083,3.433442,-3.2206922
-49.79421,117.812004,41.040512,63.09241,4.2523685,3.5412745,-1.4050362,-0.7915145,-0.55763334,-0.2821706,0.67466086,-0.58772236,0.634651,-0.15459494,1.0919402,-0.97919333,-1.9611515,-1.3060069,2.0905917,1.6989053,-0.9643002,1.1618029,-0.93645906,-1.9351317,-1.3554562,2.132358,1.6517862,-0.9468123,-0.96193224,-1.2587618,-0.17044714,1.8984288,-1.6817348,1.6065638,0.19214502,0.21057129,-0.57915306,0.71767247,-1.5826021,-0.37050304,-0.22480802,0.17230988,-0.57169914,0.6818049,0.7592819,0.03133918,0.07359278,0.6458274,-1.1951171,-0.5274559,-0.15075868,0.0,1.0,0.0,0.0,0.0,0.0,0.0,-0.86057127,0.17915305,-0.16767246,-13.282764,17.635918,19.684666,38.737297,7.6209784,-11.145854,-4.292676
-49.65796,85.626495,23.556416,37.724686,3.3252354,2.157333,-0.786349,-0.7926349,-0.5815308,-0.11746574,0.7508363,-0.6214605,0.5735859,0.020045506,1.0825394,-0.99461216,-1.9468782,-1.2803726,2.0702121,1.7091448,-0.9448077,1.1506621,-0.9479346,-1.936051,-1.3363122,2.1172404,1.6664976,-0.9451195,-1.1634169,-1.1113588,-0.06672686,1.920792,-1.4563253,1.4273367,0.1619565,0.19475555,-0.5828552,0.7146816,-1.5810199,-0.37013263,-0.32383442,0.15956688,-0.5769596,0.6809985,0.7663631,0.02120855,0.07592142,0.637553,-1.3028576,-0.5169897,-0.065430835,0.0,1.0,0.0,0.0,0.0,0.0,0.0,-0.84475553,0.18285522,-0.16468161,-19.742752,14.479589,10.08184,2.550292,22.093082,-17.503214,-2.9159188
-46.10985,46.590237,2.9292743,18.315374,2.2949913,0.60559064,-0.5185551,-0.80288965,-0.5844621,-0.2722022,0.75785035,-0.61312556,0.58066636,-0.044532493,1.070373,-1.0063808,-1.9632713,-1.2605271,2.0559278,1.7245642,-0.94957274,1.137715,-0.95837355,-1.9374377,-1.3182725,2.1044116,1.6794962,-0.9437367,-1.3379239,-1.0216917,-0.16413844,1.7658974,-1.2255487,1.2579161,0.13040945,0.1789589,-0.5865536,0.7107012,-1.5794392,-0.36976257,-0.4227618,0.14598465,-0.58226967,0.68008137,0.773909,0.01252606,0.07794146,0.62835735,-1.3802876,-0.5259727,-0.1077378,0.0,1.0,0.0,0.0,0.0,0.0,0.0,-0.82895887,0.18655357,-0.16070122,-17.231392,8.856916,-10.159111,-15.275121,23.03772,-16.77687,-3.138545
-30.711502,30.871227,-0.9345095,7.4074326,1.3405555,-0.0908972,-0.24691258,-0.8056241,-0.59578604,-0.25517577,0.7609658,-0.56594515,0.572885,-0.19345511,1.0571525,-1.0179522,-1.9629552,-1.2421759,2.047817,1.7367847,-0.9630822,1.1234895,-0.9683737,-1.9400599,-1.3020719,2.0936084,1.6909199,-0.9427486,-1.4499836,-0.99257493,-0.30131,1.5692652,-1.0405452,1.0907797,0.087108836,0.16290665,-0.59010506,0.706384,-1.7019614,-0.29617807,-0.16080792,0.13189888,-0.5876751,0.6784017,0.78169024,0.0057918318,0.07958555,0.6185409,-1.4178957,-0.5357038,-0.19636837,0.0,1.0,0.0,0.0,0.0,0.0,0.0,-0.8129066,0.19010505,-0.15638399,-11.053586,2.8927088,-14.703351,-19.872833,17.285538,-18.53733,-4.4775667
-16.504189,43.981796,7.0015726,6.961633,0.5794292,-0.113669634,-0.19762447,-0.808075,-0.49316165,-0.29448962,0.78255486,-0.51419413,0.555423,-0.2933803,1.042682,-1.0176898,-1.9695089,-1.2238164,2.042189,1.7464622,-0.9720866,1.1086007,-0.9778761,-1.9440981,-1.2874447,2.0843382,1.7008678,-0.9422385,-1.5017014,-0.93644935,-0.43821886,1.4274148,-0.88974655,0.96294016,0.038720116,0.14582253,-0.5930195,0.7042546,-1.7097198,-0.29036945,-0.232801,0.1176548,-0.59305,0.67603326,0.78959614,0.00086188246,0.08111994,0.6082407,-1.4306856,-0.5264642,-0.25500253,0.0,1.0,0.0,0.0,0.0,0.0,0.0,-0.7958225,0.19301948,-0.15425462,-5.1592827,5.5059075,-13.7778225,-14.106846,14.873099,-12.781679,-4.915604
-4.4711857,56.091446,15.775921,8.177078,0.30101532,0.08586335,-0.1121124,-0.8070994,-0.46931517,-0.27047667,0.7785011,-0.43383852,0.5532425,-0.3360061,1.0278908,-1.0248077,-1.9711457,-1.2095946,2.0409544,1.756192,-0.97583914,1.0935327,-0.9868216,-1.9490657,-1.2737805,2.0763767,1.7096865,-0.9422071,-1.5085483,-0.88099957,-0.515931,1.3463213,-0.7659097,0.8547726,-0.009026795,0.12855148,-0.5957813,0.7017359,-1.7323809,-0.27145296,-0.2602264,0.103401184,-0.598238,0.6733357,0.7975318,-0.0028644728,0.0825746,0.59759206,-1.4267006,-0.5036042,-0.27846503,0.0,1.0,0.0,0.0,0.0,0.0,0.0,-0.77855146,0.19578132,-0.1517359,-0.7311821,5.411577,-7.671845,-8.100581,12.073338,-10.824537,-4.8748126
-0.09211731,64.46952,21.07231,10.9963665,0.44964346,0.31603122,-0.11883627,-0.8103251,-0.44179103,-0.284778,0.7752391,-0.33579245,0.5517513,-0.36846325,1.0125002,-1.0310007,-1.9775435,-1.1962565,2.0427973,1.7648617,-0.97905344,1.0785562,-0.9952148,-1.9545059,-1.2605304,2.0696325,1.7175808,-0.9426275,-1.4943471,-0.8259157,-0.55277336,1.3178067,-0.6448112,0.7682244,-0.05314526,0.1111393,-0.5982876,0.69915867,-1.73807,-0.24629986,-0.25904518,0.089193344,-0.60315704,0.67060226,0.80546397,-0.0058567803,0.08390346,0.58664614,-1.4225458,-0.47576946,-0.274785,0.0,1.0,0.0,0.0,0.0,0.0,0.0,-0.7611393,0.19828758,-0.14915866,1.3491869,5.357659,-3.4858823,-2.8695345,11.876082,-8.448601,-4.4634438
3.7715578,79.71672,29.094128,14.506712,0.5046654,0.7481681,-0.10710735,-0.8122892,-0.37657264,-0.23626968,0.77520466,-0.25697383,0.56390333,-0.40597066,0.99732727,-1.0328721,-1.9781328,-1.1830099,2.043935,1.7739711,-0.9832246,1.0637571,-1.0028994,-1.9598451,-1.2473181,2.0640707,1.724762,-0.9434638,-1.4754113,-0.74987715,-0.5265798,1.322117,-0.5281708,0.7013772,-0.09413856,0.09389305,-0.6005573,0.69688785,-1.7202743,-0.22049122,-0.21787025,0.07502937,-0.6076813,0.66819394,0.813357,-0.0086109955,0.08508754,0.5754445,-1.4169121,-0.4320532,-0.23221,0.0,1.0,0.0,0.0,0.0,0.0,0.0,-0.743893,0.20055732,-0.14688784,1.7914295,7.41266,2.9481769,0.35734177,11.237728,-6.695521,-4.222785
6.0386496,93.84151,35.79155,17.243303,0.47488797,1.144681,-0.07259998,-0.8161357,-0.30395612,-0.18044324,0.7688859,-0.19833529,0.57589287,-0.40284425,0.9821435,-1.033295,-1.9778894,-1.1704296,2.0442371,1.7823513,-0.9837482,1.0491048,-1.0096285,-1.964539,-1.2339877,2.0595922,1.7313846,-0.94466066,-1.4623048,-0.64809644,-0.44880992,1.3363037,-0.42243263,0.6493014,-0.12882504,0.076854706,-0.60251045,0.6952778,-1.6985605,-0.18690273,-0.14317791,0.060951233,-0.611639,0.6664488,0.8211527,-0.011535835,0.08618131,0.564046,-1.4082813,-0.37194872,-0.15757306,0.0,1.0,0.0,0.0,0.0,0.0,0.0,-0.7268547,0.20251045,-0.1452778,1.1762857,9.952509,8.203202,1.2991428,10.083157,-5.2072883,-3.6300375
7.860804,106.03358,41.12839,19.249228,0.48593694,1.4304926,-0.0452877,-0.8166456,-0.22074993,-0.11872785,0.76333946,-0.098526284,0.583048,-0.41606882,0.96744025,-1.0317035,-1.9764118,-1.1576537,2.0497396,1.7896894,-0.98626757,1.0345327,-1.0151372,-1.9681935,-1.2205348,2.0562274,1.7375721,-0.94617224,-1.4558976,-0.51936984,-0.33596125,1.347921,-0.30987012,0.6085098,-0.15922613,0.060056686,-0.6040802,0.6946041,-1.6737424,-0.14697942,-0.04257656,0.04697609,-0.6149006,0.66563696,0.82880235,-0.014928317,0.08720614,0.5525024,-1.396441,-0.29898497,-0.057676163,0.0,1.0,0.0,0.0,0.0,0.0,0.0,-0.71005666,0.2040802,-0.14460409,0.47969818,12.620115,11.780846,1.0139465,10.723972,-4.082763,-3.2301605
11.930067,110.09285,44.095707,18.68844,0.4305693,1.5549223,0.054497436,-0.80893385,-0.18073377,-0.0028757125,0.7545097,-0.036552124,0.6105195,-0.41780725,0.95363927,-1.0332105,-1.9684811,-1.1450838,2.0525723,1.798624,-0.98795295,1.0200235,-1.019423,-1.9703449,-1.2070382,2.0539498,1.7434355,-0.9479499,-1.449932,-0.39908046,-0.17303146,1.3498173,-0.20247222,0.578936,-0.1846206,0.04352379,-0.6052227,0.69501,-1.6464664,-0.10324402,0.06840234,0.033164978,-0.6173744,0.66589266,0.83621967,-0.019029541,0.08807375,0.5409413,-1.3780034,-0.21854524,0.051825427,0.0,1.0,0.0,0.0,0.0,0.0,0.0,-0.69352376,0.2052227,-0.14501,0.4172802,11.776334,16.844908,0.03938675,10.192719,-2.9552817,-2.7268739
10.258536,106.02087,41.71674,18.202627,0.46539655,1.4772446,0.061970707,-0.8150055,-0.1334253,0.04655143,0.7475375,0.0021893897,0.61072713,-0.4337959,0.93852293,-1.0327655,-1.9656898,-1.1322844,2.0541687,1.8045082,-0.9913295,1.0055257,-1.0226026,-1.9709076,-1.1935837,2.0526304,1.7490507,-0.9499593,-1.4502968,-0.29177147,-0.01579566,1.3436506,-0.1099054,0.55581546,-0.20695975,0.027248383,-0.60593605,0.6964413,-1.6210968,-0.06058522,0.16851214,0.01953125,-0.6190624,0.66716653,0.84337324,-0.02387945,0.08876327,0.5294076,-1.3607501,-0.14129531,0.15114388,0.0,1.0,0.0,0.0,0.0,0.0,0.0,-0.67724836,0.20593604,-0.14644128,-0.18935204,10.4979515,16.231043,-0.7187128,8.776982,-2.3003936,-2.4009137
13.021136,115.94617,44.88727,18.816244,-0.27620313,1.5486757,0.11586281,-0.80877936,-0.015141776,0.121456996,0.75569713,-0.18650262,0.6330179,-0.4312837,0.92464775,-1.0241168,-1.9587618,-1.118014,2.0339801,1.8123525,-0.99308765,0.99103653,-1.0244756,-1.9699441,-1.1801636,2.0514514,1.7544943,-0.95216227,-1.4490038,-0.15350404,0.13545199,1.3411448,-0.122095495,0.5408626,-0.22545937,0.011276245,-0.60617256,0.6989754,-1.5891303,-0.011090493,0.2826095,0.0062236786,-0.6198635,0.66952366,0.850189,-0.029516706,0.08977113,0.5179272,-1.3221629,-0.048616454,0.26251748,0.0,1.0,0.0,0.0,0.0,0.0,0.0,-0.6612762,0.20617256,-0.14897537,-0.032782555,13.5766535,15.653679,-0.3368616,-1.7000363,-1.4000773,-2.0594149
6.7277117,98.69675,35.430862,16.942495,-0.38473105,1.1418124,0.078478344,-0.8163575,-0.006641283,0.093354955,0.7474259,-0.26110536,0.6332387,-0.4197964,0.90940076,-1.0251397,-1.9606086,-1.1054211,2.0253408,1.8178182,-0.99414194,0.9765235,-1.0252156,-1.9680157,-1.1667912,2.0497308,1.7598137,-0.9545154,-1.4524753,-0.048172247,0.21315454,1.3357936,-0.18988447,0.52932656,-0.23908836,-0.004415512,-0.6059723,0.7023459,-1.5624267,0.03071867,0.3562818,-0.0067310333,-0.6198616,0.67268753,0.85667056,-0.035661656,0.091452636,0.5064388,-1.2872788,0.02664905,0.3330753,0.0,1.0,0.0,0.0,0.0,0.0,0.0,-0.64558446,0.20597228,-0.1523459,-0.4626751,10.335174,8.164075,-0.5640745,-7.1376114,-1.0305524,-1.5237272
4.394429,91.12092,30.937563,16.084665,-0.5465237,0.8853787,0.06465882,-0.812385,0.046316385,0.10652846,0.7538098,-0.3550418,0.64060366,-0.40674534,0.895285,-1.020584,-1.9573628,-1.0914102,2.0142267,1.823874,-0.9951899,0.9619924,-1.0249963,-1.9656487,-1.1534321,2.047026,1.7650415,-0.95697296,-1.4536489,0.044747893,0.24552499,1.3359201,-0.29847187,0.5210891,-0.24848385,-0.019849777,-0.6053753,0.70632434,-1.5369762,0.06958926,0.41237605,-0.019323349,-0.61917305,0.67640984,0.8628327,-0.04205071,0.09404615,0.49488047,-1.2502445,0.09312055,0.3840927,0.0,1.0,0.0,0.0,0.0,0.0,0.0,-0.6301502,0.20537528,-0.15632433,-0.21731853,9.118288,3.5738082,0.0018358231,-11.168999,-0.6798148,-1.0841161
-5.3268156,61.910275,17.019556,13.39397,-0.059095085,0.32924455,-0.031771936,-0.8235871,0.0055062096,0.021437343,0.7432618,-0.33373535,0.62430066,-0.39485747,0.87963367,-1.0244457,-1.9635049,-1.079106,2.0136523,1.8274715,-0.9964587,0.947405,-1.0243325,-1.9636078,-1.1401055,2.0434096,1.7701799,-0.9595002,-1.4606076,0.07324993,0.19065961,1.3316065,-0.38301325,0.51191616,-0.25441915,-0.03512001,-0.60450363,0.71041816,-1.5233874,0.09312869,0.4089677,-0.031728745,-0.6180725,0.68020177,0.8687727,-0.048239943,0.0974271,0.48313013,-1.236558,0.12589753,0.37635276,0.0,1.0,0.0,0.0,0.0,0.0,0.0,-0.61487997,0.20450363,-0.16041815,-0.7409334,2.7565815,-5.327642,-0.43222904,-8.596068,-0.78281164,-0.68889856
-0.21752667,70.29752,21.585876,13.755882,-0.0113577545,0.39261335,0.022291545,-0.81020737,0.07551021,0.108408295,0.75096655,-0.3317872,0.62042767,-0.38004208,0.86638427,-1.0167814,-1.952767,-1.0650089,2.0102308,1.8322226,-0.9975044,0.9328147,-1.0233083,-1.9618243,-1.1267846,2.0391636,1.775236,-0.9620646,-1.4587535,0.11167496,0.17521179,1.3322495,-0.43930796,0.5037894,-0.2574364,-0.050224304,-0.6033573,0.71463597,-1.5059634,0.12211013,0.42636755,-0.043952942,-0.6165943,0.6840567,0.8744842,-0.054251265,0.101405025,0.47122294,-1.216465,0.16461152,0.38741913,0.0,1.0,0.0,0.0,0.0,0.0,0.0,-0.5997757,0.20335731,-0.16463596,0.11589527,3.72262,-1.2933344,0.049448013,-5.865979,-0.7214308,-0.41339993
-5.9978075,54.480053,14.133318,12.650624,0.46048716,0.09024209,-0.056312025,-0.81910044,0.047473077,0.010312816,0.74300915,-0.2689821,0.60939133,-0.38156682,0.8509047,-1.018561,-1.960793,-1.0524837,2.0122654,1.8361752,-1.0002213,0.9182168,-1.0221467,-1.9605691,-1.1134827,2.034731,1.7802067,-0.9646529,-1.4602554,0.11742317,0.109601155,1.3292719,-0.4448487,0.49503142,-0.25966224,-0.06521225,-0.60198784,0.71879,-1.4963657,0.14209607,0.41199663,-0.056114197,-0.6148777,0.68779457,0.88002765,-0.059939194,0.10571153,0.4591117,-1.2147619,0.18340066,0.36824888,0.0,1.0,0.0,0.0,0.0,0.0,0.0,-0.5847877,0.20198783,-0.16878998,-0.1871109,0.49812347,-6.41852,-0.3106594,-0.68328977,-0.8073151,-0.31104684
-2.1198764,65.91258,19.287514,13.878304,0.47885448,0.21419752,-0.023210935,-0.81226,0.105015315,0.04714176,0.7491787,-0.26090547,0.5987231,-0.36774272,0.83699083,-1.0116452,-1.955855,-1.0385648,2.0086403,1.840079,-1.0014272,0.9036361,-1.0207543,-1.959728,-1.1001828,2.030405,1.7850915,-0.9672488,-1.457588,0.14617705,0.07636621,1.3300456,-0.42938617,0.48649156,-0.25996032,-0.080070496,-0.6003628,0.72298276,-1.4821701,0.1693424,0.42183924,-0.06821442,-0.6129017,0.69151485,0.8853957,-0.06539138,0.11022302,0.44682133,-1.2064493,0.21205169,0.3723053,0.0,1.0,0.0,0.0,0.0,0.0,0.0,-0.5699295,0.20036277,-0.17298275,0.20205975,2.7632475,-3.0855923,0.055718422,1.3249218,-0.8290291,-0.13381243
-4.307987,60.861187,16.994385,13.752773,0.6695914,0.14791888,-0.051316172,-0.81794584,0.09352024,0.0040528215,0.7496556,-0.23561741,0.59714186,-0.36952534,0.82184154,-1.0114024,-1.9593227,-1.0252172,2.0068433,1.8448057,-1.0042013,0.8890573,-1.0191636,-1.9592817,-1.0868695,2.02635,1.7898978,-0.9698475,-1.458129,0.16303183,0.0347054,1.3318417,-0.3984529,0.47860134,-0.26007757,-0.094804764,-0.5984802,0.7272119,-1.4703834,0.19469647,0.423474,-0.080280304,-0.6106739,0.695219,0.8905992,-0.07062904,0.11484214,0.43434522,-1.205095,0.2358125,0.36894122,0.0,1.0,0.0,0.0,0.0,0.0,0.0,-0.5551952,0.19848022,-0.17721188,-0.10819435,1.5837222,-3.9511166,0.15954971,2.9002666,-0.7834494,-0.10693073
-2.948761,64.59486,18.307852,14.073579,0.6132225,0.14275944,-0.037924767,-0.8119477,0.12194885,-0.018718144,0.7533616,-0.22984305,0.5914015,-0.3561616,0.8078625,-1.0069687,-1.9611535,-1.0115333,2.0033658,1.849038,-1.0054636,0.8744965,-1.0173306,-1.9592493,-1.07352,2.0226002,1.7946299,-0.9724358,-1.4556329,0.18944383,-0.00650417,1.3358458,-0.36785674,0.47137743,-0.25875294,-0.1094017,-0.596323,0.7315079,-1.4561027,0.22291295,0.4319063,-0.092308044,-0.6081867,0.6989359,0.89563125,-0.07566635,0.11957682,0.4216879,-1.1994848,0.26249263,0.3717106,0.0,1.0,0.0,0.0,0.0,0.0,0.0,-0.5405983,0.196323,-0.18150789,0.18260479,2.5260596,-3.868806,0.3713131,2.8375328,-0.731796,0.02554655
-5.024348,57.677883,15.027826,13.29011,0.7602105,-0.012964904,-0.060145736,-0.813169,0.1133668,-0.08536073,0.7453076,-0.15143566,0.56831926,-0.34522536,0.79317963,-1.005994,-1.9677854,-0.99898916,2.0074565,1.8514619,-1.0069584,0.85995394,-1.015326,-1.9598367,-1.0601722,2.0193348,1.7992779,-0.97500306,-1.4539083,0.20371073,-0.07562998,1.3343716,-0.3134126,0.46256825,-0.2563508,-0.12388039,-0.59391594,0.73577416,-1.4448273,0.246977,0.4252523,-0.10433006,-0.60549164,0.70257616,0.9005151,-0.0804084,0.12434426,0.4088344,-1.2006412,0.2809746,0.36079574,0.0,1.0,0.0,0.0,0.0,0.0,0.0,-0.5261196,0.19391593,-0.18577415,0.116086006,1.3290793,-6.7073636,-0.18372536,5.2718105,-0.8999884,0.13840199
-10.435534,50.147865,10.248992,13.618557,0.74344194,-0.21422982,-0.117047295,-0.8182941,0.11777501,-0.21217181,0.75332993,-0.17186925,0.54757226,-0.33006147,0.7781245,-1.0035485,-1.981054,-0.9848392,2.002148,1.8540351,-1.0080092,0.84540087,-1.0132222,-1.9616028,-1.0468074,2.0164888,1.8038284,-0.977537,-1.4557989,0.21239264,-0.20999801,1.3368697,-0.27543578,0.45254764,-0.2527063,-0.13827133,-0.5913048,0.73982656,-1.436962,0.26595238,0.39950868,-0.11642265,-0.6026859,0.7059636,0.9053018,-0.08460368,0.12925689,0.3956809,-1.2089164,0.28994095,0.33088112,0.0,1.0,0.0,0.0,0.0,0.0,0.0,-0.51172864,0.19130477,-0.18982655,-0.2178669,0.78589916,-13.323742,0.22346973,3.711325,-1.0060072,0.26188493
-13.178446,39.30588,5.4655943,12.530786,0.5704367,-0.3923276,-0.12017836,-0.8131561,0.086076126,-0.30221134,0.7681506,-0.25366434,0.5424375,-0.31374577,0.76408523,-1.0046146,-1.9918239,-0.96999234,1.9911224,1.8580722,-1.0089116,0.8308497,-1.0112252,-1.9649729,-1.0333471,2.013673,1.8082837,-0.98002446,-1.4548384,0.19542877,-0.37911695,1.3489977,-0.2837475,0.4431031,-0.2478527,-0.15260506,-0.5885525,0.7434694,-1.4317799,0.27885604,0.35367587,-0.12862015,-0.59986687,0.708893,0.9100093,-0.0880161,0.1345036,0.38215816,-1.2200773,0.28919232,0.2801931,0.0,1.0,0.0,0.0,0.0,0.0,0.0,-0.49739492,0.18855247,-0.1934694,0.101041794,-1.7595202,-16.867167,1.2000799,-0.8526325,-0.92399716,0.37902892
-18.415586,17.758541,-2.8980076,10.044114,0.5991262,-0.63156635,-0.11823173,-0.8186165,-0.0006126585,-0.41687542,0.7698182,-0.29783756,0.5261765,-0.2722323,0.74898803,-1.0112865,-2.0066605,-0.9563653,1.9838893,1.8609014,-1.0072477,0.8162888,-1.0098271,-1.9702615,-1.0197568,2.010545,1.8126374,-0.9824369,-1.4563122,0.12125854,-0.57910794,1.3625054,-0.32191852,0.43298855,-0.23931128,-0.16693878,-0.5857601,0.74634933,-1.4340738,0.27957362,0.26787403,-0.14103127,-0.59718704,0.71103054,0.9146637,-0.090371355,0.14009778,0.36823356,-1.2459466,0.2705691,0.1917414,0.0,1.0,0.0,0.0,0.0,0.0,0.0,-0.4830612,0.18576011,-0.19634932,-0.06959438,-7.432705,-20.102436,1.393795,-3.7059486,-0.9546697,0.7738143
-17.310017,14.651765,-3.2264369,9.164122,0.59588575,-0.6292206,-0.05705491,-0.8122726,-0.03850546,-0.46846664,0.7800101,-0.3186742,0.5138716,-0.19674559,0.7350616,-1.0136777,-2.0171082,-0.9417558,1.9786776,1.8640246,-1.0021114,0.80174243,-1.0093198,-1.9773682,-1.0060067,2.0069668,1.8168881,-0.98471063,-1.4537398,0.027081497,-0.7549003,1.3795147,-0.36933154,0.42262152,-0.22370467,-0.18128395,-0.58296394,0.7483303,-1.4349736,0.2799397,0.17733625,-0.15372276,-0.59469986,0.71225965,0.9192413,-0.091625035,0.14595808,0.35397252,-1.2732847,0.25119242,0.100348614,0.0,1.0,0.0,0.0,0.0,0.0,0.0,-0.46871603,0.18296394,-0.19833028,0.3509283,-9.438799,-17.662907,1.7858982,-4.6463966,-1.0047972,1.4857769
-14.401037,19.381344,-0.4381075,9.072751,0.6247894,-0.49975443,0.014318384,-0.8095858,-0.075002514,-0.5029059,0.78416973,-0.32897416,0.51438224,-0.13475597,0.7207838,-1.0168201,-2.027659,-0.9275898,1.9740694,1.8683263,-0.99818623,0.7872361,-1.0097699,-1.985888,-0.9921004,2.0029461,1.8210458,-0.9867914,-1.4493378,-0.06918623,-0.8842733,1.3945729,-0.41301963,0.41368386,-0.20320906,-0.19565582,-0.5801563,0.74948937,-1.4383948,0.28136876,0.09861399,-0.16665268,-0.59235764,0.71265423,0.92368734,-0.09191851,0.15197153,0.33949548,-1.2971236,0.23901759,0.019707564,0.0,1.0,0.0,0.0,0.0,0.0,0.0,-0.45434415,0.18015632,-0.19948936,0.512743,-9.67246,-12.920416,1.6061783,-4.360795,-0.91040134,1.9722909
-11.37924,22.071026,1.6167506,8.426981,0.6858188,-0.4141507,0.067696184,-0.8054236,-0.13489129,-0.5344598,0.7836306,-0.32810983,0.48847067,-0.12023653,0.7066937,-1.023259,-2.039334,-0.91373736,1.9701352,1.8698928,-0.998815,0.7727879,-1.011229,-1.9953675,-0.9780887,1.9985796,1.8251066,-0.98867136,-1.4430531,-0.1718254,-0.9690335,1.4037083,-0.44429597,0.40338966,-0.18315437,-0.21006966,-0.5773277,0.7499088,-1.4417851,0.28421876,0.02579426,-0.17980385,-0.59010315,0.7122939,0.9279621,-0.091413125,0.15796947,0.32492396,-1.3184267,0.23155142,-0.054068245,0.0,1.0,0.0,0.0,0.0,0.0,0.0,-0.43993032,0.17732772,-0.1999088,0.67870617,-10.321387,-8.378231,1.0227919,-3.175968,-1.0888577,1.9458055
-8.421276,34.752342,6.2443314,9.585707,0.585536,-0.23775494,0.12971985,-0.8052321,-0.1411331,-0.56940764,0.7820962,-0.36426952,0.4794125,-0.05027838,0.69226474,-1.0253423,-2.0523083,-0.89987904,1.9621527,1.8730478,-0.9936992,0.75839126,-1.013495,-2.0054855,-0.96403784,1.993894,1.8290664,-0.9903166,-1.4385557,-0.24528332,-1.0252215,1.4058069,-0.47712496,0.39327094,-0.15863177,-0.2244339,-0.57440186,0.74975324,-1.4337696,0.29633826,-0.026147228,-0.19308472,-0.5878334,0.71135163,0.9320134,-0.090254575,0.16395415,0.3103612,-1.3285666,0.23639089,-0.10710499,0.0,1.0,0.0,0.0,0.0,0.0,0.0,-0.42556608,0.17440185,-0.19975322,0.44255257,-7.4466734,-5.362606,0.2767086,-3.4964502,-1.1096239,2.3465276
-9.605706,35.27985,6.240936,9.943345,0.63956463,-0.19484633,0.15333399,-0.8113683,-0.19946413,-0.6058124,0.78453994,-0.39526522,0.43924603,0.031185454,0.67725444,-1.0334414,-2.0660667,-0.8855838,1.9543674,1.872991,-0.98719805,0.7439955,-1.0165048,-2.016082,-0.94998056,1.9888576,1.8329037,-0.9916767,-1.4399171,-0.3199787,-1.0703362,1.4059497,-0.51296043,0.38030523,-0.12872966,-0.23871803,-0.5713539,0.7490819,-1.4257267,0.3086489,-0.077707954,-0.20648003,-0.5855007,0.7098874,0.935822,-0.088479415,0.16992854,0.29585934,-1.3403995,0.24343297,-0.1590582,0.0,1.0,0.0,0.0,0.0,0.0,0.0,-0.41128194,0.1713539,-0.1990819,-0.14193058,-7.57969,-4.2314053,0.10333061,-3.827107,-1.412183,2.8928936
-11.186024,21.262688,1.6572177,7.372065,0.59442276,-0.30791688,0.18451598,-0.8079529,-0.30897993,-0.645053,0.78384036,-0.4526407,0.44501713,0.0858895,0.6632002,-1.0474027,-2.0805874,-0.8715965,1.9435935,1.8774054,-0.9830877,0.7295912,-1.0205617,-2.0271478,-0.9359288,1.9833533,1.8366258,-0.9927207,-1.4404384,-0.43449575,-1.1182988,1.4054581,-0.563159,0.369209,-0.09641489,-0.25297546,-0.56824875,0.7476947,-1.4250132,0.31234533,-0.1553824,-0.22005081,-0.5831623,0.70772225,0.9394023,-0.08599523,0.17580369,0.28146273,-1.3605659,0.24122113,-0.23534438,0.0,1.0,0.0,0.0,0.0,0.0,0.0,-0.3970245,0.16824874,-0.19769466,0.000166893,-11.522264,-4.6524525,0.12917519,-5.135238,-1.1974573,3.190413
-9.688345,24.713276,2.759008,7.2489395,0.45985305,-0.26988864,0.24680725,-0.80251455,-0.3360203,-0.6687701,0.78484,-0.49836317,0.43417132,0.22308314,0.64933974,-1.0541637,-2.0940247,-0.8574448,1.933517,1.8800429,-0.97041243,0.71520597,-1.0256963,-2.038679,-0.9218791,1.9772844,1.8402405,-0.99336857,-1.4377275,-0.5400196,-1.1640637,1.4053222,-0.62175465,0.358707,-0.0544239,-0.2672062,-0.5650959,0.7455672,-1.4211445,0.3174297,-0.22826995,-0.23378754,-0.5808277,0.7048239,0.9427358,-0.08276542,0.1816038,0.26724365,-1.3750486,0.24212022,-0.3078488,0.0,1.0,0.0,0.0,0.0,0.0,0.0,-0.38279378,0.1650959,-0.19556719,0.30844212,-10.637194,-4.3912888,0.16486645,-6.019473,-1.1493623,4.1427107
-8.620165,25.796467,3.2653024,6.9187326,0.45795298,-0.24235296,0.2743953,-0.7990206,-0.39410853,-0.6815863,0.78567463,-0.51645684,0.42110294,0.2956712,0.6353039,-1.0651071,-2.1068375,-0.84331167,1.9256388,1.8823508,-0.96380144,0.7008665,-1.0318837,-2.0505998,-0.90782475,1.9706733,1.8437518,-0.9935752,-1.4325993,-0.6452607,-1.2012186,1.4060133,-0.67461705,0.3483214,-0.009550091,-0.28139305,-0.56188965,0.74271625,-1.4165542,0.32252592,-0.3004086,-0.24765587,-0.57847404,0.7012136,0.9458131,-0.07881507,0.18730508,0.2532636,-1.3881053,0.24467689,-0.37901753,0.0,1.0,0.0,0.0,0.0,0.0,0.0,-0.36860693,0.16188964,-0.19271624,0.54359436,-10.615099,-3.5082817,0.25966167,-5.469644,-1.162386,4.4393244
-8.2977495,33.73637,5.450424,8.107905,0.48081863,-0.1399036,0.2841014,-0.80311364,-0.41799232,-0.7023942,0.77905154,-0.5347897,0.39146912,0.35359,0.62055516,-1.0736829,-2.120839,-0.8299196,1.9171944,1.8828987,-0.9582162,0.68655264,-1.0389524,-2.0628674,-0.89379674,1.9635991,1.8471471,-0.9933315,-1.4309763,-0.72800004,-1.2345006,1.4022285,-0.7191407,0.3362549,0.035454098,-0.2954998,-0.5586052,0.7392347,-1.4072225,0.33144143,-0.36043605,-0.26162148,-0.576046,0.6969815,0.94862854,-0.07417997,0.19291995,0.23954768,-1.3962759,0.25419837,-0.43849054,0.0,1.0,0.0,0.0,0.0,0.0,0.0,-0.35450017,0.15860519,-0.18923467,0.16188622,-8.39386,-3.0284166,-0.21541119,-4.7392845,-1.3691843,4.4271936
-8.856248,34.1868,5.532812,8.170567,0.5936426,-0.08802378,0.28153032,-0.8064008,-0.47841766,-0.7082368,0.7748428,-0.53890455,0.37297055,0.40241092,0.60591257,-1.0867941,-2.133691,-0.81631243,1.9097086,1.8844441,-0.9530904,0.6722275,-1.0468564,-2.075391,-0.8798271,1.9561795,1.8504179,-0.9926471,-1.4330072,-0.8117069,-1.2576215,1.3958335,-0.7504521,0.32343698,0.07928994,-0.309515,-0.555233,0.73514843,-1.398398,0.34028944,-0.42137668,-0.27568626,-0.5734997,0.69216317,0.9511949,-0.06890453,0.19837742,0.22611211,-1.4065782,0.26636165,-0.49710277,0.0,1.0,0.0,0.0,0.0,0.0,0.0,-0.34048498,0.155233,-0.18514842,-0.2030611,-8.495581,-1.9978046,-0.45907497,-3.4411788,-1.4742613,4.328615
-7.7305326,41.435574,7.5380144,9.034849,0.56311524,0.016853988,0.29062468,-0.805703,-0.49750203,-0.71946055,0.7702932,-0.5779957,0.3726834,0.44057772,0.5916572,-1.0966066,-2.1473372,-0.8027978,1.8983799,1.8876863,-0.9485893,0.6578766,-1.0554566,-2.088105,-0.86593837,1.9484267,1.8535722,-0.99154305,-1.4358107,-0.87671286,-1.2750002,1.3870119,-0.78449947,0.31212148,0.1204876,-0.3234024,-0.5517502,0.7305332,-1.384079,0.35209388,-0.47130695,-0.28980064,-0.57079124,0.6868369,0.953506,-0.06303839,0.20370328,0.21297294,-1.4097824,0.28433233,-0.54551226,0.0,1.0,0.0,0.0,0.0,0.0,0.0,-0.32659757,0.15175018,-0.18053317,-0.31461716,-6.646633,-1.3285875,-0.74043274,-3.8114548,-1.3447821,4.0342107
-9.605964,42.083138,7.1276703,9.256684,0.59183264,0.009953201,0.29352358,-0.8213098,-0.5358205,-0.7381465,0.74868155,-0.5965878,0.22924,0.47410005,0.57574564,-1.1090387,-2.1619196,-0.7910702,1.888768,1.8764962,-0.94413304,0.6434283,-1.0646691,-2.1010137,-0.85222316,1.9403493,1.8565186,-0.9900489,-1.4479238,-0.9364861,-1.2950201,1.366874,-0.81673944,0.28799418,0.15883583,-0.33714676,-0.5481529,0.7254114,-1.3699561,0.36320695,-0.5224714,-0.3039589,-0.5678978,0.6810232,0.9555739,-0.056525562,0.2088844,0.20012632,-1.4140179,0.3032866,-0.5944139,0.0,1.0,0.0,0.0,0.0,0.0,0.0,-0.31285322,0.14815292,-0.1754114,-1.2399197,-6.1290145,-1.5878677,-1.8586159,-3.6653638,-2.649349,3.7546992
-8.238272,42.253876,7.269198,8.636397,0.6271425,-0.015806496,0.29823864,-0.81770676,-0.57599485,-0.7438795,0.7402485,-0.581672,0.14932162,0.50707996,0.56165767,-1.1222687,-2.1754017,-0.7781983,1.8821821,1.8714508,-0.9393409,0.62888193,-1.0744824,-2.1140976,-0.83872736,1.932062,1.8591737,-0.9881909,-1.4569618,-0.9969625,-1.31185,1.3442712,-0.8338983,0.25730035,0.19464116,-0.35075188,-0.5444546,0.7197614,-1.3558867,0.37299708,-0.5754053,-0.3181591,-0.5648174,0.67472243,0.957421,-0.04935137,0.21382728,0.1875827,-1.4175125,0.3215769,-0.64336455,0.0,1.0,0.0,0.0,0.0,0.0,0.0,-0.2992481,0.14445457,-0.16976136,-0.93967915,-6.195152,-1.2615442,-2.1104097,-2.168703,-3.3226728,3.5093098
-7.9636126,43.48126,7.58602,8.652508,0.72826284,0.0043416023,0.28384396,-0.82459384,-0.60800314,-0.7432351,0.7272842,-0.57003593,0.06731856,0.5179678,0.54642254,-1.1352828,-2.188421,-0.76599896,1.8750584,1.8659055,-0.9363941,0.61423826,-1.0848908,-2.127299,-0.8254728,1.9237041,1.8614811,-0.98600656,-1.4669597,-1.0560309,-1.3212563,1.3196295,-0.8376233,0.2210414,0.22615425,-0.36421585,-0.54066086,0.7135821,-1.341686,0.382436,-0.6282106,-0.33239365,-0.5615463,0.6679491,0.9590722,-0.041548,0.21842512,0.17534183,-1.4213501,0.3414618,-0.69012994,0.0,1.0,0.0,0.0,0.0,0.0,0.0,-0.28578413,0.14066085,-0.16358209,-1.0420084,-6.0557127,-0.49831867,-2.3156404,-0.8518934,-3.905207,3.0936031
-2.9346747,46.301735,9.176122,7.7601686,0.7593927,-0.009498,0.2911701,-0.80860555,-0.64056426,-0.727333,0.72374517,-0.536152,-0.008887161,0.54860765,0.5333777,-1.1489472,-2.2000325,-0.75309825,1.8700889,1.8605924,-0.9311458,0.59959364,-1.0958848,-2.1404672,-0.81242704,1.9154565,1.8633995,-0.9835226,-1.4638867,-1.1143509,-1.3141388,1.299927,-0.8219241,0.1811937,0.25567326,-0.3775158,-0.5367756,0.7069053,-1.3244914,0.39111653,-0.6770902,-0.34662628,-0.5580845,0.6607539,0.9605497,-0.033232436,0.22254868,0.16343752,-1.4193534,0.36016095,-0.7309958,0.0,1.0,0.0,0.0,0.0,0.0,0.0,-0.27248418,0.13677558,-0.1569053,0.22871494,-5.9735537,1.21274,-1.8713951,1.0510206,-4.279402,2.8961837
0.03423214,46.588737,9.461415,6.4300942,0.6735146,-0.071243286,0.31969833,-0.80784994,-0.6696256,-0.732979,0.6908061,-0.5143835,-0.1757577,0.5626617,0.51880866,-1.1628474,-2.2137651,-0.74334645,1.8640182,1.8458238,-0.9272564,0.5850078,-1.1074414,-2.153562,-0.79967034,1.9074451,1.8648349,-0.98077,-1.4570972,-1.1698946,-1.3063425,1.2678121,-0.79562926,0.12948415,0.28199872,-0.3906479,-0.53284645,0.6997378,-1.3060277,0.39808342,-0.72727597,-0.36080933,-0.55446243,0.65314466,0.9618773,-0.024421446,0.22609462,0.1519108,-1.4127125,0.3755322,-0.7726817,0.0,1.0,0.0,0.0,0.0,0.0,0.0,-0.2593521,0.13284644,-0.14973778,0.5847454,-5.684614,1.289773,-3.1425714,2.0910025,-5.4716735,2.57864
2.5767918,51.591778,10.868204,6.6202726,0.69503826,-0.055138946,0.31389242,-0.80064917,-0.68039906,-0.7316677,0.6735128,-0.4766906,-0.27964252,0.5657993,0.5049429,-1.1754813,-2.226729,-0.73231906,1.859776,1.8368707,-0.92419004,0.5705223,-1.1194501,-2.166581,-0.787264,1.8997886,1.8657148,-0.9777831,-1.4460716,-1.2117031,-1.2984934,1.2315995,-0.7573813,0.072883844,0.30426678,-0.40356064,-0.5288372,0.6921215,-1.2835996,0.4043628,-0.77013695,-0.37487984,-0.55068207,0.64517653,0.9630704,-0.015151497,0.22901702,0.14077304,-1.400496,0.39113745,-0.80680543,0.0,1.0,0.0,0.0,0.0,0.0,0.0,-0.24643934,0.1288372,-0.1421215,0.97727776,-4.3134212,1.3584852,-3.605485,3.2269478,-5.978562,2.1576345
5.9017453,57.23503,12.752161,6.9412737,0.8623213,0.005276799,0.29449344,-0.7871679,-0.69239056,-0.7126629,0.6543797,-0.38152757,-0.32438368,0.5838297,0.49180552,-1.1886891,-2.237847,-0.721826,1.8616358,1.8332764,-0.9194001,0.5561933,-1.1317849,-2.1794505,-0.7752369,1.892751,1.8660427,-0.974587,-1.4290298,-1.2413136,-1.28083,1.1928325,-0.6877175,0.018393416,0.324526,-0.41621208,-0.52474594,0.6841321,-1.2569623,0.41102168,-0.80481166,-0.38880157,-0.54673386,0.63694763,0.9641547,-0.0055724033,0.23122762,0.13003248,-1.384203,0.40847674,-0.830304,0.0,1.0,0.0,0.0,0.0,0.0,0.0,-0.2337879,0.124745935,-0.13413209,1.5419483,-3.093028,2.4159193,-3.9247513,6.3108087,-5.7948217,1.9531906
3.2555833,67.35986,14.879944,10.735183,1.3145037,0.21204448,0.18956465,-0.79250807,-0.687001,-0.68050486,0.660392,-0.32763037,-0.32140356,0.5859477,0.47694248,-1.200485,-2.247501,-0.7091977,1.859988,1.8339024,-0.91599226,0.54198253,-1.1442742,-2.1920078,-0.7634807,1.8864969,1.8658861,-0.97121143,-1.4190422,-1.2519952,-1.2449757,1.1696476,-0.6068102,-0.0282694,0.3416784,-0.42855835,-0.52056885,0.6759181,-1.2253395,0.42017233,-0.82350075,-0.40257835,-0.5425339,0.62863386,0.9651497,0.004090648,0.23273048,0.11960626,-1.3695967,0.43601936,-0.83376324,0.0,1.0,0.0,0.0,0.0,0.0,0.0,-0.22144163,0.12056884,-0.12591809,0.8127451,-1.2252331,4.355979,-2.3946524,7.3319674,-5.0360055,1.6304791
7.751606,67.3393,15.642148,9.067458,1.5710994,0.20470023,0.18365349,-0.7742744,-0.7024591,-0.6605019,0.60167617,-0.08385961,-0.38749158,0.59516793,0.46455508,-1.2145201,-2.258058,-0.7033131,1.8781109,1.827137,-0.91169465,0.52791566,-1.156857,-2.204153,-0.7521337,1.8816521,1.8652695,-0.9676792,-1.4033194,-1.2606939,-1.2018266,1.1225796,-0.4459352,-0.07414416,0.35696098,-0.44059944,-0.51630974,0.667496,-1.1954705,0.42786828,-0.84505993,-0.41621017,-0.53806686,0.620305,0.9661344,0.01360127,0.23325652,0.10950143,-1.3557255,0.46269318,-0.8345093,0.0,1.0,0.0,0.0,0.0,0.0,0.0,-0.20940053,0.11630973,-0.11749601,1.3687611,-1.0038137,5.0792456,-4.833913,15.348315,-4.9764743,1.4644742
8.910157,70.87545,16.093464,8.982633,1.3155173,0.28017402,0.23062676,-0.77676547,-0.6881997,-0.6443934,0.55533516,-0.1293257,-0.45408618,0.59299606,0.45023912,-1.225677,-2.2685924,-0.6966002,1.8687196,1.8198609,-0.9083796,0.5139624,-1.1694188,-2.2158747,-0.7414056,1.878118,1.8641973,-0.9640155,-1.3933883,-1.2550114,-1.1595061,1.0556483,-0.32485303,-0.11947091,0.36924037,-0.45230293,-0.5119858,0.65890104,-1.1601571,0.43387356,-0.8608495,-0.429636,-0.53334236,0.61198056,0.9671074,0.022952659,0.23285867,0.09976544,-1.3316108,0.48779732,-0.8335311,0.0,1.0,0.0,0.0,0.0,0.0,0.0,-0.19769704,0.11198577,-0.108901024,0.77872276,0.44133663,5.024481,-6.8559647,11.33883,-4.8816295,1.124084
14.018705,70.663055,16.752848,7.163617,1.3523073,0.2710526,0.24766122,-0.7577364,-0.6915924,-0.6084568,0.5004488,0.068704374,-0.49446934,0.57998025,0.43818873,-1.2385781,-2.2767203,-0.6913607,1.8849884,1.8147503,-0.9060175,0.5001589,-1.181912,-2.227112,-0.7314986,1.8760946,1.8626902,-0.96025544,-1.3767029,-1.2479193,-1.1093985,0.9683411,-0.16367051,-0.16228867,0.3780289,-0.46364975,-0.50761795,0.65014267,-1.1244007,0.4375636,-0.87747335,-0.442791,-0.528389,0.60367215,0.9681059,0.032033183,0.2314366,0.09045337,-1.303915,0.5091372,-0.8319127,0.0,1.0,0.0,0.0,0.0,0.0,0.0,-0.18635023,0.107617944,-0.10014266,1.4444113,0.60846806,5.7786465,-8.936548,15.390846,-4.6230645,0.78372955
15.884643,69.88952,16.602566,6.0037255,1.2568532,0.31158888,0.28391877,-0.7565549,-0.6860792,-0.57868755,0.42920837,0.16346899,-0.5139598,0.58346707,0.42450342,-1.2505199,-2.2849808,-0.6885778,1.8924415,1.8112942,-0.90190876,0.48649848,-1.1943135,-2.2378232,-0.7226359,1.8756948,1.8607904,-0.95641893,-1.36314,-1.2379192,-1.0560782,0.85816157,-0.0007730994,-0.20034719,0.385314,-0.47463417,-0.50322914,0.6412137,-1.0883484,0.4389211,-0.89537054,-0.45563698,-0.5232353,0.5953572,0.9691605,0.04076608,0.22891808,0.081623696,-1.2724015,0.52828366,-0.83314043,0.0,1.0,0.0,0.0,0.0,0.0,0.0,-0.1753658,0.103229135,-0.0912137,1.1441946,0.919199,6.0435057,-11.229002,15.62229,-4.1128964,0.63812137
16.86393,73.053505,17.296764,6.612871,1.244875,0.37757605,0.27932465,-0.75136405,-0.672534,-0.52873635,0.38045847,0.21400793,-0.55776346,0.58252597,0.41136205,-1.2615669,-2.2906969,-0.6845901,1.8970956,1.805014,-0.89816636,0.47295958,-1.2065701,-2.2478974,-0.71488905,1.8767635,1.8585243,-0.9525197,-1.3514951,-1.2217542,-0.98897314,0.7461561,0.14076315,-0.23629485,0.39110819,-0.4852295,-0.49883842,0.63215744,-1.0489571,0.4386033,-0.90663636,-0.46814346,-0.51789665,0.58706826,0.9702724,0.049092937,0.22536562,0.07329161,-1.236794,0.54650474,-0.8292127,0.0,1.0,0.0,0.0,0.0,0.0,0.0,-0.16477048,0.09883842,-0.08215743,0.95927715,1.5468359,7.396817,-11.418379,13.524994,-3.8584828,0.48086047
