Afshin1997/kuka_rl_ros2/src/catch_and_throw/input_files/idealpd/polynomial_regressor/optimizer_files/env_400_data.csv
torque0,torque1,torque2,torque3,torque4,torque5,torque6,action0,action1,action2,action3,action4,action5,action6,set_target_0,set_target_1,set_target_2,set_target_3,set_target_4,set_target_5,set_target_6,joint_pos_0,joint_pos_1,joint_pos_2,joint_pos_3,joint_pos_4,joint_pos_5,joint_pos_6,joint_vel_0,joint_vel_1,joint_vel_2,joint_vel_3,joint_vel_4,joint_vel_5,joint_vel_6,tennisball_pos_0,tennisball_pos_1,tennisball_pos_2,tennisball_lin_vel_0,tennisball_lin_vel_1,tennisball_lin_vel_2,end_effector_pos_0,end_effector_pos_1,end_effector_pos_2,end_effector_rot_0,end_effector_rot_1,end_effector_rot_2,end_effector_rot_3,end_effector_lin_vel_0,end_effector_lin_vel_1,end_effector_lin_vel_2,obs_task_0,obs_task_1,obs_task_2,obs_task_3,obs_task_4,obs_task_5,obs_task_6,to_final_target_0,to_final_target_1,to_final_target_2,joint_acc_0,joint_acc_1,joint_acc_2,joint_acc_3,joint_acc_4,joint_acc_5,joint_acc_6
0.0,0.0,0.0,0.0,0.0,0.0,0.0,0.0,0.0,0.0,0.0,0.0,0.0,0.0,1.7802359,-1.0646509,-1.8151424,-1.1170107,1.9373155,1.1170107,-0.91629785,1.7802359,-1.0646509,-1.8151424,-1.1170107,1.9373155,1.1170107,-0.91629785,0.0,0.0,0.0,0.0,0.0,0.0,0.0,3.0461922,-0.6398773,0.29698884,-3.2561495,0.2869967,5.619401,0.5304184,-0.45449448,0.693097,0.5745483,0.17512383,0.15255436,0.7848268,0.0,0.0,0.0,1.0,0.0,0.0,0.0,0.0,0.0,0.0,-3.6961923,0.23987731,0.25301117,0.0,0.0,0.0,0.0,0.0,0.0,0.0
0.0,0.0,0.0,0.0,0.0,0.0,0.0,0.0,0.0,0.0,0.0,0.0,0.0,0.0,1.7802359,-1.0646509,-1.8151424,-1.1170107,1.9373155,1.1170107,-0.91629785,1.7802359,-1.0646509,-1.8151424,-1.1170107,1.9373155,1.1170107,-0.91629785,0.0,0.0,0.0,0.0,0.0,0.0,0.0,3.0461922,-0.6398773,0.29698884,-3.2561495,0.2869967,5.619401,0.5304184,-0.45449448,0.693097,0.5745483,0.17512383,0.15255436,0.7848268,0.0,0.0,0.0,1.0,0.0,0.0,0.0,0.0,0.0,0.0,-3.6961923,0.23987731,0.25301117,0.0,0.0,0.0,0.0,0.0,0.0,0.0
0.0,0.0,0.0,0.0,0.0,0.0,0.0,0.0,0.0,0.0,0.0,0.0,0.0,0.0,1.7802359,-1.0646509,-1.8151424,-1.1170107,1.9373155,1.1170107,-0.91629785,1.7802359,-1.0646509,-1.8151424,-1.1170107,1.9373155,1.1170107,-0.91629785,0.0,0.0,0.0,0.0,0.0,0.0,0.0,3.0461922,-0.6398773,0.29698884,-3.2561495,0.2869967,5.619401,0.5304184,-0.45449448,0.693097,0.5745483,0.17512383,0.15255436,0.7848268,0.0,0.0,0.0,1.0,0.0,0.0,0.0,0.0,0.0,0.0,-3.6961923,0.23987731,0.25301117,0.0,0.0,0.0,0.0,0.0,0.0,0.0
-176.0,83.13394,-0.08779335,110.0,11.246928,5.378692,-3.783099,-0.82502025,0.4196985,-0.5276988,0.73426616,0.4420677,0.62817633,-0.58960074,1.6977339,-1.022681,-1.8679123,-1.0435841,1.9815222,1.1798284,-0.97525793,1.7785498,-1.0620817,-1.8206413,-1.1125151,1.9430909,1.122029,-0.9186277,-0.22462188,0.34188667,-0.7323125,0.5996128,0.76908875,0.66708255,-0.31011313,3.0136528,-0.63700867,0.35240427,-3.252894,0.28670976,5.5155964,0.5281296,-0.4577179,0.6941242,0.57859915,0.17365757,0.15087974,0.78249687,-0.3047108,-0.4301951,0.13677897,1.0,0.0,0.0,0.0,0.0,0.0,0.0,-3.663653,0.23700866,0.19759575,-22.416391,33.993675,-73.02854,60.022076,76.64387,66.09128,-30.864891
-176.0,15.058362,-26.357697,110.0,11.787562,2.956261,-3.1320262,-0.8113228,0.06114763,-0.5400156,0.70031184,0.49097386,0.6263246,-0.5672513,1.6974175,-1.055967,-1.8746428,-1.0424839,1.9921883,1.1846614,-0.9753528,1.7757212,-1.0578836,-1.8342655,-1.0998636,1.9543138,1.1340414,-0.92100614,-0.30047312,0.44410816,-1.5732071,1.4894276,1.2395308,1.3729235,-0.21106428,2.9811478,-0.6341438,0.4067824,-3.2496417,0.28642312,5.4118958,0.52301407,-0.46578598,0.69580424,0.58733416,0.17026608,0.14712554,0.77743304,-0.58189106,-0.9305073,0.17906842,1.0,0.0,0.0,0.0,0.0,0.0,0.0,-3.6311479,0.23414382,0.14321762,-7.0461216,9.709639,-84.34043,89.67297,46.890236,68.65027,10.686535
-158.87077,110.10566,25.687002,92.03612,8.107405,7.01624,-2.0817344,-0.7804102,0.39355043,-0.15402463,0.65599865,0.5029233,0.6778664,-0.5548297,1.6976802,-1.0185286,-1.8496679,-1.0342637,2.004606,1.2018281,-0.9764891,1.7694994,-1.052318,-1.8491924,-1.0830561,1.9669442,1.147637,-0.92330164,-0.7293876,0.59083927,-1.4603841,1.745486,1.2667238,1.3477247,-0.23699301,2.948677,-0.6312828,0.4601243,-3.2463927,0.28613675,5.3082986,0.51496506,-0.4767456,0.6991158,0.5991549,0.16546798,0.1424571,0.7702854,-0.88703007,-1.1450213,0.3857543,1.0,0.0,0.0,0.0,0.0,0.0,0.0,-3.5986772,0.2312828,0.0898757,-42.905678,13.746119,12.92913,25.951815,1.5074492,-4.766321,-3.0025392
-98.64288,114.88985,38.904903,57.71705,4.73391,7.1600413,-0.6749941,-0.7916016,0.31523427,-0.045584563,0.6406054,0.52246934,0.6452335,-0.5726736,1.6903392,-1.0207945,-1.8537508,-1.0189955,2.0191913,1.2121603,-0.980569,1.7592188,-1.0460714,-1.8603275,-1.0659148,1.9787564,1.1602656,-0.92587465,-1.1285839,0.63379383,-0.9911165,1.7041638,1.1481757,1.2299478,-0.26628503,2.9162369,-0.6284218,0.512431,-3.2431471,0.28585067,5.204805,0.50440216,-0.48853302,0.70430875,0.61220986,0.1594584,0.13721944,0.7621961,-1.124854,-1.1789961,0.5693981,1.0,0.0,0.0,0.0,0.0,0.0,0.0,-3.566237,0.22842178,0.037568986,-40.261448,3.586483,49.001957,-4.0154696,-13.17091,-13.161612,-3.5954535
-38.46391,127.39023,48.769936,30.207087,1.6357919,6.4750996,0.12499297,-0.79860336,0.4166699,-0.030270327,0.6338509,0.5540501,0.6457729,-0.572549,1.6793585,-1.0044044,-1.8633546,-1.0025296,2.0341613,1.2248429,-0.98312956,1.7457987,-1.0392679,-1.8663661,-1.0503241,1.9891973,1.1715876,-0.9287538,-1.414767,0.69431096,-0.4685882,1.5103167,1.0060313,1.0976508,-0.29768857,2.8838272,-0.6255684,0.5637036,-3.2399046,0.28556487,5.101415,0.4921379,-0.49968338,0.7111691,0.62520856,0.15232289,0.13166627,0.7540397,-1.2732022,-1.0790948,0.72894305,1.0,0.0,0.0,0.0,0.0,0.0,0.0,-3.5338273,0.22556838,-0.013703585,-29.098057,5.5445313,54.141014,-19.551802,-15.212369,-13.854146,-3.914392
-0.7790876,116.30303,43.555744,12.425882,-0.33499706,4.483139,0.31419656,-0.81260866,0.4824459,-0.11232097,0.62846756,0.5726253,0.63202065,-0.57741505,1.6645378,-0.9910233,-1.8775983,-0.9874773,2.0464597,1.2347896,-0.9864953,1.7305189,-1.0317186,-1.8685901,-1.0367876,1.9984689,1.1817042,-0.9319152,-1.5669212,0.77403307,-0.13636774,1.3004059,0.8989527,0.9825576,-0.3243486,2.8514557,-0.622715,0.613943,-3.2366655,0.28527936,4.9981284,0.47901535,-0.509552,0.71915585,0.6376306,0.1444672,0.12627001,0.74606454,-1.3363985,-0.9395203,0.8235009,1.0,0.0,0.0,0.0,0.0,0.0,0.0,-3.5014558,0.22271499,-0.06394297,-15.623617,7.656467,34.483063,-21.26031,-11.234224,-11.629402,-3.305173
19.627775,111.34217,39.60599,5.298975,-1.2400213,3.1190503,0.23428467,-0.8236865,0.56332505,-0.118932754,0.62516516,0.59188604,0.62836325,-0.5702465,1.6481503,-0.9753861,-1.8804834,-0.9742711,2.0576575,1.2445405,-0.9889399,1.7144934,-1.0231355,-1.8688838,-1.0249602,2.007029,1.1908137,-0.93530077,-1.6153656,0.8858017,0.009117371,1.1425513,0.8408292,0.8872799,-0.34503192,2.8191147,-0.6198616,0.6631503,-3.2334294,0.28499416,4.8949447,0.46565247,-0.5179901,0.7278599,0.6494265,0.13624713,0.12143293,0.7381978,-1.3468394,-0.7960827,0.88620234,1.0,0.0,0.0,0.0,0.0,0.0,0.0,-3.4691148,0.2198616,-0.1131503,-5.1781416,10.959458,15.389191,-16.070509,-6.0554743,-9.459246,-2.605611
28.253885,103.29181,35.02726,3.0044308,-1.4738625,2.1479242,0.120180115,-0.8217358,0.6102788,-0.104679644,0.6141023,0.5908591,0.62757933,-0.55838263,1.6323198,-0.96210766,-1.8793519,-0.9635499,2.066115,1.2535716,-0.99113905,1.698485,-1.0134062,-1.8686702,-1.0142237,2.0152574,1.1990992,-0.93885034,-1.5967814,1.0014735,0.027376743,1.0497842,0.81659704,0.809312,-0.35981578,2.7868042,-0.61701584,0.7113266,-3.2301967,0.28470922,4.791865,0.4523735,-0.52510834,0.73703283,0.6607063,0.12787881,0.11734418,0.7303044,-1.328514,-0.66796696,0.92703545,1.0,0.0,0.0,0.0,0.0,0.0,0.0,-3.4368043,0.21701583,-0.16132659,1.5966654,11.415672,2.405375,-9.5516205,-2.5125265,-7.6774836,-1.9350529
26.251852,94.20682,30.492262,4.8192844,-1.130198,1.6177757,-0.0024004078,-0.82107484,0.64294785,-0.09812528,0.6176942,0.59860754,0.6364949,-0.5559591,1.6163776,-0.94911134,-1.8784827,-0.95245427,2.075118,1.2627487,-0.9944463,1.6828657,-1.0026373,-1.868758,-1.0039488,2.0234208,1.2067133,-0.9425191,-1.5510346,1.101758,-0.01942858,1.019353,0.81610423,0.7457866,-0.37050933,2.7545242,-0.6141701,0.7584728,-3.226967,0.28442457,4.688888,0.43930435,-0.5311432,0.74652565,0.67163277,0.119470015,0.11397535,0.72225064,-1.3055614,-0.56699866,0.9558953,1.0,0.0,0.0,0.0,0.0,0.0,0.0,-3.4045243,0.21417007,-0.20847279,4.377675,9.914875,-4.2619343,-3.2903433,-0.06942749,-6.2883854,-1.4515579
21.672983,87.536255,27.671942,6.9630833,-0.7098536,1.4603277,-0.034507725,-0.8219677,0.6724113,-0.077428326,0.6028945,0.60481715,0.6411482,-0.5530377,1.6006689,-0.93539613,-1.8765008,-0.94365937,2.0839026,1.2708281,-0.9978229,1.6676966,-0.9910268,-1.8693511,-0.99376047,2.0316682,1.21378,-0.94627374,-1.5061551,1.1804769,-0.07150952,1.0180067,0.82758904,0.6936198,-0.37825495,2.7222786,-0.6113281,0.80459005,-3.2237408,0.2841402,4.5860143,0.4264145,-0.5363159,0.7562711,0.68230623,0.111037984,0.111173935,0.71398115,-1.288527,-0.48478577,0.97984934,1.0,0.0,0.0,0.0,0.0,0.0,0.0,-3.3722787,0.21132812,-0.25459003,4.3203115,7.7728033,-4.8357525,-0.36671162,1.1459589,-5.2170157,-1.1192083
16.235607,81.42927,25.409569,9.046375,-0.29264492,1.4395559,-0.03420651,-0.81969154,0.6901696,-0.06203174,0.6004073,0.60539025,0.6456769,-0.55524874,1.5857275,-0.9220099,-1.8755543,-0.93371975,2.0922072,1.2783477,-1.0017986,1.652886,-0.9788179,-1.8703144,-0.9834751,2.0400453,1.2203966,-0.95009416,-1.4733312,1.2339727,-0.10341907,1.031394,0.8411134,0.65077084,-0.38435036,2.6900673,-0.60849,0.84967935,-3.2205176,0.28385612,4.483243,0.41361237,-0.5407753,0.76623094,0.69277126,0.102557875,0.10874937,0.7054951,-1.2811464,-0.41694573,1.0003854,1.0,0.0,0.0,0.0,0.0,0.0,0.0,-3.3400674,0.20848998,-0.29967934,3.128934,5.2568913,-2.8195157,1.1201859,1.3476491,-4.3387294,-0.93312263
12.318453,77.0819,24.076372,10.03396,0.004224837,1.495678,0.026963249,-0.8234942,0.70291877,-0.033990968,0.58375907,0.61915433,0.64904076,-0.5536459,1.5705366,-0.908526,-1.8737135,-0.9250992,2.1019607,1.2853007,-1.0054587,1.6382662,-0.96623605,-1.871331,-0.97311056,2.0485787,1.2266432,-0.9539651,-1.458696,1.2660015,-0.09967318,1.0374618,0.8575686,0.61566883,-0.38902035,2.6578865,-0.60565186,0.89374167,-3.2172978,0.28357232,4.380574,0.4008255,-0.54460144,0.77637184,0.70300674,0.09399858,0.1065056,0.6968516,-1.282101,-0.355558,1.0178195,1.0,0.0,0.0,0.0,0.0,0.0,0.0,-3.3078866,0.20565185,-0.34374166,1.3044834,3.11234,0.789316,0.3941059,1.6171932,-3.5892844,-0.7838726
11.223793,73.21705,22.747103,9.742329,0.071086705,1.434036,0.07546831,-0.8163347,0.7138097,-0.029956117,0.57426333,0.6224425,0.6544542,-0.54772073,1.5566328,-0.8948551,-1.8743266,-0.9156842,2.110823,1.2920886,-1.0087372,1.6237322,-0.9534387,-1.872195,-0.96275556,2.057261,1.2325903,-0.9578714,-1.4521608,1.2839804,-0.08030481,1.0341594,0.87169844,0.5875769,-0.39215684,2.6257362,-0.60282135,0.93677807,-3.2140813,0.2832888,4.2780085,0.3880043,-0.5478401,0.7866405,0.7129715,0.08535276,0.104333505,0.6881141,-1.2840334,-0.2965369,1.028855,1.0,0.0,0.0,0.0,0.0,0.0,0.0,-3.2757363,0.20282134,-0.38677806,0.49209595,1.716423,2.3663342,-0.54671764,1.3833523,-2.8714776,-0.6277859
9.304448,68.22586,20.534828,9.34503,0.09599805,1.2660394,0.08700358,-0.8197895,0.71991724,-0.041864328,0.5593011,0.63318044,0.660464,-0.5444256,1.5417533,-0.88144696,-1.8763814,-0.9068254,2.120579,1.2986367,-1.012314,1.6091963,-0.9405307,-1.8729064,-0.95252454,2.0660844,1.2383028,-0.96179956,-1.4544594,1.2928643,-0.06668991,1.0186521,0.8858445,0.5656106,-0.39410064,2.5936165,-0.59999084,0.9787896,-3.210868,0.28300557,4.1755447,0.37517166,-0.55052185,0.79694015,0.7226479,0.07666465,0.10220735,0.6793056,-1.2856275,-0.2426413,1.0291244,1.0,0.0,0.0,0.0,0.0,0.0,0.0,-3.2436166,0.19999084,-0.42878962,-0.391078,0.8207798,1.7729163,-1.7755508,1.3949752,-2.224362,-0.49172044
10.921553,67.384254,20.360968,8.310617,0.0066939592,1.2128266,0.14482686,-0.81821823,0.72595817,-0.014713804,0.53648937,0.64190084,0.6600778,-0.54721504,1.5273745,-0.8679349,-1.8743778,-0.8988756,2.1302745,1.3043106,-1.0165211,1.5946242,-0.92756075,-1.8733928,-0.9425539,2.075045,1.2438284,-0.9657468,-1.4588435,1.2980511,-0.04126794,0.9891647,0.8992865,0.54812026,-0.39587554,2.561535,-0.59716034,1.0197773,-3.2076576,0.28272262,4.073184,0.36234665,-0.5526428,0.8072211,0.73199123,0.06794897,0.10010687,0.6704851,-1.2830484,-0.18557659,1.0261753,1.0,0.0,0.0,0.0,0.0,0.0,0.0,-3.211535,0.19716033,-0.4697773,-0.6059408,0.45816898,2.9714444,-3.1792164,1.321876,-1.7445683,-0.47804713
12.037127,66.23187,19.64188,7.6817245,-0.11859363,1.0796608,0.14149567,-0.8130156,0.73373514,-0.023680927,0.5255066,0.63623595,0.6629318,-0.5401164,1.5133226,-0.85418725,-1.8757609,-0.8900032,2.1386688,1.3101215,-1.0197585,1.580033,-0.9145326,-1.8737094,-0.932897,2.0840936,1.2492071,-0.9697036,-1.4598643,1.3043158,-0.027009746,0.9571282,0.9066629,0.53452295,-0.3965797,2.5294838,-0.59433746,1.0597422,-3.2044506,0.28243995,3.9709256,0.34957886,-0.5541878,0.81744164,0.74099076,0.059220165,0.09807489,0.6616698,-1.2749996,-0.12830025,1.0190016,1.0,0.0,0.0,0.0,0.0,0.0,0.0,-3.179484,0.19433746,-0.5097422,-0.26512146,0.5748749,1.8332441,-3.4366727,0.73070526,-1.3229728,-0.3634572
11.85956,65.44356,18.833986,7.733046,-0.16335511,0.9591312,0.11608714,-0.81373674,0.7442523,-0.03885076,0.5107886,0.6500136,0.6646972,-0.53677154,1.4986593,-0.8401074,-1.8775945,-0.8818181,2.1490948,1.3156768,-1.0233808,1.5654379,-0.9014072,-1.8740146,-0.9235605,2.093226,1.2544714,-0.9736623,-1.4600344,1.3150568,-0.030394146,0.9250036,0.9158616,0.52384657,-0.39656937,2.4974632,-0.5915146,1.0986853,-3.2012467,0.28215757,3.8687696,0.33691788,-0.5551796,0.8275716,0.74966663,0.05050203,0.09616885,0.6528408,-1.2640713,-0.073222645,1.0089439,1.0,0.0,0.0,0.0,0.0,0.0,0.0,-3.1474633,0.19151458,-0.54868525,-0.1767397,1.0297775,0.04048124,-3.4457564,0.92856884,-1.0181546,-0.27846694
12.664629,64.51541,18.53286,7.303198,-0.19340825,0.8895767,0.14652136,-0.81590676,0.74265194,-0.018328931,0.48434153,0.65585566,0.6664434,-0.5331704,1.4838473,-0.827142,-1.8758475,-0.87512636,2.1588116,1.3211157,-1.0269793,1.5508353,-0.88819784,-1.8743007,-0.9145874,2.10245,1.259648,-0.9776172,-1.4608964,1.3228259,-0.026864998,0.8873275,0.92494524,0.51559484,-0.3960594,2.4654732,-0.5886955,1.1366074,-3.1980462,0.28187546,3.7667158,0.32437134,-0.55561066,0.8375883,0.7580077,0.041803606,0.09438304,0.64402527,-1.2501317,-0.0182138,0.9971074,1.0,0.0,0.0,0.0,0.0,0.0,0.0,-3.1154733,0.18869552,-0.5866074,-0.24626255,0.7390976,0.73443615,-4.0013313,0.9172082,-0.7563591,-0.22587776
14.238609,64.2551,18.349358,6.579922,-0.3071082,0.79409045,0.16691244,-0.8123375,0.7501417,-0.020416014,0.45673016,0.6558232,0.6712495,-0.52842885,1.4696015,-0.81318367,-1.8763423,-0.86891437,2.1680322,1.3267729,-1.0304601,1.5362402,-0.87490076,-1.8745658,-0.9060358,2.1117501,1.2647578,-0.9815635,-1.4593798,1.331955,-0.025136815,0.84359366,0.9317702,0.50969887,-0.39503172,2.4335136,-0.5858803,1.1735098,-3.1948488,0.28159365,3.664764,0.31201553,-0.5554886,0.84747326,0.76599765,0.033134416,0.09273308,0.63525593,-1.2306311,0.03792329,0.9832327,1.0,0.0,0.0,0.0,0.0,0.0,0.0,-3.0835137,0.18588027,-0.6235098,-0.0069618225,0.8834839,0.5445354,-4.608822,0.7016659,-0.49352646,-0.17001629
15.255556,63.856884,18.243433,5.845436,-0.37669456,0.72968197,0.2152264,-0.8195328,0.7538855,-0.0025254113,0.4134385,0.66327804,0.67183405,-0.5194494,1.4542869,-0.7995122,-1.8748183,-0.8646919,2.178078,1.3319411,-1.0335084,1.5216299,-0.8615169,-1.8747356,-0.8980297,2.1211228,1.2698199,-0.98549265,-1.462147,1.3405614,-0.012812579,0.7855175,0.9390111,0.5053661,-0.39314315,2.4015923,-0.58306503,1.2093935,-3.1916547,0.2813121,3.5629141,0.29987335,-0.5547943,0.8572033,0.7736023,0.024509547,0.09121644,0.62659246,-1.2069671,0.09518583,0.96719736,1.0,0.0,0.0,0.0,0.0,0.0,0.0,-3.0515924,0.18306503,-0.6593935,-0.4406929,0.8387804,1.6120874,-6.043446,0.74276924,-0.3096223,-0.0795722
17.218695,64.62381,18.730726,5.420812,-0.4283393,0.6979661,0.25744587,-0.81387544,0.75695795,0.022202224,0.38771442,0.6640509,0.6720109,-0.5136889,1.4402424,-0.7858211,-1.8725153,-0.85925823,2.187528,1.337021,-1.0368615,1.5070177,-0.8480539,-1.8746707,-0.89061296,2.1305528,1.2748457,-0.98939985,-1.4615836,1.3480835,0.014193054,0.7262268,0.9444818,0.5021608,-0.3908192,2.3697014,-0.5802536,1.2442595,-3.1884637,0.28103086,3.4611661,0.28799438,-0.5535011,0.8667897,0.78079116,0.01590852,0.089806296,0.61809933,-1.1790184,0.15431061,0.95294917,1.0,0.0,0.0,0.0,0.0,0.0,0.0,-3.0197015,0.1802536,-0.69425946,-0.10151863,0.73697567,3.0762134,-6.1541557,0.57138205,-0.1794815,-0.034743547
23.437435,64.999054,19.467302,1.5097485,-0.8173384,0.5454784,0.42275167,-0.81537485,0.7628488,0.066791594,0.28337222,0.67649716,0.666403,-0.5179149,1.4254802,-0.771769,-1.8679916,-0.8622757,2.1982024,1.341486,-1.0411913,1.4924074,-0.83451074,-1.87415,-0.8841356,2.140059,1.2798449,-0.99328893,-1.4614904,1.3564049,0.065962695,0.6207745,0.9528233,0.5000425,-0.38918313,2.337841,-0.577446,1.2781087,-3.1852758,0.2807499,3.35952,0.27651978,-0.55156326,0.8761802,0.78744864,0.0073801107,0.08848384,0.60995144,-1.1340133,0.22193111,0.93138677,1.0,0.0,0.0,0.0,0.0,0.0,0.0,-2.9878411,0.17744598,-0.7281087,-0.15525818,0.8324146,5.5760274,-10.774612,0.85071325,0.027221441,-0.10218024
29.81414,63.921604,19.72649,-2.7064404,-1.2255986,0.3128025,0.5846324,-0.81060886,0.76399714,0.11209692,0.18143791,0.67897856,0.67190164,-0.5053156,1.4113466,-0.758111,-1.8629403,-0.86599183,2.2079568,1.347035,-1.0438205,1.47782,-0.820898,-1.8729618,-0.8790363,2.1496453,1.2848364,-0.9971542,-1.4582124,1.362903,0.1375697,0.4723271,0.9606948,0.5001027,-0.38648424,2.3060112,-0.57463837,1.3109422,-3.1820912,0.2804692,3.2579753,0.26563263,-0.548893,0.8852864,0.7934414,-0.0009922684,0.08724795,0.60235983,-1.0700177,0.29440877,0.9002882,1.0,0.0,0.0,0.0,0.0,0.0,0.0,-2.9560113,0.17463836,-0.76094216,0.17700195,0.67300797,7.53334,-15.066028,0.8180499,0.35693645,0.02117157
32.30573,62.65349,19.470802,-4.821579,-1.4308317,0.1198557,0.67080057,-0.817732,0.76853675,0.15987371,0.08312912,0.6786092,0.6548706,-0.48997468,1.3960469,-0.7440443,-1.8569744,-0.87072337,2.2175062,1.3503234,-1.0461516,1.4632345,-0.80721945,-1.8709571,-0.8756336,2.1592965,1.2898222,-1.0009822,-1.4592509,1.3696271,0.22246583,0.29557765,0.9665955,0.49951154,-0.3822182,2.274212,-0.5718384,1.342761,-3.1789098,0.2801888,3.1565323,0.25545502,-0.5455055,0.894037,0.7986977,-0.009127877,0.08611072,0.5954691,-0.9952586,0.36610556,0.86297834,1.0,0.0,0.0,0.0,0.0,0.0,0.0,-2.924212,0.17183837,-0.792761,-0.23469925,0.7148266,8.801243,-17.87073,0.6529093,0.3590703,0.21480322
31.226433,60.64118,18.540085,-4.1676445,-1.3684378,-0.0378322,0.62956905,-0.811537,0.7709266,0.18380813,0.027395424,0.6752618,0.6602171,-0.4751093,1.3820808,-0.7301268,-1.8525764,-0.87289405,2.2268226,1.3558439,-1.0484931,1.4486624,-0.79347986,-1.8681724,-0.873896,2.168982,1.294808,-1.0047568,-1.4568348,1.3755839,0.29782128,0.13256283,0.96945274,0.49961367,-0.3764632,2.242447,-0.5690384,1.3735663,-3.1757314,0.27990866,3.0551906,0.24602127,-0.54143906,0.90241534,0.803252,-0.01700162,0.085093975,0.58928436,-0.92010283,0.42959195,0.82533216,1.0,0.0,0.0,0.0,0.0,0.0,0.0,-2.892447,0.16903839,-0.82356626,0.1488924,0.65562725,7.734495,-16.46453,0.40313005,0.43280125,0.40678382
24.469883,59.21275,17.408716,0.5569596,-0.86777306,-0.0065950453,0.4721301,-0.8148926,0.7716034,0.21176563,0.01693917,0.67800665,0.65822047,-0.4495426,1.3671732,-0.7163195,-1.8469958,-0.8722021,2.2367828,1.36063,-1.0497111,1.4340998,-0.7796945,-1.8647239,-0.87339056,2.1786904,1.29979,-1.008459,-1.456361,1.3797555,0.36104277,0.022642002,0.97215444,0.49882522,-0.3684399,2.2107162,-0.5662384,1.4033588,-3.1725564,0.2796288,2.9539504,0.23720932,-0.5368347,0.91049224,0.8072435,-0.024681535,0.08417455,0.5836636,-0.8623867,0.47985703,0.7974382,1.0,0.0,0.0,0.0,0.0,0.0,0.0,-2.8607163,0.1662384,-0.8533588,-0.023531914,0.48656464,6.4181924,-11.131087,0.4442811,0.26586652,0.66587925
23.221642,57.61168,16.762438,1.0841246,-0.8029869,-0.09877816,0.4530021,-0.81797063,0.77340406,0.2542322,-0.06911816,0.6793366,0.6571884,-0.4368019,1.3523028,-0.7023541,-1.8393008,-0.88030237,2.246624,1.3655089,-1.0521392,1.4195257,-0.7658748,-1.8606498,-0.87395036,2.1884294,1.3047625,-1.0120753,-1.4581383,1.3830172,0.42296278,-0.082630694,0.97469205,0.49794245,-0.35971293,2.179016,-0.56344604,1.4321398,-3.1693845,0.27934924,2.8528113,0.22896576,-0.53176117,0.91828954,0.81073606,-0.032180972,0.08333621,0.5785554,-0.80587286,0.5253753,0.7691346,1.0,0.0,0.0,0.0,0.0,0.0,0.0,-2.8290162,0.16344604,-0.88213974,-0.2348423,0.40562153,6.234664,-10.65138,0.4548669,0.25681853,0.76063275
24.904987,56.563114,16.700363,-0.35303068,-0.93438023,-0.22217174,0.5190208,-0.820813,0.7737702,0.31127074,-0.16646299,0.67791355,0.660085,-0.40895364,1.3374444,-0.6884978,-1.8295227,-0.8905967,2.2562208,1.3707709,-1.0529706,1.4049174,-0.7520322,-1.8558643,-0.87569463,2.1981835,1.3097311,-1.0155905,-1.461842,1.3850068,0.49686864,-0.2053935,0.9762334,0.49774918,-0.34904337,2.1473465,-0.5606537,1.45991,-3.1662157,0.27906993,2.7517734,0.2213211,-0.5262184,0.92577684,0.81370777,-0.039465595,0.08258271,0.5740228,-0.7427185,0.5705937,0.7369951,1.0,0.0,0.0,0.0,0.0,0.0,0.0,-2.7973466,0.16065368,-0.90991,-0.40922165,0.288558,7.390499,-12.378404,0.37693977,0.35989285,0.97861886
25.426085,58.444706,17.594688,0.5866108,-0.8670704,-0.18902002,0.5311722,-0.8110824,0.7775653,0.36689517,-0.19832423,0.67728674,0.663998,-0.35744566,1.3238091,-0.6742757,-1.8191748,-0.89552706,2.2659123,1.3761309,-1.0513351,1.3903223,-0.7381601,-1.850249,-0.8785347,2.2079453,1.3147017,-1.0189685,-1.4587808,1.3882893,0.58286977,-0.31048048,0.97716415,0.4980477,-0.33431718,2.1157074,-0.55786514,1.4866706,-3.1630502,0.27879092,2.6508365,0.21430588,-0.5202141,0.93299603,0.8161463,-0.04658293,0.08188367,0.57011425,-0.68073535,0.6167506,0.71174157,1.0,0.0,0.0,0.0,0.0,0.0,0.0,-2.7657075,0.15786514,-0.9366706,0.29520988,0.43008327,8.523357,-10.580993,0.3657937,0.40507913,1.40239
20.803701,57.370464,16.98117,4.1324778,-0.49355185,-0.1313473,0.41775462,-0.81308955,0.7743998,0.39995882,-0.1972175,0.6771257,0.66151625,-0.346504,1.3090134,-0.6607201,-1.8102531,-0.8982564,2.275658,1.3808533,-1.0536189,1.3757578,-0.7242755,-1.8438079,-0.88211,2.2177148,1.3196722,-1.0222033,-1.4557168,1.3888844,0.6640404,-0.3734023,0.9779838,0.49766767,-0.31988582,2.0840988,-0.5550804,1.5124227,-3.1598878,0.27851218,2.5500004,0.207798,-0.51379776,0.9400259,0.81813127,-0.05362501,0.08119268,0.56673914,-0.6327275,0.6557646,0.69465226,1.0,0.0,0.0,0.0,0.0,0.0,0.0,-2.734099,0.15508041,-0.96242267,0.30083656,0.17044544,7.981622,-6.36335,0.3933668,0.28838515,1.3830066
15.078335,56.883957,16.247341,8.600294,-0.090842664,-0.036656857,0.25858164,-0.8119909,0.77955157,0.4149178,-0.17563418,0.67220426,0.66103053,-0.30803257,1.2945588,-0.64632034,-1.8023162,-0.8996734,2.2849352,1.3857753,-1.0530065,1.3612238,-0.7103681,-1.836705,-0.88592565,2.2274766,1.3246351,-1.025278,-1.452539,1.3917465,0.72517186,-0.38459992,0.97689366,0.49658242,-0.3035566,2.0525208,-0.5522957,1.5371672,-3.1567285,0.2782337,2.4492652,0.20164108,-0.50704193,0.94696295,0.8197918,-0.060696166,0.0805021,0.5637168,-0.6015268,0.68817675,0.6877418,1.0,0.0,0.0,0.0,0.0,0.0,0.0,-2.7025208,0.15229568,-0.9871672,0.3014803,0.40521622,5.9435606,-1.2030721,0.23015738,0.15472174,1.5759647
11.034026,53.466827,14.765877,10.823321,0.15421003,-0.07782443,0.15412071,-0.81279117,0.7746094,0.43158084,-0.17401429,0.66958404,0.66439366,-0.2911428,1.2799447,-0.63290715,-1.7935469,-0.9033271,2.294435,1.3910745,-1.0543922,1.3467108,-0.69645876,-1.829129,-0.88965356,2.2372193,1.3295866,-1.0281924,-1.4510423,1.3911064,0.7678035,-0.3692407,0.9744777,0.49547437,-0.28758353,2.020977,-0.5495148,1.5609051,-3.1535726,0.27795553,2.3486307,0.19572449,-0.50001144,0.953842,0.82123125,-0.067838676,0.079818815,0.5608975,-0.5801496,0.7125943,0.6821212,1.0,0.0,0.0,0.0,0.0,0.0,0.0,-2.670977,0.14951476,-1.010905,0.12204647,0.0569582,4.0932536,1.4334679,0.09133816,0.116717815,1.5398204
8.7880335,51.93819,14.00807,12.157387,0.2621063,-0.11008021,0.09044495,-0.8138944,0.7782223,0.44590822,-0.16502495,0.6675091,0.6540427,-0.26708058,1.2653214,-0.61863655,-1.7845381,-0.90615606,2.3039703,1.3949909,-1.0549004,1.3321978,-0.68254465,-1.8212326,-0.89312303,2.2469316,1.334519,-1.0309466,-1.45142,1.391924,0.79632497,-0.33993292,0.97137827,0.49320582,-0.271457,1.9894676,-0.5467377,1.5836374,-3.1504195,0.27767763,2.2480967,0.18997955,-0.49277115,0.9606756,0.8225148,-0.07506174,0.07916793,0.5581823,-0.56370074,0.7334733,0.67772275,1.0,0.0,0.0,0.0,0.0,0.0,0.0,-2.6394677,0.14673766,-1.0336373,-0.07710457,0.202775,2.6924968,2.8202057,0.016236305,-0.022304058,1.5564978
6.165303,49.15964,12.797061,13.479134,0.38361102,-0.16176777,0.010166876,-0.814811,0.77674204,0.44302106,-0.13503869,0.65839577,0.6614587,-0.25588056,1.2507167,-0.60487044,-1.7769305,-0.9066269,2.312771,1.4006649,-1.0565346,1.3176695,-0.6686296,-1.8131874,-0.8961824,2.2565904,1.3394343,-1.0335463,-1.4532427,1.3917403,0.8066359,-0.29511657,0.9650272,0.49157578,-0.256482,1.9579887,-0.5439606,1.605365,-3.1472697,0.2774,2.1476634,0.18435287,-0.4853592,0.96746504,0.82370776,-0.082369834,0.07858148,0.55546886,-0.5528098,0.74913627,0.6731929,1.0,0.0,0.0,0.0,0.0,0.0,0.0,-2.6079888,0.14396057,-1.0553651,-0.23536682,0.10163784,0.88647604,4.3549356,-0.32308102,0.015515089,1.4399886
7.9044237,46.738834,12.09082,11.256388,0.16322666,-0.3554781,0.04875258,-0.8157965,0.7768231,0.4495032,-0.16070275,0.6572092,0.6530946,-0.26360616,1.2360898,-0.5909473,-1.768237,-0.91225266,2.3223114,1.4047437,-1.059907,1.3031203,-0.6547174,-1.8050926,-0.89898145,2.2661881,1.3443285,-1.0360202,-1.4556311,1.3913789,0.8100472,-0.2753193,0.95872396,0.48961458,-0.2444598,1.9265404,-0.5411911,1.6260891,-3.144123,0.27712265,2.0473304,0.17891312,-0.47779083,0.9741473,0.82481,-0.08968353,0.07810685,0.5527608,-0.5327588,0.7631188,0.66035837,1.0,0.0,0.0,0.0,0.0,0.0,0.0,-2.5765405,0.1411911,-1.0760891,-0.28681755,0.0777483,0.22274256,1.8598795,-0.35202503,0.0065743923,1.1514932
9.46375,44.4941,11.456193,9.198891,-0.016786635,-0.53615665,0.09509272,-0.8182498,0.77653164,0.45031008,-0.1763963,0.661964,0.65359503,-0.25205475,1.2212952,-0.5770642,-1.7600616,-0.9166211,2.3323846,1.409688,-1.0612257,1.2885386,-0.6408109,-1.7969978,-0.9017643,2.275744,1.3492094,-1.0383815,-1.4589703,1.3907558,0.8089715,-0.27962482,0.9555537,0.48816624,-0.23339105,1.8951225,-0.53842163,1.6458106,-3.1409795,0.27684557,1.9470975,0.17372894,-0.47011185,0.98064524,0.8257959,-0.096907586,0.077778205,0.5501097,-0.5045913,0.774792,0.640112,1.0,0.0,0.0,0.0,0.0,0.0,0.0,-2.5451226,0.13842162,-1.0958107,-0.3770113,0.047039986,-0.2045393,-0.5444467,-0.06560087,0.08012056,1.0626614
11.622629,44.365536,11.608557,7.485566,-0.21260685,-0.65769774,0.15640894,-0.8158478,0.7806838,0.4542584,-0.19098613,0.6591416,0.6529628,-0.207403,1.2069538,-0.56274253,-1.7515719,-0.9208629,2.341658,1.4145057,-1.0591217,1.2739435,-0.6268911,-1.7889087,-0.90472543,2.285273,1.354077,-1.0406111,-1.4599444,1.3928204,0.80865496,-0.30199608,0.95283324,0.4871541,-0.21955258,1.8637352,-0.53565216,1.6645305,-3.1378393,0.27656877,1.8469648,0.16889572,-0.46229553,0.9869136,0.8266251,-0.103974596,0.07762343,0.54758996,-0.46801615,0.787462,0.6161848,1.0,0.0,0.0,0.0,0.0,0.0,0.0,-2.5137353,0.13565215,-1.1145306,-0.12760162,0.31518936,-0.12625456,-2.3345172,-0.034034252,0.14406443,1.3480902
11.231139,41.61771,10.732473,6.9936976,-0.21034414,-0.77859586,0.15852034,-0.8202725,0.7754252,0.44938025,-0.19983165,0.65821224,0.64736706,-0.1924929,1.1919163,-0.54934853,-1.7439708,-0.9247086,2.3510942,1.4188137,-1.0598605,1.2593256,-0.61297315,-1.7808444,-0.9079565,2.2947793,1.3589312,-1.0427016,-1.4625483,1.3917953,0.80536205,-0.33051088,0.95079577,0.48577005,-0.2058001,1.8323784,-0.5328903,1.6822499,-3.134702,0.27629226,1.7469323,0.16441727,-0.45438766,0.9929174,0.82729524,-0.11083646,0.077651545,0.545223,-0.4303234,0.7954903,0.58887964,1.0,0.0,0.0,0.0,0.0,0.0,0.0,-2.4823785,0.13289031,-1.1322498,-0.2906561,0.0059843063,-0.41680336,-2.9537678,0.021839142,0.10652542,1.3420194
8.991236,42.43724,11.091424,9.886844,0.049622357,-0.6431877,0.114050195,-0.81736535,0.7771124,0.4556722,-0.15502569,0.6506724,0.6546261,-0.101391226,1.177589,-0.5352619,-1.7352772,-0.92345905,2.3598466,1.4243938,-1.0528407,1.2446982,-0.59906095,-1.772784,-0.91121614,2.3042512,1.3637778,-1.0446032,-1.4629861,1.3914322,0.80599546,-0.3248764,0.9468435,0.48491812,-0.18488175,1.8010521,-0.5301285,1.6989696,-3.131568,0.27601603,1.6469997,0.1602478,-0.44638824,0.9987235,0.8278282,-0.11757924,0.07783041,0.54297125,-0.4033304,0.804618,0.57163346,1.0,0.0,0.0,0.0,0.0,0.0,0.0,-2.4510522,0.13012847,-1.1489697,-0.085926056,0.0797987,-0.045144558,0.45137405,-0.13471842,0.12113452,2.051115
8.3033495,40.856285,10.609172,10.112546,0.09776902,-0.68997735,0.102212474,-0.8218534,0.7754869,0.45240104,-0.16935523,0.65450007,0.6550186,-0.09416527,1.1625128,-0.52151227,-1.7275438,-0.92815167,2.3697011,1.4292796,-1.0540198,1.2300497,-0.58515924,-1.7647235,-0.9144157,2.3137002,1.3686167,-1.0463027,-1.4654994,1.3901111,0.8055613,-0.3187905,0.94499916,0.48421067,-0.16520663,1.7697563,-0.52737045,1.7146908,-3.128437,0.27574006,1.5471671,0.15633011,-0.43830872,1.0043548,0.8282396,-0.124229446,0.078141235,0.5408143,-0.37768146,0.81159925,0.5539643,1.0,0.0,0.0,0.0,0.0,0.0,0.0,-2.4197564,0.12737045,-1.1646907,-0.300622,-0.01680851,-0.14123917,0.49263835,0.06933212,0.12724996,1.927188
10.777199,38.812874,10.174679,7.1809773,-0.15962672,-0.9004874,0.19218567,-0.8211497,0.7717836,0.45645213,-0.2225723,0.6488884,0.65513885,-0.040203422,1.1479348,-0.5079809,-1.7190783,-0.9366729,2.3785892,1.4341305,-1.050323,1.2153841,-0.5712871,-1.7566478,-0.9177965,2.3231187,1.3734518,-1.0477847,-1.4669923,1.3866266,0.8078782,-0.3447691,0.9415678,0.48394716,-0.14270543,1.7384987,-0.52461624,1.7294145,-3.1253092,0.2754644,1.4474342,0.15276718,-0.43017578,1.0097417,0.8284907,-0.13069673,0.07861022,0.53883386,-0.34019718,0.8163081,0.5273756,1.0,0.0,0.0,0.0,0.0,0.0,0.0,-2.3884988,0.124616235,-1.1794145,-0.17399788,-0.23796558,0.1422286,-2.6943564,-0.12013912,0.20395517,2.2189765
11.567951,35.92554,9.356188,5.442129,-0.26037872,-1.0745527,0.24428153,-0.82424617,0.76477903,0.45845002,-0.2517487,0.6475903,0.650332,0.018712815,1.1329595,-0.49480918,-1.7108028,-0.94297135,2.3878777,1.438485,-1.0459135,1.2006956,-0.55748075,-1.7485397,-0.9215883,2.3325067,1.3782812,-1.0490187,-1.4695337,1.3791031,0.8114947,-0.39101073,0.9380444,0.4834601,-0.117119975,1.7072716,-0.52186203,1.7431415,-3.1221845,0.27518898,1.3478011,0.14961243,-0.42203522,1.0148137,0.82854897,-0.1368834,0.079251945,0.5371113,-0.29685858,0.8161979,0.49431676,1.0,0.0,0.0,0.0,0.0,0.0,0.0,-2.3572717,0.121862024,-1.1931415,-0.2637148,-0.6446123,0.2771616,-4.713315,-0.15095472,0.19606948,2.5328622
9.819508,35.57423,9.10383,7.272292,-0.12170112,-1.0406306,0.19116111,-0.8217593,0.7681631,0.44338697,-0.22712407,0.63757914,0.6562136,0.09466126,1.1185197,-0.48066443,-1.704201,-0.9443007,2.3962646,1.4439026,-1.0395526,1.1859957,-0.54372495,-1.7404716,-0.9256805,2.3418336,1.3831087,-1.0499629,-1.4700384,1.3747897,0.80506265,-0.41562727,0.9315312,0.48335406,-0.08702514,1.676075,-0.51911163,1.755873,-3.119063,0.27491385,1.2482677,0.14684677,-0.41389465,1.0195961,0.8284402,-0.14281286,0.080089,0.53560907,-0.25969985,0.81521,0.4666737,1.0,0.0,0.0,0.0,0.0,0.0,0.0,-2.326075,0.11911163,-1.205873,-0.07207394,-0.31745434,-0.73776245,-2.5617838,-0.4341483,0.20726323,2.9835284
7.064645,32.977604,8.183159,9.487399,0.14839,-1.0113633,0.11883144,-0.821891,0.758901,0.43284896,-0.20876767,0.63529193,0.6564974,0.14194776,1.1038066,-0.46783486,-1.6971867,-0.9465573,2.4053628,1.4487585,-1.0357682,1.1712958,-0.5300388,-1.7325256,-0.92982614,2.3510957,1.3879343,-1.050598,-1.4700187,1.3670262,0.7909109,-0.4146512,0.9250704,0.4830605,-0.055790346,1.6449089,-0.51636505,1.7676098,-3.1159446,0.27463898,1.1488336,0.14438629,-0.40578842,1.0241376,0.82821625,-0.14854561,0.08109756,0.5342425,-0.23277868,0.8100175,0.44382146,1.0,0.0,0.0,0.0,0.0,0.0,0.0,-2.294909,0.116365045,-1.2176099,-0.03926754,-0.6587744,-1.5097737,-0.029295683,-0.41809082,0.15826225,3.0890129
8.491548,32.094555,7.8123593,7.354556,-0.07687259,-1.181063,0.14902899,-0.8273105,0.7630003,0.4216072,-0.2719857,0.63497746,0.65671444,0.13558204,1.0885648,-0.45373875,-1.6903648,-0.9570247,2.4145935,1.4536058,-1.0370399,1.1565748,-0.5163974,-1.7247608,-0.9341787,2.3603044,1.3927599,-1.0509547,-1.4728719,1.363541,0.77133226,-0.44246826,0.9198731,0.48295364,-0.029147197,1.6137733,-0.51361847,1.7783531,-3.1128292,0.27436438,1.049499,0.14225006,-0.39775085,1.0284,0.827888,-0.15401624,0.082312085,0.5330151,-0.19641508,0.8029526,0.4142738,1.0,0.0,0.0,0.0,0.0,0.0,0.0,-2.2637734,0.11361846,-1.228353,-0.31528473,-0.23612976,-2.0330548,-2.8882563,-0.32414198,0.19029379,2.642393
8.7403,30.309011,7.2309012,6.318865,-0.14735699,-1.299077,0.16487604,-0.8318956,0.7584634,0.4141893,-0.29932466,0.6299077,0.6522551,0.16444208,1.0733852,-0.44055107,-1.6833419,-0.96411115,2.423295,1.4579854,-1.0345105,1.1418043,-0.5027942,-1.7171943,-0.93892324,2.3694558,1.3975817,-1.0510558,-1.4785229,1.3596354,0.7514805,-0.4854265,0.9142871,0.48245013,-0.0039135925,1.5826683,-0.5108795,1.7881038,-3.1097171,0.27409008,0.95026374,0.140522,-0.38980103,1.0323365,0.8274586,-0.15914652,0.0837625,0.53194773,-0.1562522,0.7925535,0.38081145,1.0,0.0,0.0,0.0,0.0,0.0,0.0,-2.2326684,0.11087951,-1.2381039,-0.5883932,-0.28014183,-2.0516157,-4.3948946,-0.38115978,0.15211701,2.50712
9.726862,29.174072,7.0270805,5.1656885,-0.22749606,-1.4086518,0.19780475,-0.8252385,0.75379866,0.40602362,-0.32804334,0.62641495,0.6586176,0.19561648,1.0592805,-0.42741433,-1.676592,-0.97172755,2.4320972,1.4634435,-1.0314941,1.1270148,-0.48923993,-1.7098186,-0.94417703,2.3785539,1.4024016,-1.0509108,-1.4789697,1.3543844,0.7326854,-0.538937,0.90867305,0.4826423,0.020557122,1.5515938,-0.50814056,1.7968628,-3.106608,0.27381605,0.8511276,0.139225,-0.38196945,1.0359174,0.8269173,-0.16388887,0.085448645,0.5310807,-0.1113834,0.77984375,0.34455213,1.0,0.0,0.0,0.0,0.0,0.0,0.0,-2.2015939,0.10814056,-1.2468629,-0.03736019,-0.41434765,-1.964426,-5.434954,-0.39713383,0.22658706,2.4355462
10.151514,27.014708,6.42959,3.848929,-0.26803476,-1.5385106,0.22960874,-0.82978624,0.7470923,0.40132365,-0.3785855,0.63339436,0.65697235,0.20822869,1.0440361,-0.4145307,-1.6696862,-0.9820356,2.4418933,1.4680988,-1.030088,1.1122156,-0.47575974,-1.7026012,-0.9500984,2.3876252,1.4072233,-1.0505389,-1.4802899,1.3462553,0.7178445,-0.61018103,0.907254,0.4827424,0.04274415,1.5205498,-0.5054016,1.8046312,-3.103502,0.27354228,0.7520907,0.13840866,-0.37429428,1.0391008,0.8262534,-0.16817954,0.08735465,0.53046215,-0.06283558,0.76257724,0.30367953,1.0,0.0,0.0,0.0,0.0,0.0,0.0,-2.1705499,0.105401605,-1.2546313,-0.10163784,-0.7041693,-1.5743971,-7.1949005,0.0019550323,0.2181828,2.2138386
9.488664,26.89625,6.5320015,4.750509,-0.1782901,-1.5086753,0.22129092,-0.83280337,0.74588513,0.40174848,-0.3964608,0.63095146,0.6530872,0.24523671,1.0289353,-0.40117124,-1.6624264,-0.9897445,2.4507203,1.472532,-1.0260153,1.0973936,-0.46235347,-1.6954792,-0.9566835,2.396689,1.4120413,-1.0499438,-1.4829018,1.3391203,0.7098907,-0.67478025,0.9064766,0.48230454,0.06516665,1.4895363,-0.5026703,1.8114101,-3.100399,0.27326882,0.65315276,0.13805008,-0.36677933,1.041899,0.8254685,-0.1720229,0.08945264,0.530102,-0.017518833,0.7458798,0.26603177,1.0,0.0,0.0,0.0,0.0,0.0,0.0,-2.1395364,0.10267028,-1.26141,-0.23853779,-0.60100555,-0.89114904,-6.5315247,0.078225136,0.14538169,2.2390156
9.168894,26.922846,6.742497,5.551857,-0.10416454,-1.4805466,0.21115026,-0.82926166,0.7425493,0.40240264,-0.42038113,0.6295177,0.65063053,0.2557152,1.0144675,-0.38809854,-1.6552389,-0.9987216,2.4596407,1.4771043,-1.0243723,1.082564,-0.44901443,-1.6883934,-0.9638504,2.4057488,1.4168535,-1.0491408,-1.4829515,1.3325353,0.70773965,-0.7309593,0.90600914,0.48146096,0.08543153,1.4585533,-0.49993896,1.8172003,-3.0972993,0.2729956,0.5543138,0.13813019,-0.3594284,1.0443453,0.8245673,-0.17546004,0.09171413,0.52999157,0.025371125,0.7302424,0.23163089,1.0,0.0,0.0,0.0,0.0,0.0,0.0,-2.1085534,0.09993896,-1.2672002,0.018811226,-0.54171085,-0.32560825,-5.689335,0.12253523,0.09016991,2.0239978
8.425301,27.197126,6.9710617,6.932483,0.00410676,-1.4164332,0.19206212,-0.82792574,0.7422973,0.4006654,-0.4346106,0.6295503,0.65187216,0.30344874,0.9997714,-0.3747847,-1.6483269,-1.0073115,2.468704,1.4820408,-1.018796,1.0677439,-0.4357226,-1.6813133,-0.97147214,2.4148011,1.4216582,-1.0481223,-1.4815122,1.3284328,0.7077991,-0.77287513,0.9059615,0.48062512,0.1073,1.4276009,-0.49721146,1.8220028,-3.0942025,0.27272266,0.45557362,0.13860703,-0.35220718,1.0464827,0.82355636,-0.17854409,0.09412115,0.53011143,0.06393146,0.71658635,0.20197783,1.0,0.0,0.0,0.0,0.0,0.0,0.0,-2.077601,0.09721145,-1.2720027,0.15265942,-0.28800964,-0.1085639,-4.27078,0.18362999,0.07274747,2.183117
6.2810287,24.5361,6.0860043,8.742365,0.23882306,-1.374959,0.12691218,-0.8295375,0.7333024,0.39196926,-0.43713152,0.62906426,0.6506498,0.30853674,0.98479015,-0.36239234,-1.6421163,-1.0151854,2.4777076,1.4867232,-1.0172687,1.0529314,-0.42249656,-1.6742618,-0.9793743,2.4238534,1.4264532,-1.0469035,-1.481115,1.3210624,0.7038915,-0.7962843,0.90587544,0.47951174,0.12663892,1.3966789,-0.49448776,1.8258187,-3.091109,0.27245,0.3569322,0.13941193,-0.34514236,1.048352,0.82247126,-0.1813288,0.09663829,0.5303978,0.09373577,0.70011497,0.17609741,1.0,0.0,0.0,0.0,0.0,0.0,0.0,-2.046679,0.09448776,-1.2758186,0.017952919,-0.6146431,-0.4852414,-2.448213,0.18457174,0.020444393,1.9204229
5.565483,21.860512,5.255439,8.660003,0.3178684,-1.4290093,0.123416595,-0.82939833,0.724307,0.3900396,-0.46764868,0.63304305,0.65503395,0.33392686,0.96999156,-0.35006586,-1.6352578,-1.0261391,2.4871578,1.4919566,-1.0135108,1.0381228,-0.40937448,-1.667258,-0.9875339,2.432917,1.4312407,-1.0454959,-1.4808991,1.309683,0.6990342,-0.8228713,0.90746075,0.47886065,0.14545268,1.3657875,-0.49176407,1.8286489,-3.0880184,0.2721776,0.2583894,0.14049911,-0.33827972,1.0499496,0.82133216,-0.1838078,0.09923782,0.53082955,0.1218891,0.6794782,0.14858475,1.0,0.0,0.0,0.0,0.0,0.0,0.0,-2.0157876,0.09176406,-1.2786489,0.0060796738,-1.0194063,-0.5745053,-2.7688146,0.33813715,0.057518482,1.8653065
3.6206253,20.732466,4.892771,11.345215,0.556809,-1.3205802,0.051535778,-0.8209582,0.72177,0.372683,-0.43251348,0.6246932,0.65522003,0.381318,0.956027,-0.33719748,-1.6299897,-1.0307853,2.4953864,1.4967626,-1.007364,1.0233523,-0.39636016,-1.6603763,-0.9957231,2.4419732,1.4360205,-1.0438861,-1.4760948,1.2990631,0.68450516,-0.81803405,0.9059252,0.4781204,0.16605248,1.3349304,-0.4890442,1.8304945,-3.0849311,0.27190548,0.15994513,0.14179611,-0.33160782,1.0513313,0.82017136,-0.18605588,0.101904586,0.53133565,0.1401828,0.65986353,0.12897117,1.0,0.0,0.0,0.0,0.0,0.0,0.0,-1.9849304,0.08904418,-1.2804945,0.4225731,-0.9391308,-1.5240312,0.33860207,0.047957897,0.023514032,2.0309448
2.5283577,18.3512,3.8636298,11.5502205,0.6137047,-1.3773258,0.0077629862,-0.82369286,0.7177892,0.34843212,-0.44909635,0.627204,0.6528319,0.37825274,0.940983,-0.32458124,-1.6255331,-1.0406327,2.5046935,1.5013037,-1.0060608,1.0086142,-0.3834436,-1.6537368,-1.0038732,2.4510217,1.4407927,-1.0420932,-1.4732558,1.2895418,0.65679324,-0.8146206,0.90484995,0.47709516,0.1836695,1.3041077,-0.48632812,1.8313564,-3.0818467,0.27163363,0.061599273,0.14326477,-0.32515717,1.0525087,0.8190332,-0.1880785,0.10464746,0.5318458,0.15673162,0.6362766,0.108276844,1.0,0.0,0.0,0.0,0.0,0.0,0.0,-1.9541076,0.08632812,-1.2813563,0.21357536,-0.83436966,-2.8118372,0.18895864,0.07143021,-0.020897388,1.7304003
1.7212183,15.995516,2.6827087,11.025986,0.5947044,-1.4822806,-0.031962603,-0.8265818,0.7170859,0.31282893,-0.46756437,0.6276702,0.6548252,0.37410316,0.925956,-0.311735,-1.6224539,-1.0506296,2.5137887,1.5062752,-1.0046829,0.9938799,-0.37059808,-1.6475093,-1.0120691,2.4600587,1.4455553,-1.0401477,-1.4735655,1.2832826,0.6114155,-0.82169294,0.90382665,0.47623563,0.19804212,1.2733154,-0.48361206,1.8312355,-3.0787656,0.27136207,-0.036648262,0.1449089,-0.318985,1.0534506,0.81797,-0.18981138,0.1075107,0.5322951,0.17434208,0.6074877,0.08397745,1.0,0.0,0.0,0.0,0.0,0.0,0.0,-1.9233154,0.083612055,-1.2812355,-0.10240078,-0.5150318,-4.547155,-0.8574605,0.041401386,-0.019103289,1.4064819
2.0621443,14.963097,2.290855,9.97941,0.513386,-1.5727694,-0.019099353,-0.8233603,0.71358705,0.29363686,-0.4890292,0.62432855,0.65434104,0.3786717,0.9115439,-0.29923937,-1.6181457,-1.060972,2.5224915,1.5109894,-1.0022805,0.9791523,-0.35780597,-1.6417625,-1.0204462,2.4690766,1.4503103,-1.0380744,-1.4726892,1.2782216,0.5624347,-0.8433687,0.90147275,0.47540224,0.21035051,1.2425537,-0.4808998,1.8301328,-3.0756874,0.27109075,-0.13479756,0.14676285,-0.31311417,1.0541205,0.8169971,-0.1911932,0.11052013,0.53267837,0.19592118,0.5761161,0.05596638,1.0,0.0,0.0,0.0,0.0,0.0,0.0,-1.8925537,0.080899805,-1.2801328,0.046610832,-0.3986597,-4.916346,-2.2998095,-0.11296272,-0.020641088,1.2042671
1.898659,14.321131,2.2193837,10.272366,0.54851073,-1.5619646,-0.018659472,-0.8209705,0.70913666,0.27633673,-0.49086967,0.6188769,0.65570295,0.38810718,0.89705527,-0.2868923,-1.6141288,-1.0695331,2.5309644,1.5158806,-0.99926364,0.9644438,-0.3450668,-1.6364791,-1.029035,2.4780564,1.4550596,-1.0358866,-1.4704312,1.2728614,0.51704854,-0.8645794,0.89728624,0.47474602,0.2214512,1.2118225,-0.47819138,1.8280494,-3.0726125,0.27081972,-0.23284873,0.14882278,-0.30755997,1.0545157,0.8161135,-0.19221963,0.11367313,0.5329997,0.21655962,0.5449954,0.028795207,1.0,0.0,0.0,0.0,0.0,0.0,0.0,-1.8618225,0.07819137,-1.2780495,0.18651485,-0.4287958,-4.5584083,-2.2520661,-0.29416084,-0.013303757,1.08217
1.2236426,12.928641,1.7377744,10.749306,0.6197441,-1.5574653,-0.036763396,-0.81974846,0.70624614,0.24424487,-0.49737832,0.6150505,0.66192025,0.40137097,0.88246894,-0.27444217,-1.6120547,-1.0787728,2.5395615,1.5212517,-0.99574953,0.94976103,-0.33238053,-1.6316726,-1.0378202,2.4869866,1.4598051,-1.0335921,-1.4677052,1.2675439,0.46854028,-0.8835685,0.8920626,0.4746815,0.23204757,1.1811218,-0.47548294,1.8249862,-3.0695405,0.27054894,-0.33080187,0.15108871,-0.30231476,1.0546443,0.81533015,-0.19289805,0.116963364,0.5332417,0.23479426,0.51268095,0.0023527783,1.0,0.0,0.0,0.0,0.0,0.0,0.0,-1.8311218,0.075482935,-1.2749863,0.22666454,-0.42629242,-4.859501,-2.035284,-0.402534,0.031071901,1.0277152
-0.5302527,8.9924755,-0.05459857,10.892441,0.7498871,-1.6388694,-0.0977487,-0.8189497,0.7021245,0.18346088,-0.5115308,0.61776114,0.66085845,0.3970192,0.86786604,-0.26216808,-1.6133265,-1.0889733,2.5487628,1.525891,-0.99389017,0.93510497,-0.3197534,-1.6275127,-1.0468057,2.4958787,1.4645506,-1.031206,-1.4651016,1.2614161,0.3985038,-0.9041043,0.8886555,0.474371,0.24052213,1.1504517,-0.47278214,1.8209442,-3.0664716,0.27027845,-0.42865708,0.15349579,-0.29745102,1.0544926,0.8146987,-0.19319686,0.12039447,0.53333485,0.24892205,0.47269967,-0.026064621,1.0,0.0,0.0,0.0,0.0,0.0,0.0,-1.8004516,0.07278213,-1.2709441,0.21858215,-0.51579475,-6.9885254,-2.2011757,-0.25510788,-0.016599894,0.8069545
-1.9370563,4.5805883,-2.123262,9.773897,0.7914917,-1.79917,-0.1375629,-0.81931484,0.6966042,0.12142258,-0.54965043,0.6154386,0.65468746,0.38637835,0.8531735,-0.25009298,-1.6153704,-1.1017708,2.5574226,1.5300194,-0.9925682,0.9204689,-0.3072002,-1.6242187,-1.0561231,2.5047364,1.4692866,-1.0287551,-1.4631139,1.253582,0.3063307,-0.94149715,0.88519144,0.47331098,0.24639603,1.119812,-0.47008133,1.8159244,-3.0634058,0.27000824,-0.5264145,0.15604782,-0.29306793,1.0540085,0.814284,-0.19301489,0.12398906,0.5332105,0.26258573,0.42230228,-0.060772028,1.0,0.0,0.0,0.0,0.0,0.0,0.0,-1.769812,0.07008132,-1.2659245,0.20780563,-0.6969929,-9.207762,-3.8777947,-0.31325817,-0.11140108,0.5418569
-2.4980502,2.322244,-3.2732244,8.563438,0.7629503,-1.9158077,-0.1521654,-0.8207874,0.6959259,0.06688729,-0.5926817,0.61558044,0.65399593,0.36388242,0.8383902,-0.2376076,-1.61753,-1.1153913,2.5662944,1.5346862,-0.99236685,0.90584147,-0.29471326,-1.6219337,-1.0659631,2.5135674,1.4740092,-1.0262717,-1.4624184,1.2473229,0.20252976,-0.9985687,0.88243645,0.47199255,0.24876522,1.0892029,-0.46738052,1.8099277,-3.0603428,0.2697383,-0.6240742,0.15875244,-0.28923035,1.0531338,0.8141279,-0.19224851,0.12776537,0.53283423,0.27782875,0.36555722,-0.10109631,1.0,0.0,0.0,0.0,0.0,0.0,0.0,-1.7392029,0.06738052,-1.2599277,0.13422966,-0.5461931,-10.388327,-5.8251977,-0.28482676,-0.15779734,0.19263327
-5.2985835,-2.3938017,-5.7675543,9.306235,0.95658404,-1.9793785,-0.25807074,-0.8205859,0.695371,-0.038453374,-0.60453105,0.6069423,0.6533824,0.37342831,0.82378286,-0.22517616,-1.625779,-1.1264162,2.5742617,1.5393474,-0.98892885,0.8912169,-0.28227258,-1.6209514,-1.0763429,2.5223489,1.4787184,-1.0237654,-1.4622027,1.2431701,0.06353924,-1.0516337,0.87669003,0.47029004,0.25097328,1.0586243,-0.46468735,1.8029552,-3.0572832,0.2694686,-0.72163624,0.16155243,-0.2860222,1.0518476,0.81431514,-0.19084258,0.13176405,0.53207904,0.28508988,0.29976156,-0.14234528,1.0,0.0,0.0,0.0,0.0,0.0,0.0,-1.7086242,0.06468734,-1.2529552,0.095033646,-0.34854412,-13.873678,-5.445099,-0.63478947,-0.24380088,0.15416741
-7.9435186,-7.3550835,-7.9655,10.396646,1.1927857,-1.9759786,-0.33247185,-0.81848997,0.6831093,-0.12428148,-0.6214117,0.5779501,0.6557918,0.3884384,0.8093679,-0.21396165,-1.6333796,-1.1384841,2.580144,1.5442976,-0.9849216,0.87660277,-0.26991487,-1.6214969,-1.0871958,2.530993,1.4834105,-1.0212306,-1.4607879,1.2335262,-0.0936655,-1.0971525,0.85978043,0.46860778,0.25396472,1.0280762,-0.46199417,1.7950077,-3.0542264,0.2691992,-0.81910074,0.16437149,-0.28352737,1.050152,0.8149167,-0.18878584,0.13600759,0.5308226,0.2825737,0.22733222,-0.18289469,1.0,0.0,0.0,0.0,0.0,0.0,0.0,-1.6780761,0.061994165,-1.2450078,0.233078,-0.91187954,-15.684464,-4.7100544,-1.7840028,-0.28465986,0.20321608
-9.090861,-9.197477,-8.500555,11.817824,1.3638412,-1.8726548,-0.35149905,-0.8143022,0.67273706,-0.18899643,-0.635792,0.54813576,0.6514167,0.3929726,0.7951726,-0.20264116,-1.6403966,-1.150775,2.5858066,1.5485522,-0.9819333,0.86202204,-0.2576902,-1.623574,-1.098432,2.5393891,1.4880835,-1.0186671,-1.4569184,1.2189265,-0.2456333,-1.1328933,0.8323828,0.46639168,0.2569107,0.9975586,-0.4593048,1.7860864,-3.051173,0.26893005,-0.9164678,0.16711426,-0.28173828,1.0480766,0.81594205,-0.18612316,0.14048865,0.5290175,0.272665,0.1561112,-0.21971565,1.0,0.0,0.0,0.0,0.0,0.0,0.0,-1.6475586,0.059304804,-1.2360864,0.47152042,-1.4160872,-15.152821,-3.7450314,-2.829671,-0.36852956,0.17693043
-10.687414,-12.358093,-9.830549,12.341799,1.5392736,-1.8458254,-0.383314,-0.81751406,0.66089845,-0.27851233,-0.6670101,0.53132427,0.65083164,0.3718118,0.78027064,-0.19160035,-1.6514252,-1.165133,2.5925217,1.5531666,-0.9814859,0.84746325,-0.24564594,-1.6271904,-1.1100458,2.5474877,1.4927336,-1.0160922,-1.4551952,1.1996872,-0.4000328,-1.1715806,0.80185455,0.4639973,0.2572048,0.96707153,-0.45661926,1.7761922,-3.0481224,0.26866117,-1.0137376,0.16970062,-0.28069305,1.0456295,0.8174067,-0.182861,0.14518169,0.5266215,0.2556068,0.081370875,-0.25674203,1.0,0.0,0.0,0.0,0.0,0.0,0.0,-1.6170715,0.056619257,-1.2261922,0.27897358,-1.8939495,-15.392476,-4.038739,-3.1697392,-0.42439103,-0.10603666
-10.831885,-11.8065605,-9.296189,13.843539,1.6426153,-1.6795967,-0.37048274,-0.81885946,0.6513467,-0.33394596,-0.6763614,0.49807355,0.64819276,0.37296426,0.7655773,-0.18051127,-1.6605849,-1.1776819,2.597295,1.5575528,-0.97879577,0.8329035,-0.2338044,-1.6322048,-1.1219915,2.5552354,1.4973589,-1.0135173,-1.4560875,1.1790472,-0.5349173,-1.2027835,0.765129,0.46135473,0.2571202,0.936615,-0.45393372,1.7653259,-3.045075,0.26839256,-1.11091,0.1721077,-0.28034973,1.0428449,0.819285,-0.17905264,0.15005529,0.52363694,0.23336051,0.013097134,-0.28898314,1.0,0.0,0.0,0.0,0.0,0.0,0.0,-1.586615,0.05393371,-1.2153258,-0.04403591,-2.042222,-13.386202,-3.2993555,-3.7752628,-0.4764676,-0.15799403
-10.619548,-11.534783,-8.62785,14.911762,1.7609522,-1.5218625,-0.32692504,-0.8205231,0.6318634,-0.3748108,-0.6932707,0.4754031,0.64686924,0.36243704,0.7508512,-0.17061806,-1.6696858,-1.1913186,2.6027758,1.5620458,-0.9772736,0.81831896,-0.22221369,-1.6383522,-1.1342291,2.5626092,1.5019594,-1.0109519,-1.4593347,1.1524645,-0.6410307,-1.2313269,0.72788006,0.45875633,0.25581267,0.90618896,-0.45125198,1.7534887,-3.0420306,0.26812422,-1.2079854,0.17425537,-0.28064346,1.0397625,0.8215175,-0.17476788,0.15504175,0.5201222,0.20661989,-0.049322776,-0.3175656,1.0,0.0,0.0,0.0,0.0,0.0,0.0,-1.556189,0.051251978,-1.2034886,-0.3350973,-2.644086,-10.465717,-3.032446,-3.8081527,-0.4883647,-0.28597116
-10.316462,-11.77287,-8.145292,15.528621,1.8281295,-1.4031354,-0.27857858,-0.814013,0.60693634,-0.41648006,-0.7100964,0.43122616,0.6389768,0.34758663,0.7369177,-0.16152005,-1.6800002,-1.2052387,2.6057317,1.5658572,-0.9761932,0.80373156,-0.2109527,-1.6453884,-1.1467432,2.569552,1.5065295,-1.0084113,-1.4586413,1.1173271,-0.72421587,-1.2586814,0.682996,0.4556652,0.25301212,0.87579346,-0.44857407,1.7406814,-3.038989,0.26785615,-1.3049637,0.1761322,-0.2815323,1.036408,0.8240432,-0.17005734,0.16007839,0.5161475,0.17718822,-0.10711973,-0.34408218,1.0,0.0,0.0,0.0,0.0,0.0,0.0,-1.5257934,0.04857406,-1.1906815,0.042033195,-3.5062313,-8.169174,-2.9047012,-4.552126,-0.5444586,-0.44033527
-9.177278,-9.357832,-6.589533,16.742058,1.8606051,-1.2182214,-0.22573066,-0.8170743,0.5913245,-0.43212456,-0.7171675,0.40999672,0.63312566,0.32554567,0.72202414,-0.15182024,-1.6886008,-1.21846,2.6105516,1.569842,-0.9758567,0.7891375,-0.20005053,-1.6530292,-1.1594881,2.5760636,1.511067,-1.0059127,-1.4601189,1.0811716,-0.77660954,-1.2802763,0.6404013,0.45228323,0.24821725,0.84542847,-0.44589615,1.7269051,-3.0359507,0.26758835,-1.401845,0.17770004,-0.28292847,1.0328225,0.8267915,-0.16499583,0.16510023,0.51179475,0.14670545,-0.15507858,-0.36563328,1.0,0.0,0.0,0.0,0.0,0.0,0.0,-1.4954284,0.045896143,-1.1769052,-0.28846264,-3.6117315,-4.9983144,-2.332282,-4.293084,-0.58045983,-0.6358862
-8.393991,-7.7388387,-5.7619743,16.99218,1.845803,-1.1346357,-0.19997329,-0.8182678,0.5774182,-0.4627113,-0.7388431,0.39547962,0.6280149,0.28191558,0.7073107,-0.14230871,-1.6993003,-1.2333724,2.6156116,1.5738685,-0.9777211,0.77452147,-0.18948883,-1.6611011,-1.1724771,2.5821977,1.5155684,-1.0034922,-1.4627494,1.0478411,-0.81651986,-1.3056773,0.60411227,0.44869545,0.23952185,0.815094,-0.44322205,1.7121607,-3.0329154,0.2673208,-1.4986295,0.17898178,-0.28476715,1.0290275,0.82972145,-0.15961616,0.17005855,0.50711435,0.11688131,-0.19810817,-0.3862339,1.0,0.0,0.0,0.0,0.0,0.0,0.0,-1.465094,0.04322204,-1.1621606,-0.45523643,-3.331542,-3.700316,-2.7068377,-3.6591291,-0.614655,-1.0175914
-8.566277,-8.735113,-5.8845406,17.440498,1.9353857,-1.0611203,-0.1747712,-0.81620026,0.54675984,-0.47915652,-0.7499426,0.3604498,0.6161827,0.27598965,0.69290143,-0.13481285,-1.7090168,-1.2474713,2.6182427,1.5771866,-0.97589326,0.75988925,-0.17931026,-1.6694896,-1.1857103,2.587954,1.5200297,-1.0011595,-1.4641529,1.0078205,-0.84526384,-1.3298742,0.5659157,0.44428605,0.23081805,0.78479004,-0.44055176,1.6964493,-3.029883,0.26705354,-1.5953171,0.17994308,-0.28702545,1.0250337,0.83280236,-0.15393801,0.17490889,0.5021455,0.08382568,-0.23929529,-0.40563777,1.0,0.0,0.0,0.0,0.0,0.0,0.0,-1.43479,0.04055175,-1.1464493,-0.36330223,-4.0091753,-2.5546312,-2.5802374,-3.847134,-0.70739985,-1.0216713
-7.10813,-4.80203,-4.1389503,18.769592,1.9306633,-0.8972221,-0.15542805,-0.8160803,0.54385424,-0.48649812,-0.7493147,0.37165442,0.6131183,0.24570549,0.6782812,-0.12492484,-1.7181394,-1.2606418,2.6251194,1.5813415,-0.976589,0.74524176,-0.16945618,-1.6780803,-1.1991209,2.5934434,1.5244471,-0.998927,-1.466237,0.9778942,-0.86208713,-1.3452965,0.5429584,0.4399704,0.22032656,0.7545166,-0.43788147,1.6797715,-3.0268538,0.26678655,-1.6919081,0.18059158,-0.28961945,1.0208869,0.8359992,-0.14802392,0.17960207,0.49692786,0.05188773,-0.27036563,-0.41936484,1.0,0.0,0.0,0.0,0.0,0.0,0.0,-1.4045166,0.037881464,-1.1297715,-0.58460236,-3.000307,-1.2194276,-1.719141,-2.305305,-0.7100582,-1.1884958
-7.354871,-4.7955413,-4.3728423,19.225243,2.0012581,-0.85660803,-0.18399116,-0.8185998,0.52838635,-0.5127598,-0.76191,0.3684723,0.5934147,0.18328556,0.66338176,-0.116617545,-1.7293563,-1.2753118,2.6302905,1.5837885,-0.98059845,0.73056185,-0.1598739,-1.6868751,-1.2126802,2.5987725,1.5288111,-0.99683654,-1.469909,0.9516315,-0.8835096,-1.3600774,0.5291494,0.43398753,0.20484446,0.7242737,-0.435215,1.6621287,-3.0238276,0.2665198,-1.7884026,0.18089676,-0.29252625,1.0166115,0.83931875,-0.14189656,0.18410173,0.49144256,0.017609747,-0.30031526,-0.43176097,1.0,0.0,0.0,0.0,0.0,0.0,0.0,-1.3742737,0.03521499,-1.1121287,-0.80235004,-2.6418328,-1.60501,-1.6582966,-1.4059067,-0.9036064,-1.6877085
-11.201622,-14.475487,-8.465209,18.782635,2.4464786,-0.94596833,-0.21680956,-0.8138747,0.46621236,-0.5456556,-0.7791064,0.35099638,0.5835296,0.17552419,0.6491744,-0.11325267,-1.7414407,-1.2905909,2.6338723,1.587164,-0.9792841,0.7158791,-0.15076178,-1.6959903,-1.2264189,2.6039643,1.5331084,-0.99489677,-1.4686856,0.89757794,-0.91949826,-1.3791404,0.51540685,0.4272158,0.18979278,0.6940613,-0.43255234,1.6435217,-3.0208042,0.26625335,-1.8848004,0.18074799,-0.29584122,1.0121872,0.84280115,-0.1355088,0.18830265,0.48565987,-0.033401515,-0.34442872,-0.4473292,1.0,0.0,0.0,0.0,0.0,0.0,0.0,-1.3440613,0.03255233,-1.0935216,-0.17294884,-5.4497957,-3.1688452,-2.0608425,-1.4413834,-1.0250092,-1.6670972
-8.586712,-9.865852,-5.8287454,19.344751,2.2012854,-0.75753194,-0.11456841,-0.8115978,0.45347282,-0.5072599,-0.7826247,0.29444563,0.58793575,0.2140407,0.6347193,-0.105414495,-1.7467163,-1.3046813,2.6334088,1.5919019,-0.9734927,0.701223,-0.14217824,-1.7052276,-1.2403253,2.6088815,1.5373484,-0.99306285,-1.466068,0.84514534,-0.92353934,-1.395083,0.4839392,0.42198443,0.18072133,0.6638794,-0.42988968,1.6239514,-3.017784,0.26598716,-1.981102,0.18015671,-0.2994957,1.0076236,0.8463755,-0.12890255,0.19222057,0.47967052,-0.07601215,-0.3746729,-0.46055,1.0,0.0,0.0,0.0,0.0,0.0,0.0,-1.3138794,0.029889673,-1.0739515,-0.15096664,-5.2807093,0.10789633,-1.7377615,-3.1725168,-0.8371532,-1.0586321
-8.819284,-9.998827,-5.992252,20.132902,2.2490473,-0.6667314,-0.111231014,-0.8119901,0.42619014,-0.5270406,-0.78179425,0.27357396,0.58854216,0.2376251,0.620024,-0.09955922,-1.7579317,-1.3185048,2.6362388,1.5962026,-0.9693003,0.6865879,-0.13412398,-1.7145126,-1.2543405,2.6134515,1.5415446,-0.9912871,-1.4642521,0.79202116,-0.9280299,-1.404215,0.44790107,0.41767052,0.1760643,0.6337242,-0.42723465,1.6034187,-3.014767,0.2657212,-2.077307,0.1791153,-0.30343628,1.0029434,0.8500041,-0.12212342,0.19588248,0.47350714,-0.12073197,-0.40141252,-0.47147748,1.0,0.0,0.0,0.0,0.0,0.0,0.0,-1.2837242,0.027234644,-1.0534186,-0.29785633,-5.3595424,0.13433695,-1.0551691,-3.6360085,-0.7542491,-0.6245941
-12.656896,-18.265394,-9.941712,19.965714,2.6609142,-0.7363461,-0.17560545,-0.81065917,0.36345795,-0.56644744,-0.79316103,0.25882298,0.58362335,0.20172672,0.60552204,-0.097778186,-1.7711574,-1.3336567,2.6393337,1.5999069,-0.97111446,0.67197573,-0.1267578,-1.7239978,-1.2684568,2.6176744,1.5456969,-0.98957336,-1.4613403,0.7178865,-0.953733,-1.414329,0.41315615,0.41314527,0.16909994,0.60359573,-0.42457962,1.5819247,-3.0117526,0.26545554,-2.173416,0.17751312,-0.3077278,0.9981382,0.85373336,-0.11514303,0.19921798,0.46711192,-0.18209973,-0.43942586,-0.484293,1.0,0.0,0.0,0.0,0.0,0.0,0.0,-1.2535957,0.024579614,-1.0319247,-0.069499016,-7.4910164,-2.0709157,-1.1287212,-3.5562158,-0.8283973,-0.8772403
-13.506362,-20.684008,-10.801723,20.244177,2.7421324,-0.6658305,-0.14522335,-0.8120981,0.31219578,-0.554416,-0.79438233,0.19212627,0.5783199,0.24906403,0.59076595,-0.09553822,-1.7794394,-1.347895,2.636887,1.6035289,-0.96466696,0.65738165,-0.120235085,-1.7336719,-1.2826475,2.6214204,1.5498034,-0.9878882,-1.4598035,0.6300899,-0.9705434,-1.4211084,0.36141846,0.40872818,0.1676202,0.5734978,-0.4219246,1.5594703,-3.0087416,0.26519012,-2.2694287,0.175251,-0.3123932,0.9932063,0.85755587,-0.1079613,0.20221072,0.46049207,-0.24805382,-0.4757602,-0.4968798,1.0,0.0,0.0,0.0,0.0,0.0,0.0,-1.2234977,0.021924585,-1.0094702,-0.18234253,-8.872164,-1.2096167,-0.7661104,-5.2585006,-0.81638694,-0.33807456
-18.199886,-33.181244,-15.619648,19.728664,3.2903416,-0.71536946,-0.118698955,-0.81363016,0.19241719,-0.54628336,-0.79912907,0.12457107,0.58245796,0.28878033,0.57601863,-0.100993365,-1.7883003,-1.3625604,2.6338775,1.6080492,-0.9590102,0.64280283,-0.11497307,-1.7434375,-1.2968992,2.624518,1.5538737,-0.9861821,-1.4576578,0.49114236,-0.97764957,-1.4266244,0.29219764,0.4050895,0.17083734,0.5434303,-0.4192772,1.5360565,-3.0057335,0.264925,-2.3653455,0.17218018,-0.31752396,0.9881261,0.8614651,-0.10056542,0.20473482,0.45370477,-0.3361778,-0.5245117,-0.5122562,1.0,0.0,0.0,0.0,0.0,0.0,0.0,-1.1934303,0.019277185,-0.9860565,0.11398792,-14.024657,-0.47615767,-0.57070255,-7.0245085,-0.76470375,0.11480451
-21.552738,-42.192577,-19.024643,19.408646,3.6395996,-0.711397,-0.08000447,-0.8113847,0.07908464,-0.53979355,-0.7976714,0.027948912,0.5832371,0.34005657,0.56166434,-0.107064605,-1.7974169,-1.3766663,2.627313,1.6121974,-0.95217645,0.6282631,-0.11141181,-1.7532051,-1.3111757,2.6267343,1.5579115,-0.9844035,-1.4522536,0.3105774,-0.976721,-1.4278415,0.1975884,0.4020505,0.17952551,0.5133934,-0.4166298,1.5116843,-3.0027282,0.26466012,-2.4611664,0.16809845,-0.32320404,0.98287535,0.8654474,-0.09294736,0.20668304,0.44681492,-0.44000316,-0.5790801,-0.52996016,1.0,0.0,0.0,0.0,0.0,0.0,0.0,-1.1633934,0.016629785,-0.9616843,0.68712234,-18.217396,0.06685257,-0.062561035,-9.57151,-0.7180989,0.65375566
-37.009766,-83.4279,-34.888504,16.345682,5.3686,-1.0988209,-0.022988588,-0.80270725,-0.2605241,-0.50266784,-0.8035577,-0.14414501,0.59026104,0.3891088,0.5479924,-0.13746423,-1.8034718,-1.3915315,2.6123197,1.6169376,-0.9454926,0.6138569,-0.11092234,-1.7628105,-1.3254637,2.6276193,1.5619208,-0.9825038,-1.43346,-0.039139852,-0.95818025,-1.4282539,0.05199276,0.3988147,0.19261163,0.483387,-0.4139824,1.4863546,-2.9997263,0.26439553,-2.5568914,0.16245651,-0.3297844,0.9773494,0.86954194,-0.08502821,0.20759745,0.43996602,-0.61488444,-0.6806609,-0.56066525,1.0,0.0,0.0,0.0,0.0,0.0,0.0,-1.133387,0.013982385,-0.9363546,2.8742313,-35.235302,0.95142126,0.25246143,-14.69948,-0.88002086,1.0701716
-35.19059,-89.72676,-33.348927,14.454162,5.350831,-0.9067821,0.3535792,-0.7688263,-0.49454215,-0.3288481,-0.80288696,-0.32570696,0.6071382,0.46641973,0.5369743,-0.16037655,-1.7956953,-1.4057523,2.5950487,1.6226345,-0.9358618,0.5998055,-0.11458051,-1.7714412,-1.3397363,2.626696,1.5659186,-0.98041713,-1.391182,-0.47559452,-0.8363453,-1.4253486,-0.14029029,0.39852655,0.21365383,0.4534111,-0.41134262,1.4600683,-2.9967272,0.2641312,-2.652521,0.15507507,-0.33732224,0.9714658,0.8735743,-0.0768817,0.20714243,0.43364632,-0.78886837,-0.773085,-0.5987019,1.0,0.0,0.0,0.0,0.0,0.0,0.0,-1.1034111,0.011342615,-0.91006833,5.588269,-43.910503,10.744357,0.786829,-19.238531,-0.5070567,1.9876927
-22.292925,-71.32824,-20.81631,12.724434,4.2505054,-0.50632375,0.80631924,-0.6975203,-0.6690674,-0.15380558,-0.8169881,-0.39628446,0.5710753,0.46894813,0.53005344,-0.18148726,-1.7868217,-1.4214351,2.5870676,1.6230261,-0.93352234,0.58647025,-0.12261152,-1.7780826,-1.3540415,2.6239266,1.5698992,-0.97811973,-1.3101081,-0.91293824,-0.6117712,-1.4303302,-0.32202563,0.3969634,0.23530236,0.42346573,-0.40870285,1.4328265,-2.993731,0.2638671,-2.7480547,0.14630127,-0.34554672,0.9651761,0.8772424,-0.06868146,0.20517519,0.42852268,-0.9138318,-0.83053833,-0.6412394,1.0,0.0,0.0,0.0,0.0,0.0,0.0,-1.0734657,0.008702844,-0.8828265,9.35564,-43.93352,20.925676,0.05016327,-18.028631,-0.44360757,2.2558928
-8.331105,-39.984787,-6.7607083,13.07356,2.8926349,-0.10714829,0.9285388,-0.6276016,-0.74036396,-0.118571326,-0.82367265,-0.3472895,0.51598036,0.4486787,0.5237101,-0.19664791,-1.7899398,-1.4364088,2.5891976,1.6214973,-0.93325186,0.5741669,-0.13425773,-1.7825592,-1.3684343,2.6198678,1.5738341,-0.97563446,-1.2004311,-1.2489219,-0.39744225,-1.4409363,-0.43328154,0.39213142,0.25365162,0.39355087,-0.40606308,1.4046301,-2.990738,0.2636033,-2.8434932,0.13671112,-0.35407257,0.9584966,0.8803873,-0.060573895,0.20178914,0.42488837,-0.97976595,-0.84925616,-0.68047434,1.0,0.0,0.0,0.0,0.0,0.0,0.0,-1.0435508,0.006063074,-0.85463005,11.94725,-33.724594,20.091677,-0.60408115,-10.949141,-0.5636096,2.0690532
-4.9626484,-19.38038,-2.708769,14.781553,2.2373745,0.0061816573,0.57900155,-0.58081746,-0.7761813,-0.24707878,-0.82115287,-0.31469926,0.49219698,0.44693738,0.51608515,-0.21187586,-1.8072671,-1.4505496,2.588398,1.6230538,-0.93094075,0.56299174,-0.14828247,-1.7860134,-1.3829168,2.6151757,1.5777098,-0.9729909,-1.086563,-1.4540309,-0.3321284,-1.4491422,-0.48096317,0.38621998,0.26865372,0.36366653,-0.40343094,1.3754799,-2.987748,0.26333973,-2.9388359,0.12661362,-0.36267853,0.9514588,0.8831347,-0.052538022,0.19732532,0.42234504,-1.0237535,-0.85332876,-0.7160635,1.0,0.0,0.0,0.0,0.0,0.0,0.0,-1.0136665,0.0034309328,-0.8254799,12.369704,-20.618034,5.2862287,-0.3954172,-4.7012568,-0.5659044,1.7229319
-6.8381853,-6.880976,-3.458086,17.063646,2.1678782,0.029781878,0.1122437,-0.5630248,-0.79136163,-0.3705216,-0.8174886,-0.22116718,0.47369424,0.44090697,0.50668925,-0.22741863,-1.8230655,-1.4646657,2.593059,1.6250793,-0.9289002,0.552776,-0.1634807,-1.7899616,-1.3974394,2.6105523,1.5815207,-0.9702252,-0.9959683,-1.5421578,-0.41992247,-1.4517373,-0.45648393,0.37965706,0.2797967,0.3338127,-0.4007988,1.3453771,-2.9847608,0.26307645,-3.0340834,0.11605072,-0.37130356,0.94410646,0.8857553,-0.044468172,0.19209787,0.42018864,-1.0701541,-0.85400087,-0.7470672,1.0,0.0,0.0,0.0,0.0,0.0,0.0,-0.9838127,0.00079879165,-0.7953771,10.217369,-8.92725,-10.043394,0.1904726,2.3839295,-0.57542324,1.2813032
-5.494732,5.4115553,-1.3626425,18.220789,1.6507945,0.116444945,-0.13792384,-0.51009214,-0.7987837,-0.4443209,-0.8130076,-0.26924816,0.4530376,0.39676535,0.50176674,-0.24335907,-1.8343936,-1.4787401,2.5836275,1.6268244,-0.93054867,0.5434147,-0.17897052,-1.7953937,-1.4119447,2.6061578,1.585261,-0.9674014,-0.9126406,-1.5516201,-0.5878627,-1.4486743,-0.43414748,0.37253922,0.28357595,0.3039894,-0.39817047,1.3143225,-2.9817765,0.26281342,-3.1292357,0.105106354,-0.37987518,0.93645847,0.8884029,-0.0362688,0.18649137,0.4179063,-1.1025461,-0.8455259,-0.7768309,1.0,0.0,0.0,0.0,0.0,0.0,0.0,-0.9539894,-0.0018295348,-0.76432246,9.4076395,-1.0555744,-17.884605,0.7282257,2.1084428,-0.56306124,0.47279
-4.1592503,12.70919,0.59764767,18.701029,1.173661,0.2313444,-0.2315592,-0.48162106,-0.80906326,-0.49299812,-0.8072741,-0.35542923,0.45820162,0.36483863,0.4952526,-0.25987685,-1.8446935,-1.4926722,2.5706148,1.6310811,-0.9309175,0.5347649,-0.19429511,-1.8025978,-1.4263853,2.6017137,1.5889403,-0.96457946,-0.84580815,-1.5264405,-0.76779366,-1.4410686,-0.44848722,0.367032,0.28182593,0.27419662,-0.39554596,1.282317,-2.9787953,0.26255068,-3.2242928,0.09394455,-0.3882904,0.92851734,0.891109,-0.027886555,0.1808674,0.41525173,-1.1217619,-0.8286643,-0.8065958,1.0,0.0,0.0,0.0,0.0,0.0,0.0,-0.9241966,-0.0044540465,-0.73231703,7.690382,2.408266,-18.973267,1.1384726,-1.586473,-0.3838539,-0.14461279
-3.714848,15.459946,1.6227612,18.722641,0.9746902,0.32286835,-0.24643046,-0.47109342,-0.816087,-0.5369666,-0.8060823,-0.39294595,0.44493818,0.308943,0.48765555,-0.27590382,-1.8562944,-1.5069935,2.5624192,1.633434,-0.9336852,0.5266062,-0.20932454,-1.8114154,-1.4407476,2.5969644,1.5925604,-0.96182525,-0.80257547,-1.4955276,-0.92283064,-1.4336135,-0.48436615,0.3609802,0.2733737,0.24443436,-0.39292145,1.2493618,-2.9758172,0.26228818,-3.3192549,0.08262253,-0.39651108,0.9202812,0.8938641,-0.019300874,0.17540409,0.41215008,-1.135787,-0.80718803,-0.8365117,1.0,0.0,0.0,0.0,0.0,0.0,0.0,-0.89443433,-0.007078558,-0.69936174,5.3061485,2.973771,-16.44417,1.0942459,-3.7537217,-0.45933723,-0.8473456
-1.0051858,19.152418,4.736205,18.481895,0.77141935,0.4843642,-0.12373963,-0.4567818,-0.8205145,-0.53607345,-0.8061285,-0.3979667,0.44719508,0.27804664,0.48092803,-0.291376,-1.8650228,-1.5213605,2.5571678,1.6372799,-0.9340206,0.51875556,-0.22410887,-1.8213108,-1.4550565,2.5918527,1.596131,-0.9591769,-0.77634865,-1.473092,-1.0145254,-1.428946,-0.520599,0.35614172,0.26204765,0.21469498,-0.39030075,1.2154576,-2.972842,0.26202595,-3.414122,0.07123566,-0.4044571,0.9117638,0.8965994,-0.010562,0.17008582,0.4087404,-1.1395935,-0.7779611,-0.86416274,1.0,0.0,0.0,0.0,0.0,0.0,0.0,-0.86469495,-0.009699255,-0.66545755,3.5029173,2.1337748,-10.036671,0.7669687,-3.7639976,-0.32515526,-1.1187077
-0.9190867,19.112007,5.368229,18.536362,0.7937155,0.5766229,-0.08903018,-0.45663145,-0.8265982,-0.56293774,-0.79952407,-0.4291954,0.43155068,0.18953282,0.4730924,-0.30676872,-1.8776045,-1.5350089,2.548933,1.639286,-0.94022363,0.51103747,-0.23877472,-1.8318222,-1.4693083,2.586348,1.5996462,-0.9567002,-0.7675884,-1.4648167,-1.0663098,-1.4229417,-0.5606602,0.35047975,0.24292901,0.18498611,-0.38768387,1.1806054,-2.9698696,0.261764,-3.5088944,0.059818268,-0.41208267,0.902984,0.899277,-0.0017245854,0.16485322,0.40511873,-1.1431313,-0.7464212,-0.89000237,1.0,0.0,0.0,0.0,0.0,0.0,0.0,-0.8349861,-0.012316138,-0.6306054,1.7210484,0.7152319,-6.025648,0.89542866,-4.1359544,-0.41645765,-1.8882692
-1.5083419,18.743591,5.3925695,18.470703,0.9437842,0.6376455,-0.069621116,-0.46891427,-0.8283394,-0.5779605,-0.8065547,-0.40877432,0.43236238,0.12316787,0.46414605,-0.32160866,-1.8896182,-1.5499637,2.5454707,1.6428825,-0.94438344,0.5032679,-0.25343078,-1.8426406,-1.4835466,2.580584,1.603108,-0.9544524,-0.77727735,-1.4662722,-1.0898685,-1.4231263,-0.5823986,0.34531888,0.21888669,0.15530777,-0.385067,1.1447984,-2.9669003,0.26150227,-3.6046374,0.04832077,-0.41939926,0.8939447,0.901896,0.007180741,0.15957925,0.40133077,-1.1508212,-0.71447945,-0.9158999,1.0,0.0,0.0,0.0,0.0,0.0,0.0,-0.80530775,-0.01493302,-0.5947984,-0.12164116,-0.26419163,-3.2150269,0.2841711,-2.3037434,-0.39400458,-2.3586602
-2.4210358,18.338778,5.117503,18.476015,1.0804385,0.70093536,-0.07785439,-0.4806198,-0.8323221,-0.59033227,-0.80550766,-0.403624,0.42292222,0.05288933,0.45520592,-0.336663,-1.9016739,-1.5640974,2.5402217,1.6454003,-0.94916344,0.4953109,-0.26815122,-1.8535907,-1.4977964,2.574698,1.6065184,-0.95247924,-0.7990485,-1.4744107,-1.099516,-1.4245487,-0.5910843,0.33980587,0.19038375,0.12565994,-0.38245392,1.1080346,-2.9639342,0.26124084,-3.7002847,0.036720276,-0.42639923,0.88465136,0.90446776,0.016125122,0.15415585,0.39738387,-1.1630692,-0.6819994,-0.94106793,1.0,0.0,0.0,0.0,0.0,0.0,0.0,-0.7756599,-0.017546088,-0.5580346,-1.3414979,-0.9370804,-1.8167973,0.17158985,-0.9993434,-0.447762,-2.7893364
-5.101534,17.340225,3.563628,19.142756,1.3339944,0.78940916,-0.16723469,-0.517729,-0.83240765,-0.6071507,-0.80092037,-0.3946144,0.42106566,-0.0489171,0.443538,-0.351392,-1.9143058,-1.5778885,2.5352366,1.6486249,-0.95737094,0.48697913,-0.28295702,-1.8646362,-1.5120405,2.568808,1.6098753,-0.95084274,-0.8415499,-1.4830828,-1.109426,-1.4232414,-0.5890676,0.33464664,0.15493478,0.09604263,-0.37984467,1.070315,-2.9609709,0.26097965,-3.7958362,0.024909973,-0.4330597,0.87511826,0.9070404,0.025090314,0.14851475,0.3931813,-1.1857533,-0.64871144,-0.9645438,1.0,0.0,0.0,0.0,0.0,0.0,0.0,-0.7460426,-0.02015534,-0.520315,-3.347671,-1.0042906,-1.8936872,0.4776001,0.054895878,-0.43353438,-3.482163
-8.290012,16.216957,1.7154684,20.010248,1.6373777,0.8932013,-0.2758646,-0.56203866,-0.83598584,-0.6200591,-0.79468894,-0.3717808,0.41286156,-0.17219685,0.43077525,-0.3665556,-1.9266421,-1.5915093,2.53163,1.6511614,-0.9680624,0.47806752,-0.29785007,-1.8758113,-1.5262369,2.5630288,1.6131788,-0.94962394,-0.9045104,-1.4918993,-1.1232806,-1.4172425,-0.5746616,0.32917738,0.11105861,0.06645584,-0.3772354,1.0316406,-2.9580104,0.2607187,-3.8912923,0.012775421,-0.43938446,0.8653649,0.9096797,0.03405544,0.1426001,0.38857216,-1.2209343,-0.61402136,-0.98591876,1.0,0.0,0.0,0.0,0.0,0.0,0.0,-0.7164558,-0.022764593,-0.48164064,-5.3254247,-1.0348558,-2.337122,0.98633766,1.2782812,-0.4860282,-4.321912
-9.706143,17.568249,1.5104651,20.596954,1.6814839,1.0518508,-0.32629168,-0.6032314,-0.8341725,-0.62369055,-0.78864616,-0.38422316,0.43816665,-0.24297851,0.41774437,-0.3812673,-1.9381804,-1.6051015,2.5246065,1.6569955,-0.9739218,0.4684316,-0.31280082,-1.8871162,-1.5403475,2.5573564,1.6164519,-0.94886196,-0.98002,-1.4966593,-1.1360611,-1.4075228,-0.56521255,0.3269981,0.06481165,0.036899567,-0.37462997,0.99201244,-2.9550529,0.26045805,-3.986653,0.0002708435,-0.44532776,0.85541356,0.9124127,0.042992212,0.1364306,0.38345978,-1.2590446,-0.57420796,-1.0050184,1.0,0.0,0.0,0.0,0.0,0.0,0.0,-0.68689954,-0.025370032,-0.44201243,-6.57202,-0.63562393,-2.2295952,1.3728619,0.77483654,-0.15637875,-4.5637517
-9.115398,21.229868,3.05219,20.962551,1.5138161,1.2438326,-0.3229354,-0.63743687,-0.8276841,-0.6216188,-0.77939194,-0.40772912,0.48423755,-0.30289325,0.4046879,-0.39556924,-1.9492781,-1.6182866,2.5165834,1.6648756,-0.9791513,0.4580294,-0.32774538,-1.8985031,-1.5543302,2.551684,1.6197459,-0.9485625,-1.0572467,-1.4942625,-1.1423818,-1.3938576,-0.5681944,0.3304141,0.018407913,0.00737381,-0.37202835,0.9514314,-2.9520986,0.26019764,-4.081918,-0.012573242,-0.45083237,0.8452981,0.91522163,0.051852737,0.13009657,0.37783003,-1.2909164,-0.5271399,-1.0203862,1.0,0.0,0.0,0.0,0.0,0.0,0.0,-0.6573738,-0.027971655,-0.40143138,-6.806612,0.084900856,-1.5217066,1.7504692,-0.46067238,0.42676926,-4.5856433
-8.324413,23.150982,4.1311855,20.39222,1.3376945,1.3044579,-0.29058737,-0.6578251,-0.83131623,-0.6367063,-0.7749676,-0.430268,0.48628664,-0.35228494,0.39224687,-0.410877,-1.9621737,-1.631827,2.5086572,1.6683745,-0.983791,0.4469434,-0.34266752,-1.9099834,-1.5681776,2.5458932,1.623078,-0.948717,-1.123016,-1.4920626,-1.1525266,-1.3805715,-0.583115,0.33444366,-0.026527572,-0.022125244,-0.36942673,0.9098984,-2.9491472,0.2599375,-4.177088,-0.025691986,-0.45584488,0.8350247,0.9180732,0.060630757,0.12366657,0.37171504,-1.3167291,-0.47788852,-1.0361221,1.0,0.0,0.0,0.0,0.0,0.0,0.0,-0.62787473,-0.030573279,-0.3598984,-5.775571,0.070643425,-1.7981529,1.698637,-1.6475081,0.48611164,-4.442432
-8.007691,24.586151,4.7744617,20.02869,1.3090748,1.3462621,-0.27595,-0.680733,-0.83003384,-0.6563263,-0.7658639,-0.41004997,0.4879476,-0.40620914,0.3788701,-0.42567092,-1.975616,-1.644764,2.5048883,1.6718727,-0.9893379,0.43528855,-0.35756344,-1.9216316,-1.5818838,2.5400147,1.6264502,-0.94931114,-1.1772891,-1.4892563,-1.1710594,-1.3661642,-0.5899191,0.3382095,-0.07026838,-0.051597595,-0.36682892,0.8674144,-2.9461987,0.25967762,-4.2721624,-0.03905487,-0.46035385,0.8245957,0.9209489,0.06932503,0.11712933,0.36514062,-1.3407466,-0.42786366,-1.0513659,0.0,1.0,0.0,0.0,0.0,0.0,0.0,-0.5984024,-0.033171088,-0.3174144,-4.726124,0.13353825,-2.537179,1.8012524,-0.8327842,0.4460454,-4.316106
-7.194503,25.9638,5.79272,19.540512,1.205293,1.4007074,-0.22904737,-0.7016439,-0.8342357,-0.6611875,-0.7553106,-0.42320248,0.5037651,-0.42856523,0.36512417,-0.44098702,-1.9877503,-1.6574148,2.4976945,1.6768267,-0.99216765,0.42380208,-0.3724841,-1.9346986,-1.5962346,2.5352159,1.6356939,-0.95002645,-1.14089,-1.4934775,-1.3461661,-1.4507507,-0.45654818,1.0720304,-0.078483924,-0.06642151,-0.3672943,0.8697559,-1.1461552,-0.095019415,1.4284781,-0.052970886,-0.46364975,0.813662,0.92384344,0.07558593,0.110493496,0.35859603,-1.4014822,-0.2858507,-1.1103938,0.0,1.0,0.0,0.0,0.0,0.0,0.0,-0.58357847,-0.032705694,-0.3197559,-3.61197,-0.25696754,-3.0110836,2.3051977,-0.4020095,-0.15552044,-2.4806528
84.693665,176.0,110.0,110.0,-4.203032,10.554738,-0.17464232,-0.7856023,0.16292906,0.6742773,0.76395464,-0.5305439,0.63428766,-0.47848213,0.34524184,-0.3561912,-1.8672708,-1.519839,2.4821615,1.6991227,-0.9978747,0.41719645,-0.3865713,-1.9460626,-1.6007931,2.5257134,1.6520113,-0.95228285,-0.5092133,-1.3792403,-1.055352,-0.12849632,-1.1123039,1.8308747,-0.27681795,-0.077877045,-0.36824036,0.8832856,-1.1450093,-0.09492441,1.3277988,-0.06428146,-0.4645462,0.8066719,0.9263279,0.07415198,0.10896597,0.35290846,-1.034978,-0.008131078,-0.56583095,1.0,0.0,0.0,0.0,0.0,0.0,0.0,-0.57212293,-0.03175965,-0.33328557,60.544563,11.794138,32.348465,130.9041,-64.80009,79.69405,-20.476337
33.696144,153.04057,76.811485,107.13933,0.96145487,6.8397202,-0.47784343,-0.7715276,-0.50121915,0.2887317,0.787196,-0.68995583,0.6535605,-0.26487553,0.3400437,-0.4366932,-1.9171894,-1.5220735,2.456718,1.7173673,-0.9787704,0.41154832,-0.39880407,-1.9518456,-1.5946267,2.5134912,1.6699709,-0.9551744,-0.5802906,-1.1718038,-0.41994545,0.8648371,-1.2610432,1.7933241,-0.29354233,-0.08931732,-0.3691864,0.8958092,-1.1438645,-0.09482951,1.2272202,-0.07337952,-0.46339417,0.8047937,0.928626,0.066433564,0.111647464,0.34752703,-0.8640847,0.16315076,-0.06702233,1.0,0.0,0.0,0.0,0.0,0.0,0.0,-0.56068265,-0.030813605,-0.34580916,-6.198466,20.590187,63.2981,99.23936,-15.59124,-1.092124,-1.7571688
11.297286,123.366325,51.848103,82.87438,1.7393239,4.6110005,-0.49935734,-0.72818303,-0.41165638,0.16880162,0.73385817,-0.70651495,0.63778794,0.18265146,0.33873,-0.43996972,-1.9349655,-1.5212408,2.4428396,1.7337496,-0.93690926,0.404144,-0.40876567,-1.9523339,-1.5813286,2.5007234,1.6867536,-0.9577274,-0.78857994,-0.93843025,0.07038796,1.4860015,-1.2843839,1.6455606,-0.24230628,-0.10074997,-0.37013245,0.9073248,-1.1427208,-0.0947347,1.1263483,-0.08135605,-0.46079636,0.8067637,0.9308357,0.055269096,0.116739996,0.3418507,-0.7742351,0.29561976,0.27902505,1.0,0.0,0.0,0.0,0.0,0.0,0.0,-0.54925,-0.02986756,-0.35732478,-19.265985,23.095596,47.741356,62.416004,-3.0267,-13.0551815,5.193272
-4.2714534,91.46221,29.93609,56.494015,1.8746458,2.7243285,-0.5086386,-0.74287707,-0.32552442,0.18231252,0.7735099,-0.68689924,0.61409783,0.1487042,0.32985628,-0.44131812,-1.9341027,-1.5039777,2.4320335,1.7481635,-0.94285697,0.39432067,-0.41647375,-1.9493241,-1.5644486,2.4883714,1.701837,-0.95972437,-1.0427936,-0.715529,0.37350553,1.7564539,-1.219979,1.4665464,-0.18525144,-0.11216736,-0.3710785,0.91783243,-1.1415783,-0.09463998,1.0255772,-0.08883667,-0.45715714,0.8110109,0.9329665,0.04273239,0.12313285,0.33553812,-0.74023896,0.39077312,0.46720564,1.0,0.0,0.0,0.0,0.0,0.0,0.0,-0.5378326,-0.028921515,-0.36783242,-24.181175,22.10784,28.98787,27.33562,6.1164856,-16.759586,5.799061
-20.59254,45.628902,3.7437224,32.197834,2.2269483,0.75643665,-0.55853873,-0.75660837,-0.33328122,0.033603273,0.7665938,-0.70088696,0.61819357,0.16142341,0.31865984,-0.44980186,-1.9459639,-1.4877892,2.4182827,1.7636563,-0.943582,0.382322,-0.4225787,-1.9453492,-1.5467751,2.4767594,1.7152361,-0.96117777,-1.2500341,-0.5756591,0.4024829,1.7717025,-1.1411169,1.3001606,-0.13182025,-0.12357712,-0.37202454,0.9273331,-1.140437,-0.094545364,0.92490697,-0.096508026,-0.45300674,0.8159766,0.93510115,0.030564046,0.12992346,0.3282856,-0.7764226,0.4297667,0.5006912,1.0,0.0,0.0,0.0,0.0,0.0,0.0,-0.52642286,-0.02797547,-0.3773331,-20.075369,13.935685,1.9862175,1.6889095,8.036518,-15.919924,5.4134817
-23.882019,20.181664,-8.160955,17.736738,1.967933,-0.44835496,-0.4822359,-0.74515545,-0.3057286,-0.05932551,0.777913,-0.7089867,0.62639743,0.1480643,0.30780646,-0.45315155,-1.9512818,-1.4689838,2.4058607,1.7778758,-0.9463713,0.36892003,-0.42774427,-1.9424195,-1.5298398,2.4658303,1.7271436,-0.96216863,-1.3693625,-0.49682343,0.2547827,1.6676027,-1.0758098,1.1559893,-0.08810817,-0.13497162,-0.37297058,0.93582785,-1.1392968,-0.09445084,0.82433736,-0.104717255,-0.4487648,0.82064223,0.9372962,0.019808127,0.13662767,0.3200255,-0.83501333,0.429106,0.45012385,1.0,0.0,0.0,0.0,0.0,0.0,0.0,-0.51502836,-0.027029425,-0.38582784,-11.675596,7.8949213,-15.299088,-10.350966,6.811619,-13.941646,4.3739424
-27.403215,-0.5156698,-17.290482,10.753331,2.104844,-1.2029817,-0.46396968,-0.7464962,-0.3202169,-0.20598295,0.77570075,-0.7076138,0.62611365,0.17645568,0.2942704,-0.45976597,-1.9630178,-1.4522697,2.395069,1.789755,-0.9445231,0.35488576,-0.43260896,-1.9419007,-1.5141652,2.4554086,1.7377771,-0.962758,-1.4142011,-0.48281878,-0.017035637,1.5343953,-1.0301355,1.0334563,-0.049290683,-0.14635849,-0.37391663,0.9433176,-1.1381577,-0.0943564,0.7238683,-0.113716125,-0.4447403,0.82446164,0.9396103,0.010942894,0.14298744,0.31075257,-0.9200075,0.40002576,0.35497054,1.0,0.0,0.0,0.0,0.0,0.0,0.0,-0.5036415,-0.02608338,-0.39331758,-4.307747,1.4461935,-27.580551,-13.25736,4.9006224,-11.974931,3.8658283
-29.528105,-11.371946,-21.492014,9.853836,2.354626,-1.453404,-0.47888577,-0.74999946,-0.34124452,-0.35285515,0.7794169,-0.7036564,0.61339307,0.19451235,0.2798858,-0.46673343,-1.9771862,-1.4362235,2.385043,1.7991164,-0.94330674,0.34075946,-0.4376787,-1.9445138,-1.4996064,2.445311,1.7473272,-0.96299356,-1.4112825,-0.5148746,-0.3442289,1.4301679,-1.0020912,0.9291896,-0.01501063,-0.1577301,-0.37486267,0.9498035,-1.1370198,-0.09426207,0.62349975,-0.12369919,-0.44108963,0.8272553,0.9420934,0.0040383562,0.14890267,0.3004525,-1.0227189,0.36080334,0.25049552,1.0,0.0,0.0,0.0,0.0,0.0,0.0,-0.49226987,-0.025137335,-0.39980346,0.5509138,-3.1628191,-33.13663,-10.277605,3.1270504,-10.289645,3.4193172
-31.892426,-17.85824,-23.631788,11.288256,2.6843863,-1.4004848,-0.4941659,-0.7594405,-0.38546738,-0.49432394,0.7750435,-0.6974113,0.6183514,0.2227679,0.2648154,-0.47622544,-1.9939462,-1.422102,2.3755698,1.8091624,-0.94071674,0.32679003,-0.4433564,-1.9504323,-1.4857724,2.4354043,1.7559656,-0.9629058,-1.3907939,-0.5853416,-0.6761367,1.3685278,-0.985931,0.8422866,0.016787758,-0.16909409,-0.3758011,0.9552864,-1.135883,-0.09416783,0.5232315,-0.13483047,-0.437809,0.82903105,0.94476974,-0.0010576606,0.15432878,0.28912207,-1.1403013,0.32405362,0.14992927,1.0,0.0,0.0,0.0,0.0,0.0,0.0,-0.4809059,-0.02419892,-0.40528637,2.44205,-7.027054,-33.67821,-5.9000015,1.9200206,-8.6571455,3.1962137
-23.129745,-5.1201725,-14.177069,13.841297,2.1668727,-0.9386029,-0.31007993,-0.73816335,-0.38986444,-0.52675474,0.7774316,-0.69391495,0.6495555,0.20599942,0.2529737,-0.48234284,-2.0031078,-1.4080292,2.3660128,1.8209212,-0.94230586,0.31314677,-0.44970834,-1.9589944,-1.4722531,2.425593,1.7638735,-0.9625501,-1.3543886,-0.65192807,-0.9172573,1.347536,-0.9791328,0.7737942,0.041817844,-0.18044281,-0.3767395,0.95976734,-1.1347474,-0.094073676,0.42306346,-0.1468811,-0.4347725,0.8300109,0.94754624,-0.004747146,0.15936463,0.27701327,-1.223092,0.3050446,0.077555835,1.0,0.0,0.0,0.0,0.0,0.0,0.0,-0.46955717,-0.023260504,-0.40976733,3.9736032,-6.692946,-24.457693,-1.8251896,0.81493855,-6.8100333,2.4989028
-17.288813,4.5742993,-7.071479,15.803122,1.8358259,-0.51439834,-0.16085595,-0.7395465,-0.4245343,-0.56391513,0.7758493,-0.69613934,0.6620711,0.20261905,0.23919213,-0.49216178,-2.0153859,-1.3946681,2.355979,1.8300805,-0.9422882,0.2998168,-0.45673072,-1.9692674,-1.4587605,2.4157968,1.7712034,-0.96198076,-1.3249377,-0.71930313,-1.0646662,1.3508635,-0.97982204,0.7196256,0.061949193,-0.1917839,-0.37767792,0.9632474,-1.1336129,-0.09397963,0.32299554,-0.15956497,-0.4318161,0.8304291,0.9503138,-0.007443551,0.16410771,0.2644181,-1.2805265,0.3018787,0.026592337,1.0,0.0,0.0,0.0,0.0,0.0,0.0,-0.45821607,-0.022322088,-0.4132474,3.2184362,-6.811154,-14.963495,0.60055256,-0.06004572,-5.351293,2.00132
-12.28611,10.761759,-1.8707902,15.969323,1.5190692,-0.24291658,-0.013896581,-0.72510475,-0.47074324,-0.59411395,0.77260804,-0.7022711,0.66741925,0.21524289,0.2273063,-0.50380504,-2.0286787,-1.3814996,2.3455696,1.8379453,-0.94045645,0.28676003,-0.46446788,-1.9804559,-1.4451668,2.405951,1.7780737,-0.96122926,-1.2986548,-0.7921423,-1.1372318,1.3629707,-0.9865257,0.67652065,0.07962839,-0.20310974,-0.37861633,0.965736,-1.1324794,-0.09388567,0.22415094,-0.17266846,-0.428833,0.830427,0.95298666,-0.009449802,0.16859208,0.25160253,-1.3175507,0.308109,-0.012739034,1.0,0.0,0.0,0.0,0.0,0.0,0.0,-0.44689023,-0.021383673,-0.41573596,2.8239012,-7.375586,-7.3609114,1.4575243,-0.7508874,-4.217899,1.7574801
-8.783901,16.420334,2.0414934,15.96321,1.2855501,-0.035896778,0.07781254,-0.7215896,-0.50497997,-0.6003691,0.76741076,-0.6998283,0.67213506,0.19364887,0.21460107,-0.5149659,-2.0404928,-1.3684257,2.3359683,1.8452872,-0.9418644,0.27389687,-0.4729184,-1.9919477,-1.4314702,2.3960366,1.7845796,-0.96033853,-1.2817165,-0.8630482,-1.1530149,1.3725085,-0.9933961,0.6422388,0.09214643,-0.21442795,-0.37955475,0.9672368,-1.1313472,-0.0937918,0.12540516,-0.18603134,-0.4257202,0.8300885,0.9555117,-0.010974042,0.17282729,0.23876293,-1.3387711,0.32147947,-0.04480409,1.0,0.0,0.0,0.0,0.0,0.0,0.0,-0.43557203,-0.020445257,-0.4172368,1.8317938,-7.1956873,-1.6017199,1.1749506,-0.8391619,-3.3117652,1.2399048
-4.296234,18.667652,5.0409603,14.4196415,1.00859,-0.013357878,0.20818532,-0.68483955,-0.56179196,-0.5931964,0.7655821,-0.70883775,0.6826445,0.21225496,0.20541292,-0.52909756,-2.0512674,-1.3549119,2.3251529,1.8528441,-0.939113,0.2612993,-0.48215616,-2.0033174,-1.4177163,2.3860345,1.7907995,-0.95932764,-1.2522706,-0.9443663,-1.1312745,1.3770629,-1.0029491,0.6155938,0.10409355,-0.2257309,-0.38049316,0.96775097,-1.1302161,-0.093698025,0.026758095,-0.19950485,-0.4224968,0.8294289,0.9578496,-0.012161612,0.17677498,0.22611223,-1.3464801,0.3335417,-0.07714878,1.0,0.0,0.0,0.0,0.0,0.0,0.0,-0.42426908,-0.019506842,-0.41775095,2.9927015,-8.229303,2.2506475,0.64628124,-1.1537552,-2.5346518,1.1955559
-0.3368039,22.882078,8.034767,14.058031,0.8277183,-0.010873556,0.27243868,-0.65057594,-0.59936744,-0.57952946,0.7734661,-0.7004505,0.6908231,0.19275531,0.1962417,-0.5420929,-2.0612702,-1.3403697,2.3159895,1.8598818,-0.9400521,0.24910234,-0.49219644,-2.014319,-1.403909,2.3759751,1.7967981,-0.95822614,-1.2089487,-1.0242119,-1.0895393,1.3826163,-1.0076498,0.59496444,0.11214596,-0.23702621,-0.38143158,0.96726614,-1.1290861,-0.09360435,-0.07354787,-0.21296692,-0.41916275,0.8284688,0.95998317,-0.013137732,0.1804105,0.21380308,-1.342398,0.34396067,-0.1067747,1.0,0.0,0.0,0.0,0.0,0.0,0.0,-0.41297376,-0.018568426,-0.41726613,4.303932,-8.08338,4.334593,0.71377754,-0.71020126,-1.9245148,0.809294
6.9538426,23.773256,10.96028,10.437805,0.35868558,-0.23396903,0.4304067,-0.56533504,-0.6573719,-0.57063234,0.755436,-0.703075,0.6895949,0.2118529,0.19256884,-0.5579336,-2.0713823,-1.3283653,2.3056676,1.8657576,-0.93704087,0.23765992,-0.5030993,-2.0248895,-1.3901494,2.3658776,1.8026174,-0.9570436,-1.1233373,-1.1125362,-1.0449042,1.3742253,-1.0113375,0.57810616,0.120411366,-0.24830627,-0.38237,0.965779,-1.1279572,-0.09351076,-0.17375354,-0.22628021,-0.41582108,0.8271513,0.96189547,-0.013947819,0.18367054,0.20205864,-1.3225814,0.34090716,-0.14466463,1.0,0.0,0.0,0.0,0.0,0.0,0.0,-0.4016937,-0.01763001,-0.415779,8.363771,-8.909655,4.7867537,-0.7481575,-0.64709187,-1.5593648,0.83283186
17.066944,26.611559,15.48445,6.723601,-0.23038754,-0.5014075,0.61463636,-0.45274222,-0.71093994,-0.5438407,0.74665,-0.70287794,0.6834257,0.21959649,0.19238569,-0.5741933,-2.0792735,-1.3154844,2.29559,1.87096,-0.9350839,0.22748493,-0.5149249,-2.0349717,-1.3765309,2.3557534,1.8082861,-0.95578283,-0.9836191,-1.2060869,-0.99413466,1.357523,-1.0140237,0.56351715,0.12804146,-0.2595787,-0.3833046,0.96329063,-1.1268295,-0.093417265,-0.27385905,-0.23921204,-0.412632,0.8254217,0.96356475,-0.014649897,0.18649255,0.19117728,-1.2809871,0.32013717,-0.1875119,1.0,0.0,0.0,0.0,0.0,0.0,0.0,-0.39042127,-0.01669541,-0.41329062,13.550115,-9.41627,5.6286335,-1.674509,-0.61318874,-1.3541937,0.7612467
19.713226,24.628342,14.80397,3.9218588,-0.443747,-0.79763687,0.62464577,-0.37274456,-0.7519265,-0.5825426,0.7180595,-0.69039947,0.6606527,0.20858222,0.19021046,-0.5901175,-2.093226,-1.3047249,2.2867134,1.8743514,-0.9349246,0.2188804,-0.52765167,-2.0448365,-1.3632023,2.3456445,1.8138078,-0.95446295,-0.8210709,-1.2950402,-0.9821351,1.3244443,-1.0105375,0.54857093,0.13327143,-0.27083588,-0.38423538,0.9598019,-1.125703,-0.09332387,-0.37386447,-0.2517357,-0.4097519,0.8231771,0.96502095,-0.015159848,0.18882844,0.1812412,-1.2397469,0.28559542,-0.24217226,1.0,0.0,0.0,0.0,0.0,0.0,0.0,-0.3791641,-0.015764624,-0.4098019,15.757179,-8.954811,1.8036723,-3.3300877,0.017666817,-1.4492273,0.5137116
29.107204,29.300787,18.832836,0.6526985,-1.0598321,-1.0630486,0.74612606,-0.23107788,-0.77991354,-0.58154047,0.6877646,-0.6899099,0.64281416,0.19359018,0.19577262,-0.60564303,-2.1029906,-1.2944258,2.2766535,1.8780893,-0.93510395,0.21222328,-0.5411576,-2.0546975,-1.3503144,2.3355775,1.8191808,-0.95311254,-0.6162349,-1.3692445,-0.9847267,1.2764527,-1.0067345,0.5334893,0.13544492,-0.28208542,-0.38516617,0.9553139,-1.1245775,-0.09323057,-0.47376987,-0.26369476,-0.4073372,0.82035744,0.9662735,-0.01541366,0.1906831,0.17238858,-1.1775323,0.23333417,-0.30083087,1.0,0.0,0.0,0.0,0.0,0.0,0.0,-0.36791456,-0.014833838,-0.4053139,19.796658,-7.485628,0.5329609,-4.913616,-0.011086464,-1.509583,0.1709938
31.822968,31.457138,19.33087,-0.5290284,-1.3095309,-1.2294036,0.72574294,-0.13018839,-0.7993771,-0.6173909,0.6561467,-0.700851,0.63647306,0.15151584,0.19920444,-0.6210953,-2.1164365,-1.2846997,2.2654924,1.8828281,-0.937961,0.20767353,-0.55526054,-2.0648065,-1.3379796,2.3255105,1.8244108,-0.95178026,-0.40358657,-1.4242363,-1.0171897,1.2186987,-1.0077327,0.5193391,0.13218933,-0.29332352,-0.38609695,0.9498276,-1.1234531,-0.09313735,-0.57357544,-0.27499008,-0.40550613,0.8169293,0.96734023,-0.01531662,0.19213298,0.16463049,-1.1104256,0.17181805,-0.3627871,1.0,0.0,0.0,0.0,0.0,0.0,0.0,-0.35667646,-0.013903052,-0.3998276,20.550383,-5.581403,-2.4387836,-5.905032,-0.48863888,-1.4660597,-0.4002124
48.292755,40.187313,26.974524,-4.897419,-2.2307947,-1.5797138,0.937734,0.09317063,-0.81271833,-0.63075596,0.6112572,-0.6763559,0.598562,0.11142798,0.21699059,-0.63653237,-2.127882,-1.2768538,2.257875,1.884267,-0.94063747,0.20577286,-0.56977165,-2.0752892,-1.3263237,2.315497,1.8294824,-0.95051664,-0.12214819,-1.4604138,-1.0553627,1.1468921,-1.0012126,0.50263774,0.12389485,-0.30455017,-0.38702774,0.943344,-1.12233,-0.09304423,-0.67328113,-0.28534698,-0.4044838,0.8128891,0.9682048,-0.0148583455,0.1932065,0.15820873,-1.0075502,0.0834267,-0.4239859,1.0,0.0,0.0,0.0,0.0,0.0,0.0,-0.3454498,-0.0129722655,-0.39334399,27.164633,-3.7119865,-2.731514,-7.452512,0.15454292,-1.8062234,-0.9535149
51.20192,44.97225,28.77566,-4.0154853,-2.2751324,-1.6364257,0.86770827,0.2026387,-0.8184307,-0.64271057,0.5925195,-0.66910106,0.56394595,-0.038534693,0.22603673,-0.6516147,-2.1395602,-1.2670718,2.248587,1.885877,-0.9543701,0.20664881,-0.5845164,-2.0861497,-1.3153279,2.3055673,1.8343748,-0.9494485,0.15441746,-1.4795514,-1.0926852,1.0828489,-0.99196064,0.48392034,0.10064324,-0.31576538,-0.38795853,0.9358641,-1.1212078,-0.09295121,-0.7728872,-0.29463196,-0.40436172,0.8083026,0.96887994,-0.014079232,0.19396894,0.15313202,-0.89932674,-0.009396705,-0.476468,1.0,0.0,0.0,0.0,0.0,0.0,0.0,-0.3342346,-0.012041479,-0.38586408,26.724592,-2.0367146,-2.6815653,-6.6650867,0.4128456,-2.0638824,-2.4565487
28.779242,38.50079,18.387245,2.6307511,-1.0252224,-1.2670581,0.43051305,0.14218347,-0.8229141,-0.68085,0.5587715,-0.6709417,0.5532041,-0.16742857,0.22086716,-0.66680783,-2.1542346,-1.2594507,2.2384732,1.8896952,-0.9661914,0.20933555,-0.599367,-2.0974908,-1.3049424,2.2957215,1.8390898,-0.9487018,0.3052084,-1.4873787,-1.1457795,1.0236319,-0.9832396,0.466775,0.065707505,-0.32696915,-0.3888893,0.92738885,-1.1200868,-0.09285828,-0.8723936,-0.3032074,-0.4048996,0.8032115,0.9694589,-0.012888557,0.19450082,0.14883755,-0.8403708,-0.0688366,-0.52623653,1.0,0.0,0.0,0.0,0.0,0.0,0.0,-0.32303083,-0.011110693,-0.37738883,14.620262,-0.92322826,-4.7601223,-5.967617,0.53167343,-1.8638194,-3.5874798
12.694498,37.684837,12.5929165,9.278155,-0.040768683,-0.8680678,0.12585428,0.15317675,-0.8206343,-0.6909592,0.5605562,-0.66981184,0.55991614,-0.21777046,0.22465323,-0.68143046,-2.1665866,-1.2488867,2.2287405,1.8950814,-0.97047883,0.21286796,-0.6142243,-2.109324,-1.2949612,2.285952,1.8436598,-0.9483213,0.36874303,-1.485711,-1.194955,0.9899178,-0.9755066,0.4535141,0.02859421,-0.33816147,-0.3898201,0.9179193,-1.1189669,-0.092765436,-0.97180057,-0.3114357,-0.4058075,0.7977149,0.97000897,-0.011277007,0.19491564,0.1447867,-0.812824,-0.098356254,-0.563731,1.0,0.0,0.0,0.0,0.0,0.0,0.0,-0.3118385,-0.010179907,-0.36791927,6.2003555,0.015592575,-4.666543,-3.288734,0.5245924,-1.4060199,-3.7867613
-4.064371,34.154823,5.888308,14.329943,0.86318254,-0.51077384,-0.14387149,0.11479964,-0.8236213,-0.7109423,0.5369947,-0.6697192,0.5484561,-0.3106119,0.22434792,-0.69658643,-2.1804183,-1.2412617,2.21898,1.8985053,-0.97938246,0.2163937,-0.6290511,-2.1216302,-1.2852623,2.2762513,1.8481096,-0.94834703,0.3475742,-1.4822305,-1.2424668,0.9640557,-0.9691739,0.44223237,-0.013144642,-0.34934235,-0.39074707,0.9074564,-1.1178482,-0.09267268,-1.0711081,-0.31963348,-0.4067917,0.79187006,0.9705841,-0.009221816,0.19527543,0.14053054,-0.8181262,-0.099719994,-0.5977053,1.0,0.0,0.0,0.0,0.0,0.0,0.0,-0.30065763,-0.009252936,-0.3574564,-2.0038247,0.1944542,-4.7676086,-2.3821354,0.47587156,-1.1449635,-4.231503
-20.02773,32.952953,0.59444726,19.976803,1.7866879,-0.09989553,-0.36521268,0.035016287,-0.8216238,-0.7120628,0.5390932,-0.653722,0.53623086,-0.30921406,0.21989532,-0.71121347,-2.1928365,-1.231353,2.210879,1.9017327,-0.97926843,0.21912311,-0.64383304,-2.1342988,-1.2756989,2.266646,1.8524584,-0.9487495,0.24917573,-1.4773697,-1.2755187,0.95475525,-0.958,0.43242225,-0.049394257,-0.36051178,-0.39167023,0.8960012,-1.1167306,-0.092580035,-1.1703165,-0.32810974,-0.40756607,0.7857515,0.9712228,-0.00674396,0.19561636,0.13570197,-0.852518,-0.07116146,-0.62273175,1.0,0.0,0.0,0.0,0.0,0.0,0.0,-0.2894882,-0.008329779,-0.3460012,-9.503383,0.32260418,-3.5286665,-0.6163001,1.0171533,-0.9327948,-3.662538
-24.071026,33.77828,-0.10040277,21.488668,2.0430653,0.06979464,-0.38140044,0.006004697,-0.82679707,-0.71244496,0.5347602,-0.6405296,0.5304991,-0.2911152,0.21972358,-0.72651273,-2.2055433,-1.2222229,2.2025928,1.9055083,-0.977861,0.22073601,-0.6585988,-2.1471734,-1.2661736,2.2571778,1.8567175,-0.9494571,0.13321052,-1.4768949,-1.292412,0.95294374,-0.94352746,0.42374346,-0.07794027,-0.37166977,-0.39259338,0.8835547,-1.115614,-0.09248748,-1.2694256,-0.33696747,-0.4079857,0.7794139,0.97192746,-0.0039077587,0.19592932,0.13020545,-0.8927993,-0.032427605,-0.64365256,1.0,0.0,0.0,0.0,0.0,0.0,0.0,-0.2783302,-0.007406622,-0.3335547,-11.226919,-0.12419224,-1.9295931,0.16430616,1.3404846,-0.8190453,-2.8771594
-25.058605,36.226078,0.8534884,22.034092,2.2079494,0.2242392,-0.33610332,-0.054521777,-0.82859594,-0.6862678,0.5226555,-0.5835953,0.5147195,-0.2298157,0.21528384,-0.74145836,-2.2158003,-1.2139081,2.1988182,1.9081894,-0.9724387,0.22111414,-0.67338073,-2.1599984,-1.2566884,2.2480035,1.8608869,-0.9503631,0.0072639124,-1.4791654,-1.2800951,0.9483467,-0.9092368,0.41483313,-0.094805285,-0.38282013,-0.39351654,0.8701178,-1.1144987,-0.09239501,-1.3684356,-0.34622955,-0.40797043,0.7729048,0.9726929,-0.0008263595,0.19612329,0.12411071,-0.9327785,0.013499003,-0.6593682,1.0,0.0,0.0,0.0,0.0,0.0,0.0,-0.26717985,-0.0064834654,-0.32011777,-12.227527,-0.40371418,1.0074377,-0.11025667,3.2929182,-0.85062385,-1.6871943
-2.8226206,42.600048,10.060668,14.891502,1.1402001,-0.090435684,0.013545744,0.029002909,-0.8318714,-0.66264164,0.47681588,-0.51479566,0.48707345,-0.2597622,0.22401443,-0.7565679,-2.2262626,-1.2090068,2.196524,1.9095943,-0.97633934,0.2209029,-0.6882037,-2.172522,-1.2474606,2.2393441,1.8649515,-0.95142835,-0.030324675,-1.4838307,-1.2428778,0.9146632,-0.85244745,0.40363738,-0.11046108,-0.39395523,-0.3944397,0.85569155,-1.1133845,-0.09230263,-1.4673467,-0.35557556,-0.40774155,0.7662139,0.9734845,0.0023520335,0.19602646,0.11788096,-0.93040353,0.02775282,-0.6782351,1.0,0.0,0.0,0.0,0.0,0.0,0.0,-0.25604475,-0.0055603087,-0.30569154,-3.684175,-0.6210089,3.7894487,-3.1961322,5.42506,-1.1580884,-1.5782595
-3.3695319,40.353306,9.187461,12.2104645,1.1574366,-0.09269807,0.07131036,-0.06635925,-0.83476347,-0.6414005,0.39512384,-0.39998215,0.41325596,-0.25840956,0.21426699,-0.77168006,-2.2366621,-1.2079482,2.1993458,1.9062771,-0.9772693,0.22019409,-0.70308197,-2.1845918,-1.2389443,2.2315354,1.8688577,-0.95262617,-0.0840831,-1.4896042,-1.1946384,0.83133996,-0.7578581,0.3860542,-0.122909196,-0.4050827,-0.39536285,0.84027696,-1.1122713,-0.09221034,-1.5661588,-0.36492157,-0.40736008,0.7592534,0.97432953,0.00561409,0.19536228,0.11173147,-0.93098086,0.04254088,-0.70753884,1.0,0.0,0.0,0.0,0.0,0.0,0.0,-0.24491727,-0.004637152,-0.29027694,-5.2798414,-0.71868896,4.8401594,-8.158851,9.216404,-1.8237174,-1.2277172
15.130559,43.295013,15.883263,5.6352396,0.4550447,-0.3935795,0.34787297,0.01423264,-0.840675,-0.60853696,0.32445046,-0.21623056,0.3983863,-0.18514876,0.22161736,-0.7871495,-2.2454455,-1.2064992,2.2099123,1.9086964,-0.97114104,0.21947025,-0.7180337,-2.196093,-1.2315304,2.2251115,1.8725847,-0.95387644,-0.068808645,-1.4973651,-1.1346533,0.7115324,-0.6047053,0.36786222,-0.12563281,-0.41619492,-0.396286,0.82387495,-1.1111593,-0.09211815,-1.664872,-0.37405777,-0.40703583,0.75195825,0.975254,0.008832359,0.19379568,0.10604123,-0.9041071,0.03105716,-0.7423289,1.0,0.0,0.0,0.0,0.0,0.0,0.0,-0.23380506,-0.0037139952,-0.27387494,1.4267101,-0.8902073,6.1904907,-11.940503,15.023637,-1.9450843,-0.23711473
11.924082,53.157833,18.752539,12.840267,1.3467891,-0.089728594,0.13104159,-0.035121363,-0.83798766,-0.5073656,0.40049094,-0.052806277,0.3890052,-0.25942805,0.21595812,-0.80183244,-2.2468297,-1.1914814,2.2198308,1.9114852,-0.97981924,0.21880053,-0.7330359,-2.206637,-1.2247708,2.2205338,1.8761438,-0.95519346,-0.0665859,-1.5016004,-1.0272596,0.66427535,-0.40997252,0.35169536,-0.13356246,-0.4272995,-0.39720917,0.80648655,-1.1100484,-0.092026055,-1.7634866,-0.3829956,-0.4066925,0.74458885,0.97628933,0.011565793,0.1912482,0.10074429,-0.88496923,0.036737256,-0.74043655,0.0,1.0,0.0,0.0,0.0,0.0,0.0,-0.22270048,-0.0027908385,-0.25648654,0.15923232,-0.5467653,10.938811,-4.6739817,19.189388,-1.669091,-0.71537495
6.7268744,56.104416,17.89919,17.065699,1.5885444,0.043093607,0.010822065,-0.051458824,-0.84255373,-0.48276666,0.42012477,-0.08081435,0.39666966,-0.2339044,0.21365465,-0.8172913,-2.2549136,-1.1827583,2.2124524,1.9158108,-0.9785839,0.21809365,-0.7480819,-2.2162144,-1.2181895,2.2177022,1.8795408,-0.95652324,-0.068739764,-1.5057023,-0.9586937,0.63004786,-0.15894468,0.3319994,-0.115952395,-0.4377327,-0.39752197,0.79215366,-0.64545184,0.06484333,-0.12613578,-0.39180756,-0.4062462,0.73729694,0.97742665,0.013691522,0.18788585,0.09564834,-0.8874108,0.04961402,-0.73887473,0.0,1.0,0.0,0.0,0.0,0.0,0.0,-0.21226728,-0.0024780333,-0.24215364,0.25217682,-0.49200058,3.6265135,-7.1545005,35.451584,-2.7024567,4.0665045
-4.3123727,81.754265,24.685883,32.985817,2.688316,1.0719584,-0.24488024,-0.17705949,-0.82124186,-0.1564436,0.58960724,-0.18198845,0.48438936,-0.26639527,0.2003877,-0.8302061,-2.2318587,-1.1592288,2.1995034,1.9279797,-0.98316276,0.21675779,-0.7630565,-2.22376,-1.2108939,2.216512,1.8828634,-0.9577401,-0.1548233,-1.4952654,-0.685997,0.76281756,-0.106446356,0.33291534,-0.123615004,-0.44418335,-0.39687347,0.7901411,-0.6448065,0.06477849,-0.22628888,-0.40055466,-0.4053383,0.7306313,0.9786377,0.014570311,0.1840145,0.090524256,-0.865991,0.10614867,-0.64741945,0.0,1.0,0.0,0.0,0.0,0.0,0.0,-0.20581663,-0.0031265318,-0.2401411,-8.494478,0.9066582,27.409733,13.361692,4.9687715,0.307554,-0.75503737
-8.116138,70.033554,18.47027,27.639717,2.0776901,0.75471103,-0.13994254,-0.17696936,-0.8302164,-0.22955205,0.48424953,-0.20052013,0.40752402,-0.15770423,0.19906086,-0.84607816,-2.246715,-1.1624689,2.19646,1.9236158,-0.97351056,0.21457364,-0.7779577,-2.2291806,-1.2027171,2.2154324,1.8861517,-0.95895034,-0.23906426,-1.4888017,-0.4940574,0.8366352,-0.10944261,0.32792452,-0.12011619,-0.45062637,-0.39622498,0.78712773,-0.6441618,0.06471373,-0.32634187,-0.40914917,-0.40394974,0.72459096,0.97979826,0.01449295,0.18029864,0.08530914,-0.8526834,0.1513549,-0.5941651,0.0,1.0,0.0,0.0,0.0,0.0,0.0,-0.1993736,-0.0037750304,-0.23712772,-8.262149,0.51898956,19.212395,7.5324774,-0.49827397,-0.3284335,0.36876053
9.371211,67.72304,21.995298,19.563248,0.7305504,0.2726214,0.20063268,-0.093435936,-0.8289655,-0.17871414,0.46389055,-0.2103164,0.37997144,0.007700695,0.20523004,-0.8608542,-2.247052,-1.156328,2.1944008,1.9241488,-0.95818025,0.21209599,-0.7928064,-2.2329724,-1.1940863,2.2139447,1.8893751,-0.9600156,-0.25061187,-1.4839823,-0.3399883,0.87196237,-0.16287342,0.32083333,-0.10209588,-0.45706177,-0.39557648,0.7831146,-0.6435178,0.06464903,-0.4262948,-0.41737366,-0.40239334,0.7189158,0.98085564,0.013870789,0.17683396,0.08037088,-0.80923724,0.15903863,-0.5629095,0.0,1.0,0.0,0.0,0.0,0.0,0.0,-0.19293821,-0.004423529,-0.2331146,-1.1461228,0.36132336,15.574825,3.6072493,-5.5966616,-0.5750418,1.7748163
-4.955467,52.983727,11.337807,18.111343,0.8986802,-0.008144766,-0.0036115898,-0.16449934,-0.8297732,-0.26754734,0.47496915,-0.22494395,0.31828755,-0.13252479,0.19564606,-0.8757837,-2.259727,-1.1465894,2.1914504,1.9212039,-0.9732681,0.20939685,-0.8076303,-2.2362034,-1.1852763,2.2118618,1.8924822,-0.96100456,-0.2760617,-1.4821392,-0.31758443,0.884505,-0.22368446,0.30749768,-0.097777374,-0.46349335,-0.39492798,0.77810276,-0.6428744,0.06458439,-0.5261478,-0.42541885,-0.40072632,0.7132799,0.9818217,0.013264683,0.17363521,0.07550503,-0.799616,0.1709711,-0.56790876,1.0,0.0,0.0,0.0,0.0,0.0,0.0,-0.18650663,-0.0050720274,-0.22810274,-2.4543583,0.07312298,2.2319853,1.4424324,-6.178254,-1.2534142,0.448896
2.773332,43.190067,9.453887,10.110368,0.210284,-0.45842606,0.19336186,-0.118117146,-0.8337069,-0.28931093,0.39721662,-0.16747999,0.25584498,0.036206275,0.19758514,-0.891001,-2.2651346,-1.1455547,2.195114,1.9180666,-0.95738393,0.20673324,-0.8224666,-2.2397397,-1.1768267,2.209428,1.8954118,-0.961839,-0.26312143,-1.4845495,-0.36526617,0.8323568,-0.25003532,0.28798175,-0.07866282,-0.4699173,-0.39427948,0.7720931,-0.6422317,0.06451982,-0.6259009,-0.4333458,-0.39911652,0.70733374,0.98273027,0.013116057,0.17046414,0.07078853,-0.78661,0.16061665,-0.6073899,1.0,0.0,0.0,0.0,0.0,0.0,0.0,-0.18008268,-0.005720526,-0.2220931,1.2975335,-0.34809113,-4.7237754,-5.047095,-2.7292519,-1.9559681,1.9234508
-18.082146,40.53293,2.2866907,16.888226,1.3333044,-0.20188436,-0.18405594,-0.21339747,-0.8318793,-0.32799855,0.47699493,-0.15588596,0.27209714,-0.09481618,0.1853935,-0.90565455,-2.2725396,-1.1291273,2.1938396,1.9226216,-0.9713206,0.20381762,-0.8373258,-2.2440884,-1.1685641,2.206899,1.8981699,-0.9625867,-0.300566,-1.4867195,-0.45845556,0.82499313,-0.25386357,0.271693,-0.07323632,-0.47633362,-0.3936348,0.76508665,-0.6415896,0.064455315,-0.7255543,-0.4414177,-0.39736176,0.7010246,0.98361576,0.013541477,0.16728052,0.065831445,-0.81142646,0.18234357,-0.6426897,1.0,0.0,0.0,0.0,0.0,0.0,0.0,-0.17366636,-0.00636521,-0.21508664,-3.5995364,-0.32725334,-9.445304,-0.44903755,-0.35551786,-1.6373932,0.60581267
2.7380762,43.043453,9.044138,10.242897,0.60890245,-0.50512564,0.06326102,-0.10441408,-0.8342475,-0.32299104,0.4093084,-0.022119101,0.2465226,-0.03566526,0.19337621,-0.92075056,-2.2763875,-1.1276332,2.204687,1.9228221,-0.9661532,0.20102121,-0.8522146,-2.2492535,-1.1606047,2.2048008,1.900762,-0.96325237,-0.27269942,-1.4899575,-0.5358167,0.78683966,-0.19544886,0.2547695,-0.064327456,-0.48274612,-0.39299393,0.75708437,-0.6409481,0.06439087,-0.82510805,-0.44953918,-0.39560318,0.6943369,0.98450476,0.014400975,0.16384666,0.060804915,-0.8094186,0.17546174,-0.68135375,1.0,0.0,0.0,0.0,0.0,0.0,0.0,-0.16725385,-0.007006079,-0.20708436,2.7757108,-0.43592453,-7.662058,-3.6383152,5.758503,-1.7586589,0.92426836
