Afshin1997/kuka_rl_ros2/src/catch_and_throw/input_files/idealpd/polynomial_regressor/optimizer_files/env_275_data.csv
torque0,torque1,torque2,torque3,torque4,torque5,torque6,action0,action1,action2,action3,action4,action5,action6,set_target_0,set_target_1,set_target_2,set_target_3,set_target_4,set_target_5,set_target_6,joint_pos_0,joint_pos_1,joint_pos_2,joint_pos_3,joint_pos_4,joint_pos_5,joint_pos_6,joint_vel_0,joint_vel_1,joint_vel_2,joint_vel_3,joint_vel_4,joint_vel_5,joint_vel_6,tennisball_pos_0,tennisball_pos_1,tennisball_pos_2,tennisball_lin_vel_0,tennisball_lin_vel_1,tennisball_lin_vel_2,end_effector_pos_0,end_effector_pos_1,end_effector_pos_2,end_effector_rot_0,end_effector_rot_1,end_effector_rot_2,end_effector_rot_3,end_effector_lin_vel_0,end_effector_lin_vel_1,end_effector_lin_vel_2,obs_task_0,obs_task_1,obs_task_2,obs_task_3,obs_task_4,obs_task_5,obs_task_6,to_final_target_0,to_final_target_1,to_final_target_2,joint_acc_0,joint_acc_1,joint_acc_2,joint_acc_3,joint_acc_4,joint_acc_5,joint_acc_6
0.0,0.0,0.0,0.0,0.0,0.0,0.0,0.0,0.0,0.0,0.0,0.0,0.0,0.0,1.7802359,-1.0646509,-1.8151424,-1.1170107,1.9373155,1.1170107,-0.91629785,1.7802359,-1.0646509,-1.8151424,-1.1170107,1.9373155,1.1170107,-0.91629785,0.0,0.0,0.0,0.0,0.0,0.0,0.0,2.7127361,-0.6635244,0.16402003,-2.8258438,0.11177217,5.2755284,0.530416,-0.4544952,0.693097,0.5745483,0.17512383,0.15255436,0.7848268,0.0,0.0,0.0,1.0,0.0,0.0,0.0,0.0,0.0,0.0,-3.3627362,0.26352438,0.38597998,0.0,0.0,0.0,0.0,0.0,0.0,0.0
0.0,0.0,0.0,0.0,0.0,0.0,0.0,0.0,0.0,0.0,0.0,0.0,0.0,0.0,1.7802359,-1.0646509,-1.8151424,-1.1170107,1.9373155,1.1170107,-0.91629785,1.7802359,-1.0646509,-1.8151424,-1.1170107,1.9373155,1.1170107,-0.91629785,0.0,0.0,0.0,0.0,0.0,0.0,0.0,2.7127361,-0.6635244,0.16402003,-2.8258438,0.11177217,5.2755284,0.530416,-0.4544952,0.693097,0.5745483,0.17512383,0.15255436,0.7848268,0.0,0.0,0.0,1.0,0.0,0.0,0.0,0.0,0.0,0.0,-3.3627362,0.26352438,0.38597998,0.0,0.0,0.0,0.0,0.0,0.0,0.0
0.0,0.0,0.0,0.0,0.0,0.0,0.0,0.0,0.0,0.0,0.0,0.0,0.0,0.0,1.7802359,-1.0646509,-1.8151424,-1.1170107,1.9373155,1.1170107,-0.91629785,1.7802359,-1.0646509,-1.8151424,-1.1170107,1.9373155,1.1170107,-0.91629785,0.0,0.0,0.0,0.0,0.0,0.0,0.0,2.7127361,-0.6635244,0.16402003,-2.8258438,0.11177217,5.2755284,0.530416,-0.4544952,0.693097,0.5745483,0.17512383,0.15255436,0.7848268,0.0,0.0,0.0,1.0,0.0,0.0,0.0,0.0,0.0,0.0,-3.3627362,0.26352438,0.38597998,0.0,0.0,0.0,0.0,0.0,0.0,0.0
-176.0,59.99675,-9.652203,110.0,11.254325,4.4999466,-3.7538836,-0.8150441,0.30914694,-0.55432576,0.740612,0.3453,0.6670731,-0.5866929,1.6987314,-1.0337362,-1.870575,-1.0429496,1.9718455,1.183718,-0.9749671,1.7789408,-1.0624079,-1.8213184,-1.1121832,1.9443898,1.1228586,-0.9190578,-0.17245118,0.29813054,-0.8226622,0.64393383,0.9423832,0.7773064,-0.3672118,2.6844993,-0.6624074,0.2159993,-2.8230183,0.11166042,5.1720676,0.52814865,-0.45801377,0.6938697,0.5787351,0.17368409,0.15026902,0.78250796,-0.30200863,-0.46933654,0.10266044,1.0,0.0,0.0,0.0,0.0,0.0,0.0,-3.3344994,0.2624074,0.3340007,-17.164825,29.59688,-82.07419,64.498474,93.91393,77.05461,-36.467083
-176.0,-39.02186,-47.796455,108.914345,11.461294,1.0892624,-2.8628137,-0.7882189,-0.23019369,-0.5114328,0.7063775,0.40343666,0.65930897,-0.57000977,1.7001189,-1.0854272,-1.8724617,-1.0415455,1.9847335,1.1887895,-0.9760588,1.7774264,-1.0600046,-1.8363025,-1.097798,1.9563622,1.1364828,-0.9209489,-0.14472453,0.2143034,-1.7104237,1.7054436,1.2744907,1.5376155,-0.13097599,2.65629,-0.6612916,0.26694474,-2.8201957,0.11154878,5.0687103,0.5232825,-0.4668944,0.6946129,0.5874392,0.17034487,0.14555301,0.7776324,-0.54949903,-1.0260023,0.06675219,1.0,0.0,0.0,0.0,0.0,0.0,0.0,-3.3062901,0.2612916,0.28305528,2.730277,-10.408699,-84.78703,106.812904,30.881071,70.061134,23.250198
-151.59125,113.43933,32.89527,91.9337,7.679611,7.646447,-1.6612643,-0.76868135,0.25263286,0.17958578,0.66670805,0.46543983,0.69573635,-0.50788,1.7005582,-1.0347413,-1.818344,-1.0311272,2.0029063,1.2060565,-0.9717369,1.7727133,-1.0573171,-1.8508365,-1.0788656,1.9689374,1.1516615,-0.9223699,-0.58018446,0.28340837,-1.3607328,1.9573721,1.2467948,1.5043678,-0.14764586,2.6281095,-0.660177,0.31685737,-2.817376,0.11143725,4.965456,0.5154662,-0.4786229,0.6970641,0.59885705,0.16524746,0.13942611,0.77111846,-0.8671647,-1.2146033,0.30840188,1.0,0.0,0.0,0.0,0.0,0.0,0.0,-3.2781096,0.260177,0.23314264,-43.578674,5.886406,37.081932,25.618649,-4.328561,-5.3904057,-2.2209883
-99.94203,84.73794,32.35034,53.50894,4.9603252,6.612482,-0.13015422,-0.7738156,-0.05455408,0.24951477,0.66467655,0.49237543,0.6714036,-0.5653949,1.6953317,-1.0627725,-1.825885,-1.012398,2.018175,1.2188019,-0.9789094,1.7636725,-1.0553983,-1.8592346,-1.0599371,1.9802861,1.1657263,-0.9240846,-1.0128683,0.15932266,-0.65901077,1.8722254,1.092196,1.3707367,-0.18076786,2.5999565,-0.65906334,0.36573824,-2.814559,0.11132584,4.8623056,0.505043,-0.49123478,0.7012295,0.61105525,0.15883765,0.13187733,0.76419264,-1.1131135,-1.265051,0.4564155,1.0,0.0,0.0,0.0,0.0,0.0,0.0,-3.2499566,0.25906333,0.18426177,-43.47055,-12.992891,72.29159,-8.216357,-17.071224,-14.333463,-3.7462175
-39.625164,113.25467,47.795845,27.618895,2.0347958,6.3621664,0.5975549,-0.7803936,0.09585585,0.33177543,0.657547,0.5753807,0.6771163,-0.5537944,1.6856331,-1.0458127,-1.8260571,-0.9941824,2.0378242,1.2334379,-0.97946405,1.7511088,-1.0540842,-1.8603618,-1.0431067,1.9902291,1.1783282,-0.9261798,-1.338703,0.12050469,0.07568279,1.6197106,0.9574841,1.2221849,-0.22123632,2.5718322,-0.6579509,0.41358837,-2.811745,0.11121453,4.7592583,0.49277925,-0.50329757,0.7069053,0.6227797,0.15128104,0.123115934,0.75769514,-1.2773464,-1.1736351,0.6054837,1.0,0.0,0.0,0.0,0.0,0.0,0.0,-3.2218323,0.25795087,0.13641164,-32.88586,-4.347646,75.326515,-25.329899,-14.723229,-15.1979685,-4.6797333
-6.6173596,95.38145,38.26346,10.667174,0.22295856,3.9982383,0.59557533,-0.79116154,0.09424579,0.25406083,0.66893375,0.56240934,0.66806304,-0.5925318,1.6719927,-1.0446596,-1.8349557,-0.9762133,2.0464702,1.2451345,-0.985433,1.7363764,-1.052955,-1.856158,-1.0287501,1.9990754,1.1895777,-0.92866987,-1.5187403,0.10945978,0.53872013,1.3738482,0.85820377,1.092777,-0.2597651,2.5437355,-0.6568396,0.4604088,-2.8089337,0.11110334,4.656314,0.47952318,-0.5142789,0.7134807,0.6336709,0.1430746,0.113786384,0.7516937,-1.3542447,-1.0601275,0.67277664,1.0,0.0,0.0,0.0,0.0,0.0,0.0,-3.1937356,0.2568396,0.089591205,-18.201733,-1.3848096,47.334732,-24.725555,-10.5496645,-12.837458,-4.3108253
15.574991,124.90868,43.93841,7.8699465,-1.372268,3.3356862,0.12154706,-0.80295426,0.34935656,0.16094585,0.65609556,0.56195515,0.68407625,-0.58436173,1.656081,-1.0180193,-1.8400635,-0.9631405,2.055271,1.2579854,-0.987106,1.7207114,-1.0505823,-1.8496864,-1.016358,2.0072422,1.1997076,-0.9315023,-1.5830402,0.27893448,0.6853907,1.1939801,0.8019866,0.98706055,-0.29271558,2.5156674,-0.6557293,0.50620055,-2.8061254,0.11099226,4.5534725,0.4658904,-0.5238409,0.72086686,0.64396644,0.13443722,0.104990505,0.74579537,-1.3775519,-0.9093161,0.75707704,1.0,0.0,0.0,0.0,0.0,0.0,0.0,-3.1656675,0.2557293,0.04379946,-6.647992,16.65721,15.333164,-18.068527,-5.854237,-10.308051,-3.8027585
18.833256,121.07562,36.78193,7.5263996,-2.0251625,2.02778,-0.36220407,-0.81253225,0.45239824,-0.00314678,0.64480203,0.5455314,0.6610996,-0.5907139,1.6394582,-1.0053425,-1.8500011,-0.95187783,2.0617952,1.2658176,-0.99057364,1.704928,-1.0459799,-1.8439338,-1.0051676,2.0150394,1.208903,-0.93462175,-1.5774245,0.5200019,0.53965855,1.094016,0.7723361,0.8981473,-0.3196663,2.487627,-0.6546202,0.5509647,-2.80332,0.11088129,4.450734,0.452291,-0.53202724,0.72886664,0.6540993,0.12569042,0.09768014,0.7394691,-1.3639641,-0.776136,0.8108599,1.0,0.0,0.0,0.0,0.0,0.0,0.0,-3.1376271,0.25462016,-0.0009647012,0.34325123,23.888254,-14.232433,-10.040474,-2.958548,-8.610916,-3.0884624
20.638971,120.04641,34.4271,7.953413,-2.1221635,1.5462308,-0.50701857,-0.81701076,0.5574832,-0.051608585,0.6084616,0.5773498,0.6604625,-0.5718363,1.623227,-0.9902315,-1.8490946,-0.94432145,2.0727744,1.2749492,-0.9918054,1.6894251,-1.0387987,-1.8404644,-0.99463236,2.0227833,1.217322,-0.93795866,-1.5420141,0.78345364,0.28371704,1.0396255,0.774878,0.8237064,-0.3394985,2.4596148,-0.65351224,0.59470224,-2.8005173,0.110770434,4.348098,0.43891764,-0.5389681,0.73735917,0.66431123,0.11703036,0.092201315,0.73245704,-1.3361675,-0.65371877,0.8591837,1.0,0.0,0.0,0.0,0.0,0.0,0.0,-3.1096148,0.25351223,-0.044702232,3.3178806,26.150917,-25.310516,-5.5299997,0.29785633,-7.278228,-2.3339093
15.804679,103.96796,28.484144,9.192081,-1.6067659,1.1099315,-0.5231182,-0.8147345,0.59385824,-0.104331225,0.61403644,0.57362455,0.66213214,-0.5797555,1.6079516,-0.97941285,-1.8508974,-0.93322873,2.0801458,1.2835352,-0.9959342,1.6743189,-1.0293974,-1.8396156,-0.9843041,2.0306187,1.2250887,-0.9414663,-1.5006793,0.99197185,0.01962608,1.030054,0.7863209,0.7611324,-0.35557553,2.4316306,-0.65240526,0.63741416,-2.7977176,0.11065969,4.2455645,0.42579412,-0.5449207,0.7461877,0.6747001,0.10856034,0.08839162,0.724694,-1.3103619,-0.5616918,0.8888529,1.0,0.0,0.0,0.0,0.0,0.0,0.0,-3.0816307,0.25240526,-0.087414145,3.9469957,20.696104,-26.165625,-1.1196613,1.1851788,-6.2306285,-1.9081652
10.735894,91.38871,24.965801,10.490528,-1.001055,1.0363843,-0.4247072,-0.8175517,0.6402798,-0.14191638,0.6067112,0.5820912,0.6641569,-0.5781558,1.5925637,-0.9653694,-1.8538072,-0.923633,2.0888278,1.2915044,-0.9992819,1.6595427,-1.0183691,-1.8409812,-0.9739357,2.0386028,1.2323061,-0.94511026,-1.4707468,1.1393994,-0.1876178,1.0382973,0.80237234,0.7085369,-0.3683135,2.4036741,-0.6512995,0.67910147,-2.7949202,0.11054905,4.1431336,0.41283846,-0.55011797,0.7552379,0.6852472,0.100286245,0.08585367,0.71624583,-1.2954793,-0.4911374,0.9092978,1.0,0.0,0.0,0.0,0.0,0.0,0.0,-3.0536742,0.25129947,-0.12910146,2.8243065,14.603496,-20.441542,0.6087303,1.612854,-5.34271,-1.564306
10.399357,81.7644,23.438725,9.7471485,-0.57838863,1.0750359,-0.21731596,-0.8093676,0.66728264,-0.14574403,0.5882895,0.594974,0.6639401,-0.5781592,1.5786059,-0.95164084,-1.8555557,-0.9151068,2.0981002,1.2987001,-1.0029262,1.6449972,-1.0063223,-1.8437431,-0.9635197,2.0467663,1.2390639,-0.9488639,-1.4496237,1.2261364,-0.3045978,1.0418825,0.82059205,0.6647026,-0.37882847,2.3757458,-0.6501949,0.71976525,-2.7921257,0.110438526,4.0408053,0.39997578,-0.5546806,0.764443,0.69580966,0.09214747,0.084110446,0.707307,-1.2871776,-0.42920047,0.92380035,1.0,0.0,0.0,0.0,0.0,0.0,0.0,-3.0257459,0.25019488,-0.16976523,1.9397497,8.549213,-11.324737,0.10471344,1.7833948,-4.502201,-1.3619125
9.087189,72.971436,21.442516,9.302523,-0.26161778,1.0506778,-0.08352736,-0.80556524,0.68424463,-0.17260507,0.58206165,0.59839207,0.67349607,-0.582594,1.5644407,-0.9378978,-1.8610036,-0.90531355,2.1066055,1.3064134,-1.0071234,1.6305948,-0.9937538,-1.8472183,-0.9531075,2.05509,1.2454497,-0.95271295,-1.4376725,1.266708,-0.36037508,1.0400443,0.8358315,0.62956434,-0.38792193,2.3478456,-0.64909124,0.75940657,-2.789334,0.11032811,3.9385796,0.38715172,-0.5586891,0.77372617,0.70626044,0.08409312,0.08279645,0.69804674,-1.283967,-0.3757264,0.9297717,1.0,0.0,0.0,0.0,0.0,0.0,0.0,-2.9978456,0.24909124,-0.20940655,1.0228157,3.9509058,-5.1575127,-0.4502058,1.4648557,-3.6280394,-1.2256861
8.534853,69.098175,20.947401,9.187418,-0.046596706,1.1227953,0.03292092,-0.808067,0.69643044,-0.1633535,0.57104325,0.6047329,0.67490494,-0.5749852,1.5497881,-0.9241108,-1.8635536,-0.8960031,2.1155632,1.3129401,-1.0102115,1.6162401,-0.9809898,-1.8508384,-0.9427782,2.0635433,1.2515341,-0.9566354,-1.4354495,1.2793244,-0.36088288,1.0296645,0.84832716,0.6010426,-0.39481345,2.319973,-0.6479888,0.7980264,-2.7865453,0.1102178,3.836456,0.3743248,-0.5621803,0.7830545,0.7164951,0.076061584,0.08164911,0.6886093,-1.28519,-0.3244294,0.93388194,1.0,0.0,0.0,0.0,0.0,0.0,0.0,-2.969973,0.24798879,-0.24802637,0.04146099,1.1633635,0.430578,-1.3028622,1.1634707,-2.9626966,-1.0152996
10.6405,69.154335,21.493652,8.203356,-0.059664607,1.1775047,0.13844742,-0.80706054,0.7118758,-0.14876221,0.54371494,0.6195427,0.6792514,-0.5747551,1.5355341,-0.90980226,-1.8657147,-0.88840675,2.1254976,1.3194592,-1.0141109,1.601874,-0.96816385,-1.8542049,-0.9326798,2.072134,1.2573763,-0.96061796,-1.4377568,1.28339,-0.32675308,1.002294,0.8620525,0.5783878,-0.40048003,2.2921286,-0.64688754,0.8356257,-2.7837594,0.11010761,3.7344346,0.3614955,-0.56511927,0.79242593,0.72641367,0.06799956,0.08051502,0.6791293,-1.284496,-0.26788607,0.9380799,1.0,0.0,0.0,0.0,0.0,0.0,0.0,-2.9421287,0.24688753,-0.2856257,-0.42681694,0.31371117,3.949213,-3.0063152,1.2654066,-2.353704,-0.9054184
14.836819,72.07424,23.072886,6.693653,-0.1970985,1.256287,0.25773957,-0.8059487,0.72344303,-0.102923766,0.50558716,0.63162774,0.6798764,-0.5730006,1.5212791,-0.89581954,-1.8644973,-0.8821211,2.1352968,1.325364,-1.017918,1.5874754,-0.955294,-1.8569744,-0.9230124,2.0808659,1.2630259,-0.96464914,-1.4412192,1.2878811,-0.25831285,0.95396906,0.87677246,0.5603413,-0.40512842,2.2643118,-0.64578724,0.87220556,-2.7809763,0.10999752,3.6325152,0.34871244,-0.56741357,0.80186445,0.73590463,0.05984923,0.079308756,0.6697555,-1.2779045,-0.20085588,0.94545406,1.0,0.0,0.0,0.0,0.0,0.0,0.0,-2.914312,0.24578723,-0.32220554,-0.56040287,0.3599882,7.439232,-5.104673,1.344347,-1.860261,-0.8202195
14.273085,70.31991,21.925808,6.976843,-0.20057851,1.1328827,0.22710174,-0.8045856,0.7279868,-0.11176907,0.5013262,0.6361166,0.6851501,-0.5696981,1.5070169,-0.88249534,-1.8681513,-0.87287974,2.1444776,1.331541,-1.021619,1.573054,-0.94237363,-1.8591697,-0.9137875,2.0897312,1.2685267,-0.96871656,-1.4432721,1.2931651,-0.20481919,0.9111841,0.8897426,0.54646224,-0.40842798,2.2365232,-0.6446879,0.907767,-2.778196,0.10988755,3.5306978,0.33600712,-0.5690634,0.81134933,0.74496585,0.051606618,0.07804036,0.66050917,-1.2690787,-0.13759376,0.94876134,1.0,0.0,0.0,0.0,0.0,0.0,0.0,-2.8865232,0.24468789,-0.357767,-0.4038334,0.4513979,5.891147,-4.538429,1.1999846,-1.4184833,-0.66417456
17.08198,69.728424,21.621052,5.4748063,-0.36639497,0.9992217,0.2716089,-0.80047095,0.73341197,-0.08452781,0.4571685,0.64936435,0.68481946,-0.5662092,1.4930068,-0.86903244,-1.8676225,-0.86807066,2.1546676,1.3370086,-1.0253375,1.5586382,-0.92938554,-1.8608596,-0.90508425,2.0987377,1.2739111,-0.97280973,-1.4415832,1.3004506,-0.15541895,0.8558647,0.90422493,0.53577536,-0.41064727,2.2087622,-0.64359,0.94231105,-2.7754183,0.10977768,3.428982,0.32344675,-0.57005954,0.8208366,0.75357777,0.043300424,0.0767411,0.6514265,-1.2518616,-0.07172043,0.9474803,1.0,0.0,0.0,0.0,0.0,0.0,0.0,-2.8587623,0.24358997,-0.39231104,-0.026106834,0.6660223,5.459711,-5.7943583,1.3682485,-1.0462761,-0.5480051
21.429852,71.47352,22.504269,3.4189649,-0.5841684,0.951765,0.37656,-0.8014719,0.7420391,-0.023934573,0.39226016,0.6623144,0.6810375,-0.55640775,1.4784911,-0.85518163,-1.8632531,-0.86585826,2.1649692,1.3420149,-1.0284505,1.5442415,-0.9162973,-1.861922,-0.897122,2.1079006,1.2792021,-0.9769134,-1.4397848,1.311475,-0.08810613,0.7754725,0.9201662,0.52737117,-0.41141915,2.1810288,-0.642493,0.9758387,-2.7726433,0.10966793,3.327368,0.31112814,-0.5703356,0.83030456,0.7616569,0.03494461,0.07540732,0.6426284,-1.2246195,0.0019533203,0.94496655,1.0,0.0,0.0,0.0,0.0,0.0,0.0,-2.831029,0.242493,-0.4258387,-0.021862984,1.0514498,7.264872,-8.301174,1.5163064,-0.7601261,-0.40345192
25.417568,68.09511,21.100395,-0.024249077,-0.94652706,0.6337282,0.44380313,-0.7986901,0.74966586,-0.025485449,0.30703858,0.66881555,0.685116,-0.5481494,1.4643725,-0.8413307,-1.8644706,-0.8664182,2.1747823,1.3477137,-1.0317284,1.5298754,-0.9030794,-1.8624542,-0.89022696,2.117216,1.284432,-0.9810161,-1.4363703,1.3251892,-0.040056176,0.65995765,0.9351063,0.52211803,-0.410783,2.1533232,-0.641397,1.008351,-2.7698712,0.109558284,3.2258556,0.299201,-0.5698614,0.83964217,0.76913726,0.026644891,0.07412172,0.6342111,-1.180821,0.076734394,0.9280512,1.0,0.0,0.0,0.0,0.0,0.0,0.0,-2.8033233,0.241397,-0.45835096,0.14746189,1.3495922,5.2788124,-11.825585,1.451838,-0.3334999,-0.23524165
29.660137,67.360054,20.782328,-2.901166,-1.2824256,0.41025543,0.51894456,-0.79600376,0.7646195,0.00013808487,0.21449782,0.6734101,0.6846606,-0.53735906,1.4502751,-0.8266174,-1.8624403,-0.86877716,2.1845572,1.3528981,-1.034752,1.5155493,-0.88967836,-1.8625534,-0.88472617,2.1266613,1.2896239,-0.98510164,-1.4318513,1.3449976,0.0015247348,0.5125702,0.94783944,0.51902014,-0.40871233,2.1256452,-0.6403024,1.0398489,-2.767102,0.109448746,3.1244447,0.28781796,-0.5686109,0.84875345,0.7759616,0.01850721,0.072983816,0.6262702,-1.1217393,0.15451984,0.9030489,1.0,0.0,0.0,0.0,0.0,0.0,0.0,-2.7756453,0.24030241,-0.4898489,0.26705265,1.9842863,4.5800967,-15.010393,1.2650371,-0.029063225,-0.06452799
36.54812,61.641243,18.984219,-8.672043,-1.8088982,-0.08025512,0.6437232,-0.78452474,0.76875556,0.00012414448,0.06923054,0.6859852,0.6796935,-0.53771037,1.4370968,-0.8128028,-1.862541,-0.8778031,2.1952598,1.3575932,-1.0388727,1.5013167,-0.8760923,-1.8623798,-0.8811003,2.1362438,1.2947928,-0.98916525,-1.4209539,1.3632829,0.023594575,0.31167692,0.96175957,0.5177988,-0.4063205,2.0979948,-0.6392088,1.0703335,-2.7643356,0.10933932,3.0231352,0.27721357,-0.5665803,0.85745955,0.7820416,0.010727129,0.07209967,0.6189487,-1.0368284,0.23135911,0.8569963,1.0,0.0,0.0,0.0,0.0,0.0,0.0,-2.747995,0.23920879,-0.52033347,0.93193054,1.8751621,2.534783,-20.368088,1.4269829,0.30989647,0.012201071
46.665154,59.351692,19.035864,-15.798264,-2.4587631,-0.47622752,0.873366,-0.7775577,0.77938336,0.051101923,-0.13064978,0.6953163,0.6714953,-0.5407089,1.4235609,-0.798154,-1.8572696,-0.8941653,2.2057755,1.3619423,-1.0432361,1.4872156,-0.86231935,-1.8618667,-0.88005316,2.1459713,1.2999579,-0.9932069,-1.4067357,1.3822427,0.06151764,0.034909744,0.97620004,0.51787734,-0.4040484,2.070372,-0.6381161,1.0998056,-2.7615716,0.109230004,2.921927,0.26768208,-0.5637202,0.86557895,0.78721446,0.003507857,0.07153897,0.6125056,-0.9210943,0.3149738,0.79382855,1.0,0.0,0.0,0.0,0.0,0.0,0.0,-2.7203722,0.23811612,-0.5498056,1.3006449,1.9869089,4.0347004,-27.93119,1.5211225,0.5972028,0.051885843
44.337574,55.54667,17.46281,-15.070439,-2.3543744,-0.68103206,0.83079565,-0.7764074,0.7840338,0.056573924,-0.22465125,0.6914199,0.6714618,-0.5189935,1.4095749,-0.783916,-1.8562093,-0.9025183,2.2151134,1.367104,-1.0451063,1.4732405,-0.84838235,-1.8610256,-0.88171923,2.1558018,1.3051249,-0.9972095,-1.3944904,1.397916,0.09177569,-0.23442091,0.9859439,0.51824313,-0.3993474,2.042777,-0.63702464,1.1282666,-2.7588105,0.10912079,2.8208199,0.2593012,-0.56010485,0.87304264,0.79149324,-0.0030655267,0.07133261,0.6069931,-0.8054814,0.38577792,0.72705275,1.0,0.0,0.0,0.0,0.0,0.0,0.0,-2.6927772,0.23702464,-0.57826656,1.1608839,1.6867161,3.1144037,-27.132357,1.1225939,0.62105656,0.36409497
43.004086,58.562393,19.218962,-12.342433,-2.0019274,-0.5076854,0.8565366,-0.77032286,0.78369343,0.16509682,-0.32473305,0.7018026,0.6631336,-0.5048394,1.3962082,-0.77001303,-1.8445159,-0.91419256,2.225982,1.3714383,-1.0476935,1.4593855,-0.83433855,-1.8594711,-0.88586676,2.165739,1.3102881,-1.0011557,-1.3825648,1.4070561,0.1764779,-0.47532696,0.99689454,0.5174998,-0.39323312,2.0152097,-0.63593435,1.1557171,-2.7560523,0.109011695,2.7198138,0.25199652,-0.55578685,0.8799537,0.79490507,-0.009105161,0.07132277,0.6024583,-0.69982594,0.4541244,0.6751716,1.0,0.0,0.0,0.0,0.0,0.0,0.0,-2.6652098,0.23593435,-0.6057171,1.1769056,1.055789,8.409002,-24.219137,1.3548374,0.4750967,0.54822564
40.02707,64.18972,21.696423,-7.551586,-1.5555003,-0.19057062,0.8201136,-0.75959474,0.78898716,0.26707104,-0.3903381,0.6922914,0.6525528,-0.47530428,1.3834261,-0.7554398,-1.832764,-0.9249006,2.2349682,1.3755434,-1.0486861,1.4456698,-0.82022035,-1.8566864,-0.89201605,2.1757412,1.3154341,-1.0050219,-1.3679507,1.4139613,0.31173834,-0.6616529,1.0025841,0.5152504,-0.3845171,1.98767,-0.634845,1.1821585,-2.7532969,0.10890271,2.618909,0.2456255,-0.5507715,0.88651973,0.79749125,-0.0148480395,0.07132151,0.59891605,-0.6104992,0.52280223,0.64594835,1.0,0.0,0.0,0.0,0.0,0.0,0.0,-2.63767,0.23484501,-0.63215846,1.4842272,0.85208416,13.296262,-18.700241,0.9723067,0.2807498,0.84020495
35.035915,69.774605,23.907022,-1.368187,-1.0084193,0.18001518,0.7296475,-0.74867165,0.79349566,0.36853728,-0.41647595,0.68982595,0.65323937,-0.43172523,1.3708026,-0.7408708,-1.8198327,-0.93366367,2.2447238,1.380758,-1.0481944,1.43212,-0.80603826,-1.852267,-0.8994976,2.1857777,1.3205553,-1.0087756,-1.3504689,1.4201224,0.4839078,-0.7770629,1.0056669,0.51265424,-0.37216395,1.9601574,-0.63375664,1.2075914,-2.7505443,0.108793825,2.5181048,0.23997784,-0.5450661,0.892984,0.79933405,-0.020575868,0.0711565,0.596304,-0.5430908,0.590943,0.6415003,1.0,0.0,0.0,0.0,0.0,0.0,0.0,-2.6101575,0.23375663,-0.6575914,1.7952442,0.79512596,16.834593,-11.569548,0.849843,0.19828081,1.2220263
27.027271,72.03892,24.364342,5.9214764,-0.37800032,0.46242136,0.5451377,-0.7338095,0.796031,0.43749693,-0.3880252,0.6857019,0.6510863,-0.359664,1.358739,-0.7264352,-1.8085173,-0.93830013,2.2543478,1.385664,-1.044742,1.4187781,-0.79180276,-1.8461311,-0.9074751,2.1958218,1.325648,-1.0123595,-1.328519,1.4253838,0.65519637,-0.8046163,1.0060424,0.50941205,-0.35384712,1.9326725,-0.6326697,1.2320172,-2.7477942,0.108685054,2.4174016,0.2348032,-0.5387337,0.899564,0.80058,-0.026545322,0.07072454,0.59444517,-0.50203776,0.6514896,0.658065,1.0,0.0,0.0,0.0,0.0,0.0,0.0,-2.5826726,0.23266968,-0.68201715,2.2470713,0.71673393,16.656065,-2.7832866,0.6563902,0.06660223,1.8160284
15.0997,67.338715,21.671366,12.537483,0.26409,0.5607953,0.30918002,-0.7485951,0.792422,0.4806595,-0.36468866,0.6860147,0.6540901,-0.30871883,1.3439186,-0.71256053,-1.7980652,-0.943944,2.2644231,1.391057,-1.0432314,1.4055411,-0.7775482,-1.8385074,-0.91527045,2.205862,1.3307081,-1.0157355,-1.3220333,1.4260966,0.79664797,-0.77134717,1.0052559,0.5058542,-0.33220103,1.9052153,-0.6315837,1.2554367,-2.7450469,0.108576395,2.316799,0.2298255,-0.5319226,0.9063585,0.8014322,-0.0328767,0.07001057,0.5930633,-0.48910522,0.69511414,0.68065614,1.0,0.0,0.0,0.0,0.0,0.0,0.0,-2.5552154,0.23158368,-0.70543665,0.6589651,0.25572777,13.713956,3.2593846,0.50895214,-0.060474873,2.1371067
8.166563,61.941418,18.93766,15.585898,0.54841524,0.47662368,0.15118472,-0.748877,0.79367346,0.5088147,-0.3448422,0.68871844,0.6491943,-0.25855786,1.3306533,-0.69818085,-1.7876259,-0.94975466,2.2747338,1.3956276,-1.0415913,1.3923117,-0.7632946,-1.8297851,-0.92251074,2.2158985,1.3357283,-1.018875,-1.3233001,1.4256542,0.89623255,-0.70863587,1.0047035,0.50163436,-0.30801097,1.8777852,-0.63049865,1.2778507,-2.7423024,0.10846784,2.216297,0.22487831,-0.52477455,0.9133595,0.80205023,-0.03956144,0.0690757,0.59192806,-0.4890799,0.7256567,0.7003958,1.0,0.0,0.0,0.0,0.0,0.0,0.0,-2.5277853,0.23049864,-0.72785074,-0.1462698,0.13303757,9.59034,6.171751,0.46989918,-0.18283129,2.3858786
-3.015357,55.942062,15.5691595,21.619963,1.1170194,0.51035285,-0.10343349,-0.76227313,0.7912156,0.5137625,-0.24074763,0.6803556,0.6534852,-0.18386547,1.3160844,-0.684173,-1.7784089,-0.94658554,2.283934,1.4010768,-1.0372616,1.3789774,-0.7490629,-1.8204296,-0.92868674,2.2259007,1.3407084,-1.0217398,-1.3372281,1.4229753,0.94755524,-0.58788097,1.0004365,0.4973186,-0.27945632,1.8503828,-0.6294148,1.2992606,-2.7395608,0.1083594,2.1158953,0.21973896,-0.51745677,0.92058504,0.80263996,-0.046624072,0.06798954,0.5907391,-0.51449615,0.738338,0.72352326,1.0,0.0,0.0,0.0,0.0,0.0,0.0,-2.500383,0.22941479,-0.7492606,-1.4740467,-0.09419918,4.8366904,11.91231,0.05118847,-0.28925538,2.8048754
-17.845882,48.926964,11.436608,30.344307,1.9461828,0.6359368,-0.47437036,-0.7846582,0.7863533,0.47784063,-0.07072261,0.67101103,0.6652377,-0.1584808,1.3005116,-0.67042756,-1.7726455,-0.935759,2.2930017,1.4072322,-1.0375879,1.3653933,-0.73487985,-1.8110149,-0.9330088,2.2358341,1.3456503,-1.0243243,-1.3662052,1.4172769,0.93860734,-0.3811175,0.9922381,0.49335057,-0.25186428,1.8230076,-0.62833214,1.3196672,-2.7368217,0.10825106,2.015594,0.21406698,-0.5101819,0.9281084,0.80350345,-0.054158513,0.06680359,0.5890555,-0.57669044,0.7285862,0.7553513,1.0,0.0,0.0,0.0,0.0,0.0,0.0,-2.4730077,0.22833213,-0.7696672,-3.0579567,-0.3976822,-1.1268854,20.430582,-0.37212372,-0.39204955,2.6881754
-23.048569,44.240364,9.171803,33.16365,2.2070866,0.61487836,-0.640141,-0.7964668,0.7822283,0.45415086,0.037722223,0.66550076,0.6705257,-0.17503513,1.2857466,-0.65665704,-1.7655998,-0.9292366,2.3023841,1.4127029,-1.0418278,1.3514887,-0.7207693,-1.8019664,-0.93503535,2.2456722,1.3505579,-1.0266742,-1.3990496,1.4096198,0.89299816,-0.14396587,0.9825147,0.48973244,-0.22972812,1.79566,-0.62725043,1.3390715,-2.7340853,0.10814283,1.9153929,0.2076807,-0.50307536,0.9359478,0.8048281,-0.062203914,0.06556534,0.5865864,-0.6511571,0.71014684,0.7869899,1.0,0.0,0.0,0.0,0.0,0.0,0.0,-2.44566,0.22725043,-0.7890715,-3.4601927,-0.6083727,-4.762709,23.456425,-0.55377483,-0.42933226,2.140656
-18.924831,43.431126,9.256604,30.331299,1.8955678,0.4776519,-0.596367,-0.80052215,0.78263557,0.4429451,0.10109216,0.66561234,0.6700453,-0.23363575,1.2714365,-0.6425057,-1.757672,-0.92492616,2.3122334,1.4175625,-1.0500377,1.3373038,-0.70672166,-1.7934406,-0.934878,2.2554264,1.355435,-1.0288771,-1.425387,1.4036677,0.83859897,0.068298034,0.97435933,0.48660356,-0.21724962,1.7683396,-0.6261697,1.3574747,-2.7313519,0.10803471,1.8152919,0.20063734,-0.49611497,0.9440473,0.8066088,-0.07071256,0.06431706,0.58330554,-0.71363586,0.6975695,0.8111843,1.0,0.0,0.0,0.0,0.0,0.0,0.0,-2.4183397,0.22616968,-0.8074747,-2.7794123,-0.46300888,-5.6144476,21.008184,-0.4381895,-0.37824512,1.1790365
-8.674224,43.78471,10.223621,22.594772,1.1327817,0.16504835,-0.3772962,-0.805762,0.7854505,0.4303306,0.10173449,0.6735396,0.6689561,-0.26870993,1.2567276,-0.6281766,-1.7504076,-0.92470455,2.3227804,1.4223306,-1.0557481,1.3229166,-0.69270265,-1.7854164,-0.93319476,2.2651386,1.3602854,-1.0310038,-1.4434645,1.4017055,0.789882,0.20106676,0.97128916,0.48463973,-0.21148133,1.7410464,-0.6250901,1.3748776,-2.7286212,0.1079267,1.715291,0.19321012,-0.48919225,0.95225227,0.8086829,-0.07950841,0.06312725,0.579418,-0.74407303,0.69741154,0.8171593,1.0,0.0,0.0,0.0,0.0,0.0,0.0,-2.3910465,0.22509012,-0.82487756,-1.9211054,-0.09448528,-4.9723625,13.104206,-0.00654459,-0.18081069,0.50815046
9.207771,41.15169,10.599634,6.838993,-0.29154098,-0.5677341,0.06960767,-0.8110868,0.78102773,0.4262987,-0.046907388,0.6753019,0.667998,-0.30268076,1.2418079,-0.6145999,-1.7427865,-0.9378855,2.3326688,1.4270852,-1.0612719,1.3083979,-0.67870843,-1.7777545,-0.9314524,2.2748356,1.3651301,-1.0331134,-1.454752,1.3988743,0.7583804,0.16477263,0.96984,0.4852594,-0.21109685,1.7137809,-0.62401175,1.3912811,-2.725893,0.10781879,1.6153901,0.18595171,-0.4821806,0.960202,0.8107294,-0.08816272,0.06214205,0.5753986,-0.7110922,0.70973104,0.78121704,1.0,0.0,0.0,0.0,0.0,0.0,0.0,-2.363781,0.22401175,-0.8412811,-1.211381,-0.2120018,-3.1073809,-3.773913,0.011122227,0.30366182,-0.028169155
22.347542,43.084095,12.400414,-3.0080652,-1.2237892,-0.9989713,0.4099437,-0.8023593,0.78424895,0.44136286,-0.120771796,0.6762089,0.66069156,-0.25207907,1.2281619,-0.60028356,-1.7336183,-0.94352955,2.3424566,1.4311992,-1.0583212,1.2938639,-0.66471994,-1.7702034,-0.93081725,2.284525,1.3699862,-1.0351905,-1.4530048,1.3989651,0.754349,0.029404214,0.9692021,0.48695004,-0.20666608,1.6865425,-0.62293434,1.4066864,-2.7231677,0.107710995,1.515589,0.17934465,-0.47496367,0.9676464,0.8124536,-0.09636105,0.06145754,0.5717137,-0.6352019,0.73245144,0.7259461,1.0,0.0,0.0,0.0,0.0,0.0,0.0,-2.3365426,0.22293434,-0.8566864,0.14238358,0.071167946,-0.31119585,-13.631857,0.018918514,0.55277944,0.38341284
25.241898,44.34796,13.257679,-4.513426,-1.3630826,-1.1006501,0.4948482,-0.7998693,0.78371906,0.449108,-0.13701278,0.6762781,0.65590507,-0.22137657,1.213877,-0.58634806,-1.7252926,-0.9445185,2.3521528,1.4355767,-1.0573281,1.2793967,-0.6507267,-1.7625625,-0.93162596,2.2942142,1.3748556,-1.0372008,-1.4446933,1.399683,0.7673806,-0.11780606,0.9691272,0.48839194,-0.19930638,1.6593313,-0.6218579,1.4210945,-2.7204452,0.107603304,1.4158877,0.1735568,-0.46750617,0.97454154,0.8137444,-0.10402995,0.0610697,0.5685668,-0.55109555,0.75617844,0.6712346,1.0,0.0,0.0,0.0,0.0,0.0,0.0,-2.3093314,0.22185788,-0.8710945,0.8387089,0.14312267,1.3487577,-14.778858,0.085783005,0.5412638,0.6925702
19.9786,44.620483,13.283096,0.66975975,-0.87147635,-0.904527,0.40162253,-0.8019455,0.78024566,0.45648903,-0.10820197,0.67184097,0.6650387,-0.10999837,1.1992021,-0.5727021,-1.7169136,-0.9424462,2.3613985,1.4413595,-1.0482006,1.2650076,-0.6367401,-1.7547328,-0.93348086,2.303896,1.3797423,-1.0390567,-1.4371463,1.3986081,0.78813595,-0.20826836,0.9681854,0.48983836,-0.1812885,1.6321473,-0.62078285,1.4345063,-2.7177253,0.107495725,1.3162861,0.16845322,-0.45983267,0.9810068,0.81464386,-0.11131222,0.06090457,0.56591123,-0.48750657,0.7758779,0.6321275,1.0,0.0,0.0,0.0,0.0,0.0,0.0,-2.2821474,0.22078285,-0.8845063,0.7618904,-0.018239021,2.0450473,-9.105873,0.06853342,0.46516657,1.7632872
15.082853,44.405296,13.06108,5.2789345,-0.4593977,-0.74047405,0.3196474,-0.8010215,0.7799866,0.4622129,-0.109280445,0.66235566,0.66421664,0.040594168,1.1849054,-0.55874145,-1.7085116,-0.9444089,2.3701315,1.4461639,-1.0349972,1.2506777,-0.6227659,-1.7466953,-0.9358679,2.3135433,1.3846384,-1.0406283,-1.4315238,1.3973384,0.80888104,-0.24901703,0.9639991,0.49041304,-0.1492165,1.6049905,-0.6197088,1.4469229,-2.715008,0.10738825,1.2167841,0.16385031,-0.45197868,0.98717654,0.81521887,-0.11836813,0.060908124,0.5636464,-0.44193187,0.79265016,0.60580456,1.0,0.0,0.0,0.0,0.0,0.0,0.0,-2.2549906,0.21970877,-0.8969229,0.5526781,-0.02424717,1.9991875,-4.149759,-0.20090342,0.31667948,3.1677008
8.355741,41.899387,12.019168,11.080577,0.12589324,-0.5495868,0.20133014,-0.7992852,0.77028424,0.46363267,-0.063909546,0.6556508,0.6612503,0.22858946,1.1707492,-0.5457375,-1.700332,-0.94225883,2.3791084,1.4507635,-1.0177693,1.2363917,-0.608848,-1.7384937,-0.93817675,2.3231335,1.3895327,-1.0417556,-1.4278824,1.3903551,0.82360435,-0.22520496,0.9578793,0.4897413,-0.100698374,1.5778608,-0.61863565,1.458345,-2.7122936,0.10728089,1.1173816,0.15951824,-0.4440019,0.99318624,0.81554776,-0.12537065,0.061014153,0.56164145,-0.42110714,0.8028984,0.59312445,1.0,0.0,0.0,0.0,0.0,0.0,0.0,-2.227861,0.21863565,-0.90834504,0.3214836,-0.58386326,1.3670683,2.2648306,-0.34089088,0.12054443,4.79819
2.117361,38.133644,10.238092,15.561117,0.5460813,-0.4493934,0.041541804,-0.80620843,0.76558834,0.44197434,-0.0208544,0.6390128,0.6639702,0.29679576,1.1557708,-0.53228915,-1.6942962,-0.9402622,2.3870347,1.4559298,-1.012076,1.2220904,-0.5950178,-1.7303016,-0.93990767,2.3326168,1.3944193,-1.0423774,-1.4310952,1.3809115,0.81759334,-0.15629868,0.9462846,0.48861536,-0.049455408,1.5507584,-0.6175635,1.468774,-2.7095819,0.10717363,1.0180784,0.15524769,-0.43597364,0.99912494,0.8157518,-0.13243866,0.061214723,0.5596979,-0.41949308,0.8060509,0.58785665,1.0,0.0,0.0,0.0,0.0,0.0,0.0,-2.2007585,0.21756348,-0.91877395,-0.40967464,-0.8258581,-0.69850683,6.7302585,-0.8666158,0.015890598,5.0621977
-3.4282694,35.373116,9.126641,20.720913,1.0513998,-0.28553504,-0.124325216,-0.79858065,0.75477546,0.42640653,0.08128754,0.63725567,0.6608091,0.33671695,1.1422323,-0.51954025,-1.6876609,-0.9317789,2.3963423,1.4605002,-1.0087056,1.2077814,-0.5813173,-1.7222869,-0.9404932,2.3419933,1.3992869,-1.0425051,-1.431331,1.3667296,0.7959246,-0.026641702,0.93593466,0.48653096,-0.00059232756,1.5236826,-0.61649275,1.4782106,-2.7068727,0.107066475,0.91887456,0.15083075,-0.42794967,1.0051012,0.815952,-0.13972126,0.061454754,0.5576051,-0.43981624,0.8042701,0.5946116,1.0,0.0,0.0,0.0,0.0,0.0,0.0,-2.1736827,0.21649274,-0.92821056,-0.13742447,-1.2945652,-2.2832632,12.770489,-0.70815086,-0.14646053,4.810239
-5.683073,32.631386,8.034595,22.49468,1.2209172,-0.280299,-0.21898869,-0.7932702,0.74653906,0.3946482,0.15023468,0.6280174,0.66084796,0.34759748,1.1284544,-0.5066634,-1.6828221,-0.92546976,2.4047952,1.4653716,-1.0077454,1.1934973,-0.56777513,-1.7146347,-0.9396111,2.3512592,1.4041334,-1.0421866,-1.4277201,1.350426,0.75470877,0.12580346,0.92488575,0.48422298,0.042268626,1.4966345,-0.61542296,1.486656,-2.7041664,0.10695943,0.8197699,0.14615297,-0.41996932,1.011163,0.8162316,-0.14729498,0.061716136,0.55521286,-0.46780795,0.79930955,0.603855,1.0,0.0,0.0,0.0,0.0,0.0,0.0,-2.1466346,0.21542296,-0.93665594,0.2468586,-1.5112162,-4.241693,15.042229,-0.7781744,-0.201267,4.2072883
-4.811286,31.836065,7.783779,21.568575,1.1032648,-0.35029548,-0.22072154,-0.7920744,0.7419308,0.3725211,0.19572602,0.61934054,0.65822685,0.34778622,1.1142899,-0.49358204,-1.6773826,-0.92003846,2.4131932,1.4699562,-1.007408,1.179259,-0.55438364,-1.7074497,-0.9372908,2.3604145,1.4089571,-1.0414923,-1.4229953,1.335661,0.7060664,0.26676753,0.9131362,0.48188645,0.07828781,1.4696131,-0.61435413,1.4941111,-2.701463,0.106852494,0.7207643,0.14122629,-0.4120314,1.0172931,0.8166094,-0.15514202,0.06202253,0.55247915,-0.4914918,0.79563946,0.6099279,1.0,0.0,0.0,0.0,0.0,0.0,0.0,-2.1196132,0.21435413,-0.94411105,0.36849976,-1.3693333,-4.9655676,13.912237,-0.87099075,-0.2063334,3.5259745
-0.1950407,29.990988,7.0792365,15.707258,0.5436089,-0.68592864,-0.11222524,-0.79408723,0.73655766,0.33770192,0.16768289,0.5951305,0.6605577,0.341282,1.0998502,-0.48072785,-1.6736795,-0.9205225,2.4199276,1.4750129,-1.0073642,1.1650511,-0.5411247,-1.7008159,-0.9340769,2.369398,1.4137636,-1.0404891,-1.4201795,1.322897,0.6489093,0.33909133,0.8940878,0.48077,0.107546836,1.4426184,-0.61328626,1.5005769,-2.698762,0.10674567,0.6218577,0.13624763,-0.40414166,1.023348,0.8170447,-0.16306841,0.06249705,0.5494914,-0.49071983,0.7907923,0.59795797,1.0,0.0,0.0,0.0,0.0,0.0,0.0,-2.0926185,0.21328625,-0.95057684,0.19965172,-1.1873245,-5.761564,7.074457,-1.6729355,-0.013959408,2.8611302
7.76646,28.54065,6.746661,6.331136,-0.25917137,-1.192524,0.120764956,-0.79211915,0.7286382,0.31928456,0.076059885,0.5862345,0.660866,0.35295063,1.0858392,-0.46826088,-1.6688875,-0.92647094,2.4280217,1.4798503,-1.0051941,1.1508719,-0.52799165,-1.6947143,-0.93094504,2.3781834,1.4185702,-1.0392226,-1.417299,1.3102897,0.5972923,0.3041946,0.87353414,0.48125735,0.13284743,1.4156513,-0.6122198,1.5060543,-2.6960638,0.106638946,0.52304995,0.13156366,-0.39632607,1.0290878,0.81742126,-0.17073706,0.063273855,0.54650503,-0.45180383,0.7824888,0.56024575,1.0,0.0,0.0,0.0,0.0,0.0,0.0,-2.0656514,0.2122198,-0.9560543,0.24991035,-1.1881828,-5.1388383,-3.6093593,-1.9289732,0.27187467,2.4778142
12.506603,26.347055,6.2199516,0.18175602,-0.6943591,-1.5623574,0.28884524,-0.79330283,0.7142035,0.30922565,0.009788863,0.5828809,0.6523519,0.38072076,1.0715415,-0.4565713,-1.6637918,-0.92996615,2.4364715,1.4838053,-1.0011505,1.1367117,-0.5150188,-1.6890304,-0.9287058,2.3867855,1.4233805,-1.0377139,-1.4158126,1.2932527,0.55894625,0.19689754,0.85576946,0.48191258,0.15669677,1.388711,-0.6111543,1.5105444,-2.6933684,0.10653233,0.42434108,0.12744427,-0.38864136,1.0343248,0.8176375,-0.1778634,0.064408116,0.5437693,-0.38954788,0.7675168,0.50606513,1.0,0.0,0.0,0.0,0.0,0.0,0.0,-2.038711,0.21115431,-0.9605444,0.15175343,-1.6356945,-3.7859082,-10.820097,-1.718533,0.36551952,2.344808
18.544884,28.119926,7.331825,-5.9268003,-1.1753244,-1.8508548,0.5133887,-0.79718286,0.70799816,0.33794767,-0.11664277,0.5899974,0.6491232,0.41545096,1.0569935,-0.444219,-1.6552356,-0.9403701,2.4457853,1.4882928,-0.9961688,1.122542,-0.5022119,-1.6834552,-0.9281069,2.3952694,1.4281985,-1.0359687,-1.4171821,1.2767043,0.5572994,0.014080314,0.8457822,0.48283347,0.18046637,1.3617973,-0.6100898,1.5140482,-2.6906755,0.106425814,0.3257309,0.124135494,-0.38110232,1.0389242,0.81756413,-0.18422678,0.06589488,0.54157835,-0.30234587,0.7521017,0.4394515,1.0,0.0,0.0,0.0,0.0,0.0,0.0,-2.0117974,0.21008977,-0.9640482,-0.07722378,-1.590538,-0.104129314,-18.309723,-1.0037184,0.4489839,2.3547678
19.648964,28.810503,7.999291,-6.2921696,-1.1345699,-1.8973347,0.57177794,-0.7859777,0.69475603,0.35118273,-0.170296,0.5928302,0.63968676,0.44750792,1.0439442,-0.43273634,-1.648337,-0.9451365,2.4545524,1.4921671,-0.99121785,1.1084086,-0.4895899,-1.6777275,-0.9293524,2.4036999,1.4330164,-1.0339869,-1.4116572,1.2575692,0.57782704,-0.17063707,0.84217006,0.48256907,0.2041265,1.3349104,-0.6090262,1.5165666,-2.6879854,0.10631941,0.22721928,0.12170982,-0.3737173,1.042877,0.81713134,-0.18978585,0.06765466,0.540093,-0.21389467,0.73558235,0.37559667,1.0,0.0,0.0,0.0,0.0,0.0,0.0,-1.9849104,0.20902619,-0.9665666,0.66752434,-1.8408298,2.0418286,-18.461586,-0.35470724,0.30893087,2.3591638
16.804337,29.11059,8.100014,-2.7147655,-0.84562445,-1.7612745,0.48483574,-0.78385985,0.68994206,0.34779185,-0.19968522,0.5808044,0.64584744,0.47799057,1.0300226,-0.4205957,-1.6429483,-0.9493209,2.4617803,1.4976012,-0.9861879,1.0943419,-0.47713825,-1.6717861,-0.9321524,2.4120846,1.4378325,-1.0317706,-1.4045186,1.2413471,0.59945446,-0.31634784,0.8375793,0.4822275,0.22751519,1.3080511,-0.6079638,1.5181007,-2.685298,0.106213115,0.12880617,0.12006998,-0.3664801,1.0462734,0.81637347,-0.19465138,0.06962949,0.539256,-0.13898171,0.72032076,0.3229155,1.0,0.0,0.0,0.0,0.0,0.0,0.0,-1.9580511,0.2079638,-0.9681007,0.82383156,-1.5380859,2.0937443,-14.565539,-0.4000187,0.23989677,2.339518
13.031126,26.4357,7.0503526,0.9202571,-0.511454,-1.6745392,0.35772207,-0.77305615,0.676145,0.33326876,-0.23186839,0.55739117,0.6419199,0.5009305,1.0170362,-0.40952376,-1.6384592,-0.95533925,2.4678237,1.5020244,-0.98167753,1.0803877,-0.464864,-1.6657379,-0.93607676,2.4203663,1.4426409,-1.0293273,-1.3920132,1.2230644,0.6062428,-0.4179129,0.8255113,0.48101348,0.24977301,1.2812185,-0.6069026,1.5186514,-2.6826131,0.10610692,0.03049145,0.11906767,-0.35941195,1.049209,0.8153745,-0.19895026,0.071796544,0.538914,-0.07915668,0.7019732,0.27905774,1.0,0.0,0.0,0.0,0.0,0.0,0.0,-1.9312185,0.2069026,-0.96865135,1.3483047,-1.7348766,0.56825876,-10.181129,-1.1081338,0.102466345,2.2221386
6.9049087,21.794302,4.8748903,5.8909807,-0.0755527,-1.556683,0.14706978,-0.7777245,0.6683362,0.29118627,-0.2362878,0.5315509,0.64343196,0.5205436,1.0026152,-0.39803037,-1.6366192,-0.95970553,2.4735215,1.5069841,-0.9772729,1.0665156,-0.45276424,-1.6598747,-0.94063246,2.428465,1.447436,-1.0266742,-1.3855162,1.205901,0.5795643,-0.46849298,0.80464566,0.47937822,0.2704954,1.2544127,-0.60584235,1.5182196,-2.6799312,0.10600084,-0.06772499,0.11850548,-0.35256195,1.0517757,0.81428605,-0.20279966,0.07418423,0.5388016,-0.040599063,0.6783588,0.24451712,1.0,0.0,0.0,0.0,0.0,0.0,0.0,-1.9044126,0.20584235,-0.9682196,0.6716013,-1.6192436,-2.7469277,-5.1491976,-1.9621611,-0.0013768673,2.0526886
3.9007275,16.033264,2.5459042,6.9149895,0.12420735,-1.6344512,0.04722626,-0.7722588,0.6501388,0.25591806,-0.28335816,0.51346135,0.6496128,0.5222805,0.9892897,-0.38775036,-1.6342828,-0.9689683,2.479811,1.5123973,-0.9744461,1.0527045,-0.44087526,-1.6544693,-0.94562113,2.4363155,1.4522177,-1.023836,-1.3796476,1.1835257,0.52729595,-0.5094317,0.77921563,0.47823742,0.288077,1.2276335,-0.60478306,1.5168064,-2.6772518,0.10589486,-0.16584322,0.11827755,-0.34601784,1.0539861,0.8132247,-0.20620708,0.07682582,0.53874105,-0.009553106,0.6449733,0.20869249,1.0,0.0,0.0,0.0,0.0,0.0,0.0,-1.8776335,0.20478305,-0.96680635,0.59781075,-2.1450043,-5.286932,-4.2146263,-2.4403453,0.02362132,1.7274082
2.3065498,10.621845,0.71030986,6.813846,0.20933688,-1.7253177,0.014901371,-0.7634589,0.6208309,0.2374238,-0.31992278,0.45031568,0.6450186,0.5375676,0.97635853,-0.37879217,-1.6307268,-0.9776134,2.481347,1.5167196,-0.97007924,1.0389715,-0.42930195,-1.6496246,-0.9510256,2.4437618,1.4569861,-1.0208338,-1.3709072,1.1488749,0.46985874,-0.55122125,0.73344755,0.47673175,0.30409792,1.200881,-0.6037247,1.5144128,-2.674575,0.10578899,-0.26386335,0.118341446,-0.3398652,1.0558127,0.8122469,-0.2091401,0.07975096,0.5386604,0.018892335,0.6035623,0.16966762,1.0,0.0,0.0,0.0,0.0,0.0,0.0,-1.850881,0.20372471,-0.96441275,0.90897083,-3.3789635,-5.812806,-4.309368,-4.495704,-0.023573637,1.5572906
0.68822145,1.990107,-2.1328592,5.294516,0.36255914,-1.9086413,0.021816418,-0.7567956,0.5742587,0.20930605,-0.37415832,0.40702233,0.6566586,0.557448,0.963292,-0.3718761,-1.6286939,-0.98844147,2.4844642,1.5226519,-0.965089,1.0253454,-0.41823885,-1.6453674,-0.956988,2.4506702,1.4617487,-1.0176772,-1.359557,1.0923511,0.41069672,-0.61173695,0.6768406,0.47651547,0.31934908,1.1741552,-0.6026678,1.5110397,-2.6719012,0.10568322,-0.3617855,0.11868,-0.33423948,1.0571796,0.81137854,-0.21150607,0.08294157,0.5385635,0.04517922,0.54673225,0.12163699,1.0,0.0,0.0,0.0,0.0,0.0,0.0,-1.8241552,0.2026678,-0.9610397,1.2276888,-5.580282,-6.0029564,-6.1804175,-5.6272388,0.09756088,1.4642537
1.9731159,-0.63519835,-2.5413115,2.8081207,0.30693972,-2.035647,0.12225938,-0.74770117,0.5353343,0.21769093,-0.45061702,0.36759984,0.65568465,0.5609071,0.95057535,-0.3647054,-1.6235983,-1.0020497,2.4874303,1.5273172,-0.9615865,1.0118586,-0.4078414,-1.6415164,-0.9638039,2.4569798,1.4665095,-1.0143832,-1.3445271,1.0224574,0.37594888,-0.70508915,0.61552334,0.4763423,0.33264485,1.1474562,-0.60161185,1.5066882,-2.6692297,0.10557756,-0.45960975,0.1193285,-0.3292215,1.05801,0.8105742,-0.21320377,0.08633635,0.53857195,0.07736325,0.48443303,0.0664237,1.0,0.0,0.0,0.0,0.0,0.0,0.0,-1.7974561,0.20161185,-0.9566882,1.6685009,-6.926179,-3.6070168,-9.42465,-6.1256886,0.095158815,1.2689412
-0.7303667,-14.742573,-6.956932,0.58636045,0.681482,-2.2825408,0.1547582,-0.72969216,0.438325,0.19986033,-0.52198577,0.30713573,0.65899676,0.5646378,0.9388894,-0.3640089,-1.6215304,-1.0160024,2.4876933,1.5324092,-0.9579194,0.9985837,-0.3984649,-1.6379459,-0.97174037,2.4626064,1.4712702,-1.010971,-1.3208966,0.90948653,0.35012016,-0.82343525,0.54442596,0.47626165,0.34381315,1.1207838,-0.60055685,1.5013592,-2.6665611,0.105472,-0.5573362,0.12024927,-0.32501578,1.0581849,0.80981845,-0.21409307,0.089796744,0.5387901,0.10204698,0.39670432,-0.0021707588,1.0,0.0,0.0,0.0,0.0,0.0,0.0,-1.7707838,0.20055684,-0.9513592,2.6363134,-11.264229,-2.7646601,-11.916018,-7.169831,0.07002354,1.0243654
-6.275173,-34.332817,-13.805949,-1.0763509,1.2722661,-2.6000135,0.097633295,-0.71099126,0.32158482,0.14691617,-0.60272646,0.24762152,0.6473131,0.5387882,0.9274846,-0.3663064,-1.6232543,-1.032013,2.4873686,1.5360016,-0.9570921,0.9856013,-0.39059326,-1.634774,-0.98101485,2.4674625,1.4760176,-1.0074843,-1.2894415,0.7463103,0.3053979,-0.96240234,0.4651777,0.47418544,0.34989348,1.0941381,-0.5995028,1.4950536,-2.6638951,0.10536655,-0.654965,0.121306896,-0.321954,1.0575536,0.8091844,-0.21397817,0.093155436,0.5392178,0.111000754,0.27315828,-0.08637458,1.0,0.0,0.0,0.0,0.0,0.0,0.0,-1.7441381,0.1995028,-0.94505364,3.519082,-16.338968,-4.655528,-13.981878,-8.096468,-0.21803975,0.45961738
-33.374325,-119.37106,-44.799217,-4.4405465,3.6115046,-3.7888358,-0.37464017,-0.65974003,-0.07533486,-0.0776149,-0.682065,-0.10701198,0.63158137,0.5119714,0.9196273,-0.39812675,-1.6425354,-1.0492214,2.4567614,1.5391757,-0.95628715,0.9731349,-0.38595745,-1.6330249,-0.99175894,2.4705791,1.4807154,-1.0039843,-1.2300817,0.36852562,0.13126172,-1.1122109,0.25870675,0.4673685,0.3485696,1.0675192,-0.59844995,1.4877725,-2.6612318,0.10526121,-0.7524961,0.121922016,-0.32123017,1.0556253,0.80913025,-0.21229827,0.096219435,0.5394252,0.047446717,0.002887839,-0.23052153,1.0,0.0,0.0,0.0,0.0,0.0,0.0,-1.7175192,0.19844994,-0.93777245,6.637788,-38.02649,-17.48547,-15.11426,-21.267176,-1.0128498,-0.586468
-48.051777,-168.26436,-62.016533,-4.5219893,5.082485,-4.336537,-0.6151152,-0.49036092,-0.39412248,-0.25336683,-0.6740162,-0.45611557,0.5905856,0.4865909,0.9240988,-0.4253697,-1.6583617,-1.0591606,2.4249675,1.539774,-0.95532525,0.96198833,-0.3862073,-1.6337345,-1.0036017,2.4707394,1.4852968,-1.0005339,-1.0732963,-0.15752313,-0.13833617,-1.2080984,-0.06751828,0.4525438,0.3417976,1.0409269,-0.5973983,1.4795166,-2.6585712,0.10515597,-0.84992975,0.12155485,-0.32379627,1.0520576,0.8099823,-0.20875254,0.09881377,0.53906107,-0.06481291,-0.34457803,-0.40014517,1.0,0.0,0.0,0.0,0.0,0.0,0.0,-1.6909269,0.19739828,-0.9295166,16.559362,-53.02253,-26.987436,-9.517074,-33.411823,-2.23006,-1.324153
-33.51791,-149.48885,-50.26066,-6.4442215,4.9198956,-3.774223,0.0516378,-0.2609971,-0.6504704,-0.06742791,-0.7132884,-0.5587999,0.6009,0.529631,0.93588865,-0.45125437,-1.6404773,-1.0749305,2.4148593,1.5453868,-0.94757086,0.953328,-0.3920686,-1.6358936,-1.0161883,2.4677143,1.4897333,-0.99710834,-0.79527247,-0.7302882,-0.24167663,-1.2745901,-0.38204792,0.4375062,0.3414296,1.0143614,-0.5963476,1.4702873,-2.655913,0.10505083,-0.947266,0.12019777,-0.32951045,1.0468947,0.81123734,-0.2036622,0.10035426,0.5388365,-0.16202664,-0.64665073,-0.55606157,1.0,0.0,0.0,0.0,0.0,0.0,0.0,-1.6643614,0.19634756,-0.9202873,28.276825,-57.669945,-10.336408,-6.3275337,-31.836868,-2.4530172,-0.4646182
14.47163,-64.7846,-14.271941,-17.84293,1.6251587,-3.2786963,1.1579922,0.26345184,-0.72285664,-0.081530996,-0.7392832,-0.60368854,0.6138481,0.48288897,0.9796732,-0.46435428,-1.6440467,-1.0901166,2.4073455,1.5511181,-0.94881946,0.9494885,-0.40270206,-1.6384761,-1.0292917,2.4620647,1.4940516,-0.99369514,-0.2500445,-1.1748073,-0.2615938,-1.3220145,-0.62479705,0.427349,0.34128398,0.98782253,-0.5952978,1.4600853,-2.6532578,0.1049458,-1.0445049,0.118909836,-0.3372488,1.0404351,0.81183994,-0.19764787,0.10052177,0.54013574,-0.12175501,-0.81336534,-0.67791915,1.0,0.0,0.0,0.0,0.0,0.0,0.0,-1.6378225,0.19529781,-0.91008526,53.55906,-44.59808,-1.3716757,-4.7352076,-23.960245,-1.7755151,-0.023716688
33.41766,-5.4717865,6.533128,-14.551667,-0.2546503,-2.5196092,1.2247683,0.4149054,-0.7574057,-0.204958,-0.6944388,-0.6224232,0.64384633,0.38293,0.9909791,-0.47844264,-1.6589719,-1.0987356,2.3998225,1.5584362,-0.95540214,0.9511241,-0.41646454,-1.6414325,-1.0424753,2.4546032,1.4983183,-0.9903468,0.2957546,-1.4435627,-0.3033144,-1.3180453,-0.7847931,0.4245538,0.33316952,0.96130943,-0.594249,1.4489117,-2.650605,0.104840875,-1.1416466,0.118450165,-0.34592342,1.0330855,0.8113738,-0.19125713,0.09958956,0.5433003,-0.02210824,-0.8808576,-0.75755274,1.0,0.0,0.0,0.0,0.0,0.0,0.0,-1.6113094,0.194249,-0.89891165,52.910538,-26.928234,-3.0867755,0.13678074,-15.57275,-0.80919266,-0.63883066
34.187298,20.349756,11.57082,-10.223244,-0.9598175,-2.299631,0.8178597,0.5134046,-0.7862627,-0.41987044,-0.7149963,-0.52884257,0.62905824,0.2905238,1.0024645,-0.4950908,-1.6834196,-1.1139749,2.4017189,1.5612241,-0.9612944,0.95742023,-0.43179676,-1.6457031,-1.0555807,2.4463634,1.5025622,-0.9871501,0.73586667,-1.5632718,-0.46455178,-1.3089414,-0.8358442,0.42296463,0.31573114,0.93482304,-0.5932014,1.4367673,-2.647955,0.10473605,-1.2386912,0.11905813,-0.35503745,1.0250752,0.810079,-0.18456301,0.09802273,0.5478138,0.0905712,-0.9157953,-0.82050186,1.0,0.0,0.0,0.0,0.0,0.0,0.0,-1.584823,0.1932014,-0.8867673,42.491486,-12.019849,-15.036416,0.6394625,-4.8703194,-0.5864918,-1.5813887
30.07046,34.956047,13.963301,-4.3899937,-0.9078388,-1.92079,0.48642308,0.59904706,-0.8077943,-0.48336294,-0.72765183,-0.37842274,0.6274764,0.20617832,1.0173249,-0.51257616,-1.6940393,-1.128346,2.4085212,1.5653098,-0.96653223,0.96710765,-0.44760486,-1.6518028,-1.0686308,2.4384403,1.5068022,-0.9841851,1.0430293,-1.5867974,-0.65626603,-1.3040959,-0.7773085,0.42341217,0.29072884,0.90836334,-0.592155,1.4236532,-2.6453075,0.104631335,-1.3356388,0.12066221,-0.36434722,1.0165576,0.80826527,-0.17753124,0.09602627,0.5531444,0.189148,-0.92975056,-0.86829436,1.0,0.0,0.0,0.0,0.0,0.0,0.0,-1.5583633,0.19215497,-0.87365323,29.713036,-2.3897648,-18.470932,0.2985239,5.9601307,-0.23602843,-2.330482
27.181656,46.546726,17.21649,0.4669361,-0.57911986,-1.4677047,0.32197037,0.6740837,-0.8043935,-0.48496896,-0.74915946,-0.14633846,0.62433904,0.041164238,1.034516,-0.5280442,-1.7002996,-1.1435468,2.4238064,1.5692362,-0.9800687,0.97901905,-0.4632189,-1.6595047,-1.0817496,2.431963,1.5110537,-0.98157585,1.2388846,-1.5529823,-0.8073766,-1.3148503,-0.6046065,0.4253844,0.25177607,0.88193035,-0.5911095,1.4095705,-2.6426628,0.10452672,-1.4324894,0.12308836,-0.37365532,1.0076836,0.80609715,-0.17019229,0.09345705,0.5590238,0.26833883,-0.92452574,-0.9008416,1.0,0.0,0.0,0.0,0.0,0.0,0.0,-1.5319303,0.19110951,-0.85957044,19.074894,3.3715725,-14.849639,-1.2035131,17.33408,0.067704916,-3.675902
22.95293,50.853176,18.43085,4.771801,-0.09252542,-1.0998938,0.21020676,0.72783357,-0.7935189,-0.51113087,-0.76055014,0.06778677,0.5997049,-0.041958097,1.0518024,-0.54257077,-1.7106178,-1.1578046,2.4387417,1.5710242,-0.98577166,0.99226844,-0.47831795,-1.6683738,-1.09504,2.4277859,1.5153128,-0.97939193,1.3531092,-1.4955908,-0.91366583,-1.3340974,-0.35543793,0.42596814,0.20802869,0.8555236,-0.590065,1.3945198,-2.6400206,0.10442222,-1.5292431,0.12612534,-0.3828504,0.99857074,0.8036609,-0.16258748,0.090073146,0.5653151,0.32454303,-0.9109313,-0.92223257,1.0,0.0,0.0,0.0,0.0,0.0,0.0,-1.5055236,0.190065,-0.8445198,11.259437,5.7417154,-10.652685,-1.9967794,24.953032,0.030702353,-4.1237087
14.213526,43.907314,14.923521,8.988348,0.70080006,-0.90847224,0.06280587,0.73908114,-0.7899484,-0.5770961,-0.7680503,0.29179752,0.54891956,0.023513408,1.0661765,-0.5573128,-1.7260834,-1.171845,2.4569657,1.5702047,-0.9770406,1.0061406,-0.49287912,-1.6782024,-1.1085364,2.4264622,1.5195395,-0.9775599,1.3989027,-1.4430015,-1.0061495,-1.3546472,-0.0579284,0.42147416,0.17571692,0.82914305,-0.58902144,1.3785024,-2.637381,0.10431782,-1.6259003,0.12947989,-0.39200687,0.9892573,0.80107534,-0.15467063,0.08565561,0.5718552,0.34858218,-0.9098525,-0.94188094,1.0,0.0,0.0,0.0,0.0,0.0,0.0,-1.479143,0.18902144,-0.82850236,4.6544075,5.2375793,-9.37668,-2.0294428,29.714193,-0.46123862,-2.9868662
4.990493,37.12252,11.537001,13.274583,0.90040594,-0.6002063,-0.065093085,0.70067126,-0.78824204,-0.58577,-0.76739705,0.22923295,0.53126144,0.18529296,1.0762078,-0.5717033,-1.7367795,-1.185276,2.4493854,1.5726656,-0.9590306,1.0199479,-0.50704265,-1.6886928,-1.1221853,2.4274426,1.523707,-0.9758891,1.3756295,-1.4075834,-1.0639627,-1.367963,0.14948185,0.41493627,0.1647176,0.8027892,-0.58797884,1.3615191,-2.6347444,0.10421353,-1.7224607,0.13291502,-0.40115595,0.97974455,0.79844964,-0.14644678,0.08042174,0.5784148,0.3515024,-0.90906227,-0.96207494,1.0,0.0,0.0,0.0,0.0,0.0,0.0,-1.4527892,0.18797883,-0.8115191,-2.0751715,3.4994602,-5.986309,-1.2248755,20.643625,-0.6833732,-0.93741715
-4.499996,29.83937,7.0282655,16.509674,0.1325224,-0.33286065,-0.2790569,0.64026225,-0.7884285,-0.6291216,-0.7536513,-0.26118308,0.55197895,0.32131064,1.0839741,-0.5858855,-1.7516049,-1.1975505,2.4013243,1.5789049,-0.943758,1.0330819,-0.5209949,-1.6997154,-1.1358458,2.428423,1.5278231,-0.9742001,1.2939721,-1.3913333,-1.1156386,-1.3647676,0.08002836,0.41008416,0.17016213,0.7764616,-0.58693767,1.343571,-2.63211,0.10410934,-1.8189247,0.1363802,-0.41020942,0.9699732,0.7959664,-0.13797255,0.07543203,0.5845605,0.353944,-0.8965811,-0.989793,1.0,0.0,0.0,0.0,0.0,0.0,0.0,-1.4264616,0.18693766,-0.79357094,-7.7969074,1.5603781,-5.4077864,0.49688816,-7.119253,-0.59954524,0.4972309
-1.139718,35.281548,10.211134,16.385881,-0.7505652,-0.09501274,-0.20762114,0.66814697,-0.7856585,-0.60266894,-0.72886467,-0.50626016,0.61396676,0.28360003,1.0998966,-0.59956074,-1.7599822,-1.2087322,2.377797,1.5892198,-0.9458401,1.0455426,-0.5348747,-1.7109554,-1.1493193,2.4274921,1.531943,-0.9724711,1.2311296,-1.3870808,-1.1276871,-1.3411961,-0.15132782,0.4125241,0.173411,0.7501602,-0.58589745,1.3246589,-2.6294787,0.104005255,-1.915292,0.14000988,-0.41894484,0.95996386,0.79361475,-0.12945457,0.07149212,0.59017456,0.374358,-0.8581723,-1.0122026,1.0,0.0,0.0,0.0,0.0,0.0,0.0,-1.4001602,0.18589744,-0.77465886,-6.003785,0.3799677,-1.4533758,2.4890423,-23.248253,0.15537739,0.20648837
0.9852071,33.94115,10.46263,15.116349,-0.86476076,-0.1325702,-0.13244337,0.6783577,-0.80232686,-0.62968326,-0.71647936,-0.5725647,0.6291355,0.26800883,1.1133784,-0.61510736,-1.7739238,-1.2209672,2.3702357,1.5948565,-0.94567025,1.057597,-0.54884696,-1.7223003,-1.1624972,2.4240475,1.5361048,-0.97072303,1.1972908,-1.4006878,-1.1374464,-1.3094559,-0.40907142,0.41702345,0.17498358,0.72388506,-0.5848582,1.3047838,-2.6268497,0.10390127,-2.011563,0.1438899,-0.42730355,0.9497139,0.7913246,-0.12099054,0.06878013,0.5953451,0.39999655,-0.8202746,-1.0364223,1.0,0.0,0.0,0.0,0.0,0.0,0.0,-1.373885,0.18485817,-0.7547838,-3.1978369,-1.4104843,-1.1708498,3.3091545,-25.879711,0.34338832,0.05082488
3.3270006,33.031498,10.830845,13.630175,-0.6159756,-0.21251519,-0.04305639,0.68034714,-0.81335765,-0.6471002,-0.71099263,-0.55005807,0.64095604,0.24529214,1.1256318,-0.63018274,-1.7870103,-1.2335964,2.3690417,1.6002004,-0.9461938,1.0694932,-0.5630262,-1.7337654,-1.1753794,2.418497,1.54032,-0.96897686,1.1876334,-1.4237783,-1.1500723,-1.2807695,-0.6042463,0.42249772,0.17435753,0.6976361,-0.58381987,1.2839469,-2.6242235,0.10379738,-2.1077375,0.14802122,-0.4353416,0.9392037,0.7890205,-0.112571485,0.06703559,0.6002338,0.42466357,-0.789823,-1.0629083,1.0,0.0,0.0,0.0,0.0,0.0,0.0,-1.3476361,0.18381986,-0.73394686,-0.8423567,-2.3638725,-1.4176607,3.0103207,-19.623745,0.42555332,-0.10635257
5.7496595,35.57169,12.641585,12.842057,-0.3516526,-0.17459966,0.059205454,0.6699517,-0.8168401,-0.62871593,-0.70990986,-0.52048945,0.64997053,0.24138089,1.1364883,-0.6447102,-1.7966369,-1.2463704,2.3664482,1.6053171,-0.94483876,1.0813512,-0.5774276,-1.7452419,-1.188048,2.4116116,1.5445925,-0.9672383,1.18555,-1.4457555,-1.1476368,-1.261835,-0.71711946,0.42840272,0.17379503,0.6714139,-0.5827825,1.2621489,-2.6215997,0.103693604,-2.2038162,0.15237951,-0.44308734,0.9284445,0.7866048,-0.104186416,0.06585826,0.6050294,0.44634438,-0.7607692,-1.0871135,1.0,0.0,0.0,0.0,0.0,0.0,0.0,-1.3214139,0.1827825,-0.71214885,-0.099635124,-2.2473097,0.07779598,2.0274162,-11.389422,0.48031807,-0.027605891
8.221101,42.464493,16.342852,13.49621,-0.26476187,0.045060217,0.14805377,0.6549961,-0.8124377,-0.5797427,-0.6963856,-0.5351728,0.67398953,0.24065629,1.1468508,-0.6586714,-1.8032161,-1.2576866,2.3580942,1.6119914,-0.9431727,1.0931615,-0.59197307,-1.7564361,-1.200543,2.4039974,1.5489374,-0.9655026,1.1797699,-1.4575603,-1.1108083,-1.2451143,-0.77679783,0.43650323,0.17372568,0.6452174,-0.58174634,1.2393907,-2.6189787,0.10358993,-2.2997985,0.15693665,-0.45047092,0.9175241,0.7839772,-0.09591435,0.06494414,0.60988724,0.46552622,-0.7216229,-1.1004268,1.0,0.0,0.0,0.0,0.0,0.0,0.0,-1.2952174,0.18174633,-0.6893907,-0.45831203,-1.212287,3.4746885,1.7743587,-6.061375,0.75408816,0.07690191
8.811326,44.380497,17.211845,13.091375,-0.17536998,0.082850724,0.1775392,0.64618707,-0.81415296,-0.5776389,-0.70509416,-0.5314067,0.6754854,0.24945727,1.1577802,-0.67338836,-1.8142,-1.2710525,2.3508568,1.616486,-0.9405569,1.1048821,-0.60658526,-1.7672508,-1.2129675,2.396078,1.5533606,-0.9637593,1.1700325,-1.4626102,-1.0724902,-1.241271,-0.7976302,0.443986,0.17487511,0.61904716,-0.58071136,1.2156736,-2.6163602,0.10348636,-2.395685,0.16167355,-0.4574659,0.90647525,0.7810946,-0.08775632,0.064113006,0.61488163,0.48302576,-0.68253356,-1.1128347,1.0,0.0,0.0,0.0,0.0,0.0,0.0,-1.2690471,0.18071136,-0.66567355,-0.83260536,-0.5319357,3.6011696,0.49090385,-2.18215,0.69620013,0.22424161
9.241125,47.646587,18.683279,13.493883,-0.13266033,0.18781921,0.18565123,0.6367262,-0.8083251,-0.5520904,-0.7014654,-0.52227455,0.68029565,0.23832725,1.1685548,-0.68741775,-1.8224598,-1.2831141,2.3438506,1.6213901,-0.93992656,1.116475,-0.62118316,-1.7776382,-1.2253824,2.3881283,1.5578562,-0.9620122,1.1562233,-1.4588943,-1.0282702,-1.2412952,-0.7944148,0.45117855,0.17508492,0.59290314,-0.57967734,1.1909982,-2.6137445,0.10338289,-2.4914756,0.16657352,-0.4640453,0.89533615,0.77794206,-0.07971581,0.063260265,0.62003994,0.49842918,-0.6398741,-1.1202836,1.0,0.0,0.0,0.0,0.0,0.0,0.0,-1.2429031,0.17967734,-0.6409982,-1.222539,0.35288334,4.172945,0.0980854,0.22193193,0.6919384,0.14620125
6.82728,46.00469,17.355814,14.043661,-0.0044038296,0.19243181,0.12537746,0.62426,-0.80939287,-0.56373584,-0.6957921,-0.5391912,0.68162537,0.25710857,1.178901,-0.70212245,-1.8340118,-1.2949617,2.3342092,1.6260188,-0.9363013,1.1278962,-0.63573146,-1.7877357,-1.2377898,2.3802242,1.5624148,-0.96025074,1.137879,-1.453586,-1.0044101,-1.2400107,-0.7896034,0.45735744,0.17688127,0.56678534,-0.5786443,1.1653657,-2.6111312,0.10327953,-2.5871704,0.1715889,-0.4702413,0.8841069,0.7745635,-0.07176068,0.062383488,0.6253079,0.50852275,-0.6027447,-1.1294158,1.0,0.0,0.0,0.0,0.0,0.0,0.0,-1.2167853,0.17864427,-0.6153657,-1.6640902,0.50435066,2.1574974,0.25219917,0.36364794,0.58590174,0.28900802
4.887013,44.476078,16.311127,14.6195135,0.12555712,0.20715809,0.073027186,0.6163411,-0.8115796,-0.563086,-0.6860539,-0.54171497,0.687837,0.2505257,1.1895303,-0.71688944,-1.8440443,-1.3063952,2.3260527,1.6311984,-0.9351982,1.1391286,-0.65024066,-1.7977035,-1.2501398,2.372366,1.5670325,-0.95847785,1.1190157,-1.450221,-0.99482334,-1.2328115,-0.78506666,0.46311784,0.17785178,0.54069376,-0.57761216,1.1387769,-2.6085207,0.10317627,-2.6827695,0.17667246,-0.4761052,0.87277734,0.7710163,-0.063864656,0.061497647,0.63061327,0.51377416,-0.570626,-1.1393754,1.0,0.0,0.0,0.0,0.0,0.0,0.0,-1.1906937,0.17761216,-0.5887769,-1.7201662,0.30248165,0.7575512,0.8598566,0.32446384,0.54191947,0.1968801
2.5004973,41.540462,14.058538,14.322231,0.16838163,0.11789572,0.006300114,0.6062499,-0.805111,-0.60467076,-0.69039935,-0.5606973,0.68367267,0.2802881,1.1997535,-0.73075175,-1.8581706,-1.3191798,2.316296,1.6353997,-0.93044907,1.1501702,-0.66470027,-1.8078449,-1.2624384,2.3644848,1.5716959,-0.9566754,1.0998876,-1.4446855,-1.021013,-1.2283107,-0.7896105,0.46723244,0.1812695,0.51462793,-0.576581,1.1112329,-2.6059127,0.10307312,-2.778273,0.18179703,-0.4817071,0.86129135,0.76736957,-0.055936977,0.060686607,0.6358711,0.51715815,-0.5461978,-1.1566783,1.0,0.0,0.0,0.0,0.0,0.0,0.0,-1.1646279,0.176581,-0.56123286,-1.7431974,0.5058527,-2.784109,0.61843395,-0.60408115,0.34279823,0.40985644
-2.8979926,38.420982,11.472355,15.124186,0.34213632,0.19124311,-0.08219418,0.5556181,-0.8025922,-0.6183908,-0.7030344,-0.5857676,0.68442947,0.2702811,1.205732,-0.7449595,-1.869684,-1.3327419,2.305908,1.6401389,-0.9296473,1.1608361,-0.6791036,-1.8183448,-1.2747637,2.356474,1.5763937,-0.9548501,1.0561411,-1.4390928,-1.0602936,-1.2333407,-0.80578357,0.47040382,0.18318029,0.48858833,-0.57555103,1.0827345,-2.6033072,0.10297007,-2.873681,0.18688059,-0.48710966,0.8495869,0.76371175,-0.047888726,0.06004039,0.6409728,0.5102247,-0.5276782,-1.179857,1.0,0.0,0.0,0.0,0.0,0.0,0.0,-1.1385883,0.17555103,-0.53273445,-4.1632175,0.49686432,-4.0913343,-0.29773712,-1.7993808,0.2292633,0.22490025
-12.983788,33.68714,7.3793936,17.409441,0.7425979,0.38970888,-0.22879897,0.4661515,-0.8012471,-0.6393432,-0.7206973,-0.6185605,0.6744664,0.24941923,1.2074512,-0.75922835,-1.8822792,-1.3468335,2.294618,1.6438403,-0.92990816,1.170699,-0.6934593,-1.8292911,-1.287232,2.3482037,1.5811106,-0.9530257,0.9639119,-1.4346423,-1.1066625,-1.2506464,-0.83500654,0.47184503,0.18212676,0.46257496,-0.57452226,1.0532827,-2.6007044,0.10286712,-2.9689937,0.1917367,-0.49239635,0.83760506,0.7601819,-0.03963454,0.059639722,0.645752,0.48167485,-0.5183146,-1.209016,1.0,0.0,0.0,0.0,0.0,0.0,0.0,-1.1125749,0.17452225,-0.5032827,-8.935666,0.35820007,-4.8077106,-1.4686346,-3.1626463,0.046533346,-0.1188159
-35.05935,25.27373,-0.24116969,24.335384,1.8578268,0.92532414,-0.53621316,0.27685267,-0.8058607,-0.6464468,-0.7331275,-0.6295102,0.6533469,0.21045431,1.1983843,-0.77404535,-1.8939358,-1.3605448,2.2852526,1.6464453,-0.93198025,1.1788567,-0.7078092,-1.8406417,-1.2999216,2.3396282,1.5858256,-0.9512471,0.767983,-1.4355824,-1.14502,-1.2737406,-0.8662284,0.4710016,0.17624694,0.43658733,-0.57349443,1.0228786,-2.5981042,0.10276427,-3.064211,0.19591475,-0.49774146,0.8253156,0.75705785,-0.03111691,0.059486676,0.6498896,0.4002488,-0.5291235,-1.2400606,1.0,0.0,0.0,0.0,0.0,0.0,0.0,-1.0865873,0.17349443,-0.47287863,-19.159615,-0.23431778,-4.017377,-1.9428968,-3.4889936,-0.15200377,-0.66532195
-89.02985,7.7904515,-18.230675,42.16554,4.5761604,2.223008,-1.2782733,-0.17264971,-0.79774904,-0.6600594,-0.75477266,-0.6266332,0.6301008,0.26006654,1.1615918,-0.7875841,-1.9066477,-1.3753989,2.276965,1.6488357,-0.92524046,1.1831769,-0.72215056,-1.8523223,-1.3128916,2.3307858,1.5905138,-0.94949615,0.32290328,-1.4346632,-1.1764582,-1.3025788,-0.8924327,0.46799552,0.1739995,0.41062593,-0.57246757,0.991523,-2.5955067,0.10266153,-3.1593332,0.19832325,-0.50355506,0.81272274,0.7550003,-0.02226236,0.05955341,0.6526349,0.19067709,-0.58821505,-1.2701341,1.0,0.0,0.0,0.0,0.0,0.0,0.0,-1.0606259,0.17246756,-0.44152302,-43.706596,-0.20210743,-3.3459187,-2.2395134,-3.3285499,-0.32669306,-0.44378638
-114.493484,1.6642671,-25.494196,49.863857,6.0692263,2.9170108,-1.4972206,-0.4469858,-0.80333483,-0.6381256,-0.78902787,-0.5293552,0.5481098,0.39043579,1.1384783,-0.80248404,-1.916135,-1.3917944,2.2778502,1.6453248,-0.91045254,1.1822194,-0.73651767,-1.8641117,-1.3262392,2.3220272,1.5951048,-0.9476613,-0.23205152,-1.4388493,-1.180506,-1.3425331,-0.873318,0.45537463,0.18613952,0.38469028,-0.57144165,0.95921695,-2.5929117,0.10255889,-3.2543602,0.1981597,-0.5101304,0.7998481,0.7543874,-0.013003321,0.05957398,0.65359116,-0.0841821,-0.6706311,-1.2973306,1.0,0.0,0.0,0.0,0.0,0.0,0.0,-1.0346903,0.17144164,-0.40921694,-54.504276,-0.8533478,-0.6556034,-3.0959368,0.9872675,-1.4346063,1.0475695
-96.67843,16.68029,-14.349903,45.82444,5.3783784,3.0243993,-1.1225926,-0.52412814,-0.8040993,-0.555609,-0.778287,-0.47347295,0.5935106,0.4291251,1.1298065,-0.8169276,-1.9196726,-1.4040679,2.27468,1.6544559,-0.9047488,1.1763505,-0.7509315,-1.8754699,-1.3398634,2.3136883,1.5996023,-0.9456614,-0.7022491,-1.4436517,-1.1219071,-1.3662124,-0.8233149,0.44691136,0.20468608,0.35878086,-0.5704167,0.9259613,-2.5903194,0.10245635,-3.3492923,0.1954894,-0.5172987,0.78686774,0.75498855,-0.0035511395,0.05920356,0.6530501,-0.32901847,-0.721998,-1.3021623,1.0,0.0,0.0,0.0,0.0,0.0,0.0,-1.0087808,0.17041668,-0.3759613,-46.16369,-0.89805126,5.5600405,-1.4935493,4.1810036,-1.0971189,1.8814266
-69.350235,23.642857,-6.8414483,34.96268,3.9460633,2.2417803,-0.7605198,-0.5647312,-0.8089814,-0.65176475,-0.78330207,-0.4954573,0.54996467,0.46044725,1.1198773,-0.83182967,-1.9406464,-1.4181936,2.2641425,1.6545988,-0.8996167,1.1669625,-0.76540637,-1.8866603,-1.3536555,2.3057766,1.6039873,-0.94345653,-1.0153724,-1.4499222,-1.1190398,-1.3807853,-0.7826925,0.43457603,0.22608742,0.3328972,-0.5693927,0.891757,-2.5877295,0.102353916,-3.4441295,0.19089222,-0.5248351,0.7737544,0.7564226,0.0060963286,0.058398064,0.6514425,-0.50636643,-0.75314206,-1.3179042,1.0,0.0,0.0,0.0,0.0,0.0,0.0,-0.98289716,0.16939268,-0.341757,-30.683517,-0.9763479,0.04246235,-0.68063736,3.420043,-1.5737295,2.2398977
-48.482754,29.351238,-1.0685298,26.684399,2.8410182,1.6779153,-0.5300957,-0.6497908,-0.80677366,-0.7057024,-0.78680545,-0.4743077,0.5388188,0.41001496,1.1019834,-0.84608376,-1.9572306,-1.432336,2.2583458,1.6578692,-0.90245503,1.1553258,-0.7799175,-1.8981845,-1.367541,2.298254,1.6082503,-0.94109046,-1.211537,-1.4524914,-1.1642596,-1.3890383,-0.74402124,0.42225292,0.24044906,0.30703926,-0.5683701,0.8566051,-2.5851424,0.10225158,-3.5388718,0.18491268,-0.5325687,0.7604141,0.75840944,0.016023992,0.05721358,0.64906454,-0.63290656,-0.7678767,-1.3427039,1.0,0.0,0.0,0.0,0.0,0.0,0.0,-0.95703924,0.1683701,-0.3066051,-19.16592,-0.5374193,-4.6955585,-0.16565323,3.359723,-1.5921712,1.5559494
-36.76201,33.430244,2.679094,22.642317,2.3551965,1.4269229,-0.45684433,-0.7340383,-0.80828404,-0.7367663,-0.7703802,-0.39999783,0.5246404,0.25777286,1.0819219,-0.8607459,-1.9718611,-1.444579,2.2582543,1.6607143,-0.9153132,1.1422509,-0.79444385,-1.9103477,-1.381394,2.291254,1.6123911,-0.9387158,-1.3383495,-1.4534351,-1.2341063,-1.3820189,-0.6866866,0.41012564,0.23697013,0.28120708,-0.5673485,0.82050645,-2.5825577,0.10214935,-3.6335194,0.17786407,-0.54039764,0.74681354,0.760825,0.026254114,0.055604193,0.64603734,-0.7343056,-0.77452826,-1.3688405,1.0,0.0,0.0,0.0,0.0,0.0,0.0,-0.93120706,0.16734847,-0.27050644,-12.346911,-0.33128262,-7.0924997,1.2748003,5.317366,-1.5702188,-0.2104938
-27.273788,39.33741,7.4758215,20.103336,2.1596718,1.3963041,-0.39535806,-0.7883724,-0.80492103,-0.73749405,-0.76361877,-0.2266727,0.5112091,0.04264459,1.0634136,-0.8749359,-1.9840971,-1.4577559,2.2685869,1.663512,-0.93445134,1.1282395,-0.8089521,-1.923125,-1.395125,2.2852726,1.6164137,-0.93655,-1.4213438,-1.4505663,-1.292326,-1.3685232,-0.56996757,0.39868596,0.21032274,0.25540066,-0.5663278,0.78346205,-2.5799756,0.10204723,-3.7280724,0.16991377,-0.54823875,0.73300636,0.7636059,0.036727328,0.05331902,0.6424284,-0.821067,-0.77259785,-1.3876477,1.0,0.0,0.0,0.0,0.0,0.0,0.0,-0.90540063,0.1663278,-0.23346204,-8.058119,0.09434223,-5.89025,1.8202782,11.352372,-1.4705777,-2.4740696
-20.556225,44.751217,11.78242,19.671265,2.3183837,1.4649776,-0.41749585,-0.8122253,-0.8033052,-0.745347,-0.72705775,0.024949621,0.53021014,-0.2588684,1.047017,-0.8892826,-1.9976597,-1.4678308,2.2877676,1.6694348,-0.96243685,1.1136597,-0.8234184,-1.9363487,-1.4085642,2.281107,1.6203524,-0.9348744,-1.4697561,-1.4457769,-1.3325403,-1.3343387,-0.36618063,0.3912054,0.15412638,0.22962046,-0.5653081,0.74547285,-2.5773962,0.1019452,-3.8225307,0.16112995,-0.55605197,0.7191099,0.766768,0.047299113,0.049950387,0.6382277,-0.9035903,-0.7687655,-1.3932945,0.0,1.0,0.0,0.0,0.0,0.0,0.0,-0.87962043,0.16530809,-0.19547284,-4.6844244,0.32420158,-4.0349245,3.7862778,20.167727,-1.04056,-5.3628473
-14.377623,51.067417,16.48302,19.40776,2.4025567,1.5822433,-0.372117,-0.8265217,-0.7965558,-0.73428375,-0.7010055,0.28228265,0.53525305,-0.36961883,1.0310075,-0.90307397,-2.009777,-1.4786648,2.3093352,1.6738777,-0.9718363,1.098706,-0.83769065,-1.9506602,-1.4221684,2.2785172,1.6238399,-0.9334716,-1.5021294,-1.422282,-1.4610993,-1.3645061,-0.22435327,0.31455934,0.12797663,0.21129465,-0.56668925,0.7382544,-1.6984648,-0.14721836,0.20251326,0.15173292,-0.56382465,0.70485264,0.77017874,0.058481857,0.04576689,0.63349026,-0.956208,-0.7654655,-1.4386097,0.0,1.0,0.0,0.0,0.0,0.0,0.0,-0.8612946,0.16668925,-0.18825442,-2.0646334,0.61979294,-1.4096022,5.4290056,27.12414,-1.3632655,-6.4821095
54.93761,176.0,110.0,110.0,-2.5086384,11.450401,-0.8424902,-0.77498287,0.56622165,0.6797368,0.7214582,-0.2984383,0.69250876,-0.37782496,1.0212077,-0.7810685,-1.8826865,-1.3500226,2.2486734,1.6930907,-0.9712541,1.0878952,-0.85305053,-1.9609694,-1.4225231,2.2652917,1.6361709,-0.93195623,-0.9447498,-1.5726001,-0.8822017,0.40295452,-1.683748,1.5495409,0.15667176,0.19432259,-0.5681603,0.7395336,-1.6967666,-0.14707117,0.10305964,0.14201117,-0.56952524,0.69510114,0.7740836,0.059178084,0.045952328,0.62863404,-0.9821344,-0.48884577,-0.82164127,1.0,0.0,0.0,0.0,0.0,0.0,0.0,-0.84432256,0.16816029,-0.18953359,54.510437,-14.638376,59.472347,175.31267,-144.42062,126.570724,2.0536065
-19.016747,161.56944,73.807045,94.83582,3.5995412,5.798802,-1.3995134,-0.81025887,-0.5933903,-0.026531044,0.7603688,-0.5821026,0.5494396,-0.30845204,1.0068693,-0.9123896,-1.9636226,-1.3464862,2.2070813,1.6911148,-0.96280146,1.0785892,-0.86782867,-1.9661212,-1.4113537,2.2472024,1.651792,-0.93074983,-0.9250822,-1.4472692,-0.39038765,1.3554375,-1.8538467,1.5717435,0.109549664,0.17736769,-0.5696299,0.739819,-1.6950701,-0.14692412,0.003705447,0.13136816,-0.57407236,0.69029784,0.7791427,0.052359775,0.048630297,0.6227602,-1.0923291,-0.43197283,-0.3708677,1.0,0.0,0.0,0.0,0.0,0.0,0.0,-0.82736766,0.1696299,-0.18981898,2.2359967,12.19883,49.92697,95.362625,-18.0043,3.838706,-4.436548
-46.281044,140.26172,44.880913,71.491066,3.6346874,3.7799208,-1.5540773,-0.8085877,-0.3715102,-0.3981919,0.7101296,-0.59784037,0.60358405,-0.06782765,0.99773043,-0.9049797,-2.0059404,-1.3403407,2.1874185,1.7121505,-0.9375326,1.0684154,-0.88003093,-1.9691901,-1.3943592,2.2296128,1.6667151,-0.92985815,-1.0462658,-1.1460057,-0.27931547,1.8155032,-1.729246,1.4691734,0.08238157,0.16042995,-0.5710981,0.7391116,-1.6933755,-0.14677723,-0.09554941,0.11948681,-0.5782001,0.6886916,0.7855277,0.042910445,0.052422248,0.615107,-1.2202544,-0.3981001,-0.09751358,1.0,0.0,0.0,0.0,0.0,0.0,0.0,-0.81042993,0.17109808,-0.18911159,-11.5379095,29.709602,11.0180435,46.39635,11.776829,-9.258866,-2.7169406
-57.32227,94.98321,17.625435,45.82867,3.4011006,1.971757,-1.2887672,-0.81799215,-0.40548283,-0.44016367,0.78435373,-0.60559136,0.5562595,-0.10478229,0.9866162,-0.9205792,-2.0132065,-1.3159238,2.1690538,1.7223411,-0.9403364,1.0565841,-0.8895276,-1.9727149,-1.375444,2.2142968,1.6802039,-0.92923635,-1.2272959,-0.88527375,-0.37841955,1.9181144,-1.4666065,1.3102019,0.055206496,0.14350891,-0.57256484,0.7374124,-1.6916825,-0.14663048,-0.19470502,0.106369495,-0.5821953,0.6885165,0.79301226,0.033470728,0.05673387,0.605634,-1.3437576,-0.3912692,0.0017731936,1.0,0.0,0.0,0.0,0.0,0.0,0.0,-0.7935089,0.17256483,-0.18741238,-17.651844,25.76295,-10.343623,10.603571,26.071167,-15.454078,-2.8047762
-50.667263,49.54475,-1.6399455,22.275005,2.5027347,0.49120152,-0.82674825,-0.8206185,-0.4523812,-0.51680714,0.776651,-0.5727794,0.56799585,-0.1315919,0.9745223,-0.93476576,-2.0243957,-1.297779,2.157019,1.7370034,-0.94239557,1.0431468,-0.8973058,-1.9781375,-1.3570725,2.201613,1.6921668,-0.92887205,-1.3816048,-0.74257505,-0.59810996,1.8108618,-1.2023754,1.158462,0.029818827,0.12660456,-0.57403016,0.7347223,-1.6899911,-0.14648388,-0.29376152,0.09224844,-0.5862856,0.6882804,0.8011984,0.02560667,0.061029524,0.59472734,-1.4366163,-0.4043049,-0.038126826,1.0,0.0,0.0,0.0,0.0,0.0,0.0,-0.77660453,0.17403015,-0.1847223,-15.180874,14.104092,-22.3827,-10.499454,26.475357,-15.105009,-2.6386964
-34.60805,27.287092,-5.808974,8.629808,1.609164,-0.1926716,-0.39377448,-0.8218721,-0.4669108,-0.5222605,0.78000116,-0.5096474,0.5595016,-0.20627275,0.9609596,-0.94399685,-2.0303636,-1.2790724,2.150648,1.748117,-0.9494993,1.02859,-0.90443164,-1.9856524,-1.3402668,2.191279,1.7027469,-0.9287862,-1.479963,-0.70292014,-0.80347407,1.637771,-0.97729206,1.0243038,0.0013446267,0.10971737,-0.5754938,0.73104244,-1.6883014,-0.14633743,-0.392719,0.077469826,-0.5905385,0.6872164,0.8096956,0.019807851,0.06491901,0.5829117,-1.4938114,-0.4199463,-0.13366775,1.0,0.0,0.0,0.0,0.0,0.0,0.0,-0.75971735,0.1754938,-0.18104243,-9.71365,3.8741112,-20.774387,-17.154503,22.488117,-13.518715,-2.898958
-18.480333,20.751547,-2.33804,2.8857405,1.051628,-0.36100608,-0.09240182,-0.8204404,-0.48859465,-0.5121953,0.77962,-0.42396697,0.54874367,-0.2754424,0.9465459,-0.9532911,-2.036872,-1.2623048,2.1488822,1.7576213,-0.9563305,1.0134742,-0.911712,-1.9946666,-1.3250519,2.1828942,1.7121367,-0.9290065,-1.5220004,-0.73665255,-0.9343576,1.4831923,-0.7927896,0.91000867,-0.029744413,0.09284735,-0.57695603,0.72637373,-1.6866134,-0.14619114,-0.49157754,0.06231928,-0.594923,0.6851517,0.8182208,0.015863676,0.06810906,0.57063496,-1.5242716,-0.43103838,-0.23410879,0.0,1.0,0.0,0.0,0.0,0.0,0.0,-0.7428473,0.17695603,-0.17637372,-4.160166,-3.4323692,-13.151348,-15.331912,18.317783,-11.5824585,-3.096374
-6.8267336,27.37902,5.478524,3.0783927,1.071897,-0.1282044,0.045971595,-0.8271704,-0.49560726,-0.47664326,0.76189625,-0.18495236,0.5283424,-0.3662127,0.93075716,-0.9612727,-2.042331,-1.2488623,2.164399,1.764971,-0.9656278,0.99819636,-0.919534,-2.0042663,-1.3110577,2.1765695,1.7205138,-0.929573,-1.5297295,-0.7976577,-0.96824133,1.3719381,-0.5795484,0.81280345,-0.06536839,0.07599354,-0.5784168,0.7207172,-1.6849271,-0.14604497,-0.5903372,0.046940804,-0.5993557,0.6822932,0.82663685,0.013232976,0.070218,0.55818087,-1.5450208,-0.43311554,-0.30579674,0.0,1.0,0.0,0.0,0.0,0.0,0.0,-0.7259935,0.17841682,-0.17071718,-0.7967472,-6.165147,-3.2971501,-11.041188,21.0886,-9.903013,-3.4869492
4.216921,46.8199,17.777334,6.420106,1.0184343,0.405025,0.13157584,-0.82344747,-0.4741928,-0.38861495,0.7495956,0.01500504,0.5637166,-0.42894247,0.9158516,-0.9669533,-2.0431278,-1.2360982,2.17807,1.7768855,-0.97246724,0.9830015,-0.9278272,-2.0133872,-1.2978207,2.172564,1.7280707,-0.9305114,-1.5165095,-0.8402146,-0.8927524,1.3075544,-0.34211653,0.7362003,-0.10316841,0.059156895,-0.5798762,0.71407384,-1.6832426,-0.14589895,-0.68899816,0.031445026,-0.60364246,0.6791198,0.8348649,0.011181591,0.070992775,0.54574317,-1.5536878,-0.41256365,-0.3237377,0.0,1.0,0.0,0.0,0.0,0.0,0.0,-0.7091569,0.17987618,-0.16407382,1.204133,-4.3546677,7.8288794,-6.466961,23.392326,-7.8071833,-3.7229805
9.52257,53.517986,23.004396,7.3830876,1.1922487,0.66347986,0.19578741,-0.8242708,-0.513304,-0.30852056,0.7032533,0.24977896,0.56327635,-0.44665936,0.9005744,-0.97915757,-2.0442393,-1.2274953,2.197542,1.7843983,-0.97517735,0.9679754,-0.9365867,-2.0212226,-1.2851254,2.1712022,1.7349696,-0.93180364,-1.498445,-0.8882641,-0.74599224,1.2565295,-0.06866209,0.6740166,-0.13779312,0.042337418,-0.5813341,0.7064446,-1.6815597,-0.14575309,-0.78756046,0.015872478,-0.60766554,0.67593116,0.8428586,0.009173467,0.07014642,0.53346467,-1.5610629,-0.38414624,-0.3197535,0.0,1.0,0.0,0.0,0.0,0.0,0.0,-0.6923374,0.18133411,-0.15644461,1.6568184,-4.9049973,15.029097,-5.1723003,26.980526,-6.338775,-3.3937528
14.628661,71.01074,31.215271,10.568248,0.79099894,1.0721822,0.22094466,-0.81820893,-0.47922346,-0.19630602,0.6964474,0.2711269,0.5835674,-0.48817793,0.8861545,-0.98450905,-2.0408533,-1.2154807,2.198315,1.7933264,-0.98062146,0.95314926,-0.9455429,-2.0272682,-1.272807,2.1719837,1.7412987,-0.9335343,-1.4749011,-0.89790255,-0.57563627,1.2166362,0.09881664,0.62380946,-0.19680908,0.024861336,-0.5821719,0.70063055,-1.8179815,0.032469615,0.12765287,0.00038003922,-0.6112418,0.67303026,0.8505805,0.006822229,0.06796341,0.52138966,-1.5432788,-0.33390516,-0.29048297,0.0,1.0,0.0,0.0,0.0,0.0,0.0,-0.6748613,0.18217191,-0.15063053,2.66397,-1.0023236,14.412522,-5.1718473,11.433865,-5.295193,-8.374879
30.285585,153.2818,64.03667,24.447186,-1.6417847,2.5063522,0.3044729,-0.8100734,-0.101086766,-0.0016020343,0.75310844,-0.23189323,0.62777454,-0.43315107,0.8721419,-0.9556515,-2.0274284,-1.1974962,2.1487944,1.8040761,-0.97684944,0.9385304,-0.95271164,-2.030934,-1.2604665,2.172533,1.747303,-0.93570775,-1.4588175,-0.6574584,-0.29470396,1.2380697,0.03791105,0.5938277,-0.22601785,0.0066952705,-0.5818474,0.7011587,-1.8161638,0.032437153,0.027880345,-0.014332294,-0.61359954,0.6716312,0.85783976,0.0033477957,0.06645173,0.50959176,-1.4493201,-0.18926805,-0.092405856,0.0,1.0,0.0,0.0,0.0,0.0,0.0,-0.65669525,0.18184742,-0.15115869,1.2540102,23.747826,28.860104,1.6556263,-6.7149296,-2.6128411,-3.4569054
12.7916565,126.282524,46.15964,24.404755,-1.5715425,1.7888651,0.08084184,-0.8144089,-0.17415477,-0.18354543,0.7624666,-0.42372057,0.60932714,-0.36780915,0.8570895,-0.9701271,-2.0492887,-1.1842198,2.130161,1.8082358,-0.97248864,0.9240069,-0.95776516,-2.0331314,-1.2477559,2.1714535,1.753048,-0.93807095,-1.4508401,-0.45538375,-0.1929179,1.2814877,-0.15771855,0.56903416,-0.24116437,-0.011452675,-0.5815232,0.7006899,-1.814348,0.03240472,-0.07179243,-0.028256893,-0.6147702,0.671724,0.86468315,-0.000996672,0.066609055,0.49788073,-1.3750331,-0.080796994,0.04130591,0.0,1.0,0.0,0.0,0.0,0.0,0.0,-0.6385473,0.18152317,-0.1506899,0.6036997,19.951862,10.668018,4.1493177,-19.98941,-2.183032,-1.9076139
-4.7495723,99.86392,28.409658,23.777582,-1.1821923,1.0750184,-0.16327949,-0.81149626,-0.11288872,-0.37092575,0.7731828,-0.5272124,0.6230691,-0.27035534,0.84285724,-0.96905404,-2.070224,-1.1704376,2.1187322,1.8153548,-0.9651065,0.9095334,-0.96097636,-2.0358675,-1.2345647,2.16823,1.7586378,-0.9404243,-1.4457583,-0.27692157,-0.30443487,1.33049,-0.37132597,0.5626307,-0.23049544,-0.0290699,-0.580889,0.70034236,-1.6888258,0.10741179,0.10821666,-0.041674137,-0.61512184,0.6726393,0.8712939,-0.0053778524,0.06889176,0.4858723,-1.3328263,-0.009017557,0.105353735,0.0,1.0,0.0,0.0,0.0,0.0,0.0,-0.6209301,0.18088898,-0.15034235,0.56819916,17.656363,-11.952928,4.6752453,-20.10364,0.90624094,1.6619682
-16.557001,67.10082,12.719949,20.30901,-0.3811729,0.45268258,-0.29526654,-0.81550395,-0.12931179,-0.43257344,0.78754044,-0.53095233,0.60874933,-0.30153304,0.82798296,-0.97390753,-2.0791247,-1.1558106,2.1151347,1.8195127,-0.9705776,0.89506996,-0.9630325,-2.040381,-1.220908,2.1631641,1.7641495,-0.9426988,-1.4466171,-0.18242289,-0.5000864,1.377584,-0.552578,0.5476594,-0.22741367,-0.04578066,-0.57964873,0.7013835,-1.667651,0.12847832,0.103115536,-0.054932594,-0.6150315,0.6736971,0.8778133,-0.009174191,0.0730411,0.4733124,-1.323446,0.025437646,0.10483573,0.0,1.0,0.0,0.0,0.0,0.0,0.0,-0.6042193,0.17964873,-0.15138346,-0.08678436,9.28821,-19.459211,4.764056,-18.352907,-1.3811231,0.0249058
-21.853233,44.943077,3.9769945,16.779364,0.27230948,0.14144242,-0.30453005,-0.82496053,-0.14208941,-0.47893298,0.7878852,-0.51477176,0.61756676,-0.32152098,0.8125739,-0.9772414,-2.0882742,-1.1421195,2.111687,1.8259063,-0.9748509,0.8805417,-0.96468616,-2.0469193,-1.2069005,2.1567671,1.7695209,-0.9449684,-1.4547833,-0.16007681,-0.70514387,1.4087437,-0.66874135,0.53370565,-0.22729951,-0.062427044,-0.5782888,0.7021229,-1.663632,0.13850607,0.063825846,-0.06828928,-0.6147597,0.6744389,0.8843007,-0.012067669,0.07848841,0.4601154,-1.3390695,0.03825184,0.06327423,0.0,1.0,0.0,0.0,0.0,0.0,0.0,-0.58757293,0.17828879,-0.15212291,-0.76298714,2.108699,-20.47224,3.2254934,-11.643183,-1.3620973,-0.15117824
-16.0418,44.979076,6.4348783,14.5081215,0.34047154,0.17205065,-0.17012003,-0.8147972,-0.110925086,-0.4890691,0.78766054,-0.5224619,0.6299994,-0.30832288,0.79906195,-0.97577864,-2.0958261,-1.1281344,2.104521,1.8325208,-0.9758007,0.86597526,-0.96627307,-2.0550869,-1.1927079,2.1495728,1.7747724,-0.9472343,-1.4573046,-0.15872441,-0.85358334,1.4229901,-0.7367523,0.52220935,-0.22693913,-0.07901764,-0.57681704,0.7025241,-1.6575372,0.15002012,0.031506415,-0.08177233,-0.61434746,0.67478216,0.890686,-0.014119247,0.08473899,0.4464285,-1.350295,0.052860122,0.0243103,0.0,1.0,0.0,0.0,0.0,0.0,0.0,-0.57098234,0.17681703,-0.15252411,-0.23858547,0.006246567,-14.714277,1.493144,-6.9122195,-1.1662245,-0.13717711
-13.18087,39.921936,6.0341587,12.202653,0.43522018,0.12510931,-0.07962003,-0.812519,-0.1366717,-0.5483857,0.7902216,-0.5494162,0.6409479,-0.30241966,0.78472334,-0.97994024,-2.1099255,-1.1136857,2.0946312,1.8388672,-0.97747624,0.8514098,-0.96807265,-2.0644827,-1.1784524,2.1418977,1.7799302,-0.94949174,-1.4562613,-0.18742213,-0.96771455,1.426555,-0.77825195,0.5134742,-0.2259061,-0.09554958,-0.57523704,0.7025617,-1.6517447,0.16062914,-0.0060697566,-0.09537315,-0.61381507,0.67467594,0.8968996,-0.015416248,0.09143001,0.43240497,-1.3621277,0.064342886,-0.022437463,0.0,1.0,0.0,0.0,0.0,0.0,0.0,-0.5544504,0.17523703,-0.15256166,0.10728836,-2.984494,-11.251402,0.42145252,-4.279971,-0.9200692,-0.0556767
-10.078292,37.16336,6.716622,10.621903,0.54965985,0.13872784,0.007725518,-0.8111426,-0.17560288,-0.5644901,0.79300034,-0.54806846,0.64314747,-0.2888022,0.7702955,-0.98563296,-2.1209316,-1.0991523,2.0870907,1.844245,-0.978372,0.83687013,-0.9703586,-2.0746648,-1.164197,2.1339786,1.7850155,-0.951728,-1.4531822,-0.24268492,-1.034415,1.4253864,-0.79696363,0.50654715,-0.22330192,-0.112021446,-0.5735514,0.70221823,-1.6457009,0.17115,-0.044381585,-0.10909653,-0.61317325,0.67409,0.9028883,-0.01608136,0.09823957,0.41819018,-1.3742195,0.07519349,-0.07072707,0.0,1.0,0.0,0.0,0.0,0.0,0.0,-0.53797853,0.17355141,-0.15221822,0.29478073,-5.629435,-6.4644337,-0.05092621,-2.0310283,-0.7658124,0.12815893
-7.371253,42.317028,9.332691,10.757961,0.46309304,0.2536505,0.069976926,-0.80942774,-0.1726461,-0.59108496,0.7938798,-0.5804782,0.6466679,-0.2460545,0.7559274,-0.9876232,-2.1337733,-1.084809,2.0759308,1.8496822,-0.97633344,0.8223678,-0.9731281,-2.0853155,-1.1499681,2.12588,1.7900488,-0.95390606,-1.4493366,-0.2888015,-1.0743979,1.4222076,-0.8151017,0.5018763,-0.21643528,-0.12840557,-0.5717406,0.70157844,-1.6359704,0.1843499,-0.07100073,-0.12289095,-0.6123755,0.67310524,0.90860444,-0.01624141,0.10507925,0.40389672,-1.3795253,0.09241896,-0.10781491,0.0,1.0,0.0,0.0,0.0,0.0,0.0,-0.5215944,0.17174062,-0.15157843,0.33712387,-4.7281623,-3.7222624,-0.27821064,-2.0397663,-0.5539298,0.5423248
-7.039304,41.64668,9.315052,10.601833,0.5391108,0.26283246,0.09175332,-0.80835944,-0.21276014,-0.6127882,0.7977711,-0.582976,0.64448535,-0.22155966,0.74153185,-0.9944041,-2.1465943,-1.070191,2.0675824,1.8544974,-0.976062,0.80790246,-0.9764192,-2.0962598,-1.1357509,2.1176443,1.7950413,-0.95599854,-1.445739,-0.34296823,-1.1002673,1.4215744,-0.8272879,0.49800557,-0.20729856,-0.14469004,-0.56979823,0.7006699,-1.6259536,0.1974759,-0.09799603,-0.13674927,-0.61140776,0.6717501,0.9140315,-0.015964765,0.111880615,0.38958192,-1.3861036,0.10955007,-0.14495328,0.0,1.0,0.0,0.0,0.0,0.0,0.0,-0.50530994,0.16979823,-0.15066987,0.31080246,-5.5323124,-2.2975445,-0.011873245,-1.454711,-0.4883051,0.7838398
-4.8470755,51.62467,12.9719715,12.032,0.46654093,0.41650096,0.12753,-0.8071513,-0.19714627,-0.61327165,0.7939587,-0.59145314,0.6416214,-0.16866298,0.72718734,-0.99613386,-2.157587,-1.056355,2.058499,1.8592035,-0.97286487,0.79346764,-0.98005366,-2.1073434,-1.1215564,2.1093016,1.8000065,-0.9579658,-1.4430313,-0.37073767,-1.1096947,1.4188472,-0.83768135,0.4955941,-0.19370449,-0.1608324,-0.56769586,0.69962424,-1.6103113,0.21444497,-0.10723408,-0.1506095,-0.61020374,0.67015517,0.91914433,-0.015347688,0.11868002,0.37530413,-1.3841313,0.13533361,-0.16444851,0.0,1.0,0.0,0.0,0.0,0.0,0.0,-0.48916757,0.16769585,-0.14962423,0.1762867,-2.9191196,-0.55890083,-0.26841164,-1.371026,-0.35808682,1.1971444
-7.28106,48.370136,11.112875,12.162128,0.6237178,0.36165708,0.11224061,-0.8122344,-0.24686076,-0.6370899,0.79683715,-0.59208834,0.63077044,-0.14115286,0.7122442,-1.0047398,-2.1710525,-1.0418727,2.0500927,1.8630836,-0.97208107,0.7790271,-0.984061,-2.1185548,-1.1073695,2.1008828,1.8049406,-0.9597853,-1.4446012,-0.4112927,-1.1237605,1.4187621,-0.8443888,0.49225187,-0.17855522,-0.17683315,-0.56543565,0.69842213,-1.5966607,0.22984427,-0.124949776,-0.16450357,-0.6087649,0.6683099,0.9239532,-0.014386714,0.1254446,0.361064,-1.3890483,0.15799804,-0.19152857,0.0,1.0,0.0,0.0,0.0,0.0,0.0,-0.47316682,0.16543564,-0.14842212,-0.22799969,-4.194111,-1.0506153,0.03554821,-0.9771824,-0.46435,1.3745844
-5.13629,61.010174,15.245194,14.265589,0.52849346,0.5369993,0.13341478,-0.80975235,-0.2072435,-0.6333694,0.7953582,-0.6081785,0.6413508,-0.085526146,0.69805187,-1.0047853,-2.1818917,-1.0278337,2.0400648,1.8690757,-0.9683379,0.7645732,-0.9882009,-2.1298501,-1.0931903,2.0923765,1.8098621,-0.9614246,-1.446092,-0.41543156,-1.1302147,1.4176967,-0.85413724,0.49162954,-0.15969324,-0.19264174,-0.5629883,0.6972022,-1.5754803,0.24963732,-0.12117447,-0.17836714,-0.6070254,0.6663529,0.92843956,-0.013147115,0.13227794,0.34688553,-1.3829916,0.19048645,-0.19739118,0.0,1.0,0.0,0.0,0.0,0.0,0.0,-0.45735824,0.16298828,-0.1472022,-0.27432442,-0.58591366,-0.17547607,-0.12631416,-1.3953447,-0.2058506,1.6936481
-5.293216,51.564613,11.985764,12.0200405,0.5441117,0.36303464,0.152803,-0.8036522,-0.27394155,-0.6528901,0.7915096,-0.60969734,0.64076823,-0.06668904,0.684208,-1.0155951,-2.1951392,-1.0140394,2.0314066,1.8739389,-0.9680935,0.75013554,-0.9925945,-2.1412675,-1.079034,2.083785,1.8147738,-0.9628767,-1.4433694,-0.44789806,-1.144534,1.4150379,-0.8620816,0.4905133,-0.14086196,-0.20826387,-0.560375,0.69588304,-1.5577068,0.26520243,-0.13567752,-0.19220352,-0.60502315,0.66420376,0.93260664,-0.011583921,0.13912287,0.33279935,-1.3813097,0.21456245,-0.22125047,0.0,1.0,0.0,0.0,0.0,0.0,0.0,-0.4417361,0.16037497,-0.14588302,0.17874241,-3.3883274,-1.0360241,-0.24695396,-1.1391878,-0.2486825,1.725319
-5.0764236,48.814346,10.956681,11.11978,0.53413963,0.3086872,0.19519337,-0.80283964,-0.29498112,-0.65966433,0.78631014,-0.6125367,0.63985693,0.0393696,0.6698516,-1.0220926,-2.207234,-1.0004029,2.0225313,1.8787595,-0.95893973,0.7357322,-0.99737716,-2.1528413,-1.0649253,2.0751252,1.8196721,-0.9640792,-1.4396412,-0.4887828,-1.1601119,1.4095664,-0.86853755,0.48916844,-0.11388628,-0.22371292,-0.55761814,0.6943689,-1.5404894,0.27916273,-0.15658554,-0.20603037,-0.602798,0.66176945,0.93645424,-0.009641943,0.145905,0.31886077,-1.3801774,0.23638281,-0.2511279,0.0,1.0,0.0,0.0,0.0,0.0,0.0,-0.42628706,0.15761814,-0.14436889,0.28657913,-4.220748,-1.1793137,-0.51600933,-0.97464323,-0.27105212,2.5513678
-8.7903,41.45288,7.5008373,10.416418,0.6273297,0.20500338,0.19346844,-0.80995566,-0.3368799,-0.69584566,0.7871073,-0.61660784,0.6202022,0.13817382,0.65473664,-1.0310651,-2.222426,-0.9862146,2.0134645,1.8816923,-0.95026183,0.7213298,-1.0026987,-2.164705,-1.0508585,2.0664015,1.8245354,-0.9649587,-1.4405733,-0.54686946,-1.1943127,1.4061834,-0.8743782,0.4849334,-0.0796963,-0.2390275,-0.554744,0.6925283,-1.5281999,0.2902017,-0.19271778,-0.21991825,-0.60038614,0.65892965,0.9399989,-0.007214134,0.15256837,0.30507842,-1.388742,0.2538153,-0.29523954,0.0,1.0,0.0,0.0,0.0,0.0,0.0,-0.41097248,0.154744,-0.1425283,-0.13406277,-5.931258,-3.122878,-0.2417326,-0.8419037,-0.5665004,3.30531
-5.8905935,45.89864,9.538212,10.613174,0.6374738,0.265621,0.2283217,-0.7996324,-0.3480655,-0.67721516,0.78831065,-0.59539574,0.6296691,0.21011369,0.6413666,-1.0375051,-2.2324266,-0.9720274,2.006862,1.8875023,-0.9439474,0.706956,-1.0085504,-2.1767821,-1.0368071,2.0577002,1.8293682,-0.9654679,-1.4365239,-0.59840566,-1.211016,1.4048307,-0.8695832,0.48219013,-0.041683666,-0.25419235,-0.5517533,0.6903803,-1.5123066,0.3020325,-0.22171313,-0.23385334,-0.5977788,0.65571594,0.9432428,-0.0043515773,0.15906206,0.2915017,-1.3917706,0.2741993,-0.33065858,0.0,1.0,0.0,0.0,0.0,0.0,0.0,-0.39580762,0.15175328,-0.14038026,0.3330946,-5.282402,-1.3102055,-0.06918907,0.16531944,-0.4332602,3.6829205
-6.9434977,47.931175,9.634706,11.227629,0.655185,0.31350958,0.21974798,-0.80679214,-0.36821827,-0.69355625,0.7840739,-0.613356,0.6194358,0.23433147,0.6262768,-1.0453722,-2.2461379,-0.95839965,1.9963646,1.8913118,-0.9420347,0.6925889,-1.0148714,-2.189027,-1.0227803,2.0490093,1.8341687,-0.9656122,-1.4370098,-0.6437807,-1.2276356,1.4023143,-0.8701045,0.47884545,-0.0057810466,-0.26918888,-0.5486424,0.687952,-1.4950805,0.31416267,-0.24904397,-0.24781513,-0.594949,0.6521672,0.9461914,-0.0010756034,0.16540273,0.2781415,-1.3941858,0.29717454,-0.36353853,0.0,1.0,0.0,0.0,0.0,0.0,0.0,-0.3808111,0.14864239,-0.13795197,-0.123763084,-4.675591,-1.2810469,-0.18045902,-0.39281845,-0.5033374,3.4670956
-9.24099,45.038074,7.958672,10.942458,0.6763487,0.29164028,0.22096312,-0.8135892,-0.40712592,-0.7196035,0.77928865,-0.6204063,0.6048627,0.30257115,0.61123,-1.055584,-2.2609875,-0.94485146,1.9869686,1.894655,-0.93535507,0.6781788,-1.0216901,-2.2015047,-1.0087936,2.0402846,1.8389232,-0.9653861,-1.4425808,-0.6948992,-1.2531546,1.3977789,-0.8742212,0.47382388,0.031743918,-0.28402996,-0.5454197,0.68519175,-1.4800067,0.32502845,-0.28390968,-0.26183128,-0.5918925,0.64823943,0.94885665,0.002673296,0.17159477,0.26498863,-1.4004691,0.31983623,-0.40306485,0.0,1.0,0.0,0.0,0.0,0.0,0.0,-0.36597002,0.14541969,-0.13519174,-0.61080456,-5.2488446,-2.205634,-0.34585,-0.7279873,-0.67834854,3.6432092
-5.319887,54.061687,11.363095,11.981689,0.7122028,0.40304744,0.2358869,-0.8025193,-0.4016326,-0.700874,0.78033704,-0.5826698,0.61220473,0.35010016,0.59792686,-1.0618534,-2.2715921,-0.9307599,1.9820176,1.9001437,-0.93037605,0.6637602,-1.0288713,-2.2141006,-0.99484503,2.0316355,1.8436427,-0.9647858,-1.4419342,-0.7263208,-1.2604696,1.3939005,-0.86312246,0.47070634,0.068982765,-0.29867077,-0.5420773,0.6821884,-1.4581726,0.33736935,-0.30428523,-0.2758441,-0.58857465,0.64404196,0.95124084,0.0067950487,0.17762403,0.25208008,-1.397344,0.34713846,-0.42607698,0.0,1.0,0.0,0.0,0.0,0.0,0.0,-0.3513292,0.1420773,-0.13218838,-0.043988228,-3.292334,-0.27165413,-0.34906864,0.69015026,-0.5089164,3.5868206
-5.3941927,55.95852,11.726904,12.440103,0.76807785,0.44464174,0.22564238,-0.8087224,-0.42528903,-0.7017801,0.77886784,-0.585834,0.60433877,0.36971772,0.58288795,-1.0714002,-2.2842786,-0.9169583,1.9730521,1.9040766,-0.92781407,0.6493301,-1.036348,-2.2267115,-0.9809327,2.0230973,1.8483282,-0.9638376,-1.4437397,-0.7551462,-1.259974,1.3904332,-0.8523124,0.4673355,0.10304102,-0.31308365,-0.5386133,0.6789909,-1.4349393,0.34948188,-0.32316753,-0.28981876,-0.5849714,0.6396402,0.9533544,0.011221185,0.18348137,0.23942406,-1.3931228,0.3761162,-0.44565758,0.0,1.0,0.0,0.0,0.0,0.0,0.0,-0.33691633,0.13861331,-0.12899089,-0.29747486,-3.0361533,0.5387306,-0.31192303,0.6316662,-0.54412484,3.2714815
1.9867582,74.751564,18.401005,15.183733,0.7783386,0.6447662,0.24338461,-0.78918236,-0.3758747,-0.6623741,0.7846707,-0.56857276,0.61389,0.42120892,0.57041186,-1.0739355,-2.292949,-0.90246564,1.96624,1.9097172,-0.92171675,0.63497144,-1.0437866,-2.239101,-0.9670281,2.0147152,1.853006,-0.96254754,-1.4339532,-0.74071777,-1.229511,1.3900403,-0.83558923,0.46730873,0.13700461,-0.3271513,-0.5350089,0.67584455,-1.3964189,0.36411834,-0.3097643,-0.30359936,-0.58102846,0.6352972,0.9551801,0.015746908,0.1892624,0.22707409,-1.3683221,0.41163653,-0.4313386,0.0,1.0,0.0,0.0,0.0,0.0,0.0,-0.32284868,0.1350089,-0.12584454,0.7520437,1.2637854,3.7719965,-0.1547575,1.009953,-0.2188623,3.182067
-3.9640977,53.491795,11.03995,11.43169,0.79377055,0.37318432,0.2297391,-0.8066149,-0.48007685,-0.6946741,0.77343446,-0.5626384,0.5685828,0.42515576,0.55430996,-1.0917944,-2.3085682,-0.8896846,1.9584514,1.9098643,-0.92003196,0.62063575,-1.0514885,-2.251334,-0.9531595,2.0064778,1.857634,-0.9609526,-1.4337786,-0.7805817,-1.2197943,1.3858708,-0.82077014,0.46079108,0.16661298,-0.34095478,-0.53130054,0.6725301,-1.3739387,0.37320423,-0.33627585,-0.31728125,-0.57680535,0.63081205,0.95676184,0.0204839,0.19482745,0.21501012,-1.3633038,0.43691763,-0.4550402,0.0,1.0,0.0,0.0,0.0,0.0,0.0,-0.3090452,0.13130054,-0.1225301,-0.09663105,-4.1230083,1.4501095,-0.37853718,1.0430932,-0.86098313,2.8530927
0.07290387,62.52876,14.074525,12.629486,0.7809464,0.4565515,0.24492961,-0.78945154,-0.44396475,-0.66603243,0.77819836,-0.5518163,0.5792578,0.48922467,0.5416906,-1.095885,-2.3179371,-0.8753397,1.9512962,1.9155598,-0.9120301,0.606362,-1.0594307,-2.2633915,-0.93931377,1.9983975,1.8622118,-0.9590492,-1.4258364,-0.7993358,-1.1993172,1.3840381,-0.80537283,0.4562005,0.1978416,-0.35447502,-0.52749896,0.6690561,-1.3435233,0.38250512,-0.34846085,-0.3308301,-0.5723119,0.6262063,0.9581091,0.025405144,0.20017546,0.20325157,-1.347096,0.46438107,-0.46326798,0.0,1.0,0.0,0.0,0.0,0.0,0.0,-0.29552495,0.12749895,-0.119056106,0.62713623,-2.0221472,2.641654,-0.21791458,0.9972453,-0.6700039,2.974844
-1.6109092,50.06739,10.409097,9.930632,0.74201727,0.31815442,0.24928895,-0.79366213,-0.51659197,-0.65302587,0.7754632,-0.5537034,0.57004225,0.48673922,0.5269958,-1.11109,-2.328694,-0.8617675,1.9430271,1.919216,-0.9103753,0.59214264,-1.0678306,-2.2752242,-0.92548335,1.9904263,1.8667318,-0.9568675,-1.4208905,-0.8539444,-1.1767066,1.3828447,-0.7955076,0.45006025,0.2247458,-0.36775923,-0.52362776,0.665286,-1.3221049,0.38871157,-0.38373125,-0.34428406,-0.56758547,0.62135845,0.95925176,0.030534266,0.20521526,0.19180813,-1.3394792,0.48611796,-0.49282482,0.0,1.0,0.0,0.0,0.0,0.0,0.0,-0.28224075,0.12362775,-0.11528599,0.3852129,-5.5792093,2.723527,-0.07174015,0.56676865,-0.8165717,2.609998
-2.05201,50.65365,10.078917,10.113574,0.7261517,0.30312318,0.24351841,-0.78990346,-0.52420187,-0.6570361,0.7758931,-0.55150735,0.533746,0.524472,0.5131523,-1.1202507,-2.3409278,-0.847894,1.9352756,1.9201064,-0.9044203,0.57797474,-1.0767493,-2.2868967,-0.91165584,1.9825263,1.8711655,-0.9544212,-1.4157468,-0.9049228,-1.1627649,1.3827938,-0.789163,0.4407855,0.25107622,-0.38082886,-0.5197003,0.66115075,-1.3003675,0.39409795,-0.42015243,-0.3576579,-0.56264234,0.61621183,0.960206,0.035922777,0.20993656,0.18066697,-1.3311062,0.5075795,-0.52282745,0.0,1.0,0.0,0.0,0.0,0.0,0.0,-0.26917112,0.11970028,-0.11115074,0.4079342,-5.218923,1.8526793,0.049209595,0.21276474,-1.1313021,2.551216
-4.0851946,43.830826,7.5897393,8.560434,0.6151651,0.23247468,0.25896373,-0.793981,-0.5732837,-0.66219354,0.7662384,-0.570991,0.5080906,0.5461467,0.49857664,-1.1340777,-2.353116,-0.835032,1.9254272,1.9219745,-0.89980656,0.56382674,-1.0862879,-2.2985153,-0.897867,1.9746028,1.8754874,-0.9517247,-1.4147645,-0.9704262,-1.160318,1.3779632,-0.7941291,0.428931,0.27571183,-0.3937211,-0.51572967,0.6565453,-1.2838936,0.39800444,-0.47057927,-0.37097645,-0.55750275,0.61065894,0.9609818,0.041673493,0.21432939,0.16982381,-1.3265715,0.5267729,-0.5669959,0.0,1.0,0.0,0.0,0.0,0.0,0.0,-0.25627887,0.11572966,-0.10654527,0.029039383,-6.6606283,0.61519146,-0.37400723,-0.8466482,-1.3854384,2.408421
-2.2196472,44.825905,8.0410185,8.084484,0.5698563,0.22632039,0.27784184,-0.78517205,-0.59792477,-0.65080184,0.7617905,-0.5585131,0.4668754,0.5823167,0.48530954,-1.1460804,-2.3635955,-0.821688,1.9187515,1.9221749,-0.89349306,0.5497151,-1.0964597,-2.3100958,-0.88414705,1.9666536,1.8796682,-0.9487823,-1.4101995,-1.0331464,-1.1562008,1.3703083,-0.7961016,0.41405356,0.30030003,-0.40644026,-0.51172733,0.6514339,-1.2661128,0.40089545,-0.52088547,-0.38422537,-0.5521784,0.6046724,0.96158886,0.047808442,0.2183682,0.15930013,-1.3181514,0.5448499,-0.6103051,0.0,1.0,0.0,0.0,0.0,0.0,0.0,-0.24355972,0.11172733,-0.10143387,0.37560463,-6.380105,0.80194473,-0.6709337,-0.5704284,-1.6942441,2.4009228
0.14929533,48.75474,9.407992,8.278659,0.59413725,0.28015423,0.28577727,-0.7802386,-0.6183388,-0.6304771,0.75343144,-0.54565716,0.45043436,0.6020356,0.47169125,-1.1582936,-2.3731434,-0.8088039,1.9120879,1.9247117,-0.8885788,0.5356663,-1.1071905,-2.3215504,-0.8705343,1.9587295,1.8837006,-0.9456045,-1.4034857,-1.0869533,-1.1408828,1.3583702,-0.79222566,0.39913866,0.32341996,-0.4189558,-0.50769997,0.64585876,-1.2448816,0.40317455,-0.5660193,-0.3973484,-0.5466685,0.5983066,0.9620386,0.05426133,0.22203247,0.1491272,-1.3041434,0.5634583,-0.6468091,0.0,1.0,0.0,0.0,0.0,0.0,0.0,-0.23104417,0.10769996,-0.09585875,0.56483746,-5.489707,1.9826651,-1.134038,-0.046539307,-1.7069757,2.245003
6.4119177,59.56427,13.2369995,9.522043,0.6786432,0.36774272,0.28655893,-0.75949293,-0.6156648,-0.59702665,0.75105226,-0.51288664,0.4320768,0.6253328,0.45971698,-1.168757,-2.381253,-0.79542905,1.9074409,1.9269083,-0.88307124,0.5217692,-1.1182817,-2.3327036,-0.85704136,1.950956,1.88759,-0.9422031,-1.3856927,-1.1169987,-1.1051141,1.3460821,-0.7739509,0.38507023,0.34543404,-0.43118477,-0.50365996,0.6399661,-1.2136686,0.40398028,-0.5932358,-0.41023874,-0.54097676,0.5917267,0.9623436,0.060864743,0.22532775,0.1393471,-1.2774992,0.581383,-0.66320115,0.0,1.0,0.0,0.0,0.0,0.0,0.0,-0.21881521,0.10365996,-0.08996606,1.6036272,-3.117919,4.18818,-1.2733221,1.24681,-1.6285896,2.0931304
12.783812,65.53417,16.003004,9.395056,0.79347485,0.38556188,0.28999662,-0.7404774,-0.62766737,-0.55211955,0.73132604,-0.4350208,0.38873795,0.6316094,0.44772148,-1.1810485,-2.3879156,-0.7839087,1.9074539,1.9264638,-0.87904215,0.508121,-1.1295828,-2.3433225,-0.84374076,1.9435964,1.891324,-0.9386006,-1.3586652,-1.1349136,-1.0450536,1.3242588,-0.7250539,0.36905003,0.36488605,-0.44305897,-0.49962783,0.63387275,-1.1765919,0.40256536,-0.61071134,-0.42280245,-0.5351293,0.58507854,0.96254617,0.06741119,0.22816223,0.13000962,-1.2424991,0.5960534,-0.6666787,0.0,1.0,0.0,0.0,0.0,0.0,0.0,-0.20694101,0.09962782,-0.083872736,2.478671,-1.8959284,6.7234755,-2.3099184,4.209554,-1.8308163,1.8289804
14.918434,61.065704,15.593472,7.3311925,1.0011638,0.29826373,0.2808006,-0.7362924,-0.6644163,-0.50506073,0.6861154,-0.27646977,0.27654365,0.62601334,0.43449175,-1.1960244,-2.3938286,-0.7751292,1.9159493,1.9189785,-0.8759993,0.49472228,-1.1411412,-2.3532004,-0.830838,1.9371631,1.8948243,-0.9348311,-1.3342443,-1.1629419,-0.9662651,1.2785288,-0.61776286,0.3430966,0.38093388,-0.45460272,-0.49561715,0.627533,-1.1447642,0.40014037,-0.63754076,-0.43505526,-0.5291512,0.57836443,0.9627516,0.07372755,0.23021862,0.12113206,-1.2126212,0.60800767,-0.6741221,0.0,1.0,0.0,0.0,0.0,0.0,0.0,-0.19539726,0.095617145,-0.07753301,2.2325516,-2.8857946,8.54845,-4.6966076,10.083318,-2.841556,1.554656
22.476074,69.858696,20.035751,7.767729,1.6418693,0.3547733,0.22211668,-0.72105825,-0.6555318,-0.35830024,0.63732624,-0.0031002022,0.11087343,0.62792283,0.42261645,-1.2066944,-2.3890305,-0.7671054,1.936853,1.9059116,-0.8720388,0.48157197,-1.1528809,-2.3617365,-0.8185763,1.9325364,1.8979588,-0.930918,-1.3094445,-1.1779569,-0.8136255,1.207914,-0.41310897,0.3028981,0.39484045,-0.46579075,-0.49163795,0.62103635,-1.1079684,0.3966609,-0.6496118,-0.44699192,-0.5230429,0.5717753,0.9631326,0.07935301,0.23102325,0.11272511,-1.1803389,0.6209338,-0.6552417,0.0,1.0,0.0,0.0,0.0,0.0,0.0,-0.18420923,0.09163794,-0.07103634,2.2224903,-1.5705347,16.071808,-7.2777987,19.690138,-4.283285,1.3924658
30.443302,70.5762,22.908464,5.1171427,2.154783,0.32047617,0.21570809,-0.72070575,-0.6729013,-0.17536163,0.5222213,0.32321846,-0.17321149,0.6031865,0.4095014,-1.220171,-2.3792727,-0.76635414,1.9648582,1.8806376,-0.8705993,0.46860573,-1.1647828,-2.3680832,-0.80745894,1.9307368,1.9005039,-0.92690027,-1.2932127,-1.1945165,-0.57243824,1.0787637,-0.10447637,0.2376269,0.40443027,-0.47661352,-0.48770285,0.61443794,-1.0718057,0.39196506,-0.65958697,-0.4586029,-0.51681805,0.56546485,0.9639162,0.08375009,0.2299113,0.10484408,-1.1480699,0.6317102,-0.624367,0.0,1.0,0.0,0.0,0.0,0.0,0.0,-0.17338645,0.08770284,-0.064437926,1.3606787,-1.6952276,24.950827,-13.180995,30.052162,-6.7733793,1.0317206
27.63598,75.150345,22.8144,6.953995,2.2252471,0.30869898,0.16703135,-0.72445065,-0.65267545,-0.10744233,0.4660287,0.4002277,-0.3674744,0.5934698,0.39616066,-1.2300503,-2.3788276,-0.7608561,1.9707595,1.8637564,-0.8675533,0.45572156,-1.1767093,-2.372061,-0.7977264,1.9318845,1.9022919,-0.9228095,-1.2875086,-1.1921762,-0.33719677,0.9373294,0.1857918,0.1587374,0.41076863,-0.48705292,-0.48382258,0.6077989,-1.0331548,0.38625902,-0.66237026,-0.46989775,-0.5104778,0.5595044,0.9651598,0.08682601,0.22679105,0.09743477,-1.117039,0.6432094,-0.5879477,0.0,1.0,0.0,0.0,0.0,0.0,0.0,-0.16294706,0.08382258,-0.057798862,0.3567934,0.18658638,24.245506,-14.361739,28.327673,-8.056911,0.67804456
25.707973,91.891304,25.872211,13.245895,2.5357552,0.45115674,0.045971904,-0.7207983,-0.6138648,0.061479412,0.4630967,0.44625154,-0.5012718,0.6097505,0.38364172,-1.2380958,-2.3659132,-0.75141674,1.9765097,1.8521647,-0.8618344,0.44286552,-1.188388,-2.3734796,-0.789124,1.9355012,1.9032608,-0.91865516,-1.2855269,-1.1601192,-0.0745554,0.8339797,0.41831616,0.076090224,0.41699934,-0.49700832,-0.4800172,0.60137373,-0.9821387,0.3782634,-0.6339669,-0.48085165,-0.5039892,0.55414087,0.9668076,0.08849924,0.22200392,0.09036109,-1.0825044,0.65875673,-0.5208743,0.0,1.0,0.0,0.0,0.0,0.0,0.0,-0.15299165,0.08001718,-0.05137372,0.017666817,3.1413794,26.956198,-10.527897,22.628778,-8.3413925,0.6070256
35.976574,99.054726,29.653444,13.72577,2.392972,0.46992964,0.054034743,-0.679556,-0.6180147,0.28549194,0.4400961,0.50662607,-0.5226347,0.62626034,0.3749099,-1.2501894,-2.3449304,-0.7451144,1.9861639,1.8509973,-0.85602915,0.43020308,-1.1997615,-2.3718507,-0.7813007,1.9410263,1.9034764,-0.9144324,-1.2603583,-1.1298549,0.24408312,0.76456046,0.59552896,0.0034008233,0.42378473,-0.50636053,-0.47633982,0.59540874,-0.919364,0.36402833,-0.58322597,-0.49134827,-0.49742126,0.5495651,0.9688014,0.088535346,0.21584274,0.08364917,-1.0336994,0.6638986,-0.43817022,0.0,1.0,0.0,0.0,0.0,0.0,0.0,-0.14363945,0.07633981,-0.045408726,2.3580074,2.9581308,32.551083,-7.12471,17.165268,-7.2513537,0.6084502
25.709608,104.59632,27.925179,18.855837,2.5287273,0.5010598,-0.0666042,-0.6916863,-0.58111006,0.35797468,0.44092605,0.55683076,-0.56679595,0.6301957,0.36103445,-1.2578725,-2.3360534,-0.7372081,1.9967093,1.8467968,-0.85141283,0.41773283,-1.210723,-2.3673837,-0.7738651,1.9479653,1.9030169,-0.9101464,-1.2428126,-1.0853184,0.515975,0.7363844,0.7253809,-0.062245514,0.42995474,-0.51508474,-0.47280145,0.5900338,-0.8573381,0.35054445,-0.5229662,-0.5014353,-0.4907453,0.5458561,0.97104007,0.08702173,0.20870073,0.07715179,-0.9963976,0.6763654,-0.35061622,0.0,1.0,0.0,0.0,0.0,0.0,0.0,-0.13491523,0.07280144,-0.040033817,1.6886473,4.3726683,27.664125,-2.8726697,12.645376,-6.504187,0.5545199
