Afshin1997/kuka_rl_ros2/src/catch_and_throw/input_files/idealpd/polynomial_regressor/optimizer_files/env_447_data.csv
torque0,torque1,torque2,torque3,torque4,torque5,torque6,action0,action1,action2,action3,action4,action5,action6,set_target_0,set_target_1,set_target_2,set_target_3,set_target_4,set_target_5,set_target_6,joint_pos_0,joint_pos_1,joint_pos_2,joint_pos_3,joint_pos_4,joint_pos_5,joint_pos_6,joint_vel_0,joint_vel_1,joint_vel_2,joint_vel_3,joint_vel_4,joint_vel_5,joint_vel_6,tennisball_pos_0,tennisball_pos_1,tennisball_pos_2,tennisball_lin_vel_0,tennisball_lin_vel_1,tennisball_lin_vel_2,end_effector_pos_0,end_effector_pos_1,end_effector_pos_2,end_effector_rot_0,end_effector_rot_1,end_effector_rot_2,end_effector_rot_3,end_effector_lin_vel_0,end_effector_lin_vel_1,end_effector_lin_vel_2,obs_task_0,obs_task_1,obs_task_2,obs_task_3,obs_task_4,obs_task_5,obs_task_6,to_final_target_0,to_final_target_1,to_final_target_2,joint_acc_0,joint_acc_1,joint_acc_2,joint_acc_3,joint_acc_4,joint_acc_5,joint_acc_6
0.0,0.0,0.0,0.0,0.0,0.0,0.0,0.0,0.0,0.0,0.0,0.0,0.0,0.0,1.7802359,-1.0646509,-1.8151424,-1.1170107,1.9373155,1.1170107,-0.91629785,1.7802359,-1.0646509,-1.8151424,-1.1170107,1.9373155,1.1170107,-0.91629785,0.0,0.0,0.0,0.0,0.0,0.0,0.0,2.9262924,-0.35406494,0.27079108,-3.3279812,-0.39771488,5.0951467,0.5304184,-0.45449638,0.693097,0.5745483,0.17512383,0.15255436,0.7848268,0.0,0.0,0.0,1.0,0.0,0.0,0.0,0.0,0.0,0.0,-3.5762925,-0.045935065,0.27920893,0.0,0.0,0.0,0.0,0.0,0.0,0.0
0.0,0.0,0.0,0.0,0.0,0.0,0.0,0.0,0.0,0.0,0.0,0.0,0.0,0.0,1.7802359,-1.0646509,-1.8151424,-1.1170107,1.9373155,1.1170107,-0.91629785,1.7802359,-1.0646509,-1.8151424,-1.1170107,1.9373155,1.1170107,-0.91629785,0.0,0.0,0.0,0.0,0.0,0.0,0.0,2.9262924,-0.35406494,0.27079108,-3.3279812,-0.39771488,5.0951467,0.5304184,-0.45449638,0.693097,0.5745483,0.17512383,0.15255436,0.7848268,0.0,0.0,0.0,1.0,0.0,0.0,0.0,0.0,0.0,0.0,-3.5762925,-0.045935065,0.27920893,0.0,0.0,0.0,0.0,0.0,0.0,0.0
0.0,0.0,0.0,0.0,0.0,0.0,0.0,0.0,0.0,0.0,0.0,0.0,0.0,0.0,1.7802359,-1.0646509,-1.8151424,-1.1170107,1.9373155,1.1170107,-0.91629785,1.7802359,-1.0646509,-1.8151424,-1.1170107,1.9373155,1.1170107,-0.91629785,0.0,0.0,0.0,0.0,0.0,0.0,0.0,2.9262924,-0.35406494,0.27079108,-3.3279812,-0.39771488,5.0951467,0.5304184,-0.45449638,0.693097,0.5745483,0.17512383,0.15255436,0.7848268,0.0,0.0,0.0,1.0,0.0,0.0,0.0,0.0,0.0,0.0,-3.5762925,-0.045935065,0.27920893,0.0,0.0,0.0,0.0,0.0,0.0,0.0
-176.0,63.700912,-7.7376156,110.0,10.102014,4.5595818,-3.9338965,-0.79077536,0.313381,-0.5365894,0.74100363,-0.06386679,0.6809234,-0.5688309,1.7011584,-1.0333128,-1.8688014,-1.0429103,1.9309288,1.185103,-0.97318095,1.7788206,-1.0625967,-1.8207195,-1.1117808,1.9395623,1.1214529,-0.91654104,-0.18855233,0.2733031,-0.74319744,0.69781554,0.29923114,0.59098125,-0.03228473,2.893036,-0.35803986,0.32096788,-3.3246539,-0.39731723,4.9918666,0.52840424,-0.45757484,0.69385165,0.5781438,0.1736007,0.15215245,0.7825996,-0.2675671,-0.41064817,0.10045921,1.0,0.0,0.0,0.0,0.0,0.0,0.0,-3.543036,-0.04196015,0.22903213,-18.771776,27.143208,-74.20657,69.886,29.773808,58.723267,-3.1786144
-176.0,-47.99286,-52.598145,109.28317,11.998574,0.71479994,-3.4695613,-0.80039835,-0.24363291,-0.58913046,0.722186,-0.021379791,0.65614396,-0.5848714,1.6987808,-1.08696,-1.8796325,-1.0395621,1.9374243,1.1870673,-0.97502816,1.7774016,-1.060512,-1.8355663,-1.0963904,1.9438615,1.1337897,-0.9149417,-0.12782545,0.17749381,-1.7104238,1.8207637,0.4630838,1.422051,0.2182564,2.8598137,-0.36201096,0.37011266,-3.3213298,-0.39692,4.8886895,0.52399063,-0.4658394,0.6944098,0.5862305,0.16987784,0.15056495,0.7776923,-0.5011846,-0.96348566,0.04372361,1.0,0.0,0.0,0.0,0.0,0.0,0.0,-3.5098138,-0.03798905,0.17988735,5.612728,-12.417823,-90.30306,112.71875,13.308644,75.39456,23.336735
-158.33965,64.52754,12.298504,85.74481,8.459385,6.2077827,-1.8432218,-0.7528789,0.04658284,0.060203988,0.6783317,0.03508305,0.68284065,-0.47816297,1.7021136,-1.0558536,-1.8295459,-1.0285572,1.9473698,1.2020737,-0.962758,1.7729746,-1.0590986,-1.8508499,-1.0763403,1.9480519,1.1479841,-0.91308206,-0.5469452,0.126817,-1.462746,2.068855,0.39942667,1.4142685,0.1754512,2.8266258,-0.36597633,0.41822642,-3.3180091,-0.39652315,4.7856154,0.51685715,-0.47728348,0.6958409,0.59712076,0.16482294,0.1478799,0.770981,-0.7903702,-1.1971896,0.18017256,1.0,0.0,0.0,0.0,0.0,0.0,0.0,-3.476626,-0.034023672,0.13177359,-41.71875,-5.852711,26.235844,25.536013,-7.8448534,-2.1394491,-4.2126865
-103.750885,62.94307,24.973854,50.838493,6.0422683,6.5394163,0.017722376,-0.7703963,-0.18166058,0.27001774,0.68496543,0.17225029,0.6675198,-0.53809476,1.695935,-1.0772647,-1.8238481,-1.0078437,1.965277,1.2147361,-0.9668915,1.7642599,-1.0592531,-1.860215,-1.05646,1.9515653,1.1612898,-0.91188425,-0.9798553,-0.06463282,-0.75473654,1.9626044,0.3287601,1.2999798,0.10175334,2.7934685,-0.3699379,0.46531022,-3.3146918,-0.3961267,4.6826444,0.5072365,-0.489933,0.6984426,0.6087809,0.15889217,0.14342481,0.76391643,-1.0310243,-1.2762218,0.29054603,1.0,0.0,0.0,0.0,0.0,0.0,0.0,-3.4434686,-0.03006211,0.084689796,-43.3957,-19.636318,72.74702,-10.184503,-8.986139,-12.234235,-7.239482
-48.04275,102.50093,43.98628,28.916653,3.218533,6.8632298,0.7077818,-0.79204094,-0.033285886,0.32254466,0.697567,0.27724802,0.6649275,-0.5632003,1.6850559,-1.0625817,-1.8279605,-0.98670334,1.97929,1.2277826,-0.96820426,1.7519003,-1.060449,-1.862149,-1.0388285,1.95472,1.1732718,-0.9114818,-1.3221927,-0.13928299,-0.00034148304,1.6967758,0.30571777,1.1628593,0.019264048,2.7603493,-0.37389565,0.51136506,-3.3113778,-0.39573064,4.5797763,0.49570084,-0.5023422,0.70237166,0.6200446,0.1520835,0.13715771,0.7573659,-1.2057865,-1.2168527,0.42782852,1.0,0.0,0.0,0.0,0.0,0.0,0.0,-3.4103494,-0.02610436,0.038634956,-34.457184,-7.902226,77.21948,-26.579905,-3.9593697,-14.174747,-8.388681
-6.422815,133.09673,52.614388,16.281746,0.8534797,6.0170484,0.6220095,-0.80256796,0.14764532,0.26208794,0.68125147,0.3891886,0.6566988,-0.5889077,1.6716435,-1.0456845,-1.8359402,-0.97070336,1.9936389,1.2389417,-0.97037256,1.7371927,-1.0611299,-1.8584049,-1.023892,1.9581552,1.1839873,-0.9118642,-1.5210791,-0.045671567,0.50352734,1.4254369,0.3527972,1.0407357,-0.05855931,2.7272606,-0.37784958,0.556392,-3.308067,-0.395335,4.477011,0.48297882,-0.5135975,0.707739,0.63061184,0.14446107,0.1298564,0.7513967,-1.3063468,-1.0831752,0.57107717,1.0,0.0,0.0,0.0,0.0,0.0,0.0,-3.3772607,-0.022150427,-0.006392002,-20.11726,8.952177,51.6147,-27.257992,3.6973238,-12.337685,-8.121677
12.708715,153.43568,52.14437,12.263112,-1.2482886,4.6364975,-0.0946724,-0.82105947,0.37832275,0.036876578,0.66113436,0.3309774,0.65327334,-0.5833954,1.6550868,-1.0232977,-1.8547173,-0.95777863,1.9912529,1.2493145,-0.97020376,1.7213656,-1.0595182,-1.8526542,-1.01117,1.9619927,1.1936327,-0.9129428,-1.6041956,0.2290366,0.6011797,1.22101,0.3927478,0.9396492,-0.12574328,2.6942024,-0.3817997,0.6003921,-3.3047597,-0.39493972,4.374349,0.4697113,-0.5232868,0.7144373,0.64080656,0.13626629,0.12304051,0.7454256,-1.3436501,-0.91956496,0.69976026,1.0,0.0,0.0,0.0,0.0,0.0,0.0,-3.3442025,-0.018200308,-0.05039209,-8.565593,27.1081,10.460079,-20.490217,3.5989404,-9.94873,-7.1573215
23.801392,156.78708,49.038155,10.013754,-2.1098385,3.470728,-0.44143113,-0.8235084,0.52389437,-0.038743,0.6282415,0.42886695,0.6442374,-0.56631243,1.6390147,-1.0071288,-1.8565285,-0.9483459,2.0048795,1.2580564,-0.9695741,1.7053095,-1.0546087,-1.8477829,-0.99993765,1.966475,1.2023951,-0.9145965,-1.6069813,0.57726634,0.45086804,1.0905452,0.4662915,0.8554488,-0.17995563,2.6611824,-0.385746,0.64336634,-3.3014557,-0.39454487,4.271789,0.45638275,-0.5313473,0.7222979,0.6509481,0.12777828,0.117677495,0.7389798,-1.3393643,-0.7564122,0.81204957,1.0,0.0,0.0,0.0,0.0,0.0,0.0,-3.3111825,-0.014254004,-0.093366325,-0.56431293,34.517063,-14.533072,-13.074946,7.1836176,-8.253849,-5.832142
29.839458,151.4358,47.0606,9.57155,-2.0371535,2.948087,-0.4610456,-0.81291306,0.6182596,0.0051169903,0.62387717,0.4894794,0.6242,-0.5518792,1.6240182,-0.9927827,-1.8472712,-0.93754995,2.015423,1.2648151,-0.96978444,1.689572,-1.0463747,-1.8447349,-0.989452,1.9717927,1.2104021,-0.916706,-1.5638232,0.9045936,0.2578143,1.0344347,0.5530766,0.78255427,-0.22263184,2.628193,-0.3896885,0.6853157,-3.2981548,-0.3941504,4.169332,0.44319916,-0.53787804,0.7312478,0.6611409,0.1190753,0.11386825,0.73194796,-1.3190252,-0.605359,0.92047304,1.0,0.0,0.0,0.0,0.0,0.0,0.0,-3.278193,-0.010311514,-0.13531572,4.0438175,32.46423,-18.80281,-5.681443,8.528698,-7.289827,-4.645863
30.873726,136.1623,43.311733,8.951986,-1.5729728,2.6348844,-0.30002645,-0.80281556,0.6770942,0.054622736,0.61368144,0.50406694,0.6311986,-0.53756326,1.6092904,-0.97866523,-1.8392726,-0.92808384,2.0221994,1.273522,-0.9704623,1.6743723,-1.0354551,-1.8431518,-0.97918665,1.9778867,1.2177721,-0.9191703,-1.5060333,1.1536208,0.12687176,1.0235649,0.6275367,0.72127897,-0.25559905,2.595234,-0.39362717,0.72624135,-3.2948573,-0.39375633,4.066977,0.43020248,-0.5430412,0.7411851,0.6713295,0.11011058,0.11124358,0.72444266,-1.2975947,-0.47259974,1.0163764,1.0,0.0,0.0,0.0,0.0,0.0,0.0,-3.245234,-0.006372839,-0.17624134,5.5384636,24.67072,-12.555557,-1.2092113,7.280338,-6.271422,-3.6547093
25.198418,111.519844,35.80121,8.516489,-0.88221747,2.1679332,-0.12798062,-0.80169636,0.70438325,0.061077822,0.60185254,0.5329135,0.6419952,-0.52511984,1.5942026,-0.9650168,-1.837044,-0.9190014,2.031178,1.2819717,-0.9716823,1.6596743,-1.0227884,-1.8423717,-0.9688908,1.9846368,1.2246157,-0.92190546,-1.4582907,1.3038821,0.0635105,1.0310322,0.69040716,0.6712798,-0.28064206,2.562313,-0.39756203,0.76614416,-3.291563,-0.39336267,3.964725,0.4173622,-0.54711914,0.7518468,0.68141395,0.10091402,0.10929838,0.7166206,-1.283609,-0.37008166,1.0812916,1.0,0.0,0.0,0.0,0.0,0.0,0.0,-3.2123132,-0.002437979,-0.21614414,4.574251,14.848685,-5.827068,0.58453083,6.1442256,-5.1805854,-2.833867
19.190825,89.504944,28.963589,8.246739,-0.32326603,1.7768826,-0.0028341468,-0.7929467,0.71807164,0.07510633,0.6066601,0.5295958,0.65534407,-0.51668805,1.5803796,-0.95098126,-1.834861,-0.90822476,2.0375965,1.29015,-0.9735743,1.6453558,-1.0092577,-1.8417766,-0.9584414,1.9918447,1.2310358,-0.92484754,-1.423548,1.3691758,0.059872653,1.0489595,0.73053724,0.6318102,-0.29976454,2.5294228,-0.40149307,0.8050252,-3.2882721,-0.39296937,3.8625753,0.40459824,-0.55036354,0.76294196,0.69131154,0.09153544,0.10761099,0.70861095,-1.2775649,-0.29341087,1.1174915,1.0,0.0,0.0,0.0,0.0,0.0,0.0,-3.1794229,0.0014930665,-0.2550252,3.3102274,6.39956,0.11252165,1.6053438,3.9008617,-4.0991783,-2.2310972
14.676148,73.186066,23.25511,7.4600883,-0.061686933,1.3782288,0.06114579,-0.78352535,0.7342636,0.057910543,0.6002372,0.5399664,0.66389126,-0.51484334,1.5670033,-0.9358313,-1.8359855,-0.89841765,2.0458412,1.2974249,-0.9763319,1.6312987,-0.99545294,-1.841088,-0.9478518,1.9993482,1.237126,-0.92794985,-1.4002638,1.3838301,0.07310775,1.0615395,0.7568161,0.601267,-0.31477594,2.496563,-0.4054203,0.84288555,-3.2849846,-0.3925765,3.7605276,0.39185715,-0.55298615,0.7742046,0.7009708,0.082057245,0.105962366,0.70048445,-1.2742356,-0.23477456,1.1273909,1.0,0.0,0.0,0.0,0.0,0.0,0.0,-3.146563,0.0054202974,-0.29288554,2.1855593,1.3747692,1.7509967,1.0443211,2.5526881,-3.135872,-1.8061578
8.666461,62.22513,19.013248,8.135515,0.22054839,1.1387799,0.06378919,-0.7893891,0.7349247,0.057907455,0.6008661,0.5506644,0.667736,-0.5164277,1.5523597,-0.9219605,-1.8352973,-0.88776517,2.0544145,1.3038996,-0.9795926,1.6173464,-0.9817248,-1.8402221,-0.93717444,2.0070539,1.2429606,-0.9311809,-1.3938189,1.3689077,0.092409,1.0690382,0.77481735,0.57743394,-0.326824,2.4637375,-0.40934372,0.8797262,-3.2817004,-0.392184,3.658582,0.3791046,-0.55513763,0.78543866,0.7103904,0.07256192,0.10424446,0.69225234,-1.277309,-0.1917264,1.1201638,1.0,0.0,0.0,0.0,0.0,0.0,0.0,-3.1137376,0.0093437135,-0.32972616,0.51276684,-1.5578032,2.316883,0.5261898,1.7512321,-2.4249554,-1.4865577
8.085256,60.20456,18.08286,7.8348765,0.19486374,1.0694755,0.08936186,-0.78437334,0.74401355,0.06788494,0.5906419,0.5593202,0.6670388,-0.520526,1.5389091,-0.9073234,-1.8334336,-0.87811023,2.062986,1.3096645,-0.9832335,1.6034132,-0.968175,-1.8391407,-0.92650664,2.0149045,1.248593,-0.93451875,-1.3934212,1.3501271,0.11474812,1.0652167,0.78800553,0.5584075,-0.33700046,2.4309464,-0.41326332,0.9155481,-3.2784193,-0.39179188,3.5567384,0.36632538,-0.5568638,0.7965663,0.71955305,0.063074686,0.102441885,0.68393755,-1.279549,-0.14891054,1.1081314,1.0,0.0,0.0,0.0,0.0,0.0,0.0,-3.0809464,0.013263315,-0.36554807,-0.09560585,-1.9385815,2.6281013,-0.6082058,1.2706399,-1.918757,-1.2949228
8.742975,61.973564,18.628386,8.016812,0.15507597,1.1189827,0.11116946,-0.7803094,0.74510545,0.09196921,0.5917533,0.5586071,0.6730419,-0.50880724,1.5253823,-0.8936645,-1.8299438,-0.8673313,2.0707653,1.3158971,-0.9853995,1.5894762,-0.95478827,-1.8377674,-0.9158951,2.022839,1.2540671,-0.93793577,-1.3941799,1.3346626,0.14617886,1.0591422,0.7951222,0.5435314,-0.3442291,2.3981857,-0.4171791,0.9503523,-3.2751415,-0.3914002,3.4549966,0.35352707,-0.55812263,0.8075978,0.7284336,0.053558405,0.10056674,0.67557544,-1.2809484,-0.10228697,1.099165,1.0,0.0,0.0,0.0,0.0,0.0,0.0,-3.0481858,0.017179102,-0.4003523,-0.21369457,-1.6117334,3.5621972,-0.82120895,0.6513953,-1.5066981,-1.0017812
8.33972,62.86219,18.296465,8.299447,0.060515642,1.0618665,0.0788403,-0.7824283,0.7500489,0.07820723,0.5874347,0.5548151,0.6711004,-0.5030985,1.5112334,-0.8797834,-1.8299466,-0.8571516,2.0783205,1.3211771,-0.9882456,1.5755163,-0.9414864,-1.8362014,-0.9053618,2.0308042,1.2594115,-0.94140905,-1.3969538,1.3285214,0.16136722,1.0507686,0.7967423,0.53138113,-0.34929946,2.3654556,-0.42109108,0.9841399,-3.271867,-0.39100885,3.3533566,0.34072876,-0.5589142,0.81853515,0.73704404,0.044008095,0.09869767,0.6671492,-1.2801677,-0.054358255,1.0893747,1.0,0.0,0.0,0.0,0.0,0.0,0.0,-3.0154557,0.021091074,-0.4341399,-0.4175663,-0.68035126,1.9284219,-1.0445833,0.110054016,-1.2251854,-0.77543855
8.179952,62.32512,17.435436,8.169748,-0.044950366,0.92942274,0.046096094,-0.7828854,0.7527331,0.056625877,0.5786228,0.56048113,0.67973053,-0.50532085,1.4972278,-0.8662131,-1.8305389,-0.8474995,2.0868523,1.3273845,-0.99194115,1.5615278,-0.9281903,-1.8346641,-0.89493906,2.0387883,1.2646586,-0.9449262,-1.399898,1.3298041,0.15262727,1.0388323,0.7984261,0.5224896,-0.3533786,2.3327637,-0.42499733,1.0169119,-3.268596,-0.39061794,3.2518182,0.32795715,-0.55922127,0.8293479,0.74540883,0.034457415,0.096932575,0.65862155,-1.2757121,-0.0071305814,1.0758693,1.0,0.0,0.0,0.0,0.0,0.0,0.0,-2.9827638,0.024997324,-0.46691185,-0.43632984,0.06585121,-0.48698783,-1.4033079,0.13101101,-0.88136196,-0.6646335
11.139775,63.68476,17.839859,6.8796206,-0.22978306,0.86324483,0.09951268,-0.77904403,0.7560855,0.06764123,0.5536832,0.56933445,0.6751655,-0.50423175,1.4836235,-0.85258174,-1.8278999,-0.83957076,2.0957217,1.3321751,-0.9953494,1.5475336,-0.9148436,-1.8332107,-0.8847319,2.0468068,1.2698294,-0.9484777,-1.3997124,1.336155,0.1442643,1.0139968,0.8026911,0.51518464,-0.3566367,2.3001022,-0.42889977,1.0486692,-3.265328,-0.39022738,3.1503813,0.31528473,-0.5590248,0.8400234,0.7534966,0.024922209,0.09531153,0.65002877,-1.2639061,0.04527608,1.0618225,1.0,0.0,0.0,0.0,0.0,0.0,0.0,-2.9501023,0.028899759,-0.4986692,-0.13055801,0.5729914,-0.42618215,-2.6980877,0.37825108,-0.69999695,-0.58912635
10.368532,63.10859,17.261255,7.347114,-0.25345963,0.7954664,0.068658434,-0.78300565,0.7575324,0.056029487,0.5534541,0.5467783,0.68056965,-0.49598068,1.469233,-0.83909035,-1.8276078,-0.8293865,2.1014845,1.3378863,-0.9980757,1.5335299,-0.90142447,-1.831887,-0.87474406,2.0547948,1.2749392,-0.9520511,-1.4009857,1.3436444,0.12952112,0.9929269,0.7974882,0.5098137,-0.35838854,2.2674713,-0.4327984,1.0794129,-3.2620633,-0.38983724,3.0490458,0.30273056,-0.55830956,0.85055447,0.7613161,0.0154043855,0.093885764,0.6413624,-1.2509788,0.09611793,1.047066,1.0,0.0,0.0,0.0,0.0,0.0,0.0,-2.9174714,0.03279838,-0.5294129,-0.27480125,0.6902456,-1.076901,-2.3178935,-0.55999756,-0.50343275,-0.43013692
10.587766,63.967606,17.402063,7.7793455,-0.2361173,0.7805764,0.066759415,-0.78122944,0.7634728,0.054197267,0.54939926,0.55030197,0.6861531,-0.4896731,1.4554069,-0.8250772,-1.8264673,-0.81980413,2.109825,1.3435545,-1.0010184,1.5195242,-0.8879157,-1.8306987,-0.8649298,2.0627332,1.280007,-0.9556331,-1.4009373,1.3530712,0.11662845,0.9769398,0.79270726,0.50595164,-0.35903794,2.2348747,-0.4366932,1.1091441,-3.258802,-0.38944748,2.9478116,0.2903061,-0.55708313,0.86095774,0.76887697,0.005882723,0.09266476,0.632619,-1.2374266,0.14718787,1.0348696,1.0,0.0,0.0,0.0,0.0,0.0,0.0,-2.8848748,0.036693186,-0.5591441,-0.14145374,0.8834839,-0.8864671,-1.8022418,-0.52103996,-0.3643036,-0.3193736
11.926673,62.155342,16.580063,6.576138,-0.35854495,0.6136082,0.097682916,-0.7807358,0.7670163,0.033404898,0.5173499,0.5587597,0.6893727,-0.48828954,1.4414506,-0.811214,-1.8273582,-0.8131948,2.1186092,1.3489443,-1.004462,1.5055224,-0.8743153,-1.8297031,-0.85536826,2.0706563,1.2850481,-0.95921797,-1.4002712,1.3622664,0.095200375,0.948484,0.79223734,0.5036241,-0.35922077,2.2023125,-0.44058418,1.1378636,-3.2555437,-0.3890581,2.8466787,0.27806854,-0.55535126,0.8711978,0.7761636,-0.0036068305,0.0916598,0.6238233,-1.2175714,0.19724943,1.0170996,1.0,0.0,0.0,0.0,0.0,0.0,0.0,-2.8523126,0.040584177,-0.5878636,-0.082063675,0.8694649,-1.7484055,-3.0605435,-0.08326769,-0.17495155,-0.26923418
17.169273,63.252457,17.487955,3.4497023,-0.5913319,0.55220526,0.28367758,-0.78588647,0.77010405,0.07773939,0.44057748,0.59168047,0.6811251,-0.4931683,1.4269338,-0.7973049,-1.8219291,-0.8113105,2.1298244,1.3531606,-1.0085348,1.4915034,-0.860632,-1.828675,-0.8464066,2.0786824,1.2900664,-0.96280855,-1.4029402,1.3703089,0.10692351,0.8780038,0.8059897,0.5016225,-0.3599556,2.1697807,-0.44447136,1.1655726,-3.2522888,-0.38866913,2.745647,0.26610565,-0.5530586,0.88123673,0.7830556,-0.013021527,0.09079745,0.6151505,-1.1861013,0.2550089,0.99608946,1.0,0.0,0.0,0.0,0.0,0.0,0.0,-2.8197808,0.044471353,-0.61557263,-0.4338503,0.75984,1.6363964,-7.2746634,1.3049364,-0.086045265,-0.34105778
21.119791,65.48175,18.80253,2.0036402,-0.6861531,0.57170796,0.41663596,-0.7828045,0.7708789,0.12955008,0.40191478,0.5954341,0.67894006,-0.4759245,1.4132229,-0.7835441,-1.8157201,-0.8062151,2.1382258,1.3579603,-1.010401,1.477471,-0.84688765,-1.827235,-0.8382641,2.0868611,1.2950674,-0.96639436,-1.4037774,1.3756839,0.15808888,0.79238904,0.82149774,0.50004137,-0.35902607,2.1372795,-0.44835472,1.1922721,-3.2490373,-0.38828054,2.6447163,0.25449753,-0.5501385,0.8910894,0.7894388,-0.02239098,0.089971066,0.6067868,-1.1479411,0.31863803,0.9780819,1.0,0.0,0.0,0.0,0.0,0.0,0.0,-2.7872796,0.048354715,-0.64227206,-0.24681091,0.49841404,5.6123614,-8.770013,1.4634252,-0.017642975,-0.18070936
26.157272,66.51143,19.507206,-0.64141655,-0.9303756,0.46121156,0.55292135,-0.77703214,0.77589047,0.16734396,0.32807535,0.6145315,0.68116677,-0.47312665,1.3997678,-0.7692986,-1.8105006,-0.8054566,2.1483142,1.3631841,-1.013707,1.4634634,-0.833087,-1.8251159,-0.831164,2.0952306,1.3000609,-0.9699678,-1.4002789,1.3814102,0.23167007,0.6818068,0.84178454,0.49965087,-0.35771844,2.1048164,-0.45223427,1.2179629,-3.2457888,-0.38789234,2.5438862,0.24336624,-0.5465412,0.90074694,0.7952126,-0.031717595,0.08911928,0.5989061,-1.0975461,0.38705716,0.95770967,1.0,0.0,0.0,0.0,0.0,0.0,0.0,-2.7548165,0.052234262,-0.66796285,0.19936562,0.5457878,7.8472705,-11.248529,1.9443154,0.16608834,-0.13572574
34.186226,67.19071,20.180939,-5.812957,-1.4482255,0.23438007,0.78164345,-0.77357906,0.78328425,0.22869267,0.19358619,0.63870406,0.6749499,-0.44493666,1.3861055,-0.7547586,-1.8022467,-0.81180537,2.159101,1.3675559,-1.0144614,1.4495112,-0.81920916,-1.8220813,-0.82558405,2.1038442,1.3050524,-0.9735078,-1.3939832,1.3898005,0.32900473,0.516063,0.8675637,0.50011516,-0.35357502,2.0723839,-0.45611,1.2426461,-3.2425437,-0.38750452,2.4431572,0.23290634,-0.5422001,0.91013885,0.80022424,-0.040922675,0.088226765,0.5917622,-1.0244982,0.4629259,0.9286368,1.0,0.0,0.0,0.0,0.0,0.0,0.0,-2.722384,0.056109995,-0.6926461,0.49607754,0.82998276,10.206329,-16.743183,2.5041223,0.37505627,0.16316175
44.06469,65.70376,20.132875,-13.20586,-2.2046745,-0.1653027,1.0615879,-0.7702047,0.7886582,0.2967181,0.0074952585,0.65525365,0.6699401,-0.414937,1.3724906,-0.74034333,-1.7924095,-0.8248345,2.1693695,1.3720465,-1.0150015,1.4356314,-0.8052369,-1.8179367,-0.82225955,2.1127248,1.3100554,-0.97698396,-1.3860713,1.3998342,0.44442254,0.27087185,0.894922,0.5019343,-0.34629354,2.0399818,-0.45998192,1.266323,-3.239302,-0.3871171,2.3425288,0.22340393,-0.5370407,0.9191155,0.8042836,-0.049836148,0.08734215,0.58567524,-0.9194537,0.5445027,0.8827399,1.0,0.0,0.0,0.0,0.0,0.0,0.0,-2.689982,0.059981912,-0.71632296,0.6949663,1.0196447,11.94883,-24.651224,2.6935697,0.68507195,0.51799417
53.639694,63.5693,19.876549,-20.50137,-2.9502897,-0.62099415,1.325521,-0.76007146,0.7927383,0.37407792,-0.19559823,0.666039,0.65780336,-0.37643623,1.3596243,-0.72596306,-1.7805289,-0.84181935,2.1793287,1.3758357,-1.0146276,1.4218699,-0.7911635,-1.8125236,-0.8219353,2.1218648,1.3150755,-0.980359,-1.3729779,1.4099919,0.5746533,-0.047252033,0.92039406,0.5041674,-0.33503652,2.0076103,-0.46385002,1.2889942,-3.2360632,-0.38673005,2.242001,0.21518707,-0.5310402,0.92751163,0.8072108,-0.058257427,0.08653948,0.5809713,-0.7821099,0.6284402,0.82016397,1.0,0.0,0.0,0.0,0.0,0.0,0.0,-2.6576104,0.063850015,-0.7389942,1.2910128,1.0597467,13.282037,-31.866444,2.5702477,0.8856237,0.9882748
50.31677,62.33577,19.198542,-17.867096,-2.6979764,-0.7354983,1.2301159,-0.7439779,0.7961795,0.42372188,-0.25503343,0.65760046,0.65159965,-0.28760582,1.3474721,-0.7115456,-1.7701514,-0.84743863,2.187625,1.3802354,-1.0091196,1.4082991,-0.7769957,-1.8058784,-0.82447493,2.131184,1.3201109,-0.9835586,-1.3514923,1.419297,0.6945469,-0.32273975,0.9363489,0.50532454,-0.31517726,1.975277,-0.4677143,1.310661,-3.232828,-0.3863434,2.1415737,0.2082901,-0.5242653,0.935332,0.80904484,-0.0661754,0.08585773,0.577664,-0.65191656,0.70141655,0.76386315,1.0,0.0,0.0,0.0,0.0,0.0,0.0,-2.625277,0.067714304,-0.76066095,2.2166967,1.0045528,11.998463,-27.520355,1.7540097,0.7469773,1.9268394
32.817066,60.43306,17.563156,-5.410753,-1.3967015,-0.46367896,0.8064851,-0.7454942,0.7977948,0.44775686,-0.20473364,0.6555127,0.64559114,-0.13581581,1.3337497,-0.6972162,-1.7611027,-0.8449483,2.1967354,1.38467,-0.99714017,1.3949057,-0.7627526,-1.7982643,-0.82874644,2.1406064,1.3251425,-0.98645586,-1.3351109,1.4263947,0.7831578,-0.46189788,0.94563615,0.5038906,-0.2814158,1.9429741,-0.47157478,1.3313242,-3.2295957,-0.38595712,2.041247,0.20231628,-0.5169201,0.9427791,0.81007725,-0.0737981,0.08525616,0.57537806,-0.5713479,0.75198495,0.7325606,1.0,0.0,0.0,0.0,0.0,0.0,0.0,-2.5929742,0.07157478,-0.7813242,1.7039537,0.8158684,8.68045,-13.900698,1.2319922,0.3114462,3.3467531
11.332421,57.291584,15.476664,10.0366535,0.22800583,-0.0375791,0.2978099,-0.74692893,0.79294115,0.45735073,-0.095000714,0.6391421,0.6462252,0.10274109,1.3202128,-0.68345845,-1.7525291,-0.8382465,2.2045207,1.389765,-0.97618175,1.3816153,-0.7484837,-1.7900455,-0.83314764,2.150044,1.3301474,-0.9888572,-1.327025,1.4274346,0.8338544,-0.43320033,0.94439703,0.50027823,-0.2266357,1.9107018,-0.47543144,1.3509849,-3.2263668,-0.38557124,1.94102,0.19666672,-0.5092411,0.95014256,0.81069535,-0.081448264,0.08465339,0.57356155,-0.5541685,0.7784264,0.7313662,1.0,0.0,0.0,0.0,0.0,0.0,0.0,-2.5607018,0.07543144,-0.8009849,0.80177784,0.23801327,4.8113465,2.7877152,0.2845168,-0.109779835,5.4211082
-22.667091,53.215397,12.428605,34.896935,2.8020923,0.800851,-0.5830313,-0.7695625,0.78649664,0.4158385,0.22335285,0.6139313,0.66310126,0.25429368,1.304659,-0.6698341,-1.7484616,-0.81081235,2.211437,1.3964576,-0.96342784,1.3682448,-0.734253,-1.7817714,-0.8353239,2.1593785,1.3351141,-0.99063295,-1.3408446,1.4220937,0.824399,-0.14661273,0.93137944,0.4950149,-0.16158338,1.8784599,-0.4792843,1.3696442,-3.2231412,-0.38518575,1.8408934,0.19041824,-0.5015373,0.9578594,0.81149894,-0.089652695,0.083914444,0.57130575,-0.6403963,0.7727203,0.778672,1.0,0.0,0.0,0.0,0.0,0.0,0.0,-2.52846,0.07928428,-0.81964415,-1.543808,-0.3717184,-1.2328267,28.407133,-0.77421665,-0.61370134,6.3873887
-43.86367,49.49292,10.161289,50.57067,4.2981844,1.3769257,-1.1816683,-0.7877556,0.7798749,0.37586537,0.4794817,0.5472194,0.68240494,0.34903085,1.2894692,-0.6562655,-1.7441849,-0.78737575,2.2141004,1.4033546,-0.95572984,1.3546206,-0.72011477,-1.7739398,-0.8334013,2.1683812,1.3400294,-0.9917392,-1.3701013,1.4116559,0.7682827,0.3043048,0.8919594,0.48917866,-0.09395576,1.8462524,-0.48313332,1.3873028,-3.2199187,-0.38480064,1.7408668,0.18282318,-0.4940071,0.9662608,0.8129739,-0.098846786,0.08300528,0.56781393,-0.7914169,0.75288385,0.8540992,1.0,0.0,0.0,0.0,0.0,0.0,0.0,-2.4962525,0.08313331,-0.83730274,-3.13313,-0.8872986,-5.9509993,44.812572,-3.3446193,-0.9565294,6.642197
-40.163086,42.87528,7.993957,45.74293,3.7744317,1.0691978,-1.1324092,-0.796886,0.76882315,0.32936043,0.5208032,0.536755,0.66952765,0.30653602,1.274932,-0.64323246,-1.7410038,-0.781321,2.2220566,1.4069822,-0.9610856,1.3406874,-0.70612437,-1.7669017,-0.827356,2.1769795,1.3448797,-0.9922628,-1.4015878,1.3951784,0.6813848,0.7040226,0.8504837,0.4822849,-0.038740184,1.8140793,-0.48697853,1.4039619,-3.2166994,-0.38441592,1.6409403,0.17383575,-0.48667145,0.9752515,0.8151851,-0.10896117,0.08202808,0.5629139,-0.92520505,0.7352459,0.9073463,1.0,0.0,0.0,0.0,0.0,0.0,0.0,-2.4640794,0.086978525,-0.8539619,-3.287959,-1.5380859,-9.008419,39.77964,-3.628087,-1.0893881,5.445958
-22.320988,40.451347,8.131851,30.455647,2.2662816,0.49920058,-0.6295452,-0.8113157,0.75861716,0.33996254,0.47493365,0.5642881,0.65839463,0.2605974,1.2595558,-0.6302627,-1.7329055,-0.77986264,2.2334085,1.4107192,-0.96620303,1.3264395,-0.69232565,-1.7605579,-0.81860125,2.1853032,1.3496672,-0.9923381,-1.4328413,1.3750124,0.6185216,0.93215454,0.82757187,0.47684392,0.0026040222,1.7819366,-0.49081993,1.4196225,-3.2134833,-0.38403156,1.5411137,0.16396713,-0.47940636,0.98448026,0.817827,-0.1196058,0.08108012,0.5570274,-0.9995712,0.7335401,0.9211974,1.0,0.0,0.0,0.0,0.0,0.0,0.0,-2.4319367,0.090819925,-0.8696225,-3.226447,-1.9616604,-6.414461,22.677696,-1.9486785,-0.7568896,4.0545306
-2.2760868,43.050556,9.784499,15.132007,0.6230078,-0.036985844,-0.113821596,-0.8051073,0.7589279,0.3362142,0.45210353,0.56303763,0.6662629,0.23100087,1.2459288,-0.61643285,-1.7269365,-0.7733909,2.241607,1.4162935,-0.96923804,1.3119913,-0.67869,-1.7546375,-0.8087536,2.1934705,1.3544241,-0.9920854,-1.4492954,1.3597778,0.58357495,1.0018884,0.81344324,0.4754198,0.03247606,1.7498245,-0.49465752,1.4342856,-3.2102706,-0.38364762,1.4413869,0.15384674,-0.47203064,0.993615,0.82051027,-0.13039663,0.08026842,0.5507417,-1.0087624,0.7501408,0.90385884,1.0,0.0,0.0,0.0,0.0,0.0,0.0,-2.3998246,0.09465751,-0.8842856,-1.735568,-1.5120983,-3.3751965,6.855786,-1.2758732,-0.12164116,2.86436
13.174018,44.84754,10.738109,2.7772923,-0.6833198,-0.5539793,0.30448645,-0.80856174,0.7588808,0.32510194,0.3932148,0.57304126,0.6716871,0.23742534,1.2311351,-0.6028019,-1.7221273,-0.7694321,2.2507746,1.4215928,-0.96834284,1.297444,-0.66515833,-1.7489269,-0.7991959,2.2015767,1.3591887,-0.9915771,-1.4569522,1.3509954,0.56791997,0.93995553,0.8094341,0.47760925,0.056409616,1.7177429,-0.4984913,1.4479522,-3.207061,-0.38326403,1.3417598,0.14402771,-0.46442604,1.0023913,0.82292575,-0.14099815,0.07970559,0.544573,-0.9641845,0.77563286,0.86195034,1.0,0.0,0.0,0.0,0.0,0.0,0.0,-2.367743,0.09849128,-0.89795214,-0.8615017,-0.8895397,-1.2530446,-6.3137054,-0.42209625,0.45904517,2.2390366
21.955261,45.050953,11.0434265,-4.4103003,-1.4067429,-0.9287491,0.5671682,-0.81023604,0.75045955,0.33210868,0.33518207,0.56478757,0.67017066,0.295056,1.2164204,-0.5901124,-1.715716,-0.7656777,2.2580554,1.4262058,-0.9620715,1.2828661,-0.65171057,-1.7432258,-0.79081595,2.2096448,1.3639838,-0.9908218,-1.4584497,1.3426436,0.5721456,0.80365443,0.80571973,0.4814028,0.08144519,1.6856995,-0.50232124,1.4606233,-3.2038546,-0.38288087,1.2422323,0.13489532,-0.45655632,1.0106514,0.824881,-0.15118837,0.07945986,0.53888726,-0.88782257,0.8016316,0.80722576,1.0,0.0,0.0,0.0,0.0,0.0,0.0,-2.3356996,0.10232124,-0.91062325,-0.22609234,-0.84769726,0.8027077,-13.735426,-0.47113895,0.75169206,2.3468986
24.0666,45.670048,11.41185,-5.4111857,-1.4959583,-1.0474068,0.6351936,-0.80189323,0.74143267,0.348676,0.3161824,0.54256004,0.6636662,0.36891225,1.2026768,-0.5775673,-1.7083582,-0.7591977,2.2639008,1.4303504,-0.95393056,1.2683398,-0.63836104,-1.7373512,-0.78381026,2.2176251,1.3688112,-0.9897861,-1.4508071,1.3323808,0.5936117,0.6660225,0.7948006,0.4845037,0.11036532,1.6536865,-0.5061474,1.4722998,-3.2006514,-0.38249806,1.1428044,0.12656403,-0.44843102,1.0183829,0.8263099,-0.16093473,0.079527274,0.53384197,-0.8055815,0.8258588,0.7552018,1.0,0.0,0.0,0.0,0.0,0.0,0.0,-2.3036866,0.10614738,-0.9222998,0.73308945,-1.0294437,2.4809003,-13.829589,-1.1937261,0.68771243,2.750902
18.579355,43.09344,10.268343,-1.1073322,-1.0409647,-1.0442882,0.45551845,-0.79795164,0.7347459,0.31557807,0.33605486,0.531133,0.6659304,0.41310215,1.1885446,-0.56488645,-1.7057934,-0.7502048,2.2707384,1.4354043,-0.9484759,1.2539183,-0.6251231,-1.7314231,-0.77777827,2.225472,1.3736655,-0.98845476,-1.4394068,1.321084,0.59337246,0.5821205,0.7812086,0.48669657,0.14046155,1.6217041,-0.5099697,1.4829829,-3.1974514,-0.38211563,1.0434759,0.11893082,-0.44011688,1.0256627,0.82731336,-0.17031597,0.07989457,0.52930313,-0.7410482,0.8414968,0.71258146,1.0,0.0,0.0,0.0,0.0,0.0,0.0,-2.2717042,0.109969705,-0.93298286,1.1311054,-1.1119366,0.17527342,-8.448637,-1.3777375,0.5250752,2.8986545
15.208366,39.980183,9.093954,1.2273269,-0.829664,-1.1028782,0.33557907,-0.78795886,0.72285235,0.30102673,0.3128473,0.48334503,0.6626568,0.46480304,1.1751224,-0.55283785,-1.7013204,-0.7464935,2.2738066,1.4399312,-0.94197446,1.2396456,-0.6120263,-1.7256134,-0.7723328,2.2330594,1.3785349,-0.98681253,-1.4233948,1.3059313,0.57712424,0.53179204,0.7514396,0.48778945,0.17190401,1.5897522,-0.5137882,1.4926734,-3.1942544,-0.3817336,0.9442466,0.11185837,-0.43169022,1.0325475,0.8280026,-0.17939088,0.08059389,0.5251048,-0.68556225,0.85067886,0.67425805,1.0,0.0,0.0,0.0,0.0,0.0,0.0,-2.2397523,0.11378822,-0.9426734,1.6089916,-1.4834642,-1.5096903,-5.093813,-2.947402,0.3823638,3.0497818
10.875572,31.638271,6.073847,2.4211593,-0.68008685,-1.3412465,0.18199804,-0.78505516,0.70269364,0.2405382,0.28495133,0.43408608,0.6577365,0.49010792,1.1611401,-0.5417569,-1.7015595,-0.74383765,2.276468,1.4443085,-0.9378017,1.2255179,-0.59914595,-1.720269,-0.7672678,2.2402349,1.3834082,-0.9848661,-1.4092376,1.2822574,0.5203474,0.4977691,0.70621413,0.48809397,0.2019042,1.5578308,-0.5176029,1.5013723,-3.1910608,-0.38135192,0.84511656,0.1053009,-0.42328262,1.0390148,0.82851815,-0.188105,0.08172149,0.5210524,-0.6364841,0.84428144,0.6315868,1.0,0.0,0.0,0.0,0.0,0.0,0.0,-2.207831,0.117602915,-0.9513723,1.4235735,-2.3182154,-5.6482434,-3.4974158,-4.44268,0.31060576,2.9271126
11.524712,27.413534,4.6244054,0.11797047,-0.8793256,-1.6068228,0.21246193,-0.7861453,0.6889682,0.22156659,0.20094806,0.40276057,0.6515903,0.508242,1.1469033,-0.5302491,-1.6981122,-0.747173,2.280511,1.4485673,-0.93404186,1.2114893,-0.58652884,-1.7155502,-0.76278365,2.2469144,1.3882796,-0.98263925,-1.4009362,1.2549875,0.45582774,0.43172225,0.6555972,0.48799592,0.22943546,1.5259476,-0.5214138,1.5090806,-3.1878705,-0.38097066,0.7460856,0.0993042,-0.4149971,1.0449964,0.8289135,-0.19632688,0.08336168,0.517116,-0.57852095,0.82921183,0.58139145,1.0,0.0,0.0,0.0,0.0,0.0,0.0,-2.1759477,0.1214138,-0.95908064,0.8412123,-2.6733875,-6.4259233,-6.704867,-4.9954653,0.31201243,2.6904612
10.301851,26.045767,4.258008,0.8122401,-0.7657517,-1.6494733,0.18798181,-0.7838583,0.6741038,0.2047888,0.18158562,0.37498608,0.6585922,0.5175065,1.1331035,-0.5191184,-1.6950713,-0.7446251,2.284413,1.4541388,-0.9308886,1.1975142,-0.5741978,-1.7114322,-0.7589499,2.2530942,1.3931547,-0.9801616,-1.3962938,1.2260408,0.397001,0.366897,0.6054684,0.48835185,0.25361452,1.4940948,-0.5252209,1.5157995,-3.1846833,-0.38058975,0.6471536,0.093853,-0.40687752,1.0504915,0.8292152,-0.20402871,0.08550396,0.51328677,-0.5242973,0.8108686,0.5336059,1.0,0.0,0.0,0.0,0.0,0.0,0.0,-2.144095,0.12522087,-0.9657995,0.4736185,-2.8371334,-5.8685484,-6.582439,-4.941821,0.3368199,2.3569822
12.075704,24.232105,3.8987684,-1.4039955,-0.9234707,-1.8220401,0.27227977,-0.7806557,0.65158993,0.19590247,0.103051014,0.3292672,0.655371,0.54392225,1.1194487,-0.5090388,-1.691842,-0.74864477,2.286021,1.4586918,-0.9257694,1.1835772,-0.562192,-1.7077816,-0.7559792,2.2587361,1.3980318,-0.9774522,-1.3929173,1.1922631,0.35452956,0.27347133,0.5506971,0.48861971,0.27651164,1.4622726,-0.5290241,1.5215297,-3.1814992,-0.38020924,0.5483206,0.08900833,-0.39897346,1.0554749,0.8294044,-0.21115054,0.08813786,0.50964254,-0.46182618,0.7880448,0.48182732,1.0,0.0,0.0,0.0,0.0,0.0,0.0,-2.1122727,0.12902412,-0.97152966,0.36714077,-3.317237,-4.2326927,-9.427124,-5.431366,0.34744143,2.2322536
14.445108,24.364761,4.475752,-3.0295959,-0.9598525,-1.9023324,0.38618267,-0.7679205,0.6247756,0.21988896,0.039103545,0.29659677,0.6496415,0.5619347,1.1067852,-0.49971446,-1.6857927,-0.7520688,2.288396,1.462996,-0.92125875,1.1697203,-0.55057436,-1.7042854,-0.7540709,2.2638364,1.402907,-0.97452635,-1.3830732,1.1517736,0.3479072,0.16314429,0.49665675,0.48824146,0.29767844,1.430481,-0.53282356,1.5262723,-3.1783185,-0.3798291,0.44958645,0.08483887,-0.3912983,1.0599406,0.8294108,-0.21767487,0.09117485,0.5063421,-0.3944153,0.76406544,0.43039683,1.0,0.0,0.0,0.0,0.0,0.0,0.0,-2.080481,0.13282356,-0.9762723,1.0512829,-3.9848328,-0.6655216,-11.087558,-5.3786936,0.27925372,2.0614743
11.196253,26.638012,5.167838,1.0408568,-0.5153768,-1.7412465,0.2820608,-0.7641799,0.61954224,0.19099036,0.05424434,0.3108191,0.6412751,0.56616735,1.0933022,-0.48862013,-1.6851864,-0.74864644,2.2949183,1.4670346,-0.9179096,1.1559683,-0.539301,-1.7008712,-0.7529675,2.2685552,1.4077688,-0.9714107,-1.3724492,1.1194192,0.33930063,0.092414066,0.46375898,0.48628372,0.31598952,1.3987198,-0.5366192,1.5300283,-3.1751409,-0.37944934,0.35095102,0.08121109,-0.38383102,1.063985,0.82925457,-0.2237122,0.094491534,0.5033498,-0.34409156,0.7435054,0.39168155,1.0,0.0,0.0,0.0,0.0,0.0,0.0,-2.04872,0.13661918,-0.98002833,1.1066914,-3.1688452,-0.8917749,-7.135859,-3.2256901,0.04799962,1.7778873
4.6332474,23.629505,4.090677,6.861983,0.12264782,-1.6089016,0.04979821,-0.7585821,0.5993791,0.1315134,0.09724705,0.29855353,0.6391202,0.577367,1.0801101,-0.47936305,-1.68772,-0.7432428,2.2984104,1.4716809,-0.913674,1.142325,-0.52834326,-1.6977813,-0.7520939,2.273026,1.4126059,-0.9681272,-1.3615305,1.0880834,0.29860264,0.08528986,0.44167385,0.48348063,0.33229154,1.3669891,-0.540411,1.5327988,-3.1719663,-0.37906998,0.2524142,0.07788849,-0.37658882,1.0677252,0.82905895,-0.22940627,0.098010264,0.50042784,-0.3199349,0.71995384,0.3642575,1.0,0.0,0.0,0.0,0.0,0.0,0.0,-2.0169892,0.14041099,-0.98279876,1.0957956,-3.0633688,-4.1334925,-0.8211151,-2.0895302,-0.10346174,1.571095
1.548965,19.341381,2.848488,8.862822,0.34775096,-1.6170156,-0.052165058,-0.7531275,0.5681938,0.110954806,0.08804556,0.23399119,0.64344376,0.5900464,1.0670123,-0.47152388,-1.6866858,-0.74328935,2.296425,1.4769503,-0.9091225,1.1287905,-0.51775557,-1.695174,-0.751125,2.2771611,1.4174181,-0.9646911,-1.3509612,1.0493006,0.24780771,0.100385554,0.40459415,0.48112378,0.34713462,1.3352966,-0.544199,1.5345845,-3.168795,-0.378691,0.1539759,0.074733734,-0.36960793,1.0712034,0.8289164,-0.23481748,0.101737306,0.4974011,-0.30571347,0.69202846,0.33876726,1.0,0.0,0.0,0.0,0.0,0.0,0.0,-1.9852966,0.14419898,-0.9845845,1.0520458,-3.808546,-5.1556168,1.3807267,-3.574586,-0.076931715,1.4191806
-0.44369125,13.458418,1.2446034,9.247139,0.51273215,-1.720266,-0.09800734,-0.7497399,0.5319203,0.0846342,0.078481175,0.20032607,0.64225036,0.59013563,1.0538166,-0.46456355,-1.6867106,-0.74327683,2.2971938,1.4816432,-0.90567756,1.1153475,-0.5076428,-1.693114,-0.74998915,2.2808766,1.4222094,-0.9611253,-1.3420141,0.99887764,0.1918195,0.117459096,0.3609589,0.4789888,0.35961878,1.3036346,-0.54798317,1.5353867,-3.165627,-0.37831235,0.05563602,0.071697235,-0.36297417,1.0744058,0.82888067,-0.23993082,0.10566776,0.4941906,-0.2972262,0.65552735,0.31079537,1.0,0.0,0.0,0.0,0.0,0.0,0.0,-1.9536346,0.14798316,-0.98538667,0.8963585,-4.9741745,-5.6846976,1.56973,-4.234302,-0.056052208,1.1811912
-0.19871616,4.6169405,-0.95482063,6.650222,0.5087361,-1.9888908,-0.03943289,-0.73756206,0.47509283,0.068723716,0.041850533,0.15043926,0.64631695,0.60203356,1.0415913,-0.46013352,-1.6862416,-0.7458041,2.2959206,1.4868411,-0.90092194,1.1020266,-0.49820313,-1.6915615,-0.74888,2.2840772,1.4269873,-0.9574413,-1.3287642,0.925896,0.1424991,0.10842132,0.30651098,0.47790077,0.37117255,1.2720032,-0.55176353,1.5352062,-3.162462,-0.37793413,-0.042605553,0.0687561,-0.35681725,1.0772512,0.82895446,-0.24464124,0.109767444,0.49085265,-0.2855888,0.6033958,0.2728361,1.0,0.0,0.0,0.0,0.0,0.0,0.0,-1.9220031,0.15176353,-0.9852062,1.3762712,-7.229185,-5.046451,-1.0292397,-5.342293,0.07713437,1.0888457
-0.82760143,-3.8613214,-3.1576533,4.7801905,0.5454853,-2.2252648,-0.011573363,-0.732444,0.41691238,0.043298,0.01490859,0.09374498,0.65033996,0.6016171,1.0287821,-0.45651188,-1.6872317,-0.7473892,2.2934515,1.4920213,-0.89727956,1.0888373,-0.48964152,-1.69048,-0.74802935,2.2866483,1.4317595,-0.9536552,-1.315147,0.83315843,0.09625548,0.07681518,0.24089704,0.47763103,0.38086793,1.2404022,-0.5555401,1.534044,-3.1593003,-0.37755626,-0.1407489,0.06594467,-0.3512993,1.0796517,0.82915014,-0.24882677,0.11401086,0.48743883,-0.2736465,0.5362667,0.22655769,1.0,0.0,0.0,0.0,0.0,0.0,0.0,-1.8904022,0.15554008,-0.984044,1.4501572,-9.206284,-4.7583833,-3.2749386,-6.483397,0.16990304,0.90265274
-1.6700888,-15.3909,-6.175802,2.3792834,0.55492437,-2.5378325,0.0065777563,-0.7150894,0.33364853,0.014862988,-0.02008327,-0.013460264,0.64584786,0.6002622,1.0173284,-0.45627666,-1.6889937,-0.75003767,2.2853022,1.4963442,-0.89362895,1.0758387,-0.48222098,-1.6898639,-0.7476517,2.2883496,1.4365278,-0.9497861,-1.2943639,0.71191406,0.04962898,0.024442367,0.14654867,0.4771768,0.38870943,1.2088318,-0.5593128,1.5319011,-3.1561415,-0.3771788,-0.23879412,0.063266754,-0.34659386,1.0815039,0.82949686,-0.25234568,0.11840238,0.4839809,-0.26091346,0.44905335,0.16939597,1.0,0.0,0.0,0.0,0.0,0.0,0.0,-1.8588318,0.15931281,-0.9819011,2.2255898,-12.059439,-4.833731,-5.334983,-9.384855,0.15748143,0.7109642
-5.963011,-67.505165,-20.040888,-8.510054,0.7677474,-3.8571227,0.07078922,-0.6808352,0.07941224,-0.032882966,-0.17531759,-0.2606152,0.6559689,0.5824992,1.0077552,-0.47427976,-1.6931522,-0.76518345,2.262288,1.5021248,-0.89153624,1.0631834,-0.47697434,-1.6898181,-0.74845564,2.2884946,1.4413,-0.9458656,-1.2546706,0.46242592,-0.011460055,-0.11565622,-0.03000268,0.47805786,0.39281273,1.1772919,-0.56308174,1.5287786,-3.152986,-0.3768017,-0.3367413,0.060710907,-0.343462,1.0823729,0.8301208,-0.2546506,0.12289264,0.4805723,-0.24886894,0.2686325,0.057884403,1.0,0.0,0.0,0.0,0.0,0.0,0.0,-1.8272918,0.16308174,-0.97877854,4.3269634,-24.891657,-6.3910813,-14.082879,-17.702713,0.3130257,0.28401017
-14.316122,-124.01094,-33.893143,-15.3241005,1.9472646,-4.8939223,0.13986698,-0.6551664,-0.2328316,0.032572508,-0.2945249,-0.44226217,0.66009957,0.52906626,0.9976668,-0.5002575,-1.6865609,-0.77790815,2.2442684,1.50731,-0.89295894,1.0510031,-0.47539076,-1.6899498,-0.7510935,2.2865033,1.4460722,-0.94195837,-1.2042258,0.056944635,-0.014596528,-0.31311232,-0.25646338,0.47674897,0.38938263,1.1457825,-0.56684685,1.5246772,-3.1498337,-0.37642497,-0.43459058,0.05804062,-0.34282494,1.0817733,0.8311229,-0.2552306,0.12705883,0.47743914,-0.2707701,-0.0049800538,-0.09988975,1.0,0.0,0.0,0.0,0.0,0.0,0.0,-1.7957824,0.16684684,-0.97467715,5.5396795,-40.568947,-0.5198484,-19.76037,-22.855354,-0.17639399,-0.5713582
-19.01787,-149.59065,-38.404667,-14.857379,3.430438,-4.978138,0.26875788,-0.5898445,-0.5119331,0.17974648,-0.3336139,-0.508708,0.65643114,0.47946146,0.99201864,-0.5265841,-1.6719751,-0.7844549,2.2356324,1.5117153,-0.8940122,1.0395418,-0.4786056,-1.6892612,-0.75557387,2.2823644,1.4508024,-0.9381284,-1.1255175,-0.4481488,0.09672474,-0.49290532,-0.46733838,0.4698798,0.37985706,1.1143112,-0.57060814,1.519598,-3.1466844,-0.37604862,-0.532342,0.054828644,-0.3451748,1.079517,0.83242095,-0.25407797,0.13013136,0.47495836,-0.3375792,-0.31080982,-0.26774466,1.0,0.0,0.0,0.0,0.0,0.0,0.0,-1.7643112,0.17060813,-0.969598,8.310008,-50.656746,11.17974,-17.92186,-21.438301,-1.2533844,-1.2215734
-13.282446,-129.05638,-31.666327,-13.405803,3.459602,-4.346973,0.47328502,-0.5230944,-0.67498404,0.28578964,-0.42237917,-0.54431474,0.6691048,0.39555508,0.9872324,-0.546104,-1.6606822,-0.7978118,2.227933,1.517713,-0.8985729,1.0290419,-0.48667893,-1.6869018,-0.76178706,2.2764554,1.4554545,-0.93445295,-1.0242486,-0.9278285,0.28345627,-0.6639494,-0.63322604,0.46030715,0.36268285,1.0828705,-0.5743656,1.513542,-3.1435385,-0.37567267,-0.62999576,0.0509758,-0.35027885,1.0756937,0.83379245,-0.25150046,0.13163087,0.4735092,-0.40315157,-0.57550895,-0.42084053,1.0,0.0,0.0,0.0,0.0,0.0,0.0,-1.7328705,0.17436561,-0.96354204,10.311127,-48.205303,19.018238,-17.044735,-16.995573,-1.9282639,-1.9299924
15.9332285,-55.360264,-10.153713,-18.041798,1.2426282,-3.2527273,1.0556536,-0.2799195,-0.7217439,0.41541442,-0.5049013,-0.6275722,0.6661255,0.36369234,1.00105,-0.5588533,-1.6453604,-0.8122772,2.2136981,1.5220671,-0.8980837,1.020476,-0.49850592,-1.6822708,-0.76962626,2.2691045,1.4600168,-0.93095964,-0.8021083,-1.2682694,0.5247982,-0.8244959,-0.7699728,0.45216945,0.3446387,1.0514603,-0.5781193,1.5065104,-3.1403956,-0.37529707,-0.72755194,0.04712677,-0.35717964,1.0706617,0.83470464,-0.24809206,0.13156974,0.47371706,-0.38215426,-0.72494936,-0.5318414,1.0,0.0,0.0,0.0,0.0,0.0,0.0,-1.7014602,0.17811927,-0.95651037,21.802498,-34.231018,24.715502,-16.238344,-13.846148,-1.6767919,-1.8905699
30.466532,3.2878687,4.9720793,-14.674345,-0.2883349,-2.3145611,1.0243355,-0.13274395,-0.75296587,0.37052837,-0.48981866,-0.6570448,0.66247946,0.23664628,1.0072016,-0.57380253,-1.6452179,-0.8186081,2.2034,1.5262648,-0.907295,1.0145518,-0.5126042,-1.6758754,-0.77855074,2.260674,1.4645239,-0.92772096,-0.5247485,-1.4573662,0.6797189,-0.9161581,-0.86718816,0.44844133,0.3169701,1.0200806,-0.5818691,1.4985039,-3.137256,-0.37492183,-0.82501054,0.04386139,-0.36490822,1.0648665,0.8349056,-0.24441142,0.13035898,0.4756071,-0.31032154,-0.7832635,-0.5973316,1.0,0.0,0.0,0.0,0.0,0.0,0.0,-1.6700805,0.18186912,-0.9485039,27.012135,-19.017292,16.09143,-9.470737,-9.711588,-0.8719504,-2.7506888
31.82676,36.896072,12.196419,-7.7244406,-0.9037637,-1.733508,0.68521255,-0.04789799,-0.77506137,0.29042175,-0.47360656,-0.6245133,0.6585401,0.11111472,1.0097619,-0.5901103,-1.6468333,-0.8259114,2.1982226,1.5303779,-0.91660947,1.011294,-0.5277075,-1.6689117,-0.78788626,2.2516751,1.4690157,-0.9248323,-0.2615694,-1.5282036,0.7035324,-0.94006294,-0.91067076,0.4490069,0.2798732,0.9887314,-0.58561516,1.4895235,-3.1341193,-0.374547,-0.9223717,0.041404724,-0.37284088,1.0586718,0.834497,-0.24076657,0.12848993,0.47868192,-0.22590439,-0.79075825,-0.62917256,1.0,0.0,0.0,0.0,0.0,0.0,0.0,-1.6387314,0.18561515,-0.9395235,25.642664,-7.123637,2.8323889,-2.624452,-4.2993546,-0.100922585,-3.6248386
31.486643,55.199234,15.700083,-3.5264497,-1.2883688,-1.488318,0.43879107,0.06230949,-0.7838221,0.24012995,-0.47578022,-0.6181973,0.6550812,0.04727693,1.017525,-0.6060897,-1.6448987,-0.8354643,2.1898553,1.5345238,-0.92010456,1.0104967,-0.5429625,-1.6624153,-0.7971817,2.2424855,1.4735266,-0.9223346,-0.020877115,-1.5245968,0.6328954,-0.92655486,-0.9215322,0.4520366,0.24008206,0.9574127,-0.5893574,1.4795703,-3.1309857,-0.37417254,-1.0196354,0.03982544,-0.38066864,1.0523022,0.83364546,-0.2372624,0.126369,0.48246515,-0.13505952,-0.77346545,-0.64199346,1.0,0.0,0.0,0.0,0.0,0.0,0.0,-1.6074127,0.18935737,-0.92957026,23.50394,0.3625393,-6.7371964,1.1952877,-1.0475755,0.3489375,-3.8738847
18.639256,44.298172,9.754316,2.1194136,-0.8810148,-1.7168016,-0.053876154,0.0936407,-0.79447275,0.034315977,-0.46891922,-0.56600463,0.6494461,-0.040641796,1.0198609,-0.62240976,-1.6589837,-0.84407365,2.185885,1.5384712,-0.9263988,1.0115649,-0.55796856,-1.6577365,-0.80619395,2.2334561,1.4780642,-0.92026895,0.1482027,-1.4926672,0.41381207,-0.8928469,-0.89721763,0.4543721,0.19559562,0.9261246,-0.5930958,1.4686451,-3.1278555,-0.37379843,-1.116802,0.03895569,-0.38848305,1.0457671,0.83273715,-0.23367019,0.12435591,0.48629475,-0.07040165,-0.7783532,-0.659951,1.0,0.0,0.0,0.0,0.0,0.0,0.0,-1.5761245,0.19309577,-0.9186451,16.556753,3.1746864,-21.573275,3.36802,2.310133,0.24572015,-4.418227
16.99092,27.657867,2.5864086,-2.491297,-1.1626744,-2.525681,-0.1803658,0.23161933,-0.8023487,-0.23671651,-0.5178741,-0.498142,0.6461901,-0.0151892295,1.0347267,-0.63820344,-1.6814082,-0.8579814,2.183642,1.5426832,-0.92178786,1.0143229,-0.57265514,-1.6563842,-0.81510985,2.2249074,1.4826075,-0.9185943,0.316867,-1.4608784,0.04424347,-0.8911527,-0.8416912,0.4536577,0.15775836,0.89486694,-0.59683037,1.4567491,-3.1247282,-0.3734247,-1.2138714,0.038784027,-0.3966713,1.0388471,0.8320786,-0.22947288,0.12271285,0.4898253,0.0031813204,-0.8266788,-0.70561945,1.0,0.0,0.0,0.0,0.0,0.0,0.0,-1.5448669,0.19683036,-0.90674907,16.462439,3.10843,-36.36849,0.16559362,5.3039074,-0.30488968,-3.890285
7.224264,16.043446,-1.9436913,1.4062381,-0.72027266,-2.5405006,-0.36634552,0.24591996,-0.80226725,-0.3911161,-0.48118904,-0.53173006,0.6570607,0.10391054,1.0389149,-0.65288186,-1.6954958,-0.86322874,2.1717343,1.5483135,-0.90820324,1.0183531,-0.58708996,-1.6589782,-0.82390654,2.2167745,1.4871451,-0.91716474,0.4311023,-1.4379225,-0.35908628,-0.87544733,-0.8045801,0.4529631,0.13751669,0.86363983,-0.60056114,1.443883,-3.1216042,-0.37305138,-1.3108437,0.039165497,-0.405447,1.0314032,0.83187366,-0.22439057,0.12164909,0.49278453,0.05346036,-0.8894035,-0.76103294,1.0,0.0,0.0,0.0,0.0,0.0,0.0,-1.5136398,0.20056114,-0.89388293,11.21217,2.2088528,-39.83662,1.6666889,3.4124255,-0.37344694,-2.167818
3.4948666,16.097433,-1.7569753,2.83841,-0.65881157,-2.2448256,-0.28358558,0.24444799,-0.7947433,-0.46053335,-0.5219843,-0.59008604,0.6588669,0.18440299,1.0427979,-0.6665643,-1.7050315,-0.87610495,2.1577659,1.5530318,-0.89872444,1.0230852,-0.6013426,-1.6650703,-0.8327595,2.2087407,1.4916769,-0.9158363,0.48710144,-1.421399,-0.69159824,-0.8881308,-0.80394757,0.45215562,0.13088712,0.83244705,-0.6042881,1.4300479,-3.118483,-0.3726784,-1.4077191,0.03998947,-0.41477966,1.023379,0.83211803,-0.21836647,0.12128918,0.49516115,0.09614962,-0.9430494,-0.8209608,1.0,0.0,0.0,0.0,0.0,0.0,0.0,-1.482447,0.2042881,-0.88004786,5.571997,1.5714407,-32.98166,-1.1237264,-0.20506382,-0.4077077,-0.80061257
6.0217056,24.315819,2.04279,2.166017,-0.7728475,-1.7994524,-0.008265585,0.2644191,-0.7914072,-0.4808414,-0.57532376,-0.63030547,0.6644971,0.27204055,1.0495272,-0.68048334,-1.7131544,-0.89029187,2.1457102,1.5581267,-0.88863224,1.0281416,-0.61547893,-1.673558,-0.84202254,2.2005086,1.4962069,-0.91448015,0.5117663,-1.4113303,-0.9008595,-0.9385776,-0.830094,0.45226434,0.13697337,0.8012886,-0.60801125,1.4152448,-3.1153653,-0.37230578,-1.5044976,0.04127121,-0.42447472,1.0147802,0.83259773,-0.21150562,0.12159491,0.49725348,0.14241882,-0.97384447,-0.87856334,1.0,0.0,0.0,0.0,0.0,0.0,0.0,-1.4512886,0.20801124,-0.8652448,2.5097787,0.9542227,-20.878363,-4.9251437,-2.7902603,-0.29062033,0.5211383
3.0974803,29.389631,4.9337773,5.2021203,-0.3514259,-1.2323638,0.11758332,0.2314893,-0.79792935,-0.48973352,-0.5991109,-0.64193314,0.6621133,0.31687835,1.0512905,-0.69527185,-1.7225313,-0.9019336,2.1363153,1.5624182,-0.8827923,1.0331084,-0.6295933,-1.6832683,-0.85188544,2.1919599,1.5007387,-0.9130153,0.49226186,-1.4116184,-0.99487245,-1.0016919,-0.86345905,0.45284483,0.1495994,0.7701607,-0.6117306,1.3994747,-3.1122506,-0.37193355,-1.6011794,0.04288864,-0.43433,1.0056696,0.8331207,-0.20401612,0.12238931,0.49930748,0.17236963,-0.98433405,-0.9283418,1.0,0.0,0.0,0.0,0.0,0.0,0.0,-1.4201607,0.21173057,-0.8494747,-1.8092811,-0.07123947,-9.518862,-6.168854,-3.4931898,-0.18205047,1.2404412
4.617334,41.614937,10.595348,7.903841,-0.041856676,-0.5976243,0.27583405,0.23457079,-0.7946556,-0.4325251,-0.60239863,-0.65843475,0.67279255,0.35203806,1.0565654,-0.7090589,-1.7265208,-0.9121253,2.1261163,1.568018,-0.8778115,1.03781,-0.64372486,-1.6930301,-0.86229,2.1830754,1.5052916,-0.91139597,0.4632428,-1.4136366,-0.9708037,-1.0530093,-0.8968635,0.45598775,0.16628546,0.73906326,-0.615448,1.3827386,-3.109139,-0.3715617,-1.6977645,0.04473877,-0.44407272,0.99620646,0.833474,-0.19625084,0.12341931,0.5015719,0.19354036,-0.9653539,-0.9591436,1.0,0.0,0.0,0.0,0.0,0.0,0.0,-1.3890632,0.21544799,-0.8327386,-2.7700424,-0.21424294,2.1359086,-5.0394297,-3.397727,0.21967292,1.741907
-0.37117767,47.452736,13.315094,13.238821,0.5659138,-0.07080865,0.23034406,0.18456064,-0.7924862,-0.39918578,-0.59550214,-0.6618334,0.680799,0.37425572,1.0562661,-0.72297347,-1.7329487,-0.92184025,2.116892,1.5733715,-0.8739704,1.0420138,-0.65787166,-1.7020767,-0.873016,2.1739163,1.5098902,-0.9096021,0.40668118,-1.4150169,-0.88396853,-1.0788546,-0.9227325,0.46120116,0.18422888,0.70799637,-0.6191616,1.3650373,-3.1060305,-0.37119022,-1.7942531,0.046634674,-0.45349503,0.98656416,0.8335744,-0.18852618,0.12448985,0.50409704,0.19226833,-0.92932796,-0.9728064,1.0,0.0,0.0,0.0,0.0,0.0,0.0,-1.3579963,0.2191616,-0.8150373,-5.466795,-0.14545918,8.326411,-2.4757624,-2.6416183,0.55595636,1.9272119
-7.9244146,48.439167,13.789766,18.643784,1.2038664,0.279141,0.094457105,0.12001765,-0.7929628,-0.366917,-0.5874454,-0.6635717,0.6873772,0.38465092,1.0540155,-0.73716795,-1.7387683,-0.93176055,2.1075592,1.578628,-0.871137,1.0454222,-0.6720299,-1.7100933,-0.88381827,2.164559,1.514548,-0.9076366,0.31980568,-1.4161851,-0.77547014,-1.0801927,-0.9403722,0.467623,0.20131151,0.67696,-0.6228714,1.3463719,-3.102925,-0.3708191,-1.8906453,0.048332214,-0.4625225,0.9768692,0.8334688,-0.18102954,0.1254981,0.5067625,0.16606921,-0.88752586,-0.9749222,1.0,0.0,0.0,0.0,0.0,0.0,0.0,-1.32696,0.2228714,-0.7963719,-8.423596,-0.1335144,10.462772,0.026035309,-1.8661737,0.7614672,1.8702328
-12.981676,48.329987,13.503547,21.350342,1.509403,0.4169222,0.0033198223,0.058570083,-0.78837764,-0.33262032,-0.6000856,-0.6704949,0.6845463,0.40027222,1.0512792,-0.75086766,-1.7433553,-0.94382685,2.0975094,1.5830026,-0.8676094,1.0478083,-0.6861748,-1.7170513,-0.8946072,2.1550603,1.5192629,-0.9055051,0.2124596,-1.4139882,-0.67076224,-1.0777477,-0.95339346,0.4734169,0.2175886,0.64595413,-0.6265774,1.3267432,-3.0998228,-0.37044835,-1.9869411,0.049682617,-0.47113037,0.96717936,0.8332286,-0.17380942,0.1264237,0.50944823,0.12714358,-0.8457679,-0.9728972,1.0,0.0,0.0,0.0,0.0,0.0,0.0,-1.2959541,0.22657737,-0.77674323,-10.419637,0.19931793,10.065306,0.44777393,-1.4344454,0.7288754,1.7981768
-9.253174,44.542675,11.9535055,17.25404,1.167887,0.08578959,0.07031056,0.050248366,-0.7943146,-0.34405664,-0.64825386,-0.66311365,0.6789044,0.41882795,1.0528331,-0.7656063,-1.751457,-0.9594326,2.088749,1.5871533,-0.8636223,1.0492884,-0.70032257,-1.7232845,-0.90557635,2.1454968,1.5240217,-0.90321535,0.12734425,-1.4151007,-0.608893,-1.1026372,-0.9577948,0.47688815,0.23317978,0.6149788,-0.63027954,1.3061523,-3.0967236,-0.370078,-2.0831404,0.050750732,-0.4794178,0.95741075,0.8328707,-0.16671495,0.12728384,0.5121827,0.10273721,-0.8167786,-0.983637,1.0,0.0,0.0,0.0,0.0,0.0,0.0,-1.2649788,0.23027954,-0.75615233,-8.237207,-0.13172626,5.8179736,-2.2755861,-0.5612612,0.40411353,1.7154902
-17.595957,45.523663,11.943084,21.904127,1.6447587,0.3998307,-0.061932318,-0.06789985,-0.7843766,-0.26749194,-0.63505435,-0.6748945,0.6947262,0.43258342,1.0424984,-0.77876025,-1.7500336,-0.96908176,2.0780075,1.5934944,-0.859957,1.0496355,-0.71443886,-1.7288215,-0.9167334,2.13588,1.5288244,-0.9007768,0.004928493,-1.4105302,-0.5366036,-1.1192197,-0.96336746,0.48169157,0.24794175,0.58403397,-0.6339779,1.2846001,-3.0936275,-0.369708,-2.1792433,0.051425934,-0.4873829,0.9475861,0.83246225,-0.15974258,0.12809904,0.5148588,0.057388473,-0.78282094,-0.98703897,1.0,0.0,0.0,0.0,0.0,0.0,0.0,-1.234034,0.23397788,-0.7346001,-11.891302,0.43039322,6.822026,-1.3925791,-0.71942806,0.5924642,1.6451538
-11.385412,46.96136,12.915553,18.070185,1.326546,0.2473588,0.06681198,-0.07303143,-0.7888228,-0.2315031,-0.678078,-0.6513145,0.6810068,0.43092772,1.0423324,-0.79332113,-1.7519718,-0.9845412,2.0707486,1.5969251,-0.857684,1.048968,-0.72852844,-1.7336566,-0.9282118,2.1262975,1.5336577,-0.8982076,-0.08958216,-1.408473,-0.46737173,-1.1566381,-0.9570452,0.48422945,0.26055607,0.55311966,-0.6376724,1.2620876,-3.0905344,-0.36933836,-2.2752504,0.051761627,-0.4950161,0.93769425,0.831962,-0.15287253,0.12880515,0.51756966,0.02773745,-0.75077254,-0.99455595,1.0,0.0,0.0,0.0,0.0,0.0,0.0,-1.2031196,0.23767242,-0.7120876,-9.160699,0.19552708,6.498301,-3.5016775,0.5345464,0.33813715,1.4528155
0.9427757,46.889587,13.418675,11.090293,0.62556183,-0.18888283,0.2394678,-0.028826784,-0.79517484,-0.25661603,-0.7047108,-0.64159024,0.6768902,0.45216933,1.0460852,-0.8080459,-1.7593182,-0.99868286,2.0621386,1.6013467,-0.8529907,1.047856,-0.74263424,-1.738097,-0.9401432,2.1168218,1.5385062,-0.8955125,-0.11806423,-1.4112883,-0.4376624,-1.2047416,-0.94458365,0.48508295,0.27310482,0.5222359,-0.64136314,1.2386156,-3.0874445,-0.36896908,-2.3711615,0.05204773,-0.50239944,0.92764467,0.8312663,-0.14599794,0.1293623,0.520525,0.02992791,-0.7269592,-1.0126364,1.0,0.0,0.0,0.0,0.0,0.0,0.0,-1.1722358,0.24136314,-0.6886156,-2.683237,-0.27189255,2.6003897,-4.631901,1.2243032,0.103867054,1.4361978
10.574076,46.766014,13.616531,6.4157777,0.09868866,-0.5714663,0.3021856,0.013828791,-0.79533124,-0.3016764,-0.69805634,-0.6364005,0.67085886,0.44813418,1.0492388,-0.82216734,-1.7682645,-1.0099488,2.0531816,1.605592,-0.8506991,1.0469195,-0.7567763,-1.7426326,-0.9524437,2.1074796,1.5433527,-0.8927106,-0.085456975,-1.4149958,-0.45980802,-1.2380018,-0.9305793,0.4845007,0.28310594,0.4913826,-0.64505005,1.2141852,-3.0843577,-0.3686002,-2.4669766,0.05254364,-0.5096054,0.91736114,0.83032167,-0.13901933,0.1297905,0.52382624,0.056222174,-0.7113273,-1.0373912,1.0,0.0,0.0,0.0,0.0,0.0,0.0,-1.1413826,0.24505004,-0.6641852,3.3171325,-0.34718513,-2.4973571,-3.2042742,1.4223814,-0.08044243,1.1529505
13.983792,47.27112,13.781511,5.3140197,-0.123117924,-0.69834626,0.27882135,0.03411614,-0.79272676,-0.3322591,-0.68713963,-0.6583289,0.6884395,0.4667763,1.0503311,-0.83604896,-1.7758585,-1.0211577,2.0416467,1.6121967,-0.846033,1.046517,-0.7709374,-1.7476337,-0.9649073,2.0981908,1.548205,-0.8898086,-0.025076704,-1.4164563,-0.5143083,-1.2488307,-0.928267,0.4853874,0.29288238,0.46055984,-0.64873314,1.1887976,-3.081274,-0.36823168,-2.562696,0.053367615,-0.51667595,0.9068214,0.8291276,-0.13190305,0.13017435,0.52744997,0.091537744,-0.69841653,-1.063356,1.0,0.0,0.0,0.0,0.0,0.0,0.0,-1.1105598,0.24873313,-0.6387976,6.048365,-0.1172781,-5.6749463,-0.9859562,0.26113987,0.05862713,1.1018515
2.7051973,39.97775,9.728174,9.382765,0.31612986,-0.6791213,0.046806525,-0.014758522,-0.79233617,-0.41712704,-0.685913,-0.66648304,0.68033904,0.4665793,1.0450412,-0.85017097,-1.7893465,-1.0334986,2.0315425,1.616239,-0.8431507,1.0464464,-0.7851042,-1.7535484,-0.97737277,2.0888638,1.5530573,-0.8868236,-0.00069035124,-1.4168195,-0.6175343,-1.2451735,-0.9342759,0.4848817,0.30057693,0.4297676,-0.6524124,1.1624534,-3.0781934,-0.36786354,-2.6583195,0.054367065,-0.52371025,0.8959647,0.8278384,-0.12451825,0.13065948,0.5311372,0.104422614,-0.69721043,-1.0968478,1.0,0.0,0.0,0.0,0.0,0.0,0.0,-1.0797676,0.2524124,-0.6124534,2.5185857,-0.04901886,-10.4498625,0.54278374,-0.702548,-0.14167428,0.84085464
-7.6118813,37.853725,8.286121,13.603487,0.8257302,-0.40008068,-0.082716174,-0.059444137,-0.7918236,-0.43074742,-0.69611806,-0.66524047,0.67367005,0.47666505,1.0405021,-0.8642866,-1.7966231,-1.0469846,2.0223398,1.6204243,-0.8391571,1.0462748,-0.7992682,-1.7604358,-0.98980296,2.0794683,1.5579001,-0.88376516,-0.022176616,-1.4164711,-0.712857,-1.2415879,-0.9421125,0.48353934,0.30778706,0.3990059,-0.6560879,1.1351537,-3.0751157,-0.36749575,-2.7538476,0.05532837,-0.530735,0.8847795,0.82657766,-0.11681453,0.13129514,0.53468233,0.093625575,-0.69572306,-1.129742,1.0,0.0,0.0,0.0,0.0,0.0,0.0,-1.0490059,0.25608787,-0.58515364,-1.9937446,-0.005197525,-9.647822,0.59554577,-0.96868277,-0.23489594,0.78431964
-26.339468,32.812572,4.8190846,20.757835,1.6800635,0.00086820126,-0.32846892,-0.16673863,-0.7867258,-0.48685062,-0.70248014,-0.67247885,0.66988534,0.47042498,1.0296009,-0.8779408,-1.8091209,-1.060051,2.0122204,1.6248887,-0.8367227,1.0453058,-0.81340736,-1.768296,-1.0022221,2.0699697,1.5627238,-0.8806495,-0.121087536,-1.4133159,-0.81072503,-1.2407757,-0.95346344,0.48145694,0.31296608,0.3682747,-0.6597595,1.1068994,-3.0720413,-0.3671283,-2.8492799,0.05586624,-0.5377579,0.87325674,0.825521,-0.10872688,0.13213551,0.5378045,0.04213786,-0.6970959,-1.1638999,1.0,0.0,0.0,0.0,0.0,0.0,0.0,-1.0182747,0.25975952,-0.55689937,-9.611048,0.21784306,-9.849143,0.43199062,-1.4896393,-0.34581423,0.55592656
-33.149338,30.461111,3.390836,22.24723,1.9861083,0.17557949,-0.35570085,-0.22275017,-0.78987825,-0.52973086,-0.7325389,-0.6565392,0.6475421,0.4749007,1.0230309,-0.8923952,-1.821269,-1.0754759,2.0043159,1.627478,-0.83315945,1.0431124,-0.8275313,-1.7770793,-1.0147781,2.0604177,1.5675074,-0.8774852,-0.2509549,-1.4125762,-0.90115356,-1.2593483,-0.957307,0.47666234,0.31767026,0.337574,-0.66342735,1.0776916,-3.0689697,-0.36676124,-2.9446168,0.055782318,-0.54481316,0.8613587,0.82474416,-0.10018188,0.13314658,0.5404003,-0.024149403,-0.6993891,-1.2028329,1.0,0.0,0.0,0.0,0.0,0.0,0.0,-0.987574,0.26342735,-0.52769154,-12.655539,-0.057816505,-9.087217,-1.4425755,-0.81954,-0.6793618,0.51499605
-37.356785,33.443718,4.5542088,24.027943,2.2306828,0.5074198,-0.35110074,-0.30034778,-0.7878095,-0.52955824,-0.74168104,-0.67196,0.6440551,0.48291898,1.0130776,-0.9063122,-1.8300352,-1.0889462,1.9932216,1.631913,-0.8291933,1.0394675,-0.84164566,-1.7865112,-1.027565,2.0508008,1.5722433,-0.8742723,-0.40120962,-1.411563,-0.95760334,-1.2837656,-0.96471214,0.47181308,0.32269162,0.30690384,-0.66709137,1.047531,-3.0659015,-0.36639455,-3.0398583,0.054965973,-0.55182266,0.84911543,0.8242384,-0.09122492,0.13426177,0.5424784,-0.101348035,-0.6929585,-1.2359606,1.0,0.0,0.0,0.0,0.0,0.0,0.0,-0.9569038,0.26709136,-0.497531,-14.673698,-0.045228004,-5.7080746,-2.001214,-1.2047172,-0.6836653,0.5738735
-40.6648,31.365326,3.386518,24.21051,2.3861375,0.5754299,-0.35972363,-0.38082328,-0.7945918,-0.58795714,-0.76123315,-0.66299635,0.6150485,0.47878665,1.0013851,-0.92110485,-1.8453069,-1.1036884,1.9845011,1.6337482,-0.8263936,1.0342642,-0.8557877,-1.79654,-1.0406494,2.0411458,1.5769087,-0.8710174,-0.55876076,-1.4156039,-1.0179585,-1.3150766,-0.96753734,0.4639851,0.32681355,0.2762642,-0.6707535,1.0164187,-3.0628362,-0.36602825,-3.135005,0.05332184,-0.5587864,0.83650285,0.82401055,-0.08182793,0.13541304,0.54403484,-0.18584543,-0.6886284,-1.2740891,1.0,0.0,0.0,0.0,0.0,0.0,0.0,-0.92626417,0.27075347,-0.46641868,-15.389215,-0.57837963,-6.07121,-2.6372433,-0.7979393,-1.046896,0.49881935
-34.13864,34.99912,5.4389143,21.780727,2.1195688,0.5765426,-0.2559625,-0.40768272,-0.7964217,-0.6167276,-0.7585261,-0.67700344,0.62136805,0.51948196,0.99349594,-0.9354299,-1.8582128,-1.116502,1.9734454,1.6390455,-0.8190692,1.0277392,-0.8699803,-1.8071373,-1.053976,2.0314374,1.5815054,-0.86769384,-0.68287116,-1.4209486,-1.0736988,-1.3369881,-0.9735177,0.45754665,0.33453453,0.24565506,-0.6744118,0.9843556,-3.059774,-0.3656623,-3.2300563,0.050941467,-0.56567764,0.8235255,0.8239885,-0.072024204,0.1365483,0.5451698,-0.25771704,-0.67931265,-1.3100532,1.0,0.0,0.0,0.0,0.0,0.0,0.0,-0.89565504,0.27441177,-0.43435562,-12.102771,-0.6910801,-5.6206226,-1.7342806,-1.0512114,-0.900656,0.87503195
-31.258976,37.257538,6.4176097,20.632835,1.9932823,0.592229,-0.23318298,-0.46375152,-0.79502654,-0.6612903,-0.7609219,-0.681204,0.60941446,0.49785095,0.981364,-0.9494829,-1.8732662,-1.1300683,1.963317,1.6424469,-0.81790876,1.0201174,-0.88421196,-1.8183429,-1.0674553,2.021668,1.5860373,-0.864314,-0.7878093,-1.4243987,-1.1362737,-1.3501418,-0.97985935,0.45085737,0.3395633,0.21508026,-0.67806625,0.9513428,-3.0567148,-0.36529672,-3.3250127,0.047885895,-0.5724602,0.8101953,0.82412845,-0.061840866,0.13764296,0.5459326,-0.32369944,-0.6675876,-1.34517,1.0,0.0,0.0,0.0,0.0,0.0,0.0,-0.86508024,0.27806625,-0.4013428,-10.218191,-0.4959345,-6.2926292,-0.87435246,-1.0629654,-0.9316027,0.60825944
-34.28357,36.809982,5.9855113,21.499388,2.235041,0.71912485,-0.2723183,-0.5436928,-0.8033068,-0.6939316,-0.7640852,-0.6546998,0.6008716,0.47557867,0.96574813,-0.9645426,-1.8877361,-1.1438638,1.956198,1.6461245,-0.8167561,1.011418,-0.8985047,-1.8301761,-1.0810165,2.0119214,1.5905024,-0.86090654,-0.8964309,-1.431474,-1.1990541,-1.3564531,-0.9744009,0.44393933,0.34164113,0.1845398,-0.6817169,0.91738117,-3.0536587,-0.3649315,-3.4198742,0.044101715,-0.57912827,0.7965135,0.8244448,-0.051290967,0.13861786,0.5463012,-0.3987145,-0.65598446,-1.3802541,1.0,0.0,0.0,0.0,0.0,0.0,0.0,-0.8345398,0.2817169,-0.36738116,-10.584903,-0.8801222,-6.2835693,-0.15597343,0.08684397,-0.98947287,0.3338337
-41.766167,38.31432,5.797434,24.730331,2.7354136,1.0177658,-0.3888417,-0.6366374,-0.7990023,-0.7236863,-0.751229,-0.6129883,0.6144591,0.43698987,0.94775426,-0.9784049,-1.9025447,-1.1561395,1.9506226,1.6519483,-0.8172076,1.0014845,-0.91283935,-1.8426139,-1.0945377,2.0023618,1.5949141,-0.85751146,-1.0245905,-1.4348551,-1.2586322,-1.3489279,-0.95120275,0.43900603,0.33935714,0.15402985,-0.68536377,0.8824716,-3.0506058,-0.36456662,-3.5146408,0.039424896,-0.5856705,0.78252935,0.8250113,-0.040427934,0.13937226,0.5461658,-0.4932461,-0.64158416,-1.408918,1.0,0.0,0.0,0.0,0.0,0.0,0.0,-0.8040298,0.28536376,-0.3324716,-12.522066,-0.54695606,-5.91352,1.273799,1.7953038,-0.82064867,-0.077575445
-47.564224,38.129192,4.9326115,26.550354,3.1022716,1.2046264,-0.49329767,-0.71762604,-0.80231875,-0.7662039,-0.7453722,-0.5671672,0.60293704,0.33804756,0.9297219,-0.9930712,-1.9192343,-1.169075,1.9456451,1.6552078,-0.8237067,0.9901737,-0.9272093,-1.8556793,-1.107933,1.9931655,1.5992705,-0.8542146,-1.1655117,-1.4385458,-1.3223282,-1.3342948,-0.9108887,0.43325523,0.32711393,0.123550415,-0.6890068,0.84661514,-3.0475557,-0.3642021,-3.6093128,0.033699036,-0.5920639,0.76826584,0.82591504,-0.029272977,0.1397988,0.5454022,-0.60257226,-0.6267591,-1.4364682,1.0,0.0,0.0,0.0,0.0,0.0,0.0,-0.7735504,0.2890068,-0.29661512,-13.784432,-0.61502457,-6.2766314,2.0423412,3.4498692,-0.96380115,-1.0466516
-45.151474,43.96747,7.521865,26.666788,3.094751,1.3869451,-0.5219523,-0.7606403,-0.7950486,-0.7831077,-0.7111654,-0.54941976,0.61217535,0.24544513,0.91410965,-1.0067142,-1.93399,-1.1790496,1.9382235,1.660488,-0.8296701,0.9775747,-0.9415707,-1.8693016,-1.1210327,1.9843898,1.6035849,-0.8511066,-1.2905579,-1.4361122,-1.3753287,-1.3001124,-0.8682062,0.42946056,0.3059692,0.0931015,-0.692646,0.8098126,-3.044509,-0.36383796,-3.7038898,0.02690506,-0.5982609,0.7538072,0.8271815,-0.017931657,0.13985269,0.5439581,-0.70893246,-0.60397565,-1.4532486,1.0,0.0,0.0,0.0,0.0,0.0,0.0,-0.7431015,0.29264602,-0.2598126,-12.240267,0.008869171,-5.1977396,3.9545298,3.737557,-0.7412851,-1.9251466
-38.344624,49.69622,10.709116,25.089073,2.8296947,1.4687783,-0.5133244,-0.79028964,-0.7941523,-0.7946741,-0.67462903,-0.55089635,0.61393195,0.0926114,0.89854574,-1.020986,-1.948769,-1.1884956,1.9293002,1.664978,-0.84184545,0.96388805,-0.95585597,-1.8835979,-1.1338362,1.976353,1.6073241,-0.8485316,-1.4091998,-1.4166361,-1.5177398,-1.3244166,-0.7030389,0.16193756,0.2161166,0.066337585,-0.6954136,0.78067744,-1.819127,0.12667836,-0.15821147,0.019138336,-0.6043148,0.7391715,0.8289008,-0.0061693084,0.13936599,0.54172164,-0.7964525,-0.6342702,-1.4936914,0.0,1.0,0.0,0.0,0.0,0.0,0.0,-0.71633756,0.29541358,-0.23067743,-13.927126,3.237939,-24.553562,-9.585643,29.311598,-53.58311,-14.283246
-4.2074924,176.0,110.0,110.0,6.965822,11.740762,-2.2879426,-0.7888321,0.53577435,0.6801191,0.6615744,-0.48063156,0.6657358,-0.34093097,0.8850048,-0.90227854,-1.815586,-1.0676787,1.9282899,1.6738977,-0.8826247,0.9519938,-0.97261775,-1.8879619,-1.1342977,1.9589466,1.6141162,-0.8462781,-1.1050527,-1.6762142,-0.22701578,0.35366806,-1.9489686,0.92719996,0.25980583,0.048160553,-0.6941471,0.77836007,-1.8173082,0.1265517,-0.25623924,0.010002136,-0.6085167,0.7287328,0.8311676,-0.002167423,0.14135034,0.53775054,-0.95619506,-0.33404985,-0.89954895,0.0,1.0,0.0,0.0,0.0,0.0,0.0,-0.6981605,0.2941471,-0.22836006,33.728386,7.1525574e-05,83.79184,159.88583,-83.342125,99.23685,13.780147
-70.990585,131.3228,47.545765,89.38527,9.619482,3.913424,-2.7234251,-0.7793218,-0.7104546,-0.33153838,0.68050313,-0.424486,0.6290089,-0.48958805,0.87406164,-1.0436633,-1.9211158,-1.0662475,1.916498,1.6770171,-0.89523685,0.9409102,-0.98896754,-1.8880191,-1.1241735,1.9398445,1.6235232,-0.84427154,-1.1075314,-1.6218611,0.06903226,1.2342727,-1.8993963,0.948856,0.18384843,0.02999878,-0.69288254,0.77506316,-1.8154912,0.12642518,-0.354169,-0.0013923645,-0.6116829,0.72212285,0.8349049,-0.0037779675,0.14439486,0.5311022,-1.2001318,-0.30063254,-0.5851449,0.0,1.0,0.0,0.0,0.0,0.0,0.0,-0.67999876,0.29288253,-0.22506315,0.30663013,5.27308,29.894835,88.781944,4.3634415,3.269112,-6.7339807
-69.26394,127.78035,34.221004,67.34043,7.160741,2.2155936,-2.1065505,-0.78944623,-0.5193123,-0.43181822,0.67865205,-0.3504319,0.5393016,-0.19481522,0.8619656,-1.0408988,-1.9312009,-1.0563083,1.9048012,1.6774534,-0.8637531,0.929284,-1.0032345,-1.8882136,-1.1084913,1.9234394,1.6327262,-0.84279716,-1.1791785,-1.3625581,-0.04938641,1.6817269,-1.555404,0.9124097,0.13623181,0.011859894,-0.6916199,0.77077967,-1.8136761,0.12629879,-0.4530661,-0.014781952,-0.6145401,0.71777713,0.84020084,-0.006943971,0.14745887,0.5217951,-1.3860844,-0.27242127,-0.3901532,0.0,1.0,0.0,0.0,0.0,0.0,0.0,-0.66185987,0.29161987,-0.22077966,-6.6199303,25.647331,-11.96528,45.46814,34.047173,-3.1711936,-4.501727
-47.590294,94.18625,22.790804,39.350437,4.513579,1.1954818,-1.1258218,-0.763337,-0.6177403,-0.2082817,0.7578271,-0.4502174,0.6105765,-0.2862037,0.8529503,-1.0650085,-1.9090418,-1.0327086,1.8784176,1.6937839,-0.8714175,0.9168385,-1.0154778,-1.8896747,-1.0907587,1.9105343,1.6413207,-0.8418473,-1.2654136,-1.179106,-0.1788343,1.8051735,-1.2032417,0.8417159,0.08157156,-0.006263733,-0.6903572,0.76550794,-1.8118628,0.12617251,-0.5518643,-0.02947998,-0.61711884,0.7145358,0.84645987,-0.010161615,0.15012865,0.51074827,-1.4980967,-0.2439677,-0.30841357,0.0,1.0,0.0,0.0,0.0,0.0,0.0,-0.64373624,0.2903572,-0.21550792,-8.331609,18.07146,-13.070032,12.770581,34.924126,-7.0702076,-5.3710656
-23.692917,69.54995,15.647947,17.001774,1.9843733,0.5411785,-0.3291323,-0.7612903,-0.6116493,-0.22180955,0.73511803,-0.4398014,0.6483143,-0.3256396,0.8407095,-1.0766428,-1.9118556,-1.0172468,1.8665541,1.7061521,-0.8744113,0.9036702,-1.0263993,-1.8924537,-1.0733713,1.900616,1.6492534,-0.8414229,-1.3338014,-1.0640575,-0.31080168,1.7168853,-0.9223285,0.7766762,0.029292073,-0.024368286,-0.68909645,0.759249,-1.8100513,0.12604636,-0.6505638,-0.044757843,-0.6194153,0.7114873,0.853084,-0.012707745,0.15221341,0.4989161,-1.5379119,-0.21347383,-0.30938914,0.0,1.0,0.0,0.0,0.0,0.0,0.0,-0.6256317,0.28909644,-0.20924896,-6.789136,11.3006115,-13.210503,-8.703661,27.811432,-6.6037774,-5.2611156
-4.622525,63.29984,15.74846,5.9633718,0.42075083,0.29241377,0.09797363,-0.74947435,-0.5584018,-0.24626353,0.74837,-0.44422573,0.64709973,-0.31401825,0.8287228,-1.0822394,-1.91708,-0.9985343,1.8561934,1.7139634,-0.8728247,0.8900813,-1.036451,-1.8963237,-1.0573534,1.892754,1.6566005,-0.8414601,-1.3675054,-0.9862242,-0.41188845,1.5633981,-0.7420957,0.7204244,-0.015133418,-0.042453766,-0.6878376,0.7520038,-1.8082417,0.12592034,-0.7491645,-0.060035706,-0.62138367,0.70823145,0.8596733,-0.014392146,0.15385652,0.48691145,-1.5262815,-0.17872459,-0.3356064,0.0,1.0,0.0,0.0,0.0,0.0,0.0,-0.6075462,0.2878376,-0.20200378,-3.45819,7.613182,-9.940041,-15.395975,17.655409,-5.6887507,-4.5456133
3.243609,51.72991,13.053165,1.5792329,-0.02132687,0.024914205,0.24105643,-0.7434064,-0.5724135,-0.28584683,0.7474996,-0.3870333,0.64222264,-0.31040356,0.81574064,-1.0936923,-1.9249084,-0.98260343,1.8540506,1.7208227,-0.8725005,0.87637097,-1.0461309,-1.9010831,-1.0428107,1.8862169,1.6633419,-0.8418195,-1.3731616,-0.96167344,-0.50406957,1.4128345,-0.6275567,0.6408006,-0.033765335,-0.060825348,-0.68621826,0.7453457,-1.8835591,0.2336503,-0.3708757,-0.075099945,-0.623106,0.70454556,0.8660556,-0.01516295,0.1551206,0.4750318,-1.497751,-0.16138558,-0.38607347,0.0,1.0,0.0,0.0,0.0,0.0,0.0,-0.5891746,0.28621826,-0.1953457,-0.7580757,2.4592519,-10.298931,-15.966058,10.594595,-11.243725,-0.15760213
5.3749743,88.542496,26.28754,9.047737,-0.12373716,0.69858617,0.11941462,-0.76303685,-0.37844703,-0.28777495,0.7705656,-0.45544422,0.63243157,-0.25776482,0.8000673,-1.0839756,-1.9298606,-0.9657541,1.8406725,1.726585,-0.86759603,0.86262083,-1.0548912,-1.9064641,-1.0293016,1.8801876,1.6693785,-0.84231097,-1.376198,-0.8482359,-0.5477791,1.3296716,-0.5964841,0.5913475,-0.055116974,-0.079818726,-0.68361473,0.7419996,-1.9042943,0.26904854,-0.32509512,-0.08974457,-0.6244106,0.7008832,0.87215656,-0.01521293,0.15660402,0.463235,-1.4530792,-0.10733717,-0.36264163,0.0,1.0,0.0,0.0,0.0,0.0,0.0,-0.57018125,0.28361472,-0.19199961,-0.45421124,11.120868,-3.9117932,-8.465648,2.549231,-4.9844384,-2.352676
-0.18514347,92.91238,26.47379,13.765595,0.09870732,0.72854775,-0.023384407,-0.7686202,-0.34063363,-0.37393904,0.77998346,-0.49136737,0.62549675,-0.18650098,0.7857588,-1.0889546,-1.943858,-0.9513033,1.8310509,1.7319282,-0.8609611,0.8488478,-1.0624386,-1.9124556,-1.0161926,1.8740901,1.6749674,-0.8429304,-1.3781253,-0.7243444,-0.6144947,1.3043231,-0.6159833,0.5479011,-0.06505664,-0.09901047,-0.6805649,0.7391979,-1.9238576,0.31751662,-0.26787123,-0.10399628,-0.6251888,0.6975379,0.87801915,-0.014798752,0.15877086,0.4512817,-1.4166393,-0.055667534,-0.32751256,0.0,1.0,0.0,0.0,0.0,0.0,0.0,-0.5509895,0.28056487,-0.1891979,-0.3125906,12.148821,-6.195295,-2.6407957,-2.4749756,-4.4451237,-1.2362964
-2.430354,124.117096,35.888214,21.079334,0.21115264,1.1959851,-0.16356678,-0.77987987,-0.14145589,-0.43269008,0.786748,-0.5332981,0.61339474,-0.12149796,0.77085984,-1.0765842,-1.9557246,-0.93751776,1.8207603,1.7363069,-0.8550802,0.83500904,-1.0680577,-1.919233,-1.0030452,1.8676248,1.6801839,-0.8436187,-1.3864077,-0.50896657,-0.6964196,1.3177532,-0.6589021,0.5129365,-0.071591675,-0.11792755,-0.67694473,0.73735094,-1.8773987,0.37443024,-0.1599477,-0.11782837,-0.62527275,0.69495004,0.8836502,-0.014047265,0.16214977,0.43894467,-1.3715465,0.018095506,-0.2375945,0.0,1.0,0.0,0.0,0.0,0.0,0.0,-0.5320724,0.27694473,-0.18735093,-1.0126114,21.200668,-7.50401,1.137805,-4.8939347,-3.4949899,-1.0995255
-9.720484,115.32637,31.44117,22.97742,0.59166074,1.0548621,-0.23613276,-0.79786843,-0.11341027,-0.5046758,0.78981847,-0.5391212,0.5961361,-0.10571835,0.7552222,-1.0793986,-1.9697006,-0.9240633,1.8137126,1.7397975,-0.8541905,0.821011,-1.0717102,-1.9270031,-0.9896378,1.8607382,1.6851021,-0.8443522,-1.4048177,-0.31858486,-0.80164766,1.3479433,-0.7012681,0.48415926,-0.074956365,-0.13631058,-0.67284966,0.7364428,-1.8258482,0.42072254,-0.07038759,-0.13134766,-0.62469673,0.6931562,0.88907784,-0.012925589,0.16683395,0.42607498,-1.3444363,0.08185669,-0.16110937,0.0,1.0,0.0,0.0,0.0,0.0,0.0,-0.5136894,0.27284965,-0.18644279,-1.9968987,18.699764,-9.843243,2.862215,-4.9651384,-3.1044304,-0.6481528
-13.0257845,102.33416,26.125038,21.951283,0.7092256,0.8379617,-0.21166258,-0.8065005,-0.064163476,-0.58404344,0.7863352,-0.5539241,0.6042808,-0.06865886,0.740361,-1.0781265,-1.9854075,-0.9110043,1.8053458,1.7455301,-0.85121804,0.8068069,-1.0737339,-1.9359872,-0.97595084,1.8534548,1.6897871,-0.84508175,-1.426096,-0.16481069,-0.92848235,1.3752311,-0.7396485,0.4624496,-0.073291704,-0.15423203,-0.6683445,0.736234,-1.7810154,0.46026063,-0.0064668492,-0.14467621,-0.6235657,0.69194025,0.894297,-0.01128946,0.17269304,0.41265294,-1.3280069,0.13414924,-0.108829305,0.0,1.0,0.0,0.0,0.0,0.0,0.0,-0.49576795,0.2683445,-0.186234,-2.2682667,15.058714,-12.039709,2.5949478,-4.515457,-2.4578571,-0.1268506
-18.732615,61.50406,11.999077,16.865292,0.87410355,0.24115747,-0.12779593,-0.81869763,-0.1460611,-0.6668622,0.7860832,-0.5591483,0.5857356,-0.016991962,0.72493714,-1.08834,-2.0026734,-0.8973425,1.79754,1.7483608,-0.84678096,0.7923807,-1.0751168,-1.9463603,-0.9620442,1.8458431,1.6942992,-0.84574634,-1.4481987,-0.1301733,-1.0723925,1.3958937,-0.7697901,0.44665873,-0.06484183,-0.17188644,-0.66358566,0.7360823,-1.7607176,0.48064417,-0.020115925,-0.15807343,-0.6221409,0.69072014,0.8993208,-0.0088881375,0.17926207,0.39875826,-1.3409576,0.15545395,-0.12628664,0.0,1.0,0.0,0.0,0.0,0.0,0.0,-0.47811353,0.26358566,-0.1860823,-2.238083,3.2538235,-14.022613,2.0773172,-3.395176,-1.8238425,0.6438866
-12.808706,59.84321,12.694566,14.206033,0.77595353,0.27625102,0.013002276,-0.81234723,-0.08933332,-0.67346084,0.78169495,-0.5754484,0.6163867,0.045207445,0.711146,-1.08405,-2.0137064,-0.88387465,1.7882982,1.7559379,-0.84122556,0.7778152,-1.0763146,-1.9578822,-0.9480266,1.837968,1.6987028,-0.84628123,-1.4594634,-0.11697165,-1.1772869,1.4035892,-0.795053,0.43741158,-0.050361257,-0.18930817,-0.65862465,0.7357933,-1.7360733,0.5007711,-0.033541366,-0.17153549,-0.62050056,0.6893032,0.90408885,-0.0057519665,0.18625222,0.384578,-1.3463933,0.1777332,-0.14632069,0.0,1.0,0.0,0.0,0.0,0.0,0.0,-0.4606918,0.25862464,-0.18579328,-1.1899233,1.1231542,-10.0471735,0.7376671,-2.9556513,-1.1784554,1.2441404
-11.331335,43.110214,8.224134,10.726066,0.84604704,0.10599357,0.086593926,-0.81688154,-0.15274194,-0.6964464,0.7810104,-0.5733189,0.61294496,-0.0043934966,0.69612706,-1.0915887,-2.0275269,-0.86992556,1.7806361,1.7599974,-0.8467206,0.7631763,-1.0778424,-1.9701927,-0.93398666,1.8299081,1.7030396,-0.8467124,-1.465403,-0.16532665,-1.2478654,1.4042412,-0.8107706,0.43168038,-0.04120498,-0.20654678,-0.65351677,0.73515457,-1.719929,0.51385826,-0.07512484,-0.18510818,-0.6187115,0.68749505,0.9085836,-0.00196198,0.19332133,0.37026864,-1.3604548,0.19004151,-0.19173422,0.0,1.0,0.0,0.0,0.0,0.0,0.0,-0.4434532,0.25351676,-0.18515456,-0.6217003,-4.9747524,-6.707287,0.09739399,-1.8890262,-0.7919729,0.7736862
-8.133057,45.29438,9.608377,9.885053,0.81781363,0.1952734,0.19106287,-0.81777567,-0.14919621,-0.71258396,0.781251,-0.6006527,0.6137733,0.15429263,0.68139875,-1.092762,-2.041451,-0.85586154,1.7698429,1.7644169,-0.83128315,0.74850976,-1.0798868,-1.9829818,-0.91996974,1.8216691,1.7073311,-0.8469469,-1.4672887,-0.21794511,-1.2878923,1.4008908,-0.82980895,0.4275422,-0.017976735,-0.22358704,-0.64827156,0.73414826,-1.6992296,0.5277047,-0.11082325,-0.1987915,-0.6167774,0.68526655,0.91276413,0.0023875264,0.20032175,0.35598743,-1.3688552,0.2058509,-0.23249139,0.0,1.0,0.0,0.0,0.0,0.0,0.0,-0.42641294,0.24827155,-0.18414825,-0.24306774,-5.4021983,-3.5835028,-0.32064915,-2.2817492,-0.63975453,2.1868784
-8.07684,31.646683,5.766618,7.3055816,0.86078036,0.045188665,0.24453184,-0.8197212,-0.24024783,-0.7251964,0.7741899,-0.58878946,0.60295933,0.15310849,0.66653764,-1.1039115,-2.0555015,-0.84255075,1.7627902,1.767627,-0.8316361,0.73383653,-1.0827955,-1.9960226,-0.9060185,1.8133047,1.7115865,-0.8469584,-1.4673668,-0.31551638,-1.308448,1.3935353,-0.83948433,0.42435506,0.0042295163,-0.24048996,-0.6429348,0.7325962,-1.6874615,0.5357032,-0.17108172,-0.21263123,-0.61473846,0.68247277,0.9166396,0.007258358,0.20702237,0.34184897,-1.385937,0.21413726,-0.29431814,0.0,1.0,0.0,0.0,0.0,0.0,0.0,-0.40951002,0.2429348,-0.1825962,-0.018167496,-9.851366,-1.7501354,-0.6406069,-1.2276411,-0.5120337,2.1509387
-5.7131677,38.32379,8.114161,7.6929283,0.8760808,0.1749726,0.27629375,-0.8151451,-0.24700266,-0.72684926,0.7763521,-0.60060555,0.6160687,0.23057504,0.65232205,-1.1074958,-2.0687075,-0.82838327,1.7532442,1.7731934,-0.8239009,0.71919,-1.0865778,-2.0091503,-0.89212763,1.804852,1.7158227,-0.8467104,-1.4639337,-0.39938626,-1.3129126,1.3878604,-0.8485165,0.42271405,0.0314294,-0.25722122,-0.63750076,0.7305372,-1.6693833,0.54577565,-0.21902739,-0.22658157,-0.61258316,0.6791476,0.92020553,0.01256629,0.21337141,0.32792765,-1.3962545,0.22831695,-0.34468824,0.0,1.0,0.0,0.0,0.0,0.0,0.0,-0.39277875,0.23750076,-0.18053716,0.30059814,-8.499294,-0.055360794,-0.50082207,-1.2485147,-0.38366914,2.6478908
-6.9670067,33.541008,6.486263,7.180973,0.93778104,0.1432141,0.28256792,-0.8186621,-0.31803802,-0.73580337,0.7742788,-0.5925105,0.6190325,0.2619572,0.6373238,-1.1183816,-2.0827305,-0.81469977,1.7456009,1.7777259,-0.8205147,0.70456445,-1.0913042,-2.0222995,-0.8782822,1.7963552,1.7200512,-0.8461887,-1.4622114,-0.49732018,-1.3143034,1.3838632,-0.85118115,0.42215005,0.05897862,-0.27381134,-0.6319828,0.72791934,-1.6557091,0.5536643,-0.27698436,-0.24067307,-0.6102905,0.67526335,0.9234807,0.018282361,0.21930298,0.31425372,-1.4117763,0.24137813,-0.40262324,0.0,1.0,0.0,0.0,0.0,0.0,0.0,-0.37618864,0.2319828,-0.17791933,0.15428066,-9.895086,0.2011776,-0.28133392,-0.56705475,-0.2768457,2.7200646
-7.6870117,34.262638,6.4126744,7.2630873,0.9243114,0.20487976,0.30217496,-0.82304364,-0.36247784,-0.73799175,0.7664429,-0.60830337,0.6313748,0.33045882,0.6222601,-1.1275519,-2.0960987,-0.8016379,1.7355249,1.7831887,-0.81314284,0.6899284,-1.0969881,-2.0354488,-0.8644961,1.7878015,1.7242855,-0.8453667,-1.4641354,-0.59251636,-1.3139262,1.3772669,-0.8578003,0.42303494,0.08984963,-0.2902565,-0.62638664,0.7247178,-1.6415992,0.56149215,-0.33538035,-0.25492096,-0.6078415,0.670802,0.9264733,0.02440443,0.22480723,0.3008542,-1.4264394,0.25752705,-0.46065876,0.0,1.0,0.0,0.0,0.0,0.0,0.0,-0.35974348,0.22638664,-0.17471778,-0.208354,-9.627211,0.38776398,-0.5238056,-0.98104477,-0.14131069,3.0621781
-5.5534344,41.002502,8.542948,7.879656,0.9683825,0.31611812,0.3062415,-0.813903,-0.39136234,-0.72438604,0.7733687,-0.6065434,0.63971454,0.3908557,0.6085381,-1.1361244,-2.1078875,-0.78715926,1.7271471,1.7882569,-0.80628115,0.6753086,-1.1035131,-2.048523,-0.8507349,1.7792021,1.7285333,-0.84421945,-1.461383,-0.6728796,-1.3039207,1.3760719,-0.8621055,0.42455667,0.122911766,-0.30651855,-0.62070274,0.7210214,-1.6213589,0.5705602,-0.3823951,-0.26927567,-0.6052017,0.6658479,0.92918307,0.030866636,0.22991799,0.28775626,-1.4345028,0.2783332,-0.50725,0.0,1.0,0.0,0.0,0.0,0.0,0.0,-0.34348142,0.22070274,-0.1710214,0.22814274,-8.161413,1.4344454,-0.017309189,-0.83196163,-0.10176897,3.2751336
-7.270857,38.3092,7.423728,7.930868,1.0633433,0.30284917,0.28722292,-0.8187502,-0.45668697,-0.72614473,0.7759857,-0.586207,0.62901944,0.4147283,0.59343356,-1.1491818,-2.1211374,-0.7731363,1.7205814,1.7914352,-0.8027466,0.6606983,-1.1108965,-2.0615082,-0.8369545,1.7706276,1.7327886,-0.8427537,-1.4610844,-0.7605498,-1.2951087,1.379141,-0.85712606,0.42495182,0.1544531,-0.32260513,-0.61493874,0.7167987,-1.6050551,0.57839537,-0.4363959,-0.28372574,-0.60235405,0.6603987,0.9316388,0.037644573,0.2345931,0.27495125,-1.4473873,0.29955685,-0.55788153,0.0,1.0,0.0,0.0,0.0,0.0,0.0,-0.32739484,0.21493873,-0.16679871,0.0034093857,-8.889759,1.2780666,0.4531145,0.12581348,-0.22642016,3.1559615
-3.4577403,45.696125,9.769377,7.9666367,1.0072165,0.41055465,0.30015033,-0.8045181,-0.47123247,-0.71609545,0.776553,-0.5857152,0.637829,0.4617685,0.5802465,-1.1580197,-2.1331177,-0.75929916,1.7120562,1.7965715,-0.79657686,0.64615095,-1.1190046,-2.0743756,-0.82313883,1.7621224,1.7370535,-0.84097326,-1.4528971,-0.8279852,-1.2822059,1.3825684,-0.85007393,0.4260293,0.18587942,-0.33847046,-0.60910034,0.7121383,-1.5810684,0.5858386,-0.47668186,-0.2982483,-0.59926414,0.6545373,0.93384224,0.044677533,0.23886608,0.26246068,-1.4490213,0.32423973,-0.5961967,0.0,1.0,0.0,0.0,0.0,0.0,0.0,-0.31152952,0.20910034,-0.16213828,0.74715614,-6.87927,1.785636,0.42147636,0.23599863,-0.1556158,3.1128497
-4.12266,46.62687,9.597688,8.0213995,0.9829122,0.44357157,0.31182295,-0.81100553,-0.5111687,-0.7167761,0.7672067,-0.5883771,0.6196174,0.5114511,0.56505036,-1.1701214,-2.1460533,-0.7464182,1.7032847,1.7990153,-0.7898281,0.63165236,-1.1277479,-2.0871396,-0.8093374,1.7536733,1.7413136,-0.83887416,-1.4491005,-0.8903805,-1.2727212,1.3795383,-0.8449248,0.42503598,0.21785484,-0.35408783,-0.60318375,0.70705986,-1.556318,0.5934219,-0.51821953,-0.31277084,-0.59592056,0.6482931,0.9357942,0.051972285,0.24277054,0.2503011,-1.4489691,0.35024732,-0.6347701,0.0,1.0,0.0,0.0,0.0,0.0,0.0,-0.29591215,0.20318374,-0.15705985,0.3068924,-6.3783526,1.4553547,-0.2225399,0.017356873,-0.35199523,3.1600595
-5.033267,50.85279,10.296875,8.993251,1.034353,0.5296024,0.2927906,-0.8149615,-0.53239113,-0.7103287,0.7665823,-0.5974374,0.60634565,0.5330569,0.55015624,-1.180987,-2.1581724,-0.7326791,1.6939296,1.8019482,-0.7855685,0.61715555,-1.1370252,-2.0998063,-0.7955806,1.7452354,1.7455516,-0.8364724,-1.4500893,-0.9408003,-1.2630162,1.3746799,-0.8453985,0.42239046,0.24755979,-0.36943817,-0.59719086,0.70160353,-1.5288203,0.60125387,-0.5547282,-0.32727432,-0.5922928,0.641708,0.9374981,0.05953592,0.24635553,0.23845702,-1.4461954,0.3797602,-0.6675499,0.0,1.0,0.0,0.0,0.0,0.0,0.0,-0.2805618,0.19719085,-0.15160352,-0.18351078,-5.1937222,1.5312195,-0.41840076,-0.60949326,-0.5299926,2.9205978
-3.8500226,51.318737,10.325556,8.619776,1.0388926,0.51470596,0.3022167,-0.8079594,-0.57212174,-0.7020154,0.76471287,-0.5828473,0.59424704,0.5612865,0.5363596,-1.1942375,-2.170008,-0.71910936,1.6869507,1.8049763,-0.7803438,0.60266924,-1.1468271,-2.112368,-0.7818773,1.7368246,1.7497556,-0.83378565,-1.4484438,-0.99380064,-1.2516211,1.369188,-0.84164,0.4183872,0.27582058,-0.38451385,-0.591135,0.69575995,-1.5004197,0.60911393,-0.5948207,-0.34173584,-0.588377,0.6347826,0.9389671,0.06735806,0.24960737,0.22693537,-1.4415226,0.4082528,-0.7018297,0.0,1.0,0.0,0.0,0.0,0.0,0.0,-0.26548612,0.19113502,-0.14575994,0.07634163,-5.449009,1.7099619,-0.48081875,-0.1966238,-0.70188046,2.8015614
2.0684805,63.558105,14.3748455,9.500291,1.2180247,0.6768249,0.28318483,-0.78997487,-0.565236,-0.65002626,0.77062905,-0.5643613,0.58590835,0.57432395,0.52367175,-1.2033507,-2.1773708,-0.7048144,1.6803885,1.8083465,-0.77635324,0.58827925,-1.1569875,-2.1245904,-0.7681969,1.7285137,1.7539165,-0.8308399,-1.4363456,-1.0239542,-1.2100725,1.367519,-0.83006126,0.41377074,0.3009843,-0.3992195,-0.58502007,0.68967295,-1.4593304,0.61548585,-0.6137915,-0.3560562,-0.5841465,0.62768936,0.9402159,0.07526198,0.252536,0.2157664,-1.4233718,0.43985713,-0.7130168,0.0,1.0,0.0,0.0,0.0,0.0,0.0,-0.25078046,0.18502006,-0.13967294,1.0481596,-3.181553,4.926753,-0.20587444,0.41291714,-0.8193672,2.4919033
-0.83894086,61.65874,12.928512,9.953756,1.1998892,0.6227518,0.2582944,-0.79918027,-0.59442824,-0.6731635,0.76703393,-0.574633,0.5397606,0.5866484,0.5083612,-1.2164304,-2.1919067,-0.6914935,1.6710504,1.8078926,-0.772175,0.57396555,-1.1674474,-2.1365378,-0.7545335,1.720276,1.7580018,-0.8276647,-1.4301478,-1.0540003,-1.1868471,1.3659009,-0.8239873,0.40561378,0.32296816,-0.41355133,-0.5788574,0.68334454,-1.4243301,0.6175891,-0.63827544,-0.370224,-0.57961464,0.6204438,0.9412549,0.083278336,0.25517753,0.20491068,-1.4087545,0.47036138,-0.7295945,0.0,1.0,0.0,0.0,0.0,0.0,0.0,-0.23644865,0.17885742,-0.13334453,0.48105717,-3.170371,3.0484438,-0.16701221,-0.108885765,-1.1471927,2.1574557
3.4617648,67.6993,14.720788,9.893184,1.2236433,0.663266,0.2622286,-0.77916247,-0.5917683,-0.64864904,0.76368785,-0.5470597,0.53011173,0.60595816,0.49604928,-1.2266243,-2.2014027,-0.6781647,1.66557,1.811013,-0.76706886,0.5597806,-1.1781038,-2.1482217,-0.7408997,1.7121669,1.7619985,-0.8242805,-1.415214,-1.0698689,-1.1596366,1.3621804,-0.8091669,0.3966849,0.34333584,-0.42747116,-0.57266617,0.67682666,-1.3811097,0.6196991,-0.6546335,-0.38417435,-0.57478714,0.61310756,0.94209206,0.091369726,0.25755057,0.19437525,-1.385159,0.49938056,-0.7361582,0.0,1.0,0.0,0.0,0.0,0.0,0.0,-0.22252882,0.17266616,-0.12682664,1.3122082,-1.7554283,3.5482883,-0.45027733,0.6573796,-1.1902213,1.942563
5.454704,74.8676,16.58695,10.885098,1.4262034,0.7544997,0.2372475,-0.7737576,-0.5835129,-0.6113085,0.7563007,-0.51417685,0.5115021,0.60964465,0.48240483,-1.2364551,-2.2093525,-0.6652696,1.6607492,1.8131487,-0.76331604,0.54574823,-1.1888002,-2.1595283,-0.72733825,1.7042922,1.7658994,-0.8207133,-1.3999181,-1.070183,-1.1179926,1.3537256,-0.7832519,0.38672456,0.36090833,-0.44091797,-0.5664635,0.6702195,-1.3320931,0.6206192,-0.66115123,-0.3978653,-0.56965256,0.60580796,0.94274807,0.09942239,0.25966024,0.18416744,-1.3562887,0.5297862,-0.72915334,0.0,1.0,0.0,0.0,0.0,0.0,0.0,-0.209082,0.16646346,-0.12021947,1.3130426,-0.20859241,5.1110506,-0.97973347,1.6535044,-1.3095617,1.6559184
5.8002634,69.134155,15.158391,9.275494,1.5143366,0.6588733,0.26386118,-0.7732859,-0.6143664,-0.5902853,0.7230541,-0.4049485,0.4357402,0.61669767,0.46841964,-1.2502369,-2.218557,-0.6550329,1.6637974,1.8094734,-0.7590435,0.5318389,-1.199592,-2.1703885,-0.71400577,1.6969681,1.7696548,-0.81698674,-1.3886247,-1.0826845,-1.0726793,1.325993,-0.71823025,0.37056646,0.37654853,-0.45393372,-0.5602646,0.66345316,-1.2912446,0.62014574,-0.6804672,-0.41129303,-0.5642319,0.59852076,0.9432944,0.107354134,0.26130986,0.17432135,-1.3323162,0.5574273,-0.7297881,0.0,1.0,0.0,0.0,0.0,0.0,0.0,-0.19606626,0.16026458,-0.11345315,0.9351969,-1.4039755,5.397773,-2.881503,5.629611,-1.9374073,1.519233
7.85546,72.04747,16.185383,9.132893,1.8341787,0.6601349,0.25846073,-0.76839715,-0.60537237,-0.542534,0.6874575,-0.25958416,0.31447133,0.62446964,0.45499918,-1.2601292,-2.2246418,-0.64526004,1.6710097,1.8011019,-0.7545398,0.51802397,-1.2104543,-2.1806686,-0.70110136,1.6906782,1.7731664,-0.8131154,-1.3797675,-1.0880845,-1.0103873,1.2781948,-0.6021433,0.34349653,0.39071935,-0.4665451,-0.55407715,0.6564968,-1.2505745,0.61851907,-0.69861823,-0.42448044,-0.5585289,0.59129566,0.9438297,0.115006804,0.26225287,0.16487075,-1.308435,0.58545166,-0.7213482,0.0,1.0,0.0,0.0,0.0,0.0,0.0,-0.18345487,0.15407714,-0.10649681,0.67665577,-0.6855726,7.136464,-4.922509,10.692024,-3.0425131,1.4089286
11.569857,75.59865,18.278032,8.810355,2.5845494,0.71245015,0.22518905,-0.765494,-0.60730404,-0.43918613,0.63034153,0.054677892,0.18804781,0.62338823,0.44147456,-1.2711848,-2.2245872,-0.6380672,1.696146,1.7919712,-0.7507766,0.5042777,-1.2213567,-2.1899567,-0.68888444,1.6863676,1.7763256,-0.8091155,-1.3735864,-1.0912086,-0.89853644,1.2022878,-0.37692392,0.30545288,0.40343958,-0.47877884,-0.54789925,0.64937115,-1.2129529,0.6176387,-0.71477276,-0.4374733,-0.55251503,0.5842852,0.9445501,0.12195281,0.2620295,0.1558624,-1.2888185,0.61736697,-0.69514346,0.0,1.0,0.0,0.0,0.0,0.0,0.0,-0.17122114,0.14789924,-0.099371135,0.39093494,-0.4431486,12.151647,-7.7732325,21.562683,-4.1710434,1.3583541
17.150036,76.129166,19.677185,6.490223,2.9601073,0.6794419,0.2711735,-0.77120066,-0.6092619,-0.32465592,0.51909035,0.32824832,-0.10136163,0.6121925,0.42715764,-1.282283,-2.2224224,-0.6369754,1.7191925,1.7661895,-0.74789625,0.4905422,-1.2322782,-2.1977417,-0.67783684,1.6849098,1.7789152,-0.80501103,-1.3743219,-1.0927737,-0.7354392,1.071463,-0.07166505,0.24230836,0.4133798,-0.490654,-0.5417423,0.6420788,-1.177454,0.61546963,-0.7317376,-0.45025253,-0.5461941,0.5776032,0.9456598,0.12778817,0.26013517,0.14740208,-1.2671916,0.6473357,-0.6601839,0.0,1.0,0.0,0.0,0.0,0.0,0.0,-0.15934598,0.14174232,-0.092078805,-0.3047943,-0.2557516,17.269135,-13.305187,29.574865,-6.6519766,1.1369586
31.764507,93.36353,26.126583,5.86827,3.1376364,0.8819118,0.29235607,-0.7490059,-0.5705708,-0.08632589,0.4418541,0.3646359,-0.32254484,0.6037875,0.4156416,-1.2893353,-2.2063744,-0.63365144,1.7213734,1.7466607,-0.7446323,0.47688273,-1.2430223,-2.2030435,-0.66828936,1.6862264,1.7807504,-0.80082875,-1.3641542,-1.0686466,-0.4578702,0.91464156,0.19598535,0.16310441,0.4201793,-0.5019951,-0.5356674,0.6348903,-1.118115,0.60487837,-0.7122924,-0.46260452,-0.53962326,0.5715404,0.94724464,0.13207687,0.25648582,0.13963623,-1.2178875,0.6700427,-0.5893147,0.0,1.0,0.0,0.0,0.0,0.0,0.0,-0.14800489,0.13566741,-0.084890306,0.7270098,2.323556,28.925217,-16.032457,25.664043,-8.134911,0.74540377
39.169136,91.174706,26.554953,2.6016457,2.7974942,0.81116706,0.38702226,-0.74739033,-0.5806942,0.07700876,0.3199461,0.4666598,-0.51384574,0.60753214,0.4021437,-1.3010918,-2.1953425,-0.6362947,1.7328924,1.7293658,-0.7400755,0.4633324,-1.2535661,-2.20521,-0.6605722,1.6899431,1.7817179,-0.796589,-1.3528302,-1.0499667,-0.1329654,0.72303814,0.42736346,0.07434106,0.42537656,-0.51270294,-0.5297413,0.6279227,-1.0542836,0.58875173,-0.6902545,-0.47437668,-0.5329094,0.56615716,0.9493258,0.13463055,0.2510797,0.13271762,-1.15776,0.68123734,-0.52263474,0.0,1.0,0.0,0.0,0.0,0.0,0.0,-0.13729703,0.12974128,-0.0779227,0.89497566,1.8001556,33.474144,-19.464552,22.231901,-8.942374,0.5494416
29.126825,90.30545,23.401808,5.4482822,2.4695725,0.6530262,0.33275658,-0.76237327,-0.54024625,0.064981245,0.25030354,0.55226797,-0.5984405,0.6386809,0.3870951,-1.3075907,-2.1987119,-0.6355418,1.7451699,1.7218739,-0.7327209,0.4498098,-1.2637818,-2.2048552,-0.65469563,1.6956598,1.7818174,-0.79228467,-1.3525156,-1.0122333,0.09392191,0.54204464,0.617875,-0.011532364,0.43218786,-0.52280045,-0.5239811,0.62114656,-0.9949691,0.5724236,-0.67325747,-0.4856224,-0.5260811,0.56133395,0.9517947,0.13579653,0.24420126,0.12653747,-1.1079596,0.6915746,-0.47026727,0.0,1.0,0.0,0.0,0.0,0.0,0.0,-0.12719953,0.12398109,-0.07114655,-0.104260445,3.703642,23.293144,-18.253792,18.506563,-8.567768,0.68638325
29.023445,94.499794,22.898825,5.8589973,1.9161341,0.6131296,0.37571746,-0.7531566,-0.48427764,0.1355543,0.12915583,0.59516597,-0.62115103,0.631292,0.37449414,-1.3122096,-2.1912997,-0.64178,1.7551763,1.7197024,-0.7291555,0.4363072,-1.2734082,-2.2027419,-0.6507131,1.7029289,1.7811366,-0.7879259,-1.349789,-0.94641757,0.25209492,0.34996617,0.76229197,-0.08645927,0.43705425,-0.53224945,-0.51841545,0.61460215,-0.92894894,0.5511734,-0.64835525,-0.49629593,-0.5192051,0.5569961,0.9544895,0.13596034,0.23624635,0.121045925,-1.0498698,0.69465375,-0.42336512,0.0,1.0,0.0,0.0,0.0,0.0,0.0,-0.117750525,0.118415445,-0.06460214,0.18396378,6.5229774,16.164955,-19.299911,14.16626,-7.3632293,0.45859218
29.577303,94.64063,21.80176,3.9971604,1.226332,0.6277744,0.5290035,-0.76945364,-0.4263778,0.18901183,-0.06642533,0.65549797,-0.6145675,0.609067,0.35936183,-1.316046,-2.1838408,-0.6573556,1.7684788,1.7196798,-0.7270192,0.4227507,-1.2821915,-2.1994698,-0.6490825,1.7114224,1.7798089,-0.7835422,-1.357781,-0.85567445,0.3523288,0.100701556,0.87823063,-0.14737183,0.43877792,-0.5410118,-0.51309776,0.6083244,-0.8599352,0.52578765,-0.6230463,-0.5063057,-0.51234245,0.55302936,0.9572723,0.13543993,0.22747557,0.11636454,-0.9807419,0.69034374,-0.38947123,0.0,1.0,0.0,0.0,0.0,0.0,0.0,-0.108988166,0.11309776,-0.058324397,-0.84416866,9.038485,10.077429,-24.962067,11.607075,-5.8422384,0.15268326
32.392475,74.100555,16.552198,-3.2531252,-0.02411189,0.3448073,0.77699494,-0.7711783,-0.43201703,0.16673292,-0.2628572,0.7047934,-0.59911245,0.5897557,0.34563288,-1.3253932,-2.1827965,-0.6753682,1.7819018,1.7198976,-0.72456664,0.40910268,-1.2902462,-2.1957643,-0.6503597,1.7208918,1.7779715,-0.77916193,-1.36715,-0.7888675,0.37583548,-0.20373103,0.9702784,-0.19477013,0.43788165,-0.54916763,-0.5080452,0.6020567,-0.8016701,0.49891636,-0.63006574,-0.51558685,-0.50564957,0.549036,0.9600325,0.13465497,0.21794665,0.11271517,-0.90644896,0.66863346,-0.40436524,0.0,1.0,0.0,0.0,0.0,0.0,0.0,-0.10083234,0.10804519,-0.05205667,-0.9404421,6.6667438,2.1527588,-30.400558,9.418201,-4.431492,-0.04595518
29.062946,99.07084,22.204689,5.5694118,0.9467273,0.6389425,0.47976285,-0.76201004,-0.33389223,0.3111111,-0.25473297,0.7062882,-0.56206167,0.59093523,0.33290166,-1.3236355,-2.1646533,-0.675833,1.7915206,1.7217653,-0.7200684,0.39542174,-1.2973928,-2.191481,-0.65402955,1.731066,1.7757534,-0.77479,-1.3681719,-0.68967086,0.4443092,-0.42108136,1.034968,-0.22948101,0.43705755,-0.55664444,-0.50328064,0.59605205,-0.73071027,0.46953788,-0.5928757,-0.5241394,-0.4990883,0.5452777,0.9627333,0.13347451,0.20795804,0.109920286,-0.8356286,0.65811837,-0.36755624,0.0,1.0,0.0,0.0,0.0,0.0,0.0,-0.09335554,0.10328063,-0.04605204,-0.03428459,9.96176,6.355059,-21.667545,7.070589,-3.0935616,-0.042027235
28.667635,95.095535,22.094315,5.7470436,1.0680358,0.6389207,0.40601462,-0.76139045,-0.33881226,0.40816393,-0.35730362,0.7137016,-0.5369929,0.55983263,0.3192827,-1.331274,-2.1506648,-0.6897599,1.8024361,1.7220541,-0.71880674,0.38175988,-1.3037596,-2.1861827,-0.6595872,1.7417088,1.7732608,-0.77044886,-1.3651406,-0.61879,0.55647635,-0.6003335,1.0764145,-0.2544627,0.43329298,-0.56344604,-0.498806,0.5904168,-0.6643969,0.4409032,-0.5561815,-0.53203964,-0.49261665,0.54188305,0.965389,0.13167897,0.19762188,0.1078439,-0.77170396,0.6481104,-0.33125415,0.0,1.0,0.0,0.0,0.0,0.0,0.0,-0.08655393,0.098805994,-0.040416777,0.41718483,7.1556687,10.531055,-17.8203,4.954362,-2.1007986,-0.30863285
35.125824,81.28886,20.53886,1.0225962,0.67958194,0.48400557,0.4741969,-0.73791265,-0.3612223,0.49054646,-0.47084463,0.7437267,-0.48969695,0.54934436,0.30796862,-1.3398818,-2.137128,-0.70667166,1.8160814,1.7242911,-0.7155144,0.36824822,-1.3097601,-2.1795266,-0.666839,1.752702,1.7705967,-0.7661535,-1.3460351,-0.5936572,0.6995152,-0.7662796,1.1097401,-0.26891515,0.42850286,-0.5696373,-0.49461937,0.58503455,-0.604921,0.41167232,-0.53402334,-0.5393028,-0.4863186,0.5387009,0.9680223,0.12912045,0.18683866,0.10654528,-0.7084312,0.62800866,-0.3148474,0.0,1.0,0.0,0.0,0.0,0.0,0.0,-0.08036268,0.09461936,-0.035034537,2.0498514,2.5845885,13.515687,-16.461967,4.2336464,-1.0250628,-0.38631558
28.84016,73.40014,17.82135,1.6978308,0.54175884,0.34410828,0.41050613,-0.7387908,-0.34701908,0.4745329,-0.52551544,0.7519705,-0.45703584,0.547118,0.29436913,-1.344462,-2.1320732,-0.7193906,1.8278991,1.7248932,-0.7114417,0.35491967,-1.3156481,-2.1717792,-0.67550707,1.7639396,1.7678406,-0.76190394,-1.3279368,-0.5869283,0.7974631,-0.89960593,1.1311325,-0.27652287,0.42415446,-0.57530594,-0.49070168,0.5797756,-0.55523556,0.38574073,-0.52574724,-0.54602814,-0.48021126,0.53555804,0.9706006,0.12592787,0.17564738,0.10594554,-0.6574168,0.6090713,-0.31468332,0.0,1.0,0.0,0.0,0.0,0.0,0.0,-0.07469404,0.09070167,-0.02977556,1.9702435,0.7450342,8.98143,-13.14981,3.0255556,-0.37469864,-0.29643178
33.115463,65.575714,16.777813,-0.30930403,0.24686155,0.15009594,0.3891615,-0.6892331,-0.37351784,0.53097045,-0.5435916,0.75155336,-0.40097007,0.5666814,0.28599635,-1.3529998,-2.1186821,-0.7298662,1.839095,1.7277436,-0.7052358,0.34196496,-1.3216887,-2.1631389,-0.6851469,1.7753072,1.765071,-0.7576801,-1.2840837,-0.609528,0.88379395,-0.9848114,1.1414174,-0.27590936,0.42219877,-0.580513,-0.4870491,0.57453215,-0.5102491,0.35895112,-0.5252342,-0.5522537,-0.47435188,0.53232473,0.9730919,0.122174315,0.16411592,0.10597895,-0.60925525,0.581094,-0.32658368,0.0,1.0,0.0,0.0,0.0,0.0,0.0,-0.069486976,0.0870491,-0.02453214,4.549861,-2.1837234,7.848108,-8.339262,1.8814564,0.44447184,-0.051748753
29.755985,62.770287,16.05709,1.5965366,0.41350904,0.09225297,0.25489646,-0.65839845,-0.39910597,0.57390136,-0.5172693,0.7510107,-0.29017726,0.5933309,0.2761251,-1.3615992,-2.1057487,-0.73687387,1.8504082,1.7360533,-0.69834703,0.32954526,-1.328105,-2.1537137,-0.69514346,1.786714,1.7623986,-0.7534515,-1.2273363,-0.6519607,0.9594944,-1.003993,1.142967,-0.26330066,0.42353052,-0.5853157,-0.4836464,0.56927925,-0.47141576,0.334585,-0.5270664,-0.5580902,-0.4687538,0.5289578,0.97547853,0.11785439,0.1523524,0.10649265,-0.57288134,0.55628395,-0.34022373,0.0,1.0,0.0,0.0,0.0,0.0,0.0,-0.06468427,0.08364639,-0.019279242,5.8425426,-4.158294,6.834841,-1.7410398,0.95596313,1.6082108,0.28424263
29.385246,64.483765,16.746176,3.2286737,0.53728044,0.13945398,0.14632061,-0.6128424,-0.41908774,0.62001145,-0.48756137,0.74394184,-0.09667094,0.59317935,0.26826102,-1.3700137,-2.0917125,-0.7438996,1.8611082,1.7527316,-0.6941336,0.31780887,-1.3349981,-2.1435516,-0.70493776,1.7980843,1.759997,-0.7492067,-1.1551418,-0.701411,1.032929,-0.9706766,1.1375849,-0.23131953,0.42526644,-0.5897484,-0.4804821,0.56405526,-0.43432423,0.31080058,-0.5222607,-0.56359863,-0.463377,0.5254957,0.97774523,0.11290024,0.14052103,0.10733807,-0.54112923,0.5336396,-0.3482365,0.0,1.0,0.0,0.0,0.0,0.0,0.0,-0.060251594,0.080482095,-0.014055252,7.3930025,-4.848659,6.642914,3.5066605,0.2445221,3.5474567,0.33211112
36.06782,65.05943,17.76143,1.7532209,0.26122883,0.14488703,0.1468152,-0.540666,-0.44448546,0.6467027,-0.4641018,0.7440127,0.17021988,0.59237534,0.26374227,-1.3794466,-2.0788813,-0.75134796,1.8724855,1.777019,-0.6899692,0.3069923,-1.3424044,-2.1327336,-0.71419525,1.8093932,1.7581049,-0.74494654,-1.0565754,-0.7535877,1.0961335,-0.91016126,1.1308975,-0.1738287,0.4269054,-0.5937996,-0.4775715,0.55892354,-0.39606562,0.28464833,-0.5116118,-0.56874466,-0.4582863,0.5219616,0.9798703,0.10723159,0.12878197,0.10849284,-0.5033247,0.5035836,-0.35525826,0.0,1.0,0.0,0.0,0.0,0.0,0.0,-0.056200385,0.07757148,-0.008923531,10.02903,-5.1234007,5.699849,6.2350273,0.057268143,6.1245975,0.33697486
55.476227,61.018436,18.656523,-5.957499,-0.8064054,-0.109469205,0.35392264,-0.43202576,-0.4737841,0.6498166,-0.48746607,0.7456713,0.3081054,0.5719758,0.2637897,-1.3897828,-2.067752,-0.76294184,1.8839602,1.7889155,-0.68774897,0.29749036,-1.3503466,-2.1214547,-0.7230082,1.8206491,1.7568687,-0.74068826,-0.9141861,-0.8077097,1.1369166,-0.87093,1.1257073,-0.10545938,0.42607918,-0.597435,-0.47498512,0.5538845,-0.35323408,0.2504833,-0.5031136,-0.57333374,-0.45371246,0.51826894,0.9818101,0.10088056,0.117192544,0.11017187,-0.442648,0.4441014,-0.37400824,0.0,1.0,0.0,0.0,0.0,0.0,0.0,-0.05256498,0.07498512,-0.0038844943,14.396024,-5.351484,3.6088467,4.1363597,0.07505417,7.2622957,0.10492802
70.69636,65.17611,20.96957,-10.421795,-1.5629753,-0.33122817,0.48861724,-0.3221305,-0.4758391,0.6538035,-0.47174668,0.74168724,0.3431489,0.576882,0.2652773,-1.3979305,-2.0560744,-0.7701829,1.8948178,1.7911836,-0.6830001,0.28968644,-1.3587065,-2.109923,-0.73149395,1.8318613,1.7562929,-0.73643744,-0.735258,-0.84529984,1.1575086,-0.8401911,1.1215037,-0.040044878,0.42543957,-0.600605,-0.4727955,0.54899216,-0.30514926,0.20955665,-0.48597142,-0.57717896,-0.44992065,0.5144193,0.9835163,0.093940645,0.105817124,0.112577304,-0.36379832,0.36009237,-0.38858482,0.0,1.0,0.0,0.0,0.0,0.0,0.0,-0.049394965,0.07279548,0.0010078549,18.05545,-3.714478,1.6615391,3.3383727,0.13065338,7.01473,0.14282465
70.44625,76.36833,23.584538,-7.5773363,-1.4472644,-0.34646672,0.39818168,-0.2317152,-0.46509498,0.663894,-0.39389846,0.73396975,0.3807846,0.57991433,0.26651493,-1.405216,-2.0435336,-0.7708838,1.9052582,1.7943714,-0.678446,0.28375173,-1.3672495,-2.0982652,-0.7394228,1.8430237,1.7563312,-0.73219085,-0.5455998,-0.8572458,1.1676269,-0.7760783,1.1163352,0.020060172,0.42514414,-0.6033058,-0.47102356,0.5443941,-0.25817713,0.1677203,-0.45144168,-0.5802498,-0.44697,0.5105812,0.9849662,0.08647058,0.09480841,0.11565333,-0.2868579,0.2748901,-0.38229957,0.0,1.0,0.0,0.0,0.0,0.0,0.0,-0.04669416,0.07102355,0.005605936,19.152498,-1.1358857,0.607419,6.7236066,0.06740093,6.4978933,0.19575953
53.47814,95.76077,26.274025,1.6244519,-0.70396984,-0.07929033,0.18166643,-0.1891643,-0.4018258,0.64170164,-0.34260464,0.7289755,0.37952915,0.56845707,0.2648353,-1.4074321,-2.034095,-0.77368325,1.9159212,1.7942841,-0.6753451,0.27946877,-1.3755045,-2.086687,-0.7465562,1.8541331,1.7568974,-0.72795284,-0.3884164,-0.81458527,1.1529907,-0.69119626,1.1116438,0.07053277,0.4241215,-0.6055603,-0.4696293,0.5403266,-0.21488522,0.12999521,-0.39122602,-0.58265305,-0.44470596,0.5070598,0.98615766,0.078587666,0.08440724,0.11913154,-0.22470911,0.21171735,-0.34214854,0.0,1.0,0.0,0.0,0.0,0.0,0.0,-0.044439673,0.06962928,0.009673417,15.9410715,4.365945,-1.9942522,8.849597,0.26404858,5.5894046,0.13434291
