Afshin1997/kuka_rl_ros2/src/catch_and_throw/input_files/idealpd/polynomial_regressor/optimizer_files/env_139_data.csv
torque0,torque1,torque2,torque3,torque4,torque5,torque6,action0,action1,action2,action3,action4,action5,action6,set_target_0,set_target_1,set_target_2,set_target_3,set_target_4,set_target_5,set_target_6,joint_pos_0,joint_pos_1,joint_pos_2,joint_pos_3,joint_pos_4,joint_pos_5,joint_pos_6,joint_vel_0,joint_vel_1,joint_vel_2,joint_vel_3,joint_vel_4,joint_vel_5,joint_vel_6,tennisball_pos_0,tennisball_pos_1,tennisball_pos_2,tennisball_lin_vel_0,tennisball_lin_vel_1,tennisball_lin_vel_2,end_effector_pos_0,end_effector_pos_1,end_effector_pos_2,end_effector_rot_0,end_effector_rot_1,end_effector_rot_2,end_effector_rot_3,end_effector_lin_vel_0,end_effector_lin_vel_1,end_effector_lin_vel_2,obs_task_0,obs_task_1,obs_task_2,obs_task_3,obs_task_4,obs_task_5,obs_task_6,to_final_target_0,to_final_target_1,to_final_target_2,joint_acc_0,joint_acc_1,joint_acc_2,joint_acc_3,joint_acc_4,joint_acc_5,joint_acc_6
0.0,0.0,0.0,0.0,0.0,0.0,0.0,0.0,0.0,0.0,0.0,0.0,0.0,0.0,1.7802359,-1.0646509,-1.8151424,-1.1170107,1.9373155,1.1170107,-0.91629785,1.7802359,-1.0646509,-1.8151424,-1.1170107,1.9373155,1.1170107,-0.91629785,0.0,0.0,0.0,0.0,0.0,0.0,0.0,2.7078896,-0.63263893,0.44897556,-3.2832804,0.2817007,4.6465755,0.5304184,-0.45449638,0.693097,0.5745483,0.17512383,0.15255436,0.7848268,0.0,0.0,0.0,1.0,0.0,0.0,0.0,0.0,0.0,0.0,-3.3578897,0.23263893,0.10102445,0.0,0.0,0.0,0.0,0.0,0.0,0.0
0.0,0.0,0.0,0.0,0.0,0.0,0.0,0.0,0.0,0.0,0.0,0.0,0.0,0.0,1.7802359,-1.0646509,-1.8151424,-1.1170107,1.9373155,1.1170107,-0.91629785,1.7802359,-1.0646509,-1.8151424,-1.1170107,1.9373155,1.1170107,-0.91629785,0.0,0.0,0.0,0.0,0.0,0.0,0.0,2.7078896,-0.63263893,0.44897556,-3.2832804,0.2817007,4.6465755,0.5304184,-0.45449638,0.693097,0.5745483,0.17512383,0.15255436,0.7848268,0.0,0.0,0.0,1.0,0.0,0.0,0.0,0.0,0.0,0.0,-3.3578897,0.23263893,0.10102445,0.0,0.0,0.0,0.0,0.0,0.0,0.0
0.0,0.0,0.0,0.0,0.0,0.0,0.0,0.0,0.0,0.0,0.0,0.0,0.0,0.0,1.7802359,-1.0646509,-1.8151424,-1.1170107,1.9373155,1.1170107,-0.91629785,1.7802359,-1.0646509,-1.8151424,-1.1170107,1.9373155,1.1170107,-0.91629785,0.0,0.0,0.0,0.0,0.0,0.0,0.0,2.7078896,-0.63263893,0.44897556,-3.2832804,0.2817007,4.6465755,0.5304184,-0.45449638,0.693097,0.5745483,0.17512383,0.15255436,0.7848268,0.0,0.0,0.0,1.0,0.0,0.0,0.0,0.0,0.0,0.0,-3.3578897,0.23263893,0.10102445,0.0,0.0,0.0,0.0,0.0,0.0,0.0
-176.0,91.981415,3.1493187,110.0,11.175717,5.6768713,-3.8221674,-0.8319017,0.4704741,-0.53719735,0.72698337,0.46448022,0.63148904,-0.5717716,1.6970457,-1.0176035,-1.8688622,-1.0443124,1.9837635,1.1801596,-0.97347504,1.7785097,-1.0620512,-1.8202541,-1.1130244,1.9441667,1.1220824,-0.91985506,-0.22985858,0.34602028,-0.68080586,0.53168494,0.91235846,0.67409027,-0.47373235,2.6750832,-0.6298237,0.49467003,-3.2799978,0.28141907,4.5437436,0.52811813,-0.45762062,0.6941905,0.578776,0.1736662,0.15046948,0.78244305,-0.306885,-0.41680613,0.14561483,1.0,0.0,0.0,0.0,0.0,0.0,0.0,-3.3250833,0.22982368,0.05532998,-22.95985,34.419434,-67.85364,53.20759,90.95498,66.778,-47.205864
-176.0,51.905533,-14.424549,110.0,11.357199,4.096818,-3.2555091,-0.8162581,0.24199088,-0.54609174,0.6977665,0.5170607,0.6223925,-0.5704591,1.6968839,-1.037852,-1.8748633,-1.0432477,1.9958727,1.1843216,-0.976901,1.7752501,-1.0568041,-1.8333347,-1.1023299,1.958611,1.1342589,-0.9253091,-0.35676187,0.582544,-1.5168803,1.2499502,1.6204691,1.3916287,-0.5667723,2.6423073,-0.62701225,0.5393369,-3.2767184,0.2811377,4.441015,0.5228729,-0.4651966,0.69625974,0.58795553,0.17030214,0.14593045,0.77718055,-0.59829193,-0.8694638,0.22773875,1.0,0.0,0.0,0.0,0.0,0.0,0.0,-3.2923074,0.22701225,0.010663092,-12.324715,23.101156,-83.522705,72.23909,70.40916,69.55666,-8.556736
-161.0952,122.49758,28.585833,94.573425,7.5112867,7.1213017,-2.0948,-0.7781575,0.44933367,-0.16112794,0.6092069,0.5024786,0.6678895,-0.5615106,1.6974343,-1.0118707,-1.8494475,-1.0414091,2.008859,1.2010478,-0.9814602,1.7684809,-1.0496,-1.8478324,-1.0880114,1.974833,1.1480204,-0.9310455,-0.78406334,0.7633554,-1.4216825,1.4931535,1.6194397,1.3630217,-0.57792103,2.609562,-0.6242027,0.5829773,-3.2734423,0.2808566,4.3383884,0.51470184,-0.47543335,0.700117,0.600269,0.1654966,0.14057866,0.76975673,-0.89727426,-1.0695424,0.44217673,1.0,0.0,0.0,0.0,0.0,0.0,0.0,-3.259562,0.22420272,-0.032977283,-42.86411,17.182743,11.203432,24.521564,-1.0994434,-5.272126,-1.7062187
-102.2963,129.04852,41.9554,63.288963,4.14219,7.2717023,-0.9059224,-0.7936287,0.44416824,-0.10259457,0.61762667,0.50899035,0.6431199,-0.56681067,1.689118,-1.0051832,-1.858092,-1.0262487,2.025732,1.2123324,-0.98772657,1.7577559,-1.0412992,-1.8589962,-1.072991,1.9894719,1.1607767,-0.93671125,-1.1700149,0.8500925,-1.0079371,1.5054038,1.4087509,1.2412946,-0.56578135,2.5768547,-0.6213951,0.6255922,-3.2701695,0.2805758,4.2358646,0.50406647,-0.48641777,0.70599943,0.61392814,0.15932041,0.13514909,0.76121217,-1.1302009,-1.097842,0.6423976,1.0,0.0,0.0,0.0,0.0,0.0,0.0,-3.2268548,0.2213951,-0.07559216,-38.994553,7.956612,43.363094,1.2848616,-22.033428,-13.699293,0.31883717
-42.02118,129.67267,48.314915,34.598106,1.2455627,6.2643585,-0.06660356,-0.80146027,0.5053141,-0.075886376,0.6143278,0.5351117,0.6321331,-0.5644377,1.6776098,-0.99076784,-1.8665848,-1.0115583,2.042983,1.2239901,-0.993155,1.7440516,-1.0323442,-1.8655365,-1.0588213,2.0017223,1.1721827,-0.94222254,-1.4388136,0.90888757,-0.53031397,1.3868595,1.1613909,1.1047411,-0.5490928,2.544178,-0.6185913,0.66718256,-3.2669,0.28029528,4.1334434,0.49177933,-0.49681473,0.7135975,0.6276635,0.15188268,0.12988491,0.75239617,-1.2732368,-1.0060179,0.8029137,1.0,0.0,0.0,0.0,0.0,0.0,0.0,-3.194178,0.2185913,-0.11718255,-27.358389,5.394876,49.512005,-11.983252,-25.439072,-14.3347025,0.79683065
-0.9062853,117.576454,44.783432,15.48489,-0.48707944,4.480589,0.27982014,-0.81201947,0.5554121,-0.08527319,0.6219513,0.55627334,0.6316557,-0.56614006,1.6628497,-0.976803,-1.8740637,-0.9966262,2.0573497,1.2353482,-0.9988365,1.7286516,-1.0228456,-1.8682468,-1.0459925,2.0119076,1.1823527,-0.947566,-1.574954,0.96248174,-0.18044122,1.2475263,0.96994007,0.9873115,-0.53174263,2.5115318,-0.6157913,0.70774955,-3.2636337,0.28001505,4.0311246,0.4786644,-0.50598717,0.72237563,0.64084405,0.14356014,0.12498905,0.7436983,-1.3353148,-0.87168884,0.9048677,1.0,0.0,0.0,0.0,0.0,0.0,0.0,-3.161532,0.21579131,-0.15774953,-14.012933,5.0608993,36.22131,-14.160728,-19.540453,-11.911893,1.0443568
21.00231,106.192055,39.43525,5.925025,-1.2504065,3.002253,0.34778237,-0.82271427,0.6017835,-0.069961965,0.61815184,0.575403,0.63184094,-0.5516221,1.6463802,-0.9626673,-1.875243,-0.9841773,2.069448,1.2455368,-1.0027282,1.712628,-1.0127615,-1.8686187,-1.034352,2.02075,1.1915022,-0.95273393,-1.6125957,1.0232518,0.013194072,1.1352392,0.8550661,0.8910275,-0.5137385,2.47892,-0.61299324,0.7472941,-3.2603707,0.2797351,3.9289086,0.46530914,-0.5138092,0.73186344,0.65329146,0.13475358,0.12058783,0.73519397,-1.3448576,-0.7354852,0.9637501,1.0,0.0,0.0,0.0,0.0,0.0,0.0,-3.12892,0.21299323,-0.19729412,-4.0726185,5.886841,20.201431,-11.491489,-11.681616,-9.575165,1.251018
28.829853,96.75291,34.097782,2.693344,-1.4049063,1.9862385,0.2803193,-0.8270476,0.64334965,-0.059870966,0.6038107,0.5917466,0.6311164,-0.54852295,1.6299232,-0.9484265,-1.8746058,-0.9739709,2.0799248,1.2546139,-1.0075862,1.6966559,-1.0020117,-1.8680274,-1.0235506,2.0289326,1.1998202,-0.9577331,-1.5928941,1.0916035,0.07645387,1.0609006,0.80573887,0.81261855,-0.4968309,2.4463425,-0.61019707,0.7858173,-3.257111,0.27945542,3.8267946,0.45204163,-0.52038574,0.74173826,0.6650589,0.12577207,0.11674557,0.726807,-1.3274316,-0.61579394,0.99463755,1.0,0.0,0.0,0.0,0.0,0.0,0.0,-3.0963426,0.21019706,-0.23581731,1.7319202,6.7075253,6.9017386,-7.6986313,-5.0114274,-7.7234864,1.2418449
29.478176,91.076996,30.884064,3.0663214,-1.2145364,1.5253015,0.21209602,-0.82290393,0.673578,-0.026767224,0.5933098,0.5983972,0.6370955,-0.5462237,1.6143655,-0.9346539,-1.8707042,-0.9642196,2.0887723,1.2635297,-1.0123554,1.6810652,-0.99059016,-1.8672683,-1.01323,2.0369282,1.2074648,-0.96257776,-1.5483059,1.1586584,0.0772223,1.0217499,0.7972346,0.748945,-0.48158634,2.4137955,-0.6074047,0.8233201,-3.2538545,0.27917603,3.7247827,0.439003,-0.5259018,0.75184786,0.6762561,0.11675916,0.113410346,0.7184588,-1.3023453,-0.51374954,1.0152194,1.0,0.0,0.0,0.0,0.0,0.0,0.0,-3.0637956,0.2074047,-0.27332008,4.2672873,6.608367,0.51912963,-4.163718,-0.8749604,-6.265247,1.1372805
26.032652,85.94674,28.396606,4.454825,-0.8962622,1.3558092,0.18641107,-0.8229513,0.6933444,0.005939065,0.56913906,0.6095888,0.64510304,-0.5494555,1.59877,-0.9212557,-1.8666744,-0.95631605,2.097887,1.2719752,-1.0175233,1.6659094,-0.9785796,-1.8666046,-1.0031916,2.0450115,1.2145659,-0.96728796,-1.5053265,1.2149189,0.064242646,0.99700356,0.81187963,0.69734794,-0.46867892,2.381279,-0.60461617,0.85980356,-3.2506013,0.2788969,3.6228728,0.42617416,-0.53050804,0.76212245,0.68696433,0.10775861,0.11045388,0.71011823,-1.2803673,-0.42671296,1.0301787,1.0,0.0,0.0,0.0,0.0,0.0,0.0,-3.031279,0.20461616,-0.30980355,4.1288137,5.5440664,-0.9037301,-2.7094603,1.4576674,-5.0946116,0.94278455
23.743834,83.98884,27.84699,5.373445,-0.65216357,1.4133255,0.23490961,-0.8199635,0.711614,0.057195295,0.5363273,0.62572974,0.6471254,-0.54550016,1.5839131,-0.9074182,-1.860885,-0.94955885,2.1075845,1.2792784,-1.021838,1.651095,-0.96609694,-1.8658702,-0.99342847,2.0533276,1.2212206,-0.9718818,-1.4738243,1.2591339,0.077638686,0.9686851,0.8381425,0.65512323,-0.45745423,2.3488007,-0.6018295,0.8952686,-3.2473514,0.27861807,3.521065,0.41352844,-0.5342827,0.7725536,0.69718933,0.09874471,0.107701436,0.70183814,-1.2635837,-0.34473994,1.0457822,1.0,0.0,0.0,0.0,0.0,0.0,0.0,-2.9988008,0.20182952,-0.3452686,2.9818773,4.344225,1.7548829,-3.0554056,2.611196,-4.1831613,0.78662634
19.694393,79.534164,25.824133,6.5397625,-0.4373992,1.3479582,0.21983242,-0.8148359,0.7251329,0.06151825,0.5223746,0.63137436,0.65412366,-0.54277354,1.5696114,-0.89358366,-1.8597184,-0.941191,2.116465,1.286633,-1.0261592,1.6365076,-0.9532624,-1.8649585,-0.9839394,2.0619068,1.2275149,-0.97637457,-1.4542618,1.2912819,0.096912146,0.9416231,0.8643238,0.6211253,-0.4476622,2.3163528,-0.5990448,0.9297164,-3.2441046,0.2783395,3.4193587,0.40098953,-0.5373001,0.7831018,0.70695597,0.089704804,0.105050735,0.69363576,-1.2517446,-0.27184433,1.0560597,1.0,0.0,0.0,0.0,0.0,0.0,0.0,-2.966353,0.1990448,-0.3797164,1.7956018,3.1476974,2.3263006,-2.9201388,2.6144385,-3.3688545,0.66494346
16.998383,72.40828,22.81883,5.9653225,-0.36794472,1.1218426,0.23326102,-0.81411314,0.72848177,0.059990194,0.4829119,0.6483452,0.6558207,-0.540002,1.5550963,-0.8804142,-1.8589596,-0.9356482,2.1267414,1.2930969,-1.0303748,1.622029,-0.9402142,-1.8638809,-0.9748337,2.0707493,1.2335211,-0.9807796,-1.4461718,1.3091943,0.11249022,0.8994138,0.89094037,0.5939486,-0.43903294,2.2839355,-0.5962639,0.9631479,-3.2408612,0.2780612,3.3177543,0.38858414,-0.5396519,0.79365116,0.7162756,0.08069743,0.10246288,0.6855207,-1.2395588,-0.20711635,1.0524673,1.0,0.0,0.0,0.0,0.0,0.0,0.0,-2.9339356,0.19626388,-0.41314787,0.65095425,1.7435312,1.9297093,-4.4466853,2.6741982,-2.6463985,0.57104826
17.186121,67.98565,20.975456,4.5728865,-0.4633742,0.9125067,0.2611451,-0.8089644,0.73744583,0.061448123,0.43837824,0.66096205,0.66259295,-0.5356125,1.5411325,-0.8664696,-1.8577361,-0.9309959,2.1368456,1.2997804,-1.0343409,1.607596,-0.9270354,-1.8626907,-0.96628785,2.0798435,1.2393004,-0.9851045,-1.4428122,1.3205601,0.122577265,0.83882636,0.9153945,0.5730336,-0.4312807,2.2515488,-0.5934849,0.9955641,-3.237621,0.27778322,3.2162514,0.3763237,-0.5413723,0.80408454,0.7251303,0.07179365,0.09994981,0.6775262,-1.2221247,-0.14476618,1.0379912,1.0,0.0,0.0,0.0,0.0,0.0,0.0,-2.9015489,0.19348487,-0.4455641,0.17747879,1.10569,1.3611689,-6.298363,2.4742007,-1.9666791,0.49684644
15.191145,65.169304,19.29943,4.806093,-0.48954445,0.76662946,0.22014561,-0.8137017,0.7491127,0.04874896,0.40907654,0.6541211,0.66840154,-0.5248417,1.5262259,-0.8521241,-1.8578157,-0.9253802,2.1452556,1.3061405,-1.0375887,1.593146,-0.91374403,-1.8615024,-0.95838475,2.0891056,1.2449061,-0.98935217,-1.4461949,1.3318557,0.11858857,0.77333784,0.92992115,0.55694747,-0.42348808,2.2192001,-0.5907097,1.026966,-3.234384,0.2775055,3.11485,0.36424637,-0.54250145,0.81432873,0.73355097,0.063034,0.097582676,0.66963214,-1.2031866,-0.08721122,1.0173844,1.0,0.0,0.0,0.0,0.0,0.0,0.0,-2.8692002,0.19070968,-0.47696596,-0.49448013,1.1101961,-0.079615414,-6.7893147,1.4995933,-1.4625907,0.52404404
15.496958,62.925846,18.114971,4.250703,-0.58007884,0.5863658,0.20339747,-0.80970603,0.7568085,0.03234972,0.37046173,0.6605762,0.668352,-0.5200672,1.5121753,-0.8380632,-1.8582674,-0.92133856,2.1551633,1.3117412,-1.041359,1.5786711,-0.90033823,-1.8604629,-0.95117116,2.0984783,1.2503763,-0.9935264,-1.4486256,1.3435178,0.10007969,0.7032617,0.9401588,0.54433864,-0.4162156,2.186882,-0.5879364,1.0573546,-3.2311504,0.27722803,3.01355,0.3523941,-0.54306984,0.8243259,0.741567,0.054459102,0.095434606,0.6618193,-1.1790798,-0.03254622,0.99129117,1.0,0.0,0.0,0.0,0.0,0.0,0.0,-2.836882,0.1879364,-0.50735456,-0.39355755,1.1599302,-1.5650928,-7.252991,1.0883093,-1.0848641,0.488019
18.200138,61.854374,18.112585,2.5854044,-0.7246245,0.4817721,0.27657807,-0.81191844,0.7556078,0.05838059,0.30474713,0.6638676,0.66382325,-0.5142323,1.4974792,-0.8247775,-1.8546249,-0.92069644,2.164865,1.3167586,-1.0449497,1.5641638,-0.8868504,-1.8594844,-0.94479775,2.1079273,1.2557379,-0.99763197,-1.4518443,1.3506055,0.097956486,0.61457664,0.9470323,0.53414726,-0.4094522,2.1545944,-0.58516693,1.0867311,-3.2279198,0.27695087,2.9123514,0.34083176,-0.54307175,0.83403754,0.7491397,0.04609102,0.093508355,0.654157,-1.1475588,0.02483097,0.9617011,1.0,0.0,0.0,0.0,0.0,0.0,0.0,-2.8045945,0.18516693,-0.53673106,-0.47302246,0.714159,0.07800162,-9.117556,0.7534623,-0.79966784,0.4394889
22.33118,62.428608,18.89069,0.6352124,-0.90528333,0.40526468,0.37412882,-0.8095769,0.75883496,0.08546148,0.23496497,0.6715439,0.6606984,-0.5055795,1.4832062,-0.8109669,-1.8509383,-0.92130125,2.1750817,1.3218077,-1.0481899,1.5496432,-0.87330633,-1.8583629,-0.9394572,2.117445,1.2610117,-1.0016708,-1.4526916,1.3558261,0.117959864,0.50647235,0.95392483,0.5260153,-0.40286443,2.1223373,-0.58239937,1.1150963,-3.2246926,0.27667397,2.8112538,0.32964325,-0.54245377,0.84344566,0.7561917,0.03793693,0.091771476,0.64677113,-1.1068321,0.08728322,0.9310184,1.0,0.0,0.0,0.0,0.0,0.0,0.0,-2.7723374,0.18239936,-0.5650963,-0.23195744,0.53970814,2.2897885,-11.053658,0.7597089,-0.54678917,0.42508245
26.26144,63.800987,19.82512,-1.4768329,-1.1264687,0.33936012,0.47795272,-0.8157133,0.76718736,0.1188781,0.1417523,0.67912453,0.6586186,-0.50412667,1.4680718,-0.7965876,-1.8464751,-0.92528194,2.1853573,1.3268735,-1.0520835,1.5350939,-0.8596907,-1.8568676,-0.93541265,2.1270428,1.266215,-1.0056515,-1.4562244,1.3635241,0.1609299,0.36964962,0.96181273,0.5197298,-0.39702535,2.0901146,-0.5796337,1.1424513,-3.2214684,0.27639735,2.7102573,0.31894302,-0.5411606,0.85253716,0.7626388,0.03000972,0.09019998,0.63980097,-1.0563136,0.1561574,0.8987238,1.0,0.0,0.0,0.0,0.0,0.0,0.0,-2.7401147,0.1796337,-0.5924513,-0.4991293,0.80025196,4.580924,-13.9126835,0.8692503,-0.30955076,0.36264658
35.802456,61.362873,19.785404,-8.483941,-1.7909836,-0.049747825,0.69736844,-0.8119432,0.76833206,0.14957987,-0.031016571,0.6831124,0.6501416,-0.49002025,1.4538996,-0.78285754,-1.8419095,-0.9385143,2.195354,1.3312291,-1.0546535,1.5205313,-0.84600645,-1.8548381,-0.93327546,2.1367168,1.2713686,-1.0095692,-1.4567758,1.3702456,0.21780525,0.16103853,0.9694463,0.5153574,-0.39050472,2.0579262,-0.5768719,1.1687971,-3.2182477,0.27612102,2.609362,0.30893707,-0.5390892,0.86117154,0.76831055,0.022449441,0.08884411,0.6334837,-0.9777683,0.23523855,0.8482523,1.0,0.0,0.0,0.0,0.0,0.0,0.0,-2.7079263,0.17687187,-0.6187971,-0.18544197,0.73041916,5.944008,-21.087852,0.8513212,0.03426075,0.45832396
39.87361,61.636116,20.408442,-10.57057,-1.9954801,-0.19746003,0.7907553,-0.80822384,0.77184784,0.20250246,-0.13421783,0.68210316,0.6495563,-0.4706512,1.439709,-0.76882166,-1.8345879,-0.94669724,2.2049272,1.3363242,-1.0566343,1.5059878,-0.8322564,-1.8520954,-0.9333651,2.1464481,1.276486,-1.0134106,-1.4536028,1.3768778,0.29378834,-0.06625912,0.9748942,0.51243764,-0.38256288,2.0257683,-0.57411385,1.1941347,-3.2150302,0.27584496,2.5085673,0.2998047,-0.5362034,0.86928713,0.77311176,0.015320705,0.087714225,0.62798846,-0.8878685,0.31629446,0.7956257,1.0,0.0,0.0,0.0,0.0,0.0,0.0,-2.6757684,0.17411384,-0.6441347,0.22654533,0.74322224,7.7667356,-22.912212,0.6793022,0.23059845,0.64062476
37.497803,61.61101,20.30712,-8.149698,-1.7506969,-0.21209896,0.73244804,-0.8043266,0.7741796,0.24072742,-0.19333652,0.6851002,0.6544781,-0.45165834,1.4255551,-0.7548384,-1.8280226,-0.95269877,2.2149582,1.3419338,-1.0585763,1.4915034,-0.8184462,-1.8485591,-0.93550134,2.1562328,1.2815825,-1.0171642,-1.4470955,1.3827308,0.3737622,-0.26327235,0.9800604,0.51040053,-0.37330636,1.9936409,-0.5713577,1.2184652,-3.2118158,0.27556917,2.4078736,0.29151535,-0.53256226,0.8769341,0.77708995,0.008574961,0.086767025,0.623321,-0.80346316,0.3888079,0.75017506,1.0,0.0,0.0,0.0,0.0,0.0,0.0,-2.643641,0.17135772,-0.6684652,0.602746,0.6820202,8.045644,-19.837221,0.71724653,0.28709173,0.8131921
33.902992,62.36952,20.424534,-4.959555,-1.4433202,-0.14596283,0.6608697,-0.8055848,0.7788363,0.29318967,-0.26657984,0.68994665,0.6536793,-0.43302703,1.4109449,-0.74056256,-1.8192402,-0.96215934,2.2252276,1.3469504,-1.0604669,1.4770724,-0.80457217,-1.8441703,-0.9393656,2.1660748,1.2866598,-1.0208187,-1.441774,1.3893274,0.4605703,-0.4277509,0.98616457,0.5083924,-0.36302248,1.961544,-0.5686035,1.2417893,-3.2086046,0.27529368,2.3072805,0.2840004,-0.5282383,0.88419986,0.78033787,0.0021302034,0.08594646,0.6194203,-0.72858745,0.45414698,0.7141651,1.0,0.0,0.0,0.0,0.0,0.0,0.0,-2.6115441,0.16860351,-0.6917893,0.5106211,0.76994896,8.631044,-16.547459,0.87178946,0.24899244,0.9497404
30.31562,63.441334,20.806692,-1.2522473,-1.1050736,-0.028592624,0.5843021,-0.7977995,0.77963626,0.35288727,-0.31055734,0.6817506,0.65525424,-0.38086516,1.3972924,-0.7266085,-1.8088816,-0.9704214,2.2342498,1.3521852,-1.0589052,1.4627157,-0.79064375,-1.838845,-0.9445412,2.1759434,1.29172,-1.0243397,-1.433431,1.3944554,0.55599445,-0.547839,0.988147,0.50644237,-0.34866902,1.9294853,-0.5658531,1.2641083,-3.2053967,0.27501842,2.2067878,0.2771454,-0.5233002,0.89119905,0.7829442,-0.004135689,0.0851897,0.6162175,-0.66506773,0.51344013,0.6901409,1.0,0.0,0.0,0.0,0.0,0.0,0.0,-2.5794854,0.16585311,-0.7141083,0.8350611,0.6365061,9.400988,-12.084657,0.52553415,0.21461248,1.37434
28.188103,61.594013,20.141636,0.046120644,-0.95150965,-0.07996875,0.5482647,-0.79515827,0.7785684,0.39842814,-0.38272217,0.6893522,0.657,-0.359015,1.3831999,-0.7127869,-1.7990022,-0.9828134,2.2448785,1.3574201,-1.0602412,1.448443,-0.7766848,-1.8325775,-0.95080304,2.1858425,1.2967612,-1.02771,-1.4251381,1.3967667,0.6495058,-0.6524102,0.9918061,0.50482243,-0.33341083,1.8974571,-0.5631046,1.2854232,-3.2021918,0.27474347,2.1063957,0.27088547,-0.5178089,0.89796925,0.7849643,-0.010263247,0.08446319,0.6136706,-0.60568595,0.56668323,0.66722375,1.0,0.0,0.0,0.0,0.0,0.0,0.0,-2.5474572,0.16310462,-0.73542315,0.8466482,0.36342144,9.157014,-10.519827,0.71760416,0.23596287,1.483953
22.831757,60.20535,19.315683,3.9052186,-0.57721,-0.019258045,0.43378383,-0.79322124,0.77855515,0.438194,-0.38922778,0.68677384,0.65521044,-0.31265068,1.369121,-0.6988293,-1.788758,-0.9897258,2.25452,1.3622822,-1.058975,1.4342428,-0.76271635,-1.8254383,-0.95779634,2.1957684,1.3017851,-1.0309086,-1.4182535,1.397252,0.7346782,-0.7152012,0.9939537,0.5028045,-0.3153954,1.8654594,-0.56035805,1.3057349,-3.1989903,0.27446878,2.006104,0.26511765,-0.51185036,0.90456986,0.7864991,-0.01631708,0.08373708,0.6116707,-0.5598025,0.6103752,0.65194726,1.0,0.0,0.0,0.0,0.0,0.0,0.0,-2.5154595,0.16035804,-0.75573486,0.7040262,0.18920898,8.282482,-6.3472986,0.593853,0.14978647,1.7664373
17.772093,57.51286,17.809965,6.8305955,-0.30734435,-0.03936568,0.31070104,-0.793659,0.7804582,0.457166,-0.4025655,0.6835985,0.65897256,-0.29000035,1.354877,-0.6846705,-1.7797216,-0.9980529,2.2641282,1.3676823,-1.0599086,1.4200865,-0.74874216,-1.8176048,-0.9651959,2.205698,1.3067919,-1.033926,-1.4147108,1.3978952,0.79870707,-0.74846476,0.9939266,0.5010178,-0.29724365,1.8334923,-0.5576153,1.3250444,-3.195792,0.27419436,1.9059123,0.25973892,-0.5055275,0.9110389,0.7876677,-0.022335917,0.08302724,0.6100715,-0.52418125,0.64438456,0.63920414,1.0,0.0,0.0,0.0,0.0,0.0,0.0,-2.4834924,0.15761527,-0.7750444,0.35657883,0.20854473,6.1665416,-3.410411,0.37187338,0.13153553,1.7843366
14.784536,55.714935,16.841682,8.54636,-0.16877478,-0.07337748,0.23304188,-0.79316664,0.78369814,0.48098698,-0.41683328,0.68201125,0.65722424,-0.26688957,1.3407699,-0.67037237,-1.7695061,-1.0068792,2.273899,1.3725144,-1.060615,1.4059492,-0.73474985,-1.8092487,-0.97280335,2.2156162,1.3117796,-1.0367622,-1.4135089,1.4002568,0.84717566,-0.76513463,0.9924198,0.49904233,-0.27918026,1.8015556,-0.5548763,1.3433528,-3.192597,0.27392024,1.8058208,0.25465775,-0.49890327,0.91739005,0.7885565,-0.028329397,0.08236602,0.60876244,-0.4940524,0.6727423,0.6276475,1.0,0.0,0.0,0.0,0.0,0.0,0.0,-2.4515557,0.15487632,-0.7933528,0.11122227,0.38301945,4.6170473,-1.760292,0.2143979,0.08711219,1.7804027
12.655048,51.89535,15.299133,9.14952,-0.07215607,-0.19750682,0.18547389,-0.7917245,0.77872455,0.49447635,-0.42686278,0.6815446,0.6496308,-0.23523332,1.3267767,-0.6568774,-1.759801,-1.0154896,2.2837708,1.3767427,-1.0602856,1.3918177,-0.7207585,-1.8005245,-0.9805186,2.2255154,1.3167425,-1.0394135,-1.4130105,1.3992949,0.8799488,-0.77400714,0.99038535,0.49638045,-0.26053533,1.7696533,-0.5521393,1.360661,-3.189405,0.27364635,1.7058294,0.24986649,-0.492054,0.9236022,0.78922284,-0.034270417,0.08177847,0.6076719,-0.4662521,0.69370323,0.6127131,1.0,0.0,0.0,0.0,0.0,0.0,0.0,-2.4196534,0.15213928,-0.810661,0.033926964,0.04913807,3.0650735,-0.9960413,0.13811588,0.001680851,1.8373728
10.1705,50.025497,14.405991,10.6262455,0.054981053,-0.22184078,0.12196016,-0.7934651,0.78102803,0.5032332,-0.41560566,0.6760488,0.6587449,-0.2032996,1.3124712,-0.6426557,-1.7502011,-1.0220791,2.2931201,1.382617,-1.0597434,1.3776766,-0.70677,-1.7915695,-0.9882157,2.2353802,1.3216883,-1.041872,-1.4144115,1.3991485,0.9000512,-0.76869637,0.98635304,0.49465576,-0.24126244,1.7377853,-0.54940414,1.37697,-3.186216,0.27337277,1.605938,0.24531555,-0.4850235,0.929675,0.7897256,-0.040159818,0.081288695,0.606723,-0.4434086,0.70982695,0.5989747,1.0,0.0,0.0,0.0,0.0,0.0,0.0,-2.3877854,0.14940414,-0.82697004,-0.17049313,0.13170242,1.8128514,0.40934086,-0.073730946,0.0711143,1.9002378
7.3605566,46.479702,12.874611,11.758179,0.20028102,-0.29574317,0.058448173,-0.7991649,0.7773571,0.50047255,-0.4065693,0.6733672,0.66101396,-0.18195523,1.2977601,-0.6290343,-1.7415222,-1.0288726,2.302717,1.3877897,-1.0600675,1.3634936,-0.6928006,-1.782521,-0.99578977,2.245203,1.3266188,-1.0441418,-1.4197615,1.3967081,0.90583676,-0.75417286,0.9815574,0.49324933,-0.22250438,1.7059479,-0.5466728,1.3922809,-3.1830306,0.27309945,1.5061463,0.24095154,-0.4778881,0.93559813,0.79012746,-0.0459857,0.08091197,0.6058358,-0.42528966,0.7187184,0.5835634,1.0,0.0,0.0,0.0,0.0,0.0,0.0,-2.355948,0.14667282,-0.8422809,-0.584054,-0.10094643,0.41043758,1.309967,-0.17296076,0.07722974,1.8449515
5.621935,44.212727,11.8985,12.559352,0.28076214,-0.35401446,0.020074792,-0.80330217,0.7772806,0.49520838,-0.39517424,0.6660295,0.6576348,-0.13097136,1.2831633,-0.6150725,-1.7330002,-1.0353072,2.311806,1.3923823,-1.0572389,1.34924,-0.678855,-1.7734993,-1.0031704,2.2549572,1.331534,-1.0462074,-1.4275094,1.3942951,0.9004934,-0.7332896,0.9746307,0.4915469,-0.20138118,1.6741409,-0.5439434,1.4065946,-3.1798482,0.2728264,1.4064546,0.23675156,-0.4706955,0.9413636,0.79047424,-0.05173546,0.08067692,0.60495055,-0.40978628,0.72325975,0.56755996,1.0,0.0,0.0,0.0,0.0,0.0,0.0,-2.324141,0.1439434,-0.8565946,-0.8384228,-0.100660324,-0.6787896,1.9331932,-0.40225983,0.027656555,2.0790963
3.8965778,40.917427,10.681698,13.126768,0.40911323,-0.42327735,-0.0038100071,-0.81049764,0.7699729,0.4899926,-0.38298473,0.67145544,0.6627239,-0.09444132,1.2681901,-0.6018577,-1.7245,-1.0414689,2.3221028,1.3978064,-1.0556515,1.3348852,-0.6649628,-1.7645786,-1.0103191,2.2646694,1.3364378,-1.0480537,-1.4384134,1.3879323,0.8888732,-0.7092474,0.9708678,0.490391,-0.17930584,1.6423645,-0.5412178,1.4199122,-3.176669,0.27255365,1.3068625,0.23268127,-0.46349525,0.9469552,0.79079586,-0.057389,0.08057,0.6040337,-0.3974936,0.72195727,0.54979056,1.0,0.0,0.0,0.0,0.0,0.0,0.0,-2.2923646,0.1412178,-0.8699122,-1.1667728,-0.5004883,-1.2813926,2.233851,-0.10470152,0.064480305,2.1693616
6.4575233,40.54649,10.895457,11.254629,0.22278881,-0.5460675,0.051691066,-0.8088097,0.770106,0.49232268,-0.40231085,0.671483,0.65882105,-0.085975885,1.2540042,-0.58795226,-1.7153463,-1.0505502,2.3318176,1.4023199,-1.0566514,1.3204485,-0.6511279,-1.7557552,-1.0173668,2.2743587,1.3413264,-1.0496941,-1.4456294,1.3824482,0.8797054,-0.7038868,0.96888727,0.48921943,-0.15919816,1.6106186,-0.5384941,1.4322346,-3.173493,0.27228114,1.2073698,0.2287941,-0.4562912,0.9523379,0.79106474,-0.06290019,0.08059754,0.6031287,-0.37699884,0.7230593,0.52783763,1.0,0.0,0.0,0.0,0.0,0.0,0.0,-2.2606187,0.1384941,-0.88223463,-0.78167915,-0.41639805,-1.0303497,0.38269758,0.05786419,0.07876754,1.9773364
8.991005,39.505177,10.7459,8.876141,0.0030712485,-0.72019434,0.110286154,-0.81063634,0.7688398,0.48450494,-0.4300138,0.67400396,0.65333754,-0.07558745,1.2393849,-0.5742439,-1.7073047,-1.0603682,2.3417592,1.4066601,-1.0572528,1.3059584,-0.63733965,-1.7470329,-1.0245498,2.2840405,1.3462034,-1.0511494,-1.450271,1.3779922,0.8693062,-0.7237823,0.96883756,0.4878377,-0.14105925,1.5789108,-0.53577423,1.4435629,-3.17032,0.27200893,1.1079767,0.2251854,-0.44906044,0.95744926,0.7912355,-0.0681924,0.080788895,0.6023034,-0.34665135,0.72521996,0.49896106,1.0,0.0,0.0,0.0,0.0,0.0,0.0,-2.228911,0.13577422,-0.89356285,-0.5065441,-0.3184557,-1.1421561,-2.1255493,0.2251625,0.07510781,1.7879695
10.639539,39.448734,11.038956,7.9022717,-0.1074568,-0.79424024,0.14379829,-0.80804193,0.7665883,0.48510918,-0.4378842,0.6706176,0.6565645,-0.06263683,1.2251542,-0.5606808,-1.698522,-1.0683383,2.351102,1.4118599,-1.0574131,1.2914568,-0.62359244,-1.7383869,-1.0319961,2.2937183,1.351071,-1.0524349,-1.4502535,1.3741446,0.86259574,-0.7520005,0.9680491,0.4870747,-0.124487825,1.5472336,-0.53305626,1.4538978,-3.1671503,0.27173698,1.008683,0.22192383,-0.44179916,0.9622601,0.7912757,-0.073228545,0.081153795,0.60160977,-0.31125617,0.7289435,0.46866995,1.0,0.0,0.0,0.0,0.0,0.0,0.0,-2.1972337,0.13305625,-0.9038978,-0.02400875,-0.25618076,-0.78291893,-2.9445052,0.1484394,0.14451146,1.6353979
10.911689,40.82935,11.826228,8.546288,-0.102258384,-0.7444381,0.17213346,-0.8102731,0.7697016,0.49279618,-0.43784332,0.6668508,0.66076356,0.038604163,1.2104295,-0.5466223,-1.6891073,-1.0757805,2.3604035,1.4171474,-1.0485744,1.2769572,-0.60985667,-1.7297466,-1.0396885,2.3033772,1.3559347,-1.0534973,-1.4497824,1.3739262,0.86414677,-0.7753672,0.9661476,0.48682082,-0.10037832,1.5155869,-0.5303402,1.4632406,-3.1639838,0.2714653,0.90948844,0.21900177,-0.43447876,0.96679974,0.7911583,-0.07803954,0.081692874,0.6010862,-0.2765844,0.7357582,0.44259918,1.0,0.0,0.0,0.0,0.0,0.0,0.0,-2.165587,0.13034019,-0.9132406,0.019073486,0.11165142,0.034964085,-2.4508476,0.05465746,0.1875341,2.392094
9.445134,37.645466,10.620554,8.807248,-0.005748868,-0.8202282,0.16415122,-0.8164516,0.76169837,0.4814303,-0.4535266,0.6671202,0.6600607,0.10255772,1.195312,-0.5336868,-1.6816036,-1.0850412,2.370089,1.4219408,-1.0432415,1.2624365,-0.5961495,-1.7211235,-1.0476192,2.3130207,1.3607947,-1.0542908,-1.4528557,1.3701099,0.861444,-0.7994316,0.96431774,0.4864866,-0.07230019,1.4839706,-0.52762794,1.4715922,-3.1608205,0.2711939,0.8103931,0.21641159,-0.4271202,0.97106093,0.7908866,-0.08261094,0.082399786,0.6007362,-0.24389778,0.7371529,0.4140946,1.0,0.0,0.0,0.0,0.0,0.0,0.0,-2.1339707,0.12762794,-0.9215922,-0.3437996,-0.2511263,-0.37263632,-2.5315642,0.04724264,0.16454458,2.7868643
9.601584,37.151962,10.793045,9.011609,0.022103429,-0.82200503,0.1857231,-0.81505764,0.75774986,0.49635145,-0.46542978,0.66430575,0.65751874,0.14808998,1.1809307,-0.52037454,-1.6714883,-1.0941622,2.3794513,1.4265466,-1.0394818,1.247893,-0.58249575,-1.7124546,-1.0557827,2.3226414,1.3656508,-1.0547924,-1.4550822,1.364243,0.86819184,-0.8222802,0.961976,0.48591185,-0.042822123,1.452385,-0.5249176,1.4789536,-3.1576602,0.27092275,0.7113969,0.21415329,-0.4197464,0.975048,0.7904486,-0.086948,0.08325494,0.6005827,-0.21152098,0.7388905,0.38700855,1.0,0.0,0.0,0.0,0.0,0.0,0.0,-2.102385,0.1249176,-0.9289536,-0.25498867,-0.4544258,0.56473017,-2.4057508,0.0036358833,0.1357615,2.9267468
9.790684,35.28846,10.071014,8.065985,-0.044744194,-0.9403461,0.18788013,-0.8182152,0.75672054,0.48704007,-0.4995618,0.66344434,0.65858567,0.15328304,1.1660714,-0.5068237,-1.6637505,-1.1057389,2.3889859,1.4315094,-1.0394641,1.233317,-0.56889826,-1.703759,-1.0642704,2.3322392,1.3705031,-1.0550232,-1.4584892,1.358698,0.8698563,-0.8580535,0.9594899,0.48546875,-0.016566843,1.4208298,-0.5222111,1.4853258,-3.1545033,0.27065188,0.6124996,0.21224213,-0.41236496,0.97872907,0.7898471,-0.091007605,0.08427195,0.6006307,-0.1754703,0.73828006,0.35522148,1.0,0.0,0.0,0.0,0.0,0.0,0.0,-2.0708299,0.12221107,-0.9353258,-0.36730766,-0.42574406,0.06989241,-3.692031,-0.033783913,0.14539361,2.6098251
10.270441,35.374397,10.31188,8.06246,-0.07242763,-0.96434855,0.19556804,-0.8147616,0.75634515,0.49347928,-0.51233137,0.6596034,0.6540469,0.18537003,1.1518408,-0.49326375,-1.6544111,-1.1155035,2.3981996,1.4359077,-1.0364861,1.2187296,-0.5553437,-1.6950271,-1.0731148,2.3418026,1.3753458,-1.0549984,-1.4588542,1.3548173,0.8738485,-0.8935786,0.95614,0.48459542,0.008815366,1.3893051,-0.51950645,1.4907098,-3.1513495,0.27038127,0.5137012,0.21070099,-0.4049816,0.9820993,0.78907937,-0.09477693,0.08546149,0.60088885,-0.13796528,0.7385676,0.3243374,1.0,0.0,0.0,0.0,0.0,0.0,0.0,-2.0393052,0.11950645,-0.94070977,-0.055027008,-0.2562523,0.2931714,-3.6589146,-0.1172781,0.09851456,2.525989
9.646046,36.187325,10.927007,9.734234,0.025661826,-0.8671805,0.18683231,-0.81298333,0.7559043,0.5061937,-0.5018474,0.64973235,0.6559414,0.26624113,1.1374313,-0.47975326,-1.6444077,-1.1232995,2.406776,1.44094,-1.0283743,1.2041537,-0.54181486,-1.6862037,-1.0821804,2.3513088,1.380181,-1.0546875,-1.4570761,1.3527038,0.8847334,-0.91123503,0.9497449,0.48383883,0.03844282,1.3578186,-0.51680565,1.4951065,-3.1481988,0.27011096,0.41500166,0.20950699,-0.3975773,0.98521173,0.78814405,-0.09831995,0.08680947,0.6013537,-0.104907416,0.74105537,0.3002166,1.0,0.0,0.0,0.0,0.0,0.0,0.0,-2.0078187,0.11680564,-0.94510645,0.14874935,-0.07209778,0.9704709,-1.8755078,-0.39588213,0.09666085,2.9487154
8.0274935,31.403917,9.014834,9.537288,0.14025724,-0.98824406,0.1520541,-0.8170501,0.74257743,0.49374804,-0.52924496,0.6513026,0.65958464,0.24987409,1.1224487,-0.46755713,-1.6368289,-1.1351049,2.416439,1.4461395,-1.0297,1.1895796,-0.5283585,-1.6773384,-1.0914596,2.3607616,1.3850123,-1.0541191,-1.4574335,1.3436828,0.88678604,-0.9336569,0.944631,0.48342988,0.06277375,1.3263626,-0.51410675,1.4985169,-3.1450512,0.2698409,0.3164008,0.20863342,-0.3902092,0.9880448,0.78707224,-0.101611495,0.08829925,0.60199296,-0.07345267,0.735217,0.2710229,1.0,0.0,0.0,0.0,0.0,0.0,0.0,-1.9763626,0.114106745,-0.9485169,-0.06439686,-0.77080727,0.108742714,-2.3646593,-0.2988696,0.11578202,2.4139478
7.558634,30.543262,8.560631,9.618515,0.12396312,-1.0348009,0.12635875,-0.81866366,0.74719983,0.48690444,-0.545772,0.64241356,0.6590202,0.26621997,1.1077132,-0.45363852,-1.6286479,-1.1460369,2.425003,1.4509143,-1.027497,1.1749922,-0.51496416,-1.6685073,-1.1009811,2.3701496,1.3898398,-1.0533257,-1.4592673,1.3384417,0.88152194,-0.9586442,0.93743485,0.4829494,0.084743045,1.2949371,-0.51140976,1.5009421,-3.1419067,0.26957113,0.21789853,0.20807266,-0.38290215,0.99057925,0.785898,-0.104621395,0.08995303,0.6027662,-0.041362897,0.728177,0.24091429,1.0,0.0,0.0,0.0,0.0,0.0,0.0,-1.9449371,0.11140975,-0.9509421,-0.21893978,-0.39377213,-0.6064296,-2.61935,-0.5202651,0.09560585,2.1812172
6.0168276,27.581316,7.443349,10.615944,0.2973013,-1.0623281,0.095913894,-0.81326437,0.7371143,0.47585115,-0.53926265,0.64128935,0.65931344,0.32443294,1.0936657,-0.44125274,-1.6209222,-1.1549073,2.4342785,1.4557711,-1.0208824,1.1604105,-0.50165087,-1.6597927,-1.1106666,2.3794727,1.3946635,-1.0522976,-1.457822,1.3294197,0.8679238,-0.9722441,0.9312154,0.48238713,0.10883133,1.2635422,-0.5087166,1.502383,-3.1387656,0.2693016,0.119494736,0.20780182,-0.37570572,0.9928214,0.7846516,-0.10735099,0.09175978,0.60363716,-0.0137489,0.71555245,0.21197183,1.0,0.0,0.0,0.0,0.0,0.0,0.0,-1.9135422,0.10871658,-0.952383,0.10590553,-0.7731676,-1.4356017,-1.4965296,-0.42989254,0.07004142,2.3855834
5.105486,25.901115,6.8020267,11.092924,0.37268537,-1.0826286,0.07294868,-0.8162584,0.7332963,0.46898767,-0.5508714,0.6380908,0.657251,0.33683956,1.0787847,-0.42832124,-1.6128939,-1.1657537,2.443282,1.4603885,-1.0186136,1.1458327,-0.48842922,-1.6512363,-1.120478,2.3887386,1.3994776,-1.0510426,-1.4578651,1.3201588,0.8513826,-0.98466676,0.9254628,0.48152897,0.13097996,1.2321777,-0.5060253,1.5028406,-3.1356275,0.26903236,0.021189323,0.20780182,-0.36865616,0.99477595,0.7833585,-0.10979584,0.09370644,0.60457706,0.011895927,0.7003807,0.1832245,1.0,0.0,0.0,0.0,0.0,0.0,0.0,-1.8821777,0.10602531,-0.9528406,-0.051617622,-0.7991791,-1.7154932,-1.3834476,-0.390625,0.02529025,2.1904364
4.033066,24.753393,6.3992844,12.280415,0.46728295,-1.0536828,0.037169233,-0.81408745,0.7296639,0.4558969,-0.54224,0.6218451,0.65993863,0.36824557,1.0644239,-0.41546282,-1.6056466,-1.174702,2.4509232,1.4654715,-1.014218,1.1312624,-0.4752957,-1.6428745,-1.1303314,2.3979092,1.4042841,-1.0495682,-1.4568912,1.3114687,0.83083045,-0.98605174,0.9150547,0.48083878,0.15292327,1.2008438,-0.50333595,1.502316,-3.1324925,0.26876336,-0.077017814,0.20801926,-0.3617611,0.99646556,0.78204805,-0.1119828,0.09579895,0.60554373,0.034006022,0.6840226,0.15756877,1.0,0.0,0.0,0.0,0.0,0.0,0.0,-1.8508438,0.10333595,-0.952316,0.035977364,-0.741601,-2.106893,-0.2895236,-0.8538723,0.025767088,2.1651864
3.6239827,21.823416,5.121485,11.195846,0.47970325,-1.1828566,0.03386334,-0.81827784,0.7215478,0.43638098,-0.5769485,0.6336116,0.6585219,0.34918544,1.0494347,-0.4031409,-1.5992364,-1.1880262,2.4612703,1.4701363,-1.0146496,1.1166826,-0.46226373,-1.6347682,-1.1403278,2.4070225,1.409083,-1.0479126,-1.4585478,1.300823,0.80380523,-1.0046558,0.9106197,0.48003432,0.16979797,1.1695404,-0.5006504,1.50081,-3.1293607,0.26849467,-0.17512676,0.20849228,-0.3550663,0.99785167,0.78074133,-0.113853626,0.09802794,0.6065235,0.058227673,0.66219467,0.1258193,1.0,0.0,0.0,0.0,0.0,0.0,0.0,-1.8195404,0.1006504,-0.95081,-0.21510124,-0.94606876,-2.736032,-2.0047188,-0.29063225,0.0029444695,1.6607642
3.7066638,20.83701,4.8891606,10.953785,0.47345707,-1.2142559,0.047118943,-0.8159992,0.7152407,0.42862466,-0.58799016,0.6224026,0.65917724,0.37912723,1.0350827,-0.39073965,-1.5919058,-1.1991268,2.4692628,1.4750007,-1.0099999,1.1020952,-0.44934478,-1.6269176,-1.1505493,2.4160748,1.4138762,-1.0460892,-1.4589357,1.2893,0.7787119,-1.0286206,0.90432066,0.47933343,0.18658999,1.1382675,-0.49796867,1.4983237,-3.126232,0.2682262,-0.27313763,0.20920563,-0.34859276,0.99891174,0.77943647,-0.11537578,0.10039188,0.60752666,0.08347593,0.6397143,0.092897415,1.0,0.0,0.0,0.0,0.0,0.0,0.0,-1.7882675,0.09796867,-0.94832367,-0.0772953,-1.0356188,-2.545917,-2.5336742,-0.48257113,0.0053286552,1.6527325
2.5983522,18.850555,4.0383115,11.646153,0.58502495,-1.2279142,0.014948354,-0.81425446,0.7091397,0.4016343,-0.58804727,0.620154,0.66033757,0.39465868,1.0206698,-0.3784308,-1.5867542,-1.209354,2.47809,1.4799099,-1.0066233,1.0875136,-0.4365436,-1.619376,-1.1609749,2.4250736,1.4186636,-1.0441055,-1.4579434,1.2774915,0.74579746,-1.0476873,0.89863735,0.47868398,0.20235251,1.1070251,-0.49528885,1.4948579,-3.1231065,0.26795805,-0.37105048,0.21015167,-0.342371,0.99964684,0.7781555,-0.11654322,0.102879174,0.60852903,0.1057403,0.6137376,0.06078197,1.0,0.0,0.0,0.0,0.0,0.0,0.0,-1.7570251,0.09528884,-0.9448579,0.056004524,-1.0667324,-3.3178926,-2.051282,-0.43001175,-0.0078082085,1.546216
2.1679304,16.776619,3.1544642,11.377838,0.6295546,-1.300586,0.006200757,-0.8084618,0.7010153,0.37366575,-0.6078366,0.61966074,0.6545867,0.40280437,1.0066674,-0.36644208,-1.5820093,-1.2217585,2.4870398,1.4841223,-1.0038251,1.0729719,-0.4238688,-1.6122291,-1.1716236,2.434023,1.4234415,-1.041975,-1.4528644,1.2645172,0.7043053,-1.0712113,0.89429134,0.47742453,0.21656257,1.0758209,-0.49261093,1.4904137,-3.119984,0.26769012,-0.46886542,0.2113266,-0.33643532,1.000044,0.7769189,-0.11732793,0.10548558,0.6095113,0.12829424,0.5838431,0.026462829,1.0,0.0,0.0,0.0,0.0,0.0,0.0,-1.7258209,0.092610925,-0.94041365,0.4843235,-1.1874676,-4.1801333,-2.4937868,-0.31422377,-0.08146167,1.3898104
1.2542932,14.095711,1.8379781,10.938385,0.6835134,-1.3879144,-0.015197411,-0.8088805,0.6934144,0.3391597,-0.6344691,0.620974,0.6542171,0.39812404,0.9920839,-0.35452735,-1.5783131,-1.2350705,2.4961202,1.4888632,-1.0021626,1.0584799,-0.41132894,-1.6055763,-1.1825813,2.4429455,1.4282042,-1.0397224,-1.4480999,1.2508398,0.65215296,-1.1042043,0.8916934,0.47602692,0.22804353,1.0446472,-0.48993683,1.4849921,-3.1168647,0.2674225,-0.5665827,0.21272278,-0.33083916,1.0000672,0.77575356,-0.11766939,0.10820688,0.610452,0.15065315,0.548501,-0.011734734,1.0,0.0,0.0,0.0,0.0,0.0,0.0,-1.6946472,0.08993682,-0.93499213,0.46730042,-1.2650967,-5.2371264,-3.4374475,-0.16696453,-0.1146853,1.1155128
2.081194,14.381134,2.389212,10.445224,0.62347305,-1.3766623,0.025669146,-0.80543125,0.6835633,0.34088865,-0.66359365,0.6116339,0.6473894,0.39110628,0.9779368,-0.3429726,-1.5714874,-1.2489407,2.504109,1.4929432,-1.0006118,1.0440413,-0.3989388,-1.5993354,-1.1939453,2.4518223,1.4329497,-1.0373745,-1.4423647,1.2354326,0.6146909,-1.147407,0.886812,0.4740436,0.2368167,1.013504,-0.48726463,1.4785941,-3.1137483,0.2671551,-0.6642022,0.21437454,-0.32556725,0.9996999,0.77464056,-0.11754905,0.111032054,0.6113805,0.17521049,0.5159277,-0.05090622,1.0,0.0,0.0,0.0,0.0,0.0,0.0,-1.663504,0.08726463,-0.92859405,0.5856514,-1.4374256,-3.7891507,-4.440284,-0.38934946,-0.17839074,0.8498758
0.7399094,12.462471,1.7394787,11.610193,0.74858254,-1.3121245,0.0010076026,-0.8059842,0.67100936,0.31727925,-0.66913474,0.59116465,0.65083414,0.4136417,0.96344286,-0.33183786,-1.5676075,-1.2608588,2.5109386,1.498033,-0.9960103,1.0296446,-0.38672605,-1.5934494,-1.205685,2.460596,1.437678,-1.0349369,-1.4388753,1.2168727,0.5798848,-1.1833541,0.8745258,0.472415,0.24605511,0.98239136,-0.48459435,1.4712206,-3.1106353,0.26688802,-0.7617242,0.2162323,-0.32063484,0.99895805,0.77358353,-0.116992764,0.11395164,0.6122876,0.19477472,0.48204988,-0.08772777,1.0,0.0,0.0,0.0,0.0,0.0,0.0,-1.6323913,0.08459434,-0.9212206,0.34422874,-1.7555237,-3.5113215,-3.7245274,-1.1264682,-0.16480088,0.8890718
-0.18135858,11.096943,1.2002316,12.402809,0.8300282,-1.2794056,-0.024544565,-0.80273914,0.662243,0.29002985,-0.68486494,0.57702583,0.6465699,0.4168061,0.9493707,-0.32050174,-1.5644463,-1.2741715,2.5182986,1.502335,-0.9932563,1.0152823,-0.37470117,-1.5879314,-1.2177528,2.4692135,1.4423872,-1.0324154,-1.435309,1.1980455,0.5425646,-1.2149562,0.8578368,0.47041795,0.2542296,0.9513092,-0.48192787,1.4628726,-3.107525,0.26662117,-0.8591486,0.21826172,-0.31604195,0.997858,0.7726049,-0.116019964,0.11696901,0.61313885,0.21128136,0.44706547,-0.123057604,1.0,0.0,0.0,0.0,0.0,0.0,0.0,-1.6013092,0.081927866,-0.9128726,0.3432989,-1.7849922,-3.7530065,-3.2944918,-1.5700579,-0.22131205,0.7784307
-4.4101734,2.1772344,-3.415357,12.2986145,1.153717,-1.4585574,-0.12131645,-0.80351335,0.6345763,0.2127564,-0.71547365,0.56124383,0.6328855,0.4180344,0.9349309,-0.31124353,-1.5666558,-1.2893002,2.525338,1.5056758,-0.990612,1.0009447,-0.36294904,-1.5830524,-1.2301811,2.4776363,1.447066,-1.0298214,-1.4333359,1.1678928,0.4695047,-1.2526947,0.8370079,0.46684694,0.26105806,0.92025757,-0.4792633,1.4535512,-3.1044183,0.26635462,-0.9564756,0.22041321,-0.31194496,0.99634695,0.7717953,-0.114544,0.12008429,0.6138334,0.22015478,0.3930102,-0.16596375,1.0,0.0,0.0,0.0,0.0,0.0,0.0,-1.5702575,0.0792633,-0.90355116,0.21951199,-2.9416323,-7.312906,-3.9239645,-2.055633,-0.42473674,0.622344
-6.0164275,-0.07830477,-4.500265,13.502434,1.2630092,-1.4041493,-0.17224781,-0.7990036,0.6212372,0.17739631,-0.71970457,0.51250863,0.64303625,0.4240372,0.92104435,-0.30082533,-1.5653127,-1.3021516,2.5288873,1.5113696,-0.9874177,0.9866377,-0.35151163,-1.5789745,-1.2429222,2.485735,1.451718,-1.0271645,-1.429778,1.1359088,0.38729933,-1.2816706,0.80098534,0.4642938,0.26717585,0.88923645,-0.47660065,1.4432571,-3.1013145,0.2660883,-1.0537053,0.22261047,-0.3083992,0.99442077,0.7712171,-0.11256194,0.12333264,0.61428255,0.2238154,0.33691934,-0.2067076,1.0,0.0,0.0,0.0,0.0,0.0,0.0,-1.5392364,0.07660064,-0.8932571,0.3742695,-3.1315088,-8.220583,-3.055358,-3.5834908,-0.3512144,0.536263
-13.135601,-11.358158,-11.687958,14.40897,1.7605253,-1.6640921,-0.41144696,-0.79972,0.6074158,0.002057055,-0.73074967,0.4905031,0.6291196,0.428938,0.9066657,-0.29077005,-1.5787687,-1.3159971,2.5347853,1.51463,-0.98427063,0.97235835,-0.3403894,-1.576371,-1.2559112,2.4934444,1.4563338,-1.0244503,-1.4271691,1.1044607,0.21838002,-1.3052113,0.760363,0.45991772,0.27238458,0.85824585,-0.4739418,1.4319915,-3.098214,0.2658223,-1.1508378,0.22475433,-0.30562973,0.9920306,0.7710767,-0.10996357,0.12678598,0.61422634,0.21386115,0.25216067,-0.25462955,1.0,0.0,0.0,0.0,0.0,0.0,0.0,-1.5082458,0.0739418,-0.88199145,0.3154993,-3.114891,-16.8412,-2.5398254,-4.168904,-0.6211698,0.4048109
-22.874096,-27.330503,-21.679718,15.287964,2.4557705,-2.0059748,-0.7225564,-0.79896224,0.58088523,-0.22170483,-0.7413215,0.4405769,0.62616825,0.41578424,0.89246213,-0.2823009,-1.5985414,-1.3300434,2.537502,1.5189506,-0.9828719,0.9581057,-0.32962623,-1.5762928,-1.2691025,2.500658,1.460898,-1.0217037,-1.4239625,1.0669091,-0.062342387,-1.3245792,0.7072019,0.45442882,0.27480206,0.82728577,-0.47128677,1.4197552,-3.0951164,0.2655565,-1.2478732,0.22665405,-0.30400276,0.9890789,0.77169216,-0.10655207,0.13054104,0.61326736,0.1838398,0.12790199,-0.3131626,1.0,0.0,0.0,0.0,0.0,0.0,0.0,-1.4772857,0.07128677,-0.8697552,0.49390793,-3.77841,-28.021416,-2.1392822,-5.5891037,-0.8539319,0.06106496
-31.598167,-46.071438,-30.568993,15.904229,3.2950652,-2.141551,-0.84547424,-0.79257995,0.48696938,-0.36366317,-0.76173717,0.35163835,0.6260455,0.40597945,0.8788477,-0.2809293,-1.6126591,-1.3452761,2.535822,1.5235026,-0.9811058,0.94392073,-0.31959835,-1.5793102,-1.2825168,2.5071507,1.4654089,-1.0189476,-1.4152895,0.98112154,-0.3819621,-1.3475811,0.62842345,0.44854912,0.27485657,0.7963562,-0.46863365,1.4065495,-3.092022,0.265291,-1.3448116,0.22806549,-0.30387688,0.9854686,0.7732466,-0.10218515,0.13453521,0.6111859,0.12768844,-0.03061265,-0.38074353,1.0,0.0,0.0,0.0,0.0,0.0,0.0,-1.4463562,0.068633646,-0.85654944,1.2843847,-8.658147,-32.090504,-2.4579048,-8.2471485,-0.98468065,-0.24259686
-33.421303,-50.23132,-31.21738,17.363483,3.5142176,-1.8609145,-0.80387974,-0.8000733,0.41864192,-0.43362683,-0.7751066,0.22924699,0.61734074,0.335255,0.8639134,-0.27773416,-1.6226729,-1.3600276,2.5300753,1.527143,-0.9854221,0.9297854,-0.31065622,-1.5851943,-1.2961658,2.5125942,1.4698569,-1.0162506,-1.4112461,0.86491233,-0.6580186,-1.3710237,0.5147772,0.44217423,0.26718736,0.76545715,-0.46598244,1.392375,-3.0889304,0.26502576,-1.441653,0.22883606,-0.30530548,0.98120195,0.77571684,-0.09690512,0.1386874,0.60797894,0.05765568,-0.18522227,-0.4448899,1.0,0.0,0.0,0.0,0.0,0.0,0.0,-1.4154571,0.06598243,-0.842375,0.9195566,-11.727917,-27.845406,-2.4178982,-11.715984,-1.0724545,-1.0458887
-36.935627,-58.836834,-33.937542,18.196379,3.6942706,-1.6450574,-0.7724002,-0.8019171,0.3029143,-0.54957265,-0.7909964,-0.014152091,0.60241115,0.29872653,0.84959364,-0.28036478,-1.6401516,-1.3752655,2.511179,1.530098,-0.98637795,0.91567194,-0.30322757,-1.593579,-1.3100609,2.5163212,1.4742361,-1.0136604,-1.4092114,0.701685,-0.899748,-1.3954005,0.32399037,0.43490022,0.25521415,0.7345886,-0.46333504,1.3772328,-3.0858421,0.2647608,-1.5383977,0.22880936,-0.3082924,0.9762674,0.77902627,-0.09078695,0.14303847,0.60366845,-0.026827496,-0.34067315,-0.51170486,1.0,0.0,0.0,0.0,0.0,0.0,0.0,-1.3845886,0.06333503,-0.8272328,0.8692503,-16.47147,-24.569202,-2.392745,-19.429142,-1.1812925,-1.5389383
-38.232944,-65.60135,-34.03055,19.620497,3.7608047,-1.2078016,-0.5879184,-0.797525,0.13610317,-0.57169515,-0.78966856,-0.32906407,0.60840064,0.33218434,0.83591944,-0.28961727,-1.6507486,-1.3890277,2.483415,1.5350761,-0.980442,0.90159,-0.2979299,-1.6037395,-1.3241237,2.5174198,1.4785563,-1.0111599,-1.405332,0.47183406,-1.0564935,-1.4092273,0.03740405,0.42975873,0.24705833,0.7037506,-0.46068954,1.3611239,-3.0827568,0.2644961,-1.6350455,0.22786331,-0.31275368,0.9706797,0.78296816,-0.08400075,0.14763193,0.59842247,-0.1242438,-0.4838577,-0.5758979,1.0,0.0,0.0,0.0,0.0,0.0,0.0,-1.3537506,0.06068954,-0.8111239,1.1365652,-23.170258,-16.224121,-1.1867762,-28.932774,-0.9063363,-1.2033343
-42.562057,-80.848694,-36.95425,21.60327,4.7509203,-0.76432055,-0.3262817,-0.8025817,-0.11158436,-0.53905004,-0.78572863,-0.44488028,0.62901324,0.34699774,0.8213318,-0.30908835,-1.6576445,-1.4026966,2.4729319,1.5414577,-0.9764601,0.8875233,-0.29569784,-1.6146667,-1.3382305,2.5156689,1.4828497,-1.0087147,-1.4042084,0.13956131,-1.1073073,-1.4098783,-0.2466608,0.42790332,0.2425111,0.6729431,-0.45804596,1.3440493,-3.0796747,0.26423165,-1.7315968,0.22570038,-0.3187065,0.96448857,0.78728145,-0.076717,0.15201904,0.59261507,-0.25507176,-0.6338151,-0.6346993,1.0,0.0,0.0,0.0,0.0,0.0,0.0,-1.3229431,0.058045954,-0.7940493,0.97768307,-33.471462,-5.829954,0.34110546,-28.60555,-0.5544901,-0.78749657
-46.79232,-97.83927,-40.672707,21.894695,5.964446,-0.48010004,-0.0056569427,-0.78542703,-0.40489876,-0.492391,-0.79200673,-0.48025823,0.6392064,0.4017638,0.8089806,-0.33618772,-1.6639059,-1.4174311,2.467643,1.5467703,-0.9685383,0.8735491,-0.29760614,-1.6254318,-1.3523182,2.511526,1.4871374,-1.0062561,-1.3916534,-0.30197003,-1.0695741,-1.4059794,-0.47062582,0.42747256,0.24634597,0.64216614,-0.4554062,1.3260099,-3.0765955,0.26396748,-1.8280516,0.22197723,-0.32629013,0.9577139,0.79171,-0.06902006,0.1553837,0.58676,-0.4210568,-0.7986379,-0.6928093,1.0,0.0,0.0,0.0,0.0,0.0,0.0,-1.2921661,0.055406183,-0.77600986,2.3013115,-44.450275,2.74992,1.0558128,-22.530102,-0.456959,0.21010637
-34.636314,-81.273636,-28.302742,20.307117,5.4434156,0.06464064,0.5067594,-0.7381384,-0.596855,-0.33759075,-0.8027899,-0.48517615,0.640774,0.4875032,0.79973525,-0.35729164,-1.6591909,-1.4325972,2.4630084,1.5512148,-0.95750576,0.8599087,-0.30402246,-1.6348922,-1.3664001,2.5057316,1.4914271,-1.0036774,-1.3518944,-0.7557253,-0.9082121,-1.4066098,-0.615489,0.42835486,0.26219326,0.6114197,-0.45276833,1.3070066,-3.0735197,0.26370355,-1.9244099,0.2167244,-0.33518982,0.95044166,0.7958454,-0.06110783,0.15711232,0.5815596,-0.56856513,-0.9166924,-0.74055535,1.0,0.0,0.0,0.0,0.0,0.0,0.0,-1.2614197,0.05276832,-0.7570066,4.8395395,-45.628834,15.120196,0.66998005,-14.487898,-0.24977326,1.6753435
-10.064673,-37.863445,-4.688066,16.667168,3.2667623,0.55922633,0.9899673,-0.6350228,-0.6843705,-0.20305769,-0.8171707,-0.5152361,0.6098361,0.53165084,0.7964064,-0.37245953,-1.655198,-1.4481171,2.454208,1.5524107,-0.9505123,0.84710085,-0.31429353,-1.6421344,-1.3805717,2.498907,1.4957167,-1.0008984,-1.255869,-1.1180077,-0.6653476,-1.4190933,-0.70411813,0.42866156,0.2842791,0.58070755,-0.45013237,1.2870405,-3.0704467,0.26343992,-2.0206718,0.21053696,-0.34464264,0.94280285,0.79921496,-0.0532658,0.15716647,0.5776823,-0.64375407,-0.9487351,-0.77444184,1.0,0.0,0.0,0.0,0.0,0.0,0.0,-1.2307075,0.050132364,-0.73704046,9.971619,-36.35789,23.584223,-0.7357836,-8.728719,-0.064873695,2.5042653
3.7275424,-5.759502,8.197448,14.257554,1.6909118,0.533824,0.9669176,-0.5537184,-0.733672,-0.25057283,-0.82153696,-0.5019797,0.5747877,0.5259104,0.79172903,-0.38766074,-1.6671917,-1.4627254,2.448709,1.5531955,-0.94830734,0.8355299,-0.32723156,-1.6474979,-1.3949016,2.4915829,1.4999872,-0.9979143,-1.1239376,-1.3526121,-0.49458256,-1.4366682,-0.74151474,0.4265861,0.30413276,0.55002975,-0.44750023,1.2661124,-3.067377,0.26317653,-2.1168373,0.20398712,-0.35412025,0.93487096,0.80170846,-0.045582116,0.15589386,0.57522416,-0.665806,-0.9383014,-0.80299485,1.0,0.0,0.0,0.0,0.0,0.0,0.0,-1.2000297,0.047500223,-0.71611243,13.23998,-23.521255,16.704638,-1.4617443,-3.6298513,-0.18796921,2.294457
9.963001,15.588464,13.981474,13.573738,0.73805654,0.33182898,0.7141103,-0.4709276,-0.75717056,-0.33134106,-0.81325394,-0.47601148,0.5720036,0.5094911,0.7884372,-0.40294862,-1.680632,-1.476227,2.4439816,1.5571876,-0.9469652,0.82543814,-0.3416125,-1.6521003,-1.4093517,2.4841747,1.5042387,-0.9947691,-0.97137725,-1.4666674,-0.44904733,-1.4472704,-0.74050516,0.42481935,0.31868407,0.5193825,-0.44487,1.2442235,-3.0643103,0.2629134,-2.2129066,0.19743729,-0.36337852,0.9266788,0.8034899,-0.038003746,0.15375347,0.5738636,-0.6562088,-0.91191757,-0.82854974,1.0,0.0,0.0,0.0,0.0,0.0,0.0,-1.1693825,0.04486999,-0.69422346,15.106225,-11.436057,4.473412,-0.8989811,0.13478994,-0.09769201,1.6901553
10.166133,25.151669,13.966111,13.500015,0.32919857,0.040140867,0.40054137,-0.3962653,-0.7712524,-0.42418858,-0.80913436,-0.4753997,0.5641283,0.49650812,0.7858116,-0.41873774,-1.6945192,-1.4902651,2.4366348,1.5606515,-0.9451183,0.8168942,-0.35649982,-1.6571681,-1.4238495,2.4768772,1.5084673,-0.99151516,-0.8160801,-1.4961886,-0.52552265,-1.4501995,-0.7261866,0.42235532,0.327986,0.48876572,-0.44224167,1.2213746,-3.0612466,0.26265055,-2.3088799,0.19106674,-0.3724079,0.918214,0.8048185,-0.030390888,0.1511739,0.5731405,-0.6343239,-0.88921475,-0.8565639,1.0,0.0,0.0,0.0,0.0,0.0,0.0,-1.1387657,0.042241663,-0.6713746,15.317607,-2.9844046,-7.5490417,-0.17607212,1.3768315,-0.18439293,1.0662019
11.4840975,32.027264,14.921791,13.108353,-0.06590435,-0.12169582,0.24437857,-0.31062967,-0.77422094,-0.47699973,-0.8089274,-0.50098544,0.55996114,0.48377582,0.7858312,-0.43392193,-1.7048681,-1.5047421,2.4267786,1.5644634,-0.9431376,0.8099152,-0.37131754,-1.6634414,-1.4383453,2.4696636,1.5126692,-0.98819923,-0.65936273,-1.4770436,-0.6607287,-1.4491938,-0.7201383,0.41960844,0.33304557,0.45817947,-0.43961716,1.1975666,-3.058186,0.26238793,-2.4047573,0.18499756,-0.38119507,0.9094576,0.80585325,-0.022638813,0.14848667,0.5727476,-0.60069865,-0.8653904,-0.8864134,1.0,0.0,0.0,0.0,0.0,0.0,0.0,-1.1081795,0.03961715,-0.6475666,15.427626,1.8838882,-13.331234,0.1774311,0.513196,-0.2256751,0.57616234
9.98191,31.859226,13.774328,13.584295,-0.09205505,-0.15965629,0.14124455,-0.25000566,-0.78774786,-0.5252276,-0.8008165,-0.5447374,0.55729055,0.46528065,0.7849146,-0.45009232,-1.7159642,-1.518427,2.41519,1.5683982,-0.9416712,0.8043848,-0.38587442,-1.6711738,-1.4527801,2.4623547,1.5168425,-0.98485947,-0.51829,-1.4487629,-0.8100895,-1.4413776,-0.73492455,0.41655007,0.33431664,0.42762375,-0.43699646,1.1728007,-3.0551283,0.2621256,-2.5005388,0.17923355,-0.38977242,0.9003997,0.8066842,-0.014703807,0.14588706,0.5725045,-0.56842536,-0.8451206,-0.9169953,1.0,0.0,0.0,0.0,0.0,0.0,0.0,-1.0776237,0.036996454,-0.62280065,13.928186,2.7840853,-14.777827,0.8659601,-1.5935421,-0.29323697,0.15938878
3.0940971,26.010748,9.22228,15.314252,0.33267602,-0.06663138,-0.028866775,-0.26558003,-0.790736,-0.5747302,-0.8034489,-0.5723894,0.55757684,0.43161082,0.77782685,-0.46494803,-1.7286469,-1.533125,2.4051156,1.5726001,-0.9416984,0.7997929,-0.40018287,-1.6803253,-1.4671463,2.454794,1.5209833,-0.98154163,-0.4393112,-1.4251639,-0.95008904,-1.4345012,-0.76373684,0.41330016,0.33100352,0.39709854,-0.43437767,1.1470776,-3.052074,0.26186353,-2.5962245,0.17364502,-0.39821815,0.891024,0.80744636,-0.006538969,0.14344941,0.5721974,-0.55653805,-0.83488667,-0.9493512,1.0,0.0,0.0,0.0,0.0,0.0,0.0,-1.0470985,0.034377664,-0.59707755,7.9612074,2.2783518,-14.031935,0.84946156,-3.0580044,-0.37184358,-0.33146143
-4.0711555,21.684776,6.0808554,18.231005,0.8636944,0.2734977,-0.14956541,-0.31702575,-0.79027724,-0.57532924,-0.80028784,-0.5784491,0.5687784,0.42102554,0.7680903,-0.47921062,-1.7378582,-1.547175,2.396949,1.5778612,-0.93943906,0.79538214,-0.41432348,-1.6905067,-1.4814419,2.4469433,1.5251051,-0.97826767,-0.4405101,-1.4107738,-1.0416311,-1.4270004,-0.7928414,0.41144484,0.32619864,0.36660385,-0.4317608,1.1203983,-3.0490224,0.26160172,-2.6918147,0.16798401,-0.40657616,0.8813654,0.8082595,0.0018299329,0.14113739,0.57165843,-0.5700161,-0.8267031,-0.9764699,1.0,0.0,0.0,0.0,0.0,0.0,0.0,-1.0166038,0.031760782,-0.5703983,0.2119124,1.3210773,-9.411216,0.9905577,-3.1420827,-0.24547577,-0.49045086
-11.49784,15.799356,2.093367,20.205357,1.509696,0.5034389,-0.2556211,-0.36785987,-0.7998563,-0.6029564,-0.80590475,-0.5454201,0.5390144,0.3781257,0.7585962,-0.49430913,-1.7508023,-1.5620323,2.3924012,1.5790066,-0.9404551,0.790485,-0.42843214,-1.701369,-1.4957012,2.4389553,1.5291868,-0.97507095,-0.5043576,-1.4114425,-1.1023929,-1.4245288,-0.8022057,0.40669993,0.31751275,0.33613968,-0.42914772,1.0927639,-3.045974,0.26134017,-2.7873092,0.16197968,-0.41491127,0.871445,0.80924,0.010406177,0.13878907,0.5707537,-0.6103762,-0.82620573,-1.0025573,1.0,0.0,0.0,0.0,0.0,0.0,0.0,-0.98613966,0.029147714,-0.5427639,-5.8559237,-0.22222996,-6.496191,0.5762577,-1.2209654,-0.5717397,-0.8701086
-18.646036,11.926186,-1.1358726,22.532475,2.0587387,0.8007967,-0.36880103,-0.4510458,-0.80297655,-0.6207834,-0.8014881,-0.5389954,0.5397456,0.36277625,0.74538046,-0.5087298,-1.7634474,-1.57585,2.3850558,1.5831614,-0.9387933,0.78452075,-0.44260803,-1.7126567,-1.50993,2.4309483,1.5332228,-0.97196674,-0.6248312,-1.4202967,-1.139582,-1.4209329,-0.8013987,0.4020737,0.3079689,0.30570602,-0.42653656,1.0641752,-3.0429287,0.26107886,-2.882708,0.15539551,-0.42326736,0.8612866,0.8104984,0.019179206,0.13627176,0.5693456,-0.67577726,-0.828836,-1.0256007,1.0,0.0,0.0,0.0,0.0,0.0,0.0,-0.955706,0.026536554,-0.51417524,-11.347747,-1.0765553,-4.2730093,0.7721424,-0.25564432,-0.58291554,-0.95312595
-22.75913,11.303823,-2.2824974,23.561924,2.3434956,1.0489305,-0.41722804,-0.5347888,-0.8045236,-0.6276009,-0.8070389,-0.5165564,0.5225499,0.34480053,0.73104185,-0.5230604,-1.7754169,-1.5906339,2.3792927,1.5854778,-0.9374867,0.77709067,-0.4568893,-1.7241752,-1.524155,2.4230442,1.5372015,-0.96896267,-0.7797029,-1.431469,-1.1579666,-1.4215355,-0.78810567,0.3960888,0.29789492,0.2753029,-0.4239273,1.0346333,-3.0398862,0.26081786,-2.9780116,0.14804077,-0.43164253,0.8509107,0.81210077,0.028138487,0.13347787,0.56734836,-0.75583977,-0.82936156,-1.046866,1.0,0.0,0.0,0.0,0.0,0.0,0.0,-0.92530286,0.023927301,-0.48463327,-14.695847,-1.3314486,-2.469778,0.4061699,0.95967054,-0.73986053,-0.9928167
-22.44192,14.267037,-0.4565823,23.751781,2.3643293,1.2600769,-0.39157173,-0.59322506,-0.81011844,-0.6233863,-0.8016034,-0.47542638,0.5040041,0.27924252,0.7177682,-0.53790116,-1.7865138,-1.6043154,2.3755016,1.5876019,-0.9410384,0.76811755,-0.47129074,-1.7357433,-1.5383686,2.4153996,1.5411135,-0.96609783,-0.93407,-1.443795,-1.1586435,-1.4198009,-0.7577149,0.38898066,0.28293863,0.24493027,-0.42132187,1.0041391,-3.036847,0.2605571,-3.0732198,0.13988113,-0.4399662,0.8403579,0.8140412,0.037228584,0.1302967,0.56477743,-0.83760005,-0.82213426,-1.0633273,1.0,0.0,0.0,0.0,0.0,0.0,0.0,-0.89493024,0.021321863,-0.45413905,-14.677978,-1.4475822,-0.6807804,0.64070225,2.6812434,-0.84432364,-1.4493108
-21.529663,17.624207,1.347003,23.488787,2.3595343,1.3955672,-0.39562154,-0.6584799,-0.8102526,-0.63158387,-0.79952663,-0.40535665,0.48675278,0.13895129,0.70226955,-0.552316,-1.7989017,-1.6183213,2.3748639,1.5897888,-0.9522027,0.7576767,-0.4857885,-1.7472942,-1.5525573,2.4082508,1.5449473,-0.9634743,-1.078495,-1.4524838,-1.1558995,-1.4170053,-0.70201,0.38093975,0.25571457,0.21458817,-0.41871834,0.97269344,-3.0338109,0.26029658,-3.168333,0.13090897,-0.44818687,0.8296639,0.8163216,0.046400294,0.12660392,0.5616382,-0.9187245,-0.8091829,-1.0765244,1.0,0.0,0.0,0.0,0.0,0.0,0.0,-0.86458814,0.018718332,-0.42269343,-13.741612,-1.0804176,-0.29222965,0.7363796,5.230987,-0.93943477,-2.646041
-19.813267,21.453526,3.7170715,23.171326,2.4610972,1.5375147,-0.4064402,-0.7209628,-0.8111802,-0.6225475,-0.79861915,-0.24475564,0.49108186,-0.10845716,0.68558043,-0.5669065,-1.809549,-1.6324192,2.3837752,1.5940554,-0.97432,0.7458998,-0.5003458,-1.7587593,-1.5667194,2.4020863,1.5487105,-0.96129036,-1.2087244,-1.4574652,-1.1451446,-1.4143014,-0.5889931,0.37426195,0.20629065,0.18427277,-0.4161167,0.9402974,-3.0307777,0.26003635,-3.2633512,0.12112808,-0.45624924,0.818874,0.81896853,0.055585016,0.122166865,0.5579211,-0.9999828,-0.79151064,-1.0845577,1.0,0.0,0.0,0.0,0.0,0.0,0.0,-0.83427274,0.016116709,-0.3902974,-12.3981,-0.7014513,0.57148933,0.70118904,10.99757,-0.80441236,-4.8130093
-17.603065,24.493027,5.5975275,22.858814,2.7597332,1.5648935,-0.41759905,-0.75117713,-0.8093822,-0.64248765,-0.7867262,0.022016171,0.4943394,-0.33038464,0.6707821,-0.58128405,-1.8230081,-1.6453921,2.4042878,1.5981444,-0.9943288,0.7330576,-0.51491797,-1.7702091,-1.5808052,2.397749,1.5524164,-0.95973873,-1.3076239,-1.4578301,-1.1463072,-1.4054036,-0.3826827,0.36874774,0.13879108,0.15398407,-0.4135189,0.90695196,-3.0277476,0.25977635,-3.3582742,0.110515594,-0.46416092,0.8080402,0.8220315,0.06471409,0.11659426,0.55360824,-1.0837582,-0.7761948,-1.0877299,1.0,0.0,0.0,0.0,0.0,0.0,0.0,-0.80398405,0.0135189,-0.35695195,-9.38077,-0.22759438,-0.5056143,1.283288,20.377338,-0.71433187,-6.553298
-11.266303,34.9767,12.738992,23.627792,2.579519,1.906207,-0.31218457,-0.7864831,-0.7848923,-0.5800234,-0.75911856,0.24682868,0.572775,-0.37321803,0.6544093,-0.5934072,-1.8282114,-1.6567171,2.4224317,1.609694,-0.99706054,0.7194048,-0.5293623,-1.7813938,-1.594685,2.3959484,1.5561377,-0.95884514,-1.3832239,-1.4404358,-1.1101139,-1.3813797,-0.11300185,0.37293705,0.073577456,0.12372589,-0.410923,0.87265795,-3.0247204,0.25951663,-3.4531024,0.099170685,-0.47180176,0.79732215,0.8254586,0.073561974,0.10961553,0.5488088,-1.154978,-0.7444574,-1.0711777,1.0,0.0,0.0,0.0,0.0,0.0,0.0,-0.77372587,0.010922998,-0.32265794,-7.190585,1.5851259,3.3622265,2.6761293,26.820314,0.34288168,-6.2904997
-5.2536335,42.569725,17.788363,22.428614,1.5478001,2.0129137,-0.24999693,-0.8018193,-0.76845556,-0.56671166,-0.73890275,0.110768676,0.6056039,-0.39527592,0.63922286,-0.60620785,-1.8380649,-1.6685753,2.4070253,1.616698,-0.99837273,0.7051989,-0.5435492,-1.7921531,-1.6082557,2.3960552,1.5599352,-0.95855904,-1.4323182,-1.41186,-1.0651989,-1.348307,0.051934112,0.38225976,0.014169904,0.09349823,-0.408329,0.83741635,-3.0216963,0.25925717,-3.5478358,0.08733368,-0.47899055,0.78680134,0.8291163,0.08196698,0.10162822,0.5436167,-1.1957138,-0.69380754,-1.0501728,1.0,0.0,0.0,0.0,0.0,0.0,0.0,-0.7434982,0.008329004,-0.28741634,-4.6592236,2.7421474,4.328513,3.4890413,16.43691,0.96186996,-5.799875
-2.7782893,41.718296,17.127914,18.95165,0.44784307,1.7301503,-0.24650036,-0.79924023,-0.7711844,-0.6198888,-0.7378114,-0.14161491,0.60652983,-0.42870262,0.62527484,-0.62066764,-1.854142,-1.6820369,2.3818936,1.6205882,-1.0014293,0.6908355,-0.5574708,-1.8032504,-1.6217808,2.3962474,1.5658815,-0.95854276,-1.4122953,-1.3811913,-1.2223498,-1.4022883,-0.06565297,1.0491881,0.026777862,0.06858063,-0.40725136,0.81537074,-1.425471,-0.11531722,1.2309649,0.075149536,-0.48540115,0.7762219,0.832818,0.08924362,0.09358175,0.5382306,-1.2513316,-0.56397945,-1.0947922,0.0,1.0,0.0,0.0,0.0,0.0,0.0,-0.7185806,0.007251352,-0.26537073,6.166053,3.7784576,-31.832813,-13.269162,-22.865114,132.49634,8.011673
81.9251,176.0,110.0,108.39955,-5.85179,10.751846,-0.8315512,-0.8057457,0.45330945,0.654318,0.74376667,-0.2475031,0.6612597,-0.49141863,0.6102609,-0.51213986,-1.7378186,-1.547404,2.3714972,1.6320075,-1.0076846,0.6830964,-0.56936026,-1.8168117,-1.6243919,2.3866382,1.5850046,-0.9573869,-0.56794596,-1.1241206,-1.3904778,0.11439815,-1.2546054,2.2098217,0.1393948,0.054336548,-0.4084034,0.8269347,-1.4240458,-0.11520193,1.1315482,0.06416702,-0.4887085,0.76943874,0.8363524,0.08619754,0.09228524,0.5334491,-1.0480198,-0.23773427,-0.5416372,1.0,0.0,0.0,0.0,0.0,0.0,0.0,-0.7043365,0.008403391,-0.27693468,82.379234,25.92857,-13.761592,150.21379,-117.416504,119.01555,9.514759
-0.5951927,124.74193,63.885742,101.227196,2.0673702,6.2155704,-1.4188695,-0.8274717,-0.46615404,-0.0640194,0.77532524,-0.6127948,0.5582851,-0.2199459,0.60034925,-0.6159757,-1.8232136,-1.5468594,2.3253586,1.6408331,-0.9793815,0.6773257,-0.5791526,-1.8280765,-1.6160625,2.372188,1.6069906,-0.9561767,-0.57881516,-0.9322717,-1.0368601,1.0726655,-1.5102206,2.2010734,0.11348795,0.040103912,-0.40955544,0.8375052,-1.4226221,-0.11508675,1.0322309,0.053619385,-0.49024963,0.76733047,0.8405071,0.076774284,0.09528156,0.5278019,-1.0556573,-0.117105074,-0.105625935,1.0,0.0,0.0,0.0,0.0,0.0,0.0,-0.6901039,0.009555429,-0.2875052,-0.727725,18.779636,35.875725,95.86063,-26.084255,1.0158062,-3.0157433
-26.74669,111.73937,40.079784,80.31247,2.931152,4.0858107,-1.566237,-0.80639696,-0.16647546,-0.426258,0.7477949,-0.64678335,0.5995524,0.2631351,0.596686,-0.5958001,-1.8707023,-1.541283,2.3075097,1.6669458,-0.9298632,0.6698346,-0.5861583,-1.8369056,-1.6011337,2.3571353,1.6274984,-0.9549741,-0.8028193,-0.6248164,-0.8332638,1.6337621,-1.5049073,2.004799,0.12144077,0.025886536,-0.41070557,0.84708333,-1.4211998,-0.11497168,0.93301284,0.042621613,-0.49085808,0.76853955,0.8455574,0.06490405,0.10049089,0.52030915,-1.1118218,-0.034658857,0.18902755,1.0,0.0,0.0,0.0,0.0,0.0,0.0,-0.6758865,0.01070556,-0.29708332,-21.485626,30.282951,19.887268,56.349827,0.004696846,-18.439293,0.49939603
-43.642296,66.25767,11.867949,52.964314,3.6167142,2.1032686,-1.2940872,-0.8071935,-0.22571747,-0.4903927,0.793099,-0.6488301,0.56464547,0.12841369,0.58911526,-0.60873,-1.8859448,-1.5218238,2.2922523,1.683963,-0.9421328,0.65957594,-0.59091043,-1.8446113,-1.5832523,2.3431659,1.645683,-0.9537868,-1.097754,-0.42649022,-0.7518231,1.8405102,-1.3620473,1.7582477,0.11745402,0.011684418,-0.4118538,0.85567,-1.419779,-0.114856735,0.833894,0.030750275,-0.4910183,0.7714112,0.8513981,0.052894823,0.10661134,0.51083976,-1.2113746,-0.0022344112,0.3123836,1.0,0.0,0.0,0.0,0.0,0.0,0.0,-0.6616844,0.011853784,-0.30566996,-28.732418,19.500404,7.500553,20.943283,14.032769,-24.132729,-0.4881531
-41.075176,35.207687,-2.589095,29.10851,2.8559299,0.64776635,-0.8270414,-0.81424975,-0.23424202,-0.53199035,0.7903333,-0.67409647,0.6131895,0.06927751,0.578151,-0.61433464,-1.8978103,-1.5042189,2.2757561,1.707002,-0.94685906,0.64677,-0.59444475,-1.8523265,-1.5650543,2.3306804,1.6615789,-0.9526815,-1.3401618,-0.3296858,-0.7795336,1.8134786,-1.2110584,1.5338224,0.1079832,-0.0025024414,-0.413002,0.8632662,-1.4183595,-0.11474191,0.7348743,0.017959595,-0.49107933,0.77456594,0.8577459,0.042136934,0.11280035,0.49977246,-1.2998253,0.0027407755,0.3100984,1.0,0.0,0.0,0.0,0.0,0.0,0.0,-0.64749753,0.013002008,-0.31326622,-23.808075,9.482884,-3.2060146,-2.5408268,14.978933,-22.265316,-1.0235264
-29.667059,18.340029,-6.12978,14.151146,1.9125048,-0.21467423,-0.36013713,-0.81439483,-0.24849975,-0.5405614,0.79212934,-0.66243726,0.6084513,0.03699438,0.5653305,-0.6192947,-1.9063827,-1.4858414,2.2644367,1.722424,-0.94898206,0.6322541,-0.59766436,-1.8606426,-1.5478977,2.319511,1.6754625,-0.95169157,-1.4881041,-0.3197504,-0.8495939,1.6835053,-1.0860851,1.3402239,0.09579787,-0.016674042,-0.41414833,0.86987305,-1.4169415,-0.11462718,0.63595355,0.004501343,-0.49121857,0.77720827,0.864286,0.03320438,0.118617445,0.48768526,-1.3595744,-0.0074246256,0.24388786,1.0,0.0,0.0,0.0,0.0,0.0,0.0,-0.63332593,0.014148325,-0.31987303,-14.593029,0.8883059,-7.209146,-12.907457,12.342763,-19.311546,-1.2773424
-19.574627,8.380972,-5.977037,7.469592,1.4087799,-0.61339474,-0.06188006,-0.8160627,-0.2981725,-0.5514381,0.79462105,-0.6427424,0.6078781,-0.030501815,0.55064785,-0.6274816,-1.9157864,-1.4684356,2.2552366,1.7362503,-0.9547418,0.6169143,-0.60133505,-1.8697006,-1.5321106,2.3093371,1.6876504,-0.9508628,-1.5488726,-0.38290054,-0.92480624,1.5440611,-0.9950961,1.1783532,0.07852342,-0.030830383,-0.41529274,0.8754914,-1.415525,-0.11451258,0.5371317,-0.009414673,-0.491539,0.77900857,0.8708046,0.026099417,0.12380815,0.47506794,-1.4006867,-0.027727492,0.15470552,1.0,0.0,0.0,0.0,0.0,0.0,0.0,-0.6191696,0.015292734,-0.32549137,-5.9700727,-6.3612995,-7.5936437,-13.849831,8.914685,-16.1721,-1.7405778
-16.436321,-1.4067812,-7.734649,6.1517615,1.4778968,-0.7784269,0.04533223,-0.8217436,-0.38117835,-0.594638,0.79488343,-0.643848,0.58586156,-0.039196692,0.5347399,-0.6394529,-1.9291644,-1.4526222,2.2449524,1.7462366,-0.9547825,0.60139036,-0.60610723,-1.8795558,-1.5174392,2.2997966,1.6984136,-0.9501981,-1.5531657,-0.50861573,-1.0057982,1.4420815,-0.94095534,1.0423057,0.06261797,-0.04497528,-0.41643715,0.8801222,-1.4141098,-0.11439809,0.43840876,-0.023765564,-0.49214745,0.7798552,0.8772234,0.020612897,0.12822549,0.46218234,-1.4449652,-0.058483344,0.05800115,1.0,0.0,0.0,0.0,0.0,0.0,0.0,-0.6050247,0.016437143,-0.33012217,-0.30519962,-12.584793,-8.15233,-10.019159,5.276704,-13.611388,-1.5427098
-10.064217,7.0879345,-1.3772477,8.49877,1.1807098,-0.49263102,0.10128994,-0.81740767,-0.39934704,-0.57989764,0.7947851,-0.64107174,0.5970268,-0.09015032,0.5196496,-0.6460419,-1.9375455,-1.4379607,2.2356894,1.7581162,-0.95921314,0.5860572,-0.61210394,-1.8899528,-1.5034279,2.2905917,1.7080057,-0.94971365,-1.5264208,-0.6301396,-1.0507923,1.3879943,-0.9140305,0.9315346,0.04378602,-0.059108734,-0.41758156,0.88375854,-1.412696,-0.11428372,0.33871928,-0.038433075,-0.4929657,0.779908,0.8834878,0.016354056,0.131966,0.4491844,-1.4732203,-0.07567169,-0.015587735,1.0,0.0,0.0,0.0,0.0,0.0,0.0,-0.59089124,0.017581552,-0.33375853,2.7470827,-12.189889,-4.470563,-5.2284718,2.5133133,-11.047745,-1.8439114
-5.655926,20.275923,5.5510707,12.002853,0.90701294,-0.09888768,0.0823805,-0.8150839,-0.4055752,-0.57296556,0.79837155,-0.6350814,0.60247403,-0.14100581,0.5045488,-0.65266144,-1.9472493,-1.4235907,2.2270837,1.7682531,-0.96381426,0.57104826,-0.6190572,-1.9005538,-1.4896511,2.2815394,1.716644,-0.9494409,-1.49224,-0.7174103,-1.0628507,1.3748605,-0.9029593,0.84169865,0.021756256,-0.07322693,-0.41872215,0.8863988,-1.4112835,-0.114169456,0.23912945,-0.05325699,-0.49381828,0.7794455,0.8895686,0.012926424,0.13526544,0.43612367,-1.4854206,-0.074530385,-0.05992482,1.0,0.0,0.0,0.0,0.0,0.0,0.0,-0.57677305,0.018722147,-0.33639878,3.4446,-8.805502,-1.1065006,-1.1678696,0.8783579,-8.914316,-2.2035544
-2.7465532,31.828213,11.136858,14.677348,0.7011074,0.24763751,0.0616773,-0.811284,-0.42203513,-0.55340594,0.79734725,-0.6291889,0.610968,-0.20473132,0.48991984,-0.66126066,-1.9558945,-1.4099164,2.2186205,1.7777408,-0.969914,0.55634737,-0.62664175,-1.9110385,-1.47584,2.2725444,1.7245157,-0.9494199,-1.4627007,-0.7724532,-1.0431854,1.3837637,-0.89943403,0.76946646,-0.0044985637,-0.087329865,-0.41986275,0.8880439,-1.4098724,-0.11405531,0.1396392,-0.06811142,-0.49453354,0.7787139,0.8954475,0.010015096,0.13833833,0.42300805,-1.4844729,-0.05731456,-0.08120029,1.0,0.0,0.0,0.0,0.0,0.0,0.0,-0.5626701,0.019862741,-0.33804387,2.9462337,-5.617273,2.1204472,0.99351406,0.07482767,-7.1209908,-2.6628888
1.5835471,43.295624,16.887976,15.865082,0.38395578,0.50707567,0.111399464,-0.79551226,-0.42395812,-0.51613384,0.7916694,-0.62182236,0.62453747,-0.19318996,0.47679615,-0.6690376,-1.9626518,-1.3966731,2.2103622,1.7869694,-0.9687389,0.5419278,-0.6345353,-1.921096,-1.4619068,2.2635684,1.731777,-0.9496326,-1.4352031,-0.79544854,-0.99245095,1.3966469,-0.89782953,0.7123331,-0.027022261,-0.10141754,-0.42100334,0.88869476,-1.4084628,-0.11394128,0.040248435,-0.08281708,-0.49497414,0.777906,0.9010762,0.0073886006,0.14135517,0.40990952,-1.4654807,-0.026441652,-0.08442354,1.0,0.0,0.0,0.0,0.0,0.0,0.0,-0.54858243,0.021003336,-0.33869475,2.6869774,-2.435708,5.2909374,1.3231277,-0.17610788,-5.5738688,-2.328028
-2.0134256,38.819164,13.555864,15.753515,0.6021395,0.43722302,0.08405012,-0.7890692,-0.47353292,-0.5448297,0.7911327,-0.62963617,0.6204505,-0.12679026,0.4630209,-0.6818886,-1.9755789,-1.3827935,2.2006047,1.793822,-0.9623116,0.52773523,-0.6427245,-1.9308139,-1.4478534,2.2545772,1.7385442,-0.9499931,-1.4139911,-0.8272633,-0.96424985,1.4084767,-0.90040636,0.6652516,-0.03922262,-0.11548996,-0.42214203,0.8883525,-1.4070545,-0.11382736,-0.05904296,-0.09741974,-0.4951458,0.7770023,0.90646183,0.0050304024,0.14433405,0.39682403,-1.4580739,-0.0006424158,-0.09619667,1.0,0.0,0.0,0.0,0.0,0.0,0.0,-0.53451,0.022142023,-0.3383525,2.1052837,-3.3111215,2.985561,1.2661457,-0.53943396,-4.5969725,-1.2786157
-2.3660173,41.98023,14.207265,16.13968,0.57189703,0.50652516,0.06913846,-0.7838385,-0.46898407,-0.5246126,0.79275054,-0.6292306,0.6250576,-0.14346911,0.44935137,-0.68962294,-1.9832752,-1.3685784,2.1916542,1.80105,-0.96434,0.5137048,-0.6511302,-1.9402667,-1.4337066,2.2455592,1.744909,-0.9504642,-1.3993399,-0.8455052,-0.9384009,1.4169694,-0.9033843,0.62717646,-0.049960095,-0.12954712,-0.4232788,0.8870181,-1.4056478,-0.11371356,-0.1582351,-0.11193848,-0.49502373,0.77600074,0.9116151,0.002932596,0.14731333,0.3837292,-1.4486125,0.028882213,-0.105352975,1.0,0.0,0.0,0.0,0.0,0.0,0.0,-0.52045286,0.023278803,-0.33701807,1.4508724,-1.9625187,2.747357,0.9248495,-0.58249235,-3.6973238,-1.1454537
-2.8546708,38.30493,12.637453,15.037804,0.6216575,0.442636,0.09052174,-0.76728386,-0.5118155,-0.5079605,0.79233205,-0.64407814,0.6512123,-0.15807952,0.43697637,-0.70231175,-1.9910628,-1.3544735,2.1811514,1.8100302,-0.9662721,0.49984026,-0.65984106,-1.9494716,-1.4195064,2.2364688,1.750963,-0.95103735,-1.3822289,-0.88004214,-0.91410667,1.4212245,-0.9116387,0.59851974,-0.059879582,-0.14359283,-0.4244156,0.8846925,-1.4042424,-0.11359987,-0.25732806,-0.12638092,-0.494627,0.7748504,0.9165352,0.0010799004,0.15026398,0.37065172,-1.442643,0.054936875,-0.12222237,1.0,0.0,0.0,0.0,0.0,0.0,0.0,-0.50640714,0.024415582,-0.33469248,1.7025948,-3.5794735,2.5841951,0.5240917,-1.0867357,-2.767682,-1.041969
-2.3631563,32.77288,10.739217,12.879185,0.64025795,0.30149555,0.1416947,-0.7451968,-0.562007,-0.49483404,0.78239405,-0.64632255,0.6591602,-0.16250454,0.42532057,-0.71604174,-1.998955,-1.341267,2.1718366,1.816879,-0.9672878,0.486207,-0.6690755,-1.9584419,-1.4053329,2.2272944,1.7567785,-0.95170015,-1.3570414,-0.9381668,-0.8909169,1.4162151,-0.91977024,0.5761364,-0.06838094,-0.1576271,-0.42555046,0.88137674,-1.4028385,-0.11348629,-0.35632196,-0.14080429,-0.49402618,0.77344096,0.92121905,-0.0005219963,0.15307066,0.35766527,-1.4397622,0.074556194,-0.1511813,1.0,0.0,0.0,0.0,0.0,0.0,0.0,-0.49237287,0.025550455,-0.33137673,2.5048733,-5.9179544,2.4712086,-0.38063526,-1.0471702,-2.1567822,-0.8679062
-5.8501077,27.255297,6.9333696,12.018432,0.7557053,0.16609496,0.110987045,-0.74103457,-0.5920506,-0.53208226,0.77764344,-0.6685716,0.6517317,-0.11361279,0.41210353,-0.72828054,-2.01165,-1.3275685,2.1604373,1.8219516,-0.96306145,0.4728036,-0.6789508,-1.9674236,-1.3912452,2.2179904,1.7623956,-0.9523992,-1.3346606,-1.0043099,-0.9002596,1.4068834,-0.93422645,0.5571036,-0.07043588,-0.17164612,-0.42668343,0.8770718,-1.401436,-0.11337283,-0.45521688,-0.15526581,-0.49326134,0.7716437,0.92569137,-0.001765728,0.15569155,0.3447497,-1.4476271,0.08858759,-0.193261,1.0,0.0,0.0,0.0,0.0,0.0,0.0,-0.47835386,0.02668342,-0.3270718,2.2641182,-6.7123055,-0.83891153,-0.7613659,-1.6244769,-1.84865,-0.20855516
-2.104133,29.146961,8.634188,10.868881,0.5765943,0.12058312,0.16406092,-0.7021203,-0.6215215,-0.5120423,0.77921027,-0.6711946,0.6727539,-0.12779567,0.40259156,-0.74110293,-2.018628,-1.3133242,2.150871,1.829671,-0.9651788,0.4597435,-0.6894889,-1.9764644,-1.3772377,2.2085528,1.767864,-0.9531202,-1.2965006,-1.0705159,-0.9048412,1.3992329,-0.94752204,0.54351294,-0.072661206,-0.18564987,-0.4278164,0.8717786,-1.4000349,-0.11325948,-0.55401295,-0.1697464,-0.4923706,0.7694291,0.92994344,-0.002664166,0.15811746,0.33195916,-1.4465661,0.10139377,-0.23503228,1.0,0.0,0.0,0.0,0.0,0.0,0.0,-0.4643501,0.027816385,-0.3217786,3.797245,-6.715584,-0.31774044,-0.616622,-1.5220284,-1.3056755,-0.2248317
-5.772127,17.239388,2.400682,8.211738,0.75066555,-0.1849078,0.1473228,-0.6799329,-0.69972986,-0.58845216,0.75682306,-0.6643189,0.6593181,-0.0780517,0.39175022,-0.7594619,-2.0353096,-1.3015554,2.1421208,1.8337958,-0.96092534,0.44711065,-0.7008853,-1.9859096,-1.3633846,2.1990352,1.7732027,-0.95382017,-1.2521399,-1.1629499,-0.9574963,1.3813981,-0.9535119,0.53076345,-0.06899573,-0.19963837,-0.42894936,0.8654982,-1.3986351,-0.113146245,-0.65271026,-0.18434906,-0.49144173,0.76661044,0.9340106,-0.0030708667,0.16022348,0.31928533,-1.4631577,0.101525225,-0.30206758,1.0,0.0,0.0,0.0,0.0,0.0,0.0,-0.4503616,0.02894935,-0.31549817,4.455042,-9.316421,-5.196619,-1.5547991,-0.6984472,-1.2819886,0.40743798
-3.8961048,18.841984,3.0380766,7.400159,0.5877279,-0.23433256,0.1778669,-0.64474505,-0.7258178,-0.61148334,0.7550684,-0.6780607,0.6659249,-0.028278003,0.38263613,-0.77346706,-2.0470579,-1.2878778,2.1312292,1.8397951,-0.956648,0.4349947,-0.71315527,-1.9959728,-1.3496975,2.189445,1.7784345,-0.9544439,-1.198054,-1.2485476,-1.0222758,1.365253,-0.9612621,0.5206352,-0.060140178,-0.2136116,-0.4300785,0.8582286,-1.3972367,-0.11303312,-0.75170255,-0.19908142,-0.49051666,0.76310796,0.9378972,-0.002909565,0.16200031,0.30675113,-1.4743633,0.10066534,-0.37119287,1.0,0.0,0.0,0.0,0.0,0.0,0.0,-0.43638837,0.0300785,-0.3082286,5.4025173,-8.63862,-6.3889027,-1.3878584,-0.8737683,-1.0340929,0.91918707
3.2760592,26.9146,8.024403,6.56469,0.22173676,-0.18770158,0.2710865,-0.59245294,-0.7488873,-0.5986723,0.75199056,-0.67917883,0.67229277,-0.008194389,0.3757494,-0.788044,-2.05584,-1.2744985,2.1215272,1.8456638,-0.9552633,0.4235487,-0.7261634,-2.0065143,-1.3361496,2.1797862,1.7835844,-0.9549684,-1.1270858,-1.318614,-1.063923,1.3518498,-0.9678681,0.513098,-0.0498484,-0.2275734,-0.43120766,0.84996986,-1.3958397,-0.11292011,-0.8505959,-0.213768,-0.48958778,0.75899506,0.94156075,-0.0022663206,0.16350898,0.29448763,-1.464812,0.101426005,-0.42992887,1.0,0.0,0.0,0.0,0.0,0.0,0.0,-0.42242658,0.03120765,-0.29996985,7.006073,-7.0946693,-3.9784193,-1.1880875,-0.82371235,-0.76310635,1.0376573
17.50536,34.69873,14.572444,2.7647703,-0.4928801,-0.35380083,0.46552032,-0.4886624,-0.7794708,-0.6064842,0.7302858,-0.6767149,0.67893815,0.013316339,0.37468246,-0.80411047,-2.0671628,-1.263121,2.1121147,1.8514782,-0.95363677,0.41315508,-0.7397866,-2.0173366,-1.3228,2.1700816,1.7886751,-0.9553842,-1.0109947,-1.3771052,-1.0872248,1.3292894,-0.9722278,0.50785905,-0.03887307,-0.24152374,-0.4323368,0.84072286,-1.3944441,-0.112807214,-0.94939035,-0.22811508,-0.48872185,0.7543344,0.94492584,-0.0012475266,0.16477834,0.28277475,-1.4212549,0.09306373,-0.4837838,1.0,0.0,0.0,0.0,0.0,0.0,0.0,-0.40847623,0.0323368,-0.29072285,11.352968,-5.925727,-1.9839525,-2.2440195,-0.6751895,-0.52087307,1.0701492
30.575321,43.1605,20.663,-0.40098882,-1.1544837,-0.5278758,0.62872356,-0.39075345,-0.7891853,-0.6178169,0.7050204,-0.6753349,0.6677494,0.043478146,0.37407973,-0.81870514,-2.0791183,-1.252298,2.1025481,1.85545,-0.9510364,0.40419865,-0.75384665,-2.0283115,-1.3097652,2.1603465,1.7937143,-0.9556808,-0.8585172,-1.4157909,-1.0995718,1.2944905,-0.97486854,0.50269115,-0.026799813,-0.25545883,-0.43346405,0.8304887,-1.39305,-0.11269443,-1.048086,-0.24179459,-0.4880066,0.74918395,0.94792694,8.265543e-05,0.16585943,0.27189153,-1.34632,0.07427224,-0.53135586,1.0,0.0,0.0,0.0,0.0,0.0,0.0,-0.39454114,0.033464044,-0.28048867,14.855898,-3.9411545,-0.7587671,-3.6002398,-0.57786703,-0.5104184,1.1339701
35.98023,47.974182,22.811441,-0.992836,-1.4564749,-0.69429874,0.68029386,-0.30329433,-0.7911917,-0.6673746,0.7018756,-0.69860727,0.6557555,0.16478011,0.3738692,-0.8329658,-2.095049,-1.2395777,2.0904858,1.8592899,-0.9392028,0.39689875,-0.76814127,-2.0395687,-1.2970432,2.1505237,1.7986982,-0.955779,-0.688557,-1.4342948,-1.1327362,1.2642586,-0.9857018,0.49695385,-0.0046051997,-0.26937866,-0.4345894,0.8192683,-1.3916572,-0.11258176,-1.1466832,-0.2546234,-0.4875431,0.7435889,0.9505402,0.0017590733,0.1668772,0.26195827,-1.2592697,0.04645923,-0.574895,1.0,0.0,0.0,0.0,0.0,0.0,0.0,-0.3806213,0.03458938,-0.26926827,16.569782,-1.9325018,-2.8071642,-3.184843,-1.412642,-0.587517,2.1069274
39.801224,48.669693,23.501179,-2.282958,-1.5896267,-0.85599893,0.68598485,-0.2130623,-0.80886465,-0.68444294,0.67170143,-0.684605,0.6274003,0.09135358,0.37559253,-0.84902775,-2.108013,-1.2298731,2.0820632,1.8614383,-0.94664365,0.3913436,-0.78258944,-2.0511959,-1.2846836,2.1406398,1.8036077,-0.95572466,-0.512583,-1.4485804,-1.1712253,1.2260863,-0.990141,0.4886882,0.008457274,-0.28328323,-0.43571472,0.8070627,-1.390266,-0.1124692,-1.2451817,-0.2665558,-0.48740768,0.73754716,0.9527864,0.0038161513,0.16784708,0.25300375,-1.1674097,0.010094453,-0.6198854,1.0,0.0,0.0,0.0,0.0,0.0,0.0,-0.36671674,0.035714716,-0.25706267,17.163467,-1.513052,-3.3393145,-3.9887667,-0.7789612,-0.8819759,1.1919839
39.213863,48.572613,22.729652,-2.6818733,-1.6072344,-0.9032897,0.677979,-0.14484341,-0.8118491,-0.7071793,0.628956,-0.69248587,0.60520464,0.101308234,0.37685925,-0.86377436,-2.121914,-1.2217879,2.071391,1.8641281,-0.94559383,0.38743544,-0.79713297,-2.0632465,-1.2728218,2.1307101,1.8084219,-0.955553,-0.351527,-1.4565926,-1.2145331,1.172374,-0.9952165,0.47859606,0.01960972,-0.29717255,-0.43684006,0.7938728,-1.388876,-0.11235675,-1.3435818,-0.2775879,-0.4876442,0.7310343,0.9546969,0.0063171415,0.16876282,0.24501637,-1.0772034,-0.028966233,-0.6676815,1.0,0.0,0.0,0.0,0.0,0.0,0.0,-0.35282743,0.03684005,-0.24387276,15.714348,-0.8929968,-3.8699865,-5.520296,-0.83607435,-1.1030614,0.99856627
24.217953,45.564457,17.552113,1.5589218,-0.8574004,-0.6610874,0.46494657,-0.15608963,-0.81659144,-0.7254526,0.59891,-0.6693706,0.55923724,0.02930564,0.37182647,-0.8787921,-2.1357918,-1.2129308,2.0637732,1.8643456,-0.9526224,0.38463545,-0.81173944,-2.0757244,-1.261536,2.1208148,1.8131063,-0.9553403,-0.2568725,-1.4624172,-1.2578502,1.1138301,-0.9888911,0.4647061,0.021605551,-0.31105423,-0.43796158,0.7796996,-1.3874873,-0.11224442,-1.4418834,-0.28795242,-0.48815727,0.72404754,0.9563652,0.00931604,0.16957982,0.23774241,-1.0182829,-0.05389502,-0.71490663,1.0,0.0,0.0,0.0,0.0,0.0,0.0,-0.33894575,0.037961572,-0.22969961,9.243816,-0.69646835,-4.025078,-5.877447,0.34897327,-1.5076697,0.11121519
1.3561863,43.120792,10.83987,8.907591,0.25378066,-0.20114449,0.14239183,-0.21049199,-0.81726336,-0.73843104,0.5841868,-0.66155046,0.52390224,-0.08816058,0.36358625,-0.89346576,-2.1495674,-1.2031174,2.0546598,1.8654965,-0.9641564,0.38210535,-0.82638407,-2.0885952,-1.2507671,2.1110187,1.8176363,-0.95520586,-0.25177133,-1.465648,-1.2961382,1.0651207,-0.9777028,0.44867593,0.010419202,-0.32492065,-0.4390831,0.7645442,-1.3861,-0.1121322,-1.5400869,-0.29804993,-0.48871994,0.7166316,0.9579182,0.012832184,0.17027982,0.23072228,-1.0029808,-0.05254891,-0.75623643,0.0,1.0,0.0,0.0,0.0,0.0,0.0,-0.32507932,0.039083093,-0.21454418,0.49794316,-0.4693508,-3.6905527,-4.733038,0.88101625,-1.7169654,-1.1792564
-11.601585,42.566166,7.86925,12.6661,0.9886197,0.16742757,0.030775502,-0.24121442,-0.8225929,-0.71786344,0.54321194,-0.58860666,0.48904207,-0.002021095,0.35798392,-0.90864336,-2.1603816,-1.196446,2.0521579,1.8665404,-0.955408,0.37922323,-0.8410744,-2.1017456,-1.2405889,2.1016893,1.8221519,-0.95515716,-0.293098,-1.471453,-1.3501241,0.9855658,-0.85481507,0.51213616,0.0052755554,-0.3383026,-0.43925667,0.7524022,-1.0681869,0.1585176,-0.066437975,-0.30820084,-0.48910713,0.7088109,0.95944726,0.01674392,0.17069225,0.2237069,-1.0226898,-0.02390423,-0.8064622,0.0,1.0,0.0,0.0,0.0,0.0,0.0,-0.31169736,0.039256662,-0.20240217,-2.9888391,-0.8711815,-9.611368,-10.357571,20.399427,14.34657,-0.7725668
-52.421673,64.95494,8.063752,37.80088,3.7436852,1.7525239,-0.5681977,-0.47457057,-0.7853954,-0.5222553,0.74286395,-0.57613134,0.5563413,0.24216446,0.33176616,-0.91961396,-2.1539712,-1.1663026,2.0440762,1.877786,-0.9309407,0.37474954,-0.8556399,-2.1143112,-1.2300584,2.0934496,1.8272178,-0.95493114,-0.49762326,-1.4525164,-1.2255564,1.076971,-0.81445384,0.5047231,0.028502204,-0.34897614,-0.43767357,0.75099933,-1.0671189,0.15835911,-0.16489324,-0.3190384,-0.48865318,0.70118153,0.96109575,0.020160444,0.17086232,0.21608892,-1.0988731,0.07345334,-0.7539834,0.0,1.0,0.0,0.0,0.0,0.0,0.0,-0.30102384,0.037673563,-0.20099932,-20.099157,1.6189575,12.49814,9.546566,3.6753774,-0.7182479,2.3505206
-37.593575,83.25738,19.171942,38.573463,3.3495498,1.9775971,-0.42892444,-0.42682213,-0.76442707,-0.4078488,0.76197255,-0.5981445,0.62599504,0.26281047,0.33206734,-0.9320826,-2.155096,-1.1538612,2.0336351,1.8898174,-0.9286501,0.3685397,-0.8699059,-2.1250153,-1.2183778,2.0854464,1.8322647,-0.9544486,-0.66132677,-1.4188114,-1.0179499,1.1994921,-0.7971356,0.50508976,0.0548689,-0.3596382,-0.43609047,0.74861264,-1.066052,0.15820079,-0.26325008,-0.33034897,-0.4872265,0.69434935,0.9627842,0.02276542,0.17123829,0.20786019,-1.1367999,0.17106822,-0.66471124,0.0,1.0,0.0,0.0,0.0,0.0,0.0,-0.29036176,0.036090463,-0.19861263,-16.151487,3.1018734,20.977306,12.508559,1.2540936,0.12162924,2.6431413
-19.112253,85.886894,24.105812,31.472008,2.2481527,1.5844908,-0.15943417,-0.41743657,-0.7629515,-0.37137845,0.7305809,-0.6250654,0.61842203,0.2632229,0.32679603,-0.946201,-2.162153,-1.1453197,2.02294,1.8941069,-0.9281263,0.36114872,-0.88385814,-2.1336212,-1.205715,2.0773058,1.8372524,-0.9537219,-0.7647344,-1.3881646,-0.80717766,1.2889208,-0.8214214,0.49716803,0.0785317,-0.37029266,-0.43450928,0.74522996,-1.0649861,0.15804261,-0.3632661,-0.34174347,-0.48501778,0.68832886,0.9644045,0.02454097,0.17193966,0.19939521,-1.1344453,0.24394087,-0.58609647,0.0,1.0,0.0,0.0,0.0,0.0,0.0,-0.2797073,0.03450927,-0.19522995,-10.249686,2.834487,21.379507,9.085703,-2.9396176,-0.6876409,2.3396566
-13.8865595,74.27444,19.599388,24.4684,1.5813959,1.0513806,-0.03717607,-0.45400056,-0.7624015,-0.40371946,0.72645354,-0.62667036,0.5932861,0.312826,0.31574866,-0.96009827,-2.173993,-1.1330696,2.0146387,1.8965809,-0.9224393,0.35300624,-0.8975777,-2.1407661,-1.1924798,2.0688715,1.8421447,-0.9527482,-0.8305087,-1.3672682,-0.68249285,1.3355861,-0.8518834,0.48664683,0.103558995,-0.38093567,-0.43293,0.7408478,-1.0639213,0.1578846,-0.46318212,-0.35306168,-0.48224258,0.6828054,0.96591306,0.025877658,0.17293577,0.19088091,-1.1268167,0.2950135,-0.5455875,0.0,1.0,0.0,0.0,0.0,0.0,0.0,-0.2690643,0.032929987,-0.19084781,-6.5146565,1.8975258,12.700558,4.817176,-3.449273,-0.98056793,2.4728684
-12.009542,65.56461,15.741292,20.076328,1.2204432,0.7095046,0.013486825,-0.48392326,-0.75654,-0.39205128,0.73883796,-0.6293058,0.6045228,0.3296719,0.30461392,-0.9732317,-2.1799712,-1.1185961,2.005941,1.902597,-0.91978097,0.3443755,-0.91114277,-2.1471634,-1.1789777,2.0601587,1.8469436,-0.951537,-0.8737972,-1.353442,-0.6244908,1.3557295,-0.8786908,0.47777763,0.1268457,-0.39156723,-0.43135262,0.7354673,-1.0628576,0.15772675,-0.56299824,-0.36431503,-0.4790554,0.6774809,0.96730393,0.027136225,0.17415227,0.18236665,-1.1197296,0.3332558,-0.53230965,0.0,1.0,0.0,0.0,0.0,0.0,0.0,-0.25843275,0.03135261,-0.1854673,-4.2814374,1.2149572,5.9790134,2.1772146,-2.9985905,-0.8442998,2.297233
-12.015706,56.118187,10.99056,16.396801,0.93592703,0.35677797,0.036272783,-0.49194008,-0.7521966,-0.4418737,0.7418895,-0.62900925,0.6003553,0.37266818,0.29518148,-0.98636246,-2.1913507,-1.1047888,1.9972578,1.9069792,-0.9142702,0.33547103,-0.9246096,-2.1535988,-1.1654088,2.0512438,1.8516586,-0.9500874,-0.8958548,-1.3448548,-0.6494032,1.3579986,-0.8961115,0.4694289,0.15088592,-0.40218735,-0.42977715,0.7290894,-1.061795,0.15756905,-0.66271454,-0.3755226,-0.4755745,0.6720778,0.9685803,0.028673083,0.17552623,0.17384045,-1.1181421,0.35985473,-0.54710066,0.0,1.0,0.0,0.0,0.0,0.0,0.0,-0.24781263,0.02977714,-0.17908937,-2.1645308,0.7100105,-2.376008,0.4146099,-1.9567013,-0.8319318,2.3637712
-11.001681,49.096466,8.067995,13.369672,0.788369,0.11754507,0.060975444,-0.49522606,-0.7574981,-0.4754134,0.7333949,-0.5918316,0.58109117,0.39223525,0.28594843,-1.0003594,-2.2011402,-1.0920694,1.9920607,1.9097677,-0.9108639,0.32645833,-0.9380545,-2.160637,-1.1519258,2.0423288,1.8562839,-0.94840705,-0.90298146,-1.3448668,-0.7217322,1.345723,-0.890276,0.45999828,0.1735822,-0.41279602,-0.42820168,0.72171503,-1.0607334,0.15741152,-0.7623312,-0.3867607,-0.47188187,0.6663835,0.96975714,0.030723767,0.17692642,0.16530016,-1.1206701,0.3785659,-0.58098316,0.0,1.0,0.0,0.0,0.0,0.0,0.0,-0.23720396,0.02820167,-0.17171502,-0.6819129,-0.1376152,-7.1465135,-1.028657,0.42642355,-0.98738074,2.2321672
-7.2727103,43.130543,6.4083433,10.012695,0.51300514,-0.110765696,0.12104734,-0.47827318,-0.76997197,-0.53135157,0.7224805,-0.58325386,0.5594245,0.41951632,0.27863103,-1.0150517,-2.213772,-1.0796777,1.9840034,1.9122263,-0.9064554,0.3175243,-0.9515833,-2.1686516,-1.1386354,2.0335436,1.8608043,-0.9465045,-0.8901578,-1.3560045,-0.8276908,1.3242593,-0.8750313,0.44916078,0.19561672,-0.42339706,-0.42663002,0.7133453,-1.059673,0.15725414,-0.8618482,-0.39800644,-0.46808243,0.6602271,0.9708382,0.033448935,0.1782374,0.15679812,-1.1215374,0.38749802,-0.6311648,0.0,1.0,0.0,0.0,0.0,0.0,0.0,-0.22660291,0.026630014,-0.16334528,1.2907267,-1.2391329,-10.510683,-1.9505262,1.3983846,-1.1711061,2.1616876
4.7752438,45.967285,10.418423,6.7013135,0.13285452,-0.22649175,0.24625184,-0.43605348,-0.7736358,-0.52866286,0.7079366,-0.5534452,0.5271808,0.432737,0.27391896,-1.0289469,-2.2215178,-1.0678418,1.978199,1.9135224,-0.9032308,0.30894125,-0.96524566,-2.1775513,-1.1256082,2.0249987,1.8652008,-0.9443978,-0.84794134,-1.3701152,-0.90981233,1.2958227,-0.8486294,0.43617576,0.2155348,-0.43398666,-0.42505836,0.7039811,-1.0586134,0.15709692,-0.9612657,-0.4091301,-0.464283,0.65359515,0.97181207,0.036783163,0.17936349,0.14851584,-1.1036235,0.38427702,-0.67783976,0.0,1.0,0.0,0.0,0.0,0.0,0.0,-0.21601331,0.025058359,-0.15398109,4.1518927,-1.5276909,-8.021975,-2.7365446,2.4370193,-1.4056623,1.9311577
5.036365,47.744125,11.300678,6.6892014,0.18568838,-0.14305383,0.2635527,-0.4464307,-0.7803532,-0.5449259,0.6856631,-0.53618616,0.48912475,0.45272636,0.26429817,-1.043281,-2.2320437,-1.0570419,1.97138,1.9141133,-0.89912516,0.30071056,-0.97905964,-2.187088,-1.1129205,2.016736,1.8694503,-0.94209945,-0.814988,-1.3855143,-0.96767753,1.2601262,-0.8193215,0.42071846,0.23437992,-0.44456482,-0.42348862,0.6936235,-1.0575551,0.15693985,-1.0605838,-0.4200592,-0.460495,0.64652586,0.9726823,0.04062745,0.18023823,0.14054412,-1.0839002,0.3831373,-0.7204476,0.0,1.0,0.0,0.0,0.0,0.0,0.0,-0.20543516,0.023488611,-0.14362347,3.2233596,-1.6590118,-5.573106,-3.4709692,2.6913285,-1.6680241,1.8315732
2.4048088,52.228867,12.4495125,8.694435,0.4497408,0.03308487,0.22629006,-0.45351803,-0.78213817,-0.54616493,0.6784719,-0.50916266,0.4567356,0.47818625,0.25535876,-1.0572735,-2.2417045,-1.0450733,1.9658197,1.9151239,-0.89428085,0.2926925,-0.99300283,-2.1970203,-1.1005796,2.0088532,1.8735653,-0.9396174,-0.79657537,-1.3978211,-1.0068384,1.2227241,-0.7664278,0.4150272,0.25424704,-0.45491028,-0.4216404,0.68385607,-0.97271585,0.20780273,-0.7466669,-0.43080902,-0.45666504,0.6391002,0.973469,0.04484535,0.18081385,0.13286588,-1.068129,0.39069742,-0.7555571,0.0,1.0,0.0,0.0,0.0,0.0,0.0,-0.1950897,0.02164039,-0.13385606,1.9866228,-1.3960838,-4.852891,-4.284215,7.00109,0.43404698,2.071184
-3.945714,61.19262,13.905775,13.562748,0.85758686,0.31407422,0.1198006,-0.46897313,-0.7676197,-0.5417749,0.7017319,-0.52938277,0.4482976,0.5053996,0.24579519,-1.0697649,-2.2511978,-1.0304065,1.955915,1.918395,-0.8890774,0.2846897,-1.0069617,-2.2071254,-1.0883973,2.0013561,1.8776202,-0.9369318,-0.80166095,-1.3957082,-1.0111638,1.2170944,-0.74492073,0.40183505,0.27338263,-0.46447372,-0.41952515,0.67623967,-0.94981194,0.21274917,-0.76612884,-0.44144058,-0.45265198,0.6314896,0.97418,0.04926513,0.18118511,0.12537217,-1.0545729,0.4107087,-0.76665604,0.0,1.0,0.0,0.0,0.0,0.0,0.0,-0.18552625,0.01952514,-0.12623966,-0.5536556,0.056362152,-0.15070438,-0.44620037,1.8622279,-1.463604,1.8989921
-1.2997196,67.43857,16.928944,14.523748,0.9980706,0.4486303,0.113587044,-0.46008414,-0.7701298,-0.4948374,0.6900056,-0.4890183,0.433688,0.49833184,0.23868129,-1.0839747,-2.2566092,-1.0193967,1.9524543,1.920989,-0.8870986,0.27662107,-1.0208776,-2.216952,-1.0762379,1.9941242,1.8815507,-0.93407553,-0.8088556,-1.3906498,-0.9720654,1.2157084,-0.717177,0.38969526,0.28960446,-0.47375107,-0.4173851,0.6685108,-0.92025316,0.21425039,-0.7742765,-0.45188904,-0.4484272,0.62387866,0.97481704,0.05370288,0.18141803,0.11804756,-1.0352417,0.43270192,-0.7628184,0.0,1.0,0.0,0.0,0.0,0.0,0.0,-0.17624891,0.017385095,-0.11851078,-0.7916689,0.35095215,4.262197,-0.067162514,2.3769855,-1.3360858,1.5791953
-11.513771,65.220535,13.261464,16.50628,1.2311988,0.49914628,0.03243522,-0.50040543,-0.7687297,-0.54190814,0.67716557,-0.49462825,0.34696123,0.51416916,0.22658053,-1.0977505,-2.271143,-1.0085213,1.9446614,1.9162468,-0.8826586,0.26828936,-1.0347326,-2.226565,-1.0641071,1.9870627,1.8852943,-0.9310683,-0.8412844,-1.3842493,-0.95672315,1.2127168,-0.70356494,0.36873776,0.30431876,-0.48278046,-0.41521454,0.66063905,-0.8966555,0.21817592,-0.7905368,-0.4622345,-0.4439144,0.61625856,0.975387,0.058246743,0.18153808,0.11077689,-1.0291427,0.4636562,-0.76508254,0.0,1.0,0.0,0.0,0.0,0.0,0.0,-0.16721952,0.015214533,-0.110639036,-3.2599926,0.476408,1.8176556,-0.15394688,1.0071516,-2.2288978,1.4404356
-4.8199396,70.51241,16.55027,15.733094,1.192352,0.49140188,0.07354239,-0.48411873,-0.7580421,-0.48190582,0.6699762,-0.4351295,0.26982427,0.53370345,0.21987748,-1.1105368,-2.2747555,-0.9971094,1.9435498,1.9122767,-0.87769794,0.2597253,-1.0484827,-2.235815,-1.052039,1.9802638,1.8887851,-0.9279164,-0.86164784,-1.3725966,-0.9133031,1.2052386,-0.6732022,0.34214965,0.31874073,-0.4915352,-0.413023,0.6526715,-0.86781275,0.21911271,-0.7970794,-0.4724617,-0.4391327,0.60869575,0.9759012,0.062822804,0.1814926,0.10358871,-1.0131972,0.48916024,-0.7566101,0.0,1.0,0.0,0.0,0.0,0.0,0.0,-0.15846479,0.013022989,-0.102671504,-2.0987868,1.0098457,4.696536,-0.67152977,2.6198149,-2.7887344,1.4020681
-3.6065264,72.39975,17.798397,15.529308,1.4355793,0.5048488,0.06817846,-0.5094453,-0.758495,-0.4154175,0.6465415,-0.33463514,0.110307515,0.54927725,0.20878077,-1.1243322,-2.2773569,-0.98738486,1.9468004,1.8998159,-0.8729887,0.25090757,-1.0621355,-2.244375,-1.0401466,1.9740314,1.8919088,-0.9246236,-0.8887026,-1.3632585,-0.83576965,1.1839052,-0.6079471,0.3019856,0.33281228,-0.5,-0.41082954,0.6446602,-0.8390698,0.21940723,-0.8008574,-0.4825287,-0.43409348,0.60126877,0.97640723,0.06725355,0.1810827,0.096513905,-0.99862015,0.5153535,-0.741244,0.0,1.0,0.0,0.0,0.0,0.0,0.0,-0.14999998,0.010829538,-0.09466016,-2.774918,0.7884264,8.122719,-2.0765781,6.0793996,-4.1507483,1.3958812
6.4453,72.395424,20.463165,11.686999,1.4728806,0.3204397,0.13101274,-0.5001767,-0.7571275,-0.34362054,0.5790731,-0.1166378,-0.15173386,0.52696645,0.2008899,-1.1378483,-2.278737,-0.9822393,1.9623677,1.8767353,-0.87192696,0.24192175,-1.0757139,-2.25192,-1.0287728,1.9690492,1.8944606,-0.92122036,-0.90223175,-1.3564416,-0.72595423,1.1219001,-0.46298498,0.23920906,0.34285653,-0.5081749,-0.4086609,0.63661027,-0.80933297,0.21574655,-0.80465007,-0.49241257,-0.42886925,0.5940095,0.976996,0.07131217,0.17988016,0.08964614,-0.97859794,0.5306122,-0.7236656,0.0,1.0,0.0,0.0,0.0,0.0,0.0,-0.14182508,0.008660883,-0.08661026,-1.4607787,0.5649805,11.368645,-6.217909,14.025867,-6.423396,1.0230601
16.782413,73.42264,23.252323,9.110349,1.4322319,0.19119328,0.1682939,-0.47566393,-0.7569498,-0.27413407,0.55536693,0.03885709,-0.21868612,0.542281,0.19435535,-1.1514089,-2.2793334,-0.97323614,1.972935,1.872592,-0.86699224,0.23298053,-1.0892484,-2.2582214,-1.0180858,1.9658688,1.8963753,-0.91772044,-0.8918574,-1.3527126,-0.5969293,1.0506585,-0.27107966,0.17523172,0.3525261,-0.51602936,-0.4065609,0.6285604,-0.7765681,0.20774858,-0.80341357,-0.5020485,-0.42357063,0.58695716,0.9777372,0.07473734,0.1775997,0.08308153,-0.9520664,0.5346949,-0.70190215,0.0,1.0,0.0,0.0,0.0,0.0,0.0,-0.13397062,0.006560892,-0.07856041,0.89907646,0.27616024,13.309956,-7.1962833,18.733686,-6.534478,0.9899974
41.62092,83.44326,33.099247,5.2435493,1.1257325,0.16118428,0.31596142,-0.41636255,-0.75867397,-0.041719757,0.51873004,0.16593446,-0.2554854,0.5444903,0.19134428,-1.1651158,-2.2623935,-0.9662128,1.9824623,1.8708267,-0.8632714,0.22446208,-1.1027715,-2.26241,-1.0081581,1.9647472,1.8976954,-0.91413057,-0.83924186,-1.3524554,-0.35798237,0.9728936,-0.060962707,0.117410116,0.3611516,-0.5234184,-0.40462112,0.6207703,-0.7266017,0.18904637,-0.7702194,-0.5111847,-0.41841698,0.58031994,0.9786825,0.07696626,0.17410265,0.077102624,-0.8956828,0.5148624,-0.6537636,0.0,1.0,0.0,0.0,0.0,0.0,0.0,-0.12658155,0.0046211183,-0.07077026,5.0400496,-0.049114227,24.453281,-7.993269,20.462564,-5.848025,0.84587336
100.51424,105.13602,54.330013,-3.314314,-0.14731574,-0.12533286,0.67515707,-0.2095284,-0.7598813,0.31815374,0.5335513,0.1972279,-0.16799326,0.51969326,0.20350924,-1.1787597,-2.2305946,-0.954803,1.98447,1.8808961,-0.8621612,0.21742126,-1.1163099,-2.2628527,-0.99877393,1.9654918,1.8985997,-0.9104772,-0.6603479,-1.3546442,0.06344332,0.92535824,0.11687068,0.081635945,0.3661341,-0.5300064,-0.40307617,0.61384994,-0.6365182,0.14280748,-0.66637695,-0.51922226,-0.4139595,0.5745517,0.9798401,0.07704084,0.16952913,0.072373465,-0.76739156,0.42764986,-0.5538469,0.0,1.0,0.0,0.0,0.0,0.0,0.0,-0.11999357,0.003076166,-0.063849926,17.496693,-0.30755997,43.11031,-5.202675,16.980297,-3.504777,0.3365755
86.48064,93.32878,46.433743,-1.8112096,0.10992254,-0.3374264,0.5182098,-0.217889,-0.7792792,0.31719196,0.50340563,0.3376123,-0.24133196,0.46210474,0.19563237,-1.1942378,-2.2311335,-0.9484334,1.999253,1.8744665,-0.86426675,0.21202566,-1.1299665,-2.259642,-0.98979145,1.9679856,1.8991439,-0.9068309,-0.500125,-1.3698599,0.4094986,0.8886202,0.29117,0.04549765,0.36376858,-0.53580856,-0.40196037,0.6077971,-0.56236064,0.10152305,-0.5868303,-0.5261879,-0.41030693,0.569591,0.98120594,0.07495282,0.16394283,0.068844914,-0.6698612,0.34822166,-0.4794791,0.0,1.0,0.0,0.0,0.0,0.0,0.0,-0.11419141,0.001960367,-0.057797074,15.777135,-1.6645193,35.40438,-3.850329,16.759533,-3.5738647,-0.33994913
72.35961,94.12946,41.540077,3.2450757,0.37411317,-0.37179366,0.35081768,-0.15033633,-0.74779123,0.3740974,0.531223,0.4250973,-0.15404351,0.51821697,0.19699202,-1.2047457,-2.222232,-0.9366692,2.0104954,1.8837396,-0.8550092,0.20816575,-1.1436269,-2.2536924,-0.98089385,1.9720855,1.8994308,-0.9031748,-0.3484356,-1.3651199,0.65888965,0.8902117,0.44767296,0.023217682,0.36592424,-0.5409317,-0.40122032,0.6025084,-0.49670547,0.06512542,-0.5122284,-0.53232956,-0.40735435,0.5653292,0.98271567,0.07107712,0.15759473,0.06619457,-0.5938478,0.2814229,-0.41110864,0.0,1.0,0.0,0.0,0.0,0.0,0.0,-0.109068274,0.0012203157,-0.052508414,15.024072,0.3030777,25.604248,0.16505718,15.122599,-2.1747322,0.14292598
52.928085,96.808754,36.507076,9.879097,0.7688278,-0.1617719,0.1563263,-0.103406556,-0.72076005,0.4566602,0.56482315,0.45715988,0.07375165,0.5190836,0.19782509,-1.2157029,-2.2080264,-0.92441154,2.0178015,1.9068059,-0.85126644,0.20561525,-1.1570814,-2.2458282,-0.9717105,1.9774722,1.8996967,-0.8994969,-0.22410806,-1.3392886,0.83054423,0.9282144,0.5675972,0.027959889,0.36835566,-0.54545975,-0.40078545,0.597952,-0.4394158,0.03695131,-0.44075736,-0.5378609,-0.40489006,0.56173766,0.9842786,0.06575016,0.1508843,0.06408076,-0.5387471,0.23798287,-0.34486014,0.0,1.0,0.0,0.0,0.0,0.0,0.0,-0.10454023,0.0007854402,-0.047951996,12.379781,2.4164677,17.663145,3.9354324,11.632895,0.56114197,0.2233088
37.91064,87.93636,29.483894,10.257749,0.7265032,-0.0789873,0.12270339,-0.06924993,-0.7181024,0.496354,0.5137816,0.51719767,0.22467521,0.50268,0.19869027,-1.2288916,-2.1961927,-0.9203323,2.029192,1.9221642,-0.8492289,0.20406644,-1.1702611,-2.2367826,-0.9623584,1.9838905,1.9001422,-0.8958076,-0.1318566,-1.3114293,0.9304089,0.9381944,0.66568035,0.050449032,0.36924827,-0.5494995,-0.40057564,0.5939267,-0.39376205,0.016460598,-0.39473853,-0.54294586,-0.4027424,0.5586097,0.9858311,0.059353396,0.14397724,0.062326882,-0.49771175,0.20974664,-0.30544594,0.0,1.0,0.0,0.0,0.0,0.0,0.0,-0.100500464,0.00057563186,-0.043926716,9.215373,2.6406527,10.315895,1.1916876,9.602761,2.357261,0.13368726
17.556341,81.14668,22.709,12.546885,0.997216,0.1432773,0.03952873,-0.083512105,-0.70409864,0.53821373,0.4751626,0.56132454,0.31521237,0.46216097,0.19571523,-1.240671,-2.1829612,-0.9148421,2.040023,1.9316634,-0.84959155,0.20303157,-1.1831491,-2.2270496,-0.95316064,1.9911425,1.9008768,-0.8921422,-0.09391235,-1.2815696,0.9879971,0.91437995,0.74470586,0.08145415,0.36591506,-0.55316544,-0.40049553,0.59020716,-0.35947943,0.005842984,-0.3697488,-0.5477333,-0.40069962,0.55573004,0.9873387,0.052217465,0.13690515,0.060765862,-0.47434127,0.20588753,-0.28571767,0.0,1.0,0.0,0.0,0.0,0.0,0.0,-0.09683454,0.0004955232,-0.040207148,3.8366675,2.8854609,5.8615685,-2.1785378,7.8844786,3.2529905,-0.23160577
9.16421,69.20817,17.103727,9.792883,0.78009105,0.109247684,0.091805995,-0.074244075,-0.7068601,0.54769635,0.39820713,0.6050691,0.30683368,0.43563968,0.19560716,-1.2538351,-2.1722798,-0.9133399,2.0516493,1.9315602,-0.8485782,0.20215599,-1.1958215,-2.217007,-0.944604,1.9990922,1.9018917,-0.8885312,-0.08530202,-1.2627772,1.0098705,0.83674914,0.81167287,0.10857761,0.3599189,-0.5565567,-0.4004879,0.58653504,-0.33395475,-0.00040409132,-0.37206382,-0.5523491,-0.39865303,0.55282795,0.9887841,0.0446613,0.12956172,0.059371956,-0.45717725,0.20738238,-0.29555365,0.0,1.0,0.0,0.0,0.0,0.0,0.0,-0.093443274,0.00048789382,-0.036535025,0.90667903,1.8046618,2.164483,-7.574618,6.7777395,2.8801725,-0.4571259
-3.5722728,66.93423,13.114159,11.985049,0.85748255,0.12240261,0.03771356,-0.08981333,-0.6748405,0.5015547,0.37387982,0.61548775,0.2535556,0.46333763,0.19317466,-1.2633055,-2.1668515,-0.907216,2.060641,1.9272473,-0.8421974,0.2011595,-1.2082307,-2.2071471,-0.93689674,2.0075662,1.9031047,-0.88495743,-0.104238234,-1.2338206,0.9777019,0.7494256,0.8595566,0.12607543,0.3570658,-0.55973816,-0.40050697,0.5827668,-0.31458494,-0.002000637,-0.38458255,-0.5568657,-0.39650536,0.54975057,0.99014026,0.037048034,0.12198138,0.058053613,-0.450473,0.2194867,-0.31567457,0.0,1.0,0.0,0.0,0.0,0.0,0.0,-0.09026182,0.0005069673,-0.03276676,-1.8266485,2.8571367,-3.3953667,-8.544731,5.010748,1.9418657,-0.111836195
3.5219038,66.17571,13.725851,9.01808,0.32415313,-0.08885576,0.1409563,-0.05519015,-0.65770423,0.4902243,0.31830996,0.61351734,0.1722476,0.47717512,0.19564049,-1.2740011,-2.1581247,-0.9050658,2.068918,1.9203295,-0.8372399,0.20009294,-1.2203271,-2.1977415,-0.9301546,2.0163684,1.9044025,-0.8813953,-0.10733291,-1.2018048,0.92797625,0.64989847,0.8873784,0.13167864,0.35639897,-0.5627136,-0.400568,0.57886535,-0.29347244,-0.006998424,-0.39841238,-0.56124115,-0.3943615,0.5464319,0.9913828,0.029617941,0.11422279,0.05688601,-0.43351352,0.21628334,-0.34092242,0.0,1.0,0.0,0.0,0.0,0.0,0.0,-0.08728635,0.00056800246,-0.028865337,-0.2634719,3.151703,-5.1095605,-9.761858,2.972579,0.7424414,0.0985086
16.933748,64.21713,15.343878,3.0909023,-0.43263713,-0.34499675,0.33525333,-0.029526448,-0.64228594,0.48394135,0.20381594,0.6248186,0.057495546,0.48686013,0.19714029,-1.2845557,-2.1493473,-0.90977305,2.0788503,1.9101521,-0.83270925,0.19914584,-1.2321012,-2.1888125,-0.92472017,2.0253766,1.9056519,-0.8778282,-0.09045002,-1.1695898,0.88139224,0.50860804,0.9054015,0.123300284,0.35728195,-0.5654526,-0.4007187,0.5747946,-0.26880705,-0.017515961,-0.41597417,-0.5653076,-0.39241028,0.5428052,0.9925023,0.022503499,0.106219545,0.05612661,-0.3987489,0.19003046,-0.37338504,0.0,1.0,0.0,0.0,0.0,0.0,0.0,-0.0845474,0.000718683,-0.024794579,1.7068818,3.1486034,-4.728055,-13.941967,1.9259214,-0.6647825,0.23775697
