Afshin1997/kuka_rl_ros2/src/catch_and_throw/input_files/idealpd/polynomial_regressor/optimizer_files/env_134_data.csv
torque0,torque1,torque2,torque3,torque4,torque5,torque6,action0,action1,action2,action3,action4,action5,action6,set_target_0,set_target_1,set_target_2,set_target_3,set_target_4,set_target_5,set_target_6,joint_pos_0,joint_pos_1,joint_pos_2,joint_pos_3,joint_pos_4,joint_pos_5,joint_pos_6,joint_vel_0,joint_vel_1,joint_vel_2,joint_vel_3,joint_vel_4,joint_vel_5,joint_vel_6,tennisball_pos_0,tennisball_pos_1,tennisball_pos_2,tennisball_lin_vel_0,tennisball_lin_vel_1,tennisball_lin_vel_2,end_effector_pos_0,end_effector_pos_1,end_effector_pos_2,end_effector_rot_0,end_effector_rot_1,end_effector_rot_2,end_effector_rot_3,end_effector_lin_vel_0,end_effector_lin_vel_1,end_effector_lin_vel_2,obs_task_0,obs_task_1,obs_task_2,obs_task_3,obs_task_4,obs_task_5,obs_task_6,to_final_target_0,to_final_target_1,to_final_target_2,joint_acc_0,joint_acc_1,joint_acc_2,joint_acc_3,joint_acc_4,joint_acc_5,joint_acc_6
0.0,0.0,0.0,0.0,0.0,0.0,0.0,0.0,0.0,0.0,0.0,0.0,0.0,0.0,1.7802359,-1.0646509,-1.8151424,-1.1170107,1.9373155,1.1170107,-0.91629785,1.7802359,-1.0646509,-1.8151424,-1.1170107,1.9373155,1.1170107,-0.91629785,0.0,0.0,0.0,0.0,0.0,0.0,0.0,2.9887161,-0.5613632,0.09686348,-3.0738194,0.21152769,5.1830883,0.5304184,-0.45449448,0.693097,0.5745483,0.17512383,0.15255436,0.7848268,0.0,0.0,0.0,1.0,0.0,0.0,0.0,0.0,0.0,0.0,-3.6387162,0.16136321,0.45313653,0.0,0.0,0.0,0.0,0.0,0.0,0.0
0.0,0.0,0.0,0.0,0.0,0.0,0.0,0.0,0.0,0.0,0.0,0.0,0.0,0.0,1.7802359,-1.0646509,-1.8151424,-1.1170107,1.9373155,1.1170107,-0.91629785,1.7802359,-1.0646509,-1.8151424,-1.1170107,1.9373155,1.1170107,-0.91629785,0.0,0.0,0.0,0.0,0.0,0.0,0.0,2.9887161,-0.5613632,0.09686348,-3.0738194,0.21152769,5.1830883,0.5304184,-0.45449448,0.693097,0.5745483,0.17512383,0.15255436,0.7848268,0.0,0.0,0.0,1.0,0.0,0.0,0.0,0.0,0.0,0.0,-3.6387162,0.16136321,0.45313653,0.0,0.0,0.0,0.0,0.0,0.0,0.0
0.0,0.0,0.0,0.0,0.0,0.0,0.0,0.0,0.0,0.0,0.0,0.0,0.0,0.0,1.7802359,-1.0646509,-1.8151424,-1.1170107,1.9373155,1.1170107,-0.91629785,1.7802359,-1.0646509,-1.8151424,-1.1170107,1.9373155,1.1170107,-0.91629785,0.0,0.0,0.0,0.0,0.0,0.0,0.0,2.9887161,-0.5613632,0.09686348,-3.0738194,0.21152769,5.1830883,0.5304184,-0.45449448,0.693097,0.5745483,0.17512383,0.15255436,0.7848268,0.0,0.0,0.0,1.0,0.0,0.0,0.0,0.0,0.0,0.0,-3.6387162,0.16136321,0.45313653,0.0,0.0,0.0,0.0,0.0,0.0,0.0
-176.0,56.828426,-11.244411,110.0,11.545819,4.3668303,-3.6870403,-0.82694495,0.3027088,-0.56750727,0.72504634,0.4646433,0.63179636,-0.5946752,1.6975414,-1.03438,-1.8718932,-1.0445061,1.9837798,1.1801903,-0.97576535,1.7790228,-1.0623525,-1.8216789,-1.1120497,1.9437528,1.12279,-0.9178552,-0.16125341,0.30559987,-0.8709195,0.66175026,0.85719573,0.76839435,-0.20695704,2.9580002,-0.5592499,0.14791904,-3.0707462,0.21131621,5.07972,0.52822495,-0.4579773,0.69377804,0.57838184,0.17377326,0.15056854,0.7826918,-0.29160896,-0.46507615,0.090465166,1.0,0.0,0.0,0.0,0.0,0.0,0.0,-3.6080003,0.15924987,0.40208095,-16.035692,30.334177,-86.907585,66.28558,85.40886,76.17134,-20.468136
-176.0,-50.178432,-52.223137,109.36076,12.437771,0.80179286,-2.9533453,-0.80800766,-0.2724547,-0.524164,0.6824296,0.5308685,0.62222266,-0.6134517,1.698222,-1.0895981,-1.8740953,-1.0438068,1.9968396,1.1850122,-0.97920036,1.7777792,-1.0602068,-1.8370731,-1.097241,1.9551034,1.1363722,-0.9181575,-0.11911374,0.16434225,-1.7104235,1.7527062,1.199835,1.5001742,0.014890841,2.9273148,-0.55713654,0.19794169,-3.067676,0.21110494,4.976455,0.52349854,-0.4669571,0.6943171,0.5865958,0.17059927,0.14600097,0.77812916,-0.534224,-1.0379682,0.047068607,1.0,0.0,0.0,0.0,0.0,0.0,0.0,-3.5773149,0.15713653,0.35205832,2.1432729,-20.075762,-68.389175,108.754395,25.877094,56.80189,18.063038
-151.43944,106.78487,30.138391,88.97747,8.032391,7.6380367,-1.6909255,-0.780258,0.25095007,0.117208414,0.59138274,0.54684925,0.6720248,-0.5584103,1.6997534,-1.0351118,-1.8253522,-1.0381027,2.0097883,1.2035747,-0.97399855,1.7732474,-1.05804,-1.8518093,-1.0782248,1.9673085,1.1511675,-0.91828054,-0.56445813,0.23076396,-1.387629,1.9527931,1.2220039,1.4661237,-0.022823133,2.8966599,-0.555027,0.24693246,-3.064609,0.21089388,4.8732934,0.51587677,-0.47880936,0.69639003,0.59747154,0.16594136,0.13989522,0.77195895,-0.8463103,-1.2272788,0.26473933,1.0,0.0,0.0,0.0,0.0,0.0,0.0,-3.54666,0.155027,0.30306756,-44.54491,5.648479,34.339405,20.425701,0.60305595,-5.411029,-4.2341666
-102.50423,79.33688,30.029839,52.492508,5.3292685,6.7129974,-0.12973873,-0.7822459,-0.078335814,0.20896657,0.631875,0.54050577,0.64905965,-0.5974766,1.6950228,-1.0658736,-1.8309126,-1.0150373,2.0213592,1.2160735,-0.9780282,1.7642523,-1.0566915,-1.8605602,-1.059609,1.978682,1.1648394,-0.91893476,-1.011769,0.101008065,-0.6972677,1.8323361,1.1036946,1.3310926,-0.0808205,2.8660355,-0.5529213,0.2948924,-3.0615451,0.21068303,4.7702346,0.5056572,-0.49159622,0.70000285,0.60913235,0.16016592,0.13228741,0.7653788,-1.0924519,-1.2843239,0.39734414,1.0,0.0,0.0,0.0,0.0,0.0,0.0,-3.5160356,0.15292129,0.2551076,-44.921124,-13.5417385,71.11815,-11.746287,-13.479805,-14.45055,-6.1688585
-44.0866,104.63791,43.689713,26.361858,2.2490933,6.337801,0.623657,-0.8025286,0.052789647,0.27770966,0.5962075,0.6217577,0.65327704,-0.57663804,1.6839994,-1.0514126,-1.8327892,-0.9999883,2.0408578,1.2301672,-0.97659856,1.7515475,-1.056024,-1.8622749,-1.0434881,1.9889588,1.1770693,-0.9201812,-1.3576546,0.05387611,0.009525077,1.5384402,0.99839985,1.1860815,-0.14114055,2.8354416,-0.5508156,0.3418225,-3.058484,0.21047239,4.667279,0.49359512,-0.5039215,0.70491254,0.6203563,0.15344834,0.12342519,0.75919557,-1.2572402,-1.2033306,0.52296674,1.0,0.0,0.0,0.0,0.0,0.0,0.0,-3.4854417,0.15081558,0.2081775,-34.878372,-5.1411896,72.41757,-29.478884,-11.730194,-14.790678,-6.597653
-4.2351685,106.01055,42.91046,10.789991,0.19999948,4.627071,0.6620403,-0.8029636,0.10872835,0.26879945,0.6083609,0.626029,0.64422005,-0.58967924,1.671251,-1.0451511,-1.835395,-0.98265207,2.0515618,1.2414913,-0.97914916,1.7365576,-1.0553449,-1.8585689,-1.0301481,1.9984002,1.1879812,-0.9219827,-1.5469283,0.07158932,0.49451214,1.2654471,0.92402315,1.0600848,-0.19487917,2.8048782,-0.54870987,0.38772383,-3.0554264,0.21026196,4.564426,0.4805107,-0.51509476,0.7108077,0.63075024,0.14604892,0.11395194,0.7535507,-1.3372662,-1.0761112,0.6098518,1.0,0.0,0.0,0.0,0.0,0.0,0.0,-3.4548783,0.14870986,0.16227618,-19.151138,1.4657423,49.568127,-27.4611,-8.042871,-12.470102,-5.890271
21.161228,138.1412,50.299374,7.397898,-1.5357628,4.0389504,0.21109226,-0.8155419,0.35753497,0.19631623,0.57806325,0.63024956,0.64672005,-0.5762169,1.6550034,-1.0195915,-1.8389373,-0.97234184,2.0614252,1.2526532,-0.97960436,1.7205893,-1.0531439,-1.8522174,-1.0190207,2.0073602,1.1977965,-0.9242534,-1.6143519,0.26862782,0.6843997,1.0614634,0.88612133,0.9564527,-0.2396952,2.7743454,-0.5466118,0.4325974,-3.0523715,0.21005173,4.461676,0.46704483,-0.52466583,0.71775967,0.6404999,0.13805144,0.104936,0.74812436,-1.361256,-0.90533864,0.72054267,1.0,0.0,0.0,0.0,0.0,0.0,0.0,-3.4243455,0.14661178,0.11740261,-6.9800377,19.395927,19.709455,-20.498562,-3.9865017,-10.041213,-5.062568
28.275398,140.38774,46.419632,6.7159767,-2.2688096,2.9380774,-0.21295485,-0.82537824,0.4783852,0.09915021,0.548251,0.6336877,0.63237816,-0.57682604,1.6380515,-1.0053053,-1.8423024,-0.9641956,2.070729,1.2610343,-0.981936,1.7045008,-1.048406,-1.8458602,-1.009339,2.0161378,1.2067057,-0.9269094,-1.607916,0.5414358,0.62117016,0.9368867,0.8750552,0.86998034,-0.2757459,2.743843,-0.5445137,0.47644424,-3.0493197,0.20984173,4.3590293,0.45360565,-0.5325737,0.72569585,0.64996046,0.12966369,0.09724444,0.7424838,-1.3484991,-0.74181205,0.8148297,1.0,0.0,0.0,0.0,0.0,0.0,0.0,-3.3938432,0.1445137,0.07355577,0.40888786,27.03663,-5.86766,-12.487292,-1.0995626,-8.310616,-4.076129
33.68418,136.87805,43.666992,5.0326014,-2.5375586,2.2938027,-0.29553795,-0.8207304,0.5805019,0.09260256,0.4870477,0.6579832,0.6292187,-0.5780758,1.6224277,-0.9903558,-1.8366,-0.96063423,2.0819361,1.2696276,-0.98471695,1.6887537,-1.0408586,-1.8408611,-1.0006129,2.0249803,1.2148577,-0.92987436,-1.5643705,0.8252074,0.4606727,0.85120225,0.8876092,0.79782605,-0.30471435,2.7133713,-0.5424156,0.5192654,-3.046271,0.20963193,4.256485,0.4404297,-0.5389137,0.7344822,0.65929407,0.1210655,0.091185965,0.7364506,-1.3145779,-0.5847698,0.89709735,1.0,0.0,0.0,0.0,0.0,0.0,0.0,-3.3633714,0.14241561,0.030734599,4.1158915,28.1752,-15.654654,-8.627165,1.2988567,-6.950462,-3.3032417
32.51053,119.62897,37.364456,3.3157196,-2.2936893,1.6765254,-0.21375413,-0.8205351,0.63561696,0.08158519,0.42892644,0.67004925,0.6346288,-0.5808879,1.6067002,-0.97729695,-1.8327025,-0.9577202,2.0919852,1.2783206,-0.98796314,1.6734759,-1.0308775,-1.8375232,-0.99263906,2.034025,1.2223841,-0.93308634,-1.5163114,1.0551765,0.29271176,0.77904755,0.9101504,0.7381162,-0.3279286,2.68293,-0.54032135,0.56106186,-3.0432253,0.20942235,4.154043,0.42762756,-0.5438423,0.7438795,0.66849905,0.1124181,0.08662131,0.7300465,-1.2735353,-0.4496542,0.95142376,1.0,0.0,0.0,0.0,0.0,0.0,0.0,-3.33293,0.14032134,-0.011061847,4.5861483,22.849918,-16.44159,-7.348335,2.29671,-5.783713,-2.663499
30.643793,102.77347,32.51423,2.062821,-1.8435845,1.3410802,-0.033851147,-0.8116739,0.6776874,0.0980721,0.3831745,0.6810853,0.6381311,-0.5825848,1.5923085,-0.9631087,-1.827716,-0.9543216,2.1021335,1.2861972,-0.9913448,1.6586329,-1.0191358,-1.8354309,-0.98535395,2.0433137,1.2293936,-0.9364986,-1.4744287,1.213563,0.18254837,0.71113604,0.9352996,0.6889664,-0.34671986,2.6525192,-0.5382309,0.60183465,-3.0401828,0.20921297,4.0517035,0.41521454,-0.54758453,0.75365967,0.67747897,0.103804305,0.08315932,0.7234165,-1.2336601,-0.33501267,0.9847594,1.0,0.0,0.0,0.0,0.0,0.0,0.0,-3.3025193,0.13823089,-0.051834643,3.9922,15.738368,-10.6682625,-6.984353,2.5533319,-4.7668815,-2.1939158
25.669697,86.227974,27.306198,2.3406305,-1.3055612,1.0488744,0.06389816,-0.802778,0.7097532,0.0796986,0.35928428,0.6859891,0.64734983,-0.5811299,1.5783551,-0.9481605,-1.827461,-0.9494255,2.1119127,1.2941285,-0.99461156,1.6441275,-1.0062956,-1.8340919,-0.97866297,2.0528276,1.2359816,-0.9400701,-1.4431248,1.3072093,0.118701346,0.65431786,0.95692796,0.6493465,-0.36166954,2.622139,-0.53614044,0.6415848,-3.0371432,0.2090038,3.9494667,0.40314484,-0.550354,0.7636218,0.68617266,0.095269926,0.08041071,0.7166762,-1.2000054,-0.24490453,0.9979078,1.0,0.0,0.0,0.0,0.0,0.0,0.0,-3.272139,0.13614044,-0.0915848,2.9628754,9.305191,-6.0730176,-5.905533,2.2158146,-3.8291216,-1.7840445
20.917206,69.10908,21.457417,1.6272984,-0.9319281,0.6541573,0.14579011,-0.800436,0.7187194,0.052104402,0.3095565,0.69090813,0.6487837,-0.58090055,1.5640839,-0.9344236,-1.8288815,-0.9477073,2.1219184,1.3008599,-0.9981601,1.6298319,-0.99293745,-1.8331954,-0.97259474,2.0625207,1.242232,-0.94376844,-1.4253743,1.3452206,0.08075589,0.5901976,0.97385687,0.6175046,-0.3735496,2.5917892,-0.53405,0.6803134,-3.0341067,0.20879485,3.8473322,0.39138412,-0.5524063,0.77352005,0.6945346,0.08691474,0.07809766,0.70990723,-1.1691306,-0.17705151,0.98492867,1.0,0.0,0.0,0.0,0.0,0.0,0.0,-3.2417893,0.13404998,-0.1303134,1.6279459,3.7799358,-3.5284133,-6.6683173,1.760912,-3.0118227,-1.4505088
22.768124,61.738617,19.453556,-0.9794321,-0.9852337,0.431251,0.2884798,-0.79069227,0.73728585,0.05655755,0.22982171,0.69435185,0.6540428,-0.5811972,1.5507627,-0.9192089,-1.8275397,-0.94961256,2.1319559,1.3076363,-1.0018882,1.6156718,-0.9793991,-1.8324592,-0.96738577,2.0723474,1.2482153,-0.9475698,-1.4133205,1.3566304,0.07193018,0.49681824,0.98595595,0.59280753,-0.3832153,2.56147,-0.53196335,0.7180214,-3.0310733,0.2085861,3.7452998,0.37997055,-0.55378723,0.78318405,0.7024604,0.078813426,0.07606596,0.7032436,-1.1316876,-0.11147593,0.9578415,1.0,0.0,0.0,0.0,0.0,0.0,0.0,-3.2114701,0.13196334,-0.16802138,1.0612726,1.1447668,-0.6204173,-9.616364,1.2865543,-2.2263408,-1.2248516
23.248398,57.065403,17.778564,-2.5926948,-1.0766028,0.22954088,0.35770223,-0.79133254,0.7499237,0.042509656,0.15370679,0.69341844,0.6602412,-0.5739231,1.5365385,-0.9044067,-1.8282082,-0.9520151,2.1416893,1.3142394,-1.0049621,1.6015745,-0.9658226,-1.8317649,-0.96330404,2.0822542,1.2539946,-0.9514484,-1.4089698,1.3580179,0.06957347,0.37760922,0.992793,0.57400805,-0.3902024,2.5311813,-0.5298805,0.75470984,-3.0280428,0.20837756,3.6433694,0.36898422,-0.55452347,0.7924946,0.70987755,0.07103318,0.07428507,0.69678533,-1.088264,-0.04841654,0.91979516,1.0,0.0,0.0,0.0,0.0,0.0,0.0,-3.1811814,0.12988052,-0.20470983,0.29494762,0.16300678,0.00231117,-12.205094,0.7731676,-1.5823841,-0.93509555
36.145794,53.72619,17.278305,-11.86508,-1.9953581,-0.26493677,0.6555873,-0.7775912,0.75954217,0.040516518,-0.050932527,0.70177823,0.6611169,-0.5720282,1.5238154,-0.8898684,-1.8277133,-0.9683973,2.152432,1.3201063,-1.0086513,1.5875498,-0.9522327,-1.8310592,-0.96115065,2.0922296,1.2596251,-0.9553842,-1.4007874,1.359466,0.07155581,0.16028856,0.9992751,0.56097865,-0.3954482,2.5009232,-0.5277977,0.79037976,-3.0250154,0.20816922,3.541541,0.3586769,-0.55447006,0.80124307,0.7165468,0.06376333,0.072842054,0.6907887,-1.0103186,0.034787353,0.85729593,1.0,0.0,0.0,0.0,0.0,0.0,0.0,-3.1509233,0.1277977,-0.24037975,0.67629814,0.2049923,0.43373406,-22.04539,0.74145794,-0.8121729,-0.74476004
51.235012,53.127575,18.096655,-22.308634,-3.0648599,-0.7232652,1.0260841,-0.77496856,0.77023333,0.07542101,-0.30494046,0.7016653,0.65040326,-0.5603211,1.5100529,-0.8752094,-1.8235171,-0.9916447,2.1623962,1.3246654,-1.0114163,1.5736052,-0.9385866,-1.8301609,-0.9620633,2.1022546,1.2651469,-0.95935434,-1.3929342,1.3666861,0.096459,-0.1761253,1.0036851,0.55172867,-0.398083,2.4706955,-0.5257149,0.8250322,-3.021991,0.2079611,3.4398146,0.3494339,-0.55337906,0.80919915,0.72212565,0.057240713,0.07186447,0.68563366,-0.8926631,0.14368118,0.7722203,1.0,0.0,0.0,0.0,0.0,0.0,0.0,-3.1206956,0.12571487,-0.27503216,0.66657066,0.8249283,2.6893213,-33.934834,0.555706,-0.23678541,-0.438416
58.532253,59.03451,21.382128,-24.26979,-3.2991138,-0.7037584,1.1778349,-0.7531305,0.78108937,0.1485477,-0.43565643,0.7081838,0.6488397,-0.56042343,1.4982921,-0.8604777,-1.8153061,-1.005629,2.173073,1.3300308,-1.0153967,1.5598246,-0.92481935,-1.8286846,-0.96644163,2.112333,1.2705942,-0.9633426,-1.3731886,1.3806185,0.16498315,-0.52569693,1.0098934,0.5448152,-0.39940956,2.4404984,-0.5236397,0.8586681,-3.0189695,0.20775318,3.3381896,0.34145355,-0.5511093,0.81638044,0.72644496,0.051461205,0.07132185,0.6815737,-0.7625009,0.26249388,0.6967383,1.0,0.0,0.0,0.0,0.0,0.0,0.0,-3.0904984,0.12363967,-0.30866808,1.9334316,1.5358686,6.883228,-35.14724,0.84683895,0.035130978,-0.24144053
55.250725,64.25573,23.864584,-18.885096,-2.7738526,-0.42237908,1.0896772,-0.7314929,0.7833804,0.2197577,-0.49722546,0.70630276,0.6535621,-0.5496567,1.4866753,-0.8464813,-1.8067088,-1.0161642,2.1829634,1.3359505,-1.0183083,1.5463263,-0.9109148,-1.8262508,-0.97379446,2.122465,1.2759844,-0.9673309,-1.3419741,1.3943332,0.26906404,-0.8054787,1.0155231,0.539307,-0.39877123,2.4103317,-0.5215645,0.89128846,-3.0159512,0.20754547,3.2366664,0.33467102,-0.5477104,0.8229959,0.72957474,0.046215344,0.07105155,0.6786283,-0.6467451,0.37190717,0.64573807,1.0,0.0,0.0,0.0,0.0,0.0,0.0,-3.0603318,0.12156448,-0.34128845,3.1547546,1.546216,10.218742,-28.073942,0.94549656,0.114274025,0.012040138
51.633305,72.76745,27.73596,-11.703667,-2.14845,0.029811352,0.9583173,-0.69133425,0.7954444,0.3144168,-0.53454745,0.70396674,0.64585125,-0.52995545,1.4771929,-0.83137035,-1.7948091,-1.0272492,2.1928616,1.3405695,-1.0203264,1.5332876,-0.8968471,-1.8224952,-0.9832072,2.1326463,1.2813193,-0.9712953,-1.290843,1.4117196,0.40981242,-0.986658,1.020617,0.5336489,-0.39576584,2.3801956,-0.5194893,0.92289436,-3.0129359,0.20733798,3.1352446,0.32888412,-0.54325867,0.8293691,0.7316697,0.04117221,0.07085213,0.6767158,-0.5509989,0.47476038,0.62969106,1.0,0.0,0.0,0.0,0.0,0.0,0.0,-3.0301957,0.11948928,-0.37289435,5.2018642,1.950407,13.659686,-18.151903,1.0820627,0.055611134,0.2777636
45.493042,75.12585,28.888845,-5.464069,-1.5460322,0.2953187,0.808729,-0.6625273,0.7976717,0.3927318,-0.5769272,0.70886725,0.63539016,-0.5245859,1.4670349,-0.81707996,-1.7832221,-1.0409,2.203533,1.3448583,-1.0237539,1.5208231,-0.8826288,-1.8172233,-0.99384737,2.142885,1.2865931,-0.9752254,-1.2313019,1.42588,0.564703,-1.0899516,1.0271424,0.5272989,-0.39222273,2.35009,-0.5174179,0.95348686,-3.0099235,0.20713069,3.0339243,0.32390594,-0.5378647,0.8357408,0.73289454,0.036075976,0.07056549,0.6757105,-0.47502473,0.5657296,0.6339933,1.0,0.0,0.0,0.0,0.0,0.0,0.0,-3.0000901,0.1174179,-0.40348685,6.071186,1.6464233,14.946068,-10.33771,1.3228178,-0.05879402,0.34424067
40.801304,75.63976,29.22256,-0.91188335,-1.1269921,0.4249204,0.6811159,-0.6218019,0.80318785,0.46360162,-0.5945782,0.7151471,0.6199446,-0.511846,1.458643,-0.80231,-1.7708632,-1.0533051,2.2143996,1.3485875,-1.02641,1.5090243,-0.86828554,-1.8104198,-1.0050634,2.1532,1.2917963,-0.9791145,-1.1621786,1.4378905,0.7169153,-1.1320541,1.035158,0.5198509,-0.38781196,2.320015,-0.51535034,0.9830669,-3.0069141,0.2069236,2.9327052,0.31957245,-0.53163147,0.8422542,0.7333892,0.030770011,0.0700979,0.67548484,-0.41285488,0.6466559,0.6509314,1.0,0.0,0.0,0.0,0.0,0.0,0.0,-2.970015,0.115350336,-0.4330669,7.050967,1.4420986,14.608824,-4.2066813,1.5096664,-0.20112991,0.43417215
35.11442,71.1709,27.105621,2.1057305,-0.83636093,0.33364296,0.5410256,-0.58481556,0.8050417,0.4998151,-0.601117,0.7113999,0.610576,-0.48304865,1.4505427,-0.78778136,-1.7604383,-1.065175,2.22434,1.3528539,-1.0274193,1.4979407,-0.8538536,-1.8023212,-1.0164083,2.1635683,1.2969233,-0.98294157,-1.0900047,1.4457123,0.838901,-1.1353914,1.0395164,0.51179355,-0.38114053,2.2899704,-0.5132828,1.0116355,-3.003908,0.20671672,2.831587,0.3157997,-0.5246887,0.84892964,0.7332873,0.02522171,0.06946132,0.6758911,-0.36012134,0.7134849,0.66650146,1.0,0.0,0.0,0.0,0.0,0.0,0.0,-2.9399705,0.11328277,-0.46163553,7.358861,1.0154724,11.6088505,-0.341177,1.0894537,-0.31404495,0.65502524
22.53726,63.34027,22.7894,7.360691,-0.26684096,0.29389095,0.2994646,-0.58131826,0.80586004,0.51603746,-0.5771825,0.71074134,0.61573213,-0.46725473,1.4398088,-0.77326757,-1.7507174,-1.0741266,2.2346425,1.3584965,-1.029667,1.4874178,-0.839373,-1.7933223,-1.0275263,2.1739595,1.3019758,-0.9866962,-1.0395377,1.4494938,0.9184949,-1.104151,1.040465,0.5041859,-0.37362227,2.2599564,-0.5112152,1.0391936,-3.0009046,0.20651004,2.73057,0.31238937,-0.51726913,0.855726,0.73279965,0.019468218,0.06871142,0.6766863,-0.32862264,0.7562221,0.6771129,1.0,0.0,0.0,0.0,0.0,0.0,0.0,-2.9099565,0.111215204,-0.48919362,5.1287174,0.59313774,7.47838,3.0627012,0.6482601,-0.37374496,0.7307768
10.008511,55.717556,18.27051,11.748148,0.20907545,0.2545787,0.07838427,-0.5949649,0.81396747,0.51833814,-0.5681218,0.71399254,0.6210714,-0.45327833,1.4279213,-0.75797623,-1.7414885,-1.0843384,2.2453587,1.3640829,-1.032024,1.4771429,-0.8248409,-1.7838504,-1.038257,2.1843507,1.3069578,-0.99037164,-1.0234792,1.4550618,0.95554835,-1.0633051,1.0402054,0.49719745,-0.36556935,2.2299728,-0.50915146,1.0657425,-2.9979043,0.20630357,2.6296542,0.30915833,-0.5095749,0.86256784,0.73214906,0.0135982875,0.06794444,0.67761064,-0.31647563,0.777807,0.67942286,1.0,0.0,0.0,0.0,0.0,0.0,0.0,-2.879973,0.10915145,-0.5157425,1.6034126,0.7539034,3.360033,3.9665222,0.426507,-0.40948987,0.788641
2.6527553,48.709206,14.57072,13.20561,0.41583538,0.1262097,-0.03199095,-0.6072892,0.81495893,0.52316964,-0.5764989,0.7121118,0.6123399,-0.44137618,1.416414,-0.743345,-1.7315335,-1.0959069,2.2555618,1.3681918,-1.0345093,1.4668204,-0.81026304,-1.7742164,-1.0486826,2.194723,1.3118693,-0.9939651,-1.0353745,1.4593565,0.9652526,-1.0360405,1.0377375,0.4897691,-0.35730618,2.2000198,-0.5070915,1.0912828,-2.9949071,0.2060973,2.5288393,0.30597687,-0.5017586,0.8693433,0.7314718,0.007739397,0.067253254,0.6785028,-0.3125591,0.7860998,0.6698308,1.0,0.0,0.0,0.0,0.0,0.0,0.0,-2.85002,0.107091516,-0.54128283,-1.2543678,0.6074667,0.7393837,2.568388,0.12397766,-0.5139828,0.8143723
-2.3132715,43.334713,12.064549,14.493495,0.6222099,0.06262681,-0.100740805,-0.62239873,0.8097223,0.53164756,-0.5610865,0.70910835,0.6199261,-0.4235699,1.4045805,-0.7292908,-1.7210517,-1.1047912,2.2656338,1.3738619,-1.0363221,1.4562403,-0.7956804,-1.7645671,-1.0588659,2.2050607,1.3167158,-0.99747175,-1.065837,1.4584502,0.96441495,-1.0130391,1.0336529,0.4836665,-0.3484131,2.1700897,-0.5050316,1.1158159,-2.9919128,0.20589125,2.4281251,0.30278397,-0.49394226,0.875975,0.7308506,0.0019707086,0.0666738,0.6792703,-0.3155902,0.7842696,0.6537264,1.0,0.0,0.0,0.0,0.0,0.0,0.0,-2.8200898,0.10503158,-0.56581587,-3.1555653,0.07483959,-0.24348497,2.1077633,-0.079894066,-0.42366982,0.8730352
-2.3578324,39.967403,10.740003,13.429183,0.562269,-0.08412677,-0.09234808,-0.63452196,0.80815,0.5293906,-0.5715694,0.7099448,0.6231513,-0.42554006,1.392788,-0.7148654,-1.7116281,-1.1160228,2.276055,1.379031,-1.0400257,1.4453112,-0.7811264,-1.7549751,-1.06895,2.2153642,1.3215109,-1.0008978,-1.1023043,1.4548454,0.95692277,-1.0073246,1.0300709,0.47878247,-0.34083626,2.1401901,-0.50297165,1.1393424,-2.9889214,0.2056854,2.3275118,0.29958344,-0.4861679,0.8823887,0.73029876,-0.0036353911,0.06623147,0.67989993,-0.31518006,0.780109,0.6299259,1.0,0.0,0.0,0.0,0.0,0.0,0.0,-2.7901902,0.10297164,-0.5893424,-3.765726,-0.20623207,-0.86625814,0.37384033,-0.06690025,-0.31138062,0.7433772
0.5250807,40.668602,11.5457115,12.392117,0.43406808,-0.13777383,-0.03598683,-0.6379508,0.80951244,0.5417464,-0.56598985,0.71086174,0.619504,-0.39846048,1.3815161,-0.70017517,-1.7008004,-1.1255491,2.2864504,1.3834614,-1.0407438,1.4340693,-0.7666038,-1.7454059,-1.0790113,2.225641,1.3262621,-1.0042375,-1.1317385,1.4519254,0.9565333,-1.006438,1.0278424,0.47454748,-0.33174896,2.110321,-0.50091934,1.1618636,-2.985933,0.20547976,2.226999,0.29642487,-0.4783821,0.88857,0.7297784,-0.0090673445,0.06592593,0.6804373,-0.3092186,0.7804436,0.60688317,1.0,0.0,0.0,0.0,0.0,0.0,0.0,-2.7603211,0.100919336,-0.61186355,-3.0461073,-0.13754368,-0.1650095,-0.09253025,0.07023811,-0.23651719,0.8954048
1.8368201,38.72715,11.008017,10.95919,0.32767564,-0.26057583,0.0067449547,-0.66052437,0.80419517,0.5405555,-0.5890948,0.71251225,0.6247299,-0.39121392,1.3680168,-0.6861843,-1.6913503,-1.1379209,2.2968922,1.388735,-1.0433589,1.4225203,-0.75212896,-1.735831,-1.0891985,2.2359064,1.3309809,-1.0074896,-1.1630253,1.4466085,0.95762175,-1.0234001,1.0270298,0.47157055,-0.32304192,2.0804825,-0.49886703,1.1833805,-2.9829478,0.20527431,2.1265867,0.2933693,-0.47060394,0.8944767,0.729246,-0.014283771,0.06575935,0.68093455,-0.29817328,0.78148466,0.5780589,1.0,0.0,0.0,0.0,0.0,0.0,0.0,-2.7304826,0.09886703,-0.6333805,-3.2274723,-0.38461685,0.0044226646,-1.8710136,0.19066334,-0.10985136,0.8597195
3.5210319,39.152332,11.463417,10.469125,0.23298943,-0.31259355,0.02749392,-0.6700537,0.8062227,0.5410287,-0.5898376,0.7070603,0.61982787,-0.37323448,1.3555149,-0.6715067,-1.6817281,-1.1481823,2.3066125,1.3929636,-1.044813,1.4106966,-0.7376884,-1.7262352,-1.099563,2.2461526,1.3356711,-1.01065,-1.1892254,1.4436791,0.9597643,-1.0415188,1.0248046,0.46875194,-0.3137276,2.0506744,-0.49681473,1.2038939,-2.9799654,0.20506908,2.0262747,0.29045486,-0.46278763,0.9001031,0.7286783,-0.019277444,0.06574708,0.6814203,-0.283252,0.785208,0.5499801,1.0,0.0,0.0,0.0,0.0,0.0,0.0,-2.7006745,0.09681472,-0.6538939,-2.709484,-0.14383793,0.105285645,-1.9758463,0.050854683,-0.09138584,0.92261434
4.977156,39.240795,11.988769,10.50819,0.2356435,-0.33871514,0.053483084,-0.672962,0.80080336,0.5501027,-0.5833741,0.71095824,0.6154324,-0.34354055,1.3434005,-0.6576081,-1.6712248,-1.1579005,2.3172483,1.3972143,-1.0450041,1.3986784,-0.72328985,-1.7165802,-1.1100477,2.2563913,1.3403345,-1.0137056,-1.2063493,1.4390712,0.9671887,-1.0511426,1.0245625,0.4659978,-0.3027233,2.020897,-0.49476242,1.223405,-2.976986,0.20486405,1.9260628,0.2876892,-0.45492172,0.9054691,0.72805285,-0.024072079,0.06586355,0.6819248,-0.26665154,0.7897901,0.5247518,1.0,0.0,0.0,0.0,0.0,0.0,0.0,-2.670897,0.094762415,-0.673405,-1.7873764,-0.30755997,0.6142378,-1.1214733,0.25901794,-0.08069873,1.087302
3.9476233,39.114475,12.05707,11.861832,0.33741474,-0.29612464,0.017445587,-0.68845916,0.8025047,0.5499511,-0.57206404,0.71051013,0.62272584,-0.32737583,1.3298326,-0.64303935,-1.6615851,-1.1672541,2.3274424,1.4026071,-1.0464432,1.3864866,-0.7089199,-1.7068546,-1.1205286,2.26663,1.344977,-1.0166487,-1.223673,1.4367707,0.9738197,-1.047543,1.0247403,0.46423724,-0.2913945,1.9911499,-0.49271774,1.2419147,-2.9740098,0.20465924,1.8259511,0.2850647,-0.44701767,0.91061705,0.72739,-0.028712695,0.06608878,0.6824306,-0.2537031,0.7928432,0.50391495,1.0,0.0,0.0,0.0,0.0,0.0,0.0,-2.64115,0.09271774,-0.69191474,-1.8201828,-0.07252693,0.53840876,0.19538403,0.3070116,0.00436306,1.1197627
4.391177,37.88759,11.606493,11.37886,0.28421545,-0.38385233,0.017111454,-0.6984251,0.802148,0.54406625,-0.5879722,0.70931804,0.6242332,-0.3225923,1.3166442,-0.6287051,-1.6524479,-1.1793258,2.3375618,1.4074004,-1.0489079,1.3741251,-0.6945642,-1.6971042,-1.1310171,2.2768686,1.3496062,-1.0194849,-1.2404152,1.4356806,0.9748754,-1.0496539,1.0244881,0.46295077,-0.28104338,1.9614334,-0.49067307,1.2594241,-2.9710364,0.20445462,1.7259395,0.28258514,-0.43909454,0.91553676,0.7267012,-0.033187367,0.066439345,0.6829273,-0.23786803,0.7954566,0.48042032,1.0,0.0,0.0,0.0,0.0,0.0,0.0,-2.6114335,0.09067306,-0.7094241,-1.7619848,0.045108795,-0.0021457672,-0.37295818,0.24683475,0.046229362,1.0238528
5.3016734,36.465855,11.22254,10.50782,0.22144693,-0.4833086,0.045032833,-0.70602655,0.7980945,0.54767424,-0.6027676,0.7102773,0.62086564,-0.3036541,1.3035225,-0.6147548,-1.6423368,-1.1912938,2.3478963,1.4116927,-1.0498503,1.3616072,-0.68023145,-1.6873462,-1.1415972,2.2871072,1.3542219,-1.0222162,-1.2557542,1.4330195,0.9758117,-1.0610883,1.0244881,0.46162286,-0.27037457,1.9317474,-0.4886284,1.2759341,-2.968066,0.2042502,1.626028,0.28030014,-0.4311409,0.920195,0.7259705,-0.03745882,0.06692816,0.6834356,-0.21820267,0.7979594,0.45343113,1.0,0.0,0.0,0.0,0.0,0.0,0.0,-2.5817475,0.08862838,-0.7259341,-1.6138077,-0.11572838,-0.004708767,-1.2996197,0.25846958,0.041657686,1.0561645
5.715764,35.197834,10.872933,10.299873,0.20531976,-0.5514481,0.049051743,-0.7099288,0.79527205,0.545523,-0.6034883,0.70482033,0.6235327,-0.28777575,1.2906144,-0.60070425,-1.6327939,-1.201946,2.3575892,1.4165752,-1.0509938,1.3489634,-0.6659349,-1.677594,-1.1522917,2.2973306,1.3588282,-1.0248407,-1.2675264,1.4290766,0.974576,-1.0726968,1.0222065,0.46070346,-0.25964472,1.902092,-0.48658752,1.2914457,-2.9650984,0.204046,1.5262163,0.27822495,-0.42316055,0.9245758,0.72519034,-0.04151262,0.06756097,0.6839672,-0.19657148,0.79950356,0.42523873,1.0,0.0,0.0,0.0,0.0,0.0,0.0,-2.552092,0.08658752,-0.7414457,-1.2508154,-0.24564266,-0.21816492,-1.3161182,0.020003319,0.07727742,1.0600984
6.8701878,34.9411,11.083495,9.907397,0.1646505,-0.60225487,0.0733434,-0.7098394,0.79370916,0.5495987,-0.61115545,0.7091614,0.62581336,-0.28007758,1.2779795,-0.586564,-1.622634,-1.2134072,2.3682468,1.4214095,-1.0528485,1.3362433,-0.65167844,-1.6678398,-1.163112,2.3075426,1.3634268,-1.0273603,-1.2736294,1.4249667,0.97554713,-1.0858035,1.0216672,0.46022284,-0.24962711,1.8724632,-0.48455048,1.30596,-2.962134,0.20384198,1.4265044,0.27638626,-0.41516113,0.9286744,0.72434425,-0.045343783,0.06833172,0.6845436,-0.1722043,0.8021759,0.39698488,1.0,0.0,0.0,0.0,0.0,0.0,0.0,-2.5224633,0.08455047,-0.75596005,-0.6700754,-0.2613306,-0.00500679,-1.4570951,0.1942873,0.12277365,0.9885669
7.9256616,34.02984,10.999413,9.33966,0.11350489,-0.68017125,0.10163981,-0.7067031,0.78827435,0.55065835,-0.62165225,0.7020222,0.61889064,-0.25691658,1.2655729,-0.572851,-1.6127739,-1.2252773,2.3777447,1.4253159,-1.053052,1.3235098,-0.6374792,-1.6580684,-1.1740831,2.3177316,1.3680178,-1.029775,-1.2731829,1.4187175,0.97730124,-1.1013956,1.0186511,0.45919567,-0.23882855,1.8428612,-0.48251343,1.3194779,-2.9591725,0.20363818,1.3268923,0.2748108,-0.40712738,0.93248,0.72340715,-0.04894326,0.06923713,0.68519545,-0.14439745,0.8052184,0.36728305,1.0,0.0,0.0,0.0,0.0,0.0,0.0,-2.4928613,0.08251342,-0.7694779,0.003194809,-0.4762411,0.06519556,-1.6986609,-0.058555603,0.068575144,1.0640055
5.7980905,31.270018,9.794946,10.27454,0.26692814,-0.68878514,0.06607287,-0.7219126,0.78206766,0.5461549,-0.6253587,0.7037889,0.6224331,-0.23912126,1.2513186,-0.5592724,-1.6034529,-1.236619,2.3881104,1.4302611,-1.0536871,1.3107306,-0.62336195,-1.648299,-1.1851953,2.327894,1.3726012,-1.0320791,-1.2797836,1.4099512,0.97643733,-1.1150333,1.0165445,0.45840952,-0.22774737,1.8132896,-0.48047638,1.3320004,-2.956214,0.20343459,1.2273796,0.2734909,-0.39910126,0.9359827,0.722401,-0.052298132,0.07026951,0.68590355,-0.12070613,0.8026529,0.33680367,1.0,0.0,0.0,0.0,0.0,0.0,0.0,-2.4632897,0.08047637,-0.78200036,-0.7228613,-0.7318497,-0.17032623,-1.516819,0.020241737,0.06985664,1.0911167
6.557287,32.05344,10.517057,10.644115,0.25459868,-0.6628624,0.09016439,-0.71522,0.7818591,0.55681914,-0.6258246,0.7016115,0.6264542,-0.19723144,1.2392086,-0.545176,-1.592617,-1.2477778,2.398055,1.4352466,-1.0518023,1.2979189,-0.60931814,-1.6384933,-1.1964048,2.3380373,1.3771788,-1.0342535,-1.2816713,1.4031056,0.9815153,-1.1235974,1.0143471,0.45812225,-0.21394515,1.7837486,-0.47844315,1.3435285,-2.9532583,0.2032312,1.1279664,0.2723999,-0.39108276,0.9392072,0.72131854,-0.055432957,0.07141163,0.6866783,-0.09666453,0.8028081,0.3097979,1.0,0.0,0.0,0.0,0.0,0.0,0.0,-2.4337487,0.07844314,-0.7935285,-0.24540424,-0.5348444,0.41149855,-1.0004044,0.024747849,0.11789799,1.3644814
7.158292,32.82062,11.191949,10.955626,0.23384595,-0.6377052,0.11805557,-0.7141956,0.7816472,0.5663482,-0.6298548,0.70036745,0.62471676,-0.14190346,1.2264993,-0.53115344,-1.5818585,-1.2593904,2.408074,1.4396504,-1.0484438,1.2851053,-0.59532106,-1.6285923,-1.207683,2.3481615,1.3817545,-1.0362581,-1.2813035,1.3990444,0.9925566,-1.129643,1.012519,0.4577466,-0.19613671,1.7542381,-0.47641373,1.3540633,-2.9503055,0.20302801,1.0286527,0.27156067,-0.38304138,0.94218284,0.72012806,-0.058379557,0.072658606,0.6875523,-0.0722901,0.8058627,0.28558078,1.0,0.0,0.0,0.0,0.0,0.0,0.0,-2.4042382,0.07641372,-0.80406326,-0.018668175,-0.2516985,1.0019302,-0.7388592,0.073337555,0.106197596,1.7688066
4.7117643,29.701605,9.851029,12.171686,0.41892415,-0.61701363,0.09750341,-0.72948134,0.7718025,0.56509364,-0.6272863,0.6946226,0.63377815,-0.043988477,1.2121572,-0.5181408,-1.5720829,-1.2704116,2.4176238,1.4451324,-1.0406569,1.2722307,-0.5813917,-1.6185958,-1.218984,2.3582513,1.3863322,-1.0380262,-1.2896492,1.3913565,1.0018579,-1.1308596,1.0088338,0.45813245,-0.17040168,1.7247581,-0.4743843,1.3636056,-2.9473557,0.20282502,0.92943823,0.2709236,-0.37500763,0.9449154,0.7188405,-0.061144214,0.07400316,0.6885152,-0.05333937,0.8029256,0.26127496,1.0,0.0,0.0,0.0,0.0,0.0,0.0,-2.3747582,0.0743843,-0.8136056,-0.91962814,-0.61872005,0.8591533,-0.27413368,-0.12202263,0.15923381,2.5584102
2.8330624,26.46002,8.571409,13.223485,0.5974723,-0.6161498,0.09572291,-0.73482805,0.75956273,0.5673466,-0.61919445,0.6844059,0.6330122,0.08429201,1.198748,-0.5054354,-1.5618612,-1.2809035,2.426692,1.4496334,-1.029597,1.2592474,-0.5675844,-1.6085193,-1.2302431,2.3682802,1.3909117,-1.0394586,-1.3014287,1.3776141,1.0093892,-1.1247886,1.0015436,0.45830238,-0.13430114,1.6953087,-0.4723549,1.3721565,-2.9444091,0.20262223,0.830323,0.27044678,-0.3670349,0.9474073,0.7174614,-0.06372873,0.07542856,0.6895639,-0.038631726,0.79398245,0.23727995,1.0,0.0,0.0,0.0,0.0,0.0,0.0,-2.3453088,0.07235488,-0.8221565,-1.2790203,-1.228118,0.6981373,0.43728352,-0.48806667,0.120419264,3.5879822
3.0188196,25.293537,8.392219,13.139373,0.60005295,-0.63673985,0.14802194,-0.7367225,0.7503859,0.5802699,-0.6245631,0.6707138,0.6305702,0.22290947,1.1855751,-0.4925458,-1.5504923,-1.2926993,2.4353516,1.4539688,-1.0171677,1.2461554,-0.5539402,-1.5983322,-1.2414602,2.3781984,1.3954912,-1.0404524,-1.3121854,1.360481,1.0216471,-1.1212273,0.9897311,0.45817232,-0.08768772,1.6658897,-0.4703331,1.379717,-2.9414654,0.20241965,0.73130685,0.27011108,-0.35915756,0.949655,0.7159528,-0.0661312,0.07693791,0.6907377,-0.023146342,0.7851028,0.21281837,1.0,0.0,0.0,0.0,0.0,0.0,0.0,-2.3158898,0.07033309,-0.829717,-1.1698008,-1.5696287,1.1695147,0.1907587,-0.9412646,0.08688569,4.637101
2.6082065,23.72329,8.076853,13.935339,0.6955147,-0.621896,0.15472236,-0.7351935,0.73570627,0.587854,-0.6071509,0.65763134,0.62947077,0.3037156,1.172636,-0.48036954,-1.5395467,-1.3021753,2.4439616,1.4584383,-1.0100808,1.2329928,-0.5405048,-1.5880077,-1.2525705,2.3879755,1.400067,-1.040954,-1.3181247,1.338456,1.0357184,-1.1083004,0.9744473,0.4578621,-0.03776129,1.6364937,-0.4683113,1.386288,-2.9385245,0.20221728,0.63238966,0.26992798,-0.35139084,0.9516766,0.71429324,-0.06837433,0.07851017,0.69205946,-0.009650091,0.77430546,0.19079423,1.0,0.0,0.0,0.0,0.0,0.0,0.0,-2.2864938,0.068311304,-0.83628803,-0.6825447,-2.057767,1.3386488,1.1224747,-1.283431,0.06388426,4.963941
2.5861988,23.236584,8.299511,14.908295,0.76875883,-0.57685024,0.15935862,-0.7311772,0.72340465,0.5983903,-0.5862241,0.6469567,0.633705,0.37853932,1.159875,-0.46816435,-1.5281687,-1.3111929,2.452671,1.4634374,-1.0031,1.2198168,-0.5273031,-1.577523,-1.2634653,2.3975923,1.4046446,-1.0409464,-1.3177038,1.3144844,1.0523584,-1.0837657,0.9580974,0.45795912,0.013465924,1.6071281,-0.46628952,1.3918707,-2.9355865,0.2020151,0.5335714,0.26987076,-0.34371948,0.9535101,0.7124727,-0.07050608,0.080117635,0.69353634,0.0017998387,0.7637163,0.17315966,1.0,0.0,0.0,0.0,0.0,0.0,0.0,-2.2571282,0.066289514,-0.8418707,-0.04220009,-2.2490025,1.5811682,2.2829533,-1.3795853,0.102454424,5.0923996
1.708657,19.740429,6.5814085,14.106207,0.80102026,-0.6940279,0.14072078,-0.7404063,0.70373553,0.5925862,-0.604361,0.6360201,0.6344759,0.3871641,1.1457762,-0.45692953,-1.5182644,-1.3239014,2.4611943,1.4680922,-1.0022299,1.2066199,-0.51437986,-1.5669334,-1.2742265,2.4070375,1.4092242,-1.0404714,-1.3204924,1.285407,1.0607606,-1.0743006,0.9409876,0.458067,0.058634873,1.5777931,-0.46426773,1.396466,-2.9326513,0.20181313,0.434852,0.26992798,-0.33618927,0.95511526,0.7105101,-0.07247774,0.08176317,0.6951526,0.014886806,0.74765694,0.14876717,1.0,0.0,0.0,0.0,0.0,0.0,0.0,-2.2277932,0.064267725,-0.846466,-0.35436153,-2.7718544,0.7772207,0.7765293,-1.4894485,0.09125471,4.485824
0.81290627,16.31844,4.767688,13.223211,0.85569453,-0.82739013,0.11630008,-0.7450751,0.6850939,0.58263063,-0.6181685,0.6377162,0.6352178,0.38827404,1.1321124,-0.44587046,-1.5086703,-1.3360434,2.4708092,1.4727459,-1.001644,1.193379,-0.5017742,-1.5563495,-1.2850164,2.4163492,1.4138037,-1.0395979,-1.3256114,1.2527276,1.0575197,-1.0809846,0.9286533,0.45809257,0.09677916,1.5484886,-0.46225357,1.4000748,-2.9297192,0.20161135,0.3362313,0.27013016,-0.3288803,0.95642173,0.7084393,-0.07419303,0.08344734,0.6968828,0.029708553,0.7250255,0.11737285,1.0,0.0,0.0,0.0,0.0,0.0,0.0,-2.1984887,0.062253565,-0.8500748,-0.57559013,-3.1449556,-0.36826134,-0.8360386,-1.0509729,0.06942749,3.7848637
0.9560926,15.955374,4.7376432,13.486479,0.8717984,-0.839443,0.104945965,-0.7380314,0.67177594,0.58282137,-0.6082721,0.62938637,0.6346831,0.41287705,1.1195759,-0.4345966,-1.4980674,-1.3458437,2.4792879,1.477272,-0.99831015,1.1801249,-0.48948455,-1.5458248,-1.2958597,2.4255502,1.4183832,-1.0383734,-1.3254979,1.2214735,1.0506537,-1.0860875,0.9177682,0.4579834,0.13085341,1.5192146,-0.4602394,1.4026982,-2.9267902,0.20140979,0.23770918,0.27048874,-0.3217926,0.95742315,0.70627934,-0.075632565,0.0851624,0.6987106,0.04488432,0.7023249,0.08726406,1.0,0.0,0.0,0.0,0.0,0.0,0.0,-2.1692147,0.060239404,-0.85269815,-0.042939186,-3.002143,-0.73792934,-0.67105293,-0.90857744,0.049567223,3.3808217
1.4465637,17.08437,5.253233,13.497556,0.80362034,-0.8369356,0.08699722,-0.7421816,0.6669993,0.58080137,-0.6177685,0.63033795,0.63811404,0.39937207,1.1059067,-0.42278463,-1.4877446,-1.3576366,2.488584,1.4821947,-0.99843615,1.166865,-0.47744632,-1.5353744,-1.3067907,2.4346712,1.4229628,-1.0368608,-1.3265239,1.1983578,1.042868,-1.0959702,0.9109582,0.4581411,0.15808278,1.4899712,-0.45822525,1.404337,-2.9238641,0.20120841,0.13928558,0.27101135,-0.31489944,0.95812863,0.7040465,-0.07679564,0.08692099,0.70061815,0.06151962,0.6828261,0.05807658,1.0,0.0,0.0,0.0,0.0,0.0,0.0,-2.1399713,0.058225244,-0.85433704,-0.16524792,-2.187395,-0.8155346,-1.133728,-0.5053878,0.06771684,2.7065516
3.1740353,18.698112,6.1097584,12.388536,0.60399854,-0.89864427,0.12057048,-0.73439145,0.65885603,0.57931644,-0.64071596,0.61605966,0.6293519,0.41612807,1.0934259,-0.4115607,-1.4774427,-1.3708622,2.496277,1.485898,-0.995248,1.1536356,-0.46559453,-1.5249946,-1.3179125,2.4437082,1.4275366,-1.0351003,-1.3219646,1.1812203,1.0361153,-1.1180727,0.90148973,0.45743757,0.18212007,1.4607544,-0.4562149,1.4049925,-2.9209409,0.20100725,0.04096037,0.2717476,-0.3081627,0.958524,0.70172244,-0.0776582,0.088762894,0.70262074,0.084266916,0.66906726,0.026601387,1.0,0.0,0.0,0.0,0.0,0.0,0.0,-2.1107545,0.0562149,-0.85499245,0.4179716,-1.5888691,-0.72295666,-2.3305416,-0.77570677,-0.01783967,2.3932605
2.415862,17.14399,5.1020346,11.84578,0.6092663,-0.9625136,0.08309896,-0.7470977,0.6487411,0.5672491,-0.6686199,0.6197156,0.62602717,0.37170443,1.0789258,-0.40072042,-1.4682697,-1.3847744,2.5056798,1.4901394,-0.9979299,1.1403929,-0.4538958,-1.5147197,-1.3293623,2.4526765,1.4321009,-1.0331625,-1.3252249,1.1664851,1.0247067,-1.1544774,0.8954794,0.4562237,0.19772083,1.4315643,-0.45420837,1.4046654,-2.9180205,0.20080628,-0.057266533,0.27273178,-0.30157852,0.9585683,0.6993353,-0.07816198,0.090714835,0.7046926,0.10788739,0.6524935,-0.009552838,1.0,0.0,0.0,0.0,0.0,0.0,0.0,-2.0815644,0.054208368,-0.85466534,-0.37207603,-1.3561249,-1.160121,-3.754115,-0.45479536,-0.08769035,1.5552282
3.0738547,17.380905,5.832739,12.4741955,0.5864039,-0.89941186,0.10616437,-0.7294188,0.6333098,0.5761888,-0.6646987,0.5889955,0.62635565,0.40430704,1.067451,-0.39056483,-1.4571009,-1.3958322,2.5115762,1.4947364,-0.99273175,1.1271921,-0.44236732,-1.5044982,-1.3411096,2.4615076,1.4366537,-1.0310682,-1.3183104,1.1486968,1.0210118,-1.1817116,0.8797513,0.4551255,0.21306059,1.4024048,-0.45220184,1.4033567,-2.915103,0.20060551,-0.15539522,0.27393723,-0.29513168,0.958279,0.6968706,-0.078340195,0.092781246,0.70684206,0.13112573,0.6396158,-0.0418897,1.0,0.0,0.0,0.0,0.0,0.0,0.0,-2.0524049,0.052201837,-0.85335666,0.66444874,-1.6547441,-0.4229784,-2.832818,-1.4046788,-0.07715225,1.5254825
2.2992363,15.619604,5.1461396,12.807166,0.6995852,-0.8914145,0.090266295,-0.73143077,0.6208775,0.56992745,-0.6857412,0.6020575,0.62516487,0.38448733,1.054049,-0.38027957,-1.4475055,-1.4096837,2.5217133,1.4991702,-0.99261945,1.1140562,-0.4310348,-1.4943168,-1.3531412,2.4702356,1.4411951,-1.0288557,-1.3121941,1.1284674,1.0171132,-1.2106203,0.87110895,0.45390823,0.22394986,1.3732758,-0.4501953,1.4010675,-2.9121883,0.20040494,-0.2534258,0.2753563,-0.28883743,0.9576633,0.69433606,-0.07819479,0.09492093,0.7090648,0.15212172,0.623598,-0.07452423,1.0,0.0,0.0,0.0,0.0,0.0,0.0,-2.0232759,0.050195307,-0.8510675,0.5835533,-1.9016504,-0.4393816,-3.0009508,-0.7024288,-0.103509426,1.0835111
1.3925259,12.696972,4.122308,13.046097,0.8078683,-0.8824684,0.09594443,-0.7240029,0.5948644,0.57040346,-0.7040407,0.5771412,0.6184065,0.39792845,1.0416559,-0.37154835,-1.4372765,-1.4235452,2.5279498,1.5030358,-0.98906285,1.1010062,-0.41998267,-1.4841583,-1.3654684,2.47883,1.4457194,-1.0265421,-1.3026834,1.0978974,1.0151441,-1.240588,0.8563069,0.45207444,0.23393843,1.3441772,-0.4481926,1.3977987,-2.9092765,0.20020458,-0.35135838,0.27698517,-0.2827301,0.9567128,0.691732,-0.07771787,0.09710089,0.71136355,0.17083381,0.60386544,-0.10827772,1.0,0.0,0.0,0.0,0.0,0.0,0.0,-1.9941772,0.04819259,-0.84779865,0.94475746,-2.9397726,-0.269866,-3.1105757,-1.3222694,-0.17637014,0.9892225
0.1620121,8.8179035,2.892268,13.961568,1.0154064,-0.8344577,0.10425261,-0.70225066,0.5582601,0.5675657,-0.70582587,0.5522936,0.6194433,0.4205058,1.030781,-0.36415666,-1.4274017,-1.436051,2.5340595,1.5076637,-0.98449147,1.0881373,-0.40935636,-1.4740245,-1.3780302,2.4872262,1.4502283,-1.0241235,-1.2814926,1.0512716,1.0123279,-1.2618494,0.83448863,0.45041102,0.24442422,1.3151093,-0.4461937,1.3935512,-2.906368,0.20000441,-0.44919306,0.278759,-0.27685928,0.95543534,0.68904686,-0.07692903,0.09926239,0.7137529,0.18474819,0.5785943,-0.14042667,1.0,0.0,0.0,0.0,0.0,0.0,0.0,-1.9651092,0.04619369,-0.8435512,2.1479368,-4.549122,-0.401783,-2.252531,-2.0198584,-0.1698494,1.0297507
-2.4563475,1.7479403,-0.049470663,14.7548275,1.3964659,-0.8385918,0.09754182,-0.6751594,0.5022859,0.5479782,-0.7139979,0.5359162,0.61175174,0.43758053,1.0206213,-0.35912776,-1.4192268,-1.44943,2.540818,1.5114036,-0.9803655,1.0755869,-0.3993857,-1.4640071,-1.3907655,2.495382,1.4547163,-1.0215982,-1.2457874,0.9793403,0.99744654,-1.2780739,0.80968773,0.44804987,0.2550607,1.2860641,-0.4441948,1.3883262,-2.9034624,0.19980446,-0.54692996,0.2806244,-0.27134323,0.95382524,0.68628603,-0.07581981,0.10130128,0.7162407,0.19167283,0.53959775,-0.17385417,1.0,0.0,0.0,0.0,0.0,0.0,0.0,-1.9360641,0.044194788,-0.83832616,3.6577702,-7.0932627,-1.6702175,-1.7692804,-2.3347735,-0.2575457,1.0319382
-10.842655,-17.997364,-9.157628,16.604866,2.5389702,-0.9016527,0.030720867,-0.6307129,0.370283,0.48941475,-0.7117352,0.5278765,0.5854398,0.4594831,1.0125157,-0.36235738,-1.4150656,-1.4619391,2.5481696,1.5132604,-0.9756499,1.0635611,-0.39064384,-1.4544132,-1.4035944,2.5033052,1.4591604,-1.0189642,-1.1874696,0.8393693,0.9456626,-1.2853098,0.7866066,0.44278112,0.26607323,1.2570496,-0.4421959,1.3821245,-2.9005597,0.19960469,-0.64456916,0.28240585,-0.26655197,0.95183253,0.6835225,-0.07429402,0.10293769,0.7188053,0.17792255,0.45674506,-0.21324025,1.0,0.0,0.0,0.0,0.0,0.0,0.0,-1.9070495,0.042195886,-0.83212453,6.036377,-13.941598,-5.476761,-0.9341955,-2.223742,-0.598371,1.0359645
-20.615711,-48.216846,-21.311287,17.699316,4.0887117,-0.9431518,0.12882869,-0.5026766,0.111908816,0.44378275,-0.7156746,0.4472893,0.56391567,0.48451096,1.0132934,-0.37945294,-1.4100349,-1.4751618,2.5480342,1.515552,-0.9705131,1.0526491,-0.38434386,-1.4455364,-1.4164709,2.510805,1.4635321,-1.0162138,-1.0574243,0.5602322,0.86626804,-1.2895142,0.73748994,0.43502533,0.277596,1.2280655,-0.44020462,1.3749473,-2.8976598,0.19940512,-0.7421107,0.28386307,-0.26301956,0.949356,0.680718,-0.0722343,0.10366058,0.72156745,0.1369719,0.31588125,-0.26368937,1.0,0.0,0.0,0.0,0.0,0.0,0.0,-1.8780655,0.040204614,-0.8249473,13.494396,-27.921593,-8.55329,-0.689435,-4.878092,-0.9112239,1.0368168
-42.36905,-109.578995,-50.573967,16.851566,6.796908,-1.6006329,0.047488034,-0.22106226,-0.34885138,0.14029934,-0.72359544,0.14195228,0.48633006,0.49364117,1.030543,-0.419229,-1.4315064,-1.4888304,2.525,1.5121651,-0.9668497,1.0442377,-0.3826797,-1.4387805,-1.4294065,2.5169313,1.4677626,-1.0133566,-0.7665173,0.03459399,0.60893285,-1.2958606,0.5704485,0.41762388,0.2875284,1.1991119,-0.43821335,1.3667954,-2.8947628,0.19920576,-0.8395547,0.28463364,-0.26187515,0.9460386,0.6779626,-0.06929521,0.10290219,0.7245522,0.058988985,0.045986887,-0.3572204,1.0,0.0,0.0,0.0,0.0,0.0,0.0,-1.8491119,0.038213342,-0.8167954,29.90185,-52.72603,-26.65428,-0.95021725,-16.896307,-2.1273732,0.7794738
-30.571985,-112.88886,-52.510113,8.379644,5.562504,-2.8417156,0.29585955,0.45893425,-0.593481,-0.36848545,-0.6355583,-0.45864522,0.41031605,0.4876747,1.0901312,-0.4420278,-1.4756291,-1.4929624,2.4710667,1.5087942,-0.9645891,1.041598,-0.38677907,-1.4367664,-1.4419702,2.519674,1.4717604,-1.0104173,-0.095778875,-0.5587876,0.06428445,-1.2437047,0.17497484,0.39209697,0.29531372,1.1701889,-0.43622208,1.3576698,-2.8918686,0.19900659,-0.93690133,0.28512192,-0.2634201,0.9415578,0.6750666,-0.06540842,0.10105884,0.72786945,0.044670552,-0.22151485,-0.47919095,1.0,0.0,0.0,0.0,0.0,0.0,0.0,-1.8201889,0.03622207,-0.8076698,67.267784,-59.533596,-54.825867,5.0806284,-39.73741,-3.0965924,0.5700767
-18.048233,-86.48263,-39.706615,8.2520895,4.185678,-2.692386,0.3514922,0.6581715,-0.7093551,-0.50964355,-0.58302325,-0.5509785,0.4789994,0.41519782,1.1074151,-0.4577146,-1.4877307,-1.5002725,2.4645762,1.5196604,-0.9688976,1.0458761,-0.39613938,-1.4402416,-1.4537405,2.5184762,1.4755694,-1.0074552,0.59859663,-1.0625284,-0.48178872,-1.1545473,-0.21800949,0.3751774,0.2962967,1.1412888,-0.4342308,1.3475715,-2.8889773,0.19880761,-1.0341506,0.28570557,-0.26721954,0.9359584,0.6718605,-0.060812414,0.0985707,0.73156613,0.061063528,-0.4305457,-0.58708715,1.0,0.0,0.0,0.0,0.0,0.0,0.0,-1.7912887,0.0342308,-0.7975715,68.29721,-50.59055,-53.711,8.990741,-39.387768,-2.262181,0.08544326
-11.413801,-56.79951,-28.877474,7.1708293,3.145127,-2.5022895,0.15524188,0.6832697,-0.7747752,-0.6527294,-0.6254451,-0.4377228,0.53554475,0.35168836,1.1142031,-0.4736169,-1.5055145,-1.516285,2.474704,1.5291238,-0.9722864,1.0556818,-0.40933156,-1.4485824,-1.4649099,2.5144022,1.4792773,-1.0045351,1.1027426,-1.4055227,-0.94718385,-1.10344,-0.47105893,0.3673995,0.29114512,1.1124191,-0.43224716,1.3365014,-2.8860888,0.19860885,-1.1313026,0.28655624,-0.2727661,0.92931694,0.6684726,-0.0555041,0.09566566,0.7354671,0.09392985,-0.59275085,-0.6916833,1.0,0.0,0.0,0.0,0.0,0.0,0.0,-1.7624191,0.032247156,-0.78650135,48.885773,-34.52659,-45.227848,5.334258,-25.403053,-1.3267815,-0.3886044
-1.3192754,-19.2065,-11.281025,7.155013,1.8660238,-1.8377104,0.12512797,0.68737125,-0.80482966,-0.6414747,-0.66021574,-0.2678693,0.593224,0.23553061,1.124419,-0.48981452,-1.5127299,-1.5309315,2.487615,1.5385996,-0.980982,1.0687605,-0.4247105,-1.4601085,-1.4759363,2.5091302,1.4829775,-1.0017523,1.3729115,-1.5826559,-1.21853,-1.1018122,-0.54588497,0.36960047,0.27448642,1.08358,-0.43026352,1.3244604,-2.8832033,0.19841027,-1.2283576,0.28775406,-0.27938843,0.9218096,0.6649693,-0.04950338,0.092382915,0.73947984,0.13282563,-0.6808874,-0.7753585,1.0,0.0,0.0,0.0,0.0,0.0,0.0,-1.73358,0.030263513,-0.7744604,26.048397,-17.890215,-26.334286,0.38888454,-7.584405,-0.17408729,-1.4952004
11.038426,18.940367,9.488573,7.8405533,-0.04180205,-0.9116076,0.22005206,0.68686134,-0.80938566,-0.543651,-0.68321526,-0.3438492,0.6140507,0.09771907,1.1374466,-0.5056491,-1.5144737,-1.5442579,2.4747453,1.5443826,-0.9919804,1.0831267,-0.4408729,-1.4726493,-1.4872202,2.5034883,1.4867369,-0.9992384,1.4570912,-1.6277177,-1.2657847,-1.136804,-0.5705388,0.37731132,0.24409388,1.0547714,-0.42827988,1.3114495,-2.8803205,0.1982119,-1.3253155,0.28936005,-0.28616333,0.9137254,0.66123843,-0.043102905,0.088983424,0.7436315,0.17753497,-0.6708603,-0.82645226,1.0,0.0,0.0,0.0,0.0,0.0,0.0,-1.7047714,0.02827987,-0.7614495,8.229256,-4.6031,-4.659605,-3.3947945,-2.5621653,0.5763948,-2.921453
19.44207,44.739265,25.29174,11.148251,-1.1821969,-0.017357469,0.31248477,0.7079965,-0.8117096,-0.4568797,-0.66575253,-0.36070326,0.6312152,-0.042010326,1.1539264,-0.5220439,-1.5183372,-1.5537955,2.467418,1.5498585,-1.0034394,1.0975977,-0.45691943,-1.4844425,-1.498815,2.4978006,1.4905955,-0.99712217,1.444668,-1.5971606,-1.1514705,-1.1670307,-0.5683629,0.38871473,0.20110528,1.0259895,-0.42629623,1.2974699,-2.8774407,0.19801372,-1.4221765,0.2913742,-0.29232788,0.90543795,0.6571274,-0.036737878,0.08566153,0.74799466,0.21680628,-0.59146494,-0.8372422,1.0,0.0,0.0,0.0,0.0,0.0,0.0,-1.6759895,0.026296228,-0.74746984,-0.95677376,3.0120373,11.082768,-3.0328035,0.124788284,1.1317551,-4.2328
17.177277,47.99037,27.320786,15.38386,-0.61606187,0.36891422,0.24037462,0.71721447,-0.82099545,-0.46670598,-0.6502695,-0.15135206,0.613295,-0.08665837,1.1693192,-0.539019,-1.531113,-1.5638419,2.4826653,1.551925,-1.005788,1.1116587,-0.47249866,-1.4948757,-1.5105699,2.4928415,1.4945551,-0.99544084,1.3945545,-1.5449582,-1.0086262,-1.1784914,-0.47227833,0.398464,0.15737881,0.99723434,-0.42432022,1.2825223,-2.8745637,0.19781575,-1.5189407,0.2936325,-0.29774094,0.8972064,0.6526636,-0.030556671,0.08216297,0.7525594,0.23663081,-0.51716787,-0.82562345,1.0,0.0,0.0,0.0,0.0,0.0,0.0,-1.6472343,0.024320215,-0.7325223,-4.5648575,5.179167,13.852,-1.148653,9.496361,1.0633886,-4.3063345
13.257347,45.252125,25.30833,17.839264,0.2042175,0.43567488,0.22325365,0.7077166,-0.80518824,-0.4565712,-0.65383095,0.082083,0.57760185,0.098503724,1.1824304,-0.5530175,-1.5405328,-1.575953,2.5010498,1.5523154,-0.98559046,1.1251475,-0.48751235,-1.5040271,-1.5223745,2.4895532,1.4985758,-0.9940151,1.334968,-1.48699,-0.88528633,-1.1809857,-0.28154522,0.40367356,0.13787222,0.9685097,-0.4223442,1.2666078,-2.8716896,0.19761796,-1.6156081,0.29598236,-0.3025856,0.88913774,0.64790094,-0.024450954,0.07808209,0.75731736,0.24254827,-0.46667272,-0.806674,1.0,0.0,0.0,0.0,0.0,0.0,0.0,-1.6185097,0.022344202,-0.71660775,-5.498767,5.7498217,11.935258,-0.2212286,18.962162,0.6522,-1.8679976
6.8450904,35.599133,17.418228,16.640411,0.12392092,0.096991524,0.010373056,0.6917886,-0.79847944,-0.5245164,-0.67778945,-0.17998229,0.55368423,0.19167331,1.1943263,-0.5673603,-1.5564787,-1.5901535,2.471555,1.5539442,-0.9748478,1.1380678,-0.50203836,-1.5126178,-1.5342706,2.4872339,1.5026137,-0.9926723,1.2790351,-1.4413092,-0.8512786,-1.1921653,-0.21617004,0.40404972,0.13316572,0.9398155,-0.4203682,1.2497274,-2.8688183,0.19742039,-1.7121788,0.2984314,-0.3070755,0.881085,0.6430178,-0.018293079,0.07377591,0.7620698,0.2517486,-0.43598893,-0.81010956,1.0,0.0,0.0,0.0,0.0,0.0,0.0,-1.5898155,0.020368189,-0.69972736,-5.207896,4.5084476,3.075838,-1.0220051,6.417042,0.06707311,-0.446257
6.809779,31.990225,14.988135,14.16691,-0.46429133,-0.11923049,0.0065725595,0.7086954,-0.79941374,-0.518405,-0.6926859,-0.3988768,0.57320815,0.24412738,1.2089374,-0.58197975,-1.5644584,-1.6035392,2.4473462,1.5599345,-0.9682596,1.1506525,-0.5162605,-1.5211723,-1.5463346,2.484556,1.506661,-0.9913124,1.2524872,-1.4160132,-0.8575551,-1.2107369,-0.28507715,0.40460008,0.13696747,0.9111519,-0.41839218,1.231882,-2.8659499,0.19722301,-1.808653,0.30106354,-0.31121445,0.8728771,0.6380538,-0.01209431,0.06983113,0.76672333,0.27202362,-0.3997612,-0.82902825,1.0,0.0,0.0,0.0,0.0,0.0,0.0,-1.5611519,0.018392175,-0.68188196,-2.3905754,2.4694204,-0.8768916,-1.7431021,-7.00469,-0.007998943,0.37330985
5.6255336,28.924303,13.60041,15.237182,-0.5001578,-0.068958044,-0.03452277,0.71388626,-0.80188364,-0.52182657,-0.6560174,-0.49157622,0.61581933,0.24354652,1.2220411,-0.5964489,-1.573355,-1.6119363,2.4353983,1.568243,-0.96695775,1.1631399,-0.5303701,-1.529948,-1.5583872,2.4807107,1.5107409,-0.98990667,1.2481549,-1.409447,-0.8846797,-1.2030977,-0.41832578,0.4089231,0.1416706,0.88251114,-0.4164238,1.2130725,-2.8630843,0.19702582,-1.9050307,0.30389023,-0.31501007,0.86448944,0.6330278,-0.0059786476,0.066525415,0.7712421,0.29057655,-0.36592832,-0.8463145,1.0,0.0,0.0,0.0,0.0,0.0,0.0,-1.5325111,0.016423792,-0.6630725,-0.26142597,0.58496,-2.8704286,0.88686943,-13.45427,0.34396648,0.4441023
1.5955844,22.971714,9.4585,16.55111,-0.0028283,-0.12238163,-0.15441766,0.7079955,-0.80566186,-0.58679,-0.63504475,-0.511026,0.6139405,0.2278364,1.2339395,-0.6109363,-1.588627,-1.6218916,2.429608,1.572135,-0.96712303,1.1756426,-0.54451215,-1.5393035,-1.5702204,2.4755495,1.5148607,-0.9884676,1.2513717,-1.4161031,-0.9529321,-1.1761587,-0.54964465,0.41274783,0.14452821,0.8539009,-0.4144554,1.1933001,-2.8602216,0.19682884,-2.001312,0.30685425,-0.31864166,0.85590005,0.62805754,5.2961317e-05,0.06385451,0.77554256,0.3027309,-0.3534668,-0.86723816,1.0,0.0,0.0,0.0,0.0,0.0,0.0,-1.5039009,0.014455408,-0.6433001,0.44150352,-0.75969696,-6.9095254,2.8488636,-13.29782,0.27624965,0.25660098
0.5050545,20.840185,7.8438826,15.891677,0.27086276,-0.19605204,-0.16505307,0.70549923,-0.8085086,-0.6214819,-0.64453596,-0.5096401,0.60302234,0.20182578,1.2461926,-0.625363,-1.6014518,-1.634674,2.4245853,1.575163,-0.968285,1.1881891,-0.55876386,-1.5494468,-1.5818304,2.46932,1.5190073,-0.98702276,1.2563094,-1.4285624,-1.0350008,-1.1553456,-0.6478244,0.41488948,0.14432572,0.8253212,-0.41248703,1.1725656,-2.8573618,0.19663206,-2.097497,0.3099327,-0.32221985,0.8470547,0.6232031,0.00610839,0.06168069,0.77959985,0.31341764,-0.3517022,-0.8943361,1.0,0.0,0.0,0.0,0.0,0.0,0.0,-1.4753212,0.012487024,-0.62256557,0.60112476,-1.3483047,-8.279621,2.257228,-9.997093,0.09393096,-0.032401085
0.009553432,21.478653,8.550981,15.677721,0.38369572,-0.06769338,-0.11897756,0.6797884,-0.8154239,-0.61679584,-0.648528,-0.5261112,0.5991462,0.21390831,1.256168,-0.64030623,-1.6111264,-1.6466832,2.416709,1.5789219,-0.9656319,1.2006651,-0.57316434,-1.5602367,-1.5933088,2.4623392,1.5231692,-0.9855751,1.244986,-1.4442085,-1.0941868,-1.1446235,-0.7157977,0.4161622,0.14501381,0.796772,-0.41052246,1.1508698,-2.8545048,0.19643547,-2.1935856,0.31307983,-0.32578278,0.8379437,0.6184384,0.0122508835,0.05984046,0.7834557,0.3191068,-0.35015714,-0.9208815,1.0,0.0,0.0,0.0,0.0,0.0,0.0,-1.446772,0.010522455,-0.60086983,-0.99081993,-1.6666889,-6.0260534,1.2564182,-6.9843173,0.014454126,0.07010698
1.4057679,25.742165,11.554726,15.289068,0.19440168,0.12433134,-0.048981845,0.6576555,-0.810501,-0.6043799,-0.65230876,-0.56208926,0.61174715,0.20761345,1.2664306,-0.65421444,-1.6206747,-1.6585397,2.4061303,1.5843439,-0.9648137,1.2129141,-0.5876688,-1.5713565,-1.6047548,2.4547937,1.5273501,-0.98412454,1.2187214,-1.4528394,-1.1184909,-1.1441978,-0.76824856,0.4184814,0.14506054,0.7682457,-0.4085617,1.128214,-2.8516507,0.19623907,-2.2895782,0.3162651,-0.32924652,0.82861024,0.61369514,0.018454868,0.058252875,0.7871748,0.32228658,-0.33713526,-0.94187456,1.0,0.0,0.0,0.0,0.0,0.0,0.0,-1.4182457,0.008561701,-0.578214,-2.442336,-0.9549856,-2.5832176,0.21455288,-5.432904,0.13455749,0.011724234
0.5935168,26.842316,12.398477,15.8875065,0.26375616,0.2894166,-0.044985637,0.6357072,-0.81848437,-0.6165038,-0.6423517,-0.5838455,0.61765885,0.20406486,1.2764848,-0.6695172,-1.6330069,-1.66899,2.396409,1.589116,-0.96371806,1.224816,-0.6022581,-1.582608,-1.6161855,2.4468133,1.5315596,-0.98267686,1.1813843,-1.4612477,-1.1278431,-1.1421492,-0.80843025,0.42135066,0.14475782,0.7397499,-0.40660095,1.104599,-2.8487995,0.19604287,-2.385475,0.31944275,-0.33257675,0.81909966,0.6089518,0.02468556,0.05684814,0.7907822,0.31997153,-0.3237074,-0.95823884,1.0,0.0,0.0,0.0,0.0,0.0,0.0,-1.3897499,0.006600946,-0.554599,-3.532219,-0.9320736,-1.0985136,0.37753582,-4.214108,0.20644069,-0.018903613
0.082095146,27.383358,12.465603,15.719602,0.35493952,0.3222275,-0.05042004,0.6187254,-0.8203149,-0.6382004,-0.64534,-0.57484823,0.60562146,0.19484195,1.2866886,-0.6842896,-1.646428,-1.6807195,2.3893285,1.5921217,-0.96319264,1.2363249,-0.61691225,-1.5939662,-1.6276182,2.4385774,1.5357844,-0.9812387,1.1414143,-1.4671648,-1.1392151,-1.1430533,-0.82922184,0.42277578,0.14357568,0.71128464,-0.4046402,1.0800257,-2.845951,0.19584687,-2.4812758,0.32258224,-0.335804,0.80942345,0.60421664,0.030970028,0.05554842,0.79427785,0.31575748,-0.31289777,-0.97485083,1.0,0.0,0.0,0.0,0.0,0.0,0.0,-1.3612846,0.004640192,-0.53002566,-3.7920237,-0.68314075,-1.3015985,0.087213516,-2.2776365,0.06446242,-0.09884536
-4.210437,26.246365,10.862143,16.246471,0.53697354,0.48122337,-0.13533154,0.5465222,-0.81814706,-0.6458677,-0.6622454,-0.6011293,0.59930104,0.19674844,1.2909771,-0.69872695,-1.658553,-1.6938428,2.3784645,1.5957144,-0.9615639,1.2471911,-0.63159406,-1.6054428,-1.6391424,2.430147,1.5400168,-0.9798111,1.069072,-1.4687966,-1.1511927,-1.1548191,-0.84854275,0.42323512,0.14244492,0.68284607,-0.40268326,1.0544951,-2.8431056,0.19565105,-2.5769808,0.3256111,-0.33896255,0.7995612,0.59956837,0.03735698,0.0543459,0.7976018,0.30196723,-0.30870467,-0.9938986,1.0,0.0,0.0,0.0,0.0,0.0,0.0,-1.332846,0.002683252,-0.5044951,-6.968832,-0.2585411,-1.4043808,-0.97510815,-2.150333,-0.025713444,-0.11206567
-9.374397,23.899134,8.347246,16.696175,0.81626296,0.61750746,-0.23464724,0.4735717,-0.81946874,-0.6643618,-0.6824219,-0.6051587,0.58922446,0.18537836,1.2945483,-0.7135409,-1.6718789,-1.7073846,2.369631,1.5989392,-0.96127325,1.2570959,-0.6462816,-1.6171005,-1.6508764,2.42156,1.5442435,-0.97840345,0.9654136,-1.4690709,-1.1713516,-1.1788007,-0.86253273,0.42245236,0.14017856,0.6544342,-0.40073013,1.0280081,-2.840263,0.19545545,-2.67259,0.32844162,-0.34217453,0.7894678,0.5951245,0.04392223,0.05323926,0.8006642,0.27766237,-0.3151899,-1.0181133,1.0,0.0,0.0,0.0,0.0,0.0,0.0,-1.3044342,0.0007301271,-0.4780081,-10.0480795,-0.13120174,-2.2589445,-2.1639347,-1.6391039,-0.15252233,-0.24035871
-22.579624,18.822727,2.965594,20.95394,1.5688293,1.0910996,-0.5744061,0.31399792,-0.8128852,-0.68577343,-0.679855,-0.6343816,0.59209013,0.040148683,1.2884958,-0.7275701,-1.6856778,-1.7188619,2.3581219,1.6034524,-0.9743886,1.2653929,-0.66093576,-1.629031,-1.6628107,2.4127862,1.5484682,-0.9771284,0.7856957,-1.4645636,-1.2012419,-1.1973661,-0.8834155,0.42213827,0.12305938,0.62605286,-0.398777,1.0005658,-2.837423,0.19526003,-2.7681038,0.3307991,-0.34563065,0.7791382,0.5912155,0.050685693,0.052241664,0.80322224,0.22463067,-0.3478927,-1.0414082,1.0,0.0,0.0,0.0,0.0,0.0,0.0,-1.2760528,-0.0012229979,-0.45056576,-17.53664,0.3171444,-3.281331,-1.5616179,-2.3938656,-0.07762313,-1.7761648
-60.15054,3.6144743,-12.396163,32.066013,3.6788712,2.4345233,-1.3804197,-0.11724584,-0.79836994,-0.6995215,-0.7102494,-0.66452247,0.6374474,-0.07448984,1.2536683,-0.7407727,-1.6989831,-1.7338356,2.346334,1.612213,-0.98457736,1.2701403,-0.6754793,-1.6412857,-1.6750082,2.403734,1.5527254,-0.9761137,0.3738836,-1.4517639,-1.2353857,-1.2256023,-0.91400653,0.4267868,0.093563,0.597702,-0.39682388,0.972169,-2.8345861,0.19506481,-2.863522,0.3320198,-0.34996414,0.76856166,0.58866966,0.05768412,0.051365998,0.80467516,0.08918381,-0.45226914,-1.0664418,1.0,0.0,0.0,0.0,0.0,0.0,0.0,-1.247702,-0.003176123,-0.42216897,-40.3677,1.0488749,-3.9077282,-2.3304462,-3.568554,0.4523337,-3.1406612
-98.07895,-10.840851,-27.712221,42.638977,5.883343,3.7508385,-2.142022,-0.5617177,-0.7827259,-0.7329205,-0.7414969,-0.6486077,0.6395171,-0.1737815,1.2139685,-0.7537519,-1.7145777,-1.7491579,2.3388731,1.6166772,-0.9934918,1.2691275,-0.68983877,-1.6539791,-1.6875681,2.394449,1.5570227,-0.9754566,-0.25565353,-1.432037,-1.2828364,-1.2633111,-0.93581057,0.43022394,0.05546744,0.5693779,-0.39487457,0.94281876,-2.831752,0.19486979,-2.9588447,0.33127594,-0.35588455,0.7577014,0.5884225,0.06502908,0.050534807,0.8043484,-0.12955046,-0.63010854,-1.0955231,1.0,0.0,0.0,0.0,0.0,0.0,0.0,-1.2193779,-0.005125433,-0.39281875,-61.76176,1.574254,-5.43766,-2.972746,-2.9724717,0.18504858,-4.071346
-94.536125,-4.5855026,-23.324585,39.96794,5.618225,3.8736115,-1.8962147,-0.71279204,-0.76866364,-0.7228394,-0.77745956,-0.56748897,0.60624003,-0.03434677,1.1978483,-0.76670516,-1.726263,-1.765314,2.3377001,1.6176467,-0.97889125,1.2620417,-0.7039684,-1.6670139,-1.7005972,2.3852441,1.5613123,-0.97504175,-0.8555728,-1.4082347,-1.3126042,-1.3130358,-0.91831833,0.42731708,0.03630294,0.5410805,-0.39292908,0.91251606,-2.8289208,0.19467495,-3.0540724,0.32833862,-0.36346436,0.74657047,0.5904931,0.07279719,0.049548868,0.80222404,-0.3494175,-0.79073846,-1.1216466,1.0,0.0,0.0,0.0,0.0,0.0,0.0,-1.1910805,-0.007070929,-0.36251605,-58.82095,1.8989563,-3.6678076,-4.0492296,0.8610964,-0.7079959,-2.0724454
-68.663734,9.984793,-9.252844,32.10411,4.2631855,3.3699265,-1.2712394,-0.7607359,-0.77519065,-0.69774806,-0.77384716,-0.44370428,0.5767038,-0.103615895,1.185968,-0.78148746,-1.7367887,-1.7779819,2.3408737,1.6189827,-0.98540336,1.2502276,-0.7179369,-1.680104,-1.7140173,2.376642,1.5655447,-0.9748224,-1.2869797,-1.3944399,-1.3095543,-1.3489958,-0.84340566,0.42023426,0.017125767,0.51281357,-0.39098358,0.8812618,-2.8260925,0.19448031,-3.1492047,0.32356262,-0.37222672,0.73526895,0.59425986,0.08094312,0.048081964,0.7987437,-0.5253147,-0.89492923,-1.1353008,1.0,0.0,0.0,0.0,0.0,0.0,0.0,-1.1628135,-0.009016424,-0.3312618,-42.28382,0.95067024,-0.2093792,-2.7902365,6.74237,-1.1941016,-1.908347
-40.55859,24.209854,4.7814393,24.769062,3.0847597,2.7134674,-0.71499074,-0.8025324,-0.7722818,-0.68774,-0.7548134,-0.20113394,0.563952,-0.28033498,1.1699743,-0.79516506,-1.748878,-1.7894986,2.3565285,1.6219399,-1.0028559,1.2354819,-0.73180807,-1.6930149,-1.7275976,2.3695123,1.5697008,-0.9748949,-1.5355214,-1.3856314,-1.2860146,-1.3591,-0.671156,0.4128599,-0.014782056,0.48457336,-0.3890381,0.8490569,-2.823267,0.19428587,-3.244242,0.3174324,-0.38168335,0.72393537,0.5990645,0.08940011,0.045678716,0.794382,-0.64979106,-0.95060706,-1.1347289,1.0,0.0,0.0,0.0,0.0,0.0,0.0,-1.1345733,-0.01096192,-0.2990569,-24.354887,0.57661533,2.0674944,-0.45101643,16.733574,-1.1370897,-3.043872
-16.296568,34.740913,15.73699,18.630877,2.3618298,2.0319533,-0.27182865,-0.81188273,-0.7696815,-0.67815423,-0.7419099,0.16439614,0.5496494,-0.43922487,1.1542935,-0.8087762,-1.7608303,-1.8017886,2.385952,1.6246657,-1.0188174,1.2194334,-0.74561346,-1.7056205,-1.7411283,2.3650873,1.5737864,-0.9753784,-1.6273919,-1.3794868,-1.2524972,-1.3500636,-0.36685234,0.4061613,-0.058753926,0.45635986,-0.3870964,0.81590235,-2.8204443,0.19409163,-3.339184,0.31040573,-0.3914795,0.7126729,0.60439205,0.09817806,0.04176433,0.78951055,-0.72781837,-0.9761428,-1.1251944,1.0,0.0,0.0,0.0,0.0,0.0,0.0,-1.1063598,-0.012903601,-0.26590234,-8.985734,0.4455328,3.2705069,1.201868,30.215776,-0.93943477,-4.1519985
-1.5155306,39.59359,20.924608,14.284755,1.763781,1.4879541,-0.03947626,-0.8163147,-0.7672252,-0.6939646,-0.7321012,0.36959296,0.5591771,-0.49390328,1.137802,-0.82233596,-1.775017,-1.8143384,2.4020467,1.6297041,-1.0247687,1.2032057,-0.75936735,-1.7180088,-1.7544893,2.364023,1.5778242,-0.9763111,-1.6210766,-1.3743268,-1.2339205,-1.3308259,-0.019862514,0.4024973,-0.10397916,0.42817688,-0.38515854,0.78179914,-2.8176246,0.19389758,-3.4340312,0.30286026,-0.40140152,0.7014872,0.6099204,0.10729386,0.03606672,0.7843368,-0.77330977,-0.9838663,-1.1179802,1.0,0.0,0.0,0.0,0.0,0.0,0.0,-1.0781769,-0.014841467,-0.23179913,0.6677389,0.43530464,1.8989325,2.067709,34.676468,-0.5341947,-4.269567
7.2370543,48.31729,26.491997,12.0073595,0.65658355,1.3415176,0.03144883,-0.8297737,-0.7121389,-0.6798915,-0.72095793,0.38263473,0.58121276,-0.49493995,1.1202283,-0.83058125,-1.7859979,-1.826585,2.4022865,1.6359456,-1.0258051,1.1873175,-0.77282655,-1.7302196,-1.7676233,2.3659036,1.5818564,-0.9776577,-1.5782853,-1.3365393,-1.216513,-1.307652,0.2576827,0.40325183,-0.14443508,0.4000244,-0.38322067,0.7467481,-2.8148077,0.19370373,-3.5287838,0.2950287,-0.41116714,0.69043684,0.61547077,0.116579756,0.02892543,0.7789532,-0.7964458,-0.95989525,-1.1027713,1.0,0.0,0.0,0.0,0.0,0.0,0.0,-1.0500244,-0.016779333,-0.19674808,4.2448044,3.74794,1.8546104,2.3313284,27.848286,0.031119585,-3.8828313
7.5387287,48.83427,25.492094,10.651446,-0.11015952,1.2019273,-0.039929494,-0.83756065,-0.6926602,-0.7172208,-0.71442795,0.27942124,0.56893486,-0.4868225,1.1035614,-0.8420926,-1.8019416,-1.8390661,2.3938458,1.6387498,-1.0263399,1.171868,-0.7858299,-1.7424896,-1.7805399,2.3695428,1.5858923,-0.97936094,-1.5339597,-1.2883426,-1.2302256,-1.2862568,0.39975283,0.4035777,-0.17866197,0.37189484,-0.3812828,0.7107503,-2.8119936,0.19351006,-3.6234415,0.28702164,-0.42058182,0.6794833,0.62100494,0.12589742,0.021008605,0.7733442,-0.8095719,-0.9215125,-1.0949543,0.0,1.0,0.0,0.0,0.0,0.0,0.0,-1.0218948,-0.0187172,-0.16075027,4.4110537,4.7923803,-1.274538,2.161169,14.2988205,0.002503395,-3.34765
6.0319443,43.979233,22.07938,7.9559383,-0.6851717,1.0272714,-0.035814136,-0.8316605,-0.70996094,-0.7422491,-0.7357757,0.15196006,0.52782124,-0.47628158,1.088702,-0.856826,-1.8167145,-1.8541174,2.384739,1.6386745,-1.0269891,1.1567627,-0.7984632,-1.755394,-1.7935976,2.3726053,1.5899171,-0.9809801,-1.5079507,-1.2472879,-1.3672976,-1.3452882,0.1090818,0.37158135,-0.11800654,0.34981918,-0.38282776,0.6895774,-1.2071341,-0.7421509,1.1418134,0.27898026,-0.42943573,0.66833603,0.62630796,0.13524869,0.013408489,0.76763684,-0.79583895,-0.841893,-1.14862,0.0,1.0,0.0,0.0,0.0,0.0,0.0,-0.99981916,-0.017172247,-0.13957739,1.5674591,5.4766417,-23.761082,-11.795735,-58.901894,-6.0580373,14.94306
79.11083,176.0,110.0,82.39945,-9.1965,8.331042,-0.1892504,-0.6370317,0.49358535,0.71770424,0.7370342,-0.31440338,0.6330907,-0.27793458,1.0930595,-0.7491047,-1.6836236,-1.7198942,2.341165,1.6532261,-1.0087736,1.1465197,-0.80698395,-1.7697966,-1.7975397,2.3640294,1.6019031,-0.9794191,-0.8658142,-0.7197187,-1.4565682,-0.082149826,-1.171083,1.4804217,0.24249148,0.33786392,-0.39030838,0.7007225,-1.2059273,-0.7414089,1.0424857,0.27149963,-0.43582916,0.66095984,0.6315915,0.13591099,0.011747003,0.7632053,-0.73845685,-0.5600636,-0.6003661,0.0,1.0,0.0,0.0,0.0,0.0,0.0,-0.9878639,-0.009691626,-0.1507225,63.31382,52.992283,-6.922126,124.63258,-126.56032,112.45587,34.63852
24.055017,142.19304,104.43399,89.30314,-2.2570753,7.3123937,-0.32609782,-0.7679221,-0.43202144,0.55647486,0.79948664,-0.6086897,0.5749006,-0.41312268,1.0697274,-0.8501861,-1.7141491,-1.717591,2.3031604,1.6593932,-1.0207313,1.138217,-0.8129053,-1.7783206,-1.7912073,2.3498158,1.6167899,-0.97714555,-0.81882626,-0.55059224,-0.64823544,0.8699778,-1.507045,1.4963423,0.22129501,0.3258133,-0.39771652,0.7104031,-1.2047216,-0.7406676,0.94325745,0.26410675,-0.44065094,0.6592144,0.6374635,0.12850477,0.013047933,0.75957656,-0.7429907,-0.44724888,-0.034386855,1.0,0.0,0.0,0.0,0.0,0.0,0.0,-0.97581327,-0.0022834837,-0.16040307,4.5239687,16.612482,81.71317,94.75778,-34.27987,3.0811071,-2.433169
-9.079809,108.61644,69.88885,72.9882,0.71670336,5.583654,-0.7759986,-0.76995033,-0.23550998,0.1411436,0.7769284,-0.6723917,0.6215951,-0.2579003,1.061222,-0.8364563,-1.7642062,-1.7135144,2.2825766,1.6789495,-1.0029355,1.1291304,-0.8172951,-1.7803633,-1.7778215,2.334477,1.6310016,-0.97527635,-0.93738997,-0.40287858,-0.056526214,1.4951966,-1.5464319,1.3988385,0.17599057,0.31377792,-0.40511703,0.71908414,-1.2035171,-0.7399271,0.84306324,0.2562294,-0.44492722,0.6617863,0.64423746,0.11644125,0.015316296,0.7557546,-0.8038902,-0.4149004,0.3506194,1.0,0.0,0.0,0.0,0.0,0.0,0.0,-0.9637779,0.005117029,-0.16908413,-11.441147,14.4402685,59.104965,62.694595,-5.0199986,-8.904767,-4.360652
-10.754877,107.99929,60.746433,48.93413,-0.10301116,4.2588415,-0.62557924,-0.7668858,0.055021927,0.26177636,0.7913944,-0.68242276,0.6398443,-0.1913558,1.0524418,-0.8117929,-1.7541857,-1.6986821,2.2662346,1.694986,-0.99441195,1.1183596,-0.8195267,-1.7774851,-1.7608137,2.319901,1.6439353,-0.9738878,-1.1223676,-0.16421646,0.40134385,1.7700096,-1.4313307,1.2603216,0.12691271,0.30175018,-0.41250992,0.726764,-1.2023138,-0.73918736,0.74296916,0.24784088,-0.44856644,0.6673369,0.6516983,0.10191317,0.018214162,0.7513795,-0.85441977,-0.3411372,0.6184497,1.0,0.0,0.0,0.0,0.0,0.0,0.0,-0.95175016,0.012509912,-0.17676401,-18.12408,23.568392,45.37491,27.672768,10.486603,-13.217449,-4.7955275
-41.804813,29.799139,0.13401991,26.00292,3.0974684,1.236527,-1.1040142,-0.7952114,-0.16840282,-0.23928553,0.7741207,-0.6946401,0.64423704,-0.2751961,1.0388384,-0.83636695,-1.8014137,-1.6834016,2.250437,1.708359,-1.0014074,1.1058035,-0.8208065,-1.7740729,-1.7429934,2.3067327,1.6555434,-0.9730104,-1.2991422,-0.115891196,0.3201939,1.7863531,-1.2786092,1.1287873,0.074974224,0.2897377,-0.41989517,0.73344374,-1.2011117,-0.7384483,0.64297515,0.2386589,-0.4525032,0.67338055,0.66003764,0.08770249,0.021187615,0.74579465,-0.9430444,-0.4035316,0.5951815,1.0,0.0,0.0,0.0,0.0,0.0,0.0,-0.9397377,0.019895166,-0.18344373,-17.45689,4.82537,-8.427561,1.746726,15.344477,-12.805104,-5.104926
-46.342518,-3.6098871,-24.132324,12.20713,3.6789966,-0.37773806,-1.1243503,-0.8056042,-0.18149874,-0.36141112,0.7807939,-0.677255,0.63726395,-0.31395796,1.025243,-0.83895636,-1.810214,-1.664914,2.2390072,1.7192699,-1.0044062,1.0918703,-0.8222256,-1.7733309,-1.7259321,2.2949986,1.6659576,-0.9726347,-1.4243687,-0.15031311,-0.00826597,1.6794661,-1.1367161,1.0126493,0.025169458,0.27773285,-0.4272728,0.73912424,-1.1999108,-0.73771,0.54308116,0.22865295,-0.45739365,0.6782131,0.6693436,0.07557224,0.023942359,0.73871154,-1.024962,-0.50995535,0.44218984,1.0,0.0,0.0,0.0,0.0,0.0,0.0,-0.9277328,0.02727279,-0.18912423,-12.392807,-3.3513994,-33.033924,-10.639191,14.621615,-11.4492655,-4.978947
-36.184536,-5.3483925,-23.14525,6.540543,2.8936534,-0.8132279,-0.8848781,-0.80972177,-0.15329333,-0.3681186,0.7889396,-0.64742374,0.66149133,-0.38019642,1.0108981,-0.83755493,-1.8101428,-1.6470382,2.2302563,1.7321067,-1.0106543,1.0771341,-0.8241081,-1.7760413,-1.7101145,2.284474,1.6753608,-0.9727539,-1.4898295,-0.20067178,-0.35902137,1.5496247,-1.0233973,0.91619456,-0.024366759,0.26574326,-0.4346428,0.74380654,-1.198711,-0.7369724,0.44328701,0.21799469,-0.46324158,0.68140465,0.67942303,0.06589315,0.026492802,0.7303017,-1.0828074,-0.6002467,0.27523455,1.0,0.0,0.0,0.0,0.0,0.0,0.0,-0.91574323,0.034642786,-0.19380653,-6.4312696,-4.969394,-35.20614,-12.895942,11.658621,-9.618831,-4.9937916
-20.053791,11.502333,-8.339287,5.878459,1.5420101,-0.5312076,-0.5325731,-0.807426,-0.11908575,-0.35026196,0.7907743,-0.61739236,0.67701286,-0.4252144,0.99639153,-0.8360167,-1.8110675,-1.631037,2.2227347,1.7430621,-1.0152754,1.0621119,-0.8263006,-1.7814715,-1.6953878,2.274857,1.6839343,-0.9733499,-1.5061144,-0.2254709,-0.6044454,1.4473791,-0.9407868,0.83778185,-0.07158065,0.2537651,-0.44200516,0.74749166,-1.1975126,-0.7362356,0.34359264,0.2069931,-0.4696312,0.6832942,0.68993855,0.058203883,0.028988943,0.72094154,-1.1114501,-0.6425529,0.15789978,1.0,0.0,0.0,0.0,0.0,0.0,0.0,-0.9037651,0.04200515,-0.19749165,-1.5598059,-2.481845,-24.60348,-10.149193,8.335137,-7.845378,-4.793319
-11.137922,19.438135,1.3987361,7.397774,1.0039535,-0.12613964,-0.26430303,-0.8116876,-0.17744385,-0.3656265,0.78673124,-0.58708364,0.6843215,-0.46316758,0.9809431,-0.844045,-1.8180342,-1.6167147,2.2161486,1.7523665,-1.0196667,1.0471163,-0.8288946,-1.7885172,-1.6813745,2.2658963,1.6918365,-0.97439325,-1.4972382,-0.27089426,-0.73784006,1.3860893,-0.8813679,0.77430964,-0.11542863,0.2417984,-0.4493637,0.75018054,-1.1963154,-0.73549956,0.24399793,0.19578552,-0.47626114,0.6843068,0.7006006,0.05187885,0.031394996,0.7109723,-1.1301315,-0.6599604,0.08043119,1.0,0.0,0.0,0.0,0.0,0.0,0.0,-0.8917984,0.049363703,-0.20018053,0.92806816,-4.5808673,-13.3215065,-6.0584545,5.8723927,-6.351733,-4.440717
0.9183731,37.6113,17.358166,9.870617,0.09826344,0.49942088,0.05045798,-0.80058366,-0.17084311,-0.2693009,0.79394716,-0.57036287,0.69053394,-0.46901435,0.96705794,-0.8459789,-1.8154473,-1.6019799,2.20886,1.7608899,-1.0212947,1.0323324,-0.83183384,-1.795727,-1.6676588,2.257382,1.6992007,-0.97583044,-1.4722742,-0.30187556,-0.71476674,1.3666881,-0.84258175,0.72386914,-0.15326071,0.22984695,-0.45671463,0.75187427,-1.1951194,-0.7347642,0.14450283,0.18450928,-0.4827423,0.6850181,0.7111058,0.04614911,0.033698194,0.70075905,-1.1310495,-0.63446784,0.066192575,1.0,0.0,0.0,0.0,0.0,0.0,0.0,-0.87984693,0.056714624,-0.20187426,2.4501562,-3.1895757,2.4317622,-1.9506931,3.6210418,-4.973197,-3.8504214
5.7075005,45.198822,25.906958,11.9878645,-0.12934154,1.0051666,0.25647515,-0.80973494,-0.224298,-0.16107108,0.7909497,-0.54021925,0.68410116,-0.49371725,0.9513589,-0.85426366,-1.8118341,-1.5885638,2.20336,1.7676109,-1.0252022,1.0177469,-0.8352289,-1.8017695,-1.653964,2.2492032,1.7061282,-0.9776157,-1.4542853,-0.3524633,-0.5668466,1.3701454,-0.8112236,0.6826809,-0.18706249,0.21790314,-0.46405792,0.7525738,-1.1939245,-0.7340296,0.045107204,0.17325592,-0.48883057,0.6858667,0.7212311,0.040381275,0.035763487,0.69059104,-1.1292484,-0.5887494,0.08918561,1.0,0.0,0.0,0.0,0.0,0.0,0.0,-0.8679031,0.06405792,-0.20257378,1.7205715,-5.175376,14.982843,0.3113985,2.7679324,-3.9998174,-3.4232469
9.205833,48.31183,30.18944,12.454748,-0.32259142,1.2112396,0.4085447,-0.79758763,-0.27389815,-0.059860438,0.78923786,-0.56606793,0.6876683,-0.47788793,0.93798816,-0.86261874,-1.8077556,-1.5750402,2.1925964,1.7748951,-1.0254045,1.0033426,-0.83927155,-1.805815,-1.6401663,2.2411618,1.7127048,-0.9796852,-1.4361289,-0.4219993,-0.34969527,1.3828831,-0.80322003,0.6498516,-0.21362855,0.20597458,-0.4713936,0.75228006,-1.1927309,-0.7332957,-0.054189052,0.16205215,-0.49435425,0.6870666,0.7308225,0.03418415,0.037497066,0.6806789,-1.1223663,-0.53135234,0.1283285,1.0,0.0,0.0,0.0,0.0,0.0,0.0,-0.85597456,0.07139358,-0.20228004,1.7358541,-7.0740166,21.930706,1.2329102,0.3822446,-3.1163573,-2.6830049
13.197199,52.693604,34.18055,12.430893,-0.6116152,1.299429,0.52605844,-0.77855855,-0.30362448,0.07864241,0.7954543,-0.6061906,0.6918027,-0.46222767,0.9254868,-0.869634,-1.7979507,-1.5606209,2.1805427,1.781885,-1.025908,0.98915714,-0.8440294,-1.8073466,-1.6262083,2.2330098,1.7190048,-0.9819721,-1.412914,-0.49419576,-0.08681816,1.4001422,-0.82117057,0.6239527,-0.23376447,0.19405365,-0.47872162,0.75099415,-1.1915385,-0.7325625,-0.15338603,0.1509819,-0.4992218,0.68875515,0.73976237,0.027289106,0.038914185,0.6711875,-1.1063205,-0.46223524,0.18021879,1.0,0.0,0.0,0.0,0.0,0.0,0.0,-0.8440536,0.07872161,-0.20099413,2.2524595,-7.3446693,26.5068,1.6752243,-2.2621393,-2.3817182,-2.0361066
12.888313,45.68213,30.290764,10.716247,-0.44842875,1.0549479,0.56338125,-0.7543687,-0.38855633,0.1603115,0.78323084,-0.63345146,0.6964686,-0.42712498,0.91372025,-0.88288504,-1.7913154,-1.5478852,2.1696646,1.7886516,-1.0246845,0.97527164,-0.84973717,-1.8063929,-1.6121588,2.224564,1.7250854,-0.984403,-1.3805518,-0.59655213,0.15694799,1.4064136,-0.85352504,0.603298,-0.24618985,0.18214798,-0.48604202,0.748714,-1.1903472,-0.7318301,-0.25287756,0.14007187,-0.5034714,0.69081366,0.74800676,0.019707255,0.039961375,0.6621938,-1.0900415,-0.4039701,0.21209699,1.0,0.0,0.0,0.0,0.0,0.0,0.0,-0.83214796,0.08604202,-0.19871402,3.204298,-10.335922,24.571918,0.6020546,-3.6668658,-1.8686652,-1.2365371
9.330624,36.851067,21.69916,9.056503,-0.19678503,0.50162154,0.41747314,-0.7142601,-0.41990805,0.11365503,0.77996236,-0.6796242,0.70069045,-0.3544243,0.9038456,-0.891728,-1.7950274,-1.5341625,2.1566017,1.7951545,-1.0198455,0.96184105,-0.8564253,-1.8038809,-1.5981035,2.2156873,1.7309886,-0.9868816,-1.3306233,-0.693129,0.28307372,1.4053226,-0.9000329,0.58671874,-0.2483699,0.17025375,-0.4933548,0.7454397,-1.1891571,-0.7310985,-0.35226968,0.12931442,-0.50730896,0.69291973,0.7556608,0.0117787,0.04074282,0.6535886,-1.0750283,-0.3692367,0.20742068,1.0,0.0,0.0,0.0,0.0,0.0,0.0,-0.82025373,0.09335479,-0.1954397,4.9765825,-9.72507,12.760698,-0.10545254,-4.958892,-1.4811397,-0.21195114
0.5985632,30.1311,13.257863,9.782035,0.3371787,0.20072246,0.1676617,-0.71786755,-0.43849227,0.078960866,0.7767264,-0.67113626,0.6775667,-0.29646748,0.8900543,-0.9002745,-1.7959849,-1.5204309,2.1485736,1.7987453,-1.0165284,0.94881576,-0.8639164,-1.8009264,-1.584094,2.2064366,1.7367316,-0.989324,-1.2931951,-0.76783884,0.29976094,1.3995079,-0.9335612,0.5707287,-0.24272908,0.15837097,-0.50065994,0.74117225,-1.1879683,-0.73036754,-0.4515624,0.11859894,-0.51097107,0.69477594,0.76295155,0.003917144,0.041395046,0.6451171,-1.0749636,-0.35845542,0.17545716,1.0,0.0,0.0,0.0,0.0,0.0,0.0,-0.80837095,0.10065994,-0.19117224,3.7519455,-7.5154185,1.7412901,-0.5275488,-3.5241127,-1.4385343,0.57630837
-3.3641632,24.488508,6.7554464,9.500981,0.61676943,-0.18282944,-0.0053453967,-0.6772618,-0.46786702,0.0075040674,0.7817305,-0.6848678,0.68185747,-0.2661438,0.88108957,-0.9107031,-1.800176,-1.505921,2.13795,1.8049173,-1.0159384,0.9362349,-0.8720341,-1.7985499,-1.5701208,2.1969075,1.7423354,-0.99168146,-1.2463949,-0.8264042,0.2169475,1.3969456,-0.95942354,0.557477,-0.2334841,0.14649963,-0.50795746,0.7359126,-1.1867806,-0.7296373,-0.5507558,0.10784531,-0.5146713,0.69613326,0.7700722,-0.003513815,0.042041868,0.6365601,-1.0795997,-0.36705765,0.119455434,0.0,1.0,0.0,0.0,0.0,0.0,0.0,-0.7964996,0.10795745,-0.18591261,4.680681,-5.8822393,-8.238196,-0.16987324,-2.6482582,-1.1828065,0.929299
-8.22907,18.586994,1.4716346,9.659554,0.9819845,-0.35399783,-0.14034699,-0.66408455,-0.5140935,-0.055557616,0.7782765,-0.67258096,0.6755502,-0.2733883,0.86982644,-0.92344344,-1.8041056,-1.4922931,2.1296494,1.8098905,-1.0190203,0.92407745,-0.8807421,-1.797415,-1.5561743,2.187241,1.7478172,-0.99395597,-1.2054037,-0.88565904,0.078935325,1.3942742,-0.96913916,0.5454609,-0.22537579,0.13463974,-0.51524734,0.7296618,-1.1855941,-0.7289078,-0.64985,0.096969604,-0.51856995,0.6968015,0.7771735,-0.010256462,0.04269327,0.62775266,-1.094676,-0.39091292,0.045966145,0.0,1.0,0.0,0.0,0.0,0.0,0.0,-0.7846397,0.11524734,-0.17966181,4.1139364,-5.9414268,-13.788,-0.13613701,-0.95716715,-1.0986567,0.82514286
-10.705683,20.592684,1.1602316,10.631209,1.0740248,-0.32933962,-0.22265501,-0.6552016,-0.5156016,-0.11831105,0.7828836,-0.65542257,0.6724435,-0.26745802,0.8585573,-0.93230224,-1.8092461,-1.477886,2.1216989,1.8150616,-1.0207018,0.9122803,-0.8898717,-1.7979863,-1.5422986,2.1773837,1.7526132,-0.9963087,-1.1709416,-0.9219485,-0.10415701,1.3849769,-0.9926707,0.45606318,-0.2389379,0.11960983,-0.5193558,0.73094285,-1.6161644,-0.2913618,0.46459335,0.085998535,-0.522789,0.69668144,0.784401,-0.01584601,0.043531008,0.61852163,-1.1000683,-0.4251489,-0.035291873,0.0,1.0,0.0,0.0,0.0,0.0,0.0,-0.7696098,0.11935577,-0.18094283,3.132391,-3.8647294,-15.75404,0.33433437,0.37640333,-0.86473227,0.70843697
-7.1046023,96.86334,35.18579,21.211073,-0.82991767,0.9073893,-0.3993908,-0.76601946,0.0040762783,-0.08151702,0.79538506,-0.61237794,0.65135103,-0.2808262,0.8356784,-0.8894641,-1.8061379,-1.4627601,2.1161458,1.8177483,-1.0243913,0.9001734,-0.8967973,-1.7997143,-1.5283844,2.167637,1.7570993,-0.9986757,-1.2237567,-0.61683506,-0.19588937,1.3936058,-0.9697619,0.4471445,-0.23684952,0.10346222,-0.5222702,0.7348379,-1.6145486,-0.29107052,0.36448395,0.07514572,-0.52651596,0.6969245,0.7918104,-0.020990055,0.04561731,0.60869926,-1.0844206,-0.3473837,0.04070846,0.0,1.0,0.0,0.0,0.0,0.0,0.0,-0.7534622,0.1222702,-0.18483788,-5.23901,30.288124,-9.27977,0.8341551,1.9946933,-0.61002374,-0.0749439
-15.258819,90.156,30.74802,23.125252,-0.17499003,1.0520842,-0.5131604,-0.78869724,-0.064647354,-0.19545528,0.7887186,-0.578487,0.65992635,-0.3612393,0.8213037,-0.903262,-1.8192599,-1.4495126,2.1097884,1.8230919,-1.0347996,0.8873379,-0.90088284,-1.8024418,-1.514394,2.1582606,1.7615682,-1.0010705,-1.3033504,-0.33994362,-0.29881182,1.4008601,-0.9275947,0.44731924,-0.24125971,0.087329865,-0.525177,0.7377326,-1.6129344,-0.2907795,0.2644746,0.06427765,-0.529541,0.69785887,0.79946923,-0.025956767,0.049116492,0.59813267,-1.0904245,-0.28135744,0.10810042,0.0,1.0,0.0,0.0,0.0,0.0,0.0,-0.73732984,0.125177,-0.18773258,-7.9161167,27.464544,-10.37049,0.7289171,3.9491057,0.16278625,-0.6851822
-19.856903,74.87934,22.279335,21.91618,0.31463563,0.8219563,-0.5409123,-0.7999615,-0.035892244,-0.33346862,0.7844199,-0.58560425,0.660088,-0.34709018,0.80734175,-0.90447205,-1.8357887,-1.4359521,2.0997002,1.827577,-1.0357795,0.8737347,-0.9026433,-1.8065407,-1.5003617,2.1492693,1.7660657,-1.0034966,-1.3792055,-0.121978804,-0.44711658,1.4042706,-0.89054745,0.45068836,-0.24369106,0.07121277,-0.5280838,0.73962796,-1.6113218,-0.29048878,0.16456528,0.053253174,-0.5320816,0.6992107,0.80740803,-0.030541217,0.05381548,0.58673954,-1.1093441,-0.23684524,0.14234805,0.0,1.0,0.0,0.0,0.0,0.0,0.0,-0.72121274,0.1280838,-0.18962795,-7.548332,21.597532,-14.872324,0.36404133,3.514278,0.3657639,-0.4577905
-17.922491,53.439575,14.522468,18.07768,0.770097,0.53712344,-0.39839503,-0.7934292,-0.064172104,-0.3615013,0.7864348,-0.5668488,0.6643751,-0.36676878,0.7943918,-0.90906054,-1.8426908,-1.4217182,2.0925844,1.8325032,-1.0401735,0.8595946,-0.9030992,-1.8119881,-1.4863026,2.1406252,1.7705976,-1.0059552,-1.4254702,-0.020605868,-0.57729614,1.4063929,-0.85579586,0.45400354,-0.24708451,0.05511093,-0.5309868,0.7405334,-1.6097108,-0.29019836,0.06587907,0.0419693,-0.53435135,0.70062965,0.8155275,-0.03462765,0.059240695,0.5746358,-1.1355468,-0.21559073,0.14051042,0.0,1.0,0.0,0.0,0.0,0.0,0.0,-0.7051109,0.13098678,-0.1905334,-4.588604,9.988,-12.99572,0.24814606,3.3360362,0.2868712,-0.49961805
-13.551157,41.379013,11.786277,15.192793,0.9633945,0.3910367,-0.23413432,-0.7923959,-0.06935787,-0.3691824,0.79267085,-0.54771435,0.66210383,-0.3795903,0.780355,-0.91003495,-1.8489064,-1.4070356,2.0858538,1.836808,-1.0439142,0.8451979,-0.90317357,-1.8184121,-1.4722054,2.1323092,1.775158,-1.0084519,-1.4442859,-0.003513687,-0.6636974,1.410989,-0.8240464,0.4565108,-0.25086105,0.039024353,-0.53388596,0.7404527,-1.6081014,-0.2899082,-0.03270849,0.03042984,-0.5364952,0.7018984,0.82368094,-0.038257178,0.06491598,0.56202483,-1.1620269,-0.20483388,0.12164755,0.0,1.0,0.0,0.0,0.0,0.0,0.0,-0.6890243,0.13388595,-0.1904527,-1.8502235,1.5943972,-8.561349,0.5003691,3.0465126,0.1865089,-0.4973948
-7.4522204,40.52101,14.218165,13.265862,0.8204129,0.39994645,-0.06367926,-0.7917654,-0.055027746,-0.3525767,0.7933546,-0.5386445,0.66515565,-0.3830102,0.7660214,-0.9086763,-1.8536698,-1.39287,2.0784447,1.8416736,-1.0467529,0.8307555,-0.90335286,-1.8252652,-1.4580662,2.124264,1.7797433,-1.0109849,-1.4442685,-0.023049578,-0.69184506,1.4148812,-0.7987901,0.45894983,-0.2542976,0.022953033,-0.5367851,0.73938686,-1.6064936,-0.28961834,-0.13119747,0.018688202,-0.53850174,0.7030013,0.831714,-0.041594855,0.07057463,0.5491274,-1.1793965,-0.18923405,0.1061172,0.0,1.0,0.0,0.0,0.0,0.0,0.0,-0.672953,0.13678512,-0.18938684,-0.0022172928,-2.0603535,-2.6689768,0.41036606,2.3565173,0.18901229,-0.44389963
-5.5633526,34.310387,13.111952,12.099796,0.99063826,0.3696882,0.030908324,-0.7902746,-0.11632626,-0.34441707,0.7975201,-0.52380085,0.6635272,-0.37841368,0.751728,-0.9149855,-1.8597069,-1.3783143,2.071884,1.846096,-1.0488262,0.8163874,-0.9041139,-1.832103,-1.4438775,2.1164477,1.7843477,-1.0135427,-1.4343487,-0.094044484,-0.68040276,1.4202627,-0.7767611,0.46094638,-0.25633743,0.0068969727,-0.53967667,0.7373237,-1.6048875,-0.28932878,-0.2313455,0.0067596436,-0.5403862,0.7038872,0.83953154,-0.044766102,0.0759558,0.53610945,-1.1991014,-0.17849252,0.08237415,0.0,1.0,0.0,0.0,0.0,0.0,0.0,-0.65689695,0.13967666,-0.18732369,0.9872198,-7.18585,1.3209343,0.5813837,2.0362854,0.15604496,-0.26495457
-2.9834003,35.979668,15.050329,11.425314,0.9135702,0.41682988,0.111116044,-0.78827727,-0.13600096,-0.3126713,0.7941403,-0.50541663,0.652847,-0.36070803,0.7375597,-0.917714,-1.8633702,-1.3644634,2.065906,1.8496324,-1.0496135,0.80214214,-0.90564364,-1.8386239,-1.4296901,2.1089633,1.7891597,-1.0160778,-1.4212317,-0.17280437,-0.6439099,1.4174018,-0.7364722,0.49289224,-0.25218883,-0.0077209473,-0.5427933,0.7369423,-1.3780916,-0.32169852,0.10819409,-0.0053634644,-0.5421181,0.7045527,0.8470659,-0.047952447,0.08088035,0.52310425,-1.2188984,-0.16087575,0.0599758,0.0,1.0,0.0,0.0,0.0,0.0,0.0,-0.642279,0.14279327,-0.18694228,1.2519836,-8.037114,4.661846,0.13415813,2.3769617,0.4199028,0.043016672
7.546389,54.712917,28.080338,11.749298,0.4503543,0.80351293,0.3238222,-0.7775435,-0.13670985,-0.09791826,0.7993988,-0.48872024,0.65565413,-0.38258642,0.72438776,-0.9193146,-1.8484157,-1.3497503,2.0600913,1.8547251,-1.0543364,0.7880535,-0.907818,-1.84373,-1.4155054,2.1017761,1.7941066,-1.0186069,-1.4050542,-0.23276111,-0.46515352,1.4185283,-0.71377736,0.4950757,-0.25319943,-0.02141571,-0.545784,0.7382852,-1.3666188,-0.2902155,0.14253592,-0.017475128,-0.5434456,0.70535785,0.8541566,-0.051586527,0.08529997,0.5103717,-1.2093612,-0.11412644,0.08651903,0.0,1.0,0.0,0.0,0.0,0.0,0.0,-0.62858427,0.14578399,-0.18828517,1.5053272,-6.1285734,18.22747,0.071787834,1.8909574,0.22622347,-0.15476346
15.560095,64.64396,35.86777,11.123718,0.12546158,0.97444737,0.49665016,-0.762981,-0.18381083,0.07787155,0.79471064,-0.5076392,0.6517864,-0.37635773,0.7117554,-0.9261991,-1.8359429,-1.3360343,2.0510123,1.8592852,-1.0562427,0.7741623,-0.9106122,-1.8463106,-1.4013376,2.0946965,1.7990547,-1.0211416,-1.3842963,-0.29537097,-0.18751882,1.4161334,-0.7076316,0.4947023,-0.25360462,-0.034938812,-0.54838943,0.7401837,-1.3470572,-0.2494506,0.20475881,-0.029346466,-0.5441818,0.7066173,0.8606473,-0.056063093,0.08918287,0.49818605,-1.1804177,-0.05049679,0.13815655,0.0,1.0,0.0,0.0,0.0,0.0,0.0,-0.61506116,0.14838943,-0.1901837,1.93367,-6.4109507,28.194609,-0.31514168,0.11854172,0.017505884,-0.09024739
14.752214,66.59697,36.02978,11.524557,0.13544479,0.93784404,0.47895887,-0.7678223,-0.20380792,0.15948693,0.7859588,-0.5077045,0.6345125,-0.34696895,0.69738007,-0.930993,-1.830362,-1.3227417,2.043926,1.862506,-1.0558386,0.760417,-0.9139558,-1.8461053,-1.3872328,2.0876203,1.8039714,-1.0236574,-1.3715967,-0.34790227,0.0910752,1.4085532,-0.70939845,0.4907958,-0.2510901,-0.048252106,-0.5505638,0.74272215,-1.3263646,-0.20692405,0.26914105,-0.040920258,-0.5442772,0.7084065,0.8665254,-0.061476134,0.09256777,0.48660627,-1.1498734,0.013557436,0.19109944,0.0,1.0,0.0,0.0,0.0,0.0,0.0,-0.6017479,0.1505638,-0.19272214,1.1730433,-5.402917,28.245321,-0.8089304,-0.67180395,-0.31487346,0.21912456
12.103725,60.247204,30.78271,10.668903,0.15324083,0.64218235,0.4144652,-0.7501049,-0.2365476,0.19680104,0.7771298,-0.5395153,0.6328787,-0.30010438,0.6854065,-0.93761057,-1.8264252,-1.3095198,2.0336688,1.8672593,-1.0536679,0.746831,-0.9178153,-1.8436048,-1.3732367,2.0804105,1.8088468,-1.0261122,-1.3543341,-0.39895448,0.30418798,1.3965538,-0.7263749,0.48671728,-0.24390809,-0.061374664,-0.5523529,0.7457444,-1.3077521,-0.16972889,0.31184825,-0.052204132,-0.54382324,0.7105682,0.8718574,-0.06761967,0.09557704,0.47555995,-1.1220069,0.06470568,0.22284783,0.0,1.0,0.0,0.0,0.0,0.0,0.0,-0.5886253,0.1523529,-0.1957444,1.6763449,-5.228156,21.610073,-1.2192488,-2.1068335,-0.3050506,0.6915033
5.3278923,53.846012,24.303612,11.119423,0.33090204,0.39343357,0.26105228,-0.7556077,-0.24462758,0.2117622,0.76531416,-0.543269,0.61952573,-0.29436457,0.67127025,-0.9422781,-1.8224286,-1.2967052,2.0260835,1.8707994,-1.0555487,0.7333556,-0.9220773,-1.8396357,-1.3593969,2.0730178,1.8136725,-1.0284945,-1.3453088,-0.4355851,0.42856908,1.3799572,-0.74450636,0.48159382,-0.23652993,-0.07434845,-0.55381393,0.74902487,-1.294026,-0.13856745,0.33137116,-0.06329727,-0.5429497,0.71288633,0.8767737,-0.07415393,0.09837144,0.464857,-1.1053528,0.102136746,0.23286247,0.0,1.0,0.0,0.0,0.0,0.0,0.0,-0.5756515,0.15381393,-0.19902486,0.89075565,-3.7590623,12.627578,-1.6412973,-2.1069765,-0.38774014,0.7183373
-1.8136072,42.899014,16.687223,11.287143,0.72496957,0.16507554,0.11638312,-0.75865334,-0.29142174,0.2254076,0.7543185,-0.5076754,0.6026712,-0.28265968,0.65749025,-0.9512195,-1.8170949,-1.2839651,2.0222502,1.8739396,-1.0567604,0.71991545,-0.92678845,-1.8349595,-1.3457423,2.0655758,1.8184354,-1.0308024,-1.3435407,-0.48309064,0.48090556,1.3608919,-0.74472106,0.47493762,-0.22883144,-0.08724213,-0.5550308,0.75228083,-1.2878628,-0.11608248,0.32153204,-0.07436371,-0.5418396,0.715114,0.88142043,-0.08075107,0.10094613,0.45429832,-1.1071589,0.12216184,0.21724488,0.0,1.0,0.0,0.0,0.0,0.0,0.0,-0.56275785,0.15503082,-0.20228082,0.1957655,-4.8112035,5.330902,-1.8563747,-0.19564629,-0.54798126,0.7745892
-1.6958766,44.827137,16.493694,11.519125,0.66953754,0.034282207,0.081838466,-0.741425,-0.28356102,0.25634727,0.7549262,-0.51251173,0.5995793,-0.25486955,0.64577293,-0.9551445,-1.8093247,-1.2702497,2.0143247,1.8783934,-1.0562893,0.706544,-0.9318315,-1.8300024,-1.3322345,2.058157,1.8231353,-1.0330199,-1.3349204,-0.5115899,0.5009878,1.3477564,-0.74132365,0.46876204,-0.21943152,-0.10006714,-0.5560188,0.7554355,-1.2809645,-0.09346752,0.3111198,-0.085422516,-0.5405464,0.7171844,0.88585854,-0.08726588,0.10337039,0.44379476,-1.1064526,0.13992868,0.20142648,0.0,1.0,0.0,0.0,0.0,0.0,0.0,-0.54993284,0.15601882,-0.20543551,0.8778095,-2.9103339,2.0864427,-1.2539625,0.18345118,-0.48623085,0.93671083
-4.5219703,38.957962,12.61278,11.467542,0.79804903,-0.12367141,0.013098506,-0.7361864,-0.32070997,0.23160496,0.75287354,-0.51783633,0.59430015,-0.252589,0.63292533,-0.9639025,-1.806842,-1.2569472,2.0063734,1.8825653,-1.0582788,0.69327456,-0.937215,-1.8251449,-1.3188163,2.0507681,1.827774,-1.0351503,-1.3242127,-0.5474482,0.48088244,1.3401432,-0.7387552,0.46273676,-0.21085602,-0.112846375,-0.5568199,0.75836796,-1.2774365,-0.075702436,0.2849038,-0.09653473,-0.5391426,0.7189967,0.89014906,-0.09355938,0.105684355,0.43325752,-1.1131587,0.14812313,0.1721607,0.0,1.0,0.0,0.0,0.0,0.0,0.0,-0.5371536,0.15681991,-0.20836794,1.0961533,-3.6302805,-1.9661427,-0.6846905,0.15642643,-0.48043728,0.86395144
-2.5498843,43.801476,14.89415,11.549458,0.67475486,-0.13716996,0.041494254,-0.72575974,-0.31624922,0.25769773,0.74972457,-0.51998264,0.5909528,-0.2142219,0.6206986,-0.9688399,-1.799375,-1.2438438,1.9987699,1.8868693,-1.0565724,0.6801434,-0.9428493,-1.8204398,-1.3054515,2.0433981,1.8323574,-1.037174,-1.309457,-0.56902486,0.46724078,1.3355874,-0.73726255,0.4572241,-0.1996973,-0.1255722,-0.557415,0.76110065,-1.2711272,-0.054439113,0.26748338,-0.107658386,-0.5376282,0.72057897,0.89428884,-0.099632114,0.10794392,0.42269242,-1.1133252,0.16051862,0.15119503,0.0,1.0,0.0,0.0,0.0,0.0,0.0,-0.5244278,0.157415,-0.21110064,1.4936447,-2.216053,-1.299125,-0.37796497,0.01938343,-0.425905,1.1131138
-8.386135,42.23787,12.615099,13.212011,0.92284006,-0.12979203,-0.06465657,-0.7473008,-0.32068655,0.20580363,0.74729264,-0.48700175,0.5717514,-0.21753418,0.6054133,-0.97491795,-1.7998594,-1.2307222,1.9946979,1.8895326,-1.0589274,0.6670323,-0.94863045,-1.8160912,-1.2921191,2.0361319,1.836874,-1.0390985,-1.3115312,-0.58142054,0.4242575,1.3330002,-0.7233427,0.4502884,-0.18996102,-0.1382637,-0.5578041,0.76362103,-1.2687198,-0.03412389,0.24452701,-0.11888504,-0.5359955,0.72192466,0.89833647,-0.10540817,0.110189155,0.41199392,-1.1253746,0.17086598,0.12662609,0.0,1.0,0.0,0.0,0.0,0.0,0.0,-0.5117363,0.1578041,-0.21362102,-0.16701221,-1.2932539,-4.286778,-0.14972687,1.3132334,-0.5760014,0.981912
-3.8047853,43.998535,14.97301,11.913613,0.87339246,-0.12886679,0.011744941,-0.7212519,-0.35588142,0.26140097,0.74253887,-0.4654379,0.57357746,-0.20426749,0.5949071,-0.9842186,-1.7899511,-1.2178652,1.989588,1.8942318,-1.0595253,0.6539851,-0.95463574,-1.8118685,-1.2788211,2.0290675,1.8413277,-1.0409256,-1.3022914,-0.6071343,0.42182308,1.3290657,-0.70134383,0.4440024,-0.18030077,-0.15090942,-0.55797577,0.7659431,-1.2636945,-0.011563955,0.22664914,-0.13017654,-0.53424454,0.7230677,0.90226734,-0.11098531,0.11230296,0.40122798,-1.1309868,0.18406107,0.10776394,0.0,1.0,0.0,0.0,0.0,0.0,0.0,-0.49909055,0.15797576,-0.2159431,0.9518862,-2.6360989,-0.17116666,-0.3009796,2.0590663,-0.5348921,0.9761423
-7.3748436,42.16339,12.885227,12.313778,0.97522783,-0.17283195,-0.032752745,-0.73675996,-0.3521475,0.19386935,0.7302725,-0.42851114,0.5489886,-0.157818,0.5803091,-0.98985046,-1.7924817,-1.2057939,1.9862164,1.8962265,-1.0567074,0.6409532,-0.9608422,-1.8078939,-1.2656108,2.0223122,1.845705,-1.0426326,-1.3033844,-0.6253366,0.38944933,1.3188505,-0.6674963,0.4359937,-0.16734397,-0.16352463,-0.5579338,0.7680292,-1.2611575,0.009012116,0.20056458,-0.14157486,-0.53238297,0.7239751,0.9061034,-0.11630002,0.1142576,0.39037928,-1.1431304,0.19471674,0.082618214,0.0,1.0,0.0,0.0,0.0,0.0,0.0,-0.48647535,0.1579338,-0.2180292,-0.0729084,-1.8800735,-3.2049537,-0.9123802,3.2866,-0.71144104,1.3106823
-7.077406,46.538673,14.407701,12.884342,0.9219582,-0.1954717,-0.039332177,-0.73220754,-0.33729437,0.17712864,0.7374722,-0.4083184,0.52824336,-0.13050981,0.56773245,-0.9945716,-1.790181,-1.1918635,1.9814804,1.8985294,-1.0556836,0.62791455,-0.96710306,-1.8042891,-1.2524596,2.0159154,1.8499908,-1.0441985,-1.3038852,-0.6265116,0.3509076,1.3142726,-0.6307935,0.42660934,-0.15301545,-0.17610168,-0.5576668,0.76990205,-1.256847,0.032563504,0.18157639,-0.15306854,-0.5303955,0.72468436,0.90985733,-0.121320374,0.116118744,0.3794173,-1.1519293,0.20843714,0.06457405,0.0,1.0,0.0,0.0,0.0,0.0,0.0,-0.4738983,0.15766677,-0.21990204,-0.015449524,-0.18869638,-3.8148403,-0.3443718,3.5604239,-0.8506298,1.4388919
-8.407721,45.05964,12.886681,12.969955,0.85947144,-0.2772038,-0.066116035,-0.7295874,-0.34330928,0.11928054,0.74197835,-0.41983047,0.5235305,-0.12202357,0.55495584,-1.001434,-1.792361,-1.1782618,1.9739324,1.9023439,-1.0564009,0.6148797,-0.9733506,-1.8012756,-1.2393085,2.0097857,1.8541888,-1.0456289,-1.3032742,-0.6243976,0.28489345,1.3157353,-0.6073085,0.41773555,-0.13958012,-0.1886406,-0.5571747,0.7715393,-1.2530903,0.054395624,0.15669467,-0.16466141,-0.528286,0.72517395,0.91354746,-0.1259711,0.11799742,0.36829183,-1.1613286,0.21925637,0.04134584,0.0,1.0,0.0,0.0,0.0,0.0,0.0,-0.46135938,0.15717468,-0.22153926,0.09877682,0.14185905,-6.5746665,0.26872158,2.2630334,-0.80440044,1.3454854
-10.680545,45.42062,11.919899,13.694919,0.81925136,-0.33471924,-0.10155758,-0.7354413,-0.32741496,0.050453227,0.74962705,-0.41706073,0.50011694,-0.0938303,0.5413356,-1.0060921,-1.7962303,-1.1643457,1.9680796,1.9042006,-1.055012,0.60182583,-0.97948843,-1.7991475,-1.2260925,2.003824,1.8582892,-1.046918,-1.3060281,-0.6104935,0.18867846,1.324186,-0.59263253,0.40763205,-0.125388,-0.20114517,-0.55646896,0.7729095,-1.2497224,0.075861074,0.12960842,-0.17635345,-0.52607346,0.7254186,0.91720146,-0.13013601,0.12003345,0.3569287,-1.1719676,0.22906901,0.016484207,0.0,1.0,0.0,0.0,0.0,0.0,0.0,-0.4488548,0.15646896,-0.22290951,-0.23059845,1.3164401,-9.612349,0.97990036,1.4010787,-0.934571,1.4094055
-6.268926,52.333878,16.036707,13.147971,0.6838441,-0.28039664,-0.0253915,-0.72359556,-0.31844875,0.08242437,0.75164706,-0.40120417,0.50193095,-0.06557774,0.5294663,-1.0113333,-1.790905,-1.1509278,1.9637036,1.9084823,-1.0534759,0.58879673,-0.98544985,-1.7976769,-1.2127848,1.9980049,1.8622954,-1.0480586,-1.3017012,-0.59168154,0.13353465,1.333412,-0.5786836,0.39843366,-0.11028298,-0.21357727,-0.55550003,0.7741183,-1.2412165,0.10350043,0.11785758,-0.18808365,-0.5237198,0.72551966,0.92077285,-0.13392437,0.122243725,0.3453956,-1.1719586,0.24631922,0.005750246,0.0,1.0,0.0,0.0,0.0,0.0,0.0,-0.4364227,0.15550002,-0.22411829,0.45769215,1.7816901,-5.425534,1.0301828,1.2451768,-0.86176395,1.48101
-11.435158,47.412216,12.51337,13.913797,0.811336,-0.3277024,-0.09990449,-0.7432175,-0.31522548,-0.029287554,0.75498205,-0.3878461,0.47056153,-0.067413665,0.514475,-1.0169724,-1.8006057,-1.1372865,1.9592203,1.9093516,-1.0548,0.5757257,-0.99123675,-1.7970494,-1.1993837,1.9923267,1.8661942,-1.0490639,-1.3087925,-0.5746365,0.039388254,1.3428533,-0.5645373,0.38728338,-0.09731945,-0.22595596,-0.5542908,0.7751062,-1.2368162,0.126871,0.092708975,-0.19988632,-0.52121735,0.72543055,0.924292,-0.13724267,0.12465456,0.3336312,-1.1820208,0.25913063,-0.01593645,0.0,1.0,0.0,0.0,0.0,0.0,0.0,-0.424044,0.15429077,-0.22510618,-0.6639004,1.6132474,-9.376163,1.0753632,1.3167977,-1.0756016,1.2718544
-12.63818,46.464684,10.824125,13.548432,0.6875017,-0.44968277,-0.08537061,-0.7421702,-0.28599253,-0.13695288,0.7542684,-0.37360376,0.428788,0.032046005,0.50150865,-1.019836,-1.8107446,-1.1239569,1.9549663,1.909073,-1.0458593,0.56258214,-0.99676234,-1.7976942,-1.1859142,1.9868009,1.8699623,-1.0498823,-1.3161268,-0.5455385,-0.09905452,1.3486987,-0.5487919,0.37327546,-0.076765604,-0.2382927,-0.5528717,0.7757802,-1.2326266,0.1469959,0.059374284,-0.21177673,-0.51862335,0.7250751,0.9277872,-0.13988772,0.12735958,0.32159248,-1.1912761,0.2679643,-0.044141643,0.0,1.0,0.0,0.0,0.0,0.0,0.0,-0.41170728,0.1528717,-0.22578019,-0.68929195,2.8158784,-13.8268585,0.7110596,1.5001535,-1.3740003,2.0101593
-13.921745,49.2301,10.788308,14.198803,0.60483265,-0.5458563,-0.09809621,-0.7458483,-0.24266893,-0.2423442,0.7679841,-0.35619795,0.3534294,0.08119444,0.4879973,-1.0210292,-1.8219286,-1.1091157,1.9511812,1.9053053,-1.0417628,0.5493585,-1.00184,-1.7999964,-1.1723487,1.9814563,1.8735425,-1.0504737,-1.3242793,-0.4956498,-0.27388576,1.359743,-0.53002447,0.35289925,-0.05348053,-0.25057983,-0.55125046,0.7761277,-1.2275134,0.16715544,0.026829693,-0.22376251,-0.51595306,0.7244528,0.93127555,-0.14168465,0.13048553,0.30923247,-1.1989092,0.27583772,-0.07017106,0.0,1.0,0.0,0.0,0.0,0.0,0.0,-0.39942014,0.15125045,-0.22612768,-0.76909065,4.877341,-17.466042,1.2218952,1.7912745,-2.040124,2.2523835
-16.435688,47.845627,9.040008,14.537699,0.67393124,-0.66506946,-0.12916023,-0.75596625,-0.21472996,-0.3772932,0.769151,-0.29136282,0.22063285,0.1277007,0.47376186,-1.023313,-1.8377256,-1.0954336,1.95232,1.8956058,-1.0377036,0.53602517,-1.0063585,-1.8043429,-1.1586843,1.9764562,1.876833,-1.0508174,-1.3361145,-0.4375713,-0.48845404,1.3691607,-0.49018595,0.32073665,-0.02839432,-0.26283646,-0.54946136,0.77607095,-1.2246387,0.18350245,-0.01425465,-0.23585892,-0.51322937,0.7235341,0.93479276,-0.14243571,0.13405019,0.29648775,-1.2118199,0.2795442,-0.10063687,0.0,1.0,0.0,0.0,0.0,0.0,0.0,-0.38716352,0.14946136,-0.22607094,-1.1253119,5.6859136,-21.455538,1.0525942,3.9004982,-3.2728612,2.4134197
-14.349285,55.26323,11.8577585,14.752478,0.50139785,-0.72992706,-0.0804261,-0.7528641,-0.15590148,-0.47377956,0.7803339,-0.28718308,0.06741548,0.18981715,0.46073875,-1.0219487,-1.8517208,-1.0806508,1.9477378,1.8835745,-1.0318357,0.5226089,-1.010139,-1.8108523,-1.1448998,1.9718318,1.8797005,-1.0508901,-1.343412,-0.35875112,-0.70489264,1.3815113,-0.45367768,0.27509704,-0.00067369733,-0.2750244,-0.54748154,0.77569425,-1.2168323,0.2036147,-0.043518882,-0.24802017,-0.51044846,0.7224013,0.93832064,-0.14204839,0.13812347,0.28336984,-1.2153492,0.28623286,-0.118759096,0.0,1.0,0.0,0.0,0.0,0.0,0.0,-0.37497556,0.14748153,-0.22569424,-0.6921768,7.723671,-21.568764,1.2920141,3.47988,-4.672575,2.630366
-15.299135,40.860706,5.771055,12.099958,0.28940564,-0.9131155,0.009952785,-0.75614744,-0.19956234,-0.6174514,0.76392996,-0.38400126,-0.19701608,0.30073765,0.44699413,-1.0300952,-1.8725975,-1.0685068,1.9334316,1.859999,-1.0208163,0.50913346,-1.0134826,-1.8196579,-1.1310904,1.9671972,1.8819531,-1.0506307,-1.3486726,-0.32656077,-0.9390731,1.3808444,-0.46697927,0.20814627,0.034372743,-0.28717804,-0.54540634,0.7747706,-1.2139674,0.21021858,-0.10524074,-0.26025772,-0.50772095,0.72087526,0.94184965,-0.14026016,0.14272313,0.26995608,-1.2235286,0.27892923,-0.164581,0.0,1.0,0.0,0.0,0.0,0.0,0.0,-0.36282194,0.14540634,-0.2247706,-0.46026707,3.0902684,-23.376774,0.014615059,-1.4697611,-6.798691,3.3701222
-6.6695104,60.969967,14.38214,11.161818,-0.38828218,-0.8984523,0.19784361,-0.7450806,-0.080229275,-0.6801368,0.7509299,-0.4710811,-0.36029807,0.33812302,0.4346254,-1.0215055,-1.8876716,-1.0559974,1.9200891,1.8459233,-1.0168184,0.49567425,-1.0161395,-1.8305289,-1.1173929,1.9621024,1.8834497,-1.0500263,-1.345045,-0.24615917,-1.1357709,1.3658429,-0.5246192,0.12954058,0.06839933,-0.29917526,-0.5431709,0.7734955,-1.1940988,0.22924156,-0.1302019,-0.27230072,-0.504982,0.7191201,0.9452706,-0.13703631,0.14809364,0.2564228,-1.1968298,0.28203842,-0.17957476,0.0,1.0,0.0,0.0,0.0,0.0,0.0,-0.3508247,0.14317092,-0.22349548,0.33359528,7.850921,-19.43059,-1.5720129,-6.1147633,-7.9954476,3.168779
-7.6378717,44.27995,9.0427475,8.40348,-0.31300038,-0.8153231,0.2658414,-0.75864947,-0.17509407,-0.7346263,0.7163685,-0.56926787,-0.44577116,0.3551993,0.4198093,-1.033649,-1.9039915,-1.0457561,1.9051757,1.8388726,-1.0145063,0.48220456,-1.0185504,-1.8430148,-1.1040064,1.9561251,1.8841671,-1.0491035,-1.3476235,-0.23993912,-1.2853783,1.3294696,-0.6227545,0.05200994,0.09966894,-0.31103134,-0.5408287,0.7717395,-1.1813133,0.23760171,-0.18552801,-0.28417587,-0.50226593,0.71700567,0.9485304,-0.1323952,0.1541075,0.24292482,-1.1816847,0.27776337,-0.22208583,0.0,1.0,0.0,0.0,0.0,0.0,0.0,-0.33896863,0.1408287,-0.22173947,-0.26466846,0.47938526,-14.724088,-3.640771,-10.135388,-7.863845,2.9381797
-2.6347637,47.182484,11.746614,6.8738074,-0.32592493,-0.7010877,0.3552826,-0.7478895,-0.1601398,-0.7532927,0.6909144,-0.60244125,-0.48742247,0.39243507,0.4074156,-1.0345644,-1.9183441,-1.034915,1.895881,1.8354248,-1.00986,0.46875256,-1.021009,-1.8565385,-1.0910759,1.9491652,1.8841548,-1.0478771,-1.3445389,-0.2483654,-1.3736063,1.2806315,-0.7213622,-0.01958968,0.12976249,-0.3227234,-0.5383873,0.76948524,-1.1641496,0.24806182,-0.2335952,-0.29584122,-0.49957657,0.71451,0.95157075,-0.12651989,0.16054372,0.22963344,-1.1595227,0.27672964,-0.25866717,0.0,1.0,0.0,0.0,0.0,0.0,0.0,-0.3272766,0.1383873,-0.21948522,0.2519369,-0.98216534,-8.489537,-4.9259663,-10.256267,-7.2949095,2.8188496
