Afshin1997/kuka_rl_ros2/src/catch_and_throw/input_files/idealpd/polynomial_regressor/optimizer_files/env_336_data.csv
torque0,torque1,torque2,torque3,torque4,torque5,torque6,action0,action1,action2,action3,action4,action5,action6,set_target_0,set_target_1,set_target_2,set_target_3,set_target_4,set_target_5,set_target_6,joint_pos_0,joint_pos_1,joint_pos_2,joint_pos_3,joint_pos_4,joint_pos_5,joint_pos_6,joint_vel_0,joint_vel_1,joint_vel_2,joint_vel_3,joint_vel_4,joint_vel_5,joint_vel_6,tennisball_pos_0,tennisball_pos_1,tennisball_pos_2,tennisball_lin_vel_0,tennisball_lin_vel_1,tennisball_lin_vel_2,end_effector_pos_0,end_effector_pos_1,end_effector_pos_2,end_effector_rot_0,end_effector_rot_1,end_effector_rot_2,end_effector_rot_3,end_effector_lin_vel_0,end_effector_lin_vel_1,end_effector_lin_vel_2,obs_task_0,obs_task_1,obs_task_2,obs_task_3,obs_task_4,obs_task_5,obs_task_6,to_final_target_0,to_final_target_1,to_final_target_2,joint_acc_0,joint_acc_1,joint_acc_2,joint_acc_3,joint_acc_4,joint_acc_5,joint_acc_6
0.0,0.0,0.0,0.0,0.0,0.0,0.0,0.0,0.0,0.0,0.0,0.0,0.0,0.0,1.7802359,-1.0646509,-1.8151424,-1.1170107,1.9373155,1.1170107,-0.91629785,1.7802359,-1.0646509,-1.8151424,-1.1170107,1.9373155,1.1170107,-0.91629785,0.0,0.0,0.0,0.0,0.0,0.0,0.0,2.8548622,-0.42235947,0.09353444,-3.0544348,-0.23539086,5.7328424,0.5304146,-0.45449638,0.693097,0.5745483,0.17512383,0.15255436,0.7848268,0.0,0.0,0.0,1.0,0.0,0.0,0.0,0.0,0.0,0.0,-3.5048623,0.02235946,0.45646557,0.0,0.0,0.0,0.0,0.0,0.0,0.0
0.0,0.0,0.0,0.0,0.0,0.0,0.0,0.0,0.0,0.0,0.0,0.0,0.0,0.0,1.7802359,-1.0646509,-1.8151424,-1.1170107,1.9373155,1.1170107,-0.91629785,1.7802359,-1.0646509,-1.8151424,-1.1170107,1.9373155,1.1170107,-0.91629785,0.0,0.0,0.0,0.0,0.0,0.0,0.0,2.8548622,-0.42235947,0.09353444,-3.0544348,-0.23539086,5.7328424,0.5304146,-0.45449638,0.693097,0.5745483,0.17512383,0.15255436,0.7848268,0.0,0.0,0.0,1.0,0.0,0.0,0.0,0.0,0.0,0.0,-3.5048623,0.02235946,0.45646557,0.0,0.0,0.0,0.0,0.0,0.0,0.0
0.0,0.0,0.0,0.0,0.0,0.0,0.0,0.0,0.0,0.0,0.0,0.0,0.0,0.0,1.7802359,-1.0646509,-1.8151424,-1.1170107,1.9373155,1.1170107,-0.91629785,1.7802359,-1.0646509,-1.8151424,-1.1170107,1.9373155,1.1170107,-0.91629785,0.0,0.0,0.0,0.0,0.0,0.0,0.0,2.8548622,-0.42235947,0.09353444,-3.0544348,-0.23539086,5.7328424,0.5304146,-0.45449638,0.693097,0.5745483,0.17512383,0.15255436,0.7848268,0.0,0.0,0.0,1.0,0.0,0.0,0.0,0.0,0.0,0.0,-3.5048623,0.02235946,0.45646557,0.0,0.0,0.0,0.0,0.0,0.0,0.0
-176.0,61.15472,-9.160603,110.0,10.655375,4.5134087,-3.8803852,-0.806233,0.3090508,-0.54907477,0.745444,0.10663916,0.67057234,-0.5768639,1.6996126,-1.0337458,-1.8700498,-1.0424663,1.9479793,1.184068,-0.97398424,1.7788264,-1.06224,-1.821492,-1.1117846,1.9398732,1.1216418,-0.9157018,-0.18771836,0.3206676,-0.8462394,0.6971735,0.34042573,0.61615074,0.07961832,2.8243408,-0.42471123,0.15008342,-3.0513809,-0.23515551,5.6289244,0.52840614,-0.45762634,0.693786,0.5779398,0.17374164,0.15224074,0.78270173,-0.2677834,-0.4178236,0.09156338,1.0,0.0,0.0,0.0,0.0,0.0,0.0,-3.474341,0.024711221,0.3999166,-18.681686,31.841078,-84.4703,69.81886,33.85424,61.167206,8.001633
-176.0,-56.55671,-54.663483,108.5553,13.045761,0.52015597,-3.4448872,-0.80539024,-0.29201016,-0.57288766,0.7171033,0.13754426,0.649154,-0.5690474,1.6982874,-1.091441,-1.8787807,-1.0400742,1.9536276,1.1865572,-0.97260654,1.7773558,-1.0600656,-1.8368537,-1.0964361,1.9448705,1.1338793,-0.913145,-0.14103171,0.16168478,-1.7104226,1.8125172,0.52455324,1.3699194,0.2975239,2.79385,-0.42706108,0.205594,-3.04833,-0.2349204,5.5251102,0.5239773,-0.4660778,0.69421697,0.58569556,0.17037672,0.15043963,0.77801055,-0.5016341,-0.98437846,0.032839265,1.0,0.0,0.0,0.0,0.0,0.0,0.0,-3.44385,0.027061075,0.344406,2.4016647,-22.286976,-69.71423,111.05707,9.959048,58.435917,16.740852
-157.56493,66.96619,14.606918,87.724434,9.514543,6.74923,-1.8360542,-0.7656741,0.08865571,0.033266272,0.6802085,0.3154708,0.686889,-0.46486512,1.7007884,-1.0512,-1.8335271,-1.0284153,1.9764175,1.2025682,-0.9596315,1.7727362,-1.0587095,-1.8520534,-1.0764567,1.9504437,1.1475264,-0.91056913,-0.56832623,0.12396299,-1.4511105,2.0622232,0.56273335,1.3577261,0.24463888,2.7633896,-0.42940903,0.26006722,-3.0452824,-0.23468553,5.4214,0.5167599,-0.47782898,0.69564605,0.5962558,0.1658361,0.14707856,0.77158624,-0.8022252,-1.2311928,0.18357717,1.0,0.0,0.0,0.0,0.0,0.0,0.0,-3.4133897,0.029409021,0.2899328,-42.534107,-4.6429024,27.543402,25.727367,2.1801233,-2.7996778,-5.183211
-101.54404,60.610405,24.776588,51.09994,6.6122303,6.794592,0.04031518,-0.769228,-0.18248437,0.2384432,0.68904364,0.3560928,0.6684676,-0.5510833,1.6958134,-1.076958,-1.828209,-1.0075523,1.986053,1.2143731,-0.96567744,1.763827,-1.0589212,-1.8613136,-1.0566107,1.9559922,1.1602732,-0.9087905,-0.998613,-0.071472265,-0.74428797,1.9602723,0.54590803,1.2438415,0.15595682,2.7329597,-0.43175507,0.31350413,-3.0422375,-0.23445089,5.317794,0.5069809,-0.49088287,0.6982813,0.607625,0.16046746,0.14163359,0.76484114,-1.0473943,-1.3190507,0.2939636,1.0,0.0,0.0,0.0,0.0,0.0,0.0,-3.3829598,0.03175506,0.23649588,-43.124496,-20.06823,72.681404,-9.727573,-3.6116958,-12.3033285,-8.762902
-43.201347,103.43473,45.535435,28.270077,3.3810616,7.299826,0.7821242,-0.7879648,-0.023344414,0.3294953,0.69142836,0.4726394,0.66943145,-0.5630975,1.6850305,-1.0612557,-1.828364,-0.9874679,2.003256,1.2272164,-0.9651003,1.7513491,-1.0601267,-1.8631275,-1.0390135,1.961617,1.1717535,-0.90792745,-1.3318925,-0.13832928,0.012549289,1.692812,0.56265205,1.1143466,0.06208754,2.7025604,-0.4340973,0.36590573,-3.039196,-0.2342165,5.2142906,0.49528313,-0.50369644,0.7022899,0.61859983,0.154181,0.13418186,0.7586551,-1.2236596,-1.2558255,0.43736342,1.0,0.0,0.0,0.0,0.0,0.0,0.0,-3.3525605,0.034097284,0.18409428,-33.57477,-7.165262,77.56799,-26.771069,0.061035156,-13.462305,-9.660498
-6.377803,112.07401,45.920315,13.505968,0.915517,5.665059,0.705868,-0.80443126,0.056038585,0.26809558,0.67811406,0.5069725,0.6497845,-0.5939642,1.670906,-1.0545228,-1.8363179,-0.9712021,2.0123143,1.236732,-0.9673239,1.7365881,-1.06121,-1.8592556,-1.0241228,1.9675527,1.1820399,-0.90794843,-1.5249219,-0.09962279,0.5161686,1.4206064,0.600998,0.9999376,-0.024884373,2.6721916,-0.4364376,0.41727307,-3.0361574,-0.23398234,5.1108913,0.48241615,-0.5154457,0.7075049,0.62885004,0.14715163,0.12555267,0.75308067,-1.3199914,-1.1368308,0.54743636,1.0,0.0,0.0,0.0,0.0,0.0,0.0,-3.3221917,0.0364376,0.13272694,-19.510508,3.4961834,51.557243,-27.357054,2.9453754,-11.508835,-9.085035
16.65528,150.29962,53.82575,11.444905,-1.3740902,5.1404905,-0.029584054,-0.814611,0.35322005,0.128416,0.67143494,0.45345324,0.65223545,-0.5789203,1.655127,-1.0258881,-1.846414,-0.95697933,2.012898,1.2472634,-0.96584046,1.7207838,-1.0602525,-1.8529766,-1.0113913,1.973721,1.1913306,-0.90874094,-1.5997938,0.15938033,0.667922,1.2237152,0.62100565,0.9061169,-0.09925038,2.6418533,-0.43877602,0.4676072,-3.0331218,-0.23374839,5.007595,0.4690094,-0.5256157,0.7140452,0.638685,0.13941713,0.11728082,0.7475892,-1.3592503,-0.96524054,0.686199,1.0,0.0,0.0,0.0,0.0,0.0,0.0,-3.2918534,0.03877601,0.08239281,-7.7338457,25.502422,15.980566,-19.74883,1.6358137,-9.1885805,-7.99056
21.60249,142.48918,45.260128,9.592562,-2.3038633,3.442049,-0.5559462,-0.82251513,0.45055544,-0.016985543,0.65300846,0.45645732,0.6450318,-0.5840011,1.6385323,-1.015197,-1.8546752,-0.94609046,2.0193667,1.2558337,-0.96714103,1.7047926,-1.0562776,-1.8473709,-1.0000025,1.9800477,1.1998049,-0.91018385,-1.5997807,0.47587508,0.52647185,1.1104739,0.63635564,0.82869166,-0.1607089,2.6115456,-0.4411106,0.5169091,-3.0300894,-0.23351468,4.9044023,0.45552063,-0.5341835,0.721674,0.64852035,0.13128696,0.1105152,0.7416005,-1.3557022,-0.80908567,0.7853174,1.0,0.0,0.0,0.0,0.0,0.0,0.0,-3.2615457,0.041110605,0.03309089,-0.2537489,31.344759,-13.671934,-11.340189,1.4514923,-7.5080156,-6.59478
20.608467,128.9002,37.61271,9.520784,-2.3513978,2.324145,-0.78393424,-0.82421374,0.54955363,-0.10424451,0.6391736,0.49075285,0.6373129,-0.57737994,1.6223712,-1.0013223,-1.8577954,-0.93608516,2.029123,1.2635362,-0.96792185,1.6890684,-1.0492052,-1.8442256,-0.9892479,1.986588,1.2075983,-0.9121503,-1.5641973,0.78343916,0.24490546,1.0635344,0.65978944,0.76317036,-0.20985255,2.5812683,-0.4434452,0.5651799,-3.0270598,-0.23328121,4.801313,0.44219208,-0.5414009,0.73006535,0.65861684,0.12308408,0.105684325,0.7347823,-1.3335344,-0.6798452,0.8544996,1.0,0.0,0.0,0.0,0.0,0.0,0.0,-3.2312684,0.0434452,-0.0151798725,3.315115,30.515503,-27.81963,-4.771447,2.3415327,-6.443429,-5.280933
17.019829,108.15945,30.319271,9.430789,-1.7923892,1.6221656,-0.7180802,-0.8198956,0.5971382,-0.13654393,0.63429594,0.5080961,0.64062375,-0.569687,1.6070789,-0.98949134,-1.85788,-0.9258183,2.0373976,1.2716607,-0.969119,1.6737696,-1.0396246,-1.8438728,-0.9786383,1.993382,1.2148176,-0.9145307,-1.5190072,1.0156307,-0.03360115,1.0595409,0.6857778,0.707965,-0.24862233,2.5510216,-0.445776,0.61242056,-3.0240333,-0.23304798,4.6983266,0.42907906,-0.5475731,0.7389336,0.669025,0.11498947,0.10259361,0.72708833,-1.3098415,-0.5827201,0.8959599,1.0,0.0,0.0,0.0,0.0,0.0,0.0,-3.2010217,0.04577598,-0.062420547,4.3127537,23.029554,-27.54972,-0.5761862,2.5948644,-5.556166,-4.1986375
13.7298565,92.522964,26.189718,9.560514,-1.1360545,1.4143836,-0.5264644,-0.8152448,0.6447324,-0.1578115,0.626316,0.52124685,0.64667565,-0.569973,1.5922451,-0.9751513,-1.859654,-0.9160067,2.0455067,1.2794852,-0.971528,1.658877,-1.0283102,-1.8457572,-0.96794283,2.000428,1.2215544,-0.9172439,-1.4800534,1.1694227,-0.23881811,1.0720822,0.7108101,0.6619198,-0.2800137,2.5208054,-0.44810486,0.65863216,-3.02101,-0.23281498,4.5954432,0.4161377,-0.5529442,0.7481014,0.679653,0.10703018,0.10077192,0.7186525,-1.2936729,-0.5071677,0.922913,1.0,0.0,0.0,0.0,0.0,0.0,0.0,-3.1708055,0.048104852,-0.10863215,3.7098646,15.217781,-20.178112,1.0107517,2.4700522,-4.738152,-3.4580827
11.279774,78.90577,22.922792,9.000109,-0.60032517,1.3096346,-0.30050674,-0.8107668,0.67090446,-0.18060575,0.61269116,0.5301322,0.6552693,-0.5689978,1.5778003,-0.9612197,-1.8638178,-0.9066737,2.0534413,1.2870814,-0.9741437,1.6442839,-1.0159925,-1.8490646,-0.95714915,2.0076988,1.2278963,-0.920227,-1.4531226,1.2520479,-0.3599486,1.0808235,0.73208123,0.62456787,-0.30554786,2.4906197,-0.45043182,0.7038157,-3.0179894,-0.23258223,4.492663,0.40329933,-0.5576744,0.7574308,0.69034636,0.099182256,0.0997258,0.70967567,-1.2848874,-0.44619098,0.93614066,1.0,0.0,0.0,0.0,0.0,0.0,0.0,-3.1406198,0.050431818,-0.15381569,2.5144339,8.128166,-11.712229,0.59564114,2.06877,-3.8894534,-2.8797507
10.091297,69.75436,20.984304,8.293064,-0.24204645,1.2874342,-0.10238589,-0.8067984,0.68541735,-0.1885237,0.5990225,0.5357581,0.6606426,-0.5734481,1.563604,-0.94745076,-1.867917,-0.8972469,2.0612745,1.2939606,-0.9775718,1.62987,-1.0032343,-1.853028,-0.94635546,2.015145,1.2339216,-0.9234342,-1.4379593,1.2832701,-0.4070864,1.0779,0.74832535,0.59466434,-0.32694396,2.4604607,-0.45275497,0.7479722,-3.0149722,-0.23234968,4.3899846,0.39050484,-0.5618515,0.76682156,0.7009506,0.0914029,0.09906086,0.7003575,-1.2812266,-0.39267957,0.9402028,1.0,0.0,0.0,0.0,0.0,0.0,0.0,-3.1104608,0.05275497,-0.19797218,1.3350487,3.0093193,-4.251194,-0.582242,1.5419483,-3.129363,-2.4758458
8.835908,65.27675,20.043734,8.34837,-0.003996372,1.3179203,0.011294997,-0.80631334,0.6977547,-0.19297498,0.5919479,0.54049385,0.6625435,-0.5768694,1.5492387,-0.9334588,-1.8723255,-0.88716066,2.0691946,1.300176,-0.9811211,1.6155306,-0.9903697,-1.8571079,-0.9356495,2.0227172,1.2396914,-0.9268293,-1.4330182,1.2871927,-0.40673262,1.0671632,0.7599814,0.5705818,-0.3449324,2.4303322,-0.45507622,0.79110265,-3.011958,-0.23211737,4.2874093,0.37770844,-0.5655327,0.7762236,0.71136373,0.083644524,0.09852911,0.690838,-1.2817899,-0.34291726,0.9405797,1.0,0.0,0.0,0.0,0.0,0.0,0.0,-3.0803323,0.05507621,-0.24110264,0.3084898,0.28994083,0.54448247,-1.358819,1.0635734,-2.537167,-2.1386147
8.924056,65.02615,20.345991,8.826878,0.13193685,1.4109442,0.07760536,-0.80034035,0.7045308,-0.17826167,0.5957363,0.5416601,0.67323905,-0.56933814,1.5354966,-0.9199166,-1.8749341,-0.87607586,2.0768833,1.3070153,-0.9837631,1.6012236,-0.97754943,-1.8609416,-0.92503226,2.0303733,1.2452608,-0.930376,-1.4306451,1.2799317,-0.3738169,1.0589284,0.7670019,0.55193853,-0.35909057,2.4002342,-0.45739555,0.83320814,-3.0089464,-0.2318853,4.1849365,0.36488342,-0.5687065,0.7856528,0.7215257,0.07582997,0.09798589,0.68121153,-1.2846754,-0.29254138,0.94391495,1.0,0.0,0.0,0.0,0.0,0.0,0.0,-3.0502343,0.057395548,-0.28320813,0.049114227,-0.8281708,3.8406909,-1.0952234,0.58112144,-1.9997597,-1.7613709
9.813036,67.24836,21.17728,9.0611725,0.13793474,1.5103099,0.123346366,-0.8002169,0.7137394,-0.15607122,0.5841418,0.5490354,0.6762631,-0.57610846,1.5212018,-0.9061755,-1.8765488,-0.8666181,2.0852768,1.3128872,-0.98798686,1.5869204,-0.9647864,-1.86431,-0.91452944,2.0380905,1.250672,-0.9340505,-1.4308896,1.274661,-0.32253668,1.0466068,0.77322584,0.53713125,-0.37136263,2.3701668,-0.45971298,0.87428963,-3.005938,-0.23165347,4.0825663,0.35203552,-0.57133484,0.79514885,0.731395,0.06788968,0.09737077,0.6715439,-1.2873442,-0.23749857,0.95148164,1.0,0.0,0.0,0.0,0.0,0.0,0.0,-3.0201669,0.059712976,-0.32428962,-0.22170544,-0.6336212,5.719632,-1.4950037,0.4796028,-1.6205907,-1.5786409
11.800758,69.84361,21.87905,8.621651,0.009847999,1.5317707,0.16165616,-0.79778355,0.7252639,-0.13943894,0.56500304,0.5589224,0.6785669,-0.57457966,1.5071421,-0.89226,-1.8782539,-0.8580291,2.0939827,1.3185287,-0.9915085,1.5726172,-0.952011,-1.867152,-0.90421546,2.0458877,1.2559592,-0.93783087,-1.4308343,1.2781352,-0.26923457,1.0254403,0.7809735,0.52548796,-0.38142166,2.3401299,-0.4620285,0.91434824,-3.0029328,-0.23142187,3.9802983,0.33918762,-0.5733719,0.8047372,0.7409337,0.059790507,0.096686244,0.66188663,-1.2856431,-0.17623045,0.96098316,1.0,0.0,0.0,0.0,0.0,0.0,0.0,-2.99013,0.062028497,-0.36434823,-0.20039082,0.2396822,5.94604,-2.3782969,0.62425137,-1.290977,-1.362288
11.5644455,70.93814,21.936869,9.306572,0.03790945,1.5369906,0.15515012,-0.7989809,0.72782254,-0.11175671,0.56624645,0.55932313,0.67344683,-0.56612176,1.492719,-0.8792287,-1.8783276,-0.8475908,2.10182,1.3233038,-0.99444306,1.5583082,-0.93917453,-1.8694522,-0.89407694,2.0537498,1.2611414,-0.94169134,-1.4316305,1.2852068,-0.21492356,1.0092101,0.7871613,0.5155144,-0.38879845,2.3101234,-0.4643402,0.9533849,-2.9999304,-0.23119049,3.878133,0.32634544,-0.57478714,0.8144385,0.7501369,0.05150435,0.09594705,0.6522546,-1.2838175,-0.11427865,0.9725262,1.0,0.0,0.0,0.0,0.0,0.0,0.0,-2.9601235,0.064340204,-0.40338486,-0.2824545,0.5988121,6.0469003,-1.8694162,0.46750307,-1.1271596,-1.0874867
12.39068,72.10743,22.132725,9.453954,0.026143491,1.5286589,0.17029388,-0.79650337,0.7341504,-0.079893924,0.5584245,0.57331467,0.6815399,-0.56380385,1.478658,-0.8657595,-1.8774416,-0.8382345,2.1110814,1.3292954,-0.99807173,1.5440031,-0.92623985,-1.8711975,-0.88408625,2.0616958,1.2662436,-0.94561285,-1.4308511,1.295816,-0.15912025,0.994818,0.7967038,0.50813377,-0.39444336,2.2801476,-0.46665,0.99140066,-2.996931,-0.23095934,3.77607,0.3135357,-0.57556534,0.82427055,0.75899816,0.04300254,0.09514824,0.64266586,-1.2801797,-0.05034966,0.9855037,1.0,0.0,0.0,0.0,0.0,0.0,0.0,-2.9301476,0.06665,-0.44140065,-0.122237206,0.95410347,6.196803,-1.6738892,0.8033395,-0.86261034,-0.9106636
11.468089,70.77829,21.170187,9.78441,0.02619338,1.4244615,0.14364257,-0.7996902,0.7389751,-0.06675605,0.55257833,0.5713184,0.6813518,-0.55795735,1.4640341,-0.85234237,-1.8778731,-0.8288284,2.1188276,1.3343787,-1.0014086,1.5296923,-0.91319263,-1.8724678,-0.8742205,2.069722,1.2712847,-0.9495773,-1.4317906,1.3073708,-0.1143458,0.98300505,0.8038013,0.50235397,-0.39826685,2.2502022,-0.4689579,1.0283966,-2.9939349,-0.23072843,3.6741092,0.30076408,-0.57572937,0.83421,0.76753086,0.03429567,0.09431517,0.6331073,-1.2756667,0.011280921,0.99516964,1.0,0.0,0.0,0.0,0.0,0.0,0.0,-2.9002023,0.068957895,-0.4783966,-0.28676987,1.055193,5.066164,-1.4068961,0.5761862,-0.686872,-0.71499944
10.190537,67.80937,19.684456,10.080334,0.064118564,1.2647074,0.10792118,-0.7991347,0.739071,-0.059040036,0.5548714,0.5742893,0.68880683,-0.5503301,1.4497788,-0.83928555,-1.8783717,-0.81873333,2.1271508,1.3401654,-1.0046103,1.5153738,-0.9000548,-1.8734024,-0.8644234,2.077809,1.276282,-0.95356745,-1.4323841,1.3156539,-0.08463997,0.97787166,0.8099567,0.4986341,-0.4003047,2.2202854,-0.4712639,1.0643737,-2.9909415,-0.23049776,3.5722501,0.28803253,-0.5753174,0.84420866,0.77576363,0.025414819,0.09348207,0.62354296,-1.2708068,0.06765587,0.9995692,1.0,0.0,0.0,0.0,0.0,0.0,0.0,-2.8702855,0.07126388,-0.5143737,-0.23891926,0.7385254,3.5130308,-0.7316947,0.5041003,-0.46105385,-0.5178094
9.885824,65.21033,18.229815,9.531399,-0.049235046,1.0670185,0.083021685,-0.80097437,0.7476927,-0.068199195,0.53875273,0.57299435,0.6906006,-0.54437596,1.4352764,-0.82528555,-1.8802223,-0.8105481,2.1351085,1.345342,-1.008005,1.501042,-0.8868226,-1.8742092,-0.8547207,2.0859382,1.2812525,-0.9575681,-1.4338945,1.3254977,-0.07765494,0.96697336,0.8135699,0.49632105,-0.40100944,2.1903973,-0.47356796,1.0993329,-2.987951,-0.2302673,3.4704928,0.27537727,-0.5743561,0.85419923,0.7837172,0.016421456,0.092721835,0.6139383,-1.2616616,0.121123046,0.996638,1.0,0.0,0.0,0.0,0.0,0.0,0.0,-2.8403974,0.07356796,-0.5493329,-0.32730103,0.90560913,1.2037069,-1.314497,0.27179718,-0.28260946,-0.36938787
12.005367,64.602844,18.064259,8.139715,-0.196608,0.9684413,0.15232472,-0.80338323,0.7508064,-0.036032427,0.5076688,0.5787513,0.6845477,-0.5438507,1.4207036,-0.81174195,-1.8778124,-0.8039538,2.1438134,1.3497072,-1.0119532,1.4866873,-0.8735007,-1.8748825,-0.8452555,2.0941093,1.2862021,-0.9615726,-1.4367131,1.3341916,-0.062127694,0.9389814,0.81770104,0.4944078,-0.40133896,2.1605396,-0.47586823,1.1332754,-2.984964,-0.23003708,3.3688374,0.26285934,-0.5728378,0.86413425,0.79135334,0.007358434,0.09205137,0.6043445,-1.2458099,0.17691752,0.9899323,1.0,0.0,0.0,0.0,0.0,0.0,0.0,-2.8105397,0.07586822,-0.5832754,-0.46503544,0.7981062,2.0764217,-3.030777,0.31570196,-0.20324588,-0.33431053
14.61916,63.109833,17.505789,6.3102474,-0.39200777,0.7797047,0.21334836,-0.7994319,0.75606513,-0.036326647,0.47608343,0.5924367,0.684216,-0.5362753,1.4067441,-0.7978942,-1.8785151,-0.7976472,2.153353,1.3546237,-1.0152001,1.472325,-0.8600911,-1.8754356,-0.8361927,2.1023529,1.2911364,-0.9655742,-1.4365771,1.3430089,-0.051411446,0.89446926,0.8262471,0.49339125,-0.40073398,2.1307125,-0.47816658,1.1662021,-2.9819796,-0.2298071,3.2672834,0.2505684,-0.57076263,0.87395805,0.7986275,-0.001718612,0.091480255,0.5948297,-1.2207751,0.23270138,0.9770652,1.0,0.0,0.0,0.0,0.0,0.0,0.0,-2.7807126,0.078166574,-0.61620206,-0.167799,0.8245945,1.5797482,-4.6912313,0.76869726,-0.05775094,-0.2357006
17.394663,62.962044,17.707201,4.806735,-0.5193412,0.69092906,0.309316,-0.80007416,0.7570869,0.0007160572,0.43643394,0.60004723,0.6790334,-0.52585936,1.3923175,-0.7843824,-1.875364,-0.7925493,2.1623576,1.3590398,-1.0181601,1.4579684,-0.84661186,-1.8757427,-0.8276993,2.1106956,1.2960612,-0.9695615,-1.4360378,1.3494334,-0.022116942,0.83351475,0.8366359,0.49257666,-0.39905995,2.100916,-0.48046303,1.198114,-2.9789982,-0.22957733,3.165831,0.23857498,-0.56811523,0.8836388,0.80547744,-0.010784288,0.090977184,0.58550215,-1.1884488,0.2903818,0.9620961,1.0,0.0,0.0,0.0,0.0,0.0,0.0,-2.750916,0.08046302,-0.648114,-0.12710094,0.5959749,3.447387,-6.332934,0.95027685,0.0051498413,-0.12847185
19.886532,64.61295,18.483162,4.0286994,-0.5933157,0.6807649,0.39299783,-0.7988424,0.76329684,0.04346388,0.39900747,0.6105379,0.6842548,-0.5133332,1.3780841,-0.77028215,-1.8713963,-0.7877986,2.1717494,1.3644867,-1.0208949,1.4436251,-0.83306205,-1.8755882,-0.81988394,2.1191566,1.3009859,-0.9735231,-1.4344162,1.356735,0.029753296,0.76342446,0.849167,0.49273315,-0.39618033,2.0711498,-0.48275757,1.2290123,-2.9760196,-0.2293478,3.06448,0.22694016,-0.5648651,0.89318734,0.8118467,-0.019861376,0.09048845,0.5764741,-1.1509143,0.35132337,0.9491579,1.0,0.0,0.0,0.0,0.0,0.0,0.0,-2.72115,0.08275756,-0.67901224,-0.014352798,0.6902933,5.711475,-7.2297573,1.1623144,0.1257956,-0.0046014786
23.864807,63.17511,18.283743,1.0636644,-0.85381925,0.4790675,0.5303452,-0.800793,0.7648144,0.081328765,0.31156084,0.6354024,0.6807148,-0.5116833,1.3635458,-0.7565806,-1.8674552,-0.7887279,2.1826968,1.3690574,-1.0246915,1.4292856,-0.8194493,-1.8748024,-0.8130299,2.1278007,1.3059145,-0.97745603,-1.4341391,1.3627443,0.09646597,0.6586642,0.8689992,0.4935411,-0.3932387,2.0414104,-0.4850502,1.2588977,-2.9730444,-0.2291185,2.9632304,0.2157669,-0.5609932,0.90255105,0.81765634,-0.028896838,0.089970656,0.56789804,-1.1007624,0.41298473,0.9285307,1.0,0.0,0.0,0.0,0.0,0.0,0.0,-2.6914105,0.085050195,-0.70889765,-0.1414299,0.58062077,7.1749105,-10.691416,1.9061923,0.27821064,0.016218424
31.949766,67.87995,20.657667,-2.4683046,-1.2541695,0.4666616,0.76678175,-0.790697,0.775374,0.18790112,0.21506171,0.6446869,0.6705627,-0.48730606,1.3502159,-0.7419119,-1.8560122,-0.7915237,2.1922693,1.3729708,-1.0261866,1.4149958,-0.805745,-1.8729713,-0.80749667,2.136647,1.3108469,-0.9813432,-1.4278259,1.3729982,0.21366978,0.51773494,0.88923675,0.4941593,-0.38822877,2.0117016,-0.48733902,1.2877712,-2.970072,-0.22888944,2.8620818,0.20523071,-0.55641174,0.91172516,0.82276016,-0.03789181,0.08935704,0.5600403,-1.0324422,0.486284,0.9098276,1.0,0.0,0.0,0.0,0.0,0.0,0.0,-2.6617017,0.087339014,-0.7377712,0.48134327,1.0164738,12.228521,-14.267898,1.9479156,0.34161806,0.2286017
41.606365,65.41221,20.485786,-9.774671,-2.0241406,0.02991888,1.0452518,-0.78520733,0.7791474,0.2512923,0.039458793,0.6609729,0.6651743,-0.4698147,1.336475,-0.7278303,-1.8478421,-0.8035508,2.2027442,1.3773644,-1.0283247,1.4007956,-0.79193485,-1.8698413,-0.80394137,2.145703,1.3157908,-0.98516935,-1.4177701,1.3837197,0.34748882,0.30105877,0.91128176,0.49609426,-0.38150898,1.9820232,-0.48962593,1.3156341,-2.9671025,-0.22866058,2.7610347,0.19561386,-0.5510597,0.92058057,0.82698697,-0.046702676,0.08866543,0.5532177,-0.9322693,0.5619981,0.873114,1.0,0.0,0.0,0.0,0.0,0.0,0.0,-2.6320233,0.089625925,-0.7656341,0.89986324,1.0942698,13.800568,-21.807474,2.172017,0.66403747,0.44489503
48.184185,61.234028,19.390596,-15.860695,-2.6647477,-0.46455348,1.2481477,-0.78374916,0.78530246,0.3118093,-0.14037646,0.6743393,0.6613286,-0.4326538,1.3224207,-0.7134046,-1.8386604,-0.81797904,2.213137,1.3819237,-1.0284348,1.3866926,-0.7780112,-1.8653724,-0.8030449,2.1549842,1.3207594,-0.98890203,-1.4078507,1.3954005,0.48084524,0.018850828,0.93379855,0.49916586,-0.37102723,1.9523754,-0.49191093,1.3424873,-2.964136,-0.22843197,2.6600883,0.1871872,-0.5449753,0.9289363,0.8302138,-0.055107974,0.087972626,0.54769427,-0.8055552,0.6331993,0.81817645,1.0,0.0,0.0,0.0,0.0,0.0,0.0,-2.6023755,0.09191093,-0.7924873,0.95448494,1.2217522,13.585478,-28.298347,2.299583,0.93447566,0.9023726
47.34541,60.863697,19.055887,-15.078612,-2.6227674,-0.6173712,1.2198973,-0.77040833,0.7953634,0.3757754,-0.22399494,0.67209,0.65883076,-0.35510567,1.3096519,-0.6984749,-1.8277949,-0.8254444,2.2221932,1.3866425,-1.0244126,1.3727328,-0.7639502,-1.8596218,-0.8048388,2.1644447,1.3257567,-0.99247545,-1.3918989,1.4099375,0.6063618,-0.24553452,0.9508062,0.5018912,-0.35298413,1.9227562,-0.49419403,1.3683318,-2.9611723,-0.2282036,2.559243,0.18002701,-0.53821945,0.9367665,0.83245516,-0.06305407,0.08733701,0.54352075,-0.67872363,0.6977373,0.766096,1.0,0.0,0.0,0.0,0.0,0.0,0.0,-2.5727563,0.094194025,-0.8183318,1.6403913,1.5346289,12.567258,-26.432001,1.8769383,0.90492964,1.7399609
33.69004,61.03468,18.187151,-4.739161,-1.5018461,-0.34248185,0.861034,-0.76702255,0.7968361,0.42541307,-0.18278965,0.66530466,0.6533766,-0.24919814,1.2960305,-0.6842666,-1.8170805,-0.82311773,2.2309752,1.3910943,-1.0173953,1.3589236,-0.7497653,-1.8527458,-0.8083855,2.1740158,1.3307654,-0.99579805,-1.3770359,1.4216942,0.71402735,-0.39096656,0.9602483,0.5021496,-0.32546392,1.8931656,-0.49647522,1.3931686,-2.958212,-0.22797543,2.4584985,0.17381859,-0.5309105,0.94425976,0.8339287,-0.07074392,0.08672553,0.54040444,-0.5936595,0.74886286,0.73814684,1.0,0.0,0.0,0.0,0.0,0.0,0.0,-2.5431657,0.096475214,-0.84316856,1.5509129,1.2836456,10.582519,-14.524156,1.2669444,0.49948096,2.7222335
7.9610586,58.42282,15.566944,13.565616,0.52321506,0.22714388,0.17756003,-0.77997047,0.79068434,0.42464757,-0.015798341,0.65360665,0.6576795,-0.13372688,1.2809265,-0.67069685,-1.810281,-0.8099653,2.2393765,1.3965334,-1.0091708,1.3451601,-0.7355269,-1.8451374,-0.81190264,2.1836135,1.3357645,-0.9987783,-1.3761865,1.4250419,0.7756792,-0.33898202,0.9610245,0.4996855,-0.2890753,1.8636055,-0.4987526,1.4169987,-2.9552543,-0.2277475,2.3578548,0.16786575,-0.52324295,0.95174927,0.83506364,-0.078573205,0.086052254,0.5376709,-0.58688885,0.77802426,0.7465851,1.0,0.0,0.0,0.0,0.0,0.0,0.0,-2.5136056,0.09875259,-0.86699873,0.057816505,0.46691895,5.9147954,5.1052628,0.5047202,-0.04848838,3.5748959
-16.74591,58.769478,14.107986,32.800117,2.5674767,1.0073763,-0.5174782,-0.7870522,0.7891347,0.425891,0.22320728,0.63160664,0.67385536,-0.03298821,1.2664549,-0.65661347,-1.8025483,-0.7895819,2.2467742,1.4031501,-1.0020771,1.331328,-0.72129333,-1.8372028,-0.8133255,2.193135,1.3407332,-1.0013485,-1.3860669,1.4232433,0.79852897,-0.07734676,0.95076567,0.49564505,-0.24668446,1.8340759,-0.50102997,1.4398233,-2.9522996,-0.22751981,2.2573116,0.16138077,-0.51537704,0.9596449,0.8363207,-0.08705577,0.08520704,0.53453594,-0.6610302,0.7948459,0.79767007,1.0,0.0,0.0,0.0,0.0,0.0,0.0,-2.484076,0.10102996,-0.88982326,-1.1181116,-0.031757355,2.0158648,25.962757,-0.51237345,-0.50875545,4.1213694
-30.136335,54.599884,11.953717,42.0777,3.57919,1.3206944,-0.90416753,-0.80050176,0.7787913,0.4111282,0.38553053,0.6155604,0.6752121,0.0007516708,1.2512778,-0.6434142,-1.79609,-0.77477247,2.2546911,1.4082544,-1.0012733,1.3173205,-0.70714176,-1.8293006,-0.8113791,2.2024963,1.3456541,-1.0035038,-1.4062524,1.4129595,0.78665364,0.28453177,0.93335265,0.48974445,-0.20576055,1.804575,-0.5033035,1.4616431,-2.9493477,-0.22729233,2.156869,0.15383339,-0.5074043,0.9681553,0.83799076,-0.09648899,0.084142506,0.53045386,-0.7770712,0.80408245,0.862378,1.0,0.0,0.0,0.0,0.0,0.0,0.0,-2.454575,0.10330352,-0.9116431,-2.177763,-0.89564323,-1.4430761,35.970932,-1.2272954,-0.90536475,3.963521
-27.538246,53.10658,11.430602,39.58003,3.1580687,1.2199408,-0.9164644,-0.80607325,0.78485686,0.39610103,0.45883176,0.59581393,0.6638436,-0.108547024,1.2367132,-0.6286561,-1.7896905,-0.7654959,2.2620776,1.4120384,-1.0143585,1.303105,-0.6930646,-1.8216693,-0.80601656,2.2116401,1.3505064,-1.0053749,-1.4271557,1.4062185,0.75455797,0.6196528,0.90938103,0.48262858,-0.18117525,1.7751026,-0.5055771,1.4824592,-2.946399,-0.22706509,2.056527,0.14521027,-0.4993,0.97723496,0.84011817,-0.10685097,0.08294167,0.5252666,-0.88200915,0.82024616,0.9161979,1.0,0.0,0.0,0.0,0.0,0.0,0.0,-2.4251027,0.10557708,-0.9324592,-2.212739,-0.58305264,-3.4070373,33.369858,-1.963985,-1.0744691,2.35174
-14.592782,50.349533,11.2527485,28.436754,1.8944368,0.7379441,-0.5895494,-0.806644,0.781614,0.39425024,0.45971805,0.58857477,0.6673674,-0.17429662,1.2224406,-0.61490315,-1.7822443,-0.76004475,2.2704976,1.4172431,-1.0228046,1.2887255,-0.6790513,-1.8143508,-0.7981812,2.2205474,1.3553034,-1.0070915,-1.4419324,1.3998432,0.72397715,0.8379016,0.88545805,0.47789565,-0.16887681,1.7456608,-0.507843,1.5022726,-2.9434533,-0.22683807,1.9562849,0.13587761,-0.49098206,0.9866238,0.8425209,-0.11786332,0.08173996,0.51921594,-0.94057375,0.8444724,0.939156,1.0,0.0,0.0,0.0,0.0,0.0,0.0,-2.3956609,0.10784301,-0.9522726,-1.5651464,-0.59444904,-3.1027675,21.734417,-2.1149397,-0.6971359,1.1216611
-0.4401741,46.67267,10.656641,15.473513,0.50060534,0.09078771,-0.20077701,-0.8123413,0.78131497,0.37381992,0.4247629,0.60198075,0.674579,-0.23439915,1.2074914,-0.6009198,-1.7769688,-0.7557049,2.2807455,1.4227613,-1.0305314,1.2742258,-0.6650847,-1.8073547,-0.7892233,2.2292945,1.3600775,-1.0087605,-1.4530214,1.3955653,0.69188845,0.914709,0.8714609,0.47716308,-0.16664071,1.7162495,-0.51010895,1.5210843,-2.9405105,-0.22661127,1.856143,0.12637138,-0.4824257,0.9959818,0.8449577,-0.12911776,0.08067329,0.5127054,-0.9453656,0.870262,0.92701966,1.0,0.0,0.0,0.0,0.0,0.0,0.0,-2.3662496,0.11010894,-0.9710843,-1.1986494,-0.4166603,-3.0762315,7.5882196,-1.2762547,-0.06353259,0.10114908
11.577182,43.2471,10.054073,4.3375053,-0.6307949,-0.53409487,0.15906954,-0.81384593,0.77864647,0.35872585,0.37146127,0.6193324,0.6757564,-0.23922892,1.1928413,-0.5872201,-1.7714821,-0.75207716,2.2912278,1.4276532,-1.0326834,1.2596518,-0.65115726,-1.8006618,-0.780398,2.2379959,1.3648611,-1.0104275,-1.459306,1.391725,0.6626021,0.87152535,0.86988693,0.47958887,-0.16715346,1.6868649,-0.5123749,1.5388954,-2.9375706,-0.22638471,1.7561011,0.11715698,-0.47363663,1.0050094,0.8472146,-0.14022441,0.07983977,0.50615233,-0.903869,0.8920206,0.8870127,1.0,0.0,0.0,0.0,0.0,0.0,0.0,-2.336865,0.11237487,-0.98889536,-0.71766376,-0.3859043,-2.6679516,-4.4231176,-0.14891624,0.47951937,-0.1860112
19.313128,43.835777,10.447727,-1.9552522,-1.3376716,-0.8924996,0.3850023,-0.8116304,0.78481805,0.35387808,0.32767123,0.61877537,0.6788339,-0.22817832,1.1784887,-0.57267547,-1.765274,-0.7476309,2.2998734,1.4327445,-1.0332453,1.2450567,-0.6372279,-1.7941978,-0.77250254,2.2467124,1.3696791,-1.0120964,-1.4597963,1.3933254,0.64213854,0.76190686,0.87191916,0.48383844,-0.16724002,1.6575108,-0.514637,1.5557067,-2.9346335,-0.22615837,1.6561594,0.10857582,-0.46463966,1.0135545,0.84915197,-0.15095635,0.07930345,0.49986386,-0.83327335,0.91273487,0.83609164,1.0,0.0,0.0,0.0,0.0,0.0,0.0,-2.3075109,0.11463699,-1.0057068,-0.1178503,0.15320778,-1.7292261,-11.044693,0.14557838,0.7809758,-0.14199615
19.387014,42.51252,10.038435,-2.266798,-1.3044367,-1.0389222,0.42368487,-0.8143723,0.7794889,0.34440193,0.31835732,0.6221777,0.6649319,-0.15356912,1.1636195,-0.559279,-1.7597576,-0.7406668,2.3089302,1.4361722,-1.0274533,1.2304655,-0.6232966,-1.7879035,-0.7657114,2.2554672,1.3745295,-1.01371,-1.4591575,1.3930904,0.625856,0.65126973,0.8767964,0.48660493,-0.15977041,1.6281872,-0.5168953,1.5715195,-2.9316993,-0.22593226,1.5563176,0.1007061,-0.45546913,1.0215969,0.85073775,-0.16125587,0.07906197,0.4939543,-0.7616402,0.9278442,0.7863063,1.0,0.0,0.0,0.0,0.0,0.0,0.0,-2.2781873,0.11689529,-1.0215194,0.018787384,-0.017476082,-1.3626933,-11.130834,0.45015812,0.63577294,0.6311685
16.51146,45.02151,10.903676,1.7072186,-0.8849585,-0.8483833,0.38123333,-0.8055565,0.7783882,0.36012805,0.34809637,0.60932094,0.6794038,-0.015575432,1.1499099,-0.5454578,-1.7518908,-0.7309018,2.3163993,1.4424698,-1.0152676,1.2159296,-0.609373,-1.7816436,-0.75964224,2.2642334,1.3794104,-1.0151443,-1.4520245,1.3921895,0.62677586,0.5920366,0.87655574,0.4893975,-0.13851674,1.5988922,-0.5191536,1.5863345,-2.9287682,-0.22570637,1.4565755,0.09343529,-0.44610977,1.0292509,0.8519781,-0.17127019,0.0790469,0.4884171,-0.7053938,0.9466278,0.7513801,1.0,0.0,0.0,0.0,0.0,0.0,0.0,-2.2488923,0.11915359,-1.0363345,0.6929636,-0.0749588,0.29338598,-5.963707,-0.016510487,0.5432844,2.0112157
11.257187,44.867153,10.85775,6.7155666,-0.30503458,-0.6476289,0.2853569,-0.80678874,0.771072,0.3673065,0.37855563,0.5989909,0.6773415,0.134886,1.1352508,-0.5322658,-1.744913,-0.7217867,2.3241324,1.4471445,-1.0016557,1.2014567,-0.59549224,-1.7752998,-0.7537323,2.2729614,1.3843085,-1.0162601,-1.4458433,1.3867457,0.6375682,0.5904537,0.87170213,0.49054787,-0.103063546,1.5696259,-0.5214119,1.6001529,-2.9258401,-0.2254807,1.3569331,0.08655739,-0.43654633,1.0366511,0.85290647,-0.18119174,0.07917979,0.48316726,-0.6712734,0.9666846,0.7292551,1.0,0.0,0.0,0.0,0.0,0.0,0.0,-2.219626,0.12141189,-1.0501528,0.5927801,-0.51949024,1.2249589,-0.20295382,-0.4190445,0.28036833,3.429091
5.530789,39.728,8.873293,10.102922,0.08451831,-0.6763681,0.10969221,-0.8110137,0.76280373,0.31665072,0.40086737,0.5838715,0.66832405,0.20073405,1.1203552,-0.5192119,-1.7436347,-0.7136456,2.3313484,1.4511409,-0.99618673,1.1870085,-0.5817021,-1.769078,-0.7475468,2.2815979,1.3892065,-1.0169907,-1.444467,1.3765328,0.6172447,0.6277156,0.8611264,0.48990268,-0.06345016,1.54039,-0.52366257,1.6129756,-2.922915,-0.22525528,1.2573904,0.07989502,-0.426836,1.0438503,0.85362226,-0.19108978,0.079475805,0.47801375,-0.6537533,0.9792787,0.70975125,1.0,0.0,0.0,0.0,0.0,0.0,0.0,-2.19039,0.12366256,-1.0629756,0.08955002,-0.9832382,-1.9524217,3.644681,-0.9266257,0.054186583,3.8575604
4.320169,36.710426,7.7522893,10.2564535,0.0820477,-0.79012287,0.063309945,-0.8054457,0.7578237,0.28859332,0.40146977,0.56540143,0.67177576,0.2760189,1.1064639,-0.50591975,-1.7402186,-0.70739985,2.338138,1.4563841,-0.98938876,1.1725851,-0.5680264,-1.7632129,-0.7409445,2.2900817,1.3940989,-1.0173016,-1.4418081,1.3647308,0.57623154,0.6708308,0.8443631,0.489366,-0.020710852,1.5111828,-0.52591324,1.6248037,-2.9199927,-0.22503006,1.1579473,0.07340431,-0.41703224,1.0508407,0.8541882,-0.20094523,0.080001615,0.47284576,-0.6372756,0.987549,0.6884527,1.0,0.0,0.0,0.0,0.0,0.0,0.0,-2.1611829,0.12591323,-1.0748036,0.2184391,-1.1399031,-4.043591,4.220474,-1.5327334,0.06555319,4.177735
4.591923,30.296066,5.7974343,8.194021,-0.07310712,-1.0776792,0.06534224,-0.7937337,0.7364743,0.24593116,0.39854184,0.52668476,0.67491156,0.36109605,1.0932118,-0.49437898,-1.7386198,-0.70109034,2.3427503,1.46159,-0.98119193,1.158238,-0.5545453,-1.7579296,-0.73399794,2.2982986,1.3989912,-1.0171623,-1.4324094,1.3428329,0.5123627,0.70236063,0.81471866,0.48967716,0.025272334,1.4820042,-0.5281639,1.635638,-2.9170732,-0.22480509,1.0586035,0.06711578,-0.40722275,1.057553,0.8546389,-0.21065846,0.08084419,0.4676319,-0.61484087,0.98447424,0.65867066,1.0,0.0,0.0,0.0,0.0,0.0,0.0,-2.1320043,0.1281639,-1.085638,0.9213209,-2.141738,-6.376374,3.051269,-2.817428,0.20386577,4.5166106
6.881201,22.001495,3.248667,2.8871746,-0.5162313,-1.5831617,0.15209666,-0.7988645,0.7143849,0.1928652,0.32630795,0.49777424,0.66144764,0.41657925,1.0783516,-0.4831068,-1.738643,-0.70136714,2.348076,1.465136,-0.9755044,1.1439558,-0.541355,-1.7534416,-0.72718394,2.3061645,1.4038817,-1.0165634,-1.4268361,1.3112313,0.4275347,0.6740706,0.77761835,0.48998386,0.071182206,1.4528561,-0.53041077,1.6454796,-2.9141567,-0.22458032,0.95935917,0.061193466,-0.39758492,1.0638396,0.85499597,-0.21998067,0.08211928,0.46243578,-0.57436746,0.9629938,0.61195505,1.0,0.0,0.0,0.0,0.0,0.0,0.0,-2.1028562,0.13041076,-1.0954795,0.56381226,-3.1022549,-8.501059,-2.9392123,-3.5805106,0.3293693,4.536263
7.534352,16.37933,1.5407426,0.21417809,-0.722411,-1.9070045,0.17577317,-0.7976727,0.6925188,0.13930814,0.29624608,0.46038526,0.6596874,0.46257138,1.0641886,-0.47210312,-1.7395108,-0.69755936,2.3522031,1.4698504,-0.9703063,1.1297156,-0.52853286,-1.7499015,-0.72088397,2.3136032,1.4087778,-1.0155182,-1.4229505,1.2728689,0.3292163,0.61492926,0.7330203,0.49072266,0.11553759,1.4237366,-0.5326538,1.6543295,-2.911243,-0.22435579,0.860214,0.05573654,-0.38825417,1.0695975,0.8552958,-0.22871839,0.08391473,0.4572912,-0.5255865,0.9284645,0.5575877,1.0,0.0,0.0,0.0,0.0,0.0,0.0,-2.0737367,0.1326538,-1.1043296,0.4187107,-3.7684202,-9.889257,-6.025684,-4.3334246,0.4323542,4.398562
8.278769,13.328718,0.72428703,-1.5889935,-0.8456495,-2.1284735,0.21222259,-0.7959295,0.6693477,0.097529635,0.25133863,0.42592523,0.6518835,0.50615126,1.0501226,-0.4615981,-1.7401485,-0.6957501,2.3561957,1.4739661,-0.96490306,1.1155077,-0.51612556,-1.7473342,-0.71535075,2.320565,1.4136778,-1.0140438,-1.4199909,1.230266,0.23241709,0.5324794,0.6843294,0.49097213,0.15786989,1.3946457,-0.53489685,1.6621888,-2.908332,-0.22413148,0.76116794,0.050811768,-0.37932777,1.074784,0.8555602,-0.23675859,0.08626597,0.45223907,-0.47124562,0.8856073,0.50020176,1.0,0.0,0.0,0.0,0.0,0.0,0.0,-2.0446458,0.13489684,-1.1121888,0.35133362,-4.1860104,-9.759608,-8.344865,-4.757607,0.40835738,4.2050095
7.9158797,13.161971,0.72158635,-1.2986403,-0.7991079,-2.1804616,0.20215803,-0.79573554,0.6506017,0.054225188,0.21800315,0.39921877,0.6578001,0.52633214,1.0359342,-0.4510654,-1.7419118,-0.6935504,2.3604867,1.4794579,-0.9614106,1.101319,-0.504135,-1.7456901,-0.7106625,2.32705,1.4185816,-1.0121784,-1.4183068,1.1888419,0.1416934,0.44729102,0.6368405,0.49148783,0.19592349,1.3655853,-0.5371361,1.6690583,-2.9054246,-0.2239074,0.66222095,0.046426773,-0.37083817,1.0794175,0.85580945,-0.24408133,0.08915821,0.4472865,-0.41850013,0.84117323,0.4461732,1.0,0.0,0.0,0.0,0.0,0.0,0.0,-2.0155854,0.13713607,-1.1190584,0.23062229,-4.066658,-9.157205,-8.608591,-4.6465874,0.4085958,3.7760496
6.1336412,13.119934,0.6596203,0.5324125,-0.62336856,-2.1632938,0.13117266,-0.7951082,0.63116086,-0.0038530494,0.20030499,0.3649231,0.6476059,0.5469829,1.0218081,-0.44101894,-1.7460754,-0.690632,2.3635423,1.4833422,-0.95748013,1.0871397,-0.49254134,-1.7449672,-0.70670855,2.333058,1.4234816,-1.0099621,-1.4174384,1.1497837,0.048642408,0.3778456,0.58907497,0.49046704,0.22994931,1.3365517,-0.5393715,1.6749392,-2.90252,-0.22368354,0.5633729,0.042510986,-0.36277962,1.0835532,0.85608256,-0.25072715,0.09257282,0.4423673,-0.37319294,0.79723275,0.39838678,1.0,0.0,0.0,0.0,0.0,0.0,0.0,-1.9865516,0.13937148,-1.1249392,0.14145374,-3.8300753,-9.398811,-7.03786,-4.6666503,0.20676255,3.368348
3.0706446,12.942465,0.7746531,4.222677,-0.22322172,-2.0122492,0.020633612,-0.7883065,0.6025561,-0.043053895,0.21962823,0.31405708,0.64278775,0.5649173,1.0083091,-0.43228573,-1.7492726,-0.6847457,2.3644638,1.4877603,-0.95347035,1.0729967,-0.48136333,-1.7451179,-0.7031361,2.3385398,1.4283644,-1.0074348,-1.4131442,1.1073977,-0.03667115,0.3499067,0.534534,0.48824078,0.26012635,1.3075485,-0.5416069,1.6798322,-2.8996181,-0.2234599,0.4646237,0.038930893,-0.35512352,1.0872824,0.8564195,-0.2568218,0.09645533,0.43736094,-0.34378344,0.7577223,0.3606059,1.0,0.0,0.0,0.0,0.0,0.0,0.0,-1.9575485,0.1416069,-1.1298323,0.4679203,-4.16615,-8.6338005,-2.90187,-5.323601,0.017523766,2.9692829
-1.7228303,11.859279,0.37955427,9.390333,0.29194832,-1.8205721,-0.17718005,-0.7815709,0.5790342,-0.12366121,0.27367106,0.27121833,0.6401054,0.5816605,0.99483967,-0.42345992,-1.7574841,-0.675769,2.3656616,1.4923749,-0.9492688,1.0589243,-0.47061542,-1.7462585,-0.6993996,2.3434494,1.4332205,-1.004631,-1.4053179,1.0641087,-0.1402177,0.3811179,0.4766182,0.48504063,0.28689027,1.278574,-0.5438423,1.6837385,-2.8967192,-0.22323649,0.36597323,0.03548813,-0.34781837,1.090716,0.8568892,-0.26253384,0.10077161,0.43204382,-0.33610013,0.72351193,0.3342053,1.0,0.0,0.0,0.0,0.0,0.0,0.0,-1.928574,0.14384231,-1.1337385,0.7866144,-4.2654037,-10.468099,2.9802263,-5.6216183,-0.15705228,2.611661
-4.432352,10.65406,0.16581881,12.35882,0.63362044,-1.7002668,-0.27648848,-0.77771664,0.54875404,-0.17141275,0.30274364,0.22708826,0.6385964,0.58417064,0.98115265,-0.41574,-1.7633997,-0.6691252,2.3661582,1.4970801,-0.94621396,1.0449377,-0.46033385,-1.7484291,-0.69511473,2.3477561,1.4380404,-1.0015907,-1.3965005,1.0163372,-0.24300545,0.44376808,0.4159328,0.48150936,0.30948395,1.2496281,-0.5460701,1.686659,-2.8938231,-0.2230133,0.2674214,0.0320282,-0.34082794,1.0939312,0.85753286,-0.2679852,0.10547774,0.42625782,-0.34188157,0.69309384,0.31422693,1.0,0.0,0.0,0.0,0.0,0.0,0.0,-1.899628,0.1460701,-1.1366589,0.87082386,-4.723954,-10.391081,6.11611,-5.886203,-0.23295283,2.1863997
-3.931068,12.670431,0.98397684,12.7088995,0.6524034,-1.6207484,-0.23533463,-0.7803526,0.5242542,-0.18091549,0.30345073,0.1780963,0.6375164,0.58275867,0.9669025,-0.40790844,-1.7665206,-0.66476965,2.3655658,1.501792,-0.94331485,1.0310065,-0.45053294,-1.7514102,-0.6902424,2.3514297,1.4428259,-0.998354,-1.3919061,0.96819353,-0.31657717,0.5013097,0.35136038,0.47809044,0.32805875,1.2207127,-0.5482979,1.6885947,-2.89093,-0.22279033,0.16896808,0.02850151,-0.3340969,1.096964,0.85831904,-0.27323815,0.110523514,0.4200163,-0.3476038,0.6686564,0.29693267,1.0,0.0,0.0,0.0,0.0,0.0,0.0,-1.8707126,0.14829788,-1.1385946,0.43811798,-4.7723055,-7.420331,5.624789,-6.307954,-0.2374947,1.7812431
0.69746065,12.837086,1.5921756,8.040682,0.25125557,-1.8184679,-0.02030012,-0.7663229,0.48584664,-0.16865379,0.2503525,0.1114163,0.6273139,0.5931861,0.9543742,-0.40194827,-1.7682756,-0.66520715,2.3625712,1.5055573,-0.9390354,1.0171686,-0.44127038,-1.7547977,-0.6851851,2.3543785,1.4475771,-0.99494845,-1.3809626,0.91245395,-0.34638122,0.5070099,0.2764058,0.47470707,0.34451687,1.191824,-0.55052567,1.6895467,-2.8880396,-0.22256759,0.0706132,0.025068283,-0.32765388,1.0997664,0.859155,-0.27821308,0.11586169,0.41355294,-0.3351684,0.63896745,0.27220374,1.0,0.0,0.0,0.0,0.0,0.0,0.0,-1.8418239,0.15052566,-1.1395466,1.1316538,-5.5231333,-3.0393362,0.49482584,-7.406509,-0.17946959,1.5823662
3.1002557,10.04831,1.425642,4.7244153,0.21300852,-2.0153704,0.13694593,-0.7629704,0.44224507,-0.15710336,0.21565837,0.11590341,0.6299798,0.58300775,0.9408716,-0.39704588,-1.770508,-0.6636192,2.3659687,1.510575,-0.93664765,1.0034434,-0.43264297,-1.7582176,-0.6803862,2.3567207,1.4523016,-0.99140555,-1.3694487,0.8463946,-0.34071308,0.4707988,0.2206161,0.4723845,0.3573657,1.1629658,-0.55274963,1.689516,-2.885152,-0.22234507,-0.027643349,0.021802902,-0.3215809,1.1022723,0.85996187,-0.28280917,0.121343195,0.40713668,-0.3169737,0.5992149,0.24125552,1.0,0.0,0.0,0.0,0.0,0.0,0.0,-1.8129658,0.15274963,-1.1395159,1.2297392,-6.544268,0.49555302,-3.6628783,-5.5273952,-0.04283786,1.2372792
3.4891825,7.2706146,1.226959,3.9107194,0.43662554,-2.096168,0.2105227,-0.7522321,0.39550874,-0.13544318,0.20897858,0.1149297,0.62881976,0.5841086,0.92822015,-0.3930921,-1.7717619,-0.6594883,2.3682137,1.5151836,-0.93299466,0.98986065,-0.4247537,-1.7613723,-0.67602694,2.3586547,1.4570051,-0.9877501,-1.3542476,0.77000165,-0.3074867,0.4241088,0.1845942,0.47035307,0.3680642,1.1341362,-0.5549698,1.6885033,-2.8822675,-0.22212277,-0.12580165,0.01868248,-0.31594658,1.1044619,0.86069024,-0.28701127,0.1267681,0.40095723,-0.30360037,0.55370075,0.20958063,1.0,0.0,0.0,0.0,0.0,0.0,0.0,-1.7841362,0.15496978,-1.1385033,1.6228437,-7.574296,3.2318413,-4.6939135,-3.5647452,-0.02232194,1.0342121
2.528863,1.1452951,-0.014516115,3.356189,0.5278866,-2.20363,0.21283916,-0.7395588,0.329476,-0.10530714,0.19597241,-0.0052647833,0.62916195,0.59491205,0.91590476,-0.3918061,-1.771903,-0.6564297,2.3581283,1.5199213,-0.9282589,0.9764606,-0.4177709,-1.7640483,-0.6721283,2.3599975,1.4616934,-0.98399454,-1.3346723,0.67460376,-0.25482154,0.37849873,0.11752452,0.4687905,0.37799183,1.1053352,-0.55718994,1.6865098,-2.8793857,-0.22190069,-0.22386181,0.015666962,-0.31082535,1.1063116,0.8613416,-0.29081112,0.13208686,0.39506024,-0.29477248,0.5000691,0.1751574,1.0,0.0,0.0,0.0,0.0,0.0,0.0,-1.7553352,0.15718994,-1.1365099,2.0990849,-9.471476,5.123639,-4.5700607,-6.6644816,0.029283762,0.96642375
3.6626883,-11.037357,-2.9005585,-2.4329522,0.1774131,-2.6902564,0.3058709,-0.7277375,0.24538033,-0.08161097,0.08150337,-0.12828366,0.63606006,0.5777326,0.9036868,-0.39323285,-1.7722094,-0.663978,2.3471692,1.5252994,-0.92622125,0.9632789,-0.41194156,-1.7661617,-0.6691052,2.3603828,1.466376,-0.98016363,-1.3118554,0.5526333,-0.1975022,0.2770013,0.012559973,0.468708,0.38468364,1.0765629,-0.5594101,1.6835365,-2.8765068,-0.22167884,-0.32182395,0.01282692,-0.30644798,1.1076928,0.86195934,-0.29399127,0.13735941,0.3895222,-0.2758366,0.41809973,0.12444193,1.0,0.0,0.0,0.0,0.0,0.0,0.0,-1.7265629,0.15941009,-1.1335366,2.5071383,-12.11381,5.5027666,-10.132438,-10.465489,0.22544265,0.65070987
6.3342752,-10.9066305,-3.0911376,-6.5405474,-0.4262035,-2.9417293,0.40604505,-0.72299993,0.20654179,-0.057255242,-0.029801004,-0.23212968,0.6376285,0.5537902,0.8909789,-0.3912874,-1.7718872,-0.6720853,2.33717,1.5301389,-0.9247846,0.9502994,-0.40727666,-1.7677104,-0.6674973,2.3595283,1.4710585,-0.97629553,-1.2925206,0.4380115,-0.14118187,0.12211659,-0.11793289,0.46878582,0.38730878,1.0478191,-0.5616226,1.6795843,-2.8736308,-0.2214572,-0.41968814,0.010314941,-0.30295944,1.1085103,0.86257523,-0.29632366,0.14273107,0.384427,-0.2383804,0.32694995,0.06652783,1.0,0.0,0.0,0.0,0.0,0.0,0.0,-1.6978191,0.16162261,-1.1295843,2.1531105,-11.389584,5.458045,-15.466295,-13.073262,0.21802783,0.22033453
3.2141156,-52.530254,-12.633783,-16.96974,-0.14214066,-4.07425,0.49483058,-0.70452327,-0.01174452,-0.021574613,-0.21920185,-0.37128878,0.6471776,0.5296368,0.87984705,-0.4084511,-1.7698679,-0.6894175,2.3223994,1.5357763,-0.92333186,0.93755066,-0.40447858,-1.7686813,-0.66809523,2.3571517,1.4757468,-0.97243124,-1.2677205,0.22724281,-0.08316325,-0.12039802,-0.27779162,0.46925122,0.3858086,1.019104,-0.56383514,1.674654,-2.8707576,-0.22123578,-0.5174545,0.008073807,-0.30098724,1.108458,0.86332065,-0.29732206,0.14806603,0.37993872,-0.21583194,0.15448569,-0.029765265,1.0,0.0,0.0,0.0,0.0,0.0,0.0,-1.669104,0.16383514,-1.124654,2.8547764,-21.013418,5.5386124,-24.21982,-16.061842,0.18914938,-0.2529025
-5.457591,-90.459236,-19.990015,-17.160852,1.7228489,-4.46704,0.47313413,-0.69376683,-0.25800326,0.16500628,-0.27367085,-0.4093189,0.65123063,0.47895896,0.86817396,-0.4302789,-1.7521807,-0.69546235,2.3162198,1.5408698,-0.92453533,0.92504895,-0.40464213,-1.768338,-0.67100394,2.3533142,1.4804255,-0.968628,-1.2430534,-0.09765643,0.07338199,-0.3476206,-0.41953424,0.46694475,0.3777827,0.9904175,-0.56604767,1.668747,-2.8678873,-0.22101459,-0.61512315,0.0055942535,-0.30109978,1.1073256,0.86426276,-0.2968722,0.1526834,0.3763038,-0.25810614,-0.06651641,-0.14132132,1.0,0.0,0.0,0.0,0.0,0.0,0.0,-1.6404175,0.16604766,-1.118747,2.8619528,-32.52417,15.561125,-22.712091,-14.389223,-0.41083694,-0.99357367
-11.22527,-113.29746,-23.76369,-14.951189,3.342149,-4.4714684,0.47776347,-0.63313144,-0.49678046,0.3287163,-0.3151069,-0.46450725,0.6578908,0.48499852,0.8617358,-0.4543202,-1.7354664,-0.70251465,2.3068635,1.5462146,-0.9201281,0.91301167,-0.40869,-1.7657974,-0.6758028,2.3482063,1.485066,-0.96490484,-1.1896331,-0.5077403,0.31527305,-0.5240881,-0.54244393,0.4611266,0.36970988,0.9617615,-0.5682564,1.6618638,-2.8650198,-0.22079362,-0.71269417,0.002292633,-0.3035679,1.1050451,0.86536974,-0.2951851,0.15581827,0.3737936,-0.35426322,-0.30611137,-0.25709838,1.0,0.0,0.0,0.0,0.0,0.0,0.0,-1.6117615,0.16825637,-1.1118639,5.6287766,-41.172184,24.426144,-17.693764,-12.675339,-1.1777163,-1.064688
-12.8045635,-109.60145,-22.739431,-10.992472,3.7785757,-4.079722,0.38940698,-0.58236414,-0.66374445,0.3988811,-0.37020954,-0.53504866,0.67174333,0.394165,0.85477525,-0.47506446,-1.7259092,-0.7128238,2.2947013,1.5522404,-0.92548835,0.9016725,-0.4168487,-1.7608364,-0.6820198,2.3419578,1.4896437,-0.9613238,-1.1151084,-0.91942614,0.55818623,-0.6545912,-0.653909,0.4537374,0.35334045,0.9331322,-0.5704613,1.6540058,-2.8621552,-0.22057287,-0.8101676,-0.0020694733,-0.3082962,1.1016536,0.8666119,-0.29253054,0.15716134,0.37243795,-0.46576387,-0.5261479,-0.3669555,1.0,0.0,0.0,0.0,0.0,0.0,0.0,-1.5831321,0.17046127,-1.1040058,7.539463,-41.42436,24.851925,-13.146663,-11.651886,-1.6498923,-1.8981993
0.9118743,-67.47915,-12.511166,-11.453716,2.4236743,-3.4157286,0.6028356,-0.41390187,-0.73475486,0.44822732,-0.44848832,-0.56021136,0.6625776,0.30962008,0.8602823,-0.49032417,-1.7160137,-0.7268687,2.2859366,1.5559014,-0.9303618,0.89172375,-0.4284368,-1.7537792,-0.68941844,2.33479,1.494147,-0.9579583,-0.95588785,-1.2393672,0.757672,-0.76894957,-0.73912627,0.44613743,0.33044547,0.9045334,-0.57266617,1.6451737,-2.8592935,-0.22035234,-0.9075436,-0.007112503,-0.31479645,1.097306,0.86780435,-0.28922263,0.15681891,0.37238926,-0.5201009,-0.6873482,-0.45846644,1.0,0.0,0.0,0.0,0.0,0.0,0.0,-1.5545334,0.17266616,-1.0951736,15.573919,-32.233833,20.779932,-11.642731,-8.948505,-1.6592801,-2.4683595
11.8437195,-17.940702,-1.5347034,-7.838738,0.9080051,-2.570261,0.58184576,-0.29428232,-0.758749,0.4251164,-0.4591856,-0.5843532,0.65651417,0.17726433,0.8622955,-0.5043117,-1.7112676,-0.735337,2.2763548,1.5597984,-0.94023186,0.88373196,-0.44225314,-1.7454727,-0.6976391,2.326947,1.498593,-0.9548989,-0.7489357,-1.4295937,0.8575289,-0.84051144,-0.80016655,0.44206986,0.29747364,0.8759613,-0.57487106,1.6353686,-2.8564346,-0.22013204,-1.0048221,-0.012264252,-0.3223877,1.0922662,0.8687905,-0.28559852,0.1552439,0.37354508,-0.51561815,-0.7763905,-0.5211107,1.0,0.0,0.0,0.0,0.0,0.0,0.0,-1.5259613,0.17487106,-1.0853686,20.08685,-19.180536,10.776388,-7.3796034,-6.3366294,-0.98431706,-3.3543825
16.005026,15.387494,4.875948,-3.717813,-0.15373366,-2.0404367,0.4025119,-0.23225595,-0.77799493,0.3584488,-0.48687306,-0.569124,0.6456047,0.055030573,0.86050636,-0.5200526,-1.7096277,-0.7463264,2.2700346,1.5631535,-0.94939584,0.87773716,-0.45715812,-1.7370422,-0.706391,2.3187416,1.5030123,-0.95223624,-0.551674,-1.5110601,0.8401029,-0.8872459,-0.8281551,0.44111055,0.25602552,0.84741974,-0.5770683,1.6245915,-2.8535786,-0.21991195,-1.1020035,-0.017097473,-0.3305149,1.0867639,0.86957103,-0.28181893,0.15299135,0.37552342,-0.47502166,-0.8185661,-0.56260973,1.0,0.0,0.0,0.0,0.0,0.0,0.0,-1.4974197,0.17706832,-1.0745914,19.13898,-8.229661,-1.1728168,-4.820001,-2.905929,-0.35988092,-4.1236043
19.121206,38.32996,9.509909,-1.1927397,-0.86215883,-1.70339,0.31255266,-0.15066345,-0.7852972,0.32965112,-0.51510507,-0.555536,0.63701415,-0.01925286,0.86267084,-0.53568786,-1.7040771,-0.7579015,2.263188,1.5667137,-0.9541615,0.8735877,-0.47232345,-1.7292621,-0.71552336,2.3104408,1.5074335,-0.95000845,-0.37102523,-1.5184777,0.7584518,-0.9222793,-0.83073854,0.44244143,0.21194293,0.8189049,-0.5792656,1.6128433,-2.8507254,-0.21969208,-1.1990877,-0.021354675,-0.33883476,1.0809656,0.87016803,-0.27795294,0.15047824,0.37802917,-0.40999538,-0.8297395,-0.58861226,1.0,0.0,0.0,0.0,0.0,0.0,0.0,-1.4689049,0.17926559,-1.0628433,17.566835,-0.7629156,-7.8439355,-3.592682,-0.25664568,0.102996826,-4.3319373
19.5667,42.864704,9.433734,-1.4945056,-1.2869751,-1.8348492,0.21056487,-0.057683364,-0.79105365,0.19414434,-0.55116296,-0.5208739,0.6217365,-0.031928517,0.86781937,-0.5514288,-1.7098477,-0.77063966,2.2583535,1.5696071,-0.9532013,0.87115777,-0.48730376,-1.722966,-0.7250353,2.3022926,1.5118605,-0.9481917,-0.2018745,-1.4912723,0.58784026,-0.9611068,-0.80968094,0.44280156,0.17172687,0.7904186,-0.58146286,1.600125,-2.847875,-0.21947244,-1.2960749,-0.024888992,-0.3472805,1.0749129,0.8706664,-0.2738768,0.147995,0.38082677,-0.3343543,-0.84270215,-0.614076,1.0,0.0,0.0,0.0,0.0,0.0,0.0,-1.4404186,0.18146285,-1.0501249,16.44631,2.7111053,-16.733122,-3.9570212,2.0718575,0.024068356,-3.9834409
17.88426,38.674454,7.5239906,-1.7779549,-1.3274236,-2.0266204,0.12912962,0.019536812,-0.7951395,0.06431507,-0.5762868,-0.48637348,0.6167266,-0.0032692628,0.8731114,-0.5668177,-1.7165345,-0.782664,2.2536552,1.5735332,-0.94851863,0.8702985,-0.5019636,-1.7188118,-0.73495257,2.2944763,1.5162855,-0.94671255,-0.04855955,-1.457582,0.35914734,-1.0022031,-0.7727099,0.44198912,0.13999814,0.761961,-0.5836563,1.5864375,-2.8450277,-0.219253,-1.3929651,-0.027698517,-0.35593224,1.0685676,0.871169,-0.26940393,0.14570053,0.38374144,-0.2615983,-0.86694735,-0.6447566,1.0,0.0,0.0,0.0,0.0,0.0,0.0,-1.411961,0.1836563,-1.0364375,14.912433,3.3524513,-22.51311,-4.17223,3.6083817,-0.15801191,-3.178203
18.801622,27.426102,3.8495812,-5.863045,-1.5072467,-2.522417,0.1277991,0.14486179,-0.8045421,-0.1478758,-0.6197892,-0.43478677,0.6092642,0.054227702,0.8847847,-0.58241785,-1.7335993,-0.7969315,2.2509975,1.577212,-0.9412898,0.8711053,-0.51638126,-1.7175395,-0.7453877,2.2871482,1.5206858,-0.94546896,0.122058816,-1.4365588,0.052010167,-1.0576082,-0.7203681,0.43847507,0.11891714,0.73353195,-0.58584595,1.5717818,-2.842183,-0.2190338,-1.4897584,-0.029764175,-0.36504555,1.0617951,0.8717719,-0.26424533,0.14366089,0.38671646,-0.18632534,-0.9205831,-0.6918968,1.0,0.0,0.0,0.0,0.0,0.0,0.0,-1.3835319,0.18584594,-1.0217817,16.55912,2.054739,-30.136385,-5.6433916,5.0468087,-0.61630607,-2.1965325
15.934438,19.599401,1.3669505,-5.9270496,-1.3350691,-2.6076074,0.1339539,0.18649343,-0.80561554,-0.28215408,-0.6565773,-0.41350967,0.61892295,0.21198374,0.88975465,-0.59694284,-1.745755,-0.8110454,2.2457972,1.5825781,-0.9242706,0.8734065,-0.5306778,-1.7194068,-0.75644076,2.2803352,1.5250536,-0.94428355,0.2648503,-1.4275522,-0.264686,-1.1213641,-0.6691187,0.43493003,0.11815853,0.70513153,-0.5880356,1.5561589,-2.8393414,-0.2188148,-1.5864549,-0.031158447,-0.37477493,1.0544775,0.872522,-0.25820246,0.1419204,0.38973767,-0.12071235,-0.985141,-0.74964374,1.0,0.0,0.0,0.0,0.0,0.0,0.0,-1.3551315,0.18803558,-1.0061588,13.889795,0.8408785,-31.155983,-6.432843,4.906976,-0.7231653,-0.17941296
12.552646,24.102364,3.396285,-1.8275971,-0.9094313,-2.0705578,0.19398174,0.18530871,-0.8030016,-0.25771028,-0.68155706,-0.44376278,0.6276332,0.2647601,0.8919374,-0.61097795,-1.7451779,-0.82459646,2.2359588,1.587817,-0.9178075,0.8767034,-0.5449343,-1.7235878,-0.76810896,2.2738464,1.5293986,-0.9430371,0.35070345,-1.4251521,-0.46868452,-1.182021,-0.6425541,0.4333911,0.12671584,0.6767597,-0.5902252,1.5395699,-2.8365026,-0.21859603,-1.6830548,-0.032007217,-0.38497925,1.0466334,0.87334144,-0.25139594,0.14043099,0.39287895,-0.06887206,-1.0270374,-0.8015072,1.0,0.0,0.0,0.0,0.0,0.0,0.0,-1.3267597,0.19022521,-0.98956984,8.40782,0.20468235,-20.234728,-6.064296,2.5474668,-0.44561625,0.829272
11.104447,31.148756,6.207152,1.654031,-0.7017435,-1.5579101,0.24488741,0.21684334,-0.80139303,-0.27727634,-0.69279325,-0.50793594,0.63249373,0.29632628,0.89838773,-0.62507355,-1.7513154,-0.8373883,2.2230527,1.5926479,-0.91340446,0.8806201,-0.5591898,-1.7290885,-0.78027403,2.267331,1.5337397,-0.9416724,0.40503913,-1.4257159,-0.577496,-1.2279024,-0.65495986,0.43386245,0.13976724,0.6484165,-0.5924072,1.5220155,-2.8336666,-0.21837747,-1.7795581,-0.032381058,-0.39541817,1.0383449,0.87411326,-0.24406382,0.1391701,0.3962204,-0.023027845,-1.0448028,-0.84415466,1.0,0.0,0.0,0.0,0.0,0.0,0.0,-1.2984165,0.19240722,-0.97201544,5.3640246,-0.06420612,-10.964942,-4.570031,-1.2376666,-0.13904572,1.3343841
8.137671,35.555668,7.907254,5.3289914,-0.4119721,-1.1533337,0.23027337,0.22277585,-0.79936385,-0.31424525,-0.702843,-0.5359843,0.63548595,0.3412577,0.9028977,-0.6391262,-1.7605131,-0.85055834,2.2137325,1.5972883,-0.90754664,0.8848506,-0.57345104,-1.7352512,-0.7927824,2.260537,1.5380942,-0.9401484,0.429201,-1.4262944,-0.62990856,-1.2582302,-0.6873136,0.43578678,0.15674302,0.6201,-0.59458923,1.5034968,-2.8308334,-0.21815914,-1.8759649,-0.03237915,-0.40590286,1.0296935,0.8747695,-0.23639852,0.13814418,0.39976272,0.012768898,-1.0450441,-0.8787225,1.0,0.0,0.0,0.0,0.0,0.0,0.0,-1.2701,0.19458923,-0.95349675,2.4433553,-0.053453445,-5.473423,-2.9842138,-3.1977773,0.08864403,1.7591357
2.074467,38.08503,8.765033,10.637641,0.09306154,-0.7369714,0.121140145,0.19311643,-0.7968051,-0.3253915,-0.6932487,-0.56502706,0.64067143,0.36541376,0.9041623,-0.65313154,-1.7677903,-0.8621073,2.204034,1.6021613,-0.903607,0.88902676,-0.58770657,-1.7416465,-0.8054148,2.2533386,1.5424773,-0.938448,0.41432795,-1.4253287,-0.6440146,-1.2646072,-0.7308478,0.43917534,0.1746357,0.59181404,-0.59677124,1.4840147,-2.8280032,-0.21794102,-1.9722753,-0.032161713,-0.41627502,1.020771,0.8753055,-0.22857246,0.1373593,0.40339467,0.029461224,-1.0293612,-0.9036132,1.0,0.0,0.0,0.0,0.0,0.0,0.0,-1.241814,0.19677123,-0.93401474,-1.3401985,0.09894371,-1.7357349,-0.532794,-4.3474317,0.3237605,1.8698931
-0.3527193,36.052254,8.257754,11.7160225,0.3651482,-0.670174,0.09355733,0.18960875,-0.8060442,-0.35238206,-0.71594304,-0.5533184,0.6318758,0.37778288,0.90798765,-0.668311,-1.7768848,-0.8770091,2.1980066,1.6056648,-0.9006697,0.8929578,-0.60199547,-1.7481372,-0.81812537,2.245797,1.546887,-0.93657595,0.38665324,-1.430061,-0.6517867,-1.2727777,-0.762288,0.44135177,0.19161877,0.56355476,-0.59894943,1.4635704,-2.8251758,-0.21772312,-2.0684893,-0.031847,-0.42650414,1.0115924,0.8757369,-0.2206276,0.13675608,0.40707013,0.03652921,-1.0149281,-0.9293272,1.0,0.0,0.0,0.0,0.0,0.0,0.0,-1.2135547,0.19894943,-0.91357034,-2.5830388,-0.48315525,-1.0988832,-0.67460537,-3.1776547,0.18785596,1.7891407
-1.9047565,40.559914,10.019533,14.126873,0.62135494,-0.38638747,0.079711884,0.16709135,-0.8016241,-0.30881593,-0.70624506,-0.5723629,0.64776176,0.36852503,0.90966696,-0.6821579,-1.7790189,-0.8887499,2.1885607,1.6116632,-0.8997235,0.89652264,-0.6163111,-1.7544429,-0.83083975,2.2379692,1.5513312,-0.934558,0.3470863,-1.4321207,-0.6249166,-1.270513,-0.7897095,0.4454737,0.20554428,0.5353241,-0.6011238,1.4421645,-2.8223512,-0.21750544,-2.164607,-0.03151703,-0.43650055,1.0022192,0.87604284,-0.21268252,0.1362542,0.41079184,0.036611527,-0.98864144,-0.9466786,1.0,0.0,0.0,0.0,0.0,0.0,0.0,-1.1853241,0.2011238,-0.8921645,-3.7443519,-0.20480156,2.2919178,0.37240982,-2.7451158,0.45793653,1.518634
0.9325869,41.87956,10.703041,12.462671,0.4647347,-0.44361025,0.14468098,0.1809277,-0.80400854,-0.32319617,-0.72082597,-0.58306336,0.64558023,0.4024064,0.9146154,-0.6967119,-1.7867626,-0.90292233,2.1796627,1.6158892,-0.8943173,0.89981854,-0.63064957,-1.7605217,-0.84358084,2.229905,1.5558115,-0.9323941,0.32430393,-1.434418,-0.6036208,-1.2748055,-0.8115108,0.44886097,0.22053657,0.50712204,-0.6032982,1.4197983,-2.8195295,-0.21728797,-2.2606287,-0.031126022,-0.44625282,0.9926619,0.876191,-0.20476136,0.13580826,0.41463023,0.043986697,-0.9647059,-0.9651624,1.0,0.0,0.0,0.0,0.0,0.0,0.0,-1.157122,0.20329818,-0.86979824,-2.1099567,-0.22015572,1.7420292,-0.30136108,-2.154708,0.37035346,1.6345859
2.7406135,42.64959,11.076475,11.503517,0.40530908,-0.50077814,0.15642874,0.1844026,-0.8030203,-0.33879808,-0.7206491,-0.56880325,0.641551,0.3965996,0.9182588,-0.71095157,-1.7944014,-0.9156458,2.1730247,1.6199666,-0.8927341,0.90299714,-0.6449995,-1.7665088,-0.85636294,2.22173,1.5603186,-0.93009955,0.3161761,-1.4351254,-0.5982626,-1.2789657,-0.819531,0.45125964,0.23292497,0.4789467,-0.60547256,1.3964725,-2.8167107,-0.21707073,-2.3565543,-0.030633926,-0.45579338,0.9829134,0.87617207,-0.19684446,0.13537024,0.4186282,0.055084452,-0.9435754,-0.9842721,1.0,0.0,0.0,0.0,0.0,0.0,0.0,-1.1289467,0.20547256,-0.84647244,-0.6778896,-0.057458878,0.1772523,-0.299263,-0.77023506,0.26106834,1.3780296
4.6770086,40.62659,10.5144,9.802326,0.3130325,-0.6530659,0.1651991,0.19896883,-0.81036836,-0.36837882,-0.72433245,-0.55836415,0.6324466,0.3973716,0.922894,-0.7260363,-1.8033468,-0.9287962,2.1658936,1.6235633,-0.8903624,0.90623105,-0.6593847,-1.7726371,-0.8691975,2.2135513,1.5648352,-0.9276963,0.32617557,-1.4396851,-0.6187152,-1.2845083,-0.8168842,0.451764,0.24324466,0.45080185,-0.6076393,1.3721882,-2.8138947,-0.21685371,-2.452384,-0.030000687,-0.46517754,0.97293544,0.87599444,-0.18886869,0.13490291,0.42280427,0.0701992,-0.9305709,-1.0083735,1.0,0.0,0.0,0.0,0.0,0.0,0.0,-1.1008018,0.2076393,-0.8221882,1.0960102,-0.44882298,-2.3416162,-0.4390478,0.28356314,0.024020672,1.1628687
0.27164078,40.028408,9.9697275,12.069172,0.55013156,-0.50798815,0.07331605,0.1568555,-0.80676883,-0.37140337,-0.71996534,-0.5696705,0.64798206,0.40572715,0.9219166,-0.74006164,-1.8097775,-0.941194,2.1565843,1.6296334,-0.8871236,0.909402,-0.67379665,-1.7790096,-0.882054,2.2053878,1.569367,-0.9251986,0.3144807,-1.4417089,-0.6441516,-1.2855041,-0.8162117,0.45352167,0.25242886,0.42268372,-0.60980606,1.3469462,-2.8110816,-0.2166369,-2.5481179,-0.02929306,-0.47442055,0.96272236,0.87570137,-0.18081115,0.13442813,0.4270638,0.07478644,-0.9151445,-1.0314679,1.0,0.0,0.0,0.0,0.0,0.0,0.0,-1.0726837,0.20980605,-0.7969462,-1.0212302,-0.2065897,-2.8290749,0.053811073,0.031542778,0.15656948,1.0373145
-5.7775,40.112015,9.733967,15.256794,0.914788,-0.25021565,-0.010282584,0.10365025,-0.8070857,-0.350386,-0.7231343,-0.5810216,0.6540446,0.41720417,0.919767,-0.7545052,-1.8140482,-0.9543674,2.1472857,1.6347715,-0.8834782,0.9121953,-0.688221,-1.7855022,-0.89491904,2.1971977,1.5739199,-0.9226113,0.26832134,-1.4428083,-0.6517563,-1.286182,-0.82045245,0.4559976,0.2612375,0.3945942,-0.6119728,1.3207477,-2.808271,-0.21642031,-2.6437562,-0.028654099,-0.4834633,0.95230424,0.87533736,-0.17269926,0.13396893,0.4312909,0.06428322,-0.89351374,-1.0511296,1.0,0.0,0.0,0.0,0.0,0.0,0.0,-1.0445942,0.2119728,-0.7707477,-4.395074,-0.12533665,-1.070714,0.13189316,-0.5077243,0.25279522,1.0007024
-11.138458,39.639503,9.122094,17.695518,1.1994345,-0.086873114,-0.094497405,0.05859789,-0.8031689,-0.36562568,-0.72615063,-0.5805269,0.65066826,0.42503777,0.9180551,-0.7685379,-1.8220648,-0.9675341,2.139145,1.6389867,-0.8801075,0.9143344,-0.70263195,-1.7920768,-0.90779746,2.188958,1.5784956,-0.91994005,0.19672222,-1.4406614,-0.6602588,-1.2875674,-0.82547754,0.45797223,0.26942408,0.36653328,-0.61413574,1.2935935,-2.805463,-0.21620393,-2.7392986,-0.028213501,-0.49226952,0.94169927,0.8749534,-0.16453244,0.13355492,0.43537194,0.041301973,-0.8694035,-1.0692909,1.0,0.0,0.0,0.0,0.0,0.0,0.0,-1.0165333,0.21413574,-0.7435935,-6.887534,0.18572807,-1.1525869,0.102210045,-0.64184666,0.20753741,0.9300649
-13.871239,39.56365,9.045278,18.716389,1.3649585,0.035541892,-0.10771733,0.015397445,-0.8064717,-0.35476565,-0.73555225,-0.5875813,0.64238816,0.44137654,0.9158742,-0.7832791,-1.8275534,-0.9813527,2.1302,1.6427344,-0.8758024,0.91565526,-0.71703434,-1.7986553,-0.92073023,2.1806533,1.5830828,-0.91718394,0.11156053,-1.4402177,-0.65786856,-1.294284,-0.83272684,0.45880032,0.27807057,0.33849907,-0.61629486,1.2654846,-2.802658,-0.21598777,-2.8347456,-0.028047562,-0.5008316,0.9309148,0.8745711,-0.15630718,0.13317743,0.4392689,0.011704694,-0.84349346,-1.0869286,1.0,0.0,0.0,0.0,0.0,0.0,0.0,-0.98849905,0.21629485,-0.71548456,-8.221815,0.008249283,-0.07379055,-0.4064083,-0.8798957,0.09022355,0.9830415
-11.387617,39.608055,9.243497,17.029095,1.2418405,-0.051848054,-0.065991715,0.0069911475,-0.80729175,-0.37990457,-0.74396205,-0.5692953,0.6307562,0.43712667,0.91635436,-0.7977635,-1.8366457,-0.9951264,2.1237237,1.6461585,-0.87347126,0.9162551,-0.7314396,-1.8053024,-0.93376696,2.172341,1.5876642,-0.91435343,0.043678526,-1.4407377,-0.66809267,-1.3058783,-0.83113194,0.45786572,0.28518245,0.31049347,-0.618454,1.236422,-2.799856,-0.21577182,-2.9300973,-0.028129578,-0.5091591,0.9199309,0.87418073,-0.14799204,0.13279374,0.44302604,-0.012200383,-0.8215881,-1.1075588,1.0,0.0,0.0,0.0,0.0,0.0,0.0,-0.96049345,0.21845397,-0.68642193,-6.5302753,-0.086426735,-1.3128638,-0.90301037,0.018191338,-0.11423826,0.83476305
-5.3194866,42.663296,11.045439,14.597706,0.95430684,-0.11041808,0.031328455,0.013237361,-0.8097408,-0.37425706,-0.74141973,-0.57478476,0.62960285,0.44008875,0.9175789,-0.8124137,-1.8427281,-1.0079089,2.1148627,1.6506245,-0.8703446,0.91641724,-0.74586296,-1.8120258,-0.94689524,2.1640441,1.5922343,-0.9114571,0.007666639,-1.442884,-0.6747435,-1.3144403,-0.8292103,0.4567453,0.29157653,0.28251648,-0.6206131,1.2064065,-2.7970567,-0.2155561,-3.0253537,-0.028348923,-0.51726913,0.9087473,0.8737272,-0.13960715,0.13235335,0.4467584,-0.022375362,-0.7995179,-1.127055,1.0,0.0,0.0,0.0,0.0,0.0,0.0,-0.93251646,0.22061309,-0.65640646,-3.4105651,-0.22842884,-0.9648204,-0.64570904,0.12129545,-0.124228,0.77958107
-5.546116,41.447292,10.369062,14.105949,0.88926965,-0.16947442,0.009243049,-0.017866988,-0.80829453,-0.41733432,-0.74553555,-0.5828049,0.62164885,0.45351478,0.91463053,-0.8266924,-1.8537592,-1.0214489,2.1057637,1.6543992,-0.8661056,0.9162618,-0.7602997,-1.8189971,-0.96010077,2.1557434,1.5967871,-0.908495,-0.022642236,-1.4441023,-0.70546,-1.3218309,-0.8305533,0.4545877,0.29807362,0.2545662,-0.6227646,1.1754391,-2.7942603,-0.21534058,-3.1205146,-0.02865982,-0.52518463,0.89733905,0.87321097,-0.1311055,0.1318834,0.45046723,-0.031435985,-0.78150976,-1.1504344,1.0,0.0,0.0,0.0,0.0,0.0,0.0,-0.90456617,0.22276458,-0.6254391,-2.8493047,-0.14324188,-3.3261657,-0.5180359,-0.2320528,-0.26037097,0.7704556
-7.6478553,38.99942,9.051145,14.141741,0.91267073,-0.20103854,-0.036867194,-0.047402207,-0.8098772,-0.45999658,-0.7525168,-0.5920016,0.61201626,0.45539314,0.91152155,-0.8412874,-1.8649968,-1.0353525,2.0965433,1.6579887,-0.8629557,0.9157802,-0.7747526,-1.826453,-0.97338736,2.1473968,1.6013094,-0.9054747,-0.05601338,-1.4458456,-0.75965047,-1.3301063,-0.8364799,0.45116934,0.3036017,0.22664452,-0.6249161,1.143521,-2.7914667,-0.21512529,-3.2155805,-0.029083252,-0.5329628,0.88565457,0.8726689,-0.12239082,0.1314372,0.4540855,-0.043807574,-0.7678471,-1.1793805,1.0,0.0,0.0,0.0,0.0,0.0,0.0,-0.8766445,0.22491607,-0.59352094,-3.1478212,-0.21264553,-5.621946,-0.5790949,-0.7382989,-0.43261647,0.6502092
-23.932632,29.365938,3.5866256,19.123976,1.7008793,-0.0489828,-0.30106133,-0.1608403,-0.8181477,-0.53124535,-0.76006085,-0.5887721,0.5798007,0.42548513,0.8996962,-0.8565674,-1.8795775,-1.0493934,2.0885196,1.6592895,-0.8629262,0.9145223,-0.7892618,-1.8347137,-0.98676455,2.138993,1.6057707,-0.90243155,-0.14807835,-1.4530693,-0.8484883,-1.3389853,-0.8430297,0.44375855,0.30477947,0.19875145,-0.62706757,1.1106528,-2.788676,-0.21491021,-3.3105512,-0.029907227,-0.54066086,0.87360156,0.8722588,-0.11329108,0.1310711,0.45732924,-0.09307808,-0.7615906,-1.2188408,1.0,0.0,0.0,0.0,0.0,0.0,0.0,-0.8487514,0.22706756,-0.5606528,-8.908171,-0.83835125,-8.966851,-0.4986763,-1.0031462,-0.9336293,0.17105341
-38.77643,24.579258,0.17783833,24.16672,2.4515417,0.27748317,-0.4892819,-0.2727815,-0.820517,-0.56593865,-0.7715654,-0.59219825,0.56054467,0.43257,0.88724416,-0.8713135,-1.8913076,-1.0639211,2.0797732,1.6618252,-0.85917455,0.9119092,-0.80385494,-1.8438957,-1.0002571,2.130513,1.6101424,-0.8993779,-0.29768765,-1.4619064,-0.94132274,-1.3509749,-0.85135865,0.43415985,0.3057141,0.17088509,-0.62921524,1.0768356,-2.7858877,-0.21469533,-3.405427,-0.03147316,-0.5482826,0.86112607,0.8721269,-0.103691585,0.13080919,0.45992577,-0.17613679,-0.753652,-1.2620009,1.0,0.0,0.0,0.0,0.0,0.0,0.0,-0.82088506,0.22921523,-0.5268356,-14.562329,-1.069355,-9.294581,-0.68535805,-1.3512492,-1.2227893,0.129354
-44.524063,23.404318,-1.164921,25.73989,2.7471194,0.3986975,-0.54672337,-0.34065792,-0.82353646,-0.6273276,-0.77949035,-0.5852299,0.5160402,0.43831572,0.87784344,-0.8862086,-1.9066285,-1.0782062,2.07199,1.6617464,-0.8555463,0.90768826,-0.8185377,-1.854079,-1.0138794,2.1219795,1.6143881,-0.8963128,-0.46223018,-1.4711151,-1.0437794,-1.3640355,-0.85620576,0.42024586,0.30696085,0.14304733,-0.6313591,1.0420625,-2.7831023,-0.21448068,-3.5012734,-0.03396225,-0.5558319,0.8481931,0.8723348,-0.093519084,0.13062803,0.4617601,-0.27239108,-0.74555457,-1.3088708,1.0,0.0,0.0,0.0,0.0,0.0,0.0,-0.7930473,0.2313591,-0.4920625,-16.02382,-1.1514425,-10.200667,-0.7212162,-1.0953784,-1.728028,0.16024113
-52.755226,23.814054,-2.1336837,28.70416,3.1682951,0.69428366,-0.6488999,-0.45830292,-0.8221859,-0.67665386,-0.78082174,-0.5919027,0.4852556,0.40939894,0.86185795,-0.9007563,-1.9217443,-1.0919616,2.0627892,1.6629137,-0.8553729,0.90162766,-0.8332863,-1.8652732,-1.0276028,2.113385,1.6184775,-0.8932572,-0.6524443,-1.477083,-1.1442318,-1.3730832,-0.8626756,0.4039287,0.30525893,0.11523819,-0.63350296,1.0063316,-2.7803197,-0.21426624,-3.597024,-0.037548065,-0.5632591,0.8348044,0.8729351,-0.08274629,0.13051069,0.46271396,-0.38697836,-0.73148376,-1.354217,1.0,0.0,0.0,0.0,0.0,0.0,0.0,-0.76523817,0.23350295,-0.45633155,-18.548561,-0.88095665,-9.942746,-0.2392292,-1.3681173,-2.0284235,-0.132519
-56.17976,27.152634,-1.2324283,30.401606,3.450892,1.0164573,-0.68598324,-0.5567457,-0.82399243,-0.70710677,-0.77249295,-0.57986563,0.51935583,0.36514932,0.8459531,-0.91568553,-1.9359839,-1.1048521,2.0553985,1.670413,-0.85674226,0.8936254,-0.8480816,-1.8773506,-1.0413433,2.1047752,1.6224409,-0.8902512,-0.8479182,-1.4813449,-1.2284209,-1.3720273,-0.8631599,0.3925468,0.29933986,0.08745575,-0.6356468,0.9696439,-2.77754,-0.21405202,-3.692679,-0.042345047,-0.57048416,0.8210089,0.8739406,-0.071460724,0.13038358,0.46273232,-0.5114197,-0.70813686,-1.3934578,1.0,0.0,0.0,0.0,0.0,0.0,0.0,-0.7374557,0.23564681,-0.41964388,-19.075668,-0.7401705,-8.292866,0.8071184,-0.8036971,-1.5608549,-0.52570105
-61.090767,32.161125,-0.02960825,33.42067,3.8560133,1.3926547,-0.7916318,-0.6699288,-0.8151762,-0.7482793,-0.7422589,-0.558024,0.54797184,0.28104112,0.8266325,-0.9295992,-1.9521785,-1.1155692,2.0489728,1.6772381,-0.8621471,0.8836204,-0.8628626,-1.8901947,-1.0549027,2.096234,1.6263281,-0.8873635,-1.0498195,-1.4781264,-1.3024842,-1.3482713,-0.85357076,0.38609043,0.2854706,0.059700012,-0.63778305,0.9320004,-2.774763,-0.21383801,-3.788238,-0.048480988,-0.5773964,0.806908,0.87538123,-0.059805572,0.13018174,0.4617181,-0.64922583,-0.67397296,-1.4212437,1.0,0.0,0.0,0.0,0.0,0.0,0.0,-0.7097,0.23778304,-0.3820004,-19.72605,-0.024986267,-7.233691,3.1039,0.16509295,-1.0828793,-1.2968659
-55.641388,37.81482,2.8185558,31.587566,3.7360902,1.5221876,-0.7113247,-0.7368109,-0.8136237,-0.7708947,-0.74049497,-0.50065523,0.5467682,0.20630637,0.80993927,-0.94422495,-1.9672841,-1.1289521,2.0461686,1.6810049,-0.86673284,0.8717891,-0.8775902,-1.9036548,-1.068216,2.0879676,1.6301657,-0.8846627,-1.2261609,-1.4721211,-1.3599727,-1.323234,-0.81982034,0.38132584,0.26540762,0.031972885,-0.6399193,0.893402,-2.771989,-0.21362421,-3.8837018,-0.055919647,-0.58392334,0.79257846,0.87721837,-0.047912866,0.1297571,0.45973405,-0.7774893,-0.6326631,-1.4424094,1.0,0.0,0.0,0.0,0.0,0.0,0.0,-0.68197286,0.23991928,-0.34340197,-17.229961,0.27208328,-5.597067,3.1900167,2.6587605,-0.91041327,-1.8680811
-44.21566,44.37405,7.012821,27.882208,3.3731396,1.5145364,-0.61331695,-0.77255404,-0.81470495,-0.77774996,-0.72183573,-0.43057716,0.51278627,-0.016884735,0.79453367,-0.95906067,-1.9814298,-1.1403996,2.04491,1.6814443,-0.88635117,0.8585483,-0.89226437,-1.9175231,-1.0812432,2.0802429,1.6339403,-0.88231474,-1.3557498,-1.4666909,-1.3954481,-1.2940003,-0.75826687,0.3748139,0.22528341,0.0042743683,-0.6420555,0.8538496,-2.7692175,-0.21341063,-3.9790702,-0.0644722,-0.5900154,0.77809536,0.8793832,-0.035936534,0.1289041,0.4569217,-0.88379353,-0.58672035,-1.4556491,1.0,0.0,0.0,0.0,0.0,0.0,0.0,-0.65427434,0.2420555,-0.30384958,-12.655115,0.2749443,-3.4501553,3.4974813,5.608332,-1.0282695,-3.8234413
-33.475388,49.593792,10.75117,24.446062,3.1350224,1.4776381,-0.5119586,-0.80479425,-0.8147125,-0.7838907,-0.7013184,-0.30054894,0.4916893,-0.16967137,0.77806884,-0.97373563,-1.9959122,-1.151375,2.050188,1.6831093,-0.89928186,0.8443347,-0.9068947,-1.9316165,-1.0939518,2.0734756,1.6376406,-0.8804589,-1.4424742,-1.4625179,-1.4136641,-1.2617109,-0.6507689,0.3674928,0.17310707,-0.023397446,-0.6441879,0.81334424,-2.7664487,-0.21319726,-4.0743423,-0.07394791,-0.5956459,0.76353323,0.8818138,-0.024041045,0.1273656,0.4534362,-0.97174275,-0.53909355,-1.4616346,1.0,0.0,0.0,0.0,0.0,0.0,0.0,-0.62660253,0.24418792,-0.26334423,-8.45921,0.21100044,-1.7709017,3.687501,10.366178,-1.0495603,-4.976079
-24.82829,54.27651,14.362753,22.463034,3.5911133,1.4219078,-0.4483722,-0.82182235,-0.80872077,-0.7861375,-0.6799159,0.11002356,0.44350442,-0.2999969,0.7621525,-0.98776674,-2.0102303,-1.1619434,2.084478,1.681991,-0.91045856,0.8295093,-0.921428,-1.9461439,-1.1065042,2.0690744,1.6410353,-0.8792075,-1.5026466,-1.441254,-1.5522738,-1.2984756,-0.3511473,0.24916328,0.10943457,-0.047416687,-0.6453972,0.7832817,-1.5859492,0.28704476,0.22544727,-0.084308624,-0.6009102,0.7488852,0.8845421,-0.0121955555,0.12447187,0.449381,-1.0578061,-0.5325295,-1.4994766,0.0,1.0,0.0,0.0,0.0,0.0,0.0,-0.6025833,0.24539718,-0.23328167,-7.0178986,3.4415722,-27.137589,-10.459781,33.88741,-22.858105,-6.473307
17.284668,176.0,110.0,110.0,5.449609,12.028947,-1.763627,-0.80289817,0.53694624,0.65342605,0.6377889,-0.23749508,0.6887206,-0.4188395,0.7492195,-0.8677334,-1.8808012,-1.0427253,2.0453248,1.7099074,-0.92109144,0.817555,-0.9381898,-1.9518315,-1.1056287,2.0553339,1.64975,-0.8775624,-1.082026,-1.6762147,-0.38017046,0.51932883,-1.5863615,1.1406285,0.2148615,-0.06326294,-0.64252853,0.78479,-1.5843636,0.28675777,0.1259707,-0.09525299,-0.6038017,0.73845786,0.8871161,-0.008986473,0.1252246,0.44414315,-1.1080031,-0.19103533,-0.89583254,1.0,0.0,0.0,0.0,0.0,0.0,0.0,-0.58673704,0.24252853,-0.23478997,45.352028,-2.3841858e-05,75.38756,172.65254,-84.85951,107.68695,20.137241
-50.298626,150.79668,52.99976,85.84278,8.045748,4.226622,-2.3446786,-0.77868634,-0.6741154,-0.30075246,0.6890851,-0.3885227,0.5883874,-0.39014667,0.73968637,-1.0056014,-1.9819067,-1.0367203,2.0164816,1.7085887,-0.9165771,0.8069988,-0.9543107,-1.9532028,-1.0938776,2.0391939,1.6612971,-0.8758019,-1.0453694,-1.5916281,-0.054098386,1.3957044,-1.6258188,1.1630962,0.16523106,-0.07909393,-0.6396637,0.7853043,-1.5827795,0.28647107,0.026593605,-0.10759163,-0.6049881,0.7320662,0.89041215,-0.011670749,0.12806454,0.43661118,-1.2736856,-0.083317466,-0.5577221,1.0,0.0,0.0,0.0,0.0,0.0,0.0,-0.57090604,0.23966369,-0.2353043,4.1086435,8.180523,33.16562,88.278404,-4.6966076,3.359437,-4.3288174
-51.866207,165.5264,47.446976,68.90807,5.4393077,3.1377368,-1.8185794,-0.79065406,-0.38165307,-0.36210632,0.7088026,-0.51353735,0.5464038,0.019995803,0.7279334,-0.99247605,-1.9894135,-1.0229973,1.9878402,1.7159375,-0.87380236,0.7959991,-0.96763927,-1.9539372,-1.0768011,2.024244,1.672457,-0.87430084,-1.1168078,-1.2480897,-0.07902815,1.8135978,-1.4541218,1.1026044,0.1450817,-0.09490967,-0.6368027,0.7848256,-1.581197,0.28618467,-0.07268414,-0.121097565,-0.60500336,0.7284922,0.89454895,-0.016226348,0.13207553,0.4267024,-1.3749806,0.0336256,-0.29659882,1.0,0.0,0.0,0.0,0.0,0.0,0.0,-0.5550903,0.23680267,-0.23482561,-6.712508,33.890892,-2.2582128,42.351532,16.38031,-5.353546,-2.0145714
-39.81698,115.22554,29.756754,41.122356,3.651416,1.6658953,-0.9675158,-0.7675061,-0.523834,-0.16504459,0.77687186,-0.49630573,0.5749195,-0.16165613,0.7192485,-1.0200226,-1.9704416,-0.99911386,1.9746135,1.7299489,-0.89046645,0.78401524,-0.9783624,-1.955135,-1.0580938,2.0115755,1.6827109,-0.87314975,-1.2249379,-1.0149655,-0.13325113,1.8909774,-1.2062663,1.000095,0.10491205,-0.110710144,-0.63394165,0.7833519,-1.5796162,0.28589854,-0.17225637,-0.13533783,-0.6041527,0.72647303,0.89917797,-0.021011041,0.13645561,0.41523162,-1.4385997,0.11174127,-0.17652601,1.0,0.0,0.0,0.0,0.0,0.0,0.0,-0.53928983,0.23394164,-0.23335189,-10.603499,22.937798,-5.3280516,8.062243,24.1992,-10.072303,-4.0641265
-22.1152,85.20672,20.009394,19.979723,1.431308,0.7480488,-0.25251836,-0.7736753,-0.4701584,-0.2077941,0.74168533,-0.5178627,0.5984912,-0.13785718,0.7066477,-1.0253782,-1.9759144,-0.9839252,1.9597892,1.74256,-0.8869355,0.77102524,-0.9872306,-1.9572426,-1.0401895,2.0010774,1.6919901,-0.872362,-1.3236791,-0.8449375,-0.23621503,1.7570827,-0.9990801,0.9042566,0.06952095,-0.12649536,-0.63108444,0.78088325,-1.5780369,0.2856127,-0.27172905,-0.14979935,-0.60271454,0.72494286,0.9039401,-0.025069542,0.14074408,0.40305707,-1.4474868,0.16553818,-0.15035053,1.0,0.0,0.0,0.0,0.0,0.0,0.0,-0.5235046,0.23108444,-0.23088324,-9.89213,16.737724,-10.175837,-13.354254,20.259846,-9.516489,-3.722377
-5.8372054,70.12759,17.86687,9.398454,0.43718976,0.32286692,0.15417136,-0.7682736,-0.44098288,-0.15757652,0.7580471,-0.4836068,0.57762694,-0.1295801,0.6941979,-1.0313289,-1.9730003,-0.9643848,1.9527167,1.7497529,-0.88532,0.75732666,-0.994942,-1.960014,-1.0239809,1.9922727,1.7003901,-0.8718833,-1.3856666,-0.74720013,-0.2898587,1.5750873,-0.8426247,0.8185533,0.040044133,-0.14226532,-0.62823105,0.77742064,-1.5764592,0.28532714,-0.3711023,-0.16412354,-0.6008568,0.72341573,0.9085947,-0.028215064,0.14471373,0.39079064,-1.4252546,0.2032535,-0.1574918,1.0,0.0,0.0,0.0,0.0,0.0,0.0,-0.50773466,0.22823104,-0.22742063,-6.3237906,9.575987,-5.07409,-18.28978,15.131521,-8.552158,-3.1156785
3.7209826,52.95482,13.351728,3.1757584,-0.1744706,-0.19550604,0.320038,-0.75150126,-0.4442843,-0.21917352,0.7465678,-0.49363104,0.59516823,-0.08080112,0.68217653,-1.0393704,-1.9819313,-0.9493241,1.9429096,1.7599069,-0.8799634,0.74335057,-1.0021747,-1.9633728,-1.0094354,1.9845518,1.7080481,-0.8716239,-1.4020168,-0.7157192,-0.3502851,1.4139798,-0.74987316,0.7482573,0.020794502,-0.15801811,-0.62537766,0.772965,-1.5748831,0.28504187,-0.4703762,-0.17813873,-0.59879684,0.7215688,0.91303957,-0.030420499,0.14831938,0.3787275,-1.3910606,0.21778966,-0.19675787,1.0,0.0,0.0,0.0,0.0,0.0,0.0,-0.49198186,0.22537765,-0.222965,-1.7662525,3.0236483,-5.765891,-16.206192,8.870972,-7.013738,-2.0649347
1.2853513,41.755413,8.81216,3.9276896,-0.12901434,-0.49652338,0.24403305,-0.75554407,-0.43898305,-0.3173667,0.7570322,-0.52072626,0.5811472,0.039317455,0.66779613,-1.0460731,-1.9951094,-0.9337322,1.9324791,1.7661629,-0.8676921,0.72938114,-1.0093693,-1.9676262,-0.99600255,1.9773306,1.7150843,-0.87143314,-1.3954083,-0.7210994,-0.44984984,1.3197101,-0.7139061,0.68869996,0.018159417,-0.17375374,-0.6225319,0.7675174,-1.5733085,0.2847569,-0.5695508,-0.19190216,-0.59669876,0.7192077,0.91728556,-0.031619694,0.15172529,0.36683333,-1.3688343,0.21722692,-0.2516394,0.0,1.0,0.0,0.0,0.0,0.0,0.0,-0.47624624,0.22253188,-0.21751738,0.59792995,-0.6306529,-9.780252,-9.428263,3.340745,-5.959904,-0.37179738
-0.10142565,37.543934,7.4148245,5.8859577,0.104700536,-0.5907247,0.1534298,-0.73821056,-0.4536454,-0.3575052,0.7743654,-0.52987176,0.5788503,0.10887486,0.6555601,-1.0547338,-2.0033767,-0.918566,1.9243433,1.7729694,-0.86054564,0.7156349,-1.0168117,-1.9729115,-0.9829906,1.9702142,1.7215998,-0.8711928,-1.3678228,-0.75236815,-0.55409646,1.2952231,-0.7113804,0.6389306,0.02582384,-0.1894741,-0.6196861,0.7610788,-1.5717355,0.2844722,-0.66862625,-0.20552254,-0.5946541,0.7162955,0.9213665,-0.03187097,0.15507317,0.35499343,-1.3574296,0.21076782,-0.3064162,0.0,1.0,0.0,0.0,0.0,0.0,0.0,-0.46052587,0.21968612,-0.21107876,2.7385473,-3.2162547,-10.265028,-2.3768425,0.052940845,-5.021131,0.6886009
-5.0733547,34.402203,5.6923285,8.2768345,0.3872098,-0.56070346,0.056558404,-0.73783183,-0.4736955,-0.42210686,0.7788452,-0.54841226,0.58732647,0.15799174,0.6418517,-1.0641813,-2.0151222,-0.9051061,1.915373,1.7803324,-0.85539365,0.7021671,-1.0246719,-1.9793068,-0.96990716,1.9629663,1.7276881,-0.8708304,-1.3397918,-0.7975902,-0.66771364,1.3132503,-0.72978806,0.59835804,0.039572123,-0.20517921,-0.6168442,0.7536501,-1.5701641,0.2841878,-0.7676026,-0.21913147,-0.59267044,0.7128244,0.9253155,-0.031228242,0.15846187,0.3430827,-1.3598241,0.20413665,-0.36255556,0.0,1.0,0.0,0.0,0.0,0.0,0.0,-0.44482076,0.21684417,-0.20365012,2.8273344,-4.6197295,-11.233318,1.9518375,-1.9933939,-4.1396737,1.3200774
-7.720027,26.794237,3.553114,8.159152,0.7291659,-0.5181609,0.03278572,-0.7318493,-0.5422698,-0.43674722,0.7735274,-0.51228297,0.59920084,0.13855897,0.6289822,-1.0788989,-2.0229816,-0.8925544,1.911738,1.7876081,-0.85697454,0.6889501,-1.0332416,-1.9866387,-0.9565548,1.955623,1.7334311,-0.8703469,-1.3155017,-0.87690383,-0.75465035,1.3433975,-0.7362697,0.5658135,0.051339466,-0.22086906,-0.61400604,0.74523246,-1.5685942,0.28390366,-0.86648,-0.23287582,-0.5907631,0.70872325,0.92916334,-0.029797403,0.16174097,0.3310701,-1.3764241,0.19714914,-0.4276966,0.0,1.0,0.0,0.0,0.0,0.0,0.0,-0.4291309,0.21400604,-0.19523245,2.4863482,-8.019781,-8.594715,3.2350302,-0.7607937,-3.3841968,1.1884183
-6.015958,27.026272,4.1217766,7.222348,0.6611222,-0.4090793,0.08407407,-0.714478,-0.57606083,-0.46505007,0.7711868,-0.5303366,0.61815596,0.16042255,0.61750233,-1.0908477,-2.0331438,-0.8794361,1.9025893,1.7952467,-0.8543047,0.6759856,-1.0426493,-1.994736,-0.9429589,1.9481055,1.7388347,-0.8697296,-1.2897745,-0.96200085,-0.83394307,1.363104,-0.7589645,0.52699655,0.06588918,-0.23699379,-0.6103821,0.7378752,-1.6224225,0.44559333,-0.48966756,-0.24674225,-0.58891296,0.70394856,0.9328905,-0.027605752,0.1648521,0.319025,-1.3867314,0.18926594,-0.49802938,0.0,1.0,0.0,0.0,0.0,0.0,0.0,-0.4130062,0.21038207,-0.18787521,2.6627302,-8.526409,-9.182871,1.543498,-3.6499858,-5.4287314,1.6975559
-15.707428,35.98179,4.9138303,11.754523,0.82811725,-0.082660854,-0.0030612797,-0.7529926,-0.55110604,-0.558566,0.78448766,-0.5901358,0.577185,0.23585574,0.6006863,-1.0977598,-2.0505927,-0.8645101,1.8890918,1.7965533,-0.846144,0.6630318,-1.0526094,-2.003771,-0.9291479,1.9402685,1.7439175,-0.8689361,-1.2970634,-1.0079011,-0.92596316,1.3879495,-0.7926492,0.5014797,0.0837323,-0.25326157,-0.60580826,0.7325979,-1.6281234,0.46060646,-0.5420426,-0.2607727,-0.58701324,0.69859236,0.93649,-0.0245665,0.16801414,0.30684537,-1.4055527,0.20100218,-0.5502455,0.0,1.0,0.0,0.0,0.0,0.0,0.0,-0.3967384,0.20580825,-0.18259788,-0.6601095,-4.736924,-9.034502,2.7453423,-3.5593748,-2.7115107,1.7541335
-14.266482,44.66971,7.8785224,12.540283,0.8659764,0.148835,0.01639276,-0.741675,-0.5672767,-0.5728659,0.79012984,-0.57459503,0.5932009,0.22868659,0.5888643,-1.1093371,-2.0610576,-0.8501349,1.882809,1.8032376,-0.8460675,0.64998937,-1.0628862,-2.0135906,-0.91512907,1.93219,1.7487947,-0.86798626,-1.3064998,-1.0348554,-0.9996448,1.4072078,-0.8139788,0.482543,0.0985806,-0.26943588,-0.6010971,0.72690463,-1.6145757,0.47448713,-0.5801734,-0.27494812,-0.5849304,0.69282365,0.939939,-0.020833861,0.1712899,0.29451713,-1.4175243,0.22248195,-0.5879745,0.0,1.0,0.0,0.0,0.0,0.0,0.0,-0.3805641,0.2010971,-0.17690462,-0.91495514,-2.8723717,-7.077408,2.1353006,-2.4588466,-2.0911336,1.4270157
-17.473564,46.618702,7.560288,13.075792,0.8188858,0.27851868,0.054104228,-0.7653083,-0.5797598,-0.6438485,0.7741797,-0.61489254,0.57334185,0.3137765,0.57345855,-1.1208622,-2.0779755,-0.8377111,1.8707007,1.8061289,-0.8366086,0.636739,-1.073348,-2.0242336,-0.901049,1.9238439,1.7535003,-0.86684376,-1.3310578,-1.0504444,-1.0846677,1.4089862,-0.8427687,0.465904,0.11917798,-0.28547096,-0.5962372,0.7208294,-1.6002868,0.48933074,-0.6181475,-0.28923607,-0.582592,0.6866704,0.943205,-0.0163676,0.17473508,0.2820708,-1.4290045,0.24947566,-0.626512,0.0,1.0,0.0,0.0,0.0,0.0,0.0,-0.364529,0.19623718,-0.17082942,-2.425766,-1.7518997,-8.189607,0.38776398,-3.2472014,-1.8789291,1.9729555
-12.099066,51.470737,9.722186,12.009876,0.7036196,0.32098818,0.14421088,-0.7477136,-0.5938818,-0.662915,0.78648186,-0.6162911,0.5871736,0.39866355,0.5619677,-1.1327362,-2.0905252,-0.8224008,1.8622148,1.8122177,-0.82697743,0.62334657,-1.0839491,-2.035609,-0.88695186,1.9152575,1.7580725,-0.86544853,-1.3419961,-1.0638442,-1.1534753,1.4104683,-0.86542845,0.4535122,0.14582689,-0.30131912,-0.5912247,0.7144332,-1.5799191,0.5046171,-0.64808774,-0.30356407,-0.57997894,0.68017465,0.94624394,-0.011220491,0.17833309,0.26961765,-1.4300653,0.277006,-0.65924776,0.0,1.0,0.0,0.0,0.0,0.0,0.0,-0.34868085,0.19122466,-0.16443318,-1.1139631,-1.5401602,-6.460452,0.29566288,-2.7195215,-1.4759719,2.553475
-6.124413,55.97454,11.941877,10.624931,0.5548364,0.38501453,0.22101013,-0.7397864,-0.59971607,-0.6693374,0.7835682,-0.6330543,0.5934486,0.41648638,0.5493679,-1.1439207,-2.1025426,-0.80859506,1.8519521,1.8174174,-0.8237999,0.6099341,-1.0946624,-2.0474842,-0.8728747,1.906453,1.7625473,-0.8637958,-1.3412406,-1.0744205,-1.1967435,1.4071496,-0.8873291,0.44396636,0.17139928,-0.31691742,-0.5860748,0.7078115,-1.5521884,0.52192366,-0.66888845,-0.31781197,-0.57709503,0.6734054,0.9490178,-0.0055173817,0.18203883,0.25728685,-1.4188601,0.30456612,-0.6846857,0.0,1.0,0.0,0.0,0.0,0.0,0.0,-0.33308256,0.18607482,-0.15781146,-0.0006198883,-1.2586117,-3.7923336,-0.26037693,-2.7334452,-1.2324393,2.42818
-5.15833,53.54596,11.192047,9.535454,0.50613874,0.35808617,0.26370952,-0.7462732,-0.6217747,-0.70419437,0.7752819,-0.6476946,0.57742345,0.4649262,0.53530675,-1.1568398,-2.1179037,-0.7953465,1.8416835,1.8202896,-0.8173032,0.5965359,-1.1055458,-2.0597599,-0.85887283,1.8974354,1.7669306,-0.861878,-1.3396046,-1.0938057,-1.2360325,1.3980945,-0.9084751,0.43561676,0.19819255,-0.3322487,-0.58078766,0.7009455,-1.5273352,0.53176224,-0.69336253,-0.33194923,-0.5739441,0.66634303,0.9515145,0.0007157788,0.18578854,0.24515744,-1.4068484,0.3299188,-0.7155284,0.0,1.0,0.0,0.0,0.0,0.0,0.0,-0.3177513,0.18078765,-0.15094548,0.08482933,-2.1280766,-3.3979893,-0.833869,-2.6631355,-1.100564,2.5588303
-5.9052386,60.70065,12.9951105,11.123299,0.6514834,0.5137355,0.2604287,-0.7581869,-0.6017256,-0.7126073,0.7709115,-0.6617391,0.56063944,0.5126928,0.52071726,-1.1657183,-2.1310205,-0.7817817,1.8312615,1.8229945,-0.8106087,0.5831017,-1.1165035,-2.072337,-0.84497976,1.88821,1.771224,-0.85968363,-1.344954,-1.0969615,-1.2624633,1.3865501,-0.92946875,0.42574108,0.22606048,-0.3472805,-0.57535934,0.69391876,-1.4943813,0.5496505,-0.70748675,-0.34594727,-0.5704994,0.65906334,0.95372707,0.0074311807,0.18958966,0.23324898,-1.3918496,0.36105928,-0.73385066,0.0,1.0,0.0,0.0,0.0,0.0,0.0,-0.30271947,0.17535934,-0.14391875,-0.6430149,-0.52707195,-2.0019293,-1.1236191,-2.7665377,-1.2740672,2.6419969
-8.281904,54.07854,10.687134,10.365857,0.72888696,0.46991062,0.26416886,-0.76927257,-0.6423773,-0.7302304,0.75796175,-0.67189986,0.53855824,0.5297958,0.50617445,-1.1807412,-2.14536,-0.7691836,1.8210201,1.8250798,-0.80670404,0.56956047,-1.1276364,-2.0851543,-0.8312392,1.878786,1.7754163,-0.85722506,-1.357441,-1.1194084,-1.2860879,1.3702357,-0.94885236,0.4159325,0.2520936,-0.36203957,-0.56980133,0.68665326,-1.4705898,0.5585464,-0.73309267,-0.35984612,-0.5667572,0.65151286,0.95567054,0.014635756,0.1933575,0.22156785,-1.3840255,0.39090723,-0.76399577,0.0,1.0,0.0,0.0,0.0,0.0,0.0,-0.2879604,0.16980132,-0.13665324,-1.323843,-2.4383307,-1.7925024,-1.5402317,-2.5482655,-1.2759984,2.496931
-7.819578,59.29328,12.096092,11.338665,0.86358607,0.5719224,0.24804044,-0.7719075,-0.6313418,-0.72773075,0.75700355,-0.6771539,0.522749,0.5432203,0.4923697,-1.1907706,-2.1579273,-0.7555389,1.8110706,1.8276912,-0.80290306,0.55588955,-1.1389241,-2.0981128,-0.8176398,1.8691959,1.7795023,-0.8545243,-1.3705366,-1.1324873,-1.2970687,1.3567734,-0.9646624,0.40473706,0.27567247,-0.37651443,-0.56411743,0.67918676,-1.4395466,0.5735834,-0.75189126,-0.3736477,-0.5626869,0.64373296,0.95735353,0.022273092,0.19705696,0.21011083,-1.3732929,0.42418528,-0.78445,0.0,1.0,0.0,0.0,0.0,0.0,0.0,-0.27348554,0.16411743,-0.12918675,-1.4115572,-1.5130997,-0.43964386,-1.2904406,-2.2841692,-1.4210224,2.237767
-6.3677597,54.863804,10.841651,9.724966,0.78356564,0.48440778,0.27544707,-0.77175677,-0.66082805,-0.7450353,0.7404211,-0.675277,0.4792825,0.5498297,0.47871387,-1.205007,-2.1726162,-0.74359775,1.8016683,1.8274305,-0.79954135,0.54211754,-1.1504331,-2.111201,-0.8042107,1.8594953,1.783459,-0.8516109,-1.3797412,-1.1576631,-1.3106054,1.3384814,-0.97409266,0.39145344,0.29620275,-0.39071274,-0.55833054,0.6714644,-1.413681,0.58104026,-0.77882385,-0.38734436,-0.5583191,0.63568264,0.9587879,0.030341357,0.20060623,0.19890244,-1.3626499,0.45325556,-0.8137317,0.0,1.0,0.0,0.0,0.0,0.0,0.0,-0.25928724,0.15833053,-0.12146437,-1.0141134,-2.7023315,-0.7441282,-1.7597198,-1.595664,-1.6416132,1.9521475
-0.957181,63.158627,13.859318,10.06027,0.88368464,0.5863093,0.27882943,-0.7571398,-0.6493718,-0.71430355,0.74855614,-0.6594737,0.49304554,0.57504517,0.46640354,-1.2153703,-2.1826315,-0.7293551,1.7935479,1.8327636,-0.79410636,0.5283532,-1.1621003,-2.1242397,-0.79089457,1.8497847,1.7873017,-0.8484987,-1.3758471,-1.1703366,-1.2991813,1.3291676,-0.97272706,0.3808076,0.31576517,-0.40458107,-0.5524521,0.6635845,-1.3785855,0.58988976,-0.79039913,-0.40086746,-0.5536499,0.62746406,0.95997965,0.03868847,0.20396858,0.1879869,-1.3421708,0.48297176,-0.8263886,0.0,1.0,0.0,0.0,0.0,0.0,0.0,-0.2454189,0.15245208,-0.11358446,0.23326874,-1.4584541,1.8997192,-0.9576082,-0.6520748,-1.3543844,1.8252969
-0.7893584,65.83061,14.180442,10.582049,0.91965544,0.5957969,0.26703754,-0.7627264,-0.6489356,-0.7302191,0.73919195,-0.6669702,0.44667512,0.5884367,0.45208058,-1.2269939,-2.1972616,-0.7169754,1.7830877,1.8319691,-0.789655,0.51462793,-1.1738343,-2.1372056,-0.7776728,1.8400891,1.7910172,-0.8452039,-1.3720208,-1.1750317,-1.2929101,1.3197242,-0.971541,0.3675086,0.33346874,-0.4180851,-0.54649734,0.65560484,-1.3426964,0.5965597,-0.7990546,-0.41417313,-0.5486908,0.61914706,0.96093255,0.047272082,0.20716265,0.17736307,-1.319678,0.5120786,-0.83520883,0.0,1.0,0.0,0.0,0.0,0.0,0.0,-0.23191488,0.14649734,-0.10560483,0.21431446,-0.66354275,1.4228821,-0.9938717,-0.7242918,-1.614064,1.6177654
-1.4243267,73.22345,15.751159,12.593216,1.171282,0.68678355,0.22263265,-0.7669682,-0.630026,-0.7184361,0.7384056,-0.6477382,0.39497483,0.6040836,0.43793112,-1.2368369,-2.2090492,-0.70383227,1.7753153,1.8305147,-0.7847955,0.50091785,-1.1854863,-2.1500611,-0.7645216,1.8304625,1.7945716,-0.84174216,-1.3713793,-1.1625454,-1.2803309,1.3132278,-0.962979,0.35039994,0.349802,-0.4311905,-0.54047394,0.6476125,-1.3017251,0.6033309,-0.7972101,-0.42724228,-0.5433998,0.61084646,0.9616559,0.056040257,0.21021661,0.16699214,-1.2957891,0.54452133,-0.8300571,0.0,1.0,0.0,0.0,0.0,0.0,0.0,-0.21880949,0.14047393,-0.0976125,-0.13344288,1.0378599,2.166605,-0.74460506,-0.11677742,-2.004671,1.4552534
2.8014338,75.80649,16.706566,11.80162,1.1370033,0.6505116,0.2518347,-0.7522821,-0.6259281,-0.7024998,0.72290885,-0.62744075,0.32621336,0.6152238,0.42568964,-1.2480792,-2.2203112,-0.6922307,1.7677184,1.827193,-0.7802198,0.4872707,-1.1969762,-2.1627333,-0.7514863,1.8209804,1.797919,-0.838128,-1.363226,-1.1450711,-1.2599591,1.2997819,-0.9465745,0.32793567,0.3647229,-0.4438591,-0.5344162,0.6396642,-1.2545357,0.60915864,-0.792839,-0.44002342,-0.53783417,0.6026317,0.96216065,0.06493569,0.21310139,0.1569011,-1.2655865,0.5721628,-0.82023317,0.0,1.0,0.0,0.0,0.0,0.0,0.0,-0.20614088,0.1344162,-0.08966416,0.5870342,1.546669,3.0056953,-1.4959335,0.6252885,-2.5926948,1.3139188
5.044241,76.61958,16.866142,11.21067,1.1560799,0.547755,0.27209848,-0.74789685,-0.6158336,-0.695861,0.7014335,-0.58793974,0.15915942,0.62768924,0.412481,-1.2585596,-2.2323194,-0.68134296,1.7621864,1.813835,-0.77535903,0.47372133,-1.2082658,-2.1751993,-0.73866975,1.8117634,1.8009377,-0.8343753,-1.3530115,-1.1240377,-1.2391514,1.2750261,-0.91663766,0.29196057,0.37828273,-0.45607567,-0.5283432,0.6317612,-1.2100172,0.6072908,-0.7874578,-0.45249367,-0.53201675,0.5945245,0.9624699,0.073954135,0.21572697,0.14712045,-1.2336676,0.59481215,-0.80894357,0.0,1.0,0.0,0.0,0.0,0.0,0.0,-0.19392431,0.1283432,-0.08176118,0.7806778,1.9143343,3.0675173,-2.6576757,1.970458,-3.9665103,1.186043
8.719372,76.20532,16.871378,9.783205,1.069475,0.34561545,0.32224005,-0.73820364,-0.6040574,-0.6847344,0.6671896,-0.5495406,-0.1434386,0.64349025,0.39990097,-1.2686715,-2.2436726,-0.6719508,1.7568094,1.7865938,-0.7700263,0.4603021,-1.2193303,-2.1874552,-0.7262327,1.8029314,1.8033903,-0.8304902,-1.3390669,-1.101125,-1.217782,1.2325865,-0.87539494,0.22859046,0.391311,-0.46783447,-0.5222969,0.62389386,-1.163821,0.6031152,-0.7842479,-0.4646263,-0.52604294,0.586522,0.96261156,0.08315181,0.21795817,0.13769126,-1.1991343,0.6082483,-0.79862505,0.0,1.0,0.0,0.0,0.0,0.0,0.0,-0.1821655,0.1222969,-0.073893845,1.1408806,2.123189,3.1258106,-4.466486,3.0837297,-6.6751537,1.1277556
9.918077,71.54202,15.651822,7.9534855,1.0680475,0.16471136,0.3738467,-0.7401225,-0.6029521,-0.6751589,0.6087282,-0.45746112,-0.4081692,0.65481347,0.38628986,-1.2796255,-2.254971,-0.6653599,1.7571853,1.7625734,-0.7650088,0.4469883,-1.2302117,-2.1995053,-0.7144356,1.7947322,1.8050457,-0.82648015,-1.329586,-1.0842425,-1.1981267,1.1614248,-0.8046523,0.1433724,0.40372944,-0.47916794,-0.51631165,0.6159847,-1.1220611,0.59657663,-0.7908344,-0.4764347,-0.51997757,0.5785611,0.9626381,0.09256801,0.21955788,0.12865987,-1.1682665,0.6158076,-0.7965073,0.0,1.0,0.0,0.0,0.0,0.0,0.0,-0.17083204,0.11631164,-0.06598467,0.7127762,1.5495777,2.8698444,-7.3322535,6.100738,-8.870968,1.1028051
20.846445,68.418,16.573496,3.9520643,0.9236524,0.060052276,0.445472,-0.6985863,-0.61101204,-0.61920977,0.5625879,-0.34625092,-0.48008242,0.6217188,0.37712967,-1.2913129,-2.2614262,-0.6581768,1.7601072,1.7570375,-0.7643083,0.43392912,-1.2410188,-2.2111547,-0.70346916,1.7874986,1.8058567,-0.82238436,-1.2989293,-1.0798323,-1.1512347,1.0740895,-0.69922155,0.059323803,0.41114634,-0.49006462,-0.5104294,0.6080028,-1.078012,0.58510804,-0.7985143,-0.48787308,-0.51391983,0.5706019,0.9626194,0.102015905,0.22027732,0.12014356,-1.1288781,0.6118555,-0.7968908,0.0,1.0,0.0,0.0,0.0,0.0,0.0,-0.15993536,0.11042938,-0.05800277,2.8083086,0.34730434,5.5623055,-9.016061,9.626495,-8.747539,0.622946
22.498938,64.86517,16.70817,3.228632,1.4129318,0.119619966,0.3888364,-0.6933952,-0.63325113,-0.5305646,0.52430713,-0.16530523,-0.4989233,0.60494334,0.3645896,-1.3043439,-2.2642112,-0.65103847,1.7709681,1.7559644,-0.76189005,0.42117414,-1.2519326,-2.2219765,-0.693385,1.7817292,1.8058966,-0.8182371,-1.2684913,-1.0955129,-1.0566732,0.9856385,-0.5388227,-0.015528301,0.41572252,-0.50055313,-0.50466156,0.5999203,-1.0380845,0.57347125,-0.8094039,-0.49897003,-0.5078697,0.5626553,0.96268237,0.111095876,0.2198135,0.11217124,-1.0973629,0.61129856,-0.79502976,0.0,1.0,0.0,0.0,0.0,0.0,0.0,-0.14944685,0.104661554,-0.04992026,2.8101444,-1.6394854,10.259533,-9.089947,15.21914,-7.8361273,0.41799545
26.299965,69.572136,19.590513,3.756155,2.369486,0.3372382,0.30540133,-0.6816142,-0.6350413,-0.37766823,0.45727646,0.16222803,-0.5104905,0.6096582,0.3530127,-1.3154367,-2.2597435,-0.64765733,1.797952,1.7548476,-0.7572713,0.4087115,-1.2630296,-2.231242,-0.684284,1.7783427,1.8052686,-0.8140483,-1.2396522,-1.1147827,-0.88071114,0.8840828,-0.27450252,-0.079788655,0.4200783,-0.51062965,-0.49900818,0.5918234,-0.99652797,0.56181943,-0.8078142,-0.50979805,-0.50175476,0.5548947,0.9630325,0.11911549,0.21773258,0.10474904,-1.07128,0.61974275,-0.7709046,0.0,1.0,0.0,0.0,0.0,0.0,0.0,-0.13937032,0.09900817,-0.041823387,2.643156,-1.9841433,18.432056,-10.419977,25.614971,-6.7824254,0.46322346
33.883286,79.89813,24.471281,3.821981,3.0230358,0.7583567,0.30872732,-0.6814551,-0.63388866,-0.09668184,0.35144642,0.30186874,-0.5024131,0.5998452,0.34056598,-1.3264184,-2.24091,-0.64913934,1.8085296,1.7550273,-0.7540638,0.39645773,-1.2742867,-2.237654,-0.6764657,1.7777181,1.804091,-0.8098275,-1.2214404,-1.1294563,-0.55836105,0.7466702,0.005264944,-0.13147502,0.42284492,-0.52020645,-0.49350548,0.5839418,-0.94379365,0.5464056,-0.780022,-0.520277,-0.4955082,0.5476073,0.96385187,0.12528154,0.21375473,0.09799474,-1.0336875,0.63389605,-0.71574754,0.0,1.0,0.0,0.0,0.0,0.0,0.0,-0.12979352,0.09350547,-0.033941805,1.5675068,-1.508832,33.15946,-14.049697,27.10202,-5.433224,0.31242967
41.476284,107.69767,33.235645,8.856459,4.0553827,1.3628609,0.20269509,-0.6766564,-0.5832417,0.27133265,0.29106838,0.39917538,-0.49112552,0.6129642,0.3287921,-1.332611,-2.2105207,-0.64735883,1.8176357,1.7549784,-0.7485311,0.38433316,-1.2854066,-2.2395382,-0.6700512,1.7796993,1.8024845,-0.80557626,-1.210267,-1.1062727,-0.061962016,0.60521805,0.25941882,-0.17094627,0.42591295,-0.52907753,-0.4882164,0.57676715,-0.86691564,0.5239235,-0.69558024,-0.53024673,-0.48905563,0.54135144,0.96526563,0.12872656,0.20792057,0.0919818,-0.9789056,0.6563189,-0.5967151,0.0,1.0,0.0,0.0,0.0,0.0,0.0,-0.120922446,0.088216394,-0.026767135,0.87270737,2.2600174,50.661354,-14.488959,24.505816,-4.064393,0.29218197
48.54855,99.66467,31.50719,3.9555178,3.2729688,1.1266356,0.36777958,-0.6482865,-0.5960735,0.3797361,0.15157865,0.5622033,-0.57257,0.62587255,0.3195045,-1.345014,-2.2015646,-0.65489334,1.8359196,1.7452275,-0.742989,0.3724038,-1.2963128,-2.236719,-0.66535956,1.7841492,1.8004912,-0.8012877,-1.1875628,-1.0855701,0.39891708,0.42315656,0.5049661,-0.20890589,0.42978218,-0.5371933,-0.48320007,0.57037395,-0.7924839,0.4954668,-0.6205448,-0.5396023,-0.4825039,0.5361246,0.9672693,0.12936187,0.20028082,0.086850666,-0.91658026,0.66144025,-0.4995153,0.0,1.0,0.0,0.0,0.0,0.0,0.0,-0.11280668,0.08320007,-0.02037394,2.1387339,2.0035982,46.750458,-18.398153,24.001997,-3.7564845,0.3675282
32.87078,114.2907,29.148472,12.302811,2.7913427,0.97975653,0.19711527,-0.6408178,-0.45929903,0.24754806,0.14033042,0.5996378,-0.5351161,0.6362777,0.308322,-1.3422427,-2.2119641,-0.65132654,1.844113,1.7469796,-0.73765993,0.36070845,-1.3064065,-2.2311265,-0.66216284,1.7906414,1.7981972,-0.79695696,-1.1635514,-0.9841946,0.6137582,0.28516555,0.697049,-0.23560245,0.43414876,-0.54455566,-0.47847557,0.5648008,-0.71852,0.46514043,-0.537906,-0.5483761,-0.4758911,0.53187424,0.9695942,0.12805763,0.1915885,0.08235296,-0.86068285,0.6673189,-0.40192762,0.0,1.0,0.0,0.0,0.0,0.0,0.0,-0.10544431,0.078475565,-0.014800787,2.3843765,10.069859,21.68877,-13.795841,19.135117,-2.4778187,0.4184425
31.080286,128.93668,30.801691,16.998297,2.579839,0.9904156,0.08970004,-0.6054216,-0.38031036,0.39478448,0.12049387,0.6227381,-0.4851703,0.62794703,0.30016628,-1.3444375,-2.191648,-0.65011346,1.8529153,1.7496802,-0.7341623,0.34937125,-1.3151708,-2.2239454,-0.6599823,1.798625,1.7957219,-0.79259205,-1.1235857,-0.8407662,0.7527397,0.19598973,0.8327472,-0.25053203,0.43723395,-0.5511265,-0.4740963,0.56023717,-0.63817483,0.4294286,-0.4317356,-0.55654335,-0.46925163,0.52873385,0.9720208,0.1253581,0.18257889,0.07826686,-0.79965794,0.668373,-0.28668925,0.0,1.0,0.0,0.0,0.0,0.0,0.0,-0.098873496,0.07409629,-0.010237157,4.0430546,14.292013,13.882006,-8.814156,13.784051,-1.1903018,0.29864907
28.200933,125.09376,28.653606,14.983159,1.876376,0.98004544,0.2645275,-0.6275456,-0.31251895,0.4803922,-0.06400098,0.66424733,-0.46806458,0.6149178,0.28661668,-1.3464227,-2.1759062,-0.66638243,1.8650497,1.7489154,-0.73110026,0.33827055,-1.3223958,-2.2157142,-0.65916216,1.807669,1.7931437,-0.7882078,-1.1052756,-0.68323827,0.8459336,0.044704694,0.9296833,-0.25903812,0.4389412,-0.5569172,-0.4700756,0.55667776,-0.56111544,0.3937739,-0.3340256,-0.5640545,-0.46263885,0.52660996,0.9744305,0.12164297,0.1735236,0.07468439,-0.7325287,0.664522,-0.18936713,0.0,1.0,0.0,0.0,0.0,0.0,0.0,-0.093082786,0.0700756,-0.006677747,1.915431,15.717983,9.051788,-14.952623,10.145342,-0.46547055,0.2120018
44.662155,103.04406,25.617775,2.4885333,0.32507247,0.7036017,0.6821238,-0.586312,-0.30118117,0.57768285,-0.26478067,0.7185019,-0.36838296,0.5843884,0.27963933,-1.3525139,-2.1579459,-0.6856402,1.8795192,1.7563055,-0.729769,0.32745206,-1.328341,-2.2065108,-0.6605252,1.8175377,1.7905785,-0.7838295,-1.0737532,-0.5651128,0.94401395,-0.19596198,1.00763,-0.25421253,0.43778148,-0.5619621,-0.4664421,0.55388767,-0.48747322,0.3543606,-0.26467437,-0.570734,-0.45627785,0.52511156,0.97678673,0.11709345,0.1642742,0.07204714,-0.64456755,0.630866,-0.1383097,0.0,1.0,0.0,0.0,0.0,0.0,0.0,-0.08803785,0.0664421,-0.0038876534,3.2386303,11.78031,9.418571,-23.86979,8.352434,0.9659171,-0.029873848
38.378025,79.137596,19.388752,-2.392436,-0.29816037,0.48043078,0.81608355,-0.61337113,-0.29290372,0.59424835,-0.403026,0.743829,-0.30719694,0.5768146,0.26611495,-1.3576313,-2.147086,-0.7008278,1.8919206,1.7598588,-0.72614807,0.31676093,-1.3334699,-2.1965208,-0.6645813,1.8280293,1.7881125,-0.7794672,-1.0672039,-0.49551162,1.0156735,-0.47466716,1.0651093,-0.24265826,0.43627754,-0.5663948,-0.4631443,0.5514676,-0.43033558,0.3225021,-0.23850043,-0.57661057,-0.45026016,0.52376187,0.9790695,0.11195277,0.15462634,0.070569605,-0.56740534,0.5955164,-0.13515122,0.0,1.0,0.0,0.0,0.0,0.0,0.0,-0.08360517,0.0631443,-0.0014675856,0.76937675,6.942683,6.591451,-27.630543,6.4181805,1.6192794,0.019401312
47.111065,60.997177,16.73035,-7.9696517,-0.91840404,0.1512967,0.8322082,-0.5370517,-0.32328147,0.651855,-0.4302314,0.7523993,-0.118640944,0.57536376,0.26305577,-1.365798,-2.1313353,-0.7076044,1.9032692,1.7762485,-0.72193086,0.30641928,-1.3383794,-2.185791,-0.6709768,1.8389422,1.7859005,-0.77511925,-1.0227098,-0.4896076,1.0902641,-0.6937203,1.1020533,-0.2126514,0.43495533,-0.5703182,-0.46016312,0.549125,-0.38126653,0.29076988,-0.23644924,-0.5817337,-0.4447136,0.5222224,0.981264,0.10627137,0.14452137,0.07029071,-0.49261737,0.5438548,-0.16129495,0.0,1.0,0.0,0.0,0.0,0.0,0.0,-0.079681754,0.06016311,0.0008749962,4.579854,0.5794823,6.8857193,-21.661175,4.3439627,3.4406333,0.06558299
48.61709,48.7865,14.415268,-9.700399,-1.1104268,-0.09011954,0.73852754,-0.48952934,-0.35408738,0.6804544,-0.4678344,0.7606983,0.028795343,0.5695047,0.25746635,-1.3737881,-2.1177456,-0.71776026,1.915012,1.78878,-0.7181688,0.2967123,-1.3435884,-2.1743784,-0.67903167,1.8501068,1.7840866,-0.77078694,-0.9529271,-0.5314831,1.1565104,-0.84191674,1.123184,-0.16988635,0.43334395,-0.573822,-0.45748138,0.54665554,-0.34105378,0.26139957,-0.25333837,-0.58618164,-0.43972206,0.5202779,0.98335123,0.10005028,0.13398987,0.07111204,-0.42769435,0.4865858,-0.20622088,0.0,1.0,0.0,0.0,0.0,0.0,0.0,-0.076177955,0.05748138,0.0033444762,7.1161866,-4.195571,6.099248,-14.577961,2.6874304,4.659319,0.05569458
