Afshin1997/kuka_rl_ros2/src/catch_and_throw/input_files/idealpd/polynomial_regressor/optimizer_files/env_103_data.csv
torque0,torque1,torque2,torque3,torque4,torque5,torque6,action0,action1,action2,action3,action4,action5,action6,set_target_0,set_target_1,set_target_2,set_target_3,set_target_4,set_target_5,set_target_6,joint_pos_0,joint_pos_1,joint_pos_2,joint_pos_3,joint_pos_4,joint_pos_5,joint_pos_6,joint_vel_0,joint_vel_1,joint_vel_2,joint_vel_3,joint_vel_4,joint_vel_5,joint_vel_6,tennisball_pos_0,tennisball_pos_1,tennisball_pos_2,tennisball_lin_vel_0,tennisball_lin_vel_1,tennisball_lin_vel_2,end_effector_pos_0,end_effector_pos_1,end_effector_pos_2,end_effector_rot_0,end_effector_rot_1,end_effector_rot_2,end_effector_rot_3,end_effector_lin_vel_0,end_effector_lin_vel_1,end_effector_lin_vel_2,obs_task_0,obs_task_1,obs_task_2,obs_task_3,obs_task_4,obs_task_5,obs_task_6,to_final_target_0,to_final_target_1,to_final_target_2,joint_acc_0,joint_acc_1,joint_acc_2,joint_acc_3,joint_acc_4,joint_acc_5,joint_acc_6
0.0,0.0,0.0,0.0,0.0,0.0,0.0,0.0,0.0,0.0,0.0,0.0,0.0,0.0,1.7802359,-1.0646509,-1.8151424,-1.1170107,1.9373155,1.1170107,-0.91629785,1.7802359,-1.0646509,-1.8151424,-1.1170107,1.9373155,1.1170107,-0.91629785,0.0,0.0,0.0,0.0,0.0,0.0,0.0,2.8375435,-0.62166786,0.1656342,-3.4961486,0.2963954,5.119262,0.5304184,-0.45449638,0.693097,0.5745483,0.17512383,0.15255436,0.7848268,0.0,0.0,0.0,1.0,0.0,0.0,0.0,0.0,0.0,0.0,-3.4875436,0.22166786,0.3843658,0.0,0.0,0.0,0.0,0.0,0.0,0.0
0.0,0.0,0.0,0.0,0.0,0.0,0.0,0.0,0.0,0.0,0.0,0.0,0.0,0.0,1.7802359,-1.0646509,-1.8151424,-1.1170107,1.9373155,1.1170107,-0.91629785,1.7802359,-1.0646509,-1.8151424,-1.1170107,1.9373155,1.1170107,-0.91629785,0.0,0.0,0.0,0.0,0.0,0.0,0.0,2.8375435,-0.62166786,0.1656342,-3.4961486,0.2963954,5.119262,0.5304184,-0.45449638,0.693097,0.5745483,0.17512383,0.15255436,0.7848268,0.0,0.0,0.0,1.0,0.0,0.0,0.0,0.0,0.0,0.0,-3.4875436,0.22166786,0.3843658,0.0,0.0,0.0,0.0,0.0,0.0,0.0
0.0,0.0,0.0,0.0,0.0,0.0,0.0,0.0,0.0,0.0,0.0,0.0,0.0,0.0,1.7802359,-1.0646509,-1.8151424,-1.1170107,1.9373155,1.1170107,-0.91629785,1.7802359,-1.0646509,-1.8151424,-1.1170107,1.9373155,1.1170107,-0.91629785,0.0,0.0,0.0,0.0,0.0,0.0,0.0,2.8375435,-0.62166786,0.1656342,-3.4961486,0.2963954,5.119262,0.5304184,-0.45449638,0.693097,0.5745483,0.17512383,0.15255436,0.7848268,0.0,0.0,0.0,1.0,0.0,0.0,0.0,0.0,0.0,0.0,-3.4875436,0.22166786,0.3843658,0.0,0.0,0.0,0.0,0.0,0.0,0.0
-176.0,74.53099,-4.5764637,110.0,11.240364,4.9607964,-3.836338,-0.82814515,0.39660054,-0.5796517,0.7356342,0.40993375,0.6269469,-0.57218266,1.6974213,-1.0249908,-1.8731076,-1.0434473,1.9783088,1.1797054,-0.9735161,1.7787577,-1.0619787,-1.821347,-1.1125895,1.9434114,1.1222769,-0.9176006,-0.19669582,0.355398,-0.826486,0.58984315,0.811706,0.7000951,-0.17325039,2.8026085,-0.61870575,0.21605197,-3.4926531,0.29609907,5.015958,0.5282364,-0.4577179,0.6939288,0.5781816,0.17385401,0.1508679,0.78276414,-0.29030746,-0.4295119,0.11059494,1.0,0.0,0.0,0.0,0.0,0.0,0.0,-3.4526086,0.21870574,0.33394805,-19.61464,35.315285,-82.41529,59.044273,80.86989,69.35421,-17.173895
-176.0,-30.012495,-45.802696,110.0,12.678246,1.5214666,-3.4267366,-0.8202567,-0.15168792,-0.5599528,0.70402956,0.491817,0.6223887,-0.5689164,1.696732,-1.0771475,-1.8773422,-1.0421865,1.992593,1.1845157,-0.9744922,1.7769724,-1.0586275,-1.8365982,-1.0991808,1.9554982,1.1354758,-0.91851324,-0.17890686,0.30998918,-1.7104229,1.5895458,1.3157109,1.4760267,-0.07668961,2.7677078,-0.61574745,0.26543748,-3.4891613,0.29580304,4.912757,0.5234413,-0.46616364,0.6948402,0.5863544,0.17074439,0.14658396,0.77816963,-0.54342234,-0.97985613,0.08959369,1.0,0.0,0.0,0.0,0.0,0.0,0.0,-3.417708,0.21574745,0.28456253,-0.14584959,-10.015649,-74.14877,99.49019,42.792965,62.44259,5.839847
-157.21918,112.336205,29.24432,93.74735,8.0887575,7.6911235,-2.2009542,-0.7742683,0.3498937,-0.037269104,0.6238481,0.49212,0.6838822,-0.5280716,1.6995456,-1.0236381,-1.8403251,-1.036796,2.0047102,1.203864,-0.9713204,1.7719389,-1.0546411,-1.8521469,-1.0815035,1.9687772,1.1500822,-0.91955847,-0.61159074,0.42474258,-1.4964131,1.8282152,1.3269641,1.4482133,-0.11562869,2.7328415,-0.61279106,0.31379175,-3.4856727,0.29550728,4.809659,0.5157509,-0.47750854,0.6973458,0.5975025,0.16615067,0.14103484,0.7716825,-0.8519362,-1.179731,0.30849054,1.0,0.0,0.0,0.0,0.0,0.0,0.0,-3.3828416,0.21279106,0.23620826,-43.31526,10.439629,23.39878,24.223019,-0.34599304,-5.0006866,-4.4277234
-102.934555,113.94138,40.152534,59.858944,4.7881393,7.7144566,-0.6972544,-0.78628975,0.21358508,0.018430077,0.6327819,0.48843586,0.64576936,-0.56292975,1.6933099,-1.0332826,-1.8503039,-1.0182253,2.0176208,1.2146592,-0.9758514,1.7625872,-1.0503095,-1.8629043,-1.063769,1.9808946,1.1635939,-0.9210691,-1.0440542,0.43330637,-0.92772716,1.7556598,1.1681293,1.3145531,-0.16531639,2.6980133,-0.6098385,0.3611158,-3.4821877,0.29521182,4.706664,0.5054703,-0.48962784,0.7017893,0.60981995,0.1602119,0.1347623,0.76438916,-1.0991819,-1.2113552,0.4946366,1.0,0.0,0.0,0.0,0.0,0.0,0.0,-3.3480134,0.20983848,0.1888842,-43.594765,0.09697676,59.19088,-7.123065,-17.441463,-14.680409,-5.711913
-48.04099,125.29674,47.48816,33.40142,1.6868677,6.7463894,0.036716595,-0.7995899,0.3173422,-0.024785511,0.63807577,0.52402884,0.6509236,-0.5509736,1.6826282,-1.0185753,-1.8653829,-0.9999614,2.0332975,1.2286862,-0.9761664,1.7496973,-1.0455621,-1.868119,-1.0478693,1.9913011,1.1756617,-0.92305464,-1.3720134,0.48667967,-0.37971276,1.5342635,0.99456584,1.1688178,-0.21220496,2.6632156,-0.6068897,0.4074107,-3.4787064,0.29491666,4.603772,0.49336243,-0.50117683,0.7078574,0.6221549,0.1531512,0.12820971,0.75698763,-1.260163,-1.1223395,0.64719445,1.0,0.0,0.0,0.0,0.0,0.0,0.0,-3.3132157,0.20688972,0.1425893,-33.232307,4.795432,56.72066,-22.281956,-18.473171,-15.175533,-5.468416
-8.710715,114.18985,41.691906,14.575736,-0.45938474,4.500329,0.18862353,-0.80765224,0.38832533,-0.12026697,0.62787414,0.5316802,0.6340121,-0.5579029,1.6689321,-1.0067296,-1.8801457,-0.9850819,2.044469,1.2390629,-0.97884494,1.7346274,-1.0400289,-1.8695953,-1.0342509,2.0002675,1.1864,-0.92545694,-1.5532576,0.5743679,-0.06619932,1.3034443,0.8620666,1.0416684,-0.25167367,2.628456,-0.6039429,0.45267746,-3.4752283,0.2946218,4.500983,0.48031998,-0.51153946,0.7149594,0.6340521,0.14546211,0.12200966,0.7496215,-1.3309662,-0.9929997,0.73196137,1.0,0.0,0.0,0.0,0.0,0.0,0.0,-3.2784562,0.20394287,0.09732255,-18.50009,8.428896,32.56173,-23.329044,-13.82041,-12.821794,-4.5674353
12.669248,113.0182,38.418816,7.6425133,-1.5238657,3.0479617,0.0037823468,-0.8236813,0.50232124,-0.17510377,0.6238998,0.5497095,0.6255438,-0.5507128,1.6522592,-0.9897968,-1.8871057,-0.9718609,2.0552385,1.2489544,-0.98052824,1.7186018,-1.0331892,-1.8696697,-1.0224787,2.0083394,1.1960188,-0.928194,-1.6201963,0.7196778,0.0147513375,1.1341275,0.78787166,0.93549675,-0.282881,2.593731,-0.6009979,0.4969171,-3.4717538,0.29432723,4.3982973,0.46697617,-0.5205593,0.7227103,0.64552337,0.13753632,0.116719194,0.74213207,-1.3455068,-0.85712606,0.788967,1.0,0.0,0.0,0.0,0.0,0.0,0.0,-3.243731,0.20099792,0.053082913,-7.0212364,14.283252,8.878392,-17.20264,-7.674396,-10.563827,-3.649032
22.869976,108.881134,35.4882,5.5123754,-1.750134,2.1657484,-0.11154427,-0.8310393,0.56874615,-0.16987094,0.6063462,0.5720873,0.62242323,-0.548851,1.6354979,-0.97631454,-1.8866568,-0.9618441,2.0655482,1.2582611,-0.9830791,1.7024447,-1.0247873,-1.8699024,-1.0118834,2.016045,1.2047125,-0.9311952,-1.6149654,0.87959737,-0.033980772,1.0336381,0.7643424,0.8477342,-0.30737156,2.55904,-0.5980568,0.5401307,-3.468283,0.29403296,4.2957134,0.45368958,-0.52830696,0.73093307,0.6566885,0.12957759,0.112540014,0.73437357,-1.3309132,-0.7324983,0.83253425,1.0,0.0,0.0,0.0,0.0,0.0,0.0,-3.2090402,0.19805679,0.009869337,0.2420187,15.804207,-4.3008804,-10.324287,-2.4729729,-8.712971,-2.9055417
27.07059,103.93387,33.478653,5.2485356,-1.6204236,1.7435322,-0.13019559,-0.82589865,0.6217413,-0.15885913,0.5826829,0.57977235,0.633364,-0.5538407,1.6198548,-0.96261317,-1.8857883,-0.95361507,2.0740223,1.2680489,-0.9865793,1.6866175,-1.0148805,-1.8709438,-1.0019194,2.0237317,1.2126528,-0.9344081,-1.572711,1.0272737,-0.1257998,0.982881,0.7695386,0.77632487,-0.32729492,2.5243835,-0.5951195,0.58231914,-3.4648154,0.293739,4.1932325,0.44062424,-0.5349083,0.7395503,0.6676182,0.12164399,0.109394625,0.7263067,-1.3047501,-0.62094015,0.87081444,1.0,0.0,0.0,0.0,0.0,0.0,0.0,-3.1743836,0.19511947,-0.03231913,3.9809942,14.616835,-8.701131,-5.360806,0.45568943,-7.120013,-2.4096012
25.634062,96.89756,31.46863,6.254073,-1.1692278,1.6214993,-0.055055663,-0.82644403,0.653856,-0.1284408,0.5587282,0.5980038,0.63295895,-0.55661464,1.6039732,-0.94949496,-1.8837879,-0.9460466,2.083532,1.2759486,-0.99006957,1.6712462,-1.003755,-1.8727195,-0.99226725,2.0316014,1.2199732,-0.9377927,-1.5259346,1.1405602,-0.19321577,0.9583701,0.7923991,0.71723896,-0.34350407,2.4897614,-0.59218407,0.6234836,-3.4613512,0.29344532,4.0908537,0.4277916,-0.5405121,0.7485243,0.6783155,0.11371312,0.10700757,0.71798795,-1.2815415,-0.5248819,0.90582,1.0,0.0,0.0,0.0,0.0,0.0,0.0,-3.1397614,0.19218406,-0.07348359,4.4590235,11.199784,-6.277409,-2.7329922,2.2302866,-5.946803,-2.0080745
23.05557,91.04427,29.979624,7.6590986,-0.7464022,1.6341808,0.0116608925,-0.81395936,0.6837493,-0.10978822,0.5554331,0.598863,0.64838207,-0.55611324,1.5898502,-0.93538004,-1.8836983,-0.93672395,2.0914876,1.2848114,-0.99340403,1.6563154,-0.9917505,-1.8748691,-0.9827095,2.0397077,1.226792,-0.9413156,-1.4827297,1.2199677,-0.22056341,0.95404094,0.81614125,0.66976297,-0.35657158,2.4551735,-0.5892525,0.663625,-3.4578905,0.29315194,3.9885778,0.4151268,-0.5452442,0.757841,0.6887638,0.10570952,0.10508332,0.7094979,-1.2649496,-0.4405744,0.9398706,1.0,0.0,0.0,0.0,0.0,0.0,0.0,-3.1051736,0.18925247,-0.11362499,4.119587,7.823229,-2.2612662,-0.7001519,2.316618,-4.8339844,-1.6802251
17.694826,82.46428,27.136047,8.978239,-0.29003984,1.5909519,0.07447595,-0.81566226,0.6936058,-0.088843115,0.54374325,0.6113087,0.65363675,-0.55991256,1.5747492,-0.9223899,-1.8837534,-0.9283352,2.1008384,1.2921556,-0.9973068,1.6416899,-0.9792249,-1.8769996,-0.97316706,2.0480504,1.2332045,-0.94495386,-1.4564182,1.2630035,-0.20902202,0.95349646,0.83968556,0.6312936,-0.36742505,2.42062,-0.5863228,0.7027444,-3.4544334,0.29285884,3.8864043,0.40255737,-0.5492363,0.767438,0.6989431,0.09759445,0.10335697,0.70090747,-1.2580876,-0.3704017,0.96580994,1.0,0.0,0.0,0.0,0.0,0.0,0.0,-3.07062,0.18632278,-0.15274441,2.442956,4.198909,1.6366065,-0.30391216,2.290666,-3.9528728,-1.4386237
14.066719,75.44094,24.663794,9.14354,-0.054111302,1.5092134,0.14320628,-0.81838566,0.70202845,-0.065317415,0.519709,0.6193728,0.64766806,-0.55876166,1.5598513,-0.9090221,-1.8835313,-0.92119616,2.1099877,1.2979712,-1.00083,1.6271998,-0.96646,-1.8788078,-0.96371806,2.0565991,1.2392794,-0.94868463,-1.4472004,1.2806904,-0.16961849,0.9413018,0.85981405,0.5994614,-0.3760811,2.3861008,-0.5833969,0.7408429,-3.4509797,0.29256603,3.7843328,0.3900032,-0.5525913,0.7772192,0.70881623,0.08937773,0.10165458,0.69228417,-1.2563732,-0.30817932,0.98163164,1.0,0.0,0.0,0.0,0.0,0.0,0.0,-3.0361009,0.1833969,-0.19084287,0.73661804,1.6789913,4.430041,-1.4621854,1.9467831,-3.2678008,-1.2029767
13.092907,73.68336,24.091915,9.338537,0.03727734,1.5278692,0.1932567,-0.8147295,0.7163369,-0.031170242,0.5087207,0.62936574,0.6580891,-0.55677557,1.5457268,-0.8948263,-1.8819247,-0.91284597,2.1195357,1.3050883,-1.0043622,1.6127383,-0.9535873,-1.8800647,-0.9544369,2.065331,1.2450892,-0.9524879,-1.4463894,1.2891401,-0.10938996,0.92287225,0.8772946,0.5744773,-0.38289693,2.351616,-0.58047295,0.7779214,-3.4475293,0.29227352,3.6823633,0.37745667,-0.5553303,0.78714544,0.71834606,0.081034265,0.099875376,0.6836939,-1.2567786,-0.2466626,0.995408,1.0,0.0,0.0,0.0,0.0,0.0,0.0,-3.001616,0.18047294,-0.22792137,-0.10509491,0.76088905,6.5277963,-2.0758748,1.6799808,-2.5710225,-1.0146022
13.191816,71.105515,22.907875,8.6789875,-0.02793765,1.4033402,0.21439178,-0.8119717,0.7229115,-0.015655264,0.4898506,0.62992346,0.6589143,-0.5545316,1.5315411,-0.88129616,-1.8816303,-0.90545183,2.1283233,1.3109806,-1.007941,1.5982634,-0.94066215,-1.8807342,-0.94540465,2.0741963,1.2506853,-0.95634836,-1.4485463,1.2934433,-0.05094762,0.89593905,0.88935286,0.5546956,-0.38809448,2.3171692,-0.5775528,0.81398094,-3.4440825,0.2919813,3.5804958,0.36492157,-0.55745506,0.79716104,0.72751,0.07257416,0.09801808,0.6751701,-1.254077,-0.18566555,1.0024389,1.0,0.0,0.0,0.0,0.0,0.0,0.0,-2.9671693,0.17755279,-0.26398093,-0.39708614,0.35836697,6.329551,-2.9244423,1.1505008,-2.0111918,-0.8407235
14.441168,70.33975,22.346146,7.565426,-0.17055142,1.2895291,0.2547369,-0.8149355,0.734212,0.006827239,0.45370662,0.6456447,0.65900993,-0.5463595,1.5167699,-0.86724097,-1.8800515,-0.900034,2.1387608,1.3165864,-1.0109843,1.5837466,-0.92766833,-1.8808563,-0.9367672,2.0831914,1.2561136,-0.960246,-1.4535887,1.3011363,0.0021612858,0.8522603,0.90269375,0.5390684,-0.3913986,2.282753,-0.57463455,0.84902257,-3.4406393,0.2916894,3.4787304,0.35243988,-0.5589485,0.80720943,0.73627454,0.06402969,0.09611682,0.6667545,-1.2459548,-0.12222371,1.0039898,1.0,0.0,0.0,0.0,0.0,0.0,0.0,-2.932753,0.17463455,-0.29902256,-0.6888628,0.70705414,5.787415,-4.602146,1.291287,-1.5522361,-0.64273477
14.893364,68.14283,21.110254,6.9573545,-0.27247113,1.1006846,0.24255063,-0.8120916,0.7386869,0.012065452,0.4356011,0.6478634,0.65833664,-0.53545487,1.5025374,-0.85379964,-1.8796498,-0.89320713,2.1479778,1.3219473,-1.0137916,1.5691935,-0.91458964,-1.8805816,-0.92858565,2.092297,1.2614104,-0.96416277,-1.4562818,1.3099345,0.037503842,0.8059889,0.91344243,0.5267635,-0.39265183,2.248375,-0.5717201,0.88304734,-3.4371994,0.29139775,3.3770666,0.3400879,-0.559824,0.8172283,0.7446437,0.055446394,0.094234474,0.6584462,-1.2326235,-0.061125044,0.9992066,1.0,0.0,0.0,0.0,0.0,0.0,0.0,-2.898375,0.17172012,-0.33304733,-0.4434824,0.83191395,3.9632325,-4.8604608,1.0582447,-1.1799932,-0.41860342
17.107193,67.270935,20.66449,5.5312405,-0.45671147,0.9490913,0.2818231,-0.8114262,0.74621356,0.032696124,0.39188886,0.6544035,0.66201574,-0.52949774,1.4880508,-0.83996826,-1.8773121,-0.8893968,2.1577375,1.3276119,-1.0171125,1.554629,-0.9014051,-1.8799999,-0.92096865,2.1015058,1.2666079,-0.96808237,-1.4570693,1.3211614,0.0663721,0.7461829,0.9233338,0.51766425,-0.39271882,2.2140274,-0.5688095,0.9160562,-3.4337628,0.2911064,3.2755044,0.32791138,-0.56007767,0.8271641,0.7525927,0.04686499,0.09242055,0.6502818,-1.2114478,0.0018099461,0.9893138,1.0,0.0,0.0,0.0,0.0,0.0,0.0,-2.8640275,0.1688095,-0.3660562,-0.2508402,1.0875225,3.295031,-6.217444,0.9884834,-0.8105993,-0.28990507
18.210781,64.59468,19.307621,4.2150946,-0.6417977,0.7085913,0.28127575,-0.81043506,0.75381774,0.022313759,0.34890276,0.6518565,0.667939,-0.51796645,1.4735855,-0.82602334,-1.8777685,-0.88607836,2.1666913,1.3334018,-1.019879,1.5400702,-0.8880937,-1.8792846,-0.9140316,2.110783,1.2717348,-0.9719915,-1.4558911,1.3343422,0.074397005,0.67540604,0.92935145,0.51151705,-0.39119458,2.179718,-0.5659008,0.94805026,-3.4303298,0.29081535,3.1740437,0.3160057,-0.55970764,0.8369398,0.7601189,0.038355254,0.090761706,0.6422696,-1.1821651,0.062473405,0.971027,1.0,0.0,0.0,0.0,0.0,0.0,0.0,-2.829718,0.1659008,-0.39805025,-0.04658699,1.3001204,1.1638746,-7.3207498,0.62543154,-0.4637599,-0.10997653
20.852463,61.396687,18.177788,1.6111383,-0.8740368,0.4399358,0.3576056,-0.8130803,0.75735253,0.030325172,0.2708414,0.66780967,0.66002715,-0.51883525,1.4587622,-0.81235844,-1.876252,-0.8869475,2.1775641,1.3377376,-1.023875,1.5255152,-0.8746612,-1.878535,-0.9080206,2.1201482,1.2768084,-0.97588533,-1.455949,1.3462361,0.07640759,0.57547355,0.93902427,0.5067087,-0.3895828,2.1454391,-0.562994,0.97903043,-3.4269001,0.2905246,3.0726845,0.30447006,-0.5587387,0.8464536,0.76718265,0.030021835,0.089306414,0.63447136,-1.1416805,0.12230796,0.94199514,1.0,0.0,0.0,0.0,0.0,0.0,0.0,-2.7954392,0.162994,-0.42903042,-0.1685381,1.192379,0.5348444,-10.249281,1.0063887,-0.2559781,-0.083875656
25.690453,59.642143,18.112776,-1.6435738,-1.1588416,0.2296288,0.49591905,-0.8101381,0.75761956,0.0636331,0.18076386,0.6719252,0.660504,-0.51690614,1.4445014,-0.79889923,-1.8721718,-0.88994426,2.1873407,1.3428588,-1.027576,1.5109736,-0.86114097,-1.8776443,-0.90325224,2.1296086,1.2818457,-0.979762,-1.4542855,1.3540769,0.094351195,0.44303048,0.94856286,0.50376403,-0.387849,2.1111984,-0.560091,1.0089978,-3.423474,0.29023415,2.9714267,0.2934456,-0.55714035,0.85562015,0.7736965,0.021944946,0.08805361,0.62702376,-1.0873401,0.18496025,0.90521514,1.0,0.0,0.0,0.0,0.0,0.0,0.0,-2.7611985,0.16009101,-0.4589978,0.011777878,0.8091688,2.1068037,-13.501859,1.0069966,0.012600422,-0.059187412
30.541075,59.293224,18.520664,-4.591629,-1.4396181,0.051582873,0.6305391,-0.8077679,0.76358676,0.09513466,0.07865415,0.6785765,0.6545569,-0.5163213,1.4301968,-0.7847823,-1.8681308,-0.8953868,2.1974664,1.3473014,-1.0313941,1.4964586,-0.84754443,-1.876437,-0.9000441,2.1391644,1.2868582,-0.98362154,-1.4511181,1.3616215,0.13041018,0.27932507,0.95854723,0.5017174,-0.38612756,2.0769882,-0.55719185,1.0379534,-3.4200513,0.28994396,2.87027,0.28305054,-0.55488396,0.8643816,0.77956843,0.014184832,0.08699333,0.62008387,-1.0193342,0.2509681,0.8632214,1.0,0.0,0.0,0.0,0.0,0.0,0.0,-2.7269883,0.15719184,-0.48795336,0.17762184,0.8010149,3.881122,-16.614151,1.0757685,0.17607212,-0.03964901
35.744396,57.282684,18.282494,-8.640352,-1.8307524,-0.23228914,0.78493905,-0.8090938,0.767896,0.122401245,-0.06374401,0.68007594,0.6521965,-0.5024526,1.4155493,-0.7707548,-1.8641968,-0.9064185,2.2071722,1.3520778,-1.0338668,1.4819666,-0.83387446,-1.8747833,-0.8988129,2.148808,1.2918574,-0.9874553,-1.448996,1.3690549,0.1779382,0.07033129,0.96676,0.50090075,-0.3829533,2.0428162,-0.5542946,1.0658981,-3.416632,0.28965408,2.7692144,0.27346802,-0.5519428,0.87264216,0.7847004,0.006848164,0.086149186,0.61382127,-0.93373996,0.3191558,0.8102575,1.0,0.0,0.0,0.0,0.0,0.0,0.0,-2.6928163,0.15429458,-0.51589805,0.09791851,0.8166075,4.964933,-21.121922,0.9287238,0.39393902,0.14432073
37.747093,56.106354,18.094406,-9.982073,-1.943027,-0.41962186,0.8457693,-0.8056209,0.7717915,0.15289561,-0.17252906,0.68741554,0.64854956,-0.4852105,1.4014045,-0.75669533,-1.8594937,-0.9160658,2.2175496,1.3567123,-1.0359764,1.4675051,-0.8201301,-1.8725994,-0.8997694,2.1585393,1.2968508,-0.9912433,-1.4452231,1.3764848,0.23240909,-0.15162641,0.9757375,0.50044155,-0.37792242,2.0086746,-0.55139923,1.092833,-3.4132159,0.2893645,2.6682599,0.2647934,-0.5483322,0.8803515,0.78905183,1.0522571e-06,0.085528016,0.60834366,-0.84029,0.3841849,0.75401044,1.0,0.0,0.0,0.0,0.0,0.0,0.0,-2.6586747,0.15139922,-0.54283303,0.30417442,0.8395672,5.5560975,-22.37736,1.055491,0.46578646,0.37727356
32.62333,55.941486,17.677273,-5.9193454,-1.5264633,-0.37112996,0.7178451,-0.80535537,0.77333766,0.18166533,-0.21322997,0.68565905,0.6504719,-0.4628411,1.3869696,-0.74279636,-1.8544328,-0.92109245,2.2271051,1.361898,-1.0375274,1.4530817,-0.80632377,-1.8698585,-0.9026152,2.1683393,1.3018385,-0.99496645,-1.4417578,1.3824494,0.28809023,-0.3294454,0.9822077,0.49977636,-0.370749,1.9745674,-0.5485077,1.1187592,-3.4098034,0.28907517,2.5674064,0.25695038,-0.54413986,0.88757694,0.7927143,-0.0064198687,0.08508943,0.6035914,-0.75986534,0.43840313,0.70797,1.0,0.0,0.0,0.0,0.0,0.0,0.0,-2.6245675,0.14850768,-0.56875914,0.30579567,0.7070303,5.56252,-17.926254,0.87041855,0.3851354,0.6288469
30.032314,55.826126,17.518276,-3.80728,-1.3154566,-0.3689272,0.6572292,-0.80553883,0.7774857,0.21828519,-0.30189446,0.6892269,0.6490846,-0.45113218,1.3725278,-0.72857517,-1.84803,-0.93280464,2.237262,1.366747,-1.0400797,1.4386832,-0.7924564,-1.8665321,-0.90707934,2.1781964,1.3068186,-0.9986133,-1.4392505,1.3885407,0.34725448,-0.48583812,0.98813504,0.49881393,-0.36282733,1.9404945,-0.54561996,1.1436775,-3.4063942,0.28878614,2.4666538,0.24985504,-0.53944397,0.89438605,0.7957736,-0.012476905,0.08479884,0.599498,-0.6857314,0.48698834,0.6674326,1.0,0.0,0.0,0.0,0.0,0.0,0.0,-2.5904946,0.14561996,-0.59367746,0.23217201,0.7335186,5.826741,-15.757423,0.8650899,0.33023953,0.7345438
27.30946,54.229374,16.896952,-1.9372392,-1.113764,-0.40108645,0.59144604,-0.80344945,0.7748959,0.25176984,-0.372282,0.68252814,0.64849985,-0.43594643,1.3583382,-0.7149668,-1.8413551,-0.94430757,2.2464492,1.3716686,-1.042208,1.4243113,-0.77855563,-1.8626068,-0.9129406,2.1880803,1.3117892,-1.0021751,-1.4365854,1.3909513,0.40717232,-0.61995286,0.98981744,0.4976602,-0.35417134,1.906456,-0.54273415,1.1675891,-3.4029887,0.28849742,2.3660018,0.2434578,-0.53429794,0.90081644,0.7982967,-0.018210027,0.084633395,0.5960099,-0.61767435,0.5287842,0.6300614,1.0,0.0,0.0,0.0,0.0,0.0,0.0,-2.556456,0.14273414,-0.61758906,0.2663374,0.37622452,5.8344126,-13.515675,0.4767418,0.2887249,0.82862973
25.78284,54.599304,17.142792,-0.14402437,-0.93668324,-0.3666818,0.5516524,-0.7976923,0.7770999,0.29485896,-0.42771262,0.68784815,0.65399295,-0.4197923,1.344542,-0.70084566,-1.8331208,-0.9557119,2.256865,1.3771884,-1.0441543,1.4099871,-0.76463675,-1.8580368,-0.91997683,2.197991,1.3167521,-1.0056465,-1.4310222,1.392723,0.47286722,-0.7319153,0.99245155,0.49701118,-0.344879,1.8724518,-0.53985023,1.1904949,-3.3995864,0.288209,2.2654505,0.23770142,-0.5287533,0.9069204,0.8003326,-0.023678312,0.08455094,0.59309196,-0.5550055,0.56763494,0.59876907,1.0,0.0,0.0,0.0,0.0,0.0,0.0,-2.5224519,0.13985023,-0.6404949,0.57270527,0.32436848,6.3466787,-11.28583,0.61483383,0.32303333,0.90861917
24.699505,54.53119,17.227816,0.8872862,-0.84700364,-0.36614066,0.52887756,-0.79692835,0.77936757,0.33632156,-0.48991302,0.68943644,0.65245646,-0.41210994,1.3302943,-0.6867,-1.8244046,-0.96896815,2.2669346,1.3819977,-1.0468575,1.3957144,-0.75069785,-1.8527744,-0.9280573,2.2079282,1.3217074,-1.0090282,-1.4257946,1.3948375,0.54304427,-0.83370596,0.99525803,0.4962712,-0.33590364,1.8384819,-0.53697014,1.212396,-3.3961875,0.28792083,2.1649997,0.23254395,-0.52282715,0.9127352,0.80191255,-0.028920501,0.084529504,0.5907238,-0.49515432,0.604704,0.57040375,1.0,0.0,0.0,0.0,0.0,0.0,0.0,-2.488482,0.13697013,-0.662396,0.55105686,0.36797523,6.7485094,-10.254467,0.66081285,0.3060341,0.8943677
19.960247,55.28102,17.347618,5.1711645,-0.44373906,-0.1988746,0.4063866,-0.7955051,0.77899075,0.37878883,-0.4826487,0.68624514,0.6512673,-0.38826296,1.3161639,-0.67279875,-1.8148955,-0.9763222,2.2765527,1.3868341,-1.0478545,1.3814894,-0.7367437,-1.8467834,-0.93681395,2.2178807,1.3266531,-1.0123107,-1.4214469,1.3961773,0.6168074,-0.889925,0.9964548,0.495066,-0.32588398,1.8045464,-0.53409386,1.2332934,-3.392792,0.28763297,2.0646493,0.22787476,-0.5165615,0.9183594,0.8031159,-0.034047585,0.08452324,0.5888136,-0.45052934,0.6373226,0.554172,1.0,0.0,0.0,0.0,0.0,0.0,0.0,-2.4545465,0.13409385,-0.6832934,0.45278072,0.29993057,7.0685625,-5.706954,0.54169893,0.21347404,0.9979367
14.56859,54.804554,16.795969,9.407722,-0.05808121,-0.07155892,0.26068538,-0.79613763,0.78075296,0.40188202,-0.47031942,0.681378,0.65902084,-0.3481914,1.3018756,-0.6586684,-1.8065952,-0.9838459,2.2860186,1.3925552,-1.0471299,1.3672892,-0.7227733,-1.8401268,-0.94580233,2.2278218,1.3315912,-1.015475,-1.419532,1.3979691,0.68074614,-0.9021129,0.995085,0.49423546,-0.3132319,1.7706413,-0.5312195,1.253188,-3.3893998,0.2873454,1.9643992,0.22353745,-0.5100117,0.923895,0.8040531,-0.03917669,0.08451044,0.5872151,-0.42122045,0.6641073,0.5475488,1.0,0.0,0.0,0.0,0.0,0.0,0.0,-2.4206414,0.13121948,-0.703188,0.18589497,0.3502369,6.0842752,-1.3265729,0.29816628,0.19990206,1.2542129
10.424248,54.367878,16.350676,12.813761,0.24544442,0.02220793,0.13996291,-0.79520327,0.7840609,0.42477638,-0.4507174,0.6834638,0.65840644,-0.31920928,1.2877688,-0.6443672,-1.7976491,-0.99087405,2.2961683,1.3974319,-1.047396,1.3530985,-0.7087724,-1.8329151,-0.95464385,2.2377553,1.3365198,-1.0185001,-1.418937,1.401324,0.73361605,-0.87858766,0.9941549,0.49306065,-0.29918948,1.7367744,-0.528347,1.2720808,-3.3860111,0.28705812,1.8642491,0.21939468,-0.5032215,0.9294245,0.80482,-0.044398792,0.08447969,0.5857958,-0.40395433,0.68648547,0.54877555,1.0,0.0,0.0,0.0,0.0,0.0,0.0,-2.3867745,0.12834701,-0.72208077,0.03027916,0.50940514,4.9902797,2.2242546,0.3455162,0.12391806,1.3845563
8.572821,50.582977,14.809995,13.067082,0.289064,-0.10846338,0.08380823,-0.7972808,0.78166825,0.4324923,-0.45942557,0.679794,0.65413785,-0.31279963,1.2733704,-0.6306056,-1.7896658,-1.0005864,2.3057346,1.4019337,-1.04978,1.3388983,-0.69475436,-1.8253124,-0.9632307,2.2476697,1.3414313,-1.0213935,-1.4206166,1.4025459,0.7684127,-0.852519,0.9916554,0.4913705,-0.2862087,1.7029381,-0.52547836,1.2899729,-3.3826258,0.28677112,1.7641991,0.21540833,-0.4962597,0.93493354,0.80547523,-0.049693566,0.08446181,0.58447105,-0.38807976,0.7027296,0.5454685,1.0,0.0,0.0,0.0,0.0,0.0,0.0,-2.3529382,0.12547836,-0.7399729,-0.20797253,0.289011,3.2234907,2.4661899,0.14646053,0.053209066,1.2755036
5.8226013,48.562363,13.911585,14.815806,0.45743537,-0.107419014,0.014139211,-0.80095625,0.7821173,0.4461283,-0.42348558,0.6737515,0.6580564,-0.26477557,1.2588027,-0.61654264,-1.7806995,-1.0055792,2.3150449,1.4072369,-1.0478711,1.32466,-0.6807296,-1.8174407,-0.97142756,2.2575383,1.3463293,-1.0241363,-1.4251368,1.4029535,0.7925975,-0.8093071,0.9867994,0.48990637,-0.2704643,1.6691399,-0.5226135,1.3068652,-3.3792439,0.28648442,1.6642493,0.21154022,-0.48916245,0.9404251,0.80607045,-0.055069655,0.084480196,0.58316445,-0.37886068,0.7146156,0.54413223,1.0,0.0,0.0,0.0,0.0,0.0,0.0,-2.31914,0.12261352,-0.7568652,-0.51300526,0.20487309,2.1916032,4.162669,-0.1047492,0.04607439,1.5441358
4.788364,44.009174,12.300779,14.143486,0.4789647,-0.26230663,0.01450043,-0.80912477,0.7737681,0.45476964,-0.42499804,0.67542106,0.6562592,-0.23724218,1.2437475,-0.6033528,-1.7719638,-1.0139273,2.3250804,1.4119552,-1.0478605,1.3103396,-0.66674495,-1.809386,-0.9792677,2.2673688,1.3512121,-1.026715,-1.4345176,1.3974292,0.8089463,-0.7760535,0.9827278,0.4883959,-0.25385657,1.6353722,-0.5197506,1.3227588,-3.3758652,0.286198,1.5643994,0.20775986,-0.48199272,0.9458513,0.8066231,-0.0604739,0.084541485,0.5818546,-0.36910683,0.7204201,0.535746,1.0,0.0,0.0,0.0,0.0,0.0,0.0,-2.2853723,0.11975059,-0.7727588,-1.0079622,-0.39963722,1.4529109,3.15696,-0.06839037,0.03105998,1.6261578
5.474058,44.081604,12.449103,14.015314,0.40660477,-0.30338007,0.026083851,-0.8067004,0.7798096,0.4608558,-0.4029739,0.66694725,0.6555694,-0.17866775,1.2296696,-0.588764,-1.7633004,-1.0195651,2.3340635,1.416769,-1.0445818,1.2959467,-0.65278983,-1.8012111,-0.98677313,2.277142,1.3560816,-1.0290992,-1.4410276,1.3954419,0.8197586,-0.74261403,0.97648346,0.48699063,-0.23347878,1.6016388,-0.5168896,1.3376546,-3.3724902,0.28591186,1.4646492,0.20409393,-0.47475433,0.9511953,0.8071279,-0.065886006,0.0846772,0.58054566,-0.35688883,0.7274748,0.5276999,1.0,0.0,0.0,0.0,0.0,0.0,0.0,-2.251639,0.116889566,-0.7876546,-0.718832,-0.046396255,0.90636015,3.1829476,-0.29255152,0.040346384,2.0058303
2.664905,40.347866,10.757818,15.259951,0.57480854,-0.3840449,-0.072058395,-0.8140075,0.7747231,0.4377964,-0.3625814,0.667595,0.65430415,-0.18845966,1.214546,-0.5753175,-1.7574315,-1.0230312,2.3439016,1.421512,-1.0479451,1.2814757,-0.6388681,-1.793082,-0.9938494,2.286862,1.3609358,-1.0313041,-1.4494479,1.3916171,0.81013566,-0.6966552,0.97125596,0.48537815,-0.21645868,1.5679398,-0.51403236,1.3515537,-3.3691185,0.285626,1.3649989,0.20051575,-0.4675026,0.9564515,0.8076414,-0.0712937,0.0849076,0.57915723,-0.35032615,0.72693586,0.5185539,1.0,0.0,0.0,0.0,0.0,0.0,0.0,-2.2179399,0.11403236,-0.80155367,-0.9312153,-0.2361536,-1.098752,4.4107676,-0.22242069,-0.009739399,1.6625494
3.6492448,36.315613,9.244869,13.05459,0.41386825,-0.639445,-0.06057705,-0.81506205,0.7704018,0.41476148,-0.37916094,0.666335,0.6503454,-0.19763575,1.1999694,-0.5618279,-1.7516059,-1.0317655,2.3534954,1.4259703,-1.0510677,1.266934,-0.6249969,-1.7851856,-1.0006322,2.2965322,1.3657728,-1.033366,-1.4558836,1.3860204,0.7822395,-0.672761,0.96663827,0.48364085,-0.20305209,1.5342712,-0.511179,1.364457,-3.36575,0.28534043,1.2654482,0.19704819,-0.46029282,0.9615394,0.80818766,-0.07659612,0.08527764,0.577662,-0.33599752,0.72103244,0.4991889,1.0,0.0,0.0,0.0,0.0,0.0,0.0,-2.1842713,0.111178964,-0.814457,-0.7220268,-0.42378902,-2.8935194,2.2058368,-0.21084547,-0.013786554,1.3035029
5.36621,36.37825,9.577985,11.832419,0.2762913,-0.71007425,-0.0010523871,-0.8192502,0.77152276,0.42120573,-0.38052034,0.6646732,0.65013176,-0.16355745,1.185009,-0.54784465,-1.743065,-1.0386842,2.3629994,1.430786,-1.0497217,1.2523295,-0.6111686,-1.7775276,-1.0072945,2.3061643,1.3705946,-1.0352886,-1.4621203,1.3822606,0.7600555,-0.66458374,0.9627766,0.48218104,-0.18869598,1.5006409,-0.5083275,1.3763655,-3.362385,0.28505516,1.165997,0.19376755,-0.4531269,0.96641487,0.80873644,-0.081735365,0.08580361,0.57610977,-0.31598887,0.7172133,0.477502,1.0,0.0,0.0,0.0,0.0,0.0,0.0,-2.150641,0.10832748,-0.82636553,-0.6942034,-0.24313927,-2.3146033,0.6496072,-0.14343262,0.02208352,1.4033794
7.3028007,35.387047,9.432953,9.81916,0.088716745,-0.8592177,0.059280097,-0.82258564,0.7709022,0.40808937,-0.40218323,0.6664747,0.647998,-0.15546884,1.1700709,-0.5340784,-1.7367187,-1.0475129,2.3728118,1.4353944,-1.0508355,1.2376658,-0.597368,-1.7700908,-1.0140523,2.3157697,1.375403,-1.0370758,-1.4678282,1.379843,0.7379236,-0.68005276,0.9608111,0.48089263,-0.17545624,1.467041,-0.5054779,1.3872802,-3.3590233,0.28477016,1.0666453,0.19075394,-0.44599724,0.97102773,0.80924994,-0.08664354,0.08650703,0.57456404,-0.2877765,0.71337813,0.44975513,1.0,0.0,0.0,0.0,0.0,0.0,0.0,-2.117041,0.1054779,-0.8372802,-0.6269932,-0.11262894,-2.2992969,-1.6984463,0.024175644,0.053155422,1.2999922
8.5674515,34.81976,9.524376,8.838574,0.001501143,-0.9391151,0.10719882,-0.8224847,0.76782227,0.402446,-0.4123778,0.6643968,0.64791673,-0.12684648,1.1554173,-0.5205858,-1.7298462,-1.0552901,2.3822093,1.4401947,-1.0497605,1.2229639,-0.5835941,-1.7628391,-1.0210446,2.3253598,1.3802,-1.0387237,-1.4711299,1.3770009,0.720569,-0.7059928,0.9590371,0.47988105,-0.16128062,1.4334755,-0.50263214,1.3972021,-3.355665,0.28448546,0.9673928,0.18806076,-0.4389,0.9753468,0.8096951,-0.09127836,0.087389074,0.57308394,-0.25514778,0.70971704,0.41985485,1.0,0.0,0.0,0.0,0.0,0.0,0.0,-2.0834756,0.102632135,-0.8472021,-0.3725052,-0.15506744,-1.8260121,-2.7341604,0.03825426,0.087201595,1.3971001
9.5784645,33.922264,9.438043,7.9405327,-0.062419415,-1.0300305,0.15272,-0.82036656,0.76553,0.3920761,-0.4318376,0.6662735,0.6493198,-0.080000065,1.1409273,-0.5070411,-1.7236315,-1.0642284,2.391987,1.445132,-1.0467237,1.2082545,-0.5698526,-1.7557514,-1.0283612,2.3349423,1.3849894,-1.0402076,-1.4708738,1.3736959,0.70441276,-0.74065715,0.95869553,0.47924286,-0.14429729,1.3999443,-0.4997902,1.4061323,-3.35231,0.28420103,0.86823964,0.18571854,-0.4318447,0.97934884,0.81004393,-0.09560819,0.08844621,0.5717211,-0.2186546,0.70513576,0.38760945,1.0,0.0,0.0,0.0,0.0,0.0,0.0,-2.0499444,0.099790186,-0.8561323,-0.00042915344,-0.2010107,-1.7128944,-3.5966992,0.17439127,0.12827516,1.6815454
8.195966,33.40093,9.271116,9.346146,0.051163554,-0.982873,0.13067363,-0.8255454,0.7653139,0.38362607,-0.42578107,0.65361583,0.65530634,-0.004263823,1.1256999,-0.49332118,-1.7173887,-1.0709393,2.4003038,1.45052,-1.040634,1.1935316,-0.5561378,-1.7488163,-1.0359353,2.3444867,1.3897768,-1.0414798,-1.4726814,1.3712126,0.6895193,-0.76341254,0.9538202,0.4791547,-0.12174653,1.3664436,-0.49695015,1.4140718,-3.3489583,0.2839169,0.76918554,0.18370438,-0.4248333,0.9830579,0.8103008,-0.09966017,0.08968249,0.5704712,-0.18676817,0.7000158,0.35928783,1.0,0.0,0.0,0.0,0.0,0.0,0.0,-2.0164437,0.09695014,-0.8640718,-0.22308826,-0.116467476,-1.5800476,-2.414751,-0.26919842,0.16141534,2.2349372
8.597242,33.514935,9.63078,9.545356,0.06903046,-0.97829807,0.17675728,-0.8225691,0.7636037,0.3861365,-0.44132346,0.65496,0.65594643,0.09413376,1.1112747,-0.47977743,-1.7102026,-1.0800676,2.4099827,1.4553715,-1.0320665,1.1788069,-0.54244685,-1.7419765,-1.043723,2.3539891,1.3945643,-1.0424697,-1.472315,1.3688228,0.681846,-0.7844771,0.9498027,0.47920954,-0.09166437,1.3329811,-0.494112,1.4210215,-3.34561,0.28363302,0.6702305,0.18201065,-0.41786766,0.98649794,0.8104429,-0.10346047,0.091083735,0.5693698,-0.1546777,0.6960122,0.33282173,1.0,0.0,0.0,0.0,0.0,0.0,0.0,-1.9829811,0.09411201,-0.87102145,-0.001168251,-0.10421276,-0.8673072,-2.240169,-0.1733303,0.17209649,2.9889956
5.5528936,30.522541,8.257677,11.512181,0.30681217,-0.9667759,0.08509439,-0.83043134,0.75893927,0.3618892,-0.42818448,0.64645976,0.648907,0.11798047,1.0957638,-0.4665529,-1.7057875,-1.0865414,2.4186351,1.459455,-1.0306717,1.1640536,-0.528795,-1.7352855,-1.0515946,2.3634305,1.399346,-1.043164,-1.4767194,1.3644207,0.6646802,-0.7885859,0.9433694,0.47825173,-0.062284224,1.2995491,-0.4912777,1.4269823,-3.342265,0.28334945,0.5713744,0.18057632,-0.4109726,0.9896941,0.8105137,-0.10703249,0.09264494,0.56835586,-0.13117483,0.6864304,0.30917665,1.0,0.0,0.0,0.0,0.0,0.0,0.0,-1.9495491,0.09127769,-0.8769823,-0.5108595,-0.30846596,-1.784575,-0.57154894,-0.42375326,0.036519766,2.9091597
6.0025835,29.133842,7.8043885,10.636754,0.23669302,-1.0670321,0.10481119,-0.82926834,0.7581698,0.35080642,-0.45768034,0.6406446,0.6480213,0.16149296,1.0811267,-0.45297801,-1.7002048,-1.0973626,2.427495,1.4641482,-1.0270147,1.1492621,-0.5151851,-1.7287929,-1.0595902,2.3727994,1.4041182,-1.0435627,-1.4802188,1.3603454,0.6439809,-0.8035679,0.93562144,0.47720668,-0.032485392,1.2661514,-0.4884472,1.4319553,-3.3389232,0.28306615,0.47261718,0.17940521,-0.40419197,0.9926269,0.8105273,-0.110344104,0.0943811,0.56741685,-0.10412646,0.6750538,0.2820619,1.0,0.0,0.0,0.0,0.0,0.0,0.0,-1.9161514,0.08844718,-0.8819553,-0.40929317,-0.27828217,-2.132666,-1.650393,-0.57213306,0.027227402,2.9545143
6.1927557,27.579906,7.308464,9.852279,0.20269263,-1.1549239,0.11857393,-0.83357364,0.75501424,0.34337327,-0.48212647,0.6407524,0.6445856,0.17581518,1.0659047,-0.43968368,-1.6944556,-1.1078029,2.4368746,1.4685768,-1.0259812,1.1344229,-0.501621,-1.7225006,-1.0678262,2.3821034,1.408877,-1.0436828,-1.4853319,1.3556334,0.6239336,-0.83080715,0.92945534,0.47586903,-0.0053718635,1.2327881,-0.4856186,1.4359415,-3.3355849,0.28278315,0.37395874,0.17852783,-0.39753532,0.995263,0.81048083,-0.11334532,0.09629608,0.56656915,-0.07468757,0.6613836,0.251492,1.0,0.0,0.0,0.0,0.0,0.0,0.0,-1.8827881,0.085618585,-0.88594145,-0.5633116,-0.3451109,-2.0586252,-2.8677702,-0.43159723,-0.005823374,2.6899343
7.2983794,26.358582,7.0679984,8.485735,0.11331409,-1.270911,0.17122106,-0.82803595,0.75079507,0.33157846,-0.5113443,0.6389626,0.64952606,0.23553501,1.0516193,-0.4265415,-1.6893427,-1.1189606,2.4459996,1.4738296,-1.0201293,1.1195704,-0.48811212,-1.7164161,-1.0764378,2.391358,1.4136282,-1.0435188,-1.4853224,1.349745,0.60329,-0.8718019,0.9244666,0.47522706,0.023606656,1.1994553,-0.4827919,1.4389418,-3.3322499,0.28250042,0.2753989,0.1779747,-0.39102745,0.9975601,0.81035304,-0.115978986,0.09838949,0.5658588,-0.040189177,0.6458331,0.21654221,1.0,0.0,0.0,0.0,0.0,0.0,0.0,-1.8494552,0.082791895,-0.8889418,-0.01859665,-0.4633665,-2.135229,-4.226804,-0.32799244,0.069493055,2.8815572
5.5586114,22.215748,5.274751,8.690344,0.260347,-1.3784428,0.12776223,-0.8270854,0.74171746,0.29470667,-0.52132267,0.6380389,0.64902663,0.28170636,1.0368619,-0.41394037,-1.6869454,-1.1285701,2.4551618,1.4785309,-1.0153482,1.104735,-0.47469297,-1.7106559,-1.0854443,2.4005704,1.4183718,-1.043061,-1.4829684,1.3397269,0.56671107,-0.9107414,0.9206608,0.47452587,0.053209182,1.1661606,-0.47996902,1.4409573,-3.3289182,0.28221798,0.17693762,0.17774963,-0.3847332,0.9994875,0.81016785,-0.11819812,0.10065446,0.56526625,-0.009165763,0.62197363,0.17894253,1.0,0.0,0.0,0.0,0.0,0.0,0.0,-1.8161606,0.07996902,-0.8909573,0.22368431,-0.88202953,-3.7189126,-4.033458,-0.236547,0.042694807,2.9370883
2.1591935,19.568632,4.0305047,11.986017,0.6094378,-1.2790167,0.008439652,-0.8232552,0.7352396,0.26064712,-0.48519766,0.62171686,0.6476078,0.33807924,1.0224094,-0.401169,-1.6845912,-1.1339641,2.462742,1.4831326,-1.0092531,1.0899416,-0.4613897,-1.705365,-1.0945748,2.4097066,1.4231077,-1.0422943,-1.4781468,1.3275726,0.516376,-0.9143539,0.91178644,0.47337833,0.08425173,1.1328964,-0.47714996,1.441989,-3.32559,0.2819358,0.07857478,0.17773819,-0.3787079,1.0011024,0.80999637,-0.12006873,0.10307679,0.5646808,0.008927893,0.59385324,0.14990401,1.0,0.0,0.0,0.0,0.0,0.0,0.0,-1.7828964,0.07714996,-0.89198893,0.43094158,-1.0974646,-5.069375,-0.54119825,-0.7367015,-0.044441223,3.0613244
-1.5089417,12.527294,0.27256387,11.979376,0.8050381,-1.4983876,-0.12653065,-0.8279631,0.729966,0.16969208,-0.51540786,0.6248942,0.6421726,0.35105532,1.0071453,-0.3883931,-1.6883957,-1.1461155,2.472196,1.487325,-1.0071887,1.0751692,-0.4482099,-1.7009151,-1.1037797,2.4187703,1.4278265,-1.0412395,-1.4769158,1.3150798,0.42113116,-0.9232529,0.90462,0.47137716,0.11236069,1.0996628,-0.4743328,1.4420376,-3.322265,0.28165394,-0.019689731,0.17786789,-0.3730774,1.0023726,0.80995595,-0.121516995,0.105691895,0.56394506,0.021672888,0.5501682,0.113708705,1.0,0.0,0.0,0.0,0.0,0.0,0.0,-1.7496628,0.0743328,-0.8920376,0.066924095,-1.149416,-9.501881,-1.092279,-0.6403923,-0.17254949,2.7566566
-4.8446083,3.2338707,-4.601015,10.033505,0.9001728,-1.8813894,-0.25061235,-0.82614875,0.71818525,0.052582737,-0.56132686,0.6148151,0.6360536,0.3443315,0.9925543,-0.37639138,-1.6956568,-1.1599123,2.4802518,1.4914318,-1.0068064,1.0604101,-0.4351813,-1.6978443,-1.1132573,2.4277387,1.4325186,-1.0399406,-1.4754848,1.2990357,0.2694162,-0.9565405,0.8944818,0.46849722,0.13536477,1.0664673,-0.47151756,1.4411044,-3.3189433,0.28137234,-0.117855996,0.17812347,-0.36803818,1.0031649,0.81018054,-0.12233397,0.108582556,0.56289583,0.033611238,0.4852861,0.06247859,1.0,0.0,0.0,0.0,0.0,0.0,0.0,-1.7164673,0.07151756,-0.8911044,0.14016628,-1.528573,-15.119648,-3.5339952,-1.0461569,-0.29930472,2.2346406
-10.612335,-8.132083,-10.970306,9.248941,1.1857303,-2.266233,-0.48063445,-0.8302577,0.7099971,-0.11882302,-0.5899565,0.6120186,0.6283918,0.30011287,0.9773844,-0.36418158,-1.7097266,-1.1722529,2.4889405,1.4953578,-1.0099293,1.0456454,-0.422321,-1.6968696,-1.1231812,2.4366117,1.4371744,-1.0384777,-1.4767934,1.2818604,0.040492624,-1.0052437,0.88389504,0.4643273,0.14969136,1.0333023,-0.46870613,1.4391903,-3.315625,0.281091,-0.21592411,0.17844391,-0.36384964,1.003339,0.81086695,-0.122284554,0.11183319,0.5612795,0.037130922,0.39354017,-0.002549986,1.0,0.0,0.0,0.0,0.0,0.0,0.0,-1.6833023,0.068706125,-0.88919026,-0.077819824,-1.6747236,-22.793758,-5.08821,-1.2283564,-0.50700307,1.3423443
-10.583689,-9.86144,-11.774159,7.978608,1.1394516,-2.348231,-0.4749533,-0.8238784,0.70021814,-0.2021211,-0.64015293,0.5903919,0.6435865,0.2745385,0.9632575,-0.35229918,-1.7170817,-1.1871965,2.4956508,1.501533,-1.0110238,1.0308977,-0.40963855,-1.6982143,-1.1337556,2.4453282,1.4417998,-1.0369155,-1.4736743,1.2637736,-0.19273098,-1.0753813,0.8669693,0.46173492,0.15803039,1.0001678,-0.4658985,1.4362961,-3.31231,0.28080997,-0.31389418,0.17882156,-0.36059952,1.0028183,0.8120715,-0.12125358,0.11547778,0.5590189,0.041760124,0.29847157,-0.07303222,1.0,0.0,0.0,0.0,0.0,0.0,0.0,-1.6501678,0.06589851,-0.8862961,0.45540333,-1.7740726,-23.276194,-7.19254,-1.9001722,-0.38393736,0.7376313
-10.014793,-5.656157,-9.269475,10.540499,1.228592,-1.9990785,-0.4269686,-0.83055085,0.69065994,-0.24478878,-0.64306784,0.5560674,0.64978206,0.2856988,0.94784266,-0.34057257,-1.7226932,-1.1980623,2.500935,1.506778,-1.0083456,1.0161501,-0.3971378,-1.7015407,-1.1449288,2.453793,1.4464079,-1.035279,-1.474876,1.2455785,-0.37915975,-1.1316454,0.83950007,0.4599477,0.16507386,0.96707153,-0.4630928,1.432423,-3.3089983,0.28052923,-0.4117663,0.17919922,-0.35819244,1.0016786,0.8137363,-0.11936123,0.119465396,0.55616003,0.039594047,0.21722165,-0.1314589,1.0,0.0,0.0,0.0,0.0,0.0,0.0,-1.6170715,0.0630928,-0.882423,-0.012207031,-1.7866373,-18.588966,-5.797982,-2.9050589,-0.33901334,0.59185326
-8.720488,-2.4974644,-7.0941095,11.818441,1.2931411,-1.7590344,-0.35025334,-0.8264166,0.6759812,-0.3092109,-0.67308855,0.5469187,0.6428059,0.25950783,0.93350846,-0.32953966,-1.7324618,-1.2122377,2.5084848,1.5106885,-1.0093282,1.0014025,-0.3848416,-1.7064254,-1.1566323,2.4619946,1.4509951,-1.0336025,-1.4742161,1.2244326,-0.524796,-1.1837622,0.8132052,0.45776996,0.16813299,0.93400574,-0.460289,1.4275719,-3.30569,0.28024876,-0.50954056,0.17955017,-0.3565197,1.0000095,0.8157783,-0.11673837,0.12368862,0.5527921,0.03421725,0.14633292,-0.18229751,1.0,0.0,0.0,0.0,0.0,0.0,0.0,-1.5840057,0.060288996,-0.8775719,0.1614809,-2.0812273,-14.5232315,-5.3686857,-2.7440548,-0.39296746,0.19141734
-8.987233,-0.4481032,-5.831421,14.086101,1.4379809,-1.4981338,-0.34839702,-0.8327987,0.6653949,-0.37583375,-0.6853333,0.52223504,0.6431787,0.22687292,0.91812265,-0.3183021,-1.7440088,-1.2251656,2.514218,1.5153129,-1.0109152,0.9866301,-0.372759,-1.7125576,-1.1687573,2.469914,1.4555613,-1.0319278,-1.4781424,1.2029275,-0.642214,-1.2226411,0.78435063,0.455563,0.16677342,0.90097046,-0.457489,1.4217438,-3.302385,0.27996856,-0.60721713,0.17979813,-0.35549355,0.99789584,0.81815004,-0.113507725,0.12806904,0.5489488,0.02163785,0.08396577,-0.22420916,1.0,0.0,0.0,0.0,0.0,0.0,0.0,-1.5509704,0.057489008,-0.87174374,-0.35717487,-2.126789,-11.65278,-4.052186,-2.9750705,-0.42909384,-0.26551187
-8.315408,1.9285009,-4.4263153,15.402446,1.5122521,-1.3140922,-0.3321954,-0.8293891,0.6562882,-0.43014342,-0.70477295,0.5181028,0.63189024,0.15701024,0.9036912,-0.3071302,-1.7555718,-1.2392346,2.5217242,1.5187503,-1.0162268,0.9718329,-0.360881,-1.7197082,-1.1812218,2.4775853,1.4600989,-1.0303237,-1.480289,1.18285,-0.73879534,-1.2551113,0.7614636,0.45234814,0.15789713,0.8679733,-0.45469093,1.4149398,-3.2990835,0.27968866,-0.7047961,0.17990494,-0.35503197,0.9954088,0.8208186,-0.109764434,0.13252844,0.5446509,0.005810632,0.029056173,-0.25973508,1.0,0.0,0.0,0.0,0.0,0.0,0.0,-1.5179733,0.054690927,-0.86493975,-0.21460056,-1.9876242,-9.54597,-3.41146,-2.3545742,-0.5493283,-1.0179818
-8.184858,3.980926,-3.3574975,17.104599,1.5852644,-1.1174304,-0.3450552,-0.832221,0.6484096,-0.4747399,-0.7114988,0.49582744,0.623889,0.09226173,0.8886108,-0.29604003,-1.7671822,-1.2523717,2.527168,1.5224878,-1.0210975,0.9570042,-0.34918514,-1.7277019,-1.1939343,2.485024,1.4645983,-1.0288551,-1.4839276,1.1652403,-0.819043,-1.2771258,0.73774064,0.44839588,0.14251629,0.8350067,-0.45189667,1.4071606,-3.295785,0.27940902,-0.8022774,0.17984009,-0.35506058,0.9926164,0.82376266,-0.105596766,0.13701642,0.53989893,-0.014061734,-0.018379096,-0.28833342,1.0,0.0,0.0,0.0,0.0,0.0,0.0,-1.4850067,0.05189666,-0.8571606,-0.42300224,-1.7490149,-7.8583717,-2.375412,-2.4220467,-0.64808726,-1.6779125
-7.961828,5.962327,-2.5206473,18.360353,1.6172047,-0.96759987,-0.35654607,-0.83400327,0.64604646,-0.52154475,-0.72023326,0.48151872,0.61875206,0.049521368,0.8736039,-0.2845805,-1.7798563,-1.2659576,2.533176,1.5264735,-1.0239029,0.9421345,-0.3376228,-1.7364471,-1.2068185,2.4922376,1.4690558,-1.0275657,-1.4883267,1.1532364,-0.89233017,-1.2928118,0.7152962,0.4440828,0.12380974,0.8020706,-0.4491043,1.3984073,-3.2924898,0.27912965,-0.8996613,0.17955399,-0.35552597,0.98957396,0.826971,-0.10107488,0.14151591,0.5346738,-0.036316402,-0.059598956,-0.31193116,1.0,0.0,0.0,0.0,0.0,0.0,0.0,-1.4520706,0.049104303,-0.8484073,-0.55065155,-1.1958599,-7.1062922,-1.7521381,-2.289176,-0.7105887,-2.018568
-7.7045865,7.54696,-1.7775707,19.497686,1.6478589,-0.8199869,-0.36979124,-0.83655804,0.6408248,-0.55416656,-0.72472644,0.46398062,0.617662,-0.028283456,0.85847867,-0.27354032,-1.7918638,-1.2792912,2.5386357,1.5308219,-1.0303941,0.92721426,-0.32615724,-1.7458541,-1.2198151,2.4992223,1.4734732,-1.026509,-1.4937552,1.1442683,-0.95593375,-1.3027047,0.69242066,0.43999764,0.09918555,0.76917267,-0.44631577,1.388681,-3.289198,0.2788506,-0.9969478,0.179039,-0.35635948,0.98632765,0.83043146,-0.09626224,0.14601402,0.5289583,-0.060721684,-0.09490299,-0.33101517,1.0,0.0,0.0,0.0,0.0,0.0,0.0,-1.4191726,0.04631576,-0.83868104,-0.7071018,-0.899601,-6.081748,-1.1805534,-2.32625,-0.7089734,-2.6179194
-5.995595,10.569721,0.030059576,20.158035,1.5047379,-0.64909065,-0.30124485,-0.8331675,0.6348513,-0.5633205,-0.727441,0.40770465,0.6237872,-0.013127657,0.8438975,-0.26267213,-1.8021863,-1.2925593,2.5399928,1.535852,-1.0278218,0.91226447,-0.3147742,-1.7557418,-1.2328805,2.505856,1.4778601,-1.0256679,-1.4961581,1.1362778,-0.998627,-1.308308,0.65365577,0.43725148,0.07858391,0.73630524,-0.44352913,1.3779826,-3.2859094,0.27857178,-1.094137,0.1783104,-0.35746956,0.9829175,0.8340806,-0.091234274,0.15054429,0.5228024,-0.08151789,-0.11997012,-0.34611413,1.0,0.0,0.0,0.0,0.0,0.0,0.0,-1.3863052,0.043529123,-0.8279826,-0.4575491,-0.79779625,-3.95813,-0.7538557,-3.8840532,-0.5624831,-2.220504
-4.9340568,11.94536,1.09324,20.572018,1.5345652,-0.5329855,-0.23644346,-0.8349427,0.62701195,-0.57057375,-0.73418534,0.41485107,0.62243944,-0.033555306,0.8287702,-0.252073,-1.8127992,-1.306299,2.547341,1.540104,-1.0290234,0.89729273,-0.30348268,-1.7659137,-1.246003,2.5121694,1.4822222,-1.0250213,-1.4983604,1.1267744,-1.0223172,-1.3141632,0.62432486,0.43494573,0.059320997,0.7034683,-0.4407444,1.366313,-3.2826242,0.27829325,-1.1912291,0.17738342,-0.35879326,0.9793767,0.837854,-0.08604316,0.15506093,0.5162878,-0.102203734,-0.13994499,-0.3583649,1.0,0.0,0.0,0.0,0.0,0.0,0.0,-1.3534683,0.040744394,-0.81631297,-0.4834175,-0.949049,-2.0209074,-0.77660084,-2.924955,-0.51801205,-2.0779378
-5.3098383,10.215311,0.4989879,20.5467,1.6059177,-0.514188,-0.21612209,-0.83448535,0.61119986,-0.5911141,-0.7406548,0.38531852,0.6181985,-0.060544718,0.8138442,-0.2423627,-1.8250251,-1.3200685,2.5507011,1.5440421,-1.0310758,0.88230956,-0.292339,-1.7762935,-1.2591943,2.5181775,1.4865614,-1.0245655,-1.4992203,1.1102117,-1.0419984,-1.3215427,0.5929676,0.43259767,0.040373087,0.67066956,-0.4379635,1.3536732,-3.2793424,0.27801502,-1.2882241,0.17623138,-0.36033058,0.9757059,0.8417239,-0.080696836,0.15951979,0.50945276,-0.125056,-0.16094369,-0.371467,1.0,0.0,0.0,0.0,0.0,0.0,0.0,-1.3206695,0.03796348,-0.8036732,-0.34704208,-1.6613245,-1.6176462,-0.9174824,-3.1321168,-0.52767396,-2.0497925
-4.4656305,10.285776,0.9756701,20.285069,1.5314645,-0.46651205,-0.13796276,-0.82925016,0.5975708,-0.589219,-0.74829227,0.33559617,0.61661744,-0.012106337,0.79938453,-0.23258191,-1.8352154,-1.3340235,2.551737,1.5482231,-1.0257761,0.86734736,-0.28140083,-1.7867858,-1.2724808,2.523789,1.4908797,-1.0242431,-1.4960544,1.0883574,-1.050644,-1.3315566,0.5508105,0.43060595,0.029031059,0.6379013,-0.4351864,1.3400642,-3.2760637,0.27773705,-1.3851221,0.17487717,-0.362051,0.9718975,0.8456356,-0.0751976,0.16392827,0.50236756,-0.14547017,-0.17881426,-0.38525695,1.0,0.0,0.0,0.0,0.0,0.0,0.0,-1.2879013,0.03518638,-0.79006416,0.054073334,-2.1881819,-0.523448,-1.1673212,-4.200852,-0.4762113,-1.2882087
-4.6438975,8.060665,0.3738618,19.692434,1.6054628,-0.4795844,-0.07502114,-0.82713807,0.5725939,-0.5877942,-0.762843,0.32077318,0.61237204,0.0024112854,0.7846336,-0.22414143,-1.8455653,-1.3487651,2.5558662,1.5521169,-1.024002,0.85243094,-0.27075973,-1.7973049,-1.2859162,2.5289998,1.4951769,-1.0240028,-1.4909049,1.0560333,-1.0514104,-1.3480381,0.51124585,0.4285672,0.021898372,0.6051636,-0.4324112,1.3254869,-3.2727883,0.27745935,-1.4819232,0.1733017,-0.36397552,0.96792966,0.84954304,-0.06952521,0.16823812,0.49511477,-0.16763765,-0.19890474,-0.40171412,1.0,0.0,0.0,0.0,0.0,0.0,0.0,-1.2551636,0.032411188,-0.7754869,0.2785921,-3.238511,0.23601055,-1.7918348,-3.9444447,-0.47609806,-0.86042136
-5.7144375,6.3432803,-0.64800334,19.96526,1.6925086,-0.46217126,-0.088962376,-0.83128613,0.5569672,-0.6009184,-0.7674264,0.28478137,0.60395306,0.0032301475,0.7693023,-0.215063,-1.8573967,-1.3626589,2.557478,1.5555723,-1.0236797,0.83754027,-0.26046148,-1.807864,-1.2995137,2.533791,1.4994494,-1.0238178,-1.4892119,1.0210105,-1.0561546,-1.3639737,0.4681792,0.42577893,0.016631983,0.5724602,-0.4296379,1.3099424,-3.2695162,0.27718195,-1.5786276,0.17147827,-0.36611366,0.963793,0.85344297,-0.06366051,0.17243706,0.48769635,-0.19365142,-0.22024529,-0.4185713,1.0,0.0,0.0,0.0,0.0,0.0,0.0,-1.2224602,0.029637903,-0.75994235,-0.08015633,-3.5209417,-0.13263226,-1.7300844,-4.316139,-0.5721748,-0.6834656
-9.028361,-1.640985,-4.3147717,19.263758,1.8846214,-0.5795632,-0.09497109,-0.82627475,0.4994522,-0.61991423,-0.77644795,0.17836009,0.602929,0.05754884,0.7549128,-0.21051626,-1.8698554,-1.3771585,2.5516272,1.5597422,-1.018063,0.82268393,-0.25070634,-1.8185565,-1.3132695,2.5379148,1.5036951,-1.0236404,-1.4849492,0.96021605,-1.0727592,-1.3799566,0.393481,0.42314592,0.017650276,0.5397911,-0.42686844,1.2934315,-3.2662473,0.27690482,-1.6752353,0.16933823,-0.36854553,0.95943886,0.8573401,-0.057551026,0.17655456,0.4800877,-0.22905697,-0.25219846,-0.44196737,1.0,0.0,0.0,0.0,0.0,0.0,0.0,-1.1897911,0.026868433,-0.7434315,0.28054714,-6.1204433,-1.4103651,-1.6965151,-7.507336,-0.5613148,-0.08587502
-10.11657,-5.1016603,-5.7028484,18.57506,1.6697932,-0.5928196,-0.06020689,-0.825658,0.45273238,-0.6160935,-0.7866177,-0.023132902,0.60135114,0.13363858,0.74011815,-0.2054331,-1.8801659,-1.3919313,2.5356014,1.5638303,-1.0102766,0.8078686,-0.24168864,-1.8293903,-1.3271893,2.5407758,1.507918,-1.0233905,-1.4806052,0.882121,-1.0862571,-1.3962468,0.24986896,0.4210095,0.026654113,0.50715256,-0.42410088,1.2759553,-3.2629817,0.27662796,-1.7717464,0.16683578,-0.37129784,0.9548034,0.8611895,-0.051149298,0.18078604,0.47228467,-0.2626435,-0.28396812,-0.47139895,1.0,0.0,0.0,0.0,0.0,0.0,0.0,-1.1571525,0.02410087,-0.7259553,0.34804344,-7.860625,-1.1674166,-1.689887,-14.405769,-0.48229098,0.67153573
-15.36652,-16.488035,-11.149584,17.658388,1.7933325,-0.7472266,-0.113530226,-0.8302983,0.35922408,-0.6435635,-0.78956497,-0.2723961,0.61366874,0.14168511,0.7248388,-0.20576623,-1.8937466,-1.4061458,2.5135362,1.5692849,-1.009222,0.79307425,-0.23374954,-1.8404605,-1.3412408,2.5415921,1.5121294,-1.0230472,-1.478762,0.76422685,-1.1137445,-1.4081585,0.024912123,0.42054534,0.03584694,0.47454453,-0.42133713,1.2575147,-3.2597194,0.2763514,-1.868161,0.16393661,-0.3744774,0.949795,0.8649789,-0.044380296,0.18535127,0.46420544,-0.30833364,-0.3286914,-0.5113012,1.0,0.0,0.0,0.0,0.0,0.0,0.0,-1.1245445,0.021337122,-0.7075147,0.25765896,-11.877262,-2.7151108,-1.1841297,-22.575283,-0.3098905,0.61749816
-18.37575,-23.83059,-14.19442,17.361126,1.9350045,-0.77524424,-0.08362064,-0.82672644,0.2629986,-0.6439217,-0.78530204,-0.4834819,0.63422424,0.16834773,0.7104016,-0.20744967,-1.9048527,-1.419771,2.493244,1.5755519,-1.0062125,0.7783104,-0.2272481,-1.8517768,-1.3553456,2.5397916,1.5163561,-1.0226028,-1.474961,0.6117419,-1.1378143,-1.4109734,-0.24909063,0.42264548,0.046323504,0.44197464,-0.4185753,1.2381107,-3.2564604,0.2760751,-1.9644792,0.16049194,-0.37814903,0.944351,0.8686739,-0.03720781,0.19035156,0.45583707,-0.36340284,-0.37891817,-0.5560076,1.0,0.0,0.0,0.0,0.0,0.0,0.0,-1.0919746,0.01857528,-0.68811065,0.56893826,-15.362549,-2.5023699,-0.20525455,-27.479595,-0.036501884,0.7078953
-28.381702,-47.346226,-24.342573,15.867315,3.2016847,-1.111173,-0.0089578,-0.8321378,0.058409207,-0.65216476,-0.7820278,-0.57238674,0.64745307,0.2722638,0.6950966,-0.22140718,-1.9169933,-1.4335483,2.482553,1.5811014,-0.9953764,0.7635704,-0.22295085,-1.8633277,-1.3694218,2.5354123,1.5206133,-1.0219829,-1.4719621,0.36846521,-1.1621772,-1.4055766,-0.50137806,0.42577946,0.065883264,0.40943527,-0.41581726,1.2177441,-3.2532046,0.27579907,-2.060701,0.15616608,-0.3825779,0.93838304,0.872284,-0.02954061,0.19539951,0.44728836,-0.46361586,-0.46264613,-0.6108241,1.0,0.0,0.0,0.0,0.0,0.0,0.0,-1.0594352,0.015817255,-0.6677441,0.8194685,-24.509531,-2.872634,0.77192783,-25.30908,0.02002716,1.6153827
-36.05409,-68.94007,-32.47645,13.337293,4.4908953,-1.4172239,0.1890009,-0.8225655,-0.17714626,-0.6247161,-0.787914,-0.5904427,0.65867347,0.33663505,0.6813139,-0.24066547,-1.9257994,-1.4482132,2.476368,1.5864806,-0.9883194,0.7489153,-0.22181574,-1.8749492,-1.3834466,2.5290036,1.5249048,-1.0211265,-1.4604595,0.027760688,-1.1649631,-1.3999553,-0.6871051,0.42917266,0.09138413,0.37692642,-0.41306114,1.1964161,-3.249952,0.27552333,-2.1568263,0.15052414,-0.38807297,0.93179065,0.8758256,-0.021292683,0.19975992,0.4388305,-0.6071105,-0.5748546,-0.6759684,1.0,0.0,0.0,0.0,0.0,0.0,0.0,-1.0269264,0.013061136,-0.6464161,2.0275831,-34.305344,-1.1318207,0.99773407,-18.60323,-0.021535158,2.3008199
-45.68647,-95.37999,-42.808414,9.215011,6.0003204,-1.8724058,0.393005,-0.81014985,-0.4828525,-0.61168647,-0.80342746,-0.54680365,0.6500972,0.39039722,0.6679003,-0.27010098,-1.9361179,-1.4637893,2.4743233,1.5899146,-0.9820868,0.7344471,-0.22494546,-1.8865001,-1.3974808,2.5214162,1.5292135,-1.0199859,-1.4379168,-0.42755985,-1.1562438,-1.4021391,-0.782775,0.42960873,0.121355034,0.3444481,-0.41030693,1.1741276,-3.2467027,0.27524787,-2.2528558,0.14302826,-0.39497185,0.9244177,0.8793553,-0.012344775,0.20248209,0.43079308,-0.80396533,-0.7223572,-0.75879407,1.0,0.0,0.0,0.0,0.0,0.0,0.0,-0.99444807,0.010306925,-0.62412757,3.5414696,-45.837574,-0.46269894,0.5060196,-9.555351,-0.48754215,2.9038012
-25.473946,-64.64226,-22.811604,9.500403,4.8148227,-0.9001231,0.9966129,-0.78113043,-0.60203004,-0.3566809,-0.8066347,-0.4536853,0.65397286,0.43993646,0.6563341,-0.28514847,-1.9221683,-1.4781443,2.4760478,1.5946108,-0.97599226,0.7202984,-0.23235121,-1.8967407,-1.4115685,2.5135808,1.5335356,-1.0185153,-1.4041554,-0.8455909,-0.98393506,-1.4086682,-0.7832364,0.43164438,0.15630516,0.3120079,-0.40755653,1.1508795,-3.2434566,0.27497268,-2.3487892,0.1340332,-0.40288925,0.91635966,0.88264704,-0.0030047453,0.20305611,0.42390248,-0.9413185,-0.80614316,-0.82354456,1.0,0.0,0.0,0.0,0.0,0.0,0.0,-0.9620079,0.007556528,-0.6008795,4.266596,-42.000053,16.075266,0.016784668,0.08633137,-0.16217828,3.7377687
-13.758003,-36.93207,-9.980493,12.159313,4.071978,-0.164693,1.0274588,-0.7771599,-0.6934743,-0.3134911,-0.80083257,-0.28169796,0.61477816,0.3914991,0.6425824,-0.30169865,-1.9280897,-1.4916518,2.485411,1.5950134,-0.97936547,0.7064501,-0.24324384,-1.9050701,-1.4256982,2.5065045,1.5378538,-1.0167549,-1.375953,-1.1709458,-0.78605485,-1.4124327,-0.68225884,0.43089074,0.18401301,0.27959824,-0.40480995,1.1266727,-3.2402139,0.27469778,-2.4446266,0.12392044,-0.41132927,0.9078137,0.885624,0.0063934266,0.2013506,0.418434,-1.0407737,-0.84540546,-0.8682004,1.0,0.0,0.0,0.0,0.0,0.0,0.0,-0.9295982,0.004809946,-0.57667273,3.5590649,-32.67846,18.743288,0.17271042,10.204101,-0.3060162,3.180778
-10.634519,-17.452778,-5.1161957,15.264472,4.0291452,0.20831501,0.6859461,-0.7594843,-0.7530467,-0.38755336,-0.8049527,0.037499953,0.5659342,0.3074221,0.6305017,-0.3185485,-1.9438254,-1.5061934,2.5102546,1.5944473,-0.98601264,0.6928841,-0.25654617,-1.9121101,-1.4398736,2.5014386,1.5421301,-1.0148132,-1.347474,-1.3837364,-0.679987,-1.4174683,-0.4476012,0.42593333,0.19923665,0.24721909,-0.40206528,1.1015084,-3.2369742,0.27442312,-2.5403683,0.11286163,-0.42002678,0.8989439,0.8884617,0.01571374,0.19729115,0.41408345,-1.1333188,-0.86443126,-0.89753526,1.0,0.0,0.0,0.0,0.0,0.0,0.0,-0.89721906,0.0020652711,-0.55150837,3.626871,-21.410275,9.6010685,-0.0118255615,23.488617,-0.6404102,1.9963533
-9.212947,0.9851289,-1.4656997,18.923758,3.6936958,0.614964,0.24879518,-0.76157737,-0.7707295,-0.42820722,-0.7969363,0.20462479,0.55407465,0.21291639,0.61672634,-0.33361912,-1.9549308,-1.5195673,2.5219011,1.5975375,-0.9935216,0.6795193,-0.27114263,-1.9187801,-1.4540509,2.499062,1.546353,-1.0128219,-1.330082,-1.4853894,-0.666008,-1.4164007,-0.16795228,0.42116383,0.20050514,0.21487045,-0.3993225,1.0753874,-3.233738,0.27414876,-2.6360142,0.10092926,-0.42876053,0.88988364,0.89135695,0.02489112,0.19110222,0.41029635,-1.2160513,-0.8620105,-0.914121,1.0,0.0,0.0,0.0,0.0,0.0,0.0,-0.8648704,-0.0006774962,-0.52538735,2.5915384,-10.28285,0.4164815,0.5600929,27.938822,-0.4901111,0.5621046
-9.249298,13.342361,0.16073704,21.0874,2.7742689,0.88759613,-0.18426691,-0.7546526,-0.7843246,-0.48941946,-0.7794686,0.074188165,0.57104397,0.05213875,0.60405403,-0.3495751,-1.967722,-1.5319978,2.506481,1.6034573,-1.007608,0.6662861,-0.28618732,-1.9259326,-1.4681252,2.4986653,1.550551,-1.0109661,-1.3182111,-1.5111524,-0.73464453,-1.4030477,0.0028582707,0.41953647,0.18158798,0.18255997,-0.39658356,1.0483105,-3.2305048,0.27387467,-2.7315645,0.08831787,-0.43735123,0.88066727,0.89440244,0.03393665,0.18355653,0.4064474,-1.2796917,-0.8418301,-0.9299707,1.0,0.0,0.0,0.0,0.0,0.0,0.0,-0.83255994,-0.0034164488,-0.4983105,2.0432234,-2.6896715,-7.76695,1.7645359,17.027386,-0.090396404,-1.6124278
-9.398791,20.586744,0.87889314,21.123777,1.4960581,1.0273058,-0.48410794,-0.75342005,-0.7899245,-0.5541785,-0.7718199,-0.22002968,0.585935,-0.10063905,0.5909441,-0.36517978,-1.9813505,-1.5453072,2.4766624,1.6091446,-1.02103,0.65312254,-0.30117622,-1.9341686,-1.4820317,2.498528,1.554751,-1.0094287,-1.3130069,-1.4951906,-0.8558436,-1.3850753,-0.019707188,0.42048228,0.14469339,0.15028,-0.3938465,1.0202789,-3.227275,0.27360085,-2.8270192,0.07525635,-0.44563103,0.87122536,0.897574,0.042968675,0.17574903,0.40202832,-1.3171589,-0.80744267,-0.9550516,1.0,0.0,0.0,0.0,0.0,0.0,0.0,-0.80028,-0.006153494,-0.47027892,1.3382435,1.4757633,-12.937713,2.2034407,-2.3436708,0.2003789,-3.6138387
-7.178859,27.724504,3.958613,21.355694,0.6361171,1.2916789,-0.5337353,-0.7701026,-0.7859932,-0.5513334,-0.7600625,-0.3548856,0.60842925,-0.21214369,0.5761123,-0.37977555,-1.9893019,-1.558038,2.4630394,1.6155939,-1.0306431,0.63989604,-0.315869,-1.9434726,-1.4957322,2.4973416,1.5589834,-1.0083339,-1.3233714,-1.4610324,-0.95777804,-1.3638937,-0.15165961,0.42465422,0.09750803,0.11803055,-0.39111137,0.9912935,-3.2240484,0.27332732,-2.9223785,0.061992645,-0.4534588,0.86154145,0.90078974,0.052027777,0.16843654,0.39686263,-1.331407,-0.75746,-0.9791903,1.0,0.0,0.0,0.0,0.0,0.0,0.0,-0.7680305,-0.008888632,-0.44129348,-0.2708435,3.3009052,-10.953724,2.4712563,-13.283907,0.5856812,-4.752256
-5.958385,31.951374,6.3237095,22.626955,0.5515133,1.5404341,-0.5146485,-0.78537554,-0.7803918,-0.55589455,-0.7314316,-0.3461388,0.6133612,-0.3454583,0.56135845,-0.3939082,-1.9990621,-1.5688753,2.4627278,1.6203196,-1.0428797,0.6264721,-0.33020845,-1.9535282,-1.5091313,2.4948087,1.5632616,-1.007777,-1.3463281,-1.4252824,-1.0239931,-1.3310672,-0.2872516,0.42971483,0.041423928,0.085811615,-0.38838005,0.96135515,-3.220825,0.27305403,-3.0176425,0.04862976,-0.46072006,0.8516933,0.90401286,0.06103818,0.16179742,0.3909687,-1.3394426,-0.69917727,-0.9929615,1.0,0.0,0.0,0.0,0.0,0.0,0.0,-0.7358116,-0.011619955,-0.41135514,-1.5898228,3.4647942,-7.318926,3.5987854,-13.6390505,0.71673393,-5.6507015
-1.8157358,37.418148,11.054661,23.472471,0.5660136,1.8140476,-0.31262735,-0.79211587,-0.7743685,-0.5126203,-0.7065587,-0.29705468,0.62398696,-0.36005455,0.5472605,-0.40764531,-2.0047903,-1.5797871,2.4651031,1.6256603,-1.0437825,0.6127974,-0.3442389,-1.9637592,-1.5221452,2.4912915,1.5675989,-1.0077426,-1.372616,-1.3958733,-1.0247301,-1.2906458,-0.3734577,0.43601066,-0.009273605,0.05363083,-0.38565254,0.93046486,-3.2176049,0.27278104,-3.112811,0.03527069,-0.46734238,0.84181255,0.9071904,0.06983025,0.15564266,0.38458374,-1.3373032,-0.63281024,-0.99223685,1.0,0.0,0.0,0.0,0.0,0.0,0.0,-0.7036308,-0.014347464,-0.38046485,-2.0540476,2.8568506,-0.66821575,4.284692,-8.666152,0.9032428,-5.052738
3.3333828,42.784245,16.252663,23.717064,0.3936143,2.0270395,-0.09129795,-0.7956733,-0.7685176,-0.4535997,-0.68095523,-0.31693608,0.6340502,-0.381679,0.53323007,-0.42109066,-2.009119,-1.5902407,2.4595978,1.631004,-1.0459106,0.59888804,-0.35803857,-1.9735191,-1.5347165,2.4871373,1.5720049,-1.0081737,-1.3956522,-1.374815,-0.9612432,-1.245596,-0.42948127,0.44337183,-0.054032724,0.02148056,-0.38292694,0.89862365,-3.214388,0.27250832,-3.2078848,0.022045135,-0.47325325,0.8320292,0.9102463,0.07822014,0.1497812,0.3780195,-1.3188157,-0.56029624,-0.97905785,1.0,0.0,0.0,0.0,0.0,0.0,0.0,-0.67148054,-0.017073065,-0.34862363,-1.8715143,2.057743,5.856347,4.6654224,-5.60683,1.0807157,-4.4055724
2.2689373,37.630547,14.053452,20.764093,0.29728913,1.7152554,-0.02975244,-0.7847317,-0.77921695,-0.5048957,-0.6903364,-0.43182036,0.6390542,-0.38381752,0.5204149,-0.43596026,-2.0240088,-1.6037501,2.4439552,1.6359103,-1.0465554,0.58486235,-0.3717591,-1.9828346,-1.5469826,2.4822812,1.5764776,-1.0089977,-1.4036686,-1.3713268,-0.92320603,-1.219573,-0.5041715,0.4494995,-0.091718785,-0.010639191,-0.38020325,0.8658324,-3.2111742,0.27223587,-3.3028634,0.008987427,-0.47852325,0.82226706,0.91314137,0.0862957,0.14417817,0.37140056,-1.3013817,-0.49964947,-0.9800542,0.0,1.0,0.0,0.0,0.0,0.0,0.0,-0.6393608,-0.019796759,-0.31583238,-0.4287243,0.293684,3.3581734,2.7952433,-7.5014057,0.8683264,-3.7025661
-2.5816464,29.349972,8.605816,18.320686,0.55563027,1.3262086,-0.09212236,-0.78118026,-0.790894,-0.5735579,-0.68993634,-0.48904172,0.63617134,-0.39234307,0.5067443,-0.4508485,-2.0401905,-1.6159763,2.433377,1.6400948,-1.048232,0.5713863,-0.3855881,-1.9933969,-1.5597676,2.4778464,1.5866549,-1.0097038,-1.3341818,-1.3869553,-1.0870756,-1.2877336,-0.44661787,1.1238741,-0.076454826,-0.026622772,-0.38101006,0.86828744,-1.338827,-0.117095284,0.97233075,-0.004432678,-0.48262787,0.8120985,0.91592705,0.09199939,0.13862303,0.3652359,-1.3479692,-0.3737209,-1.0299546,0.0,1.0,0.0,0.0,0.0,0.0,0.0,-0.6233772,-0.01898995,-0.31828743,0.85179806,-1.3660908,-3.126669,1.7671108,-7.657337,-0.08893013,-1.9611001
82.74254,176.0,110.0,110.0,-2.9679,11.267965,-0.49343744,-0.8132144,0.12032628,0.653025,0.7562677,-0.48524928,0.6439706,-0.45398423,0.49006483,-0.37355548,-1.9280944,-1.4841409,2.4293215,1.651052,-1.0551022,0.5616712,-0.39915127,-2.0007024,-1.5634621,2.4690154,1.6024497,-1.0121909,-0.8566705,-1.3444626,-0.6046419,-0.06725259,-1.026491,1.7431844,-0.30695218,-0.040000916,-0.38218117,0.877267,-1.3374884,-0.11697821,0.8731726,-0.015575409,-0.4842701,0.8058051,0.91845757,0.090288416,0.13697821,0.35988984,-1.0333252,-0.079654105,-0.49865237,1.0,0.0,0.0,0.0,0.0,0.0,0.0,-0.60999906,-0.017818838,-0.327267,45.949387,4.741502,50.351025,120.925224,-57.242893,65.479324,-23.346752
27.98351,146.61417,69.70291,105.72123,2.0488963,7.0148077,-0.89695495,-0.80038357,-0.50923824,0.24129406,0.77484846,-0.6446692,0.6710497,-0.30838025,0.48163283,-0.4500751,-1.976573,-1.4859773,2.4045484,1.6695546,-1.043029,0.5529365,-0.411354,-2.0028691,-1.5571431,2.4577239,1.6194384,-1.0154029,-0.8759538,-1.1789547,-0.0893284,0.86499053,-1.164642,1.6920911,-0.32554302,-0.0533638,-0.38334846,0.8852557,-1.3361512,-0.116861254,0.7741136,-0.025028229,-0.4839096,0.80431247,0.92102134,0.08252195,0.1385193,0.35457322,-0.9137888,0.083077416,-0.03685887,1.0,0.0,0.0,0.0,0.0,0.0,0.0,-0.5966362,-0.016651541,-0.33525568,-1.0013103,16.525888,51.013885,93.27307,-14.2629385,-2.6688576,-1.6818523
1.9875264,102.527695,39.120354,78.36078,2.8733675,4.225515,-0.76173216,-0.7677047,-0.5257866,0.14895527,0.7057281,-0.70818216,0.6436,0.17601384,0.476166,-0.46393266,-1.9879736,-1.4865702,2.3869057,1.6837984,-0.99780154,0.5431995,-0.42205423,-2.0012136,-1.544196,2.4457877,1.635258,-1.0182468,-1.0015198,-1.0341418,0.24658081,1.4394131,-1.2043797,1.5502149,-0.2697337,-0.06671524,-0.38451576,0.8922546,-1.3348154,-0.116744414,0.6751536,-0.03394699,-0.48233986,0.8061642,0.92367226,0.071654126,0.14175446,0.34871304,-0.88477653,0.18663871,0.2544101,1.0,0.0,0.0,0.0,0.0,0.0,0.0,-0.58328474,-0.015484244,-0.34225458,-11.13571,14.350271,32.304157,57.84931,-4.3563366,-12.668657,5.8478594
-14.559036,61.288254,14.983299,50.353806,2.9738994,2.0016265,-0.5630935,-0.7723693,-0.5303439,0.17544112,0.73979926,-0.70375764,0.6191471,0.22320297,0.46596253,-0.47508863,-1.9836694,-1.470216,2.375412,1.6971726,-0.9959265,0.5319156,-0.43168205,-1.9974204,-1.5279759,2.4340003,1.6494868,-1.0204211,-1.1667534,-0.93929285,0.41928005,1.6842357,-1.1704237,1.3834195,-0.19913062,-0.08005524,-0.38568306,0.8982646,-1.3334808,-0.11662769,0.5762926,-0.043003082,-0.48009682,0.80971885,0.92635524,0.05975599,0.14566138,0.3421663,-0.9137009,0.24148804,0.38386187,1.0,0.0,0.0,0.0,0.0,0.0,0.0,-0.56994474,-0.014316946,-0.34826458,-15.346098,9.40317,15.993065,24.849796,3.311348,-15.728068,7.309687
-21.708881,27.756157,-1.569591,27.471579,2.5104795,0.29434025,-0.33028138,-0.7622225,-0.54375035,0.124815844,0.74575746,-0.72104675,0.62966084,0.25955206,0.45569336,-0.48605707,-1.9849389,-1.4534001,2.3618956,1.7124529,-0.99446595,0.5192651,-0.4408149,-1.9931232,-1.5110253,2.4226477,1.6621592,-1.0219051,-1.2954664,-0.9046835,0.43043864,1.6993147,-1.1230934,1.2304341,-0.13089089,-0.093379974,-0.38684845,0.90328676,-1.3321477,-0.11651109,0.47753045,-0.05254364,-0.47764397,0.8136209,0.9290258,0.048316896,0.14956738,0.33497164,-0.96953356,0.2531404,0.38703725,1.0,0.0,0.0,0.0,0.0,0.0,0.0,-0.55662,-0.013151556,-0.35328674,-12.184477,3.4519553,0.22745132,1.7278433,4.8707485,-14.70716,6.9815874
-27.281929,5.2882514,-13.293484,14.849308,2.3289244,-0.78217566,-0.3204522,-0.7692749,-0.5442716,0.0037960685,0.7520412,-0.71751946,0.6051602,0.23610017,0.44233763,-0.49524206,-1.9927436,-1.4358212,2.350896,1.7226752,-0.99829507,0.5056867,-0.44988388,-1.9898292,-1.4947556,2.411753,1.6734393,-1.0227977,-1.3773123,-0.90746987,0.29355887,1.603173,-1.0770755,1.0951777,-0.07496081,-0.10668945,-0.38801193,0.90732205,-1.3308158,-0.11639461,0.37886706,-0.062812805,-0.4753151,0.8170001,0.93171746,0.038254093,0.1531562,0.3270814,-1.0476688,0.23287998,0.3166506,1.0,0.0,0.0,0.0,0.0,0.0,0.0,-0.5433105,-0.011988074,-0.35732204,-7.7846527,-0.24085045,-14.3353405,-9.45344,4.8830986,-13.147092,5.687514
-23.267859,-0.3325582,-13.711876,9.571685,1.8442314,-1.157723,-0.20104837,-0.7502021,-0.5553779,-0.04837522,0.7523732,-0.72043604,0.622723,0.18851542,0.43066648,-0.50542164,-1.9946667,-1.4195184,2.3397093,1.7357116,-1.0039462,0.4917296,-0.45916265,-1.988269,-1.4796399,2.4012167,1.6835387,-1.0232402,-1.401184,-0.9346302,0.10872095,1.4815307,-1.0451326,0.98220956,-0.033919193,-0.11998749,-0.38917542,0.91036344,-1.3294853,-0.11627824,0.27923712,-0.07378769,-0.47328758,0.8194973,0.93443495,0.029857732,0.15634796,0.31858298,-1.1157085,0.20120746,0.22308093,1.0,0.0,0.0,0.0,0.0,0.0,0.0,-0.5300125,-0.010824591,-0.36036342,-2.1652699,-2.6884913,-18.902872,-12.017918,3.4023046,-11.05032,4.14885
-21.003384,1.8083777,-11.803079,10.432418,1.7063582,-1.0646825,-0.21721643,-0.7630818,-0.555135,-0.11867657,0.75485426,-0.71085423,0.6171616,0.14684528,0.4154214,-0.51467615,-2.0001366,-1.4041544,2.3301313,1.7452549,-1.0085557,0.47771582,-0.4687304,-1.9886199,-1.4655484,2.3909285,1.6926463,-1.0233661,-1.4007336,-0.96413195,-0.08435402,1.3856561,-1.0227973,0.8876857,-0.005450783,-0.13327408,-0.3903389,0.91240925,-1.328156,-0.11616198,0.17970677,-0.08539963,-0.47154617,0.8211128,0.93718636,0.023032576,0.1592079,0.30952206,-1.1770779,0.17276813,0.13694376,1.0,0.0,0.0,0.0,0.0,0.0,0.0,-0.5167259,-0.009661108,-0.36240923,0.2562523,-2.9476166,-19.669113,-9.403276,2.3792028,-9.261632,2.8767507
-26.738178,-3.7717965,-16.074814,12.6859865,2.1828156,-1.0684571,-0.40619084,-0.7744028,-0.5886371,-0.29162148,0.75347924,-0.704924,0.6128497,0.14822859,0.40027553,-0.5275941,-2.017782,-1.3902005,2.320436,1.7539313,-1.0085433,0.4637588,-0.4786958,-1.9912635,-1.452113,2.380808,1.700928,-1.0232517,-1.3929664,-1.0073543,-0.32573694,1.3304061,-1.0075778,0.80859137,0.017091418,-0.14654541,-0.39149857,0.9134605,-1.3268281,-0.11604584,0.080275945,-0.097797394,-0.4701023,0.8218761,0.9400397,0.017685896,0.16179521,0.29972467,-1.2604952,0.1433803,0.052190673,1.0,0.0,0.0,0.0,0.0,0.0,0.0,-0.50345457,-0.00850144,-0.36346048,1.1017084,-4.331565,-24.59125,-5.231619,1.7226458,-7.791209,2.3056512
-21.45539,8.070804,-9.328487,16.14962,1.8853151,-0.63225996,-0.38558942,-0.7549578,-0.57252175,-0.3442258,0.7671116,-0.7080065,0.6427551,0.1122551,0.38826302,-0.535948,-2.025686,-1.3754019,2.3100076,1.7652035,-1.0120262,0.44998392,-0.488944,-1.9960605,-1.4388989,2.3707755,1.7085459,-1.0229751,-1.37129,-1.0308529,-0.53221714,1.3195586,-1.0015104,0.74657416,0.031323783,-0.15980148,-0.39265823,0.91351825,-1.3255016,-0.11592982,-0.01905547,-0.11087036,-0.4688301,0.82198536,0.94297415,0.01353806,0.16427703,0.28918764,-1.3221922,0.13108414,-0.0068912734,1.0,0.0,0.0,0.0,0.0,0.0,0.0,-0.4901985,-0.0073417723,-0.36351824,2.4700642,-2.4047136,-21.01376,-0.78833103,0.7091284,-6.068802,1.442102
-23.397121,7.2072744,-9.7676935,17.328535,2.060142,-0.46194768,-0.41391635,-0.7678055,-0.6149298,-0.4467223,0.75985587,-0.7028184,0.6491471,0.10055163,0.37320337,-0.550437,-2.0407326,-1.3629134,2.3004937,1.7734606,-1.0129199,0.436354,-0.4995231,-2.0028014,-1.4256524,2.3607848,1.7156336,-1.0225879,-1.3590107,-1.0671628,-0.72275597,1.3277043,-0.9981219,0.6964426,0.041180864,-0.17304611,-0.3938179,0.91258335,-1.3241763,-0.11581392,-0.11828758,-0.124607086,-0.4676323,0.8215352,0.9459742,0.010400178,0.16669473,0.27791652,-1.3902138,0.12572539,-0.0620374,1.0,0.0,0.0,0.0,0.0,0.0,0.0,-0.47695386,-0.0061821043,-0.36258334,1.5925169,-3.7077188,-19.44542,1.1673212,0.43467283,-4.915726,1.0160767
-18.058226,12.196896,-5.0652285,16.722118,1.7066654,-0.24208969,-0.26689258,-0.74304605,-0.64486194,-0.48215824,0.7568143,-0.71342397,0.6731107,0.04527293,0.3620494,-0.5640093,-2.0510173,-1.3499709,2.2894423,1.7829447,-1.0180606,0.4229115,-0.5105324,-2.011045,-1.4122819,2.3507712,1.7223074,-1.0221626,-1.3384277,-1.1124774,-0.8587712,1.3414212,-1.0022757,0.65801126,0.04319305,-0.1862793,-0.39497375,0.91065687,-1.3228525,-0.11569812,-0.21742047,-0.13889313,-0.46643257,0.8205844,0.948981,0.008081525,0.1690432,0.26607153,-1.439703,0.12888074,-0.110612184,1.0,0.0,0.0,0.0,0.0,0.0,0.0,-0.46372068,-0.005026251,-0.36065686,2.3435593,-4.6270847,-13.86429,1.697278,-0.40483475,-3.7481189,0.2219066
-19.2644,5.4761076,-7.182553,14.444325,1.7969426,-0.31017393,-0.21578486,-0.7365384,-0.71652013,-0.56773996,0.74565214,-0.70477015,0.67651045,-0.0068199094,0.34925765,-0.5821844,-2.0678189,-1.3377167,2.2802942,1.7899585,-1.0228446,0.40966734,-0.5222435,-2.020536,-1.3988293,2.3407347,1.7286532,-1.0217639,-1.318734,-1.1909405,-0.9802518,1.3475689,-1.003992,0.6268577,0.038879115,-0.19949722,-0.3961296,0.9077399,-1.3215299,-0.115582444,-0.31645426,-0.1537323,-0.4652176,0.8190588,0.9519743,0.0065139313,0.17118375,0.2537686,-1.4976665,0.13001755,-0.17164117,1.0,0.0,0.0,0.0,0.0,0.0,0.0,-0.45050275,-0.0038703978,-0.35773987,2.2664785,-7.936096,-12.413418,0.9945631,-0.1467228,-3.07163,-0.3707789
-12.025904,10.383708,-2.3329945,11.797485,1.259961,-0.22776306,-0.013239626,-0.6967339,-0.7442771,-0.5877612,0.730116,-0.7057434,0.6852813,-0.023734417,0.33999395,-0.5966712,-2.079312,-1.3258177,2.2701604,1.7971814,-1.0241374,0.39675078,-0.5347557,-2.030931,-1.3854264,2.3306792,1.7347376,-1.0214244,-1.2821553,-1.2717245,-1.0600084,1.3390119,-1.0062662,0.60240287,0.032240987,-0.21269989,-0.39728546,0.90383327,-1.3202087,-0.115466885,-0.41538903,-0.16898727,-0.4639778,0.81692016,0.95489657,0.0056172195,0.1730389,0.24124329,-1.5322797,0.13362652,-0.23347689,1.0,0.0,0.0,0.0,0.0,0.0,0.0,-0.4373001,-0.0027145445,-0.35383326,3.8116932,-8.170867,-8.077121,-0.5415678,-0.2834797,-2.4019122,-0.6157763
-4.743942,20.27948,4.083921,11.344098,0.78959,-0.004603386,0.12218481,-0.67328125,-0.759904,-0.5775437,0.73049074,-0.7030499,0.68976444,-0.089907005,0.32942265,-0.6107461,-2.0886853,-1.3123773,2.260374,1.803714,-1.030415,0.38425145,-0.547966,-2.0417418,-1.3721341,2.3206084,1.7406161,-1.0212013,-1.2391288,-1.3378503,-1.0881531,1.3269254,-1.0078593,0.5832828,0.019086635,-0.22589493,-0.3984394,0.89893806,-1.3188887,-0.115351446,-0.5142249,-0.1843872,-0.46265793,0.8142502,0.9576855,0.005220234,0.17463133,0.22872494,-1.5401639,0.14366157,-0.28409407,1.0,0.0,0.0,0.0,0.0,0.0,0.0,-0.42410505,-0.0015605986,-0.34893805,4.329777,-6.719041,-2.7595758,-0.98400116,-0.31852722,-1.8414974,-1.2949046
4.560278,25.834806,9.050278,7.5560904,0.12410098,-0.09661716,0.30848703,-0.6041258,-0.788664,-0.6079278,0.68538946,-0.68592656,0.6875648,-0.15810676,0.32383886,-0.6268324,-2.1025345,-1.3035952,2.2520158,1.8093725,-1.037012,0.37241063,-0.56176186,-2.052732,-1.359166,2.3105757,1.7463305,-1.0211555,-1.166277,-1.3938081,-1.101741,1.2871791,-1.0028269,0.5675193,-0.00041497414,-0.2390747,-0.39959145,0.8930552,-1.3175701,-0.11523612,-0.61296195,-0.19966125,-0.46128464,0.8110466,0.96029174,0.005261654,0.17594552,0.21646075,-1.5210956,0.14690775,-0.3387117,1.0,0.0,0.0,0.0,0.0,0.0,0.0,-0.41092527,-0.00040856004,-0.3430552,7.119179,-5.6918144,-1.1133432,-3.8708448,0.26874542,-1.5156984,-1.9637071
10.854023,32.020454,13.159452,6.3867955,-0.27128354,-0.094297886,0.41609278,-0.5567676,-0.80691844,-0.6062545,0.66910106,-0.6870479,0.68275446,-0.1726159,0.31673387,-0.6424537,-2.1133575,-1.2922559,2.2418709,1.814606,-1.0384171,0.3614057,-0.57602024,-2.0637336,-1.3466462,2.300585,1.7519038,-1.0213062,-1.0794821,-1.4367638,-1.0985773,1.2403345,-0.9984078,0.554171,-0.020057969,-0.25223923,-0.40074348,0.88618577,-1.3162527,-0.1151209,-0.71160024,-0.21461105,-0.45990372,0.8073332,0.96268404,0.005686632,0.17700452,0.20463717,-1.4829553,0.14678912,-0.38871336,1.0,0.0,0.0,0.0,0.0,0.0,0.0,-0.39776075,0.00074347854,-0.33618575,8.408284,-4.3940067,0.6775379,-4.6599865,0.14926195,-1.274395,-2.0059493
19.665083,40.706383,18.72593,5.956417,-0.73112166,-0.14893782,0.5486304,-0.46371582,-0.8104436,-0.61220366,0.66909885,-0.6889351,0.67731625,-0.102212824,0.31503412,-0.6570646,-2.124954,-1.2797363,2.2316916,1.8196354,-1.0315274,0.35152468,-0.59057045,-2.074678,-1.3345135,2.2906249,1.7573569,-1.0215827,-0.9590384,-1.461465,-1.091172,1.203805,-0.9964753,0.5426081,-0.03066255,-0.2653923,-0.40189362,0.8783277,-1.3149368,-0.115005806,-0.81053364,-0.22900009,-0.45856857,0.80319893,0.9648272,0.0064009335,0.17789693,0.19344272,-1.4208971,0.13946721,-0.42826444,1.0,0.0,0.0,0.0,0.0,0.0,0.0,-0.38460767,0.0018936098,-0.32832772,11.62715,-2.5723934,1.2705564,-3.7319899,-0.1648426,-1.0936499,-1.1454281
24.337086,42.501167,20.219635,3.947053,-1.0022607,-0.343091,0.5941009,-0.39107975,-0.8209347,-0.6347888,0.620122,-0.6635137,0.64728725,-0.1746568,0.3124167,-0.6726639,-2.138157,-1.2725013,2.2242734,1.8220856,-1.0390484,0.3429664,-0.6052952,-2.085649,-1.3228616,2.2807486,1.7626841,-1.0220023,-0.8230619,-1.4765043,-1.0969616,1.1518867,-0.985703,0.5296369,-0.046027284,-0.27853394,-0.40304184,0.8694811,-1.313622,-0.11489083,-0.9093681,-0.24269867,-0.45737457,0.79864323,0.9667246,0.0074210605,0.17863324,0.18297157,-1.350047,0.12174688,-0.47119087,1.0,0.0,0.0,0.0,0.0,0.0,0.0,-0.37146604,0.0030418336,-0.31948107,13.119769,-1.6033888,0.003504753,-5.317664,0.70461035,-1.2730479,-1.6410635
27.642366,46.168488,22.044552,4.0000415,-1.1632793,-0.41114235,0.6458189,-0.31694138,-0.81913555,-0.6376314,0.60492754,-0.6732341,0.63718045,-0.08194134,0.31127226,-0.6872087,-2.1494122,-1.2623688,2.2134252,1.8264022,-1.0301964,0.3358191,-0.6200857,-2.096704,-1.3116978,2.2709448,1.7678874,-1.0224944,-0.68025035,-1.4802742,-1.1062713,1.1037828,-0.9798465,0.51715654,-0.050633535,-0.2916603,-0.40419006,0.8596468,-1.3123087,-0.114775956,-1.0081037,-0.25564575,-0.45638847,0.79369617,0.9683782,0.008750322,0.17926452,0.17329521,-1.2717732,0.098531716,-0.50918096,1.0,0.0,0.0,0.0,0.0,0.0,0.0,-0.35833967,0.0041900575,-0.3096468,13.7869835,-0.48348904,-0.3222704,-4.960561,0.19661188,-1.2426138,-0.5851425
32.099792,51.45885,25.102583,5.407592,-1.1967051,-0.43708813,0.66661733,-0.21884272,-0.81837296,-0.6261626,0.620691,-0.66348517,0.635049,-0.040153943,0.31393483,-0.701923,-2.1593204,-1.2496288,2.2045963,1.8313923,-1.0265099,0.330211,-0.63486576,-2.1077895,-1.3008183,2.2612097,1.7729762,-1.0229865,-0.5227276,-1.4775603,-1.1068779,1.0821013,-0.9727658,0.5060847,-0.049212985,-0.30477142,-0.4053383,0.84882593,-1.3109967,-0.1146612,-1.1067407,-0.26774216,-0.4556656,0.7884673,0.9697893,0.010277636,0.17986223,0.16447657,-1.1857425,0.07059282,-0.53374285,0.0,1.0,0.0,0.0,0.0,0.0,0.0,-0.34522855,0.0053382814,-0.29882592,15.22789,0.15470982,0.60830116,-2.3437738,0.28710365,-1.1161685,0.0104524195
25.260715,45.75427,20.388615,5.1385274,-0.88730973,-0.5095968,0.57198936,-0.20580621,-0.8259523,-0.64902,0.55099136,-0.6469045,0.59842664,-0.062375493,0.3096304,-0.717461,-2.1726916,-1.2457192,2.1965194,1.8328189,-1.029224,0.3258761,-0.64963627,-2.1189742,-1.2903489,2.2515814,1.7779391,-1.0234729,-0.40498176,-1.4773252,-1.1205548,1.0348264,-0.9604853,0.49269697,-0.0488548,-0.3178711,-0.4064827,0.83701944,-1.309686,-0.11454657,-1.2052792,-0.27913666,-0.4552002,0.7829097,0.9710051,0.012083323,0.18038051,0.15641582,-1.119146,0.043891054,-0.56932265,0.0,1.0,0.0,0.0,0.0,0.0,0.0,-0.33212888,0.0064826906,-0.28701943,11.39639,-0.0977993,-0.8706331,-4.81534,0.867331,-1.3863623,-0.07264167
44.107346,48.26233,26.991802,-2.3092294,-1.9054098,-0.93675625,0.920297,-0.009302698,-0.8310549,-0.6406579,0.476763,-0.6035086,0.56195307,-0.05339709,0.3249458,-0.7327418,-2.18304,-1.2426726,2.1912305,1.8341343,-1.0288126,0.3232407,-0.6644326,-2.1302848,-1.2806892,2.242255,1.7828177,-1.0239884,-0.21321751,-1.481296,-1.1502495,0.9245266,-0.8669576,0.52639323,-0.051516153,-0.3309517,-0.4068966,0.8269391,-1.0858055,0.07674297,-0.08158093,-0.28958893,-0.45520592,0.77689147,0.97202677,0.014198297,0.18064691,0.14942926,-1.0248646,-0.006163797,-0.6259155,0.0,1.0,0.0,0.0,0.0,0.0,0.0,-0.3190483,0.006896585,-0.2769391,19.306114,-0.5833626,-4.7037363,-13.776005,15.573847,8.234495,-0.75885284
-16.755758,46.501152,7.799336,25.16518,2.092794,0.5036572,-0.30161127,-0.36375824,-0.8141432,-0.576524,0.667059,-0.58573836,0.56578636,-0.104600824,0.28686488,-0.7458469,-2.1879373,-1.2139833,2.1836812,1.8393964,-1.0344485,0.32055372,-0.67919356,-2.1415572,-1.2710514,2.2338398,1.7879905,-1.0245262,-0.28640094,-1.4750427,-1.1197193,0.9778046,-0.83358175,0.51441467,-0.054479867,-0.3418007,-0.40612984,0.8253765,-1.08472,0.07666624,-0.18114425,-0.30004883,-0.45499802,0.7707559,0.973045,0.016153863,0.18062922,0.1424627,-1.0484682,0.032193374,-0.6154405,0.0,1.0,0.0,0.0,0.0,0.0,0.0,-0.3081993,0.006129831,-0.2753765,-7.073635,0.43780804,2.986145,5.6100845,3.1349182,-1.1149526,-0.28726235
-33.069054,53.354656,5.5081487,35.083546,3.1286654,1.1625329,-0.5868831,-0.38171464,-0.8031372,-0.51794314,0.72072077,-0.6392874,0.63350236,0.00023814011,0.28238225,-0.7595073,-2.1933515,-1.1989794,2.169911,1.8513407,-1.0245024,0.31661457,-0.6938363,-2.152223,-1.2604122,2.2255352,1.793106,-1.0250088,-0.42834175,-1.4613347,-1.0496333,1.0941384,-0.829831,0.5113446,-0.04629862,-0.35263824,-0.40536308,0.82281905,-1.0836354,0.07658959,-0.28060806,-0.3109169,-0.4541607,0.76494884,0.97406614,0.017841443,0.18082535,0.13482906,-1.0958178,0.1052512,-0.5748106,0.0,1.0,0.0,0.0,0.0,0.0,0.0,-0.29736173,0.005363077,-0.27281904,-13.754535,1.1505365,6.7953587,12.033343,0.19702911,-0.12854338,0.8485638
-29.532951,54.60701,7.0989,32.540432,2.7475448,1.124945,-0.4386011,-0.36707038,-0.8070412,-0.4915194,0.6843769,-0.6180114,0.62049717,0.045114443,0.27990752,-0.7745404,-2.201375,-1.1919745,2.163734,1.8551557,-1.0204973,0.31133503,-0.7083693,-2.1620688,-1.2487736,2.2171428,1.7981509,-1.025375,-0.55989164,-1.4512317,-0.96387136,1.1882262,-0.84333795,0.5027208,-0.033270348,-0.36346817,-0.40459633,0.8192677,-1.0825521,0.076513015,-0.37997243,-0.32217407,-0.45262337,0.7595073,0.97505623,0.019245822,0.18130627,0.12658142,-1.1303301,0.17427613,-0.5397102,0.0,1.0,0.0,0.0,0.0,0.0,0.0,-0.2865318,0.004596323,-0.26926768,-12.772298,0.7971287,8.412623,9.779906,-1.5553951,-0.69674253,1.329948
-16.542418,51.150032,9.244123,24.162794,1.6812861,0.69208837,-0.14322376,-0.3344644,-0.8078429,-0.51947784,0.6660198,-0.6363293,0.6139828,0.08982903,0.2778886,-0.7891536,-2.2140167,-1.1821716,2.1535099,1.8595492,-1.0163921,0.30521244,-0.7228337,-2.1713424,-1.2365494,2.208533,1.8031081,-1.0255848,-0.6290816,-1.4454769,-0.9153185,1.2347411,-0.8674554,0.49363458,-0.016872386,-0.37428665,-0.4038334,0.81473184,-1.0814698,0.07643652,-0.47811422,-0.3335724,-0.4505844,0.754228,0.97596425,0.020590382,0.18203527,0.11803725,-1.1389645,0.21792266,-0.5295217,0.0,1.0,0.0,0.0,0.0,0.0,0.0,-0.27571332,0.0038333833,-0.26473182,-6.72096,0.39129257,4.841459,4.9179554,-2.6364088,-0.80355406,1.6281847
-2.6056013,50.89972,12.678372,17.587425,0.7434562,0.3058265,0.12573193,-0.30448923,-0.80151516,-0.52812785,0.6776663,-0.6503203,0.61962193,0.17662646,0.27476352,-0.8029852,-2.2241552,-1.1687827,2.143501,1.8650703,-1.0079222,0.298881,-0.73723894,-2.1803756,-1.2240734,2.19966,1.8079833,-1.0255791,-0.634493,-1.4393978,-0.8990826,1.2523818,-0.8951948,0.48561302,0.0060866103,-0.3850937,-0.40307045,0.8092153,-1.0803885,0.0763601,-0.5761579,-0.34485626,-0.44830704,0.74893224,0.97674584,0.022063136,0.18297715,0.10954418,-1.1216388,0.2366358,-0.535001,0.0,1.0,0.0,0.0,0.0,0.0,0.0,-0.2649063,0.0030704439,-0.2592153,-0.53014755,0.44443607,1.7893195,1.913619,-3.048122,-0.7457614,2.2332494
1.9957569,46.514095,12.006,13.702589,0.37990904,0.007897377,0.21338467,-0.3046534,-0.8093304,-0.5538615,0.6834142,-0.6543725,0.6092689,0.19460388,0.26841566,-0.818172,-2.2357616,-1.155732,2.1342227,1.8689102,-1.0061187,0.29271263,-0.75163656,-2.1895194,-1.2115498,2.1905391,1.8127764,-1.0253483,-0.61114013,-1.4404634,-0.9185249,1.252868,-0.918277,0.47733548,0.028523114,-0.39588928,-0.4023075,0.80271906,-1.0793084,0.07628375,-0.67410356,-0.3559494,-0.44594574,0.7434609,0.97739214,0.02383259,0.18407542,0.101255424,-1.100887,0.24128103,-0.5563418,0.0,1.0,0.0,0.0,0.0,0.0,0.0,-0.2541107,0.0023075044,-0.25271904,2.2823453,-0.25572777,-1.735425,0.1732111,-2.5645375,-0.8163512,2.1694634
11.884479,48.11909,14.8596,10.363439,-0.14261568,-0.2535929,0.36238977,-0.24788328,-0.80436313,-0.5736255,0.6839995,-0.66355854,0.6034302,0.24909714,0.2679243,-0.83207285,-2.246882,-1.1431499,2.1241832,1.8731195,-1.0004386,0.28709263,-0.76603705,-2.1990066,-1.199089,2.1812122,1.8174895,-1.0248772,-0.5461305,-1.4404291,-0.9574826,1.2441611,-0.9381278,0.46922788,0.052991297,-0.40667343,-0.40154457,0.7952309,-1.0782293,0.07620748,-0.77370876,-0.3667183,-0.44366455,0.7377276,0.97789425,0.025984554,0.18529631,0.09334285,-1.0644782,0.22861142,-0.58400804,0.0,1.0,0.0,0.0,0.0,0.0,0.0,-0.24332654,0.001544565,-0.24523091,6.3346863,-0.13918877,-3.5624027,-0.8207083,-2.2887945,-0.8393645,2.335359
16.949347,50.049206,16.861956,9.5408745,-0.25949883,-0.3360917,0.40667486,-0.21186897,-0.80692613,-0.5698161,0.69708395,-0.658429,0.5934661,0.26278394,0.26590574,-0.84672964,-2.2559881,-1.1293807,2.1153693,1.8768361,-0.9985988,0.28224653,-0.78045183,-2.2088332,-1.1866665,2.1717556,1.8221205,-1.0241753,-0.46480137,-1.4422618,-0.9894825,1.2416158,-0.94935393,0.46100563,0.07556806,-0.41744995,-0.40078163,0.78674746,-1.0771513,0.07613129,-0.87321436,-0.37707138,-0.44156456,0.73174113,0.97825664,0.028476082,0.18660705,0.08591154,-1.0218198,0.20865107,-0.60849935,0.0,1.0,0.0,0.0,0.0,0.0,0.0,-0.23255002,0.0007816255,-0.23674744,7.918656,-0.32560825,-2.7966142,-0.23925304,-1.464212,-0.87803006,2.1400392
7.939677,45.229218,12.515569,10.265517,0.19070372,-0.29610917,0.29486063,-0.24335091,-0.8157954,-0.59584737,0.6636769,-0.6223673,0.5488638,0.24220107,0.25791144,-0.8620314,-2.2684178,-1.1202987,2.1095188,1.8770069,-0.9999552,0.27792734,-0.79492575,-2.2190146,-1.174406,2.1623409,1.8266448,-1.0232865,-0.4196856,-1.449853,-1.0330786,1.2131486,-0.93973583,0.4534743,0.087210625,-0.4282112,-0.4000225,0.7772697,-1.1229084,0.1965279,-0.5751701,-0.38715744,-0.43958282,0.7254503,0.9785202,0.031342365,0.18787685,0.078854814,-0.9984235,0.19760036,-0.6449345,0.0,1.0,0.0,0.0,0.0,0.0,0.0,-0.22178876,2.2500753e-05,-0.22726971,4.5630813,-0.93290806,-4.6908855,-3.5559893,0.684917,-0.40626526,0.5008027
-21.84623,42.966812,2.834054,19.386303,1.5495712,0.18661179,-0.10936765,-0.36442533,-0.8049315,-0.6430275,0.69649345,-0.66381407,0.5414906,0.32168126,0.2414848,-0.8754189,-2.2833173,-1.1047567,2.0959594,1.8807938,-0.9911183,0.27330545,-0.80942255,-2.2298024,-1.1622676,2.1530747,1.8311422,-1.0222089,-0.47584173,-1.4502413,-1.0938823,1.2154114,-0.9248114,0.44775188,0.1140313,-0.4387474,-0.39836502,0.7713188,-1.040008,0.15959041,-0.6092964,-0.39738083,-0.43737411,0.71883476,0.97872174,0.03468953,0.18910445,0.07169187,-1.0252395,0.2320616,-0.67203724,0.0,1.0,0.0,0.0,0.0,0.0,0.0,-0.21125257,-0.0016349852,-0.22131878,-5.464512,-0.21960735,-6.0138226,0.59080124,0.7960439,-0.7984936,2.5247335
-25.223793,50.565857,4.5528917,22.826502,1.9080462,0.50802964,-0.16511422,-0.3644083,-0.7933425,-0.6098569,0.7133796,-0.6409178,0.5678037,0.3715698,0.23686461,-0.8887568,-2.2907882,-1.0909296,2.088983,1.8879225,-0.98505193,0.26798305,-0.8238545,-2.2409418,-1.1499807,2.1439772,1.8355981,-1.0208527,-0.550434,-1.4415344,-1.120528,1.2342182,-0.90589345,0.44463426,0.14262998,-0.44863892,-0.396986,0.76486826,-0.9732077,0.13134588,-0.6578875,-0.4078598,-0.4347229,0.7120808,0.9788579,0.0383823,0.19035614,0.064253,-1.0505152,0.28025126,-0.6814237,0.0,1.0,0.0,0.0,0.0,0.0,0.0,-0.20136106,-0.0030139983,-0.21486825,-7.2883725,0.66826344,-2.6420832,2.1995306,1.6939402,-0.36025643,2.843827
-20.265505,56.589455,8.536931,22.742538,1.9495897,0.6732843,-0.102141775,-0.37790823,-0.79781234,-0.5520312,0.7018029,-0.5813697,0.5542235,0.34711775,0.23019223,-0.90363574,-2.296145,-1.0798004,2.0858402,1.8910204,-0.9861409,0.26192865,-0.83821493,-2.2519128,-1.1375318,2.1351922,1.8400035,-1.0192521,-0.62341577,-1.4348254,-1.0886935,1.2491255,-0.8720226,0.43886742,0.1653322,-0.4579506,-0.39576912,0.75804526,-0.92647684,0.12435559,-0.6870038,-0.41850662,-0.43158913,0.70532703,0.9789417,0.04216872,0.19154097,0.056629926,-1.0634155,0.32903028,-0.6781196,0.0,1.0,0.0,0.0,0.0,0.0,0.0,-0.19204938,-0.0042308867,-0.20804524,-7.187474,0.4703045,3.341794,1.7265797,2.6170611,-0.6831229,2.0742238
-5.7733226,60.878735,14.395788,18.921509,1.4365938,0.5994703,0.09617557,-0.3597833,-0.8033343,-0.49647218,0.6875151,-0.550687,0.5270502,0.338651,0.22595032,-0.91854835,-2.3015602,-1.0687803,2.0801234,1.8927085,-0.98538697,0.25540692,-0.8525496,-2.262201,-1.12505,2.1267614,1.8443332,-1.0174766,-0.66182625,-1.433587,-1.0082153,1.2482908,-0.83478624,0.43079486,0.18161646,-0.46700668,-0.39449883,0.75109744,-0.8986283,0.12790093,-0.69694155,-0.4290886,-0.42809677,0.6986394,0.9789851,0.045831237,0.19255617,0.049089096,-1.0507008,0.36070532,-0.6702671,0.0,1.0,0.0,0.0,0.0,0.0,0.0,-0.1829933,-0.005501181,-0.20109743,-3.8611054,-0.050210953,8.340192,0.051689148,3.3233523,-0.85803866,1.6017973
6.8734665,63.906994,18.959124,15.629345,0.9519583,0.48503754,0.2513167,-0.34612238,-0.80521,-0.44220105,0.68292874,-0.53506297,0.52068007,0.3378977,0.22079468,-0.9330706,-2.3064213,-1.0567571,2.073255,1.8964012,-0.9836868,0.24875227,-0.8668986,-2.2714708,-1.1126465,2.1186895,1.8485863,-1.0155635,-0.66705626,-1.4357924,-0.8987983,1.2378256,-0.79938734,0.4232684,0.19440542,-0.4757309,-0.39323997,0.7440984,-0.86356753,0.124951765,-0.7005854,-0.4393921,-0.4244175,0.6920479,0.97900164,0.04920799,0.19333792,0.04188854,-1.0177652,0.375276,-0.65985805,0.0,1.0,0.0,0.0,0.0,0.0,0.0,-0.17426908,-0.006760031,-0.19409841,-0.64234734,-0.37214756,11.355567,-1.0102749,3.0655026,-0.8035779,1.2384593
14.039347,66.758804,21.778248,14.094556,0.75015754,0.43442166,0.32213527,-0.34719115,-0.8024687,-0.36920035,0.6725892,-0.5028977,0.5081318,0.3336424,0.21403316,-0.94714546,-2.3083909,-1.0453875,2.0683997,1.8993995,-0.98219925,0.24216096,-0.8812619,-2.2794855,-1.100407,2.1109989,1.8527634,-1.0135436,-0.6570152,-1.437056,-0.76734346,1.2191446,-0.76061904,0.41575572,0.2043796,-0.484066,-0.39204025,0.7371066,-0.823465,0.118129544,-0.6984572,-0.4492836,-0.42066193,0.68558913,0.97901225,0.052171547,0.19384433,0.03517731,-0.9740165,0.38033053,-0.6453991,0.0,1.0,0.0,0.0,0.0,0.0,0.0,-0.16593397,-0.007959753,-0.18710661,0.8415103,-0.2657175,13.616812,-1.8838406,3.3560753,-0.7929981,0.95291436
17.850441,73.970024,25.44698,15.676407,0.85174894,0.5952946,0.32215574,-0.360459,-0.80123985,-0.21615906,0.6873736,-0.5154031,0.5236525,0.31322384,0.20611507,-0.96138585,-2.3011014,-1.0316696,2.0594585,1.9051287,-0.98222125,0.23564284,-0.895629,-2.2857375,-1.0882686,2.1035905,1.8568871,-1.0114495,-0.65062267,-1.437052,-0.575897,1.211907,-0.7361698,0.4112904,0.21078432,-0.49193954,-0.39092255,0.730267,-0.7753499,0.109435804,-0.6786483,-0.45866013,-0.41685677,0.6794064,0.9790358,0.05447535,0.19410923,0.029030684,-0.92092705,0.38494167,-0.6131451,0.0,1.0,0.0,0.0,0.0,0.0,0.0,-0.15806043,-0.00907746,-0.18026698,0.46961308,-0.13899803,19.66983,-0.76322556,1.8552423,-0.4494667,0.60581565
33.330826,81.61942,32.81643,13.589259,0.5307348,0.6254153,0.48512593,-0.32283506,-0.8107636,0.006139743,0.66808313,-0.51507795,0.50849056,0.27853242,0.20335934,-0.9767054,-2.2851236,-1.0214603,2.0520828,1.9077362,-0.9835962,0.22934574,-0.9100371,-2.2893577,-1.0762581,2.0963616,1.860967,-1.0093281,-0.6235176,-1.4424604,-0.2887069,1.1971904,-0.72132397,0.40712634,0.2126207,-0.49923325,-0.3899479,0.7237881,-0.71382695,0.09345436,-0.6377634,-0.4673195,-0.413126,0.673676,0.9791107,0.05573015,0.19410047,0.023690088,-0.8429465,0.3732613,-0.56346005,0.0,1.0,0.0,0.0,0.0,0.0,0.0,-0.15076673,-0.010052115,-0.17378807,2.4750948,-0.6770849,29.393906,-1.5918016,0.7341504,-0.3879428,0.14846921
21.309921,67.21357,23.466242,11.828861,0.5395478,0.23301351,0.34590727,-0.33077592,-0.81516385,-0.091671206,0.6262044,-0.4941262,0.4553122,0.25542435,0.19626814,-0.9915535,-2.2985249,-1.0136377,2.046949,1.9064983,-0.9837857,0.2232678,-0.9245177,-2.2910361,-1.064551,2.0892668,1.8649652,-1.0072167,-0.6029515,-1.4503549,-0.12609003,1.1618267,-0.70730376,0.39747846,0.21056832,-0.50603867,-0.38911057,0.71747124,-0.66973853,0.08063029,-0.6305301,-0.47540665,-0.4094982,0.6681745,0.97924,0.05627812,0.19380566,0.019000452,-0.7934139,0.3627241,-0.5492946,0.0,1.0,0.0,0.0,0.0,0.0,0.0,-0.14396131,-0.010889441,-0.16747123,1.9339561,-0.91559887,16.671314,-3.5238266,0.8982301,-0.94471574,-0.21040142
21.485294,71.48618,24.708048,13.529462,0.6891813,0.28520775,0.30701774,-0.32069084,-0.81193423,0.083963074,0.64333457,-0.5062734,0.46355033,0.28462684,0.1911987,-1.0057111,-2.2826397,-1.0002176,2.0386395,1.9113202,-0.978754,0.21738651,-0.93905073,-2.2909598,-1.0530843,2.0822415,1.8688791,-1.0051053,-0.5835066,-1.4548278,0.05361784,1.1416941,-0.7026949,0.38939723,0.21128744,-0.5123749,-0.38840485,0.71131307,-0.62207234,0.06731091,-0.6125061,-0.48299026,-0.4059658,0.6628912,0.97942084,0.05618427,0.19328023,0.014862874,-0.743122,0.35352826,-0.5247432,0.0,1.0,0.0,0.0,0.0,0.0,0.0,-0.1376251,-0.01159516,-0.16131306,1.8499494,-0.5774498,18.360556,-1.9799232,-0.04326105,-0.7544875,0.08111596
26.778873,69.371284,25.188274,10.89227,0.64505565,0.06677817,0.3302094,-0.28076825,-0.8184773,0.17611085,0.5952602,-0.38156593,0.3893331,0.25471604,0.18930969,-1.0208985,-2.2733488,-0.9935582,2.044085,1.9078124,-0.9796336,0.21182856,-0.953641,-2.2891634,-1.0419631,2.0756052,1.8726633,-1.003009,-0.54691595,-1.4608396,0.2229966,1.1022921,-0.6524046,0.3748673,0.20906733,-0.5182457,-0.3878498,0.70530075,-0.5763237,0.051825672,-0.599461,-0.49007797,-0.4025898,0.65781343,0.9796952,0.055383675,0.19236049,0.011289935,-0.69410086,0.33544764,-0.50530374,0.0,1.0,0.0,0.0,0.0,0.0,0.0,-0.13175428,-0.012150198,-0.15530074,3.5540462,-0.7317543,17.326912,-3.9044142,4.5276165,-1.4112592,-0.19887686
24.22192,64.39949,22.163126,9.259924,0.5779326,-0.12508288,0.30952108,-0.26789704,-0.8153228,0.19072904,0.5463032,-0.33528382,0.34259033,0.2560421,0.18503885,-1.0351733,-2.2700903,-0.98733276,2.0420768,1.9069223,-0.9774048,0.20664608,-0.9682618,-2.2860663,-1.0313987,2.0695908,1.8762739,-1.0009356,-0.50897056,-1.462954,0.33944902,1.0413436,-0.58588535,0.35658792,0.20674701,-0.5237045,-0.38744545,0.69932073,-0.536785,0.036996555,-0.59956044,-0.4967308,-0.39941025,0.6528204,0.9800812,0.054032777,0.19092806,0.0082318885,-0.6537653,0.31542367,-0.50046086,0.0,1.0,0.0,0.0,0.0,0.0,0.0,-0.12629545,-0.012554556,-0.14932072,3.7143707,-0.33459663,11.937934,-6.0222864,6.252992,-1.7833292,-0.20030439
18.890099,65.86755,21.05966,11.420564,0.98225677,-0.08579761,0.19794029,-0.26927784,-0.8117974,0.27453345,0.54004437,-0.24966733,0.3217781,0.27043724,0.1797183,-1.0494416,-2.2586129,-0.9773942,2.044624,1.9084517,-0.97389185,0.20175426,-0.98287207,-2.2818704,-1.0213803,2.0644157,1.8796979,-0.9988729,-0.4826979,-1.4607711,0.44706333,0.9889696,-0.49594533,0.3379144,0.20626222,-0.5287857,-0.38716698,0.6933602,-0.49990416,0.025161905,-0.5975121,-0.5030556,-0.39635658,0.64791036,0.9805901,0.052149303,0.1889247,0.005557864,-0.6239465,0.30445707,-0.49072295,0.0,1.0,0.0,0.0,0.0,0.0,0.0,-0.12121427,-0.012833029,-0.1433602,2.597946,0.103616714,10.9582,-5.1264167,8.680784,-1.7954051,0.014048815
23.996326,62.496338,20.86746,8.33447,0.8978921,-0.349222,0.22711991,-0.21538289,-0.81299686,0.29626715,0.4754135,-0.057684653,0.22243635,0.27616778,0.18021597,-1.0641718,-2.2522438,-0.9738389,2.0586472,1.9019415,-0.9712561,0.19727775,-0.9974585,-2.2768364,-1.012042,2.0605803,1.8828793,-0.99681056,-0.43616137,-1.4582697,0.52300847,0.9159129,-0.34705034,0.31162897,0.20645823,-0.5335274,-0.3870182,0.68735576,-0.46654293,0.011584272,-0.6038002,-0.5091057,-0.39348984,0.64302844,0.9812599,0.049730543,0.18613264,0.0032496196,-0.59714615,0.28440237,-0.4899722,0.0,1.0,0.0,0.0,0.0,0.0,0.0,-0.1164726,-0.012981802,-0.13735574,4.60034,0.13403893,7.800877,-7.1900845,14.600384,-2.575624,0.085482
15.017949,62.00398,18.629827,11.073066,1.5623221,-0.2578964,0.056645177,-0.23360646,-0.81424993,0.3453017,0.45866,0.12571356,0.22930345,0.27859044,0.17391711,-1.0788835,-2.2423062,-0.96617603,2.0731516,1.9058096,-0.9689515,0.19310789,-1.0120271,-2.2711074,-1.0033675,2.0586028,1.885819,-0.99474174,-0.4105793,-1.456733,0.590029,0.85198367,-0.14855662,0.28835845,0.2073319,-0.53798294,-0.3869648,0.68127966,-0.4396445,0.003751466,-0.61218137,-0.5150223,-0.39068985,0.63817483,0.9821221,0.046685055,0.18236001,0.0011476126,-0.58843327,0.28082684,-0.4864242,0.0,1.0,0.0,0.0,0.0,0.0,0.0,-0.112017035,-0.013035208,-0.13127965,2.5672078,0.05583763,6.7829013,-6.2363625,19.689795,-2.252996,0.20227432
12.2623825,51.7621,13.304648,7.7904973,1.1618389,-0.66117674,0.06280814,-0.18687342,-0.80559725,0.20502195,0.38541037,0.25554633,0.07647798,0.30016482,0.17442055,-1.0925869,-2.2506053,-0.9648265,2.0841575,1.8934667,-0.96472526,0.1893023,-1.026544,-2.2655811,-0.9954922,2.0587149,1.8884362,-0.9926509,-0.3706166,-1.4504892,0.54019266,0.766838,0.063778795,0.25305593,0.20997459,-0.54224396,-0.3869915,0.6749285,-0.4231205,-0.004426966,-0.6467997,-0.5209389,-0.38799667,0.6331288,0.9831563,0.043394625,0.17753825,-0.0008729481,-0.5905142,0.2687272,-0.5134181,0.0,1.0,0.0,0.0,0.0,0.0,0.0,-0.10775602,-0.013008505,-0.124928474,3.9850712,0.5391598,-4.961896,-8.326983,21.192337,-3.4883618,0.38033128
33.72146,54.819588,18.842852,2.0246792,0.29842904,-0.992895,0.29871815,-0.07915021,-0.8000946,0.25447196,0.335818,0.39468127,-0.034171626,0.34632733,0.18138728,-1.1065534,-2.240134,-0.9619104,2.098183,1.8850191,-0.9580182,0.1863166,-1.0409788,-2.2605004,-0.98852813,2.0609858,1.8906467,-0.990501,-0.27489424,-1.4417195,0.49842668,0.6734271,0.28054386,0.21043034,0.21688269,-0.54626465,-0.38717842,0.66831017,-0.3964458,-0.022945423,-0.6709167,-0.5266762,-0.38566017,0.62782097,0.9843475,0.039956886,0.17162943,-0.0025838418,-0.5679225,0.22404093,-0.53934103,0.0,1.0,0.0,0.0,0.0,0.0,0.0,-0.10373533,-0.012821585,-0.11831015,9.475225,0.7615328,-3.9524674,-9.192777,21.504894,-4.2506843,0.76250434
63.78646,56.27957,26.44579,-8.280381,-1.0490978,-1.2647091,0.7338259,0.021753794,-0.80715144,0.35869932,0.19339035,0.48554274,-0.11379141,0.32088596,0.18849197,-1.121694,-2.2246306,-0.9691891,2.10954,1.8792676,-0.9584124,0.1846616,-1.0553774,-2.25529,-0.98295915,2.0652685,1.8924092,-0.98830265,-0.12963237,-1.4396019,0.5303171,0.5184406,0.47642145,0.16483873,0.22082004,-0.5499115,-0.38764954,0.6615183,-0.35555145,-0.054805096,-0.686338,-0.5318947,-0.38409805,0.6222244,0.9857065,0.036213137,0.16449797,-0.0034276668,-0.504669,0.13637812,-0.56897396,0.0,1.0,0.0,0.0,0.0,0.0,0.0,-0.10008848,-0.01235047,-0.111518264,14.349449,0.052309036,3.6132932,-15.398682,19.262718,-4.5629444,0.42495131
68.09038,59.217453,28.612331,-9.783744,-1.297287,-1.1143831,0.85366637,0.04738073,-0.8045263,0.4239856,0.09981777,0.5603405,-0.073619395,0.33954722,0.18939967,-1.13583,-2.2128916,-0.9729774,2.1213026,1.8850473,-0.9543479,0.18436696,-1.0697645,-2.2493436,-0.97913814,2.07129,1.8937885,-0.9860555,0.003504885,-1.4388051,0.6175498,0.33722162,0.64295256,0.12899314,0.22618806,-0.55311584,-0.3884449,0.65462315,-0.31024912,-0.087394625,-0.6946752,-0.5363884,-0.38342285,0.61636484,0.9872168,0.031999525,0.1561068,-0.0031061568,-0.42994726,0.04576151,-0.59425294,0.0,1.0,0.0,0.0,0.0,0.0,0.0,-0.09688413,-0.011555105,-0.10462314,13.190286,-0.08890629,9.071088,-17.982805,16.39372,-3.5592108,0.59933066
57.582005,64.582794,28.144535,-5.261302,-0.90029836,-0.7432493,0.7575044,0.05899794,-0.79751444,0.4893044,0.04329047,0.6010944,0.025177363,0.3735917,0.19026674,-1.149516,-2.2004132,-0.9748091,2.1313994,1.8963062,-0.9486963,0.18511443,-1.0841173,-2.242264,-0.97702587,2.0786805,1.8949276,-0.9837317,0.09840811,-1.4346968,0.73879653,0.17000091,0.77056,0.109220825,0.23478529,-0.5558739,-0.38952065,0.64771754,-0.26548266,-0.113817155,-0.69289327,-0.5401802,-0.38350677,0.61034596,0.9888191,0.027200436,0.1466084,-0.0016531432,-0.36052263,-0.025215901,-0.6072053,0.0,1.0,0.0,0.0,0.0,0.0,0.0,-0.094126105,-0.010479361,-0.09771752,9.4712305,0.26271343,12.270105,-16.5254,12.656713,-1.8682867,0.96104145
26.30446,70.37398,22.972647,6.2531137,0.29714057,-0.16057129,0.37661242,0.014029146,-0.7772749,0.505897,0.023613842,0.626443,0.14677131,0.39307067,0.18651734,-1.1618447,-2.1916742,-0.9746645,2.1413248,1.9096048,-0.9444246,0.18624958,-1.0983347,-2.2341013,-0.97621757,2.0870523,1.8959973,-0.9813111,0.11890451,-1.4176226,0.84150624,0.05187509,0.85992515,0.106705524,0.24505301,-0.5582504,-0.39074707,0.6408792,-0.22986846,-0.12520552,-0.68382037,-0.5434952,-0.38393593,0.60430586,0.9904219,0.021848267,0.1363333,0.00050807465,-0.32115492,-0.048042487,-0.6055815,0.0,1.0,0.0,0.0,0.0,0.0,0.0,-0.09174955,-0.009252936,-0.0908792,2.1596625,1.6313076,10.097837,-11.583223,9.11256,-0.090397894,1.2068987
29.261568,61.504166,20.586462,-0.4324516,-0.49786702,-0.22265296,0.6204298,0.05011016,-0.77805007,0.54252225,-0.21918103,0.65545094,0.14043385,0.39837655,0.1912606,-1.1761397,-2.1798491,-0.9981357,2.1525974,1.9100406,-0.9414734,0.18748537,-1.1123937,-2.225038,-0.9772755,2.0961177,1.8970613,-0.97878987,0.12552743,-1.4024053,0.9271786,-0.1574155,0.92271906,0.10672243,0.25521177,-0.5602989,-0.39209747,0.6339459,-0.19719988,-0.13813627,-0.6994595,-0.5463257,-0.38467026,0.5980697,0.99198306,0.016202344,0.1252794,0.0034609465,-0.26971707,-0.08111595,-0.6321842,0.0,1.0,0.0,0.0,0.0,0.0,0.0,-0.08970106,-0.007902533,-0.08394587,0.7837117,1.4290094,8.301056,-20.66217,6.5064073,0.12797564,1.2471706
-13.047483,54.368156,9.908477,8.542525,0.861103,0.39003816,0.27837536,-0.121346146,-0.7745108,0.5580769,-0.33574784,0.68281204,0.12955594,0.43335798,0.17535076,-1.1898448,-2.1692305,-1.0108503,2.164399,1.9100169,-0.9354541,0.1878864,-1.126317,-2.215341,-0.9806285,2.1056702,1.8981146,-0.9761509,0.012341595,-1.3889899,0.98211366,-0.39370635,0.967369,0.10540829,0.26785767,-0.5621567,-0.39343834,0.62668407,-0.1823816,-0.13250111,-0.73721737,-0.54896545,-0.38529015,0.591462,0.9934673,0.01057698,0.11341588,0.0068967277,-0.25975013,-0.05493186,-0.6724564,0.0,1.0,0.0,0.0,0.0,0.0,0.0,-0.0878433,-0.0065616667,-0.07668406,-11.100986,1.3240814,4.8752427,-23.37088,4.918146,0.030332804,1.5794814
-14.232186,58.395733,10.881706,11.175742,0.9857507,0.35374963,0.17364109,-0.09335971,-0.7649536,0.57787144,-0.35978183,0.71840596,0.06612499,0.47686076,0.17855044,-1.2028124,-2.157554,-1.0166067,2.1775107,1.9047271,-0.9284648,0.18726104,-1.1401014,-2.2052405,-0.9859673,2.1156316,1.8991091,-0.9733624,-0.08673855,-1.3748887,1.0172815,-0.57961977,1.0074444,0.097969346,0.2835749,-0.5638695,-0.39471626,0.61913043,-0.16789971,-0.12604024,-0.7632814,-0.5515251,-0.3856449,0.58452487,0.9948306,0.005054014,0.10086811,0.0105876755,-0.25388026,-0.028028864,-0.7024988,0.0,1.0,0.0,0.0,0.0,0.0,0.0,-0.0861305,-0.005283743,-0.06913042,-9.680128,1.4174938,2.8690338,-18.31051,4.510069,-0.57318807,1.9053817
