Afshin1997/kuka_rl_ros2/src/catch_and_throw/input_files/idealpd/polynomial_regressor/optimizer_files/env_208_data.csv
torque0,torque1,torque2,torque3,torque4,torque5,torque6,action0,action1,action2,action3,action4,action5,action6,set_target_0,set_target_1,set_target_2,set_target_3,set_target_4,set_target_5,set_target_6,joint_pos_0,joint_pos_1,joint_pos_2,joint_pos_3,joint_pos_4,joint_pos_5,joint_pos_6,joint_vel_0,joint_vel_1,joint_vel_2,joint_vel_3,joint_vel_4,joint_vel_5,joint_vel_6,tennisball_pos_0,tennisball_pos_1,tennisball_pos_2,tennisball_lin_vel_0,tennisball_lin_vel_1,tennisball_lin_vel_2,end_effector_pos_0,end_effector_pos_1,end_effector_pos_2,end_effector_rot_0,end_effector_rot_1,end_effector_rot_2,end_effector_rot_3,end_effector_lin_vel_0,end_effector_lin_vel_1,end_effector_lin_vel_2,obs_task_0,obs_task_1,obs_task_2,obs_task_3,obs_task_4,obs_task_5,obs_task_6,to_final_target_0,to_final_target_1,to_final_target_2,joint_acc_0,joint_acc_1,joint_acc_2,joint_acc_3,joint_acc_4,joint_acc_5,joint_acc_6
0.0,0.0,0.0,0.0,0.0,0.0,0.0,0.0,0.0,0.0,0.0,0.0,0.0,0.0,1.7802359,-1.0646509,-1.8151424,-1.1170107,1.9373155,1.1170107,-0.91629785,1.7802359,-1.0646509,-1.8151424,-1.1170107,1.9373155,1.1170107,-0.91629785,0.0,0.0,0.0,0.0,0.0,0.0,0.0,3.0962143,-0.6159816,0.10954161,-4.027246,-0.053648323,4.9325204,0.5304165,-0.4544952,0.693097,0.5745483,0.17512383,0.15255436,0.7848268,0.0,0.0,0.0,1.0,0.0,0.0,0.0,0.0,0.0,0.0,-3.7462144,0.21598157,0.44045842,0.0,0.0,0.0,0.0,0.0,0.0,0.0
0.0,0.0,0.0,0.0,0.0,0.0,0.0,0.0,0.0,0.0,0.0,0.0,0.0,0.0,1.7802359,-1.0646509,-1.8151424,-1.1170107,1.9373155,1.1170107,-0.91629785,1.7802359,-1.0646509,-1.8151424,-1.1170107,1.9373155,1.1170107,-0.91629785,0.0,0.0,0.0,0.0,0.0,0.0,0.0,3.0962143,-0.6159816,0.10954161,-4.027246,-0.053648323,4.9325204,0.5304165,-0.4544952,0.693097,0.5745483,0.17512383,0.15255436,0.7848268,0.0,0.0,0.0,1.0,0.0,0.0,0.0,0.0,0.0,0.0,-3.7462144,0.21598157,0.44045842,0.0,0.0,0.0,0.0,0.0,0.0,0.0
0.0,0.0,0.0,0.0,0.0,0.0,0.0,0.0,0.0,0.0,0.0,0.0,0.0,0.0,1.7802359,-1.0646509,-1.8151424,-1.1170107,1.9373155,1.1170107,-0.91629785,1.7802359,-1.0646509,-1.8151424,-1.1170107,1.9373155,1.1170107,-0.91629785,0.0,0.0,0.0,0.0,0.0,0.0,0.0,3.0962143,-0.6159816,0.10954161,-4.027246,-0.053648323,4.9325204,0.5304165,-0.4544952,0.693097,0.5745483,0.17512383,0.15255436,0.7848268,0.0,0.0,0.0,1.0,0.0,0.0,0.0,0.0,0.0,0.0,-3.7462144,0.21598157,0.44045842,0.0,0.0,0.0,0.0,0.0,0.0,0.0
-176.0,34.60462,-20.136185,110.0,10.35228,3.4550714,-3.8929815,-0.78994995,0.18089223,-0.57941127,0.74895114,-0.11269183,0.6807194,-0.56915855,1.7012409,-1.0465617,-1.8730835,-1.0421156,1.9260463,1.1850827,-0.97321373,1.7793032,-1.0632166,-1.82149,-1.1107126,1.940104,1.1224638,-0.9164495,-0.123796575,0.19069427,-0.8463667,0.8404175,0.37155768,0.7257635,-0.019738141,3.0559711,-0.61651754,0.15809335,-4.0232196,-0.053594686,4.8294024,0.5283756,-0.45808482,0.69357413,0.5783603,0.17346339,0.15163802,0.7825699,-0.27169225,-0.47886145,0.06338221,1.0,0.0,0.0,0.0,0.0,0.0,0.0,-3.7059712,0.21651754,0.39190668,-12.232963,18.889318,-84.6316,84.23571,37.042366,72.195175,-1.8129755
-176.0,-54.443836,-53.22821,102.27698,10.678694,0.3821256,-3.2261374,-0.7872952,-0.30281833,-0.56093854,0.7068966,-0.0636691,0.65840816,-0.5390124,1.7005737,-1.0934983,-1.8775839,-1.040023,1.933737,1.1883047,-0.97035074,1.777968,-1.0623258,-1.8364971,-1.0946985,1.9448037,1.1351668,-0.91505617,-0.13586105,0.050314,-1.7104225,1.8581624,0.49866793,1.4380269,0.19158258,3.01577,-0.61705303,0.20561469,-4.019197,-0.0535411,4.7263875,0.52389336,-0.46699905,0.693595,0.58661956,0.16996942,0.14941719,0.7776003,-0.5083836,-1.0270982,-0.016629921,1.0,0.0,0.0,0.0,0.0,0.0,0.0,-3.66577,0.21705303,0.34438533,-0.9363502,-15.511916,-83.87563,102.7159,11.457909,67.08262,20.900595
-142.9684,88.20557,23.191463,79.68494,6.955444,6.5886464,-1.7110316,-0.7277563,0.10717201,0.12176011,0.66675436,-0.07896139,0.69729245,-0.4174036,1.7051924,-1.0516087,-1.824321,-1.0280231,1.9369075,1.204896,-0.9567965,1.7734476,-1.0617384,-1.8512809,-1.074618,1.9488893,1.1494299,-0.9134397,-0.5570057,0.058879677,-1.3953892,2.0597963,0.37340763,1.4179249,0.15107498,2.975607,-0.61758804,0.25210664,-4.015178,-0.05348757,4.6234756,0.516716,-0.47865582,0.69473284,0.5975115,0.16498327,0.14639883,0.77092665,-0.79490775,-1.2043068,0.1607648,1.0,0.0,0.0,0.0,0.0,0.0,0.0,-3.625607,0.21758804,0.29789338,-42.005245,0.039050728,33.163666,20.705818,-14.084011,-3.333497,-4.2343645
-93.76233,67.34739,26.078041,44.6728,4.8138523,5.856887,-0.011198811,-0.74220437,-0.19344303,0.20473655,0.6726213,0.057554327,0.6813347,-0.47916391,1.6992272,-1.0810827,-1.8308073,-1.0073558,1.9546447,1.2175634,-0.9613561,1.7647425,-1.0623125,-1.8602455,-1.0550543,1.9517198,1.1627527,-0.912425,-0.9752416,-0.0978223,-0.72391295,1.923071,0.24694613,1.3015763,0.08513441,2.9354858,-0.6181226,0.29757026,-4.011164,-0.053434093,4.5206666,0.5071745,-0.49115968,0.69711304,0.6090679,0.15902099,0.14209455,0.7639095,-1.0178633,-1.2543362,0.2669838,1.0,0.0,0.0,0.0,0.0,0.0,0.0,-3.585486,0.21812257,0.25242975,-41.929413,-16.129707,68.96074,-13.325357,-14.434719,-12.271595,-6.565665
-39.029423,118.59563,48.43661,26.355675,2.110948,6.502363,0.4647032,-0.7602843,0.042401146,0.2545915,0.69802856,0.040384408,0.70560205,-0.49755418,1.688714,-1.0580723,-1.8347863,-0.9852514,1.9557582,1.233313,-0.9621804,1.7526003,-1.06327,-1.8623245,-1.0378271,1.9533734,1.1747805,-0.91212076,-1.2947916,-0.09655709,-0.03005458,1.6557332,0.13272251,1.1687832,0.011283212,2.895403,-0.61865664,0.34200656,-4.007154,-0.05338067,4.4179606,0.49590206,-0.5030608,0.7009649,0.6202666,0.15201011,0.13673712,0.75727487,-1.1749747,-1.1566712,0.42508835,1.0,0.0,0.0,0.0,0.0,0.0,0.0,-3.545403,0.21865663,0.20799345,-32.21173,-0.34021586,71.10844,-26.803923,-13.015643,-13.619566,-7.656952
-8.320217,118.4127,44.13019,13.791206,0.32441452,4.646255,0.3350341,-0.77781403,0.11671174,0.11610459,0.6899093,0.08370311,0.69305074,-0.5292717,1.6748189,-1.0515988,-1.850714,-0.9688362,1.9617437,1.2440856,-0.96504796,1.7382818,-1.0635542,-1.8596771,-1.0231768,1.9543118,1.1855856,-0.91251653,-1.4783756,-0.006902371,0.36632708,1.4009702,0.077925995,1.0510633,-0.057344384,2.855362,-0.61918974,0.3854166,-4.0031476,-0.0533273,4.3153577,0.48363686,-0.5137539,0.7060357,0.6309124,0.14427246,0.13112283,0.75096047,-1.2543813,-1.0289147,0.53255796,1.0,0.0,0.0,0.0,0.0,0.0,0.0,-3.505362,0.21918973,0.16458341,-18.570496,8.625852,40.642292,-25.591682,-6.3749433,-11.795592,-7.135014
2.635916,129.84402,38.7091,11.880038,-1.4491935,3.0165393,-0.49256837,-0.804583,0.36941472,-0.22047679,0.6816704,-0.03332029,0.67700136,-0.51653355,1.6578236,-1.0266126,-1.8817247,-0.95500976,1.9509798,1.2532858,-0.96416986,1.722901,-1.0616544,-1.8564804,-1.0104967,1.9546285,1.1953474,-0.9135179,-1.5586166,0.2547118,0.30573556,1.2231894,0.015142417,0.9519157,-0.115651235,2.815359,-0.61972284,0.42780134,-3.9991453,-0.053273983,4.212857,0.47101498,-0.5231075,0.71193326,0.64146066,0.13630882,0.12683491,0.74421835,-1.2743108,-0.89296806,0.60640126,1.0,0.0,0.0,0.0,0.0,0.0,0.0,-3.4653592,0.21972284,0.12219867,-8.259177,25.881144,-5.6134224,-17.85891,-6.5868673,-9.734095,-6.1896043
6.6046968,122.19866,31.401905,11.198695,-1.6327745,1.6792142,-0.77655643,-0.8188732,0.47671548,-0.36072168,0.656513,0.1507203,0.647407,-0.50955933,1.6410136,-1.0139829,-1.8925525,-0.94484544,1.9697005,1.2600881,-0.96447384,1.7072226,-1.0568098,-1.8557956,-0.9990412,1.955029,1.2042204,-0.91502184,-1.5716754,0.5604597,-0.010029437,1.1193237,0.048070364,0.8661141,-0.1631647,2.7753983,-0.620255,0.46916187,-3.995147,-0.05322072,4.110459,0.45842075,-0.53131866,0.7183201,0.65226746,0.12862343,0.12459287,0.7365323,-1.2625936,-0.7855677,0.64752084,1.0,0.0,0.0,0.0,0.0,0.0,0.0,-3.4253983,0.22025499,0.080838144,-1.5465498,30.359066,-31.34219,-10.522103,3.1838558,-8.481657,-5.0835133
11.586245,119.23382,30.950846,11.474485,-1.183908,1.4163591,-0.6789522,-0.8194854,0.56901604,-0.3644933,0.6353499,0.29365683,0.6226412,-0.49841586,1.6252741,-0.9999082,-1.8922449,-0.9355062,1.9843947,1.2664845,-0.9648634,1.6916891,-1.0490469,-1.8584278,-0.9882113,1.9563165,1.2123171,-0.91692823,-1.5478961,0.8475776,-0.34673816,1.0700766,0.15528235,0.7902853,-0.20092037,2.7354755,-0.62078714,0.5094992,-3.9911525,-0.05316751,4.008163,0.4459772,-0.53858376,0.725142,0.6633773,0.1213777,0.124162026,0.72786117,-1.2440543,-0.694306,0.6927822,1.0,0.0,0.0,0.0,0.0,0.0,0.0,-3.3854756,0.22078714,0.04050082,2.1411657,28.509653,-33.37673,-5.1710367,10.574451,-7.7018857,-4.096919
17.944254,113.54843,32.001335,10.1411495,-0.78192675,1.5494952,-0.4062409,-0.806791,0.63205785,-0.343323,0.60666627,0.32491237,0.64248997,-0.5125916,1.6110101,-0.9858411,-1.89276,-0.92754465,1.9888077,1.2765661,-0.9681874,1.6765314,-1.0388902,-1.8636634,-0.9776913,1.9587502,1.2197558,-0.9191703,-1.5058684,1.0711515,-0.5809034,1.0448079,0.27209863,0.7274613,-0.2331158,2.6955948,-0.62131834,0.5488143,-3.9871624,-0.053114355,3.9059699,0.43371773,-0.5449605,0.732465,0.6746209,0.11443365,0.124978796,0.718451,-1.2251996,-0.60545397,0.74575657,1.0,0.0,0.0,0.0,0.0,0.0,0.0,-3.345595,0.22131833,0.0011857152,3.9564133,22.169697,-22.987497,-2.8678179,11.474708,-6.545019,-3.5520644
21.734955,105.854614,32.786278,8.818607,-0.2495392,1.805346,-0.064761356,-0.8002898,0.6733511,-0.29997435,0.57216734,0.40197802,0.65538216,-0.5282173,1.5965024,-0.9715551,-1.8936609,-0.9204745,1.9989481,1.2852939,-0.9719921,1.6617838,-1.0270685,-1.8701599,-0.9674231,1.9623952,1.2266546,-0.92170423,-1.4650452,1.2186118,-0.6704511,1.0195882,0.3944913,0.6761692,-0.26126683,2.6557522,-0.62184906,0.5871082,-3.983176,-0.05306125,3.8038788,0.4215927,-0.550467,0.74034953,0.68574816,0.107569546,0.12634401,0.7086715,-1.2124823,-0.51840943,0.80370945,1.0,0.0,0.0,0.0,0.0,0.0,0.0,-3.3057523,0.22184905,-0.037108183,3.8169384,14.581132,-8.385468,-2.8911114,11.98765,-5.45485,-3.1534553
20.85131,96.00961,31.67986,8.753575,0.25927305,1.9542816,0.15537257,-0.7982269,0.6961127,-0.25767466,0.5592528,0.4458321,0.6629664,-0.5383256,1.5819612,-0.95745724,-1.8959273,-0.91149783,2.0069785,1.2929513,-0.9755368,1.6473566,-1.0142931,-1.8766639,-0.9573847,1.9671559,1.2331148,-0.9244918,-1.4360815,1.2967566,-0.6416316,0.99746555,0.5022793,0.63488597,-0.28572795,2.6159515,-0.6223793,0.624382,-3.9791934,-0.0530082,3.7018898,0.40952015,-0.555161,0.74879265,0.696575,0.100593776,0.12767135,0.69883054,-1.2090592,-0.43861765,0.8591798,1.0,0.0,0.0,0.0,0.0,0.0,0.0,-3.2659516,0.2223793,-0.07438201,2.631402,7.6740026,3.530395,-2.5492787,10.521948,-4.450047,-2.78458
19.84433,85.29784,28.929245,7.9539943,0.4313048,1.8439,0.26361132,-0.7871506,0.7092945,-0.23517723,0.5454432,0.45685017,0.66974646,-0.5382984,1.5686415,-0.9433636,-1.9001817,-0.9028404,2.012841,1.3000895,-0.9783217,1.633164,-1.0011095,-1.8824432,-0.9475647,1.972775,1.2392279,-0.927494,-1.4143301,1.3251702,-0.5547081,0.9758573,0.58093613,0.60258543,-0.3061297,2.576189,-0.62290907,0.66063666,-3.9752152,-0.052955203,3.6000028,0.39746475,-0.5591097,0.7576928,0.7070054,0.09341369,0.12866706,0.68910235,-1.2074121,-0.3656217,0.90147096,1.0,0.0,0.0,0.0,0.0,0.0,0.0,-3.2261891,0.22290906,-0.11063665,1.9320726,2.7318,9.332442,-2.4646997,7.647884,-3.476441,-2.3799896
15.260667,78.32829,26.249308,9.086807,0.6114854,1.7582706,0.24821174,-0.79150754,0.72384167,-0.20432469,0.54229677,0.46893087,0.67287165,-0.53307235,1.5540133,-0.9287253,-1.9028757,-0.89333504,2.019668,1.3065151,-0.9808012,1.6190878,-0.9878237,-1.8872097,-0.9379126,1.9789834,1.2450682,-0.9306688,-1.406286,1.3294265,-0.44850773,0.96071255,0.6334408,0.577111,-0.3223556,2.5364666,-0.62343836,0.69587326,-3.9712408,-0.05290226,3.4982178,0.38537598,-0.5623975,0.7669479,0.71703947,0.085991666,0.12925135,0.67952466,-1.2117012,-0.30164373,0.9343458,1.0,0.0,0.0,0.0,0.0,0.0,0.0,-3.1864667,0.22343835,-0.14587325,0.58448315,0.32877922,11.233568,-1.7800808,5.060637,-2.7560592,-1.9496918
14.60246,74.95206,24.613098,8.828616,0.53596693,1.6255431,0.24016477,-0.7827678,0.7377364,-0.17436393,0.52697325,0.48916748,0.67899156,-0.5256133,1.5408111,-0.9140501,-1.904646,-0.8852153,2.0279002,1.3129673,-0.9832301,1.6050707,-0.9745362,-1.8909652,-0.9284264,1.9855981,1.2506968,-0.93397707,-1.400826,1.3282132,-0.34933984,0.94377375,0.6702977,0.5576174,-0.3347808,2.4967842,-0.6239667,0.73009276,-3.9672701,-0.052849367,3.3965344,0.37325764,-0.56505585,0.7764738,0.7266859,0.07832886,0.12946896,0.67009693,-1.2136145,-0.2390535,0.9588535,1.0,0.0,0.0,0.0,0.0,0.0,0.0,-3.1467843,0.22396669,-0.18009275,0.34246445,-0.2052784,10.492259,-1.9457936,3.5269022,-2.1064997,-1.5622556
15.012297,74.04741,24.121162,8.276799,0.4735037,1.5857227,0.28197438,-0.7855146,0.741997,-0.106301144,0.4962263,0.521381,0.67872006,-0.52599794,1.5265193,-0.9003365,-1.9015954,-0.87880373,2.0377362,1.3185688,-0.98657686,1.591065,-0.9612677,-1.8936756,-0.9192091,1.9925542,1.2561613,-0.9373922,-1.4011319,1.326174,-0.24311364,0.91359496,0.7036144,0.5423235,-0.34480187,2.45714,-0.624495,0.7632962,-3.9633038,-0.052796528,3.2949529,0.36113358,-0.56706953,0.7862168,0.7359161,0.07042841,0.12934078,0.66086185,-1.2130909,-0.1738668,0.9791823,1.0,0.0,0.0,0.0,0.0,0.0,0.0,-3.10714,0.22449502,-0.21329618,-0.23186207,-0.2794981,11.195737,-3.2598257,3.1822324,-1.6451359,-1.3168454
17.430134,76.69378,25.189337,7.743607,0.39894915,1.6549145,0.3484421,-0.78423005,0.74914986,-0.017853025,0.4704401,0.54640657,0.67434734,-0.51987994,1.512642,-0.8863527,-1.8954608,-0.8721651,2.047195,1.3235961,-0.9893802,1.577048,-0.9479859,-1.8951747,-0.9103695,1.9998326,1.2614924,-0.9408893,-1.4027083,1.3285677,-0.116831765,0.87328714,0.7355537,0.52982,-0.352387,2.4175377,-0.6250224,0.79548454,-3.9593413,-0.05274374,3.1934729,0.34904003,-0.5683732,0.79619026,0.7446756,0.062247325,0.12885006,0.6519058,-1.2087854,-0.10099184,1.0025239,1.0,0.0,0.0,0.0,0.0,0.0,0.0,-3.0675378,0.2250224,-0.24548453,-0.35932064,0.16593933,13.217953,-4.25508,3.0448437,-1.3391852,-1.074785
15.936521,75.40423,23.650639,8.38115,0.28866333,1.4820583,0.2570289,-0.7806945,0.7619019,-0.018679736,0.47230718,0.53587013,0.6800117,-0.5022091,1.4989785,-0.8717957,-1.8970428,-0.8631388,2.0534196,1.3294935,-0.9911102,1.5630289,-0.9346154,-1.8956935,-0.9018532,2.0073285,1.2667204,-0.94443697,-1.4022563,1.3396921,-0.028458541,0.8437428,0.7541581,0.5204942,-0.35649902,2.3779736,-0.6255498,0.8266589,-3.9553826,-0.05269101,3.0920944,0.33700275,-0.568975,0.8063577,0.7530049,0.053801823,0.12813042,0.6431731,-1.2016437,-0.031722613,1.0200464,1.0,0.0,0.0,0.0,0.0,0.0,0.0,-3.0279737,0.22554979,-0.2766589,-0.13465881,1.0479927,9.3474,-3.160715,1.7571211,-0.989151,-0.70257187
13.679679,69.94429,20.649902,8.170389,0.19947594,1.1548126,0.18805146,-0.7824371,0.7652504,-0.028047912,0.45107853,0.5619715,0.6812855,-0.48967677,1.4847852,-0.85809034,-1.8984983,-0.85674536,2.0635257,1.334849,-0.9934046,1.5490099,-0.9211199,-1.8956954,-0.8936335,2.0150228,1.271876,-0.9480066,-1.4023191,1.352632,0.010741999,0.8141097,0.77468204,0.51366776,-0.35794765,2.3384495,-0.6260762,0.8568202,-3.9514282,-0.05263833,2.990817,0.32505894,-0.568954,0.816599,0.76096696,0.04520322,0.12733124,0.634565,-1.1912276,0.027943961,1.0234666,1.0,0.0,0.0,0.0,0.0,0.0,0.0,-2.9884496,0.22607622,-0.3068202,-0.1688242,1.2483358,4.3381677,-3.1736732,2.0004034,-0.68826675,-0.40698647
11.488739,64.26911,17.766068,8.181655,0.11219108,0.8434172,0.09962551,-0.7788415,0.76670074,-0.043585878,0.44577336,0.5555765,0.687299,-0.48504373,1.4711257,-0.8444499,-1.900054,-0.8490561,2.0705805,1.3406059,-0.9965109,1.5350081,-0.907511,-1.8956401,-0.8856503,2.0228658,1.2769781,-0.95158094,-1.3998933,1.3635459,0.005066926,0.7923946,0.78702104,0.50928324,-0.35801482,2.2989655,-0.6266022,0.8859695,-3.9474776,-0.052585702,2.8896413,0.31323338,-0.56841373,0.82678604,0.76863414,0.036570728,0.12659653,0.62596923,-1.177878,0.07739375,1.0147109,1.0,0.0,0.0,0.0,0.0,0.0,0.0,-2.9489655,0.22660217,-0.3359695,0.09753704,1.0628223,-0.23430568,-2.3902059,1.2284279,-0.4038334,-0.24531484
10.551671,60.54417,16.198856,7.8230205,0.081174254,0.6687125,0.094348535,-0.783835,0.7657285,-0.030948972,0.42042127,0.5646938,0.68186504,-0.48183668,1.4566246,-0.83093816,-1.898735,-0.84360814,2.0793352,1.3451647,-0.9997646,1.5210081,-0.8938296,-1.8957183,-0.8779255,2.0308118,1.2820421,-0.95515054,-1.4005623,1.3695904,-0.011055954,0.7651244,0.7976133,0.505653,-0.3573755,2.2595196,-0.62712765,0.9141078,-3.9435308,-0.052533127,2.7885666,0.3015566,-0.56741476,0.8368325,0.7760316,0.027977876,0.12599063,0.6173479,-1.1624936,0.12156385,0.99867004,1.0,0.0,0.0,0.0,0.0,0.0,0.0,-2.9095197,0.22712764,-0.3641078,-0.2093792,0.58705807,-1.3048494,-2.9548287,1.069665,-0.29996634,-0.16512275
11.731805,59.595467,15.977873,7.032872,0.0063129067,0.59977305,0.13640454,-0.7854307,0.76818424,-0.014558042,0.38920406,0.57032305,0.68600476,-0.48237395,1.4424651,-0.8170112,-1.8971741,-0.8390051,2.0878441,1.3506427,-1.0033879,1.5069872,-0.88010526,-1.8958938,-0.8705584,2.0388532,1.2870795,-0.9587135,-1.4028599,1.3732656,-0.01886888,0.7265828,0.8063101,0.50343907,-0.35674375,2.2201138,-0.62765265,0.94123614,-3.939588,-0.052480604,2.687593,0.2900591,-0.5659671,0.84670097,0.7831382,0.019451844,0.12550959,0.6087392,-1.1429353,0.16648662,0.98006415,1.0,0.0,0.0,0.0,0.0,0.0,0.0,-2.8701138,0.22765264,-0.39123613,-0.37519932,0.35703182,-0.46746805,-4.0858746,0.88175535,-0.1329422,-0.16630292
18.065754,59.400948,16.719473,3.1831117,-0.33679032,0.50251687,0.32318863,-0.785055,0.7676719,0.02566736,0.3022688,0.58237094,0.6808333,-0.47737047,1.4284817,-0.80333805,-1.8933271,-0.8403315,2.0970902,1.3551627,-1.0064505,1.4929472,-0.8663657,-1.8959243,-0.86391604,2.0469975,1.2920996,-0.9622678,-1.4050863,1.3742294,0.0035048933,0.6426381,0.8168368,0.50212264,-0.3558014,2.180748,-0.62817717,0.9673555,-3.9356494,-0.052428134,2.58672,0.27887154,-0.56400156,0.85633254,0.7898282,0.011034796,0.12511949,0.6003289,-1.1074686,0.22019017,0.95466477,1.0,0.0,0.0,0.0,0.0,0.0,0.0,-2.830748,0.22817716,-0.41735548,-0.37772655,0.10051727,2.5881596,-8.637762,1.0540605,0.04477501,-0.14535189
24.446548,61.036255,18.157497,0.010130882,-0.6072105,0.46311092,0.50496554,-0.78319114,0.7687934,0.08248958,0.22343212,0.5960384,0.67141634,-0.4735635,1.4146281,-0.78948635,-1.8876754,-0.8415728,2.1066015,1.3592412,-1.0096241,1.4788977,-0.8526213,-1.895438,-0.85838854,2.055264,1.2971064,-0.9658107,-1.4053917,1.374533,0.06494485,0.5220434,0.8301782,0.5009834,-0.35463008,2.1414204,-0.62870073,0.9924668,-3.9317145,-0.052375715,2.485948,0.2681427,-0.5614276,0.86569786,0.7959574,0.002741231,0.12475396,0.59235185,-1.057496,0.2827075,0.9274323,1.0,0.0,0.0,0.0,0.0,0.0,0.0,-2.7914205,0.22870073,-0.4424668,-0.18360615,0.048661232,6.5095754,-12.292564,1.337564,0.13674498,-0.123780966
37.612556,60.05777,18.973394,-9.08627,-1.5179303,0.13073462,0.8639499,-0.7810738,0.7778657,0.13006994,0.013500945,0.62280405,0.6682465,-0.45695913,1.4007903,-0.77483475,-1.8824309,-0.85703844,2.1175444,1.3639311,-1.0115067,1.4648596,-0.83883405,-1.8941524,-0.85485995,2.063725,1.3021113,-0.9693307,-1.4036207,1.3803151,0.15091787,0.29560524,0.8515368,0.50188893,-0.35183287,2.1021328,-0.6292243,1.0165712,-3.9277835,-0.05232335,2.3852768,0.25820065,-0.5581131,0.87463254,0.8012768,-0.0052601835,0.124426104,0.5851888,-0.968764,0.359474,0.8787803,1.0,0.0,0.0,0.0,0.0,0.0,0.0,-2.752133,0.2292243,-0.46657115,0.032424927,0.6306648,8.9501705,-22.87799,2.1595955,0.5530834,0.054121017
38.869385,58.989105,18.523876,-10.091291,-1.6420653,-0.0618746,0.9011933,-0.7821371,0.7838359,0.15715617,-0.06886341,0.62876725,0.6603647,-0.42481646,1.3866459,-0.7604505,-1.8784368,-0.8617463,2.1266017,1.3681477,-1.0118123,1.4508387,-0.82496095,-1.8920219,-0.8536869,2.0723958,1.3071238,-0.9727983,-1.4017386,1.389886,0.23443383,0.057193764,0.8725902,0.50264317,-0.34556893,2.0628853,-0.6297469,1.0396696,-3.9238565,-0.052271035,2.2847064,0.24919796,-0.55405664,0.8830572,0.80571634,-0.0128701115,0.124178015,0.57899505,-0.8723105,0.4313457,0.8264433,1.0,0.0,0.0,0.0,0.0,0.0,0.0,-2.7128854,0.22974691,-0.48966962,0.08735657,1.0320187,8.575832,-24.028032,2.203083,0.582093,0.4535854
35.35323,57.824512,17.78363,-7.273979,-1.363241,-0.14588526,0.79722637,-0.7731337,0.7828533,0.18964522,-0.114507794,0.6277245,0.6638335,-0.37307268,1.3735253,-0.7466756,-1.8730574,-0.8651377,2.1351683,1.3735071,-1.0101056,1.4368788,-0.8110068,-1.8891227,-0.8545853,2.0812383,1.3121439,-0.97616476,-1.3941234,1.3975163,0.30874342,-0.13931412,0.88861656,0.50343907,-0.33411366,2.023676,-0.6302695,1.0617632,-3.9199336,-0.052218772,2.1842363,0.24108982,-0.5493536,0.8910097,0.809364,-0.02011619,0.124016754,0.5737115,-0.784087,0.49196962,0.78065294,1.0,0.0,0.0,0.0,0.0,0.0,0.0,-2.673676,0.23026952,-0.51176316,0.71098804,0.8555174,7.501787,-19.79198,1.7853498,0.55207014,1.0186017
31.249561,60.21962,18.479828,-3.1561718,-0.9314696,-0.015676871,0.71050835,-0.77276826,0.7874347,0.266375,-0.17222343,0.63438267,0.6588069,-0.31289274,1.359602,-0.7322633,-1.8624852,-0.87180763,2.1446764,1.3780246,-1.007454,1.4229952,-0.7969773,-1.8853481,-0.8570982,2.090222,1.317166,-0.97937673,-1.3866048,1.4051244,0.40029275,-0.28903347,0.90224665,0.5030643,-0.3171937,1.9845057,-0.6307912,1.0828527,-3.9160144,-0.052166563,2.0838666,0.23375511,-0.54406834,0.8986212,0.81231827,-0.027129482,0.12387539,0.56926084,-0.71033764,0.54806805,0.7500549,1.0,0.0,0.0,0.0,0.0,0.0,0.0,-2.6345057,0.23079118,-0.5328527,0.72853565,0.8651972,9.11212,-15.07262,1.6282678,0.3780365,1.5939474
32.06074,62.84985,19.74105,-2.1183352,-0.86631876,0.04823544,0.73341733,-0.7585894,0.7925624,0.34472755,-0.25608546,0.6197648,0.655383,-0.2170433,1.3471363,-0.71772105,-1.8508754,-0.88270676,2.1521983,1.3827043,-1.0010811,1.4092375,-0.7828686,-1.8804977,-0.8609568,2.0992665,1.3221804,-0.9823579,-1.3719803,1.41325,0.5128204,-0.41823813,0.9059997,0.5022972,-0.29196942,1.9453745,-0.6313124,1.1029392,-3.9120991,-0.052114405,1.9835974,0.2271471,-0.5381923,0.9059939,0.8145932,-0.034023434,0.123715706,0.56566304,-0.6372753,0.6070579,0.72803825,1.0,0.0,0.0,0.0,0.0,0.0,0.0,-2.5953746,0.23131236,-0.55293924,1.47686,0.9318352,11.102003,-12.978994,0.71926117,0.34406185,2.447337
29.938454,61.970505,19.575596,-0.58490753,-0.70316494,0.04177276,0.7305109,-0.75694656,0.789174,0.4131137,-0.31532535,0.60711116,0.6405685,-0.08128118,1.3335428,-0.70395124,-1.8391863,-0.8924893,2.1599777,1.3862373,-0.990486,1.3956152,-0.76871324,-1.8744342,-0.86595976,2.1082807,1.3271757,-0.98500055,-1.3587666,1.4167128,0.63664806,-0.52771515,0.901257,0.49992093,-0.25523585,1.9062834,-0.6318331,1.1220239,-3.9081876,-0.0520623,1.8834282,0.22122669,-0.53174734,0.9131766,0.8161935,-0.04085629,0.12352239,0.5629397,-0.5697941,0.6625336,0.7096568,1.0,0.0,0.0,0.0,0.0,0.0,0.0,-2.5562835,0.23183307,-0.5720239,1.358819,0.47459602,12.153077,-10.982734,-0.07754564,0.17288923,3.6176562
19.085243,59.202415,17.965096,6.9247417,0.061625957,0.17176108,0.50658244,-0.7537688,0.7761936,0.45415607,-0.2425186,0.5643382,0.65036,0.16011402,1.3202384,-0.69109386,-1.8290186,-0.89021164,2.1647146,1.3922117,-0.96898913,1.3821074,-0.7546046,-1.8672245,-0.87136424,2.1171079,1.3321482,-0.98712057,-1.348113,1.4093729,0.74791014,-0.54491323,0.87811613,0.49760285,-0.19778575,1.8672304,-0.6323533,1.1401076,-3.9042804,-0.052010246,1.7833592,0.21574593,-0.5248532,0.92029387,0.81725776,-0.047776725,0.12328122,0.56090003,-0.5334515,0.7033559,0.70666,1.0,0.0,0.0,0.0,0.0,0.0,0.0,-2.5172305,0.2323533,-0.5901076,1.0885,-0.5978346,10.841203,-1.787746,-1.8744707,0.07587075,5.679867
-9.428826,60.695602,15.847392,28.582682,2.1260402,0.8618113,-0.25178725,-0.76973635,0.7749012,0.4489816,0.07728138,0.49360493,0.6653547,0.35718632,1.3051337,-0.6771145,-1.8223263,-0.8636361,2.1664684,1.3986837,-0.95140195,1.3685881,-0.7405865,-1.8592479,-0.8751465,2.1255002,1.3370978,-0.9885568,-1.3532885,1.3997638,0.8132736,-0.32330003,0.82816154,0.4940618,-0.12582824,1.8282175,-0.63287306,1.1571913,-3.900377,-0.051958244,1.6833901,0.20996952,-0.5177336,0.9277813,0.8182692,-0.05526792,0.122960664,0.5588037,-0.5845734,0.7197647,0.75671476,1.0,0.0,0.0,0.0,0.0,0.0,0.0,-2.4782176,0.23287305,-0.60719126,-0.60544014,-0.80759525,6.231749,21.98137,-4.4929504,-0.34494996,7.0914774
-39.32923,55.46227,10.956202,49.212475,4.052558,1.3456105,-1.116093,-0.79335356,0.7621191,0.3702802,0.42137602,0.4006816,0.67582536,0.42566252,1.2892528,-0.6643746,-1.8222198,-0.8330089,2.1655684,1.4046803,-0.94599056,1.3548723,-0.72671247,-1.8512866,-0.8749987,2.1331563,1.3420054,-0.9892759,-1.3780621,1.3838054,0.78919715,0.1266206,0.74634236,0.48859867,-0.054320827,1.7892427,-0.63339233,1.1732762,-3.8964775,-0.051906295,1.5835211,0.20303535,-0.5106826,0.93606496,0.8198639,-0.063806474,0.12261015,0.55562454,-0.7215866,0.70572436,0.8460258,1.0,0.0,0.0,0.0,0.0,0.0,0.0,-2.4392428,0.23339233,-0.6232762,-2.648139,-1.4425039,-2.7249336,44.732815,-7.6733947,-0.86404085,7.04526
-42.2169,46.263264,7.0779014,48.205708,3.9133148,1.0429711,-1.2485272,-0.80024743,0.7522389,0.2997145,0.4960175,0.38107705,0.66229755,0.40145457,1.2748476,-0.65148854,-1.8213152,-0.82539696,2.171264,1.4082351,-0.9491304,1.3408839,-0.7130225,-1.8440998,-0.87042487,2.1400228,1.3468462,-0.9893665,-1.4062136,1.3644521,0.6940873,0.567059,0.668252,0.4814284,0.005910246,1.7503071,-0.63391113,1.1883631,-3.8925817,-0.051854398,1.4837519,0.19473362,-0.5038519,0.9450994,0.8222725,-0.07334152,0.12237103,0.5509213,-0.8585538,0.6827664,0.9162468,1.0,0.0,0.0,0.0,0.0,0.0,0.0,-2.4003072,0.23391113,-0.63836306,-2.9321432,-1.8212557,-9.838427,43.8513,-7.364106,-1.0989547,5.975026
-26.794552,43.112595,7.5383167,35.225655,2.655663,0.62867635,-0.81096727,-0.80579895,0.74190015,0.32225612,0.47775552,0.37945324,0.6538501,0.39565283,1.260304,-0.63883245,-1.8118742,-0.8226493,2.177968,1.4122312,-0.9498012,1.3266417,-0.6995394,-1.8377483,-0.8625599,2.1462522,1.3516203,-0.98893255,-1.4304785,1.3431633,0.61487603,0.85922086,0.6089601,0.47533274,0.055719223,1.7114105,-0.634429,1.202453,-3.8886898,-0.051802553,1.3840824,0.1854372,-0.49714231,0.9545543,0.82524633,-0.08352662,0.12231881,0.54500437,-0.945518,0.6762554,0.9487843,1.0,0.0,0.0,0.0,0.0,0.0,0.0,-2.3614106,0.23442897,-0.652453,-2.4945736,-2.066207,-8.122563,29.0951,-5.6046247,-0.85561275,4.936857
-7.950445,40.652683,8.326908,19.503021,1.0495093,0.09784046,-0.28522974,-0.8083019,0.731752,0.3120339,0.44454065,0.33968157,0.6593022,0.3967531,1.2458115,-0.62636423,-1.8065449,-0.8181059,2.1802204,1.4175506,-0.94925725,1.3122164,-0.68627,-1.8320224,-0.85309184,2.1519284,1.3563563,-0.98806757,-1.446833,1.3216572,0.55849105,0.9756374,0.5544004,0.4731847,0.096539356,1.6725521,-0.6349468,1.215547,-3.8848019,-0.05175076,1.2845126,0.17575836,-0.49039388,0.964012,0.82839006,-0.093921036,0.12256825,0.53844744,-0.9676753,0.68544906,0.93830866,1.0,0.0,0.0,0.0,0.0,0.0,0.0,-2.3225522,0.23494682,-0.66554695,-1.710105,-2.1195173,-5.630183,11.514605,-5.2810907,-0.21240711,3.9979367
5.993894,37.743725,8.310518,7.317114,-0.17299813,-0.42563918,0.10546628,-0.8102674,0.7226054,0.2723689,0.41232792,0.32079962,0.6575884,0.41303894,1.2311896,-0.61400944,-1.8047855,-0.8118591,2.1840084,1.4221151,-0.9467637,1.2976843,-0.67320466,-1.8268192,-0.84347594,2.1571317,1.3610903,-0.98683923,-1.4557484,1.301595,0.5080846,0.9563758,0.5090949,0.47403413,0.13130386,1.6337337,-0.6354637,1.227646,-3.880918,-0.05169902,1.1850424,0.16624165,-0.48352647,0.9731151,0.831397,-0.10411894,0.12323957,0.5317427,-0.93852586,0.6987739,0.89455515,1.0,0.0,0.0,0.0,0.0,0.0,0.0,-2.2837338,0.23546371,-0.677646,-0.98700523,-1.983285,-4.880464,-2.0880103,-4.4608235,0.31116605,3.3553572
14.376455,34.66835,7.8051176,-0.33913803,-0.9787588,-0.83625567,0.32828102,-0.8101671,0.70740414,0.24194914,0.3719081,0.25972575,0.6616855,0.42830077,1.2166677,-0.60246426,-1.8026242,-0.80628514,2.1831043,1.4272588,-0.9440092,1.2831103,-0.6603539,-1.8220947,-0.83466303,2.1618085,1.3658453,-0.98529714,-1.4581696,1.2795588,0.46118972,0.8555697,0.45430082,0.47730413,0.16137967,1.5949535,-0.6359806,1.238751,-3.877038,-0.05164733,1.0856715,0.15726852,-0.4765396,0.9816262,0.8340999,-0.113831304,0.12445641,0.5251955,-0.8754264,0.70961803,0.83039576,1.0,0.0,0.0,0.0,0.0,0.0,0.0,-2.2449536,0.2359806,-0.68875104,-0.33533573,-2.175498,-4.467434,-10.259652,-5.466008,0.7002473,2.8708549
18.019402,31.378443,6.741828,-4.2754035,-1.4878192,-1.1631557,0.4016057,-0.8077666,0.6924352,0.19920368,0.32015583,0.15748733,0.6643384,0.4640104,1.2023336,-0.59111035,-1.8021743,-0.8026475,2.1775572,1.4322791,-0.9388961,1.2685515,-0.6477406,-1.8179042,-0.8271395,2.16573,1.3706404,-0.9834661,-1.4551224,1.2554258,0.40569115,0.71726364,0.37176165,0.4816343,0.18992454,1.5562115,-0.63649654,1.2488632,-3.8731618,-0.051595695,0.98640007,0.14907455,-0.4694872,0.9894087,0.83645195,-0.12287585,0.12638496,0.5189185,-0.79229885,0.71379197,0.7551276,1.0,0.0,0.0,0.0,0.0,0.0,0.0,-2.2062116,0.23649654,-0.6988632,0.23436546,-2.3733616,-5.3464947,-14.008093,-8.251554,0.8817196,2.7217298
19.60765,29.397354,6.2054176,-6.0665417,-1.6779213,-1.3645067,0.4479542,-0.80811256,0.6759926,0.1824864,0.24340858,0.09088946,0.663812,0.48613328,1.1877402,-0.58014137,-1.7996556,-0.8027986,2.174819,1.4370216,-0.9348528,1.2540346,-0.6353886,-1.814223,-0.82114756,2.168736,1.3754755,-0.9813661,-1.4505616,1.2286245,0.35622993,0.55926466,0.27727625,0.4857424,0.2162679,1.5175095,-0.637012,1.2579833,-3.8692894,-0.05154411,0.88722783,0.14177704,-0.46243024,0.99641037,0.838446,-0.13115415,0.12910528,0.5129703,-0.7001871,0.7116795,0.67651397,1.0,0.0,0.0,0.0,0.0,0.0,0.0,-2.1675096,0.237012,-0.7079833,0.41155815,-2.6300192,-4.7708216,-15.960932,-9.453088,0.87016225,2.5061548
21.987211,27.11971,6.143696,-8.102146,-1.7008324,-1.5293088,0.57089955,-0.80072576,0.64615107,0.20203851,0.13725878,0.056298885,0.6693572,0.5299806,1.1739621,-0.5707735,-1.7940192,-0.8074217,2.1743658,1.4424112,-0.92836803,1.239596,-0.62338185,-1.810807,-0.8168932,2.1708531,1.3803526,-0.979001,-1.4415036,1.1915878,0.33737135,0.3803257,0.18999873,0.4897756,0.24289472,1.4788456,-0.637527,1.2661126,-3.8654208,-0.05149258,0.7881548,0.1354475,-0.45543122,1.0026064,0.8400352,-0.13862047,0.13252693,0.5075054,-0.6022067,0.7029303,0.59579676,1.0,0.0,0.0,0.0,0.0,0.0,0.0,-2.1288457,0.23752698,-0.71611255,0.90243816,-3.6428452,-1.742351,-18.02789,-8.745008,0.8538306,2.536252
12.666584,31.099613,6.7381873,1.7551537,-0.84646416,-1.171066,0.23621392,-0.7953875,0.6404447,0.16732794,0.23280834,-0.06335222,0.6712045,0.54690343,1.1600573,-0.5593374,-1.7940742,-0.79361236,2.1645179,1.447473,-0.9243106,1.2252642,-0.6117041,-1.8076122,-0.8135773,2.1719327,1.3852583,-0.9763841,-1.43057,1.1601194,0.3136762,0.3149061,0.08114584,0.4918315,0.26758963,1.4402199,-0.6380415,1.2732517,-3.861556,-0.051441096,0.6891808,0.12982178,-0.44848442,1.0082238,0.84136397,-0.14553301,0.13660488,0.50226086,-0.540837,0.69736797,0.54591393,1.0,0.0,0.0,0.0,0.0,0.0,0.0,-2.09022,0.23804149,-0.72325164,1.0903835,-3.0868769,-2.3230433,-6.657261,-10.839144,0.49380064,2.3657858
3.6482897,27.7024,4.605534,8.41123,-0.29208487,-1.1325375,-0.09233144,-0.79226685,0.6226521,0.074066736,0.26144415,-0.17316255,0.6669282,0.5475253,1.1460375,-0.5494389,-1.8002055,-0.7874329,2.1546164,1.4519511,-0.9216316,1.2110335,-0.6003325,-1.8050258,-0.8103272,2.171784,1.3901736,-0.9735479,-1.4205524,1.1296337,0.24026622,0.32795635,-0.046202675,0.492189,0.28864887,1.4016333,-0.6385555,1.2794018,-3.857695,-0.051389664,0.59030575,0.124614716,-0.4416504,1.0134358,0.8426612,-0.15206128,0.14141504,0.4967909,-0.5061177,0.6832664,0.50866276,1.0,0.0,0.0,0.0,0.0,0.0,0.0,-2.0516334,0.23855552,-0.72940177,0.9857416,-2.9864788,-7.365653,1.1653304,-12.63698,0.2544582,2.0077705
-5.937918,19.430462,0.67226255,13.37325,0.2180565,-1.2930546,-0.40387538,-0.8010515,0.603768,-0.06260461,0.28969753,-0.22474353,0.65767616,0.5393837,1.1309283,-0.5399557,-1.8112863,-0.7813574,2.1493096,1.4559412,-0.9196095,1.1968333,-0.5892689,-1.8037593,-0.8065697,2.1704297,1.3950812,-0.9705333,-1.4199826,1.0988488,0.08865066,0.39106825,-0.16459996,0.49093705,0.3052899,1.3630857,-0.6390691,1.2845639,-3.853838,-0.051338285,0.49152958,0.1195631,-0.4350927,1.0182906,0.8441683,-0.15817982,0.14703941,0.49065083,-0.49634558,0.6505202,0.47372133,1.0,0.0,0.0,0.0,0.0,0.0,0.0,-2.0130858,0.23906907,-0.7345639,0.019145012,-3.0174017,-15.240398,6.127751,-11.692333,0.06433129,1.5580237
-13.267809,14.982268,-2.0315645,17.668238,0.53052545,-1.3932216,-0.67587626,-0.805212,0.5993799,-0.2178389,0.3541047,-0.30864143,0.6524488,0.5417898,1.116312,-0.5293309,-1.8255433,-0.77115923,2.1395655,1.4603261,-0.9163543,1.182593,-0.5784533,-1.8045795,-0.8018633,2.1679006,1.3999697,-0.96737474,-1.4256383,1.0759057,-0.13914484,0.49650204,-0.28169227,0.488812,0.3189972,1.3245764,-0.63958216,1.288739,-3.8499851,-0.05128696,0.3928522,0.11448383,-0.4289415,1.0228245,0.846093,-0.16382661,0.1536085,0.48341683,-0.50447845,0.606955,0.44286302,1.0,0.0,0.0,0.0,0.0,0.0,0.0,-1.9745764,0.23958215,-0.73873895,-0.61194897,-2.2457838,-22.906149,10.337114,-11.518892,-0.04557371,1.250428
-6.761593,5.711771,-3.2697153,9.893872,0.123273015,-1.7545301,-0.34257153,-0.7941839,0.5251169,-0.20119144,0.25129172,-0.39201254,0.66458493,0.56395835,1.1031746,-0.5259416,-1.8246987,-0.7767341,2.1286993,1.4664282,-0.9109789,1.1683432,-0.5681336,-1.8072517,-0.7967154,2.1642041,1.4048525,-0.9640817,-1.4247015,1.0174797,-0.31047562,0.5202323,-0.3985328,0.48887584,0.3322226,1.2861052,-0.64009476,1.2919282,-3.846136,-0.051235683,0.29427347,0.109479904,-0.42333126,1.026878,0.8483197,-0.16881183,0.16101283,0.475322,-0.49138096,0.5494119,0.3894965,1.0,0.0,0.0,0.0,0.0,0.0,0.0,-1.9361051,0.24009475,-0.74192816,0.12450218,-5.778408,-17.276701,2.19903,-11.514181,0.25917888,1.1748612
0.42067194,-0.5751524,-3.5207202,2.074946,-0.314444,-2.048966,0.027217394,-0.79420185,0.46540046,-0.20194723,0.15803745,-0.46510375,0.665279,0.565758,1.088923,-0.5215936,-1.8274465,-0.7809116,2.1176937,1.4713804,-0.9075059,1.1541163,-0.5586121,-1.8110912,-0.7920157,2.1593633,1.409741,-0.9606704,-1.4218404,0.9306269,-0.40900597,0.4528727,-0.51213044,0.4898544,0.34345105,1.2476721,-0.6406069,1.2941322,-3.8422909,-0.051184457,0.19579332,0.10478115,-0.41837597,1.0302448,0.8506214,-0.17292021,0.16904728,0.466867,-0.45600182,0.48085457,0.31635606,1.0,0.0,0.0,0.0,0.0,0.0,0.0,-1.897672,0.24060687,-0.7441322,0.37038326,-8.598828,-9.975052,-6.868863,-11.235672,0.4067123,0.95589757
4.165239,-0.6085067,-1.6502701,0.4260068,-0.06978309,-1.9570155,0.26834607,-0.7827933,0.39797762,-0.14520918,0.15298826,-0.5114095,0.66643196,0.56887454,1.0758369,-0.5188143,-1.8256121,-0.7767168,2.1082222,1.4763843,-0.90378296,1.1399733,-0.5501454,-1.8151634,-0.7881266,2.1534925,1.4146391,-0.957159,-1.4112889,0.81900185,-0.40694553,0.3674056,-0.61204743,0.4905369,0.35330114,1.2092772,-0.64111805,1.2953522,-3.8384495,-0.051133282,0.097411625,0.100426674,-0.41408205,1.0329036,0.8528056,-0.17620423,0.17736076,0.45849508,-0.4222261,0.414872,0.24682862,1.0,0.0,0.0,0.0,0.0,0.0,0.0,-1.8592771,0.24111804,-0.7453522,1.1618853,-11.074818,0.11355877,-8.629501,-9.9183445,0.3254354,0.838536
2.568473,-6.1238985,-2.3570395,1.1249804,0.44023716,-1.984169,0.32955906,-0.7790142,0.3152153,-0.13915233,0.13921674,-0.52005833,0.6607025,0.55724233,1.0620718,-0.5186238,-1.8290786,-0.7742049,2.1014867,1.4807093,-0.9014348,1.1259505,-0.5429728,-1.8188808,-0.7850367,2.1468358,1.4195372,-0.95356935,-1.398929,0.6835258,-0.36054006,0.28930965,-0.6833874,0.49000043,0.36053994,1.1709223,-0.6416292,1.2955891,-3.834612,-0.05108216,-0.0008717177,0.096297264,-0.4105022,1.0348865,0.854808,-0.17876224,0.18559124,0.4504479,-0.40447742,0.3407897,0.18017657,1.0,0.0,0.0,0.0,0.0,0.0,0.0,-1.8209223,0.24162921,-0.7455891,1.367116,-13.466263,4.5188546,-7.8637958,-7.06228,0.14454722,0.6017804
-1.1133988,-19.085012,-5.072194,1.7607851,1.0963194,-2.1224012,0.35937148,-0.7658795,0.18369046,-0.08282158,0.12394232,-0.54453874,0.66467273,0.55628145,1.0493625,-0.5246038,-1.827163,-0.77264243,2.092382,1.4860045,-0.89794123,1.1120936,-0.5374949,-1.8218143,-0.7825848,2.1396108,1.4244276,-0.9499168,-1.3807245,0.5027078,-0.27159148,0.23039067,-0.7353952,0.48922652,0.3665391,1.1326056,-0.64213943,1.2948439,-3.8307781,-0.05103109,-0.0990568,0.09217262,-0.407794,1.0361873,0.85663635,-0.18066801,0.19335158,0.4428863,-0.41071805,0.24874035,0.11182073,1.0,0.0,0.0,0.0,0.0,0.0,0.0,-1.7826055,0.24213943,-0.7448439,2.0083427,-18.006277,8.693636,-5.911565,-5.100012,0.068318844,0.50748587
-12.345644,-42.404728,-10.93153,6.265788,2.4522972,-2.2939343,0.21240163,-0.7649176,-0.0058560893,-0.0034627055,0.1847002,-0.52321035,0.66956174,0.53192145,1.0356019,-0.5380805,-1.8221606,-0.76411474,2.0872898,1.4913838,-0.89672464,1.098395,-0.5343754,-1.8235862,-0.7802254,2.1320958,1.4293104,-0.946227,-1.3651989,0.2485747,-0.14693253,0.23794042,-0.756191,0.48812896,0.3695533,1.094327,-0.64264965,1.2931176,-3.8269482,-0.05098007,-0.1971437,0.08758259,-0.40623188,1.0368099,0.8584079,-0.1820598,0.20010747,0.435829,-0.4718811,0.12645173,0.044645898,1.0,0.0,0.0,0.0,0.0,0.0,0.0,-1.744327,0.24264964,-0.74311763,1.8325329,-25.352652,12.119666,0.7869065,-1.9091845,-0.04786253,0.26718378
-22.344213,-102.468544,-26.817469,-2.3183737,3.034737,-3.600875,0.30143732,-0.7304818,-0.34795368,0.02770093,0.092398465,-0.5415652,0.672376,0.5099224,1.0253468,-0.5691708,-1.8208162,-0.77098554,2.0779393,1.496548,-0.89523476,1.0849806,-0.53495526,-1.8241851,-0.778051,2.1244435,1.434178,-0.9425306,-1.3318928,-0.15986975,-0.032633092,0.21088083,-0.76735175,0.48605528,0.36960474,1.0560865,-0.6431589,1.2904112,-3.823122,-0.0509291,-0.29513255,0.082095146,-0.40663052,1.0363282,0.8602941,-0.1825804,0.20524961,0.42945418,-0.5724696,-0.093747556,-0.079668224,1.0,0.0,0.0,0.0,0.0,0.0,0.0,-1.7060865,0.2431589,-0.7404112,3.8166761,-40.76606,10.846894,-2.5998564,-0.83583593,-0.28467774,-0.016486645
-18.70063,-100.687584,-24.915333,-2.8429039,3.1546788,-3.4395676,0.38820344,-0.64780253,-0.5063843,0.15059024,0.12776002,-0.56798637,0.6748846,0.47447628,1.0202004,-0.5855937,-1.8091261,-0.765275,2.0676448,1.5016664,-0.89508295,1.0722414,-0.5397446,-1.8233631,-0.7759539,2.116654,1.4390169,-0.938858,-1.2530016,-0.5850892,0.11898812,0.2099597,-0.78208303,0.48201948,0.3668513,1.0178843,-0.6436677,1.2867256,-3.8192997,-0.050878182,-0.39302343,0.075595856,-0.40915775,1.0346456,0.8622954,-0.18227944,0.20845902,0.42398763,-0.6759649,-0.30340752,-0.19806342,1.0,0.0,0.0,0.0,0.0,0.0,0.0,-1.6678842,0.24366769,-0.7367256,8.319426,-42.474644,14.700013,0.092574954,-1.2989998,-0.71793795,-0.16965866
-0.36014736,-89.40962,-20.977959,-16.920578,1.2261873,-3.6127677,0.865162,-0.56974673,-0.6557709,0.20576748,-0.123129874,-0.63861185,0.689999,0.3998721,1.0152668,-0.6053217,-1.8027864,-0.7882669,2.0527928,1.5080168,-0.89887077,1.0605665,-0.5485184,-1.8210475,-0.7750002,2.108521,1.4438158,-0.93527216,-1.1386561,-0.97480583,0.26921034,0.057432935,-0.8240143,0.47709784,0.35592765,0.9797201,-0.644176,1.2820619,-3.8154812,-0.050827313,-0.49081644,0.06862545,-0.4137168,1.0315517,0.8642169,-0.18095541,0.20993033,0.41989702,-0.7057084,-0.50340337,-0.34700128,1.0,0.0,0.0,0.0,0.0,0.0,0.0,-1.6297201,0.244176,-0.7320619,11.525679,-38.98624,15.081936,-15.196761,-4.291904,-1.0722935,-1.0462105
25.308296,-43.113857,-6.6946015,-26.871166,-0.6944621,-2.882555,1.4569415,-0.51619667,-0.71510816,0.41987696,-0.38120273,-0.64528453,0.67939025,0.33571228,1.0089469,-0.6200292,-1.7790599,-0.8131205,2.0439925,1.5117549,-0.9017009,1.0500895,-0.56036687,-1.8165748,-0.77677214,2.0999646,1.4485537,-0.9318456,-1.0185579,-1.2552568,0.50854737,-0.2559706,-0.86765975,0.4702812,0.3382018,0.9415941,-0.64468384,1.276421,-3.8116665,-0.050776497,-0.5885117,0.06206417,-0.41975784,1.0270137,0.8656682,-0.1785835,0.20999077,0.41788793,-0.64257556,-0.6334765,-0.4906377,1.0,0.0,0.0,0.0,0.0,0.0,0.0,-1.5915941,0.24468383,-0.72642094,11.691594,-28.159023,24.501347,-31.514921,-4.745972,-1.3905346,-1.7894328
36.176056,1.5889282,4.980717,-24.237093,-1.4604712,-1.9899006,1.4633474,-0.46499205,-0.74346304,0.4751473,-0.4741379,-0.6376946,0.6851885,0.25240943,1.0035902,-0.6347132,-1.7690601,-0.8241859,2.0361953,1.5170726,-0.90660465,1.0407702,-0.57410836,-1.8098457,-0.7818152,2.0910687,1.4532381,-0.92864984,-0.9045189,-1.414328,0.72924095,-0.5878556,-0.89825326,0.46588984,0.31338322,0.9035063,-0.6451912,1.2698038,-3.8078556,-0.050725732,-0.6861093,0.056459427,-0.42657757,1.0212927,0.8664407,-0.17542125,0.20905373,0.4180961,-0.53627944,-0.69319487,-0.60097903,1.0,0.0,0.0,0.0,0.0,0.0,0.0,-1.5535063,0.24519119,-0.71980375,11.003375,-16.05761,22.550976,-33.40755,-3.3939242,-1.0240018,-2.4792314
34.86946,30.917763,11.532173,-14.020272,-1.1523412,-1.3245451,1.0436041,-0.37247613,-0.7776777,0.4355886,-0.4508829,-0.6034092,0.67570823,0.14275832,1.0035225,-0.65187615,-1.7662868,-0.82690346,2.0307279,1.5208089,-0.914374,1.0327135,-0.58879113,-1.8016765,-0.7893473,2.0820699,1.4578921,-0.925765,-0.7737651,-1.4866315,0.84675145,-0.80878943,-0.9013408,0.46434075,0.2804682,0.8654566,-0.6456981,1.2622113,-3.8040485,-0.050675016,-0.78360933,0.05188179,-0.43365526,1.0147985,0.8666,-0.17185995,0.20746987,0.42002943,-0.43468082,-0.7063839,-0.66724646,1.0,0.0,0.0,0.0,0.0,0.0,0.0,-1.5154566,0.24569806,-0.7122113,12.7555485,-7.327771,11.9415045,-22.21278,-0.44409037,-0.44900775,-3.2069802
22.00046,43.11942,12.021929,-1.2687844,-0.52260387,-0.9583239,0.45636857,-0.354845,-0.7851406,0.34426367,-0.44686127,-0.6212119,0.6746761,0.14655283,0.99722904,-0.6673052,-1.7672502,-0.8340334,2.0199487,1.5253596,-0.9111097,1.0257536,-0.60373235,-1.7933662,-0.7982031,2.0730596,1.4625498,-0.9231815,-0.6705992,-1.4966552,0.8255921,-0.91095406,-0.90092784,0.46615753,0.2514135,0.82744503,-0.6462045,1.2536447,-3.8002453,-0.050624352,-0.88101184,0.04807377,-0.44072866,1.0078688,0.86639994,-0.16811329,0.20567693,0.422831,-0.36526972,-0.70054054,-0.70292014,1.0,0.0,0.0,0.0,0.0,0.0,0.0,-1.477445,0.24620447,-0.7036447,10.187853,-1.0316372,-2.184546,-10.160685,0.021660328,0.15859604,-2.7829468
7.4815106,46.90223,10.811391,9.698624,0.2261623,-0.70131004,-0.0025296456,-0.36367813,-0.78280985,0.29577857,-0.4513765,-0.6298258,0.6648925,0.17975698,0.9893858,-0.68201333,-1.7637883,-0.84334075,2.010077,1.529039,-0.9052058,1.0194613,-0.61851335,-1.7858799,-0.8074404,2.0640492,1.4672304,-0.9208297,-0.6152972,-1.4718145,0.72199583,-0.92740816,-0.90071976,0.46923655,0.23016945,0.7894716,-0.6467104,1.2441047,-3.7964458,-0.050573736,-0.978317,0.044664383,-0.44768882,1.0007329,0.86610883,-0.16426243,0.20402369,0.4257318,-0.33422956,-0.6871197,-0.71845275,1.0,0.0,0.0,0.0,0.0,0.0,0.0,-1.4394716,0.24671039,-0.69410473,5.586624,2.501011,-10.601115,-1.4487147,0.038397312,0.46592355,-1.9820601
-1.888335,47.900764,10.269669,15.886341,0.7838901,-0.48386085,-0.19277464,-0.3757646,-0.78024405,0.2993628,-0.47423148,-0.634493,0.66715014,0.21943161,0.98188484,-0.69653773,-1.7559435,-0.8548635,2.0005999,1.5339454,-0.89888656,1.0133845,-0.6329653,-1.7794559,-0.8165995,2.0550313,1.4719473,-0.91862863,-0.60467654,-1.4361789,0.6144959,-0.91112226,-0.90190977,0.47326952,0.2172997,0.75153637,-0.64721584,1.2335924,-3.7926502,-0.050523173,-1.0755248,0.041368484,-0.45447588,0.9935201,0.86587363,-0.16036068,0.20264865,0.4283464,-0.32947358,-0.6686022,-0.7235534,1.0,0.0,0.0,0.0,0.0,0.0,0.0,-1.4015363,0.24721584,-0.6835924,1.2446284,3.5952568,-11.113155,1.8948913,-0.08690357,0.6396353,-1.1253864
-4.793293,46.475033,9.969421,17.281624,1.026819,-0.43270504,-0.21137501,-0.36179098,-0.78035665,0.27859804,-0.4861211,-0.6284608,0.667182,0.22303283,0.97720534,-0.711001,-1.7515961,-0.8652116,1.9921852,1.5386655,-0.89632535,1.0073038,-0.64710355,-1.7739894,-0.8255507,2.0460172,1.4767004,-0.91652864,-0.6084506,-1.40628,0.5227963,-0.88886523,-0.9007797,0.47687387,0.2080919,0.7136383,-0.6477208,1.2221087,-3.7888584,-0.05047266,-1.1726356,0.038039207,-0.46108294,0.986269,0.8657359,-0.15643457,0.20153286,0.43059722,-0.3348968,-0.6511868,-0.7270079,1.0,0.0,0.0,0.0,0.0,0.0,0.0,-1.3636383,0.24772081,-0.6721087,-0.17080307,3.0160189,-9.540749,2.4974942,0.13464689,0.58590174,-0.7554591
-5.1692944,35.252674,6.1772547,13.666623,0.7876777,-0.8218713,-0.14597769,-0.34789342,-0.7891837,0.15328772,-0.5333272,-0.60770005,0.6586525,0.2510832,0.9725145,-0.7260219,-1.7586607,-0.8788834,1.9852471,1.5425657,-0.8914203,1.0011927,-0.66107297,-1.7697418,-0.8345219,2.0370793,1.4814707,-0.9144868,-0.61148256,-1.3938239,0.39154813,-0.898929,-0.89217263,0.47733963,0.20323312,0.67577744,-0.6482253,1.2096547,-3.7850704,-0.0504222,-1.2696491,0.0346756,-0.46769166,0.9788256,0.86572015,-0.15226223,0.20065726,0.43252915,-0.33775207,-0.6572857,-0.7515828,1.0,0.0,0.0,0.0,0.0,0.0,0.0,-1.3257774,0.2482253,-0.6596547,-0.13638735,1.230979,-13.33828,-0.7421851,0.77718496,0.09443164,-0.37949383
-4.803192,35.97046,6.748662,13.633882,0.83480746,-0.7566115,-0.11035411,-0.34434912,-0.77907354,0.1265828,-0.51282984,-0.62278837,0.6684846,0.28386882,0.9667578,-0.7389803,-1.7570835,-0.8858049,1.9748005,1.5483192,-0.88609993,0.9950682,-0.67495275,-1.7666786,-0.84355223,2.0281796,1.4862505,-0.91245836,-0.6122604,-1.3860441,0.27721465,-0.9036002,-0.88968635,0.4782198,0.20308548,0.6379547,-0.64872885,1.1962312,-3.7812862,-0.05037179,-1.3665657,0.03127861,-0.47434235,0.9711434,0.8658086,-0.14779739,0.19999932,0.43420222,-0.3413283,-0.66113365,-0.7754262,1.0,0.0,0.0,0.0,0.0,0.0,0.0,-1.2879547,0.24872884,-0.64623123,0.079751015,0.7623434,-11.63919,-0.21694899,0.1663208,0.12907982,0.09198785
-8.061281,22.251106,1.0504076,11.288855,0.5277387,-1.2419201,-0.17609398,-0.3414368,-0.78599083,-0.09577189,-0.533142,-0.63103384,0.6699375,0.2993929,0.9609245,-0.75355184,-1.7762557,-0.89686644,1.9650762,1.5532442,-0.88251907,0.9889561,-0.6888335,-1.7654712,-0.852718,2.0192533,1.4910284,-0.9104175,-0.6103429,-1.3889397,0.06855755,-0.9199653,-0.8940689,0.477084,0.20439902,0.60017014,-0.6492324,1.1818393,-3.7775059,-0.050321426,-1.4633855,0.0278368,-0.48125005,0.9630315,0.86607844,-0.14273784,0.19968995,0.43549737,-0.3460243,-0.6941023,-0.8250344,1.0,0.0,0.0,0.0,0.0,0.0,0.0,-1.2501701,0.24923238,-0.63183933,0.3301263,-0.34923553,-20.873978,-1.3561368,-0.6648421,-0.26515722,0.14656782
-6.2755833,16.185192,-1.7144603,7.1903276,-0.00026471168,-1.5403275,-0.082457826,-0.33375672,-0.78135324,-0.24962945,-0.5914254,-0.64971626,0.67124486,0.38057405,0.9555804,-0.7669688,-1.7904341,-0.9118605,1.9542816,1.5581529,-0.8723601,0.98290217,-0.7027466,-1.7667549,-0.8623053,2.0102162,1.4957873,-0.90830606,-0.6032741,-1.3923411,-0.1937068,-0.97061044,-0.9078951,0.47441852,0.21331626,0.5624237,-0.649735,1.16648,-3.7737293,-0.050271116,-1.5601084,0.024440765,-0.48859882,0.9542595,0.8665421,-0.1367287,0.19989067,0.43641013,-0.33818397,-0.74179083,-0.8969948,1.0,0.0,0.0,0.0,0.0,0.0,0.0,-1.2124237,0.24973497,-0.61647993,0.83378553,-0.4258871,-26.127398,-4.776168,-1.7011404,-0.57240725,0.8353561
-6.3224015,15.045174,-2.1105466,6.385954,-0.016005833,-1.5052783,-0.032657757,-0.33697408,-0.7869985,-0.3482232,-0.6116807,-0.64440215,0.6739606,0.3898093,0.94920474,-0.78144646,-1.8015772,-0.92347336,1.945776,1.5631833,-0.86932516,0.9769026,-0.7167208,-1.7706344,-0.87245715,2.001061,1.5005194,-0.90609926,-0.59841484,-1.3993487,-0.45252603,-1.0290109,-0.9191672,0.4714239,0.2228953,0.5247154,-0.65023756,1.1501541,-3.7699566,-0.050220855,-1.6567346,0.021116257,-0.4964273,0.94472367,0.86716574,-0.1296472,0.20060177,0.43700588,-0.33154157,-0.7897246,-0.9757384,1.0,0.0,0.0,0.0,0.0,0.0,0.0,-1.1747154,0.25023755,-0.6001541,0.63642263,-0.79681873,-25.774693,-5.5351734,-1.4798641,-0.67037344,0.89285374
-6.328455,19.918293,0.011428237,6.9925637,0.1347281,-1.1933281,0.049670245,-0.35428527,-0.78748906,-0.4053013,-0.64647883,-0.65419686,0.6779554,0.4303438,0.9414741,-0.7954697,-1.8111645,-0.93710506,1.9356413,1.5683149,-0.8630649,0.9708563,-0.73075795,-1.7767208,-0.8832451,1.9917878,1.5052267,-0.90377325,-0.6060831,-1.4054917,-0.66052634,-1.0943639,-0.93107134,0.4692526,0.235833,0.48704338,-0.6507392,1.1328628,-3.7661872,-0.050170645,-1.7532642,0.017835617,-0.50463295,0.93443877,0.86787236,-0.12156865,0.20172758,0.4374065,-0.3279456,-0.8236809,-1.0501608,1.0,0.0,0.0,0.0,0.0,0.0,0.0,-1.1370434,0.2507392,-0.5828628,-0.58350563,-0.7059097,-20.764935,-6.2261343,-1.5262246,-0.5748391,1.2587726
-7.608218,33.985844,6.043149,11.281426,0.70283216,-0.46031505,0.090336375,-0.38752908,-0.7806585,-0.36256522,-0.6472333,-0.68037575,0.69019115,0.46022627,0.9321034,-0.8088238,-1.8129773,-0.9479684,1.9237502,1.5742458,-0.8577506,0.96456397,-0.7448075,-1.7840126,-0.8945433,1.9823483,1.5099322,-0.9013004,-0.6362528,-1.4049678,-0.7525433,-1.1407906,-0.94907993,0.4704131,0.25124758,0.44940948,-0.6512408,1.1146069,-3.7624216,-0.050120484,-1.8496974,0.014514923,-0.5129247,0.9236207,0.86855245,-0.11286639,0.203092,0.4377573,-0.33512533,-0.8232542,-1.0971761,1.0,0.0,0.0,0.0,0.0,0.0,0.0,-1.0994095,0.25124082,-0.56460685,-2.815771,-0.012350082,-9.327149,-4.3698072,-2.0326138,-0.07044673,1.5904427
-11.258852,45.54593,10.76083,16.167099,1.3066386,0.15765142,0.057785418,-0.4325853,-0.7702033,-0.34740177,-0.6493063,-0.69071627,0.6939406,0.47186938,0.9213054,-0.8218278,-1.8187528,-0.9594739,1.9132767,1.5793263,-0.85411346,0.9577719,-0.7587855,-1.7915809,-0.90615046,1.9727238,1.5146624,-0.89867395,-0.6927619,-1.3955374,-0.75898784,-1.1664796,-0.96722084,0.4738813,0.26682758,0.41181374,-0.6517415,1.0953872,-3.7586598,-0.050070375,-1.946034,0.011013985,-0.5210123,0.9125303,0.8691467,-0.10393407,0.2045429,0.43811402,-0.35651484,-0.795714,-1.1180768,1.0,0.0,0.0,0.0,0.0,0.0,0.0,-1.0618137,0.2517415,-0.5453872,-5.431175,0.89554787,-0.88522434,-2.3191452,-1.97649,0.31766295,1.6756535
-13.264374,52.206238,13.662386,19.24818,1.7394239,0.5042466,0.019747823,-0.45808002,-0.76757574,-0.33920518,-0.6413227,-0.6918347,0.69416004,0.48591986,0.9119639,-0.83554304,-1.8255014,-0.97028273,1.9035404,1.5840784,-0.850082,0.95035994,-0.77265286,-1.7988613,-0.9178444,1.9629525,1.5194327,-0.895894,-0.75667757,-1.3838942,-0.718705,-1.1695161,-0.9805696,0.4784542,0.28222975,0.37425613,-0.6522422,1.0752051,-3.754902,-0.050020315,-2.0422742,0.007232666,-0.5287223,0.9013656,0.86964154,-0.09505407,0.20595458,0.43848702,-0.38737154,-0.7541955,-1.1209651,1.0,0.0,0.0,0.0,0.0,0.0,0.0,-1.0242561,0.25224218,-0.5252051,-6.1802387,1.1305332,3.7287593,-0.0733614,-1.4394403,0.5333662,1.7060518
-20.273859,44.74865,9.905249,20.64391,1.8935194,0.33583266,-0.10576121,-0.5089355,-0.76889575,-0.44374973,-0.65380514,-0.68586594,0.691331,0.48239803,0.8994664,-0.84954244,-1.8432362,-0.9832249,1.8943659,1.5885658,-0.84765416,0.94220316,-0.7864306,-1.8061512,-0.9295422,1.9530991,1.5242392,-0.8929805,-0.8344455,-1.3759704,-0.7331323,-1.1687315,-0.9875093,0.4813685,0.29484478,0.33673477,-0.6527419,1.0540612,-3.7511477,-0.049970303,-2.1384182,0.0030345917,-0.5361233,0.8900879,0.8701259,-0.08613204,0.20733653,0.4387183,-0.43289453,-0.7267198,-1.1346916,1.0,0.0,0.0,0.0,0.0,0.0,0.0,-0.98673475,0.2527419,-0.50406116,-7.521248,0.71942806,-1.6469002,0.38964748,-0.914526,0.26482344,1.3989031
-30.556555,33.520924,4.3073373,22.0562,2.0899644,0.132137,-0.22368354,-0.59103066,-0.7739474,-0.52927345,-0.6783615,-0.6654526,0.6769619,0.50166905,0.8831001,-0.8638253,-1.8590785,-0.99737835,1.8865539,1.5919354,-0.8428136,0.93305075,-0.80018544,-1.8140552,-0.9413172,1.943261,1.5290514,-0.889944,-0.94102997,-1.3757374,-0.8098973,-1.1789356,-0.98398775,0.48055086,0.30698472,0.29925156,-0.65324116,1.0319566,-3.7473974,-0.049920343,-2.2344658,-0.0017843246,-0.54338264,0.8785248,0.87072563,-0.076872535,0.20871916,0.43859273,-0.5001065,-0.7166453,-1.1679796,1.0,0.0,0.0,0.0,0.0,0.0,0.0,-0.94925153,0.25324115,-0.48195654,-10.323215,-0.11575222,-7.761359,-0.5769491,-0.05055666,-0.28225183,1.3246596
-31.819813,29.949997,2.2423227,20.610199,1.9219152,0.01701039,-0.21789268,-0.6294728,-0.76748127,-0.59410685,-0.7014022,-0.66279435,0.6758342,0.49646053,0.8701035,-0.8769336,-1.8734659,-1.0114574,1.8769816,1.5966349,-0.84029794,0.92284834,-0.8139317,-1.8230255,-0.95329916,1.9334782,1.5338446,-0.8868055,-1.0454668,-1.3748761,-0.926104,-1.202962,-0.9779326,0.47802156,0.3165168,0.26180553,-0.6537399,1.0088922,-3.743651,-0.04987043,-2.3304176,-0.0072698593,-0.55059433,0.86652815,0.87148046,-0.0670451,0.2101334,0.43803027,-0.5674402,-0.7129605,-1.2147435,1.0,0.0,0.0,0.0,0.0,0.0,0.0,-0.9118055,0.25373992,-0.45889217,-10.097969,-0.080132484,-11.6319895,-1.9145966,0.11935234,-0.5640149,1.0391533
-36.180145,28.041842,0.57860374,21.607098,2.0060322,0.032424986,-0.28751874,-0.6905467,-0.7619414,-0.68058324,-0.69147426,-0.66501683,0.68256944,0.49141768,0.8537937,-0.8901259,-1.8910838,-1.0224466,1.8669765,1.6021016,-0.8376637,0.9115778,-0.8276522,-1.8333976,-0.96545184,1.9237412,1.5386149,-0.88358873,-1.153038,-1.3717362,-1.0739737,-1.2175606,-0.97413874,0.47522333,0.32362974,0.2243967,-0.6542382,0.984869,-3.7399082,-0.049820572,-2.4262733,-0.013498306,-0.5577898,0.8540196,0.87242246,-0.05651817,0.21161154,0.43692717,-0.64411956,-0.71122897,-1.2676573,1.0,0.0,0.0,0.0,0.0,0.0,0.0,-0.8743967,0.25423822,-0.434869,-10.392523,0.10993481,-14.710593,-0.91986656,-0.2022624,-0.67914724,0.77521205
-34.494328,30.593702,1.6094179,20.403984,1.990577,0.15714276,-0.22258507,-0.737152,-0.75830346,-0.7278459,-0.71738595,-0.62553585,0.6745227,0.48118895,0.8378626,-0.90348256,-1.9061822,-1.0371904,1.8611877,1.6060672,-0.83546984,0.8992878,-0.841326,-1.8451889,-0.9778172,1.9141492,1.5433508,-0.8803186,-1.2531611,-1.3666966,-1.213889,-1.2411304,-0.95620567,0.47154468,0.32851687,0.18702602,-0.65473604,0.95988804,-3.7361689,-0.04977076,-2.5220332,-0.020466805,-0.564929,0.8409794,0.87352365,-0.04527633,0.21307193,0.43532375,-0.7183206,-0.7034428,-1.3212262,1.0,0.0,0.0,0.0,0.0,0.0,0.0,-0.837026,0.25473604,-0.40988803,-9.665036,0.29304028,-13.899207,-1.8188477,1.1998534,-0.80378056,0.5715132
-29.524578,39.381958,5.722735,19.94027,2.0567682,0.4480039,-0.16325432,-0.76476735,-0.7475923,-0.74425405,-0.70823646,-0.59852326,0.67266065,0.45262522,0.82281107,-0.91608524,-1.9196143,-1.0486408,1.8542968,1.6106169,-0.83505607,0.8861443,-0.85490537,-1.8580902,-0.9903351,1.9048127,1.5480543,-0.8770265,-1.3338408,-1.3555914,-1.315266,-1.2538218,-0.92783034,0.46874604,0.32979256,0.14969254,-0.6552334,0.9339502,-3.7324333,-0.049721003,-2.6176975,-0.028114319,-0.57188797,0.8275136,0.87471974,-0.03349208,0.21438323,0.43333972,-0.7843742,-0.6808052,-1.3603599,1.0,0.0,0.0,0.0,0.0,0.0,0.0,-0.7996925,0.25523338,-0.38395017,-7.788849,0.92732906,-10.073996,-0.81248283,2.3352742,-0.6435275,0.24144053
-26.044746,44.668465,8.662522,19.827158,2.2526581,0.6688254,-0.13781418,-0.7942368,-0.7512058,-0.76443785,-0.6949406,-0.5429589,0.66073376,0.39692944,0.8067206,-0.93002594,-1.934534,-1.0598291,1.8505168,1.6141278,-0.83733356,0.8723198,-0.86840177,-1.8717277,-1.002865,1.8958997,1.5527273,-0.87376684,-1.3978392,-1.3481754,-1.3798536,-1.2513299,-0.88036746,0.4658388,0.32523945,0.11239624,-0.65573025,0.9070564,-3.7287016,-0.049671292,-2.7132661,-0.036398888,-0.57855844,0.81375206,0.8759775,-0.021391949,0.21536262,0.43107387,-0.84783876,-0.64895654,-1.3869325,1.0,0.0,0.0,0.0,0.0,0.0,0.0,-0.7623962,0.25573024,-0.35705638,-6.178856,0.57923794,-6.422305,0.6488085,4.336083,-0.59576035,-0.29488802
-21.632732,50.71217,11.910502,19.608513,2.38765,0.86379063,-0.1219209,-0.81051445,-0.74684364,-0.77590424,-0.6753774,-0.48483947,0.6504819,0.34395555,0.79126835,-0.94308615,-1.9493182,-1.0704027,1.8474157,1.6177756,-0.83937126,0.8580004,-0.88182664,-1.8857753,-1.0152417,1.8875893,1.5573717,-0.870593,-1.4427773,-1.341034,-1.4130433,-1.232039,-0.81573194,0.46314096,0.31543136,0.07513714,-0.65622663,0.8792076,-3.7249737,-0.04962163,-2.8087392,-0.04527378,-0.5848546,0.7998292,0.8772824,-0.009199809,0.21584854,0.42860273,-0.9053097,-0.60874844,-1.3995017,1.0,0.0,0.0,0.0,0.0,0.0,0.0,-0.7251371,0.25622663,-0.3292076,-4.3367624,0.58231354,-3.3116817,2.2518396,6.162441,-0.49800277,-0.78763366
-17.724272,54.23409,14.050651,19.115688,2.3590908,0.97883594,-0.12391178,-0.8191557,-0.7499903,-0.7824418,-0.64583266,-0.48188528,0.64956677,0.29795352,0.77608484,-0.9568257,-1.9640195,-1.079825,1.8394008,1.6223284,-0.84079766,0.8433672,-0.8952153,-1.8999927,-1.0272866,1.8798493,1.5619951,-0.8675479,-1.4697834,-1.3385081,-1.4247562,-1.1944277,-0.76083755,0.46139592,0.30151334,0.03791523,-0.65672255,0.8504048,-3.7212496,-0.04957202,-2.9041166,-0.054665565,-0.59071827,0.7858433,0.87862295,0.0029142261,0.2158013,0.4259611,-0.95471156,-0.5641345,-1.403495,1.0,0.0,0.0,0.0,0.0,0.0,0.0,-0.6879152,0.25672254,-0.3004048,-2.5934696,0.14631748,-1.1845827,4.0275097,5.2834272,-0.3417313,-1.1971653
-14.917773,54.538986,14.5190325,17.834923,2.169871,0.9796841,-0.1332073,-0.82815045,-0.75427204,-0.8016181,-0.6302554,-0.4832106,0.63580626,0.19910525,0.76055217,-0.97064245,-1.9801545,-1.0903122,1.8315283,1.6255758,-0.8476374,0.82855093,-0.90861726,-1.9143112,-1.0389253,1.8725289,1.5665938,-0.86470693,-1.4853052,-1.3410412,-1.4341385,-1.1526158,-0.7229334,0.45878312,0.2787827,0.0007305145,-0.657218,0.82064897,-3.7175293,-0.04952246,-2.9993987,-0.064489365,-0.5961437,0.7718079,0.87999475,0.014900869,0.21526617,0.4231402,-0.9956002,-0.5198105,-1.4083898,1.0,0.0,0.0,0.0,0.0,0.0,0.0,-0.6507305,0.25721797,-0.27064896,-1.4666557,-0.3476143,-0.95500946,4.4297934,3.6278129,-0.4180193,-2.0935893
-11.991436,57.637814,16.070606,17.143818,2.000942,1.0672495,-0.12802869,-0.8315619,-0.7494982,-0.7960423,-0.6019843,-0.49448076,0.6405469,0.16541642,0.74539477,-0.98356706,-1.9939154,-1.0991237,1.8230808,1.6306485,-0.8481653,0.81364405,-0.9220307,-1.9286525,-1.0501004,1.8654374,1.5711733,-0.8621072,-1.4922514,-1.3416866,-1.4341388,-1.1051577,-0.70508075,0.45732954,0.2542761,-0.036417007,-0.65771294,0.789941,-3.7138124,-0.049472947,-3.0945857,-0.074653625,-0.6011009,0.7577554,0.88137937,0.026712103,0.21433672,0.42013893,-1.0265896,-0.47205853,-1.4088576,0.0,1.0,0.0,0.0,0.0,0.0,0.0,-0.61358297,0.25771293,-0.239941,-0.6363869,-0.141716,-0.020885468,4.953599,1.6667962,-0.2631724,-2.294445
-10.062479,57.250237,16.092949,15.87595,1.8527013,1.0419413,-0.13060498,-0.8326334,-0.7542167,-0.8077271,-0.5856231,-0.4718611,0.6205919,0.05060079,0.7303807,-0.9974524,-2.0094252,-1.1086627,1.8182513,1.6332325,-0.85704714,0.7986166,-0.93537396,-1.9439499,-1.0611724,1.8594604,1.5749559,-0.8601569,-1.5051944,-1.332506,-1.5597311,-1.1065658,-0.5766947,0.3415728,0.18383285,-0.05834484,-0.656301,0.78241146,-1.7931218,0.24233104,0.028845845,-0.085250854,-0.60587645,0.7434363,0.88297504,0.03902505,0.21264906,0.41666836,-1.0714772,-0.46373397,-1.4450452,0.0,1.0,0.0,0.0,0.0,0.0,0.0,-0.59165514,0.25630102,-0.23241144,0.2263546,-0.49729347,-0.25744438,5.0126076,0.8126259,-1.4084756,-2.8826566
27.314102,176.0,110.0,110.0,9.857407,10.972507,-2.3511853,-0.7950497,0.5190337,0.6947489,0.62495625,-0.32874236,0.6745428,-0.35463107,0.7191116,-0.8834706,-1.874475,-0.9986767,1.8265861,1.6424103,-0.89562,0.7872507,-0.95205563,-1.9480336,-1.0569018,1.8430057,1.5847464,-0.8561009,-0.99995035,-1.6762143,-0.21627194,0.89643127,-1.8222558,1.2770201,0.49903384,-0.076262474,-0.65387964,0.7819632,-1.7913291,0.24208875,-0.06936894,-0.09643936,-0.6082635,0.7338432,0.88436925,0.041866146,0.21449003,0.4124709,-1.1368175,-0.14677969,-0.80369085,1.0,0.0,0.0,0.0,0.0,0.0,0.0,-0.5737375,0.25387964,-0.23196322,54.63549,-3.228712,76.81883,187.77087,-70.73195,119.20762,37.35107
-51.717445,124.07792,42.013428,76.90187,9.159864,2.8696342,-2.4001317,-0.78602624,-0.72774905,-0.36645573,0.66554993,-0.22707729,0.6439687,-0.41714042,0.7086481,-1.0248306,-1.9846791,-0.9903468,1.820298,1.6491432,-0.897815,0.7775375,-0.96874017,-1.9478714,-1.04187,1.8253264,1.5976458,-0.85157955,-0.95989347,-1.666754,0.095389254,1.7083644,-1.7521908,1.2969217,0.43972775,-0.09416199,-0.65146065,0.7805336,-1.7895381,0.24184671,-0.16748554,-0.10923767,-0.60925674,0.72799444,0.8867213,0.039175745,0.21753426,0.40604118,-1.3256742,-0.073611245,-0.516697,1.0,0.0,0.0,0.0,0.0,0.0,0.0,-0.555838,0.25146064,-0.2305336,4.5409083,0.67226887,31.695646,82.044815,6.3317537,2.8357506,-4.999268
-57.11734,126.05071,29.5613,56.044605,5.767316,1.6200968,-1.6504161,-0.7775362,-0.5293931,-0.40696165,0.7061313,-0.52272093,0.6090208,0.009646765,0.6997839,-1.0216795,-1.9885676,-0.97125685,1.7730544,1.6585479,-0.85061485,0.76729983,-0.9835269,-1.9477589,-1.0225657,1.8096786,1.6100664,-0.8475894,-1.0434386,-1.4171544,-0.017140621,2.0064745,-1.5035317,1.2251226,0.3858083,-0.112044334,-0.64904404,0.77812356,-1.787749,0.24160492,-0.26550403,-0.1234169,-0.6095209,0.7240912,0.890055,0.03547721,0.22083826,0.39720753,-1.4474171,-0.0026800053,-0.35577774,1.0,0.0,0.0,0.0,0.0,0.0,0.0,-0.53795564,0.24904403,-0.22812355,-7.8939915,24.616837,-11.35906,30.446125,24.537897,-6.7369223,-5.2768826
-29.213413,109.96992,30.112076,30.489164,3.6712074,1.5751672,-0.49991763,-0.740185,-0.6472078,0.12676261,0.7727557,-0.5725235,0.6270699,0.08396507,0.69328135,-1.0482477,-1.9350827,-0.94529015,1.7524261,1.6727734,-0.83919287,0.75595206,-0.99636906,-1.9473679,-1.002817,1.7966018,1.6214399,-0.8441304,-1.16476,-1.241037,0.058901537,1.9651318,-1.245263,1.1083621,0.3330519,-0.12990856,-0.6466298,0.7747341,-1.7859616,0.24136338,-0.3634245,-0.13818455,-0.60899734,0.72135174,0.89383626,0.031699162,0.22379948,0.38725385,-1.48531,0.08028566,-0.2543165,1.0,0.0,0.0,0.0,0.0,0.0,0.0,-0.5200914,0.2466298,-0.22473407,-11.998773,17.274357,7.856319,-3.9423227,25.0211,-11.557293,-5.1591816
-13.986292,79.83317,20.412163,12.557533,1.6082156,0.8540345,0.0794875,-0.74469805,-0.64705956,0.04768906,0.7462627,-0.5747593,0.6350207,-0.022357116,0.68148226,-1.061075,-1.942599,-0.92819077,1.7391258,1.684942,-0.8463661,0.74349993,-1.0079409,-1.9465764,-0.9847363,1.7856822,1.6316996,-0.8412274,-1.2722601,-1.130066,0.08656007,1.755751,-1.0428091,0.9987425,0.27604786,-0.14775467,-0.64421797,0.77036613,-1.7841761,0.24112207,-0.4612471,-0.15299416,-0.6078458,0.7189662,0.8977011,0.028362283,0.22611415,0.3770952,-1.4785383,0.13732094,-0.24001,0.0,1.0,0.0,0.0,0.0,0.0,0.0,-0.5022453,0.24421796,-0.22036612,-10.788417,10.878205,2.9485822,-20.940758,19.637753,-10.880339,-5.697006
5.839804,79.015976,23.539825,4.892618,0.7356259,0.758951,0.33974484,-0.7252301,-0.59338117,0.15934156,0.7522014,-0.58473516,0.62275577,-0.059476525,0.67097694,-1.067279,-1.9306422,-0.9095162,1.7272087,1.6939751,-0.84717506,0.7303497,-1.0186621,-1.9450467,-0.96884334,1.7762103,1.6409655,-0.83886707,-1.329802,-1.0534611,0.17675337,1.5335397,-0.9179545,0.9028175,0.22265607,-0.16558361,-0.6418085,0.76502067,-1.7823923,0.240881,-0.5589719,-0.1674118,-0.6061673,0.716686,0.90143967,0.025425103,0.227832,0.36722296,-1.4284544,0.18872367,-0.22943059,0.0,1.0,0.0,0.0,0.0,0.0,0.0,-0.48441637,0.2418085,-0.21502066,-5.899167,7.4563026,9.451973,-22.323727,11.71906,-9.487736,-5.34662
5.0391984,59.309086,14.912725,2.9843664,0.17140573,0.02933228,0.26879454,-0.72574145,-0.5815033,-0.009160805,0.74834865,-0.5762705,0.617496,-0.06133979,0.6577756,-1.0768124,-1.9459628,-0.89400846,1.7185832,1.702715,-0.84500104,0.7169134,-1.0288912,-1.9435208,-0.95474803,1.7675757,1.6493845,-0.8369864,-1.3485596,-1.0131681,0.14548022,1.3681676,-0.8468359,0.8218989,0.17646618,-0.18339443,-0.63940144,0.75869864,-1.7806102,0.24064016,-0.65659904,-0.18139744,-0.60421705,0.7141908,0.9050192,0.023137515,0.22919725,0.35759392,-1.3873106,0.20761749,-0.26056707,0.0,1.0,0.0,0.0,0.0,0.0,0.0,-0.46660554,0.23940143,-0.20869863,-1.9759417,3.89781,-2.9072344,-16.554237,6.6763163,-7.995212,-4.661867
-3.767393,48.520336,8.032019,6.4060206,0.06496969,-0.49582422,0.061983906,-0.7319724,-0.5403553,-0.19119859,0.7625212,-0.57054645,0.6020783,0.0039846054,0.64371616,-1.0829268,-1.9626406,-0.87849593,1.7105211,1.7095923,-0.83658797,0.7034458,-1.0387408,-1.9434513,-0.94170165,1.7593807,1.656965,-0.83540505,-1.3465855,-0.97462904,-0.057280373,1.2758952,-0.80469155,0.71659976,0.16037795,-0.20099926,-0.6362295,0.75413126,-1.6778052,0.47623503,0.13659577,-0.19513702,-0.6022692,0.71117777,0.9084837,0.02205354,0.23057193,0.34786147,-1.3684255,0.19448891,-0.32417396,0.0,1.0,0.0,0.0,0.0,0.0,0.0,-0.44900072,0.23622951,-0.20413125,0.11637211,3.9527655,-23.244263,-10.47802,4.7071576,-14.11091,-0.050985813
-11.066009,78.518005,16.045908,16.412302,0.7632306,-0.03375715,-0.19243751,-0.7627502,-0.37428725,-0.23495862,0.77772,-0.538063,0.5854028,0.074209385,0.6271708,-1.0761695,-1.9669472,-0.8639296,1.7055744,1.7155052,-0.8279841,0.6899303,-1.0475641,-1.9455189,-0.928993,1.7515205,1.6636884,-0.833944,-1.3531905,-0.8522936,-0.255881,1.2695098,-0.78093,0.6574916,0.14081085,-0.21776485,-0.6314707,0.7547598,-1.6761277,0.4757589,0.038273256,-0.20871925,-0.60023785,0.7079804,0.9118493,0.022286132,0.23242481,0.3376579,-1.3532376,0.21563008,-0.32146975,0.0,1.0,0.0,0.0,0.0,0.0,0.0,-0.43223512,0.23147067,-0.20475978,-0.677228,12.055898,-19.692724,-0.54278374,2.0745873,-5.8958173,-2.1184473
-15.401768,89.20001,17.989391,20.76552,0.9170841,0.07722777,-0.30165148,-0.76470834,-0.29779142,-0.38174123,0.78443813,-0.5636575,0.5822925,0.11212448,0.61345947,-1.0773433,-1.983693,-0.85054916,1.6951548,1.7219176,-0.82273155,0.6763481,-1.0549074,-1.9498733,-0.91604304,1.7437233,1.6699007,-0.83262223,-1.3600287,-0.69592273,-0.49424788,1.3036553,-0.78043103,0.6090105,0.12852767,-0.23451328,-0.6267166,0.7544058,-1.6744518,0.47528327,-0.05995096,-0.22216797,-0.5979476,0.7049339,0.91508657,0.023627957,0.23520142,0.32670876,-1.3399882,0.24319962,-0.30162105,0.0,1.0,0.0,0.0,0.0,0.0,0.0,-0.4154867,0.22671661,-0.20440578,-0.71077347,15.411318,-23.571766,3.4727335,-0.32697916,-4.9152613,-1.4623225
-19.360573,79.71827,14.5933075,20.9249,0.99079806,-0.0023037791,-0.26956388,-0.77279484,-0.2994264,-0.50163454,0.7906953,-0.5817928,0.5618006,0.20565057,0.5990686,-1.0848501,-2.0000367,-0.8369735,1.685544,1.7260807,-0.8120572,0.6626724,-1.0609652,-1.9566101,-0.9026334,1.7358078,1.675699,-0.83133954,-1.3700708,-0.576559,-0.7325139,1.3535732,-0.7964669,0.5695113,0.12736747,-0.2512455,-0.6219673,0.7530623,-1.6727778,0.4748081,-0.15914218,-0.23558807,-0.5954151,0.7019676,0.9181584,0.026138023,0.2389296,0.31498355,-1.340383,0.26637638,-0.29691985,0.0,1.0,0.0,0.0,0.0,0.0,0.0,-0.39875448,0.22196731,-0.2030623,-1.0133266,11.704493,-23.54089,5.055046,-1.9761086,-4.1155934,-0.34547448
-21.145237,47.53707,5.1383276,15.565159,0.76331794,-0.33828813,-0.10641403,-0.7741818,-0.38236943,-0.60128576,0.7877726,-0.59126955,0.58592826,0.26158595,0.5852542,-1.0992022,-2.0167387,-0.8238562,1.6766808,1.7342918,-0.80518097,0.64891183,-1.0666033,-1.9656051,-0.8887975,1.7277015,1.6811731,-0.8300082,-1.3779465,-0.56016034,-0.95467883,1.3941011,-0.8159815,0.53931415,0.13452975,-0.26796055,-0.6172228,0.75072765,-1.6711054,0.4743334,-0.2582342,-0.24918461,-0.5927882,0.6986472,0.9210557,0.029904744,0.24322642,0.3026599,-1.3632178,0.27159172,-0.3450246,0.0,1.0,0.0,0.0,0.0,0.0,0.0,-0.38203943,0.21722278,-0.20072764,-0.7267237,1.4766455,-22.099411,4.2051315,-2.121675,-3.2139897,0.5611092
-14.419932,49.603386,7.700068,13.215384,0.8020966,-0.10986495,0.049701266,-0.7660982,-0.34063053,-0.62117296,0.7923978,-0.59348154,0.6321094,0.37137365,0.572302,-1.1006664,-2.0277224,-0.80955774,1.6683534,1.744384,-0.7928708,0.63513124,-1.0722204,-1.9762806,-0.87465835,1.7194122,1.6864202,-0.82851857,-1.378013,-0.5627331,-1.1043032,1.4208597,-0.8343529,0.5192304,0.1533987,-0.2846594,-0.612483,0.74740285,-1.6694347,0.4738592,-0.35722718,-0.26292896,-0.5900607,0.694899,0.92372406,0.034720413,0.24782294,0.29002073,-1.3753619,0.28384712,-0.38561386,0.0,1.0,0.0,0.0,0.0,0.0,0.0,-0.3653406,0.21248302,-0.19740283,0.003004074,-0.4262209,-14.688802,2.7715921,-2.1390676,-2.235365,1.7483801
-15.112215,33.662045,3.6290452,10.111902,0.76315784,-0.15690625,0.15631258,-0.78048927,-0.40932602,-0.683928,0.7896768,-0.60136896,0.6367734,0.39120734,0.5570823,-1.1131531,-2.0446734,-0.79569066,1.6592753,1.7500975,-0.78939784,0.6213068,-1.0782934,-1.9881576,-0.8603723,1.7109607,1.6915052,-0.8268258,-1.3837063,-0.62250787,-1.2149352,1.4318326,-0.8495464,0.5042618,0.17429465,-0.30134106,-0.60774803,0.74308884,-1.6677656,0.47338545,-0.45612118,-0.27688026,-0.58724356,0.69056034,0.92615646,0.040451027,0.2524121,0.27728316,-1.3985586,0.2922144,-0.45059446,0.0,1.0,0.0,0.0,0.0,0.0,0.0,-0.34865892,0.20774803,-0.19308883,-0.519824,-6.1040998,-10.873699,1.2769222,-1.7242551,-1.7150283,2.0242453
-9.763603,38.611237,6.3718076,8.667337,0.8030961,0.04966086,0.2582612,-0.7743693,-0.40986553,-0.69687253,0.7843174,-0.6027798,0.6510736,0.47569457,0.54386985,-1.11928,-2.0578449,-0.7819406,1.6506828,1.7566125,-0.77925634,0.6074575,-1.0849711,-2.0007896,-0.84609866,1.7024157,1.6964492,-0.8248612,-1.3853953,-0.68308693,-1.2805047,1.4252794,-0.85539263,0.4888063,0.20469183,-0.31782722,-0.6028075,0.73874515,-1.6302514,0.51500493,-0.3629819,-0.2909794,-0.5843034,0.685639,0.9283327,0.046925258,0.2568129,0.2646572,-1.4107124,0.3057559,-0.5072324,0.0,1.0,0.0,0.0,0.0,0.0,0.0,-0.33217275,0.20280752,-0.18874514,-0.16708374,-6.213832,-5.748701,-0.30851364,-1.3450384,-1.440531,2.759409
-8.824518,41.946487,8.1680355,8.761492,1.0596893,0.26214075,0.2746442,-0.78807276,-0.4436672,-0.6776274,0.77841353,-0.5938899,0.6511804,0.47711012,0.5286502,-1.1293378,-2.0685525,-0.7682573,1.6430267,1.7615672,-0.7771502,0.5935377,-1.0922934,-2.0136454,-0.83194816,1.6938502,1.7012709,-0.82262105,-1.3943576,-0.7491499,-1.2858384,1.412078,-0.8583593,0.47909766,0.23041603,-0.33403492,-0.59757805,0.7347732,-1.6178048,0.5253422,-0.40956938,-0.30518532,-0.5811634,0.680233,0.93026507,0.053903647,0.2608858,0.25226924,-1.4202083,0.32893664,-0.55244696,0.0,1.0,0.0,0.0,0.0,0.0,0.0,-0.31596506,0.19757804,-0.1847732,-0.92270374,-6.745875,-0.10364056,-1.1942863,-0.7281661,-1.229769,2.5669456
-3.9614449,50.211006,11.212738,8.547244,1.1193659,0.4151857,0.3000441,-0.7762133,-0.45461985,-0.67609614,0.77665365,-0.60068303,0.6586754,0.52778286,0.51591635,-1.1377554,-2.081255,-0.7542828,1.6337819,1.7671385,-0.76984274,0.5795864,-1.1001707,-2.0263484,-0.8179406,1.6852556,1.7060124,-0.82011276,-1.3955618,-0.8009836,-1.2632064,1.3972211,-0.8617445,0.47154185,0.25756636,-0.3500805,-0.5922189,0.73047066,-1.6001276,0.53926915,-0.43786025,-0.3193922,-0.5777607,0.6744844,0.93195236,0.061174367,0.26462433,0.24020062,-1.4167565,0.3562518,-0.5830715,0.0,1.0,0.0,0.0,0.0,0.0,0.0,-0.2999195,0.19221887,-0.18047065,-0.19953251,-5.334139,2.8223038,-1.4296293,-0.8916259,-1.0276616,2.7021976
-3.277007,51.161263,11.519184,8.625371,1.2152952,0.44731697,0.28082794,-0.77726775,-0.49306965,-0.6710114,0.7772606,-0.58926886,0.6532822,0.5342756,0.5018596,-1.1494777,-2.0934496,-0.7402145,1.6263287,1.7713406,-0.7666852,0.565637,-1.1085764,-2.038739,-0.8040465,1.6766666,1.7106853,-0.81735563,-1.3949894,-0.85428643,-1.2294245,1.3870825,-0.8598832,0.46499696,0.28173226,-0.3659382,-0.58672047,0.72588575,-1.5808183,0.55318886,-0.4658827,-0.33356094,-0.57407665,0.6684542,0.93341494,0.06862855,0.26800507,0.22847304,-1.4126066,0.38456434,-0.6107565,0.0,1.0,0.0,0.0,0.0,0.0,0.0,-0.2840618,0.18672046,-0.17588574,-0.025820732,-5.480826,3.9575577,-0.95448494,-0.38499832,-0.93411803,2.423513
-3.547227,49.627403,10.629463,8.27729,1.1300527,0.40955472,0.2826345,-0.7783869,-0.5260726,-0.68026716,0.7695851,-0.60098606,0.6373299,0.56078666,0.4877983,-1.1611837,-2.1067657,-0.727088,1.616568,1.7744182,-0.76127696,0.55169713,-1.1175238,-2.0508773,-0.7902499,1.6680683,1.7152896,-0.8143658,-1.3939062,-0.9087518,-1.2069112,1.3774017,-0.8616455,0.45805228,0.30475053,-0.38160133,-0.58109236,0.72097635,-1.5614816,0.56587255,-0.4998831,-0.34768772,-0.5701227,0.6621125,0.9346663,0.07628879,0.27103007,0.21707517,-1.408133,0.4111698,-0.64318806,0.0,1.0,0.0,0.0,0.0,0.0,0.0,-0.26839864,0.18109235,-0.17097634,0.03566742,-5.5919766,2.7993917,-0.89330673,-0.72227716,-0.97132325,2.3093164
-1.3490283,57.260082,12.723025,9.134067,1.2408992,0.49575144,0.2572379,-0.76999813,-0.5274087,-0.65274996,0.7730027,-0.5988211,0.62070495,0.58420396,0.47469732,-1.1702647,-2.1161523,-0.71294963,1.6081861,1.7773601,-0.7559454,0.53780496,-1.126885,-2.0627449,-0.7765088,1.659461,1.7198164,-0.81115365,-1.3879931,-0.9457025,-1.1777154,1.3731431,-0.8620772,0.45006442,0.32653525,-0.39702415,-0.5753293,0.7158215,-1.5334374,0.5780431,-0.5224361,-0.36171722,-0.56588507,0.6555432,0.9357088,0.08411229,0.2737522,0.20599434,-1.3961128,0.44007868,-0.66265017,0.0,1.0,0.0,0.0,0.0,0.0,0.0,-0.25297582,0.1753293,-0.1658215,0.4826784,-3.8558125,3.5644531,-0.39224625,-0.5281687,-1.0002553,2.1079779
4.989272,62.755795,15.133665,8.422795,1.3712369,0.5556423,0.25636804,-0.7458408,-0.55060565,-0.5908244,0.77722394,-0.56950337,0.62107813,0.5944636,0.4632209,-1.1819456,-2.1218274,-0.69878644,1.6025107,1.7819242,-0.7517073,0.52408063,-1.136582,-2.074097,-0.76276815,1.6509637,1.7242765,-0.80774426,-1.3677815,-0.9781745,-1.1181614,1.3742545,-0.84816957,0.4435908,0.34574184,-0.41202354,-0.56952715,0.71045804,-1.4889815,0.58127975,-0.5402934,-0.37555408,-0.5613642,0.648877,0.9365726,0.09190177,0.27614123,0.19527383,-1.3742517,0.46790743,-0.66911894,0.0,1.0,0.0,0.0,0.0,0.0,0.0,-0.23797643,0.16952714,-0.16045803,1.8674612,-3.4072518,6.718731,0.06895065,0.63545704,-0.91358423,1.9094884
2.990096,65.371994,15.071449,9.584841,1.4616392,0.55810094,0.21802463,-0.7527694,-0.5581636,-0.59161323,0.77260983,-0.5660785,0.5784952,0.5968662,0.4488037,-1.1923984,-2.1332583,-0.6855072,1.5943558,1.7821261,-0.74805766,0.51051366,-1.1465307,-2.084923,-0.7490228,1.6426165,1.7286472,-0.8041646,-1.3535222,-1.0009851,-1.0684367,1.3744807,-0.83290625,0.43378246,0.36209726,-0.42658234,-0.56369877,0.7049132,-1.4447379,0.58372086,-0.5584311,-0.389184,-0.5565562,0.64216983,0.93727887,0.09962591,0.27821255,0.18488002,-1.3535247,0.49656627,-0.67273384,0.0,1.0,0.0,0.0,0.0,0.0,0.0,-0.22341764,0.16369876,-0.15491319,1.2769938,-2.4506807,5.75366,-0.013208389,0.7429719,-1.2565374,1.6209543
1.6443658,61.925095,13.507419,9.227342,1.4055097,0.4733635,0.2170096,-0.746855,-0.58298516,-0.5941373,0.7669317,-0.53352654,0.54900223,0.6094852,0.43582815,-1.2048292,-2.1443367,-0.6723296,1.5892639,1.7835474,-0.74321604,0.49707353,-1.1567363,-2.0954018,-0.7352993,1.6344917,1.7329065,-0.8004333,-1.3412331,-1.0274905,-1.0385505,1.3715934,-0.8081467,0.42215836,0.37691933,-0.44074345,-0.557858,0.69911504,-1.4063271,0.5846367,-0.58601546,-0.40263557,-0.5514784,0.63536876,0.9378474,0.107354395,0.27994677,0.17477715,-1.3365386,0.52271366,-0.6839351,0.0,1.0,0.0,0.0,0.0,0.0,0.0,-0.20925653,0.15785798,-0.14911503,1.1010408,-2.8117895,3.7050247,-0.29633045,1.7518401,-1.4425576,1.4769912
5.6186137,66.929375,15.080046,9.010595,1.4742714,0.52001816,0.21326843,-0.72516644,-0.58150476,-0.5475199,0.7667841,-0.5080099,0.54494685,0.6171834,0.42455688,-1.2148868,-2.1501536,-0.6586209,1.5836906,1.7874012,-0.73871493,0.48381507,-1.1671332,-2.1054988,-0.72161007,1.626663,1.7370541,-0.79656565,-1.3212281,-1.0442886,-0.9974677,1.3678192,-0.7770334,0.4112851,0.3900462,-0.45447922,-0.5520239,0.693095,-1.3621151,0.5828766,-0.60585064,-0.41585922,-0.54614735,0.62852585,0.9382948,0.11502112,0.28134346,0.16498074,-1.3115634,0.54743075,-0.68589723,0.0,1.0,0.0,0.0,0.0,0.0,0.0,-0.19552076,0.15202388,-0.14309502,1.8398046,-1.8444538,4.917395,-0.43621063,2.3025632,-1.3650119,1.2956858
15.925995,73.12154,18.588829,7.1282835,1.7878562,0.6229239,0.23516284,-0.69329953,-0.5965249,-0.41659468,0.74929,-0.40664297,0.51520836,0.6133505,0.41448513,-1.2267857,-2.1471581,-0.6466811,1.5859987,1.7885749,-0.7352306,0.4708698,-1.1776999,-2.114661,-0.7080402,1.6194077,1.7410787,-0.7925815,-1.2863619,-1.0614017,-0.8856105,1.3528044,-0.7113506,0.39863107,0.40129492,-0.4677,-0.54622316,0.686976,-1.307739,0.5784821,-0.61226267,-0.4287367,-0.5405884,0.6218067,0.93870854,0.12226094,0.28224397,0.15561779,-1.2733625,0.5692853,-0.6685648,0.0,1.0,0.0,0.0,0.0,0.0,0.0,-0.18229997,0.14622316,-0.136976,3.2649755,-1.8684387,12.183118,-1.6469717,5.5885673,-1.5492916,1.1589527
19.015877,82.028725,22.949783,8.37958,3.0430276,0.8792261,0.15334581,-0.70398486,-0.6119009,-0.19002639,0.7107678,-0.11644613,0.4123797,0.6184936,0.40047133,-1.23889,-2.1336637,-0.63696337,1.607763,1.7823167,-0.73073214,0.4581745,-1.1884612,-2.1217327,-0.6947953,1.6136091,1.7449085,-0.7884869,-1.26476,-1.0814841,-0.6438938,1.3145204,-0.53994656,0.37653765,0.41302106,-0.48037338,-0.5404649,0.6808979,-1.2523683,0.57544,-0.604309,-0.441267,-0.53470707,0.6155393,0.9393516,0.12830545,0.28214583,0.14679879,-1.2394133,0.6044179,-0.61414415,0.0,1.0,0.0,0.0,0.0,0.0,0.0,-0.1696266,0.14046487,-0.13089788,1.9165993,-2.1722317,25.385368,-3.989029,15.943575,-2.532351,1.3729095
17.712933,85.97944,25.16256,8.969944,4.3174577,0.96332765,0.1059618,-0.7367496,-0.6178779,0.012961525,0.59734887,0.3342298,0.046175968,0.60391325,0.38449955,-1.250249,-2.1204367,-0.6350604,1.647032,1.749526,-0.7280956,0.4454606,-1.1994056,-2.1256802,-0.6824317,1.6107374,1.748253,-0.784289,-1.2742624,-1.0992883,-0.30762357,1.2097718,-0.20686777,0.31914246,0.42334732,-0.49255943,-0.5347061,0.6748974,-1.2061083,0.57670295,-0.59636885,-0.45355797,-0.52836704,0.61001563,0.9405962,0.13238454,0.28025413,0.13860255,-1.2194872,0.65314615,-0.5332518,0.0,1.0,0.0,0.0,0.0,0.0,0.0,-0.15744054,0.13470611,-0.12489736,-1.160264,-1.9369841,34.857178,-10.611057,32.06364,-6.0706196,1.3766766
23.818464,96.71579,28.234913,7.747626,4.381645,1.0157591,0.18035483,-0.7437552,-0.5757231,0.2115056,0.46661162,0.42872763,-0.33481407,0.6149929,0.37108505,-1.2569779,-2.1045296,-0.63577056,1.6536102,1.7147716,-0.7227897,0.43255404,-1.2102795,-2.1258895,-0.67164654,1.6111937,1.7507621,-0.77999455,-1.296761,-1.0839441,0.0783316,1.034161,0.12578917,0.22724743,0.432472,-0.50418186,-0.52897406,0.66911584,-1.1462923,0.57252496,-0.5700677,-0.4655161,-0.5215683,0.6054331,0.9425754,0.13420574,0.27629608,0.13115168,-1.1821188,0.69761133,-0.4351175,0.0,1.0,0.0,0.0,0.0,0.0,0.0,-0.14581811,0.12897405,-0.11911583,-2.4457455,1.375413,39.81299,-17.727257,32.02206,-9.390905,1.175046
18.24038,88.70985,23.084667,6.9827194,3.351216,0.61652195,0.23401177,-0.74853593,-0.5566779,0.15176557,0.39349997,0.49871176,-0.5392869,0.62430865,0.35770044,-1.2659472,-2.110713,-0.63229656,1.6610649,1.6968334,-0.7175637,0.41940954,-1.2208614,-2.1233604,-0.66272104,1.6145861,1.7522608,-0.775623,-1.3207349,-1.0500528,0.31353176,0.845104,0.4077912,0.12369416,0.43924055,-0.515255,-0.5233116,0.66347444,-1.0940069,0.56441045,-0.5613491,-0.47712898,-0.51443577,0.6015636,0.9451368,0.13435225,0.27055046,0.12437112,-1.1489742,0.72712123,-0.3731072,0.0,1.0,0.0,0.0,0.0,0.0,0.0,-0.134745,0.12331161,-0.11347443,-2.5069237,3.2543898,24.260612,-18.96454,27.424925,-10.419633,0.8159995
23.04793,86.70392,20.414597,4.0733266,2.0020616,0.3053477,0.36949807,-0.72127336,-0.5030499,0.115963064,0.28727484,0.5579814,-0.5959616,0.6371837,0.3472822,-1.2711664,-2.1117642,-0.63399357,1.6703843,1.6926646,-0.71190464,0.40620402,-1.2308712,-2.119645,-0.6557678,1.6203065,1.7527772,-0.7711938,-1.3208153,-0.9849103,0.39245522,0.6453462,0.62503815,0.027841412,0.44427451,-0.52574253,-0.5177932,0.657911,-1.0343072,0.5476692,-0.55518776,-0.48828316,-0.50718975,0.5980983,0.9480033,0.13362335,0.26354152,0.11823813,-1.0999928,0.7322543,-0.33994496,0.0,1.0,0.0,0.0,0.0,0.0,0.0,-0.124257445,0.11779317,-0.10791099,-0.10552406,6.3995004,8.354515,-20.002592,21.251656,-9.504168,0.53037405
24.125406,89.242775,20.127142,4.0465713,1.5044065,0.29020676,0.38868842,-0.72669,-0.4615063,0.20760006,0.19094549,0.6027029,-0.6033426,0.63031566,0.33353502,-1.2770219,-2.098885,-0.6366733,1.6805768,1.692443,-0.70816225,0.39303616,-1.2401085,-2.1154451,-0.6507744,1.627737,1.7524374,-0.76672965,-1.3157116,-0.9038022,0.43060964,0.4507147,0.7812486,-0.05399488,0.44703105,-0.53558254,-0.51248074,0.65248,-0.9682808,0.52606636,-0.54044497,-0.49888134,-0.49994946,0.5949352,0.95098394,0.13241187,0.2557039,0.11274821,-1.0426549,0.7293523,-0.31071416,0.0,1.0,0.0,0.0,0.0,0.0,0.0,-0.114417434,0.11248073,-0.102479994,0.4385233,8.017826,4.1111765,-19.461262,15.348948,-8.024021,0.26763678
26.454548,90.954994,21.002522,3.94172,1.4648223,0.3637522,0.37585732,-0.7248699,-0.44160706,0.33745697,0.101537265,0.65372926,-0.59539086,0.62734133,0.32054916,-1.2842692,-2.0816994,-0.6406207,1.69311,1.6928983,-0.7039955,0.37994507,-1.2485924,-2.1105742,-0.6476283,1.6364071,1.7513877,-0.7622474,-1.307013,-0.8300466,0.50669074,0.26938784,0.8950121,-0.121260464,0.4485982,-0.5447302,-0.5074029,0.6472686,-0.89811814,0.5020366,-0.51638216,-0.5088768,-0.4927497,0.5920972,0.9540165,0.13068222,0.24724145,0.10791794,-0.9815952,0.72423035,-0.2768177,0.0,1.0,0.0,0.0,0.0,0.0,0.0,-0.10526979,0.10740289,-0.09726858,0.83134174,7.3061347,7.78054,-18.108112,11.269724,-6.51916,0.14542937
39.282093,70.599,17.370518,-6.6094904,0.15062243,0.19088,0.73838687,-0.71347916,-0.4568767,0.36150566,-0.1462025,0.6964784,-0.5874179,0.61434907,0.30859715,-1.29428,-2.0744238,-0.66224855,1.7060549,1.6926459,-0.70081246,0.36698464,-1.2566109,-2.1049595,-0.64693856,1.6459875,1.749772,-0.75776875,-1.2924706,-0.79267865,0.58014995,0.0022538786,0.97885287,-0.17385204,0.44765535,-0.5532074,-0.5026107,0.6421104,-0.83250576,0.47214642,-0.5179197,-0.51812744,-0.4857905,0.5892609,0.9570563,0.12851566,0.23808664,0.10412353,-0.90308267,0.6930917,-0.28782618,0.0,1.0,0.0,0.0,0.0,0.0,0.0,-0.09679258,0.10261068,-0.092110395,1.419425,3.6884189,7.35507,-26.691246,8.425641,-4.9402146,-0.092333555
36.277836,71.29871,16.416689,-6.448417,-0.18080318,0.17455506,0.79489744,-0.7316984,-0.39541447,0.33132935,-0.29086903,0.7253981,-0.5776172,0.598332,0.29381478,-1.2961524,-2.0718265,-0.67602545,1.7185273,1.6920103,-0.6979356,0.3540671,-1.2641659,-2.098937,-0.6491089,1.6562418,1.7477137,-0.7533123,-1.2915062,-0.7430249,0.6088009,-0.2898192,1.0416014,-0.21511221,0.4450862,-0.561039,-0.4981234,0.63690734,-0.76816,0.44143757,-0.523307,-0.52657986,-0.47916436,0.5862447,0.96002764,0.12613365,0.22832419,0.101514556,-0.82329,0.6583723,-0.30784735,0.0,1.0,0.0,0.0,0.0,0.0,0.0,-0.088961005,0.0981234,-0.08690733,0.11110306,4.9413085,2.618432,-29.112085,6.5566063,-3.7511497,-0.20829439
30.54181,82.42209,19.428259,0.024602503,0.709229,0.32916254,0.5059912,-0.71525145,-0.37808025,0.478781,-0.27606487,0.72172403,-0.5277521,0.5899817,0.28254193,-1.3019739,-2.051059,-0.6767154,1.7284142,1.6949384,-0.6943141,0.34120518,-1.271263,-2.0921514,-0.6534864,1.6669354,1.745333,-0.74888515,-1.2841698,-0.69833493,0.7003037,-0.48656237,1.0803006,-0.24446492,0.44217488,-0.5682163,-0.49392295,0.6318233,-0.70205957,0.41339174,-0.50524473,-0.5343342,-0.47276974,0.5832672,0.96293145,0.123329625,0.21813703,0.09984449,-0.75710106,0.6382423,-0.295644,0.0,1.0,0.0,0.0,0.0,0.0,0.0,-0.08178365,0.09392294,-0.08182329,0.8164406,4.4921517,8.661485,-19.538666,4.4469595,-2.5628746,-0.23199916
34.84931,67.89125,16.92252,-4.4821754,0.25590542,0.19027577,0.6011638,-0.70038044,-0.4177794,0.5228819,-0.44683295,0.748509,-0.48733246,0.57210577,0.27116713,-1.313041,-2.039863,-0.69816965,1.7417864,1.6965997,-0.6916746,0.32847598,-1.2782191,-2.0843503,-0.6598771,1.6779444,1.7427403,-0.7444993,-1.2688444,-0.69468516,0.8052216,-0.68938273,1.1098254,-0.2630088,0.437653,-0.57479954,-0.49000144,0.6267764,-0.644734,0.38548604,-0.50618654,-0.5414381,-0.46664286,0.580226,0.965781,0.11998589,0.20747156,0.09912564,-0.6928045,0.6084741,-0.30798504,0.0,1.0,0.0,0.0,0.0,0.0,0.0,-0.07520044,0.090001434,-0.076776385,1.633501,0.3882408,9.923256,-20.121838,3.5858154,-1.4830351,-0.3614962
35.03897,53.10408,13.185884,-7.3214326,-0.2757211,-0.064362615,0.639479,-0.6812432,-0.44411618,0.4885925,-0.54659414,0.761056,-0.46384913,0.5708853,0.26035166,-1.3226308,-2.035491,-0.71453655,1.75405,1.6963553,-0.6874108,0.3159757,-1.2853831,-2.0758479,-0.66818,1.6891747,1.740018,-0.7401581,-1.2434285,-0.7236237,0.86345947,-0.8766105,1.1292691,-0.2742491,0.43341297,-0.5809002,-0.48634815,0.6215296,-0.59939015,0.35899317,-0.53241366,-0.54795647,-0.4608829,0.57683706,0.96854514,0.11626744,0.19627689,0.099385105,-0.63593465,0.56900406,-0.34993935,0.0,1.0,0.0,0.0,0.0,0.0,0.0,-0.069099784,0.086348146,-0.07152957,2.6481867,-2.879572,5.278921,-18.529928,2.5082588,-0.8003473,-0.2883613
24.677485,52.319542,12.026234,-2.565133,0.0930613,-0.10665721,0.4282189,-0.6762771,-0.45300052,0.50120413,-0.5442598,0.7590636,-0.42570367,0.57708913,0.24834798,-1.3306831,-2.0257275,-0.72260594,1.765081,1.6974477,-0.68244916,0.3037186,-1.2929152,-2.0669677,-0.67781407,1.700513,1.7372311,-0.73584753,-1.2193604,-0.7628431,0.8942297,-0.99165154,1.1372237,-0.2792929,0.4308075,-0.58662033,-0.48291707,0.61598355,-0.56339854,0.33806822,-0.56291735,-0.5540514,-0.4554298,0.5730342,0.97119254,0.11230428,0.18465774,0.10037049,-0.5985075,0.5408007,-0.39077747,0.0,1.0,0.0,0.0,0.0,0.0,0.0,-0.063379645,0.082917064,-0.065983534,2.53191,-3.88726,2.506411,-11.289287,1.3658047,-0.24365187,-0.09539127
12.963936,56.28084,11.710961,3.392158,0.552688,-0.095632255,0.20051576,-0.67211807,-0.45558357,0.48184243,-0.54278874,0.76008695,-0.41654375,0.58752394,0.23650679,-1.3384736,-2.0187836,-0.7320929,1.7765217,1.6955768,-0.6770951,0.29166225,-1.3007945,-2.0580566,-0.6880899,1.7118771,1.7344102,-0.7315474,-1.2005877,-0.7961036,0.8883741,-1.0387788,1.1379828,-0.28225246,0.43034145,-0.59203243,-0.47965503,0.6101492,-0.5341714,0.32239208,-0.5906803,-0.55990887,-0.45015192,0.56888205,0.9736946,0.10822086,0.17279439,0.10172998,-0.5790558,0.52655005,-0.4234946,0.0,1.0,0.0,0.0,0.0,0.0,0.0,-0.057967544,0.07965502,-0.060149193,2.013874,-3.2626748,-1.1659384,-4.4851065,0.64980984,-0.07786155,0.13851523
12.106032,62.42775,13.472425,6.1378675,0.84186447,-0.03630066,0.0567038,-0.6334063,-0.4707588,0.51106673,-0.52144223,0.75365347,-0.3359713,0.59628445,0.22832161,-1.3478703,-2.00695,-0.74023414,1.7872424,1.700813,-0.671919,0.27991155,-1.3089789,-2.0491722,-0.6983896,1.7232107,1.7316235,-0.7272416,-1.1660849,-0.82563436,0.8867671,-1.0263547,1.1339456,-0.27656886,0.43118146,-0.597147,-0.47654653,0.6041424,-0.5041904,0.30706522,-0.6040455,-0.5656071,-0.44498277,0.5645128,0.97604156,0.10397456,0.16085608,0.10323541,-0.56424195,0.5167043,-0.4413929,0.0,1.0,0.0,0.0,0.0,0.0,0.0,-0.05285299,0.07654652,-0.054142416,3.592968,-2.8589964,-0.76829195,1.4499664,0.2355814,0.80729127,0.254941
21.71019,65.19747,15.860104,4.531341,0.82336247,-0.007398516,0.029531658,-0.5676066,-0.5068736,0.5753908,-0.48963,0.7509263,-0.19151297,0.5879842,0.22315088,-1.3596662,-1.991633,-0.7473526,1.7983034,1.7124722,-0.66844314,0.26876166,-1.3175372,-2.040013,-0.7082506,1.7345004,1.7290047,-0.72293574,-1.0975232,-0.8654326,0.92368513,-0.9721111,1.1295433,-0.25592083,0.43092364,-0.6019316,-0.47361803,0.5981171,-0.47020686,0.28820252,-0.6022247,-0.5711107,-0.43996572,0.5600453,0.97824466,0.09932058,0.14892875,0.104847685,-0.5435414,0.49965733,-0.4485135,0.0,1.0,0.0,0.0,0.0,0.0,0.0,-0.048068404,0.073618025,-0.0481171,6.9969177,-3.8731694,3.091681,5.595875,0.24836063,2.3509562,0.11456013
48.846085,58.076378,17.119713,-5.548832,-0.15351075,-0.20698145,0.25008836,-0.4409506,-0.5691497,0.61538124,-0.48298892,0.75077313,0.07470103,0.588049,0.2246666,-1.3744521,-1.978475,-0.7565495,1.8095777,1.7364749,-0.6641308,0.2588096,-1.3267058,-2.030282,-0.71753275,1.7457612,1.7267939,-0.71863925,-0.96076375,-0.9337698,0.98788214,-0.91311604,1.1267375,-0.20820794,0.4296156,-0.60632324,-0.470958,0.5921226,-0.42930394,0.25876758,-0.5990772,-0.57621765,-0.43537903,0.5554213,0.9802957,0.09399223,0.1370085,0.10683855,-0.4974216,0.4477157,-0.46716598,0.0,1.0,0.0,0.0,0.0,0.0,0.0,-0.043676734,0.07095799,-0.042122602,13.791836,-6.7584634,5.9832454,6.0403943,0.30117035,5.1106544,-0.011539459
43.416546,72.67431,20.163506,-1.107538,0.12620455,0.045018703,0.14446771,-0.42086256,-0.5275736,0.61276054,-0.4332381,0.7338503,0.27149022,0.5790573,0.21672334,-1.3794632,-1.969006,-0.76085657,1.8191462,1.753943,-0.6607335,0.25016263,-1.3362635,-2.0200052,-0.72610635,1.7569591,1.7251846,-0.71435916,-0.83221817,-0.9627818,1.039315,-0.83816457,1.1196787,-0.1438051,0.4279173,-0.61028576,-0.46858382,0.5863432,-0.38563356,0.23058149,-0.5713567,-0.58085823,-0.43123436,0.5507983,0.98216337,0.08792378,0.12530978,0.10918774,-0.45092696,0.40589496,-0.46082845,0.0,1.0,0.0,0.0,0.0,0.0,0.0,-0.039714217,0.06858382,-0.036343217,12.998772,-2.8045177,4.6500683,7.686734,-0.03926754,6.8395376,-0.021141768
54.551365,82.82153,23.119831,-4.2439036,-0.4845279,-0.02162394,0.276894,-0.3223261,-0.49850082,0.59523296,-0.4519129,0.7437218,0.30756548,0.5605989,0.21793002,-1.3861136,-1.9604819,-0.77129763,1.8313313,1.7559412,-0.65829927,0.2429488,-1.3458136,-2.0094538,-0.7341687,1.7681355,1.7242043,-0.7101119,-0.6839188,-0.9522945,1.0591552,-0.79474086,1.1192307,-0.08106843,0.42417833,-0.61375904,-0.46654034,0.5809695,-0.33500057,0.19575487,-0.5264222,-0.5848789,-0.4276507,0.5463311,0.98379964,0.08122547,0.11401068,0.11199141,-0.38450697,0.3448687,-0.44230112,0.0,1.0,0.0,0.0,0.0,0.0,0.0,-0.036240935,0.06654033,-0.0309695,14.985859,1.1385202,1.5120983,4.5874715,0.63016415,6.786361,-0.21671653
61.7615,86.5049,24.564018,-6.3939104,-0.86367756,-0.14854601,0.341399,-0.2213301,-0.50071645,0.61595607,-0.416125,0.72873175,0.33674785,0.55906385,0.2208158,-1.3958852,-1.9478582,-0.7757812,1.8410087,1.7578791,-0.65420556,0.23734896,-1.3551692,-1.9987464,-0.74181336,1.7792776,1.7238115,-0.70590377,-0.51813793,-0.9296891,1.0731603,-0.7534645,1.114663,-0.023690613,0.42023724,-0.6167221,-0.46486878,0.5760906,-0.28370875,0.15785354,-0.4751392,-0.58817387,-0.42477393,0.54209244,0.98517615,0.07398902,0.10318647,0.115351856,-0.3099741,0.270446,-0.41803384,0.0,1.0,0.0,0.0,0.0,0.0,0.0,-0.03327787,0.06486878,-0.026090562,16.740108,2.3364425,0.986433,4.4066668,0.17213821,6.231584,-0.22624135
57.63275,84.19599,23.310856,-6.440675,-0.9925164,-0.26416558,0.36833486,-0.16723223,-0.49281797,0.5976422,-0.42704853,0.7349703,0.26859003,0.5487071,0.22062573,-1.404451,-1.9389821,-0.78451824,1.8527746,1.7506706,-0.65103304,0.2332844,-1.3642634,-1.9880517,-0.7492282,1.7903864,1.7238753,-0.701739,-0.36869684,-0.90260214,1.0670733,-0.73643434,1.111497,0.017992998,0.4158659,-0.6192188,-0.46355486,0.5716359,-0.23860262,0.12263397,-0.435318,-0.5907526,-0.42264175,0.53804815,0.98628193,0.066389196,0.09279124,0.11929036,-0.23967512,0.19569308,-0.40035975,0.0,1.0,0.0,0.0,0.0,0.0,0.0,-0.03078115,0.06355485,-0.02163589,15.107452,2.766478,-0.9836197,2.0169616,0.21848679,4.5510683,-0.2342999
49.962086,90.057755,24.144873,-2.3385472,-0.6817805,-0.25043896,0.22932523,-0.08661364,-0.45817494,0.5847572,-0.34345123,0.72801787,0.29940215,0.55133706,0.22462304,-1.4100809,-1.9295759,-0.7835733,1.8631883,1.7538155,-0.6466053,0.23066872,-1.3729762,-1.9775188,-0.7561908,1.8014444,1.7243159,-0.69761014,-0.22530048,-0.8604811,1.0473778,-0.68179446,1.1058782,0.05410108,0.41250914,-0.6213083,-0.46256137,0.567625,-0.19901568,0.09165107,-0.3885999,-0.5927086,-0.4211836,0.534272,0.9871237,0.058545474,0.0828904,0.12364595,-0.18065386,0.13039179,-0.37035117,0.0,1.0,0.0,0.0,0.0,0.0,0.0,-0.02869165,0.06256136,-0.017624974,14.5069685,4.288769,-2.3461103,5.7875037,0.04184246,4.1797137,-0.1676619
37.43166,95.25595,24.830149,3.7506385,-0.056672808,-0.15204749,0.016997483,-0.02334595,-0.4323967,0.5934782,-0.24489208,0.71727234,0.32422772,0.5395943,0.22833413,-1.4162159,-1.9181709,-0.78068,1.8731717,1.7567387,-0.6436507,0.22938055,-1.381214,-1.9671404,-0.7622074,1.8124118,1.7250825,-0.6935164,-0.09610243,-0.8112116,1.0335907,-0.5738869,1.095698,0.085521266,0.40892553,-0.6230602,-0.46182323,0.56414115,-0.16730405,0.06780596,-0.33353844,-0.59421825,-0.42023396,0.5309015,0.98773485,0.05047791,0.073589146,0.12812659,-0.14099793,0.084124595,-0.3264523,0.0,1.0,0.0,0.0,0.0,0.0,0.0,-0.02693975,0.06182322,-0.014141142,13.091752,5.018592,-1.7352343,11.106241,-0.51648617,3.424777,-0.14539361
33.06957,94.94686,24.338217,4.1732035,-0.09264134,-0.14367712,0.031689357,0.030188425,-0.4014443,0.57702965,-0.25359502,0.70852566,0.31366628,0.52440006,0.23239939,-1.4213585,-1.9094374,-0.7875669,1.8832643,1.7564491,-0.6410764,0.22925463,-1.388914,-1.9569298,-0.7673037,1.823257,1.7261147,-0.68946594,0.015771102,-0.7561466,1.015857,-0.4871566,1.0824614,0.11023657,0.40436155,-0.62452316,-0.46130204,0.56117517,-0.1392477,0.047021814,-0.28260332,-0.59534645,-0.41971684,0.5279601,0.98813224,0.04225619,0.06488947,0.13265933,-0.10364298,0.041748997,-0.2842588,0.0,1.0,0.0,0.0,0.0,0.0,0.0,-0.025476813,0.061302036,-0.011175156,11.349826,5.579567,-2.0929337,8.995801,-0.8202076,2.855067,-0.27173758
11.236719,108.01511,25.92448,12.688163,0.5956291,0.2171636,-0.13963677,0.015183362,-0.30338475,0.5357206,-0.2107226,0.6967878,0.31839836,0.52379656,0.23077297,-1.4192525,-1.9033577,-0.788376,1.8929358,1.7579546,-0.6370863,0.22982877,-1.395727,-1.9470607,-0.7715827,1.8339548,1.7273533,-0.685454,0.07185964,-0.65605927,0.9759455,-0.40713453,1.0676818,0.13065395,0.40061635,-0.62574387,-0.46091413,0.5588625,-0.11912318,0.031853404,-0.21270584,-0.5962143,-0.41939092,0.52561206,0.98834157,0.034022216,0.056924626,0.13705084,-0.08149416,0.030279472,-0.21932873,0.0,1.0,0.0,0.0,0.0,0.0,0.0,-0.02425611,0.06091413,-0.008862495,5.7786994,10.11467,-4.430127,8.319176,-0.8504629,2.5319428,-0.202173
16.679882,118.41185,28.68723,10.922923,0.124795526,0.20271409,-0.023493998,0.08538668,-0.21063803,0.49495095,-0.21245508,0.6901162,0.29901594,0.5266757,0.23836744,-1.4167908,-1.8975656,-0.7928282,1.9029664,1.757255,-0.63278645,0.23098774,-1.4012469,-1.937741,-0.7753115,1.8445212,1.7287424,-0.6814753,0.13116327,-0.51695454,0.91588885,-0.36036927,1.054751,0.14241023,0.39771453,-0.626709,-0.4606495,0.5573809,-0.08966338,0.02931667,-0.12523189,-0.5967474,-0.41925812,0.5240336,0.9883639,0.025913542,0.049830467,0.14135845,-0.04449891,0.008204789,-0.13849682,0.0,1.0,0.0,0.0,0.0,0.0,0.0,-0.023290992,0.060649484,-0.007380903,6.1017766,14.002299,-6.4270616,5.0142527,-0.7069588,1.5989095,-0.106328726
-17.175102,127.13668,27.688301,24.104023,1.1623483,0.49716803,-0.39585212,0.020181466,-0.09234324,0.34483302,-0.09672115,0.67785287,0.2708074,0.50833344,0.2330059,-1.4104812,-1.9032577,-0.78498363,1.9123064,1.7558231,-0.63064194,0.23224874,-1.4050521,-1.9296403,-0.77825063,1.8549466,1.7302132,-0.6775328,0.12487647,-0.3344929,0.77311045,-0.2708147,1.0407491,0.1496703,0.39373076,-0.62750244,-0.46040154,0.5568394,-0.07588051,0.025433423,-0.0293555,-0.59716415,-0.41902232,0.52336407,0.9882613,0.018277362,0.04385162,0.14519863,-0.041503046,0.029143147,-0.044164937,0.0,0.0,1.0,0.0,0.0,0.0,0.0,-0.022497535,0.06040153,-0.0068393946,-0.48457682,18.38116,-14.768087,9.232783,-0.7479906,1.0290712,-0.2251625
-6.413356,95.17083,18.24748,16.56203,0.14771117,-0.28699136,-0.34696534,0.12502156,-0.116682395,0.13909264,-0.01580165,0.63675886,0.2622883,0.49203086,0.24475089,-1.4167203,-1.9157311,-0.7798308,1.9186225,1.756442,-0.6283297,0.23378107,-1.4074897,-1.923754,-0.7800578,1.8651012,1.731741,-0.67363906,0.16291596,-0.21328677,0.5265834,-0.1500457,1.0077507,0.15413445,0.38851908,-0.6282034,-0.46018028,0.55675405,-0.06870319,0.024575993,-0.0010325641,-0.597559,-0.4188223,0.523152,0.98808223,0.01165268,0.038950674,0.1484601,-0.039203856,0.017189568,-0.014605423,0.0,0.0,1.0,0.0,0.0,0.0,0.0,-0.021796584,0.060180277,-0.0067540407,3.866589,12.189505,-24.856926,12.258455,-2.9889822,0.59322715,-0.36646724
-14.039613,80.94597,13.315653,18.061771,0.24159577,-0.46823686,-0.4812713,0.12506896,-0.06675908,-0.0063817385,0.09078617,0.5982966,0.2882839,0.48722437,0.24628797,-1.4141656,-1.9243921,-0.77097917,1.9249309,1.7605693,-0.6249166,0.23566553,-1.4089335,-1.9206796,-0.780367,1.8748231,1.733333,-0.66979873,0.19701974,-0.121276215,0.23404412,0.009061089,0.9608363,0.1608604,0.38292226,-0.6288824,-0.4599805,0.5567392,-0.06792604,0.019715047,-0.0015063497,-0.5980444,-0.41870546,0.52304053,0.9878902,0.0063773515,0.035084095,0.15100098,-0.05218859,0.009844464,-0.011013433,0.0,0.0,1.0,0.0,0.0,0.0,0.0,-0.021117568,0.059980482,-0.006739199,3.4323425,9.236702,-29.35355,15.996465,-4.5155525,0.69729686,-0.4453957
-20.522264,80.04726,12.589934,19.46389,0.3201449,-0.3521119,-0.4897706,0.10254705,0.011380119,-0.13106981,0.12508531,0.5444231,0.29834682,0.49501047,0.24592024,-1.4077955,-1.9337865,-0.7678585,1.9292654,1.7631676,-0.6202977,0.2377133,-1.4094523,-1.9205303,-0.77922565,1.8839614,1.7349827,-0.6660042,0.20736314,-0.028684342,-0.058174066,0.14920615,0.89873457,0.16631794,0.37845618,-0.6295681,-0.45977187,0.5567172,-0.068872474,0.021333735,-0.0025434622,-0.5986757,-0.41859937,0.5229578,0.9877323,0.0025699786,0.032270588,0.15276437,-0.06708713,0.010929306,-0.008090505,0.0,0.0,1.0,0.0,0.0,0.0,0.0,-0.020431876,0.059771866,-0.006717205,1.0363281,9.257324,-29.260445,14.028217,-6.064379,0.53818524,-0.39836168
-15.6550455,72.293564,11.304009,15.143252,0.02363202,-0.3306927,-0.3122189,0.10469776,0.02681932,-0.22221112,0.11134891,0.49490696,0.31215036,0.50104326,0.24818309,-1.4067703,-1.9427514,-0.7680908,1.9334521,1.7661978,-0.61589986,0.23978135,-1.4092349,-1.9229851,-0.77714187,1.8924187,1.73669,-0.6622478,0.20658477,0.03845966,-0.30771852,0.22792627,0.8282478,0.1721515,0.37465385,-0.6302452,-0.4595585,0.5565924,-0.0673815,0.021390311,-0.016008783,-0.5993843,-0.41852164,0.5228069,0.9876119,0.00014909328,0.030363197,0.15395018,-0.07189529,0.00679783,-0.017777968,0.0,0.0,1.0,0.0,0.0,0.0,0.0,-0.019754767,0.05955848,-0.006592393,-0.09128451,6.684004,-24.919628,7.8267393,-6.987655,0.53126514,-0.39173365
-18.19355,72.19175,11.948771,14.883516,0.17895995,-0.10398179,-0.22859149,0.07367308,0.05969994,-0.28752044,0.12129282,0.4337381,0.3276345,0.5066254,0.24714866,-1.4032649,-1.9517372,-0.76501256,1.9357926,1.7694535,-0.61158526,0.24165246,-1.4084357,-1.9274712,-0.77460814,1.9001074,1.7384562,-0.6585227,0.18053794,0.09361024,-0.49499005,0.2615393,0.7489805,0.17784403,0.3715951,-0.63090134,-0.4593253,0.556365,-0.06500083,0.0240026,-0.025044719,-0.6001234,-0.41841745,0.52258193,0.9875244,-0.0010952221,0.029219517,0.15472719,-0.07450149,0.011708384,-0.024048492,0.0,0.0,1.0,0.0,0.0,0.0,0.0,-0.01909864,0.059325308,-0.006365001,-2.634129,5.468361,-18.607449,3.2693923,-7.9476953,0.48454404,-0.36525726
-14.051624,75.354774,13.8509445,13.397717,0.17931959,0.0040729716,-0.1277585,0.07182273,0.09290389,-0.3382002,0.13204527,0.38706812,0.3082244,0.5188706,0.24883473,-1.3991454,-1.9612912,-0.7614036,1.9388142,1.7692786,-0.6066357,0.24324821,-1.4071215,-1.933382,-0.77193874,1.9070082,1.7402546,-0.6548177,0.15243533,0.14368685,-0.6225045,0.26836124,0.67026055,0.18006483,0.3698006,-0.6315155,-0.45906734,0.55612516,-0.060200796,0.02645473,-0.023330137,-0.6008434,-0.41826725,0.5223631,0.9874566,-0.001418358,0.02872945,0.15524827,-0.07082512,0.016307596,-0.020949373,0.0,0.0,1.0,0.0,0.0,0.0,0.0,-0.018484473,0.05906734,-0.006125152,-2.8575034,4.954231,-12.560833,0.553298,-7.9568744,0.114136934,-0.28418303
-7.3725615,77.21954,15.62449,11.749983,0.21945451,0.022005754,-0.06786097,0.08347626,0.10695,-0.35869485,0.15942462,0.35399136,0.29330662,0.5184952,0.25159582,-1.3964266,-1.9692515,-0.7559963,1.9424073,1.7695853,-0.60296816,0.24466847,-1.4053935,-1.940132,-0.76919305,1.9131879,1.7420553,-0.6511289,0.13834372,0.18219486,-0.6917352,0.27618152,0.6001825,0.17957611,0.36814466,-0.63207054,-0.45879245,0.5559709,-0.0539061,0.027879149,-0.012354762,-0.60149765,-0.4180982,0.5222332,0.9873962,-0.0011131748,0.028773947,0.1556259,-0.06377071,0.017483572,-0.009945118,0.0,0.0,1.0,0.0,0.0,0.0,0.0,-0.017929435,0.058792442,-0.0059708953,-1.4717042,3.7977219,-6.696832,0.63091516,-7.122779,-0.1713723,-0.291121
-5.614579,74.03211,15.170083,11.41262,0.27630764,-0.030734248,-0.07426777,0.08243845,0.10809666,-0.40304872,0.19491176,0.28183863,0.26296067,0.5315013,0.2529123,-1.3945838,-1.9804369,-0.74970186,1.9413717,1.7683513,-0.5979788,0.24601483,-1.4034117,-1.9474064,-0.76623845,1.9186141,1.7438257,-0.64744484,0.13319854,0.20337962,-0.738608,0.30145258,0.5229831,0.17579125,0.36803135,-0.6325693,-0.45850658,0.55590147,-0.048487544,0.028843526,-0.004583481,-0.60210514,-0.4179275,0.5221867,0.98734194,-0.00031585805,0.029281702,0.15587942,-0.05943172,0.017234549,-0.0022146439,0.0,0.0,1.0,0.0,0.0,0.0,0.0,-0.017430663,0.05850658,-0.005901456,-0.5815923,2.0646305,-4.454291,2.3758948,-7.8490376,-0.5062938,-0.13903975
