Afshin1997/kuka_rl_ros2/src/catch_and_throw/input_files/idealpd/polynomial_regressor/optimizer_files/env_99_data.csv
torque0,torque1,torque2,torque3,torque4,torque5,torque6,action0,action1,action2,action3,action4,action5,action6,set_target_0,set_target_1,set_target_2,set_target_3,set_target_4,set_target_5,set_target_6,joint_pos_0,joint_pos_1,joint_pos_2,joint_pos_3,joint_pos_4,joint_pos_5,joint_pos_6,joint_vel_0,joint_vel_1,joint_vel_2,joint_vel_3,joint_vel_4,joint_vel_5,joint_vel_6,tennisball_pos_0,tennisball_pos_1,tennisball_pos_2,tennisball_lin_vel_0,tennisball_lin_vel_1,tennisball_lin_vel_2,end_effector_pos_0,end_effector_pos_1,end_effector_pos_2,end_effector_rot_0,end_effector_rot_1,end_effector_rot_2,end_effector_rot_3,end_effector_lin_vel_0,end_effector_lin_vel_1,end_effector_lin_vel_2,obs_task_0,obs_task_1,obs_task_2,obs_task_3,obs_task_4,obs_task_5,obs_task_6,to_final_target_0,to_final_target_1,to_final_target_2,joint_acc_0,joint_acc_1,joint_acc_2,joint_acc_3,joint_acc_4,joint_acc_5,joint_acc_6
0.0,0.0,0.0,0.0,0.0,0.0,0.0,0.0,0.0,0.0,0.0,0.0,0.0,0.0,1.7802359,-1.0646509,-1.8151424,-1.1170107,1.9373155,1.1170107,-0.91629785,1.7802359,-1.0646509,-1.8151424,-1.1170107,1.9373155,1.1170107,-0.91629785,0.0,0.0,0.0,0.0,0.0,0.0,0.0,3.0946274,-0.3959818,0.4484805,-3.7505677,0.02637751,4.855198,0.5304184,-0.4544952,0.693097,0.5745483,0.17512383,0.15255436,0.7848268,0.0,0.0,0.0,1.0,0.0,0.0,0.0,0.0,0.0,0.0,-3.7446275,-0.0040182173,0.101519525,0.0,0.0,0.0,0.0,0.0,0.0,0.0
0.0,0.0,0.0,0.0,0.0,0.0,0.0,0.0,0.0,0.0,0.0,0.0,0.0,0.0,1.7802359,-1.0646509,-1.8151424,-1.1170107,1.9373155,1.1170107,-0.91629785,1.7802359,-1.0646509,-1.8151424,-1.1170107,1.9373155,1.1170107,-0.91629785,0.0,0.0,0.0,0.0,0.0,0.0,0.0,3.0946274,-0.3959818,0.4484805,-3.7505677,0.02637751,4.855198,0.5304184,-0.4544952,0.693097,0.5745483,0.17512383,0.15255436,0.7848268,0.0,0.0,0.0,1.0,0.0,0.0,0.0,0.0,0.0,0.0,-3.7446275,-0.0040182173,0.101519525,0.0,0.0,0.0,0.0,0.0,0.0,0.0
0.0,0.0,0.0,0.0,0.0,0.0,0.0,0.0,0.0,0.0,0.0,0.0,0.0,0.0,1.7802359,-1.0646509,-1.8151424,-1.1170107,1.9373155,1.1170107,-0.91629785,1.7802359,-1.0646509,-1.8151424,-1.1170107,1.9373155,1.1170107,-0.91629785,0.0,0.0,0.0,0.0,0.0,0.0,0.0,3.0946274,-0.3959818,0.4484805,-3.7505677,0.02637751,4.855198,0.5304184,-0.4544952,0.693097,0.5745483,0.17512383,0.15255436,0.7848268,0.0,0.0,0.0,1.0,0.0,0.0,0.0,0.0,0.0,0.0,-3.7446275,-0.0040182173,0.101519525,0.0,0.0,0.0,0.0,0.0,0.0,0.0
-176.0,86.849106,1.0050526,110.0,10.995368,5.420938,-3.8291366,-0.82422173,0.4473776,-0.54850894,0.7234362,0.39915082,0.6129045,-0.5696495,1.6978137,-1.0199131,-1.8699933,-1.0446671,1.9772305,1.1783012,-0.9732628,1.7784964,-1.061725,-1.8209541,-1.1131521,1.9437299,1.1219965,-0.91919035,-0.23174599,0.38929597,-0.77415097,0.51450354,0.8540012,0.6627392,-0.3852145,3.0571518,-0.3957181,0.4962596,-3.7468178,0.026351139,4.752157,0.5281944,-0.45754838,0.6940636,0.5786324,0.17381704,0.15094182,0.7824249,-0.29609883,-0.40704316,0.12852482,1.0,0.0,0.0,0.0,0.0,0.0,0.0,-3.707152,-0.0042819083,0.053740412,-23.147848,38.70793,-77.13488,51.477295,85.082466,65.60633,-38.394722
-176.0,44.535786,-16.062826,110.0,11.841883,4.119191,-3.328733,-0.8234361,0.23370872,-0.5613062,0.69980025,0.50583416,0.60354114,-0.593367,1.6961528,-1.0383542,-1.8770847,-1.0431721,1.9943132,1.1823506,-0.97852707,1.7752215,-1.0559686,-1.8352497,-1.1028448,1.9581895,1.1343085,-0.9241151,-0.358151,0.63570005,-1.6472721,1.2041645,1.6415535,1.4130423,-0.525744,3.0197105,-0.39545488,0.5430091,-3.7430718,0.026324794,4.6492195,0.5230522,-0.46504474,0.6958935,0.58769417,0.17069781,0.14689636,0.7771095,-0.5888474,-0.8626714,0.2017802,1.0,0.0,0.0,0.0,0.0,0.0,0.0,-3.6697106,-0.0045451224,0.0069909096,-12.250816,23.989439,-87.10058,69.38508,78.18902,72.7489,-13.29462
-154.80042,123.86016,32.147865,94.532295,7.702672,7.6018867,-2.0534692,-0.7801978,0.48056206,-0.15740003,0.5676035,0.5045243,0.63661754,-0.57162064,1.6972017,-1.0079124,-1.8509897,-1.0460845,2.008642,1.1979702,-0.98127717,1.7684275,-1.048179,-1.8508289,-1.0891482,1.9747071,1.1482626,-0.92952436,-0.78724664,0.82313,-1.5214775,1.4253249,1.651057,1.3809987,-0.5483967,2.9823074,-0.39519167,0.58873,-3.7393296,0.026298475,4.546385,0.5149689,-0.4751191,0.699573,0.599867,0.16610485,0.14194483,0.7696885,-0.88751173,-1.0502476,0.42756185,1.0,0.0,0.0,0.0,0.0,0.0,0.0,-3.6323075,-0.0048083365,-0.038729966,-43.142105,17.696726,14.638996,22.265577,-0.29861927,-5.7681084,-2.9747128
-93.66907,134.49945,46.98824,62.64703,4.0523515,7.818309,-0.86687964,-0.7889323,0.49512953,-0.11849716,0.5690603,0.48906907,0.6191123,-0.568836,1.6895343,-0.99866605,-1.8626786,-1.0322422,2.023614,1.2101738,-0.98640794,1.7576891,-1.0391802,-1.8627307,-1.0749346,1.9895921,1.1611601,-0.93495935,-1.1709689,0.92284226,-1.0719211,1.4200201,1.4303894,1.2540367,-0.54533976,2.9449425,-0.39492893,0.63342327,-3.7355912,0.026272181,4.443653,0.50447464,-0.48576927,0.70542455,0.6133226,0.16003715,0.1369228,0.761233,-1.1161165,-1.0594593,0.6436515,1.0,0.0,0.0,0.0,0.0,0.0,0.0,-3.5949426,-0.005071074,-0.08342326,-38.895546,9.149408,47.266125,-0.5465269,-23.189688,-14.3175125,-0.7355213
-36.78777,134.56422,53.208412,35.344246,1.3261368,6.865808,-0.010554854,-0.8083823,0.5451455,-0.053619854,0.5740285,0.5423935,0.61668766,-0.56463414,1.6768509,-0.98466563,-1.8680928,-1.0175318,2.0438313,1.2228289,-0.9914228,1.7439448,-1.0294698,-1.8695114,-1.061648,2.002014,1.1726576,-0.94030565,-1.4441687,0.9853676,-0.5401828,1.2977473,1.176671,1.1123519,-0.5341648,2.9076157,-0.39466643,0.67709005,-3.7318563,0.026245914,4.3410244,0.4923172,-0.49569416,0.71317637,0.62680376,0.15256472,0.13200071,0.75260663,-1.2599742,-0.956395,0.8235291,1.0,0.0,0.0,0.0,0.0,0.0,0.0,-3.5576158,-0.0053335726,-0.12709004,-27.892637,5.7013154,55.15765,-12.387228,-26.174236,-14.937139,0.15560389
4.2581935,122.8698,50.47198,16.311823,-0.36062557,5.129146,0.38732,-0.8159828,0.58690995,-0.001244903,0.58498836,0.5672325,0.6115288,-0.5718462,1.6623465,-0.9707788,-1.8696358,-1.0031492,2.0587373,1.2338105,-0.9974903,1.7284743,-1.0192446,-1.8717239,-1.0496718,2.0123327,1.1828715,-0.9455318,-1.5828614,1.0337664,-0.11019498,1.1636136,0.9820704,0.99023926,-0.52125216,2.8703232,-0.39440417,0.7197313,-3.728125,0.026219673,4.2384977,0.4793129,-0.5042825,0.7223405,0.6396605,0.1440127,0.12725273,0.74424565,-1.3249178,-0.8106125,0.9495085,1.0,0.0,0.0,0.0,0.0,0.0,0.0,-3.5203233,-0.005595833,-0.16973126,-14.322209,4.496765,44.40868,-13.635206,-19.91955,-12.449408,0.5391121
27.137306,113.27047,46.155907,6.701084,-1.1662127,3.6820383,0.47152823,-0.8185334,0.63745993,0.059497688,0.59088564,0.580409,0.60910213,-0.56528735,1.6466209,-0.9554986,-1.8657742,-0.9905832,2.0703735,1.2437817,-1.0020605,1.712401,-1.0084795,-1.8707168,-1.0387655,2.0212705,1.192021,-0.9506263,-1.6166948,1.0899742,0.17419958,1.0655804,0.86379534,0.88980186,-0.5074647,2.8330688,-0.39414215,0.761348,-3.7243977,0.026193459,4.136074,0.46603012,-0.5113809,0.73249316,0.65169823,0.13472247,0.12274983,0.73625517,-1.3373258,-0.6598045,1.0371294,1.0,0.0,0.0,0.0,0.0,0.0,0.0,-3.483069,-0.005857855,-0.211348,-3.7122965,5.388236,29.421076,-10.028195,-12.080872,-10.049284,0.7784009
34.846607,102.639824,40.22876,3.0316834,-1.3606492,2.5683954,0.41039297,-0.82001984,0.6754295,0.10316642,0.58046037,0.59413075,0.6148465,-0.5515805,1.630399,-0.9409365,-1.8604002,-0.9807195,2.0806837,1.2535057,-1.0057844,1.6964403,-0.9971054,-1.8678749,-1.0285441,2.029518,1.2003084,-0.9555797,-1.5901066,1.1525711,0.32303864,1.0071049,0.8110711,0.80879384,-0.49288225,2.7958527,-0.39388037,0.8019413,-3.720674,0.02616727,4.0337524,0.45282364,-0.51709557,0.7432966,0.6629555,0.124997474,0.11854641,0.72856873,-1.3220016,-0.5254008,1.0932511,1.0,0.0,0.0,0.0,0.0,0.0,0.0,-3.4458528,-0.0061196387,-0.25194126,2.4231672,6.094742,15.571109,-6.0513973,-5.4104924,-8.017361,0.9758055
34.75307,94.146355,35.440296,2.6220384,-1.2068037,1.9211521,0.3445456,-0.81503844,0.70285386,0.15668163,0.56596076,0.61325115,0.61789536,-0.5363529,1.6149365,-0.92682004,-1.8522067,-0.97194797,2.090843,1.262098,-1.009215,1.6809279,-0.9851168,-1.8641479,-1.0186926,2.037586,1.2079016,-0.9603862,-1.5387475,1.2138038,0.39099324,0.9772428,0.8052369,0.7431071,-0.47790542,2.7586746,-0.39361906,0.8415121,-3.7169542,0.026141107,3.9315336,0.43982315,-0.5216162,0.75452334,0.67353433,0.11504069,0.11462109,0.7210958,-1.297284,-0.41100496,1.1301415,1.0,0.0,0.0,0.0,0.0,0.0,0.0,-3.4086747,-0.0063809454,-0.29151207,4.9563885,5.996847,7.319081,-3.1676054,-0.66548586,-6.473267,1.0932863
28.266981,83.03382,29.47676,3.9262724,-0.88072777,1.4139259,0.23811616,-0.8100466,0.7170651,0.1656579,0.55824167,0.618022,0.62869924,-0.5279876,1.5999233,-0.91341025,-1.8475821,-0.96286845,2.0993881,1.2707715,-1.013185,1.6659266,-0.97260743,-1.8601882,-1.0089957,2.045757,1.2149359,-0.96504873,-1.4878331,1.2629591,0.3990172,0.9665771,0.8211965,0.6905302,-0.46344253,2.7215347,-0.39335775,0.8800615,-3.7132382,0.02611497,3.8294172,0.42705154,-0.52518153,0.7659687,0.68356776,0.10501308,0.110943206,0.7137219,-1.2739547,-0.3220241,1.1465396,1.0,0.0,0.0,0.0,0.0,0.0,0.0,-3.3715348,-0.006642252,-0.3300615,4.949355,4.824567,1.1942446,-1.2424588,1.5681148,-5.166054,1.1101604
22.157866,73.179565,24.490301,4.4342804,-0.6497691,1.0475223,0.1881378,-0.8058777,0.72989964,0.16241279,0.5284108,0.63690436,0.6352009,-0.52609193,1.5853388,-0.8996175,-1.8439469,-0.9561546,2.1094475,1.278456,-1.0176579,1.6513354,-0.9597071,-1.8563983,-0.99944925,2.0541837,1.2215239,-0.9695787,-1.4499204,1.2988986,0.373338,0.95002335,0.8500915,0.6484659,-0.4504319,2.6844292,-0.39309692,0.9175905,-3.7095256,0.02608886,3.727403,0.41448212,-0.5279932,0.777438,0.69314796,0.09505843,0.107487686,0.70636827,-1.253369,-0.25125736,1.1440381,1.0,0.0,0.0,0.0,0.0,0.0,0.0,-3.3344293,-0.006903082,-0.3675905,3.6573887,3.530383,-2.246219,-1.8506885,2.8971076,-4.100573,1.0105252
17.178337,69.16335,22.394318,5.7087193,-0.44680777,0.9968051,0.16656543,-0.8059849,0.7454789,0.18039131,0.5087349,0.64088154,0.63435763,-0.5176916,1.5707369,-0.8851592,-1.8383592,-0.94857574,2.1182718,1.2849597,-1.0213479,1.6369883,-0.94651014,-1.852843,-0.99011946,2.0628927,1.2277495,-0.97398657,-1.4300094,1.3264512,0.35065475,0.92653334,0.87785,0.6140362,-0.4384228,2.6473618,-0.3928361,0.95410013,-3.7058167,0.026062775,3.6254907,0.40207672,-0.53016186,0.78884333,0.70232564,0.085222416,0.10421863,0.69900954,-1.2388083,-0.18935144,1.1361926,1.0,0.0,0.0,0.0,0.0,0.0,0.0,-3.2973619,-0.007163912,-0.40410012,1.8529415,2.70195,-1.9566298,-2.5489569,2.798605,-3.3479571,0.93125105
14.1417465,63.20949,19.727938,5.5368166,-0.36880475,0.815317,0.1682593,-0.80354416,0.7483136,0.16639052,0.47833934,0.6532969,0.64035755,-0.5088068,1.5566338,-0.87167877,-1.836204,-0.94228554,2.1282225,1.2917852,-1.0248673,1.6227442,-0.9331263,-1.8495357,-0.98112917,2.071861,1.2336813,-0.97828096,-1.4229727,1.3422556,0.32499173,0.88911515,0.903593,0.58671206,-0.4272294,2.6103325,-0.39257574,0.9895914,-3.7021117,0.026036719,3.52368,0.38980484,-0.53176785,0.8000875,0.7111191,0.075555824,0.10111886,0.6916471,-1.225072,-0.1351799,1.1173067,1.0,0.0,0.0,0.0,0.0,0.0,0.0,-3.2603326,-0.007424265,-0.4395914,0.56090355,1.5438318,-2.272123,-3.9618492,2.6141644,-2.6120543,0.8678436
15.100329,61.59359,19.207258,4.4084644,-0.47231215,0.7339604,0.21551883,-0.7991003,0.7571981,0.17079599,0.43672198,0.660446,0.64138496,-0.50486887,1.5428342,-0.85740644,-1.8324561,-0.93745697,2.1379056,1.2978199,-1.0287678,1.6085268,-0.91962034,-1.8464019,-0.97265196,2.0810544,1.2393805,-0.9824733,-1.421786,1.353309,0.31045172,0.8331542,0.92430776,0.5648864,-0.41737634,2.5733376,-0.39231563,1.0240654,-3.6984105,0.026010687,3.4219713,0.37768936,-0.5328169,0.8111111,0.7195016,0.06608013,0.09818105,0.6843328,-1.2073313,-0.0791735,1.0939815,1.0,0.0,0.0,0.0,0.0,0.0,0.0,-3.2233377,-0.00768438,-0.47406536,-0.03232956,1.0765791,-1.1444271,-5.827546,2.1127462,-2.0305634,0.7342458
15.973386,61.436985,19.258226,3.954671,-0.5407342,0.70705795,0.24934265,-0.7993798,0.7635571,0.1793242,0.40256715,0.65964776,0.6437336,-0.48897514,1.5285889,-0.84326464,-1.8284695,-0.9323952,2.1470191,1.3037539,-1.0313709,1.5942923,-0.90602285,-1.8433082,-0.9648051,2.0903966,1.2448946,-0.98656744,-1.4244008,1.3618466,0.31001866,0.7677531,0.9374632,0.54758066,-0.40753806,2.5363808,-0.39205575,1.0575229,-3.6947129,0.02598468,3.3203642,0.36577225,-0.53328824,0.82189834,0.7274453,0.056777585,0.09540753,0.677124,-1.1866618,-0.021266429,1.0703003,1.0,0.0,0.0,0.0,0.0,0.0,0.0,-3.1863809,-0.007944256,-0.5075229,-0.41472912,0.8303642,0.27580857,-6.769383,1.3589382,-1.561904,0.7348001
17.27869,60.6111,19.10825,3.5162773,-0.5878232,0.6284219,0.27135873,-0.79391044,0.76308286,0.18472748,0.3728987,0.66106695,0.64714,-0.4833494,1.5149013,-0.82971454,-1.8248354,-0.92751527,2.1565034,1.3096086,-1.0349023,1.580052,-0.89237386,-1.8401496,-0.9576163,2.0998266,1.2502638,-0.99057,-1.4244375,1.3659074,0.31889543,0.7018313,0.9449694,0.5340739,-0.3985468,2.4994621,-0.3917961,1.0899652,-3.6910188,0.0259587,3.2188587,0.35408783,-0.5331781,0.8324458,0.7349375,0.04762426,0.09278869,0.67006636,-1.162126,0.03638026,1.046036,1.0,0.0,0.0,0.0,0.0,0.0,0.0,-3.1494622,-0.008203894,-0.5399652,-0.14753342,0.39200783,1.1923134,-6.815243,0.8022547,-1.1624813,0.6559968
18.728525,61.503437,19.432692,3.004066,-0.6827354,0.5803462,0.2966485,-0.7960227,0.77299654,0.19290277,0.32432628,0.66840154,0.6467666,-0.48116,1.5004498,-0.8150742,-1.8208593,-0.9251837,2.1666667,1.3149405,-1.038686,1.565806,-0.878661,-1.8368537,-0.9511485,2.1093214,1.2555186,-0.99449056,-1.4251776,1.3730196,0.334228,0.6277104,0.9513121,0.5233058,-0.39067015,2.4625816,-0.3915367,1.1213933,-3.6873286,0.025932746,3.1174548,0.34267044,-0.53247046,0.84275603,0.74196476,0.038606647,0.090329304,0.6632031,-1.1333379,0.09632619,1.0223296,1.0,0.0,0.0,0.0,0.0,0.0,0.0,-3.1125817,-0.008463293,-0.5713933,-0.21629333,0.7031679,1.832211,-7.625854,0.6926179,-0.870502,0.5529702
22.63144,61.98416,20.048416,0.868721,-0.88782275,0.48677093,0.3940207,-0.7951446,0.7737281,0.22823985,0.251279,0.67685103,0.6403006,-0.47769767,1.4862915,-0.8012882,-1.8140298,-0.9260206,2.1770065,1.3195486,-1.0422603,1.5515581,-0.86488706,-1.8332565,-0.94559145,2.1188848,1.2606779,-0.9983396,-1.4251391,1.3788747,0.3694259,0.53103566,0.95859766,0.51440984,-0.38375124,2.4257355,-0.39127755,1.1518081,-3.6836421,0.025906818,3.0161521,0.3316002,-0.531116,0.8528128,0.74846023,0.029733656,0.08801311,0.6566406,-1.0953778,0.16185188,0.9963168,1.0,0.0,0.0,0.0,0.0,0.0,0.0,-3.0757356,-0.008722454,-0.60180813,-0.13551712,0.58636665,3.8236737,-9.874571,0.7887006,-0.6347656,0.45959353
24.660513,61.73341,20.047344,-0.39508152,-1.0360851,0.36800548,0.4413885,-0.7969041,0.77781683,0.25005394,0.18757118,0.6729761,0.6354054,-0.4698494,1.4718677,-0.7871054,-1.8082511,-0.92683434,2.1861825,1.3242185,-1.0453246,1.5373045,-0.8510521,-1.8292415,-0.9411092,2.1285017,1.2657591,-1.0021209,-1.425903,1.3851699,0.41318104,0.41991884,0.9626681,0.5070341,-0.37707353,2.3889275,-0.39101863,1.1812106,-3.679959,0.025880916,2.9149508,0.3209648,-0.5290909,0.86259186,0.7543779,0.02102463,0.08584355,0.65046346,-1.050384,0.22894543,0.9677049,1.0,0.0,0.0,0.0,0.0,0.0,0.0,-3.0389276,-0.008981377,-0.6312106,-0.20618439,0.6425142,4.652548,-11.3050995,0.48230886,-0.44248104,0.45357347
29.429922,59.339,19.434027,-4.280919,-1.4005775,0.07322019,0.55281657,-0.7955593,0.77803904,0.274291,0.07397649,0.6780842,0.6333556,-0.46726683,1.4577487,-0.7732482,-1.8018124,-0.9337115,2.19631,1.3290946,-1.0488476,1.5230509,-0.83716756,-1.8247554,-0.9380317,2.1381567,1.2707793,-1.0058421,-1.4256248,1.3896337,0.461271,0.2697451,0.96692914,0.50166214,-0.37098154,2.3521538,-0.39076018,1.2096018,-3.6762798,0.02585504,2.8138509,0.310894,-0.5263622,0.872001,0.7596404,0.012569983,0.083864704,0.64479077,-0.9893601,0.29916152,0.9275982,1.0,0.0,0.0,0.0,0.0,0.0,0.0,-3.0021539,-0.009239823,-0.65960175,-0.08871555,0.475955,5.059677,-15.204966,0.5084753,-0.15530586,0.41726232
30.500103,57.89726,18.724936,-5.4163837,-1.5391058,-0.1270421,0.56915694,-0.79707986,0.7852613,0.28881413,-0.006745003,0.67598647,0.63610315,-0.45396388,1.4433429,-0.7586414,-1.795874,-0.93870616,2.2057552,1.3343896,-1.0512385,1.5087954,-0.8232201,-1.8198326,-0.9365506,2.1478384,1.2757593,-1.0094985,-1.4258816,1.3966475,0.50318176,0.10696318,0.9691311,0.4980214,-0.36422503,2.3154182,-0.39050174,1.2369827,-3.6726043,0.02582919,2.712852,0.30147552,-0.52294445,0.8809757,0.76422745,0.004441363,0.08212916,0.6396807,-0.9209192,0.36676255,0.88278645,1.0,0.0,0.0,0.0,0.0,0.0,0.0,-2.9654183,-0.009498268,-0.6869827,-0.12087822,0.74825287,4.37842,-16.443945,0.33026934,0.053077936,0.52016973
29.702164,56.22557,18.089409,-4.6763196,-1.4310192,-0.2470896,0.54931843,-0.7909284,0.78278625,0.31511414,-0.063516766,0.6785078,0.6382883,-0.4302511,1.4297025,-0.7449415,-1.7883211,-0.94290227,2.2156892,1.3395882,-1.0525236,1.4945666,-0.80922586,-1.8144958,-0.9365945,2.1575468,1.2807108,-1.0130748,-1.4219766,1.4005547,0.54422116,-0.04188452,0.97164834,0.49543765,-0.35573515,2.2787209,-0.39024377,1.2633544,-3.6689324,0.025803367,2.611954,0.29273987,-0.5188966,0.88951236,0.7681721,-0.0033516386,0.080630876,0.63513696,-0.8524904,0.42716834,0.8390653,1.0,0.0,0.0,0.0,0.0,0.0,0.0,-2.928721,-0.009756237,-0.7133544,0.32680035,0.45526028,4.2095304,-15.026254,0.3992319,0.1560986,0.72220564
26.686758,53.955246,17.060976,-2.821138,-1.2015678,-0.32727993,0.49234354,-0.792556,0.7808726,0.33447233,-0.1212531,0.68167824,0.6336101,-0.40898567,1.415311,-0.7311386,-1.7810485,-0.9487198,2.2257147,1.3440719,-1.0539733,1.4803721,-0.79521734,-1.8087757,-0.93797636,2.1672857,1.2856356,-1.0165557,-1.4188269,1.4012047,0.58138496,-0.17079142,0.97501266,0.4927253,-0.34585515,2.2420578,-0.3899858,1.288718,-3.6652641,0.025777569,2.5111568,0.28464508,-0.51430917,0.89762956,0.7715416,-0.010821131,0.07934152,0.6311192,-0.7892261,0.47778335,0.7974381,1.0,0.0,0.0,0.0,0.0,0.0,0.0,-2.892058,-0.010014206,-0.738718,0.27048588,0.14379025,3.7534714,-13.017792,0.516665,0.120061636,0.8865297
22.871635,53.602116,16.731352,0.038785458,-0.919048,-0.28230387,0.4211861,-0.797691,0.7833514,0.362309,-0.16615184,0.68010104,0.6329968,-0.38314083,1.4006029,-0.71688217,-1.7725447,-0.9545916,2.2352958,1.3489352,-1.0548698,1.4661776,-0.78120214,-1.8026645,-0.9404578,2.1770475,1.2905318,-1.0199279,-1.4197547,1.4018888,0.6209017,-0.27425593,0.97738034,0.48997933,-0.33439273,2.205433,-0.3897283,1.3130742,-3.6615996,0.025751797,2.4104605,0.2770996,-0.5092621,0.90538275,0.7744188,-0.018015254,0.078227706,0.6275598,-0.735111,0.5213213,0.762586,1.0,0.0,0.0,0.0,0.0,0.0,0.0,-2.855433,-0.010271698,-0.7630742,-0.13074875,0.15928745,3.9331079,-10.460943,0.45530796,0.07843375,1.0640442
22.121918,53.20082,16.568142,0.83282423,-0.8525275,-0.32889706,0.40034157,-0.79267126,0.78573024,0.38131902,-0.22479738,0.6829624,0.6406003,-0.3586777,1.3869104,-0.7026291,-1.7645326,-0.96293753,2.2453437,1.3545918,-1.0557957,1.4519888,-0.76717263,-1.7961719,-0.9438958,2.186836,1.2954108,-1.0231742,-1.4186183,1.403664,0.65845394,-0.3674174,0.9802447,0.48830137,-0.32171658,2.1688423,-0.38947082,1.3364244,-3.657939,0.02572605,2.3098648,0.27010345,-0.50379705,0.9128049,0.7768469,-0.02496515,0.077275135,0.624431,-0.682151,0.561816,0.72990364,1.0,0.0,0.0,0.0,0.0,0.0,0.0,-2.8188424,-0.01052919,-0.78642434,0.08831024,0.27894974,3.6940932,-9.4185295,0.5257249,0.1777947,1.2019396
19.665771,52.393787,16.27316,2.749886,-0.65138483,-0.31369242,0.3556285,-0.79530287,0.7832896,0.40922445,-0.25634107,0.68291205,0.6353441,-0.3372048,1.3724586,-0.68884367,-1.7552495,-0.9695299,2.2551272,1.3589451,-1.0568947,1.4378,-0.7531374,-1.7892787,-0.94812536,2.1966512,1.3002707,-1.0262889,-1.4190925,1.4037707,0.69940096,-0.4417666,0.98270756,0.48627603,-0.3083792,2.13229,-0.3892138,1.3587693,-3.6542816,0.025700329,2.2093697,0.2635765,-0.49796033,0.91993403,0.77887267,-0.031706538,0.076455355,0.62169653,-0.6354592,0.59729815,0.70163053,1.0,0.0,0.0,0.0,0.0,0.0,0.0,-2.78229,-0.0107862055,-0.8087693,-0.06957054,0.121188164,3.997767,-7.5335684,0.511539,0.1200974,1.2776196
18.873888,51.653732,16.002275,3.3085632,-0.6262254,-0.3591879,0.33869594,-0.79565334,0.784976,0.42897817,-0.3008041,0.6739229,0.636252,-0.30355597,1.3582348,-0.6746398,-1.7463809,-0.9782058,2.2640436,1.3638959,-1.0566444,1.4236037,-0.73909646,-1.781985,-0.95305586,2.2064588,1.3051115,-1.0292586,-1.4199319,1.4045027,0.73909605,-0.5103569,0.9809514,0.48453468,-0.29337344,2.0957756,-0.38895702,1.38011,-3.650628,0.025674634,2.108975,0.25751114,-0.4917786,0.92678833,0.78052735,-0.038256582,0.07577634,0.6193313,-0.5893963,0.6307746,0.67416847,1.0,0.0,0.0,0.0,0.0,0.0,0.0,-2.7457757,-0.011042982,-0.83011,-0.100803375,0.19094944,3.8481355,-6.9510756,0.102090836,0.14317036,1.4563382
18.037682,51.671528,16.065514,4.3739414,-0.5435084,-0.365147,0.31600046,-0.7918552,0.7876926,0.45015937,-0.3238521,0.6770674,0.6361346,-0.2701672,1.3444182,-0.6603272,-1.7369691,-0.9854411,2.2741656,1.368725,-1.0562754,1.4094168,-0.7250374,-1.7743003,-0.95857096,2.2162511,1.3099371,-1.0320681,-1.4183395,1.4068174,0.7777261,-0.56558645,0.9798843,0.4829465,-0.27683988,2.0592957,-0.3887005,1.4004475,-3.6469784,0.025648965,2.0086806,0.25188065,-0.48527217,0.93339545,0.7818363,-0.044643156,0.075234964,0.6173156,-0.5457809,0.6624096,0.65017164,1.0,0.0,0.0,0.0,0.0,0.0,0.0,-2.7092957,-0.011299521,-0.8504475,0.1480341,0.35774708,3.713441,-5.6091785,0.18882751,0.1476705,1.6173542
17.87351,50.33021,15.589903,4.2516937,-0.56512135,-0.45880765,0.3105986,-0.7908092,0.7888346,0.46412963,-0.3634098,0.6742791,0.6351737,-0.24178776,1.3303359,-0.6461539,-1.7278874,-0.9949119,2.283679,1.3734545,-1.0562469,1.3952528,-0.7109507,-1.7662704,-0.96464014,2.2260282,1.3147475,-1.034706,-1.4157628,1.4096884,0.8109572,-0.6209558,0.97789174,0.4815286,-0.2594488,2.0228539,-0.3884442,1.4197828,-3.643332,0.025623322,1.9084864,0.2467041,-0.4784627,0.9397507,0.7828147,-0.05085474,0.07484588,0.6156402,-0.5005652,0.69190645,0.6245062,1.0,0.0,0.0,0.0,0.0,0.0,0.0,-2.672854,-0.011555821,-0.86978275,0.25269985,0.41766167,3.1625986,-5.6184173,0.093865395,0.16416907,1.7127812
13.546215,48.10647,14.4664955,7.1516247,-0.2840781,-0.43941814,0.20581454,-0.7956947,0.7897604,0.4650818,-0.35103673,0.6666962,0.63287437,-0.20749384,1.3156834,-0.63197464,-1.7197622,-0.9997438,2.292698,1.3780348,-1.0554553,1.3810889,-0.69683534,-1.7580059,-0.97105265,2.2357671,1.3195406,-1.0371608,-1.416784,1.412565,0.83107656,-0.6483487,0.9733707,0.4796972,-0.2409175,1.9864464,-0.38818812,1.4381168,-3.6396894,0.025597703,1.8083923,0.2419014,-0.47141457,0.9458829,0.7835425,-0.05691857,0.07461799,0.6142096,-0.4655159,0.7134388,0.60310364,1.0,0.0,0.0,0.0,0.0,0.0,0.0,-2.6364465,-0.011811882,-0.8881168,-0.12829304,0.42438507,1.8494368,-2.842772,-0.15146732,0.08253455,1.8269241
7.004513,45.071793,13.118156,12.145951,0.25428402,-0.31453374,0.059709042,-0.79815143,0.7836956,0.466551,-0.29824,0.662681,0.6392333,-0.14596815,1.3012737,-0.6184658,-1.7113508,-1.0008767,2.3020353,1.383464,-1.0517576,1.3668944,-0.68272763,-1.749625,-0.97734785,2.2454526,1.3243204,-1.0394038,-1.4204961,1.4107544,0.8400102,-0.62379146,0.96788377,0.47811282,-0.21882012,1.950077,-0.3879323,1.4554507,-3.6360505,0.02557211,1.7083983,0.23729706,-0.46423483,0.9518746,0.78414804,-0.06293267,0.07450385,0.61286247,-0.44957826,0.72357476,0.5914198,1.0,0.0,0.0,0.0,0.0,0.0,0.0,-2.6000772,-0.012067705,-0.90545064,-0.43287277,-0.037121773,0.7287383,2.308035,-0.2270937,0.04659295,2.168566
2.9363427,42.752678,12.119208,15.223944,0.5735322,-0.254378,-0.040186144,-0.80245453,0.7822683,0.46385637,-0.26880327,0.65868384,0.63915956,-0.11805276,1.2866489,-0.60450083,-1.7032393,-1.0042282,2.311321,1.3882364,-1.0512091,1.3526427,-0.6686514,-1.7412269,-0.983171,2.255081,1.329085,-1.0414237,-1.4271796,1.4070547,0.8392016,-0.5690955,0.9618835,0.47633916,-0.19659883,1.9137459,-0.38767672,1.4717854,-3.632415,0.025546543,1.6085043,0.23277664,-0.4570017,0.9577922,0.7847316,-0.06897414,0.07446438,0.6114686,-0.44519332,0.72690886,0.5853684,1.0,0.0,0.0,0.0,0.0,0.0,0.0,-2.563746,-0.01232329,-0.9217854,-0.7581949,-0.22554398,-0.23036003,5.294478,-0.277102,-0.014585257,2.1717727
0.5492096,38.304474,10.221526,15.858642,0.6998087,-0.37127256,-0.10234448,-0.8103033,0.7770148,0.43996176,-0.25637633,0.65867347,0.64006203,-0.108091466,1.2716123,-0.5909499,-1.6972307,-1.0088086,2.3209484,1.3930912,-1.0522329,1.3382937,-0.65463525,-1.7329776,-0.98842096,2.2646558,1.3338324,-1.0432357,-1.4378805,1.4002556,0.8197673,-0.51095074,0.9570702,0.47462174,-0.17638668,1.877449,-0.3874216,1.4871219,-3.6287835,0.025521003,1.5087101,0.22826767,-0.449795,0.9636215,0.78536487,-0.07502419,0.07450746,0.60993594,-0.4438897,0.7222442,0.575627,1.0,0.0,0.0,0.0,0.0,0.0,0.0,-2.5274491,-0.012578398,-0.9371219,-1.1778831,-0.5437374,-2.0551562,5.618274,-0.18941164,-0.030893087,1.9665271
1.8876896,37.90743,10.246758,14.822786,0.5739536,-0.44702476,-0.069806665,-0.8137694,0.77750105,0.4420005,-0.25044987,0.6521542,0.6415107,-0.077074565,1.2569168,-0.57688516,-1.6887776,-1.013466,2.3298712,1.3979834,-1.0509431,1.323836,-0.6406763,-1.7249172,-0.9931855,2.2741773,1.3385664,-1.0448455,-1.4487057,1.3948009,0.801182,-0.4655105,0.9511121,0.47331208,-0.15616627,1.8411865,-0.3871665,1.5014613,-3.6251554,0.025495486,1.4090158,0.22380447,-0.44261932,0.96933484,0.7860428,-0.081048906,0.07465543,0.60827154,-0.43779874,0.71958447,0.5634841,1.0,0.0,0.0,0.0,0.0,0.0,0.0,-2.4911866,-0.012833506,-0.95146126,-1.1863708,-0.41525364,-1.9531369,4.3594894,-0.31836033,0.014865398,1.9694299
4.3881674,38.50944,10.723138,13.203646,0.3742264,-0.5370612,-0.0123514645,-0.8135867,0.77871144,0.43747047,-0.24393342,0.648518,0.643391,-0.04165603,1.2424773,-0.5628052,-1.6811701,-1.0175788,2.339029,1.4029055,-1.0490111,1.3092982,-0.62675077,-1.7170246,-0.9976144,2.2836378,1.3432909,-1.0462493,-1.4558716,1.3921633,0.7850593,-0.43586525,0.945067,0.47257063,-0.1352739,1.8049622,-0.38691187,1.5148044,-3.621531,0.025469996,1.3094211,0.21946335,-0.43543863,0.97490704,0.7867195,-0.0870186,0.07493727,0.6065349,-0.42400685,0.7208831,0.5487884,1.0,0.0,0.0,0.0,0.0,0.0,0.0,-2.4549623,-0.013088137,-0.96480435,-0.8063793,-0.13763905,-1.6986728,2.7993977,-0.34053326,0.08563399,2.0401776
4.7575984,38.814014,11.016183,13.558002,0.3760367,-0.53795266,-0.0011534244,-0.8141037,0.77869874,0.4268161,-0.20802298,0.64461553,0.64861935,0.02530508,1.2278877,-0.5488809,-1.674343,-1.0184166,2.3480992,1.4081528,-1.0437188,1.2947146,-0.61283666,-1.7092922,-1.0017048,2.2930372,1.3480135,-1.0474166,-1.4595438,1.3915197,0.7688902,-0.40072277,0.9389931,0.47247595,-0.110535264,1.7687759,-0.38665724,1.5271523,-3.6179104,0.025444532,1.2099259,0.21526337,-0.42823386,0.98035055,0.78737205,-0.09294712,0.07535648,0.604754,-0.41017756,0.7234819,0.53652924,1.0,0.0,0.0,0.0,0.0,0.0,0.0,-2.418776,-0.013342768,-0.9771523,-0.45583248,0.061798096,-1.70331,3.3535361,-0.34035444,0.14385581,2.4231806
4.094216,38.213486,10.891819,14.352137,0.43783832,-0.53010404,-0.004633773,-0.81958926,0.7779329,0.4164146,-0.17817159,0.63724023,0.6478911,0.10252728,1.2127557,-0.53504336,-1.6676507,-1.019522,2.3567612,1.4128026,-1.0371639,1.2800871,-0.59892446,-1.7017257,-1.0053917,2.302364,1.3527342,-1.0482978,-1.4639368,1.3915486,0.7521987,-0.35870215,0.9317124,0.4723045,-0.08099398,1.732624,-0.38640308,1.538506,-3.614293,0.025419092,1.1105303,0.21117783,-0.42100477,0.9856876,0.78799796,-0.09885912,0.07591455,0.60292864,-0.39862546,0.7257452,0.5264931,1.0,0.0,0.0,0.0,0.0,0.0,0.0,-2.3826241,-0.013596922,-0.988506,-0.5375385,0.12750626,-1.7456174,4.0385127,-0.45825243,0.1224041,2.900353
2.6546159,36.012627,10.105333,15.465321,0.5799825,-0.54429734,-0.036240842,-0.8203002,0.77343047,0.39630428,-0.13920723,0.6336687,0.655989,0.15839513,1.198057,-0.5215814,-1.6620953,-1.0193124,2.365731,1.418333,-1.0324583,1.2654253,-0.5850304,-1.6943786,-1.0085675,2.3116224,1.3574568,-1.0488681,-1.4672502,1.3891468,0.7286069,-0.3042918,0.92470765,0.47279814,-0.049233776,1.6965065,-0.38614893,1.5488665,-3.6106796,0.025393678,1.0112339,0.20717621,-0.41377997,0.9909357,0.7886174,-0.104777195,0.076596834,0.6010302,-0.39138845,0.7242929,0.5180917,1.0,0.0,0.0,0.0,0.0,0.0,0.0,-2.3465066,-0.013851076,-0.9988665,-0.4373312,-0.11718273,-2.4299264,5.2658677,-0.43178797,0.17179847,3.117021
0.44856262,33.737038,9.120623,17.138792,0.74397016,-0.54410523,-0.10765594,-0.82456714,0.7727119,0.36740905,-0.09031538,0.6223337,0.6500009,0.18596761,1.1829686,-0.5077592,-1.6576377,-1.017599,2.3738558,1.4224569,-1.0302713,1.2507216,-0.571163,-1.6873596,-1.0110756,2.320793,1.3621813,-1.0491294,-1.4718747,1.3863399,0.69287837,-0.23360978,0.91521347,0.4724656,-0.018758971,1.6604271,-0.38589525,1.5582348,-3.6070697,0.02536829,0.9120369,0.2032013,-0.40659976,0.99611956,0.78928506,-0.11073077,0.077404864,0.5989793,-0.3901626,0.71875626,0.5123879,1.0,0.0,0.0,0.0,0.0,0.0,0.0,-2.3104272,-0.014104754,-1.0082347,-0.58641434,-0.15978813,-3.6325812,6.877032,-0.6798625,0.06389618,2.9847338
-0.6448498,32.58507,8.694805,18.297987,0.8332961,-0.52964795,-0.15202884,-0.82518,0.77242815,0.3436538,-0.042668972,0.6113608,0.65729296,0.21339403,1.1682036,-0.49392018,-1.6529942,-1.0153425,2.381929,1.4279106,-1.02779,1.2359759,-0.5573204,-1.6807506,-1.0127884,2.329849,1.3669058,-1.0491008,-1.4757744,1.3839538,0.6500632,-0.151099,0.9032842,0.47263882,0.0100767445,1.6243858,-0.3856418,1.5666119,-3.6034634,0.025342926,0.81293905,0.19921112,-0.39948177,1.001266,0.7900448,-0.11675422,0.0783459,0.5967072,-0.39263478,0.71223927,0.5094302,1.0,0.0,0.0,0.0,0.0,0.0,0.0,-2.274386,-0.014358193,-1.0166118,-0.5232334,-0.121188164,-4.3335557,8.054245,-0.921011,0.09499192,2.8169234
2.5202298,28.547655,7.027431,12.9099245,0.43021363,-0.927867,-0.059570864,-0.83349705,0.76533264,0.31050724,-0.10479161,0.61489147,0.65074426,0.18946147,1.1526262,-0.48078716,-1.6496999,-1.0232676,2.391338,1.4319803,-1.0301546,1.2211653,-0.54352933,-1.6746356,-1.0141407,2.3388097,1.3716284,-1.0488318,-1.4830931,1.3779263,0.5984136,-0.13058056,0.8945253,0.47265166,0.03231975,1.5883789,-0.3853886,1.5739987,-3.5998607,0.025317589,0.71394026,0.19534302,-0.3924625,1.0062385,0.7908646,-0.122669704,0.07948083,0.59427947,-0.37625587,0.70124567,0.48727933,1.0,0.0,0.0,0.0,0.0,0.0,0.0,-2.238379,-0.014611393,-1.0239987,-0.8339882,-0.4992485,-5.1777005,1.8753439,-0.6747484,0.13142228,2.168717
6.4953403,28.100609,6.934145,8.355127,0.023163319,-1.2087504,0.05494463,-0.8338645,0.7661728,0.2911143,-0.14170831,0.6171443,0.6538509,0.19845404,1.1377789,-0.46691203,-1.6455243,-1.0283116,2.4005241,1.4370135,-1.0289865,1.2062937,-0.52978784,-1.6690204,-1.0156685,2.3477132,1.3763567,-1.0483645,-1.4888085,1.373223,0.5491855,-0.1606598,0.8893913,0.4734338,0.051504854,1.5524063,-0.38513565,1.5803963,-3.5962615,0.025292277,0.6150405,0.19176483,-0.38554597,1.0108941,0.79167193,-0.1282887,0.08086927,0.5918257,-0.34218964,0.69099635,0.45265043,1.0,0.0,0.0,0.0,0.0,0.0,0.0,-2.2024064,-0.014864355,-1.0303962,-0.63729286,-0.3735304,-4.9173117,-3.153032,-0.3611803,0.2537489,1.872871
9.64031,28.061764,6.9772663,5.0109706,-0.2802428,-1.4374182,0.14715344,-0.82842094,0.76703125,0.2619976,-0.17651919,0.6179437,0.65759474,0.23929508,1.1234516,-0.4530847,-1.6428206,-1.0333204,2.4095075,1.4421161,-1.024435,1.1914088,-0.5160759,-1.6639049,-1.0177532,2.3565862,1.3810965,-1.0476989,-1.4884212,1.370854,0.49897715,-0.22481959,0.88693154,0.47493747,0.07149477,1.5164719,-0.38488293,1.5858057,-3.5926661,0.02526699,0.5162396,0.18863297,-0.3787291,1.0151399,0.7924006,-0.13347861,0.08255612,0.5894652,-0.29434314,0.6806796,0.40971103,1.0,0.0,0.0,0.0,0.0,0.0,0.0,-2.166472,-0.015117079,-1.0358057,0.015878677,-0.14023781,-5.023247,-6.5319242,-0.12602806,0.35693645,1.9632779
10.710044,25.931171,6.217745,2.8425899,-0.402633,-1.6252347,0.19847505,-0.8323954,0.75957394,0.23818375,-0.22837026,0.6167431,0.6597886,0.2560213,1.1081692,-0.44011852,-1.6400865,-1.0405903,2.4182606,1.4470754,-1.0220968,1.1765276,-0.50240976,-1.659272,-1.0206753,2.3654401,1.3858534,-1.0468405,-1.4880608,1.3655653,0.45129812,-0.31506607,0.8853334,0.47671935,0.090442084,1.4805717,-0.38463044,1.5902277,-3.5890741,0.025241729,0.4175375,0.1860466,-0.37204194,1.0189015,0.7930161,-0.1381334,0.08455766,0.5872773,-0.23919241,0.66612536,0.3596095,1.0,0.0,0.0,0.0,0.0,0.0,0.0,-2.1305718,-0.015369564,-1.0402277,0.044989586,-0.43141842,-4.7784986,-9.123003,-0.06660223,0.39724708,1.8679231
11.241056,22.406887,4.8168087,0.43772173,-0.49337894,-1.8617094,0.23696122,-0.8350885,0.75048226,0.20712927,-0.3069388,0.6204477,0.65758574,0.2577192,1.0930188,-0.42736152,-1.638559,-1.0513692,2.427485,1.451612,-1.0210686,1.1616427,-0.48883086,-1.6551311,-1.0247227,2.374294,1.3906275,-1.0458125,-1.4884821,1.3556257,0.4015626,-0.4347242,0.88570505,0.47821295,0.106861934,1.444706,-0.3843782,1.5936635,-3.585486,0.025216492,0.3189341,0.18405533,-0.36555147,1.0220914,0.7935085,-0.14212346,0.086881496,0.5853175,-0.1769971,0.6439067,0.30027157,1.0,0.0,0.0,0.0,0.0,0.0,0.0,-2.094706,-0.015621811,-1.0436635,0.009870529,-0.89657307,-4.998356,-12.044507,0.09316206,0.37590265,1.6265736
9.9723625,21.549206,4.389936,1.6059384,-0.38438523,-1.8681948,0.20087895,-0.8319694,0.7529904,0.16983213,-0.33693188,0.61361974,0.65520734,0.30916604,1.0784457,-0.4135318,-1.6381478,-1.0584159,2.435656,1.4561483,-1.0148959,1.1467673,-0.4753278,-1.6515377,-1.0298878,2.3831365,1.3954092,-1.0446013,-1.4870255,1.3489031,0.34523347,-0.5438224,0.88392943,0.47892523,0.12571858,1.4088783,-0.3841262,1.5961139,-3.581901,0.025191281,0.2204293,0.18265533,-0.35929918,1.0247114,0.79390603,-0.1454271,0.089532726,0.5835648,-0.11859871,0.6188732,0.24421579,1.0,0.0,0.0,0.0,0.0,0.0,0.0,-2.0588784,-0.01587382,-1.046114,0.20344257,-0.5699158,-5.6752625,-10.989118,-0.116992,0.26524663,1.8731058
7.742462,17.878315,2.7651136,2.6426468,-0.17597932,-1.9357455,0.13617581,-0.82762134,0.74574625,0.11544385,-0.3841148,0.61950755,0.65826905,0.3243785,1.0640051,-0.40075317,-1.6399933,-1.0682993,2.4450872,1.4612361,-1.0121635,1.13193,-0.46190292,-1.6486328,-1.0360695,2.391979,1.4001986,-1.043209,-1.4825702,1.3407079,0.2720065,-0.64312273,0.88438106,0.47937974,0.14366025,1.373085,-0.38387442,1.5975801,-3.57832,0.025166094,0.12202298,0.18180847,-0.3533535,1.0267743,0.794269,-0.14804061,0.09249603,0.5819495,-0.06592187,0.5853903,0.18867207,1.0,0.0,0.0,0.0,0.0,0.0,0.0,-2.023085,-0.01612559,-1.04758,0.5175829,-0.7167578,-7.3781786,-10.0197315,0.09243488,0.20496845,1.7791063
4.1391535,10.799672,-0.67460096,3.0714235,0.04513246,-2.125763,0.024572961,-0.82798386,0.73752344,0.022753011,-0.44424707,0.6149412,0.6594275,0.33720967,1.0491316,-0.38815057,-1.6463574,-1.0804942,2.453473,1.4661413,-1.009488,1.1171328,-0.44857913,-1.6467502,-1.0432335,2.40081,1.4049898,-1.0416468,-1.4784305,1.3299389,0.1600977,-0.74105,0.88280153,0.4794293,0.16021529,1.3373299,-0.38362288,1.598063,-3.5747423,0.025140934,0.023715029,0.18144608,-0.34785533,1.0282435,0.7947111,-0.14988531,0.09579921,0.580337,-0.018822234,0.5361185,0.12813367,1.0,0.0,0.0,0.0,0.0,0.0,0.0,-1.9873298,-0.016377121,-1.048063,0.510025,-0.9826422,-11.237806,-9.899282,-0.16386509,0.12087226,1.6323745
3.0884342,10.6915455,-0.41436195,4.8543634,0.20762768,-2.0088513,0.0039196885,-0.82261455,0.7311187,0.003059384,-0.47871566,0.60076237,0.6656101,0.34821475,1.0348713,-0.37546727,-1.6464443,-1.0911051,2.4608862,1.4715508,-1.0068253,1.1023909,-0.43537265,-1.6458995,-1.0512711,2.4095838,1.409783,-1.0399321,-1.4723074,1.3179145,0.059888642,-0.8249863,0.8757197,0.47966468,0.17523408,1.301609,-0.3833716,1.5975635,-3.5711684,0.025115797,-0.07449463,0.18151093,-0.34283495,1.0291508,0.795269,-0.15099765,0.09941705,0.5786735,0.02131687,0.4881827,0.07360665,1.0,0.0,0.0,0.0,0.0,0.0,0.0,-1.951609,-0.016628414,-1.0475636,0.7041693,-1.1066437,-10.077689,-8.505297,-0.69811344,0.104391575,1.4698893
0.4446907,10.817734,-0.32658827,8.607561,0.49099487,-1.7907052,-0.08727911,-0.8253934,0.7319415,-0.050577875,-0.48194823,0.58266604,0.6672171,0.3594531,1.0198516,-0.3621785,-1.6509573,-1.0994658,2.4678504,1.4765047,-1.0039868,1.0876852,-0.4222563,-1.646033,-1.0599076,2.4182394,1.4145781,-1.0380763,-1.4699653,1.3099035,-0.03762423,-0.87691444,0.86195624,0.4795187,0.18879123,1.2659264,-0.38312078,1.5960826,-3.5675979,0.025090687,-0.1726061,0.18188477,-0.33827138,1.0295948,0.7959869,-0.1515036,0.10332121,0.5768676,0.04828809,0.44276524,0.030135656,1.0,0.0,0.0,0.0,0.0,0.0,0.0,-1.9159263,-0.01687923,-1.0460825,0.2613783,-0.70881844,-9.764984,-5.339992,-1.343596,0.012439489,1.3035804
-2.8295069,6.65384,-2.4279883,10.349513,0.7560429,-1.7986984,-0.19779792,-0.8299057,0.72671723,-0.14348939,-0.5137694,0.57969314,0.66498077,0.33795306,1.0046947,-0.34958458,-1.660382,-1.1112845,2.4762087,1.4810761,-1.0042809,1.0729662,-0.40921384,-1.6473033,-1.0689846,2.4267576,1.4193674,-1.0361174,-1.4725661,1.3025907,-0.1566182,-0.918396,0.84825337,0.47862172,0.197878,1.230278,-0.38286996,1.5936213,-3.5640311,0.0250656,-0.27061945,0.18246078,-0.33421707,1.0296123,0.7969569,-0.15143129,0.10750998,0.5747781,0.065807864,0.38930967,-0.012020656,1.0,0.0,0.0,0.0,0.0,0.0,0.0,-1.880278,-0.017130047,-1.0436213,-0.2519369,-0.6528139,-11.866498,-4.3194413,-1.373899,-0.11459589,0.8375585
-4.1307297,4.1135125,-3.3356144,11.121085,0.89528394,-1.7765718,-0.21539523,-0.8246926,0.7134242,-0.19808693,-0.5414989,0.55090576,0.6682196,0.36055455,0.99049693,-0.33787143,-1.667112,-1.1231345,2.4818482,1.4861894,-1.000062,1.0582377,-0.39628392,-1.6497619,-1.0784489,2.4350736,1.4241492,-1.034067,-1.4730079,1.2900431,-0.2753356,-0.9562557,0.8262562,0.4777927,0.20712113,1.194664,-0.38261962,1.5901806,-3.5604677,0.02504054,-0.36853483,0.18318176,-0.33071756,1.0292122,0.798212,-0.15078871,0.11197394,0.57234794,0.078247376,0.3327783,-0.05338547,1.0,0.0,0.0,0.0,0.0,0.0,0.0,-1.844664,-0.017380387,-1.0401807,-0.019431114,-1.183939,-11.844498,-3.9582968,-2.213788,-0.1326561,0.83835423
-4.836235,4.4333134,-2.9557822,12.738222,1.0282128,-1.635772,-0.22825687,-0.82850385,0.7091534,-0.24049996,-0.5522548,0.53396696,0.66882294,0.34660837,0.9753873,-0.32536858,-1.6738119,-1.1336744,2.4884703,1.4910314,-0.9994062,1.0434881,-0.38348037,-1.6533039,-1.088226,2.4431493,1.4289213,-1.0319442,-1.4756749,1.2773501,-0.38049486,-0.98549944,0.8014428,0.47683582,0.21343586,1.1590881,-0.38236928,1.5857617,-3.5569081,0.025015505,-0.4663523,0.18398666,-0.32775474,1.0284367,0.7997486,-0.1496322,0.11667601,0.56956035,0.084490255,0.27957296,-0.089512356,1.0,0.0,0.0,0.0,0.0,0.0,0.0,-1.8090881,-0.017630726,-1.0357616,-0.2733469,-1.2043715,-10.461653,-3.1050205,-2.4854064,-0.17417073,0.53398013
-6.24366,3.407249,-3.7004628,13.81588,1.1922979,-1.6070471,-0.28645077,-0.83310825,0.7128256,-0.32769322,-0.5700116,0.55066895,0.66748476,0.307904,0.9601773,-0.3121978,-1.6860732,-1.1452271,2.4982162,1.4956698,-1.0011537,1.0286928,-0.3707574,-1.657994,-1.0982777,2.4510686,1.4336821,-1.0298003,-1.4810416,1.2707776,-0.49813426,-1.01239,0.788705,0.47542176,0.21454169,1.1235466,-0.38211942,1.5803652,-3.5533519,0.024990495,-0.5640721,0.18482208,-0.32534194,1.0273123,0.80160314,-0.14797306,0.12157794,0.56635255,0.08484535,0.22389956,-0.12368346,1.0,0.0,0.0,0.0,0.0,0.0,0.0,-1.7735466,-0.017880589,-1.0303652,-0.5592346,-0.60322285,-11.6678295,-2.8798819,-1.3057947,-0.26462674,0.0047653913
-7.520458,-0.8684895,-5.5629644,12.905132,1.2830745,-1.7092447,-0.29958513,-0.8348219,0.694678,-0.39954022,-0.6137147,0.5300465,0.6634824,0.2703267,0.94521064,-0.3012896,-1.6979481,-1.1596491,2.5040734,1.5000303,-1.0027677,1.0138422,-0.35815316,-1.6639125,-1.1087204,2.4588506,1.4384257,-1.0276793,-1.4860823,1.2571659,-0.6230208,-1.0554148,0.77402216,0.47350207,0.210836,1.0880394,-0.38186955,1.5739923,-3.5497992,0.02496551,-0.6616941,0.18564606,-0.3235464,1.0257989,0.8038025,-0.14574224,0.12665237,0.5626898,0.08289874,0.16005507,-0.16388577,1.0,0.0,0.0,0.0,0.0,0.0,0.0,-1.7380394,-0.018130451,-1.0239923,-0.46067238,-1.3186693,-12.41951,-4.47011,-1.5441775,-0.34082532,-0.48377216
-6.4525223,2.2800322,-3.8370388,14.12226,1.2812407,-1.5268816,-0.27593505,-0.8295136,0.69533795,-0.43122175,-0.6181298,0.51152337,0.6627229,0.22281078,0.93089086,-0.28861937,-1.7070347,-1.1705334,2.5100029,1.5046979,-1.0053983,0.99897826,-0.3456605,-1.6709278,-1.1195427,2.466461,1.4431502,-1.0256327,-1.4865388,1.246785,-0.72735184,-1.0916204,0.7566167,0.47152236,0.20208566,1.0525703,-0.38162017,1.5666438,-3.54625,0.024940548,-0.7592186,0.18644714,-0.3223188,1.0239263,0.8063148,-0.14298697,0.13186836,0.55858904,0.07899108,0.10543582,-0.19807552,1.0,0.0,0.0,0.0,0.0,0.0,0.0,-1.7025703,-0.018379837,-1.0166438,-0.036144257,-0.99532604,-10.34795,-3.7917852,-1.7868519,-0.36332607,-0.9919077
-6.0166574,3.2534292,-2.9871528,14.94191,1.3388702,-1.396011,-0.24315569,-0.8285084,0.6846687,-0.46875915,-0.6359793,0.49709982,0.6558907,0.1988237,0.91612744,-0.27719364,-1.7178037,-1.1831406,2.516171,1.5087392,-1.0057504,0.98412764,-0.3332904,-1.6788394,-1.1307083,2.4738843,1.4478499,-1.023691,-1.484661,1.2338496,-0.81200176,-1.1252776,0.737463,0.4689806,0.19126187,1.0171356,-0.38137078,1.5583209,-3.5427046,0.024915613,-0.8566455,0.18719482,-0.32159925,1.0217351,0.8090926,-0.1397703,0.13717137,0.5540916,0.072358094,0.055846076,-0.22886565,1.0,0.0,0.0,0.0,0.0,0.0,0.0,-1.6671356,-0.018629223,-1.0083208,0.17397404,-1.2545824,-8.365452,-3.5351515,-1.9452691,-0.4332602,-1.2022972
-5.9302363,3.8251667,-2.3977976,15.7534,1.4006488,-1.2625941,-0.22342137,-0.8358957,0.6745542,-0.49573717,-0.65752983,0.47969192,0.6540614,0.15017503,0.9005381,-0.265835,-1.7284131,-1.1964613,2.5218534,1.513256,-1.0086735,0.9692627,-0.32106858,-1.687434,-1.1422116,2.4811018,1.4525267,-1.0218848,-1.487394,1.2184253,-0.8746673,-1.1591138,0.7162349,0.46635577,0.1765967,0.9817352,-0.38112187,1.5490243,-3.5391626,0.024890702,-0.953975,0.1878624,-0.32134104,1.0192541,0.8120955,-0.13614339,0.14251153,0.54923236,0.062486466,0.010851517,-0.25703377,1.0,0.0,0.0,0.0,0.0,0.0,0.0,-1.6317352,-0.018878132,-0.99902433,-0.33345222,-1.5104532,-6.1214685,-3.5526037,-2.1453261,-0.45992732,-1.591447
-5.2628775,5.918352,-1.3058381,16.72273,1.3896352,-1.1247728,-0.22010973,-0.83361185,0.67290044,-0.52487236,-0.66942805,0.45889518,0.6458258,0.077193655,0.8859015,-0.25377855,-1.7399212,-1.2091544,2.5269914,1.5171093,-1.0141654,0.9543749,-0.30897647,-1.696553,-1.154018,2.4880826,1.4571711,-1.0202693,-1.4897157,1.2062241,-0.92367506,-1.1884491,0.6920659,0.46311,0.1560902,0.9463692,-0.3808732,1.5387553,-3.535624,0.024865815,-1.0512072,0.18841934,-0.32148147,1.0165197,0.8152985,-0.13216223,0.14787042,0.54401827,0.051733635,-0.027241645,-0.2812862,1.0,0.0,0.0,0.0,0.0,0.0,0.0,-1.5963691,-0.019126803,-0.9887553,-0.34742355,-1.1911154,-4.7067165,-3.1105757,-2.4258375,-0.5380392,-2.1798282
-4.268659,8.791378,0.22737575,18.101461,1.3993042,-0.9453463,-0.20117176,-0.83164793,0.670725,-0.5364129,-0.6730889,0.44641834,0.6431952,0.03407699,0.8712101,-0.24190396,-1.7501943,-1.221327,2.5327244,1.5214906,-1.0168616,0.93947184,-0.29697782,-1.7060325,-1.1660477,2.4948308,1.461783,-1.0188769,-1.4911436,1.19784,-0.95530653,-1.2084138,0.6689333,0.45981997,0.13318232,0.91103745,-0.38062477,1.5275147,-3.5320892,0.024840955,-1.1483423,0.18888092,-0.3219378,1.0135862,0.8186637,-0.12790956,0.15322119,0.53847194,0.03994879,-0.05649264,-0.2995298,1.0,0.0,0.0,0.0,0.0,0.0,0.0,-1.5610374,-0.019375235,-0.9775147,-0.34172535,-0.81062317,-2.9001594,-2.1893501,-2.2969127,-0.5540192,-2.4216323
-4.3997245,7.9637065,0.16320372,18.611387,1.5316167,-0.8798511,-0.18295777,-0.83072734,0.6555987,-0.5499087,-0.6876186,0.45107388,0.63571435,-0.014718724,0.8563991,-0.23141795,-1.7610234,-1.2348095,2.5399382,1.5253545,-1.0203488,0.92456305,-0.28510028,-1.7157524,-1.1782643,2.5014112,1.4663607,-1.0177306,-1.4914559,1.1844743,-0.9767368,-1.2268257,0.654317,0.4561122,0.1081055,0.87574387,-0.38037658,1.5153034,-3.5285578,0.024816118,-1.2453802,0.18919754,-0.32268357,1.0104827,0.82216483,-0.123426184,0.1584926,0.53262645,0.024650581,-0.08520265,-0.3160461,1.0,0.0,0.0,0.0,0.0,0.0,0.0,-1.5257438,-0.019623429,-0.96530336,-0.25644302,-1.3153315,-1.8522263,-2.0322561,-1.4427185,-0.60928464,-2.637401
-4.5661855,7.773459,0.17879152,19.30369,1.6104958,-0.7972097,-0.1765114,-0.83442026,0.6485527,-0.5590096,-0.69573456,0.4408125,0.6359099,-0.04542982,0.841121,-0.220245,-1.7716533,-1.2478377,2.5454924,1.5299517,-1.0222735,0.90963614,-0.27336532,-1.7256324,-1.1906449,2.5078657,1.470904,-1.0168341,-1.4940397,1.1699005,-0.9906788,-1.2425381,0.6420917,0.4527116,0.083069175,0.8404846,-0.38012862,1.5021224,-3.52503,0.024791306,-1.342321,0.18934631,-0.32370257,1.0072278,0.82578367,-0.11873939,0.16363864,0.52650213,0.0065604774,-0.111746535,-0.33046812,1.0,0.0,0.0,0.0,0.0,0.0,0.0,-1.4904846,-0.019871384,-0.9521224,-0.5334854,-1.4436483,-1.0472894,-1.7663002,-1.2058616,-0.59624314,-2.6374385
-4.573633,7.681095,0.08096886,19.584766,1.6722968,-0.7687909,-0.17836276,-0.8293652,0.6448861,-0.57935137,-0.70624506,0.45206577,0.6229206,-0.09354462,0.8266996,-0.2088767,-1.7835675,-1.2612693,2.5530722,1.5331961,-1.0261886,0.8947073,-0.26176196,-1.7356822,-1.2031838,2.5142667,1.4754053,-1.0161971,-1.4934447,1.1572287,-1.0086422,-1.2582916,0.6389898,0.44830042,0.056718286,0.8052597,-0.3798809,1.4879729,-3.5215056,0.02476652,-1.439165,0.18930054,-0.32498574,1.0038347,0.82951695,-0.11385609,0.1686224,0.5201009,-0.013098455,-0.13779086,-0.34396467,1.0,0.0,0.0,0.0,0.0,0.0,0.0,-1.4552597,-0.0201191,-0.93797284,-0.23393631,-1.2579441,-1.4210463,-1.7719507,-0.30133724,-0.7175267,-2.766449
-3.8607266,8.355604,0.6213248,19.65619,1.5725291,-0.6953914,-0.13352297,-0.82641387,0.63426864,-0.5741783,-0.7164043,0.40317374,0.6300516,-0.0628538,0.81206596,-0.1983351,-1.7931001,-1.2748241,2.554584,1.5384105,-1.0224825,0.87980235,-0.25029737,-1.7458446,-1.2158829,2.5205152,1.4798723,-1.0157737,-1.4906517,1.1429168,-1.0175444,-1.2746029,0.61995834,0.44515285,0.03689828,0.77007294,-0.37963343,1.4728556,-3.5179849,0.024741758,-1.535912,0.18907547,-0.32649636,1.0003058,0.8333243,-0.10879467,0.17347924,0.51345813,-0.030419858,-0.15923874,-0.3574646,1.0,0.0,0.0,0.0,0.0,0.0,0.0,-1.4200729,-0.02036658,-0.92285556,-0.042438507,-1.4213085,-0.49250126,-1.8228292,-1.883924,-0.5851686,-2.1198301
-4.1938896,7.47785,0.31742692,20.122902,1.6791701,-0.6402811,-0.11485836,-0.82885945,0.6222104,-0.5758881,-0.7227442,0.41323096,0.62563276,-0.061055172,0.7969164,-0.18807633,-1.8034334,-1.2881573,2.5618384,1.5424356,-1.0218792,0.8649117,-0.23899823,-1.7560585,-1.2287346,2.526615,1.4843088,-1.01552,-1.4897631,1.1255956,-1.0210546,-1.2893331,0.60637784,0.44199553,0.020894853,0.7349205,-0.3793862,1.4567715,-3.5144677,0.02471702,-1.6325625,0.18865967,-0.32822084,0.99664986,0.8371796,-0.10356962,0.17818823,0.50660884,-0.050889775,-0.1802262,-0.3696401,1.0,0.0,0.0,0.0,0.0,0.0,0.0,-1.3849205,-0.02061382,-0.9067715,-0.27735233,-1.730156,0.099015236,-1.6645193,-1.3457775,-0.602597,-1.7398149
-4.8370795,5.519415,-0.50351477,20.083376,1.7541369,-0.63122725,-0.0965267,-0.8270393,0.60533464,-0.58206755,-0.73454136,0.39660764,0.6260126,-0.04289628,0.7822077,-0.17846477,-1.8142653,-1.3021888,2.5662756,1.54691,-1.0198096,0.8500315,-0.22791535,-1.7663047,-1.2417465,2.5325582,1.4887148,-1.0153922,-1.4886063,1.1025056,-1.0243618,-1.3057342,0.59030503,0.43925563,0.009665462,0.6998024,-0.37913918,1.4397217,-3.510954,0.024692308,-1.7291163,0.18802643,-0.33016968,0.99286383,0.8410676,-0.09817427,0.1827263,0.49957797,-0.074112825,-0.20277224,-0.38283402,1.0,0.0,0.0,0.0,0.0,0.0,0.0,-1.3498024,-0.020860821,-0.8897217,-0.25429726,-2.3148537,0.13253689,-1.8222809,-1.6064167,-0.5718708,-1.267617
-5.645037,3.4665494,-1.4996932,19.923683,1.7751775,-0.6339407,-0.08564156,-0.8270775,0.5881517,-0.5900863,-0.7470657,0.3559777,0.6239438,-0.006724477,0.76732373,-0.16910018,-1.8253133,-1.3164531,2.568156,1.5511092,-1.0160646,0.8351599,-0.21710092,-1.7766082,-1.2549397,2.5382497,1.493096,-1.015333,-1.4879395,1.0743791,-1.0307932,-1.324511,0.561981,0.43663853,0.0043259426,0.6647186,-0.37889242,1.421707,-3.5074437,0.02466762,-1.8255736,0.18714905,-0.33235812,0.9889298,0.8449751,-0.092587866,0.18711723,0.49237356,-0.09935293,-0.22683494,-0.39801908,1.0,0.0,0.0,0.0,0.0,0.0,0.0,-1.3147186,-0.021107584,-0.871707,-0.3001213,-2.827382,-0.17077923,-2.0488977,-2.84791,-0.57029724,-0.6907031
-6.192465,1.0402477,-2.2488606,19.823048,1.785792,-0.6100362,-0.037928212,-0.824025,0.5553306,-0.57767516,-0.75436336,0.28883833,0.61902857,0.06345973,0.75275743,-0.16156787,-1.8343757,-1.330376,2.5671337,1.5549989,-1.0089871,0.8203064,-0.2066651,-1.7869098,-1.2683121,2.5434873,1.4974505,-1.0152606,-1.4856492,1.0332367,-1.0284735,-1.3420558,0.51120275,0.43407345,0.0076488433,0.6296692,-0.3786459,1.4027286,-3.503937,0.024642957,-1.9219344,0.18599701,-0.33479214,0.9848323,0.84886336,-0.08680045,0.19140084,0.48503858,-0.12610556,-0.25113577,-0.4146019,1.0,0.0,0.0,0.0,0.0,0.0,0.0,-1.2796692,-0.021354109,-0.85272855,-0.12991428,-4.136133,0.6909132,-1.9072533,-5.091214,-0.5545199,0.16223499
-7.1557074,-0.34777212,-3.1930768,20.135754,1.7852741,-0.58008313,-0.044947006,-0.8292523,0.5376182,-0.58991826,-0.76103044,0.22487292,0.61942786,0.11917275,0.7373812,-0.15290327,-1.8459016,-1.3444152,2.5659747,1.5593933,-1.0033433,0.8054482,-0.1966539,-1.7972286,-1.2818428,2.5480802,1.5017821,-1.015108,-1.4872367,0.99029213,-1.0313383,-1.3573736,0.44164187,0.4317459,0.017301027,0.5946579,-0.3783996,1.3827872,-3.5004337,0.02461832,-2.0181987,0.18457794,-0.33747005,0.9805635,0.85271543,-0.08080292,0.19564825,0.47756577,-0.15494068,-0.27512822,-0.43182507,1.0,0.0,0.0,0.0,0.0,0.0,0.0,-1.2446579,-0.021600395,-0.8327872,-0.54922104,-4.329288,0.21977425,-1.6794682,-6.9943666,-0.5467832,0.77407676
-10.745635,-8.079431,-6.977145,19.693544,2.0753307,-0.69093204,-0.075871065,-0.8258575,0.48274872,-0.6169207,-0.7713013,0.16042788,0.61552936,0.14130837,0.7228624,-0.14837903,-1.8589207,-1.3589729,2.564123,1.563335,-1.0009772,0.7905909,-0.18723136,-1.8077075,-1.295528,2.5518758,1.5060889,-1.0148448,-1.4862915,0.9260343,-1.0519491,-1.3725306,0.3586197,0.4291372,0.02872028,0.5596771,-0.37815356,1.3618839,-3.496934,0.024593707,-2.1143665,0.18277359,-0.34047675,0.97608995,0.85655385,-0.07453994,0.19986014,0.46990973,-0.19603929,-0.31038582,-0.45316193,1.0,0.0,0.0,0.0,0.0,0.0,0.0,-1.2096771,-0.021846443,-0.81188387,-0.19197464,-6.4878106,-1.6341448,-1.633048,-8.380538,-0.60251355,0.9240813
-14.320675,-16.544178,-10.885371,18.56505,2.0408177,-0.80628395,-0.10300289,-0.8247826,0.41019878,-0.6321341,-0.7821442,-0.0783016,0.61951536,0.15463163,0.7081126,-0.14621148,-1.8709209,-1.3737425,2.5440457,1.5680404,-0.9993816,0.77575743,-0.17868143,-1.8184669,-1.3093716,2.5542562,1.5103747,-1.014469,-1.4828222,0.83104104,-1.0830872,-1.3883734,0.19790246,0.42738935,0.039746847,0.5247345,-0.37790775,1.3400196,-3.4934378,0.024569118,-2.2104385,0.18051529,-0.34390402,0.97133434,0.8603797,-0.0679351,0.20420144,0.46198833,-0.243401,-0.35413662,-0.48350775,1.0,0.0,0.0,0.0,0.0,0.0,0.0,-1.1747345,-0.022092253,-0.7900196,0.22833347,-9.5868,-2.8480053,-1.6467094,-16.176268,-0.5036354,0.8232616
-21.014137,-31.193274,-17.801052,17.199738,2.3066201,-1.019449,-0.16224545,-0.8297667,0.29733074,-0.6650209,-0.7887511,-0.33534542,0.623019,0.14027146,0.69278073,-0.14894836,-1.884969,-1.3882467,2.5207217,1.5726765,-1.0004419,0.7609488,-0.17145807,-1.829663,-1.3233582,2.5544279,1.5146471,-1.0140094,-1.4798052,0.685627,-1.1316849,-1.4020593,-0.043704826,0.4262602,0.04697818,0.4898262,-0.37766218,1.3171953,-3.489945,0.024544554,-2.3064141,0.17764664,-0.34790993,0.96619076,0.8642061,-0.06088139,0.20883992,0.4536819,-0.30918667,-0.415836,-0.5250578,1.0,0.0,0.0,0.0,0.0,0.0,0.0,-1.1398262,-0.022337824,-0.7671953,0.45177937,-14.677155,-4.844117,-1.3432026,-24.306948,-0.45137405,0.3612861
-33.812595,-61.791325,-30.875805,14.97637,3.6108706,-1.441969,-0.14101523,-0.8292825,0.061477285,-0.6755688,-0.7849083,-0.5149826,0.6390636,0.16866212,0.67802054,-0.16531034,-1.8972199,-1.401849,2.5029297,1.5785534,-0.99714315,0.7461926,-0.16656977,-1.8413475,-1.3374134,2.5519407,1.5189215,-1.0134696,-1.4719743,0.42247617,-1.1824464,-1.4059367,-0.3175752,0.4265792,0.05494918,0.45495224,-0.3774171,1.293412,-3.4864557,0.024520013,-2.402294,0.17373657,-0.35284734,0.9605385,0.868072,-0.053247333,0.21350817,0.44500554,-0.42682385,-0.5184177,-0.57891315,1.0,0.0,0.0,0.0,0.0,0.0,0.0,-1.1049522,-0.022582918,-0.74341196,1.466775,-26.538002,-5.5979013,-0.17566681,-27.539898,-0.3537476,0.3807403
-44.35206,-89.3587,-41.70133,12.267131,5.0811343,-1.7896202,0.01917106,-0.8209595,-0.20222369,-0.65763944,-0.7905207,-0.5730212,0.6559385,0.25613838,0.6640966,-0.18679214,-1.9071114,-1.4164655,2.4946384,1.5845153,-0.98785573,0.7315756,-0.16520482,-1.8533714,-1.351482,2.5470083,1.5232092,-1.0127906,-1.454228,0.040170252,-1.2128052,-1.4057529,-0.55234605,0.42788422,0.07109598,0.42011642,-0.377172,1.2686706,-3.48297,0.0244955,-2.4980779,0.16825104,-0.3590834,0.95427454,0.87200034,-0.044929523,0.21752357,0.43621126,-0.5979216,-0.65556556,-0.6427386,1.0,0.0,0.0,0.0,0.0,0.0,0.0,-1.0701164,-0.022828013,-0.71867055,3.0145884,-38.531258,-4.164028,0.48651695,-23.584438,-0.3469944,1.2561619
-47.967995,-101.21395,-45.365795,10.254546,6.0084424,-1.8413098,0.24109644,-0.81276983,-0.44055125,-0.6221321,-0.80048925,-0.5436325,0.6508119,0.35776153,0.6502986,-0.20925996,-1.9155846,-1.431531,2.492645,1.5882905,-0.9770144,0.71717703,-0.16816932,-1.8654258,-1.3655659,2.5403745,1.5275007,-1.0118731,-1.4297702,-0.40977967,-1.2081598,-1.4068903,-0.7003879,0.42758214,0.09805783,0.38531113,-0.37692738,1.2429721,-3.4794877,0.02447101,-2.5937662,0.16083527,-0.36678195,0.9473375,0.8759802,-0.03589682,0.2201221,0.42768717,-0.8000446,-0.80224717,-0.7116553,1.0,0.0,0.0,0.0,0.0,0.0,0.0,-1.0353111,-0.02307263,-0.6929721,4.026532,-45.33837,-1.0875225,0.60458183,-14.857256,-0.61802864,2.5140018
-37.731163,-86.57099,-35.126728,9.790183,5.8378696,-1.3097703,0.6121507,-0.78667754,-0.6345682,-0.4833673,-0.8073991,-0.3997542,0.6264714,0.38715574,0.6385093,-0.23162615,-1.9137626,-1.4463058,2.500399,1.5901479,-0.9731575,0.70310366,-0.17561513,-1.8766983,-1.379686,2.5332105,1.5317732,-1.010662,-1.3950214,-0.8571774,-1.1055139,-1.4109119,-0.72147626,0.42516664,0.12919569,0.35054398,-0.37668276,1.2163174,-3.476009,0.024446543,-2.6893587,0.15152359,-0.37572217,0.93976825,0.879893,-0.026337037,0.22062384,0.42002338,-0.98347694,-0.915754,-0.7741669,1.0,0.0,0.0,0.0,0.0,0.0,0.0,-1.000544,-0.023317248,-0.6663174,4.9390793,-45.03498,8.656454,0.41217804,-2.0629406,-0.7823229,3.2514527
-20.31179,-50.033524,-16.987898,12.42307,4.7104616,-0.3690039,0.7901516,-0.7703249,-0.7115439,-0.38727307,-0.8041882,-0.22695053,0.60104674,0.37174663,0.62607116,-0.24676952,-1.9154255,-1.4601048,2.5105155,1.5918779,-0.9734873,0.68938315,-0.18675429,-1.8864772,-1.3938328,2.526714,1.5360132,-1.0091647,-1.3604642,-1.200167,-0.940157,-1.4136893,-0.6254998,0.42262578,0.15785703,0.31580734,-0.37643862,1.1887076,-3.4725337,0.024422102,-2.7848558,0.14079285,-0.38536167,0.9317234,0.8836122,-0.016593616,0.21879683,0.41362068,-1.1113591,-0.9682677,-0.81856674,1.0,0.0,0.0,0.0,0.0,0.0,0.0,-0.9658073,-0.023561388,-0.6387076,4.6414375,-34.49719,15.091431,0.40609837,9.683275,-0.55054426,3.2498212
-14.452487,-26.215736,-9.743807,15.5911665,4.268935,0.11013961,0.5247759,-0.75659865,-0.7700328,-0.47184226,-0.801607,-0.0031605233,0.55438757,0.29262644,0.6137233,-0.2637576,-1.9336615,-1.4739935,2.526398,1.591452,-0.979902,0.6759907,-0.20041972,-1.8952053,-1.4079891,2.5219572,1.5402037,-1.007469,-1.3279619,-1.4225433,-0.8552804,-1.4142864,-0.42593798,0.4172475,0.17505789,0.28110886,-0.37619448,1.1601434,-3.4690619,0.024397684,-2.8802571,0.12892151,-0.39532042,0.9233444,0.8872339,-0.00685432,0.21469131,0.40826043,-1.2190464,-0.9911189,-0.8498879,1.0,0.0,0.0,0.0,0.0,0.0,0.0,-0.93110883,-0.023805529,-0.61014336,4.5099735,-22.40529,7.022822,0.5531311,19.974524,-0.6793916,2.1684022
-9.179445,-2.936605,-3.01749,18.490694,3.5965486,0.55376273,0.2138677,-0.7398292,-0.78253144,-0.5252144,-0.8039119,0.1741541,0.5237003,0.18240058,0.6020078,-0.27867287,-1.9477267,-1.4883803,2.5393727,1.5925738,-0.989229,0.66290915,-0.21539599,-1.9037235,-1.4221607,2.5195844,1.5443274,-1.0057143,-1.2973487,-1.5231189,-0.8552817,-1.4162575,-0.1746377,0.41101354,0.17692849,0.2464447,-0.3759508,1.130626,-3.4655936,0.024373291,-2.975563,0.11613846,-0.40530944,0.91473424,0.8908969,0.002802502,0.20859346,0.4034643,-1.3026531,-0.985935,-0.8713695,1.0,0.0,0.0,0.0,0.0,0.0,0.0,-0.8964447,-0.024049193,-0.58062595,4.319477,-10.191846,-1.387465,0.32815933,25.109005,-0.5898118,0.6101638
-8.967064,10.742422,-1.0867085,21.024843,2.9161253,0.85447675,-0.16765183,-0.7561095,-0.7879128,-0.58520883,-0.7938683,0.16342437,0.51722735,0.01245197,0.5872982,-0.29418728,-1.9622444,-1.5015476,2.5359268,1.5960501,-1.0044692,0.6499764,-0.23074013,-1.9127986,-1.4363018,2.5193212,1.5483938,-1.004095,-1.2874391,-1.5386286,-0.92958796,-1.4119383,0.02313217,0.40566424,0.15776193,0.21181488,-0.37570715,1.1001562,-3.4621286,0.024348922,-3.0707738,0.102630615,-0.41511726,0.9059382,0.89471024,0.012370368,0.20110217,0.39862046,-1.3715212,-0.9626417,-0.889898,1.0,0.0,0.0,0.0,0.0,0.0,0.0,-0.86181486,-0.024292856,-0.5501562,2.3458958,-1.6848326,-8.820259,0.92458725,19.71158,-0.41797757,-1.6187608
-7.86373,19.88022,1.0044231,21.787924,1.6628095,1.1033194,-0.411563,-0.75408214,-0.7963035,-0.62695277,-0.7781689,-0.1214979,0.5444974,-0.18227063,0.57456815,-0.31037048,-1.9754939,-1.5141187,2.5071714,1.6028435,-1.022322,0.63706553,-0.24593455,-1.9228618,-1.4503266,2.5196798,1.5524393,-1.0028304,-1.2880148,-1.5134776,-1.036069,-1.3977844,0.04001597,0.4046976,0.116359904,0.17721939,-0.37546396,1.068735,-3.4586673,0.02432458,-3.1658895,0.08864212,-0.42456388,0.8969176,0.89864904,0.021901522,0.19319788,0.39322338,-1.4114393,-0.92149097,-0.9140112,1.0,0.0,0.0,0.0,0.0,0.0,0.0,-0.82721937,-0.024536043,-0.518735,1.2120724,2.383852,-11.913406,1.8566847,1.6124017,0.09204149,-4.0390997
-3.514154,29.200375,5.9989653,22.19442,0.57095593,1.443883,-0.38974944,-0.76304126,-0.79481447,-0.5960941,-0.76275355,-0.3065363,0.58430433,-0.25474402,0.5607614,-0.325416,-1.9824712,-1.5266019,2.489026,1.6108698,-1.0283048,0.6240593,-0.26077276,-1.9336898,-1.4641491,2.5192144,1.5565153,-1.0020255,-1.3011931,-1.4742941,-1.1021591,-1.3760107,-0.07590472,0.40965438,0.06845458,0.14265823,-0.37522078,1.0363635,-3.4552093,0.024300259,-3.26091,0.07451248,-0.43345475,0.88766915,0.90257543,0.031379823,0.1856872,0.3871604,-1.417973,-0.86069685,-0.93655366,1.0,0.0,0.0,0.0,0.0,0.0,0.0,-0.7926582,-0.02477923,-0.48636347,-0.22597313,3.8100004,-7.7156544,2.524209,-11.640098,0.79833865,-4.8103795
-1.3696275,33.357304,8.857752,22.916973,0.24255425,1.6543815,-0.33029658,-0.7766059,-0.794171,-0.58348155,-0.7400406,-0.362682,0.5878726,-0.3563762,0.54639876,-0.34018987,-1.992038,-1.5381532,2.4829462,1.6153026,-1.0376631,0.6108452,-0.2752548,-1.9448555,-1.4776818,2.5172918,1.5606486,-1.0017394,-1.3250154,-1.4398179,-1.12455,-1.3446096,-0.23149928,0.41581878,0.015145317,0.10813141,-0.37497807,1.0030423,-3.4517548,0.024275964,-3.3558354,0.060409546,-0.44167733,0.87824506,0.9063946,0.040740147,0.17888634,0.38051093,-1.4106301,-0.79156756,-0.9519998,1.0,0.0,0.0,0.0,0.0,0.0,0.0,-0.7581314,-0.02502194,-0.45304233,-1.4285803,3.3526182,-3.2245398,3.437829,-15.59116,0.9750962,-5.376517
-0.20149192,34.124542,10.234138,22.449097,0.2629371,1.6848536,-0.22650383,-0.77772903,-0.7925424,-0.58633333,-0.7317989,-0.373691,0.5854652,-0.40033117,0.5330723,-0.35450903,-2.0034888,-1.5508616,2.4799228,1.6191951,-1.0417725,0.5974051,-0.2894774,-1.9560516,-1.490915,2.51395,1.564839,-1.0019702,-1.3477218,-1.4167097,-1.1205968,-1.3153865,-0.3683938,0.42116356,-0.035771184,0.073638916,-0.37473536,0.9687727,-3.4483037,0.024251692,-3.450666,0.046398163,-0.4492128,0.8686866,0.91006464,0.049943816,0.17273709,0.37342963,-1.3997611,-0.72317874,-0.9642509,1.0,0.0,0.0,0.0,0.0,0.0,0.0,-0.7236389,-0.02526465,-0.4187727,-1.4676332,2.2241116,-0.4564047,3.1952858,-13.72177,0.87862015,-5.106147
1.0243216,34.09501,11.39006,21.699152,0.3055292,1.6702867,-0.11203818,-0.7738158,-0.794841,-0.57761204,-0.71824837,-0.41871062,0.597012,-0.41942817,0.52002347,-0.3689615,-2.0138128,-1.5627397,2.472079,1.6245402,-1.043913,0.5838028,-0.3035727,-1.9670722,-1.5038716,2.5094144,1.5690829,-1.0026664,-1.3621904,-1.4073994,-1.0980941,-1.2880498,-0.48245615,0.42664018,-0.08090664,0.039180756,-0.37449312,0.9335555,-3.4448562,0.024227446,-3.5454018,0.03252411,-0.45608377,0.8590142,0.91355306,0.058968503,0.16707548,0.36609998,-1.3860993,-0.6574679,-0.9747539,1.0,0.0,0.0,0.0,0.0,0.0,0.0,-0.68918073,-0.025506884,-0.38355547,-0.7912159,0.8548975,1.5254498,2.986288,-11.437696,0.8703649,-4.488199
-1.2393498,27.983198,8.5561075,19.218527,0.5702913,1.3847666,-0.06087224,-0.7647331,-0.81300926,-0.61787105,-0.7274516,-0.4446216,0.5873128,-0.43080226,0.5073295,-0.38487363,-2.0288594,-1.5766168,2.4649522,1.6278142,-1.0457466,0.5701548,-0.31772906,-1.9780433,-1.5166718,2.5039518,1.573363,-1.0037688,-1.3638258,-1.4186763,-1.0989602,-1.276508,-0.56741494,0.429177,-0.119611844,0.0047569275,-0.3742509,0.8973916,-3.441412,0.024203222,-3.6400428,0.018688202,-0.4623928,0.8491542,0.9168664,0.067905575,0.16168137,0.3586136,-1.3837546,-0.6047397,-0.9958846,0.0,1.0,0.0,0.0,0.0,0.0,0.0,-0.6547569,-0.025749117,-0.3473916,0.41747093,-1.2192011,-0.73969364,1.4510632,-8.555996,0.4602909,-3.8135588
-3.008309,25.791523,6.9340544,18.35993,0.79650676,1.2726943,-0.061285734,-0.7643302,-0.8123772,-0.6438931,-0.7194629,-0.4575045,0.5767376,-0.44145796,0.49372175,-0.3989668,-2.0424325,-1.588618,2.4582014,1.6310368,-1.0479146,0.5567978,-0.3320419,-1.9897318,-1.5297345,2.498678,1.5802538,-1.0049363,-1.2844462,-1.4379348,-1.2735894,-1.3664323,-0.414475,1.1446693,-0.100356795,-0.020618439,-0.3753054,0.8782272,-1.0792688,-0.25821707,1.3862605,0.004589081,-0.4679153,0.83892894,0.92002773,0.075778335,0.1561826,0.35130268,-1.449049,-0.47577494,-1.057685,0.0,1.0,0.0,0.0,0.0,0.0,0.0,-0.62938154,-0.024694592,-0.32822716,16.028595,-2.4095297,-33.25248,-18.373276,36.19481,143.2322,7.2326555
94.113045,176.0,110.0,110.0,-2.8297358,11.568068,-0.12490029,-0.8010124,0.04091854,0.7049995,0.7616256,-0.38912457,0.63768023,-0.529252,0.47669655,-0.32795003,-1.9192319,-1.4535719,2.4597654,1.6440219,-1.0578616,0.5511213,-0.3459681,-2.0030017,-1.5336219,2.491187,1.5990072,-1.0067724,-0.3477651,-1.3755826,-1.3191501,-0.060036138,-0.8695913,2.0809689,-0.21190058,-0.030334473,-0.37790275,0.8943438,-1.0781896,-0.25795895,1.2866896,-0.0074272156,-0.47036314,0.8320488,0.9226164,0.07387613,0.15430894,0.34570226,-1.1139063,-0.15746722,-0.5662262,1.0,0.0,0.0,0.0,0.0,0.0,0.0,-0.6196655,-0.02209726,-0.34434378,89.75648,6.7009687,-0.253582,129.32083,-44.387245,97.374344,-11.518532
55.915585,168.94223,90.08863,107.77946,0.59314966,7.793102,-0.09881197,-0.7636427,-0.56341136,0.5306335,0.78785616,-0.62570333,0.6930026,-0.3990155,0.47475702,-0.40230924,-1.9499383,-1.4548362,2.4286168,1.6683075,-1.0466739,0.54759747,-0.35861573,-2.010635,-1.5271102,2.4816885,1.6197554,-1.0090688,-0.3520797,-1.228354,-0.57749987,0.8875258,-0.9790718,2.082453,-0.2355904,-0.041107178,-0.3804803,0.9064646,-1.0771117,-0.25770104,1.1872172,-0.016937256,-0.47038603,0.8300094,0.92476517,0.06519997,0.15554985,0.34111935,-0.8929357,0.057641033,-0.08935748,1.0,0.0,0.0,0.0,0.0,0.0,0.0,-0.6088928,-0.019519717,-0.35646456,0.11641383,14.563823,74.249985,94.55198,-11.635637,3.0290604,-2.4412484
33.734875,131.39778,65.31639,79.96242,0.79006565,4.9905453,0.21737535,-0.70317197,-0.575515,0.49428907,0.6686045,-0.6938534,0.6433981,0.2514374,0.47728026,-0.41616723,-1.961206,-1.4602498,2.4123032,1.6840951,-0.9839251,0.542357,-0.369953,-2.0106769,-1.5140678,2.471343,1.6391855,-1.0110353,-0.5755678,-1.1030399,0.18215014,1.4438658,-1.0557764,1.9026757,-0.18333218,-0.05186844,-0.38305545,0.9175914,-1.0760348,-0.25744337,1.0878443,-0.024757385,-0.46866488,0.8316027,0.9264557,0.052750137,0.15843895,0.33733395,-0.74363315,0.21340549,0.23508221,1.0,0.0,0.0,0.0,0.0,0.0,0.0,-0.59813154,-0.016944557,-0.36759138,-20.615166,12.28838,74.58963,55.878113,-8.5666895,-16.099262,5.3041368
5.139161,79.340416,32.28487,52.82902,1.7277646,2.5653963,0.11971425,-0.7028921,-0.5968865,0.4843805,0.72258264,-0.7105664,0.631538,0.30112994,0.4720678,-0.42964166,-1.9622388,-1.4418095,2.4002864,1.7023393,-0.98092234,0.5343223,-0.3804668,-2.0046725,-1.4979354,2.4606276,1.6565653,-1.0123838,-0.8734546,-1.0345851,0.7339789,1.6708328,-1.0783246,1.6870733,-0.1178798,-0.06262207,-0.38562799,0.9277252,-1.074959,-0.257186,0.98857063,-0.031845093,-0.46586895,0.83521277,0.9277665,0.038760364,0.1619587,0.33394045,-0.6991812,0.30479133,0.39626312,1.0,0.0,0.0,0.0,0.0,0.0,0.0,-0.5873779,-0.014372021,-0.37772518,-27.97923,6.725502,53.37787,23.028803,-2.6916265,-20.343208,6.8027244
-9.998353,33.46572,8.31587,28.029013,1.886234,0.485596,0.14198484,-0.68051714,-0.65185106,0.50451195,0.7112558,-0.72162926,0.63544524,0.25308058,0.4662706,-0.4456519,-1.9542214,-1.4268098,2.3884647,1.7201098,-0.98707575,0.52383095,-0.39089188,-1.9950213,-1.481309,2.4498472,1.6719061,-1.0131487,-1.1038471,-1.0451677,1.0375277,1.66059,-1.0779335,1.4855072,-0.061823525,-0.07336426,-0.3881979,0.93686706,-1.0738842,-0.25692886,0.88939625,-0.03894043,-0.46265626,0.83938426,0.9288263,0.024878884,0.16531603,0.3306558,-0.7170295,0.3311701,0.4182609,1.0,0.0,0.0,0.0,0.0,0.0,0.0,-0.5766357,-0.011802107,-0.38686705,-21.888483,-1.0614157,29.03669,-0.8467674,-0.03364086,-19.418121,5.8665185
-15.595728,9.024006,-4.0920243,14.368771,1.795631,-0.75044525,0.11098232,-0.66747016,-0.6633031,0.49792835,0.7059475,-0.71166426,0.6228924,0.23265879,0.45708394,-0.4572222,-1.9452285,-1.4107143,2.3786807,1.7341954,-0.98988277,0.5118013,-0.40169033,-1.9839301,-1.4656268,2.439189,1.6854235,-1.0134367,-1.2340347,-1.0912652,1.1304748,1.5378,-1.0615062,1.3088049,-0.017188651,-0.084095,-0.3907652,0.94500995,-1.0728106,-0.25667197,0.78925586,-0.046417236,-0.4595108,0.84320074,0.9297615,0.012076313,0.16810805,0.32731816,-0.76192486,0.31450415,0.3646694,1.0,0.0,0.0,0.0,0.0,0.0,0.0,-0.565905,-0.009234816,-0.39500993,-12.444258,-4.566884,8.492374,-12.2100115,1.7394781,-17.193604,4.653109
-16.518406,-1.9763212,-9.136883,9.076509,1.7473569,-1.3360372,0.055208027,-0.661939,-0.6880773,0.48234534,0.70076996,-0.69670635,0.6044497,0.20508507,0.4456074,-0.47049806,-1.9356955,-1.3955499,2.3695183,1.7458684,-0.99292815,0.4991242,-0.41308913,-1.9729209,-1.4513255,2.4287558,1.6973673,-1.0133623,-1.2780654,-1.1559138,1.0894337,1.3943422,-1.0370044,1.1572186,0.016005464,-0.0948143,-0.39332986,0.9521522,-1.071738,-0.25641537,0.6892156,-0.054416656,-0.45670748,0.84626395,0.93068063,0.0007198535,0.17020555,0.32382578,-0.8166206,0.27486637,0.2830289,1.0,0.0,0.0,0.0,0.0,0.0,0.0,-0.5551857,-0.006670147,-0.40215218,-4.1578054,-6.4183235,-4.5661926,-14.291501,2.5755644,-14.8460865,3.4593987
-16.693789,-3.4802504,-10.134737,9.613439,1.819298,-1.42194,-0.050270222,-0.67354286,-0.70821846,0.45290226,0.68911105,-0.6830993,0.5915768,0.16426562,0.4317699,-0.48391098,-1.9276307,-1.3824145,2.3604457,1.756525,-0.9969357,0.48635212,-0.42513117,-1.9628329,-1.438264,2.418582,1.7079741,-1.013038,-1.2764053,-1.2201561,0.98064196,1.2771546,-1.0104945,1.0293126,0.038320024,-0.105522156,-0.39589214,0.95829475,-1.0706666,-0.256159,0.58927536,-0.06298828,-0.45433664,0.8485148,0.9316718,-0.0092014605,0.17165017,0.32006127,-0.8747417,0.23069726,0.20265257,1.0,0.0,0.0,0.0,0.0,0.0,0.0,-0.5444778,-0.0041078627,-0.40829474,0.32117367,-6.3848257,-11.235642,-11.614037,2.7760506,-12.54015,2.3603194
-11.554916,5.0798516,-4.8678136,11.980066,1.5688761,-1.1922514,-0.043247044,-0.6644115,-0.7187361,0.45924997,0.6699648,-0.67192477,0.5710971,0.13230176,0.41991097,-0.49700478,-1.9169079,-1.3712676,2.3513894,1.7650838,-0.99980783,0.47380796,-0.43770823,-1.9537787,-1.426099,2.4086561,1.7174536,-1.0125536,-1.246672,-1.2702252,0.87944716,1.1966896,-0.98665434,0.9214959,0.05220785,-0.11622238,-0.3984518,0.96343863,-1.069596,-0.2559029,0.48943502,-0.07201004,-0.45233512,0.850096,0.93274564,-0.017941566,0.17257231,0.31604174,-0.9149831,0.1962042,0.14043695,1.0,0.0,0.0,0.0,0.0,0.0,0.0,-0.5337776,-0.0015482008,-0.41343862,3.0988216,-4.993725,-10.400391,-7.906699,2.4264574,-10.526049,1.5016019
-4.660719,13.299011,1.327867,13.051782,1.2315135,-0.9897019,0.043186165,-0.62515277,-0.7487139,0.4603913,0.6428576,-0.65474015,0.5781534,0.09021278,0.41129267,-0.5125796,-1.9077396,-1.3618132,2.343182,1.7752689,-1.0035323,0.46176687,-0.45075974,-1.9454818,-1.4145423,2.3989592,1.7259985,-1.011989,-1.1896943,-1.3167996,0.8124812,1.1426585,-0.9642841,0.833052,0.05821356,-0.12691116,-0.40100884,0.96758485,-1.0685267,-0.25564703,0.3896945,-0.081272125,-0.4506135,0.8511672,0.93385667,-0.025818272,0.17305243,0.31192595,-0.933722,0.17046377,0.093412854,1.0,0.0,0.0,0.0,0.0,0.0,0.0,-0.5230888,0.0010088384,-0.41758484,5.7616234,-4.6723366,-6.8506837,-5.265403,2.1722794,-8.598208,0.6955907
0.104151726,17.78906,4.804174,12.394023,0.94306564,-0.95309335,0.09812467,-0.5755694,-0.7712141,0.41396666,0.60066456,-0.63191384,0.5757497,0.041163657,0.40420994,-0.52788115,-1.9040852,-1.3544759,2.3357677,1.7835735,-1.0078726,0.45046344,-0.4642428,-1.9377952,-1.4034892,2.3894987,1.7337748,-1.0114187,-1.1106102,-1.3589073,0.7539635,1.0934776,-0.94034284,0.759939,0.056833062,-0.1375885,-0.4035635,0.9707344,-1.0674584,-0.25539145,0.29005373,-0.09062195,-0.44913197,0.8517978,0.93497026,-0.03302668,0.17312303,0.30784458,-0.9385074,0.1469234,0.050283246,1.0,0.0,0.0,0.0,0.0,0.0,0.0,-0.5124115,0.0035634935,-0.4207344,7.8817844,-4.245186,-5.8778286,-4.7962427,2.2688031,-7.089138,-0.066028535
6.8160095,22.865969,8.932952,10.457993,0.48723012,-1.0132425,0.21040407,-0.4940379,-0.7870002,0.37494713,0.5606511,-0.61198217,0.5686634,0.03953282,0.40105966,-0.5429428,-1.9003005,-1.3474241,2.3283005,1.7906411,-1.0074654,0.4401938,-0.47809777,-1.9306674,-1.392955,2.3802862,1.7409121,-1.0108732,-0.9996257,-1.39452,0.6994473,1.0401887,-0.9155941,0.6988707,0.053763628,-0.1482544,-0.40611553,0.9728883,-1.0663912,-0.2551361,0.19051257,-0.09987259,-0.44789362,0.85200226,0.93603903,-0.039671175,0.17280361,0.303967,-0.9236991,0.12199518,0.0077293627,1.0,0.0,0.0,0.0,0.0,0.0,0.0,-0.5017456,0.006115526,-0.42288828,10.927033,-3.6201477,-5.289018,-5.24683,2.2751331,-5.9201956,-0.27374327
6.166263,22.976355,8.424599,10.026571,0.50255704,-1.0084113,0.18130192,-0.47250786,-0.8016318,0.33501577,0.5183137,-0.5835913,0.5689292,0.019063702,0.39294302,-0.5582609,-1.8971658,-1.3411236,2.321927,1.797805,-1.0089668,0.4309422,-0.49226412,-1.9241138,-1.3830215,2.3713598,1.7475191,-1.0103754,-0.90083766,-1.4242294,0.64106447,0.97816545,-0.8859146,0.6484386,0.048536412,-0.15890884,-0.40866494,0.97404754,-1.065325,-0.254881,0.091070935,-0.109004974,-0.4468994,0.85176504,0.937069,-0.045777034,0.17209718,0.30031434,-0.91132635,0.097293176,-0.03698882,1.0,0.0,0.0,0.0,0.0,0.0,0.0,-0.49109113,0.008664936,-0.42404753,9.72414,-3.0354738,-5.7028294,-6.1103225,2.789247,-4.873693,-0.48932508
4.8193445,24.02799,8.157125,11.1540365,0.6022465,-0.93806314,0.11087345,-0.43502724,-0.8123953,0.29993847,0.5042567,-0.5710193,0.5850769,-0.03370427,0.3874395,-0.5735037,-1.8941199,-1.3325958,2.3142579,1.8060268,-1.0137458,0.42258516,-0.5066808,-1.9181647,-1.3736354,2.3627157,1.753699,-1.0099672,-0.81431496,-1.4476638,0.5797765,0.9257702,-0.85791725,0.6085999,0.03844276,-0.16955566,-0.41121197,0.9742131,-1.0642599,-0.25462618,-0.008271274,-0.11802673,-0.44612527,0.8511103,0.938087,-0.051399823,0.17104909,0.29680452,-0.90260637,0.075705156,-0.077914156,1.0,0.0,0.0,0.0,0.0,0.0,0.0,-0.4804443,0.0112119615,-0.4242131,8.546972,-2.4095058,-6.0474873,-5.12228,2.645576,-3.8129687,-0.9667479
0.08872461,21.19543,4.984672,11.394407,0.7896358,-0.93163216,-0.0067715943,-0.42412576,-0.8194965,0.23439589,0.45483732,-0.556372,0.5792757,-0.10239078,0.38017258,-0.58863044,-1.8947251,-1.3281517,2.3070786,1.8116266,-1.0202063,0.4148809,-0.52128345,-1.9129901,-1.3648444,2.3543348,1.7595335,-1.0097059,-0.75587815,-1.4645927,0.49655712,0.86388296,-0.8314443,0.57554317,0.022236144,-0.18019104,-0.41375637,0.97338605,-1.0631958,-0.2543716,-0.107514165,-0.12707138,-0.4455607,0.8500037,0.9391486,-0.05648827,0.16971055,0.2932699,-0.90641063,0.0545378,-0.12464842,1.0,0.0,0.0,0.0,0.0,0.0,0.0,-0.46980894,0.013756365,-0.42338604,5.8118343,-1.7543793,-8.34688,-6.0351014,2.5569677,-3.1425834,-1.56736
-4.8472266,15.792281,0.65446436,10.039463,0.9289055,-1.0175097,-0.08499876,-0.41473347,-0.82949615,0.14599586,0.38329118,-0.52739817,0.5668234,-0.110583834,0.37340754,-0.6042331,-1.8983905,-1.3265153,2.301595,1.8162159,-1.0207642,0.4075729,-0.53603584,-1.9089084,-1.3568641,2.3462553,1.7650725,-1.0096029,-0.72244406,-1.478993,0.37846678,0.7767588,-0.8006964,0.54684234,0.0065102214,-0.19081497,-0.41629815,0.9715673,-1.0621328,-0.25411728,-0.20665783,-0.13626099,-0.44523287,0.84832406,0.94032013,-0.060864855,0.16807778,0.2895569,-0.92419714,0.029706387,-0.18549466,1.0,0.0,0.0,0.0,0.0,0.0,0.0,-0.459185,0.016298145,-0.42156726,3.35536,-1.4995813,-11.912638,-8.5271,3.044188,-2.747047,-1.5146215
-13.959495,8.248381,-6.310246,10.618689,1.2866771,-1.1210983,-0.29356065,-0.4190662,-0.8260152,-0.021999061,0.34290856,-0.51965797,0.5646038,-0.15002203,0.36566627,-0.6186373,-1.9111083,-1.3225732,2.2942896,1.8215328,-1.0246052,0.40041128,-0.5508674,-1.9065967,-1.349784,2.3384504,1.7703539,-1.0096716,-0.71372396,-1.4846581,0.18130587,0.68603,-0.77330106,0.5223623,-0.011027527,-0.20142746,-0.41883755,0.9687548,-1.0610709,-0.25386322,-0.30609614,-0.14580917,-0.445184,0.8459312,0.941705,-0.06426618,0.16623291,0.2853559,-0.9669118,0.0007500203,-0.26044118,1.0,0.0,0.0,0.0,0.0,0.0,0.0,-0.44857252,0.018837541,-0.41875482,0.9682059,-0.62077045,-19.938234,-8.807373,2.8015018,-2.3667693,-1.6890608
-21.91006,9.436048,-8.119579,18.261944,1.9186662,-0.8534584,-0.54578424,-0.41770414,-0.8251005,-0.12831564,0.44055733,-0.55461544,0.59990853,-0.15901728,0.35864085,-0.63337743,-1.9194282,-1.3057283,2.2829888,1.8303448,-1.0255733,0.3932468,-0.5657113,-1.9064727,-1.3429347,2.3307524,1.7754503,-1.0099043,-0.71646523,-1.4845536,-0.04508227,0.6858071,-0.7679392,0.5057907,-0.027027782,-0.2120285,-0.42137432,0.9649488,-1.0600101,-0.25360942,-0.40543503,-0.15594864,-0.44532895,0.84295535,0.9433688,-0.066785224,0.16441767,0.28028867,-1.0299443,-0.0155047625,-0.31360325,1.0,0.0,0.0,0.0,0.0,0.0,0.0,-0.43797147,0.021374315,-0.41494876,-0.022232533,-0.047397614,-22.96566,0.3532648,0.63655376,-1.5556574,-1.5170537
-27.27135,7.4491477,-10.863583,21.11372,2.2158718,-0.8188385,-0.6909096,-0.40771496,-0.82419646,-0.30265215,0.45906734,-0.56161296,0.60412925,-0.14995565,0.35247532,-0.64813095,-1.9367379,-1.297028,2.274591,1.8358632,-1.0248998,0.38606706,-0.58053046,-1.9089656,-1.3357612,2.3230314,1.7804095,-1.0102705,-0.717429,-1.4813017,-0.31870297,0.72940767,-0.7727845,0.49290264,-0.039769057,-0.22262192,-0.42390847,0.96015006,-1.0589503,-0.25335586,-0.50467455,-0.16683197,-0.4456179,0.83946896,0.9453493,-0.06844987,0.16282406,0.27407593,-1.1075372,-0.028950712,-0.3644353,1.0,0.0,0.0,0.0,0.0,0.0,0.0,-0.42737806,0.023908466,-0.41015005,0.22152662,0.24926662,-27.713343,4.8101544,-0.3576517,-1.2243509,-1.2037956
-29.131386,10.673387,-9.780008,24.163403,2.3661892,-0.62794936,-0.7373311,-0.40981263,-0.8220545,-0.41589344,0.5156222,-0.57187206,0.6106883,-0.12950948,0.3450858,-0.66273594,-1.950555,-1.284199,2.265844,1.8414783,-1.0232214,0.3788716,-0.59530574,-1.9141517,-1.3278247,2.3152075,1.7852656,-1.010734,-0.7189968,-1.4765979,-0.58648854,0.8168627,-0.78486186,0.48313534,-0.048256356,-0.23320389,-0.42644024,0.9543597,-1.0578915,-0.25310254,-0.60381484,-0.17851639,-0.44597173,0.8355646,0.94763196,-0.06934966,0.16157945,0.26660118,-1.1876724,-0.032526657,-0.4037616,1.0,0.0,0.0,0.0,0.0,0.0,0.0,-0.4167961,0.026440233,-0.4043597,0.22215843,0.36330223,-27.128422,9.2389345,-1.0971665,-0.9274304,-0.79682994
-22.51867,16.39194,-5.164813,21.887135,1.9002247,-0.5528668,-0.56520414,-0.38249838,-0.8255915,-0.49800223,0.5227842,-0.5746588,0.6158161,-0.13791445,0.34062174,-0.6778649,-1.963952,-1.2755463,2.2577417,1.8468472,-1.0245254,0.37178865,-0.6100591,-1.9217086,-1.3190662,2.3072577,1.7900397,-1.0112756,-0.70373136,-1.4752433,-0.8127845,0.896887,-0.7980652,0.47553614,-0.05594,-0.24377441,-0.42896938,0.94757867,-1.0568339,-0.2528495,-0.702856,-0.1908493,-0.4463389,0.83128476,0.9501305,-0.06957948,0.16068599,0.25805166,-1.2469906,-0.03253551,-0.44143203,1.0,0.0,0.0,0.0,0.0,0.0,0.0,-0.40622556,0.028969377,-0.39757866,1.8286586,0.0021457672,-22.86042,8.440531,-1.2780666,-0.7393956,-0.7495016
-4.065868,27.961714,4.882933,15.091598,0.733178,-0.6681793,-0.1702428,-0.28866902,-0.8223672,-0.54859316,0.51149625,-0.56793,0.6073172,-0.1374539,0.34292173,-0.6922958,-1.9765679,-1.2679166,2.2504647,1.8507714,-1.0250211,0.36528793,-0.6247943,-1.9310431,-1.3097717,2.2992125,1.7947413,-1.0118841,-0.6320519,-1.4734609,-0.9734289,0.9411628,-0.8069646,0.46836028,-0.06266199,-0.2543373,-0.4314959,0.93980795,-1.0557772,-0.2525967,-0.8017981,-0.20339584,-0.4467616,0.82663566,0.9526824,-0.069246285,0.16004677,0.24897008,-1.2555443,-0.03931474,-0.47865194,1.0,0.0,0.0,0.0,0.0,0.0,0.0,-0.39566267,0.0314959,-0.38980794,7.192433,0.04041195,-15.996623,4.6670556,-0.9773731,-0.7156253,-0.70601773
13.612556,39.250828,14.720974,9.487974,-0.2997443,-0.7475037,0.20201498,-0.20455575,-0.8258614,-0.56036943,0.51717484,-0.5821239,0.6134806,-0.11250064,0.34483236,-0.7073804,-1.9870801,-1.2580541,2.2410002,1.8560894,-1.0231341,0.35985675,-0.6395343,-1.9414039,-1.300233,2.2910566,1.7993857,-1.0125345,-0.5142647,-1.4745754,-1.055763,0.9582771,-0.81925136,0.46296248,-0.06612409,-0.26488495,-0.43402004,0.9310486,-1.0547217,-0.25234416,-0.9006413,-0.21569061,-0.44730616,0.8216571,0.95512235,-0.068523,0.1595627,0.23996967,-1.2171199,-0.05333242,-0.51043695,1.0,0.0,0.0,0.0,0.0,0.0,0.0,-0.38511503,0.034020036,-0.38104856,11.5511055,-0.24337769,-7.897854,1.757288,-1.441145,-0.5376518,-0.4153818
26.156916,45.020817,20.435902,3.8897004,-1.0633107,-0.88921845,0.47001886,-0.13401681,-0.8273235,-0.5813379,0.47689763,-0.5733205,0.6070297,-0.12235103,0.34645507,-0.7222667,-1.9995377,-1.2525432,2.2337246,1.8600886,-1.0247695,0.35577312,-0.6542962,-1.9522128,-1.2908603,2.2828207,1.8039767,-1.0132211,-0.37430027,-1.4771128,-1.0876038,0.93015057,-0.82613546,0.45769313,-0.069829494,-0.27542496,-0.43654156,0.9213015,-1.0536672,-0.25209185,-0.9993857,-0.22735214,-0.44806337,0.8163338,0.95735276,-0.067487724,0.15910758,0.23152941,-1.1474969,-0.077604204,-0.5458756,1.0,0.0,0.0,0.0,0.0,0.0,0.0,-0.37457502,0.03654155,-0.37130147,13.615948,-0.3730297,-2.7109385,-2.8975844,-0.9803295,-0.5493939,-0.45589507
28.078749,44.936386,20.656067,2.0700226,-1.2185316,-0.9590208,0.5332298,-0.09067475,-0.82886404,-0.61937153,0.45259097,-0.5813749,0.58692837,-0.09807538,0.34670565,-0.7371826,-2.01415,-1.2456012,2.2246833,1.8626695,-1.0230287,0.3530127,-0.6690896,-1.9632487,-1.2819473,2.2745123,1.8085047,-1.013923,-0.24453463,-1.4804146,-1.1075852,0.8782352,-0.833218,0.45090833,-0.07057013,-0.28595352,-0.43906045,0.9105677,-1.0526137,-0.25183982,-1.0980315,-0.23830795,-0.44909167,0.8106229,0.9593592,-0.06611157,0.15861146,0.22383355,-1.0741913,-0.10668423,-0.585777,1.0,0.0,0.0,0.0,0.0,0.0,0.0,-0.36404645,0.039060444,-0.3605677,12.610945,-0.44641495,-1.5534878,-5.2818418,-1.0072947,-0.7319808,-0.15737414
31.186684,42.72621,20.156696,-1.406291,-1.4709473,-1.1251013,0.60569906,-0.017716257,-0.8325062,-0.64937365,0.3881687,-0.5715189,0.54507816,-0.10738929,0.35124108,-0.75234026,-2.028186,-1.2431304,2.2173605,1.8630126,-1.024662,0.35153785,-0.6839259,-1.9745116,-1.2738105,2.266181,1.8129355,-1.0146364,-0.11632312,-1.4850934,-1.1309934,0.79177547,-0.83396906,0.4402023,-0.07174554,-0.29647064,-0.44157696,0.89885664,-1.0515614,-0.25158805,-1.1954554,-0.24848938,-0.4504726,0.80443287,0.96115834,-0.064282104,0.15798578,0.21698564,-0.99633163,-0.14487925,-0.6362616,1.0,0.0,0.0,0.0,0.0,0.0,0.0,-0.35352933,0.04157695,-0.34885663,12.456782,-0.5709648,-1.9323587,-8.745348,-0.35903454,-1.1731029,-0.19389093
39.07572,44.804245,22.651121,-4.5338755,-1.8429905,-1.3192303,0.7189889,0.09282355,-0.8329414,-0.6569311,0.3378185,-0.55013376,0.52253115,-0.102918334,0.3608202,-0.7672201,-2.0402048,-1.2400286,2.2111676,1.8651886,-1.0249282,0.35151353,-0.69880325,-1.9859824,-1.266656,2.2579222,1.8172461,-1.0153555,0.03416118,-1.4888343,-1.1509248,0.6895296,-0.8241431,0.42765507,-0.07227674,-0.30698013,-0.44409108,0.8861721,-1.0505099,-0.25133651,-1.292782,-0.25779343,-0.45231032,0.79771805,0.9627465,-0.061967418,0.15713842,0.21115564,-0.90434575,-0.19393775,-0.68923444,1.0,0.0,0.0,0.0,0.0,0.0,0.0,-0.34301984,0.044091076,-0.3361721,14.633979,-0.46634674,-1.5588999,-10.365057,0.69891214,-1.4051378,-0.121977925
22.745079,30.609938,12.304995,-7.190742,-1.4577461,-1.1686617,0.5910486,-0.013647472,-0.8387746,-0.69085217,0.10861163,-0.5323029,0.441005,-0.26039374,0.3501488,-0.7826807,-2.0550675,-1.2557949,2.204692,1.8613466,-1.0413948,0.35217157,-0.713733,-1.9977679,-1.261386,2.2498236,1.8213793,-1.0161966,0.075953946,-1.4946328,-1.1876286,0.4728488,-0.8057181,0.40769875,-0.08823697,-0.31747818,-0.44660258,0.87251496,-1.0494597,-0.25108522,-1.3900112,-0.26641846,-0.4545691,0.79019964,0.9642221,-0.05878842,0.15588155,0.20620519,-0.8441065,-0.23458688,-0.77871287,1.0,0.0,0.0,0.0,0.0,0.0,0.0,-0.3325218,0.046602577,-0.32251495,4.0496387,-0.6635666,-3.587556,-21.644205,1.6427398,-2.2090435,-1.6381353
-4.6780434,21.7493,2.142229,-1.555223,-0.15731025,-0.5223705,0.30666018,-0.17033169,-0.8383875,-0.6747631,-0.04359153,-0.4618482,0.39731088,-0.26640102,0.3351384,-0.7975718,-2.0652442,-1.2657452,2.2036388,1.8611104,-1.0428367,0.35215107,-0.7287095,-2.009811,-1.2587253,2.2421064,1.8252913,-1.0171999,-0.027250683,-1.499078,-1.2104038,0.19782485,-0.7610198,0.38489848,-0.10437851,-0.32796478,-0.44911146,0.85787314,-1.0484104,-0.25083417,-1.4889007,-0.27484512,-0.45696783,0.7817003,0.9657226,-0.054481484,0.1540001,0.20173128,-0.83711654,-0.23975419,-0.87942207,1.0,0.0,0.0,0.0,0.0,0.0,0.0,-0.3220352,0.049111456,-0.30787313,-10.080366,-0.56033134,-2.5351524,-27.239248,4.283643,-2.512461,-1.6133025
-51.23467,36.571316,-1.0519254,34.952053,3.8527393,1.1185048,-0.7303096,-0.3317922,-0.8443617,-0.57026786,0.37053066,-0.40016916,0.5147725,-0.23724714,0.31897184,-0.8131457,-2.0668378,-1.2216722,2.2020895,1.8767685,-1.0409245,0.3501779,-0.7437509,-2.0215068,-1.2563678,2.2349844,1.8290945,-1.0183271,-0.25212514,-1.5065781,-1.1569481,0.2502425,-0.69683033,0.37889382,-0.11529552,-0.33843994,-0.45161796,0.84224313,-1.0473622,-0.2505834,-1.5876912,-0.28399658,-0.45875716,0.77302647,0.9673877,-0.050020617,0.15178053,0.19652374,-0.9358786,-0.15593661,-0.86882514,1.0,0.0,0.0,0.0,0.0,0.0,0.0,-0.31156003,0.05161795,-0.29224312,-21.935219,-0.98109245,5.078244,5.7694883,6.165111,-0.5808711,-1.0260358
-39.389618,57.44376,11.171851,43.437363,4.3564186,1.2414292,-0.83480555,-0.2182108,-0.8434077,-0.5043027,0.49653515,-0.2503525,0.5102988,-0.2710534,0.32835683,-0.8280916,-2.071937,-1.2067143,2.2099493,1.8801244,-1.0454324,0.34665695,-0.7588504,-2.0322795,-1.2522155,2.2288733,1.8328635,-1.0195688,-0.38422745,-1.5118071,-1.0506974,0.47136295,-0.5832741,0.37652406,-0.12682329,-0.34890366,-0.45412183,0.82562596,-1.0463151,-0.2503329,-1.686383,-0.29402542,-0.45968032,0.7649336,0.9692073,-0.046431687,0.14937279,0.19018133,-1.0213966,-0.06740747,-0.7948026,0.0,1.0,0.0,0.0,0.0,0.0,0.0,-0.30109632,0.054121822,-0.27562594,-12.854796,-0.75006485,10.613108,22.502548,11.114264,-0.11944175,-1.0481328
3.032455,67.036064,24.68671,27.529572,2.2033904,0.2971971,-0.24793003,-0.057206664,-0.83924395,-0.49574718,0.3964889,-0.11727046,0.43312654,-0.256627,0.34093627,-0.8427748,-2.081854,-1.2125666,2.2171462,1.8761761,-1.0452315,0.34306303,-0.7739623,-2.042026,-1.2462589,2.2241697,1.836558,-1.020904,-0.3512552,-1.5114912,-0.9482572,0.63748145,-0.43318865,0.36731955,-0.13545367,-0.35935974,-0.45662332,0.8080226,-1.0452689,-0.2500826,-1.7849761,-0.30431366,-0.46013355,0.75748444,0.9710564,-0.043923534,0.14659,0.1833888,-1.0258586,-0.033451397,-0.7334606,0.0,1.0,0.0,0.0,0.0,0.0,0.0,-0.29064023,0.05662331,-0.2580226,3.2630742,-0.12862682,10.531926,16.694378,14.764672,-0.86432695,-0.7990539
29.213133,66.393745,29.634815,14.061987,0.38023674,-0.4451209,0.18567587,0.0069363597,-0.8403772,-0.5019358,0.3784523,-0.11847712,0.42086497,-0.22331221,0.34375668,-0.85800004,-2.0922196,-1.2084136,2.212322,1.8786445,-1.0432352,0.340531,-0.7890529,-2.0512462,-1.2394971,2.221382,1.840095,-1.0221417,-0.22141246,-1.5086523,-0.91220313,0.6896794,-0.21861145,0.35116866,-0.119404815,-0.36935043,-0.45596313,0.8027713,-0.91518366,0.13852656,-0.1351358,-0.31430435,-0.46062016,0.75031507,0.97286177,-0.042130005,0.14305255,0.17692047,-0.98791695,-0.048594996,-0.7162257,0.0,1.0,0.0,0.0,0.0,0.0,0.0,-0.28064954,0.05596313,-0.25277126,12.264505,0.056433678,7.1556807,9.047688,11.848175,-1.2478054,-0.29464066
-29.549795,69.88831,16.301939,39.479145,2.6300905,1.1496286,-0.55415094,-0.36355343,-0.80003446,-0.39922392,0.64656985,-0.47987515,0.57030183,-0.15462466,0.30417565,-0.86905634,-2.0911686,-1.1748401,2.1733944,1.8971252,-1.0376042,0.33756983,-0.8039331,-2.0596805,-1.23112,2.2187345,1.8436542,-1.023309,-0.32010457,-1.4818769,-0.8199969,0.8881731,-0.28105193,0.35798502,-0.11611989,-0.37849426,-0.45457888,0.8006688,-0.9142687,0.13838807,-0.2352799,-0.3244629,-0.46057844,0.743727,0.9746135,-0.04104933,0.1398631,0.16994654,-1.0200571,0.025573151,-0.6448303,0.0,1.0,0.0,0.0,0.0,0.0,0.0,-0.2715057,0.05457887,-0.25066876,-9.595531,2.4649143,9.277248,20.136452,-6.455746,0.81984997,0.27356744
-37.826565,66.87133,11.998091,39.539303,2.3543873,1.2242203,-0.543854,-0.34165886,-0.78718215,-0.43418425,0.6612379,-0.5471547,0.58007056,-0.040756535,0.30340394,-0.8826513,-2.1030989,-1.1649961,2.164019,1.9016612,-1.0273846,0.333449,-0.8184909,-2.0674968,-1.2208947,2.2148588,1.8473067,-1.0243695,-0.44161552,-1.4479284,-0.7689013,1.0683815,-0.423738,0.3680422,-0.10288502,-0.38763046,-0.45319605,0.7975656,-0.9133546,0.13824971,-0.3353239,-0.3349495,-0.45975733,0.7377496,0.97627246,-0.040396735,0.13778614,0.16209576,-1.0546116,0.10466647,-0.58726877,0.0,1.0,0.0,0.0,0.0,0.0,0.0,-0.2623695,0.053196043,-0.24756557,-11.811036,3.1707048,5.082786,18.38181,-14.452821,1.152736,1.2524903
-27.768684,55.10221,8.925878,28.048208,1.3495309,0.6730443,-0.26371375,-0.3027221,-0.79682404,-0.48561493,0.60062414,-0.52623415,0.52830386,0.029489074,0.3031768,-0.89817333,-2.1160583,-1.1608323,2.1622353,1.9001371,-1.0214206,0.32840312,-0.8328094,-2.0752482,-1.2095784,2.2095907,1.8510146,-1.0252507,-0.5247847,-1.4271008,-0.77731127,1.1537982,-0.5617179,0.37197796,-0.08343595,-0.39675903,-0.45181465,0.7934627,-0.91244143,0.13811149,-0.43526784,-0.34565353,-0.45835733,0.7320025,0.97781503,-0.03966414,0.13674149,0.1536428,-1.0714761,0.15613605,-0.5754298,1.0,0.0,0.0,0.0,0.0,0.0,0.0,-0.25324094,0.051814646,-0.24346268,-8.078045,1.8854618,-0.8538604,8.866763,-13.960606,0.47923326,1.8826947
-9.157859,47.135338,9.887524,15.732746,0.23812303,0.07545164,0.070208386,-0.26383018,-0.8053456,-0.5020274,0.57790095,-0.53369695,0.5256892,0.06934487,0.3020201,-0.91334397,-2.125451,-1.1517884,2.156221,1.9035835,-1.0183161,0.3230039,-0.847042,-2.0833163,-1.1980046,2.2031782,1.8547473,-1.0259182,-0.5447663,-1.4225179,-0.8165321,1.159187,-0.668502,0.37370375,-0.06158715,-0.40587616,-0.45043445,0.78836113,-0.9115292,0.13797341,-0.5351119,-0.35630417,-0.45669866,0.7261061,0.97921985,-0.038497522,0.13639052,0.14506525,-1.060017,0.17384577,-0.59923214,1.0,0.0,0.0,0.0,0.0,0.0,0.0,-0.24412382,0.05043444,-0.23836112,-1.9300342,0.29742718,-3.8280725,0.7510662,-10.867155,0.19468665,2.109123
-0.95696616,41.872097,9.370722,9.986214,-0.20371681,-0.27526718,0.22399236,-0.2603062,-0.80673856,-0.55103153,0.5920691,-0.5655189,0.51232845,0.19874004,0.29697326,-0.9277159,-2.1384194,-1.1387976,2.1466262,1.9059801,-1.0060443,0.31766045,-0.86129755,-2.0920215,-1.1865987,2.195892,1.8584781,-1.0262902,-0.5308901,-1.4269953,-0.88826334,1.1348372,-0.7489186,0.37280273,-0.029395608,-0.41498566,-0.44905567,0.78226185,-0.9106178,0.13783546,-0.6348561,-0.3667946,-0.45500016,0.7198273,0.9804843,-0.036685675,0.13648276,0.13666375,-1.0404589,0.17337328,-0.64216286,1.0,0.0,0.0,0.0,0.0,0.0,0.0,-0.23501432,0.049055666,-0.23226184,1.3836622,-0.5895853,-7.041335,-2.2633314,-8.222771,-0.12027621,3.135458
19.57364,42.175827,14.004645,1.9984112,-1.0701661,-0.7654023,0.45984426,-0.16690336,-0.8098929,-0.5846472,0.5678099,-0.55554426,0.48057872,0.1972762,0.3009701,-0.94228685,-2.1504862,-1.1298177,2.1403377,1.906536,-1.0065626,0.3129784,-0.87563413,-2.1015124,-1.1756257,2.188072,1.8621707,-1.0263665,-0.4478465,-1.4361826,-0.96854246,1.0849458,-0.79375714,0.36782402,-0.00067608646,-0.4240837,-0.44767833,0.7751659,-0.9097074,0.13769765,-0.7345005,-0.3768692,-0.45353103,0.7130437,0.98160064,-0.03417406,0.13677306,0.12878437,-0.99224675,0.14280349,-0.69501424,1.0,0.0,0.0,0.0,0.0,0.0,0.0,-0.22591627,0.04767832,-0.2251659,8.1429,-1.0337591,-7.7589393,-4.954052,-4.713011,-0.58494806,2.7579567
8.04817,41.70859,11.1414175,6.0928354,-0.3937906,-0.54928195,0.31571603,-0.23235184,-0.8102134,-0.61216575,0.57284653,-0.57126266,0.4297888,0.25245333,0.2897432,-0.9566555,-2.162729,-1.118341,2.1309457,1.9051496,-1.0011212,0.30880988,-0.89005846,-2.111774,-1.16508,2.1799428,1.8657737,-1.0261433,-0.40670836,-1.4449362,-1.044506,1.044918,-0.820229,0.3575956,0.029618824,-0.43317413,-0.4463024,0.7670742,-0.90879786,0.13755998,-0.83404535,-0.386631,-0.45224905,0.7057664,0.98260045,-0.030977607,0.13714527,0.121358305,-0.96603185,0.12765285,-0.74310106,1.0,0.0,0.0,0.0,0.0,0.0,0.0,-0.21682584,0.046302408,-0.21707422,4.0477633,-1.0068178,-7.4064255,-3.8838625,-2.8580189,-1.1311054,2.94207
-0.7908567,44.767544,10.395937,10.603522,0.21739376,-0.28493324,0.19828752,-0.245874,-0.8115307,-0.62527627,0.5845389,-0.5724407,0.41520953,0.3294709,0.28422248,-0.97121155,-2.1743016,-1.106626,2.1226988,1.9072946,-0.99319625,0.30481875,-0.9045562,-2.1226497,-1.1547612,2.1716535,1.869268,-1.0255902,-0.39658883,-1.4518899,-1.1013156,1.0278772,-0.8324052,0.34638867,0.06359577,-0.44225693,-0.44492793,0.75798786,-0.90788925,0.13742244,-0.93349063,-0.39624786,-0.45099378,0.698101,0.9835095,-0.02721137,0.13756797,0.114208795,-0.9551779,0.12882067,-0.7788862,0.0,1.0,0.0,0.0,0.0,0.0,0.0,-0.20774305,0.044927925,-0.20798784,1.0041118,-0.84798336,-5.507517,-1.5327215,-1.448071,-1.2360275,3.3269503
-6.348039,48.477703,10.434196,13.38613,0.53917086,-0.072643965,0.13016249,-0.2538773,-0.80679446,-0.64246047,0.572174,-0.5867253,0.387412,0.35162443,0.27943102,-0.9852357,-2.1868956,-1.0975438,2.112981,1.9080092,-0.99042773,0.300758,-0.9190797,-2.1339717,-1.1445607,2.1632612,1.8726401,-1.0247128,-0.4091637,-1.4529665,-1.1418369,1.0182489,-0.8419596,0.3336566,0.09554696,-0.45132828,-0.44355464,0.74790776,-0.9069816,0.13728505,-1.0328366,-0.40579987,-0.44964194,0.69014525,0.98433715,-0.02296697,0.13804357,0.107222505,-0.9504937,0.14139211,-0.80543804,0.0,1.0,0.0,0.0,0.0,0.0,0.0,-0.1986717,0.043554634,-0.19790775,-1.2370288,-0.27544498,-3.8735867,-0.7728338,-1.218307,-1.3899207,3.1224563
-15.054567,51.26385,9.424564,17.395058,1.0007821,0.18467584,0.02272866,-0.28676578,-0.8078741,-0.65813637,0.5928536,-0.6141019,0.39217484,0.39902508,0.27208143,-0.99986714,-2.1997852,-1.0852753,2.101851,1.9118576,-0.9848103,0.296373,-0.93360037,-2.1456103,-1.1342953,2.1547277,1.8758998,-1.023515,-0.44808182,-1.4523624,-1.170657,1.0299766,-0.8581738,0.32295486,0.12765087,-0.460392,-0.44218278,0.736835,-0.90607476,0.1371478,-1.132083,-0.41539764,-0.44805193,0.68199533,0.9850866,-0.01832551,0.1386298,0.100251116,-0.9573943,0.16890933,-0.8226212,0.0,1.0,0.0,0.0,0.0,0.0,0.0,-0.18960798,0.042182773,-0.18683499,-3.8292527,-0.12872219,-2.703786,1.4114141,-1.9045472,-1.184845,3.1428516
-21.417923,49.333927,7.437993,17.659504,1.3166232,0.33278382,-0.026847087,-0.33793926,-0.8166235,-0.65931845,0.5445565,-0.56991154,0.31441462,0.35608718,0.26257908,-1.0152627,-2.2115421,-1.0798397,2.0977366,1.9073412,-0.9879063,0.29137862,-0.94814867,-2.1574283,-1.1241063,2.1461866,1.879005,-1.0220616,-0.51618046,-1.4563544,-1.1849526,1.0160741,-0.8538916,0.30597338,0.15120184,-0.46944427,-0.44081235,0.7247705,-0.9051689,0.13701068,-1.2312304,-0.42513657,-0.4461131,0.6736389,0.9857794,-0.013302615,0.13919613,0.09320033,-0.9736276,0.20651901,-0.84431136,0.0,1.0,0.0,0.0,0.0,0.0,0.0,-0.1805557,0.040812343,-0.17477047,-6.7106304,-0.59108734,-1.2876034,-1.109767,0.13754368,-1.8350005,2.3157926
-21.64223,52.809296,8.474578,18.351538,1.3775221,0.45257637,-0.022616662,-0.35601133,-0.80935174,-0.66479427,0.5554759,-0.5687009,0.3432023,0.42812434,0.25577748,-1.0290838,-2.2239077,-1.0685587,2.0893166,1.9133252,-0.9792492,0.2857033,-0.96270365,-2.1693263,-1.1140221,2.137718,1.8819728,-1.0203526,-0.5843665,-1.4559574,-1.1912513,1.006611,-0.8454447,0.29337284,0.17744315,-0.47848892,-0.43944335,0.7117152,-0.9042639,0.13687369,-1.3302785,-0.43502045,-0.44376945,0.6651102,0.9864146,-0.007960104,0.13969743,0.08606678,-0.9874505,0.2482983,-0.8601326,0.0,1.0,0.0,0.0,0.0,0.0,0.0,-0.17151105,0.039443344,-0.16171521,-6.7335367,-0.1576662,-0.45449734,-0.6774187,0.52645206,-1.4055967,2.5815935
-12.584278,59.567333,13.442501,17.628765,1.4401627,0.46647424,0.012730986,-0.3527755,-0.8125691,-0.6010158,0.5666302,-0.44981736,0.30557954,0.41810256,0.25042576,-1.0439606,-2.2294278,-1.0573591,2.0927362,1.9125308,-0.9785423,0.27952683,-0.9772611,-2.1810212,-1.1040306,2.129909,1.8847755,-1.0183626,-0.6285664,-1.4563293,-1.162672,0.9964893,-0.7556954,0.27561387,0.20691717,-0.4867592,-0.43769073,0.7011792,-0.77989113,0.18458235,-0.9120415,-0.44498825,-0.44104767,0.65651166,0.98701745,-0.0025683716,0.13984998,0.07894218,-0.9957903,0.28541374,-0.8641337,0.0,1.0,0.0,0.0,0.0,0.0,0.0,-0.16324079,0.03769073,-0.1511792,-4.517293,-0.24213791,4.1333675,-0.026226044,5.6764007,-1.7720282,2.3469925
-22.512962,61.455708,11.719092,21.048075,1.9092045,0.7106899,-0.11358748,-0.4410866,-0.8083072,-0.5909637,0.56923515,-0.45400742,0.262666,0.3882691,0.23541817,-1.0580919,-2.2401175,-1.0471071,2.0845082,1.9110421,-0.97953576,0.27266797,-0.99180275,-2.192294,-1.094044,2.1227753,1.8874002,-1.0161688,-0.70479506,-1.454097,-1.1149938,1.0000254,-0.70046955,0.25750464,0.22372846,-0.4944954,-0.43570733,0.6920039,-0.7704316,0.20248315,-0.92012537,-0.45511627,-0.43783855,0.6479378,0.9875974,0.0027484316,0.13965125,0.07170313,-1.011518,0.33806977,-0.85911524,0.0,1.0,0.0,0.0,0.0,0.0,0.0,-0.15550458,0.035707325,-0.1420039,-7.565427,0.02193451,5.0114155,0.5974531,5.2003026,-1.9684017,1.6848713
-20.640589,65.28037,13.126826,21.159092,1.7799512,0.76611626,-0.08738722,-0.45915428,-0.7992613,-0.5708267,0.5706327,-0.4501628,0.24645568,0.4423939,0.22675255,-1.0717288,-2.2493765,-1.0369807,2.077759,1.9120457,-0.97192943,0.26509294,-1.0062785,-2.2030513,-1.0839942,2.1160734,1.889849,-1.0137942,-0.7749811,-1.4460841,-1.061794,1.007348,-0.6613108,0.24017462,0.24199979,-0.5020752,-0.43357372,0.6827838,-0.75374526,0.21689135,-0.92256063,-0.46533585,-0.4341123,0.63945425,0.9881357,0.007971939,0.13923196,0.06433184,-1.0198896,0.38979414,-0.8485955,0.0,1.0,0.0,0.0,0.0,0.0,0.0,-0.14792478,0.033573717,-0.13278377,-6.98334,0.60346127,5.5975437,0.94430447,3.5157442,-1.8870413,1.807195
-14.152034,70.25137,16.226345,20.652164,1.7181107,0.75000143,-0.07297107,-0.46527672,-0.79301596,-0.5191903,0.5850103,-0.36188704,0.22080605,0.42605895,0.21856527,-1.0855801,-2.2549703,-1.0254931,2.0798848,1.9119296,-0.9711883,0.25696382,-1.0206485,-2.2131453,-1.073807,2.1098921,1.8921244,-1.0112708,-0.82556367,-1.434603,-0.9908342,1.023068,-0.60536975,0.22283752,0.25573936,-0.50945663,-0.43131495,0.6736111,-0.7327932,0.22875345,-0.91531384,-0.47558975,-0.4299121,0.63114804,0.9886323,0.012967366,0.13857695,0.05687048,-1.019625,0.43586418,-0.8281817,0.0,1.0,0.0,0.0,0.0,0.0,0.0,-0.14054334,0.03131494,-0.12361109,-5.0705075,0.96166134,7.431257,1.7191172,5.1715136,-1.8824577,1.348722
-9.71939,68.96611,16.568344,17.579376,1.5638418,0.61511683,-0.013955481,-0.4961964,-0.78687173,-0.48997012,0.5305706,-0.25571117,0.04570121,0.4170355,0.20734417,-1.0993357,-2.2621422,-1.0207499,2.084321,1.8966945,-0.96956724,0.24837121,-1.0348907,-2.2225256,-1.0637342,2.1044939,1.8941139,-1.0086367,-0.8706106,-1.4213693,-0.9196974,1.0023528,-0.5195066,0.19050047,0.26587352,-0.5166321,-0.428962,0.66445565,-0.71231043,0.23736355,-0.9151837,-0.48579407,-0.42530966,0.6229981,0.9891111,0.0177221,0.13749638,0.04939414,-1.0146607,0.47441855,-0.81406796,0.0,1.0,0.0,0.0,0.0,0.0,0.0,-0.1333679,0.028961986,-0.11445564,-4.5353413,1.1584759,7.433176,-1.9619465,8.1686735,-3.3923805,0.99499226
0.29478478,67.25545,17.64657,12.98924,0.8253571,0.37693608,0.14357533,-0.4855203,-0.7808621,-0.47485125,0.500498,-0.3100507,-0.07374112,0.44783565,0.19981918,-1.1129769,-2.2700107,-1.0136844,2.0734887,1.8867397,-0.9638531,0.23952135,-1.0489974,-2.2312994,-1.0540487,2.0996864,1.8957124,-1.005896,-0.8900282,-1.4078017,-0.8622953,0.9575558,-0.46944484,0.14925528,0.2764246,-0.523571,-0.426574,0.65526515,-0.68777996,0.23917568,-0.92000324,-0.4958229,-0.42046833,0.6149123,0.98956287,0.022398524,0.13598646,0.042087045,-0.9923064,0.49344742,-0.8101092,0.0,1.0,0.0,0.0,0.0,0.0,0.0,-0.12642896,0.026573986,-0.10526514,-2.0143747,1.2193203,6.0660005,-4.432857,4.5996246,-4.259023,1.0006428
19.109825,70.5893,22.771837,8.164713,0.024230003,0.10268134,0.33267143,-0.4335637,-0.7731313,-0.40671486,0.48684034,-0.30721763,-0.16557589,0.4649114,0.19616498,-1.1263106,-2.271971,-1.0053647,2.0689647,1.8791548,-0.9594048,0.23083837,-1.0629649,-2.2393637,-1.0448514,2.0952342,1.8968663,-1.003054,-0.8615898,-1.3935292,-0.7869334,0.9068544,-0.43892542,0.103669636,0.286562,-0.5301933,-0.42423844,0.64609826,-0.653858,0.2315341,-0.9153171,-0.5054321,-0.4156463,0.6068896,0.9899736,0.027002405,0.13409646,0.035228983,-0.9445648,0.48430425,-0.8028854,0.0,1.0,0.0,0.0,0.0,0.0,0.0,-0.11980665,0.024238437,-0.096098244,2.685666,1.3230324,7.9407573,-5.15306,2.613926,-4.655589,0.9121239
24.501312,72.337654,24.460648,8.019791,-0.11051333,0.0029284954,0.3503861,-0.4199388,-0.7745823,-0.3537106,0.50268346,-0.31602305,-0.22510697,0.4867672,0.18884449,-1.1404232,-2.2747347,-0.9945831,2.0636318,1.8743557,-0.9543773,0.22257073,-1.0768313,-2.2465887,-1.0359861,2.0909386,1.8975623,-1.0001053,-0.8157272,-1.3848149,-0.6997899,0.87941617,-0.428139,0.057822563,0.29725885,-0.53645706,-0.42200732,0.63703954,-0.6172923,0.22018398,-0.9027301,-0.5145378,-0.41098666,0.59897816,0.99033946,0.031469278,0.13191201,0.028924797,-0.89309305,0.4652993,-0.7902505,0.0,1.0,0.0,0.0,0.0,0.0,0.0,-0.113542914,0.022007316,-0.08703953,4.417062,0.77512264,9.136856,-2.8408885,0.65099,-4.667555,0.9658754
24.888027,74.52131,25.34686,9.178109,0.061167777,0.03291732,0.31838474,-0.41243517,-0.77168536,-0.28047383,0.49734342,-0.28964746,-0.26741645,0.49921155,0.18132721,-1.1539999,-2.274636,-0.9862517,2.0619738,1.8708206,-0.9501841,0.21475394,-1.0906348,-2.2527876,-1.0272906,2.086751,1.8978121,-0.9970507,-0.77087796,-1.3791566,-0.5919844,0.8658177,-0.41699192,0.013838884,0.3078554,-0.54235077,-0.41989684,0.62816715,-0.58024603,0.20793177,-0.88243675,-0.5231514,-0.40651393,0.5912463,0.9906715,0.03567629,0.129463,0.023158865,-0.8444351,0.44622973,-0.7703093,0.0,1.0,0.0,0.0,0.0,0.0,0.0,-0.10764921,0.019896835,-0.07816714,4.327798,0.46958923,11.200786,-1.4435172,0.6901026,-4.4762096,0.9712577
