Afshin1997/kuka_rl_ros2/src/catch_and_throw/input_files/idealpd/polynomial_regressor/optimizer_files/env_217_data.csv
torque0,torque1,torque2,torque3,torque4,torque5,torque6,action0,action1,action2,action3,action4,action5,action6,set_target_0,set_target_1,set_target_2,set_target_3,set_target_4,set_target_5,set_target_6,joint_pos_0,joint_pos_1,joint_pos_2,joint_pos_3,joint_pos_4,joint_pos_5,joint_pos_6,joint_vel_0,joint_vel_1,joint_vel_2,joint_vel_3,joint_vel_4,joint_vel_5,joint_vel_6,tennisball_pos_0,tennisball_pos_1,tennisball_pos_2,tennisball_lin_vel_0,tennisball_lin_vel_1,tennisball_lin_vel_2,end_effector_pos_0,end_effector_pos_1,end_effector_pos_2,end_effector_rot_0,end_effector_rot_1,end_effector_rot_2,end_effector_rot_3,end_effector_lin_vel_0,end_effector_lin_vel_1,end_effector_lin_vel_2,obs_task_0,obs_task_1,obs_task_2,obs_task_3,obs_task_4,obs_task_5,obs_task_6,to_final_target_0,to_final_target_1,to_final_target_2,joint_acc_0,joint_acc_1,joint_acc_2,joint_acc_3,joint_acc_4,joint_acc_5,joint_acc_6
0.0,0.0,0.0,0.0,0.0,0.0,0.0,0.0,0.0,0.0,0.0,0.0,0.0,0.0,1.7802359,-1.0646509,-1.8151424,-1.1170107,1.9373155,1.1170107,-0.91629785,1.7802359,-1.0646509,-1.8151424,-1.1170107,1.9373155,1.1170107,-0.91629785,0.0,0.0,0.0,0.0,0.0,0.0,0.0,2.7362747,-0.6279297,0.18406495,-3.234944,0.12318457,5.2835636,0.5304165,-0.45449448,0.693097,0.5745483,0.17512383,0.15255436,0.7848268,0.0,0.0,0.0,1.0,0.0,0.0,0.0,0.0,0.0,0.0,-3.3862748,0.22792968,0.36593506,0.0,0.0,0.0,0.0,0.0,0.0,0.0
0.0,0.0,0.0,0.0,0.0,0.0,0.0,0.0,0.0,0.0,0.0,0.0,0.0,0.0,1.7802359,-1.0646509,-1.8151424,-1.1170107,1.9373155,1.1170107,-0.91629785,1.7802359,-1.0646509,-1.8151424,-1.1170107,1.9373155,1.1170107,-0.91629785,0.0,0.0,0.0,0.0,0.0,0.0,0.0,2.7362747,-0.6279297,0.18406495,-3.234944,0.12318457,5.2835636,0.5304165,-0.45449448,0.693097,0.5745483,0.17512383,0.15255436,0.7848268,0.0,0.0,0.0,1.0,0.0,0.0,0.0,0.0,0.0,0.0,-3.3862748,0.22792968,0.36593506,0.0,0.0,0.0,0.0,0.0,0.0,0.0
0.0,0.0,0.0,0.0,0.0,0.0,0.0,0.0,0.0,0.0,0.0,0.0,0.0,0.0,1.7802359,-1.0646509,-1.8151424,-1.1170107,1.9373155,1.1170107,-0.91629785,1.7802359,-1.0646509,-1.8151424,-1.1170107,1.9373155,1.1170107,-0.91629785,0.0,0.0,0.0,0.0,0.0,0.0,0.0,2.7362747,-0.6279297,0.18406495,-3.234944,0.12318457,5.2835636,0.5304165,-0.45449448,0.693097,0.5745483,0.17512383,0.15255436,0.7848268,0.0,0.0,0.0,1.0,0.0,0.0,0.0,0.0,0.0,0.0,-3.3862748,0.22792968,0.36593506,0.0,0.0,0.0,0.0,0.0,0.0,0.0
-176.0,67.59317,-7.1590424,110.0,11.132744,4.76608,-3.854951,-0.8261285,0.3542696,-0.5668559,0.74202245,0.30560735,0.6548758,-0.578383,1.697623,-1.0292239,-1.871828,-1.0428084,1.9678762,1.1824983,-0.9741362,1.7789179,-1.0624441,-1.8210113,-1.1122481,1.9429936,1.1224676,-0.91900057,-0.17560028,0.29360902,-0.78184754,0.6353144,0.75613743,0.7257392,-0.35970914,2.703949,-0.62670135,0.23612452,-3.23171,0.12306141,5.1800947,0.52824783,-0.45778275,0.6938799,0.5787357,0.17358397,0.15087004,0.782414,-0.28893492,-0.4382204,0.104208566,1.0,0.0,0.0,0.0,0.0,0.0,0.0,-3.353949,0.22670135,0.3138755,-17.489899,29.16772,-78.02122,63.62182,75.351006,71.98966,-35.78424
-176.0,-30.746054,-45.88088,110.0,12.137281,1.4469149,-2.9879432,-0.80739886,-0.16557607,-0.5494397,0.7058843,0.31346375,0.6494515,-0.5583757,1.698178,-1.0790017,-1.8759552,-1.0416596,1.97434,1.1874127,-0.97483814,1.7774149,-1.0597433,-1.8359497,-1.0981299,1.9535737,1.1360823,-0.92129415,-0.14335777,0.2531661,-1.710424,1.6717423,1.1474944,1.5464392,-0.18996684,2.6716576,-0.625473,0.28715017,-3.228479,0.12293837,5.07673,0.5234871,-0.4662552,0.69469917,0.587597,0.16994357,0.14695913,0.7773363,-0.539079,-0.98159975,0.07703562,1.0,0.0,0.0,0.0,0.0,0.0,0.0,-3.3216577,0.22547302,0.26284984,2.7426214,-6.7563415,-86.62758,103.97439,35.784233,74.02873,15.746323
-157.6451,119.610054,32.951626,94.2643,8.17076,7.9245644,-1.7692782,-0.76055807,0.3044421,0.078935064,0.66933656,0.3904917,0.6937715,-0.4825092,1.7013592,-1.029299,-1.8280561,-1.0311962,1.9926229,1.2054595,-0.96954507,1.772761,-1.056413,-1.8510444,-1.0795065,1.964953,1.1513888,-0.9232902,-0.572936,0.35629174,-1.4358981,1.9270061,1.1300813,1.5184473,-0.20451862,2.6393967,-0.6242447,0.33714294,-3.225251,0.12281545,4.973468,0.5158167,-0.47755432,0.69721466,0.5993033,0.16458704,0.14183605,0.7704733,-0.8508323,-1.1726449,0.31364644,1.0,0.0,0.0,0.0,0.0,0.0,0.0,-3.2893968,0.22424468,0.21285707,-42.990135,9.325748,29.413437,25.895287,-3.1893492,-4.8671007,-1.9722164
-102.992096,108.41129,39.9126,57.74083,5.081529,7.56311,-0.29092535,-0.7711292,0.09235107,0.17118545,0.6590829,0.41179037,0.6584787,-0.5436591,1.6956481,-1.0471779,-1.8339258,-1.0135982,2.006132,1.2172366,-0.9776561,1.7637964,-1.0531591,-1.8605659,-1.0608431,1.9751859,1.1655794,-0.92552084,-1.0052142,0.3128352,-0.78356194,1.8466274,0.9822504,1.3822005,-0.2311248,2.6071682,-0.62301636,0.38610387,-3.2220263,0.12269267,4.870309,0.5055418,-0.48962402,0.70167845,0.61190873,0.15785758,0.13562554,0.76305586,-1.098001,-1.2058918,0.49504256,1.0,0.0,0.0,0.0,0.0,0.0,0.0,-3.2571683,0.22301635,0.16389614,-43.5171,-5.006802,67.468575,-7.846689,-16.400087,-14.7416115,-3.2261162
-48.530556,120.986694,47.70267,31.721405,2.1989317,6.6808376,0.3690604,-0.7895252,0.19924037,0.15799245,0.6633066,0.49296418,0.67129314,-0.5408689,1.6848439,-1.0332351,-1.8447666,-0.99451244,2.0244823,1.2327087,-0.9796077,1.751248,-1.0499948,-1.8636062,-1.0441614,1.9840379,1.1782728,-0.928049,-1.3393035,0.3160536,-0.13806586,1.6084611,0.8485949,1.2300775,-0.2619805,2.5749722,-0.621788,0.43403396,-3.218805,0.12257,4.767253,0.49341774,-0.50115585,0.70773846,0.6242222,0.15004824,0.12856343,0.75584626,-1.2633066,-1.1225066,0.64498055,1.0,0.0,0.0,0.0,0.0,0.0,0.0,-3.2249722,0.22178802,0.11596605,-33.75876,-0.15138388,66.383316,-23.900223,-14.572835,-15.676141,-3.6950588
-11.35107,113.40405,42.023327,14.66988,0.08746821,4.5330205,0.37615508,-0.8031062,0.28124005,0.0606178,0.6625928,0.4956817,0.6597905,-0.5597638,1.6709374,-1.0218709,-1.8575444,-0.9779022,2.033606,1.2442518,-0.9840254,1.7364279,-1.0463842,-1.8621471,-1.0298792,1.9918313,1.1895739,-0.93087,-1.5303355,0.37482274,0.24410824,1.3676206,0.75410557,1.0968951,-0.2904067,2.5428085,-0.6205635,0.4809343,-3.215587,0.12244745,4.6643,0.48027706,-0.5115738,0.7148359,0.6358855,0.14163868,0.12134757,0.74890774,-1.3426853,-1.0016603,0.73052466,1.0,0.0,0.0,0.0,0.0,0.0,0.0,-3.1928086,0.2205635,0.06906572,-19.386673,5.564994,39.316986,-24.25108,-10.057044,-13.335419,-3.346151
9.425562,119.001526,38.48719,8.571619,-1.4089134,2.9704664,-0.029955197,-0.8133899,0.4494179,-0.09547487,0.65741163,0.47534537,0.6576951,-0.55231565,1.6550889,-1.0014424,-1.8716946,-0.96413803,2.0393658,1.2553434,-0.98610157,1.7205931,-1.0413717,-1.8593242,-1.01751,1.9989285,1.1997076,-0.93393606,-1.6022028,0.5425216,0.29707432,1.1928288,0.69425154,0.9862884,-0.31360096,2.5106773,-0.6193428,0.5268058,-3.2123718,0.122325025,4.56145,0.46679497,-0.5206909,0.72257763,0.6470919,0.13304438,0.11498613,0.7418554,-1.3603804,-0.8682615,0.78682226,1.0,0.0,0.0,0.0,0.0,0.0,0.0,-3.1606774,0.2193428,0.023194194,-7.4552774,16.52521,5.9184313,-17.654276,-6.1840773,-10.8964205,-2.7860343
17.525602,116.96762,34.363327,7.4735622,-1.8459457,1.9383515,-0.31333357,-0.8238482,0.54261285,-0.16190603,0.64876956,0.49081165,0.6420653,-0.55457556,1.6382083,-0.98711044,-1.8755149,-0.9526331,2.0480096,1.2639141,-0.9893936,1.7045866,-1.0343603,-1.857476,-1.0062987,2.0057065,1.2088705,-0.9372024,-1.6008829,0.7533683,0.1487881,1.0965457,0.6718427,0.8934935,-0.33229804,2.4785767,-0.6181221,0.5716497,-3.20916,0.12220273,4.458703,0.45336628,-0.5285759,0.7307572,0.6581359,0.124531694,0.11008482,0.73432297,-1.3457911,-0.74740356,0.8263633,1.0,0.0,0.0,0.0,0.0,0.0,0.0,-3.1285768,0.2181221,-0.021649659,-0.11513233,20.892536,-14.432263,-9.810495,-2.282238,-9.128248,-2.2720456
19.833408,109.50113,30.749653,7.7862277,-1.6839018,1.3687493,-0.39899087,-0.82096267,0.6026252,-0.20243399,0.6383351,0.518077,0.63877815,-0.5509098,1.6224904,-0.9740978,-1.8777194,-0.9424651,2.0575142,1.2727484,-0.99229336,1.6888739,-1.0253252,-1.857661,-0.9955995,2.012489,1.2172209,-0.94062513,-1.5619321,0.95299834,-0.07338064,1.0602709,0.6803165,0.8157333,-0.34676832,2.4465103,-0.6169014,0.61546683,-3.2059517,0.12208056,4.356059,0.44015598,-0.5354042,0.7392531,0.6691835,0.1162311,0.10671557,0.72615117,-1.3194573,-0.6462484,0.85580254,1.0,0.0,0.0,0.0,0.0,0.0,0.0,-3.0965104,0.21690139,-0.06546682,3.6793709,19.806076,-21.905087,-3.8520575,0.84865093,-7.7236533,-1.8073916
16.76689,97.09173,26.85532,8.919338,-1.1466628,1.1125668,-0.3564793,-0.8220158,0.63496476,-0.22924294,0.6301207,0.53307176,0.64244246,-0.5511321,1.6066723,-0.9618287,-1.8805853,-0.93258744,2.0657964,1.2814652,-0.9957383,1.6735922,-1.014665,-1.8599403,-0.9850004,2.0194662,1.2248923,-0.94416994,-1.5173064,1.1031127,-0.27832502,1.0590082,0.703761,0.75090784,-0.35813567,2.4144745,-0.6156807,0.6582583,-3.2027464,0.1219585,4.2535176,0.4271698,-0.5413933,0.7479641,0.6802747,0.108176656,0.10460116,0.7173442,-1.2972041,-0.5684056,0.8754019,1.0,0.0,0.0,0.0,0.0,0.0,0.0,-3.0644746,0.21568069,-0.10825831,4.279685,14.878941,-20.198923,-0.38778782,2.3436546,-6.5334797,-1.4671862
13.294823,86.15608,24.312674,9.72783,-0.6118828,1.1107874,-0.23521273,-0.821309,0.65769064,-0.23775524,0.6188193,0.5356434,0.66004795,-0.55128354,1.5914613,-0.94889593,-1.8837159,-0.9231185,2.0730305,1.290897,-0.9992983,1.6586844,-1.0029291,-1.8637722,-0.9743326,2.0266836,1.2320105,-0.94781107,-1.4824045,1.1967345,-0.41691285,1.0684206,0.72789073,0.698589,-0.36724856,2.382471,-0.61446,0.70002514,-3.1995442,0.121836565,4.1510787,0.4143257,-0.5467262,0.7568205,0.6913532,0.10031871,0.10333188,0.70801795,-1.2844799,-0.5059196,0.8890512,1.0,0.0,0.0,0.0,0.0,0.0,0.0,-3.0324712,0.21445999,-0.15002513,3.3191442,9.243917,-13.514585,0.6612539,2.3866773,-5.3465247,-1.2361705
12.000093,79.65122,23.66049,9.859488,-0.20397168,1.2535255,-0.069455676,-0.81730133,0.674781,-0.22249256,0.6044442,0.5528913,0.66152626,-0.5581627,1.5769542,-0.935451,-1.8860214,-0.91388816,2.0819726,1.298163,-1.0036273,1.6440302,-0.99060285,-1.8683631,-0.9636123,2.0341527,1.2386786,-0.9515361,-1.4601817,1.2442364,-0.47171625,1.0723114,0.7530756,0.6556413,-0.3754372,2.3505,-0.6132393,0.7407683,-3.1963453,0.12171475,4.0487423,0.40154362,-0.5514679,0.7658057,0.7022977,0.09255778,0.10249067,0.69836,-1.280098,-0.44892856,0.9020928,1.0,0.0,0.0,0.0,0.0,0.0,0.0,-3.0005002,0.21323928,-0.1907683,2.0417929,4.6400547,-5.043471,0.105667114,2.450192,-4.438269,-1.1551023
11.668375,76.77622,23.770542,10.034906,0.02050507,1.4117002,0.046607494,-0.8116344,0.6892466,-0.20672089,0.600327,0.549208,0.67010593,-0.55741376,1.5628668,-0.9216782,-1.8890352,-0.9035796,2.0890737,1.3056892,-1.0072775,1.6295267,-0.9780153,-1.8730171,-0.9528892,2.0418127,1.2449805,-0.95533365,-1.4476215,1.2631578,-0.46149835,1.071311,0.7697337,0.62121516,-0.38233924,2.3185596,-0.6120262,0.7804889,-3.1931496,0.12159306,3.9465086,0.38876152,-0.5556526,0.7749343,0.71300244,0.08477811,0.101785846,0.6885345,-1.2809501,-0.39183462,0.91692895,1.0,0.0,0.0,0.0,0.0,0.0,0.0,-2.9685597,0.21202621,-0.2304889,1.0636806,1.7852306,1.540196,-0.37477016,1.5641212,-3.59447,-1.040405
10.411494,74.46811,23.172007,10.296035,0.16122049,1.4556471,0.10421435,-0.8137646,0.70081985,-0.20252673,0.5898719,0.5647153,0.6708975,-0.5590453,1.5481503,-0.9079333,-1.8932698,-0.893902,2.0982842,1.3120703,-1.0112382,1.6150728,-0.96533906,-1.8773468,-0.9422395,2.049629,1.2509867,-0.9591922,-1.4453356,1.2686983,-0.42171136,1.0620366,0.7853569,0.59322685,-0.38821378,2.2866535,-0.61081314,0.81918794,-3.1899571,0.121471494,3.844377,0.3759451,-0.55927277,0.784197,0.7234062,0.07691839,0.10106036,0.6786411,-1.2850634,-0.33582807,0.92979103,1.0,0.0,0.0,0.0,0.0,0.0,0.0,-2.9366536,0.21081313,-0.26918793,0.029873848,0.4518032,4.5348525,-1.1924744,1.4417768,-2.9450774,-0.9352803
11.003935,75.865166,23.693281,10.294492,0.14697653,1.5407748,0.15163213,-0.8155064,0.71534735,-0.1737041,0.5737695,0.5692252,0.6756523,-0.5520024,1.5335222,-0.8938043,-1.8947172,-0.88486254,2.1065514,1.3185519,-1.0143925,1.6005923,-0.95260847,-1.8811252,-0.93175864,2.057575,1.2567564,-0.9630975,-1.4495336,1.2741743,-0.36129743,1.0426521,0.7973055,0.5709292,-0.39244515,2.254778,-0.60960007,0.8568664,-3.1867678,0.12135005,3.7423475,0.36308193,-0.5622902,0.79360396,0.7334644,0.06892645,0.100253075,0.6687514,-1.2889748,-0.27484447,0.9445209,1.0,0.0,0.0,0.0,0.0,0.0,0.0,-2.904778,0.20960006,-0.3068664,-0.63061714,0.44538975,6.6387534,-2.1981478,1.0609746,-2.367127,-0.777179
11.086447,74.16031,22.559889,10.059145,0.07008624,1.4095309,0.13380669,-0.8114286,0.721695,-0.17816214,0.56848264,0.56661296,0.67403376,-0.54958963,1.5194494,-0.880439,-1.8989414,-0.87491035,2.1142364,1.3241599,-1.0180565,1.5860754,-0.9398159,-1.8844078,-0.9214761,2.065601,1.2623316,-0.9670362,-1.4528348,1.2806135,-0.31535268,1.0225697,0.80402946,0.5529278,-0.39547652,2.2229328,-0.608387,0.8935254,-3.1835818,0.121228725,3.64042,0.3502016,-0.5647125,0.8031212,0.7431765,0.0608069,0.099405505,0.65887004,-1.2892333,-0.21482232,0.95390123,1.0,0.0,0.0,0.0,0.0,0.0,0.0,-2.872933,0.20838699,-0.3435254,-0.5325556,0.55155754,5.1588297,-2.2644281,0.55885315,-1.9054294,-0.6448269
12.230109,73.813324,22.219198,9.630964,0.0068843365,1.3402514,0.15017328,-0.81059605,0.726373,-0.15133329,0.5532101,0.57828146,0.68399036,-0.547763,1.5050159,-0.86717856,-1.8995411,-0.86615515,2.1234293,1.3307307,-1.0218124,1.5715395,-0.9269508,-1.8872497,-0.91142154,2.0737035,1.2677618,-0.9709987,-1.4546586,1.2881514,-0.2720356,0.9988759,0.8118628,0.5394724,-0.39762878,2.191122,-0.6071739,0.9291659,-3.180399,0.12110752,3.5385945,0.33734322,-0.5665245,0.81271875,0.75253373,0.052561667,0.09853998,0.6490148,-1.2858262,-0.15354797,0.9610203,1.0,0.0,0.0,0.0,0.0,0.0,0.0,-2.8411222,0.20717391,-0.3791659,-0.38256645,0.6690264,4.8860846,-2.6229978,0.6774068,-1.4267206,-0.5508423
14.933922,76.48221,23.33376,8.991036,-0.06835437,1.389206,0.21906003,-0.81345123,0.73533374,-0.09181302,0.5243365,0.59560645,0.6743508,-0.5472769,1.4901944,-0.85341746,-1.896431,-0.85898787,2.133264,1.3351969,-1.0257264,1.5569788,-0.91398466,-1.8895099,-0.9016874,2.0819166,1.2730719,-0.97497934,-1.4570985,1.2991364,-0.20851336,0.9641321,0.82423097,0.5279306,-0.399353,2.1593418,-0.60596085,0.96378887,-3.1772192,0.12098643,3.4368708,0.32454395,-0.5676689,0.82241184,0.7614873,0.04416317,0.09761929,0.63926303,-1.2782539,-0.08563668,0.9711882,1.0,0.0,0.0,0.0,0.0,0.0,0.0,-2.809342,0.20596084,-0.41378886,-0.45416355,1.0152817,6.9429665,-3.7227988,1.115942,-1.2197256,-0.514698
15.007187,73.91496,21.951927,8.504416,-0.13676894,1.2072763,0.20806518,-0.81261253,0.7396136,-0.094743885,0.50800073,0.6008268,0.6780304,-0.5346067,1.4757175,-0.8400233,-1.8989843,-0.8508873,2.1419992,1.3408749,-1.02844,1.5424029,-0.9009069,-1.8912666,-0.89231753,2.0902555,1.2782866,-0.97896475,-1.4582247,1.3104043,-0.16275673,0.92719084,0.8368334,0.5191852,-0.39931372,2.127592,-0.6047516,0.99739534,-3.1740427,0.120865464,3.335249,0.3118477,-0.568161,0.83215904,0.7700309,0.03563912,0.096667744,0.6296329,-1.2662952,-0.020981722,0.9745503,1.0,0.0,0.0,0.0,0.0,0.0,0.0,-2.7775922,0.20475158,-0.44739532,-0.31061172,1.0578871,5.11561,-3.9392233,1.1680722,-0.8998394,-0.31912327
17.827461,73.429016,21.879963,6.807226,-0.28419393,1.101711,0.2849971,-0.8146061,0.74588937,-0.05045055,0.45832402,0.62491536,0.6803297,-0.52300954,1.4609423,-0.82631797,-1.8963116,-0.84648514,2.1527472,1.3463196,-1.0312657,1.5278136,-0.88771284,-1.8925102,-0.8834655,2.09877,1.2834288,-0.9829387,-1.4597548,1.3221853,-0.10968186,0.8703925,0.85602194,0.512872,-0.39784676,2.0958767,-0.60354614,1.0299863,-3.1708694,0.12074462,3.2337286,0.29932308,-0.5679779,0.84190977,0.7781182,0.027029,0.095679805,0.6201989,-1.2466947,0.046629388,0.9734684,1.0,0.0,0.0,0.0,0.0,0.0,0.0,-2.7458768,0.20354614,-0.47998625,-0.35362244,1.121974,5.847296,-5.927539,1.8317819,-0.6043792,-0.17197728
18.263044,69.67858,20.137959,5.7288685,-0.43513763,0.8492013,0.26960686,-0.8124155,0.75045717,-0.05659099,0.42806262,0.61680436,0.67914814,-0.51653963,1.4465721,-0.81266713,-1.8981693,-0.84065926,2.1604505,1.3513436,-1.0345926,1.5132242,-0.8744081,-1.8933856,-0.8752277,2.1074293,1.2885214,-0.9868917,-1.4592285,1.3331109,-0.07874581,0.8074214,0.8688121,0.50837386,-0.39546412,2.0641918,-0.6023407,1.0615629,-3.167699,0.12062391,3.1323097,0.2870407,-0.5671501,0.8515835,0.7857489,0.01840022,0.09472253,0.61097276,-1.2199723,0.10961251,0.96305645,1.0,0.0,0.0,0.0,0.0,0.0,0.0,-2.714192,0.20234069,-0.5115629,-0.13272762,1.0559082,3.5660625,-6.546128,1.229608,-0.36284924,-0.056236982
20.982794,69.42832,20.267727,4.3444424,-0.5565345,0.75071186,0.33601367,-0.8113079,0.7555221,-0.008225642,0.37656116,0.63511485,0.6747895,-0.5132356,1.4320935,-0.7988559,-1.8942082,-0.83757156,2.1709406,1.3560003,-1.0382153,1.4986483,-0.86099946,-1.8938606,-0.8677242,2.1162336,1.2935759,-0.9908199,-1.4574976,1.3432591,-0.035655327,0.73044527,0.8841022,0.50490344,-0.39287326,2.0325375,-0.60113525,1.092126,-3.1645322,0.120503314,3.0309923,0.2750759,-0.5656853,0.8611382,0.7928912,0.009786652,0.09380122,0.6020207,-1.1860178,0.17417069,0.95032126,1.0,0.0,0.0,0.0,0.0,0.0,0.0,-2.6825376,0.20113525,-0.542126,-0.007820129,0.99101067,4.7699904,-7.9410553,1.4888763,-0.21518469,-0.027638674
25.47415,68.04596,20.107811,1.2554159,-0.8723162,0.5569095,0.43988085,-0.81035584,0.7609413,0.027909243,0.29019973,0.6396062,0.67826766,-0.50622183,1.4176127,-0.7849053,-1.8910697,-0.8387042,2.1801941,1.3614026,-1.041442,1.4840971,-0.8474926,-1.8938339,-0.8612344,2.1251752,1.2986094,-0.99471945,-1.4551153,1.3531317,0.016901588,0.6209898,0.8972846,0.5033756,-0.38977993,2.0009174,-0.5999298,1.1216768,-3.1613684,0.12038284,2.929776,0.2635517,-0.5635414,0.87050635,0.7994702,0.0012482059,0.09292618,0.5934734,-1.1379962,0.24162823,0.92943865,1.0,0.0,0.0,0.0,0.0,0.0,0.0,-2.6509175,0.1999298,-0.5716768,0.06291866,0.9843588,5.693505,-11.189281,1.2940407,0.069105625,0.036937
31.858921,65.73667,20.002174,-3.2797165,-1.260328,0.28957146,0.60086215,-0.80773336,0.76165426,0.080408126,0.17341809,0.6628187,0.6723081,-0.5140567,1.4033238,-0.77132714,-1.8857931,-0.84389263,2.191457,1.3658402,-1.0461252,1.4695765,-0.8339094,-1.8931434,-0.85619426,2.1342847,1.3036333,-0.9985942,-1.4514172,1.3600824,0.08787231,0.4643071,0.9158824,0.5029766,-0.38765705,1.9693279,-0.59872437,1.1502162,-3.1582077,0.12026248,2.8286612,0.25264168,-0.56069565,0.87958235,0.8053746,-0.007110966,0.09208761,0.5855261,-1.0712605,0.31146055,0.8971755,1.0,0.0,0.0,0.0,0.0,0.0,0.0,-2.619328,0.19872436,-0.6002162,0.20875931,0.71926117,7.497394,-15.906626,1.8550754,0.30081272,-0.037771463
37.215195,62.416084,19.232502,-7.615356,-1.6786135,-0.05937311,0.72094804,-0.80299777,0.7664152,0.11047578,0.047081135,0.6718825,0.66446793,-0.50589377,1.3892767,-0.7572679,-1.8820958,-0.85148615,2.201473,1.3700801,-1.0491836,1.4551111,-0.82025945,-1.8917377,-0.8530452,2.143585,1.3086535,-1.0024445,-1.4453098,1.3668671,0.159185,0.26433864,0.9346717,0.5032673,-0.38476822,1.9377689,-0.59752274,1.1777452,-3.15505,0.120142244,2.7276475,0.2425375,-0.5571556,0.88823956,0.8105145,-0.015149045,0.09131554,0.5783582,-0.98519456,0.37970865,0.8516886,1.0,0.0,0.0,0.0,0.0,0.0,0.0,-2.587769,0.19752273,-0.6277452,0.4811287,0.7322788,7.442902,-20.216763,1.9163013,0.48718452,0.082308054
30.976631,62.144337,18.244312,-3.5349073,-1.3142747,-0.07172948,0.58112395,-0.81070685,0.7781638,0.12418367,0.02502932,0.6748032,0.66431266,-0.48204637,1.3740405,-0.7424431,-1.8793193,-0.8505423,2.2110653,1.3750848,-1.0506492,1.4406649,-0.80650556,-1.889735,-0.8516176,2.1530492,1.3136755,-1.0062497,-1.4448005,1.3784331,0.21461578,0.101745814,0.9506276,0.5030852,-0.37945232,1.9062424,-0.5963249,1.2042648,-3.1518955,0.120022126,2.6267345,0.23319435,-0.55301285,0.89650214,0.81498486,-0.022871736,0.090647176,0.5718911,-0.9118629,0.43664953,0.81395394,1.0,0.0,0.0,0.0,0.0,0.0,0.0,-2.5562425,0.19632491,-0.65426475,-0.050210953,1.2212992,5.733532,-16.43803,1.7038703,0.3798604,0.37425756
28.940786,59.60782,17.229738,-2.434023,-1.1861093,-0.19849516,0.5337019,-0.806034,0.7758526,0.15731175,-0.054488823,0.6755873,0.663475,-0.46505767,1.3600615,-0.7289203,-1.8740038,-0.85706645,2.220608,1.380023,-1.0527555,1.426232,-0.792663,-1.8872154,-0.85169005,2.1626356,1.3186938,-1.00999,-1.4430051,1.3863747,0.26475313,-0.044117913,0.96204466,0.50283766,-0.37252808,1.8747473,-0.5951271,1.229776,-3.1487443,0.11990213,2.5259225,0.22455883,-0.54833984,0.90439296,0.8188738,-0.030293342,0.09009423,0.56604844,-0.84136176,0.48541328,0.7765383,1.0,0.0,0.0,0.0,0.0,0.0,0.0,-2.5247474,0.1951271,-0.679776,0.10828972,0.87456703,5.1081686,-14.742231,1.2995005,0.36900043,0.5687177
23.788612,57.250378,15.913278,0.7864375,-0.8630268,-0.25085634,0.4107999,-0.80548656,0.777501,0.16692002,-0.09041889,0.6739336,0.663272,-0.4396626,1.3456833,-0.7149129,-1.8705233,-0.86073196,2.2300289,1.385021,-1.0539563,1.4118162,-0.77876127,-1.8843105,-0.85293746,2.172302,1.3237082,-1.0136445,-1.4413631,1.3918082,0.29919022,-0.15208235,0.9686338,0.5020848,-0.36353442,1.8432837,-0.5939293,1.2542799,-3.1455963,0.11978225,2.4252114,0.21653938,-0.5432625,0.9119455,0.8222907,-0.037447065,0.08966419,0.56071013,-0.7822421,0.5233837,0.7437692,1.0,0.0,0.0,0.0,0.0,0.0,0.0,-2.4932837,0.19392928,-0.70427984,0.10988712,0.63381195,3.457433,-10.942372,0.85999966,0.27183294,0.79959035
21.60543,58.184677,16.170681,2.9153042,-0.6628033,-0.19740659,0.3717904,-0.8078279,0.7832973,0.21185592,-0.14195943,0.67703116,0.6592338,-0.41903093,1.3310335,-0.7004315,-1.8631248,-0.8671334,2.240005,1.3896315,-1.0555476,1.3974024,-0.7648004,-1.8809898,-0.8551109,2.182018,1.3287112,-1.0171998,-1.441578,1.3978376,0.34313148,-0.23959519,0.9734298,0.5007122,-0.3533048,1.8118515,-0.5927315,1.2777773,-3.1424513,0.119662486,2.324601,0.2090559,-0.5378189,0.91922516,0.8253017,-0.044398516,0.08933493,0.5558103,-0.7300088,0.5594068,0.7181294,1.0,0.0,0.0,0.0,0.0,0.0,0.0,-2.4618516,0.19273147,-0.7277773,-0.06861687,0.7012129,4.3590965,-8.881849,0.7195711,0.18225908,0.9373367
20.54615,57.561943,16.137638,4.0102587,-0.53040344,-0.20092608,0.36505434,-0.8054115,0.780867,0.24933945,-0.18449354,0.67692095,0.66809523,-0.37427297,1.3168613,-0.68671376,-1.8560559,-0.87356025,2.24971,1.3955207,-1.0546271,1.3829943,-0.75080526,-1.8771541,-0.8580501,2.1917684,1.3337065,-1.0206292,-1.4407588,1.4003567,0.39655617,-0.31245485,0.97624856,0.500194,-0.33975592,1.7804508,-0.59153366,1.3002694,-3.1393094,0.119542845,2.224091,0.20206642,-0.5320091,0.92627627,0.8279278,-0.05120393,0.08906266,0.55134505,-0.6815333,0.593009,0.6958151,1.0,0.0,0.0,0.0,0.0,0.0,0.0,-2.430451,0.19153365,-0.75026935,0.04708767,0.35803318,5.2618685,-7.4055614,0.5531311,0.25869608,1.2792468
22.055317,56.169487,16.059534,2.749833,-0.63229704,-0.30880967,0.4225371,-0.80621886,0.77978885,0.29099703,-0.25768867,0.67760944,0.6643533,-0.34358022,1.3023725,-0.67282635,-1.8480544,-0.883819,2.2595294,1.4001418,-1.0549872,1.36859,-0.7368053,-1.8727005,-0.8618171,2.2015378,1.3386961,-1.0239098,-1.4403372,1.4002073,0.4611128,-0.39846823,0.97810215,0.49973118,-0.32440338,1.7490807,-0.59033585,1.3217572,-3.1361706,0.11942332,2.1236818,0.19559765,-0.5258751,0.93307966,0.8301457,-0.057847623,0.08883084,0.54737616,-0.62778074,0.6258734,0.67009753,1.0,0.0,0.0,0.0,0.0,0.0,0.0,-2.3990808,0.19033584,-0.7717572,0.024533272,0.098633766,6.3404083,-8.703113,0.47171116,0.29079914,1.4772177
16.013803,56.976536,16.012808,8.063909,-0.12164098,-0.12023246,0.29016843,-0.80601734,0.77784324,0.32382482,-0.20504715,0.66483694,0.6706536,-0.27927586,1.2879883,-0.659021,-1.840318,-0.88232183,2.2680216,1.4057615,-1.0518374,1.3541895,-0.7228254,-1.8675869,-0.8659961,2.2112806,1.3436838,-1.0270016,-1.4400648,1.397696,0.5276947,-0.42484775,0.97437793,0.49929795,-0.30449694,1.7177429,-0.58914566,1.3422416,-3.1330352,0.11930392,2.0233727,0.18951416,-0.5194473,0.93973583,0.83202803,-0.0644566,0.08859645,0.54380625,-0.5939535,0.6546163,0.6589401,1.0,0.0,0.0,0.0,0.0,0.0,0.0,-2.367743,0.18914565,-0.79224163,0.0019073486,-0.13198853,6.496763,-2.7472794,-0.036358833,0.2225399,1.9272745
5.380936,60.709667,16.396755,17.873499,0.7644606,0.31384397,0.031085309,-0.8082406,0.78256464,0.3487289,-0.08278591,0.6531955,0.6712151,-0.20707034,1.2733655,-0.6445689,-1.832714,-0.87427473,2.2766001,1.4108053,-1.0477086,1.3397795,-0.70884836,-1.8618534,-0.8696506,2.2209508,1.348662,-1.0298588,-1.4416976,1.3979987,0.587958,-0.34610736,0.96606296,0.49763995,-0.27973083,1.6864357,-0.5879555,1.3617237,-3.1299028,0.119184636,1.9231637,0.18349648,-0.51272964,0.9464908,0.8337488,-0.07132224,0.08828922,0.5403527,-0.5965527,0.681142,0.67562526,1.0,0.0,0.0,0.0,0.0,0.0,0.0,-2.3364358,0.18795547,-0.81172365,-0.22695065,0.1522541,5.840063,7.737887,-0.4351139,-0.036013126,2.389598
-3.2165947,58.80858,14.98605,24.159206,1.3846335,0.48531458,-0.19029933,-0.81402475,0.7774748,0.3466229,0.0028814292,0.6535032,0.675916,-0.20654598,1.2583771,-0.6311009,-1.8271911,-0.8693625,2.2863011,1.4162536,-1.0505134,1.3253218,-0.6948875,-1.8556983,-0.87200904,2.2305448,1.3536211,-1.0324891,-1.4474006,1.3957555,0.62402785,-0.19969814,0.95860165,0.49542794,-0.25774768,1.65516,-0.5867653,1.3802043,-3.1267736,0.11906547,1.8230548,0.17725372,-0.5058098,0.953504,0.8354839,-0.07864142,0.0878684,0.5367134,-0.6249626,0.70086426,0.7042219,1.0,0.0,0.0,0.0,0.0,0.0,0.0,-2.30516,0.18676528,-0.8302043,-0.6660223,-0.109028816,3.4433365,14.475807,-0.3515482,-0.19554496,2.092564
-9.161227,57.27097,13.852155,28.646494,1.7802608,0.5987307,-0.36508682,-0.8161254,0.7769275,0.33949512,0.11322572,0.64289373,0.66740966,-0.20377238,1.2437092,-0.6171948,-1.8217489,-0.8606865,2.2948341,1.4203621,-1.0528663,1.3107992,-0.6809524,-1.8493793,-0.872525,2.240051,1.3585497,-1.0349209,-1.4542499,1.3931621,0.6341671,-0.0027780342,0.94880694,0.49158219,-0.23885348,1.6239157,-0.5855751,1.3976848,-3.1236475,0.118946426,1.7230461,0.17059326,-0.49871445,0.96086353,0.83736783,-0.08653147,0.087336645,0.53263456,-0.6710993,0.71720004,0.7408228,1.0,0.0,0.0,0.0,0.0,0.0,0.0,-2.2739158,0.1855751,-0.8476848,-0.797081,-0.15506744,0.87240934,19.517962,-0.59713125,-0.44913888,1.772806
-8.43107,54.169262,12.688626,27.098263,1.5977048,0.4418058,-0.3847519,-0.8175059,0.77830946,0.32167307,0.16177145,0.64647925,0.6670152,-0.24863535,1.2290486,-0.60312146,-1.817212,-0.85634786,2.304699,1.4252512,-1.0597844,1.2962137,-0.66703355,-1.8431499,-0.87118316,2.249481,1.3634402,-1.0372212,-1.4602323,1.3918345,0.6188375,0.17924677,0.9420743,0.48787457,-0.22752507,1.5927019,-0.5843849,1.4141659,-3.1205244,0.1188275,1.6231374,0.16351318,-0.49147797,0.96852463,0.83943784,-0.094948284,0.086752705,0.5280179,-0.7115775,0.73241985,0.76869535,1.0,0.0,0.0,0.0,0.0,0.0,0.0,-2.242702,0.18438491,-0.86416584,-0.70393085,-0.04515648,-1.6324043,18.041918,-0.3425002,-0.44247508,1.020953
-3.0251398,50.02128,11.58399,21.120625,0.98951095,0.08695628,-0.2705416,-0.8208535,0.77815324,0.30360943,0.16212806,0.64159095,0.663491,-0.2800606,1.2141284,-0.58921826,-1.812789,-0.85497034,2.31364,1.4297893,-1.0652273,1.281571,-0.65312135,-1.837199,-0.8685024,2.258846,1.3682963,-1.0394528,-1.4659361,1.3911588,0.58708936,0.2971245,0.9351504,0.4849833,-0.22196214,1.5615206,-0.58319473,1.4296486,-3.1174045,0.11870869,1.5233285,0.15619946,-0.4840889,0.9763131,0.8416322,-0.10368717,0.08622213,0.52294356,-0.7288336,0.74702054,0.77621204,1.0,0.0,0.0,0.0,0.0,0.0,0.0,-2.2115207,0.18319473,-0.8796486,-0.66559315,0.004863739,-3.2135367,11.639842,-0.4317999,-0.28514862,0.4545778
3.2262301,46.765884,10.814106,14.483009,0.30450058,-0.28776893,-0.117627375,-0.82640684,0.781494,0.2816284,0.14766422,0.63294446,0.66273487,-0.2773727,1.1989304,-0.574972,-1.8090361,-0.853736,2.3221405,1.4345697,-1.06719,1.2668616,-0.63919675,-1.831641,-0.8651979,2.2681272,1.3731333,-1.0416386,-1.4728825,1.3930453,0.5453686,0.34098488,0.92627287,0.48357996,-0.21783729,1.5303698,-0.58200836,1.444134,-3.1142876,0.118590005,1.4236195,0.14891529,-0.47657394,0.9840234,0.8438502,-0.11249557,0.085876904,0.51757777,-0.7193086,0.7609248,0.763205,1.0,0.0,0.0,0.0,0.0,0.0,0.0,-2.1803699,0.18200836,-0.894134,-0.7870674,0.2518177,-4.148793,4.2431474,-0.6911397,-0.03246665,0.32087862
9.937814,41.94124,9.755953,7.1294785,-0.34679127,-0.7390952,0.067095764,-0.82747674,0.77603006,0.2603793,0.09777379,0.6361962,0.66386616,-0.26847807,1.1841139,-0.5615938,-1.805603,-0.85542053,2.3317468,1.4395199,-1.0684865,1.2520949,-0.6252769,-1.8265254,-0.8620403,2.2773397,1.3779665,-1.0437844,-1.478334,1.3917582,0.50051546,0.30680096,0.9199398,0.48402366,-0.21365632,1.4992495,-0.5808258,1.457623,-3.111174,0.118471436,1.3240103,0.14193535,-0.468956,0.9914382,0.8459803,-0.12109734,0.08580765,0.51214236,-0.68182975,0.7692867,0.72821385,1.0,0.0,0.0,0.0,0.0,0.0,0.0,-2.1492496,0.1808258,-0.907623,-0.6213188,-0.06458759,-4.422736,-3.5609543,-0.49489737,0.27775168,0.33818483
18.254978,35.987026,8.462729,-2.2281265,-1.1489419,-1.3294693,0.30512813,-0.8292373,0.76983356,0.23802735,-0.028221788,0.6396533,0.6628313,-0.2597386,1.1691711,-0.5482936,-1.8027227,-0.86486244,2.341305,1.4442496,-1.0697583,1.2372843,-0.61140287,-1.8218601,-0.85997844,2.286514,1.382815,-1.0458844,-1.4821768,1.3862525,0.45564872,0.17216419,0.91668165,0.48623613,-0.20899469,1.4681616,-0.57964325,1.4701167,-3.1080635,0.11835299,1.2245005,0.13559246,-0.46131897,0.99829805,0.847896,-0.12914735,0.08609848,0.50693226,-0.6089874,0.7679491,0.66620487,1.0,0.0,0.0,0.0,0.0,0.0,0.0,-2.1181617,0.17964324,-0.9201167,-0.42321682,-0.47736168,-4.404533,-13.594002,-0.25393963,0.6145358,0.41261613
24.116451,37.058628,9.403261,-6.7512083,-1.5958846,-1.5680931,0.48687804,-0.82562715,0.7754921,0.24504042,-0.11567634,0.6373547,0.667962,-0.17814475,1.1547216,-0.53385365,-1.797356,-0.8715461,2.3502495,1.4496112,-1.0636989,1.2224699,-0.5975555,-1.8174942,-0.85963225,2.2956617,1.3876902,-1.0478795,-1.4812708,1.3845527,0.43036932,-0.011518301,0.91426677,0.4896009,-0.19653344,1.4371042,-0.5784607,1.4816161,-3.1049562,0.11823466,1.1250902,0.13012886,-0.45368958,1.0044843,0.8494827,-0.13646224,0.08678717,0.5022203,-0.5158045,0.7662626,0.5972384,1.0,0.0,0.0,0.0,0.0,0.0,0.0,-2.0871043,0.17846069,-0.9316161,0.100302696,-0.08621216,-2.474928,-18.451925,-0.18603802,0.78668,1.2177497
21.57045,40.04962,10.694266,-2.5049229,-1.1327218,-1.348494,0.49296793,-0.8220386,0.7699634,0.26783594,-0.10057514,0.6428513,0.6756427,0.013839658,1.1402661,-0.5205592,-1.7907106,-0.86968976,2.3599467,1.4552544,-1.0464954,1.2076937,-0.58373773,-1.8131588,-0.8607633,2.3048131,1.3926016,-1.0496113,-1.4764165,1.3811102,0.4343393,-0.14721169,0.91578686,0.49271902,-0.16558565,1.4060774,-0.57727814,1.492122,-3.1018517,0.118116446,1.0257794,0.1254797,-0.44605255,1.0101082,0.85069996,-0.14317556,0.087768495,0.49810326,-0.4387127,0.76773083,0.5453691,1.0,0.0,0.0,0.0,0.0,0.0,0.0,-2.0560775,0.17727813,-0.94212204,0.5117893,-0.24909973,0.37434697,-13.634077,0.2741456,0.6798327,3.0669184
7.497731,44.20768,11.337538,12.875851,0.33778918,-0.60375005,0.1538483,-0.8233672,0.76655823,0.2601043,0.07200299,0.63936025,0.6787477,0.17506212,1.125357,-0.5070819,-1.7871484,-0.853563,2.3687491,1.4604764,-1.0321051,1.1929556,-0.5699638,-1.8087451,-0.8619964,2.3139799,1.3975321,-1.0509274,-1.4731648,1.3765094,0.44355127,-0.11571381,0.9180182,0.49352542,-0.12055349,1.375082,-0.5760956,1.5016357,-3.0987506,0.117998354,0.9265678,0.12115002,-0.43832016,1.0155421,0.85168546,-0.14977883,0.088850036,0.49427092,-0.42185837,0.77732724,0.5374539,1.0,0.0,0.0,0.0,0.0,0.0,0.0,-2.025082,0.17609558,-0.95163566,0.26054382,-0.36120415,0.8578837,3.012459,0.48143864,0.22232533,4.425952
-7.063488,41.409462,9.303146,26.222086,1.6139672,-0.09975014,-0.255319,-0.82144094,0.75347245,0.19849014,0.23293108,0.6079287,0.6790213,0.26793164,1.1108115,-0.49461657,-1.7888961,-0.8387033,2.3747728,1.4654342,-1.0241343,1.1782442,-0.55629003,-1.8045185,-0.8617761,2.3230817,1.402455,-1.0517552,-1.4709715,1.3646927,0.41535425,0.067106314,0.90838414,0.49189493,-0.07047985,1.3441181,-0.574913,1.510158,-3.0956523,0.11788038,0.8274554,0.1165781,-0.43050003,1.0211284,0.8526735,-0.15674356,0.08993432,0.49019507,-0.45949307,0.7867524,0.56030405,1.0,0.0,0.0,0.0,0.0,0.0,0.0,-1.9941181,0.17491302,-0.96015793,0.06210804,-1.0900259,-2.8799355,18.048624,-0.6238103,-0.2168417,4.876578
-16.118902,31.924118,4.925746,31.037773,2.0866117,-0.14188232,-0.5485676,-0.8259939,0.7415077,0.08130268,0.3170857,0.57318616,0.67825776,0.30701688,1.0956448,-0.48213926,-1.7963881,-0.8300675,2.3804004,1.4702808,-1.0210536,1.1635214,-0.5427793,-1.8011444,-0.8593099,2.3319776,1.4073569,-1.0520966,-1.4732646,1.3467836,0.31117883,0.3055745,0.8845107,0.48898593,-0.022345254,1.3131847,-0.5737381,1.5176898,-3.0925574,0.11776253,0.72844213,0.11145496,-0.42268372,1.0269524,0.8538887,-0.16419065,0.091128744,0.48539785,-0.5203253,0.7840703,0.5844313,1.0,0.0,0.0,0.0,0.0,0.0,0.0,-1.9631847,0.17373809,-0.9676898,-0.416708,-1.7142534,-10.478372,23.562305,-2.0400643,-0.43669343,4.676769
-13.345238,22.72298,1.9928024,24.612919,1.552123,-0.61680996,-0.46321115,-0.83029974,0.7199865,0.0241,0.28571826,0.54064584,0.6682593,0.36011532,1.0804914,-0.47078067,-1.7987343,-0.83073807,2.386042,1.4741828,-1.016085,1.1487528,-0.52952325,-1.799031,-0.85498595,2.3405492,1.4122263,-1.051965,-1.4786422,1.3188342,0.17767811,0.4738133,0.848941,0.48609668,0.024654508,1.2822819,-0.5725632,1.5242323,-3.0894654,0.117644794,0.6295278,0.105882645,-0.4149933,1.0328306,0.85536855,-0.17186874,0.09259843,0.4798241,-0.56028175,0.7677648,0.58378434,1.0,0.0,0.0,0.0,0.0,0.0,0.0,-1.9322819,0.17256317,-0.97423226,-0.6703377,-2.7275562,-13.424355,16.56509,-3.2610893,-0.3417611,4.595408
-2.3482656,18.75039,2.026613,12.460217,0.47970003,-1.1870601,-0.10087135,-0.83079356,0.6939334,0.03272306,0.19392587,0.50707054,0.66567594,0.41390237,1.0656735,-0.46012992,-1.7957587,-0.83559334,2.3912563,1.4787939,-1.0105748,1.1339346,-0.5166248,-1.7979877,-0.8499973,2.3487012,1.4170767,-1.0513718,-1.4831464,1.2803435,0.0797817,0.50667983,0.80468255,0.485289,0.07054671,1.2514095,-0.57138824,1.5297863,-3.0863767,0.11752718,0.5307124,0.100253105,-0.40753937,1.0384622,0.85695046,-0.17937274,0.09444527,0.47385785,-0.55427665,0.7431942,0.55144095,1.0,0.0,0.0,0.0,0.0,0.0,0.0,-1.9014095,0.17138824,-0.97978634,-0.50435066,-3.7779331,-9.828617,3.089285,-4.2348504,0.07172227,4.511405
6.035685,16.646605,2.2294598,3.499751,-0.35489914,-1.6527331,0.15571147,-0.8213537,0.6732118,-0.008325188,0.14427133,0.46221122,0.6639352,0.46956635,1.0517993,-0.44930363,-1.7988203,-0.83557016,2.3949223,1.4834702,-1.0044152,1.1191317,-0.50414217,-1.7977836,-0.84539676,2.356342,1.421929,-1.0503266,-1.4794407,1.2379389,0.00040181435,0.4439451,0.7508092,0.48628053,0.115585916,1.2205696,-0.5702133,1.534353,-3.0832908,0.11740968,0.43199587,0.09495449,-0.40039062,1.0436083,0.8584836,-0.18636252,0.09674945,0.46788284,-0.51277864,0.7100932,0.49791676,1.0,0.0,0.0,0.0,0.0,0.0,0.0,-1.8705696,0.17021331,-0.984353,0.38752556,-4.1565657,-7.973984,-6.4251604,-5.272937,0.40293336,4.4458985
4.842315,12.410339,0.6409333,3.0204787,-0.3025983,-1.8457985,0.10883874,-0.8183087,0.6515199,-0.10903547,0.17241015,0.451942,0.661842,0.4902168,1.0373008,-0.43899018,-1.8086872,-0.82815576,2.4015362,1.4881132,-1.0013049,1.1043936,-0.4920904,-1.7985675,-0.84146667,2.3634984,1.4267908,-1.0488636,-1.4718165,1.1945486,-0.10492358,0.37554336,0.7045693,0.48730022,0.15629414,1.1897602,-0.5690384,1.5379333,-3.0802083,0.117292285,0.33337802,0.09005928,-0.39365768,1.0481979,0.8599864,-0.19269648,0.099540435,0.461934,-0.47295883,0.66628456,0.44204307,1.0,0.0,0.0,0.0,0.0,0.0,0.0,-1.8397602,0.16903839,-0.98793334,0.80718994,-4.2493343,-10.614911,-6.991023,-4.5118213,0.40121078,4.0225563
0.26781893,7.719287,-1.2781115,5.8949103,0.09388143,-1.874011,-0.026984889,-0.8192645,0.6224943,-0.19759952,0.19516367,0.4336947,0.65735495,0.51398236,1.0224671,-0.42984098,-1.8183274,-0.8219503,2.406868,1.4925263,-0.99746543,1.0897242,-0.48049945,-1.8006008,-0.8380134,2.3702466,1.4316565,-1.047025,-1.4652979,1.1475267,-0.23654144,0.33481395,0.6654861,0.48727286,0.19299883,1.1589813,-0.56786346,1.5405282,-3.0771286,0.11717501,0.23485877,0.085445404,-0.38741302,1.0522649,0.86155516,-0.19837695,0.10279183,0.45585433,-0.44943458,0.61485314,0.3915366,1.0,0.0,0.0,0.0,0.0,0.0,0.0,-1.8089813,0.16786346,-0.99052817,0.69909096,-4.616499,-13.276988,-4.237443,-3.7833095,0.23756027,3.6195993
-2.1039095,8.191107,-1.0379543,9.129629,0.35583192,-1.7178125,-0.096823245,-0.814512,0.5922257,-0.23023444,0.20885584,0.36001083,0.6544774,0.5335751,1.008273,-0.42127687,-1.8236243,-0.8171278,2.4062476,1.4971042,-0.9936675,1.0751234,-0.4694082,-1.8038433,-0.8347261,2.3764837,1.4365183,-1.0448487,-1.4581839,1.0965356,-0.35383043,0.3261471,0.6105413,0.48625895,0.22563362,1.128233,-0.56669235,1.5421386,-3.074052,0.11705786,0.13643801,0.08098316,-0.38163376,1.0559008,0.8632343,-0.20351854,0.106481515,0.44952014,-0.43763942,0.5687394,0.35140783,1.0,0.0,0.0,0.0,0.0,0.0,0.0,-1.7782329,0.16669235,-0.99213856,0.74801445,-5.026269,-11.831278,-1.0273814,-5.366242,0.080668926,3.1950922
-3.1648936,11.207568,-0.14683127,11.637014,0.42561084,-1.55509,-0.1463456,-0.8121296,0.57305557,-0.28236338,0.21523288,0.28500992,0.6566847,0.5423702,0.9939105,-0.41210267,-1.8320796,-0.8132028,2.4049847,1.5021868,-0.9906117,1.0605856,-0.45879668,-1.808173,-0.8313701,2.382034,1.4413668,-1.0423806,-1.4522362,1.0495311,-0.45955494,0.33820245,0.5369694,0.48499224,0.25371096,1.0975151,-0.56552505,1.5427655,-3.0709786,0.116940826,0.038115658,0.0766058,-0.3762474,1.0591992,0.8650354,-0.2082402,0.1106374,0.44284204,-0.43084803,0.5317361,0.32021585,1.0,0.0,0.0,0.0,0.0,0.0,0.0,-1.7475151,0.16552505,-0.9927655,0.6062031,-4.6432495,-10.634602,1.0495722,-7.236254,0.012069941,2.7211933
-2.8009434,9.907391,-0.20746255,10.963936,0.31483954,-1.5835767,-0.11408284,-0.814544,0.5324932,-0.3105063,0.18747242,0.17903844,0.64791006,0.55601114,0.9791312,-0.40554735,-1.8392236,-0.81262285,2.3999379,1.5061578,-0.98677945,1.0460802,-0.4487149,-1.8133743,-0.82797885,2.3866346,1.4461981,-1.039655,-1.4501189,0.9946304,-0.54037476,0.3389312,0.4351083,0.48306468,0.2783873,1.0668278,-0.56435776,1.5424099,-3.0679083,0.11682391,-0.0601084,0.0723238,-0.3712349,1.0621701,0.8669408,-0.21255322,0.11531302,0.43581837,-0.4207882,0.49479333,0.28738612,1.0,0.0,0.0,0.0,0.0,0.0,0.0,-1.7168278,0.16435775,-0.9924099,0.2314806,-5.4361224,-8.128786,-0.06132722,-10.08864,-0.038677454,2.376014
-1.2154722,8.556032,0.10390639,9.474002,0.18566677,-1.6267241,-0.034087665,-0.8070035,0.48521066,-0.30999658,0.1679983,0.06306754,0.6530906,0.56025654,0.9653799,-0.40019384,-1.844374,-0.81117904,2.3929412,1.5115072,-0.98362935,1.031613,-0.43927735,-1.8190963,-0.8246887,2.3900144,1.451018,-1.03671,-1.445217,0.92699605,-0.5828629,0.32542655,0.30589563,0.48211426,0.29940358,1.036171,-0.56319046,1.5410728,-3.064841,0.11670712,-0.15823427,0.06818485,-0.3665886,1.0647901,0.86889863,-0.21644159,0.12051629,0.42853686,-0.40529326,0.45703015,0.25189787,1.0,0.0,0.0,0.0,0.0,0.0,0.0,-1.6861709,0.16319045,-0.99107283,0.53744316,-6.7064404,-4.300821,-1.4504135,-12.84514,0.085139275,2.0092607
0.93426204,-3.3040566,-2.5047042,2.6512246,0.011998117,-2.1132965,0.12966606,-0.805895,0.4108323,-0.32136762,0.055951394,0.013573058,0.6550946,0.5520774,0.9510235,-0.39819413,-1.8512331,-0.8190935,2.3913717,1.5165274,-0.9815023,1.0171992,-0.43072432,-1.825072,-0.82206416,2.3921506,1.455834,-1.0335877,-1.4396913,0.8317059,-0.6029402,0.24118777,0.1832285,0.4823548,0.3162581,1.0055447,-0.56202316,1.5387553,-3.0617766,0.11659043,-0.256262,0.06428242,-0.36252213,1.0668943,0.8708628,-0.21966964,0.126136,0.42122775,-0.3799222,0.3923999,0.19516446,1.0,0.0,0.0,0.0,0.0,0.0,0.0,-1.6555446,0.16202316,-0.9887553,0.70631504,-9.443045,-2.159512,-8.470782,-12.218398,0.27804375,1.6193151
6.527484,-12.720755,-3.6227736,-6.6827583,-0.5457785,-2.6140149,0.4191602,-0.7994497,0.32449183,-0.2452589,-0.10236945,-0.14661098,0.66254896,0.5514326,0.9372542,-0.39827514,-1.8495979,-0.8323011,2.3774896,1.5220889,-0.97844446,1.0028654,-0.42335814,-1.8307598,-0.8209951,2.3928373,1.4606634,-1.0303204,-1.4303489,0.70530456,-0.558065,0.0622748,0.030304227,0.48415086,0.33007818,0.97494984,-0.56085587,1.5354581,-3.0587156,0.11647386,-0.35419172,0.060813904,-0.35927963,1.0682428,0.87274015,-0.22191383,0.13207944,0.41428697,-0.3311737,0.30340692,0.113699794,1.0,0.0,0.0,0.0,0.0,0.0,0.0,-1.6249498,0.16085586,-0.9854581,1.1999846,-12.523723,4.2515755,-17.86482,-15.282118,0.49632788,1.3281226
17.395523,2.027637,2.5850897,-12.104495,-1.3791213,-2.54023,0.78578234,-0.7889203,0.30243805,-0.08437793,-0.25760373,-0.2781488,0.67900866,0.53487366,0.9239734,-0.39311433,-1.8391975,-0.84675545,2.3650224,1.5285643,-0.97683305,0.98865914,-0.41712683,-1.8351753,-0.8222654,2.3918607,1.4655215,-1.0269444,-1.4166237,0.59612995,-0.40323052,-0.18997256,-0.14068897,0.48720095,0.33972973,0.9443865,-0.55968857,1.5311824,-3.0556574,0.11635741,-0.45202354,0.058112144,-0.35680008,1.0687577,0.87432504,-0.22308451,0.13828668,0.4082472,-0.24615283,0.2306676,0.02986652,1.0,0.0,0.0,0.0,0.0,0.0,0.0,-1.5943865,0.15968856,-0.9811824,1.6045094,-10.796011,15.301573,-25.160397,-17.117565,0.57380795,0.9143591
18.291706,4.3878765,4.093337,-11.354815,-1.117705,-2.429468,0.8677981,-0.7860339,0.231696,0.016849143,-0.3418119,-0.32423258,0.68174356,0.5042254,0.91005576,-0.39395723,-1.8334904,-0.85644656,2.3594375,1.5336958,-0.97652185,0.9745829,-0.41200846,-1.8376453,-0.82604384,2.3893392,1.4704043,-1.0235112,-1.4038972,0.48404565,-0.19574822,-0.44029337,-0.28913906,0.48913467,0.34429297,0.91385365,-0.5585289,1.5259291,-3.0526025,0.116241075,-0.5497576,0.056227684,-0.35500336,1.0684736,0.8755155,-0.22326608,0.14454986,0.40339833,-0.16688173,0.16212618,-0.048679274,1.0,0.0,0.0,0.0,0.0,0.0,0.0,-1.5638536,0.1585289,-0.9759291,1.5034914,-11.110931,20.515446,-24.957556,-14.824986,0.33835173,0.41694045
10.394628,4.374508,2.09169,-3.9962616,-0.5093929,-2.2409968,0.54851675,-0.78732985,0.20542522,-0.054830678,-0.36012223,-0.37562028,0.6877967,0.48045242,0.89584994,-0.39146593,-1.8431283,-0.8620561,2.351777,1.539184,-0.97546595,0.96059155,-0.40783852,-1.8387077,-0.8318002,2.3855283,1.4753023,-1.0200646,-1.3969762,0.39484212,-0.077163585,-0.62068576,-0.4116515,0.4901171,0.3445271,0.8833513,-0.55736923,1.5196991,-3.0495505,0.11612486,-0.64739394,0.054929733,-0.35385132,1.0675169,0.87644446,-0.22259472,0.15086682,0.39941952,-0.1159984,0.09925972,-0.112326615,1.0,0.0,0.0,0.0,0.0,0.0,0.0,-1.5333513,0.15736923,-0.9696991,0.8680105,-8.8654995,11.67246,-18.016756,-12.238401,0.12431145,-0.047391653
-7.0709996,-46.84471,-15.030015,-7.196377,0.6379214,-3.33165,0.15966636,-0.7826766,0.014050866,-0.21481717,-0.49730253,-0.4190994,0.67541647,0.42468768,0.8823239,-0.40643343,-1.8601894,-0.88153046,2.3436184,1.5428439,-0.9775958,0.9466641,-0.40517062,-1.8398387,-0.83934474,2.380676,1.480189,-1.0166733,-1.3902006,0.22395568,-0.12526697,-0.7990347,-0.5105187,0.48741105,0.33646026,0.8528795,-0.55620956,1.5124935,-3.0465016,0.116008766,-0.7449327,0.0537138,-0.35395432,1.065654,0.8774887,-0.22067389,0.15714338,0.39575565,-0.12272262,-0.0486922,-0.21191877,1.0,0.0,0.0,0.0,0.0,0.0,0.0,-1.5028795,0.15620956,-0.9624935,1.0023355,-17.136768,-4.854369,-17.813932,-10.096317,-0.45756698,-1.062417
-25.231222,-115.24817,-34.761517,-13.691944,2.4176466,-4.522162,0.009917709,-0.77414507,-0.29975453,-0.19056422,-0.6257635,-0.47996622,0.6727196,0.37704173,0.8692496,-0.43514606,-1.8588952,-0.9019211,2.3326795,1.5474609,-0.97896916,0.93283486,-0.40544242,-1.8417003,-0.8487489,2.3749082,1.4850241,-1.0134118,-1.3786377,-0.11165192,-0.20591949,-0.9871408,-0.6003584,0.48015305,0.3213837,0.82243824,-0.5550499,1.5043132,-3.0434558,0.115892775,-0.84237397,0.051854134,-0.3563156,1.0624398,0.8789678,-0.21698089,0.16280304,0.39221162,-0.20811068,-0.29906392,-0.3589068,1.0,0.0,0.0,0.0,0.0,0.0,0.0,-1.4724382,0.15504989,-0.9543132,1.7226458,-33.787556,-7.9528184,-18.660366,-9.466648,-1.3242006,-1.9670308
-26.22152,-126.874214,-35.48693,-13.556627,3.397294,-4.2902946,0.27723134,-0.7353625,-0.5106779,0.032103974,-0.68454105,-0.53316844,0.6716449,0.4812876,0.8592986,-0.45651022,-1.8384899,-0.917203,2.3215914,1.5521886,-0.965283,0.91928697,-0.40966958,-1.8433063,-0.8598335,2.368305,1.4897696,-1.0102131,-1.3449208,-0.52751297,-0.14527813,-1.1478242,-0.68212473,0.46962526,0.31823626,0.7920265,-0.5538902,1.4951593,-3.040413,0.115776904,-0.93971777,0.04892063,-0.36118698,1.0577466,0.8807912,-0.21161154,0.16711658,0.38922912,-0.32447988,-0.54921156,-0.50726557,1.0,0.0,0.0,0.0,0.0,0.0,0.0,-1.4420265,0.15389022,-0.94515926,3.951931,-41.91267,6.14987,-15.762258,-8.638048,-1.9902408,-0.70177317
-18.21972,-100.70235,-26.059101,-9.6863365,3.348355,-3.4137728,0.51164746,-0.6845445,-0.63728404,0.1486306,-0.73490876,-0.5408675,0.6535458,0.4848008,0.8508325,-0.47339797,-1.8284433,-0.93332434,2.3142183,1.5551242,-0.96173304,0.90627885,-0.41787738,-1.8435714,-0.8722713,2.361057,1.4943968,-1.0070183,-1.284754,-0.91961634,0.0131977275,-1.2746391,-0.73986876,0.45708808,0.31924942,0.76164436,-0.55273056,1.4850327,-3.037373,0.11566115,-1.0369642,0.044932365,-0.36816788,1.0517358,0.88270515,-0.20502795,0.16969611,0.3872961,-0.42795846,-0.74413085,-0.634158,1.0,0.0,0.0,0.0,0.0,0.0,0.0,-1.4116443,0.15273055,-0.93503267,6.4080954,-39.537968,15.880911,-12.351131,-6.0846925,-2.2898853,-0.08440614
-0.7759478,-36.669643,-5.232066,-0.88901806,2.438642,-1.7731879,0.7589628,-0.62646586,-0.67748076,0.34423345,-0.7395852,-0.56128293,0.6488789,0.46754572,0.8436323,-0.48562545,-1.8091481,-0.9462298,2.3049288,1.5592847,-0.9602637,0.89405847,-0.42914838,-1.8414199,-0.88556457,2.3533666,1.4989268,-1.0038044,-1.2006441,-1.1968241,0.28159776,-1.3470027,-0.77837837,0.44969597,0.3226392,0.7312927,-0.5515747,1.4739344,-3.0343363,0.11554552,-1.1341134,0.04032421,-0.37626266,1.0448576,0.8843439,-0.1980264,0.1705669,0.38681802,-0.4768509,-0.8263814,-0.70837957,1.0,0.0,0.0,0.0,0.0,0.0,0.0,-1.3812927,0.1515747,-0.9239344,8.550239,-27.891493,26.540306,-7.051468,-3.7544012,-1.344943,0.4801035
10.342787,19.677212,11.766841,10.397348,1.6577802,-0.34228802,0.7022729,-0.573105,-0.70776916,0.45264426,-0.67895865,-0.61697274,0.6672687,0.39553592,0.83674794,-0.4999253,-1.7961555,-0.95346045,2.2916694,1.5656537,-0.96425086,0.8827851,-0.44227952,-1.8364475,-0.8989475,2.3452756,1.5034415,-1.0005982,-1.1027057,-1.3518385,0.56691295,-1.3352195,-0.8179396,0.45198068,0.32110873,0.7009716,-0.55042267,1.4618653,-3.0313025,0.11543,-1.2311655,0.035546303,-0.38448334,1.0376626,0.88546455,-0.19142571,0.17010726,0.38777855,-0.4826812,-0.8117366,-0.7262858,1.0,0.0,0.0,0.0,0.0,0.0,0.0,-1.3509716,0.15042266,-0.9118653,9.869361,-15.493488,27.846653,1.2511969,-3.5358787,0.23866296,0.21899343
13.079155,49.15952,19.242414,17.90321,1.26973,0.26840293,0.4640365,-0.5237878,-0.7367469,0.4611537,-0.64031416,-0.5874416,0.6684284,0.2950001,0.8304063,-0.5159542,-1.7903321,-0.9629789,2.2865314,1.5702842,-0.9710982,0.8725169,-0.4562871,-1.8292224,-0.9118078,2.336971,1.5080076,-0.99748194,-1.0010786,-1.4167283,0.7715502,-1.2693166,-0.83285314,0.45945227,0.30994192,0.670681,-0.54927063,1.4488264,-3.028272,0.11531459,-1.3281206,0.030833244,-0.392231,1.0305374,0.88606346,-0.18565992,0.16874528,0.38980383,-0.47051603,-0.7537378,-0.7105904,1.0,0.0,0.0,0.0,0.0,0.0,0.0,-1.320681,0.14927062,-0.8988264,10.281754,-6.3801527,19.642603,6.6653967,-1.0215521,1.1289,-0.6684661
10.58729,55.980686,19.189707,20.320013,1.024536,0.22612804,0.21540757,-0.49209198,-0.75941825,0.44347233,-0.63719755,-0.5673744,0.6518561,0.22438793,0.8233077,-0.5322289,-1.7848752,-0.9755275,2.2802336,1.5731933,-0.9750432,0.863168,-0.47056073,-1.820771,-0.9239681,2.328655,1.5126406,-0.9945322,-0.9123316,-1.4305347,0.8671916,-1.1977371,-0.8297943,0.46619305,0.2913006,0.6404209,-0.5481186,1.4348187,-3.0252442,0.1151993,-1.4249787,0.02626133,-0.399395,1.0236119,0.88628566,-0.18071587,0.16685477,0.39242697,-0.45490137,-0.69437796,-0.6884621,1.0,0.0,0.0,0.0,0.0,0.0,0.0,-1.2904209,0.14811859,-0.88481873,9.039664,-1.2582302,8.825409,7.2922945,0.65226555,1.1291444,-1.4629364
13.618499,53.103195,17.371305,15.261315,0.42273366,-0.3249938,0.16452415,-0.37543112,-0.7761621,0.37813067,-0.6550508,-0.5406273,0.6387143,0.18128826,0.8256249,-0.54817694,-1.7829579,-0.98947316,2.2745922,1.576512,-0.9764034,0.85497975,-0.48482293,-1.8122432,-0.9356344,2.3204877,1.5173193,-0.99179804,-0.78772235,-1.4244696,0.8469487,-1.155883,-0.81180805,0.4695286,0.26836836,0.61019135,-0.54696655,1.4198432,-3.0222194,0.11508413,-1.5217401,0.021970749,-0.4061432,1.0167934,0.8862568,-0.17629384,0.16468176,0.39541027,-0.42179945,-0.6588318,-0.6810124,1.0,0.0,0.0,0.0,0.0,0.0,0.0,-1.2601913,0.14696655,-0.8698432,12.439561,0.6943941,-2.381909,4.2926073,1.9719124,0.6536782,-2.0139873
13.573561,42.62083,12.727185,9.934962,-0.028886199,-0.9591053,0.10732685,-0.29341418,-0.78607595,0.2694215,-0.6705712,-0.5461347,0.630054,0.19547053,0.82563835,-0.56343055,-1.7853011,-1.0026915,2.2658744,1.5803248,-0.972251,0.8481734,-0.4990036,-1.8047302,-0.9471395,2.3124769,1.5220076,-0.9892727,-0.6454079,-1.4158596,0.71926177,-1.148372,-0.7974534,0.4689737,0.24779326,0.5799923,-0.5458145,1.4039007,-3.019198,0.11496906,-1.6184046,0.018070221,-0.4127655,1.0098748,0.886098,-0.1719653,0.16244367,0.39858523,-0.3804032,-0.65537417,-0.6966336,1.0,0.0,0.0,0.0,0.0,0.0,0.0,-1.2299923,0.14581451,-0.85390073,14.072967,0.89144707,-12.783623,0.84426403,1.4352918,0.05697012,-1.9154966
9.144566,27.709747,5.987296,6.4950466,-0.11574732,-1.5240929,-0.004093714,-0.23815596,-0.7925217,0.10788761,-0.686516,-0.52533793,0.6271519,0.23875979,0.8243578,-0.5782558,-1.7939414,-1.015791,2.259943,1.5847228,-0.96539676,0.8427422,-0.5131342,-1.7992599,-0.9587724,2.3046339,1.526673,-0.98690283,-0.50961065,-1.4122887,0.49032748,-1.1678689,-0.7805068,0.4653369,0.23339108,0.54982376,-0.5446625,1.3869925,-3.0161793,0.11485411,-1.7149726,0.01452446,-0.41960526,1.0026168,0.88596314,-0.16727683,0.16031252,0.40173063,-0.3462398,-0.68519104,-0.7369048,1.0,0.0,0.0,0.0,0.0,0.0,0.0,-1.1998237,0.14466247,-0.83699244,13.378752,0.32658577,-22.671164,-1.8315554,1.5390992,-0.46604872,-1.4137417
8.12393,19.648636,2.3881261,3.2829227,-0.33219364,-1.8568759,-0.0016657673,-0.16639386,-0.7939873,-0.029484143,-0.7154455,-0.539112,0.6250311,0.32235056,0.8261028,-0.59253293,-1.8022083,-1.030317,2.2507226,1.589176,-0.9546678,0.83864236,-0.52725905,-1.7964523,-0.9707773,2.2968824,1.5312907,-0.9845959,-0.37742728,-1.4128469,0.21208303,-1.2109623,-0.7741902,0.45985675,0.22958294,0.51968384,-0.54351807,1.3691192,-3.0131636,0.114739284,-1.8114439,0.0113248825,-0.42687607,0.99481916,0.8859309,-0.16188355,0.15842313,0.40474972,-0.31055897,-0.7337294,-0.79600173,1.0,0.0,0.0,0.0,0.0,0.0,0.0,-1.1696838,0.14351806,-0.81911916,13.00804,-0.121831894,-27.501007,-4.178548,0.401783,-0.80111027,-0.42251647
5.7213936,15.37666,0.16841722,2.7736566,-0.34926236,-1.9262714,-0.0241675,-0.11865596,-0.7937372,-0.17092001,-0.7336526,-0.5594387,0.6196155,0.38025764,0.82677674,-0.60663277,-1.8135443,-1.0441425,2.2409384,1.5932522,-0.94657016,0.8357308,-0.541403,-1.7965534,-0.9832628,2.2890928,1.5358473,-0.9822689,-0.26289263,-1.4151849,-0.08323544,-1.2606128,-0.78103626,0.4533705,0.23341964,0.48957443,-0.54237366,1.3502818,-3.0101511,0.11462457,-1.9078189,0.008446693,-0.43468475,0.9863617,0.8860346,-0.15559371,0.15687843,0.4075811,-0.27922842,-0.7886167,-0.8650319,1.0,0.0,0.0,0.0,0.0,0.0,0.0,-1.1395744,0.14237365,-0.8002818,11.308384,-0.3175497,-29.22836,-4.7992945,-0.9484649,-0.98193884,0.3108263
7.549401,22.067669,3.0871909,3.6849003,-0.4310819,-1.6268334,0.059194963,-0.06583523,-0.7877153,-0.2348465,-0.74430233,-0.5971714,0.6318181,0.4345896,0.8291473,-0.6201745,-1.8200381,-1.057693,2.2293756,1.5990291,-0.93881,0.8338654,-0.5555422,-1.7992141,-0.9961984,2.2811086,1.5403582,-0.97985613,-0.16136064,-1.4137651,-0.32665518,-1.3040156,-0.80490965,0.4492393,0.24383727,0.45949554,-0.54122925,1.3304815,-3.0071416,0.11450996,-2.0040975,0.005914688,-0.44291306,0.9772627,0.8862062,-0.14846921,0.15571226,0.4103035,-0.2431626,-0.827896,-0.92856115,1.0,0.0,0.0,0.0,0.0,0.0,0.0,-1.1094955,0.14122924,-0.7804815,10.066641,0.07839203,-24.175352,-4.1858435,-2.5895834,-0.701797,0.9964973
0.79756635,22.596094,2.9369302,8.2768755,0.12599233,-1.2147539,-0.009685017,-0.089174375,-0.7939888,-0.3087289,-0.7525677,-0.59082186,0.62498105,0.44091934,0.82494795,-0.63494104,-1.8300871,-1.0714552,2.2220263,1.6028563,-0.9357642,0.8326018,-0.56969184,-1.8039024,-1.0094774,2.2729108,1.544829,-0.9773346,-0.11441449,-1.4156939,-0.5159519,-1.3351547,-0.8252613,0.4457064,0.25489435,0.42944717,-0.54008484,1.3097191,-3.004135,0.11439548,-2.1002796,0.0035762787,-0.45144272,0.9675912,0.88643056,-0.14064154,0.1548621,0.41289032,-0.22908856,-0.8543508,-0.9845124,1.0,0.0,0.0,0.0,0.0,0.0,0.0,-1.0794472,0.14008483,-0.7597191,4.7675176,-0.26538372,-18.915861,-2.898717,-2.247429,-0.6009579,1.0911077
-5.516759,29.456964,5.7408113,14.458712,0.7804224,-0.5062564,-0.02489207,-0.14303966,-0.79418427,-0.27452767,-0.7617485,-0.58422756,0.6316041,0.4498491,0.8182978,-0.64911026,-1.8313551,-1.0856522,2.214488,1.6079894,-0.9323497,0.8312886,-0.58386344,-1.8096607,-1.022991,2.2645757,1.5492827,-0.97470057,-0.13609608,-1.4178481,-0.5964765,-1.3558946,-0.83725715,0.4447579,0.266379,0.39942837,-0.5389404,1.2879956,-3.0011315,0.11428111,-2.1963654,0.001209259,-0.46003723,0.9575066,0.88667315,-0.13238978,0.15416503,0.41535145,-0.23683481,-0.8535066,-1.0215573,1.0,0.0,0.0,0.0,0.0,0.0,0.0,-1.0494283,0.13894042,-0.73799556,-1.9295335,-0.28104782,-8.259845,-1.8205643,-1.3860583,-0.21591187,1.2082279
-12.150727,34.964424,7.8380218,20.245062,1.3793447,0.105063975,-0.0675594,-0.20272207,-0.79529124,-0.25044662,-0.7606345,-0.59455734,0.6315268,0.46436924,0.8110164,-0.66339254,-1.8347054,-1.0990543,2.20512,1.6124353,-0.92826366,0.82932687,-0.5980579,-1.8155868,-1.0366151,2.25613,1.5537363,-0.9719502,-0.21491925,-1.4203017,-0.5925456,-1.3635699,-0.84729636,0.445525,0.27837506,0.36943913,-0.537796,1.265312,-2.998131,0.11416685,-2.2923553,-0.0013837814,-0.46845245,0.94718766,0.8869101,-0.12399946,0.1534914,0.41767812,-0.26526377,-0.83031136,-1.0406079,1.0,0.0,0.0,0.0,0.0,0.0,0.0,-1.0194391,0.13779601,-0.71531194,-7.521412,-0.308156,0.0289917,-0.4789114,-1.1804461,0.07100701,1.3175607
-10.059844,46.09637,13.384827,22.759895,1.5418438,0.5998139,0.022070512,-0.22180991,-0.79327685,-0.1706383,-0.7558797,-0.5864041,0.63734585,0.4642188,0.8071459,-0.6773856,-1.8326507,-1.1122031,2.1974895,1.6174709,-0.9255283,0.8265002,-0.612261,-1.8208263,-1.0502355,2.247646,1.558211,-0.9690863,-0.3039769,-1.4203345,-0.5026193,-1.3605409,-0.8491912,0.4485806,0.28964502,0.3394804,-0.5366554,1.2416692,-2.9951334,0.114052705,-2.3882492,-0.0042495728,-0.47647095,0.93683374,0.8870577,-0.11579469,0.1526827,0.42000958,-0.2918023,-0.7838848,-1.0386827,1.0,0.0,0.0,0.0,0.0,0.0,0.0,-0.9894804,0.13665542,-0.69166917,-8.54885,-0.026583672,8.494627,0.54376125,-0.26249886,0.44620037,1.330471
-18.40374,39.89421,9.502438,25.053139,1.9130038,0.5853619,-0.14401045,-0.29752862,-0.79578245,-0.24492615,-0.7561289,-0.5946635,0.6313417,0.45843863,0.7967473,-0.6918392,-1.8453189,-1.1258484,2.1881797,1.6213452,-0.92324245,0.82260156,-0.62647074,-1.8254669,-1.063793,2.2391355,1.5627085,-0.966128,-0.4170489,-1.4214288,-0.45289934,-1.3530122,-0.85207266,0.4505713,0.29843795,0.3095522,-0.53551865,1.2170682,-2.9921389,0.11393868,-2.4840472,-0.0075244904,-0.4840889,0.9264654,0.8871915,-0.10777173,0.15175094,0.42219436,-0.3380963,-0.74581,-1.0408783,1.0,0.0,0.0,0.0,0.0,0.0,0.0,-0.95955217,0.13551864,-0.6670682,-10.889077,-0.16262531,4.5095205,1.0720968,-0.4387617,0.29374957,1.0557532
-18.044907,30.234245,4.639916,20.947691,1.700055,0.017127037,-0.20423838,-0.27895316,-0.79858166,-0.38969177,-0.7703199,-0.56309575,0.6127941,0.4676711,0.7947062,-0.7063289,-1.864436,-1.1408249,2.182826,1.6239879,-0.9193609,0.8178828,-0.64070433,-1.8304603,-1.0773408,2.2306936,1.5672022,-0.96309054,-0.48902804,-1.42431,-0.51570976,-1.3541838,-0.8420943,0.4487489,0.3058828,0.2796526,-0.53438187,1.1915098,-2.9891474,0.11382476,-2.5797493,-0.0112428665,-0.49152756,0.91589785,0.88742,-0.09961948,0.15075673,0.4240683,-0.38212776,-0.7351922,-1.066278,1.0,0.0,0.0,0.0,0.0,0.0,0.0,-0.9296526,0.13438186,-0.64150983,-6.858909,-0.37510395,-6.5454063,0.23245811,0.76355934,-0.25389194,0.85042715
-10.694767,29.818087,5.114862,16.444326,1.2065885,-0.28608507,-0.11606209,-0.25113198,-0.8036765,-0.42551002,-0.7668181,-0.58099616,0.61483556,0.4824152,0.79276955,-0.72107196,-1.8730114,-1.1540227,2.172594,1.6286857,-0.91484904,0.8128493,-0.65498847,-1.8364017,-1.0909021,2.222305,1.571675,-0.9599787,-0.5072768,-1.4300857,-0.6207523,-1.3558165,-0.83835125,0.44615388,0.31322533,0.24978352,-0.5332451,1.1649952,-2.9861588,0.11371096,-2.675356,-0.015254974,-0.4989395,0.9049939,0.8877297,-0.09115186,0.14974132,0.42568153,-0.40689832,-0.73446566,-1.1026227,1.0,0.0,0.0,0.0,0.0,0.0,0.0,-0.8997835,0.13324508,-0.6149952,-1.6033292,-0.65870285,-10.657883,0.14181137,0.15743971,-0.39755106,0.8118987
-20.83323,22.166327,-0.10008907,18.44861,1.5374217,-0.30116326,-0.2906368,-0.35169205,-0.8040472,-0.51974714,-0.76942736,-0.6032481,0.5955425,0.4725584,0.7776801,-0.73539317,-1.8883765,-1.1678448,2.1619802,1.6312292,-0.9127229,0.80738187,-0.66932887,-1.8437393,-1.10449,2.213867,1.5761019,-0.95681155,-0.5587959,-1.4358244,-0.77176535,-1.3583554,-0.84668726,0.44063053,0.31794295,0.21994495,-0.5321083,1.1375252,-2.9831731,0.113597274,-2.7708669,-0.019680977,-0.5064087,0.8936389,0.8882077,-0.08217321,0.14880024,0.4268408,-0.4536466,-0.741925,-1.1508217,1.0,0.0,0.0,0.0,0.0,0.0,0.0,-0.86994493,0.1321083,-0.5875252,-4.8428535,-0.711298,-15.198183,0.15702248,-1.1762977,-0.7966459,0.49490333
-36.330208,15.071157,-5.5513005,22.890724,2.326025,-0.061921954,-0.49466318,-0.4780521,-0.8069853,-0.59219754,-0.7847685,-0.5545972,0.55292463,0.43486363,0.7595767,-0.7500274,-1.902959,-1.182967,2.1584072,1.6313944,-0.9133252,0.80089784,-0.68373126,-1.8526771,-1.1181638,2.2054746,1.5804373,-0.9536339,-0.6766956,-1.4424353,-0.93478906,-1.3684549,-0.8386769,0.43007842,0.31774607,0.190135,-0.5309715,1.1091008,-2.9801908,0.1134837,-2.8662825,-0.024861336,-0.5139618,0.8817547,0.88900447,-0.07252041,0.14790303,0.42724285,-0.5390898,-0.7499935,-1.2056828,1.0,0.0,0.0,0.0,0.0,0.0,0.0,-0.840135,0.13097152,-0.5591008,-11.322808,-0.8784771,-16.391706,-0.442791,0.29525757,-1.4072359,-0.010663271
-50.80398,12.070591,-8.946128,27.987816,3.1614776,0.361838,-0.65992,-0.6037155,-0.8107877,-0.6462786,-0.78765756,-0.50630593,0.5312153,0.40488264,0.7405263,-0.76481,-1.917305,-1.1969296,2.154844,1.6335589,-0.91314566,0.7927668,-0.6982071,-1.8631313,-1.1319368,2.1973073,1.5846525,-0.9504858,-0.85654634,-1.4502709,-1.0827513,-1.3779395,-0.81144774,0.4171524,0.31401193,0.16035557,-0.52983475,1.079723,-2.9772112,0.11337024,-2.9616027,-0.031173706,-0.52153015,0.86933565,0.8902414,-0.06216009,0.14692481,0.42663726,-0.66201544,-0.7496984,-1.25917,1.0,0.0,0.0,0.0,0.0,0.0,0.0,-0.81035554,0.12983474,-0.529723,-17.377735,-1.0820627,-14.887929,-0.23260117,2.067268,-1.7312884,-0.34766197
-54.000877,19.361557,-6.427121,30.686779,3.3079448,0.8654417,-0.69316155,-0.68383366,-0.80402106,-0.67414355,-0.76934093,-0.54806125,0.57817805,0.3355446,0.7243835,-0.77860916,-1.9305457,-1.2088709,2.142501,1.6424704,-0.9169314,0.7827294,-0.7127144,-1.8747756,-1.1456964,2.1892774,1.5887839,-0.9474255,-1.050783,-1.4519616,-1.1921238,-1.3727378,-0.80242616,0.41033393,0.3034535,0.1306057,-0.5287018,1.0493927,-2.9742346,0.11325689,-3.0568275,-0.03874874,-0.528965,0.856477,0.89192545,-0.051238846,0.14584973,0.42493674,-0.790621,-0.7291796,-1.3002642,1.0,0.0,0.0,0.0,0.0,0.0,0.0,-0.7806057,0.12870178,-0.4993927,-18.805742,-0.49231052,-11.03127,1.2595892,0.2232194,-1.1101782,-1.0138333
-45.773537,31.238642,-0.13254297,29.421524,2.9157677,1.1746819,-0.55611503,-0.72019356,-0.7971619,-0.6933322,-0.7533711,-0.5677641,0.60099214,0.31999493,0.71071005,-0.7924306,-1.9441088,-1.2210336,2.132501,1.6488831,-0.915426,0.77100587,-0.7271845,-1.8872058,-1.1593072,2.181236,1.5928808,-0.9444777,-1.2112224,-1.4464154,-1.2604009,-1.3550681,-0.80655354,0.4083105,0.29214558,0.10088539,-0.52757263,1.0181109,-2.9712608,0.11314365,-3.151957,-0.047442436,-0.53606415,0.8433181,0.89394385,-0.039983533,0.14469014,0.42229182,-0.89751774,-0.69057775,-1.3268768,1.0,0.0,0.0,0.0,0.0,0.0,0.0,-0.75088537,0.12757263,-0.46811086,-15.538287,0.26993752,-6.921768,2.4081945,-0.9893656,-0.5496144,-1.0596454
-34.051952,40.449615,5.6982837,25.787085,2.4051516,1.2513094,-0.38690507,-0.7477111,-0.7949731,-0.71782666,-0.75133437,-0.5397703,0.5970553,0.24107108,0.69623476,-0.80668175,-1.9589885,-1.2344407,2.127259,1.6525863,-0.9203706,0.7580426,-0.7415783,-1.9001224,-1.1727407,2.1732175,1.5969664,-0.9416901,-1.3235067,-1.4378053,-1.3023009,-1.3378549,-0.8019722,0.40782344,0.27460992,0.0711956,-0.5264435,0.9858785,-2.9682903,0.11303053,-3.2469916,-0.05698967,-0.5427246,0.8299519,0.8961599,-0.028567607,0.14337353,0.41895735,-0.97631925,-0.6432984,-1.3456683,1.0,0.0,0.0,0.0,0.0,0.0,0.0,-0.7211956,0.12644348,-0.43587852,-10.859776,0.63610077,-4.282069,2.236557,0.016152859,-0.32178164,-1.6469538
-22.436764,48.910675,11.472433,22.32413,1.9640017,1.3168848,-0.23208034,-0.77235883,-0.7912906,-0.7110347,-0.74628955,-0.49788588,0.5938292,0.12610132,0.6808067,-0.8207073,-1.9712259,-1.2473696,2.123429,1.6563493,-0.92907995,0.7442763,-0.7558748,-1.9132202,-1.1860254,2.1653783,1.6010538,-0.93915045,-1.3934507,-1.4275278,-1.3125511,-1.3240392,-0.77891546,0.4084064,0.2476345,0.041534424,-0.52531433,0.95269656,-2.9653227,0.11291752,-3.341931,-0.06712532,-0.5488701,0.81646186,0.89845645,-0.017160047,0.14177258,0.41518903,-1.0283674,-0.58920646,-1.3556457,1.0,0.0,0.0,0.0,0.0,0.0,0.0,-0.6915344,0.12531433,-0.40269655,-6.752491,0.8697748,-1.1276007,1.7626524,2.003634,-0.12438297,-2.5485635
-17.214495,51.53905,13.504398,20.737411,1.7552686,1.2959297,-0.22967574,-0.79699373,-0.7925305,-0.73652786,-0.7191739,-0.4973339,0.5870228,-0.06565014,0.6645769,-0.83512783,-1.9868729,-1.2579428,2.115645,1.6597561,-0.9457155,0.7300179,-0.77009314,-1.9264095,-1.1990945,2.1577718,1.6051451,-0.9370066,-1.4360803,-1.4203919,-1.3215376,-1.3000805,-0.75553304,0.40881142,0.20381029,0.011903763,-0.5241852,0.9185658,-2.962358,0.11280463,-3.4367757,-0.07768917,-0.5544815,0.8028939,0.9008005,-0.0058600856,0.13983783,0.41105875,-1.0682263,-0.53554296,-1.3625684,1.0,0.0,0.0,0.0,0.0,0.0,0.0,-0.66190374,0.124185175,-0.3685658,-4.0890217,0.5859852,-0.98383427,2.7174473,2.1116495,-0.108230114,-4.228845
-12.9761715,50.83769,13.963973,18.180351,1.5767616,1.1661305,-0.2011531,-0.8087686,-0.7976293,-0.75803286,-0.7198215,-0.45314047,0.5462202,-0.21107724,0.6491411,-0.8498561,-2.0022128,-1.2710767,2.1124578,1.6597672,-0.9581143,0.71548676,-0.7842886,-1.9397418,-1.2119672,2.1504934,1.6092097,-0.9353825,-1.4583406,-1.4196675,-1.3375518,-1.2819654,-0.7190716,0.40500855,0.14907421,-0.017698288,-0.52305603,0.88348734,-2.9593961,0.11269184,-3.5315254,-0.08858967,-0.5595894,0.78921807,0.9031852,0.0053401943,0.13750032,0.40659744,-1.0992212,-0.48684,-1.3742592,1.0,0.0,0.0,0.0,0.0,0.0,0.0,-0.6323017,0.123056024,-0.33348733,-2.0896435,-0.0371933,-1.6793966,2.1099806,3.4627318,-0.53920746,-5.307847
-11.882345,53.677135,15.426443,18.61975,1.7002194,1.265414,-0.21246012,-0.8250023,-0.79015124,-0.7544526,-0.68876135,-0.37590697,0.55240846,-0.27876702,0.63298655,-0.8633037,-2.015187,-1.2808434,2.1129026,1.6644505,-0.96325916,0.7007849,-0.7984621,-1.9531925,-1.224571,2.143768,1.6132418,-0.93431437,-1.4738184,-1.4169142,-1.3479035,-1.2523057,-0.6579544,0.4019649,0.09332995,-0.04726982,-0.5219269,0.8474621,-2.9564373,0.112579174,-3.6261802,-0.09980583,-0.564209,0.7754798,0.9056193,0.016370248,0.13466246,0.40181038,-1.1301876,-0.43625033,-1.378497,1.0,0.0,0.0,0.0,0.0,0.0,0.0,-0.60273015,0.121926874,-0.2974621,-1.4407396,0.17485619,-1.0909319,3.2319546,5.957663,-0.444144,-5.390085
-11.322294,57.16636,16.863232,19.506714,1.6096665,1.397435,-0.23981544,-0.8326301,-0.78254384,-0.7574089,-0.6472276,-0.41118607,0.5752031,-0.32573912,0.6175219,-0.8767165,-2.0289333,-1.2892938,2.1026495,1.6707621,-0.9668883,0.68596196,-0.8125774,-1.9667232,-1.236736,2.1374738,1.6172644,-0.93378603,-1.4847795,-1.4101334,-1.3548038,-1.2038883,-0.61993736,0.40191963,0.03991039,-0.07681179,-0.52080536,0.8104911,-2.9534817,0.11246662,-3.7207406,-0.11129761,-0.5682945,0.76175606,0.9081013,0.027150467,0.13142715,0.39666325,-1.1564293,-0.38209623,-1.3747865,1.0,0.0,0.0,0.0,0.0,0.0,0.0,-0.5731882,0.12080535,-0.26049107,-1.0151148,0.58493614,-0.71628094,5.0752163,3.6694646,-0.109779835,-5.1867156
-8.158907,58.069565,17.794449,18.179579,1.269629,1.3795402,-0.1844866,-0.8229953,-0.7865693,-0.76281446,-0.62393373,-0.46254945,0.57625264,-0.30877978,0.60366243,-0.89123434,-2.0430048,-1.2991295,2.091219,1.6748897,-0.964664,0.671119,-0.82664984,-1.980315,-1.2483804,2.131294,1.6212927,-0.93372214,-1.4840041,-1.4064873,-1.3608596,-1.1505934,-0.617694,0.4026768,-0.0043343077,-0.106324196,-0.51968384,0.7725751,-2.9505289,0.112354174,-3.8152065,-0.12296772,-0.5718422,0.7480634,0.91058564,0.037675284,0.12796497,0.39120224,-1.1706853,-0.32890266,-1.3716089,0.0,1.0,0.0,0.0,0.0,0.0,0.0,-0.5436758,0.11968383,-0.22257507,0.13263226,0.28617382,-0.6230593,5.5362463,0.11943579,-0.0048577785,-4.3036995
-6.387358,60.420338,19.0607,17.822279,1.0905348,1.4249898,-0.11940446,-0.82406425,-0.78260297,-0.75704074,-0.59420073,-0.4819725,0.57277685,-0.2228399,0.5887126,-0.90491015,-2.056019,-1.3078005,2.0830967,1.6785704,-0.9560061,0.656504,-0.8406352,-1.9952197,-1.2598231,2.1254041,1.6289288,-0.9334512,-1.4554999,-1.3970199,-1.5175569,-1.136331,-0.594046,0.8292808,0.023109727,-0.122366905,-0.5187721,0.7704185,-1.3915386,0.11852258,0.5388039,-0.13493252,-0.57447815,0.7340164,0.9129018,0.046806782,0.12470547,0.38583395,-1.1995914,-0.22977102,-1.4143841,0.0,1.0,0.0,0.0,0.0,0.0,0.0,-0.5276331,0.11877212,-0.22041851,0.796628,0.24497509,-0.2953291,6.3333273,-1.7537594,-0.67447424,-2.5294275
48.401062,176.0,110.0,110.0,3.0406885,11.554255,-1.256188,-0.8042134,0.4505318,0.66505563,0.72045213,-0.41938308,0.65633166,-0.34296945,0.57608265,-0.795582,-1.9287142,-1.1877779,2.0834658,1.694562,-0.9677481,0.64539844,-0.8570107,-2.0029674,-1.2578261,2.1099813,1.6449486,-0.9329715,-0.98934036,-1.6762153,-0.58972913,0.6283078,-1.8009428,1.8943052,0.075945616,-0.13627148,-0.51758957,0.7750581,-1.3901473,0.11840408,0.43901402,-0.14643955,-0.5747452,0.7242961,0.9149904,0.04626432,0.12667787,0.38026935,-1.1321291,0.058246337,-0.8277248,1.0,0.0,0.0,0.0,0.0,0.0,0.0,-0.5137285,0.11758956,-0.22505808,48.468315,-15.448451,74.02972,171.46077,-103.539825,116.95294,11.199126
-17.249798,176.0,75.98619,92.114456,6.4668665,5.3073273,-1.4463974,-0.80357414,-0.6163745,0.089664474,0.7524349,-0.56156504,0.60277265,-0.11360055,0.565041,-0.9186482,-1.9940009,-1.1825826,2.053825,1.7052258,-0.9443315,0.63547736,-0.87350357,-2.0036807,-1.2448218,2.0908048,1.6633526,-0.93252134,-0.99161196,-1.641285,0.10355405,1.5257748,-1.9610956,1.8289171,0.03757175,-0.1501627,-0.516407,0.77870053,-1.3887575,0.11828571,0.3393239,-0.15823746,-0.573246,0.7193214,0.9174561,0.039071407,0.13146292,0.37345025,-1.1911604,0.1900295,-0.39245898,1.0,0.0,0.0,0.0,0.0,0.0,0.0,-0.49983728,0.11640701,-0.22870052,0.19568205,3.209734,69.99682,90.12303,-17.243958,-4.653549,-2.9941366
-36.360996,158.08005,49.587524,67.17756,4.9993277,2.9983256,-1.2122432,-0.7766595,-0.48308614,-0.15122779,0.71359134,-0.62056404,0.59163535,0.16833863,0.55781144,-0.9218122,-2.0188036,-1.1734626,2.0287485,1.7225162,-0.9156875,0.6248649,-0.8878983,-2.0013309,-1.2267191,2.07254,1.6804634,-0.9320502,-1.0826578,-1.3732492,0.27877185,1.9066961,-1.784086,1.6757131,0.051028203,-0.16403961,-0.51522446,0.78134674,-1.387369,0.11816745,0.23973347,-0.17065334,-0.570652,0.71741945,0.9203954,0.029712457,0.13713433,0.36494341,-1.2555386,0.28982565,-0.13069454,1.0,0.0,0.0,0.0,0.0,0.0,0.0,-0.48596036,0.11522445,-0.23134673,-8.53734,26.481365,17.380857,38.584328,17.012669,-14.10203,1.5949957
-15.763672,135.49648,45.43854,39.12091,3.1238422,2.0610433,-0.33882234,-0.74820745,-0.56622636,0.3390218,0.7645069,-0.6062799,0.5850297,0.061672598,0.5500441,-0.94452095,-1.9674287,-1.1502684,2.011912,1.7389665,-0.925883,0.61314803,-0.89996994,-1.9967673,-1.207474,2.0568693,1.6957585,-0.93152475,-1.2005069,-1.1528679,0.51522213,1.9310789,-1.4978131,1.483163,0.053573158,-0.17790318,-0.5140419,0.7829978,-1.385982,0.118049316,0.14024264,-0.18323994,-0.5671501,0.7174315,0.9234888,0.019698557,0.14254011,0.35561597,-1.2583262,0.37838733,0.03648152,1.0,0.0,0.0,0.0,0.0,0.0,0.0,-0.4720968,0.114041895,-0.23299778,-11.530328,21.735977,23.607414,2.6221514,27.781105,-18.563986,0.41921586
-6.709446,96.998116,29.991718,17.734282,1.4046437,0.7916961,0.09294364,-0.74934787,-0.5515003,0.29959106,0.73180294,-0.61099595,0.5765109,0.016616015,0.53821325,-0.95511997,-1.9668082,-1.1342937,1.9957696,1.7534095,-0.92986315,0.60041744,-0.9103135,-1.9908316,-1.1894858,2.0438688,1.7092453,-0.9310174,-1.297274,-0.99553156,0.61946595,1.7548177,-1.2357295,1.3054731,0.049710903,-0.19175243,-0.51285934,0.78365475,-1.3845962,0.117931284,0.040851265,-0.19565296,-0.5630455,0.7182361,0.9265104,0.010026204,0.14712688,0.34616685,-1.2350597,0.43014804,0.08749114,1.0,0.0,0.0,0.0,0.0,0.0,0.0,-0.45824754,0.11285934,-0.23365474,-9.662843,15.54966,10.353446,-17.618347,25.6876,-17.317486,-0.3880851
4.6816072,75.891205,23.798306,7.499073,0.39004368,0.0690757,0.29739478,-0.7310224,-0.5240952,0.34505588,0.74432284,-0.61522335,0.55529785,-0.043506254,0.5273152,-0.962723,-1.956326,-1.1150535,1.9823464,1.7647752,-0.935368,0.5870889,-0.9195622,-1.984215,-1.1735041,2.0329359,1.7211262,-0.93060255,-1.3450491,-0.90184253,0.6758041,1.5457381,-1.0472376,1.1500355,0.038578153,-0.20558834,-0.5116844,0.7833185,-1.3832119,0.11781337,-0.058440734,-0.20767784,-0.55862045,0.7191657,0.92935956,0.0011430865,0.15085198,0.3369466,-1.1911039,0.45475864,0.088450305,1.0,0.0,0.0,0.0,0.0,0.0,0.0,-0.44441164,0.11168441,-0.23331851,-4.875374,9.238553,5.679536,-20.966673,18.405247,-15.200305,-1.1637614
11.150998,53.24584,16.157333,1.6730578,-0.11789635,-0.6288965,0.35873526,-0.6984448,-0.54047936,0.31872806,0.7290317,-0.6110586,0.5667512,-0.015409204,0.5172444,-0.97361016,-1.9523423,-1.100601,1.97183,1.7778013,-0.93214345,0.57370025,-0.9284028,-1.9775164,-1.1593554,2.0233457,1.7316452,-0.9302764,-1.3372558,-0.878378,0.66819704,1.3711205,-0.93078905,1.0200709,0.030425966,-0.21940994,-0.5105095,0.7819901,-1.3818289,0.11769558,-0.15763347,-0.21926594,-0.5541725,0.71977997,0.9320142,-0.006768905,0.15381536,0.32809222,-1.1472911,0.44907975,0.047451492,1.0,0.0,0.0,0.0,0.0,0.0,0.0,-0.43059003,0.110509485,-0.2319901,0.6537914,2.2660732,-0.66109896,-17.519045,11.3101845,-12.755442,-0.86964893
0.59027386,33.90824,5.708181,3.6091368,0.17635757,-1.0629965,0.15299366,-0.7125355,-0.5400739,0.18462175,0.7226024,-0.5922587,0.5383975,0.030812329,0.5024467,-0.9824102,-1.9590542,-1.0870951,1.9641198,1.785485,-0.92719513,0.5604833,-0.937291,-1.9717085,-1.1464503,2.0145528,1.7410084,-0.9299865,-1.3166379,-0.8924778,0.55157083,1.263735,-0.8623413,0.9090424,0.02842215,-0.2332182,-0.50933456,0.7796705,-1.3804474,0.1175779,-0.256727,-0.23067188,-0.5499344,0.7197461,0.93456924,-0.013456796,0.15622808,0.31936178,-1.1372659,0.42434648,-0.0244386,1.0,0.0,0.0,0.0,0.0,0.0,0.0,-0.41678178,0.10933456,-0.22967046,2.0063162,-1.440084,-11.699974,-10.694766,6.749904,-10.937012,-0.2262976
-6.8665175,26.251486,0.66637444,7.3074646,0.40615115,-1.2216194,-0.040768787,-0.6940661,-0.539512,0.07345224,0.74506056,-0.6270192,0.5580736,0.05829589,0.49107665,-0.99124223,-1.9643633,-1.0719442,1.9518509,1.7968158,-0.9241569,0.54757816,-0.94642437,-1.9676116,-1.1340277,2.0060651,1.7494179,-0.92968607,-1.2817647,-0.9203685,0.36197633,1.2355207,-0.8441581,0.8185734,0.030487755,-0.24701214,-0.50815964,0.7763607,-1.3790673,0.11746035,-0.3557215,-0.2421341,-0.5459862,0.7189283,0.93711674,-0.01877205,0.1584158,0.31042576,-1.1483837,0.39252248,-0.104484566,1.0,0.0,0.0,0.0,0.0,0.0,0.0,-0.40298784,0.10815963,-0.22636068,3.4926891,-2.804339,-19.059341,-2.680254,1.8482924,-8.932888,0.19104369
-23.677513,3.986422,-12.55099,9.311244,0.7147831,-1.5986235,-0.2638518,-0.69884145,-0.5797719,-0.21372604,0.7399378,-0.6254711,0.5496167,0.11848206,0.477694,-1.0044016,-1.9889841,-1.0600339,1.943518,1.8043796,-0.91783786,0.5349601,-0.95601165,-1.9665339,-1.1215785,1.9976091,1.757034,-0.9293151,-1.2549359,-0.9714308,0.021990074,1.2490854,-0.84500074,0.74253225,0.039239444,-0.26079273,-0.5069847,0.7720617,-1.3776885,0.11734291,-0.45461702,-0.25402832,-0.5424614,0.71698296,0.93977684,-0.02226123,0.16061102,0.30087864,-1.2017581,0.34615934,-0.22773272,1.0,0.0,0.0,0.0,0.0,0.0,0.0,-0.38920724,0.106984705,-0.2220617,2.7831793,-5.0887227,-34.30826,1.6428947,0.21281242,-7.5852633,0.87525475
-33.652348,5.535919,-14.598303,13.633854,0.9346388,-1.4451013,-0.37097922,-0.70620114,-0.5618711,-0.39986074,0.7703359,-0.638557,0.54528475,0.26388067,0.46433997,-1.0121988,-2.00652,-1.0445448,1.9337535,1.8115624,-0.90292704,0.5224984,-0.96596324,-1.9692843,-1.1087191,1.9890451,1.7639843,-0.9287505,-1.2427083,-1.0031077,-0.37518618,1.2997698,-0.8589425,0.6788603,0.062202014,-0.27455902,-0.5058098,0.76677155,-1.3763111,0.117225595,-0.5538074,-0.2665758,-0.539341,0.7138194,0.94259584,-0.023659922,0.16306667,0.2904524,-1.2705224,0.30893928,-0.3490068,1.0,0.0,0.0,0.0,0.0,0.0,0.0,-0.37544096,0.10580978,-0.21677154,1.4145613,-3.187251,-40.104,5.477977,-1.0312915,-6.40887,2.2744694
-25.320969,16.166973,-7.9348974,13.039953,0.79854685,-1.1224284,-0.25780737,-0.66590667,-0.58467674,-0.45786586,0.7924506,-0.62478983,0.5829472,0.2725901,0.45590776,-1.0244309,-2.015071,-1.029474,1.9265661,1.8222791,-0.9014915,0.5102704,-0.97622097,-1.9754775,-1.095257,1.9803686,1.7704045,-0.92795706,-1.2155366,-1.0336772,-0.7013823,1.3630741,-0.86974376,0.62953246,0.08488951,-0.28831196,-0.5046387,0.76049024,-1.374935,0.1171084,-0.65289855,-0.2796793,-0.536499,0.7096135,0.94550425,-0.02321861,0.16581835,0.27926114,-1.3209636,0.28441378,-0.44755992,1.0,0.0,0.0,0.0,0.0,0.0,0.0,-0.36168802,0.104638666,-0.21049023,2.889967,-3.1281233,-32.854176,6.713629,-0.86869,-5.033207,2.2258654
-10.536715,16.68315,-3.5641074,7.0784388,0.3209918,-1.0229564,-0.0059013963,-0.6113049,-0.65574086,-0.5406372,0.7831334,-0.62571895,0.6188904,0.30446634,0.44913992,-1.041795,-2.0295413,-1.0169437,1.9177967,1.8322935,-0.8975104,0.49852592,-0.98702323,-1.9843066,-1.0813162,1.9716005,1.7764279,-0.9269328,-1.1604552,-1.0959157,-0.9438922,1.405469,-0.87892044,0.59282213,0.1082145,-0.3020506,-0.5034714,0.75321877,-1.3735604,0.11699132,-0.75189066,-0.29310608,-0.5339165,0.70443076,0.9483867,-0.021294236,0.16866243,0.2676977,-1.3463335,0.25953305,-0.5449754,1.0,0.0,0.0,0.0,0.0,0.0,0.0,-0.3479494,0.10347137,-0.20321876,5.606985,-6.2945127,-24.345076,4.5497894,-0.81202984,-3.80553,2.30193
5.0482883,26.07447,4.318353,2.8220654,-0.005094707,-0.77254856,0.22497436,-0.5666312,-0.69187975,-0.550123,0.78078264,-0.60159594,0.6115024,0.3234768,0.4418628,-1.0562112,-2.0393188,-1.003238,1.911441,1.837578,-0.89458513,0.48747426,-0.99853694,-1.9946921,-1.0671275,1.9628267,1.7821347,-0.9256835,-1.0867834,-1.1700728,-1.0697595,1.4240277,-0.87705487,0.5627617,0.1303824,-0.31577587,-0.5023041,0.7449581,-1.3721871,0.116874345,-0.85078377,-0.30656433,-0.5315399,0.6984205,0.9511354,-0.018350165,0.17134833,0.25621137,-1.3417162,0.2400437,-0.6229358,0.0,1.0,0.0,0.0,0.0,0.0,0.0,-0.3342241,0.10230407,-0.19495809,7.3509693,-7.4903727,-12.475705,2.0390987,0.114929676,-3.1476855,2.2008703
19.158855,34.578743,10.896903,-1.2757819,-0.38441852,-0.59968746,0.42860126,-0.5151311,-0.7271921,-0.55395293,0.7619592,-0.5954339,0.60962874,0.34796923,0.43596116,-1.0712562,-2.0500875,-0.9909316,1.9032834,1.8430976,-0.89088655,0.47726804,-1.0108129,-2.0056536,-1.052973,1.9541025,1.787582,-0.92421865,-0.99895257,-1.247201,-1.1040351,1.4127587,-0.87170315,0.5381884,0.15175524,-0.3294878,-0.5011368,0.73570925,-1.3708152,0.11675749,-0.94957805,-0.31976414,-0.5293503,0.6917476,0.9536695,-0.014803493,0.17369454,0.24520521,-1.3083203,0.2219383,-0.68563604,0.0,1.0,0.0,0.0,0.0,0.0,0.0,-0.32051218,0.101136774,-0.18570924,8.656443,-7.7832937,-3.1447172,-1.0745049,0.30950308,-2.589488,2.1235049
27.479326,44.723923,16.0175,-2.5097778,-0.63145065,-0.4659077,0.5243458,-0.4652913,-0.7400533,-0.568761,0.75645214,-0.60960853,0.6053243,0.38445407,0.43073893,-1.0848182,-2.0625298,-0.9773278,1.8931416,1.8481145,-0.88577324,0.4679888,-1.0237371,-2.0166132,-1.0390265,1.945384,1.7928139,-0.92253923,-0.9049098,-1.3075948,-1.0918511,1.3883948,-0.8731197,0.5177182,0.17326477,-0.34318542,-0.49996948,0.72547317,-1.3694446,0.116640754,-1.0482736,-0.33247948,-0.5273323,0.6845745,0.9559429,-0.010913229,0.1756946,0.2349156,-1.2544352,0.20513922,-0.7314176,0.0,1.0,0.0,0.0,0.0,0.0,0.0,-0.30681455,0.09996948,-0.17547315,9.208822,-6.1227083,1.6253233,-2.481842,-0.4918337,-2.170658,2.1076322
48.200397,52.83497,21.798386,-8.318144,-1.4121096,-0.6842122,0.71733445,-0.33965683,-0.7584681,-0.5729396,0.7302436,-0.60574543,0.6030993,0.39964032,0.4340231,-1.0995839,-2.0739071,-0.9660021,1.8848095,1.8531238,-0.8825752,0.46001083,-1.0371495,-2.0273097,-1.0254462,1.9366465,1.7978665,-0.9206586,-0.763137,-1.3526771,-1.0608506,1.3471631,-0.8753097,0.5007946,0.19261706,-0.3568697,-0.49880219,0.7142509,-1.3680755,0.11652414,-1.1468705,-0.34437943,-0.52560425,0.6770107,0.9579013,-0.006839323,0.17738496,0.22563842,-1.1632161,0.17073013,-0.7685479,0.0,1.0,0.0,0.0,0.0,0.0,0.0,-0.29313028,0.09880218,-0.16425091,13.86174,-4.577422,3.633976,-4.338026,-0.66069365,-1.8030643,1.8340558
45.004982,51.389538,19.964115,-7.989438,-1.3808432,-0.7441703,0.69238627,-0.31317335,-0.779557,-0.6132785,0.6926,-0.5898562,0.55152786,0.41965201,0.4286935,-1.1151053,-2.0886376,-0.9561862,1.8776609,1.8530192,-0.8786934,0.4533585,-1.0509406,-2.03807,-1.0124797,1.9279008,1.802834,-0.918725,-0.6333989,-1.3880169,-1.0806773,1.2791419,-0.8730898,0.49612394,0.19399545,-0.3708067,-0.49581146,0.7082053,-1.3885477,0.35859314,-0.40529865,-0.3553915,-0.52425385,0.66896296,0.9595653,-0.0024678644,0.17881957,0.2173749,-1.0757302,0.13142847,-0.8208376,0.0,1.0,0.0,0.0,0.0,0.0,0.0,-0.27919328,0.09581146,-0.15820527,12.36614,-3.6464214,0.920105,-5.8366776,0.06980896,-2.1011412,1.687023
-21.785591,68.43031,13.969433,19.402668,1.2477958,0.4885381,-0.012895927,-0.54122806,-0.6961807,-0.6350034,0.7689629,-0.6947742,0.4857926,0.49306032,0.3992357,-1.1205587,-2.1015704,-0.93558335,1.8584234,1.8514132,-0.869419,0.4465836,-1.0645763,-2.0490258,-0.99964124,1.9188981,1.8076234,-0.9166126,-0.69212,-1.3559659,-1.0994633,1.2860363,-0.910978,0.47249743,0.21658266,-0.3846817,-0.49222565,0.70340794,-1.3871595,0.35823464,-0.5045383,-0.3662262,-0.5226898,0.6607915,0.9610658,0.0023342823,0.18043359,0.20926242,-1.0808064,0.17085645,-0.8197437,0.0,1.0,0.0,0.0,0.0,0.0,0.0,-0.26531827,0.09222564,-0.15340793,-5.839765,2.978301,-1.5159607,0.8567095,-4.2731643,-2.5239825,2.1501513
-52.675243,75.18802,10.346289,31.062508,2.3959365,1.0081261,-0.28914222,-0.5938205,-0.6635902,-0.6903431,0.76763535,-0.7049126,0.44662794,0.602323,0.38720155,-1.1309353,-2.11806,-0.9228777,1.8484068,1.8522862,-0.85638034,0.43863234,-1.0776416,-2.0604126,-0.9865721,1.9094872,1.8121533,-0.9141989,-0.8289484,-1.2910082,-1.1508421,1.3150084,-0.95308065,0.44577983,0.24923524,-0.3985424,-0.48864746,0.69762737,-1.3857726,0.3578765,-0.6025556,-0.37741756,-0.5204811,0.65274686,0.9624734,0.0077424375,0.18254225,0.20065732,-1.126694,0.24592708,-0.8030454,0.0,1.0,0.0,0.0,0.0,0.0,0.0,-0.25145757,0.088647455,-0.14762735,-13.534439,6.197667,-4.7998667,3.207302,-4.735458,-2.870506,3.1442256
-65.67734,75.82233,7.952877,34.887737,2.8442528,1.2179391,-0.3855998,-0.64854777,-0.6473391,-0.72799796,0.7618397,-0.7149776,0.4164348,0.6152696,0.37377757,-1.1423755,-2.1332123,-0.9103881,1.8379894,1.8537968,-0.8526719,0.42909035,-1.0900241,-2.0724366,-0.9732025,1.8996758,1.8164105,-0.91146755,-0.9953396,-1.221714,-1.2187058,1.3456616,-0.9923453,0.4179103,0.28084084,-0.41238976,-0.48506927,0.69086736,-1.384387,0.35751873,-0.70047486,-0.3891945,-0.5173874,0.64486676,0.9637993,0.013882974,0.18520014,0.19130875,-1.1891392,0.33643588,-0.78630626,0.0,1.0,0.0,0.0,0.0,0.0,0.0,-0.23761022,0.08506927,-0.14086735,-16.455555,6.5935373,-6.4287663,3.4581423,-4.488659,-3.0498743,3.0508816
-51.579285,74.4354,9.658967,29.032848,2.3135867,1.0801964,-0.2234644,-0.6506962,-0.6370682,-0.7379833,0.74854654,-0.71715885,0.4357874,0.61898583,0.36402074,-1.153731,-2.146235,-0.89834785,1.82796,1.8599893,-0.84956896,0.4181789,-1.1018134,-2.0850708,-0.9596537,1.8895478,1.8204274,-0.9084482,-1.1227425,-1.1657482,-1.2768841,1.3590717,-1.0214422,0.39526084,0.3085805,-0.42622375,-0.48149872,0.6831289,-1.3830029,0.3571613,-0.7982962,-0.401433,-0.51350784,0.6370991,0.96499825,0.02073483,0.18828543,0.18137497,-1.2294911,0.41480285,-0.77658826,0.0,1.0,0.0,0.0,0.0,0.0,0.0,-0.22377622,0.08149871,-0.13312888,-12.640882,5.282283,-5.377364,1.6487122,-3.5148382,-2.5643528,2.6560724
-35.750374,70.07812,10.83934,22.357388,1.7650868,0.85616016,-0.057150096,-0.6698969,-0.6407014,-0.75147665,0.74364585,-0.71902704,0.4299439,0.6119922,0.3511892,-1.1658835,-2.1602185,-0.8852891,1.8176451,1.8634218,-0.84724903,0.40631709,-1.1132385,-2.098182,-0.9460762,1.87921,1.8242421,-0.9051895,-1.207216,-1.1355301,-1.3207607,1.358083,-1.0400131,0.37570664,0.3312685,-0.44004345,-0.47792816,0.67439973,-1.3816202,0.35680425,-0.89777726,-0.41392326,-0.50896454,0.62933016,0.96602845,0.028213069,0.1915879,0.17113483,-1.2495229,0.47604126,-0.7794994,0.0,1.0,0.0,0.0,0.0,0.0,0.0,-0.20995653,0.077928156,-0.12439972,-8.42247,2.749896,-3.904438,0.127244,-2.459526,-2.270317,2.1564424
-15.979805,70.164665,14.083261,15.741791,1.1505702,0.6606246,0.115551315,-0.6632855,-0.62774605,-0.75273925,0.7425299,-0.71691793,0.45454475,0.6190973,0.33998853,-1.1760131,-2.173456,-0.8718232,1.8075182,1.8696966,-0.8432798,0.394007,-1.1244538,-2.1116662,-0.9325938,1.8690238,1.8279358,-0.9016434,-1.2392462,-1.1175569,-1.3555593,1.3450733,-1.0154623,0.36779687,0.36003932,-0.45254517,-0.47406387,0.6669325,-1.2198684,0.39023593,-0.6933899,-0.426445,-0.50395966,0.6214986,0.966867,0.036142457,0.19485246,0.16091707,-1.2464665,0.5188927,-0.7867822,0.0,1.0,0.0,0.0,0.0,0.0,0.0,-0.19745481,0.07406387,-0.11693251,-3.376007,1.5750408,-2.0324707,-0.98187923,-0.95341206,-1.4706135,1.8192947
-5.9408116,70.45317,16.255753,12.840674,1.0871743,0.63108325,0.17567454,-0.67973363,-0.63107085,-0.7176512,0.7449932,-0.6814306,0.46603495,0.62435955,0.32603362,-1.1875609,-2.1834314,-0.8580945,1.8008808,1.8745393,-0.8392074,0.3815381,-1.1355965,-2.125135,-0.91922396,1.8590127,1.8315649,-0.8979098,-1.2498705,-1.1140605,-1.3420987,1.3342425,-0.99814636,0.3603178,0.37741372,-0.4645319,-0.47010422,0.6598807,-1.1903245,0.39790025,-0.7058071,-0.4388342,-0.49858475,0.6136327,0.9675118,0.04428411,0.1979702,0.15088905,-1.2293429,0.5533756,-0.788801,0.0,1.0,0.0,0.0,0.0,0.0,0.0,-0.18546808,0.07010421,-0.109880686,-1.190877,0.15547276,1.9577026,-1.0841131,1.0834575,-1.0290205,1.602608
3.1143794,71.09384,17.757196,10.061964,0.81815606,0.5212549,0.24386223,-0.67267287,-0.6263056,-0.71449226,0.7316737,-0.6824859,0.40019113,0.6270277,0.3142708,-1.198227,-2.1965842,-0.8460566,1.7907641,1.871584,-0.83520705,0.3691116,-1.1467373,-2.1383588,-0.9060037,1.849147,1.8350844,-0.8940305,-1.2408195,-1.1146603,-1.3134234,1.3176877,-0.9847353,0.3484434,0.39103556,-0.4761858,-0.4661026,0.6527079,-1.1559416,0.4002418,-0.7172343,-0.4509554,-0.49295807,0.605748,0.9679655,0.05253622,0.2008779,0.14117636,-1.1995969,0.57677364,-0.79026353,0.0,1.0,0.0,0.0,0.0,0.0,0.0,-0.17381418,0.066102594,-0.10270786,0.73456764,-0.22773743,3.51367,-1.7308474,0.6656289,-1.4431536,1.2095392
16.129995,72.35478,20.07461,6.6848135,0.5137821,0.31606305,0.31763643,-0.6284583,-0.62861276,-0.69287986,0.7319249,-0.65694493,0.3175652,0.6348921,0.30626577,-1.2095987,-2.2076468,-0.83281124,1.7834525,1.866841,-0.8305413,0.3570218,-1.1579125,-2.1511977,-0.89292276,1.8394638,1.8384329,-0.8900282,-1.1991066,-1.1189413,-1.2716713,1.3042121,-0.9648792,0.32966796,0.40286958,-0.4874506,-0.46211624,0.64544934,-1.1150239,0.39757797,-0.7245099,-0.4626751,-0.4872017,0.5978697,0.9682356,0.060805123,0.20352198,0.13191362,-1.155423,0.5833059,-0.7889392,0.0,1.0,0.0,0.0,0.0,0.0,0.0,-0.16254938,0.062116235,-0.09544933,3.947258,-0.565815,4.862499,-1.5213728,1.2998581,-2.126366,1.0273278
23.444237,75.16639,22.053642,5.5348268,0.517756,0.20469242,0.3351462,-0.60179865,-0.6281312,-0.64512736,0.7273227,-0.6144812,0.2015045,0.6437607,0.29684195,-1.2207257,-2.2157104,-0.8201905,1.7780157,1.8585833,-0.8256521,0.34546128,-1.1691291,-2.1634572,-0.8799629,1.8300803,1.8415235,-0.8859173,-1.1425289,-1.1228571,-1.2084802,1.2924486,-0.93165797,0.30133966,0.41345116,-0.49828148,-0.45819473,0.6381699,-1.0705194,0.38955137,-0.725006,-0.4739046,-0.48145676,0.59006065,0.96835303,0.06896448,0.20582463,0.12317607,-1.1051939,0.58042634,-0.7800234,0.0,1.0,0.0,0.0,0.0,0.0,0.0,-0.1517185,0.058194727,-0.08816987,5.402279,-0.5168438,7.05719,-1.4059544,2.5951862,-3.0992508,0.9222448
15.4817,75.11733,20.296516,8.115233,0.8375715,0.17525274,0.25874597,-0.6188254,-0.62405187,-0.6336216,0.71557283,-0.5974757,-0.012979343,0.6473035,0.28357875,-1.2315344,-2.2268193,-0.80840564,1.7703327,1.8402256,-0.82118696,0.3343003,-1.1803558,-2.1751328,-0.86713564,1.8210337,1.8441834,-0.8817112,-1.1080027,-1.1231548,-1.1516885,1.2789328,-0.8977874,0.25331685,0.42264214,-0.5086994,-0.45435333,0.6308622,-1.0303779,0.3820276,-0.72875035,-0.48472595,-0.4757042,0.5823453,0.9683553,0.07706484,0.20773768,0.11486511,-1.0675594,0.58215296,-0.77052575,0.0,1.0,0.0,0.0,0.0,0.0,0.0,-0.14130056,0.054353327,-0.080862164,3.237152,-0.16834736,6.391382,-1.5129805,2.656734,-5.084199,0.8099258
25.863752,81.27852,23.88693,6.663822,0.8953109,0.08449793,0.28536996,-0.5610188,-0.6163264,-0.5383797,0.6985394,-0.516661,-0.1967203,0.63969916,0.27819842,-1.2419884,-2.2289708,-0.7972817,1.7693676,1.8245114,-0.8177413,0.3236143,-1.1915386,-2.1859462,-0.8544972,1.8125124,1.8462552,-0.87742984,-1.0563586,-1.117042,-1.0552781,1.2579346,-0.83933,0.19094111,0.42964047,-0.51866055,-0.45062637,0.62361616,-0.9828299,0.36903903,-0.71922797,-0.4950943,-0.47000504,0.5748357,0.9682928,0.08495439,0.20914422,0.10700711,-1.0198325,0.5732992,-0.7460995,0.0,1.0,0.0,0.0,0.0,0.0,0.0,-0.13133943,0.050626367,-0.07361615,4.897356,0.48549175,10.454726,-2.3541212,5.017066,-6.517416,0.58863163
34.30545,79.69967,25.461735,3.784536,1.0050263,0.028893769,0.3253078,-0.52804637,-0.63925505,-0.4177715,0.65509564,-0.4059005,-0.31822896,0.6309184,0.27080965,-1.2554641,-2.2277234,-0.78898764,1.7719223,1.8144323,-0.814338,0.31349382,-1.2027633,-2.1953828,-0.84223837,1.8048376,1.8476568,-0.87309325,-0.99822515,-1.1246542,-0.9038447,1.214199,-0.74596447,0.12249197,0.4347995,-0.5281353,-0.44705582,0.6164741,-0.9341,0.3523228,-0.7091015,-0.5049515,-0.46445465,0.567597,0.9682577,0.092320964,0.20978925,0.09971047,-0.96827763,0.5565444,-0.7180887,0.0,1.0,0.0,0.0,0.0,0.0,0.0,-0.12186468,0.04705581,-0.06647408,5.534065,-0.86181164,15.977133,-4.6514034,8.4875345,-7.1167736,0.45210123
41.136868,87.33232,29.714052,3.6949205,1.5209584,0.20431224,0.30347985,-0.507103,-0.63349193,-0.22291468,0.6118607,-0.26193175,-0.37377498,0.6264556,0.26278353,-1.2661126,-2.2176743,-0.7810523,1.7786444,1.8102794,-0.8104477,0.30392745,-1.2140491,-2.2026184,-0.8305729,1.7984228,1.8483942,-0.86871403,-0.94375193,-1.1301798,-0.6605582,1.1495554,-0.6094968,0.056748062,0.43894678,-0.53707314,-0.44367218,0.60956335,-0.8787358,0.33297345,-0.6817042,-0.5142565,-0.4590454,0.5608172,0.96837854,0.098636605,0.20941299,0.09305934,-0.9118131,0.5407583,-0.6662055,0.0,1.0,0.0,0.0,0.0,0.0,0.0,-0.11292684,0.043672174,-0.05956334,5.1514506,-0.6511688,25.262796,-6.7727804,12.69455,-6.834099,0.38955212
45.449024,105.469604,38.331745,7.5972257,3.1991916,0.7662612,0.13497283,-0.51479894,-0.63586533,0.18846205,0.56770015,0.066828646,-0.34823355,0.633804,0.25244755,-1.2776356,-2.183772,-0.7738029,1.8051057,1.8135709,-0.8053336,0.29472253,-1.2253921,-2.20586,-0.8196646,1.7941847,1.8485614,-0.86428726,-0.9137031,-1.135934,-0.20798571,1.0701562,-0.36554778,0.0025392147,0.44418988,-0.5453825,-0.44047165,0.60321957,-0.8137638,0.31493998,-0.61587673,-0.52302074,-0.45365143,0.5549999,0.96891445,0.10272439,0.20754209,0.0870562,-0.85909194,0.5455904,-0.5549047,0.0,1.0,0.0,0.0,0.0,0.0,0.0,-0.10461748,0.040471643,-0.053219557,2.7174592,-0.69539547,46.375458,-8.246636,23.254955,-5.6708393,0.5856931
49.36644,107.41275,40.60663,6.933884,3.9554682,0.8873846,0.06770282,-0.49578935,-0.6501597,0.4413414,0.4838197,0.39539602,-0.3874575,0.6211961,0.24514359,-1.2904081,-2.1617258,-0.7712826,1.8337243,1.8098156,-0.80216765,0.2857661,-1.2368438,-2.2039711,-0.80978435,1.7931092,1.8482257,-0.85982174,-0.8902322,-1.1486679,0.32438365,0.96001637,-0.024973042,-0.046233073,0.4475601,-0.5530443,-0.4374504,0.5976011,-0.74963707,0.29723847,-0.54210967,-0.5312996,-0.44815063,0.55041564,0.9700937,0.10370516,0.20368983,0.08169325,-0.8133834,0.55684996,-0.42799783,0.0,1.0,0.0,0.0,0.0,0.0,0.0,-0.09695566,0.037450403,-0.047601104,2.1528482,-1.4129877,54.267334,-11.222458,33.012623,-5.0713534,0.4064083
43.384674,95.07499,33.74549,5.810759,3.3373334,0.45650226,0.04895312,-0.45145607,-0.6435103,0.4098157,0.45305112,0.5466153,-0.46056324,0.60253775,0.2406205,-1.3011949,-2.1629896,-0.7644792,1.8477707,1.8021694,-0.79956794,0.27716252,-1.2483757,-2.197967,-0.800939,1.795437,1.8474096,-0.8553472,-0.85066706,-1.1552707,0.69491917,0.8592197,0.3163463,-0.09368024,0.4474251,-0.5601454,-0.43461227,0.59254867,-0.69722235,0.27959302,-0.4933925,-0.53922176,-0.44259262,0.5468138,0.9718777,0.10191427,0.19789715,0.07683735,-0.7817879,0.56018394,-0.3397358,0.0,1.0,0.0,0.0,0.0,0.0,0.0,-0.0898546,0.03461227,-0.042548656,3.874135,-0.8052349,37.758183,-10.115314,33.449745,-4.8449354,0.010108948
47.616882,97.91146,31.929832,5.267579,2.2561812,0.12414962,0.10915409,-0.37117484,-0.58738124,0.44523656,0.44043073,0.5941952,-0.40076756,0.6129604,0.24004504,-1.3071138,-2.1534433,-0.75689596,1.8548565,1.8073329,-0.7940512,0.26926714,-1.2596824,-2.1894464,-0.79288566,1.8006784,1.8462251,-0.8508723,-0.7693259,-1.1230857,0.9062653,0.7876562,0.5914997,-0.12661742,0.44741866,-0.5666723,-0.43200684,0.5880361,-0.6392108,0.2544191,-0.44003117,-0.54673386,-0.43715286,0.5439676,0.97404015,0.09809583,0.19072634,0.07243272,-0.7393352,0.5430772,-0.26888993,0.0,1.0,0.0,0.0,0.0,0.0,0.0,-0.08332765,0.03200683,-0.038036108,8.081711,3.061676,21.710169,-7.0809364,27.03336,-3.2689066,-0.01912117
38.80785,99.24146,28.523642,7.23939,1.5987171,0.058584213,0.14480673,-0.3646411,-0.5404906,0.49526954,0.37779266,0.63778,-0.3671105,0.60977226,0.23280303,-1.3137314,-2.1399195,-0.7551064,1.8644564,1.809514,-0.78989506,0.26212513,-1.2704265,-2.179671,-0.7855648,1.8080975,1.8447893,-0.84639925,-0.69587535,-1.0586177,1.0026648,0.7141547,0.7908773,-0.14883578,0.44718504,-0.57262135,-0.4296608,0.5840497,-0.58217007,0.22892447,-0.38927642,-0.55380917,-0.43190384,0.54170793,0.9763569,0.092974,0.18275395,0.068439156,-0.69606864,0.5242172,-0.21449427,0.0,1.0,0.0,0.0,0.0,0.0,0.0,-0.07737863,0.029660791,-0.03404969,7.332444,6.305909,9.997392,-7.185328,19.698095,-2.09257,-0.016731024
44.431343,93.53931,26.83987,2.981437,0.6776238,-0.07112369,0.31307518,-0.31148717,-0.53125507,0.58631283,0.29108098,0.6762767,-0.33313495,0.5970346,0.23097642,-1.323552,-2.1210399,-0.7564567,1.8757252,1.8114758,-0.7866958,0.25578046,-1.2805427,-2.1691673,-0.7791755,1.8170198,1.8431971,-0.84193844,-0.6140346,-0.9962753,1.0675411,0.6145959,0.92501956,-0.16195348,0.44581804,-0.5779896,-0.42759705,0.5805288,-0.5241198,0.19969842,-0.3450543,-0.5603504,-0.42696,0.53984326,0.9786904,0.086973935,0.17428333,0.06500784,-0.6395942,0.48951074,-0.18011001,0.0,1.0,0.0,0.0,0.0,0.0,0.0,-0.0720104,0.02759704,-0.030528784,8.17008,6.0903788,6.8027735,-9.764743,13.240886,-1.1174619,-0.11044741
46.33584,88.0506,24.781424,-1.1392778,-0.13873452,-0.077932656,0.5075823,-0.2898377,-0.49301085,0.61789805,0.1497915,0.7012696,-0.25331637,0.5785852,0.22679669,-1.3298438,-2.1073775,-0.7641964,1.8871468,1.8178655,-0.7840799,0.25015813,-1.2900032,-2.1582015,-0.7742501,1.8269066,1.8415613,-0.8375034,-0.5450039,-0.9296545,1.1072687,0.45270777,1.0091997,-0.16311315,0.44292587,-0.58278084,-0.42583466,0.57737625,-0.4665651,0.1693082,-0.31120932,-0.5662279,-0.42243576,0.5381745,0.9809516,0.08040126,0.16545968,0.062390514,-0.57042474,0.4449471,-0.16556495,0.0,1.0,0.0,0.0,0.0,0.0,0.0,-0.06721914,0.02583465,-0.027376235,6.8951607,6.5247655,4.1612387,-15.983343,8.366787,0.15979111,-0.22525787
52.277016,81.89389,23.63313,-4.8710966,-0.74298173,-0.20459092,0.61094135,-0.22829677,-0.48054776,0.64616925,0.084294215,0.71656656,-0.1627275,0.5648944,0.22732845,-1.338058,-2.0935845,-0.7658207,1.8985633,1.8252885,-0.78101397,0.24530573,-1.2989023,-2.1468964,-0.7710032,1.837366,1.8399994,-0.83310556,-0.4652912,-0.87716585,1.138913,0.2829295,1.0577747,-0.15283665,0.4390334,-0.58700943,-0.4243889,0.57449806,-0.4106647,0.13714013,-0.2859897,-0.5713539,-0.4184456,0.5365473,0.9830883,0.073419645,0.1563798,0.06076312,-0.4939981,0.38704953,-0.16484673,0.0,1.0,0.0,0.0,0.0,0.0,0.0,-0.062990546,0.02438888,-0.024498045,7.979059,5.116546,3.3008575,-16.744041,4.865718,1.3284564,-0.28478503
55.981243,76.99404,21.97056,-9.478357,-1.5367817,-0.28759557,0.810241,-0.2040579,-0.43305147,0.6228499,-0.106384285,0.7148867,-0.13115238,0.56392807,0.22489995,-1.3422074,-2.0846114,-0.7816416,1.9088546,1.8268842,-0.7767128,0.24117516,-1.307226,-2.135508,-0.76995945,1.8481088,1.8385708,-0.8287438,-0.395587,-0.81786406,1.1387694,0.045711964,1.0798165,-0.13837974,0.43572733,-0.5906887,-0.423275,0.571771,-0.35571235,0.10346948,-0.27379403,-0.5756197,-0.41514206,0.53479576,0.98505366,0.066281386,0.14707902,0.060362693,-0.40473193,0.3159864,-0.1814017,0.0,1.0,0.0,0.0,0.0,0.0,0.0,-0.05931127,0.023274988,-0.021771014,6.9939256,5.8059096,-0.025868416,-23.45922,2.3426056,1.8047094,-0.17423034
64.77382,63.685204,19.461437,-16.157896,-2.2958612,-0.4993827,0.9742844,-0.1428351,-0.4465499,0.62224436,-0.25084084,0.7254313,-0.02392988,0.5703619,0.22689165,-1.3518809,-2.0732837,-0.7950435,1.9206519,1.8361778,-0.77170765,0.23782702,-1.3151662,-2.12421,-0.7715209,1.8589783,1.8373591,-0.8244054,-0.31444222,-0.7866475,1.1267518,-0.22241512,1.0895298,-0.11444419,0.43395865,-0.59385777,-0.42250824,0.56897295,-0.30549178,0.06931774,-0.28604397,-0.5789318,-0.4126625,0.5326827,0.9868271,0.059147954,0.13747652,0.061433375,-0.3072709,0.22699451,-0.22365886,0.0,1.0,0.0,0.0,0.0,0.0,0.0,-0.05614221,0.022508234,-0.018972933,8.155525,2.9977798,-1.2687445,-26.519331,1.1263609,2.7117,0.05106926
58.320797,48.45814,15.047252,-16.744331,-2.2019467,-0.6197569,0.9012065,-0.115106784,-0.48808864,0.62022704,-0.3292156,0.7366791,0.038396463,0.5695141,0.22631633,-1.363975,-2.0621872,-0.80444247,1.9326462,1.8411987,-0.76745397,0.23523144,-1.3231409,-2.1130538,-0.7755494,1.8699013,1.8364176,-0.8200842,-0.24101777,-0.8013566,1.111276,-0.46194577,1.0936689,-0.08670041,0.43241748,-0.5966244,-0.4220581,0.5658097,-0.2679542,0.037617702,-0.3289285,-0.5813894,-0.41103363,0.5299696,0.9884119,0.052081913,0.12744375,0.063933395,-0.22603899,0.14302042,-0.28890753,0.0,1.0,0.0,0.0,0.0,0.0,0.0,-0.0533756,0.0220581,-0.015809715,7.411048,-1.5763998,-1.6791344,-23.644161,0.58174133,2.9939027,0.10820031
23.140863,61.056065,14.681738,1.3241296,-0.22295001,-0.25335228,0.29641965,-0.12504373,-0.47160706,0.618732,-0.19240385,0.7321435,0.16943525,0.578226,0.22272708,-1.3703016,-2.0511806,-0.7947898,1.9431157,1.8533611,-0.7622616,0.2331212,-1.3312814,-2.1020489,-0.7806525,1.8808097,1.8358184,-0.8157698,-0.20061585,-0.8181332,1.0959047,-0.5254097,1.0911108,-0.05038973,0.4320596,-0.5991192,-0.42178726,0.56234336,-0.24361277,0.023349537,-0.35306877,-0.583416,-0.40984344,0.52685845,0.9898089,0.044987787,0.117250755,0.067131326,-0.19529836,0.11254704,-0.31956258,0.0,1.0,0.0,0.0,0.0,0.0,0.0,-0.05088079,0.021787256,-0.012343347,4.1633515,-1.6789198,-1.8533468,-6.066078,0.10457039,3.8297563,0.24386048
23.71875,62.071358,14.879599,1.2335541,-0.31596023,-0.3467437,0.27591088,-0.07553568,-0.46776545,0.5895409,-0.31796038,0.7369757,0.10277627,0.5579619,0.22556764,-1.378058,-2.0430949,-0.81244856,1.9545072,1.846096,-0.7599736,0.23144965,-1.3395612,-2.0912952,-0.78633064,1.8916963,1.8355039,-0.81147254,-0.15557103,-0.83122265,1.0672119,-0.58090675,1.0890956,-0.02469215,0.42992532,-0.6013851,-0.42166138,0.5586287,-0.21989834,0.010074456,-0.37728706,-0.5851412,-0.4089775,0.5234482,0.9910127,0.03789826,0.107006505,0.070760615,-0.16504815,0.07882197,-0.3491731,0.0,1.0,0.0,0.0,0.0,0.0,0.0,-0.04861486,0.021661371,-0.008628666,4.632375,-1.3023376,-3.1951904,-5.259311,0.17633438,2.7463224,0.06981492
10.071041,77.817825,17.388645,9.578968,0.3791003,-0.101692304,0.061602734,-0.07617001,-0.4239411,0.5676437,-0.29471886,0.7280125,0.16993922,0.55977875,0.22383265,-1.3819554,-2.0345309,-0.8158025,1.9644976,1.8524978,-0.75549465,0.23009971,-1.3477209,-2.0809076,-0.79217565,1.902545,1.8354619,-0.80719435,-0.12762128,-0.8105244,1.028002,-0.5847232,1.0853518,0.003306155,0.42802778,-0.60343075,-0.42163467,0.5548686,-0.19913827,0.00092864636,-0.3747865,-0.5866585,-0.40828323,0.5199629,0.99201524,0.030833693,0.09693076,0.074561335,-0.14722459,0.06621346,-0.34901664,0.0,1.0,0.0,0.0,0.0,0.0,0.0,-0.04656923,0.021634668,-0.004868567,2.948895,2.132988,-4.3699503,-0.09995699,0.15366077,3.0339987,0.08461475
17.417118,78.97447,18.683134,7.5350595,0.087209865,-0.23348755,0.09359178,-0.018738257,-0.4318758,0.55950797,-0.30811542,0.71916074,0.15979229,0.55546385,0.22822589,-1.3909085,-2.0249567,-0.8229872,1.9744611,1.851441,-0.75164795,0.22918321,-1.3556745,-2.070882,-0.79797006,1.9133385,1.8356603,-0.80293626,-0.079166956,-0.78994936,0.9927848,-0.5768216,1.0791072,0.026262483,0.4258621,-0.6052551,-0.42170334,0.55116206,-0.17679773,-0.009487235,-0.36813694,-0.5879545,-0.40779877,0.516502,0.9928174,0.023785004,0.08710723,0.078486964,-0.12374869,0.042804044,-0.34578913,0.0,1.0,0.0,0.0,0.0,0.0,0.0,-0.04474485,0.021703333,-0.0011620522,4.9952955,2.1163821,-3.9254308,1.0715008,-0.12800694,2.555423,0.039041042
9.114805,85.48755,19.545912,11.63467,0.41667882,-0.116582856,-0.01269842,-0.021163223,-0.40074372,0.52997464,-0.28093645,0.71305865,0.18531696,0.55363166,0.22706689,-1.3957489,-2.0178847,-0.8260637,1.9846444,1.854192,-0.7475731,0.22865558,-1.3633058,-2.0612533,-0.8035167,1.9240599,1.8360761,-0.7986999,-0.043450795,-0.75388074,0.9512674,-0.5464406,1.0717336,0.047703426,0.4237013,-0.6068764,-0.42184448,0.5476068,-0.15725157,-0.01553939,-0.35018462,-0.58907795,-0.4074707,0.51316947,0.9934276,0.016768184,0.07763376,0.08242264,-0.10849331,0.031143872,-0.3299127,0.0,1.0,0.0,0.0,0.0,0.0,0.0,-0.043123603,0.021844476,0.002393186,3.7237287,3.6885738,-4.5870543,3.3024669,-0.19676685,2.419004,0.027537346
9.971122,106.20542,24.479286,14.432946,0.22285509,-0.052852094,-0.0013433378,0.0069910884,-0.2873179,0.4588058,-0.28628916,0.7045541,0.1592979,0.55789036,0.22935468,-1.3920376,-2.0153728,-0.8321456,1.9945153,1.852006,-0.74291086,0.22850442,-1.3700979,-2.0522923,-0.8088009,1.9347157,1.8366636,-0.79447895,-0.005091231,-0.65382695,0.87589335,-0.5214045,1.0657585,0.06356187,0.4223224,-0.608263,-0.42204666,0.54449236,-0.13259844,-0.021602795,-0.29754668,-0.5899687,-0.4072647,0.51024157,0.9938408,0.009903543,0.06876706,0.086332545,-0.082746476,0.016790034,-0.28112695,0.0,1.0,0.0,0.0,0.0,0.0,0.0,-0.04173696,0.022046655,0.005507648,4.0057397,10.114145,-8.0439205,2.7864218,0.06554127,1.9450321,0.09485483
