Afshin1997/kuka_rl_ros2/src/catch_and_throw/input_files/idealpd/polynomial_regressor/optimizer_files/env_42_data.csv
torque0,torque1,torque2,torque3,torque4,torque5,torque6,action0,action1,action2,action3,action4,action5,action6,set_target_0,set_target_1,set_target_2,set_target_3,set_target_4,set_target_5,set_target_6,joint_pos_0,joint_pos_1,joint_pos_2,joint_pos_3,joint_pos_4,joint_pos_5,joint_pos_6,joint_vel_0,joint_vel_1,joint_vel_2,joint_vel_3,joint_vel_4,joint_vel_5,joint_vel_6,tennisball_pos_0,tennisball_pos_1,tennisball_pos_2,tennisball_lin_vel_0,tennisball_lin_vel_1,tennisball_lin_vel_2,end_effector_pos_0,end_effector_pos_1,end_effector_pos_2,end_effector_rot_0,end_effector_rot_1,end_effector_rot_2,end_effector_rot_3,end_effector_lin_vel_0,end_effector_lin_vel_1,end_effector_lin_vel_2,obs_task_0,obs_task_1,obs_task_2,obs_task_3,obs_task_4,obs_task_5,obs_task_6,to_final_target_0,to_final_target_1,to_final_target_2,joint_acc_0,joint_acc_1,joint_acc_2,joint_acc_3,joint_acc_4,joint_acc_5,joint_acc_6
0.0,0.0,0.0,0.0,0.0,0.0,0.0,0.0,0.0,0.0,0.0,0.0,0.0,0.0,1.7802359,-1.0646509,-1.8151424,-1.1170107,1.9373155,1.1170107,-0.91629785,1.7802359,-1.0646509,-1.8151424,-1.1170107,1.9373155,1.1170107,-0.91629785,0.0,0.0,0.0,0.0,0.0,0.0,0.0,3.158043,-0.5901642,0.21237993,-4.0596294,-0.18713966,5.1941013,0.5304184,-0.45448303,0.693097,0.5745483,0.17512383,0.15255436,0.7848268,0.0,0.0,0.0,1.0,0.0,0.0,0.0,0.0,0.0,0.0,-3.808043,0.19016418,0.33762008,0.0,0.0,0.0,0.0,0.0,0.0,0.0
0.0,0.0,0.0,0.0,0.0,0.0,0.0,0.0,0.0,0.0,0.0,0.0,0.0,0.0,1.7802359,-1.0646509,-1.8151424,-1.1170107,1.9373155,1.1170107,-0.91629785,1.7802359,-1.0646509,-1.8151424,-1.1170107,1.9373155,1.1170107,-0.91629785,0.0,0.0,0.0,0.0,0.0,0.0,0.0,3.158043,-0.5901642,0.21237993,-4.0596294,-0.18713966,5.1941013,0.5304184,-0.45448303,0.693097,0.5745483,0.17512383,0.15255436,0.7848268,0.0,0.0,0.0,1.0,0.0,0.0,0.0,0.0,0.0,0.0,-3.808043,0.19016418,0.33762008,0.0,0.0,0.0,0.0,0.0,0.0,0.0
0.0,0.0,0.0,0.0,0.0,0.0,0.0,0.0,0.0,0.0,0.0,0.0,0.0,0.0,1.7802359,-1.0646509,-1.8151424,-1.1170107,1.9373155,1.1170107,-0.91629785,1.7802359,-1.0646509,-1.8151424,-1.1170107,1.9373155,1.1170107,-0.91629785,0.0,0.0,0.0,0.0,0.0,0.0,0.0,3.158043,-0.5901642,0.21237993,-4.0596294,-0.18713966,5.1941013,0.5304184,-0.45448303,0.693097,0.5745483,0.17512383,0.15255436,0.7848268,0.0,0.0,0.0,1.0,0.0,0.0,0.0,0.0,0.0,0.0,-3.808043,0.19016418,0.33762008,0.0,0.0,0.0,0.0,0.0,0.0,0.0
-176.0,52.26212,-12.428276,110.0,9.773864,4.110364,-4.0006747,-0.7778974,0.25380355,-0.54633427,0.75614154,-0.26387984,0.695445,-0.54361427,1.7024461,-1.0392705,-1.8697758,-1.0413966,1.9109275,1.1865553,-0.97065926,1.7789923,-1.0629534,-1.8206489,-1.1118628,1.9400029,1.1217867,-0.91746515,-0.1656894,0.22576025,-0.73399544,0.6868025,0.35767,0.63554966,-0.15529819,3.1174774,-0.592041,0.2635455,-4.0555706,-0.18695255,5.090722,0.52845764,-0.4576187,0.6936937,0.5783387,0.1735514,0.15187947,0.78251946,-0.26139233,-0.41485184,0.07936357,1.0,0.0,0.0,0.0,0.0,0.0,0.0,-3.7674775,0.19204101,0.2864545,-16.474842,22.40565,-73.3152,68.8029,35.619675,63.198322,-15.432447
-176.0,-45.768734,-52.863937,110.0,10.461695,0.6695928,-3.5631154,-0.7638688,-0.23205662,-0.59285486,0.7352089,-0.38493878,0.67990404,-0.5102061,1.7026054,-1.086159,-1.8799344,-1.0383419,1.901509,1.1897771,-0.9684858,1.7777983,-1.0612539,-1.8353164,-1.0967699,1.9438901,1.1343428,-0.9171733,-0.10168324,0.14876282,-1.7104237,1.7868643,0.39950997,1.4562149,0.091721624,3.07695,-0.5939026,0.31367812,-4.0515156,-0.18676564,4.987446,0.52420044,-0.46567535,0.6940247,0.5867016,0.16968751,0.15045662,0.77739954,-0.48179284,-0.93685365,0.018386895,1.0,0.0,0.0,0.0,0.0,0.0,0.0,-3.7269502,0.19390258,0.2363219,7.0405974,-8.441156,-97.467354,111.02605,4.2606297,80.21193,25.008455
-161.31891,58.327747,9.188961,86.481636,7.357639,5.63569,-1.9918113,-0.7252727,-0.018270714,0.055738017,0.70257515,-0.3895271,0.71260816,-0.43670735,1.705271,-1.063081,-1.8297427,-1.0265124,1.9049374,1.2056036,-0.96084404,1.7737185,-1.0603346,-1.8506439,-1.076922,1.9460835,1.1488825,-0.9164552,-0.50916165,0.07039275,-1.4689997,2.053478,0.15495615,1.4497651,0.06509394,3.0364609,-0.59576416,0.36277872,-4.047465,-0.18657891,4.8842735,0.51737976,-0.47675323,0.6950585,0.5979016,0.16431625,0.14866136,0.7703334,-0.7548823,-1.1574155,0.1351964,1.0,0.0,0.0,0.0,0.0,0.0,0.0,-3.686461,0.19576415,0.18722129,-40.515232,-8.586405,25.511885,27.437614,-25.806799,-1.7032623,-2.6903377
-102.03962,68.31496,27.045607,51.06777,4.8878293,6.2934074,-0.20006466,-0.73142225,-0.19356672,0.26820457,0.7093824,-0.33772406,0.7059335,-0.47040978,1.7005763,-1.0796913,-1.8238235,-1.0059838,1.9123112,1.2194759,-0.9634962,1.7655073,-1.0610098,-1.8601291,-1.0570017,1.9457097,1.1625601,-0.9161748,-0.925463,-0.11517089,-0.7686833,1.972931,-0.10813116,1.3385284,0.015813064,2.9960175,-0.59762573,0.41084838,-4.0434184,-0.18639237,4.781204,0.50823975,-0.4888153,0.69721633,0.6099127,0.15782893,0.14595085,0.76275474,-0.97807175,-1.2108972,0.24604821,1.0,0.0,0.0,0.0,0.0,0.0,0.0,-3.6460176,0.19762573,0.13915163,-41.722263,-19.063457,71.949646,-7.6114416,-28.22948,-11.700916,-4.868917
-41.955364,114.9279,48.722073,27.810741,1.8364643,6.6803174,0.41654453,-0.74232525,-0.0154732885,0.28553227,0.71662873,-0.42000508,0.7143087,-0.46725318,1.6912748,-1.0625571,-1.8315759,-0.9853388,1.9037092,1.233991,-0.96290016,1.7538325,-1.0624994,-1.8623626,-1.039126,1.9428163,1.174935,-0.916439,-1.2490711,-0.16180182,-0.035527833,1.7259281,-0.3559558,1.202926,-0.04096286,2.9556122,-0.5994873,0.4578881,-4.039376,-0.18620601,4.678238,0.49739838,-0.500267,0.70075464,0.6215838,0.15017083,0.14253566,0.75549036,-1.1292214,-1.1137321,0.39026,1.0,0.0,0.0,0.0,0.0,0.0,0.0,-3.6056123,0.1994873,0.092111915,-32.603477,-5.140561,75.13098,-24.71323,-26.626593,-13.880992,-5.809605
-2.7878776,156.107,60.516815,18.072245,-0.24651763,6.1997094,0.23801078,-0.76581544,0.21770288,0.20634764,0.7171524,-0.39864257,0.71270156,-0.5047869,1.6772509,-1.0407292,-1.8417279,-0.9674108,1.902952,1.2462051,-0.9669177,1.7398936,-1.0629438,-1.8591945,-1.0237395,1.9380708,1.1860529,-0.9172582,-1.4429337,-0.0069564604,0.4387494,1.4759306,-0.5187619,1.0811312,-0.096350774,2.915245,-0.6013489,0.5038989,-4.035337,-0.18601985,4.5753746,0.48552704,-0.51020813,0.7059385,0.6326981,0.14136833,0.1393063,0.74853307,-1.2137017,-0.94215184,0.5590447,1.0,0.0,0.0,0.0,0.0,0.0,0.0,-3.5652452,0.20134887,0.046101093,-19.646883,14.998237,48.75835,-25.091887,-17.665989,-12.3101,-5.766825
5.106491,159.41646,51.237415,15.921259,-1.5342331,4.1069756,-0.48140156,-0.8001739,0.42647856,-0.14367983,0.70914847,-0.36879882,0.6768137,-0.49660346,1.6598761,-1.020296,-1.8735625,-0.9528246,1.9011909,1.2537344,-0.9669185,1.7247664,-1.0606416,-1.8548629,-1.010348,1.9323506,1.1960741,-0.9185695,-1.5370287,0.30796245,0.43344545,1.2935116,-0.59209,0.97611964,-0.1436177,2.8749237,-0.60321045,0.5488819,-4.0313025,-0.18583387,4.4726143,0.47325897,-0.5185013,0.7124468,0.64366555,0.13200234,0.13757049,0.74117774,-1.2413565,-0.7822249,0.67847496,1.0,0.0,0.0,0.0,0.0,0.0,0.0,-3.5249238,0.20321044,0.0011181235,-9.6696615,31.113005,0.10330081,-18.232632,-8.022618,-10.417533,-4.983637
2.9757013,135.44957,35.27931,14.504133,-1.6247821,1.8639562,-0.853506,-0.8209724,0.5367913,-0.3935816,0.68857324,-0.18232672,0.6389064,-0.46640372,1.6426691,-1.0069625,-1.8942211,-0.94149065,1.9141179,1.2599648,-0.9652099,1.7091948,-1.0549425,-1.853194,-0.99822706,1.9268689,1.2051493,-0.9202737,-1.5648823,0.6564696,0.07895079,1.1846688,-0.5345084,0.8848788,-0.18029542,2.8346405,-0.605072,0.592838,-4.027272,-0.18564807,4.369956,0.46096802,-0.5256119,0.7196147,0.6548868,0.12292132,0.13800374,0.73278147,-1.2324363,-0.6751759,0.72702974,1.0,0.0,0.0,0.0,0.0,0.0,0.0,-3.4846406,0.20507202,-0.042837977,-3.0455828,34.595234,-35.211746,-10.942841,5.5068135,-9.04448,-3.947392
4.810544,112.76302,26.199278,12.380651,-1.2909236,0.73252845,-0.8136003,-0.8225615,0.60603285,-0.46956342,0.6652396,-0.09087978,0.6329836,-0.4522583,1.6269386,-0.9943392,-1.9001503,-0.9317031,1.917781,1.2684476,-0.9654995,1.6936499,-1.0461496,-1.8557327,-0.98678964,1.9224458,1.2134138,-0.9222831,-1.55177,0.9527367,-0.3644804,1.1293821,-0.4119656,0.80699015,-0.2088212,2.7943954,-0.6069336,0.6357683,-4.023246,-0.18546246,4.2674007,0.44886017,-0.53193665,0.7269784,0.6664525,0.114607945,0.14049853,0.72316396,-1.207282,-0.60449076,0.73767465,1.0,0.0,0.0,0.0,0.0,0.0,0.0,-3.4443955,0.20693359,-0.08576828,1.0882139,29.434538,-44.182594,-5.755353,12.103981,-7.8523993,-3.1537204
8.058836,98.34456,24.275614,11.405538,-0.37193823,0.6246323,-0.47317782,-0.8195465,0.656155,-0.46708143,0.6439505,0.09186728,0.64188284,-0.45260718,1.6116953,-0.98053414,-1.9024408,-0.9223946,1.9316325,1.2776021,-0.96754384,1.6783682,-1.0350507,-1.8619926,-0.9756765,1.919745,1.2209975,-0.92453474,-1.5209613,1.1616888,-0.7122341,1.1040773,-0.22347076,0.7412493,-0.23154585,2.7541962,-0.6087799,0.6776738,-4.019223,-0.18527704,4.164948,0.4369583,-0.5377197,0.73441815,0.6781996,0.107116215,0.14427425,0.7125702,-1.1880738,-0.5568896,0.7455892,1.0,0.0,0.0,0.0,0.0,0.0,0.0,-3.4041963,0.2087799,-0.1276738,2.883935,20.730328,-34.526657,-2.8748035,18.645826,-6.8389297,-2.5465548
12.737936,90.10965,25.864544,10.169239,0.37729627,1.0133117,-0.08397953,-0.8141072,0.68529654,-0.42927048,0.61589795,0.19647384,0.648523,-0.4719127,1.5969574,-0.9665211,-1.9049196,-0.9140867,1.9393923,1.2858498,-0.971726,1.6634127,-1.0225385,-1.8704383,-0.9647712,1.9190164,1.228007,-0.9269952,-1.4879029,1.2807465,-0.88728565,1.0847306,-0.023483621,0.6864075,-0.25172135,2.714035,-0.6106262,0.71855557,-4.0152044,-0.18509181,4.0625978,0.4251709,-0.5430603,0.74200815,0.68986255,0.100222595,0.14842263,0.70143825,-1.1796826,-0.5128082,0.76436794,1.0,0.0,0.0,0.0,0.0,0.0,0.0,-3.3640351,0.21062621,-0.16855556,3.0877829,11.759496,-17.079937,-2.3217916,19.721912,-5.8625817,-2.2750795
18.124517,88.51343,29.39212,9.240373,0.8843023,1.5937388,0.24321432,-0.8039719,0.7085382,-0.36481413,0.5934078,0.28179067,0.6664904,-0.4852493,1.5830154,-0.9516847,-1.9069197,-0.90543044,1.9471954,1.294656,-0.97552013,1.6487623,-1.0093302,-1.8793437,-0.95407957,1.9201798,1.2345511,-0.92964166,-1.4582101,1.3336942,-0.8896891,1.0627681,0.16161606,0.64240545,-0.26990053,2.673912,-0.61247253,0.7584146,-4.0111904,-0.18490675,3.9603498,0.41338348,-0.54789734,0.7499139,0.7011935,0.09357213,0.15220974,0.69022036,-1.1803195,-0.4593047,0.80083907,1.0,0.0,0.0,0.0,0.0,0.0,0.0,-3.3239121,0.21247253,-0.20841461,2.7026653,5.1565886,0.39477348,-2.5743484,18.15564,-4.828799,-2.0825803
19.805283,87.541084,31.196495,9.289562,1.160008,1.9932878,0.40899047,-0.8029273,0.72405636,-0.3071099,0.57538223,0.3400171,0.6718303,-0.48967203,1.5684696,-0.9369245,-1.9100547,-0.89654136,1.9541816,1.3017341,-0.97860885,1.6343275,-0.995891,-1.8874233,-0.9436349,1.9229512,1.2407213,-0.93245214,-1.4395283,1.3469542,-0.7782703,1.0371965,0.31446815,0.6071468,-0.28578734,2.6338348,-0.61431885,0.797252,-4.00718,-0.18472187,3.8582044,0.40155792,-0.552124,0.75825465,0.7120483,0.08686125,0.15522096,0.6792266,-1.1876384,-0.3976956,0.84706384,1.0,0.0,0.0,0.0,0.0,0.0,0.0,-3.283835,0.21431884,-0.24725199,1.5767574,1.1959076,11.902189,-2.897644,14.902806,-3.937471,-1.8704116
21.57036,87.4121,31.895494,9.221666,1.1673886,2.1590014,0.45967108,-0.79003996,0.73681724,-0.25109124,0.5680125,0.38584048,0.67572665,-0.48841742,1.5553235,-0.92220926,-1.9125324,-0.88683367,1.9615352,1.308294,-0.98129386,1.6200606,-0.9824413,-1.8940036,-0.933423,1.9269929,1.2465922,-0.93540376,-1.4234264,1.3438889,-0.61535317,1.0148548,0.4328298,0.57921606,-0.2992397,2.5937881,-0.61616516,0.8350687,-4.003174,-0.18453719,3.756161,0.38965607,-0.5557022,0.76708627,0.7223735,0.07988648,0.15733139,0.6686116,-1.1948012,-0.32854766,0.89668226,1.0,0.0,0.0,0.0,0.0,0.0,0.0,-3.2437882,0.21616516,-0.2850687,1.3235092,-0.4304886,17.09298,-2.5393248,11.47418,-3.1618834,-1.6530335
19.362938,85.99504,30.795265,10.400785,1.1238147,2.161295,0.39015892,-0.7883404,0.74310917,-0.19531715,0.57098675,0.39672792,0.68420523,-0.48059025,1.5412265,-0.9081304,-1.9135354,-0.8763243,1.9666657,1.3150127,-0.9834628,1.6059061,-0.9690536,-1.8989112,-0.92335314,1.9319139,1.2522322,-0.93846697,-1.4135369,1.3367122,-0.44678596,1.0034573,0.5108442,0.55782145,-0.3096952,2.5537872,-0.6180115,0.8718657,-3.9991715,-0.1843527,3.6542196,0.3776474,-0.55857086,0.7763998,0.7322023,0.07253533,0.1586314,0.65837264,-1.2032068,-0.25864825,0.9437435,1.0,0.0,0.0,0.0,0.0,0.0,0.0,-3.2037873,0.21801147,-0.32186568,0.72903633,-0.8387804,17.629307,-1.4014006,7.4756265,-2.4618506,-1.3575673
14.570073,82.98616,28.340689,12.232642,1.1507359,2.01412,0.2729789,-0.7914753,0.748125,-0.15588588,0.57885826,0.43495667,0.67947006,-0.4704867,1.5267586,-0.8942411,-1.9144999,-0.8654673,1.9754095,1.3201792,-0.98551565,1.5917956,-0.9557165,-1.9023464,-0.9132976,1.9374642,1.2576872,-0.94161123,-1.4111593,1.3323318,-0.30674398,1.0055013,0.56894356,0.54042006,-0.31704164,2.5138245,-0.6198578,0.90764403,-3.9951732,-0.18416838,3.5523803,0.36553955,-0.56079865,0.78613627,0.741621,0.064799346,0.15927911,0.64840525,-1.2149752,-0.19523665,0.9837907,1.0,0.0,0.0,0.0,0.0,0.0,0.0,-3.1638246,0.21985778,-0.35764402,0.009989738,-0.5568743,14.708537,-0.019931793,5.5238247,-2.033937,-1.0309339
11.881276,79.89674,25.906145,12.954164,0.9909818,1.8055772,0.16349259,-0.7864137,0.7522402,-0.12498684,0.58814174,0.42832056,0.68621504,-0.44268328,1.5131541,-0.88049245,-1.9148451,-0.8544834,1.9802963,1.3263087,-0.98587954,1.5777041,-0.942387,-1.9046791,-0.90314,1.9433961,1.2630011,-0.94479555,-1.409281,1.3327833,-0.20674492,1.0185158,0.6002608,0.5274017,-0.31993565,2.4738998,-0.6217041,0.94240475,-3.9911788,-0.18398425,3.450643,0.3533249,-0.5624161,0.79620785,0.7507089,0.056713156,0.15949512,0.6385774,-1.2248312,-0.13545509,1.0143572,1.0,0.0,0.0,0.0,0.0,0.0,0.0,-3.1239,0.2217041,-0.39240474,-0.012397766,-0.06508827,10.624727,1.0963917,2.8974414,-1.5468478,-0.5724013
9.791184,76.529526,23.718296,13.050614,0.9064644,1.6065123,0.111810654,-0.7899508,0.7534896,-0.09010289,0.5842066,0.46145567,0.6820679,-0.44655955,1.498709,-0.867038,-1.9136894,-0.84471935,1.9895416,1.3312079,-0.9894515,1.563603,-0.92903364,-1.9062374,-0.892867,1.9496083,1.2682024,-0.9480037,-1.411024,1.3358805,-0.13698968,1.0296326,0.62750286,0.5169301,-0.32195044,2.434021,-0.6235428,0.97614884,-3.9871886,-0.1838003,3.3490074,0.34100342,-0.5634842,0.8065169,0.7595105,0.048343863,0.15943053,0.6287993,-1.2333885,-0.07966237,1.0353563,1.0,0.0,0.0,0.0,0.0,0.0,0.0,-3.084021,0.22354278,-0.42614883,-0.3620386,0.20871162,7.5502515,0.91261864,2.5208116,-1.2540936,-0.4698515
8.085554,72.951164,21.420809,12.845584,0.70800877,1.3879005,0.048573174,-0.79238313,0.7577792,-0.08415758,0.5870942,0.4420068,0.69308,-0.42265654,1.4843647,-0.85325575,-1.9146531,-0.8341576,1.993809,1.3375105,-0.99026936,1.5494677,-0.9156269,-1.9073627,-0.8824958,1.955956,1.2733237,-0.95120806,-1.4148622,1.3420473,-0.10269138,1.0389568,0.6366503,0.510041,-0.32089373,2.3941803,-0.62537384,1.0088773,-3.9832022,-0.18361652,3.2474732,0.32862854,-0.56398773,0.8169586,0.7680584,0.039767474,0.15926321,0.618983,-1.238165,-0.026859326,1.0454978,1.0,0.0,0.0,0.0,0.0,0.0,0.0,-3.0441804,0.22537383,-0.45887727,-0.5623102,0.52764416,3.9463506,0.73075294,0.74898005,-0.844574,-0.1496613
8.20154,70.84744,20.219522,12.219887,0.58010817,1.2450725,0.043494415,-0.79387635,0.76016915,-0.06478299,0.58362836,0.45064288,0.69271433,-0.41782427,1.47008,-0.83961,-1.913841,-0.824133,2.0010202,1.3425951,-0.9929905,1.5352904,-0.9021534,-1.9082592,-0.8720779,1.9623628,1.2783896,-0.9543962,-1.4192914,1.3489491,-0.083568916,1.0420237,0.64155096,0.505027,-0.3189848,2.3543777,-0.6272049,1.0405912,-3.9792197,-0.18343295,3.1460407,0.31624603,-0.56398773,0.82745427,0.7763568,0.031040318,0.15909967,0.6090926,-1.2389153,0.02528889,1.0490602,1.0,0.0,0.0,0.0,0.0,0.0,0.0,-3.0043778,0.22720489,-0.49059123,-0.62048435,0.60858727,2.4107933,0.09987354,0.33940077,-0.6229162,-0.06029606
8.5487385,69.27725,19.370165,11.6492,0.48647523,1.1338315,0.052010383,-0.79761386,0.7629367,-0.052293323,0.5783796,0.45449442,0.6899749,-0.41088974,1.455529,-0.8258597,-1.9134885,-0.8142399,2.0078123,1.3473871,-0.9954852,1.5210596,-0.8886112,-1.9090183,-0.86168,1.968802,1.2834135,-0.9575605,-1.424875,1.3557707,-0.07183874,1.0383213,0.64428025,0.50111175,-0.31643158,2.3146133,-0.62903595,1.0712916,-3.9752414,-0.18324956,3.0447094,0.3038559,-0.56346893,0.83795226,0.7843951,0.022201624,0.15898913,0.59912753,-1.236051,0.07714524,1.0477928,1.0,0.0,0.0,0.0,0.0,0.0,0.0,-2.9646134,0.22903594,-0.52129155,-0.73788166,0.606513,1.667042,-0.5820751,0.13012886,-0.48747063,0.0052809715
12.001098,70.8889,20.346716,10.617605,0.35041714,1.1782725,0.117393,-0.7937973,0.76191026,0.0011645302,0.57315785,0.42054313,0.69339764,-0.3884469,1.44168,-0.8124202,-1.9089018,-0.8043642,2.0108564,1.3527533,-0.9964052,1.5068022,-0.87502325,-1.9094684,-0.8513555,1.9751515,1.288407,-0.9606857,-1.4266356,1.3596063,-0.03424362,1.0297953,0.6314927,0.4984943,-0.31196624,2.274887,-0.630867,1.1009793,-3.971267,-0.18306635,2.9434798,0.29157257,-0.5623703,0.8484526,0.7921233,0.013215345,0.15894264,0.58915466,-1.2267241,0.13636434,1.0483676,1.0,0.0,0.0,0.0,0.0,0.0,0.0,-2.9248872,0.230867,-0.5509793,-0.35865307,0.3070593,4.299875,-1.0567904,-1.4499426,-0.33925176,0.18689036
11.780539,68.55772,19.481167,10.343279,0.39471376,1.0729034,0.14151818,-0.8007801,0.7573916,0.016629914,0.565537,0.44094577,0.6859376,-0.39387557,1.4267242,-0.7992841,-1.9078054,-0.7948018,2.019246,1.3570007,-1.0000732,1.4925085,-0.8614353,-1.9095066,-0.84114736,1.9814286,1.2933737,-0.9637708,-1.4308481,1.35829,0.008134511,1.01726,0.6259458,0.49589145,-0.30830052,2.2352066,-0.63269806,1.1296556,-3.9672964,-0.18288332,2.8423512,0.27934265,-0.5607071,0.8589334,0.79951686,0.0040859682,0.1589154,0.5792253,-1.2165831,0.19241919,1.045206,1.0,0.0,0.0,0.0,0.0,0.0,0.0,-2.8852067,0.23269805,-0.5796556,-0.5994797,-0.20067692,4.7707243,-1.452446,-0.7273674,-0.31996965,0.11635423
14.297956,72.014404,21.036892,10.300725,0.42634225,1.1919732,0.20856223,-0.80033785,0.76031864,0.08748798,0.5601061,0.4307513,0.6833729,-0.37168407,1.4124748,-0.78540343,-1.9007578,-0.78513676,2.0245037,1.361711,-1.0009392,1.4781824,-0.84785974,-1.9088657,-0.831068,1.987637,1.2983156,-0.96680826,-1.4338546,1.3571309,0.084530555,1.0041558,0.6184077,0.49333215,-0.30300802,2.1955643,-0.6345291,1.1573213,-3.96333,-0.18270047,2.7413237,0.26724243,-0.55843353,0.86943495,0.8065348,-0.005250832,0.15882996,0.5694268,-1.2043298,0.25563902,1.0486114,1.0,0.0,0.0,0.0,0.0,0.0,0.0,-2.8455644,0.23452911,-0.6073213,-0.4793644,-0.19207,8.227385,-1.483798,-0.9688258,-0.3279209,0.27647614
13.183005,69.73596,19.75574,10.673491,0.36111456,1.0533168,0.16270569,-0.79830897,0.7579459,0.08611945,0.5725026,0.38316038,0.69465417,-0.3206051,1.3983516,-0.77206516,-1.9002538,-0.7738177,2.025953,1.367781,-0.99886876,1.4638468,-0.8343061,-1.9075801,-0.82103056,1.9936433,1.3032442,-0.969757,-1.4341319,1.3545583,0.14514083,1.0030293,0.5940938,0.49249125,-0.29301667,2.15596,-0.63636017,1.1839775,-3.9593675,-0.1825178,2.6403973,0.25528717,-0.555542,0.8799441,0.81318647,-0.014803665,0.15874922,0.5597385,-1.1904296,0.3151681,1.0480465,1.0,0.0,0.0,0.0,0.0,0.0,0.0,-2.8059602,0.23636016,-0.6339775,-0.18718243,-0.32668114,6.5983324,-0.27031898,-2.6230097,-0.13374686,0.7641554
10.55192,67.02272,18.126951,11.114919,0.3936532,0.8977597,0.12893993,-0.8128946,0.76176983,0.09150513,0.5577193,0.40063584,0.69006276,-0.3129285,1.3825574,-0.7581291,-1.8984296,-0.7652586,2.033707,1.3722506,-1.0010499,1.4494482,-0.8207563,-1.9058425,-0.81103987,1.999476,1.3081633,-0.9726047,-1.442399,1.354891,0.18494129,0.99717426,0.57898116,0.4917186,-0.28275764,2.116394,-0.6381836,1.2096251,-3.9554088,-0.1823353,2.5395715,0.24343872,-0.5520935,0.8904096,0.81950444,-0.024509434,0.15872364,0.5501076,-1.1780491,0.36869794,1.0419255,1.0,0.0,0.0,0.0,0.0,0.0,0.0,-2.7663941,0.23818359,-0.6596251,-0.9870529,-0.028204918,4.4767675,-0.74265003,-1.6743422,-0.10825992,0.8099437
12.236851,66.629555,18.019354,10.240633,0.2889052,0.823936,0.16294304,-0.80946517,0.75895566,0.13616239,0.54805547,0.37495258,0.6838422,-0.2897078,1.3685017,-0.74486077,-1.8922263,-0.7562343,2.0369713,1.3765475,-1.0015755,1.4349848,-0.8072113,-1.9036682,-0.8011417,2.0051217,1.3130728,-0.97534174,-1.4481275,1.3542646,0.23012044,0.9868467,0.55914164,0.49074304,-0.27137834,2.0768661,-0.6399994,1.2342653,-3.9514544,-0.18215302,2.4388468,0.23174286,-0.5481262,0.9008012,0.8254781,-0.034341753,0.15877293,0.54055303,-1.1604357,0.4234361,1.0338743,1.0,0.0,0.0,0.0,0.0,0.0,0.0,-2.7268662,0.23999938,-0.6842653,-0.7269621,-0.120949745,5.0180287,-1.180017,-2.1588445,-0.10486841,0.9278536
13.878997,65.665146,17.5846,9.062735,0.081769526,0.7153013,0.18328798,-0.809226,0.7587556,0.15871017,0.5345381,0.32509294,0.6892247,-0.26118675,1.3540622,-0.7313357,-1.8877971,-0.7476879,2.037631,1.3819953,-1.0014604,1.4204813,-0.79367197,-1.9010532,-0.791398,2.0104547,1.3179804,-0.97795385,-1.4514306,1.353697,0.27348962,0.96978366,0.52419615,0.490827,-0.25850874,2.037384,-0.6418152,1.257899,-3.9475038,-0.18197091,2.3382227,0.22029114,-0.54358673,0.9110834,0.8310857,-0.044280972,0.15896633,0.5310982,-1.1353954,0.47891098,1.0216234,1.0,0.0,0.0,0.0,0.0,0.0,0.0,-2.6873841,0.24181518,-0.70789903,-0.4771471,-0.11019707,4.829198,-1.845777,-3.6719918,0.04027486,1.0845721
15.159445,64.90699,17.436478,8.330854,0.07587808,0.63485736,0.24610484,-0.80981416,0.7552596,0.19561973,0.52233845,0.32984635,0.68972087,-0.18404867,1.3395,-0.718146,-1.8814912,-0.7391641,2.0434394,1.3869525,-0.9963587,1.4059607,-0.7801527,-1.8979461,-0.7818565,2.0154939,1.3228918,-0.9803905,-1.4527318,1.351153,0.32461,0.9484646,0.49631116,0.49123225,-0.2394257,1.9979401,-0.643631,1.2805274,-3.943557,-0.18178898,2.2376993,0.20909882,-0.5384903,0.9212367,0.83629304,-0.05431413,0.15928593,0.52181596,-1.1072162,0.5333239,1.0080457,1.0,0.0,0.0,0.0,0.0,0.0,0.0,-2.6479402,0.24363098,-0.73052734,-0.26700497,-0.3036976,5.601507,-2.2582889,-2.9741228,0.08663535,1.7135322
15.510102,66.19401,17.773903,8.885114,0.09561223,0.63890725,0.25439656,-0.80704373,0.75571626,0.23633243,0.5314358,0.2809476,0.6900892,-0.10265456,1.3252563,-0.704581,-1.8743129,-0.7287129,2.0435886,1.3919008,-0.99065596,1.3914515,-0.7666553,-1.8942535,-0.7724437,2.0201707,1.3278071,-0.98258775,-1.4507459,1.3490669,0.3857435,0.93852764,0.4574852,0.49156472,-0.21386924,1.9585342,-0.6454468,1.3021511,-3.9396143,-0.18160723,2.1372762,0.19819641,-0.53284454,0.93128234,0.841085,-0.064472824,0.15973254,0.51274234,-1.0783753,0.5893546,0.9979957,1.0,0.0,0.0,0.0,0.0,0.0,0.0,-2.6085343,0.24544677,-0.7521511,0.07708073,-0.26085377,6.6020784,-1.0911822,-4.082632,0.06609559,2.372688
14.569795,65.59733,17.294678,9.419179,0.11554134,0.5779952,0.26480776,-0.8089864,0.755104,0.26076323,0.5325661,0.23959523,0.6901971,0.04663543,1.3105528,-0.69114494,-1.8681772,-0.7191871,2.0441303,1.3968267,-0.9779242,1.3769575,-0.7531761,-1.8899658,-0.76307195,2.0243974,1.3327242,-0.984436,-1.4492611,1.3473066,0.44473407,0.9365661,0.41037673,0.49184978,-0.17572641,1.9191666,-0.6472626,1.3227713,-3.9356756,-0.18142566,2.0369537,0.1875763,-0.52664185,0.94122976,0.84545547,-0.07476694,0.16034225,0.5038902,-1.0499245,0.6438038,0.9879286,1.0,0.0,0.0,0.0,0.0,0.0,0.0,-2.5691667,0.24726257,-0.7727713,0.03824234,-0.22759438,6.3693466,-0.27438402,-4.908073,0.061416626,3.6463857
13.91292,62.64901,16.254395,9.179177,0.13941592,0.43701628,0.2999426,-0.8077257,0.7462607,0.28893408,0.52956784,0.21476075,0.67760396,0.20032331,1.296185,-0.67855,-1.8610724,-0.7101152,2.0458734,1.4004846,-0.9644036,1.3624827,-0.73975027,-1.8851116,-0.75369924,2.0281549,1.3376356,-0.9858131,-1.4472375,1.34087,0.50047195,0.9373199,0.36364466,0.49099126,-0.12547491,1.879837,-0.64907837,1.3423891,-3.9317408,-0.18124427,1.9367311,0.1772232,-0.51994324,0.9510536,0.849392,-0.08516165,0.16112563,0.49529696,-1.0212802,0.6930983,0.9745017,1.0,0.0,0.0,0.0,0.0,0.0,0.0,-2.5298371,0.24907836,-0.7923891,0.10724068,-0.68707466,6.008071,0.005567074,-4.8548994,-0.035488605,4.870266
12.258372,59.12102,14.712132,9.494751,-0.0137887,0.2791898,0.24208023,-0.80091155,0.736986,0.29621604,0.55486053,0.08176591,0.6755909,0.35039407,1.2823915,-0.6660517,-1.85549,-0.6982132,2.0363314,1.4051948,-0.95077366,1.3480574,-0.7264265,-1.8798244,-0.7441892,2.0311418,1.3425375,-0.98661035,-1.4412676,1.3293489,0.5393671,0.9554125,0.2765373,0.49016392,-0.06494423,1.8405533,-0.65089417,1.3610054,-3.9278097,-0.18106306,1.8366086,0.16718292,-0.5127487,0.96071464,0.8529183,-0.09561972,0.16223502,0.48689505,-0.9903795,0.7373341,0.95688975,1.0,0.0,0.0,0.0,0.0,0.0,0.0,-2.4905534,0.25089416,-0.8110054,0.52404404,-1.1878729,4.267657,1.7491102,-8.871341,-0.0060498714,5.918455
11.416018,52.086674,12.143421,7.8150606,-0.34158456,-0.02989924,0.20677379,-0.8004135,0.7215846,0.28747904,0.54207635,-0.0359737,0.6622814,0.42754352,1.2680161,-0.654268,-1.8510765,-0.6899816,2.0275445,1.4087657,-0.943856,1.3336893,-0.71327627,-1.8743408,-0.734559,2.0330033,1.3474241,-0.98679346,-1.435567,1.3102127,0.5524263,0.96530706,0.1557886,0.4888127,-0.0032058957,1.8013,-0.65270996,1.3786213,-3.9238827,-0.18088202,1.7365863,0.15750885,-0.50522614,0.9701073,0.8560715,-0.10601816,0.16388616,0.47858444,-0.95155275,0.7713662,0.9267987,1.0,0.0,0.0,0.0,0.0,0.0,0.0,-2.4513001,0.25270995,-0.8286213,0.50587654,-1.935339,1.6294003,0.91210604,-12.20572,0.01463294,6.052086
11.792797,48.283665,10.709414,6.2950816,-0.75310695,-0.2240063,0.1698349,-0.7968658,0.70752853,0.30025858,0.5388963,-0.2280598,0.65788037,0.48959723,1.2540028,-0.6425234,-1.8443149,-0.68066937,2.0101974,1.4132122,-0.9378337,1.3193823,-0.7003559,-1.8687809,-0.7248811,2.0332437,1.3522993,-0.98637384,-1.429287,1.2859138,0.558187,0.9684046,-0.020259839,0.4877325,0.05669256,1.7620926,-0.6545105,1.3952378,-3.9199598,-0.18070117,1.6366642,0.14831543,-0.49736023,0.9791395,0.85887825,-0.116256416,0.16633454,0.47026083,-0.9018807,0.8011643,0.8887238,1.0,0.0,0.0,0.0,0.0,0.0,0.0,-2.4120927,0.2545105,-0.8452378,0.5736828,-2.446556,0.88624954,0.23245811,-17.74267,0.09943247,5.8792624
11.726865,40.522346,8.203903,3.9032211,-0.9950561,-0.5802967,0.16886072,-0.7941397,0.68422794,0.27429143,0.5138993,-0.31857854,0.64915526,0.51732796,1.2399683,-0.6319331,-1.8413517,-0.6734912,2.0013857,1.4172149,-0.93464106,1.3051363,-0.68774164,-1.8633411,-0.71532243,2.031691,1.3571631,-0.98539823,-1.4232346,1.2533047,0.540268,0.9514355,-0.20061722,0.48671412,0.11073132,1.7229233,-0.65631104,1.4108558,-3.9160407,-0.18052049,1.5368418,0.13965607,-0.48931122,0.9876974,0.86136794,-0.12617698,0.16970503,0.4618709,-0.84472585,0.8166304,0.8382326,1.0,0.0,0.0,0.0,0.0,0.0,0.0,-2.3729234,0.25631103,-0.86085576,0.55816174,-3.259778,-1.5394926,-1.7975092,-18.138737,0.17743707,5.2936764
11.746619,37.377575,7.326484,3.0817385,-0.95135003,-0.76101553,0.18714455,-0.7901727,0.6654095,0.27516288,0.50127673,-0.38637707,0.64521754,0.54668945,1.226119,-0.6212007,-1.8358248,-0.66519475,1.9930533,1.4216849,-0.93072927,1.2909533,-0.67548025,-1.8580959,-0.70600504,2.0284753,1.3620154,-0.98392385,-1.4167634,1.217037,0.5200593,0.92490494,-0.36268377,0.48552084,0.1592153,1.6837921,-0.6581116,1.4254762,-3.9121253,-0.18033999,1.4371192,0.13156891,-0.48117065,0.9957328,0.86355895,-0.13568714,0.1739496,0.45342737,-0.786983,0.82376796,0.78547025,1.0,0.0,0.0,0.0,0.0,0.0,0.0,-2.3337922,0.25811157,-0.8754762,0.6076336,-3.6197186,-1.7855167,-2.7536035,-16.312521,0.16508698,4.736823
13.089997,33.532124,6.3131924,1.0296779,-0.99318254,-1.0015975,0.24379888,-0.7824452,0.6441313,0.25361517,0.459665,-0.4363239,0.6485514,0.5601545,1.2127087,-0.6110671,-1.8327343,-0.66003853,1.9848429,1.4268705,-0.9279084,1.2768561,-0.6636003,-1.8531234,-0.6971168,2.0238633,1.3668581,-0.98201364,-1.4074982,1.1782775,0.4903153,0.87649184,-0.4944081,0.48501197,0.20114577,1.6446991,-0.6599121,1.4391001,-3.9082139,-0.1801597,1.3374964,0.1240921,-0.47302246,1.0032007,0.86545426,-0.14469002,0.17896946,0.44499847,-0.7250726,0.8208322,0.72765476,1.0,0.0,0.0,0.0,0.0,0.0,0.0,-2.2946992,0.2599121,-0.88910013,0.8970976,-3.85952,-2.7670562,-4.946327,-13.270224,0.25170445,4.0738134
11.337271,27.944181,4.5440784,0.46795702,-0.8817457,-1.2543454,0.24276865,-0.78815186,0.618946,0.2128269,0.4231383,-0.46908587,0.65218884,0.56834537,1.1980408,-0.60170573,-1.8318408,-0.654803,1.9769547,1.432077,-0.9251791,1.2628065,-0.65213335,-1.8485916,-0.68882173,2.018187,1.3717009,-0.97973245,-1.4040246,1.1362664,0.44129583,0.8135098,-0.5920993,0.48516294,0.23676987,1.6056442,-0.66171265,1.4517286,-3.9043064,-0.1799796,1.2379732,0.11721802,-0.46498108,1.0100547,0.8670869,-0.1530772,0.18466048,0.4366099,-0.6667103,0.8041957,0.6654278,1.0,0.0,0.0,0.0,0.0,0.0,0.0,-2.2556443,0.26171264,-0.9017286,0.31569004,-4.170656,-4.754424,-6.421578,-9.813202,0.33012033,3.4333973
11.273712,23.409618,3.223352,-0.7884617,-0.8619139,-1.5001101,0.26872915,-0.781458,0.59376633,0.16788991,0.37477592,-0.4900759,0.65727055,0.5782013,1.1846607,-0.5927567,-1.8318026,-0.6513441,1.9691795,1.437428,-0.9219123,1.2488028,-0.6411041,-1.844693,-0.68127054,2.011767,1.3765513,-0.9771337,-1.3992707,1.0919825,0.37323174,0.7352295,-0.65868986,0.48603156,0.2671096,1.5666351,-0.6635132,1.4633626,-3.900403,-0.17979966,1.1385494,0.11092377,-0.4571991,1.0162553,0.86848587,-0.16074555,0.19092944,0.42829797,-0.60816276,0.77573085,0.599506,1.0,0.0,0.0,0.0,0.0,0.0,0.0,-2.2166352,0.26351318,-0.91336256,0.45371056,-4.386401,-6.710309,-7.960725,-6.665206,0.40806532,2.8924286
10.074539,17.29741,2.1155462,-0.85467005,-0.5513412,-1.6551962,0.3057414,-0.77610505,0.5410747,0.18142135,0.345262,-0.5151883,0.6557462,0.59676355,1.1711923,-0.5869966,-1.8265508,-0.6467444,1.9602481,1.4421259,-0.91745734,1.2348601,-0.63065565,-1.8412979,-0.67448515,2.0048318,1.3814093,-0.97425646,-1.3925844,1.0293499,0.32855418,0.6592321,-0.7052522,0.48657572,0.2940391,1.5276566,-0.6653137,1.4740031,-3.8965034,-0.17961991,1.0392251,0.105148315,-0.44978333,1.0217949,0.86966515,-0.16767934,0.19757949,0.4201529,-0.55871814,0.7360464,0.533805,1.0,0.0,0.0,0.0,0.0,0.0,0.0,-2.1776567,0.2653137,-0.92400306,0.6722927,-6.207919,-4.421872,-7.7358603,-4.63686,0.35676956,2.548635
9.561344,17.419355,2.612026,0.068125725,-0.25183547,-1.6276798,0.33410072,-0.7750266,0.50774217,0.19967161,0.3090358,-0.53456986,0.6609658,0.59964967,1.1573575,-0.5798814,-1.8213307,-0.64358157,1.9513748,1.4475058,-0.9142915,1.2209784,-0.62087476,-1.8380973,-0.6684322,1.997528,1.386273,-0.9711408,-1.3867321,0.96117944,0.31749517,0.58680654,-0.73896575,0.4870606,0.31691092,1.4887238,-0.66711426,1.483651,-3.8926077,-0.17944033,0.94000006,0.09981537,-0.44275665,1.0267229,0.8706246,-0.17395008,0.20441619,0.41227207,-0.51709855,0.6963853,0.4746656,1.0,0.0,0.0,0.0,0.0,0.0,0.0,-2.1387239,0.26711425,-0.93365103,0.59809685,-6.764114,-1.0557711,-7.361269,-3.3754945,0.3016293,2.157414
8.549728,13.512893,1.9099388,0.31266975,-0.044181228,-1.7258853,0.34082833,-0.76639444,0.45681998,0.1959118,0.2741797,-0.5524935,0.6632474,0.5987984,1.144339,-0.57519275,-1.8185061,-0.6410142,1.9422786,1.4525977,-0.91126096,1.2071806,-0.6118616,-1.8348949,-0.6630668,1.9899405,1.3911406,-0.9678268,-1.3774251,0.8815556,0.32133096,0.51945114,-0.7652768,0.48747262,0.3358172,1.4498215,-0.66890717,1.4923075,-3.8887157,-0.17926094,0.8408742,0.09484863,-0.43615723,1.0310662,0.87137944,-0.17960039,0.2112957,0.40471673,-0.4824538,0.6501997,0.41692486,1.0,0.0,0.0,0.0,0.0,0.0,0.0,-2.0998216,0.26890716,-0.94230753,0.96292496,-7.9048514,0.39574504,-6.8494797,-2.6201606,0.27327538,1.7672539
4.70529,5.232586,0.06879401,1.830061,0.37877637,-1.8783882,0.29155356,-0.7593911,0.38415006,0.20216052,0.26777348,-0.55267364,0.66787034,0.5989327,1.1312416,-0.5734466,-1.8146788,-0.6362895,1.9346732,1.4579276,-0.90793353,1.1934935,-0.6038097,-1.8315761,-0.6582126,1.98217,1.3960139,-0.96434873,-1.3656523,0.77996314,0.335155,0.47364601,-0.7808063,0.48807445,0.35138616,1.410965,-0.67069244,1.4999735,-3.8848276,-0.17908172,0.7418475,0.09010315,-0.43011475,1.0348364,0.8719833,-0.18466662,0.21804132,0.39749363,-0.46481636,0.59175754,0.36017466,1.0,0.0,0.0,0.0,0.0,0.0,0.0,-2.060965,0.27069244,-0.9499735,1.2316704,-10.093236,1.3222396,-4.703027,-1.488769,0.2713263,1.4366448
-1.3940444,-11.512086,-3.7324445,3.3873446,0.9307523,-2.18126,0.21071465,-0.7442268,0.27029297,0.21954302,0.28558734,-0.5660255,0.6726126,0.5995859,1.1190708,-0.57678044,-1.8096218,-0.6296539,1.9255674,1.4632751,-0.90439016,1.1799742,-0.5971054,-1.8280437,-0.6535539,1.9742678,1.4008967,-0.9607362,-1.3469087,0.6342639,0.35852686,0.46281263,-0.7927345,0.4890485,0.36415666,1.3721466,-0.6724777,1.50665,-3.8809438,-0.17890269,0.64291984,0.085357666,-0.4248352,1.0380034,0.87252927,-0.18916515,0.224417,0.39057148,-0.47255033,0.5097073,0.29924658,1.0,0.0,0.0,0.0,0.0,0.0,0.0,-2.0221467,0.27247772,-0.95664996,1.9716024,-14.485586,2.1526933,-1.2291372,-1.0276914,0.3018856,1.1516273
-11.273693,-43.17816,-11.49063,3.8947015,1.4477174,-2.8335185,0.08346547,-0.7306805,0.1006165,0.19853987,0.31197703,-0.58993006,0.6789977,0.5863254,1.1069062,-0.58704376,-1.8081897,-0.6223562,1.9152749,1.4687965,-0.90210366,1.16668,-0.592399,-1.8244197,-0.6487474,1.9662226,1.4057928,-0.9570245,-1.3228962,0.416527,0.36251202,0.48597208,-0.8071266,0.49073794,0.37304157,1.3333664,-0.674263,1.5123379,-3.8770638,-0.17872383,0.54409105,0.08026886,-0.42072296,1.0404222,0.87317926,-0.1929746,0.23017442,0.3838469,-0.51421803,0.3809216,0.22039391,1.0,0.0,0.0,0.0,0.0,0.0,0.0,-1.9833664,0.274263,-0.9623379,2.5656223,-21.65311,-0.003772974,2.1305084,-1.0755658,0.387007,0.73883533
-21.522545,-94.50619,-22.843922,0.99265456,2.1482878,-3.8215065,0.07751013,-0.69040406,-0.18638316,0.25949,0.3470764,-0.61464316,0.6792605,0.5754381,1.0976396,-0.6110373,-1.7984707,-0.6140397,1.9047583,1.4737189,-0.8994807,1.1537787,-0.5908588,-1.8205402,-0.64349455,1.9580001,1.4107062,-0.95324606,-1.2783042,0.06722469,0.39390138,0.53769445,-0.8249813,0.4920115,0.37899184,1.2946243,-0.6760483,1.5170383,-3.8731875,-0.17854515,0.44536114,0.07444763,-0.4184494,1.041796,0.8741084,-0.19589314,0.23481172,0.37739092,-0.60123,0.17939644,0.1081345,1.0,0.0,0.0,0.0,0.0,0.0,0.0,-1.9446243,0.27604827,-0.96703833,4.75142,-34.74547,2.416551,4.9646735,-1.1463761,0.3114283,0.44916272
-21.875305,-106.0977,-24.484924,0.37310764,2.4501014,-3.9629483,0.09445821,-0.6192324,-0.365511,0.31488374,0.40103808,-0.6514896,0.6812512,0.5463214,1.0918554,-0.62740993,-1.7890518,-0.60339075,1.8928511,1.4788313,-0.8986139,1.1416003,-0.59312475,-1.816117,-0.6375055,1.94952,1.4156233,-0.9494342,-1.1966662,-0.3239407,0.45599213,0.6190191,-0.8532906,0.4917736,0.38188052,1.2559204,-0.67783356,1.5207522,-3.8693151,-0.17836665,0.34672993,0.06764984,-0.41825104,1.0420213,0.8753853,-0.19794182,0.23797901,0.3713295,-0.70349187,-0.03363549,-0.006987593,1.0,0.0,0.0,0.0,0.0,0.0,0.0,-1.9059204,0.27783355,-0.9707522,8.499718,-38.916027,5.4173174,8.029282,-2.1607637,0.0032901764,0.26619434
-8.356772,-89.89578,-18.511137,-2.9990315,2.296333,-3.5513792,0.28536534,-0.46620226,-0.5274956,0.42228824,0.4596467,-0.67933506,0.69989485,0.53026134,1.09498,-0.6458743,-1.7738882,-0.5915408,1.8815864,1.4856128,-0.8964081,1.1308466,-0.5992321,-1.8106182,-0.63054174,1.9406966,1.4205424,-0.94560426,-1.0343422,-0.7057714,0.5797595,0.72214323,-0.89059776,0.49124745,0.3836922,1.2172546,-0.67961884,1.5234804,-3.8654466,-0.17818832,0.24819733,0.060012817,-0.4199829,1.0411986,0.8768901,-0.19944075,0.23944592,0.36599553,-0.78446895,-0.21697652,-0.10816473,1.0,0.0,0.0,0.0,0.0,0.0,0.0,-1.8672546,0.27961883,-0.9734804,16.447376,-38.007618,11.937607,10.287619,-3.3392668,-0.22160411,0.3039837
15.075165,-48.04016,-6.870556,-7.989809,1.5174004,-2.7653143,0.51022017,-0.2576915,-0.62087715,0.4965187,0.51828194,-0.7140948,0.714432,0.48096052,1.1050775,-0.6613198,-1.7609663,-0.57871354,1.8692871,1.4919856,-0.8975082,1.1224848,-0.6086019,-1.8036315,-0.622466,1.9314173,1.4254576,-0.94179434,-0.7704746,-1.0136942,0.7397102,0.8358073,-0.9409615,0.49057758,0.38071015,1.178627,-0.6814041,1.5252241,-3.8615818,-0.17801018,0.14976324,0.052001953,-0.42308807,1.0395778,0.878377,-0.20086347,0.2392243,0.36177257,-0.8078753,-0.33919108,-0.1813386,1.0,0.0,0.0,0.0,0.0,0.0,0.0,-1.828627,0.2814041,-0.9752241,26.254059,-30.71233,16.442024,11.307192,-5.276537,-0.39426088,-0.11368394
31.533949,-5.6898956,3.2456038,-9.652052,0.82863617,-2.028057,0.5723396,-0.09690008,-0.6798615,0.53878164,0.5727035,-0.7244074,0.72120255,0.40396944,1.1127948,-0.67658806,-1.7497534,-0.5651957,1.8589766,1.4975779,-0.9013974,1.1171271,-0.6203245,-1.7950885,-0.6132564,1.921646,1.4303671,-0.938075,-0.45884562,-1.225333,0.8967057,0.9491142,-0.99234545,0.4898446,0.36973685,1.1400452,-0.6831894,1.5259842,-3.8577209,-0.17783222,0.05142756,0.044128418,-0.42699432,1.0374489,0.8796475,-0.20260666,0.23754242,0.35880956,-0.7827314,-0.4042083,-0.22573124,1.0,0.0,0.0,0.0,0.0,0.0,0.0,-1.7900451,0.2831894,-0.97598416,30.743862,-21.215366,16.980183,11.245322,-6.0245633,-0.47402382,-0.9123266
30.075634,20.107332,7.152944,-5.6708846,0.47233075,-1.6066642,0.40834156,-0.05788361,-0.7139713,0.525766,0.5807318,-0.71838444,0.7236398,0.34440592,1.1113387,-0.6917216,-1.742512,-0.55518323,1.8498075,1.5027311,-0.9036344,1.1144415,-0.63347185,-1.7854221,-0.6031627,1.9114646,1.4352766,-0.93450826,-0.2062693,-1.344987,0.99437684,1.0295045,-1.0304157,0.49005052,0.3528837,1.1014938,-0.6849594,1.5257616,-3.8538637,-0.17765443,-0.046809804,0.036628723,-0.4312973,1.0349971,0.88068396,-0.20472406,0.23484538,0.3568351,-0.74316394,-0.43747556,-0.2549748,1.0,0.0,0.0,0.0,0.0,0.0,0.0,-1.7514938,0.2849594,-0.9757616,24.866604,-12.106705,11.141264,8.052122,-4.874897,-0.31647682,-1.5150785
27.066168,36.66015,8.727981,-3.23051,0.038090065,-1.4236118,0.2869825,0.0051032356,-0.72905874,0.5010789,0.5669502,-0.71161914,0.7161702,0.29473573,1.1149518,-0.70637774,-1.7353142,-0.54646766,1.8403027,1.5068936,-0.90503466,1.113793,-0.6472715,-1.7753112,-0.59262365,1.9010237,1.4401861,-0.9311399,-0.018555503,-1.3922906,1.0207409,1.0624757,-1.0519036,0.49041528,0.33187497,1.0629883,-0.68672943,1.5245574,-3.8500106,-0.17747682,-0.14494896,0.029586792,-0.43580627,1.0323048,0.8815348,-0.20705625,0.23161753,0.35549593,-0.6916903,-0.45366356,-0.27811813,1.0,0.0,0.0,0.0,0.0,0.0,0.0,-1.7129883,0.28672943,-0.97455734,18.472195,-4.929042,3.8740158,3.3983946,-3.2044172,-0.21807551,-1.9720852
21.603413,44.030663,8.511911,-0.6832167,-0.20779511,-1.3761625,0.17760457,0.05391278,-0.7380324,0.47175804,0.5581577,-0.71544594,0.71730125,0.28006402,1.1191843,-0.72107476,-1.7281355,-0.5368079,1.8294791,1.5119163,-0.9031335,1.1145579,-0.6612123,-1.7653835,-0.5820226,1.8904532,1.4451052,-0.92797846,0.10739922,-1.3954778,0.98646414,1.0598286,-1.0617929,0.4917475,0.3112349,1.0245132,-0.68849945,1.5223725,-3.8461616,-0.1772994,-0.24298997,0.023086548,-0.44041443,1.0293957,0.882265,-0.20939578,0.22825606,0.35448712,-0.6385736,-0.46375605,-0.29984277,1.0,0.0,0.0,0.0,0.0,0.0,0.0,-1.6745132,0.28849944,-0.9723725,12.422925,-0.5321264,-2.487564,-0.081419945,-1.8785954,-0.035834312,-1.9618511
3.7094986,39.911427,5.6974998,7.598384,0.23357627,-1.3563058,-0.082076386,-0.005807252,-0.745713,0.43160835,0.55211604,-0.71334386,0.72015834,0.26215187,1.1139772,-0.73578364,-1.7222227,-0.526811,1.8191189,1.5171211,-0.90176326,1.1157805,-0.6750473,-1.7561424,-0.57158655,1.8798693,1.4500452,-0.92501444,0.1274552,-1.3800262,0.9041694,1.0393451,-1.0585219,0.49495068,0.29185304,0.986084,-0.6902695,1.519208,-3.8423164,-0.17712215,-0.340933,0.01687622,-0.44514465,1.0262573,0.88303083,-0.2115027,0.2250663,0.3533671,-0.618158,-0.47691765,-0.3233206,1.0,0.0,0.0,0.0,0.0,0.0,0.0,-1.636084,0.29026946,-0.96920794,2.105601,1.3924837,-8.025873,-1.7122746,-0.056815147,0.30975938,-1.8062592
-7.0021405,41.29756,5.3977823,13.485065,0.7056657,-1.197677,-0.21590447,-0.023853268,-0.73846954,0.42970026,0.5543461,-0.7127511,0.71964604,0.26508608,1.1133951,-0.7488942,-1.7131723,-0.51615196,1.8085942,1.5220098,-0.8985058,1.1167551,-0.68865526,-1.7477005,-0.56135553,1.869358,1.4550234,-0.9222192,0.08840443,-1.3548284,0.8237435,1.0190545,-1.0494965,0.4987829,0.27601883,0.94768524,-0.6920395,1.5150647,-3.838475,-0.17694505,-0.43877807,0.010696411,-0.44994354,1.0229217,0.8839347,-0.21330172,0.22217777,0.35185063,-0.620803,-0.4830789,-0.34175348,1.0,0.0,0.0,0.0,0.0,0.0,0.0,-1.5976852,0.29203948,-0.9650647,-3.640975,2.395296,-8.174777,-1.595974,0.70614815,0.45353174,-1.4162838
-10.816232,39.733585,5.0264874,15.085142,0.91350573,-1.1707176,-0.23983532,-0.024965553,-0.7423803,0.4069612,0.5480354,-0.70907956,0.71900636,0.25822735,1.1142585,-0.7628933,-1.7070043,-0.506552,1.79845,1.526924,-0.89639646,1.1172167,-0.70205724,-1.7399929,-0.55131334,1.8589514,1.4600359,-0.91956514,0.033007216,-1.3356701,0.752436,1.000767,-1.03819,0.5022981,0.26241487,0.9093323,-0.6938095,1.5099437,-3.8346374,-0.17676812,-0.53652537,0.0043792725,-0.4548111,1.0194005,0.8850103,-0.2147813,0.2195897,0.34986588,-0.63358504,-0.489251,-0.36020923,1.0,0.0,0.0,0.0,0.0,0.0,0.0,-1.5593323,0.2938095,-0.9599437,-5.238549,1.8026829,-7.334602,-1.3782263,0.97658634,0.42535067,-1.1802316
-12.3974285,39.42027,5.184144,15.786917,1.0812397,-1.1156628,-0.23744367,-0.04479592,-0.74269325,0.39796874,0.5454069,-0.7157042,0.72411925,0.24715352,1.112737,-0.77632654,-1.700196,-0.49677265,1.787381,1.5324478,-0.8948498,1.1170965,-0.7153286,-1.7328289,-0.5414123,1.8486212,1.4650828,-0.91703695,-0.026005615,-1.3246213,0.70371836,0.9880528,-1.0318544,0.5056612,0.25024873,0.8710098,-0.6955795,1.503846,-3.8308036,-0.17659138,-0.63417494,-0.0020980835,-0.45972443,1.0157007,0.886258,-0.2159775,0.21724515,0.34742615,-0.65261096,-0.4935246,-0.37778684,1.0,0.0,0.0,0.0,0.0,0.0,0.0,-1.5210098,0.29557952,-0.95384604,-5.590123,0.9950638,-5.0530195,-0.8167386,0.4487753,0.39656162,-1.0208666
-5.938938,40.66774,5.7043314,11.963959,0.8103266,-1.15605,-0.12641227,-0.024112448,-0.74158496,0.3725561,0.5296007,-0.716115,0.7248389,0.23348664,1.1146853,-0.78948706,-1.6955732,-0.48845223,1.7770097,1.5375667,-0.89368826,1.116614,-0.7285389,-1.7260673,-0.5316667,1.8383254,1.4701582,-0.914627,-0.055024765,-1.3202642,0.66709644,0.97140676,-1.0301178,0.5080349,0.2385074,0.83273315,-0.69734955,1.4967725,-3.8269737,-0.17641482,-0.7317269,-0.008666992,-0.4646988,1.0118117,0.8876268,-0.21692532,0.21508127,0.3446768,-0.6582051,-0.4986535,-0.3970868,1.0,0.0,0.0,0.0,0.0,0.0,0.0,-1.4827331,0.29734954,-0.9467725,-2.679942,0.30872822,-3.6167264,-1.2759209,-0.16236305,0.23889542,-0.9995699
-7.9010744,39.794662,5.4843755,12.807032,0.9221722,-1.1548047,-0.15658063,-0.060803667,-0.74178094,0.34365886,0.5369509,-0.7137164,0.72410995,0.2216936,1.1105336,-0.802717,-1.6917014,-0.4779716,1.7669537,1.5425692,-0.89245766,1.1158205,-0.7417406,-1.7196662,-0.5220155,1.8280371,1.4752508,-0.91232866,-0.08648856,-1.3205463,0.6313007,0.96444196,-1.0294414,0.5098074,0.22746956,0.794487,-0.69911194,1.4887244,-3.8231475,-0.17623843,-0.8291813,-0.015335083,-0.4697342,1.0077293,0.8891143,-0.21763162,0.21307074,0.3416328,-0.6694891,-0.5044585,-0.41641548,1.0,0.0,0.0,0.0,0.0,0.0,0.0,-1.444487,0.29911193,-0.93872434,-2.9117644,-0.14939308,-3.5485744,-0.29298067,-0.257802,0.17344952,-0.91852844
-4.51003,39.259113,5.3328295,10.487909,0.7231887,-1.2163466,-0.100594506,-0.05333259,-0.74671376,0.31445056,0.5280837,-0.717202,0.72354037,0.22386253,1.1104872,-0.816412,-1.6882212,-0.46920714,1.7563169,1.5476049,-0.8899424,1.114842,-0.7549852,-1.7136486,-0.5124368,1.8177356,1.4803568,-0.9101276,-0.101096064,-1.3260937,0.5923533,0.9569935,-1.03164,0.5107891,0.21815002,0.7562866,-0.7008667,1.4797022,-3.8193252,-0.17606223,-0.9265383,-0.02204132,-0.4748459,1.0034314,0.89070415,-0.21808453,0.21120156,0.33834758,-0.67331773,-0.51336515,-0.43854502,1.0,0.0,0.0,0.0,0.0,0.0,0.0,-1.4062866,0.3008667,-0.9297022,-1.2758269,-0.68035126,-3.7624836,-0.37941933,-0.59843063,0.060403347,-0.7638931
-6.496064,41.86691,5.9062243,11.901709,0.9001937,-1.1305932,-0.13840134,-0.07760301,-0.74385744,0.31301382,0.54187965,-0.72440594,0.72016317,0.20799482,1.1070818,-0.829371,-1.6823472,-0.45824885,1.7452949,1.5523732,-0.8893281,1.1136862,-0.7682737,-1.7079322,-0.50284094,1.8073882,1.4854685,-0.908019,-0.11975573,-1.3301841,0.5653623,0.96173877,-1.0373764,0.5112013,0.20901018,0.71811676,-0.70262146,1.4697074,-3.8155067,-0.1758862,-1.023798,-0.02885437,-0.48001862,0.9989425,0.8923947,-0.21832012,0.20945492,0.33480835,-0.68299454,-0.51715386,-0.45673174,1.0,0.0,0.0,0.0,0.0,0.0,0.0,-1.3681167,0.30262145,-0.91970736,-1.6575382,-0.53732395,-2.5436163,0.8667588,-0.99749565,0.0036716461,-0.726524
1.9021224,43.964653,6.261514,7.2996044,0.5081886,-1.2020934,-0.02824761,-0.029272463,-0.7478994,0.28055874,0.536955,-0.72028434,0.723116,0.21211953,1.1107589,-0.84306365,-1.6798763,-0.44914544,1.7353598,1.5577801,-0.886807,1.1126143,-0.7816118,-1.7025249,-0.4932055,1.7969893,1.4905821,-0.9059896,-0.10267569,-1.3354783,0.5338147,0.9652197,-1.0425693,0.5112072,0.20135438,0.6799927,-0.7043762,1.4587407,-3.811692,-0.17571035,-1.1209605,-0.035606384,-0.48524475,0.99426126,0.8941408,-0.21835934,0.20780672,0.33113116,-0.6747894,-0.523162,-0.4763268,1.0,0.0,0.0,0.0,0.0,0.0,0.0,-1.3299927,0.3043762,-0.9087407,1.8222795,-0.67555904,-2.7686357,0.66821575,-1.0922194,-0.08897781,-0.60873926
-5.3724623,44.15243,6.0477276,10.888462,0.78976417,-1.1337844,-0.123202026,-0.087035686,-0.7451422,0.2572816,0.5453681,-0.7238146,0.72122264,0.19916418,1.1039107,-0.856126,-1.6767968,-0.43866867,1.7246078,1.5627043,-0.8860732,1.1114928,-0.79497755,-1.6974685,-0.48349708,1.7865428,1.4956957,-0.90403646,-0.114768565,-1.3374435,0.49695942,0.97396255,-1.0471574,0.5111825,0.19388227,0.6418991,-0.706131,1.446803,-3.807881,-0.17553468,-1.2180257,-0.042404175,-0.4905014,0.98939633,0.89596504,-0.21818432,0.20629066,0.32724068,-0.6808273,-0.5263111,-0.49438006,1.0,0.0,0.0,0.0,0.0,0.0,0.0,-1.2918991,0.30613098,-0.89680296,-1.0228918,-0.3355503,-3.4302533,1.2550354,-0.9589672,-0.068593025,-0.5720675
-7.073573,44.161427,5.8737483,11.229746,0.8022565,-1.1137105,-0.12608056,-0.098137,-0.74841183,0.23880193,0.53741854,-0.7281091,0.7248777,0.18336594,1.1016791,-0.86981875,-1.6735883,-0.42975524,1.7137319,1.5681834,-0.88569987,1.1101767,-0.8083652,-1.6927879,-0.4737491,1.7760466,1.5008112,-0.90216154,-0.13662219,-1.3397229,0.4592316,0.9764012,-1.0519806,0.51146543,0.18592644,0.6038513,-0.70788574,1.4338953,-3.804074,-0.17535919,-1.3149939,-0.04928589,-0.49580383,0.9843411,0.897883,-0.2177645,0.20494036,0.32308537,-0.68909943,-0.5290146,-0.5136896,1.0,0.0,0.0,0.0,0.0,0.0,0.0,-1.2538513,0.30788574,-0.88389534,-1.9874573,-0.36747456,-3.53176,0.62983036,-0.9795904,-0.04146099,-0.6229937
2.1326132,45.076206,5.810673,5.985469,0.31667674,-1.212289,0.0010880386,-0.045735225,-0.7531949,0.19996525,0.5289735,-0.725598,0.7214807,0.18783377,1.1056032,-0.8836847,-1.6727914,-0.42085174,1.7034868,1.5729593,-0.88337815,1.108895,-0.821792,-1.6885631,-0.46403927,1.7655162,1.5059248,-0.9003572,-0.12493671,-1.344152,0.411473,0.97014874,-1.0555983,0.51091677,0.17909433,0.56583405,-0.7096405,1.4200188,-3.8002708,-0.17518388,-1.4118651,-0.05606842,-0.5011444,0.97906816,0.8998502,-0.2170728,0.20375602,0.31879854,-0.6771266,-0.53651035,-0.53633535,1.0,0.0,0.0,0.0,0.0,0.0,0.0,-1.215834,0.3096405,-0.8700188,1.2716875,-0.59514046,-4.3394384,-0.3250122,-0.97362995,-0.17436743,-0.5511284
4.766332,43.597656,4.900983,3.8373144,-0.07328543,-1.3289638,0.026918309,-0.0432216,-0.752344,0.11116927,0.52402747,-0.7288298,0.7228628,0.17853214,1.1045728,-0.8970264,-1.6774461,-0.41163653,1.6926332,1.5782111,-0.882504,1.1077906,-0.8352531,-1.6851356,-0.45442766,1.7549514,1.5110327,-0.8986215,-0.105227165,-1.3472799,0.3213504,0.95903146,-1.0586963,0.5102847,0.17195486,0.52786255,-0.71139526,1.4051743,-3.7964714,-0.17500873,-1.5086396,-0.062690735,-0.5066376,0.97352886,0.90185595,-0.21599926,0.20284179,0.31441265,-0.65467334,-0.551019,-0.56417984,1.0,0.0,0.0,0.0,0.0,0.0,0.0,-1.1778625,0.31139526,-0.85517424,2.038555,-0.46470165,-8.578157,-0.8501768,-0.8801222,-0.20272732,-0.62873363
5.2577453,41.575268,4.0432935,2.765843,-0.30799633,-1.4045063,0.03722089,-0.045533318,-0.7560861,0.03721011,0.5083659,-0.7215595,0.72357327,0.13896275,1.1032373,-0.91086173,-1.6814146,-0.40359107,1.6827954,1.58339,-0.8847252,1.1068655,-0.8487524,-1.6828372,-0.444992,1.7443866,1.5161349,-0.8969812,-0.08829474,-1.3513384,0.20052284,0.9391877,-1.0572851,0.5096021,0.16147457,0.48992157,-0.71315,1.3893627,-3.7926757,-0.17483374,-1.6053172,-0.06902313,-0.5122986,0.9676736,0.9039099,-0.21442804,0.20229973,0.30990687,-0.62754923,-0.5710713,-0.5970196,1.0,0.0,0.0,0.0,0.0,0.0,0.0,-1.1399215,0.31315002,-0.8393627,1.7478019,-0.5535364,-11.693525,-1.7499685,-0.36604404,-0.22319555,-0.99915564
0.59329045,40.949657,3.7755527,4.830721,-0.15622208,-1.3692272,-0.015158011,-0.06408514,-0.75947475,-0.018582521,0.5070393,-0.7208941,0.7216963,0.10874179,1.100457,-0.92469984,-1.6846955,-0.39428806,1.6722971,1.5883045,-0.886107,1.1059767,-0.8622993,-1.6818035,-0.4357347,1.7338504,1.5212294,-0.895462,-0.08882547,-1.3562515,0.07198444,0.92213726,-1.0541166,0.50880575,0.14887276,0.45202637,-0.71489716,1.372585,-3.788884,-0.17465894,-1.7018982,-0.075172424,-0.5181732,0.961485,0.90603626,-0.21230201,0.20217864,0.30520478,-0.6091867,-0.5902966,-0.6304632,1.0,0.0,0.0,0.0,0.0,0.0,0.0,-1.1020263,0.31489715,-0.82258505,0.03555417,-0.6324291,-12.541142,-1.4520526,-0.13809204,-0.23591518,-1.2163281
-9.392355,36.856644,2.586025,8.921385,-0.008632615,-1.3802497,-0.12689015,-0.1120753,-0.7635535,-0.14518622,0.4977843,-0.72215956,0.7217118,0.06741951,1.0947691,-0.93865466,-1.6963221,-0.38595626,1.6616344,1.5934006,-0.88872004,1.1048151,-0.8759035,-1.6823623,-0.42664188,1.7233485,1.5263163,-0.8940906,-0.1249203,-1.3622833,-0.09810276,0.9059803,-1.0499468,0.5081744,0.1332646,0.41416168,-0.71663666,1.3548423,-3.785096,-0.17448431,-1.7983826,-0.08125305,-0.5242691,0.9549214,0.9082936,-0.20948532,0.20261653,0.30010864,-0.60592085,-0.6124007,-0.66929054,1.0,0.0,0.0,0.0,0.0,0.0,0.0,-1.0641617,0.31663665,-0.8048423,-3.4503758,-0.7343769,-16.89256,-1.3105512,0.11193752,-0.21181107,-1.5375495
-12.616704,38.642254,2.8535862,10.398386,0.11505625,-1.2925181,-0.1298369,-0.12762482,-0.7638889,-0.21414994,0.49011418,-0.7271593,0.71906936,0.08723186,1.0920527,-0.9522924,-1.7037773,-0.37763047,1.6506326,1.5982232,-0.8853674,1.103211,-0.8895582,-1.6846111,-0.41770023,1.7128638,1.5313956,-0.8928489,-0.17184873,-1.3669311,-0.2666179,0.891254,-1.0490997,0.50725895,0.12120729,0.37634277,-0.71837616,1.3361355,-3.7813118,-0.17430986,-1.8947706,-0.08734131,-0.53054047,0.9479769,0.91068685,-0.20592672,0.20368242,0.29454568,-0.6080745,-0.63017064,-0.70701396,1.0,0.0,0.0,0.0,0.0,0.0,0.0,-1.0263427,0.31837615,-0.7861355,-4.5185328,-0.6029129,-16.697252,-1.1688828,-0.27387142,-0.25388002,-1.1961296
-20.50092,40.60329,3.4599955,14.342806,0.5990749,-1.1354446,-0.17883326,-0.18254152,-0.7677986,-0.26597455,0.48845756,-0.7210728,0.7146818,0.093862645,1.0849569,-0.96633804,-1.7112086,-0.36885446,1.6407565,1.6028638,-0.88346267,1.1009527,-0.9032625,-1.6883686,-0.40886873,1.7023963,1.5364615,-0.89170545,-0.24306653,-1.3721123,-0.41145587,0.8816242,-1.0475516,0.50598806,0.11209944,0.33855438,-0.72011566,1.3164656,-3.7775314,-0.1741356,-1.9910622,-0.09358215,-0.5369339,0.94068134,0.91320956,-0.20166223,0.20534301,0.28846982,-0.627929,-0.6395978,-0.7412794,1.0,0.0,0.0,0.0,0.0,0.0,0.0,-0.98855436,0.32011566,-0.7664656,-6.898755,-0.6649971,-14.300513,-0.6214738,-0.28235912,-0.2927184,-0.88060945
-12.647501,39.761345,3.066231,9.796726,0.16206388,-1.1800098,-0.031739727,-0.17064334,-0.77985525,-0.37196657,0.45391712,-0.720828,0.7090329,0.11278854,1.0838884,-0.981248,-1.7255652,-0.36347702,1.6303135,1.6073648,-0.8804266,1.0981508,-0.91706216,-1.6936233,-0.4002599,1.6919383,1.5415102,-0.8906278,-0.2920679,-1.3830062,-0.5625513,0.85480255,-1.0466261,0.5038602,0.10622812,0.30081177,-0.72185516,1.2958335,-3.7737548,-0.1739615,-2.0872571,-0.099876404,-0.54348755,0.9329982,0.91580397,-0.19666189,0.20758644,0.28201947,-0.6312248,-0.6545375,-0.78146005,1.0,0.0,0.0,0.0,0.0,0.0,0.0,-0.95081174,0.32185516,-0.74583346,-4.747939,-1.2304068,-14.845383,-2.4297357,-0.37021637,-0.419271,-0.606063
-22.727531,47.235996,4.9855313,15.575604,1.0258735,-0.8795326,-0.09163016,-0.25311753,-0.773423,-0.35611725,0.46784154,-0.72056353,0.7128435,0.18825038,1.0728391,-0.99440444,-1.729235,-0.35347575,1.6198819,1.6127945,-0.87180275,1.094647,-0.9309286,-1.6999099,-0.39182276,1.6814765,1.5465437,-0.88953966,-0.36919722,-1.388397,-0.6492842,0.8410338,-1.0483222,0.502392,0.10985576,0.26309967,-0.72359467,1.27424,-3.7699816,-0.17378758,-2.183356,-0.106422424,-0.5500183,0.9250052,0.91843337,-0.19106719,0.21029145,0.27522862,-0.6594576,-0.65048116,-0.809394,1.0,0.0,0.0,0.0,0.0,0.0,0.0,-0.91309965,0.32359466,-0.72424,-7.5087786,-0.7048845,-8.247269,-1.0747194,-0.8580446,-0.34509897,0.40164143
-16.539349,48.989895,5.3217545,12.529391,0.89151627,-0.8407569,-7.888675e-05,-0.25085014,-0.7846711,-0.4082806,0.44390234,-0.7160314,0.71178895,0.1615602,1.0695621,-1.0093957,-1.740738,-0.34743252,1.6098733,1.6177226,-0.87338364,1.0905215,-0.944877,-1.7069099,-0.38358063,1.671007,1.551562,-0.8884286,-0.42647725,-1.3974357,-0.71512085,0.8194197,-1.0491389,0.5008284,0.11163291,0.22543335,-0.72533417,1.2516865,-3.7662122,-0.17361382,-2.2793589,-0.11316681,-0.55651855,0.9167299,0.92104846,-0.18497674,0.21333794,0.26821676,-0.6781821,-0.6460848,-0.837642,1.0,0.0,0.0,0.0,0.0,0.0,0.0,-0.8754333,0.32533416,-0.70168644,-5.583292,-1.0649204,-6.0503483,-1.9267201,-0.8380413,-0.37850142,0.20532906
-10.511854,54.662983,6.4738383,10.335569,0.95654935,-0.73611933,0.079875,-0.2535584,-0.78482187,-0.40907216,0.44133747,-0.7053393,0.70668304,0.2057878,1.0651656,-1.0233592,-1.7478172,-0.33944687,1.6004732,1.6222303,-0.8678498,1.0859915,-0.95889795,-1.7142913,-0.37552494,1.6605548,1.5565611,-0.887268,-0.46151677,-1.4042469,-0.7436548,0.80149215,-1.0468261,0.49886656,0.11774748,0.18779755,-0.72707367,1.2281735,-3.7624466,-0.17344023,-2.3752658,-0.120025635,-0.5629425,0.9082213,0.92358893,-0.17852709,0.21658038,0.2611599,-0.6899189,-0.6357067,-0.8594693,1.0,0.0,0.0,0.0,0.0,0.0,0.0,-0.8377975,0.32707366,-0.6781735,-3.4226596,-0.84347725,-2.1535993,-1.6297817,-0.6513119,-0.42921305,0.64534545
-15.065111,57.035866,6.8567967,12.85862,1.2670113,-0.6628748,0.013942987,-0.29908082,-0.7855065,-0.4428061,0.4545558,-0.7005528,0.7047021,0.20880634,1.0560834,-1.0374486,-1.758572,-0.33006936,1.5904995,1.6270313,-0.86638737,1.081061,-0.9729694,-1.7219284,-0.3675341,1.6501387,1.5615412,-0.8860454,-0.5030872,-1.4087137,-0.7678375,0.7988784,-1.0429311,0.49690384,0.12397849,0.15019989,-0.7288132,1.2037022,-3.7586849,-0.17326683,-2.4710767,-0.12708282,-0.5692215,0.89952236,0.9260513,-0.1717882,0.21995904,0.2540386,-0.71150273,-0.62000424,-0.8775005,1.0,0.0,0.0,0.0,0.0,0.0,0.0,-0.80019987,0.32881317,-0.6537022,-4.06003,-0.61872005,-1.672554,-0.07574558,-0.5479574,-0.43146014,0.6715685
-13.2393875,60.31924,7.210158,12.130517,1.2466465,-0.60772973,0.04624007,-0.31244776,-0.7824183,-0.46250632,0.44077268,-0.6944784,0.70406127,0.23514579,1.0498163,-1.0512112,-1.7681789,-0.32345682,1.5806909,1.6319473,-0.8625308,1.0757586,-0.9870523,-1.7297943,-0.35958713,1.6397742,1.5665022,-0.8847465,-0.53913337,-1.4087392,-0.79015034,0.79380023,-1.0377678,0.4951016,0.13202024,0.11264038,-0.7305374,1.1782736,-3.754927,-0.1730936,-2.5667918,-0.13434601,-0.575325,0.8906619,0.92842007,-0.16478978,0.2234606,0.24687222,-0.7287558,-0.6015747,-0.8929404,1.0,0.0,0.0,0.0,0.0,0.0,0.0,-0.76264036,0.3305374,-0.62827355,-3.5350084,-0.17712116,-1.403153,-0.3595829,-0.4897356,-0.4201591,0.83992183
-7.3286896,62.66997,7.4881263,9.722458,1.1228215,-0.5852204,0.09566055,-0.30091485,-0.78528255,-0.46426994,0.44479707,-0.6914596,0.70760417,0.2482283,1.045667,-1.0655806,-1.7762213,-0.31510743,1.5706283,1.6372626,-0.85992366,1.0702521,-1.0011352,-1.7378204,-0.35165828,1.6294593,1.5714499,-0.8833646,-0.55445945,-1.4087356,-0.8037578,0.79291475,-1.032861,0.49383882,0.1403629,0.07511902,-0.73226166,1.1518884,-3.7511728,-0.17292055,-2.6624112,-0.14169312,-0.5812454,0.88166034,0.93066674,-0.15758353,0.22704577,0.23974353,-0.7366239,-0.58332723,-0.9065925,1.0,0.0,0.0,0.0,0.0,0.0,0.0,-0.725119,0.33226165,-0.60188836,-1.5136838,-0.1691103,-0.44704676,0.00054836273,-0.5607128,-0.3747821,0.85665286
-5.1187677,63.106125,7.306455,8.721108,1.0170757,-0.5932698,0.10989222,-0.30850518,-0.7861506,-0.49337095,0.44629347,-0.6852066,0.70363367,0.252169,1.0394015,-1.0797503,-1.7871575,-0.30702895,1.5609386,1.6418133,-0.85814774,1.0646521,-1.0152191,-1.7460582,-0.34372085,1.6192015,1.5763842,-0.8819055,-0.56171644,-1.4088373,-0.8273206,0.7942286,-1.0269163,0.49236715,0.14784779,0.037635803,-0.7339859,1.1245478,-3.7474225,-0.17274766,-2.757935,-0.14909363,-0.58701324,0.8725152,0.93277943,-0.15017077,0.23071241,0.23268658,-0.7398552,-0.56700325,-0.9210991,1.0,0.0,0.0,0.0,0.0,0.0,0.0,-0.6876358,0.3339859,-0.5745478,-0.7272363,-0.17595291,-1.4206886,0.19345284,-0.45921803,-0.40385127,0.7537484
-4.6314554,59.7661,6.3895726,7.8616695,0.7990663,-0.6544099,0.11804668,-0.3213304,-0.7934298,-0.5465296,0.4329963,-0.6776822,0.6937029,0.20777063,1.0325191,-1.094562,-1.8007112,-0.30042124,1.5514333,1.6457545,-0.86112845,1.0589739,-1.0293373,-1.7547424,-0.33582872,1.6090201,1.5812956,-0.8804149,-0.5698582,-1.4133852,-0.879194,0.7877814,-1.0185914,0.48993662,0.14943731,0.00019073486,-0.73571014,1.0962527,-3.743676,-0.17257494,-2.8533635,-0.15647125,-0.59264374,0.8631727,0.93475837,-0.14246003,0.23451318,0.22568892,-0.73976606,-0.5570433,-0.9425743,1.0,0.0,0.0,0.0,0.0,0.0,0.0,-0.6501907,0.33571014,-0.54625267,-0.81692934,-0.61018467,-4.3218493,-0.590992,-0.14531612,-0.5152166,0.13628304
-22.284225,57.248745,5.7129035,15.174068,1.2984086,-0.6272593,-0.030254342,-0.4044332,-0.793742,-0.6025784,0.43956506,-0.6781575,0.67946196,0.21610005,1.0185306,-1.1087115,-1.8150002,-0.2918722,1.5412043,1.6492418,-0.8588049,1.0528551,-1.0435032,-1.7641551,-0.32796615,1.5989093,1.5861727,-0.87890905,-0.6257184,-1.4182665,-0.95954704,0.7862815,-1.0118142,0.486175,0.15087411,-0.037216187,-0.7374344,1.067004,-3.7399333,-0.1724024,-2.9486966,-0.16409302,-0.5981369,0.85359025,0.93663996,-0.1343067,0.23855725,0.21853523,-0.76751256,-0.5420959,-0.9674233,1.0,0.0,0.0,0.0,0.0,0.0,0.0,-0.6127838,0.33743438,-0.51700395,-5.49376,-0.66058636,-7.2570324,0.018024445,-0.27542114,-0.65808296,0.13217628
-23.39624,55.71682,5.2408304,15.018687,1.2250228,-0.6111804,-0.004279107,-0.41974968,-0.8004692,-0.6432696,0.41428277,-0.6719835,0.6693318,0.18212311,1.0108801,-1.12355,-1.8284822,-0.2865379,1.5317109,1.6531059,-0.86069673,1.0461241,-1.0577396,-1.7744472,-0.32022566,1.5888671,1.5910059,-0.8774194,-0.6884257,-1.4260962,-1.0498066,0.7704514,-1.004604,0.48154324,0.14827234,-0.07459259,-0.73915863,1.0368026,-3.736194,-0.17223004,-3.0439343,-0.17198181,-0.60352325,0.8437223,0.93842065,-0.1256155,0.24289161,0.21116601,-0.79525316,-0.528294,-0.9972187,1.0,0.0,0.0,0.0,0.0,0.0,0.0,-0.5754074,0.33915862,-0.48680264,-6.179559,-0.9497881,-8.259201,-1.4261723,-0.2227068,-0.7635832,-0.2921164
-28.351189,54.252884,4.9032335,16.589167,1.3608955,-0.5728273,-0.003650725,-0.4704909,-0.8086673,-0.6859396,0.3934825,-0.66374695,0.6478871,0.16940998,0.999075,-1.1386063,-1.8430412,-0.2808774,1.5224924,1.6557946,-0.8604784,1.0386473,-1.072081,-1.785651,-0.31273264,1.5789088,1.59578,-0.875966,-0.76722974,-1.4373631,-1.1413544,0.7428586,-0.9961129,0.4750732,0.14418696,-0.11192322,-0.7408829,1.0056497,-3.7324584,-0.17205785,-3.1390767,-0.18019104,-0.60873413,0.8335272,0.9400874,-0.1163277,0.2475052,0.20357983,-0.8306763,-0.512691,-1.0309101,1.0,0.0,0.0,0.0,0.0,0.0,0.0,-0.53807676,0.34088287,-0.45564967,-7.769716,-1.2915134,-8.402443,-2.5819898,-0.09883642,-0.9656906,-0.44042766
-22.10499,55.764748,4.961091,13.46185,1.1230321,-0.508577,0.12938273,-0.49030682,-0.8106453,-0.72312516,0.3465196,-0.6575043,0.626985,0.20486403,0.98961663,-1.1531456,-1.8579634,-0.27808067,1.5131583,1.6584785,-0.8554796,1.0304476,-1.0865253,-1.7977111,-0.3057074,1.5690364,1.6004778,-0.8745269,-0.83744895,-1.4472226,-1.2247587,0.68939435,-0.9875005,0.46703807,0.14355806,-0.14922333,-0.7426071,0.973546,-3.7287266,-0.17188582,-3.2341242,-0.1886673,-0.6138153,0.8229813,0.94159347,-0.10642851,0.25236657,0.1959226,-0.85357577,-0.49795184,-1.0663745,1.0,0.0,0.0,0.0,0.0,0.0,0.0,-0.50077665,0.3426071,-0.42354602,-6.957257,-1.1331081,-7.529664,-5.2482486,-0.13229847,-1.1321306,-0.1265198
-13.42748,56.18688,5.014386,8.965769,0.8621035,-0.43750972,0.31154895,-0.5211265,-0.8176729,-0.7359756,0.25903866,-0.62839687,0.5908402,0.19861782,0.97833496,-1.1682926,-1.8713087,-0.2798035,1.5061967,1.6595619,-0.85466516,1.0215937,-1.1010727,-1.8104255,-0.2995662,1.5593222,1.6050745,-0.8730964,-0.9012901,-1.4574394,-1.2843444,0.58904785,-0.96947426,0.45621738,0.1426478,-0.18647766,-0.74433136,0.9404926,-3.7249987,-0.17171396,-3.3290765,-0.19725037,-0.6187744,0.81205773,0.94288754,-0.0959544,0.25736067,0.18847077,-0.8611966,-0.48559073,-1.105011,1.0,0.0,0.0,0.0,0.0,0.0,0.0,-0.46352232,0.34433135,-0.39049256,-6.365752,-1.1322975,-5.1561356,-10.02351,0.8212805,-1.4115691,-0.16948879
4.804239,55.22572,4.776232,-0.481493,0.12412697,-0.36186337,0.66084516,-0.5419083,-0.8213597,-0.74649704,0.08251443,-0.5800816,0.5511519,0.18231794,0.9674029,-1.1832086,-1.8850752,-0.29131478,1.501314,1.6601897,-0.8548646,1.0121905,-1.1157078,-1.8235672,-0.29514116,1.549919,1.6095415,-0.8716878,-0.95353925,-1.465607,-1.3217404,0.3932381,-0.93334985,0.44262818,0.13988669,-0.22370148,-0.74604034,0.9064903,-3.7212746,-0.17154229,-3.423934,-0.20566559,-0.6236572,0.80068654,0.94389796,-0.08494304,0.26233676,0.18171579,-0.8343843,-0.48298967,-1.1520225,1.0,0.0,0.0,0.0,0.0,0.0,0.0,-0.4262985,0.34604034,-0.3564903,-5.278814,-0.8523226,-3.060174,-19.721245,2.7498841,-1.6761422,-0.39280057
25.646194,50.203438,3.9160194,-12.145439,-0.92331004,-0.28976017,1.1326053,-0.57566935,-0.8279542,-0.7491574,-0.18333924,-0.53837925,0.5142767,0.21484527,0.9546235,-1.1985031,-1.8984829,-0.31347507,1.4960811,1.6609693,-0.8502033,1.0022062,-1.1304643,-1.8374195,-0.293816,1.5417746,1.6129484,-0.87053335,-1.0311136,-1.4882429,-1.5206038,0.010263699,-0.63532746,0.0963597,0.12342676,-0.25589752,-0.7479248,0.8818039,-2.1641836,-0.16318946,0.48768985,-0.21360779,-0.6288376,0.78871477,0.9447062,-0.07301244,0.26674873,0.17619434,-0.8033128,-0.56087834,-1.2215382,1.0,0.0,0.0,0.0,0.0,0.0,0.0,-0.39410245,0.3479248,-0.33180386,-10.523998,-3.6939383,-37.479473,-43.63411,53.907955,-67.98555,-3.4615054
-86.834175,176.0,37.50161,71.49241,13.225119,2.4472036,-1.5880895,-0.7158279,-0.4322626,0.57630354,0.6976857,-0.5570923,0.73976886,0.07285122,0.9306234,-1.1736906,-1.7797892,-0.22404742,1.4860654,1.6869253,-0.8632482,0.99170876,-1.146261,-1.8334408,-0.28875914,1.5223502,1.6131964,-0.86779916,-1.0552282,-1.6109653,1.0418017,0.6738132,-2.3833613,0.004250333,0.32760423,-0.27752686,-0.7495575,0.8859407,-2.1620197,-0.1630263,0.38901633,-0.22328186,-0.6324005,0.7784889,0.94595766,-0.06302543,0.26872435,0.17023227,-1.0222692,-0.28081578,-0.9602083,1.0,0.0,0.0,0.0,0.0,0.0,0.0,-0.37247312,0.3495575,-0.33594066,-2.189207,-12.508702,257.56967,67.243515,-176.39108,-8.241722,21.678928
-53.205856,146.58694,24.675982,48.02366,9.7837305,0.9762714,-1.5153338,-0.5215225,-0.75549084,0.35043067,0.68979496,-0.6067077,0.70649403,-0.28397107,0.9395565,-1.2218101,-1.7983977,-0.21977964,1.4616795,1.6838458,-0.89619625,0.98137474,-1.1620176,-1.8179207,-0.27906504,1.4985541,1.6134768,-0.8647922,-1.0233788,-1.5624924,1.7104231,1.0727315,-2.3690057,0.0401041,0.29580653,-0.29912567,-0.7511902,0.88909143,-2.1598582,-0.1628633,0.29044145,-0.23472595,-0.6339493,0.77016103,0.9477082,-0.056428164,0.26847038,0.16306056,-1.1861602,-0.10416237,-0.7951128,1.0,0.0,0.0,0.0,0.0,0.0,0.0,-0.3508743,0.35119018,-0.33909142,4.0195465,5.2598953,63.371586,41.319477,4.259777,4.841458,-1.9321918
30.47172,141.40274,18.570593,8.793837,4.308318,0.52411646,-0.6297558,-0.28135362,-0.694973,0.33500814,0.66678494,-0.6613255,0.6697305,-0.18248282,0.9532394,-1.2315149,-1.7844199,-0.21238655,1.4324216,1.6804498,-0.8830405,0.97261906,-1.1767023,-1.8008156,-0.2664651,1.4774607,1.6144743,-0.8622087,-0.8246501,-1.4371148,1.7104226,1.327091,-2.0249527,0.12162849,0.24931185,-0.32070923,-0.7528229,0.8912572,-2.1576989,-0.16270047,0.19196513,-0.24645996,-0.6343994,0.7630904,0.9497179,-0.05208729,0.26682615,0.1553278,-1.1718575,-0.017580362,-0.6834596,1.0,0.0,0.0,0.0,0.0,0.0,0.0,-0.32929075,0.35282287,-0.3412572,20.332373,12.530851,4.7683716e-05,26.839233,33.78215,8.735411,-3.6274524
32.19445,129.47926,13.332163,2.4044394,2.199356,0.19499731,-0.28065115,-0.3481538,-0.6420851,0.42406428,0.7154639,-0.6769497,0.6844133,-0.09164297,1.7802359,-1.0646509,-1.8151424,-1.1170107,1.9373155,1.1170107,-0.91629785,1.7802359,-1.0646509,-1.8151424,-1.1170107,1.9373155,1.1170107,-0.91629785,0.0,0.0,0.0,0.0,0.0,0.0,0.0,2.9935074,-0.29961395,0.36880958,-3.096032,-0.424779,5.3831706,0.5304184,-0.45448303,0.693097,0.5745483,0.17512383,0.15255436,0.7848268,0.0,0.0,0.0,1.0,0.0,0.0,0.0,0.0,0.0,0.0,-3.6435075,-0.10038605,0.18119043,0.0,0.0,0.0,0.0,0.0,0.0,0.0
-176.0,72.15006,-4.731035,110.0,10.515898,4.8791933,-3.8255324,-0.79925615,0.34094018,-0.5165169,0.74217147,0.0962344,0.6792395,-0.5807491,1.7003102,-1.0305569,-1.8667941,-1.0427935,1.9469389,1.1849346,-0.97437274,1.7787291,-1.0623602,-1.8207061,-1.1125895,1.9421048,1.1219755,-0.9180793,-0.20074075,0.30495197,-0.7411095,0.5898082,0.63780326,0.6604159,-0.23716953,2.9625702,-0.3038559,0.4218565,-3.0929365,-0.4243543,5.2785378,0.52830505,-0.45757294,0.6938945,0.5783331,0.17369327,0.15124741,0.7826146,-0.28164518,-0.41031253,0.106303245,1.0,0.0,0.0,0.0,0.0,0.0,0.0,-3.6125703,-0.09614411,0.12814352,-20.016481,30.304422,-73.93192,59.05227,63.544037,65.52147,-23.59291
-176.0,-26.513832,-44.735355,110.0,11.849779,1.551703,-3.3470447,-0.7953611,-0.14233243,-0.55836034,0.72570944,0.19873935,0.6561942,-0.59184873,1.699193,-1.0765934,-1.8765422,-1.0400186,1.9619788,1.187595,-0.97726417,1.7768961,-1.0593065,-1.8353889,-1.0993601,1.9519467,1.135039,-0.9197292,-0.17547517,0.30317047,-1.7104234,1.5701252,1.0987649,1.5145869,-0.13835521,2.9316635,-0.30809784,0.47385785,-3.0898442,-0.42393005,5.17401,0.52362823,-0.46566772,0.69472176,0.5867673,0.1702324,0.1478515,0.77773064,-0.53043365,-0.9409524,0.07547945,1.0,0.0,0.0,0.0,0.0,0.0,0.0,-3.5816636,-0.09190217,0.07614216,3.1127958,-0.85404515,-96.853874,98.880295,45.818375,83.22916,10.649502
-156.15298,105.91956,30.077454,94.50851,8.443811,7.624771,-1.8262885,-0.74371815,0.20792083,0.1569721,0.6815867,0.30213824,0.6830919,-0.52228606,1.7025243,-1.0385144,-1.8196917,-1.0312015,1.9821606,1.2033482,-0.9719578,1.7720495,-1.0559496,-1.8501995,-1.0816008,1.9627595,1.1500765,-0.9213266,-0.587773,0.34336352,-1.3982373,1.8461342,1.0702375,1.4940255,-0.1680722,2.9007874,-0.31233978,0.5248147,-3.086755,-0.4235062,5.069586,0.516098,-0.47665405,0.6970988,0.59806234,0.16504857,0.14303564,0.7711168,-0.8344785,-1.1448907,0.2957149,1.0,0.0,0.0,0.0,0.0,0.0,0.0,-3.5507874,-0.08766022,0.025185287,-41.24769,3.0656457,33.136986,28.0828,-4.3674707,-3.9644718,-3.3147871
-102.429436,109.90018,42.64377,60.9099,5.478314,7.814487,-0.3528051,-0.7704917,0.08199956,0.24558651,0.67476076,0.3420862,0.6432952,-0.57380307,1.6950004,-1.0477496,-1.8256408,-1.0141248,1.9969682,1.214406,-0.9787069,1.7630278,-1.0529684,-1.8590629,-1.0634371,1.9723382,1.1640707,-0.9232797,-1.0077568,0.28084484,-0.7084545,1.8074656,0.91467994,1.3641361,-0.20601326,2.8699417,-0.31656647,0.57472813,-3.083669,-0.42308277,4.9652667,0.5059662,-0.48848724,0.7014763,0.6103211,0.15836813,0.13692643,0.76398873,-1.0834965,-1.185736,0.48941207,1.0,0.0,0.0,0.0,0.0,0.0,0.0,-3.5199418,-0.08343354,-0.02472812,-42.253338,-6.9373074,71.203445,-3.5966158,-17.22294,-14.090753,-4.28755
-48.82838,123.89573,51.00337,34.68248,2.6231303,6.9985676,0.36450353,-0.79311806,0.17837946,0.24127266,0.6699138,0.44130132,0.6441101,-0.5857161,1.6837159,-1.0351304,-1.8349357,-0.9964457,2.0164683,1.2284818,-0.98185134,1.7504908,-1.0502313,-1.861037,-1.0468851,1.980473,1.1765887,-0.92562765,-1.3368216,0.26984376,-0.020948932,1.6044706,0.7755483,1.212796,-0.24626908,2.8391266,-0.32079315,0.6235992,-3.080586,-0.42265978,4.8610516,0.49394226,-0.4998703,0.70759064,0.62237513,0.15044592,0.12978461,0.75708055,-1.254522,-1.1089133,0.653784,1.0,0.0,0.0,0.0,0.0,0.0,0.0,-3.4891267,-0.079206854,-0.07359916,-33.203865,-1.5982807,70.57612,-20.304298,-15.185595,-15.623856,-4.5667677
-7.163151,131.02773,50.935112,17.020037,0.16172916,5.3080072,0.39925632,-0.8032356,0.3151969,0.17816631,0.65193415,0.44918162,0.6395591,-0.5985337,1.6701672,-1.0187117,-1.8432204,-0.9816917,2.025391,1.2405446,-0.985481,1.7357107,-1.0468572,-1.8580253,-1.032559,1.9875302,1.1877218,-0.9283504,-1.5258354,0.35874882,0.41251856,1.374975,0.6799729,1.0799701,-0.28275573,2.808342,-0.32501984,0.6714288,-3.0775058,-0.42223722,4.756941,0.4808426,-0.510025,0.71505344,0.6338145,0.14166112,0.12240149,0.75048596,-1.3408886,-0.97086775,0.7760053,1.0,0.0,0.0,0.0,0.0,0.0,0.0,-3.458342,-0.07498017,-0.12142879,-19.175434,8.514881,44.533344,-23.066187,-10.243225,-13.335443,-4.1811466
16.194996,139.68314,48.92641,9.714662,-1.4450458,3.844224,0.053043835,-0.81279254,0.48549035,0.071755245,0.63913745,0.46332642,0.6339486,-0.59946114,1.6544315,-0.9983082,-1.8508497,-0.9686453,2.0338628,1.2511168,-0.9882965,1.7199179,-1.0417265,-1.8530071,-1.0201632,1.9939961,1.1976877,-0.9313955,-1.5978218,0.56328136,0.53394794,1.1940961,0.6343457,0.9692158,-0.31342876,2.777588,-0.3292389,0.7182181,-3.074429,-0.42181507,4.652934,0.46733093,-0.5186386,0.72356355,0.6447461,0.13238227,0.11575867,0.7438933,-1.3646103,-0.81119657,0.87335384,1.0,0.0,0.0,0.0,0.0,0.0,0.0,-3.427588,-0.070761114,-0.16821808,-7.476616,20.141579,12.892479,-18.184662,-4.863322,-10.931694,-3.5572588
26.372355,139.02039,46.15781,8.145189,-1.7948103,2.9336367,-0.13632119,-0.81980056,0.5768478,0.08961062,0.6388763,0.5140323,0.6234886,-0.575584,1.6379378,-0.9840417,-1.844046,-0.9562755,2.0453994,1.2600366,-0.9889539,1.7039648,-1.0342897,-1.8480098,-1.0089918,2.0003898,1.2066828,-0.9346866,-1.5954672,0.80316675,0.4901066,1.091322,0.64056534,0.87665075,-0.33565193,2.7468643,-0.33345032,0.76396805,-3.071355,-0.42139333,4.5490313,0.45380402,-0.52571106,0.73296416,0.65536517,0.122830555,0.110295326,0.73705095,-1.357344,-0.6602502,0.95965594,1.0,0.0,0.0,0.0,0.0,0.0,0.0,-3.3968644,-0.06654969,-0.21396804,-0.021195412,23.732208,-3.8270652,-10.33802,0.4559517,-9.128022,-2.627927
30.489246,131.90416,42.9683,7.821951,-1.7002916,2.3812976,-0.18645288,-0.8108551,0.6482078,0.11188163,0.63458097,0.5239549,0.6266301,-0.55033964,1.6228793,-0.96946895,-1.8368217,-0.94553375,2.0527854,1.2693458,-0.9897206,1.6883436,-1.0245775,-1.8438785,-0.9983619,2.0070007,1.214873,-0.9381446,-1.5517445,1.0265565,0.38924307,1.0533378,0.66784614,0.7998736,-0.35039496,2.7161713,-0.33766174,0.8086798,-3.0682845,-0.42097202,4.4452324,0.4404297,-0.53141785,0.7431567,0.66578525,0.11308114,0.106014736,0.72986543,-1.336566,-0.5245312,1.0365634,1.0,0.0,0.0,0.0,0.0,0.0,0.0,-3.3661714,-0.062338263,-0.2586798,4.148674,22.122204,-9.602147,-3.8671017,2.6109338,-7.635939,-1.8344223
26.980976,114.32388,36.542282,7.9895988,-1.2304609,1.8570942,-0.15696493,-0.806915,0.6859316,0.105108045,0.62661606,0.5449577,0.63783926,-0.53663576,1.6076522,-0.95598435,-1.8333677,-0.9357003,2.0614965,1.2786568,-0.9918082,1.6732222,-1.0130571,-1.8407848,-0.9878295,2.0139663,1.2224013,-0.9417123,-1.4995542,1.1932824,0.28419113,1.0528402,0.7059113,0.7371248,-0.3598718,2.6855087,-0.34187317,0.8523544,-3.0652168,-0.42055112,4.3415375,0.42725372,-0.53595734,0.75394654,0.67604536,0.10321401,0.102670625,0.7223353,-1.3157291,-0.41635144,1.0905966,1.0,0.0,0.0,0.0,0.0,0.0,0.0,-3.3355088,-0.058126837,-0.3023544,5.0353527,16.503407,-10.091734,-0.15733242,3.720963,-6.30126,-1.2623012
20.336233,93.964264,29.405207,8.139191,-0.679297,1.4186907,-0.0907747,-0.8056384,0.704862,0.09383902,0.61742896,0.5638363,0.6449268,-0.5342407,1.5926584,-0.9425709,-1.8314009,-0.9260866,2.07035,1.286894,-0.9951364,1.6585432,-1.0003752,-1.8385704,-0.9772056,2.0213287,1.2293917,-0.9453544,-1.4578854,1.2926431,0.20191202,1.0650512,0.7457871,0.686164,-0.36649948,2.6548767,-0.34606934,0.89499277,-3.0621521,-0.42013067,4.237946,0.41423798,-0.53964996,0.7650722,0.68613976,0.093331486,0.09993327,0.71450317,-1.3012435,-0.33658442,1.1174903,1.0,0.0,0.0,0.0,0.0,0.0,0.0,-3.3048768,-0.05393067,-0.34499276,4.0130854,9.811997,-7.8653336,1.064086,3.9330602,-5.1411867,-0.9499788
15.246661,79.766525,24.878803,8.29523,-0.2395817,1.218669,0.00023801625,-0.80156213,0.7190739,0.10378754,0.6108584,0.5775957,0.6480077,-0.5375392,1.578387,-0.92846775,-1.8281916,-0.91611975,2.0790882,1.2941924,-0.9991083,1.6441694,-0.98710763,-1.8368595,-0.96646625,2.0290534,1.2359434,-0.94905275,-1.4310181,1.3378913,0.16215388,1.0762484,0.7813102,0.6448287,-0.37184,2.6242752,-0.3502655,0.936593,-3.0590906,-0.41971064,4.1340637,0.40131378,-0.54268646,0.7763347,0.696025,0.083483666,0.09749241,0.7064523,-1.2941885,-0.27495882,1.1269294,1.0,0.0,0.0,0.0,0.0,0.0,0.0,-3.2742753,-0.049734503,-0.38659298,2.547288,4.430318,-3.6157699,0.93081,3.5038233,-4.1734934,-0.81292987
10.3237095,69.63754,21.298733,8.892973,0.04965353,1.0732678,0.029074047,-0.7992839,0.7297898,0.08969554,0.6142079,0.5782186,0.65498596,-0.5252837,1.564241,-0.91412866,-1.8278899,-0.90504545,2.0868752,1.301442,-1.0015811,1.6299578,-0.9736408,-1.8353813,-0.9556239,2.0370567,1.2421461,-0.9527864,-1.4181364,1.3493729,0.14429879,1.0861704,0.80611545,0.61185426,-0.37483987,2.5937042,-0.35446167,0.97715527,-3.0560322,-0.41929102,4.0302854,0.3883896,-0.54519653,0.7875947,0.7056812,0.073690794,0.09516318,0.6982318,-1.2934713,-0.22664389,1.1234165,1.0,0.0,0.0,0.0,0.0,0.0,0.0,-3.2437043,-0.045538336,-0.42715526,1.1567116,1.0729551,-1.4325589,0.78697205,2.4456382,-3.324294,-0.5708635
7.900953,62.717785,18.716557,8.716648,0.14638901,0.91929877,0.049041238,-0.79538494,0.73088926,0.074202076,0.60999304,0.5808856,0.65771604,-0.52292,1.5504193,-0.90055186,-1.8279611,-0.8946246,2.0951452,1.3079177,-1.0050784,1.6158148,-0.9602064,-1.8340213,-0.94473296,2.0452354,1.2480665,-0.95654196,-1.4134614,1.341216,0.13424209,1.0892798,0.8219787,0.5856188,-0.37673172,2.5631638,-0.35865784,1.0166805,-3.0529768,-0.41887182,3.9266112,0.37545776,-0.54727936,0.798741,0.71509606,0.06397975,0.0928792,0.68986785,-1.2941338,-0.18555379,1.1092416,1.0,0.0,0.0,0.0,0.0,0.0,0.0,-3.2131639,-0.04134217,-0.46668047,0.339818,-0.87394714,-0.6672144,0.091814995,1.5651107,-2.6182294,-0.4509747
8.483598,61.846703,18.452103,8.281843,0.09660047,0.89986837,0.08213225,-0.79059654,0.73484474,0.079009905,0.6022656,0.58162504,0.66392356,-0.5266776,1.5367552,-0.8867219,-1.8261204,-0.8845064,2.1033978,1.3144588,-1.0092098,1.6016985,-0.9468874,-1.8326786,-0.9338744,2.053517,1.2537676,-0.9603166,-1.4115121,1.3285652,0.13558038,1.0839376,0.83026993,0.5650369,-0.37855873,2.5326538,-0.36283875,1.0551697,-3.0499244,-0.41845304,3.8230405,0.36253357,-0.5489273,0.809733,0.72424376,0.05433816,0.090620264,0.6814002,-1.293146,-0.14252308,1.0934421,1.0,0.0,0.0,0.0,0.0,0.0,0.0,-3.182654,-0.03716126,-0.5051697,0.06289482,-1.3222933,0.49665868,-0.7550001,0.8009553,-2.03861,-0.4490137
6.621229,61.333508,17.69461,9.187767,0.11382085,0.86329377,0.03922616,-0.79391366,0.73849523,0.055690598,0.6080143,0.57945,0.67373943,-0.51911795,1.5223072,-0.8730379,-1.8271095,-0.873073,2.111462,1.3211416,-1.0122284,1.587567,-0.93366945,-1.8314006,-0.923055,2.0618408,1.2592989,-0.9641008,-1.4140472,1.3193327,0.12638944,1.0805475,0.8328459,0.5493341,-0.37921837,2.5021744,-0.36701965,1.0926241,-3.0468752,-0.41803467,3.7195735,0.34960938,-0.5501785,0.82056177,0.7331463,0.04475193,0.08842859,0.67281055,-1.2932969,-0.101555936,1.0767642,1.0,0.0,0.0,0.0,0.0,0.0,0.0,-3.1521745,-0.032980353,-0.54262406,-0.38628578,-0.98028183,-0.5657464,-0.5537033,0.23626089,-1.5564561,-0.3206253
8.755046,64.73683,18.96169,8.818005,0.017335713,0.933148,0.08559113,-0.79327613,0.7424147,0.07573862,0.59124446,0.58888924,0.6709741,-0.52322954,1.5082394,-0.859428,-1.8238268,-0.8639305,2.1207297,1.3263963,-1.0164237,1.5734068,-0.92049634,-1.8301132,-0.9123395,2.070195,1.2646948,-0.96789354,-1.4172328,1.3164966,0.13083693,1.0678748,0.83605397,0.5363716,-0.38014305,2.4717255,-0.37120056,1.1290445,-3.043829,-0.41761672,3.61621,0.33670044,-0.55096436,0.83126014,0.74178,0.035181005,0.08631295,0.6641346,-1.2906917,-0.05338313,1.0648531,1.0,0.0,0.0,0.0,0.0,0.0,0.0,-3.1217256,-0.028799444,-0.5790445,-0.46272278,-0.34980774,0.8486599,-1.4755487,0.27325153,-1.2880802,-0.35841465
7.8536167,64.30031,18.094757,9.363435,-0.04615903,0.83160996,0.023925968,-0.792869,0.74680823,0.035899196,0.5981149,0.57503337,0.6769096,-0.5180224,1.4941199,-0.84581554,-1.8265233,-0.85252804,2.1276982,1.3323858,-1.0196958,1.5592219,-0.90730417,-1.8289516,-0.90170795,2.07853,1.2699839,-0.9716901,-1.4196037,1.3199733,0.112370305,1.0608861,0.83273846,0.52642566,-0.38030297,2.441307,-0.37537384,1.1644322,-3.0407858,-0.4171992,3.5129497,0.3238144,-0.5512619,0.8418271,0.75017416,0.025622798,0.08435211,0.6553372,-1.2861127,-0.006993379,1.051201,1.0,0.0,0.0,0.0,0.0,0.0,0.0,-3.0913072,-0.024626166,-0.61443216,-0.37858486,0.28436184,-1.4712721,-0.9049654,-0.35988092,-0.9818435,-0.26949048
9.22308,66.69554,19.061712,9.294369,-0.06655562,0.89351046,0.0712155,-0.7974739,0.74734086,0.06614372,0.5827498,0.5813593,0.6716035,-0.52018267,1.4794744,-0.8325701,-1.8223373,-0.84343296,2.136666,1.3371443,-1.0237083,1.5449969,-0.89406335,-1.8278339,-0.8911899,2.086846,1.2751833,-0.97548956,-1.4239446,1.3252891,0.11294501,1.047995,0.83083737,0.51773673,-0.3806659,2.4109192,-0.3795395,1.1987879,-3.0377457,-0.41678208,3.4097927,0.31098938,-0.5510864,0.852291,0.7583118,0.016046172,0.08253604,0.6464467,-1.2802995,0.044215146,1.0418471,1.0,0.0,0.0,0.0,0.0,0.0,0.0,-3.0609193,-0.020460516,-0.6487879,-0.5848646,0.46207905,0.4796639,-1.488924,-0.24528503,-0.867033,-0.29969215
8.965532,65.68402,18.165901,9.340458,-0.13021165,0.77128804,0.039607517,-0.79700303,0.7542837,0.029266512,0.5808173,0.5757254,0.6777842,-0.5057979,1.4652965,-0.818635,-1.8249072,-0.8331081,2.1444187,1.3429618,-1.0260694,1.5307375,-0.8807405,-1.8268516,-0.8807891,2.0951278,1.2803122,-0.9792804,-1.4271073,1.3343302,0.09463379,1.0368103,0.8273694,0.51126474,-0.37944838,2.3805618,-0.38370514,1.2321129,-3.0347085,-0.41636539,3.3067386,0.2982483,-0.55039215,0.8626412,0.766203,0.006460576,0.080909275,0.6374519,-1.2715255,0.093540095,1.0296484,1.0,0.0,0.0,0.0,0.0,0.0,0.0,-3.030562,-0.016294867,-0.6821129,-0.46539307,0.8400202,-1.4335766,-1.3205767,-0.38716793,-0.6349325,-0.13146996
11.9973955,65.57208,18.285284,7.500829,-0.28875506,0.695051,0.12086472,-0.79837614,0.75859094,0.04082171,0.5443456,0.59173316,0.6787274,-0.50170106,1.4509,-0.80488145,-1.8227694,-0.82635456,2.1543012,1.348185,-1.0294505,1.5164496,-0.8673204,-1.8259857,-0.87064105,2.1034286,1.2853876,-0.983056,-1.4298241,1.3443847,0.085419916,1.0067282,0.8306582,0.50641257,-0.37786493,2.350235,-0.3878708,1.2644166,-3.0316744,-0.4159491,3.2049108,0.2856369,-0.54917145,0.8728547,0.7738024,-0.003109373,0.07946592,0.6284149,-1.2554901,0.14709324,1.0153452,1.0,0.0,0.0,0.0,0.0,0.0,0.0,-3.000235,-0.012129217,-0.71441656,-0.4305601,0.9438515,-0.49031824,-3.2176733,0.26979446,-0.44585466,-0.10216832
16.654934,67.50774,19.35024,5.482044,-0.4725112,0.6569978,0.23390184,-0.79286724,0.7631396,0.068869755,0.5099433,0.5982239,0.67775583,-0.4963092,1.4371629,-0.79100645,-1.8190987,-0.8196467,2.163251,1.3531632,-1.032687,1.5021693,-0.8538002,-1.8250434,-0.860925,2.1117866,1.290423,-0.9868135,-1.4279442,1.354433,0.09893832,0.95925856,0.83726984,0.5027674,-0.37602794,2.3199387,-0.39202118,1.2957027,-3.0286434,-0.41553324,3.103185,0.27326202,-0.5473633,0.8829289,0.78102016,-0.0126683805,0.0781608,0.6194657,-1.2302586,0.2074031,1.0015304,1.0,0.0,0.0,0.0,0.0,0.0,0.0,-2.9699388,-0.007978827,-0.7457027,0.024342537,0.94542503,1.8288106,-4.955673,0.57822466,-0.2935648,-0.091302395
15.180105,67.66635,19.273144,6.9176497,-0.33127034,0.6735548,0.21258205,-0.7968122,0.76516324,0.078954905,0.51837826,0.58907914,0.6780688,-0.4808067,1.422488,-0.77728385,-1.817148,-0.8090872,2.1706946,1.3582299,-1.0348941,1.4878966,-0.84019506,-1.8238876,-0.8515771,2.1201828,1.295426,-0.9905433,-1.4274312,1.3623719,0.12266744,0.92611295,0.83977354,0.4996995,-0.37279275,2.2896729,-0.39617157,1.3259723,-3.0256152,-0.4151178,3.0015607,0.26109314,-0.54496765,0.8928963,0.78785235,-0.022262974,0.07695075,0.6106322,-1.2086581,0.26499465,0.99162084,1.0,0.0,0.0,0.0,0.0,0.0,0.0,-2.939673,-0.0038284361,-0.7759723,-0.102591515,0.7375717,2.8333306,-3.5027266,0.17566681,-0.25597215,0.058072805
20.072865,69.04076,20.060583,4.187291,-0.5270608,0.5593109,0.36483747,-0.79615647,0.76904136,0.120129004,0.4409832,0.62573254,0.6750102,-0.47749257,1.408281,-0.76329094,-1.8118746,-0.8074788,2.182756,1.3629271,-1.0382925,1.4736315,-0.8265184,-1.8223197,-0.84281,2.1286972,1.3004042,-0.9942407,-1.4268521,1.3693033,0.16990247,0.859686,0.85509706,0.497487,-0.36959642,2.2594376,-0.40032196,1.3552133,-3.0225904,-0.41470277,2.8982804,0.24922943,-0.5419693,0.9027336,0.79421353,-0.031873357,0.07576987,0.60205305,-1.1756872,0.32781678,0.97727674,1.0,0.0,0.0,0.0,0.0,0.0,0.0,-2.9094377,0.0003219545,-0.8052133,-0.10371208,0.64418316,5.2281084,-6.8339944,1.4337301,-0.11020303,0.04557371
21.15437,71.90814,21.103462,4.7539883,-0.5008814,0.6153671,0.3955493,-0.79187286,0.7774975,0.16519505,0.43314955,0.6201427,0.68000823,-0.45375422,1.3944442,-0.7487687,-1.8058002,-0.79949504,2.1907115,1.368405,-1.0396161,1.4593912,-0.81275403,-1.8201244,-0.8346446,2.1373413,1.3053671,-0.99789137,-1.4237258,1.3785594,0.23777805,0.8015801,0.86715007,0.49612895,-0.3644173,2.2292328,-0.40447235,1.3834221,-3.0195684,-0.41428816,2.7951033,0.23770142,-0.53829956,0.9124779,0.8000593,-0.04154993,0.07456267,0.5938174,-1.1423362,0.39363927,0.96925014,1.0,0.0,0.0,0.0,0.0,0.0,0.0,-2.879233,0.004472345,-0.8334221,0.16465187,0.87759495,7.287627,-5.9689403,1.110506,-0.03466606,0.24830103
24.768118,70.587074,20.962177,2.1775427,-0.6807929,0.45599556,0.51123,-0.790203,0.77447957,0.21871433,0.36123207,0.6370242,0.6790275,-0.44567373,1.380371,-0.7353061,-1.7982529,-0.7985214,2.2010436,1.3732699,-1.0424588,1.4451872,-0.7989296,-1.817107,-0.8272441,2.1461303,1.3103205,-1.0014875,-1.4196961,1.3835483,0.32459703,0.71899205,0.88264066,0.49568275,-0.35884282,2.1990585,-0.40860748,1.4106001,-3.0165493,-0.41387397,2.6920292,0.2265625,-0.53396606,0.92210037,0.80532175,-0.051276535,0.073284246,0.586052,-1.0988228,0.46053424,0.9553313,1.0,0.0,0.0,0.0,0.0,0.0,0.0,-2.8490586,0.008607477,-0.86060005,0.26762486,0.46300888,9.173906,-8.403624,1.4545679,0.12305975,0.29712915
33.69251,70.50519,21.47338,-4.1983767,-1.2577771,0.17140374,0.7605811,-0.78763044,0.7808748,0.29620767,0.21987854,0.6615134,0.66818094,-0.4301065,1.3664242,-0.7208421,-1.7874862,-0.80525625,2.2122817,1.3771386,-1.0444981,1.431029,-0.7850479,-1.8130233,-0.821173,2.1551216,1.3152701,-1.0050199,-1.4147816,1.3896155,0.4379155,0.5693134,0.9041821,0.49578246,-0.35227066,2.1689148,-0.4127426,1.436748,-3.0135336,-0.41346017,2.5890582,0.21603394,-0.52890015,0.9314945,0.8098401,-0.060934074,0.07192496,0.57902753,-1.0293834,0.5344742,0.92913824,1.0,0.0,0.0,0.0,0.0,0.0,0.0,-2.818915,0.012742609,-0.886748,0.3704071,0.5858898,11.8276415,-15.093827,2.0492911,0.31947494,0.41293502
38.27815,68.33347,20.728941,-8.161812,-1.6595416,-0.15010685,0.8733306,-0.7835479,0.7866052,0.34186223,0.11578088,0.66397065,0.6673863,-0.405349,1.3526741,-0.7063874,-1.7788371,-0.8095949,2.2215185,1.3820087,-1.0455548,1.4169317,-0.7710937,-1.8078125,-0.8168853,2.1643074,1.3202273,-1.0084741,-1.4082165,1.397361,0.5501173,0.38169175,0.9230458,0.49695507,-0.3436559,2.1388016,-0.41687775,1.461867,-3.0105207,-0.41304678,2.48619,0.2063675,-0.5230942,0.94055045,0.8135225,-0.07039057,0.07054724,0.57293046,-0.94174767,0.6065726,0.8924658,1.0,0.0,0.0,0.0,0.0,0.0,0.0,-2.7888017,0.01687774,-0.91186696,0.57199,0.77352524,11.629295,-18.854164,1.822865,0.52832365,0.6599784
39.828957,64.383804,19.134314,-10.571419,-1.8937142,-0.49183252,0.91015285,-0.7809544,0.7906688,0.37643468,0.0058040577,0.6755581,0.6670272,-0.37214878,1.3388363,-0.69202685,-1.770169,-0.81630486,2.2318633,1.38693,-1.045689,1.4029032,-0.7570566,-1.801604,-0.8146375,2.1736763,1.3251997,-1.0118215,-1.4011836,1.4058778,0.6452799,0.1722377,0.94151676,0.4988691,-0.33213907,2.1087189,-0.42100525,1.4859581,-3.0075107,-0.4126338,2.383425,0.19763184,-0.5166321,0.94917136,0.8163598,-0.07951239,0.0692415,0.56783795,-0.84245,0.6707567,0.84628564,1.0,0.0,0.0,0.0,0.0,0.0,0.0,-2.758719,0.021005243,-0.9359581,0.66325665,0.87394714,9.793627,-21.00116,1.8482327,0.67412853,1.0089457
36.38202,63.044712,18.347282,-8.045677,-1.6658654,-0.5702479,0.83067906,-0.7717022,0.79458046,0.4234783,-0.039181408,0.67320144,0.657349,-0.27524653,1.325733,-0.67759854,-1.7592562,-0.8185556,2.2409964,1.3909346,-1.0393462,1.3889738,-0.7429346,-1.7945278,-0.8142255,2.1831863,1.3301817,-1.0149877,-1.390044,1.4145434,0.7288002,-0.0025048351,0.95449346,0.49944323,-0.31166524,2.0786667,-0.42512512,1.5090224,-3.0045037,-0.41222125,2.2807627,0.1898346,-0.50956726,0.9573726,0.81842065,-0.088296674,0.068044476,0.56370306,-0.75067097,0.72615224,0.80556047,1.0,0.0,0.0,0.0,0.0,0.0,0.0,-2.7286668,0.025125116,-0.95902234,1.1195898,0.9128332,8.471287,-17.4902,1.3896465,0.5125344,1.9528687
22.529732,60.259445,16.624859,2.028942,-0.6849119,-0.3587374,0.4922467,-0.77124876,0.7921167,0.43864465,0.022488264,0.6658176,0.6559379,-0.19054878,1.311849,-0.66372293,-1.7506633,-0.8119767,2.249768,1.3957756,-1.0340426,1.3751417,-0.72875726,-1.7868145,-0.8147376,2.1927726,1.3351599,-1.0178964,-1.3810587,1.4190565,0.78534967,-0.06749552,0.9605595,0.49828306,-0.28413287,2.048645,-0.429245,1.5310607,-3.0015,-0.41180912,2.1782029,0.18266296,-0.5020752,0.96531034,0.81993276,-0.09692244,0.06691932,0.56021243,-0.69835776,0.7647325,0.78367513,1.0,0.0,0.0,0.0,0.0,0.0,0.0,-2.698645,0.02924499,-0.9810607,0.9003401,0.5267143,5.621457,-6.534814,0.8165002,0.20017028,2.6782155
3.7125936,58.67859,15.156935,16.407125,0.6807429,0.11609373,0.030924372,-0.77840143,0.79173845,0.444123,0.15722604,0.65366524,0.6561922,-0.10149878,1.2973017,-0.6495834,-1.7424022,-0.799015,2.2581391,1.4007791,-1.0280463,1.3613364,-0.714558,-1.7787426,-0.81478816,2.202359,1.3401152,-1.0204828,-1.380558,1.4206103,0.81398565,0.01537474,0.9589451,0.49501798,-0.2504178,2.0186539,-0.43336487,1.5520742,-2.998499,-0.4113974,2.0757456,0.17557526,-0.49430847,0.9732441,0.8212258,-0.10571361,0.065775454,0.5568539,-0.7035504,0.7884026,0.79030794,1.0,0.0,0.0,0.0,0.0,0.0,0.0,-2.668654,0.033364862,-1.0020742,-0.0025510788,0.25548935,2.7343512,8.190443,0.16217232,-0.2102375,3.2846212
-13.175681,57.14587,13.928573,29.60124,1.9218915,0.6146171,-0.37780255,-0.7874777,0.7897681,0.4410446,0.32089737,0.63971984,0.66493857,0.01261443,1.2825886,-0.6355812,-1.7346381,-0.78269845,2.266331,1.406609,-1.0192213,1.3474642,-0.7003664,-1.7705696,-0.81300384,2.2118766,1.3450342,-1.0226743,-1.3896986,1.4191139,0.81789947,0.23237015,0.9504363,0.49062556,-0.20909534,1.9886932,-0.43746948,1.5720639,-2.995501,-0.4109861,1.9733909,0.16802216,-0.48636627,0.9814365,0.82259893,-0.115019456,0.06451566,0.55311763,-0.7624977,0.80257213,0.8223212,1.0,0.0,0.0,0.0,0.0,0.0,0.0,-2.6386933,0.037469476,-1.022064,-1.0229349,-0.037884712,0.21208525,21.551994,-0.4454255,-0.5276382,4.0260644
-19.09132,53.459846,12.490269,33.450157,2.2593403,0.723158,-0.5259898,-0.7951495,0.78346205,0.42968184,0.41005757,0.6179228,0.6705261,0.08147348,1.2679492,-0.6220202,-1.7276014,-0.7719981,2.273669,1.4120868,-1.014527,1.3334585,-0.6862253,-1.7625034,-0.80875236,2.2212417,1.3499113,-1.0244329,-1.4046524,1.412788,0.8022304,0.48893914,0.9332074,0.48614547,-0.16535133,1.9587631,-0.4415741,1.5910308,-2.9925063,-0.41057518,1.8711388,0.15976715,-0.47830963,0.9899689,0.82418984,-0.12498408,0.06313555,0.5487294,-0.83832747,0.8139603,0.8566012,1.0,0.0,0.0,0.0,0.0,0.0,0.0,-2.6087632,0.04157409,-1.0410309,-1.6121149,-0.5329609,-1.7396212,25.51077,-1.318264,-0.631088,4.2683244
-14.773083,49.354095,11.24016,28.571522,1.7772715,0.45926797,-0.44886208,-0.80323684,0.77908164,0.41430563,0.42889807,0.61727154,0.66990966,0.013939042,1.2531348,-0.60831714,-1.7210728,-0.7658625,2.2829688,1.4169023,-1.023039,1.3192831,-0.67216814,-1.754689,-0.80232745,2.2304428,1.3547484,-1.0258482,-1.4222028,1.4037107,0.7742064,0.6932775,0.9168459,0.4824734,-0.13375975,1.9288635,-0.4456787,1.608976,-2.9895144,-0.41016468,1.7689888,0.15089417,-0.47013092,0.998717,0.82597715,-0.1354885,0.061708484,0.54368794,-0.89597833,0.82689685,0.8737576,1.0,0.0,0.0,0.0,0.0,0.0,0.0,-2.5788636,0.045678705,-1.0589759,-1.8590927,-0.83625317,-2.89644,20.310366,-1.3119936,-0.5117953,3.0593066
-2.939805,49.506424,11.756607,18.83993,0.8254528,0.07436103,-0.14760484,-0.801522,0.7800603,0.42605627,0.40926614,0.6241584,0.6640186,0.030495035,1.239131,-0.5941621,-1.7120833,-0.7614008,2.2928586,1.4211502,-1.0227987,1.3049761,-0.65818536,-1.7470634,-0.79459697,2.2395256,1.3595549,-1.0269811,-1.4337866,1.3966411,0.7587947,0.7993464,0.90613323,0.48003232,-0.10666259,1.8989944,-0.44978333,1.6259005,-2.9865253,-0.4097546,1.666941,0.14173889,-0.46177673,1.0074816,0.82777804,-0.14629251,0.0603246,0.53827775,-0.9140481,0.8483607,0.86993897,1.0,0.0,0.0,0.0,0.0,0.0,0.0,-2.5489945,0.04978332,-1.0759006,-1.2398481,-0.67276955,-1.4829755,10.519552,-0.88609457,-0.26373267,2.5954902
6.036301,48.77,11.585602,10.805994,0.010558724,-0.3151238,0.064614475,-0.80532175,0.78161734,0.40782568,0.3998317,0.6207806,0.670966,0.024293538,1.2244439,-0.58002365,-1.7062808,-0.7546138,2.3016036,1.4266515,-1.0245517,1.2905813,-0.64424455,-1.7396057,-0.78642017,2.2485244,1.3643538,-1.0278833,-1.4417444,1.3932596,0.741929,0.82355875,0.897628,0.4801206,-0.08504011,1.8691559,-0.45387268,1.6418053,-2.9835396,-0.40934494,1.5649952,0.13263702,-0.4531784,1.0160745,0.82943374,-0.1571522,0.0590974,0.5327761,-0.8982106,0.8725676,0.8481049,1.0,0.0,0.0,0.0,0.0,0.0,0.0,-2.519156,0.053872675,-1.0918052,-0.87099075,-0.32618046,-1.5160561,2.3454309,-0.76949596,0.117474794,2.041681
13.602923,48.136875,11.6564665,4.431836,-0.56002146,-0.64471483,0.28951448,-0.79818124,0.7751182,0.41327545,0.3803771,0.6188367,0.6709996,0.13197517,1.2107632,-0.56673276,-1.6982781,-0.74838245,2.310408,1.4314537,-1.0146858,1.2761751,-0.63034856,-1.7322376,-0.7784341,2.2574508,1.3691622,-1.0285184,-1.4403502,1.3883235,0.7357258,0.79009736,0.8908916,0.48166752,-0.056678854,1.8393478,-0.45796204,1.6566913,-2.9805567,-0.40893567,1.4631513,0.12389374,-0.4443512,1.0243613,0.83080167,-0.16788416,0.058093928,0.5274547,-0.85601884,0.8966949,0.8145121,1.0,0.0,0.0,0.0,0.0,0.0,0.0,-2.489348,0.05796203,-1.1066914,0.092601776,-0.49111843,-0.3856182,-3.403747,-0.66969395,0.3663242,2.7091994
14.41279,46.536297,11.058491,3.4195604,-0.648226,-0.7969111,0.31640238,-0.7961795,0.7713535,0.39518127,0.3977969,0.60801506,0.6674534,0.20835482,1.1965572,-0.55321324,-1.6927195,-0.73865443,2.3182523,1.4359076,-1.0076829,1.2618166,-0.61650884,-1.7249763,-0.7708171,2.2662933,1.3739859,-1.028837,-1.4344485,1.3825595,0.7238355,0.75199044,0.882201,0.48315462,-0.023858333,1.8095703,-0.4620514,1.6705598,-2.9775767,-0.4085268,1.3614093,0.1156311,-0.43530273,1.0322984,0.8318442,-0.17841901,0.057347566,0.52241075,-0.80916435,0.9168191,0.77930576,1.0,0.0,0.0,0.0,0.0,0.0,0.0,-2.4595704,0.062051386,-1.1205597,0.5618334,-0.56819916,-0.979805,-3.8596392,-0.8629441,0.37875772,3.1646934
12.116171,43.032734,9.703129,4.3499203,-0.5350839,-0.90809584,0.26035324,-0.79843557,0.76588684,0.36242515,0.40503988,0.6013068,0.6682078,0.28665796,1.1819731,-0.53992015,-1.6887338,-0.7303131,2.326424,1.4408066,-1.0001712,1.2475096,-0.60274065,-1.7179649,-0.7634986,2.275048,1.378821,-1.0287969,-1.4295499,1.375059,0.6940921,0.7249831,0.8732261,0.48452446,0.013157736,1.7798233,-0.46613312,1.6834116,-2.9745996,-0.40811837,1.259769,0.10778046,-0.42610168,1.0398834,0.8326056,-0.1887319,0.05688602,0.5176022,-0.7665423,0.92978716,0.7441384,1.0,0.0,0.0,0.0,0.0,0.0,0.0,-2.4298234,0.06613311,-1.1334116,0.4620552,-0.73063374,-2.8172493,-2.7602077,-0.8546829,0.36066175,3.5993743
11.149768,39.965,8.596778,4.3366585,-0.49470493,-1.0488645,0.22826825,-0.79427665,0.7596468,0.33530873,0.38741493,0.60281885,0.6598468,0.32495913,1.1680819,-0.52677596,-1.684434,-0.72475713,2.33533,1.4448057,-0.996301,1.2332598,-0.58906114,-1.7113521,-0.7564357,2.283734,1.3836638,-1.0283887,-1.4236629,1.3657109,0.65076715,0.6998162,0.8673743,0.48490044,0.049654473,1.7501068,-0.4702072,1.6952478,-2.9716258,-0.40771034,1.1582302,0.100349426,-0.41680145,1.0471087,0.8331339,-0.19879206,0.056728173,0.51298285,-0.7245303,0.9363659,0.7080567,1.0,0.0,0.0,0.0,0.0,0.0,0.0,-2.400107,0.07020721,-1.1452477,0.5667448,-0.90692043,-4.213178,-2.582419,-0.52604675,0.26636124,3.5598733
10.04854,37.360325,7.806116,4.6507683,-0.43829924,-1.1277332,0.206915,-0.7933112,0.7485369,0.3227176,0.3759131,0.58043677,0.6593656,0.3750856,1.1539286,-0.5142075,-1.6790804,-0.71884435,2.3417778,1.4496003,-0.9908802,1.2190577,-0.5755085,-1.7051666,-0.7496007,2.2923133,1.3885084,-1.0276163,-1.4189413,1.3519801,0.60810703,0.67786187,0.8551351,0.4850467,0.08616638,1.7204056,-0.4742813,1.7060692,-2.9686549,-0.4073027,1.056793,0.093322754,-0.4074707,1.0539731,0.83346313,-0.20858495,0.056880936,0.50852346,-0.6844969,0.93876487,0.672282,1.0,0.0,0.0,0.0,0.0,0.0,0.0,-2.3704057,0.074281305,-1.1560693,0.45349598,-1.3391972,-4.1684985,-2.2659779,-1.1543632,0.24066567,3.567371
9.844178,32.27435,6.197789,3.3668432,-0.5044472,-1.3446791,0.19533294,-0.78781843,0.73202163,0.28207204,0.34512958,0.5562836,0.6565026,0.41294205,1.1402758,-0.50230634,-1.6769594,-0.7150878,2.3479416,1.4541587,-0.98632205,1.2049166,-0.56214654,-1.699496,-0.7430633,2.3007133,1.3933531,-1.026489,-1.4126319,1.3311257,0.55361086,0.6455242,0.83525234,0.4851309,0.12141628,1.6907349,-0.4783554,1.715877,-2.9656868,-0.4068955,0.95545727,0.086746216,-0.39820862,1.0604417,0.8336298,-0.218046,0.057383094,0.50420666,-0.64059514,0.93199056,0.6316883,1.0,0.0,0.0,0.0,0.0,0.0,0.0,-2.340735,0.0783554,-1.1658771,0.627923,-2.041936,-5.3913355,-3.313303,-1.909697,0.26694536,3.4552038
9.37691,31.91129,6.172094,3.8877172,-0.47702035,-1.3658625,0.19058561,-0.78337586,0.72225744,0.27254698,0.34133866,0.5229686,0.65030056,0.4700742,1.126579,-0.4899208,-1.6722413,-0.7089294,2.3530102,1.4583832,-0.9794816,1.190848,-0.5490049,-1.6943023,-0.7368062,2.3088348,1.398194,-1.0250051,-1.4051317,1.3086199,0.50803864,0.618872,0.80503476,0.48442546,0.15725133,1.6610947,-0.48242188,1.7246723,-2.9627216,-0.4064887,0.85422283,0.080581665,-0.38897705,1.0665263,0.8336516,-0.22717842,0.05825436,0.5000212,-0.59824,0.9250752,0.5942862,1.0,0.0,0.0,0.0,0.0,0.0,0.0,-2.3110948,0.08242187,-1.1746724,0.75519085,-2.2057295,-4.507458,-2.7371764,-2.9439092,0.1727879,3.5142689
8.549637,25.86766,4.1287656,2.6892982,-0.56870884,-1.6135128,0.14346315,-0.7789811,0.7022842,0.20339663,0.3081923,0.48301262,0.64619005,0.49679846,1.1129498,-0.47877648,-1.6739627,-0.705987,2.357136,1.4628129,-0.9753252,1.1768576,-0.53613126,-1.6897571,-0.73089343,2.3165748,1.4030253,-1.0231779,-1.396882,1.2804041,0.43676966,0.58178973,0.7640189,0.48365936,0.19093645,1.631485,-0.4864807,1.732456,-2.9597595,-0.40608227,0.7530896,0.07486725,-0.37991333,1.0721939,0.8335911,-0.23590378,0.059570596,0.4959097,-0.5519562,0.9069619,0.55150366,1.0,0.0,0.0,0.0,0.0,0.0,0.0,-2.281485,0.08648071,-1.182456,0.8439779,-2.766776,-7.12806,-3.7930727,-4.008162,0.2009511,3.3169627
9.864575,22.894665,3.0294733,-0.15544605,-0.80357945,-1.8798344,0.18084931,-0.7860453,0.690982,0.16161716,0.22983508,0.4733002,0.6399543,0.50283563,1.098253,-0.46703306,-1.6735954,-0.70790994,2.3639047,1.4670208,-0.9728943,1.1628996,-0.52353513,-1.6859958,-0.7256444,2.3239334,1.407849,-1.0210454,-1.3955084,1.2528622,0.3560969,0.5056132,0.72671205,0.48276353,0.22034825,1.6019058,-0.49053955,1.7392291,-2.9568005,-0.40567628,0.65205747,0.06971741,-0.3710556,1.0773841,0.83348775,-0.24407576,0.06140298,0.49188912,-0.4946763,0.8804467,0.5025875,1.0,0.0,0.0,0.0,0.0,0.0,0.0,-2.251906,0.090539545,-1.189229,0.16384125,-2.696395,-8.067644,-7.6960564,-3.6587954,0.23084283,2.9040723
14.237268,23.488855,3.4727921,-4.3550572,-1.1512778,-2.0967658,0.3393654,-0.77700627,0.6715036,0.1738762,0.13629884,0.4295343,0.6398491,0.5337834,1.085199,-0.45638478,-1.6686082,-0.71201456,2.3668869,1.4718338,-0.9676671,1.1489779,-0.51123464,-1.6828105,-0.7215026,2.3308647,1.412665,-1.0186346,-1.3907026,1.222536,0.30591038,0.38347557,0.6819824,0.48238766,0.24807341,1.5723572,-0.4945984,1.7449926,-2.9538443,-0.4052707,0.55112636,0.06524658,-0.36251068,1.0820484,0.8332889,-0.25157413,0.06376368,0.4881333,-0.42023274,0.85110664,0.44923374,1.0,0.0,0.0,0.0,0.0,0.0,0.0,-2.2223573,0.09459838,-1.1949925,0.55868626,-2.973485,-5.007577,-12.247568,-4.462135,0.32092333,2.7412624
13.029226,24.309654,4.0493855,-2.5296712,-0.85569745,-2.0291226,0.33496186,-0.77592623,0.6551829,0.16758299,0.12066583,0.44039515,0.64231384,0.54328954,1.0713853,-0.44571635,-1.6660522,-0.709436,2.3749042,1.4768964,-0.9643056,1.1351019,-0.4992421,-1.6799514,-0.71848136,2.3374603,1.4174773,-1.01597,-1.3863626,1.1917632,0.27905947,0.2748687,0.6523967,0.48185346,0.27240604,1.542839,-0.49864197,1.7497476,-2.950891,-0.4048655,0.4502962,0.061462402,-0.35422516,1.0862287,0.83296126,-0.25844094,0.06653236,0.48472375,-0.35566372,0.8225437,0.4030114,1.0,0.0,0.0,0.0,0.0,0.0,0.0,-2.1928391,0.09864196,-1.1997476,0.5110264,-3.0138016,-2.6915789,-10.888142,-2.93684,0.25185347,2.4002433
10.8624,26.5069,4.9684076,0.98389244,-0.49951285,-1.8565129,0.2807768,-0.76746,0.64238185,0.16281924,0.11700291,0.42536008,0.63627255,0.56284326,1.0583559,-0.4350039,-1.6636695,-0.7067811,2.3799963,1.4811045,-0.9596857,1.1212984,-0.48753908,-1.6772335,-0.71627265,2.343808,1.422278,-1.0130765,-1.3781393,1.1633662,0.26914164,0.20267302,0.6291169,0.48018572,0.29468867,1.5133514,-0.50268555,1.7534951,-2.9479406,-0.40446073,0.34956676,0.05821228,-0.34619904,1.0900257,0.83250064,-0.26482365,0.069572926,0.48163337,-0.30553532,0.7999841,0.36767334,1.0,0.0,0.0,0.0,0.0,0.0,0.0,-2.1633515,0.10268554,-1.203495,0.8849144,-2.7731419,-1.0236144,-7.2528067,-2.2709846,0.073069334,2.189505
6.082832,21.199512,3.3825886,4.836595,-0.12335223,-1.8209906,0.10105421,-0.755462,0.6156179,0.09958275,0.13063572,0.37238917,0.63073623,0.5744196,1.0457523,-0.4259773,-1.6672752,-0.7032091,2.3810468,1.4853517,-0.9556346,1.1076208,-0.4761646,-1.6748302,-0.7144311,2.3498352,1.427056,-1.0099809,-1.3641852,1.1290805,0.23059155,0.17779554,0.5945792,0.47763908,0.3144831,1.4838943,-0.5067291,1.756236,-2.9449933,-0.40405634,0.24893807,0.055351257,-0.33841705,1.0935085,0.83200043,-0.27082652,0.07286631,0.47866336,-0.27280137,0.77274305,0.33784762,1.0,0.0,0.0,0.0,0.0,0.0,0.0,-2.1338944,0.10672912,-1.2062359,1.4410496,-3.3558846,-3.9393692,-2.5636494,-3.3437848,-0.05402565,1.9352615
1.6434832,17.490562,2.075603,8.382267,0.12782186,-1.7670985,-0.06972075,-0.7568554,0.5992841,0.04513248,0.14162378,0.32127866,0.62945706,0.5809159,1.0319353,-0.4162362,-1.6703169,-0.70026875,2.381963,1.4900017,-0.95188934,1.0940539,-0.46513346,-1.6730297,-0.71257526,2.3554199,1.4318072,-1.006706,-1.3540585,1.0947108,0.16290748,0.18781726,0.54689604,0.4747898,0.33161524,1.4544678,-0.5107727,1.7579713,-2.942049,-0.40365237,0.14840996,0.0526886,-0.33089447,1.096728,0.83158183,-0.27651995,0.07647316,0.47556305,-0.25403246,0.74405926,0.3129519,1.0,0.0,0.0,0.0,0.0,0.0,0.0,-2.1044679,0.1107727,-1.2079713,1.0161638,-3.3650875,-6.8574934,0.885424,-4.623461,-0.1188159,1.6599953
