Afshin1997/kuka_rl_ros2/src/catch_and_throw/input_files/idealpd/polynomial_regressor/optimizer_files/env_137_data.csv
torque0,torque1,torque2,torque3,torque4,torque5,torque6,action0,action1,action2,action3,action4,action5,action6,set_target_0,set_target_1,set_target_2,set_target_3,set_target_4,set_target_5,set_target_6,joint_pos_0,joint_pos_1,joint_pos_2,joint_pos_3,joint_pos_4,joint_pos_5,joint_pos_6,joint_vel_0,joint_vel_1,joint_vel_2,joint_vel_3,joint_vel_4,joint_vel_5,joint_vel_6,tennisball_pos_0,tennisball_pos_1,tennisball_pos_2,tennisball_lin_vel_0,tennisball_lin_vel_1,tennisball_lin_vel_2,end_effector_pos_0,end_effector_pos_1,end_effector_pos_2,end_effector_rot_0,end_effector_rot_1,end_effector_rot_2,end_effector_rot_3,end_effector_lin_vel_0,end_effector_lin_vel_1,end_effector_lin_vel_2,obs_task_0,obs_task_1,obs_task_2,obs_task_3,obs_task_4,obs_task_5,obs_task_6,to_final_target_0,to_final_target_1,to_final_target_2,joint_acc_0,joint_acc_1,joint_acc_2,joint_acc_3,joint_acc_4,joint_acc_5,joint_acc_6
0.0,0.0,0.0,0.0,0.0,0.0,0.0,0.0,0.0,0.0,0.0,0.0,0.0,0.0,1.7802359,-1.0646509,-1.8151424,-1.1170107,1.9373155,1.1170107,-0.91629785,1.7802359,-1.0646509,-1.8151424,-1.1170107,1.9373155,1.1170107,-0.91629785,0.0,0.0,0.0,0.0,0.0,0.0,0.0,3.162407,-0.588047,0.2623044,-3.6792846,0.06523676,5.2658224,0.5304184,-0.45449448,0.693097,0.5745483,0.17512383,0.15255436,0.7848268,0.0,0.0,0.0,1.0,0.0,0.0,0.0,0.0,0.0,0.0,-3.812407,0.18804702,0.28769562,0.0,0.0,0.0,0.0,0.0,0.0,0.0
0.0,0.0,0.0,0.0,0.0,0.0,0.0,0.0,0.0,0.0,0.0,0.0,0.0,0.0,1.7802359,-1.0646509,-1.8151424,-1.1170107,1.9373155,1.1170107,-0.91629785,1.7802359,-1.0646509,-1.8151424,-1.1170107,1.9373155,1.1170107,-0.91629785,0.0,0.0,0.0,0.0,0.0,0.0,0.0,3.162407,-0.588047,0.2623044,-3.6792846,0.06523676,5.2658224,0.5304184,-0.45449448,0.693097,0.5745483,0.17512383,0.15255436,0.7848268,0.0,0.0,0.0,1.0,0.0,0.0,0.0,0.0,0.0,0.0,-3.812407,0.18804702,0.28769562,0.0,0.0,0.0,0.0,0.0,0.0,0.0
0.0,0.0,0.0,0.0,0.0,0.0,0.0,0.0,0.0,0.0,0.0,0.0,0.0,0.0,1.7802359,-1.0646509,-1.8151424,-1.1170107,1.9373155,1.1170107,-0.91629785,1.7802359,-1.0646509,-1.8151424,-1.1170107,1.9373155,1.1170107,-0.91629785,0.0,0.0,0.0,0.0,0.0,0.0,0.0,3.162407,-0.588047,0.2623044,-3.6792846,0.06523676,5.2658224,0.5304184,-0.45449448,0.693097,0.5745483,0.17512383,0.15255436,0.7848268,0.0,0.0,0.0,1.0,0.0,0.0,0.0,0.0,0.0,0.0,-3.812407,0.18804702,0.28769562,0.0,0.0,0.0,0.0,0.0,0.0,0.0
-176.0,62.978344,-8.236956,110.0,11.016755,4.6142807,-3.7915027,-0.81181294,0.31791008,-0.5410847,0.7404163,0.2626366,0.65940803,-0.5857525,1.6990546,-1.0328599,-1.8692509,-1.0429691,1.9635792,1.1829516,-0.9748731,1.7787997,-1.0624326,-1.821099,-1.1118151,1.9416013,1.1220156,-0.91707796,-0.19110902,0.29512382,-0.793808,0.6931775,0.5706471,0.6656258,-0.1035615,3.1256409,-0.5873985,0.31418666,-3.675606,0.06517154,5.1623716,0.52824783,-0.45783615,0.6938917,0.5782933,0.17368066,0.15134922,0.78262705,-0.28852996,-0.44650316,0.10571435,1.0,0.0,0.0,0.0,0.0,0.0,0.0,-3.775641,0.18739852,0.23581335,-19.025412,29.31267,-79.2459,69.42494,56.853413,66.03793,-10.227169
-176.0,-15.12353,-37.48673,109.739525,12.052223,1.9330208,-3.2186012,-0.80728525,-0.088462204,-0.5509704,0.70232683,0.4221397,0.6373548,-0.5728701,1.6980711,-1.0712788,-1.876196,-1.0415825,1.9838152,1.1857511,-0.974365,1.7767092,-1.0594553,-1.8356502,-1.0973173,1.949801,1.1342264,-0.916521,-0.2125276,0.29710072,-1.6775727,1.7051729,0.90364945,1.4011724,0.11152006,3.088913,-0.58675003,0.3650352,-3.671931,0.06510638,5.059024,0.5234108,-0.4663391,0.6949438,0.58650845,0.17030255,0.14835474,0.7778146,-0.55051905,-0.98221654,0.10572368,1.0,0.0,0.0,0.0,0.0,0.0,0.0,-3.738913,0.18675002,0.1849648,-1.4197737,-0.27712584,-88.97317,102.170586,33.465363,72.00234,22.348255
-151.35533,109.15965,28.387077,88.73753,8.047831,7.413917,-2.0005918,-0.7705051,0.3385117,-0.05799824,0.64955723,0.4435855,0.68526274,-0.52400064,1.6996586,-1.0256041,-1.84145,-1.0323616,1.9941595,1.2027527,-0.96892107,1.7713495,-1.05553,-1.8510425,-1.0785662,1.9591947,1.1481234,-0.9157285,-0.6437873,0.42122683,-1.4871043,1.9330473,0.94625545,1.3791584,0.06737159,3.0522232,-0.58610153,0.41485104,-3.6682599,0.06504129,4.95578,0.51565933,-0.4777031,0.69758356,0.59764093,0.16543427,0.1443098,0.77112347,-0.85750693,-1.1808794,0.3209886,1.0,0.0,0.0,0.0,0.0,0.0,0.0,-3.7022233,0.18610153,0.13514897,-43.11892,11.43651,20.854164,23.168777,2.786529,-4.2224407,-4.7772765
-93.77534,111.138855,39.70685,53.829315,4.775838,7.379664,-0.4984766,-0.77453226,0.21330181,0.011122213,0.6495862,0.45736843,0.6584117,-0.5544778,1.6938963,-1.0341997,-1.8499303,-1.0136076,2.0049314,1.2139646,-0.97117627,1.7618128,-1.0511354,-1.8619297,-1.0599924,1.968224,1.1610609,-0.91554636,-1.0581045,0.4431374,-0.94846606,1.8325936,0.883122,1.2612891,-1.1121419e-05,3.0155678,-0.58545303,0.46363524,-3.6645925,0.06497626,4.852639,0.50538635,-0.48978806,0.7021098,0.60985154,0.15937005,0.13936257,0.76371485,-1.0969028,-1.206106,0.50182045,1.0,0.0,0.0,0.0,0.0,0.0,0.0,-3.6655679,0.18545303,0.086364776,-41.76872,1.4754891,56.08802,-9.940052,-7.953143,-13.034177,-7.2765512
-38.385868,126.76119,49.35326,28.129557,1.785489,6.733951,0.2645101,-0.79551643,0.33426818,0.007773765,0.6308573,0.5295842,0.6516245,-0.55912995,1.6822611,-1.0177087,-1.8611523,-0.9969067,2.0211825,1.2262233,-0.9714593,1.7488848,-1.0461954,-1.8672378,-1.0436407,1.9766088,1.172671,-0.91607183,-1.3725245,0.50937617,-0.3849434,1.5685028,0.81923604,1.1256135,-0.07234212,2.9789505,-0.58480453,0.5113888,-3.6609285,0.06491129,4.7496014,0.49335098,-0.50117874,0.7082961,0.6219228,0.1522831,0.13376106,0.75639254,-1.2517043,-1.102907,0.6610114,1.0,0.0,0.0,0.0,0.0,0.0,0.0,-3.6289506,0.18480453,0.038611233,-31.920792,6.097144,58.33444,-26.610422,-7.6472163,-14.166427,-7.8999968
-2.7469268,120.69291,45.226673,12.53627,-0.18605226,4.8409123,0.34162137,-0.81136346,0.4222079,-0.068977006,0.6280996,0.5489275,0.636959,-0.5791428,1.6677485,-1.0039746,-1.8741355,-0.9808308,2.0315015,1.2363669,-0.9739861,1.7338396,-1.0402921,-1.8684871,-1.0299021,1.9845185,1.1830374,-0.91726774,-1.5499527,0.615955,-0.03394866,1.3082241,0.77917415,1.0065337,-0.13727523,2.9423676,-0.58415604,0.55811274,-3.6572683,0.0648464,4.6466665,0.4803772,-0.51124954,0.71568143,0.6334365,0.14454122,0.12809664,0.74930453,-1.3236381,-0.9605725,0.76529217,1.0,0.0,0.0,0.0,0.0,0.0,0.0,-3.5923676,0.18415603,-0.008112729,-18.152737,10.309744,36.398323,-26.297451,-4.6749234,-12.043571,-7.0738716
18.516727,119.93995,41.9466,6.1271973,-1.3475919,3.4376245,0.12561774,-0.8161378,0.53898257,-0.11467952,0.6198772,0.5542851,0.6383921,-0.56902206,1.6522259,-0.98639387,-1.879955,-0.9679144,2.039947,1.2468766,-0.97416997,1.7178904,-1.0329145,-1.8679283,-1.0182196,1.9921956,1.1923643,-0.9190282,-1.6110322,0.7773823,0.088651456,1.1206039,0.7630337,0.90813136,-0.19071488,2.9058228,-0.58350754,0.60380805,-3.653612,0.06478156,4.5438347,0.46710587,-0.5198364,0.72391605,0.6444432,0.13644648,0.12301363,0.74225533,-1.3381249,-0.8094168,0.8423627,1.0,0.0,0.0,0.0,0.0,0.0,0.0,-3.5558228,0.18350753,-0.053808033,-6.454587,15.889692,13.1047945,-19.02983,-1.9106269,-9.781265,-5.863124
26.910143,114.26769,38.094048,4.8421926,-1.5983973,2.5204606,-0.045201004,-0.8211272,0.6063739,-0.09647011,0.6071355,0.56675553,0.6355215,-0.5601232,1.6357777,-0.9722771,-1.8775753,-0.95750606,2.048871,1.2559165,-0.97504056,1.7018648,-1.0238565,-1.8671348,-1.0077864,1.9998574,1.2008349,-0.9212436,-1.6004673,0.9478718,0.07807034,1.0167329,0.7669054,0.82709056,-0.23318566,2.869316,-0.58285904,0.6484759,-3.6499588,0.06471679,4.441106,0.45388794,-0.5270157,0.73280686,0.65510565,0.12816414,0.11882452,0.735045,-1.3241051,-0.6725473,0.90353197,1.0,0.0,0.0,0.0,0.0,0.0,0.0,-3.5193162,0.18285903,-0.09847587,0.7758379,16.861534,-0.46328157,-10.629654,0.2605319,-8.021605,-4.693988
28.62434,107.72674,35.4252,5.625079,-1.3822026,2.1148376,-0.09173118,-0.8208258,0.6548788,-0.048063967,0.5905332,0.5725504,0.64161587,-0.55436456,1.6197822,-0.95836866,-1.8719412,-0.9487331,2.0571125,1.2649964,-0.97668004,1.6861883,-1.0132517,-1.8666999,-0.9979292,2.007628,1.2086073,-0.9238166,-1.5575613,1.0974352,0.033424318,0.97462946,0.7802614,0.7606797,-0.2667185,2.8328438,-0.58221054,0.69211715,-3.6463096,0.06465209,4.338479,0.44085312,-0.53295517,0.7422654,0.66552734,0.119721636,0.1154933,0.7275997,-1.3022422,-0.55281556,0.9588109,1.0,0.0,0.0,0.0,0.0,0.0,0.0,-3.4828439,0.18221053,-0.14211714,4.0610313,14.805579,-3.973914,-4.4348717,1.270616,-6.6120505,-3.7530036
25.534084,99.42705,32.67948,7.5668545,-0.9112614,1.9420927,-0.08644949,-0.8140999,0.68839884,-0.009667666,0.5935072,0.5708786,0.6429939,-0.54227316,1.6047783,-0.94441175,-1.8676667,-0.9385785,2.0647159,1.2729067,-0.9780439,1.6709944,-1.0014356,-1.8665969,-0.98815024,2.015532,1.2158037,-0.92666715,-1.5073626,1.2093338,0.0041327938,0.9783334,0.79357684,0.7056542,-0.2923317,2.7964058,-0.58156204,0.734733,-3.6426642,0.06458745,4.235955,0.4279976,-0.5378494,0.7522436,0.6757628,0.11107806,0.112800814,0.7199182,-1.2849766,-0.45263112,1.0097051,1.0,0.0,0.0,0.0,0.0,0.0,0.0,-3.446406,0.18156204,-0.18473297,4.832363,11.05938,-2.4828527,0.16838312,1.2837529,-5.5474997,-2.9261887
20.349401,86.99545,28.252493,8.286922,-0.47455382,1.6773068,-0.034745783,-0.81029636,0.70490474,-0.0018320438,0.57965064,0.5888781,0.6494257,-0.536265,1.5899647,-0.93094516,-1.8667802,-0.9301852,2.0744197,1.2807463,-0.98029363,1.6562296,-0.9888271,-1.866658,-0.97824824,2.0236,1.2225252,-0.92973036,-1.4667387,1.27765,-0.008048782,0.99355197,0.81117773,0.6608399,-0.31201977,2.760006,-0.58091354,0.77632433,-3.639022,0.06452288,4.133534,0.41526031,-0.5418892,0.7626077,0.685811,0.10225876,0.11049331,0.71203756,-1.2741768,-0.37253335,1.0441339,1.0,0.0,0.0,0.0,0.0,0.0,0.0,-3.410006,0.18091354,-0.22632432,3.9015293,6.725621,-0.8064892,1.32159,1.7233014,-4.5464277,-2.3017287
16.39986,78.85099,25.51065,8.639157,-0.16468102,1.5705919,0.04143738,-0.8072954,0.72307694,0.02356217,0.56655616,0.6058682,0.6526277,-0.5330151,1.5755001,-0.9165194,-1.8643018,-0.9215926,2.084187,1.287788,-0.98303187,1.6417586,-0.9757675,-1.8666332,-0.96823466,2.0318666,1.2288615,-0.9329576,-1.4410686,1.3150638,0.0073758843,1.0033121,0.8318026,0.62436163,-0.32737708,2.7236443,-0.58026886,0.8168922,-3.6353838,0.06445837,4.031215,0.40256882,-0.5452194,0.7732365,0.6956303,0.093290016,0.10834788,0.70402855,-1.2697365,-0.30353573,1.0677079,1.0,0.0,0.0,0.0,0.0,0.0,0.0,-3.3736444,0.18026885,-0.2668922,2.4122477,3.6486387,1.96555,0.7748008,2.0211816,-3.7172794,-1.8563032
13.092571,70.04486,22.153376,8.229078,-0.017707825,1.3450873,0.083469294,-0.8034204,0.72792095,0.024739772,0.55505484,0.61123246,0.65748334,-0.53519255,1.5614165,-0.9029754,-1.8641592,-0.91272914,2.0929897,1.2946098,-0.98647684,1.6274496,-0.96251905,-1.8664081,-0.95820963,2.04032,1.2348887,-0.9363174,-1.42793,1.327978,0.029062191,1.0014695,0.85012066,0.59540904,-0.33980566,2.687317,-0.579628,0.8564377,-3.6317494,0.06439392,3.9289992,0.3899002,-0.5479355,0.78398246,0.7051863,0.08423203,0.10624533,0.69593763,-1.2673798,-0.24470133,1.0753931,1.0,0.0,0.0,0.0,0.0,0.0,0.0,-3.337317,0.17962798,-0.30643767,1.1659622,1.2197495,2.570047,-0.39625168,1.8043876,-2.9252768,-1.5456975
9.764318,64.69635,19.536188,8.610595,0.03491342,1.1623472,0.047866486,-0.8010076,0.739849,0.0053766556,0.55726665,0.6004182,0.66833586,-0.5246444,1.5473489,-0.8885341,-1.8658705,-0.902483,2.1003618,1.3017223,-0.9887818,1.6132056,-0.9492029,-1.86608,-0.94822276,2.0488877,1.2406775,-0.93977445,-1.4235103,1.3326899,0.035281904,0.9970596,0.85875696,0.57317215,-0.3486721,2.6510277,-0.5789871,0.8949617,-3.6281183,0.06432954,3.8268852,0.37725067,-0.5501213,0.79472715,0.71449536,0.07514123,0.10419888,0.68774456,-1.2663859,-0.19374922,1.0724059,1.0,0.0,0.0,0.0,0.0,0.0,0.0,-3.3010278,0.17898712,-0.3449617,0.29950142,0.4125595,0.98738635,-0.65739155,0.8560419,-2.2299647,-1.1672139
9.050697,59.986534,17.389822,7.482868,-0.03867358,0.93270016,0.07001364,-0.80242115,0.74249864,-0.0068731573,0.5268631,0.6205168,0.66724396,-0.52959406,1.5329634,-0.87495303,-1.8667674,-0.8955364,2.1109395,1.3074019,-0.99273384,1.5989577,-0.9358753,-1.8657997,-0.93842566,2.0575624,1.2462775,-0.9433097,-1.4256927,1.3325987,0.026633138,0.97305447,0.8703459,0.5556503,-0.3560462,2.6147728,-0.57834625,0.93246543,-3.624491,0.06426523,3.7248733,0.36462784,-0.5518265,0.80535173,0.7235486,0.066104464,0.10224827,0.67945045,-1.2615132,-0.14652647,1.0570612,1.0,0.0,0.0,0.0,0.0,0.0,0.0,-3.264773,0.17834625,-0.38246542,-0.36506653,-0.05276203,-0.51983964,-2.6361585,1.165843,-1.7086983,-1.0039926
11.193627,60.36051,17.686522,6.185718,-0.16821653,0.90459305,0.1533157,-0.8051621,0.7468457,0.021254372,0.48925996,0.6339196,0.66975814,-0.5301238,1.5184414,-0.86119074,-1.8636743,-0.88949966,2.1209543,1.3132533,-0.9963221,1.5846564,-0.92254674,-1.8655002,-0.9290358,2.0663705,1.2517306,-0.94690984,-1.4319887,1.3329017,0.03226977,0.92680097,0.8840079,0.5420606,-0.36217594,2.578556,-0.5777054,0.9689498,-3.6208673,0.064200975,3.6229634,0.35209656,-0.5530205,0.81580895,0.73228335,0.057151645,0.10038284,0.67113185,-1.2514135,-0.09411438,1.0397949,1.0,0.0,0.0,0.0,0.0,0.0,0.0,-3.2285562,0.17770538,-0.41894978,-0.78954697,-0.008535385,0.9395048,-4.8692107,1.3646722,-1.2814999,-0.8847892
12.546355,60.416576,17.40023,5.735793,-0.28929773,0.79295826,0.15229213,-0.7983877,0.7550825,-0.00095826905,0.47642192,0.6337968,0.6747905,-0.51422364,1.5048176,-0.8470385,-1.865596,-0.8813936,2.1297503,1.3192096,-0.9983322,1.5703264,-0.9091791,-1.865237,-0.9201189,2.075293,1.2570711,-0.950551,-1.4338788,1.3380204,0.025488842,0.8791663,0.8947787,0.5318353,-0.3655761,2.5423737,-0.5770645,1.0044158,-3.617247,0.06413678,3.5211556,0.3396988,-0.5536804,0.826082,0.74068075,0.04829167,0.09864582,0.66281885,-1.235714,-0.04111083,1.0208552,1.0,0.0,0.0,0.0,0.0,0.0,0.0,-3.1923738,0.17706451,-0.45441574,-0.3451109,0.47991276,-0.32278562,-5.0074697,1.0904312,-0.9235859,-0.60509443
16.373932,62.692635,18.66758,4.3244424,-0.44045734,0.8053153,0.25903803,-0.79914474,0.75707984,0.040713303,0.42584684,0.6475103,0.6639756,-0.5112005,1.490412,-0.8334711,-1.8611656,-0.8775343,2.1400442,1.3234687,-1.0016711,1.5559889,-0.8957504,-1.8648479,-0.9118086,2.084334,1.2623202,-0.95421785,-1.4344476,1.3443875,0.044451278,0.8141991,0.90718454,0.52287537,-0.36790177,2.5062294,-0.57642365,1.0388644,-3.6136308,0.06407266,3.4194493,0.3275032,-0.5537491,0.8361851,0.74867195,0.03950372,0.097014986,0.65461266,-1.2127608,0.019555774,1.0043286,1.0,0.0,0.0,0.0,0.0,0.0,0.0,-3.1562295,0.17642364,-0.48886436,-0.22051334,0.60818195,2.2878618,-6.73846,1.2425065,-0.76828,-0.508821
16.588531,62.61183,18.344465,4.6249585,-0.46954042,0.72080153,0.23858783,-0.79548365,0.76363504,0.026133804,0.41028658,0.64389926,0.6743772,-0.49413785,1.4764405,-0.8193869,-1.8622345,-0.87077993,2.1487238,1.3297579,-1.0036316,1.5416685,-0.88223684,-1.864331,-0.90409625,2.0934663,1.2674986,-0.95789045,-1.4316181,1.3535681,0.05520475,0.75616616,0.9151654,0.51663065,-0.36784986,2.4701195,-0.5757828,1.0722969,-3.6100178,0.0640086,3.3178449,0.31556702,-0.5532265,0.846127,0.75625503,0.030773873,0.09550821,0.6465364,-1.1870999,0.07828475,0.98805577,1.0,0.0,0.0,0.0,0.0,0.0,0.0,-3.1201196,0.17578277,-0.52229685,0.13017654,0.89805126,1.4303982,-6.0349464,0.82252026,-0.4869938,-0.25764704
17.813438,62.24774,18.229961,3.9665647,-0.53893095,0.63257474,0.27454507,-0.7971778,0.7668564,0.043522026,0.3615352,0.6541023,0.6667828,-0.5028905,1.4619508,-0.8055512,-1.8599788,-0.86794275,2.1588764,1.3341769,-1.0081795,1.527371,-0.8686317,-1.8636577,-0.89703333,2.1026826,1.2726198,-0.9615659,-1.4295584,1.3627167,0.072330475,0.68893486,0.9239985,0.51116514,-0.3682731,2.4340477,-0.5751419,1.1047139,-3.6064086,0.0639446,3.216342,0.3039055,-0.55210114,0.855896,0.76341844,0.022110574,0.09413031,0.63862574,-1.156849,0.13731267,0.9701764,1.0,0.0,0.0,0.0,0.0,0.0,0.0,-3.0840478,0.1751419,-0.5547139,0.055360794,0.9039879,2.058582,-6.950724,0.91587305,-0.3835082,-0.29767156
18.98243,62.219604,18.34269,3.3747406,-0.5960316,0.58096445,0.3260809,-0.80065036,0.77001446,0.07400318,0.31107968,0.656864,0.6696464,-0.4941835,1.447306,-0.79163027,-1.8562574,-0.8659254,2.168369,1.3395845,-1.0109843,1.5130755,-0.8549427,-1.862704,-0.8907219,2.111979,1.2776972,-0.9652385,-1.4302504,1.3709537,0.10397289,0.6111901,0.93145376,0.50722754,-0.3677021,2.3980103,-0.57450104,1.1361167,-3.6028028,0.063880675,3.1149406,0.2925644,-0.55038834,0.86548257,0.77013004,0.013516348,0.09286073,0.63094676,-1.1226889,0.19740984,0.9516387,1.0,0.0,0.0,0.0,0.0,0.0,0.0,-3.0480103,0.17450103,-0.58611673,-0.21791458,0.82142353,3.5041153,-7.99309,0.78611374,-0.20555258,-0.18995404
19.091766,60.187256,17.597921,3.0830884,-0.5942737,0.4446599,0.3382716,-0.7998721,0.769419,0.08574306,0.2712918,0.6639651,0.6649443,-0.49378008,1.4330883,-0.7780008,-1.8541298,-0.86359274,2.1783755,1.3441917,-1.0146165,1.4987684,-0.8411974,-1.8614242,-0.885203,2.1213555,1.2827383,-0.96890444,-1.4311352,1.3757443,0.13707958,0.53139704,0.93959326,0.5038679,-0.36691502,2.3620071,-0.57386017,1.1665063,-3.5992007,0.06381681,3.0136404,0.2815857,-0.5480919,0.87486273,0.7763856,0.005010698,0.091683574,0.62353384,-1.0857787,0.25336754,0.930043,1.0,0.0,0.0,0.0,0.0,0.0,0.0,-3.0120072,0.17386016,-0.6165063,-0.22509098,0.48980713,3.610742,-8.189428,0.87405443,-0.12321472,-0.15022755
25.98626,60.30984,18.287783,-1.2532606,-1.0370998,0.25298947,0.5222236,-0.79469967,0.77447355,0.13673143,0.15471911,0.6732618,0.6623748,-0.49147168,1.4192985,-0.76375,-1.847751,-0.86973107,2.1886816,1.3489758,-1.0180516,1.4844786,-0.8274015,-1.8596466,-0.88083136,2.1308198,1.2877547,-0.97255987,-1.4287788,1.3809319,0.19220626,0.40511203,0.94925,0.5019129,-0.36589786,2.3260422,-0.5732193,1.1958836,-3.5956023,0.063753,2.9124417,0.27111816,-0.545166,0.88396823,0.7820705,-0.0033404604,0.09059779,0.6165602,-1.0296609,0.31755802,0.90037227,1.0,0.0,0.0,0.0,0.0,0.0,0.0,-2.9760423,0.1732193,-0.6458836,0.106453896,0.54700375,5.8093457,-12.832642,1.030159,0.12173653,-0.11857748
33.16161,58.147823,18.064777,-6.7989902,-1.6048326,-0.08737934,0.718862,-0.7937586,0.77703977,0.17432387,0.012507446,0.67435396,0.65826005,-0.47843954,1.4051027,-0.74969757,-1.8422142,-0.8795806,2.1982553,1.3535807,-1.0204039,1.4702212,-0.8135551,-1.85723,-0.87818015,2.1403718,1.2927576,-0.9761962,-1.4252325,1.3859947,0.25901985,0.2178115,0.95725304,0.50138944,-0.36344665,2.2901154,-0.57258224,1.2242497,-3.5920074,0.06368926,2.8113441,0.2613945,-0.5415497,0.8926654,0.7870349,-0.011393506,0.08964513,0.61025405,-0.9491263,0.38661554,0.85553604,1.0,0.0,0.0,0.0,0.0,0.0,0.0,-2.9401155,0.17258224,-0.6742497,0.2453804,0.55861473,6.9392176,-18.921894,0.8804202,0.3979504,0.054317713
32.545998,56.76916,17.408384,-6.504479,-1.5787745,-0.23675403,0.70296115,-0.79198074,0.7811505,0.1961818,-0.044369593,0.6755711,0.6589009,-0.45414317,1.391023,-0.7354401,-1.8376118,-0.8826171,2.207929,1.3586477,-1.0216105,1.4560038,-0.7996515,-1.8541782,-0.8773657,2.1499887,1.2977587,-0.9797887,-1.4208347,1.392035,0.3210558,0.035464577,0.9637901,0.5013705,-0.35838243,2.2542229,-0.571949,1.2516056,-3.588416,0.06362559,2.7103477,0.25247955,-0.5372925,0.90091187,0.79127115,-0.01909364,0.08885814,0.6046731,-0.8667844,0.44893476,0.8101266,1.0,0.0,0.0,0.0,0.0,0.0,0.0,-2.904223,0.171949,-0.7016056,0.3644228,0.67412853,6.360441,-18.392714,0.78487396,0.45675635,0.35835505
24.85194,58.20524,17.41385,0.027424335,-0.8942307,-0.035115033,0.5149516,-0.79166585,0.7836318,0.23705576,-0.024171928,0.6818324,0.6610071,-0.41969514,1.3768373,-0.7212883,-1.8304726,-0.8797829,2.2181718,1.3638594,-1.0217582,1.4418246,-0.78568876,-1.8504875,-0.8778273,2.159678,1.3027579,-0.9833068,-1.4171737,1.3979486,0.38518938,-0.07372099,0.9711119,0.5006456,-0.3499948,2.2183647,-0.57131577,1.2779523,-3.5848284,0.063561976,2.6094522,0.24420166,-0.53248596,0.90884984,0.79492575,-0.02658411,0.08816037,0.5996783,-0.80862606,0.4997519,0.78376096,1.0,0.0,0.0,0.0,0.0,0.0,0.0,-2.8683648,0.17131576,-0.7279523,0.31046867,0.6706476,6.4621687,-11.045167,0.93752146,0.27477145,0.71484447
18.696474,58.34331,17.102701,4.93831,-0.37926352,0.10353971,0.3697879,-0.7930407,0.78420717,0.273511,-0.040263288,0.6834564,0.66501683,-0.38731688,1.3625205,-0.70726806,-1.8231363,-0.88185364,2.2280235,1.3692596,-1.0220385,1.4276663,-0.7716793,-1.846154,-0.87897265,2.169436,1.3077494,-0.986721,-1.415732,1.402286,0.44922885,-0.12856965,0.97774565,0.49959448,-0.3389394,2.1825447,-0.5706825,1.3032908,-3.5812442,0.06349842,2.5086575,0.23636246,-0.5272331,0.91662186,0.79814535,-0.03401983,0.087473094,0.59510934,-0.76937693,0.54220587,0.7701758,1.0,0.0,0.0,0.0,0.0,0.0,0.0,-2.8325448,0.17068252,-0.75329083,0.092577934,0.519681,6.3884315,-5.601369,0.9170413,0.16631484,0.99295974
19.08031,58.177204,17.311255,5.0036907,-0.36923006,0.07745791,0.3978798,-0.79008806,0.7837911,0.33030444,-0.10780707,0.68263376,0.6575684,-0.35901433,1.3486575,-0.6933002,-1.8131236,-0.88975334,2.2376993,1.3735062,-1.0226225,1.4135252,-0.7576431,-1.8410842,-0.8806473,2.1792397,1.3127257,-0.99001116,-1.4136506,1.4043529,0.52608603,-0.1808013,0.98221177,0.49791557,-0.32604522,2.146759,-0.5700493,1.327622,-3.5776637,0.063434936,2.4079635,0.22891617,-0.5215378,0.9242696,0.8009502,-0.041450623,0.08676176,0.59095925,-0.7295249,0.58498853,0.75786287,1.0,0.0,0.0,0.0,0.0,0.0,0.0,-2.7967591,0.17004928,-0.77762204,0.16937256,0.29845238,7.6393366,-5.322891,0.7197976,0.11252165,1.1867762
14.513008,56.619057,16.439575,8.073902,-0.06952369,0.11170939,0.28453675,-0.7942383,0.7834584,0.35284808,-0.092065684,0.67424816,0.6622658,-0.3267077,1.3341014,-0.67929727,-1.8057995,-0.8898539,2.2466645,1.3789523,-1.022682,1.3993803,-0.74360025,-1.8353107,-0.88259184,2.1890512,1.3176867,-0.9931583,-1.4149342,1.404623,0.5942157,-0.19928704,0.9816154,0.49638122,-0.3113523,2.1110077,-0.56941605,1.3509471,-3.5740867,0.06337152,2.3073702,0.22177124,-0.5154724,0.93183506,0.8034098,-0.04893094,0.086018644,0.58714503,-0.7016109,0.62091875,0.7507752,1.0,0.0,0.0,0.0,0.0,0.0,0.0,-2.7610078,0.16941604,-0.8009471,-0.17094612,0.12331009,6.735289,-1.9511074,0.23549795,0.08376837,1.374203
7.1768427,57.200455,16.105698,14.16312,0.5039814,0.33296618,0.08135114,-0.79727167,0.7865117,0.37842458,-0.013276266,0.6666079,0.65996146,-0.29475343,1.3196532,-0.66494906,-1.7974682,-0.8839195,2.255712,1.3836828,-1.0226337,1.3852011,-0.7295469,-1.8289306,-0.8842131,2.1988244,1.3226286,-0.996149,-1.4188883,1.405915,0.65223724,-0.15010217,0.9770315,0.49389833,-0.29526526,2.0752945,-0.5687828,1.373267,-3.5705132,0.06330816,2.2068775,0.21472931,-0.5090828,0.93944883,0.8056725,-0.05661474,0.085218064,0.58345884,-0.69740474,0.65056163,0.7593601,1.0,0.0,0.0,0.0,0.0,0.0,0.0,-2.7252946,0.1687828,-0.82326704,-0.455451,0.23021698,5.6924105,4.805985,-0.12792349,-0.10405779,1.5108466
-2.0916939,55.842842,14.999123,21.45662,1.2498496,0.569557,-0.18217319,-0.79931223,0.7818568,0.38458818,0.1075805,0.6650256,0.6654001,-0.27413008,1.3052698,-0.6513612,-1.7904718,-0.87345505,2.265327,1.3891686,-1.023562,1.3709761,-0.71550405,-1.8221271,-0.88470614,2.208548,1.3275458,-0.99897856,-1.424207,1.4040743,0.68927395,-0.016168518,0.97185445,0.49094447,-0.27925542,2.0396156,-0.56814957,1.3945827,-3.5669434,0.06324486,2.1064854,0.20749664,-0.50247955,0.94727266,0.8079313,-0.06470035,0.08429991,0.57961565,-0.72353977,0.67036825,0.78420764,1.0,0.0,0.0,0.0,0.0,0.0,0.0,-2.6896157,0.16814956,-0.84458274,-0.6140709,-0.08215904,3.5740018,13.25774,-0.16185045,-0.27325153,1.4905155
-10.290433,54.74338,13.911098,27.784222,1.8405433,0.7890954,-0.4346367,-0.8077718,0.7834533,0.3771656,0.23759174,0.65467805,0.66510326,-0.28327107,1.2901989,-0.63715875,-1.7844106,-0.86094695,2.274016,1.3940561,-1.0273056,1.3566633,-0.70147455,-1.8151481,-0.8833357,2.2181954,1.3324286,-1.001671,-1.4338211,1.4028081,0.7003918,0.18761057,0.96370864,0.48698062,-0.2663707,2.003971,-0.5675163,1.4148954,-3.5633771,0.06318163,2.0061934,0.19981384,-0.49572754,0.95544326,0.8103789,-0.0733624,0.083241835,0.575304,-0.77590543,0.6841693,0.82201576,1.0,0.0,0.0,0.0,0.0,0.0,0.0,-2.6539712,0.16751632,-0.8648954,-1.0644436,-0.030446053,0.9771943,20.233206,-0.44870377,-0.4975915,1.1734247
-9.579142,50.916718,12.440704,25.969198,1.6319966,0.6003237,-0.44557264,-0.81099397,0.7818087,0.35920408,0.27168638,0.6505452,0.6626136,-0.31261447,1.275564,-0.6232937,-1.7792277,-0.8561671,2.2832499,1.39869,-1.0329324,1.3422533,-0.6874641,-1.8082511,-0.88006365,2.227755,1.3372713,-1.0042745,-1.443795,1.4007179,0.68586475,0.37329084,0.95481676,0.48310813,-0.25855762,1.9683647,-0.5668831,1.4342058,-3.5598145,0.063118465,1.9060016,0.19164658,-0.48884583,0.96391076,0.81305975,-0.08255788,0.082105085,0.5704181,-0.82173204,0.69688445,0.8487034,1.0,0.0,0.0,0.0,0.0,0.0,0.0,-2.6183648,0.16688308,-0.88420576,-1.094842,-0.1292944,-1.5474558,18.432135,-0.5719662,-0.4872203,0.6724477
-4.601022,48.098698,11.663329,20.928799,1.0822039,0.30970085,-0.32125342,-0.8136367,0.7817013,0.34874657,0.28926733,0.6399008,0.66562605,-0.30923808,1.2608896,-0.609294,-1.7733765,-0.8511369,2.2917452,1.403834,-1.0351983,1.3277537,-0.67347276,-1.8015907,-0.87534106,2.237208,1.3420855,-1.0068094,-1.4522725,1.398855,0.6592856,0.5048283,0.9432138,0.48068386,-0.25224757,1.9327927,-0.56624985,1.452515,-3.5562553,0.06305536,1.8059099,0.18317413,-0.48182297,0.97251606,0.81589437,-0.09211838,0.08099566,0.56504005,-0.8468404,0.71280134,0.8581221,1.0,0.0,0.0,0.0,0.0,0.0,0.0,-2.5827928,0.16624984,-0.902515,-0.9371042,-0.12385845,-2.6907206,13.027793,-0.9028554,-0.2741158,0.5243957
1.994257,45.007057,10.908307,14.201402,0.39870942,-0.076554984,-0.13506955,-0.8197427,0.780233,0.33600432,0.2741109,0.6361138,0.659118,-0.3184177,1.2457794,-0.59544945,-1.7679902,-0.84792995,2.3008192,1.4079973,-1.0386511,1.3131663,-0.6595024,-1.7952316,-0.8698727,2.24655,1.3468786,-1.0092965,-1.4611641,1.3966138,0.6283912,0.5603137,0.9318899,0.479308,-0.24805354,1.897255,-0.5656166,1.4698241,-3.5526998,0.06299231,1.7059183,0.17467117,-0.47463226,0.9810575,0.818754,-0.10180575,0.080025606,0.5593508,-0.844217,0.7306763,0.8462973,1.0,0.0,0.0,0.0,0.0,0.0,0.0,-2.547255,0.1656166,-0.91982406,-0.97846985,-0.17445087,-3.045106,5.4210067,-0.942111,-0.054341555,0.3135383
7.4458375,43.884766,10.819641,9.430016,-0.10199982,-0.35187793,0.011824511,-0.81640464,0.78017974,0.32280853,0.27700138,0.62835956,0.6624321,-0.3071765,1.2315258,-0.58148444,-1.7629508,-0.84217256,2.309386,1.4131218,-1.0400141,1.2985293,-0.6455492,-1.7891777,-0.8642174,2.2557778,1.3516699,-1.0117418,-1.4647255,1.3949442,0.59798604,0.5668931,0.91999024,0.4794949,-0.24369888,1.8617554,-0.5649872,1.486134,-3.5491478,0.06292933,1.6060268,0.16633606,-0.4672432,0.98938847,0.821524,-0.11144629,0.07927156,0.55352867,-0.82048464,0.75027215,0.822227,1.0,0.0,0.0,0.0,0.0,0.0,0.0,-2.5117555,0.16498718,-0.93613404,-0.43468475,-0.12345314,-2.9509306,0.5363345,-1.0471225,0.18533468,0.32809377
9.498877,40.264183,9.51992,6.2965026,-0.37431526,-0.64745957,0.07249907,-0.8227709,0.7775245,0.28298417,0.26183718,0.6306937,0.6636514,-0.3028837,1.2162522,-0.5677967,-1.7608793,-0.8380337,2.3188472,1.418035,-1.0420301,1.2838503,-0.6316198,-1.7835338,-0.85876334,2.264914,1.3564688,-1.014145,-1.4691875,1.3923811,0.5533472,0.53778434,0.91193545,0.48072863,-0.23948433,1.8262901,-0.5643616,1.5014458,-3.5455995,0.06286642,1.5062351,0.15834427,-0.45970535,0.9973938,0.82416075,-0.12088365,0.07879676,0.5476651,-0.78411573,0.7638987,0.7867593,1.0,0.0,0.0,0.0,0.0,0.0,0.0,-2.4762902,0.16436157,-0.95144576,-0.5239725,-0.20947456,-4.364109,-3.0432582,-0.6820679,0.3530562,0.32465756
11.296918,40.44928,9.710474,4.944355,-0.50954163,-0.7563607,0.137082,-0.82457423,0.7791358,0.27700743,0.24627613,0.6301684,0.6582652,-0.27650872,1.2013929,-0.5537062,-1.755833,-0.8341357,2.327931,1.4222953,-1.0417958,1.2691332,-0.61770475,-1.7782848,-0.8537222,2.273993,1.3612772,-1.0164891,-1.4729832,1.3914305,0.5157737,0.492504,0.9067614,0.48162964,-0.23322262,1.7908592,-0.56373596,1.5157604,-3.5420547,0.06280357,1.4065431,0.1507492,-0.45202637,1.0050321,0.82662857,-0.13004765,0.07861242,0.54184204,-0.7409366,0.77750987,0.74995947,1.0,0.0,0.0,0.0,0.0,0.0,0.0,-2.4408593,0.16373596,-0.9657604,-0.45161247,-0.047516823,-3.6464214,-4.650879,-0.4062295,0.33714175,0.53073764
12.052993,38.13206,8.900999,3.4618778,-0.6202291,-0.9436195,0.16629806,-0.82919115,0.77626425,0.24660814,0.2062069,0.6290241,0.6587824,-0.27049723,1.1862141,-0.54007834,-1.753624,-0.8331015,2.3368955,1.4271555,-1.0435389,1.2543665,-0.6038059,-1.7734478,-0.8492695,2.2830338,1.3660952,-1.0187722,-1.478135,1.3895793,0.4734745,0.42921677,0.90364075,0.48275304,-0.22686273,1.7554665,-0.56311035,1.5290788,-3.5385132,0.06274077,1.3069508,0.14364624,-0.44423294,1.0122651,0.8289192,-0.13886696,0.0787357,0.5361059,-0.691695,0.7860128,0.7083836,1.0,0.0,0.0,0.0,0.0,0.0,0.0,-2.4054666,0.16311035,-0.9790788,-0.581193,-0.13136864,-4.1276035,-6.4524117,-0.20675659,0.38644075,0.55149496
13.6803055,38.89089,9.231221,2.5336542,-0.74112517,-1.0343271,0.21327919,-0.8242888,0.7803557,0.23015055,0.17019585,0.62544364,0.6649337,-0.23605095,1.1719376,-0.5257703,-1.7504327,-0.83224994,2.3455782,1.4325886,-1.0423774,1.2395827,-0.5899023,-1.7690074,-0.8455082,2.292048,1.3709284,-1.0209714,-1.478715,1.3908294,0.43458366,0.35803613,0.9006718,0.48444137,-0.21785793,1.720108,-0.56248474,1.541402,-3.5349755,0.06267804,1.2074581,0.13706589,-0.43637085,1.0190865,0.8310132,-0.14731282,0.07917608,0.53051597,-0.636589,0.7947028,0.6674517,1.0,0.0,0.0,0.0,0.0,0.0,0.0,-2.3701081,0.16248474,-0.991402,-0.106835365,0.18334389,-3.799945,-7.2259545,-0.19403696,0.45036674,0.82169473
11.301506,38.655437,9.20298,5.194014,-0.45359907,-0.9558871,0.1809965,-0.8225726,0.77618706,0.21378814,0.19052963,0.6164638,0.6662381,-0.107352145,1.1573254,-0.51228356,-1.7476287,-0.82645524,2.3536944,1.4375522,-1.0317067,1.224814,-0.5760015,-1.7649257,-0.84220946,2.3010125,1.375775,-1.0229913,-1.4764556,1.3901018,0.39952195,0.32014585,0.8955103,0.48562357,-0.19689113,1.6847839,-0.56185913,1.5527312,-3.5314412,0.06261538,1.1080649,0.13095856,-0.42840958,1.0255632,0.8329184,-0.15546335,0.07990385,0.5250652,-0.5924058,0.80219,0.6353577,1.0,0.0,0.0,0.0,0.0,0.0,0.0,-2.334784,0.16185912,-1.0027311,0.17998219,-0.008177757,-3.4540594,-3.8985312,-0.38081408,0.34846067,2.0160675
7.886656,38.159653,9.1607895,8.764822,-0.04789734,-0.8046252,0.12270139,-0.8255872,0.76963365,0.20910516,0.21526895,0.61364,0.66841644,-0.017237086,1.1422553,-0.49903816,-1.7440152,-0.8206826,2.3623765,1.4426166,-1.0247151,1.2100569,-0.56213987,-1.7611129,-0.8389927,2.3099236,1.3806311,-1.0247422,-1.475631,1.3851296,0.3752486,0.32181093,0.89030236,0.48616895,-0.1682127,1.649498,-0.5612335,1.5630671,-3.5279105,0.06255278,1.0087711,0.12517166,-0.42037964,1.0317963,0.83465904,-0.16345608,0.08084123,0.5197029,-0.56420016,0.8097108,0.61365175,1.0,0.0,0.0,0.0,0.0,0.0,0.0,-2.299498,0.16123351,-1.013067,0.02129078,-0.43058395,-2.3929238,0.046229362,-0.35241842,0.22005439,2.777794
2.9596596,36.106464,8.259114,13.009451,0.37903053,-0.66786385,-0.008517198,-0.8302246,0.76554537,0.17083946,0.26455307,0.5970862,0.676335,0.078275435,1.1270344,-0.48558533,-1.7440289,-0.81253743,2.3696322,1.4482646,-1.0169147,1.1952807,-0.5483459,-1.7576282,-0.83540785,2.318747,1.3854948,-1.0261556,-1.4785467,1.3777001,0.33945957,0.370192,0.8802666,0.48661253,-0.13259226,1.6142464,-0.5606079,1.5724107,-3.5243833,0.06249024,0.90957654,0.119529724,-0.41228104,1.037881,0.836303,-0.17142545,0.08195639,0.5142895,-0.5546834,0.815438,0.6011508,1.0,0.0,0.0,0.0,0.0,0.0,0.0,-2.2642465,0.1606079,-1.0224106,-0.38354397,-0.6764412,-3.5600126,4.6903076,-0.79518557,0.13895035,3.46421
-0.06786919,31.952143,6.494542,14.56793,0.5190856,-0.74218136,-0.118316926,-0.8277492,0.7607315,0.10043419,0.29465657,0.5733466,0.67100835,0.16215031,1.1125058,-0.47227275,-1.7475848,-0.8059422,2.3760817,1.4525957,-1.0099405,1.1804835,-0.5346378,-1.7547634,-0.8311783,2.3274102,1.3903548,-1.0271779,-1.4803889,1.3686235,0.26884502,0.44002426,0.8624083,0.48614895,-0.092322476,1.5790291,-0.5599823,1.5807632,-3.5208595,0.062427763,0.81048113,0.113925934,-0.40415955,1.0438426,0.8379374,-0.17939384,0.08331428,0.50866246,-0.5522659,0.8149659,0.58891296,1.0,0.0,0.0,0.0,0.0,0.0,0.0,-2.2290292,0.1599823,-1.0307631,-0.28340816,-0.84171295,-7.0667562,6.8122206,-1.5603662,0.024324656,3.9323046
-1.0740967,26.631844,4.620513,13.70392,0.474738,-0.92853534,-0.13883033,-0.82937247,0.7466444,0.045211438,0.30320597,0.5435929,0.66888165,0.26349145,1.0975462,-0.45997337,-1.7502422,-0.8008577,2.3817694,1.457243,-1.0008287,1.1656672,-0.5210699,-1.7527778,-0.82630694,2.3358254,1.395209,-1.0277559,-1.4824705,1.3531164,0.17501229,0.50219035,0.83512104,0.48557845,-0.046564244,1.5438461,-0.5593567,1.5881255,-3.5173395,0.06236535,0.7114848,0.10836029,-0.39612198,1.049633,0.8396083,-0.18728888,0.08499995,0.5027482,-0.54821795,0.80613476,0.57036716,1.0,0.0,0.0,0.0,0.0,0.0,0.0,-2.1938462,0.15935668,-1.0381255,-0.29642582,-1.4841557,-9.408408,6.0334625,-2.5028586,0.035089254,4.488464
3.1380434,22.70935,3.7987106,8.191887,0.044969738,-1.2822683,0.03741822,-0.8270177,0.7269729,0.026701417,0.24016623,0.5267296,0.66400415,0.33829194,1.0829654,-0.4483726,-1.7501076,-0.8022903,2.3884983,1.4616094,-0.99392664,1.1508471,-0.507727,-1.7516563,-0.8212782,2.343947,1.4000593,-1.0278589,-1.481829,1.3283668,0.091329075,0.5026531,0.8050798,0.48559874,0.0013430037,1.5086975,-0.5587311,1.5944985,-3.5138228,0.062302995,0.61258745,0.1029892,-0.38822556,1.0551219,0.8412586,-0.19491863,0.08706278,0.4966999,-0.5235644,0.7888512,0.5367081,1.0,0.0,0.0,0.0,0.0,0.0,0.0,-2.1586976,0.15873107,-1.0444984,0.027775764,-2.403307,-8.392774,-0.11044741,-2.8292894,0.1966238,4.7168155
3.7975564,17.453005,2.1613078,5.6060543,-0.13452059,-1.5569814,0.077206366,-0.8250972,0.70644134,-0.041625448,0.2320602,0.4842144,0.6650675,0.42792243,1.0683373,-0.4370829,-1.7558188,-0.7980722,2.3923683,1.4665661,-0.9850666,1.1360499,-0.49468976,-1.7514617,-0.81644976,2.3516946,1.4049155,-1.0274621,-1.4789308,1.295775,-0.0046373536,0.47564697,0.76484805,0.48635876,0.052111827,1.473587,-0.55810547,1.5998833,-3.5103097,0.062240705,0.513789,0.09792328,-0.38058472,1.0602053,0.8428726,-0.20212059,0.089566074,0.49060255,-0.49073702,0.76044875,0.49413595,1.0,0.0,0.0,0.0,0.0,0.0,0.0,-2.1235871,0.15810546,-1.0498834,0.29232502,-3.1789064,-9.657728,-2.8511584,-3.8624048,0.32515526,5.0164504
2.6587682,10.297988,-0.09361887,4.2852054,-0.10664928,-1.8148508,0.051602926,-0.8212112,0.67533773,-0.119847834,0.22054169,0.45233008,0.6631021,0.4765604,1.0539287,-0.42715597,-1.7634466,-0.79439557,2.3969276,1.4712256,-0.97980607,1.1213042,-0.48206502,-1.7523696,-0.81198657,2.3590035,1.4097792,-1.0265714,-1.4730276,1.2517225,-0.11987078,0.4359415,0.7200851,0.48728806,0.10121518,1.4385109,-0.5574837,1.6042808,-3.5068002,0.062178478,0.41508937,0.09320068,-0.3733406,1.064811,0.84449506,-0.20876609,0.09254912,0.48443714,-0.4577547,0.71750176,0.4450407,1.0,0.0,0.0,0.0,0.0,0.0,0.0,-2.088511,0.15748367,-1.0542808,0.6369829,-4.3145657,-11.647665,-4.120469,-4.317248,0.37210584,4.863955
0.47926092,5.365696,-1.665787,4.8632784,0.06927252,-1.9284817,-0.013415173,-0.8204803,0.64657044,-0.19215004,0.21511331,0.42510927,0.6593805,0.506232,1.0392561,-0.417408,-1.7715846,-0.79047525,2.4015145,1.4757172,-0.9759482,1.1066157,-0.46993524,-1.7545269,-0.80789435,2.3658624,1.4146467,-1.0252191,-1.4672645,1.2004044,-0.24821103,0.3998403,0.67493033,0.48764646,0.14630684,1.4034691,-0.5568657,1.6076921,-3.503294,0.06211631,0.31648842,0.08874512,-0.3665886,1.0689209,0.8461879,-0.21479656,0.09600559,0.4781333,-0.4316434,0.66547865,0.395867,1.0,0.0,0.0,0.0,0.0,0.0,0.0,-2.0534692,0.15686569,-1.057692,0.64320564,-5.038905,-12.996104,-3.761375,-4.3551683,0.30157566,4.4663043
-1.7431431,5.204133,-1.760984,7.319644,0.31429183,-1.844716,-0.09593808,-0.8214185,0.62597847,-0.2555254,0.22583197,0.4028724,0.65570444,0.5114092,1.0244738,-0.4073374,-1.7800794,-0.78531116,2.4061496,1.4802172,-0.9740782,1.0919653,-0.45830756,-1.7579734,-0.8040167,2.372294,1.4195143,-1.0234643,-1.4640594,1.1505502,-0.37742177,0.383187,0.6331676,0.48699808,0.18488999,1.3684616,-0.5562477,1.6101182,-3.4997914,0.06205421,0.21798605,0.08449173,-0.36034012,1.0725914,0.8480016,-0.2202617,0.09990019,0.47159082,-0.41641915,0.61513025,0.3542822,1.0,0.0,0.0,0.0,0.0,0.0,0.0,-2.0184617,0.1562477,-1.0601182,0.37038326,-4.9026012,-13.069475,-1.8202245,-4.0172815,0.14593601,3.8053215
0.3203783,7.651662,-0.5031755,6.3066225,0.18618691,-1.8276588,-0.0030383132,-0.81921995,0.59713465,-0.26604795,0.17309652,0.3553415,0.65919787,0.5213795,1.0100434,-0.3985941,-1.7845782,-0.78670704,2.407828,1.485434,-0.97132635,1.0773436,-0.44718343,-1.7624328,-0.80045474,2.3782563,1.4243761,-1.0213662,-1.4614387,1.0999547,-0.46907386,0.3468415,0.58463883,0.48665905,0.21795635,1.3334885,-0.55562973,1.61156,-3.4962924,0.06199217,0.11958217,0.08042526,-0.3545494,1.075851,0.84989625,-0.22518289,0.1041898,0.46488002,-0.3953432,0.5696588,0.31385207,1.0,0.0,0.0,0.0,0.0,0.0,0.0,-1.9834884,0.15562972,-1.0615599,0.31619072,-4.980111,-9.274435,-3.7611544,-4.7312737,0.17672777,3.248176
1.9999232,10.468603,0.72030306,5.883745,-0.017397165,-1.7814474,0.05400925,-0.8123808,0.56880635,-0.2875699,0.14957471,0.24924387,0.6607567,0.5398955,0.9961055,-0.3903028,-1.7911898,-0.78549725,2.4031806,1.4904518,-0.9673767,1.0627714,-0.43656617,-1.7675693,-0.79730856,2.3835053,1.429236,-1.0189668,-1.4558471,1.0491931,-0.52876467,0.30353862,0.5054146,0.48648584,0.24713285,1.2985535,-0.55501175,1.6120185,-3.4927967,0.061930187,0.021276658,0.07662964,-0.34917068,1.0787207,0.85181624,-0.22959188,0.108907185,0.45807838,-0.36770216,0.53079385,0.2757413,1.0,0.0,0.0,0.0,0.0,0.0,0.0,-1.9485534,0.15501174,-1.0620184,0.616312,-4.9999237,-6.051058,-4.4336915,-7.824111,0.19278526,2.8491974
0.6942606,11.736038,1.1595483,8.268104,0.1469379,-1.6569964,-0.00029285625,-0.8065105,0.54197496,-0.33069453,0.17247607,0.18928567,0.6542437,0.5513295,0.9821204,-0.38236868,-1.8006388,-0.78006095,2.4024339,1.4946604,-0.96383387,1.0482737,-0.42645103,-1.773238,-0.7944056,2.3878808,1.4340883,-1.0163041,-1.4478012,0.9991622,-0.5797203,0.2855725,0.41534555,0.4853348,0.27249646,1.263649,-0.55439377,1.6114945,-3.4893045,0.06186827,-0.07693056,0.07305527,-0.34413528,1.0812656,0.8537584,-0.23357716,0.1140632,0.45114064,-0.34777644,0.49753127,0.245461,1.0,0.0,0.0,0.0,0.0,0.0,0.0,-1.913649,0.15439376,-1.0614946,0.84023476,-4.939103,-5.1542997,-1.9026577,-8.91034,0.05287528,2.4543226
-1.2787013,10.274563,0.9085301,10.420972,0.4458219,-1.5662105,-0.045272097,-0.8078352,0.5031373,-0.3453048,0.1817807,0.13907902,0.65553135,0.55457973,0.96749014,-0.3761373,-1.8077685,-0.77622753,2.4017887,1.4996415,-0.9608462,1.033835,-0.41688567,-1.7793071,-0.7915293,2.391356,1.4389292,-1.0134164,-1.4424946,0.94247943,-0.6158957,0.2879886,0.32511365,0.48400804,0.2938961,1.2287827,-0.5537758,1.6099893,-3.485816,0.061806414,-0.17503959,0.06959534,-0.3394127,1.0835459,0.85572857,-0.23722911,0.11959062,0.4440147,-0.33923334,0.46574405,0.22057176,1.0,0.0,0.0,0.0,0.0,0.0,0.0,-1.8787826,0.15377578,-1.0599892,0.5486727,-5.6160808,-3.6557674,0.13695955,-8.933968,0.0010490417,2.051556
0.9963114,5.7840576,-0.08543682,5.741682,0.10245553,-1.8792989,0.07279915,-0.8058339,0.46003705,-0.3560657,0.07955049,0.052422214,0.65757614,0.54390806,0.95325166,-0.37088197,-1.8149137,-0.7835742,2.396598,1.5046868,-0.9590256,1.0194441,-0.40795642,-1.7856491,-0.7890421,2.3938508,1.4437624,-1.0103513,-1.437857,0.8766062,-0.6406413,0.23543642,0.22436425,0.48356166,0.3106975,1.1939507,-0.5531578,1.6075037,-3.4823308,0.06174462,-0.27305052,0.06632614,-0.3351097,1.0854768,0.8577088,-0.24040167,0.12548797,0.43680108,-0.31626612,0.4203546,0.18242145,1.0,0.0,0.0,0.0,0.0,0.0,0.0,-1.8439506,0.1531578,-1.0575037,0.5500555,-6.517756,-2.5602937,-5.318424,-10.018939,0.14509559,1.6069293
5.238776,8.35762,1.3662404,2.1109717,-0.45079458,-1.9722431,0.24965426,-0.7946993,0.42302495,-0.2973125,0.014372594,-0.1377881,0.659046,0.562383,0.9399742,-0.36565393,-1.8153803,-0.78760487,2.3800719,1.509667,-0.954113,1.0051371,-0.39971524,-1.7918575,-0.787377,2.3949533,1.4485937,-1.007126,-1.4280167,0.8069515,-0.6146347,0.14351682,0.07244611,0.48378396,0.3261607,1.159153,-0.5525398,1.6040388,-3.4788492,0.061682887,-0.37096345,0.06345749,-0.33125305,1.0869777,0.85961837,-0.24297507,0.13185902,0.42968875,-0.2725425,0.37642086,0.13807312,1.0,0.0,0.0,0.0,0.0,0.0,0.0,-1.809153,0.15253982,-1.0540388,1.1013508,-6.8850636,2.515912,-9.211948,-15.166768,0.24647713,1.4709651
6.964627,11.641865,2.1940587,0.66555834,-0.7567397,-2.035578,0.29928204,-0.7998536,0.4097747,-0.30609918,-0.05016232,-0.2211033,0.664996,0.5437596,0.9251517,-0.35873777,-1.8224674,-0.7923932,2.372843,1.5150933,-0.95275,0.9908895,-0.39206535,-1.797776,-0.78683054,2.3944917,1.4534327,-1.0037786,-1.4231886,0.7512824,-0.5843233,0.024938792,-0.08557001,0.48451436,0.33715063,1.1243896,-0.55192184,1.5995955,-3.4753711,0.06162122,-0.46877852,0.06111145,-0.32782364,1.0880172,0.86142564,-0.24486656,0.13879736,0.4227547,-0.21815607,0.33318827,0.09146101,1.0,0.0,0.0,0.0,0.0,0.0,0.0,-1.7743896,0.15192184,-1.0495956,0.5874634,-5.486274,2.9719353,-11.87245,-15.80116,0.2760291,1.0145307
7.2325296,10.396838,2.2584677,0.39334488,-0.71624947,-2.0557947,0.34308797,-0.7879135,0.35863224,-0.25750294,-0.095922105,-0.3538107,0.6681373,0.5412996,0.91209817,-0.35620213,-1.8235263,-0.7964228,2.3591106,1.5202464,-0.9496486,0.9767265,-0.38503152,-1.8032005,-0.7874676,2.392344,1.4582793,-1.0003415,-1.4136213,0.6877206,-0.52864903,-0.09330106,-0.25760046,0.48530903,0.34556687,1.0896606,-0.55130386,1.5941747,-3.4718964,0.06155961,-0.5664958,0.059303284,-0.3248291,1.088589,0.8631026,-0.24606399,0.14628583,0.41606113,-0.16470043,0.28765976,0.044632573,1.0,0.0,0.0,0.0,0.0,0.0,0.0,-1.7396606,0.15130386,-1.0441747,1.0821819,-6.2767267,5.4750323,-11.822479,-17.196835,0.25271773,0.75309277
-1.2097273,18.601963,4.048164,15.598166,0.6452504,-1.1797866,-0.029893622,-0.7886295,0.34295586,-0.23305354,0.10995173,-0.4276888,0.67568,0.52760506,0.8978635,-0.35073593,-1.8265058,-0.77647245,2.349575,1.5258472,-0.94758105,0.9626302,-0.37855417,-1.8080223,-0.7880331,2.3885865,1.4631335,-0.9968444,-1.4085749,0.6344997,-0.466365,-0.044579174,-0.41505656,0.4857123,0.35084355,1.0549698,-0.5506859,1.5877776,-3.4684253,0.06149806,-0.6641154,0.05764389,-0.32198715,1.0890036,0.86467177,-0.24709594,0.1541801,0.4092857,-0.1630411,0.28217706,0.039237253,1.0,0.0,0.0,0.0,0.0,0.0,0.0,-1.7049698,0.15068588,-1.0377777,0.4301548,-5.2984,6.2845826,4.786996,-15.708553,0.107616186,0.43783188
-10.631181,9.010015,1.2075723,25.22192,2.236501,-0.87481046,-0.32830685,-0.7737298,0.2606695,-0.23399653,0.23943017,-0.41067195,0.66578835,0.5426849,0.88525724,-0.3524872,-1.831422,-0.7640901,2.3475194,1.5297123,-0.94257593,0.9486322,-0.3728345,-1.8123558,-0.78719485,2.3836617,1.46798,-0.993291,-1.3972099,0.55108124,-0.42234775,0.12630478,-0.5181609,0.4845871,0.3567293,1.0203094,-0.5500679,1.580405,-3.4649575,0.061436575,-0.76163745,0.055583954,-0.31918335,1.0895276,0.8662038,-0.24843353,0.16211765,0.40210658,-0.21770681,0.28036195,0.05563533,1.0,0.0,0.0,0.0,0.0,0.0,0.0,-1.6703094,0.1500679,-1.030405,1.05865,-8.351601,4.4200125,16.985086,-10.24251,-0.08842945,0.5338669
-9.57556,8.923019,1.3975375,24.011051,2.3630965,-0.9679223,-0.26410416,-0.767253,0.23295513,-0.20528571,0.2106109,-0.38939583,0.650976,0.5323671,0.8719069,-0.34953898,-1.8328843,-0.7661338,2.3447223,1.5330776,-0.9400543,0.9347629,-0.36793262,-1.8162754,-0.7847992,2.3781075,1.4728037,-0.98968995,-1.3835523,0.46985045,-0.38192824,0.27711332,-0.56791174,0.4817424,0.3611942,0.98568726,-0.54945755,1.5720578,-3.4614933,0.061375152,-0.85906196,0.05296707,-0.31640625,1.0902038,0.8677016,-0.2501322,0.16983955,0.39456606,-0.27237895,0.27607676,0.07049807,1.0,0.0,0.0,0.0,0.0,0.0,0.0,-1.6356872,0.14945754,-1.0220578,1.3463974,-8.130008,4.0162086,15.022391,-4.9316525,-0.27252436,0.43201447
-9.93531,-18.894133,-6.064063,11.64625,2.0818903,-2.0292299,-0.0943352,-0.75776666,0.10809018,-0.24520676,0.08996972,-0.39929447,0.6403066,0.5132886,0.85898626,-0.3571236,-1.840796,-0.77580225,2.3381782,1.5368344,-0.9383611,0.92106146,-0.3642276,-1.8201187,-0.7818266,2.3722749,1.477595,-0.9860641,-1.3649707,0.33753398,-0.38605547,0.30405918,-0.5885829,0.4784436,0.3629015,0.9510956,-0.5488472,1.5627372,-3.4580324,0.06131379,-0.95638907,0.04985428,-0.31417847,1.0907167,0.86924815,-0.2516575,0.17716016,0.38689843,-0.3215738,0.20519252,0.044004105,1.0,0.0,0.0,0.0,0.0,0.0,0.0,-1.6010956,0.14884719,-1.0127373,2.0823956,-13.195419,-0.6883085,2.7038753,-1.9883037,-0.26655793,0.14570355
-16.95697,-67.0278,-18.402605,0.6412122,2.7472723,-3.2171814,-0.0022915788,-0.7437078,-0.12167705,-0.2375912,0.038239706,-0.38805744,0.6373861,0.49084708,0.84669065,-0.3763953,-1.8438778,-0.7780026,2.3334692,1.5413336,-0.93697935,0.90759367,-0.362706,-1.8240955,-0.7792307,2.366404,1.4823519,-0.982443,-1.3389515,0.09062625,-0.40359128,0.24513692,-0.5861974,0.47501594,0.36183906,0.91654205,-0.54823685,1.5524441,-3.454575,0.061252486,-1.0536188,0.04598236,-0.31333542,1.0906379,0.8710107,-0.2523854,0.18364362,0.37936372,-0.4062515,0.045078892,-0.025779136,1.0,0.0,0.0,0.0,0.0,0.0,0.0,-1.566542,0.14823684,-1.002444,3.1416655,-24.615713,-2.3964942,-5.7860494,0.4120946,-0.2966404,-0.11916757
-18.608545,-121.90344,-31.257872,-20.001867,2.7693787,-4.842477,0.42801028,-0.71571153,-0.40674427,-0.1721704,-0.23755129,-0.35138762,0.6355108,0.4515786,0.8360225,-0.40338042,-1.8413125,-0.80298585,2.3312652,1.545903,-0.9372851,0.8944835,-0.36467534,-1.8279636,-0.7786633,2.3607202,1.487065,-0.9788667,-1.2993629,-0.29253608,-0.3837072,-0.0053318115,-0.56224674,0.46928465,0.35619453,0.88202286,-0.5476265,1.5411793,-3.4511213,0.061191246,-1.1507515,0.041172028,-0.31495285,1.0893463,0.8731232,-0.25146255,0.1886462,0.37260574,-0.50602156,-0.22980306,-0.16376795,1.0,0.0,0.0,0.0,0.0,0.0,0.0,-1.5320228,0.14762649,-0.9911793,4.6923876,-38.239265,1.2674093,-24.839886,2.4814367,-0.7879019,-0.60958266
-7.1860514,-138.22072,-32.371918,-40.193295,1.5475858,-5.66266,1.2011163,-0.67310745,-0.631247,0.0554608,-0.6037334,-0.426415,0.6483313,0.45108685,0.82717276,-0.42780006,-1.8224175,-0.83903664,2.3180788,1.5518981,-0.933758,0.8818893,-0.37096196,-1.8304946,-0.7822195,2.3550363,1.4917017,-0.97535145,-1.24498,-0.74092907,-0.20958178,-0.47192532,-0.571507,0.45898345,0.3493556,0.847538,-0.54701614,1.5289439,-3.447671,0.06113007,-1.247787,0.035671234,-0.31972122,1.0862634,0.87546974,-0.2481836,0.19170189,0.36770645,-0.56545305,-0.5568413,-0.35676694,1.0,0.0,0.0,0.0,0.0,0.0,0.0,-1.497538,0.14701614,-0.9789439,5.804324,-44.89654,17.425236,-46.499172,-1.2610078,-1.8857837,-0.84667206
2.258538,-108.79619,-23.698275,-38.71723,0.9145316,-4.9701447,1.3888526,-0.5871969,-0.7304879,0.101121925,-0.7035326,-0.38685137,0.618846,0.4238389,0.8231696,-0.44401076,-1.8203825,-0.8525728,2.3163512,1.5535864,-0.93296754,0.87012094,-0.38129073,-1.8310668,-0.790383,2.3493257,1.4961935,-0.97192395,-1.1546738,-1.1309397,-0.0040746303,-0.9309644,-0.57261163,0.4414198,0.33997574,0.81308746,-0.5464058,1.515739,-3.4442239,0.061068952,-1.3447255,0.029842377,-0.32738876,1.0813352,0.8778582,-0.24263555,0.19271928,0.36517397,-0.59327865,-0.83217424,-0.5395954,1.0,0.0,0.0,0.0,0.0,0.0,0.0,-1.4630874,0.14640579,-0.96573895,8.868337,-39.23664,21.23506,-45.85414,-0.6811619,-3.1148732,-1.131922
8.228786,-55.859047,-11.271687,-25.214766,0.106435776,-3.5081968,1.1052883,-0.5102867,-0.7527318,0.029732907,-0.72681314,-0.49130678,0.62929887,0.4169973,0.8190923,-0.45656392,-1.8280935,-0.8630643,2.300195,1.5591234,-0.93022424,0.8594684,-0.39449102,-1.8302677,-0.8021656,2.3432984,1.5005347,-0.96858704,-1.0368543,-1.3838745,0.110302135,-1.26067,-0.6142122,0.427676,0.33118927,0.77867126,-0.54579544,1.5015653,-3.4407804,0.061007895,-1.441567,0.02401352,-0.33703995,1.0749085,0.8801495,-0.23540251,0.19229189,0.36461812,-0.5830931,-1.0040498,-0.68032557,1.0,0.0,0.0,0.0,0.0,0.0,0.0,-1.4286712,0.14579543,-0.9515653,11.367464,-25.542784,12.157507,-32.968784,-4.5939207,-2.5711894,-1.0145187
13.073319,4.201476,3.4645438,-7.3175507,-0.3583474,-1.742471,0.7768241,-0.46120456,-0.7421552,0.061298996,-0.725623,-0.568715,0.6385156,0.44417477,0.81334794,-0.46870655,-1.8241378,-0.8747279,2.286427,1.5643862,-0.92416954,0.8500108,-0.40910226,-1.8287189,-0.81603014,2.3366494,1.5047957,-0.9652997,-0.91652197,-1.4871331,0.17010282,-1.4284267,-0.6817865,0.4239851,0.32805523,0.7442894,-0.5451851,1.4864241,-3.4373403,0.060946897,-1.5383116,0.018543243,-0.34753036,1.0675429,0.88218546,-0.22731975,0.19120392,0.36539775,-0.54056305,-1.0564209,-0.76021844,1.0,0.0,0.0,0.0,0.0,0.0,0.0,-1.3942894,0.14518508,-0.9364241,11.691856,-10.416865,6.129858,-16.78078,-6.7619443,-0.8617401,-0.2654493
11.921829,41.13199,12.512714,7.875773,-0.0716441,-0.47788644,0.45781276,-0.45962486,-0.7559714,0.13141231,-0.7304281,-0.5681722,0.6316529,0.43035805,0.8040483,-0.4846994,-1.8155776,-0.88907295,2.2798321,1.567961,-0.9222639,0.84148496,-0.42405015,-1.8266361,-0.8306414,2.3294091,1.5090624,-0.96203625,-0.8313713,-1.4971299,0.219508,-1.4719568,-0.7373242,0.4278661,0.32646236,0.70994186,-0.54457474,1.470316,-3.4339037,0.060885962,-1.6349596,0.01348114,-0.35795975,1.0597658,0.88388,-0.21913275,0.18992992,0.36696532,-0.49702433,-1.0290868,-0.78922105,1.0,0.0,0.0,0.0,0.0,0.0,0.0,-1.3599418,0.14457473,-0.92031604,8.462071,-0.95181465,4.470691,-4.3031216,-5.260575,0.50796866,0.06389618
9.912014,61.4037,18.028627,17.968311,0.39565665,0.3043211,0.2658028,-0.4488024,-0.76489866,0.22432409,-0.72034377,-0.5750485,0.6314925,0.40724078,0.79660475,-0.50054,-1.8042036,-0.90267575,2.2719042,1.5722116,-0.92131215,0.833559,-0.43876487,-1.8238399,-0.8450924,2.3217301,1.5133959,-0.95879567,-0.7790708,-1.4624615,0.2966891,-1.4358984,-0.7765401,0.4367039,0.32445064,0.67562866,-0.5439644,1.4532422,-3.4304705,0.06082509,-1.731511,0.008804321,-0.36776733,1.0519719,0.88519377,-0.21139094,0.18864012,0.3689997,-0.46151763,-0.95507973,-0.78164554,1.0,0.0,0.0,0.0,0.0,0.0,0.0,-1.3256286,0.14396438,-0.9032422,5.398476,3.6004066,6.8435135,3.697729,-3.4614205,1.3889849,0.14772415
10.821447,69.61019,21.05884,21.218878,0.5970636,0.5488275,0.22952496,-0.39114365,-0.76726687,0.28765145,-0.7058676,-0.5818856,0.639591,0.38134077,0.7944446,-0.51549155,-1.7950747,-0.91567916,2.2635417,1.577355,-0.92066157,0.8261823,-0.45305377,-1.8201187,-0.85891974,2.3137689,1.5178286,-0.9555894,-0.7231783,-1.4171275,0.39397824,-1.3647422,-0.80138695,0.4475934,0.32067508,0.6413498,-0.54335403,1.4352037,-3.4270406,0.06076428,-1.8279659,0.0044517517,-0.37672043,1.0443857,0.8860973,-0.20440933,0.1873255,0.37142634,-0.42652404,-0.8658646,-0.75580436,1.0,0.0,0.0,0.0,0.0,0.0,0.0,-1.2913498,0.14335403,-0.88520366,5.7750463,4.7028303,8.777207,7.1994543,-1.9693971,1.7282009,0.023812056
7.1787777,57.711445,16.938398,19.99342,0.7957778,0.13420492,0.096867815,-0.35194662,-0.77726823,0.21702136,-0.70195186,-0.55482584,0.6280637,0.34482068,0.7909877,-0.5307806,-1.7984165,-0.92911494,2.2582862,1.580635,-0.92110735,0.8193893,-0.46699983,-1.8159301,-0.87205756,2.3057199,1.5223452,-0.9524499,-0.66405267,-1.3867246,0.424769,-1.2963891,-0.8050715,0.4546535,0.31272447,0.60710526,-0.5427437,1.4162012,-3.4236143,0.060703527,-1.9243243,0.00035858154,-0.38497162,1.0369942,0.8866976,-0.1980943,0.18595625,0.374094,-0.4051941,-0.80285597,-0.7375316,1.0,0.0,0.0,0.0,0.0,0.0,0.0,-1.2571052,0.14274368,-0.8662012,6.0721874,3.1573057,2.3896992,6.955433,-0.046920776,1.1736333,-0.4754305
4.4775743,43.48284,11.926763,16.81775,0.7767392,-0.397586,0.0038348623,-0.299911,-0.7826131,0.13700013,-0.6904292,-0.5569628,0.6294617,0.33739203,0.7893982,-0.54526114,-1.8022301,-0.9411005,2.2500236,1.5852914,-0.9187107,0.81328386,-0.48078185,-1.8120353,-0.8846203,2.2976785,1.5269114,-0.9493972,-0.59245384,-1.3751847,0.3763668,-1.2425246,-0.8036987,0.45828962,0.3034052,0.57289505,-0.54213715,1.396236,-3.4201913,0.060642835,-2.0205863,-0.0035896301,-0.3928299,1.0296569,0.8871412,-0.19215496,0.18454821,0.37682736,-0.39236227,-0.7725212,-0.73583585,1.0,0.0,0.0,0.0,0.0,0.0,0.0,-1.222895,0.14213714,-0.84623593,7.237971,1.208806,-5.2095594,5.521035,0.26028156,0.6156504,-0.72191954
-4.0208063,17.739067,1.288012,12.639655,0.7657153,-1.2661325,-0.24582927,-0.27867565,-0.7899702,-0.11068544,-0.707009,-0.5407436,0.6199322,0.34580454,0.7854163,-0.55977887,-1.8231039,-0.9553212,2.2436042,1.5889046,-0.91481674,0.80783933,-0.49457818,-1.8098857,-0.8968998,2.289702,1.5314814,-0.9464351,-0.52835715,-1.381323,0.16118369,-1.2223694,-0.7966788,0.456267,0.29393762,0.5387192,-0.5415344,1.3753088,-3.416772,0.060582202,-2.1167517,-0.007583618,-0.40079498,1.0220737,0.8876964,-0.1859952,0.18325765,0.37923288,-0.4008572,-0.7967783,-0.7689577,1.0,0.0,0.0,0.0,0.0,0.0,0.0,-1.1887192,0.14153442,-0.82530874,6.4538,-0.6671667,-21.450287,2.2291422,0.49563646,-0.30229092,-0.92911124
-2.4827907,2.8085108,-4.601131,4.683008,0.2187679,-2.073185,-0.21183965,-0.17422608,-0.7940384,-0.33954293,-0.7506877,-0.5035981,0.58895725,0.4113999,0.7904167,-0.573982,-1.84384,-0.9719686,2.2393422,1.5903771,-0.90529513,0.80333704,-0.50850147,-1.8108661,-0.9093338,2.2818933,1.5359885,-0.9435159,-0.42451572,-1.3964053,-0.18305203,-1.2496758,-0.7768674,0.44742882,0.29089937,0.50457764,-0.5409317,1.3534207,-3.4133558,0.06052163,-2.2128212,-0.011600494,-0.4093361,1.0139009,0.88852507,-0.17899057,0.18219475,0.38117015,-0.4014991,-0.8655349,-0.8370225,1.0,0.0,0.0,0.0,0.0,0.0,0.0,-1.1545776,0.1409317,-0.8034207,10.281843,-1.6271591,-33.987698,-2.520156,1.5885115,-1.2870967,-0.4232645
0.5972814,3.159449,-4.2770305,1.8625139,-0.11664457,-2.1186118,-0.09413533,-0.1241825,-0.7985464,-0.42536566,-0.7610999,-0.5415875,0.593343,0.45362887,0.79091877,-0.58835614,-1.8534027,-0.98544383,2.2277346,1.5953227,-0.898153,0.7999343,-0.5225939,-1.815234,-0.9221636,2.274157,1.5404059,-0.9405862,-0.31254208,-1.4138414,-0.52005804,-1.2934566,-0.77385503,0.4382558,0.29323575,0.47047043,-0.540329,1.3305726,-3.409943,0.060461123,-2.3087945,-0.015541077,-0.41858673,1.0049725,0.8896038,-0.17090566,0.18140158,0.3827398,-0.39127606,-0.9371758,-0.9161484,1.0,0.0,0.0,0.0,0.0,0.0,0.0,-1.1204704,0.14032897,-0.7805726,11.094236,-1.8653393,-33.2896,-4.172778,-0.071406364,-1.394999,0.10094643
3.762992,13.725444,0.13295174,2.9930458,-0.2169307,-1.6691515,0.041261047,-0.098205514,-0.7956884,-0.4601367,-0.7647208,-0.5819304,0.6020898,0.46813557,0.79011375,-0.6021628,-1.8612477,-0.9986357,2.215964,1.6006149,-0.89377266,0.7975282,-0.53681225,-1.8223236,-0.9354092,2.2662988,1.5447489,-0.9376155,-0.2167922,-1.4247327,-0.7712273,-1.3343817,-0.7904904,0.4317458,0.2981742,0.43639755,-0.53972626,1.3067656,-3.4065337,0.060400676,-2.404672,-0.019313812,-0.42837143,0.9953226,0.8907996,-0.16187285,0.18087119,0.38413385,-0.37123713,-0.9849679,-0.98714167,1.0,0.0,0.0,0.0,0.0,0.0,0.0,-1.0863975,0.13972625,-0.75676554,9.524208,-1.1785507,-24.90723,-3.9160252,-1.9186735,-1.0406673,0.416255
3.6388922,25.735725,5.0795107,7.244248,0.05520311,-0.9986211,0.11473057,-0.10369516,-0.795466,-0.4619288,-0.76261485,-0.6070458,0.6043812,0.4755099,0.78715867,-0.6163589,-1.8685164,-1.0116707,2.2055943,1.605187,-0.89006454,0.7957706,-0.55109257,-1.8310554,-0.94895136,2.2581925,1.5490462,-0.93458664,-0.16200964,-1.429286,-0.9072757,-1.3603159,-0.8181617,0.4282912,0.30446237,0.4023552,-0.53912354,1.2820004,-3.403128,0.06034029,-2.5004535,-0.022888184,-0.43838882,0.9851099,0.89197105,-0.15221569,0.18053219,0.38552067,-0.35285303,-0.99976784,-1.0395546,1.0,0.0,0.0,0.0,0.0,0.0,0.0,-1.0523552,0.13912353,-0.7320004,5.5228114,-0.5162716,-13.629532,-2.4345875,-2.9196024,-0.5800903,0.6287277
-3.337591,31.708551,7.1231966,13.769827,0.8018025,-0.3350827,0.05193595,-0.16750488,-0.7998933,-0.4503144,-0.7660314,-0.5923832,0.598513,0.46568772,0.7790201,-0.6310819,-1.8760868,-1.0255545,2.198954,1.6088974,-0.8880179,0.7940082,-0.56540626,-1.8403881,-0.9626576,2.2498765,1.5533186,-0.9315034,-0.18017863,-1.4322964,-0.94276375,-1.3732467,-0.8366169,0.42653075,0.30984455,0.36835098,-0.5385208,1.2562782,-3.3997254,0.06027996,-2.5961394,-0.026462555,-0.44833755,0.97451556,0.89306706,-0.1422541,0.18025303,0.3869157,-0.35739505,-0.98698145,-1.0735042,1.0,0.0,0.0,0.0,0.0,0.0,0.0,-1.018351,0.1385208,-0.70627815,-1.591,-0.37128925,-3.7709117,-1.0756254,-2.0054579,-0.2878964,0.60532093
-8.838335,32.895306,7.381835,17.54809,1.4033314,0.0039926767,-0.0073726326,-0.19861306,-0.80850685,-0.46575314,-0.7741563,-0.5490735,0.57848966,0.45234483,0.7741469,-0.6462569,-1.8869634,-1.0400732,2.1949692,1.6111676,-0.8862689,0.79175276,-0.5797753,-1.8497207,-0.9764496,2.2415566,1.5575663,-0.92838013,-0.2395033,-1.4386827,-0.9312347,-1.3803375,-0.8310533,0.42388412,0.31355113,0.3343773,-0.5379181,1.2295998,-3.3963263,0.060219694,-2.6917295,-0.030227661,-0.4580841,0.963653,0.89409786,-0.13218303,0.1798557,0.3882893,-0.3817107,-0.96266276,-1.0979997,1.0,0.0,0.0,0.0,0.0,0.0,0.0,-0.98437726,0.13791808,-0.6795998,-5.6080194,-0.7249594,0.84923506,-0.4379511,0.37115812,-0.32958388,0.4859209
-16.485775,32.90862,6.327952,21.553003,1.892731,0.28486705,-0.13258323,-0.27204442,-0.8035174,-0.47739166,-0.7766557,-0.5516142,0.5721808,0.46469215,0.7645483,-0.66012704,-1.8974599,-1.0541152,2.1863952,1.6147844,-0.8819109,0.7885665,-0.5941767,-1.8588378,-0.9902779,2.2333245,1.5617853,-0.92521584,-0.34341902,-1.441045,-0.906382,-1.3825114,-0.82132065,0.42116526,0.31778553,0.30044174,-0.53731537,1.2019663,-3.3929307,0.060159486,-2.7872243,-0.03437805,-0.46753693,0.95258963,0.89511967,-0.12207076,0.17929053,0.3895052,-0.42629343,-0.9299288,-1.1164205,1.0,0.0,0.0,0.0,0.0,0.0,0.0,-0.9504417,0.13731536,-0.6519663,-9.95338,-0.34880638,2.1384835,0.1275301,0.7194638,-0.31608343,0.54388046
-19.055336,30.758923,4.883575,21.740337,1.9418685,0.25749534,-0.19442302,-0.29793006,-0.80751485,-0.5229327,-0.779394,-0.5666074,0.56280273,0.45505416,0.7587735,-0.6749282,-1.9111311,-1.0682173,2.1766639,1.6180656,-0.87971044,0.7843494,-0.60860676,-1.8679168,-1.0041173,2.2251458,1.5659701,-0.922022,-0.4462496,-1.4441472,-0.9095108,-1.3830398,-0.8178609,0.41742158,0.32031372,0.2665367,-0.53671265,1.1733785,-3.3895385,0.060099337,-2.8826232,-0.039028168,-0.47668076,0.9413108,0.89618474,-0.11186393,0.17859238,0.39044094,-0.4763445,-0.90128666,-1.1387975,1.0,0.0,0.0,0.0,0.0,0.0,0.0,-0.9165367,0.13671264,-0.62337846,-9.844208,-0.440526,-0.61148405,0.32732487,0.053942204,-0.46242476,0.35309196
-21.180788,31.327427,4.6122556,22.48198,2.0074093,0.35466394,-0.22718984,-0.35537633,-0.806662,-0.52297735,-0.7767683,-0.578587,0.5711415,0.4657931,0.7488117,-0.68927294,-1.9202145,-1.081794,2.167287,1.6230842,-0.8754427,0.77908033,-0.6230559,-1.8770835,-1.0179379,2.2169442,1.5701262,-0.91879857,-0.5523885,-1.4456737,-0.9200572,-1.3804489,-0.8218165,0.4148134,0.3233223,0.23266602,-0.5361099,1.1438375,-3.3861496,0.06003925,-2.9779267,-0.044189453,-0.48553467,0.9298074,0.8973144,-0.10153223,0.17780496,0.3910284,-0.53023994,-0.8704576,-1.1610215,1.0,0.0,0.0,0.0,0.0,0.0,0.0,-0.882666,0.13610992,-0.59383744,-10.173214,-0.29203892,-1.3382435,0.6602526,-0.70450306,-0.35945177,0.3964603
-31.660727,21.79216,-1.0245576,24.22334,2.4762907,0.2555635,-0.42791668,-0.46261984,-0.81573683,-0.60907495,-0.78560084,-0.546926,0.5168569,0.4109607,0.73281837,-0.70462954,-1.937991,-1.096498,2.1622517,1.6218119,-0.8777025,0.7725219,-0.63755935,-1.8867652,-1.0317643,2.2087808,1.5742136,-0.91559136,-0.6884576,-1.4526026,-0.98493487,-1.3815691,-0.8161764,0.4058565,0.3200877,0.19882965,-0.5355072,1.1133441,-3.382764,0.05997922,-3.0731354,-0.050113678,-0.4941635,0.9179878,0.89863104,-0.0908904,0.17692664,0.39102176,-0.6122194,-0.8507494,-1.1955904,1.0,0.0,0.0,0.0,0.0,0.0,0.0,-0.8488296,0.1355072,-0.56334406,-13.06479,-0.9053469,-6.6903353,0.43141842,0.0972271,-1.1351049,-0.26558638
-42.95572,16.850534,-5.2246437,27.223526,3.0234272,0.38115293,-0.6079276,-0.58950686,-0.8091682,-0.6675509,-0.794259,-0.50857663,0.49737796,0.39374053,0.71357125,-0.7184762,-1.9535203,-1.1111902,2.1579232,1.6239514,-0.8762173,0.76429075,-0.6521,-1.8973434,-1.0456402,2.2007813,1.5781924,-0.9124328,-0.86580914,-1.4555295,-1.0827751,-1.387326,-0.796201,0.39418593,0.31457618,0.16502762,-0.5349045,1.0818993,-3.379382,0.05991925,-3.1682487,-0.057056427,-0.5025978,0.90577435,0.90026355,-0.07975914,0.1759367,0.3901414,-0.7232427,-0.8308275,-1.2365705,1.0,0.0,0.0,0.0,0.0,0.0,0.0,-0.8150276,0.13490447,-0.5318993,-17.072546,-0.5819082,-9.936166,0.11076927,1.3653398,-1.5247047,-0.5131602
-47.268887,17.43533,-5.9501653,28.560505,3.2955513,0.57765484,-0.67189413,-0.67385757,-0.809908,-0.7042998,-0.78863704,-0.47885683,0.50088835,0.32945547,0.696905,-0.7330908,-1.9677734,-1.124504,2.1528957,1.6282812,-0.8794872,0.7542295,-0.6666607,-1.9089363,-1.059541,2.1930642,1.5820605,-0.90937436,-1.0505456,-1.4574405,-1.1851594,-1.3887327,-0.76600355,0.38318095,0.30307913,0.13125992,-0.5343094,1.0495042,-3.3760033,0.05985934,-3.2632668,-0.06520462,-0.5107994,0.8931527,0.90226173,-0.06811158,0.1747643,0.38825488,-0.8461146,-0.80438274,-1.2776824,1.0,0.0,0.0,0.0,0.0,0.0,0.0,-0.7812599,0.13430938,-0.49950415,-17.790472,-0.52227974,-10.352039,0.6094694,2.3267388,-1.5250146,-1.0982931
-42.87437,24.075472,-2.8500671,27.496809,3.119431,0.7702765,-0.5979953,-0.7195181,-0.80665714,-0.7330032,-0.7787863,-0.46283454,0.5056522,0.26322204,0.6822777,-0.74732643,-1.9822366,-1.1374196,2.1467807,1.6326257,-0.8830522,0.7425422,-0.6812157,-1.9214504,-1.0734017,2.1856675,1.5858351,-0.9064733,-1.2061921,-1.4558724,-1.2738476,-1.3827487,-0.7333823,0.37432092,0.28600758,0.097522736,-0.5337143,1.0161594,-3.372628,0.05979949,-3.35819,-0.07447052,-0.51867676,0.88015884,0.9045744,-0.056040376,0.17334223,0.3854308,-0.95708644,-0.7680165,-1.3135241,1.0,0.0,0.0,0.0,0.0,0.0,0.0,-0.7475227,0.13371429,-0.4661594,-14.973378,-0.1593113,-8.957911,1.298356,2.629125,-1.2981296,-1.628089
-33.79391,33.085484,2.1880941,25.05883,2.6873322,0.9557308,-0.44789886,-0.75130296,-0.8049457,-0.7427135,-0.769762,-0.4616203,0.52044433,0.19166073,0.6674119,-0.7617103,-1.9957217,-1.1503779,2.1395054,1.6378795,-0.8873072,0.7296218,-0.6957392,-1.9346321,-1.0871594,2.1785455,1.5895487,-0.9037839,-1.3190783,-1.4520048,-1.3330563,-1.3714312,-0.70680386,0.36925206,0.2635529,0.0638237,-0.5331192,0.98186624,-3.369256,0.059739698,-3.4530184,-0.08467102,-0.5261116,0.8668657,0.9070885,-0.04371413,0.17163084,0.381867,-1.0429517,-0.72127,-1.3415585,1.0,0.0,0.0,0.0,0.0,0.0,0.0,-0.7138237,0.1331192,-0.43186623,-10.840082,0.12395382,-6.0077906,1.7143726,2.1620512,-0.8446038,-2.1375299
-22.625532,42.276806,7.7602773,21.901861,2.1275725,1.0824709,-0.27864325,-0.7650728,-0.8011991,-0.7466378,-0.7618799,-0.4621458,0.5307773,0.10290919,0.65311456,-0.7758591,-2.009296,-1.1633474,2.132331,1.6426264,-0.893493,0.71592706,-0.7102036,-1.9481819,-1.1007836,2.1716294,1.5932356,-0.90136826,-1.3852155,-1.4452549,-1.3625455,-1.3581047,-0.6877753,0.3675938,0.2346974,0.030155182,-0.5325241,0.9466255,-3.3658874,0.05967997,-3.547752,-0.09548569,-0.5330429,0.8533526,0.9096759,-0.031312175,0.1696122,0.37781078,-1.0977824,-0.6670623,-1.3615946,1.0,0.0,0.0,0.0,0.0,0.0,0.0,-0.68015516,0.1325241,-0.39662546,-6.3206434,0.4864931,-3.0435324,1.7637968,1.5704155,-0.39794445,-2.7568042
-15.979186,45.712166,10.395826,19.484055,1.8170322,1.0818077,-0.23040845,-0.7843864,-0.80670816,-0.7643235,-0.75401783,-0.44180402,0.49551526,-0.12383516,0.6374884,-0.7908744,-2.0246143,-1.1761854,2.127449,1.6427871,-0.9137518,0.7018003,-0.7246327,-1.9619339,-1.1142704,2.164908,1.5968863,-0.8993875,-1.4211683,-1.4426211,-1.3797185,-1.3442641,-0.6672669,0.3637139,0.18633315,-0.003479004,-0.531929,0.9104381,-3.3625221,0.059620306,-3.6423905,-0.1067276,-0.5394325,0.8396526,0.91227937,-0.018936688,0.16724545,0.37338546,-1.1352704,-0.6129748,-1.3795818,1.0,0.0,0.0,0.0,0.0,0.0,0.0,-0.646521,0.13192901,-0.3604381,-3.3923864,0.11782646,-1.8116713,1.7357826,1.8223286,-0.5757451,-4.691595
-12.812788,49.153168,12.430639,18.899302,1.8033084,1.1715739,-0.20603874,-0.8051432,-0.80296814,-0.7670498,-0.7384656,-0.37468114,0.49500927,-0.22705667,0.621286,-0.8049295,-2.0386388,-1.188117,2.1274397,1.6463872,-0.92209315,0.687417,-0.7390322,-1.9757717,-1.1275837,2.1585565,1.6005026,-0.8979379,-1.4435071,-1.4394759,-1.385662,-1.3259004,-0.6251116,0.36052182,0.13177764,-0.037078857,-0.5313339,0.8733051,-3.3591602,0.0595607,-3.7369347,-0.11828995,-0.545269,0.8258164,0.9148841,-0.0066985413,0.16443455,0.36865085,-1.1661441,-0.55648226,-1.3915108,1.0,0.0,0.0,0.0,0.0,0.0,0.0,-0.6129211,0.13133392,-0.32330507,-2.082467,0.19328594,-0.68371296,2.1357298,4.044616,-0.47092438,-5.284381
-11.185337,50.511345,13.197685,18.527428,1.7005022,1.1940334,-0.22683689,-0.8108531,-0.8040379,-0.7826615,-0.7135464,-0.38236895,0.47690555,-0.34695756,0.60633165,-0.819436,-2.0540378,-1.1989384,2.1203196,1.6481931,-0.93263364,0.6728963,-0.7534146,-1.9896896,-1.1406338,2.1525636,1.6040789,-0.8970777,-1.4546272,-1.4381229,-1.3940785,-1.297023,-0.5911703,0.35618138,0.07124442,-0.07064819,-0.53073883,0.8352273,-3.3558018,0.059501156,-3.8313844,-0.13012314,-0.5505409,0.8118759,0.9174888,0.0053544757,0.16119581,0.3635953,-1.1914717,-0.5005001,-1.4010438,0.0,1.0,0.0,0.0,0.0,0.0,0.0,-0.5793518,0.13073882,-0.2852273,-0.9937763,0.025129318,-0.90994835,3.1615973,3.255701,-0.57046413,-5.893074
-9.254363,52.819714,14.385357,18.111702,1.5785755,1.2470987,-0.20103057,-0.8129525,-0.80265194,-0.7829543,-0.697747,-0.37327886,0.48894772,-0.392801,0.5916011,-0.8336798,-2.067985,-1.2104086,2.1152358,1.6529737,-0.9363578,0.65835404,-0.76775193,-2.0042462,-1.1535227,2.1467226,1.6086569,-0.8965126,-1.4484799,-1.4283278,-1.5556438,-1.3077823,-0.623456,0.61685264,0.0773972,-0.09692383,-0.52991486,0.81171227,-1.5260873,0.22370619,0.35155675,-0.14220047,-0.5551834,0.7976642,0.9199961,0.017014347,0.15784642,0.3583326,-1.2162973,-0.4258146,-1.4616002,0.0,1.0,0.0,0.0,0.0,0.0,0.0,-0.55307615,0.12991485,-0.26171225,1.6932011,1.730299,-31.821514,-5.145645,-9.315705,52.263325,7.1552925
47.699535,176.0,110.0,110.0,4.43875,12.660436,-1.3951942,-0.8134558,0.5300464,0.6690044,0.66690475,-0.2107135,0.6534474,-0.38951063,0.5770085,-0.7147473,-1.9373457,-1.0868323,2.1256511,1.6740016,-0.93546367,0.64734054,-0.7845137,-2.010848,-1.1531196,2.1316218,1.6223464,-0.8960566,-0.9717205,-1.6762147,-0.4999005,0.45455822,-1.6776981,1.671211,0.07475053,-0.1118927,-0.52757263,0.81540066,-1.5245615,0.22348253,0.25195423,-0.15355682,-0.55667114,0.78760237,0.92174953,0.0185367,0.15957327,0.3529453,-1.1083004,-0.038710475,-0.85909706,0.0,1.0,0.0,0.0,0.0,0.0,0.0,-0.5381073,0.12757263,-0.26540065,51.91685,-0.00011920929,63.00034,165.34192,-68.05947,122.61622,11.708425
-40.64835,155.8282,51.103077,93.927216,7.7121363,4.749522,-2.1003222,-0.81145144,-0.6357582,-0.29522365,0.7266282,-0.5286314,0.6039509,-0.2315247,0.56619537,-0.8480895,-2.0403705,-1.0804567,2.0787587,1.6827415,-0.91920906,0.6376636,-0.8005049,-2.0133924,-1.1417537,2.1144557,1.6391177,-0.8955025,-0.9645633,-1.5743369,-0.17197753,1.3660527,-1.7317393,1.6848522,0.051226556,-0.12712479,-0.5253372,0.8171739,-1.5230372,0.2232591,0.15245116,-0.16547394,-0.55591583,0.7818782,0.9238071,0.013876649,0.16398254,0.34568417,-1.2153274,0.12412624,-0.48196274,1.0,0.0,0.0,0.0,0.0,0.0,0.0,-0.5228752,0.12533721,-0.2671739,1.2483716,9.927917,33.08486,91.778015,-6.041503,3.1047106,-1.6525373
-54.991978,134.75229,30.13707,71.19274,5.880432,2.4715643,-1.7107004,-0.79545134,-0.49843308,-0.46602097,0.7003383,-0.6170585,0.564908,0.26013222,0.55811846,-0.85034823,-2.0599945,-1.0717199,2.0527499,1.6956085,-0.8694893,0.62721324,-0.81420255,-2.015582,-1.1248832,2.0984492,1.6550002,-0.89483017,-1.0696508,-1.3027352,-0.23549002,1.7963346,-1.5581858,1.5594857,0.07310491,-0.14234161,-0.52310944,0.8179528,-1.5215145,0.22303589,0.053047583,-0.17842865,-0.5538597,0.77878875,0.92644024,0.007653768,0.16951708,0.3360265,-1.3190576,0.23946154,-0.2582955,1.0,0.0,0.0,0.0,0.0,0.0,0.0,-0.50765836,0.12310943,-0.2679528,-9.848905,26.803017,-6.683132,43.705368,17.082764,-11.537886,2.3281722
-36.670006,102.339355,22.942492,42.714397,3.7923114,1.2755196,-0.70326895,-0.75610244,-0.5825255,-0.13946563,0.7691348,-0.61065507,0.5822262,0.26727346,0.551603,-0.8724551,-2.0295286,-1.0479697,2.0373838,1.7132229,-0.86810285,0.6155298,-0.82577825,-2.0179281,-1.1062827,2.084621,1.6692901,-0.89394516,-1.2001511,-1.1102551,-0.23524955,1.8825221,-1.3256378,1.3869151,0.09375752,-0.15754318,-0.52088165,0.8177385,-1.5199933,0.2228129,-0.04625661,-0.19202423,-0.55093,0.77708924,0.9293683,0.0014913135,0.17516652,0.32494462,-1.3709904,0.31895867,-0.14798735,1.0,0.0,0.0,0.0,0.0,0.0,0.0,-0.4924568,0.12088165,-0.26773846,-12.712169,18.931961,-0.14308095,8.9586735,22.838068,-16.835094,2.125156
-18.916594,67.14369,13.957157,19.361427,1.7293481,0.1800226,-0.009442737,-0.7422023,-0.6016765,-0.15804206,0.75666726,-0.6272427,0.5947113,0.26030463,0.54130954,-0.8859459,-2.0337324,-1.030616,2.0218966,1.7287612,-0.8679147,0.6027963,-0.8361151,-2.0204496,-1.0883346,2.0728297,1.6819453,-0.8928761,-1.2975706,-1.0087787,-0.25767258,1.7656902,-1.1316881,1.225627,0.11117065,-0.17272949,-0.51865387,0.81653184,-1.5184736,0.22259013,-0.14546151,-0.20585251,-0.5475464,0.77570736,0.932335,-0.003784004,0.1802933,0.31341895,-1.3828734,0.35402894,-0.14129816,1.0,0.0,0.0,0.0,0.0,0.0,0.0,-0.47727048,0.11865386,-0.26653183,-9.671807,9.956145,-2.2736192,-11.599398,19.029331,-15.949845,1.7023728
-3.2781038,54.835083,13.121697,8.446905,0.473305,-0.24128413,0.34821624,-0.7352051,-0.56732035,-0.1428649,0.7682405,-0.65249735,0.5833306,0.25767758,0.5292758,-0.8928472,-2.0347362,-1.0115105,2.00758,1.7402784,-0.86710835,0.58943725,-0.8458302,-2.0230703,-1.0719619,2.0624423,1.6931434,-0.8916592,-1.3489399,-0.9595581,-0.26317126,1.594292,-1.0095885,1.0850025,0.124855936,-0.18790054,-0.5164299,0.81433386,-1.5169555,0.2223676,-0.24456723,-0.21954346,-0.54397583,0.7741157,0.9351781,-0.0079193385,0.1847828,0.3020503,-1.3601999,0.36713162,-0.17051417,1.0,0.0,0.0,0.0,0.0,0.0,0.0,-0.46209943,0.116429895,-0.26433384,-5.2152157,4.78487,-0.38518906,-17.18185,11.770225,-13.937426,1.2803942
-4.5511994,35.3086,5.189319,4.7698774,0.11604819,-0.8040912,0.30217922,-0.74048877,-0.5695211,-0.3039927,0.7711257,-0.6523467,0.57117677,0.2789175,0.51538837,-0.9027823,-2.0534697,-0.9948493,1.9972076,1.7502611,-0.86376745,0.5758178,-0.85538507,-2.0264654,-1.0571132,2.052856,1.7030959,-0.89030975,-1.3664382,-0.95449954,-0.36463642,1.4482627,-0.9422111,0.965509,0.13800775,-0.20305634,-0.51420975,0.8111456,-1.5154388,0.22214527,-0.34357387,-0.23309326,-0.54047775,0.771937,0.9378942,-0.01065667,0.18877186,0.2908711,-1.3505917,0.354815,-0.23805949,1.0,0.0,0.0,0.0,0.0,0.0,0.0,-0.44694364,0.11420974,-0.2611456,-1.7861128,0.42618513,-10.12221,-14.572501,6.525314,-11.88265,1.2235522
-10.289894,27.362848,0.46345574,6.6910405,0.2071979,-1.0128176,0.12714662,-0.7461275,-0.5561634,-0.4432774,0.77972305,-0.65450835,0.5603586,0.31703347,0.5012051,-0.9110014,-2.0707932,-0.9791409,1.9874052,1.7591318,-0.8586064,0.562165,-0.8649905,-2.0315046,-1.0432677,2.043651,1.7119956,-0.8888163,-1.3648019,-0.9628018,-0.5507849,1.3638566,-0.9134755,0.86481184,0.15280144,-0.21819687,-0.5119896,0.806968,-1.5139236,0.22192317,-0.44248152,-0.24669647,-0.53715897,0.7689945,0.94053423,-0.011801848,0.19251381,0.27963248,-1.359306,0.33453372,-0.31673267,1.0,0.0,0.0,0.0,0.0,0.0,0.0,-0.4318031,0.11198959,-0.25696796,0.2033472,-0.90407133,-18.70169,-8.300161,2.814722,-10.060274,1.381883
-19.2769,13.737102,-5.651987,8.220042,0.6158464,-1.1259087,-0.018709712,-0.7634246,-0.61038804,-0.55194074,0.769873,-0.6338624,0.560436,0.33609095,0.48582256,-0.92602926,-2.0866988,-0.9662804,1.9802649,1.7680392,-0.8552072,0.5485208,-0.8749745,-2.0387182,-1.0299029,2.034637,1.7200141,-0.8871712,-1.3637238,-1.0105768,-0.77909106,1.3282335,-0.8974788,0.78065413,0.16824283,-0.23332214,-0.50976944,0.80180204,-1.51241,0.2217013,-0.5412903,-0.2606125,-0.53406143,0.76513547,0.943163,-0.011278505,0.19607098,0.26809052,-1.3989139,0.31101045,-0.41238606,1.0,0.0,0.0,0.0,0.0,0.0,0.0,-0.41667783,0.109769434,-0.25180203,0.26154518,-4.848194,-23.053885,-3.2623053,1.6831517,-8.501852,1.5083194
-23.678322,9.76505,-7.2984986,9.702814,0.8679311,-0.99015975,-0.08589386,-0.7686968,-0.6469002,-0.6412977,0.76770794,-0.6362792,0.57806987,0.34193012,0.47165114,-0.9396645,-2.102848,-0.95313215,1.971009,1.7778211,-0.85297817,0.5348747,-0.88559556,-2.0482016,-1.0166354,2.0256953,1.7273116,-0.8853802,-1.3641603,-1.0796245,-1.005914,1.3274766,-0.8928378,0.71236616,0.18263729,-0.24843216,-0.5075569,0.79564875,-1.5108979,0.22147964,-0.6400002,-0.27502823,-0.53115845,0.760301,0.94579995,-0.009152576,0.19944711,0.2561241,-1.4518646,0.2943881,-0.5104465,0.0,1.0,0.0,0.0,0.0,0.0,0.0,-0.40156782,0.10755691,-0.24564874,0.17132759,-6.9969654,-22.929096,0.33459663,0.57559013,-6.9833755,1.4420152
-16.013172,13.873271,-3.3699934,8.21492,0.7517445,-0.7547431,0.037669066,-0.7355618,-0.69609296,-0.66000384,0.7653003,-0.6346089,0.6106803,0.37030464,0.4613185,-0.95520484,-2.114202,-0.9401054,1.9622344,1.7883797,-0.84834975,0.52137446,-0.89703965,-2.0594625,-1.003263,2.0167575,1.7340426,-0.8834395,-1.3447767,-1.1662726,-1.1668319,1.3418127,-0.89381915,0.65945363,0.19800708,-0.26352692,-0.5053444,0.78850615,-1.5093874,0.22125821,-0.7390052,-0.28987122,-0.5283699,0.754555,0.94839144,-0.005718525,0.20257334,0.24389544,-1.4901712,0.28439707,-0.5992168,0.0,1.0,0.0,0.0,0.0,0.0,0.0,-0.38647306,0.105344385,-0.23850614,2.094531,-8.767033,-16.191435,1.8212557,-0.08298159,-5.4729104,1.5645057
-7.0071964,22.3621,1.9076602,6.575314,0.5552035,-0.4782014,0.18454613,-0.7137435,-0.7305018,-0.6762911,0.75181913,-0.62330025,0.60304576,0.39256284,0.4500001,-0.97008985,-2.1270916,-0.9280811,1.9544275,1.7943472,-0.8441832,0.5081661,-0.90934396,-2.071807,-0.98978907,2.0078235,1.7403159,-0.8813433,-1.3126551,-1.2521986,-1.2566441,1.3502452,-0.893683,0.61588407,0.21355572,-0.2786064,-0.50313187,0.7803742,-1.5078783,0.22103699,-0.8379112,-0.3049202,-0.5256424,0.74803096,0.9508681,-0.0013236242,0.20536572,0.23167418,-1.5064894,0.28147602,-0.6736398,0.0,1.0,0.0,0.0,0.0,0.0,0.0,-0.37139356,0.10313186,-0.23037422,3.2719374,-8.701372,-8.897972,1.1425257,-0.10948181,-4.5411468,1.5825093
7.2093086,36.170532,9.449673,4.3448443,0.1742943,-0.22558415,0.36683825,-0.66287875,-0.7498747,-0.6651348,0.7435429,-0.61450064,0.6120746,0.42259228,0.4418782,-0.9843314,-2.1383204,-0.9154348,1.9463735,1.8015233,-0.8390841,0.49547076,-0.9223826,-2.0845175,-0.976307,1.9989085,1.7462192,-0.8790869,-1.255431,-1.3214186,-1.2746862,1.3479513,-0.89201754,0.58142364,0.22955409,-0.29367065,-0.50092316,0.771254,-1.5063707,0.220816,-0.9367183,-0.31989288,-0.52292633,0.7409279,0.9531539,0.0036650542,0.20779456,0.21978547,-1.4878931,0.28132343,-0.72624373,0.0,1.0,0.0,0.0,0.0,0.0,0.0,-0.35632932,0.10092315,-0.22125399,5.6240797,-7.029915,-1.463604,-0.118517876,-0.14472008,-3.6055207,1.5843034
15.312008,46.188046,13.801079,3.2387474,-0.1442002,-0.08983934,0.4641537,-0.6280265,-0.7606769,-0.6878122,0.7273759,-0.62828183,0.6037959,0.44274715,0.43266812,-0.9984503,-2.1532986,-0.9035694,1.9360803,1.8065988,-0.8348122,0.48343015,-0.9359381,-2.0972204,-0.9629565,1.9899611,1.751821,-0.876676,-1.1875645,-1.3673223,-1.2674834,1.3306936,-0.8972181,0.5527457,0.24474087,-0.30871964,-0.49871826,0.7611464,-1.5048647,0.22059523,-1.0354267,-0.334507,-0.5202141,0.7333993,0.95519644,0.0090491995,0.20992856,0.20844156,-1.4461427,0.28062478,-0.76577747,0.0,1.0,0.0,0.0,0.0,0.0,0.0,-0.34128034,0.098718256,-0.21114641,6.595731,-4.7023296,1.2108803,-1.7457962,-0.9550452,-3.008771,1.4431179
35.337204,55.873726,20.184195,-1.5828102,-0.8489791,-0.18211466,0.6671738,-0.5160567,-0.77685595,-0.6651033,0.71042013,-0.6170963,0.6089511,0.4499656,0.43182448,-1.0136237,-2.1637309,-0.8919145,1.9282515,1.8127161,-0.83167946,0.47245002,-0.9498341,-2.109641,-0.9498721,1.9809833,1.7571807,-0.8741278,-1.0693791,-1.3973538,-1.2311398,1.3002505,-0.89979595,0.530016,0.2575991,-0.32375336,-0.49651337,0.7500525,-1.5033602,0.22037467,-1.1340365,-0.34840393,-0.5176239,0.7255641,0.9569436,0.014634526,0.21180728,0.19794571,-1.3652954,0.26324865,-0.7934937,0.0,1.0,0.0,0.0,0.0,0.0,0.0,-0.32624662,0.09651336,-0.2000525,11.457205,-3.0869484,4.3382883,-3.2948017,-0.82366467,-2.3897052,1.1359572
25.404453,52.893387,16.619211,0.3697133,-0.6173378,-0.19699526,0.5746748,-0.54164666,-0.78730124,-0.71743363,0.66425556,-0.61452395,0.52167326,0.43010437,0.41828534,-1.0285642,-2.1813843,-0.8834465,1.9195309,1.809348,-0.8311174,0.4623742,-0.9639447,-2.1220255,-0.9372947,1.9718864,1.762332,-0.8715682,-0.98726606,-1.4160259,-1.2439574,1.2414657,-0.92129207,0.5131799,0.24991605,-0.33870697,-0.49354553,0.7405461,-1.4878427,0.36838236,-0.7311318,-0.3616104,-0.5151901,0.717358,0.95841736,0.020565586,0.21351187,0.18821761,-1.2982687,0.24719751,-0.8359603,0.0,1.0,0.0,0.0,0.0,0.0,0.0,-0.311293,0.093545526,-0.1905461,7.8071833,-1.9735098,0.47631264,-5.5862904,-0.89713335,-2.6866198,0.3630668
1.3066728,61.136982,14.133403,11.547071,0.5193342,0.22283304,0.24909198,-0.5929705,-0.7571569,-0.7338422,0.71343595,-0.65257853,0.51573884,0.5184402,0.40307716,-1.0396603,-2.1954098,-0.8659511,1.9066285,1.8139058,-0.8197242,0.4526019,-0.97801614,-2.1346412,-0.924978,1.9625455,1.7672974,-0.8689737,-0.974318,-1.4047447,-1.2658311,1.2286043,-0.9400549,0.49033546,0.26224437,-0.3535347,-0.48963165,0.7332868,-1.4815134,0.39852175,-0.726528,-0.37441254,-0.512661,0.70891345,0.9596615,0.026951592,0.21527356,0.17883109,-1.2690039,0.26420954,-0.85133404,0.0,1.0,0.0,0.0,0.0,0.0,0.0,-0.29646528,0.08963165,-0.18328679,1.1830211,0.94435215,-1.6900778,-1.2530565,-2.400291,-2.4590611,1.0950446
-21.883444,66.674355,11.205925,21.14099,1.6139805,0.6191062,-0.046745703,-0.6474634,-0.7366727,-0.752944,0.727641,-0.66422945,0.5160191,0.5193697,0.38785556,-1.0516834,-2.2099357,-0.8522139,1.8961226,1.8188993,-0.8170367,0.44247246,-0.99182534,-2.147578,-0.91258126,1.9530127,1.7720519,-0.8662533,-1.025792,-1.3738588,-1.3015261,1.2440667,-0.95953155,0.46973458,0.27495858,-0.36826324,-0.48540497,0.7260782,-1.4703857,0.43024185,-0.7218623,-0.38718796,-0.5097275,0.70043236,0.960726,0.033807073,0.21721752,0.16934912,-1.2739736,0.3124773,-0.8509746,0.0,1.0,0.0,0.0,0.0,0.0,0.0,-0.28173673,0.08540496,-0.1760782,-5.1320314,2.8359175,-3.126812,1.7495155,-2.4558902,-2.2701025,1.1775315
-19.574736,70.18544,12.424686,21.22736,1.6340705,0.65801156,-0.028198376,-0.61499846,-0.73054457,-0.75735855,0.7249291,-0.6722007,0.50445294,0.54172736,0.38097262,-1.0648798,-2.2233138,-0.84008837,1.8857926,1.8224972,-0.81208056,0.43189862,-1.0053074,-2.160831,-0.8999748,1.943344,1.7766227,-0.86337703,-1.0680019,-1.3405468,-1.3315138,1.2666955,-0.97141165,0.45197982,0.29143518,-0.38269424,-0.48099136,0.7188785,-1.4352269,0.44471622,-0.7211462,-0.39997864,-0.50629807,0.69199884,0.9616069,0.04108452,0.2193649,0.15969683,-1.2742891,0.36142975,-0.84451735,0.0,1.0,0.0,0.0,0.0,0.0,0.0,-0.26730573,0.08099136,-0.1688785,-4.2462826,3.075695,-2.4729729,2.4219036,-1.7820835,-1.9951761,1.5259385
-19.709593,72.634415,12.969943,21.703512,1.7068459,0.74969923,-0.024975598,-0.63692874,-0.7123512,-0.7576428,0.73246026,-0.69262975,0.49465132,0.5636614,0.36820576,-1.0765426,-2.2365952,-0.8267288,1.874081,1.8260878,-0.8070109,0.42089275,-1.0184395,-2.1742976,-0.8871298,1.9335358,1.7810315,-0.8603332,-1.11164,-1.3050963,-1.3498884,1.2909719,-0.9862616,0.43615124,0.3082452,-0.3967743,-0.47645187,0.71170855,-1.3987827,0.45823756,-0.71704954,-0.41275406,-0.50237274,0.6836684,0.9622882,0.048724845,0.22171435,0.1498999,-1.2721283,0.4130374,-0.8327566,0.0,1.0,0.0,0.0,0.0,0.0,0.0,-0.25322568,0.07645187,-0.16170853,-4.411936,3.2856941,-1.248312,2.5642395,-2.1363258,-1.8125236,1.5476763
-19.18292,71.72988,12.801401,21.005451,1.7858613,0.7698345,0.0028586984,-0.6634222,-0.706909,-0.75254,0.7317534,-0.6719705,0.47444594,0.58439523,0.3545505,-1.0891304,-2.2495515,-0.8139545,1.8663387,1.8284761,-0.8018937,0.40944198,-1.0312779,-2.1878397,-0.87409973,1.9236691,1.7852827,-0.8571204,-1.1564236,-1.277622,-1.3536147,1.307453,-0.98911846,0.42043093,0.32519847,-0.41049576,-0.47178268,0.704545,-1.3633347,0.47041517,-0.71692216,-0.42551422,-0.497921,0.675443,0.96277505,0.056663815,0.22417036,0.14000359,-1.2702485,0.46494186,-0.8222887,0.0,1.0,0.0,0.0,0.0,0.0,0.0,-0.23950422,0.07178268,-0.15454501,-4.5386076,2.4961233,0.24209023,1.7809391,-0.9640217,-1.8216789,1.5797913
-14.324047,69.215904,12.798475,18.374008,1.5744717,0.68143225,0.077103086,-0.6692765,-0.7037159,-0.75294065,0.7246213,-0.6755632,0.41880295,0.578429,0.34251434,-1.1016495,-2.2631338,-0.8016376,1.8561127,1.827163,-0.7992775,0.39762738,-1.043916,-2.2013628,-0.86100286,1.9137948,1.7893509,-0.8537594,-1.19005,-1.260164,-1.3497815,1.3108178,-0.9892133,0.40128887,0.33940354,-0.4238701,-0.46702194,0.6973323,-1.3284535,0.47899398,-0.7227275,-0.4382019,-0.4930153,0.66727275,0.96307176,0.06487759,0.22661898,0.13010585,-1.2620133,0.50924474,-0.8182705,0.0,1.0,0.0,0.0,0.0,0.0,0.0,-0.22612989,0.067021936,-0.14733231,-3.4504414,1.5187979,1.013875,0.43332577,-0.6949544,-2.170223,1.3070226
-8.57205,74.25219,14.870746,17.662735,1.4994459,0.6924715,0.12969434,-0.6721315,-0.6788006,-0.738767,0.72912896,-0.6709419,0.40727735,0.6089581,0.33041424,-1.111796,-2.2752395,-0.78809,1.8467005,1.8300786,-0.7928636,0.38557768,-1.0563424,-2.214756,-0.8479032,1.9039474,1.7932383,-0.8502509,-1.2104158,-1.2373383,-1.3337921,1.3097007,-0.98573816,0.3835909,0.35423905,-0.4368515,-0.46219635,0.6900893,-1.2878382,0.48397404,-0.72362584,-0.450737,-0.48770142,0.65918446,0.963173,0.07329621,0.22902128,0.12031069,-1.2429563,0.5485534,-0.80837065,0.0,1.0,0.0,0.0,0.0,0.0,0.0,-0.21314847,0.062196344,-0.14008927,-2.1790028,2.0644426,2.3283243,-0.09279251,-0.42136908,-2.0230412,1.3434291
-5.208741,74.17653,15.170143,16.490995,1.4221249,0.62330383,0.16405568,-0.6797012,-0.67219037,-0.73052716,0.72530305,-0.6642302,0.324387,0.620497,0.31760755,-1.1235614,-2.2878087,-0.77537286,1.8375243,1.825677,-0.7882012,0.37338302,-1.0685608,-2.2279582,-0.83485204,1.894158,1.7969049,-0.8466001,-1.2229965,-1.2172366,-1.313082,1.3035471,-0.97925097,0.36013195,0.36820868,-0.44942474,-0.45734406,0.68281883,-1.2466183,0.48597527,-0.7263451,-0.46304703,-0.4820366,0.65118724,0.963084,0.08188921,0.23132814,0.11068204,-1.220003,0.5819617,-0.7992426,0.0,1.0,0.0,0.0,0.0,0.0,0.0,-0.20057523,0.05734405,-0.13281882,-1.4206886,1.8079758,2.8225899,-0.62942505,-0.14004707,-2.5955737,1.2539506
0.13422632,82.78876,17.950418,17.02991,1.4520917,0.6525061,0.18049295,-0.6749404,-0.62994754,-0.70605445,0.7224978,-0.6489884,0.2307497,0.64097,0.30588898,-1.1315556,-2.2985637,-0.76260227,1.8292592,1.8199799,-0.7825031,0.3611435,-1.0804341,-2.24087,-0.821882,1.8844754,1.8002894,-0.8428112,-1.2249545,-1.1781337,-1.2808905,1.2944273,-0.9675972,0.33043593,0.38190138,-0.46152878,-0.4524994,0.6756133,-1.1969619,0.48383904,-0.71605265,-0.47505188,-0.4760704,0.6433928,0.9628052,0.09058731,0.2335479,0.101268925,-1.185741,0.6107554,-0.7752985,0.0,1.0,0.0,0.0,0.0,0.0,0.0,-0.1884712,0.052499384,-0.12561327,-0.420475,3.7107944,4.104471,-1.0274887,0.2528429,-3.217119,1.186651
6.4358206,88.80841,20.412725,16.88867,1.5384614,0.60172474,0.19729066,-0.6630498,-0.60360944,-0.66011846,0.7162953,-0.60741246,0.06569864,0.65282583,0.29483852,-1.140795,-2.306882,-0.7502525,1.823734,1.8068593,-0.77752864,0.34897643,-1.0918493,-2.25329,-0.8090244,1.875022,1.8032812,-0.8388909,-1.21491,-1.1297376,-1.2260613,1.2821877,-0.9411459,0.287838,0.39473638,-0.4730873,-0.44771194,0.6685886,-1.1411083,0.47676075,-0.69528484,-0.48664856,-0.4698677,0.6359302,0.96236026,0.09926832,0.23562962,0.09212556,-1.1435194,0.63215363,-0.7385694,0.0,1.0,0.0,0.0,0.0,0.0,0.0,-0.17691267,0.04771194,-0.11858857,0.7272959,4.652238,6.479144,-1.4253378,1.6302466,-4.5116606,1.0917485
17.033306,81.505936,20.470049,11.945941,1.2822158,0.27121913,0.29863462,-0.62792367,-0.621697,-0.6131432,0.6847559,-0.5282315,-0.19086932,0.6411058,0.28618407,-1.154019,-2.3146043,-0.7405488,1.8221989,1.7841942,-0.77478033,0.33708492,-1.102952,-2.2650192,-0.79641664,1.8660525,1.8056839,-0.8348626,-1.1815473,-1.1042302,-1.1522117,1.2527356,-0.8852094,0.22363324,0.4050457,-0.48410034,-0.44303894,0.66170055,-1.086546,0.46334237,-0.6834122,-0.4977913,-0.46359634,0.6287556,0.9618216,0.1078312,0.23731792,0.083377525,-1.097991,0.6341476,-0.71234566,0.0,1.0,0.0,0.0,0.0,0.0,0.0,-0.16589963,0.043038934,-0.111700535,3.0431747,2.4125576,8.34291,-3.1894922,4.6292543,-6.675932,0.8826673
34.881046,84.55757,24.66844,7.862927,1.094239,0.15211916,0.4030699,-0.56595564,-0.60497296,-0.49308094,0.6614057,-0.45643023,-0.30959994,0.62462735,0.28048936,-1.1634493,-2.3143272,-0.73027605,1.8204095,1.7747239,-0.77239984,0.32579473,-1.1138391,-2.275577,-0.78419125,1.8578165,1.8074048,-0.83075553,-1.1127374,-1.0839162,-1.0199498,1.2112163,-0.8063659,0.15419477,0.4121112,-0.49449158,-0.43856812,0.6550253,-1.0214436,0.44017652,-0.6583874,-0.5083504,-0.45745087,0.6219175,0.96127725,0.11596977,0.2384028,0.07523959,-1.0334184,0.6150513,-0.6759622,0.0,1.0,0.0,0.0,0.0,0.0,0.0,-0.1555084,0.03856811,-0.10502529,6.510401,1.932931,14.317393,-4.5286655,6.8259716,-7.193723,0.5630493
41.43071,70.80034,23.780733,2.4944282,1.4530821,-0.006833434,0.4608181,-0.5525352,-0.66054773,-0.33167958,0.58455896,-0.16743039,-0.42608035,0.6035702,0.27054122,-1.179894,-2.308745,-0.72573537,1.8410734,1.7647967,-0.7703985,0.31518504,-1.1248636,-2.2842393,-0.7726708,1.851134,1.808401,-0.8266004,-1.0447737,-1.1088214,-0.8116005,1.1311756,-0.6253621,0.08071032,0.41664967,-0.504303,-0.43434143,0.64849275,-0.96618176,0.41628912,-0.6488442,-0.5183296,-0.4515381,0.61535573,0.96095634,0.12313982,0.23830652,0.067893386,-0.98022676,0.5909812,-0.65115565,0.0,1.0,0.0,0.0,0.0,0.0,0.0,-0.145697,0.034341425,-0.09849274,6.4737797,-2.5454998,21.80276,-8.317256,17.154598,-7.6164203,0.44900775
54.062515,92.01119,33.94475,5.260676,2.9085593,0.6181711,0.39321887,-0.5403523,-0.638121,0.1318089,0.5336249,0.074538626,-0.41092747,0.61699736,0.26114982,-1.1886758,-2.2710583,-0.7193083,1.8585879,1.7673082,-0.7649006,0.30515283,-1.1360902,-2.2889497,-0.7620954,1.8468312,1.8087575,-0.8223967,-0.99054366,-1.1274557,-0.3534171,1.031708,-0.36944234,0.019859781,0.42183474,-0.5133934,-0.43039703,0.6424317,-0.88852406,0.38655713,-0.58934706,-0.5276413,-0.44575882,0.6095284,0.96117544,0.12807542,0.2365397,0.06154073,-0.90945274,0.57929534,-0.56135345,0.0,1.0,0.0,0.0,0.0,0.0,0.0,-0.13660657,0.030397028,-0.092431664,5.056131,-1.9332886,47.110344,-10.318589,24.338371,-6.3098073,0.58428645
70.16129,95.328636,39.06377,2.4658132,3.553783,0.71513766,0.38127875,-0.46604618,-0.67333484,0.44588813,0.47596246,0.42414126,-0.3745543,0.60645187,0.2585482,-1.2034236,-2.244361,-0.7144991,1.8892453,1.7713021,-0.76175153,0.29583633,-1.1476338,-2.2881098,-0.75259763,1.8458153,1.8086157,-0.818154,-0.913076,-1.1636713,0.23427963,0.92148876,-0.016512847,-0.026004009,0.42532825,-0.52163315,-0.42679596,0.6371202,-0.8018383,0.35053688,-0.5096068,-0.53619003,-0.44013977,0.60478175,0.96222866,0.12962598,0.23267123,0.05636667,-0.83164805,0.56117916,-0.44732648,0.0,1.0,0.0,0.0,0.0,0.0,0.0,-0.12836683,0.026795954,-0.087120175,7.436979,-3.7283897,60.115536,-11.32015,34.02231,-4.746251,0.42479634
60.015373,90.2905,34.135155,4.126972,3.3078654,0.4574436,0.2741596,-0.437685,-0.660322,0.46688172,0.43726853,0.56207037,-0.42210746,0.60035765,0.25206783,-1.213666,-2.2414217,-0.70887077,1.9020224,1.766405,-0.7581182,0.28728288,-1.1594288,-2.2823422,-0.7441225,1.848249,1.8080456,-0.8138903,-0.836621,-1.1851186,0.6940794,0.82255894,0.32686943,-0.067434974,0.4268125,-0.52908707,-0.42354202,0.63250566,-0.7266456,0.3169122,-0.44498986,-0.54408264,-0.43468475,0.6010198,0.96409255,0.12792496,0.22679365,0.052205283,-0.77239466,0.54504484,-0.3544278,0.0,1.0,0.0,0.0,0.0,0.0,0.0,-0.12091291,0.023542017,-0.08250564,7.4889183,-2.2991657,46.995514,-9.966564,33.40356,-4.2111063,0.17704964
64.79579,86.83216,31.260525,1.2939947,2.0398915,0.090728134,0.36207807,-0.3348984,-0.63852,0.5224609,0.38243908,0.62935054,-0.35946795,0.58955,0.25379303,-1.2232808,-2.230096,-0.7058786,1.9111841,1.7720988,-0.75493526,0.27978987,-1.1712525,-2.2731812,-0.73660296,1.8536441,1.8071676,-0.8096224,-0.7205903,-1.182162,0.99298614,0.7286779,0.6077701,-0.094482474,0.42667463,-0.53578186,-0.42067337,0.62848824,-0.65201765,0.27738085,-0.3895741,-0.5513153,-0.42957306,0.59797245,0.96652514,0.12370248,0.21938021,0.04898063,-0.7056104,0.505265,-0.2906079,0.0,1.0,0.0,0.0,0.0,0.0,0.0,-0.114218116,0.020673364,-0.07848823,11.488056,0.10652542,30.762207,-9.317911,27.359104,-2.6591733,-0.030583143
54.21511,76.74678,24.932709,0.05167982,1.0769144,-0.10060567,0.44891328,-0.32088682,-0.63400537,0.5899998,0.27326208,0.6701997,-0.2999232,0.58214223,0.24770118,-1.234653,-2.2141812,-0.70927674,1.9206641,1.7771753,-0.75140816,0.27332494,-1.1829579,-2.2620168,-0.7302583,1.8612525,1.8061055,-0.80536044,-0.6220303,-1.1674551,1.1595474,0.6037236,0.8102911,-0.10979395,0.42602944,-0.5418205,-0.41817474,0.6248327,-0.58964807,0.24204865,-0.36113733,-0.5579338,-0.42488098,0.5952666,0.96927065,0.11781375,0.21084833,0.046660665,-0.6461702,0.46198264,-0.26690096,0.0,1.0,0.0,0.0,0.0,0.0,0.0,-0.10817945,0.018174738,-0.07483268,9.79656,1.2908459,17.215204,-12.314844,19.823456,-1.3976469,-0.037050247
40.01172,70.27012,19.573677,0.44230685,0.47868335,-0.11105126,0.51948166,-0.3257401,-0.6107044,0.6373603,0.1430852,0.70242524,-0.23524353,0.5818116,0.24075092,-1.2440283,-2.1982808,-0.7159498,1.9314951,1.7825811,-0.74717927,0.26754662,-1.1943982,-2.2498662,-0.72551787,1.8703691,1.8049664,-0.801103,-0.56317997,-1.1368275,1.2342539,0.43157107,0.9447708,-0.11465231,0.4259768,-0.5473137,-0.4159813,0.62129927,-0.5381453,0.21299244,-0.35506672,-0.5639992,-0.420578,0.59257984,0.9721277,0.111004576,0.20149752,0.04521445,-0.59387445,0.42466447,-0.2724688,0.0,1.0,0.0,0.0,0.0,0.0,0.0,-0.102686286,0.015981287,-0.071299255,5.8754444,2.9159546,7.667637,-16.98407,13.343727,-0.26941448,0.09034276
27.895487,60.60664,14.442828,-1.9400095,-0.19682266,-0.06913851,0.7142557,-0.3608806,-0.58475906,0.66737205,-0.09541156,0.7279561,-0.22171885,0.5746199,0.23145856,-1.252874,-2.183129,-0.735059,1.9431647,1.7827946,-0.743641,0.26192328,-1.2054398,-2.2373648,-0.72330654,1.8804474,1.8038025,-0.7968467,-0.5620455,-1.0938181,1.2551774,0.15178564,1.0292176,-0.116222136,0.42603436,-0.55236816,-0.41402817,0.61762947,-0.49695083,0.19041806,-0.37630913,-0.5695534,-0.41661072,0.5895828,0.97497034,0.10389301,0.19140412,0.044761106,-0.54288995,0.39153546,-0.3120273,0.0,1.0,0.0,0.0,0.0,0.0,0.0,-0.09763181,0.014028162,-0.06762946,0.13301373,4.1823864,1.9346237,-27.742136,8.622146,0.12886822,0.17433167
39.3763,44.043507,11.777429,-11.790164,-1.4926579,-0.33874995,1.0306685,-0.30939266,-0.6082554,0.68324924,-0.31125492,0.75686175,-0.17522605,0.55925786,0.23098402,-1.2662654,-2.1690397,-0.754432,1.9561336,1.7862799,-0.7409209,0.25637102,-1.2162335,-2.224834,-0.7244805,1.8911436,1.8026607,-0.79259336,-0.5529343,-1.0750165,1.2520798,-0.20609544,1.0835267,-0.11272662,0.42583358,-0.5570488,-0.4123268,0.61353177,-0.46001932,0.16459762,-0.4251407,-0.57448196,-0.4131775,0.58588576,0.9777372,0.09685189,0.1804606,0.045646597,-0.47693342,0.33028448,-0.3915752,0.0,1.0,0.0,0.0,0.0,0.0,0.0,-0.09295118,0.012326807,-0.06353176,0.9193182,1.7356157,-0.50120354,-35.515514,5.6078672,0.61027855,0.19791126
29.943298,35.40742,8.584722,-9.65466,-1.2622235,-0.41134506,0.8503135,-0.31043586,-0.64695024,0.67506367,-0.3443219,0.7622606,-0.07842116,0.552356,0.22532743,-1.2809285,-2.1573277,-0.7589127,1.9673697,1.7948186,-0.73735774,0.25086647,-1.2271245,-2.2124608,-0.72872066,1.902188,1.8016182,-0.7883475,-0.54945844,-1.0940889,1.2316092,-0.4955704,1.1119571,-0.10096476,0.4251558,-0.56145096,-0.41083145,0.6088046,-0.4349155,0.14498715,-0.49181473,-0.5788994,-0.41028595,0.58130634,0.98038405,0.090015836,0.16870955,0.04776313,-0.4295048,0.27859113,-0.48204035,0.0,1.0,0.0,0.0,0.0,0.0,0.0,-0.08854902,0.010831445,-0.05880457,0.4040718,-2.0270348,-2.3252726,-28.631609,3.0596733,1.3201922,0.23140907
27.33474,44.90345,10.605315,-3.8267856,-0.7521147,-0.35325122,0.5661744,-0.26614484,-0.6417162,0.6663528,-0.3394733,0.7608869,0.029856946,0.5590091,0.22425199,-1.2912961,-2.1458254,-0.762668,1.9782766,1.8046039,-0.73244655,0.24558836,-1.2382443,-2.200349,-0.73494345,1.9133855,1.8007752,-0.78410625,-0.5202401,-1.1180573,1.2033534,-0.6634289,1.1233369,-0.07833706,0.42485756,-0.56560135,-0.40952682,0.6035228,-0.40897733,0.12614696,-0.5413779,-0.5828934,-0.40784454,0.57600605,0.9828555,0.08331601,0.15645047,0.05075993,-0.38967118,0.23448612,-0.5473991,0.0,1.0,0.0,0.0,0.0,0.0,0.0,-0.08439863,0.009526819,-0.053522766,3.0301452,-2.4648905,-3.1788588,-16.44572,1.4613867,2.4021492,0.28283596
30.93625,51.700226,12.964487,-1.3526361,-0.57392174,-0.3470327,0.4004869,-0.21297443,-0.6570009,0.66698056,-0.37071714,0.7554377,0.12305759,0.54529357,0.22429092,-1.3039443,-2.133651,-0.77201515,1.9889293,1.8130809,-0.7295769,0.24084048,-1.2496483,-2.1884775,-0.7421875,1.9246117,1.8002218,-0.77987754,-0.4591916,-1.1478108,1.1802862,-0.74361056,1.1236198,-0.047047943,0.42328918,-0.5694809,-0.40841675,0.5978458,-0.3811027,0.10581039,-0.57609034,-0.5865059,-0.4058609,0.57018757,0.9851136,0.076609425,0.1439578,0.05438966,-0.3502677,0.18872413,-0.59432214,0.0,1.0,0.0,0.0,0.0,0.0,0.0,-0.08051908,0.008416742,-0.04784578,6.2375784,-3.0070066,-2.6783228,-7.677865,0.41413307,3.2950625,0.1576364
20.6289,63.92855,14.837061,6.9150963,0.26098827,-0.13590336,0.07595982,-0.19751756,-0.6563592,0.6561645,-0.31513646,0.74809146,0.23753767,0.52657604,0.22108872,-1.3152843,-2.1228611,-0.77370113,1.9994209,1.8239756,-0.72721994,0.23671795,-1.2612813,-2.1768308,-0.7494554,1.9357847,1.80005,-0.77568233,-0.39607438,-1.1685175,1.1582448,-0.720153,1.1170415,-0.006446389,0.41925886,-0.5730934,-0.40747833,0.59197795,-0.35479912,0.09000616,-0.58932847,-0.5898323,-0.4041748,0.5641243,0.98713505,0.06975343,0.13154368,0.05826665,-0.3253139,0.16372596,-0.61117464,0.0,1.0,0.0,0.0,0.0,0.0,0.0,-0.07690656,0.0074783266,-0.041977942,6.4740896,-2.0388842,-2.6490211,2.6589036,-0.15797615,4.275195,-0.103354454
12.284894,75.35041,16.574253,13.203078,0.805085,0.026757598,-0.1359573,-0.1740991,-0.64020306,0.6307972,-0.27593136,0.7396861,0.28448093,0.52076787,0.21930805,-1.3253015,-2.113751,-0.7770485,2.0097532,1.8284981,-0.7236055,0.23319815,-1.2729695,-2.1654663,-0.75603944,1.9468622,1.8002937,-0.7715329,-0.33667836,-1.1687573,1.1277182,-0.63680965,1.1066749,0.03544655,0.41439587,-0.57645035,-0.40666962,0.5861237,-0.32926124,0.07761132,-0.5826077,-0.59298325,-0.40262985,0.55807424,0.98891014,0.06268992,0.1194816,0.06205403,-0.30964983,0.15375747,-0.60373574,0.0,1.0,0.0,0.0,0.0,0.0,0.0,-0.07354963,0.0066696107,-0.036123693,6.118536,0.049710274,-3.5386324,8.631349,-0.45759678,4.4544163,-0.2106905
10.332299,84.231514,18.443718,15.401549,0.8639516,0.10778611,-0.1677446,-0.14707194,-0.611957,0.6135451,-0.27463564,0.727883,0.27288902,0.51990616,0.21849096,-1.3341652,-2.104112,-0.783503,2.0196505,1.8275826,-0.71954226,0.23023535,-1.284467,-2.1544337,-0.76177853,1.9578161,1.8009098,-0.76743007,-0.2821664,-1.1432335,1.0934932,-0.55191797,1.0938714,0.07128446,0.40981558,-0.57954407,-0.40598297,0.5804615,-0.30123517,0.06607914,-0.56006944,-0.5959511,-0.40114975,0.55221814,0.9904391,0.055447422,0.107924,0.0656384,-0.29243496,0.14677896,-0.5805772,0.0,1.0,0.0,0.0,0.0,0.0,0.0,-0.07045591,0.005982965,-0.03046149,5.6384563,2.6356697,-3.930235,8.790863,-0.6440878,3.8761578,-0.19782782
4.088601,91.08251,19.448364,18.432774,1.0888486,0.22121704,-0.22352888,-0.13971694,-0.5834949,0.6019508,-0.23502617,0.714826,0.25974283,0.5243142,0.21626365,-1.3428165,-2.0942388,-0.7852811,2.0292988,1.826884,-0.71499866,0.22769453,-1.295562,-2.1437259,-0.766664,1.9686216,1.8018333,-0.7633667,-0.24407916,-1.0978789,1.0612575,-0.46645012,1.0784254,0.10047883,0.40598252,-0.5823746,-0.4053917,0.5751263,-0.27702457,0.057181574,-0.524303,-0.5987892,-0.39966965,0.5466938,0.99173385,0.048061408,0.096959025,0.06894109,-0.2792328,0.14915198,-0.54421735,0.0,1.0,0.0,0.0,0.0,0.0,0.0,-0.0676254,0.005391687,-0.025126278,4.001686,4.6283245,-3.7572622,8.840281,-0.87058544,3.232199,-0.1411438
10.986674,94.70987,21.24676,16.527048,0.72784096,0.14042374,-0.1416389,-0.08487738,-0.55415094,0.5880627,-0.20062354,0.70473784,0.25978616,0.5352286,0.2192068,-1.3509772,-2.0849197,-0.78672636,2.0390954,1.8278118,-0.7098438,0.22564507,-1.3061173,-2.1333194,-0.7707553,1.9792722,1.8030118,-0.7593272,-0.1912897,-1.0410241,1.0322266,-0.38904437,1.0627435,0.12470794,0.40397355,-0.58494186,-0.4049034,0.5702177,-0.2502212,0.046249997,-0.47949114,-0.60142136,-0.3982544,0.54158014,0.9928058,0.040552102,0.086625,0.07202894,-0.25771496,0.1405171,-0.5015919,0.0,1.0,0.0,0.0,0.0,0.0,0.0,-0.06505811,0.004903406,-0.020217717,5.4624023,5.7617188,-3.3703327,8.03895,-0.95033646,2.7619615,0.018316507
9.679237,97.0698,21.467255,15.066485,0.45242727,0.15538263,-0.009768654,-0.10036102,-0.49277315,0.55844706,-0.26852077,0.710868,0.16949105,0.53780204,0.21560897,-1.3553946,-2.0774746,-0.79760736,2.050359,1.8199608,-0.705547,0.22393991,-1.315923,-2.12326,-0.7746148,1.989818,1.80433,-0.7553017,-0.16297546,-0.960022,0.9956388,-0.38390687,1.0540327,0.13544755,0.4028679,-0.5872421,-0.4045143,0.5657706,-0.22365552,0.03644573,-0.4335698,-0.6037979,-0.3969345,0.53688973,0.99366486,0.033037893,0.076840095,0.07506058,-0.22989395,0.13009526,-0.4594503,0.0,1.0,0.0,0.0,0.0,0.0,0.0,-0.06275785,0.004514307,-0.015770614,3.0118914,8.1630945,-4.1642785,0.8166075,-0.23472309,1.4245331,0.109773874
8.793638,106.54389,23.410398,16.594202,0.32829186,0.18467309,0.0027381033,-0.07791892,-0.40980944,0.50626683,-0.23742653,0.70180255,0.14045747,0.55318356,0.21614802,-1.3569039,-2.0726333,-0.7983575,2.0599983,1.8183757,-0.69998336,0.22249462,-1.3246682,-2.113736,-0.7784877,2.0002875,1.8057109,-0.7512733,-0.13777125,-0.84590364,0.93606794,-0.38729182,1.046874,0.14018442,0.40353623,-0.58927536,-0.40422058,0.56190014,-0.19636826,0.027580421,-0.3722142,-0.60585785,-0.39572525,0.53274035,0.9943159,0.02564954,0.067676514,0.07808822,-0.19802418,0.11891047,-0.4015138,0.0,1.0,0.0,0.0,0.0,0.0,0.0,-0.060724616,0.004220575,-0.011900127,2.7043998,11.489832,-6.497991,-0.038284063,-0.02462864,0.8570641,0.27619004
18.307226,121.93409,28.319832,16.766056,-0.06355488,0.1726185,0.051398993,-0.013625148,-0.30661595,0.48474568,-0.19745293,0.68539083,0.16446646,0.5457248,0.2211321,-1.3553298,-2.0652614,-0.798233,2.0688267,1.8221575,-0.6967008,0.22151305,-1.3319867,-2.1048248,-0.782269,2.0106678,1.8071495,-0.7472418,-0.08431528,-0.6934096,0.8740765,-0.373998,1.0377632,0.14659677,0.40367934,-0.5909996,-0.40403366,0.55886614,-0.16467486,0.01570245,-0.28125808,-0.60749435,-0.3947258,0.52938867,0.9947613,0.0184005,0.059350394,0.08117194,-0.15209232,0.09491316,-0.31422865,0.0,1.0,0.0,0.0,0.0,0.0,0.0,-0.059000373,0.004033655,-0.008866131,5.536564,15.338182,-6.736934,1.633203,-0.16798973,1.0805458,0.20272732
27.08975,142.51772,34.0056,17.476183,-0.61370504,0.20075366,0.1330161,0.0368376,-0.14778337,0.4158485,-0.20226395,0.66658306,0.19578515,0.54101557,0.22519681,-1.346765,-2.06324,-0.8024954,2.077326,1.826728,-0.69314027,0.22123529,-1.3373139,-2.09673,-0.7859369,2.020933,1.8086773,-0.7432114,-0.008271316,-0.47864032,0.7861993,-0.36337218,1.0254023,0.15630017,0.40347883,-0.59236526,-0.40398407,0.55700153,-0.1271543,0.0015258831,-0.15530075,-0.60853195,-0.39405823,0.52717733,0.99499863,0.01135434,0.052178036,0.08441728,-0.08708517,0.057418976,-0.19101395,0.0,1.0,0.0,0.0,0.0,0.0,0.0,-0.05763471,0.003984064,-0.007001519,7.8037634,21.577179,-9.346914,1.3808191,-0.41799545,1.462853,0.16172528
