Afshin1997/kuka_rl_ros2/src/catch_and_throw/input_files/idealpd/polynomial_regressor/optimizer_files/env_355_data.csv
torque0,torque1,torque2,torque3,torque4,torque5,torque6,action0,action1,action2,action3,action4,action5,action6,set_target_0,set_target_1,set_target_2,set_target_3,set_target_4,set_target_5,set_target_6,joint_pos_0,joint_pos_1,joint_pos_2,joint_pos_3,joint_pos_4,joint_pos_5,joint_pos_6,joint_vel_0,joint_vel_1,joint_vel_2,joint_vel_3,joint_vel_4,joint_vel_5,joint_vel_6,tennisball_pos_0,tennisball_pos_1,tennisball_pos_2,tennisball_lin_vel_0,tennisball_lin_vel_1,tennisball_lin_vel_2,end_effector_pos_0,end_effector_pos_1,end_effector_pos_2,end_effector_rot_0,end_effector_rot_1,end_effector_rot_2,end_effector_rot_3,end_effector_lin_vel_0,end_effector_lin_vel_1,end_effector_lin_vel_2,obs_task_0,obs_task_1,obs_task_2,obs_task_3,obs_task_4,obs_task_5,obs_task_6,to_final_target_0,to_final_target_1,to_final_target_2,joint_acc_0,joint_acc_1,joint_acc_2,joint_acc_3,joint_acc_4,joint_acc_5,joint_acc_6
0.0,0.0,0.0,0.0,0.0,0.0,0.0,0.0,0.0,0.0,0.0,0.0,0.0,0.0,1.7802359,-1.0646509,-1.8151424,-1.1170107,1.9373155,1.1170107,-0.91629785,1.7802359,-1.0646509,-1.8151424,-1.1170107,1.9373155,1.1170107,-0.91629785,0.0,0.0,0.0,0.0,0.0,0.0,0.0,3.11895,-0.6254921,0.2808429,-3.1398172,0.088818826,5.334937,0.5304184,-0.45449448,0.693097,0.5745483,0.17512383,0.15255436,0.7848268,0.0,0.0,0.0,1.0,0.0,0.0,0.0,0.0,0.0,0.0,-3.76895,0.22549209,0.2691571,0.0,0.0,0.0,0.0,0.0,0.0,0.0
0.0,0.0,0.0,0.0,0.0,0.0,0.0,0.0,0.0,0.0,0.0,0.0,0.0,0.0,1.7802359,-1.0646509,-1.8151424,-1.1170107,1.9373155,1.1170107,-0.91629785,1.7802359,-1.0646509,-1.8151424,-1.1170107,1.9373155,1.1170107,-0.91629785,0.0,0.0,0.0,0.0,0.0,0.0,0.0,3.11895,-0.6254921,0.2808429,-3.1398172,0.088818826,5.334937,0.5304184,-0.45449448,0.693097,0.5745483,0.17512383,0.15255436,0.7848268,0.0,0.0,0.0,1.0,0.0,0.0,0.0,0.0,0.0,0.0,-3.76895,0.22549209,0.2691571,0.0,0.0,0.0,0.0,0.0,0.0,0.0
0.0,0.0,0.0,0.0,0.0,0.0,0.0,0.0,0.0,0.0,0.0,0.0,0.0,0.0,1.7802359,-1.0646509,-1.8151424,-1.1170107,1.9373155,1.1170107,-0.91629785,1.7802359,-1.0646509,-1.8151424,-1.1170107,1.9373155,1.1170107,-0.91629785,0.0,0.0,0.0,0.0,0.0,0.0,0.0,3.11895,-0.6254921,0.2808429,-3.1398172,0.088818826,5.334937,0.5304184,-0.45449448,0.693097,0.5745483,0.17512383,0.15255436,0.7848268,0.0,0.0,0.0,1.0,0.0,0.0,0.0,0.0,0.0,0.0,-3.76895,0.22549209,0.2691571,0.0,0.0,0.0,0.0,0.0,0.0,0.0
-176.0,56.62991,-10.230692,110.0,11.268907,4.4103746,-3.6704469,-0.80517983,0.2796487,-0.52629477,0.7369886,0.35563627,0.66395426,-0.60256445,1.6997179,-1.0366861,-1.8677719,-1.0433118,1.972879,1.1834061,-0.9765543,1.7788893,-1.0624307,-1.8213851,-1.1116892,1.9418168,1.12213,-0.916666,-0.17934993,0.2951778,-0.8319715,0.7099073,0.59936064,0.68072665,-0.04872548,3.087574,-0.6246071,0.3334158,-3.136678,0.08873002,5.2314167,0.5282593,-0.45791626,0.69383276,0.5781739,0.17375304,0.1512655,0.78271544,-0.28658575,-0.45688558,0.09771778,1.0,0.0,0.0,0.0,0.0,0.0,0.0,-3.737574,0.22460708,0.2165842,-17.83981,29.298397,-83.04764,71.110435,59.705196,67.51612,-4.7349014
-176.0,-26.375937,-41.274887,107.6217,12.28681,1.5746953,-3.1023033,-0.7968015,-0.15322559,-0.5336182,0.6949039,0.48148182,0.6575502,-0.57541317,1.6992091,-1.0777533,-1.8747469,-1.0421988,1.989965,1.187885,-0.9742073,1.7769514,-1.0597109,-1.8363254,-1.0970923,1.9505353,1.1345507,-0.915533,-0.1973039,0.26061207,-1.7104235,1.7126026,0.95975965,1.4184577,0.16836552,3.0562305,-0.6237221,0.3849543,-3.133542,0.08864131,5.1280003,0.52347183,-0.46659088,0.69465405,0.5861463,0.1705807,0.1479796,0.77809805,-0.5454917,-1.002484,0.07830995,1.0,0.0,0.0,0.0,0.0,0.0,0.0,-3.7062306,0.22372207,0.16504571,-1.3557136,-4.575223,-86.58667,101.15554,35.19982,70.517494,22.030655
-148.29028,110.39382,31.52576,89.35805,8.394629,7.972171,-1.8564104,-0.77610713,0.30106315,0.07185624,0.6575771,0.5080921,0.6988337,-0.54460025,1.6993407,-1.0296046,-1.8291398,-1.0313345,2.0013444,1.204434,-0.96999305,1.7716929,-1.0563291,-1.8513477,-1.078261,1.9606271,1.1486136,-0.9142322,-0.63568527,0.3604867,-1.4258726,1.9412891,1.0201565,1.3951119,0.11588182,3.0249195,-0.62283707,0.4354594,-3.130409,0.08855268,5.024687,0.5157051,-0.47813797,0.69716966,0.5969376,0.1658214,0.14327233,0.7717783,-0.8623059,-1.198235,0.3134864,1.0,0.0,0.0,0.0,0.0,0.0,0.0,-3.6749196,0.22283706,0.11454061,-43.879215,8.933592,30.552864,23.27068,4.370129,-4.464102,-5.657987
-92.750656,101.22663,38.298283,53.59203,5.248779,7.528658,-0.3093082,-0.7776293,0.09899439,0.1466041,0.6634597,0.5173064,0.67521393,-0.57818687,1.6939299,-1.0464296,-1.8366873,-1.0119151,2.0123577,1.216135,-0.9720509,1.7621828,-1.0530103,-1.8608806,-1.0595614,1.9704614,1.1617018,-0.9136409,-1.0570134,0.32009837,-0.78802055,1.8468274,0.96554846,1.2761148,0.038568113,2.993641,-0.62195206,0.48493215,-3.1272793,0.08846415,4.9214773,0.50531006,-0.49048233,0.70161027,0.6087043,0.15975939,0.1371626,0.764946,-1.1093276,-1.2342736,0.4924241,1.0,0.0,0.0,0.0,0.0,0.0,0.0,-3.643641,0.22195205,0.06506786,-42.443157,-4.741544,66.10192,-9.261727,-7.1893573,-13.133359,-8.214597
-33.79457,124.58627,51.478867,27.74906,2.0513067,7.12405,0.4586863,-0.78499573,0.24127291,0.19881786,0.6496404,0.59582233,0.6653763,-0.58737826,1.6836833,-1.0288831,-1.8409988,-0.9945973,2.0300436,1.2282394,-0.97237873,1.7492911,-1.0495924,-1.8637817,-1.042998,1.9797177,1.1734549,-0.9138574,-1.3679515,0.34707376,-0.117229685,1.5920744,0.90797305,1.1397603,-0.044054486,2.962391,-0.62106705,0.53337353,-3.1241527,0.0883757,4.818371,0.49310684,-0.50213623,0.7078093,0.6202127,0.15249492,0.1299178,0.75842124,-1.2705137,-1.12938,0.6645455,1.0,0.0,0.0,0.0,0.0,0.0,0.0,-3.612391,0.22106704,0.016626477,-31.528234,2.153337,69.144775,-25.636864,-7.074392,-14.2066,-8.958473
1.6499631,118.40544,46.95241,11.586987,-0.10604733,5.110382,0.49634323,-0.79836583,0.3142945,0.14120917,0.64486635,0.59472454,0.66463554,-0.6027568,1.6694545,-1.018163,-1.8496608,-0.97851133,2.0391903,1.2399185,-0.9741331,1.734347,-1.0455374,-1.8617237,-1.0289732,1.988482,1.1839701,-0.914833,-1.5375487,0.42363897,0.3179012,1.338423,0.8635482,1.0220816,-0.1175052,2.9311714,-0.62018204,0.5807847,-3.1210291,0.088287346,4.7153673,0.47992325,-0.5124397,0.71530616,0.6310504,0.14437854,0.122249156,0.75232,-1.345972,-0.9828949,0.7774929,1.0,0.0,0.0,0.0,0.0,0.0,0.0,-3.5811715,0.22018203,-0.030784667,-17.305565,7.285303,44.831936,-25.579977,-5.1186204,-11.827779,-7.9614
22.86732,126.652,45.770275,5.1074944,-1.6601536,3.802577,0.18274339,-0.8111132,0.48842922,0.0728657,0.603454,0.6084114,0.661816,-0.59666085,1.6532357,-0.99669445,-1.8544371,-0.9686278,2.049323,1.2501516,-0.9744991,1.718537,-1.039924,-1.8573997,-1.0171171,1.996983,1.1934592,-0.91645235,-1.596473,0.6062403,0.47358918,1.1339546,0.84474254,0.9251452,-0.17864868,2.8999825,-0.619297,0.62716657,-3.1179087,0.08819908,4.612467,0.46643448,-0.5211067,0.7237888,0.6413035,0.1357339,0.11508927,0.7463649,-1.361347,-0.813855,0.8699053,1.0,0.0,0.0,0.0,0.0,0.0,0.0,-3.5499825,0.21929702,-0.07716656,-6.2110186,17.955244,16.429895,-20.63284,-2.1600127,-9.520125,-6.6866546
29.10168,121.4465,40.78599,4.2004504,-2.0776148,2.7077084,-0.11010449,-0.81350124,0.56880105,0.058489095,0.59918123,0.6007228,0.6596293,-0.58517665,1.6371869,-0.9830439,-1.8515508,-0.95719904,2.0570552,1.2594221,-0.97497,1.7026678,-1.0322717,-1.8529003,-1.0066572,2.0053868,1.202109,-0.91858953,-1.5845208,0.81751364,0.4438731,1.0162045,0.8385203,0.8455657,-0.22695056,2.868824,-0.61841583,0.67252016,-3.1147914,0.0881109,4.5096693,0.45300674,-0.5281944,0.7330418,0.65121955,0.12679067,0.109018564,0.7402379,-1.3449442,-0.6604242,0.94138557,1.0,0.0,0.0,0.0,0.0,0.0,0.0,-3.518824,0.21841583,-0.12252015,0.93023777,20.896221,-2.39501,-11.907864,-0.71644783,-7.7596784,-5.2921653
28.054768,110.78051,35.418976,4.8733597,-1.8967731,1.9958386,-0.23168024,-0.8155746,0.6279081,0.057019517,0.57580703,0.6151448,0.6590018,-0.56951714,1.6211103,-0.96948093,-1.8471984,-0.94907653,2.0669012,1.2680092,-0.97554123,1.6871382,-1.0226358,-1.8493068,-0.9969145,2.0138288,1.2100664,-0.9211263,-1.5431015,1.0117458,0.33246392,0.9597401,0.8462008,0.7796484,-0.26383296,2.837696,-0.61753845,0.7168466,-3.1116774,0.08802281,4.4069743,0.43980026,-0.5339432,0.7428701,0.6609807,0.11771223,0.1041641,0.7337562,-1.3180145,-0.5322382,0.9941478,1.0,0.0,0.0,0.0,0.0,0.0,0.0,-3.4876962,0.21753845,-0.16684657,3.9226294,19.248508,-10.712314,-5.779922,0.7457614,-6.45746,-4.064801
24.368542,97.376045,30.541756,5.753747,-1.4268942,1.5833125,-0.21058376,-0.81011224,0.66400117,0.06906795,0.5589593,0.62367797,0.66547626,-0.56397927,1.606127,-0.9562357,-1.8424001,-0.9410186,2.0761967,1.2766141,-0.9775242,1.6720663,-1.0114206,-1.8468196,-0.9874512,2.0223966,1.2174555,-0.9239711,-1.4958135,1.1575747,0.22183564,0.94134194,0.86027867,0.7253829,-0.29244742,2.8066063,-0.6166611,0.76014686,-3.1085663,0.087934814,4.304382,0.42684937,-0.53860855,0.7531032,0.670647,0.10857986,0.100327365,0.7268957,-1.2926326,-0.4295911,1.0306408,1.0,0.0,0.0,0.0,0.0,0.0,0.0,-3.4566064,0.21666107,-0.21014684,4.5482397,14.449263,-10.697174,-1.9999146,1.4071703,-5.3665996,-3.1916976
17.333462,83.37941,25.459843,7.640172,-0.8288072,1.2947943,-0.20491,-0.805095,0.6922172,0.044913065,0.56574017,0.6245394,0.6673038,-0.5602574,1.5915568,-0.9421989,-1.8423283,-0.9308772,2.0848505,1.2841859,-0.97999686,1.6574045,-0.99913347,-1.8453166,-0.9779526,2.031098,1.2243735,-0.9270553,-1.4569514,1.2519068,0.12734784,0.95208234,0.87378275,0.6803644,-0.3147179,2.775547,-0.6157837,0.8024219,-3.1054585,0.0878469,4.2018924,0.4140663,-0.54245377,0.7635808,0.68025804,0.09944118,0.09723305,0.71965694,-1.2765161,-0.35447845,1.0511836,1.0,0.0,0.0,0.0,0.0,0.0,0.0,-3.4255471,0.21578369,-0.25242192,3.7380695,9.3298435,-9.132269,0.89434385,1.3615012,-4.5047045,-2.5200248
12.218191,69.85861,20.544638,7.639901,-0.4712792,0.975823,-0.15156478,-0.80102444,0.7100478,0.00297434,0.5461978,0.63386464,0.672669,-0.5587823,1.5773021,-0.9281287,-1.8450192,-0.9233328,2.0944843,1.2916404,-0.9829335,1.6430308,-0.98623407,-1.8446681,-0.9683672,2.0399365,1.2309042,-0.93032736,-1.431447,1.3023945,0.045071565,0.960017,0.8876739,0.6439169,-0.33231476,2.7445183,-0.6149063,0.8436729,-3.1023536,0.08775906,4.099505,0.40141296,-0.5457039,0.7741039,0.689804,0.090385504,0.09465721,0.71206796,-1.2652651,-0.29875195,1.0508332,1.0,0.0,0.0,0.0,0.0,0.0,0.0,-3.3945184,0.2149063,-0.29367286,2.414465,4.9746037,-7.942155,0.57696104,1.4160752,-3.6399364,-2.0323813
10.353885,62.934097,18.536936,7.1106286,-0.2660583,0.8871515,-0.04258653,-0.7989014,0.7225476,0.003071336,0.5226445,0.6476865,0.67059094,-0.5656831,1.5631406,-0.9139793,-1.8443611,-0.91610277,2.104705,1.2979633,-0.9868957,1.6288134,-0.9730514,-1.8445804,-0.95882285,2.0489316,1.2371203,-0.9337558,-1.4190209,1.3233187,-0.00239455,0.9517576,0.90329903,0.6139975,-0.3472745,2.71352,-0.61402893,0.8839007,-3.099252,0.08767132,3.9972205,0.3888359,-0.548439,0.78455216,0.6992125,0.08144998,0.092395216,0.7042235,-1.2570983,-0.24991076,1.0408978,1.0,0.0,0.0,0.0,0.0,0.0,0.0,-3.3635201,0.21402892,-0.3339007,1.1015892,2.0327806,-4.4320116,-1.0660172,1.5823603,-2.9734373,-1.7719209
8.620161,56.7513,16.274231,6.7416277,-0.18419695,0.721308,-0.008208737,-0.794415,0.7265609,-0.03321082,0.514171,0.63927394,0.67713034,-0.5598941,1.5493718,-0.90039533,-1.8479015,-0.90740573,2.112859,1.3048333,-0.9897452,1.6146666,-0.9598011,-1.8449142,-0.9494244,2.0580258,1.2430826,-0.9373092,-1.4138467,1.3254759,-0.0427241,0.9350156,0.91179353,0.5904448,-0.35893476,2.6825523,-0.61315155,0.92310643,-3.0961533,0.08758366,3.8950384,0.37633896,-0.5507431,0.7948213,0.70844185,0.07267107,0.09036203,0.69617784,-1.2489641,-0.20806983,1.0205554,1.0,0.0,0.0,0.0,0.0,0.0,0.0,-3.3325524,0.21315154,-0.37310642,0.3789425,0.17168522,-3.728563,-1.9291282,0.87651014,-2.308011,-1.4328539
8.903793,56.85384,16.388378,6.6547446,-0.1770621,0.73959804,0.03909615,-0.793037,0.73914737,-0.043390926,0.4966255,0.6514838,0.6838637,-0.5578048,1.5353628,-0.8858863,-1.8492533,-0.89976186,2.1231742,1.311469,-0.9930897,1.600535,-0.94654405,-1.8455493,-0.9402653,2.0672116,1.2488467,-0.9409618,-1.413375,1.3255923,-0.0694989,0.9087139,0.9207168,0.571983,-0.36825034,2.6516151,-0.61227417,0.96129113,-3.0930579,0.087496094,3.7929583,0.3639183,-0.55261993,0.80489284,0.71745545,0.06403755,0.0885092,0.68798476,-1.240417,-0.1647549,1.0009036,1.0,0.0,0.0,0.0,0.0,0.0,0.0,-3.3016152,0.21227416,-0.41129112,-0.10023117,-0.031661987,-2.344536,-2.8879762,0.91125965,-1.7983556,-1.2033641
12.885682,59.391415,17.82587,4.7455482,-0.37344122,0.79704595,0.18315765,-0.79640996,0.7452808,-0.015834952,0.4370576,0.66557187,0.679623,-0.5587501,1.520894,-0.87201595,-1.8471328,-0.89655954,2.1337688,1.3168089,-0.9968368,1.586373,-0.9332756,-1.8462112,-0.9316107,2.0765042,1.2544523,-0.94469637,-1.4177178,1.3271824,-0.06359663,0.8501807,0.9322624,0.5569993,-0.376117,2.6207085,-0.6113968,0.9984558,-3.0899653,0.08740862,3.6909802,0.3516388,-0.55397034,0.81477827,0.72614175,0.055523787,0.086783715,0.6797822,-1.2250328,-0.110386975,0.9827881,1.0,0.0,0.0,0.0,0.0,0.0,0.0,-3.2707086,0.21139678,-0.4484558,-0.60532093,0.11687279,0.99279284,-6.1220407,1.149559,-1.415956,-1.078099
14.994913,61.150795,18.480728,3.978055,-0.5069828,0.78840166,0.243329,-0.798099,0.75334877,-0.016107738,0.40122017,0.6674007,0.6828825,-0.5410165,1.5065631,-0.8579407,-1.847822,-0.8914887,2.1432443,1.3227406,-0.998798,1.5721556,-0.91995466,-1.8467357,-0.92364657,2.0858998,1.2599322,-0.94848627,-1.4237192,1.33364,-0.047202166,0.77764803,0.9420122,0.54537785,-0.38084328,2.5898323,-0.6105232,1.0346014,-3.0868762,0.08732123,3.5891042,0.33953857,-0.5547371,0.8244924,0.7344275,0.047110442,0.08517629,0.67167085,-1.2043017,-0.050930884,0.9657891,1.0,0.0,0.0,0.0,0.0,0.0,0.0,-3.2398324,0.21052322,-0.48460144,-0.77807903,0.6095171,2.053394,-7.5201154,0.97358227,-1.0542512,-0.7635474
21.278538,62.306366,19.396822,0.65297794,-0.8735645,0.6712825,0.39754716,-0.79351646,0.7558733,0.014944783,0.3175575,0.67345685,0.67765224,-0.5376429,1.4928039,-0.8443673,-1.8452412,-0.8918908,2.1532454,1.3276974,-1.0022506,1.5579058,-0.90655935,-1.8469417,-0.9166676,2.0953908,1.2653128,-0.9523124,-1.4258463,1.3414347,-0.010318533,0.670408,0.95122963,0.5362986,-0.3841618,2.5589867,-0.6096535,1.0697291,-3.0837898,0.08723393,3.4873302,0.3277626,-0.55483246,0.8340092,0.7421953,0.038815062,0.083687685,0.66380405,-1.1684983,0.018948032,0.94486356,1.0,0.0,0.0,0.0,0.0,0.0,0.0,-3.2089868,0.20965347,-0.5197291,-0.39651394,0.75929165,4.1169076,-10.99869,0.92396736,-0.715518,-0.62708855
23.598782,63.218796,19.519453,-0.1556263,-1.0393958,0.5455985,0.41540352,-0.7882068,0.77035815,0.010320992,0.27106667,0.6774518,0.68282235,-0.5263737,1.4790851,-0.82952356,-1.8459096,-0.88956094,2.163136,1.333595,-1.0049498,1.543677,-0.8930315,-1.8468387,-0.91079676,2.1049657,1.270621,-0.9561567,-1.4225849,1.3565998,0.01838109,0.55840623,0.9594666,0.5298696,-0.38543758,2.5281715,-0.6087837,1.1038398,-3.0807068,0.087146714,3.3856578,0.3163948,-0.5542145,0.8433139,0.74940556,0.030655082,0.08236131,0.6562531,-1.1245548,0.09001401,0.92323166,1.0,0.0,0.0,0.0,0.0,0.0,0.0,-3.1781716,0.20878372,-0.55383974,0.1556158,1.5116692,3.249899,-11.462439,0.8566141,-0.41384697,-0.4032135
26.935955,63.182808,19.685137,-1.8291316,-1.2247295,0.40026292,0.48772585,-0.7832703,0.7758816,0.040104475,0.19255179,0.6849374,0.6813028,-0.5229318,1.4653499,-0.81544334,-1.8428283,-0.8915416,2.1734595,1.3387512,-1.0084498,1.529513,-0.87934434,-1.8463943,-0.9061543,2.1146245,1.2758776,-0.96000665,-1.4149497,1.3728123,0.054105267,0.43194145,0.96831614,0.5252258,-0.38574043,2.497387,-0.607914,1.1369345,-3.0776267,0.08705958,3.284087,0.30552673,-0.5528488,0.8523848,0.7560203,0.022652682,0.08121389,0.6490951,-1.0707749,0.16311893,0.89892125,1.0,0.0,0.0,0.0,0.0,0.0,0.0,-3.147387,0.20791396,-0.5869345,0.60822964,1.6363621,3.9082274,-12.896353,0.94673634,-0.1809001,-0.28796196
29.37241,60.283043,18.765882,-4.1163125,-1.4276719,0.15136157,0.56713486,-0.7848991,0.7776334,0.063806795,0.08788596,0.68789697,0.6760697,-0.51681,1.4510231,-0.801581,-1.8400136,-0.8973657,2.1834142,1.3434845,-1.0116876,1.5154139,-0.86552083,-1.8455684,-0.9029757,2.1243672,1.2810961,-0.96385187,-1.4088888,1.3857311,0.09323788,0.27895418,0.97628534,0.52181345,-0.38491586,2.4666328,-0.6070442,1.1690143,-3.0745497,0.086972535,3.1826177,0.2952919,-0.55077744,0.86114424,0.76198643,0.014886383,0.080258586,0.6424279,-1.0060579,0.23462369,0.86526215,1.0,0.0,0.0,0.0,0.0,0.0,0.0,-3.116633,0.20704421,-0.6190143,0.46842098,1.33214,4.190144,-15.538401,0.8874178,0.015735626,-0.14231205
35.319748,58.82094,18.863087,-8.3512125,-1.823982,-0.099312216,0.7496171,-0.78223443,0.7812488,0.12083146,-0.058741793,0.6924986,0.6690783,-0.5052397,1.4371904,-0.78739595,-1.8334852,-0.90884984,2.193617,1.348004,-1.0143758,1.501372,-0.85159147,-1.8441741,-0.9016911,2.1341863,1.286286,-0.96767896,-1.4031863,1.3956113,0.15551637,0.07755284,0.9840464,0.51948303,-0.38259944,2.4359093,-0.60617447,1.2000802,-3.0714757,0.08688558,3.08125,0.2858162,-0.5479393,0.86949295,0.76718265,0.007457718,0.07949845,0.63643944,-0.92302215,0.31115958,0.82134175,1.0,0.0,0.0,0.0,0.0,0.0,0.0,-3.0859094,0.20617446,-0.65008014,0.45702457,1.0559559,6.4503865,-20.356861,0.89689493,0.22915602,0.04016161
36.963207,58.1546,18.901752,-9.334894,-1.9053036,-0.22874258,0.81684923,-0.77995133,0.7858339,0.1700747,-0.15983212,0.6904876,0.6659379,-0.47814888,1.4233768,-0.7730081,-1.8271667,-0.9176743,2.2032351,1.3528798,-1.0154939,1.4873797,-0.83757627,-1.8420322,-0.9025084,2.1440625,1.2914549,-0.97146124,-1.3979399,1.4038132,0.23419888,-0.13533284,0.9892089,0.5177497,-0.37728974,2.4052162,-0.6053047,1.2301332,-3.068405,0.08679871,2.9799836,0.27721786,-0.5443382,0.87739146,0.7715488,0.00040951508,0.07891773,0.63125604,-0.8336531,0.3860264,0.775568,1.0,0.0,0.0,0.0,0.0,0.0,0.0,-3.0552163,0.20530471,-0.68013316,0.44977665,0.91109276,7.9891086,-21.460136,0.6930351,0.32544136,0.38471818
35.116688,59.737663,19.697252,-6.5786633,-1.6030045,-0.14536068,0.7779465,-0.7680556,0.7873615,0.2362749,-0.20541939,0.68990034,0.6594192,-0.4470824,1.4105741,-0.75884014,-1.8184047,-0.92305034,2.2130525,1.3573968,-1.0161694,1.4734846,-0.82349813,-1.838948,-0.9051682,2.153973,1.2966028,-0.97516817,-1.386822,1.409449,0.3330243,-0.3099007,0.99285525,0.51548934,-0.368886,2.3745537,-0.60443497,1.2591741,-3.0653372,0.086711936,2.8788183,0.26945496,-0.5399971,0.88492435,0.77511984,-0.006350329,0.07843693,0.62689424,-0.7523095,0.45555753,0.7415456,1.0,0.0,0.0,0.0,0.0,0.0,0.0,-3.0245538,0.20443496,-0.7091741,1.0804892,0.67288876,9.870207,-17.577406,0.62760115,0.24391413,0.7291496
30.425104,61.6273,20.365257,-2.1685457,-1.1442329,0.044751436,0.6847487,-0.7680554,0.7905348,0.30836922,-0.24707654,0.6911168,0.65867645,-0.4190773,1.396679,-0.74444467,-1.8081111,-0.92987585,2.2230847,1.3624705,-1.0170759,1.4596888,-0.80937135,-1.8347404,-0.90921557,2.163918,1.3017298,-0.97877496,-1.3772202,1.4141947,0.44965392,-0.43656796,0.99617946,0.51292527,-0.35814533,2.3439217,-0.6035652,1.2872041,-3.0622723,0.08662524,2.777754,0.2623825,-0.53502274,0.8922302,0.7779861,-0.012975128,0.07794796,0.6232924,-0.68691146,0.51900506,0.72224534,1.0,0.0,0.0,0.0,0.0,0.0,0.0,-2.9939218,0.20356521,-0.73720413,0.95055103,0.5968571,11.542958,-12.7512455,0.67551136,0.1603961,0.9895086
26.04456,63.98503,21.170088,2.5364661,-0.6911312,0.24336478,0.57361156,-0.75472903,0.7951985,0.37429097,-0.25559354,0.6918402,0.649663,-0.36174613,1.3842158,-0.7298515,-1.7973113,-0.93477494,2.233102,1.3666961,-1.0149496,1.4460264,-0.7951902,-1.8293083,-0.91408503,2.1738935,1.3068224,-0.9822387,-1.3625109,1.4197816,0.57355815,-0.5038427,0.99955755,0.5092399,-0.34270573,2.3133202,-0.6027031,1.3142245,-3.0592108,0.08653863,2.676791,0.25582504,-0.5294342,0.89946955,0.7802506,-0.019637467,0.077362806,0.6203533,-0.637801,0.5773431,0.719298,1.0,0.0,0.0,0.0,0.0,0.0,0.0,-2.9633203,0.20270309,-0.76422447,1.4793158,0.6937027,12.176741,-6.789887,0.7543087,-0.003516674,1.4703035
17.603619,62.914917,20.305904,8.509906,-0.06836456,0.42366835,0.37892634,-0.7595312,0.79421514,0.42446858,-0.23284614,0.6931187,0.6514262,-0.3257277,1.3700733,-0.7157687,-1.7868614,-0.93736964,2.2432053,1.371965,-1.0148115,1.4324614,-0.78097093,-1.8227012,-0.9191567,2.1838994,1.3118769,-0.9855327,-1.3544161,1.4231104,0.6891211,-0.5084272,1.0027901,0.5052308,-0.32511005,2.2827492,-0.601841,1.3402358,-3.056152,0.086452104,2.575929,0.24958801,-0.5233574,0.9067744,0.78207296,-0.026488652,0.07661674,0.61789155,-0.6126364,0.6238313,0.72870743,1.0,0.0,0.0,0.0,0.0,0.0,0.0,-2.9327493,0.20184097,-0.7902358,0.80354214,0.47352314,11.305607,-0.53060055,0.7711649,-0.11509657,1.6888201
12.069112,61.014008,19.20558,12.407004,0.3024603,0.47033808,0.22675325,-0.7506693,0.79567033,0.45840156,-0.20116274,0.68604183,0.6451242,-0.26310864,1.3573945,-0.7014039,-1.7768611,-0.93927294,2.2525036,1.3763893,-1.0118436,1.418984,-0.76672494,-1.8151004,-0.9239098,2.193913,1.3168875,-0.98861784,-1.3455333,1.4254879,0.78289145,-0.46456963,1.0023665,0.5005389,-0.3033247,2.2522087,-0.60097885,1.3652394,-3.0530965,0.08636567,2.4751678,0.2434845,-0.51688004,0.9142246,0.7835927,-0.033622768,0.07570249,0.615728,-0.6020578,0.6611066,0.74453884,1.0,0.0,0.0,0.0,0.0,0.0,0.0,-2.9022088,0.20097885,-0.81523937,0.87451935,0.3823042,9.11318,4.300207,0.40922165,-0.23607016,2.1055222
2.5325928,56.53733,16.774714,17.950092,0.88908064,0.5487867,-0.009017594,-0.7625713,0.7928802,0.47285825,-0.124102674,0.68125856,0.65411335,-0.21962392,1.342727,-0.68743694,-1.7678146,-0.93632007,2.262039,1.3822988,-1.0105802,1.4055125,-0.75247896,-1.8067997,-0.9278122,2.2038999,1.321858,-0.99147123,-1.3479066,1.4247774,0.84485,-0.3658777,0.99899226,0.4963707,-0.27966416,2.2216988,-0.6001167,1.3892361,-3.050044,0.086279325,2.3745074,0.23731232,-0.5101509,0.9218749,0.7849957,-0.041113324,0.07463703,0.61361295,-0.6151739,0.6829608,0.76567245,1.0,0.0,0.0,0.0,0.0,0.0,0.0,-2.8716989,0.20011672,-0.8392361,-0.29234886,0.0723362,5.960393,9.743315,0.09628534,-0.2737522,2.286166
-4.720771,51.63752,14.228849,21.546429,1.270989,0.53405416,-0.20746619,-0.7762591,0.793104,0.4705178,-0.055853896,0.6829635,0.6566574,-0.22405726,1.3278866,-0.67316854,-1.7597479,-0.9333976,2.2721963,1.3875238,-1.0138769,1.3919283,-0.7382463,-1.7981498,-0.930493,2.2138562,1.3267905,-0.99411386,-1.362306,1.4232138,0.87100816,-0.23601264,0.9957503,0.4923576,-0.25936684,2.1912193,-0.5992546,1.4122269,-3.0469944,0.08619307,2.2739477,0.23088074,-0.5032921,0.92973506,0.7864602,-0.048977543,0.07345875,0.61129797,-0.64433855,0.6922843,0.7864585,1.0,0.0,0.0,0.0,0.0,0.0,0.0,-2.8412194,0.1992546,-0.8622269,-1.5348673,-0.018978119,2.4249911,12.827576,0.075984,-0.3284216,1.950103
-8.247823,47.317383,12.313293,23.059488,1.4427133,0.45687717,-0.32270932,-0.78142524,0.7885061,0.46609184,0.01898278,0.67877275,0.65622145,-0.22516836,1.3137858,-0.6593957,-1.7515407,-0.9285947,2.2817335,1.3924125,-1.0166306,1.3781744,-0.7240509,-1.7894428,-0.93174803,2.2237706,1.3316828,-0.99657816,-1.3802941,1.4186981,0.87018317,-0.08932707,0.9912907,0.48845077,-0.24240223,2.1607704,-0.5983925,1.4342129,-3.0439482,0.08610689,2.1734884,0.22410202,-0.49640274,0.9377827,0.78810096,-0.057199165,0.072210096,0.60861385,-0.68061,0.69380814,0.80433434,1.0,0.0,0.0,0.0,0.0,0.0,0.0,-2.8107705,0.19839248,-0.8842129,-1.9094944,-0.32215118,-0.24504662,14.492312,-0.075006485,-0.3576994,1.616478
-9.49503,43.015812,10.579864,22.68008,1.4413038,0.31718823,-0.37071383,-0.7944314,0.78323376,0.4512008,0.07700464,0.68308324,0.6680753,-0.24627839,1.2987313,-0.6457275,-1.7443227,-0.9240476,2.292079,1.3984903,-1.021206,1.3642069,-0.70992315,-1.7809036,-0.9315859,2.2336583,1.3365484,-0.9989099,-1.4025686,1.4112344,0.8481882,0.050766345,0.9890915,0.48612067,-0.23043524,2.130352,-0.59753036,1.4551951,-3.0409048,0.0860208,2.0731297,0.21696472,-0.4895401,0.94595206,0.7899702,-0.06572176,0.07092591,0.6054727,-0.7170311,0.6905089,0.81468636,1.0,0.0,0.0,0.0,0.0,0.0,0.0,-2.780352,0.19753036,-0.90519506,-2.347517,-0.62892437,-2.3271084,13.823984,0.11861324,-0.21314621,1.1190981
-6.736333,42.697212,10.606922,20.888954,1.1978908,0.19535194,-0.33861724,-0.79285854,0.78555125,0.4376749,0.13563766,0.6792884,0.6623408,-0.25327483,1.284921,-0.63136804,-1.7371361,-0.91802216,2.301587,1.4027826,-1.0242374,1.3500696,-0.69585073,-1.77266,-0.93012106,2.2435231,1.3413912,-1.0011462,-1.4177752,1.4063826,0.81598854,0.17777792,0.986257,0.4838619,-0.22163425,2.0999641,-0.59666824,1.4751743,-3.0378644,0.085934795,1.9728711,0.20952225,-0.4826851,0.95419264,0.79205036,-0.07449528,0.069651484,0.6018765,-0.7447428,0.6911287,0.8206624,1.0,0.0,0.0,0.0,0.0,0.0,0.0,-2.7499642,0.19666824,-0.9251743,-1.6261101,-0.38146973,-3.3230424,12.533792,0.025188923,-0.19661188,0.80097616
3.7632027,41.08596,10.460974,11.416512,0.19917369,-0.3147257,-0.06447514,-0.7996197,0.7870405,0.42532048,0.046142686,0.6802516,0.6625059,-0.27736384,1.2701076,-0.6171467,-1.7301279,-0.9255068,2.3115482,1.4076418,-1.0288826,1.3358046,-0.68180215,-1.7647483,-0.9281765,2.2533612,1.3462225,-1.0033263,-1.4295603,1.4045861,0.78291845,0.19945675,0.9836192,0.4833719,-0.21701594,2.0696068,-0.5958061,1.4941517,-3.0348272,0.08584888,1.8727126,0.20210266,-0.4757576,0.9622916,0.7941691,-0.08326807,0.06852005,0.59805244,-0.7326626,0.7013589,0.79977775,1.0,0.0,0.0,0.0,0.0,0.0,0.0,-2.7196069,0.19580612,-0.9441517,-1.2666941,-0.10039806,-3.3131719,2.0212948,-0.0495553,0.11898279,0.3868252
11.44481,42.23104,11.46359,5.764555,-0.40863076,-0.58163434,0.15556645,-0.7961474,0.78614426,0.43543088,0.026740123,0.6778892,0.6622227,-0.24007596,1.2561898,-0.60318774,-1.7212052,-0.92550254,2.32115,1.4124448,-1.0273339,1.3214861,-0.66776216,-1.7570388,-0.9264475,2.2631688,1.3510557,-1.0054435,-1.4329618,1.4040585,0.76696616,0.16368866,0.9801929,0.4840125,-0.2100362,2.03928,-0.5949516,1.5121284,-3.0317929,0.08576305,1.7726543,0.19499588,-0.46865845,0.9700976,0.7961398,-0.09185868,0.067602895,0.5942671,-0.6952305,0.7197837,0.76781493,1.0,0.0,0.0,0.0,0.0,0.0,0.0,-2.68928,0.19495162,-0.96212834,-0.40111542,0.015997887,-1.5568852,-3.6957562,-0.17758608,0.31574965,0.6195158
15.10608,42.896637,12.042309,3.1458387,-0.6804945,-0.7318144,0.26892886,-0.7979662,0.78577954,0.43982747,0.008920165,0.67941105,0.6561515,-0.22922976,1.2416894,-0.5891842,-1.7130561,-0.92555547,2.33111,1.4166709,-1.0283664,1.3071581,-0.65372217,-1.7493808,-0.925285,2.2729497,1.3558928,-1.0074862,-1.4328359,1.4041266,0.7654633,0.1002119,0.9779456,0.48458675,-0.20274304,2.0089836,-0.59409714,1.5291052,-3.0287619,0.0856773,1.672696,0.18835068,-0.46134567,0.977553,0.79785484,-0.10018835,0.066913836,0.59068805,-0.64555043,0.74131,0.73175204,1.0,0.0,0.0,0.0,0.0,0.0,0.0,-2.6589837,0.19409713,-0.9791052,-0.029277802,0.07469654,-0.10377169,-6.4449787,-0.07798672,0.3466189,0.6550282
18.427715,43.18894,12.423216,0.47109318,-0.95103705,-0.8993201,0.38658404,-0.79845786,0.7861815,0.45040143,-0.05123836,0.6776581,0.6554615,-0.19226679,1.2273123,-0.575104,-1.7043407,-0.93040884,2.3407154,1.4214389,-1.0267129,1.2928454,-0.6396774,-1.7416351,-0.92498076,2.2827077,1.3607374,-1.0094355,-1.4309202,1.4047582,0.7776261,0.0069344486,0.97572017,0.48544595,-0.19257446,1.9787178,-0.59324265,1.5450832,-3.0257337,0.085591644,1.5728376,0.18229675,-0.45380783,0.98460984,0.7992312,-0.10818806,0.06646225,0.5874586,-0.5835178,0.76486766,0.69064504,1.0,0.0,0.0,0.0,0.0,0.0,0.0,-2.628718,0.19324264,-0.99508315,0.1723051,0.13229847,1.260674,-9.399858,-0.08918047,0.41243434,0.9526104
17.530262,42.928745,12.460581,1.5091629,-0.8201991,-0.9005674,0.3997,-0.7977955,0.7843477,0.46067148,-0.0630414,0.6773076,0.6544273,-0.09736659,1.2130659,-0.56124264,-1.695568,-0.9312849,2.3504384,1.4261801,-1.0191722,1.2785574,-0.62563455,-1.7337081,-0.9255158,2.2924504,1.3655878,-1.0112208,-1.4281458,1.4043373,0.7976262,-0.073789775,0.9743485,0.4859754,-0.17392774,1.9484825,-0.59238815,1.5600632,-3.0227084,0.085506074,1.4730791,0.17683029,-0.44603348,0.9912878,0.80024445,-0.115870036,0.06622209,0.58463454,-0.5252809,0.78627914,0.6538242,1.0,0.0,0.0,0.0,0.0,0.0,0.0,-2.5984826,0.19238815,-1.0100632,0.26903152,0.03654957,2.0060062,-8.1346855,0.020694733,0.3611505,1.8089205
11.563787,42.704792,12.360304,7.5124855,-0.2198267,-0.63735324,0.27209446,-0.7963403,0.78198165,0.4665125,0.0009353697,0.66420573,0.6622163,0.07081065,1.1989233,-0.54743636,-1.6870569,-0.92542225,2.358871,1.4318094,-1.0041398,1.2642981,-0.6116079,-1.7255809,-0.92633307,2.3021474,1.3704458,-1.0127047,-1.4252115,1.4024401,0.81762254,-0.084704906,0.9691003,0.48632857,-0.13989143,1.9182777,-0.59153366,1.5740465,-3.0196865,0.085420586,1.3734202,0.17175674,-0.43807602,0.9977278,0.8009594,-0.12341358,0.06612738,0.5821171,-0.49163923,0.8040293,0.6344048,1.0,0.0,0.0,0.0,0.0,0.0,0.0,-2.5682778,0.19153365,-1.0240464,0.26328564,-0.09407997,1.9473672,-1.1759013,-0.29466152,0.2577901,3.3415675
8.482137,38.380695,10.777675,9.089273,0.034507632,-0.68141013,0.22647278,-0.7988161,0.77039254,0.46145725,-0.016971102,0.65681887,0.66773933,0.1884042,1.1844165,-0.53456867,-1.6794353,-0.9280302,2.3678293,1.4372197,-0.9938643,1.2500502,-0.59765375,-1.717324,-0.9271246,2.3117757,1.3753077,-1.0137767,-1.4248126,1.3934093,0.8280317,-0.07768714,0.96141326,0.48694402,-0.09644683,1.8881035,-0.59067917,1.587034,-3.0166674,0.08533518,1.273861,0.16695786,-0.42999268,1.0039765,0.80142707,-0.13088046,0.06614952,0.5798355,-0.4665168,0.81370634,0.6152147,1.0,0.0,0.0,0.0,0.0,0.0,0.0,-2.5381036,0.19067916,-1.037034,-0.002360344,-0.803113,0.9801626,0.592418,-0.5298734,0.2628386,4.28091
5.6051254,37.32533,10.298533,11.636703,0.27565742,-0.61332184,0.14626017,-0.8008665,0.77150947,0.46027714,0.010118851,0.6522892,0.66225606,0.25922638,1.1699636,-0.5205028,-1.6712964,-0.9261127,2.3770046,1.4415333,-0.987854,1.235787,-0.58378065,-1.7090213,-0.9276463,2.3213239,1.3801695,-1.0143927,-1.4269243,1.3856858,0.8306508,-0.044006396,0.9534033,0.486532,-0.0501853,1.8579597,-0.5898247,1.5990266,-3.0136511,0.08524986,1.1744015,0.16233444,-0.4218254,1.01008,0.8017053,-0.13832678,0.06628209,0.5777031,-0.45170724,0.82106435,0.6022854,1.0,0.0,0.0,0.0,0.0,0.0,0.0,-2.5079598,0.18982467,-1.0490265,-0.27627945,-0.66816807,0.19680262,3.24383,-0.5416274,0.12270212,4.561375
1.0865273,36.394184,9.940455,16.46387,0.74320495,-0.41820753,-0.0044544563,-0.7945204,0.76726013,0.4490093,0.10531108,0.6482781,0.65926754,0.33050022,1.156335,-0.5070546,-1.6641204,-0.91711515,2.3861518,1.4460963,-0.98134273,1.2215296,-0.5699848,-1.7007816,-0.9273926,2.3307958,1.3850218,-1.0145358,-1.4257355,1.3779271,0.8214394,0.0480082,0.9461454,0.4850874,-0.0026842677,1.8278465,-0.5889702,1.6100254,-3.0106382,0.08516464,1.0750413,0.1577034,-0.41360474,1.0161535,0.80188495,-0.14590256,0.06647938,0.57556343,-0.45672777,0.82636535,0.6026393,1.0,0.0,0.0,0.0,0.0,0.0,0.0,-2.4778466,0.18897018,-1.0600255,0.02732277,-0.6632805,-1.0112762,9.051315,-0.42341948,-0.0485003,4.6756887
-1.5808306,33.271908,8.747414,18.323925,0.9693455,-0.4101934,-0.10223095,-0.79638034,0.7582743,0.426575,0.15424031,0.6462685,0.65893114,0.35228032,1.1418916,-0.49415737,-1.6581241,-0.9119686,2.3954227,1.4509149,-0.9793078,1.2072779,-0.55628717,-1.6927516,-0.9260613,2.3402066,1.3898569,-1.0142363,-1.4253299,1.3673784,0.7966273,0.16098039,0.9403839,0.48329267,0.04058822,1.7977638,-0.5881157,1.6200312,-3.0076282,0.08507948,0.9757805,0.15296936,-0.40536118,1.0222467,0.80204815,-0.15367721,0.066714935,0.573281,-0.47075734,0.82716787,0.6051541,1.0,0.0,0.0,0.0,0.0,0.0,0.0,-2.447764,0.18811569,-1.0700312,-0.06632805,-0.94332695,-2.5694609,11.129779,-0.26845932,-0.11446476,4.2507534
-2.0365744,31.94865,8.253336,18.72917,0.9709697,-0.44373667,-0.1516924,-0.7898555,0.75409377,0.40386397,0.21018046,0.62875766,0.6508103,0.36238837,1.1282923,-0.4808778,-1.6523652,-0.90504324,2.4030824,1.4549379,-0.9779975,1.1930605,-0.54269445,-1.6850593,-0.9235407,2.349526,1.3946692,-1.0135459,-1.4209917,1.3568616,0.7598518,0.2818187,0.9296843,0.48065543,0.078253746,1.7677116,-0.5872688,1.6290452,-3.004621,0.08499442,0.87661886,0.1480751,-0.39711,1.0283679,0.8022394,-0.1616701,0.06700754,0.57077545,-0.48575366,0.82769847,0.6080002,1.0,0.0,0.0,0.0,0.0,0.0,0.0,-2.4177117,0.18726882,-1.0790453,0.33266544,-0.9459734,-3.7635565,11.92089,-0.7697463,-0.21433234,3.689573
-0.16315556,28.85482,6.9782248,15.398041,0.6630915,-0.71344143,-0.11471144,-0.7904438,0.7469133,0.36631072,0.20820081,0.6174716,0.6545623,0.36133483,1.1140162,-0.46800312,-1.6484282,-0.90272063,2.411273,1.4601254,-0.9774124,1.1788813,-0.5292152,-1.6778533,-0.9201046,2.3587117,1.3994623,-1.0125254,-1.4170511,1.3451725,0.7072418,0.36380357,0.9157155,0.47904682,0.10972562,1.73769,-0.58642197,1.6370684,-3.0016172,0.08490945,0.7775564,0.14313126,-0.38889313,1.0344247,0.8024663,-0.16975921,0.06743772,0.5680508,-0.48737395,0.82399225,0.5985532,1.0,0.0,0.0,0.0,0.0,0.0,0.0,-2.38769,0.18642196,-1.0870683,0.3101349,-1.0753632,-5.3183675,8.046227,-1.1437058,-0.06933212,3.079328
2.7324328,25.526897,5.4760523,10.364937,0.21429014,-1.1003414,-0.04293514,-0.7950635,0.74196076,0.31944558,0.17519379,0.6142132,0.6543474,0.33745217,1.0993749,-0.45501915,-1.6459088,-0.90258527,2.420133,1.464897,-0.9787802,1.1647116,-0.5158495,-1.6713035,-0.9163147,2.367764,1.4042441,-1.0112494,-1.4170309,1.3339404,0.6375591,0.38365012,0.9023757,0.47846544,0.1335025,1.7076988,-0.5855751,1.6441016,-2.9986162,0.084824555,0.678593,0.13832855,-0.38076782,1.0402573,0.8027213,-0.17771176,0.068113655,0.5651704,-0.46865633,0.81347203,0.5720357,1.0,0.0,0.0,0.0,0.0,0.0,0.0,-2.357699,0.1855751,-1.0941017,-0.06482601,-1.0414362,-6.9862366,1.8442273,-1.1448264,0.106573105,2.3256392
7.4862814,26.07254,5.9404902,5.3713346,-0.24843478,-1.3664179,0.13958065,-0.7927167,0.7326673,0.32753497,0.12951022,0.60685474,0.6508837,0.36516273,1.0854399,-0.44258273,-1.63855,-0.9033637,2.4284494,1.4693325,-0.9747332,1.1505457,-0.50261056,-1.665282,-0.9127785,2.3766828,1.409022,-1.0097502,-1.416497,1.320758,0.5903713,0.34326544,0.8891759,0.47847012,0.15544711,1.6777382,-0.58472824,1.650146,-2.995618,0.084739745,0.5797285,0.13386917,-0.37273026,1.0457388,0.8029128,-0.18533832,0.069081314,0.56232417,-0.42863452,0.8034604,0.53425235,1.0,0.0,0.0,0.0,0.0,0.0,0.0,-2.3277383,0.18472824,-1.100146,0.024724007,-1.2476206,-4.696095,-4.142374,-1.1972427,0.23123622,2.1441607
10.537242,27.779648,6.785489,2.8142405,-0.5206095,-1.4944861,0.2606563,-0.787841,0.7279186,0.32369834,0.10058796,0.5947053,0.6537784,0.40458643,1.0717616,-0.4298187,-1.6329122,-0.9027197,2.4361532,1.4743998,-0.9692916,1.1364065,-0.4894961,-1.659579,-0.90987265,2.3854604,1.4138056,-1.0080279,-1.4129173,1.3085427,0.563845,0.27276242,0.87452257,0.4791904,0.17774996,1.6478081,-0.5838814,1.6552025,-2.992623,0.084655024,0.4809629,0.1299057,-0.36478424,1.0508147,0.80294955,-0.1925514,0.07034783,0.5596847,-0.37637153,0.79577076,0.4930892,1.0,0.0,0.0,0.0,0.0,0.0,0.0,-2.2978082,0.18388137,-1.1052024,0.3623247,-1.1543989,-2.6210785,-7.12027,-1.3764381,0.32835603,2.181849
11.764151,25.16119,5.9982176,0.49003506,-0.6247796,-1.7095724,0.32658798,-0.7835838,0.7105443,0.30434087,0.04407032,0.5880979,0.6507481,0.4213972,1.0580481,-0.41844168,-1.6291449,-0.9054656,2.4442701,1.4788804,-0.9658882,1.1223246,-0.4765519,-1.6540935,-0.907869,2.3941007,1.418595,-1.006092,-1.4063773,1.2899356,0.5434706,0.17600314,0.8606984,0.4799446,0.19868015,1.6179008,-0.5830345,1.6592721,-2.9896312,0.084570386,0.38229612,0.12652588,-0.3569603,1.0554298,0.8027918,-0.19925605,0.07189824,0.55736256,-0.31622893,0.7811043,0.44557846,1.0,0.0,0.0,0.0,0.0,0.0,0.0,-2.267901,0.18303451,-1.109272,0.70135593,-1.7906666,-2.030301,-9.727394,-1.3206124,0.35881996,2.0555794
13.208914,23.923649,5.667347,-1.848835,-0.7689653,-1.90065,0.4061566,-0.7839004,0.6990736,0.30578926,-0.0403674,0.58250797,0.6439412,0.44445893,1.0439346,-0.40664452,-1.6235145,-0.9119057,2.4523516,1.4829891,-0.9616461,1.1083018,-0.4638151,-1.6487224,-0.9070622,2.402615,1.4233881,-1.0039519,-1.400569,1.2685231,0.53496444,0.04881673,0.84831613,0.48012218,0.21887672,1.5880241,-0.58218765,1.6623557,-2.9866421,0.08448583,0.28372794,0.123817444,-0.349308,1.0595266,0.80240756,-0.20534512,0.0737201,0.5554645,-0.24733306,0.7616632,0.3925928,1.0,0.0,0.0,0.0,0.0,0.0,0.0,-2.2380242,0.18218765,-1.1123557,0.6678343,-2.07026,-0.8620858,-12.742305,-1.204133,0.31793118,1.9954115
14.118956,26.168882,6.6331086,-1.9952111,-0.832478,-1.8989534,0.45357245,-0.7815396,0.69592583,0.32645416,-0.100348264,0.57083017,0.6415179,0.46739274,1.0301478,-0.3942225,-1.616077,-0.917097,2.4596982,1.4875399,-0.9572126,1.0943342,-0.45126235,-1.6432846,-0.9075695,2.4109998,1.4281813,-1.0016154,-1.3950908,1.2511386,0.5467113,-0.08398815,0.83517116,0.4798056,0.23842287,1.558178,-0.5813408,1.6644543,-2.983656,0.08440136,0.18525833,0.12181091,-0.34181595,1.0631144,0.80176336,-0.21080744,0.07579601,0.5540673,-0.17593266,0.74579585,0.34262493,1.0,0.0,0.0,0.0,0.0,0.0,0.0,-2.208178,0.18134078,-1.1144543,0.654006,-1.6636372,1.1361241,-13.275501,-1.2740731,0.24934411,1.9407749
10.673508,22.67461,5.5844107,1.3221302,-0.43267047,-1.8069059,0.3451779,-0.77097994,0.6735885,0.311827,-0.10180065,0.5446522,0.6437968,0.5043603,1.0172362,-0.3839035,-1.6121019,-0.9177496,2.465465,1.492561,-0.9511794,1.0804564,-0.43893278,-1.6377704,-0.9090992,2.4192014,1.4329687,-0.99907863,-1.3851818,1.2271419,0.5528672,-0.17610584,0.81549597,0.47918603,0.25869784,1.5283623,-0.5804939,1.6655691,-2.980673,0.08431698,0.086887166,0.120399475,-0.334507,1.0662616,0.80090386,-0.21573764,0.07808226,0.55309445,-0.120365396,0.7257936,0.30070642,1.0,0.0,0.0,0.0,0.0,0.0,0.0,-2.1783624,0.18049392,-1.1155691,1.0865688,-2.3159027,0.53207874,-9.237006,-1.8853545,0.16932487,2.0088375
7.6134167,20.807693,4.7118483,4.064912,-0.14616597,-1.7456974,0.22560777,-0.77651966,0.6713577,0.2873049,-0.13471411,0.5543476,0.63912076,0.51486695,1.0028044,-0.371797,-1.6090399,-0.92257065,2.474636,1.4968808,-0.94759196,1.0666319,-0.42680538,-1.6323268,-0.91136134,2.4272618,1.4377447,-0.99635303,-1.3811647,1.2082319,0.5414861,-0.24310209,0.8035622,0.47767535,0.27723053,1.4985771,-0.5796547,1.6657008,-2.977693,0.08423267,-0.011385653,0.119464874,-0.32741547,1.069036,0.7999186,-0.22020867,0.080554314,0.5524032,-0.076945215,0.7033398,0.26512474,1.0,0.0,0.0,0.0,0.0,0.0,0.0,-2.1485772,0.17965469,-1.1157007,0.4475355,-1.8033266,-1.2086749,-6.7557187,-1.0879993,0.036251545,1.8351376
5.809952,17.281591,3.2339869,4.4806337,-0.06517625,-1.8276958,0.1526325,-0.77657175,0.65810674,0.2615073,-0.1893052,0.5274233,0.6440729,0.52491957,0.98897475,-0.3609947,-1.6061761,-0.93029183,2.480004,1.502152,-0.94386107,1.0528246,-0.41487062,-1.627135,-0.9142815,2.435162,1.4425093,-0.9934548,-1.3803976,1.1888412,0.5113828,-0.30857557,0.78587234,0.4765719,0.2939306,1.4688225,-0.57881546,1.6648506,-2.974716,0.08414846,-0.10956022,0.11894226,-0.3205948,1.0714445,0.7988884,-0.224207,0.08324364,0.55188674,-0.036536813,0.67448175,0.22830273,1.0,0.0,0.0,0.0,0.0,0.0,0.0,-2.1188226,0.17881545,-1.1148505,0.11410713,-1.8522501,-3.0735612,-6.6178203,-1.6751051,0.05875826,1.6517222
5.850578,12.406434,1.5625167,2.2522287,-0.14895281,-2.0497122,0.17949492,-0.76699346,0.62915397,0.25030875,-0.26923737,0.4798735,0.64614433,0.5457551,0.97612524,-0.35195524,-1.6021042,-0.9412052,2.4831495,1.5071237,-0.9388793,1.0390593,-0.4032129,-1.6222808,-0.918038,2.4427724,1.4472662,-0.9903935,-1.3748164,1.1583797,0.47638386,-0.3981927,0.7527105,0.475927,0.3100469,1.4390984,-0.5779762,1.6630193,-2.9717417,0.08406433,-0.20763662,0.11886978,-0.3141365,1.0734203,0.7978456,-0.22762941,0.08619789,0.55154073,0.009978141,0.6351326,0.18310106,1.0,0.0,0.0,0.0,0.0,0.0,0.0,-2.0890985,0.17797622,-1.1130192,0.66473484,-2.9643536,-3.599888,-9.014618,-3.263247,0.112235546,1.5933871
5.523424,9.2255335,0.4223823,1.0909929,-0.15366906,-2.193133,0.18170446,-0.76194376,0.6107777,0.22668636,-0.33090416,0.4598638,0.64639133,0.545422,0.9628649,-0.34213513,-1.5996122,-0.9511284,2.4887588,1.5119053,-0.93585134,1.0253721,-0.39189517,-1.6178234,-0.9228064,2.4500203,1.4520174,-0.9871901,-1.3662237,1.1231292,0.4352089,-0.5031928,0.7157313,0.47534493,0.3236666,1.4094048,-0.577137,1.6602081,-2.9687707,0.08398028,-0.30561498,0.11928558,-0.30812073,1.0749087,0.7968123,-0.2303821,0.089435495,0.55137604,0.058750786,0.58827215,0.13340653,1.0,0.0,0.0,0.0,0.0,0.0,0.0,-2.0594049,0.17713699,-1.110208,1.0109425,-3.4476995,-4.239893,-10.540592,-3.675592,0.10436773,1.3418496
5.7100124,3.7917218,-1.1002045,-1.4125795,-0.14325374,-2.391467,0.25756985,-0.7504111,0.5653894,0.23107944,-0.4263702,0.41492712,0.6531294,0.5569589,0.95033103,-0.33535624,-1.5947155,-0.9654434,2.491513,1.5173304,-0.93149424,1.0118185,-0.38107097,-1.6136711,-0.92885077,2.456822,1.4567667,-0.9838599,-1.3508765,1.0691133,0.40794915,-0.6382773,0.66848373,0.4754766,0.3360803,1.3797417,-0.57629776,1.6564177,-2.9658027,0.08389632,-0.40349537,0.12021637,-0.3026619,1.0758308,0.79576874,-0.23235254,0.0929179,0.5514805,0.11171457,0.5296739,0.07460599,1.0,0.0,0.0,0.0,0.0,0.0,0.0,-2.0297418,0.17629775,-1.1064177,1.7872572,-5.333543,-2.9129326,-13.518679,-4.7442675,0.16680956,1.2164116
5.1280527,-0.065713614,-1.7105362,-1.4778123,-0.0018781722,-2.3774807,0.31209305,-0.7324215,0.5124642,0.25956467,-0.48580253,0.3276215,0.66357553,0.5731627,0.9385764,-0.32982454,-1.5877146,-0.977431,2.489584,1.5231242,-0.92654365,0.99848616,-0.3709458,-1.6095569,-0.9362589,2.4629674,1.4615256,-0.9804095,-1.3264259,0.99383265,0.41172,-0.7750177,0.59653175,0.4764462,0.34790578,1.3501091,-0.5754585,1.6516494,-2.9628375,0.08381244,-0.5012779,0.12166214,-0.29780197,1.0761532,0.79466516,-0.23353294,0.09658404,0.5519431,0.16070743,0.46753693,0.014501634,1.0,0.0,0.0,0.0,0.0,0.0,0.0,-2.0001092,0.17545852,-1.1016493,2.7564287,-7.4685454,0.12469292,-13.677454,-7.208097,0.2192378,1.1393368
0.9997053,-10.883197,-5.039851,-0.09561014,0.5842094,-2.4176364,0.24327001,-0.7156816,0.43777448,0.23911546,-0.53785664,0.2930418,0.660599,0.56187886,0.926918,-0.32716838,-1.5856453,-0.9900446,2.4922717,1.5275855,-0.92422163,0.9854418,-0.36179578,-1.6054199,-0.94494593,2.4683805,1.4662882,-0.97686565,-1.2959737,0.8888694,0.41341892,-0.9000198,0.5229472,0.47655213,0.35637918,1.3204994,-0.5746193,1.645904,-2.959875,0.08372864,-0.5989628,0.12346649,-0.293705,1.0758606,0.7935287,-0.23392501,0.1002971,0.55274934,0.19168901,0.38834104,-0.04716308,1.0,0.0,0.0,0.0,0.0,0.0,0.0,-1.9704994,0.17461929,-1.0959039,3.3770323,-10.464382,-0.078731775,-12.543142,-7.401538,0.07087588,0.7634878
-4.9953694,-28.075531,-10.840231,0.6536727,1.039412,-2.557105,0.11114114,-0.6882137,0.3212548,0.2106534,-0.5963949,0.07145675,0.6530347,0.5597878,0.91662043,-0.3296703,-1.5843545,-1.0045854,2.475526,1.5315917,-0.9208869,0.9727751,-0.35406053,-1.6013896,-0.9548012,2.472527,1.4710413,-0.97325504,-1.255565,0.73504233,0.3988175,-1.0143216,0.37839043,0.47497004,0.36203188,1.2909203,-0.57378006,1.6391824,-2.9569159,0.083644934,-0.69654995,0.1254654,-0.2905693,1.0748901,0.7924736,-0.23348585,0.10408698,0.553747,0.20616429,0.2846073,-0.11671285,1.0,0.0,0.0,0.0,0.0,0.0,0.0,-1.9409202,0.17378005,-1.0891824,4.425168,-15.40153,-1.692164,-11.518229,-14.569706,-0.18054247,0.39146543
-37.22039,-130.91762,-45.98267,0.31270695,4.811106,-3.8223612,-0.49491844,-0.5957823,-0.17279665,-0.0032279724,-0.6320119,-0.2399824,0.6327452,0.53201395,0.91319686,-0.3713402,-1.6017125,-1.0180024,2.4485288,1.5343158,-0.92005366,0.96088755,-0.34993732,-1.5985038,-0.96563876,2.4744267,1.4757468,-0.9696387,-1.1639946,0.30374148,0.25163338,-1.1078348,0.12490222,0.46782383,0.35949922,1.2613716,-0.5729408,1.6314858,-2.9539597,0.0835613,-0.7940395,0.12680054,-0.28983688,1.0728183,0.7920226,-0.23174784,0.10749585,0.5544706,0.1127912,-4.8402435e-05,-0.23975317,1.0,0.0,0.0,0.0,0.0,0.0,0.0,-1.9113716,0.17294082,-1.0814857,9.8878145,-43.431274,-14.759845,-9.611034,-25.950146,-1.0882854,-0.8356869
-46.000553,-162.7315,-55.94519,1.9459444,6.2238646,-4.045008,-0.5917319,-0.40204698,-0.4342266,-0.10037497,-0.6069615,-0.48635358,0.5903973,0.518153,0.92068285,-0.39336,-1.6085414,-1.0263349,2.4257915,1.5347865,-0.91782343,0.95072615,-0.35098732,-1.597512,-0.9769789,2.4733129,1.4803339,-0.9660691,-0.964414,-0.24260895,0.04839352,-1.143034,-0.19204779,0.45303014,0.35384914,1.2318535,-0.5721092,1.622815,-2.9510064,0.08347776,-0.8914316,0.1269188,-0.29232407,1.0694555,0.7923847,-0.22857924,0.11009511,0.55475855,-0.02262709,-0.3330857,-0.36969337,1.0,0.0,0.0,0.0,0.0,0.0,0.0,-1.8818535,0.17210922,-1.072815,20.702053,-55.05425,-20.271238,-3.6034107,-32.33451,-2.2136211,-1.2348413
-34.90243,-143.95987,-46.33676,0.51547515,5.958786,-3.53562,-0.044713765,-0.2054773,-0.66237104,0.014391941,-0.6508075,-0.56388175,0.62821084,0.50643396,0.9301784,-0.4172244,-1.5960728,-1.0420597,2.4169247,1.543155,-0.9154257,0.94325316,-0.3576206,-1.5977066,-0.98860705,2.4692845,1.4847952,-0.9625529,-0.6740166,-0.8049025,-0.041197266,-1.168856,-0.47426757,0.44056952,0.3494398,1.2023659,-0.5712776,1.613171,-2.948056,0.0833943,-0.9887264,0.1258049,-0.29784775,1.0648575,0.7931284,-0.22425143,0.11137419,0.5552067,-0.14305477,-0.6247944,-0.49068585,1.0,0.0,0.0,0.0,0.0,0.0,0.0,-1.8523659,0.17127761,-1.0631709,29.306305,-56.627037,-8.717675,-2.4259806,-28.578323,-2.1980226,-0.87103844
4.4080763,-64.75182,-15.64644,-10.121993,2.551575,-3.0933146,0.98394746,0.24808754,-0.7239586,-0.008548007,-0.6950845,-0.5790415,0.6382661,0.45927116,0.9680619,-0.43001646,-1.5985614,-1.0581155,2.4113803,1.5486218,-0.9166258,0.94029105,-0.36879766,-1.5983741,-1.0005784,2.4630475,1.4891592,-0.959092,-0.17381786,-1.222615,-0.072242185,-1.206768,-0.67310524,0.43235877,0.344902,1.1729088,-0.570446,1.6025547,-2.9451084,0.08331092,-1.0859239,0.124443054,-0.30535126,1.0592207,0.79334086,-0.21920173,0.111158244,0.5569603,-0.13658799,-0.78948325,-0.5897677,1.0,0.0,0.0,0.0,0.0,0.0,0.0,-1.8229088,0.17044601,-1.0525546,48.960705,-41.96961,-2.1999092,-3.836131,-19.73027,-1.6191125,-0.4939258
19.054052,-10.692789,1.7057663,-7.143729,0.609975,-2.3833697,0.96171093,0.3386705,-0.75058085,-0.12633863,-0.6522476,-0.5761178,0.6572737,0.35680756,0.9741581,-0.44385576,-1.611008,-1.0658032,2.4054358,1.5548866,-0.92341125,0.9420258,-0.38280618,-1.5995796,-1.0126595,2.4554448,1.4934832,-0.9557408,0.28427443,-1.4606467,-0.132678,-1.2093157,-0.7886365,0.43058816,0.33232638,1.1434822,-0.5696144,1.590967,-2.9421637,0.08322763,-1.1830242,0.12352753,-0.3138199,1.0528495,0.7927192,-0.21382615,0.109817185,0.5601918,-0.077244826,-0.8615698,-0.6561256,1.0,0.0,0.0,0.0,0.0,0.0,0.0,-1.7934822,0.1696144,-1.040967,44.28913,-23.91317,-4.864016,-0.44884682,-11.340296,-0.699985,-1.1415899
25.301851,20.07483,9.503487,-6.0534925,-0.6261539,-2.2181237,0.72854435,0.4675968,-0.77772534,-0.28786635,-0.6760179,-0.5123485,0.6502166,0.2683044,0.98878545,-0.4605787,-1.6283662,-1.0802613,2.4042099,1.5585048,-0.9289104,0.94776595,-0.39812744,-1.6020267,-1.0247922,2.4473348,1.4978014,-0.95257556,0.66594476,-1.5561591,-0.2782986,-1.2152214,-0.817599,0.43115142,0.31171292,1.1140862,-0.5687828,1.5784093,-2.9392223,0.08314441,-1.2800274,0.12342453,-0.3226967,1.0459273,0.7914079,-0.20819128,0.10784349,0.56453484,0.014200703,-0.8910803,-0.7087305,1.0,0.0,0.0,0.0,0.0,0.0,0.0,-1.7640861,0.1687828,-1.0284092,36.73684,-9.617591,-13.458267,-0.83596706,-2.7568579,-0.2996683,-1.9307554
23.606949,32.2041,11.091245,-3.0130672,-0.8595803,-2.0798147,0.4106244,0.5598736,-0.7958239,-0.4064186,-0.69024813,-0.39994732,0.65146154,0.19309768,1.0037533,-0.47770983,-1.6426686,-1.093817,2.40734,1.5629476,-0.9332658,0.9565445,-0.41374433,-1.6063602,-1.0370183,2.4395566,1.5021368,-0.94966304,0.94516724,-1.5637101,-0.48250192,-1.2255518,-0.76435494,0.43348223,0.28485635,1.084713,-0.5679512,1.5648822,-2.9362838,0.083061285,-1.3769337,0.12420654,-0.33176422,1.0385462,0.789682,-0.20221756,0.10553143,0.569538,0.10450136,-0.9063386,-0.7534278,1.0,0.0,0.0,0.0,0.0,0.0,0.0,-1.734713,0.1679512,-1.0148821,26.920557,-0.80492496,-19.64718,-1.2156487,5.367768,-0.015121698,-2.571863
18.79754,34.598633,10.340508,0.63161707,-0.530672,-1.8854462,0.16096255,0.61837757,-0.8032828,-0.48365375,-0.7060426,-0.25951692,0.63826495,0.11505442,1.0183823,-0.49407262,-1.6547256,-1.1076225,2.413605,1.5659633,-0.9381576,0.9673611,-0.42912662,-1.6127899,-1.0494027,2.432835,1.5064894,-0.94705856,1.125376,-1.5299197,-0.6951322,-1.2430239,-0.6414805,0.43522602,0.25270107,1.0553703,-0.5671196,1.5503867,-2.9333482,0.08297824,-1.473743,0.12574005,-0.34096527,1.0307608,0.787786,-0.19582039,0.102932505,0.57484984,0.17675927,-0.91954625,-0.7932877,1.0,0.0,0.0,0.0,0.0,0.0,0.0,-1.7053703,0.16711959,-1.0003867,17.481375,3.3349037,-20.851994,-1.8370152,12.258375,-0.009083748,-3.106022
17.505472,38.906765,12.136947,2.9722443,-0.22519213,-1.5888748,0.13988698,0.6810585,-0.79700756,-0.49551076,-0.7320653,-0.084664434,0.6224905,0.036799546,1.0354669,-0.5088274,-1.662341,-1.1226093,2.4243686,1.5687385,-0.9433786,0.9794909,-0.44406307,-1.6209209,-1.0620561,2.4277997,1.5108477,-0.944806,1.241349,-1.4816691,-0.8521041,-1.2731543,-0.45789078,0.43578944,0.21674304,1.0260582,-0.566288,1.5349238,-2.9304154,0.08289528,-1.5704554,0.12788391,-0.35022736,1.0226303,0.7857723,-0.18900385,0.09986636,0.5804016,0.23558258,-0.923515,-0.8266335,1.0,0.0,0.0,0.0,0.0,0.0,0.0,-1.6760582,0.16628799,-0.9849238,11.351728,4.800415,-15.582788,-3.0694485,18.33902,-0.0641644,-3.4354477
13.204046,37.80051,11.721716,6.2121897,0.046240866,-1.283667,0.0645413,0.6939095,-0.78721684,-0.5403559,-0.74048156,-0.03764553,0.6037968,0.069942676,1.0488818,-0.52278477,-1.6749564,-1.1361042,2.424035,1.5712273,-0.93781173,0.9923178,-0.4585327,-1.6302917,-1.075007,2.4245152,1.5151983,-0.9428557,1.2964047,-1.4355094,-0.9655957,-1.3024168,-0.2853976,0.43456897,0.18832788,0.9967766,-0.5654564,1.5184946,-2.9274855,0.082812406,-1.6670713,0.13048935,-0.3595085,1.0141989,0.78367513,-0.18180467,0.09630941,0.58610994,0.2775817,-0.9226077,-0.85595375,1.0,0.0,0.0,0.0,0.0,0.0,0.0,-1.6467766,0.16545638,-0.9684946,5.4983854,4.591751,-11.421418,-2.9242992,17.201096,-0.21072626,-2.6877851
8.743588,34.200554,10.434523,8.887463,0.3409835,-1.057574,0.008658968,0.69992363,-0.78201485,-0.584305,-0.74789965,0.021905385,0.5728532,0.13555452,1.0623102,-0.53673416,-1.6887223,-1.149797,2.4267058,1.5724837,-0.92930025,1.0053859,-0.4726342,-1.6405609,-1.0882115,2.4227796,1.5195147,-0.9411038,1.3105774,-1.4018167,-1.0477679,-1.3263631,-0.1366289,0.43019995,0.17120895,0.9675255,-0.5646324,1.5011,-2.9245584,0.08272961,-1.7635906,0.13339996,-0.3687744,1.0054871,0.7815332,-0.17425203,0.09230745,0.5918796,0.3037036,-0.92230517,-0.88374835,1.0,0.0,0.0,0.0,0.0,0.0,0.0,-1.6175255,0.16463241,-0.95109993,1.5421629,3.3340454,-8.366156,-2.3390532,14.798209,-0.52374005,-1.5765399
2.3911529,27.77137,7.5836043,11.753807,0.24997997,-0.8080735,-0.119414344,0.670659,-0.79096234,-0.62105465,-0.7403813,-0.180765,0.58355993,0.2322189,1.0724518,-0.55173045,-1.7026663,-1.1622497,2.4047031,1.5778707,-0.9178819,1.0182815,-0.48656452,-1.6514995,-1.1015382,2.421555,1.5237948,-0.93942344,1.28308,-1.3902825,-1.1098145,-1.3345115,-0.118531846,0.42669013,0.16703238,0.9383049,-0.56380844,1.4827408,-2.9216344,0.0826469,-1.8600134,0.13648605,-0.37802505,0.9964767,0.7794393,-0.16639686,0.08826958,0.59749043,0.31896502,-0.9198113,-0.91438717,1.0,0.0,0.0,0.0,0.0,0.0,0.0,-1.5883049,0.16380844,-0.93274075,-2.5228739,1.0957956,-6.3840866,-0.6911993,1.6758547,-0.47044754,-0.37789047
-0.0414567,29.337902,8.247381,14.065763,-0.24195337,-0.45968586,-0.16924743,0.64089286,-0.7832017,-0.6121734,-0.7258212,-0.4263309,0.6058075,0.26702788,1.0823708,-0.56488466,-1.7127168,-1.1741203,2.378922,1.5843755,-0.9127207,1.0307002,-0.5004396,-1.6627834,-1.1148114,2.4194493,1.5280596,-0.93774307,1.2290546,-1.3867627,-1.1353756,-1.324574,-0.2420974,0.42612138,0.16822226,0.9091072,-0.56298447,1.4634181,-2.9187136,0.082564265,-1.9563397,0.13972855,-0.3871231,0.9871899,0.7774467,-0.15838164,0.08478412,0.6027466,0.33466855,-0.8988411,-0.94108385,1.0,0.0,0.0,0.0,0.0,0.0,0.0,-1.5591072,0.16298446,-0.9134181,-5.12414,0.29656887,-2.7871847,1.1280298,-12.4978485,-0.15357137,0.068473816
0.78162384,27.811687,8.023807,13.146116,-0.4142818,-0.46912682,-0.1333443,0.66282046,-0.79873705,-0.6478179,-0.7255416,-0.5019078,0.61614937,0.22930227,1.0969822,-0.58031327,-1.7275652,-1.1873655,2.3692586,1.5896746,-0.91481286,1.0427222,-0.51439756,-1.6743114,-1.1279511,2.4157681,1.5323302,-0.93607223,1.1940523,-1.3989996,-1.159356,-1.310107,-0.4100846,0.42683306,0.16656695,0.87994003,-0.5621605,1.443133,-2.9157956,0.08248172,-2.0525696,0.1431694,-0.39600372,0.97760946,0.77554137,-0.1502694,0.08209865,0.60763025,0.3547408,-0.8775751,-0.9712205,1.0,0.0,0.0,0.0,0.0,0.0,0.0,-1.52994,0.16216049,-0.893133,-3.2938004,-1.2843609,-2.5874138,1.5894175,-16.93132,-0.052058697,-0.22478104
2.0737495,27.86728,8.471889,12.447834,-0.29255038,-0.47767624,-0.06763627,0.6634608,-0.8055768,-0.66823286,-0.7214903,-0.4914038,0.6223295,0.22728342,1.1090683,-0.59495527,-1.7411346,-1.2001002,2.3666277,1.5945631,-0.9133439,1.0545211,-0.5285253,-1.6860836,-1.1409421,2.410626,1.5366141,-0.9344176,1.1756492,-1.4174747,-1.1837045,-1.2949547,-0.54912686,0.42829978,0.16504407,0.8508034,-0.5613365,1.4218862,-2.9128804,0.08239925,-2.148703,0.14680481,-0.40470123,0.96772027,0.77366817,-0.14206588,0.080105215,0.6122401,0.37432194,-0.85897464,-1.0021546,1.0,0.0,0.0,0.0,0.0,0.0,0.0,-1.5008034,0.16133651,-0.8718862,-1.6829967,-1.9109488,-2.5943756,1.6606092,-14.033884,0.015413761,-0.17891228
4.3668194,30.409437,10.167461,11.547965,-0.16160023,-0.43318313,0.053923026,0.6539161,-0.81113917,-0.65436316,-0.7304831,-0.4645382,0.6237867,0.26018062,1.1199127,-0.6096392,-1.7515199,-1.2139904,2.3641722,1.5989927,-0.9083995,1.066194,-0.5428409,-1.6979702,-1.1538587,2.4045072,1.5409113,-0.9327496,1.1649541,-1.4364522,-1.1909928,-1.2901908,-0.6331269,0.42987946,0.16751225,0.82169724,-0.56051254,1.3996788,-2.9099681,0.08231687,-2.2447407,0.1506424,-0.41319656,0.9575301,0.771723,-0.13377132,0.0785415,0.6167495,0.3937718,-0.83924353,-1.0320569,1.0,0.0,0.0,0.0,0.0,0.0,0.0,-1.4716972,0.16051254,-0.8496788,-0.9334326,-1.9537687,-0.9043455,0.612545,-8.514631,0.031113625,0.27682483
6.543484,35.213783,12.654812,11.518742,-0.15036213,-0.3047267,0.13590632,0.64648074,-0.80909485,-0.6398054,-0.72627074,-0.47573763,0.6335229,0.27764037,1.1308421,-0.6237504,-1.7619507,-1.2264857,2.3569334,1.6042637,-0.9049856,1.0777831,-0.5572919,-1.7097995,-1.1667485,2.3978238,1.5452334,-0.9310397,1.1573681,-1.448082,-1.1808798,-1.2882247,-0.68054724,0.4325294,0.17233007,0.7926216,-0.55968857,1.3765118,-2.9070587,0.08223457,-2.3406823,0.15468216,-0.42145157,0.9470811,0.76960856,-0.12542577,0.077207305,0.62129694,0.41363308,-0.8124218,-1.0565089,1.0,0.0,0.0,0.0,0.0,0.0,0.0,-1.4426216,0.15968856,-0.8265118,-0.6278753,-1.2061119,0.81124306,0.31051636,-4.8431993,0.16617775,0.55061877
7.6135178,39.08823,14.562907,11.664627,-0.18176627,-0.16352281,0.19275357,0.6298158,-0.80875206,-0.6191724,-0.732241,-0.49956426,0.6405777,0.31597078,1.1407647,-0.63816714,-1.7717167,-1.2399726,2.3478675,1.6092911,-0.8994426,1.089252,-0.5718078,-1.7214038,-1.179667,2.3907971,1.5495859,-0.92925346,1.1439594,-1.4528068,-1.1542253,-1.2926936,-0.71010566,0.435914,0.18098041,0.7635727,-0.5588646,1.3523861,-2.9041522,0.08215235,-2.4365277,0.15890884,-0.42938614,0.93641853,0.767257,-0.117068335,0.076006554,0.62596697,0.43311572,-0.7786907,-1.0766271,1.0,0.0,0.0,0.0,0.0,0.0,0.0,-1.4135727,0.15886459,-0.8023861,-1.1914492,-0.50411224,2.429247,-0.3430128,-3.052926,0.26119947,0.9545833
7.004501,42.533295,16.197659,13.442276,-0.03809142,0.056173265,0.17544249,0.6137255,-0.80625826,-0.59363633,-0.71308976,-0.49407297,0.6607588,0.30274603,1.1506245,-0.65243363,-1.7807674,-1.250976,2.34139,1.6156619,-0.8989788,1.100534,-0.5863227,-1.7326362,-1.1925473,2.3836102,1.5539862,-0.92739475,1.1235851,-1.4511771,-1.1137012,-1.2862256,-0.72173786,0.44148383,0.18783268,0.7345505,-0.5580406,1.3273027,-2.9012485,0.08207022,-2.5322776,0.16328812,-0.43694687,0.9256238,0.76465106,-0.10878942,0.074851654,0.63077,0.44548154,-0.7395547,-1.0873337,1.0,0.0,0.0,0.0,0.0,0.0,0.0,-1.3845505,0.15804061,-0.7773027,-1.8726349,0.13692379,3.8074732,0.74088573,-1.2684345,0.5312085,0.7887244
6.261843,40.578636,15.032381,12.54837,-0.010805428,-0.022611141,0.16483058,0.6059875,-0.8111072,-0.6112073,-0.7352477,-0.5043582,0.64725703,0.33826262,1.1611327,-0.66743344,-1.793757,-1.266072,2.3331745,1.618712,-0.8935685,1.1116099,-0.60082716,-1.7436054,-1.2054582,2.3763509,1.5584284,-0.9254502,1.102675,-1.4503641,-1.0919775,-1.2923275,-0.7279822,0.44492012,0.19708915,0.7055588,-0.55722046,1.3012625,-2.8983476,0.08198816,-2.6279316,0.16778564,-0.44416428,0.9146743,0.76180804,-0.100536875,0.07372336,0.63569313,0.45802322,-0.70637226,-1.1040193,1.0,0.0,0.0,0.0,0.0,0.0,0.0,-1.3555588,0.15722045,-0.7512625,-1.9167185,0.049591064,1.9334793,-0.4884243,-0.7407546,0.28262734,1.0236084
4.5919094,41.087994,14.928577,13.722893,0.085026324,0.07754454,0.10451723,0.589908,-0.80507135,-0.6058006,-0.7179256,-0.52162576,0.66586596,0.3376244,1.1706008,-0.6813343,-1.8041854,-1.2772508,2.3241882,1.625015,-0.89168775,1.1224494,-0.61529535,-1.7544277,-1.2183595,2.3690076,1.5629145,-0.92342174,1.0783222,-1.4458437,-1.0797052,-1.2888654,-0.7368091,0.4497042,0.20512104,0.6765976,-0.5564041,1.2742665,-2.8954496,0.08190619,-2.72349,0.17237854,-0.45105743,0.90357846,0.7587724,-0.092305005,0.07265061,0.6406763,0.46527398,-0.673583,-1.1176524,1.0,0.0,0.0,0.0,0.0,0.0,0.0,-1.3265976,0.15640411,-0.72426647,-2.25451,0.41718483,1.0069609,0.4752636,-1.015079,0.43292642,0.8888751
2.8793411,40.94307,14.567434,14.3889475,0.1607877,0.15071496,0.06656804,0.5676664,-0.8023838,-0.59945357,-0.7173941,-0.5370941,0.6652259,0.35381833,1.179216,-0.69553375,-1.814373,-1.2900989,2.315298,1.6294371,-0.8880399,1.132997,-0.6297092,-1.765166,-1.231215,2.361546,1.5674444,-0.9213103,1.0473853,-1.4400486,-1.0725901,-1.2838792,-0.74993587,0.45386025,0.21343943,0.64766693,-0.55558777,1.2463156,-2.892555,0.0818243,-2.8189528,0.1770134,-0.45763016,0.89234954,0.75558376,-0.08409834,0.071664125,0.6456662,0.468175,-0.642156,-1.1305344,1.0,0.0,0.0,0.0,0.0,0.0,0.0,-1.2976669,0.15558776,-0.6963156,-2.9021263,0.5409241,0.49993992,0.64008236,-1.4594793,0.37264228,0.9059608
1.4484496,39.706196,13.723181,14.143526,0.20505154,0.1625075,0.050602064,0.5444864,-0.8020804,-0.60308254,-0.7309093,-0.54794556,0.66144794,0.3735934,1.1874456,-0.70991725,-1.8254743,-1.3043059,2.3067515,1.6335893,-0.88395095,1.143188,-0.6440744,-1.7758873,-1.2440839,2.3539357,1.5720068,-0.9191102,1.0103577,-1.4353857,-1.0728688,-1.2874669,-0.7651483,0.45682776,0.22246496,0.61876297,-0.5547714,1.2174108,-2.8896632,0.081742495,-2.9143202,0.1816597,-0.46391678,0.88096243,0.752268,-0.07587165,0.070786566,0.65063465,0.46869972,-0.61377007,-1.1470473,1.0,0.0,0.0,0.0,0.0,0.0,0.0,-1.268763,0.15477142,-0.6674108,-3.4992695,0.4224062,-0.23822784,-0.19664764,-1.6779542,0.2342701,0.96821487
-0.5229497,40.51862,13.8987665,15.111296,0.3258416,0.31361425,0.032776706,0.5088033,-0.79616314,-0.586452,-0.7290926,-0.5487859,0.66737205,0.39820406,1.1940683,-0.7236907,-1.8345325,-1.3169931,2.299057,1.638744,-0.87928975,1.1529193,-0.65837854,-1.786557,-1.2569909,2.3461957,1.5765997,-0.9168099,0.96140736,-1.4289374,-1.0657426,-1.2914541,-0.7775069,0.4599243,0.23276477,0.5898857,-0.5539551,1.187553,-2.8867743,0.08166077,-3.0095923,0.18626785,-0.46990967,0.8694315,0.748841,-0.06762865,0.07000715,0.65556276,0.4626172,-0.5846514,-1.1605568,1.0,0.0,0.0,0.0,0.0,0.0,0.0,-1.2398857,0.15395507,-0.63755304,-4.675019,0.6000042,0.4967928,-0.2298832,-1.4051557,0.2622068,1.0940462
-6.0056915,37.330193,11.472304,16.28912,0.60079336,0.41170782,-0.071493655,0.44972965,-0.79553926,-0.60333145,-0.74040914,-0.56805956,0.65971,0.3765992,1.1978923,-0.73793244,-1.8468901,-1.3310318,2.2893898,1.6425707,-0.87915,1.1619792,-0.6726293,-1.7972381,-1.2699876,2.338307,1.5812136,-0.91443336,0.88840795,-1.4239647,-1.0697031,-1.3016495,-0.7937618,0.461676,0.23941325,0.561039,-0.55313873,1.1567433,-2.8838882,0.08157913,-3.104769,0.19072723,-0.47567368,0.8577325,0.7453854,-0.05932448,0.06934076,0.6603583,0.4443357,-0.5631827,-1.1780537,1.0,0.0,0.0,0.0,0.0,0.0,0.0,-1.211039,0.15313873,-0.6067433,-7.0411444,0.43623447,-0.60584545,-0.81095695,-1.8305659,0.1152277,0.7046312
-21.207716,29.718596,5.352654,20.91581,1.4322422,0.7230162,-0.35287082,0.31349486,-0.79525447,-0.629881,-0.7448236,-0.5941963,0.6487877,0.3563051,1.1933287,-0.75215477,-1.8602262,-1.3444699,2.2788873,1.6460924,-0.87880284,1.1697955,-0.6868467,-1.8080966,-1.2830911,2.3301969,1.5858332,-0.91201866,0.7473982,-1.4214065,-1.0918733,-1.3123819,-0.8178493,0.4619075,0.24201915,0.53222275,-0.5523224,1.1249825,-2.881005,0.081497565,-3.1998506,0.1947403,-0.48136902,0.8458213,0.7421414,-0.05087873,0.06884245,0.6647542,0.3902718,-0.5604661,-1.2002797,1.0,0.0,0.0,0.0,0.0,0.0,0.0,-1.1822227,0.15232238,-0.57498246,-13.737429,0.1493454,-2.4086952,-0.7759571,-2.7154207,-0.037145615,0.2385199
-60.74355,11.813854,-9.737535,33.23403,3.6416447,1.582587,-1.0285014,-0.02856714,-0.79541785,-0.6680286,-0.76773643,-0.60182333,0.6076439,0.32974103,1.1669388,-0.7663885,-1.8748995,-1.3598647,2.2700145,1.6465976,-0.87904453,1.1747909,-0.70106024,-1.8193538,-1.2963758,2.3218389,1.5904223,-0.90961254,0.4191036,-1.4221101,-1.1373967,-1.3319026,-0.8435815,0.4576285,0.23960854,0.50343704,-0.55150604,1.0922716,-2.8781247,0.081416085,-3.294837,0.19750977,-0.4873619,0.8336169,0.73969126,-0.04212278,0.06856354,0.66811794,0.24183522,-0.6030764,-1.2316318,1.0,0.0,0.0,0.0,0.0,0.0,0.0,-1.153437,0.15150604,-0.54227155,-32.16552,-0.3055811,-4.735875,-1.4152527,-3.1571627,-0.49923062,-0.39684772
-89.136665,2.1565232,-19.008673,42.092773,5.3143544,2.3412986,-1.4227633,-0.31142795,-0.7960302,-0.66594315,-0.79170287,-0.5640301,0.54741615,0.36044765,1.143648,-0.78066325,-1.8859482,-1.375546,2.265436,1.6451639,-0.87356776,1.1755157,-0.71529955,-1.8310096,-1.3099275,2.3133702,1.5949179,-0.90721214,-0.04019221,-1.4257166,-1.1755735,-1.360314,-0.8503449,0.4462656,0.23958199,0.47467422,-0.5506897,1.0586114,-2.8752472,0.08133469,-3.3897285,0.19826508,-0.4940033,0.8210862,0.7385105,-0.032934844,0.068408616,0.6699535,0.022167398,-0.67432266,-1.2645528,1.0,0.0,0.0,0.0,0.0,0.0,0.0,-1.1246742,0.15068969,-0.5086114,-45.040012,-0.73041916,-4.0192366,-2.0692348,-1.496911,-1.3076127,-0.18728077
-83.17976,11.126308,-13.111652,41.060085,5.106824,2.6224742,-1.1794714,-0.41848946,-0.8006911,-0.597234,-0.79180443,-0.53399676,0.5592654,0.4399186,1.1336668,-0.7953687,-1.890733,-1.389108,2.2599707,1.6508445,-0.8632203,1.1718841,-0.72959894,-1.8426216,-1.3237138,2.3049817,1.5993086,-0.9047431,-0.46817893,-1.4325409,-1.1573387,-1.3821557,-0.8378914,0.43587056,0.24910598,0.44594193,-0.54987335,1.024003,-2.8723726,0.081253365,-3.4845252,0.19688034,-0.5012169,0.808342,0.7385142,-0.023448383,0.06813578,0.67037624,-0.19183993,-0.7269414,-1.2820045,1.0,0.0,0.0,0.0,0.0,0.0,0.0,-1.0959419,0.14987335,-0.47400302,-41.96101,-1.0685921,1.5718937,-1.3829708,0.44881105,-1.277858,0.89696646
-65.60047,19.391418,-6.6836805,34.326363,4.114947,2.2360027,-0.8656272,-0.48669395,-0.79877496,-0.6468496,-0.79789275,-0.52864134,0.5358701,0.46660227,1.1232147,-0.80947644,-1.9073066,-1.4035031,2.2521176,1.6528956,-0.85808283,1.1647639,-0.7439479,-1.8541782,-1.3376813,2.2967649,1.6035849,-0.9021529,-0.79097855,-1.4368713,-1.1559526,-1.3990492,-0.81899804,0.42379805,0.26243356,0.41724014,-0.54906464,0.9884475,-2.8695009,0.08117213,-3.5792272,0.1937027,-0.50881195,0.795417,0.7394066,-0.01371881,0.06762711,0.6697135,-0.36368215,-0.7602371,-1.2999997,1.0,0.0,0.0,0.0,0.0,0.0,0.0,-1.0672401,0.14906463,-0.43844748,-31.608427,-0.7792711,-0.09286404,-0.9474039,1.2121081,-1.5121639,1.3666928
-48.524574,24.748976,-1.6789982,27.606504,3.1404245,1.7754095,-0.61374944,-0.55901295,-0.80737257,-0.69648755,-0.7908502,-0.5390451,0.543181,0.45815074,1.1088626,-0.82468516,-1.9238269,-1.4167663,2.2428603,1.657903,-0.85633785,1.1552119,-0.75836176,-1.8659637,-1.351727,2.288693,1.6077563,-0.8994397,-1.0082186,-1.4439155,-1.1866076,-1.4042094,-0.80520177,0.41370624,0.27450037,0.38856888,-0.5482559,0.9519456,-2.866632,0.08109097,-3.6738343,0.18911743,-0.5166359,0.78226984,0.74091655,-0.003737536,0.06686777,0.66824937,-0.49337867,-0.77874106,-1.3233685,1.0,0.0,0.0,0.0,0.0,0.0,0.0,-1.0385689,0.14825591,-0.4019456,-21.224344,-0.99465847,-3.2458067,0.13797283,0.8331895,-1.3376296,1.283288
-40.16073,29.082806,1.0507793,24.143768,2.5953147,1.5782992,-0.5341092,-0.6656256,-0.7969534,-0.74247456,-0.7894942,-0.5313977,0.5244797,0.40651757,1.0886494,-0.8380571,-1.9402112,-1.4306765,2.2355533,1.6602042,-0.85878795,1.1438994,-0.7727842,-1.8782833,-1.3657727,2.280747,1.6118227,-0.8966569,-1.1709045,-1.4424415,-1.2474071,-1.4027005,-0.79261994,0.4031711,0.27981436,0.35992432,-0.5474472,0.9144983,-2.863766,0.0810099,-3.768347,0.18341064,-0.5245857,0.76886743,0.74291354,0.0065281815,0.065892145,0.6661043,-0.60170364,-0.78762656,-1.3493499,1.0,0.0,0.0,0.0,0.0,0.0,0.0,-1.0099243,0.1474472,-0.36449832,-15.860391,-0.11553764,-6.2073946,0.7528782,0.7652998,-1.4009058,0.6102085
-32.283264,33.40888,4.4048443,21.309427,2.2973282,1.4806778,-0.4431534,-0.73147917,-0.8011656,-0.7564235,-0.790107,-0.44412935,0.49967685,0.2798127,1.0707515,-0.85290074,-1.9539256,-1.4447834,2.236334,1.6617904,-0.8686756,1.1312861,-0.7871923,-1.8912132,-1.3797898,2.2731633,1.6157767,-0.8939265,-1.2904676,-1.4410182,-1.3086133,-1.3994433,-0.7484894,0.3916522,0.27121243,0.33130646,-0.5466385,0.87609863,-2.8609028,0.08092891,-3.8638308,0.17673111,-0.5325699,0.7552114,0.74530554,0.017076967,0.06457118,0.66336906,-0.694675,-0.78855133,-1.3744664,1.0,0.0,0.0,0.0,0.0,0.0,0.0,-0.98130643,0.14663848,-0.32609862,-11.631656,-0.08914471,-6.218648,0.86722374,3.9904475,-1.4978945,-0.7409394
-25.203207,38.332054,8.44595,19.752062,2.197911,1.5073359,-0.39823866,-0.7722292,-0.8051414,-0.7545335,-0.77092934,-0.31076005,0.47165865,0.049946595,1.0540632,-0.8677064,-1.9666666,-1.4568827,2.2420874,1.6629425,-0.8889319,1.117744,-0.8016004,-1.9046047,-1.3936887,2.266396,1.6196066,-0.89145744,-1.3747345,-1.4413967,-1.3496579,-1.3850478,-0.65359485,0.3791865,0.23929186,0.30271912,-0.5458298,0.8367449,-2.8580425,0.08084799,-3.9592187,0.16920853,-0.5405159,0.74137163,0.74804235,0.027819877,0.06263417,0.6601027,-0.77766025,-0.7824506,-1.3905292,1.0,0.0,0.0,0.0,0.0,0.0,0.0,-0.9527191,0.14582977,-0.2867449,-8.18727,-0.23086071,-4.17397,1.896143,9.162259,-1.5551686,-3.0147166
-20.28417,43.432835,12.039366,19.37916,2.1241934,1.6195441,-0.421435,-0.8049853,-0.8007549,-0.76098806,-0.74159455,-0.20501594,0.48332632,-0.21050122,1.0372454,-0.8816759,-1.9807035,-1.4678482,2.2458944,1.6679392,-0.91250753,1.1035419,-0.8159942,-1.9182746,-1.4073167,2.2608266,1.6233355,-0.8894967,-1.4346235,-1.4392133,-1.3730237,-1.3541251,-0.52569294,0.3699533,0.18241887,0.2741623,-0.54502106,0.796438,-2.855185,0.08076716,-4.054511,0.16091156,-0.5483551,0.727458,0.7511338,0.03860452,0.059873715,0.65629464,-0.8542105,-0.7694431,-1.3949484,1.0,0.0,0.0,0.0,0.0,0.0,0.0,-0.92416227,0.14502105,-0.24643797,-5.8172703,0.05750656,-2.3710728,3.4681559,12.551522,-1.1836767,-5.480018
-15.595291,48.039413,15.384979,19.230083,2.0441952,1.713373,-0.41792506,-0.81890136,-0.79773146,-0.7621386,-0.70298547,-0.0838209,0.49959788,-0.36163947,1.0216517,-0.89576733,-1.9944885,-1.4776152,2.2524445,1.6732953,-0.9256606,1.0889182,-0.8303508,-1.932061,-1.4204888,2.2567296,1.6270014,-0.8881892,-1.4713231,-1.4348251,-1.3805625,-1.3040274,-0.37133232,0.36460727,0.114295706,0.24563217,-0.54421234,0.7551788,-2.8523304,0.08068641,-4.149708,0.1518898,-0.5560341,0.71358687,0.75458306,0.04926443,0.05615915,0.6519383,-0.9239954,-0.7511318,-1.3876381,1.0,0.0,0.0,0.0,0.0,0.0,0.0,-0.89563215,0.14421234,-0.2051788,-3.5607576,0.30941963,-0.7490158,5.3037643,15.28492,-0.74276924,-6.590888
-10.968721,51.418503,18.019148,17.975712,1.7119892,1.7598093,-0.35191336,-0.82920897,-0.7944327,-0.75744426,-0.681175,-0.021069663,0.52183294,-0.40238783,1.0059973,-0.9097941,-2.0078053,-1.4886063,2.2546227,1.6791847,-0.928428,1.0740485,-0.8446502,-1.9458263,-1.4331326,2.2541165,1.6306425,-0.88753974,-1.4917783,-1.428593,-1.375275,-1.2504,-0.2247767,0.36340258,0.049131263,0.21712875,-0.5434036,0.7129684,-2.8494787,0.080605745,-4.2448096,0.14225769,-0.5634651,0.69982934,0.7583358,0.05968208,0.05150173,0.6470799,-0.982332,-0.7246113,-1.374806,0.0,1.0,0.0,0.0,0.0,0.0,0.0,-0.86712873,0.14340362,-0.1629684,-1.9773245,0.5219698,0.548625,5.594301,14.572128,-0.27800798,-6.309753
-4.343319,51.694103,19.360554,13.738583,1.1320555,1.5614885,-0.21246576,-0.82130575,-0.79454845,-0.76591295,-0.7007279,0.056886263,0.49001807,-0.44883287,0.99191797,-0.92410505,-2.0224175,-1.5032054,2.2598052,1.6796443,-0.93242306,1.0591025,-0.85874134,-1.960887,-1.4459873,2.250533,1.6348487,-0.8866916,-1.4938943,-1.4069355,-1.5185304,-1.2822095,-0.350645,0.4139673,0.07122342,0.20134735,-0.5467758,0.7143627,-1.5091013,-0.3443233,0.54738474,0.13237381,-0.5704155,0.6856219,0.76198363,0.07025264,0.047290515,0.64203507,-0.999017,-0.6724077,-1.4269627,0.0,1.0,0.0,0.0,0.0,0.0,0.0,-0.8513473,0.14677581,-0.16436267,0.33729076,0.30972958,0.019788742,3.392291,13.05213,-0.97316504,-6.4745398
65.2507,176.0,110.0,104.899475,-3.1630707,11.589131,-0.67123944,-0.71586984,0.5130243,0.729948,0.74004513,-0.33157498,0.65509915,-0.35209715,0.98751557,-0.8074389,-1.8878921,-1.3719828,2.2173755,1.7003586,-0.9219013,1.0491195,-0.87348324,-1.9728804,-1.4448944,2.235633,1.6489154,-0.88459253,-0.837263,-1.4955199,-1.0866601,0.56818914,-1.8651611,1.7479861,0.25249234,0.18626785,-0.5502167,0.71908796,-1.5075924,-0.34397906,0.4475863,0.12252045,-0.57531357,0.6760201,0.7658686,0.07013017,0.048642896,0.63730747,-0.98335767,-0.4131726,-0.8052884,1.0,0.0,0.0,0.0,0.0,0.0,0.0,-0.8362678,0.15021667,-0.16908795,64.390396,-8.521366,45.038177,183.56032,-150.106,136.50381,17.041763
6.38864,176.0,93.17639,87.92305,2.8983,6.7033744,-0.8512983,-0.78580695,-0.6127429,0.3758285,0.7745686,-0.5936588,0.5677513,-0.25822368,0.9705388,-0.93475753,-1.9352975,-1.3674376,2.176267,1.7056905,-0.9104149,1.0409751,-0.8877073,-1.9778757,-1.4321915,2.2157927,1.6664325,-0.8823714,-0.80657357,-1.3993268,-0.3005003,1.504159,-2.0292413,1.7590303,0.21355002,0.17120361,-0.5536537,0.72281605,-1.5060852,-0.34363517,0.34788764,0.11229706,-0.57881546,0.67187303,0.7704263,0.061904963,0.052731153,0.6323216,-1.0363554,-0.31779972,-0.289072,1.0,0.0,0.0,0.0,0.0,0.0,0.0,-0.8212036,0.15365371,-0.17281604,3.177154,9.213471,79.617615,93.547844,-18.080593,2.9391766,-3.4158468
-26.28364,136.17764,55.50882,62.48816,3.5950081,4.206496,-1.1022421,-0.76411486,-0.49406126,-0.045378715,0.7166742,-0.6387268,0.63698,-0.25107557,0.9645636,-0.9371134,-1.9824135,-1.360524,2.15192,1.7301306,-0.907479,1.0319762,-0.9001661,-1.9779444,-1.4140602,2.1966543,1.6830741,-0.8806224,-0.9293022,-1.196063,0.09099196,1.9172484,-1.8791829,1.6361599,0.16305712,0.15615463,-0.55708694,0.72554785,-1.5045794,-0.34329158,0.24828863,0.10121155,-0.58166885,0.67126226,0.77584624,0.0504346,0.05728859,0.6262882,-1.1308541,-0.26686156,0.0071392367,1.0,0.0,0.0,0.0,0.0,0.0,0.0,-0.8061546,0.15708694,-0.17554784,-11.728907,19.931244,39.1574,41.660522,13.809371,-11.21819,-4.7225533
-26.691654,126.36311,47.020638,41.43212,2.484232,3.3284268,-0.6321882,-0.7825287,-0.38164893,0.22263916,0.769833,-0.640246,0.60529363,-0.16174513,0.9537234,-0.938331,-1.9556805,-1.3370769,2.1326296,1.7436035,-0.8967969,1.0211711,-0.9101978,-1.9746943,-1.3946053,2.1800642,1.698085,-0.879334,-1.1294223,-0.9399848,0.40213057,1.9555073,-1.5886835,1.4588501,0.11791806,0.14112091,-0.5605202,0.72728443,-1.5030751,-0.34294835,0.14878924,0.08940506,-0.5838089,0.6728853,0.7818013,0.037902776,0.061604977,0.6193181,-1.1997012,-0.1889324,0.20558189,1.0,0.0,0.0,0.0,0.0,0.0,0.0,-0.7911209,0.16052017,-0.17728442,-19.620943,25.280071,30.830904,4.0090322,28.125238,-16.952085,-4.3909817
-26.707857,93.63914,26.87766,23.461273,1.4540696,1.6851931,-0.4741904,-0.77764255,-0.3127884,0.06975144,0.77121955,-0.64760536,0.6141206,-0.11109371,0.9434068,-0.94147664,-1.9677191,-1.3174833,2.1153038,1.759497,-0.8904433,1.0085998,-0.91780144,-1.9703474,-1.3761917,2.1662397,1.7114135,-0.8784175,-1.299209,-0.701114,0.44428888,1.8035326,-1.3146427,1.2926699,0.082589634,0.12610245,-0.5639458,0.72802675,-1.5015724,-0.34260547,0.04938932,0.077106476,-0.58532715,0.6754896,0.7880412,0.025880475,0.06565156,0.6115646,-1.2420908,-0.1320171,0.27134806,1.0,0.0,0.0,0.0,0.0,0.0,0.0,-0.7761024,0.16394576,-0.17802674,-16.850685,23.713017,3.8352132,-15.124989,27.095486,-16.039228,-3.6059365
-23.367245,57.402542,10.30518,11.676676,1.0007131,0.3526513,-0.34466746,-0.7883378,-0.3429809,0.014493635,0.77036417,-0.62966615,0.60933584,-0.20621544,0.929766,-0.9520995,-1.968898,-1.2991554,2.1032732,1.7723471,-0.89903903,0.9947486,-0.92378956,-1.9667063,-1.3596531,2.154685,1.7232372,-0.87787867,-1.4138118,-0.5649523,0.33663675,1.6040715,-1.1021397,1.1466571,0.044137117,0.11109924,-0.56737137,0.7277729,-1.5000712,-0.34226295,-0.050304957,0.06451416,-0.5865593,0.67800206,0.79446334,0.015323928,0.069443844,0.603134,-1.2678078,-0.11068734,0.23883611,1.0,0.0,0.0,0.0,0.0,0.0,0.0,-0.7610992,0.16737136,-0.17777288,-11.467648,13.553762,-11.057925,-19.936298,21.20707,-14.244628,-3.9309733
-12.256557,37.611805,6.124097,5.487661,0.6689422,-0.27499044,-0.10495881,-0.7877295,-0.38141173,0.09612343,0.762764,-0.59126246,0.60475826,-0.24151199,0.91597563,-0.96193075,-1.957094,-1.2833767,2.095559,1.783713,-0.9020299,0.98021555,-0.9292322,-1.964036,-1.3448731,2.1447897,1.7337638,-0.8777089,-1.4665741,-0.5374596,0.24344212,1.4360325,-0.9522485,1.0221299,0.007828759,0.0961113,-0.57078934,0.72652286,-1.4985714,-0.34192076,-0.14989956,0.051799774,-0.5877075,0.67992777,0.800921,0.0063382196,0.07280767,0.59429324,-1.2746235,-0.10754234,0.17281051,1.0,0.0,0.0,0.0,0.0,0.0,0.0,-0.7461113,0.17078933,-0.17652285,-5.3195,2.7210116,-9.430975,-16.82272,14.894068,-12.262821,-3.6744316
-1.0979099,37.015785,10.5012455,5.034923,0.40318602,-0.33246946,0.060394444,-0.7820474,-0.3762372,0.1703075,0.7646664,-0.5800679,0.5953768,-0.24942788,0.9020108,-0.9668559,-1.9470053,-1.2684064,2.086783,1.7933015,-0.9026517,0.9655175,-0.9348007,-1.9617567,-1.3312718,2.1359434,1.7431957,-0.8778672,-1.4709997,-0.5633952,0.22281621,1.3348477,-0.8625802,0.917261,-0.023748124,0.08113861,-0.5742073,0.72427756,-1.497073,-0.3415789,-0.24939458,0.039131165,-0.58882904,0.6813017,0.807271,-0.0014970041,0.075676806,0.585307,-1.2648592,-0.103605784,0.122221604,1.0,0.0,0.0,0.0,0.0,0.0,0.0,-0.7311386,0.1742073,-0.17427754,-0.48696995,-2.6332378,-2.024302,-10.134029,8.759415,-10.349739,-3.1791158
6.9313116,39.201553,14.6955805,5.747326,0.24218121,-0.3006915,0.15592647,-0.76232314,-0.3959109,0.20836122,0.76275164,-0.58808583,0.60988003,-0.24788548,0.8892852,-0.97439176,-1.9409206,-1.2549967,2.0771348,1.8041836,-0.9026558,0.95104647,-0.94086415,-1.9592466,-1.3182293,2.1276197,1.7517253,-0.87830114,-1.4391962,-0.62082607,0.26092732,1.2941028,-0.82324743,0.8319172,-0.049900338,0.06618118,-0.57761765,0.72103804,-1.4955764,-0.3412374,-0.34879014,0.026649475,-0.5898781,0.68230075,0.8134149,-0.008665477,0.07808384,0.576354,-1.2440472,-0.097226344,0.08955619,0.0,1.0,0.0,0.0,0.0,0.0,0.0,-0.71618116,0.17761764,-0.17103803,3.1392813,-5.793369,3.9470048,-4.0820837,3.6616445,-8.409381,-2.6256175
7.8226547,39.463573,15.618775,7.2993913,0.35133904,-0.2444694,0.13798507,-0.7539309,-0.42730722,0.22116624,0.7582535,-0.5846168,0.6059671,-0.2618292,0.8756534,-0.9835949,-1.93713,-1.242404,2.069158,1.812322,-0.90448403,0.93697786,-0.94761616,-1.9561911,-1.3053032,2.1194792,1.759513,-0.8789716,-1.3961513,-0.69352394,0.3209533,1.2921233,-0.8119529,0.7614184,-0.072685644,0.051239014,-0.581028,0.7168054,-1.4940811,-0.34089625,-0.44808632,0.0143585205,-0.59087753,0.6830351,0.81934,-0.015476502,0.08008142,0.5674762,-1.2258171,-0.09211341,0.06523184,0.0,1.0,0.0,0.0,0.0,0.0,0.0,-0.701239,0.18102798,-0.16680539,4.285431,-7.3253155,6.1619043,-0.17397404,0.8544922,-6.936252,-2.2701666
11.033556,41.564655,17.317026,7.11722,0.23905331,-0.2313695,0.18085101,-0.7216046,-0.4574316,0.25876254,0.7454784,-0.58285123,0.6087652,-0.25586975,0.8648174,-0.9933593,-1.9303148,-1.2307553,2.061194,1.8203895,-0.90455854,0.9234319,-0.9551073,-1.9524183,-1.2923123,2.1113462,1.7666923,-0.8798356,-1.3409054,-0.7678111,0.39675638,1.3017482,-0.8148784,0.7038493,-0.09103726,0.036312103,-0.5844345,0.7115805,-1.4925873,-0.3405554,-0.54728323,0.0022850037,-0.5918045,0.6835686,0.82501996,-0.022114977,0.08170943,0.5587277,-1.202286,-0.08440048,0.046763077,0.0,1.0,0.0,0.0,0.0,0.0,0.0,-0.6863121,0.1844345,-0.1615805,5.4995537,-7.493162,7.7763853,0.9890318,-0.595212,-5.64276,-1.8272326
12.718018,38.86515,15.58853,5.7395344,0.05213836,-0.4236437,0.18792412,-0.673659,-0.49381506,0.23101473,0.74160814,-0.61263645,0.6249305,-0.24337913,0.856066,-1.0044888,-1.9293169,-1.2181515,2.0500827,1.8291854,-0.9041735,0.91058564,-0.9633168,-1.9484105,-1.2792895,2.10281,1.7730836,-0.8809992,-1.2662187,-0.83890045,0.40408078,1.3029824,-0.86535,0.622571,-0.122942895,0.02022171,-0.585022,0.71384335,-1.6267302,0.007325,0.43523338,-0.009433746,-0.59274673,0.6837502,0.83048886,-0.028284425,0.08320754,0.5500587,-1.1645913,-0.089061804,0.006323261,0.0,1.0,0.0,0.0,0.0,0.0,0.0,-0.6702217,0.18502197,-0.16384333,7.0388794,-7.3426366,4.102379,1.1738062,-2.3130774,-4.3217897,-1.4367507
-6.175379,86.462105,27.008163,20.850607,0.24714388,0.57658374,-0.25970453,-0.7757769,-0.16303237,0.11820367,0.7642984,-0.5650724,0.59894097,-0.21581002,0.83300793,-0.97962004,-1.9365902,-1.2028596,2.0463026,1.8329777,-0.9025802,0.8978436,-0.97051036,-1.9448056,-1.2660811,2.0941582,1.7790192,-0.8822981,-1.2767153,-0.6799579,0.34592992,1.3271514,-0.8657067,0.5848795,-0.13249972,0.003967285,-0.5849457,0.717445,-1.6251038,0.007317676,0.3351533,-0.020973206,-0.5933342,0.6842579,0.8359397,-0.034186564,0.085369565,0.541062,-1.1528764,-0.041927036,0.06259509,0.0,1.0,0.0,0.0,0.0,0.0,0.0,-0.65396726,0.18494567,-0.167445,-1.0255575,15.755379,-5.8084545,2.5410175,-0.25724173,-3.46241,-1.066938
-17.835537,91.351234,25.177032,25.295444,0.69768953,0.7527888,-0.46332723,-0.79254836,-0.12950875,0.026748927,0.7666994,-0.52319074,0.57496125,-0.2477582,0.81858873,-0.98346126,-1.9421307,-1.1894112,2.0418391,1.8365153,-0.9070739,0.88473535,-0.9757699,-1.9422765,-1.2526267,2.08572,1.7846402,-0.88368475,-1.3220091,-0.47507536,0.22170332,1.3520333,-0.8372514,0.5553757,-0.14112592,-0.012271881,-0.5848694,0.72004664,-1.6234791,0.0073103597,0.23517331,-0.032554626,-0.593441,0.68536896,0.8415502,-0.03976109,0.08858225,0.53138083,-1.1613815,0.007761126,0.124545,0.0,1.0,0.0,0.0,0.0,0.0,0.0,-0.6377281,0.18486938,-0.17004663,-4.4873953,20.33434,-12.486273,2.6456118,2.6963234,-2.6882648,-0.98432004
-24.628664,70.506546,14.645985,22.846592,0.96521246,0.38415703,-0.525327,-0.7899353,-0.15336494,-0.120104454,0.76819324,-0.5354865,0.5781837,-0.24932766,0.8057418,-0.9911064,-1.9542869,-1.1758074,2.0321715,1.8424586,-0.9086175,0.8711598,-0.9793576,-1.9415746,-1.2389643,2.0775566,1.7900113,-0.8851439,-1.3692431,-0.32038093,0.019421851,1.371312,-0.80925775,0.53145945,-0.14783715,-0.028495789,-0.5847931,0.72165763,-1.621856,0.0073030507,0.13641651,-0.044353485,-0.59321976,0.68675166,0.8474057,-0.04465971,0.092804916,0.5208612,-1.1862164,0.03520475,0.14057545,0.0,1.0,0.0,0.0,0.0,0.0,0.0,-0.6215042,0.18479308,-0.17165762,-4.673815,15.344501,-20.33125,2.0821095,2.7679443,-2.241218,-0.78147054
-21.798168,65.05518,13.342081,20.63846,0.8978488,0.24948975,-0.44808742,-0.79142344,-0.092262864,-0.17209068,0.7796901,-0.5195928,0.56855893,-0.2644071,0.79201746,-0.98858386,-1.9587836,-1.1609954,2.0255973,1.8468672,-0.9115846,0.8571999,-0.9816197,-1.9428525,-1.2251246,2.0696754,1.795163,-0.88667166,-1.4048055,-0.19530426,-0.17690688,1.3886794,-0.7813114,0.510111,-0.15495726,-0.044704437,-0.5847168,0.72228175,-1.6202345,0.007295749,0.037758432,-0.05636978,-0.59274673,0.6882093,0.85346746,-0.04875972,0.09789328,0.5095416,-1.2073176,0.058527045,0.14579138,0.0,1.0,0.0,0.0,0.0,0.0,0.0,-0.60529554,0.18471679,-0.17228174,-3.527999,12.372276,-19.6593,1.8431187,2.7164936,-2.0736933,-0.84254444
-19.562761,46.92794,7.706022,16.494831,1.0319704,-0.007825911,-0.3558249,-0.79258895,-0.1282345,-0.24499047,0.788836,-0.50025946,0.57318586,-0.2862998,0.777941,-0.9944432,-1.9673516,-1.146241,2.0196495,1.8524816,-0.9153016,0.84300256,-0.98323715,-1.9459538,-1.2111228,2.0620766,1.8001298,-0.8882786,-1.4246144,-0.1509172,-0.35457447,1.404315,-0.7530157,0.49206075,-0.16296828,-0.060897827,-0.5846405,0.7219201,-1.6186146,0.007288455,-0.060801007,-0.06865311,-0.59217834,0.68947405,0.85967004,-0.052029938,0.103503734,0.49754104,-1.2338258,0.065644786,0.11869089,0.0,1.0,0.0,0.0,0.0,0.0,0.0,-0.58910215,0.1846405,-0.17192006,-1.9397497,4.3348255,-17.768574,1.6533136,2.7782798,-1.8119395,-0.90954006
-17.348234,32.43424,3.5353835,12.926119,1.1134919,-0.17760497,-0.24886736,-0.7963557,-0.16814612,-0.31037894,0.78912014,-0.4941714,0.5809811,-0.28457102,0.763367,-1.0000517,-1.9769918,-1.1322107,2.0126593,1.8582278,-0.9167357,0.8286913,-0.98494405,-1.9506208,-1.1970098,2.0547166,1.8049389,-0.8899561,-1.4320872,-0.17725873,-0.51127595,1.4109907,-0.73312,0.47454208,-0.1716616,-0.07709503,-0.58452606,0.7206807,-1.6566417,0.09217922,0.106377795,-0.08121872,-0.5916214,0.69026095,0.86594385,-0.054458965,0.10926628,0.48501158,-1.2633349,0.059906013,0.061884947,0.0,1.0,0.0,0.0,0.0,0.0,0.0,-0.57290494,0.18452606,-0.1706807,-0.5821705,-2.6761591,-16.41978,0.46470165,1.6430378,-2.0929456,-1.1644542
-9.803826,47.15822,11.136514,13.087739,0.80489814,0.02221787,-0.107470766,-0.7929716,-0.08580189,-0.32505324,0.795664,-0.47064546,0.5720622,-0.22806075,0.7493941,-0.99352425,-1.983126,-1.1174434,2.007652,1.8621452,-0.91276217,0.8143814,-0.9866988,-1.9564553,-1.1828516,2.047595,1.8096203,-0.891663,-1.4306568,-0.17533855,-0.6067983,1.4176736,-0.7056098,0.46579587,-0.1708003,-0.093387604,-0.5835495,0.72158587,-1.6205708,0.099443726,0.08448262,-0.09395599,-0.590992,0.6906975,0.8721674,-0.056219377,0.11513663,0.47213015,-1.2759455,0.0727319,0.0370043,0.0,1.0,0.0,0.0,0.0,0.0,0.0,-0.5566124,0.1835495,-0.17158586,0.13437271,0.07261336,-9.390926,0.7030964,2.5873065,-0.94295144,-0.032559037
-9.829909,39.644444,8.759741,11.529433,0.91526747,-0.025336742,-0.070466645,-0.7987077,-0.14559121,-0.38646588,0.7930168,-0.4454264,0.56465954,-0.24127172,0.73451066,-1.0012579,-1.9951019,-1.1035498,2.0030525,1.8660862,-0.9157902,0.8000887,-0.98869103,-1.9631177,-1.1686649,2.0407703,1.814219,-0.8933644,-1.4287438,-0.20751232,-0.6854449,1.4190942,-0.67550015,0.4574252,-0.17035459,-0.109386444,-0.5825081,0.7221685,-1.5942615,0.10588216,0.049393132,-0.106853485,-0.59028244,0.69078887,0.8782879,-0.057447415,0.120948724,0.4590004,-1.2933005,0.08050693,-0.0005706407,0.0,1.0,0.0,0.0,0.0,0.0,0.0,-0.54061353,0.18250808,-0.1721685,0.19385815,-3.319326,-7.701063,0.19311905,2.8111339,-0.95597506,-0.0644207
-8.091817,49.266106,12.378729,12.526861,0.70155144,0.10949534,-0.013839357,-0.80059934,-0.10219345,-0.43556514,0.79410213,-0.4708276,0.5596123,-0.1781816,0.72002876,-0.99891037,-2.0066743,-1.0892547,1.9936875,1.8701802,-0.9111826,0.7858055,-0.99079007,-1.9704878,-1.1544743,2.0341024,1.8187262,-0.89501715,-1.4282882,-0.21123554,-0.75354356,1.4190074,-0.6644968,0.44825578,-0.16406313,-0.12525177,-0.5812874,0.72254676,-1.5840386,0.1272626,0.033763494,-0.119846344,-0.5894165,0.690628,0.88425225,-0.058185693,0.12680899,0.4456813,-1.2998494,0.09893041,-0.021730538,0.0,1.0,0.0,0.0,0.0,0.0,0.0,-0.5247482,0.18128738,-0.17254674,0.012254715,-0.5078882,-6.5686703,0.010275841,0.8667469,-1.0098636,0.49915016
-7.514292,46.27186,11.487137,11.806824,0.7511722,0.079072595,-0.0010405779,-0.79458183,-0.14101876,-0.46832395,0.79689723,-0.44550413,0.56535465,-0.20035163,0.70634735,-1.004892,-2.0173202,-1.0747845,1.989552,1.8752617,-0.9150523,0.7715509,-0.99304646,-1.9784738,-1.1402779,2.0275602,1.8231547,-0.896624,-1.4246778,-0.23085675,-0.8128921,1.419779,-0.6515405,0.4407125,-0.15994944,-0.14101791,-0.5798645,0.722725,-1.5740191,0.14723362,0.01275512,-0.13290787,-0.5883827,0.69021726,0.8900395,-0.058468495,0.13269344,0.43220758,-1.307737,0.11507733,-0.047790155,0.0,1.0,0.0,0.0,0.0,0.0,0.0,-0.50898206,0.1798645,-0.17272496,0.3288269,-2.0905347,-5.6854367,0.1026392,1.0673165,-0.8603275,0.29218793
-5.4833636,53.404015,14.031873,12.290089,0.5594336,0.13914812,0.05648012,-0.78993905,-0.11208529,-0.5043895,0.7958327,-0.46757063,0.5620745,-0.12029139,0.692557,-1.0042549,-2.0289128,-1.0606946,1.9808031,1.8793621,-0.90865314,0.7573506,-0.99533623,-1.9870377,-1.1260852,2.0210524,1.827518,-0.8981347,-1.4187657,-0.2288796,-0.8697805,1.4192294,-0.6513909,0.4344026,-0.14865172,-0.15664291,-0.57821274,0.72278744,-1.5585063,0.17118378,0.0044338293,-0.14598465,-0.5871391,0.6896277,0.89560443,-0.058321215,0.138696,0.41863418,-1.3058698,0.13761851,-0.06280717,0.0,1.0,0.0,0.0,0.0,0.0,0.0,-0.49335706,0.17821273,-0.17278743,0.52711964,0.046271086,-5.373597,-0.06651878,-0.27867556,-0.74393153,0.9745449
-5.449953,55.90283,14.721869,12.704237,0.5594737,0.17832488,0.06933807,-0.7917099,-0.11177013,-0.5325919,0.79424703,-0.4650357,0.56218094,-0.10385833,0.6781796,-1.0065132,-2.0402968,-1.0466604,1.9745488,1.8837361,-0.9085205,0.7431924,-0.997564,-1.9961394,-1.1119077,2.0145292,1.8318264,-0.89952517,-1.4150738,-0.22131471,-0.92250323,1.4172925,-0.6535462,0.4291717,-0.13639168,-0.17209625,-0.576313,0.72279805,-1.5406946,0.19659072,0.00055114366,-0.15902328,-0.58566284,0.6889175,0.9009219,-0.057764515,0.14487529,0.40498653,-1.3020978,0.162655,-0.07380381,0.0,1.0,0.0,0.0,0.0,0.0,0.0,-0.47790372,0.17631301,-0.17279804,0.29158592,0.59387684,-4.9183965,-0.21791458,-0.54352283,-0.6534159,1.0577321
-10.309285,49.20585,11.339079,12.976461,0.7715914,0.16874087,0.03474869,-0.8088048,-0.14545758,-0.5773002,0.79224217,-0.4674483,0.55054927,-0.08172017,0.6623119,-1.0121098,-2.0538695,-1.0326835,1.9677844,1.8868814,-0.9076972,0.72897875,-0.99986523,-2.0058248,-1.0977533,2.0079672,1.836076,-0.9007869,-1.4236716,-0.2335866,-0.98287237,1.4148833,-0.65794206,0.42317426,-0.12319468,-0.18740463,-0.5741844,0.7226661,-1.527485,0.21861029,-0.017118761,-0.17212677,-0.58395004,0.6880066,0.90601355,-0.056739077,0.15118235,0.39123404,-1.3105025,0.18425147,-0.09686633,0.0,1.0,0.0,0.0,0.0,0.0,0.0,-0.46259534,0.17418441,-0.17266607,-0.9025097,-1.3825804,-5.722761,-0.21243095,-0.72962046,-0.7443607,1.1748224
-9.221947,48.396507,11.029595,12.366132,0.68247116,0.13812494,0.084211685,-0.79890126,-0.1507436,-0.60756207,0.7936836,-0.49422744,0.5514527,-0.0011974202,0.6490886,-1.0149395,-2.066581,-1.0183849,1.9585445,1.8912213,-0.9009066,0.7147137,-1.0023314,-2.0161128,-1.0836139,2.001287,1.8402735,-0.9018685,-1.4276116,-0.25131932,-1.0431274,1.413898,-0.67244524,0.4180761,-0.10365162,-0.20257187,-0.5718422,0.7223339,-1.5128726,0.23967935,-0.0373983,-0.18528366,-0.58203506,0.68684304,0.9108633,-0.05520508,0.15761189,0.37741065,-1.315999,0.20503548,-0.122671746,0.0,1.0,0.0,0.0,0.0,0.0,0.0,-0.4474281,0.17184219,-0.1723339,-0.44181347,-1.9265354,-5.697894,-0.072693825,-1.7485857,-0.65408945,1.8019825
-10.632385,44.367805,9.305471,11.830838,0.7161263,0.11812353,0.11021957,-0.8085966,-0.1781461,-0.6374157,0.78728795,-0.51064587,0.53015625,0.060464356,0.63385403,-1.020146,-2.0798545,-1.0048851,1.9502224,1.8932891,-0.8958221,0.70037806,-1.0050818,-2.0269918,-1.0695051,1.9944168,1.8444091,-0.9027222,-1.4355713,-0.28355315,-1.1014551,1.4100807,-0.6926246,0.4114607,-0.07970128,-0.2176094,-0.56930923,0.72172993,-1.5000256,0.2583231,-0.06653452,-0.19853592,-0.5799217,0.6853623,0.91545975,-0.05311596,0.16413048,0.36355636,-1.3253099,0.22392838,-0.15635426,0.0,1.0,0.0,0.0,0.0,0.0,0.0,-0.43239057,0.16930923,-0.17172992,-0.8289337,-3.3702016,-5.5173397,-0.32727718,-2.3154855,-0.85654855,2.2607253
-10.179898,37.36539,6.913105,10.178633,0.6483091,0.013965726,0.1573631,-0.8016429,-0.2266179,-0.6761123,0.790174,-0.5427869,0.52246064,0.13809736,0.62021375,-1.0277436,-2.094603,-0.9904877,1.9401381,1.8966552,-0.88891244,0.68600994,-1.0083395,-2.0384736,-1.0554134,1.9872718,1.8484768,-0.90329707,-1.4372312,-0.3401081,-1.1628681,1.409104,-0.7224331,0.4047418,-0.050450932,-0.23253632,-0.5666237,0.7207239,-1.4898822,0.27233064,-0.110363156,-0.21189117,-0.5776634,0.6834418,0.91979414,-0.050406825,0.17066789,0.3497287,-1.3367834,0.23689796,-0.20369159,0.0,1.0,0.0,0.0,0.0,0.0,0.0,-0.41746366,0.16662368,-0.17072392,-0.1778841,-5.7805357,-5.8724165,-0.008869171,-3.2218575,-0.83236694,2.807673
-5.7267065,45.99746,10.680999,10.497076,0.59189993,0.099607706,0.21161017,-0.79269105,-0.21525656,-0.6667674,0.79089975,-0.539579,0.52179295,0.197621,0.60674083,-1.0298651,-2.1051505,-0.97632337,1.9333138,1.9006561,-0.88353497,0.6716838,-1.012036,-2.0503674,-1.0413254,1.9798838,1.8524851,-0.9035584,-1.4313042,-0.37980387,-1.197205,1.4088687,-0.7452772,0.39900577,-0.018439364,-0.24730682,-0.5637703,0.71939874,-1.4722278,0.2900964,-0.13779742,-0.22528076,-0.5752411,0.6811696,0.92383164,-0.047176417,0.17720634,0.3360167,-1.3370064,0.25578585,-0.234945,0.0,1.0,0.0,0.0,0.0,0.0,0.0,-0.40269315,0.16377029,-0.16939873,0.5259514,-4.1140375,-3.0533552,0.0066280365,-2.6245117,-0.73168874,3.05306
-5.7943897,43.29431,9.798107,9.91699,0.65723157,0.08423406,0.21650231,-0.79537344,-0.26298586,-0.6867745,0.7881046,-0.5449441,0.51075655,0.21738221,0.59214646,-1.0383346,-2.1190448,-0.962515,1.9253894,1.9035608,-0.88182014,0.65741295,-1.0162188,-2.0625393,-1.0272471,1.972307,1.856433,-0.903513,-1.4258808,-0.4315015,-1.2228247,1.4077482,-0.7627586,0.39291927,0.011755833,-0.2619133,-0.5607567,0.71774817,-1.455881,0.30578405,-0.17151189,-0.23869324,-0.5726242,0.67855203,0.927574,-0.043477163,0.18366891,0.32246205,-1.3397796,0.2731669,-0.270675,0.0,1.0,0.0,0.0,0.0,0.0,0.0,-0.38808668,0.16075668,-0.16774815,0.48189163,-5.306244,-2.1892548,-0.06158352,-2.0801902,-0.77486634,2.8923175
-7.985138,40.6081,8.45636,9.957797,0.76487803,0.100741684,0.20900875,-0.80391395,-0.30181664,-0.705647,0.7859076,-0.554488,0.49760565,0.2682275,0.57702154,-1.0464004,-2.133104,-0.9486563,1.9168582,1.9061936,-0.87669027,0.6431459,-1.0209852,-2.074948,-1.0131859,1.9645752,1.8603159,-0.9031611,-1.4271097,-0.49210513,-1.2457892,1.4058486,-0.77761346,0.3860136,0.042753093,-0.276371,-0.5576019,0.71571344,-1.4420447,0.31984168,-0.21207023,-0.252182,-0.5698509,0.67554164,0.9310432,-0.03930182,0.18997844,0.30906618,-1.348089,0.29089466,-0.31118292,0.0,1.0,0.0,0.0,0.0,0.0,0.0,-0.37362897,0.15760192,-0.16571343,-0.16467571,-6.195414,-1.9438028,-0.10006428,-1.8050671,-0.8844793,3.0025747
-8.903268,32.11076,5.719266,8.329473,0.81752205,0.04170978,0.20807761,-0.8019593,-0.37538612,-0.7112741,0.7836896,-0.5564259,0.49234283,0.26973423,0.56295,-1.0585239,-2.1460755,-0.9348169,1.9089326,1.9095502,-0.8761877,0.6288626,-1.0265738,-2.0875394,-0.99914575,1.9567231,1.8641286,-0.90252954,-1.4287735,-0.5814337,-1.262682,1.4037497,-0.7884167,0.37909386,0.06986928,-0.29074097,-0.55434036,0.7131344,-1.4342977,0.32938805,-0.2703158,-0.26579666,-0.5669174,0.6720168,0.9342739,-0.034636892,0.19598888,0.2958392,-1.3635445,0.30461842,-0.36645654,0.0,1.0,0.0,0.0,0.0,0.0,0.0,-0.359259,0.15434036,-0.1631344,-0.17318726,-9.043527,-1.410985,-0.0569582,-1.3287067,-0.87400675,2.6622727
-6.0896397,41.508312,8.837442,9.109554,0.71298283,0.14914602,0.26023936,-0.7955391,-0.36426646,-0.7148279,0.77933556,-0.5738188,0.50703883,0.3808293,0.5493087,-1.0630004,-2.1590223,-0.9212122,1.8993412,1.9148325,-0.8644466,0.6145898,-1.0328509,-2.1002529,-0.9851484,1.9487485,1.8678907,-0.9015749,-1.4269778,-0.64361715,-1.273062,1.3987364,-0.8014236,0.37468472,0.10368652,-0.3049698,-0.5509529,0.7100921,-1.4184042,0.34219643,-0.3129017,-0.27947998,-0.56380844,0.6680504,0.937244,-0.029528378,0.20174499,0.28284368,-1.3670764,0.3245285,-0.40713304,0.0,1.0,0.0,0.0,0.0,0.0,0.0,-0.3450302,0.1509529,-0.16009212,0.12521744,-6.3529134,-0.6572008,-0.40807724,-1.6631007,-0.6647825,3.2985897
-6.4226494,41.04448,8.5236,9.05582,0.7725681,0.15660816,0.24812122,-0.79807186,-0.41512114,-0.7190987,0.7802851,-0.56893873,0.48307762,0.39056894,0.53478265,-1.074363,-2.1721628,-0.90711987,1.8918546,1.9161985,-0.862518,0.6003275,-1.0397726,-2.1130393,-0.97119004,1.9406822,1.8715965,-0.9003041,-1.426169,-0.7088162,-1.2796503,1.395248,-0.8093065,0.36864892,0.13465422,-0.31904602,-0.5474472,0.7066026,-1.4031321,0.3540156,-0.35814452,-0.29322052,-0.5604973,0.66367346,0.9399613,-0.024007814,0.2072361,0.27009177,-1.3718419,0.34483802,-0.44856504,0.0,1.0,0.0,0.0,0.0,0.0,0.0,-0.33095396,0.1474472,-0.15660256,0.030183792,-6.6544294,-0.28002262,-0.23920536,-1.1429548,-0.82285404,3.0277789
-1.6508553,55.048965,13.468331,10.682767,0.8064929,0.3002075,0.26071215,-0.78402793,-0.39799014,-0.6931086,0.7842156,-0.55430436,0.5119912,0.441142,0.5219247,-1.0795716,-2.1823502,-0.8927685,1.8852518,1.9227955,-0.8561899,0.586133,-1.0470873,-2.1257377,-0.9572442,1.9326155,1.8752701,-0.89871895,-1.4176377,-0.7394951,-1.2649295,1.3943257,-0.8073187,0.36638018,0.1660446,-0.33288193,-0.5437889,0.7028473,-1.3754961,0.37013143,-0.37818995,-0.30688858,-0.5569267,0.659071,0.94241023,-0.018227387,0.21251583,0.2576192,-1.3615377,0.3722171,-0.46483934,0.0,1.0,0.0,0.0,0.0,0.0,0.0,-0.31711805,0.1437889,-0.15284729,0.72381496,-3.2310724,2.0216942,-0.08940697,-0.31393766,-0.4531741,3.013411
-2.2230947,43.629936,10.12615,8.351221,0.87012005,0.18224913,0.2510516,-0.78342944,-0.4937313,-0.68453884,0.7792837,-0.52681553,0.4818705,0.43266496,0.5077901,-1.0964605,-2.1941915,-0.87931585,1.879934,1.9234571,-0.8554525,0.57202524,-1.0549856,-2.13823,-0.9433145,1.9246622,1.8789032,-0.89685935,-1.4087179,-0.8070992,-1.242664,1.3927397,-0.79238355,0.36158368,0.19251604,-0.34651184,-0.54000854,0.69872075,-1.3572038,0.38078576,-0.42084318,-0.32052994,-0.55314636,0.6541671,0.94463444,-0.0122414855,0.21742153,0.24544582,-1.3607831,0.39301646,-0.49979043,0.0,1.0,0.0,0.0,0.0,0.0,0.0,-0.30348814,0.14000854,-0.14872074,0.80997944,-6.888187,2.6612282,-0.07939339,1.097703,-0.7010639,2.5976806
-2.1110225,41.30792,9.267745,7.650712,0.829196,0.14716303,0.2632118,-0.7790304,-0.526445,-0.68032104,0.77829933,-0.5334287,0.44202253,0.48533916,0.4941222,-1.1076301,-2.206262,-0.86548454,1.8713194,1.9231054,-0.84832543,0.5580099,-1.0636088,-2.1505013,-0.92940086,1.9168373,1.8824618,-0.89472824,-1.3993384,-0.88132846,-1.22091,1.3912776,-0.7802594,0.35316136,0.21993725,-0.3599701,-0.53614426,0.6941196,-1.3405445,0.38956606,-0.46948335,-0.33416748,-0.54914856,0.64887875,0.9466655,-0.006030975,0.22186789,0.23358612,-1.3602463,0.4122047,-0.53966707,0.0,1.0,0.0,0.0,0.0,0.0,0.0,-0.29002988,0.13614425,-0.14411956,0.86710453,-7.54385,2.5847673,-0.045013428,0.83369017,-1.073432,2.7148814
-3.2034783,33.590324,6.676727,5.9872847,0.7371777,0.05816841,0.27887714,-0.7767502,-0.59189963,-0.67833537,0.7742406,-0.5392463,0.37914675,0.5205535,0.4803349,-1.1227987,-2.2183347,-0.8519768,1.8629127,1.9203764,-0.8426729,0.54407793,-1.0731283,-2.1626003,-0.9155112,1.9090873,1.885891,-0.8923252,-1.3912446,-0.9758577,-1.2055051,1.3886988,-0.7740097,0.33885452,0.24720705,-0.3733101,-0.5322151,0.6889125,-1.3302209,0.39498165,-0.5340652,-0.34783554,-0.545002,0.64308095,0.94853306,0.00048395563,0.22578536,0.22204871,-1.3644059,0.42732066,-0.59440035,0.0,1.0,0.0,0.0,0.0,0.0,0.0,-0.2766899,0.13221511,-0.1389125,0.77700615,-9.55571,1.8565655,-0.09250641,0.3301978,-1.652205,2.7407944
1.6774302,36.741512,8.475956,5.0516367,0.66057515,0.080048084,0.3138142,-0.75485045,-0.625858,-0.6382252,0.7726479,-0.5148653,0.38109085,0.562008,0.46859288,-1.1357142,-2.2264228,-0.8382464,1.8576008,1.924,-0.8361244,0.53030306,-1.0835615,-2.174417,-0.90165377,1.9014482,1.8891866,-0.88964653,-1.3730334,-1.0662134,-1.1724259,1.3851845,-0.7613889,0.32586783,0.2749078,-0.38651276,-0.5282326,0.6831048,-1.3152953,0.40004337,-0.5929517,-0.36147308,-0.54070663,0.6367788,0.95024794,0.007233403,0.22912756,0.21089557,-1.3592058,0.44159958,-0.6435289,0.0,1.0,0.0,0.0,0.0,0.0,0.0,-0.26348722,0.12823257,-0.1331048,1.7535686,-9.135413,3.6842585,-0.23019314,0.9161353,-1.5248477,2.7819514
0.19309092,37.523827,8.001136,4.995985,0.58824635,0.07452452,0.32960856,-0.7651623,-0.6611958,-0.6411927,0.7466433,-0.5259696,0.23958246,0.58334345,0.45378682,-1.1496811,-2.2385364,-0.8269894,1.8488513,1.9131448,-0.8313122,0.5166407,-1.0948302,-2.185963,-0.88794535,1.8938856,1.8922603,-0.88670343,-1.3641233,-1.1473281,-1.1472846,1.3663853,-0.7555437,0.30043232,0.30088323,-0.39956284,-0.52420425,0.67669666,-1.3000221,0.40449116,-0.6530778,-0.37506104,-0.5362663,0.6299746,0.9518208,0.014271081,0.231896,0.20014401,-1.3524275,0.45624045,-0.69421613,0.0,1.0,0.0,0.0,0.0,0.0,0.0,-0.25043714,0.12420425,-0.12669665,0.82991123,-8.216286,2.8831244,-1.7485142,0.21708012,-2.7725935,2.6056707
-0.6420784,41.886734,8.50707,5.7803054,0.62948227,0.051600575,0.31587905,-0.76312685,-0.6796901,-0.6532321,0.7279215,-0.4834029,0.07002763,0.60123825,0.44032803,-1.1627991,-2.251286,-0.8151532,1.8455453,1.899263,-0.82657963,0.5030356,-1.1067568,-2.1973867,-0.87450594,1.886486,1.8949662,-0.8835166,-1.3595144,-1.2081468,-1.1395241,1.3367759,-0.7359255,0.25973597,0.32461882,-0.41244507,-0.52013016,0.6697225,-1.2825707,0.408911,-0.70854247,-0.38856506,-0.53167343,0.62270766,0.95326936,0.021691278,0.23409015,0.18975942,-1.3439767,0.47166973,-0.73948526,0.0,1.0,0.0,0.0,0.0,0.0,0.0,-0.23755491,0.12013015,-0.119722486,0.39105415,-6.198764,1.165843,-2.8482437,1.5483379,-4.3188753,2.3643851
3.064912,53.23243,11.8747835,7.1935716,0.73493046,0.08452755,0.3025919,-0.74577165,-0.67480576,-0.6347395,0.7145499,-0.4295471,-0.0578808,0.6242686,0.42845845,-1.1742374,-2.2608607,-0.80305094,1.8435314,1.8891782,-0.82108974,0.48952606,-1.1190497,-2.2087154,-0.86139345,1.8794327,1.8971919,-0.88010365,-1.3485276,-1.2368348,-1.1290977,1.3028009,-0.69661254,0.20940205,0.3466938,-0.42507935,-0.51600647,0.66233677,-1.2551584,0.4136326,-0.7449819,-0.4019127,-0.5269203,0.6151384,0.9546015,0.02945164,0.23572402,0.17972966,-1.3253045,0.48796088,-0.7648393,0.0,1.0,0.0,0.0,0.0,0.0,0.0,-0.22492063,0.116006464,-0.112336755,0.9695053,-3.0012608,1.5659571,-3.384471,3.3860326,-5.290079,2.145052
2.374494,58.979393,12.769286,8.392296,0.88389134,0.045118153,0.27619815,-0.75103164,-0.6750428,-0.64910233,0.6768242,-0.35782325,-0.30742764,0.63226175,0.4144229,-1.186554,-2.2736256,-0.793711,1.8436503,1.8664491,-0.8168775,0.47608587,-1.1314589,-2.220037,-0.8487284,1.8729545,1.8987656,-0.87649083,-1.342971,-1.2427205,-1.1317923,1.2541903,-0.6334167,0.13908683,0.3659254,-0.4374199,-0.5118408,0.6546421,-1.2251366,0.4176856,-0.7745723,-0.41506577,-0.52199936,0.6073849,0.955841,0.03756621,0.23675454,0.17001157,-1.3062392,0.5044326,-0.7810099,0.0,1.0,0.0,0.0,0.0,0.0,0.0,-0.21258008,0.111840814,-0.10464209,0.41091442,-0.7287741,0.29332638,-4.8876762,5.7133317,-7.310641,1.8393695
2.9844255,62.020355,13.459373,8.682039,1.0487633,0.07286161,0.25239855,-0.7494215,-0.6780931,-0.6445903,0.6362369,-0.25761926,-0.40554667,0.62649304,0.40114373,-1.1992682,-2.284496,-0.78510475,1.8471925,1.8582109,-0.8138415,0.46268287,-1.1438433,-2.231389,-0.83665645,1.8673334,1.8996102,-0.8727144,-1.3398768,-1.2376648,-1.1348687,1.1913041,-0.540046,0.06537263,0.38136682,-0.44945145,-0.507637,0.64666885,-1.1942065,0.4210904,-0.80132043,-0.42803955,-0.5168991,0.5995124,0.9570233,0.045982737,0.23707901,0.160578,-1.2871269,0.5221362,-0.79160535,0.0,1.0,0.0,0.0,0.0,0.0,0.0,-0.20054853,0.10763702,-0.09666884,0.15192032,0.36888123,0.279665,-6.3483715,8.706009,-7.673812,1.4588475
