Afshin1997/kuka_rl_ros2/src/catch_and_throw/input_files/idealpd/polynomial_regressor/optimizer_files/env_450_data.csv
torque0,torque1,torque2,torque3,torque4,torque5,torque6,action0,action1,action2,action3,action4,action5,action6,set_target_0,set_target_1,set_target_2,set_target_3,set_target_4,set_target_5,set_target_6,joint_pos_0,joint_pos_1,joint_pos_2,joint_pos_3,joint_pos_4,joint_pos_5,joint_pos_6,joint_vel_0,joint_vel_1,joint_vel_2,joint_vel_3,joint_vel_4,joint_vel_5,joint_vel_6,tennisball_pos_0,tennisball_pos_1,tennisball_pos_2,tennisball_lin_vel_0,tennisball_lin_vel_1,tennisball_lin_vel_2,end_effector_pos_0,end_effector_pos_1,end_effector_pos_2,end_effector_rot_0,end_effector_rot_1,end_effector_rot_2,end_effector_rot_3,end_effector_lin_vel_0,end_effector_lin_vel_1,end_effector_lin_vel_2,obs_task_0,obs_task_1,obs_task_2,obs_task_3,obs_task_4,obs_task_5,obs_task_6,to_final_target_0,to_final_target_1,to_final_target_2,joint_acc_0,joint_acc_1,joint_acc_2,joint_acc_3,joint_acc_4,joint_acc_5,joint_acc_6
0.0,0.0,0.0,0.0,0.0,0.0,0.0,0.0,0.0,0.0,0.0,0.0,0.0,0.0,1.7802359,-1.0646509,-1.8151424,-1.1170107,1.9373155,1.1170107,-0.91629785,1.7802359,-1.0646509,-1.8151424,-1.1170107,1.9373155,1.1170107,-0.91629785,0.0,0.0,0.0,0.0,0.0,0.0,0.0,3.019909,-0.25041652,0.35581526,-3.163348,-0.20484641,5.289252,0.5304184,-0.4544952,0.693097,0.5745483,0.17512383,0.15255436,0.7848268,0.0,0.0,0.0,1.0,0.0,0.0,0.0,0.0,0.0,0.0,-3.669909,-0.14958349,0.19418475,0.0,0.0,0.0,0.0,0.0,0.0,0.0
0.0,0.0,0.0,0.0,0.0,0.0,0.0,0.0,0.0,0.0,0.0,0.0,0.0,0.0,1.7802359,-1.0646509,-1.8151424,-1.1170107,1.9373155,1.1170107,-0.91629785,1.7802359,-1.0646509,-1.8151424,-1.1170107,1.9373155,1.1170107,-0.91629785,0.0,0.0,0.0,0.0,0.0,0.0,0.0,3.019909,-0.25041652,0.35581526,-3.163348,-0.20484641,5.289252,0.5304184,-0.4544952,0.693097,0.5745483,0.17512383,0.15255436,0.7848268,0.0,0.0,0.0,1.0,0.0,0.0,0.0,0.0,0.0,0.0,-3.669909,-0.14958349,0.19418475,0.0,0.0,0.0,0.0,0.0,0.0,0.0
0.0,0.0,0.0,0.0,0.0,0.0,0.0,0.0,0.0,0.0,0.0,0.0,0.0,0.0,1.7802359,-1.0646509,-1.8151424,-1.1170107,1.9373155,1.1170107,-0.91629785,1.7802359,-1.0646509,-1.8151424,-1.1170107,1.9373155,1.1170107,-0.91629785,0.0,0.0,0.0,0.0,0.0,0.0,0.0,3.019909,-0.25041652,0.35581526,-3.163348,-0.20484641,5.289252,0.5304184,-0.4544952,0.693097,0.5745483,0.17512383,0.15255436,0.7848268,0.0,0.0,0.0,1.0,0.0,0.0,0.0,0.0,0.0,0.0,-3.669909,-0.14958349,0.19418475,0.0,0.0,0.0,0.0,0.0,0.0,0.0
-176.0,83.18032,-0.31019402,110.0,11.025408,5.359708,-3.8279119,-0.8290894,0.42319053,-0.53385246,0.724581,0.36359856,0.62854254,-0.58247596,1.6973269,-1.0223318,-1.8685277,-1.0445526,1.9736754,1.179865,-0.9745455,1.7785727,-1.061807,-1.8210685,-1.1129519,1.9446225,1.1226374,-0.9197044,-0.22155909,0.3784917,-0.7894452,0.5413839,0.9732494,0.7478497,-0.45347998,2.9883003,-0.25246358,0.40793166,-3.1601853,-0.20464161,5.185777,0.52808,-0.45771885,0.69409525,0.5788422,0.17364196,0.15046857,0.7823998,-0.3118099,-0.42995155,0.13282652,1.0,0.0,0.0,0.0,0.0,0.0,0.0,-3.6383004,-0.14753643,0.14206836,-22.120745,37.620907,-78.660835,54.18116,96.965836,74.06332,-45.15679
-176.0,19.39419,-25.324404,110.0,11.149252,3.0402799,-3.0958402,-0.8073326,0.08873564,-0.5333357,0.69505984,0.45523068,0.63096094,-0.62207043,1.6978394,-1.0529335,-1.874402,-1.043446,1.9901456,1.1857334,-0.9819114,1.7757555,-1.0569605,-1.8354614,-1.1012942,1.95855,1.1356531,-0.923994,-0.30005047,0.518006,-1.6560127,1.3758793,1.5312308,1.4789732,-0.41796568,2.9567223,-0.25450826,0.4590141,-3.1570258,-0.204437,5.0824065,0.522892,-0.4656701,0.6957531,0.58796763,0.17023323,0.14607623,0.7771592,-0.5895876,-0.91549104,0.1773331,1.0,0.0,0.0,0.0,0.0,0.0,0.0,-3.6067224,-0.14549175,0.090985924,-7.335806,13.34753,-86.7168,84.078766,55.424213,70.940636,4.402423
-148.53416,118.704605,33.11455,90.83946,7.402052,7.4120364,-1.7500013,-0.7737704,0.3768792,0.030933034,0.5813195,0.49029744,0.64711994,-0.58400136,1.6983784,-1.0192726,-1.832368,-1.0431622,2.0075798,1.2003652,-0.98239416,1.7695547,-1.0508112,-1.8502166,-1.0858637,1.9737306,1.1502196,-0.9282798,-0.72735405,0.6438548,-1.4082807,1.5996085,1.5091337,1.4416081,-0.4342731,2.9251747,-0.25655103,0.50906354,-3.1538694,-0.2042326,4.979139,0.51478577,-0.47621036,0.69924325,0.5999439,0.16518947,0.14060724,0.77007097,-0.8914694,-1.0940099,0.41051924,1.0,0.0,0.0,0.0,0.0,0.0,0.0,-3.5751748,-0.14344898,0.04093647,-42.918037,11.573386,26.854849,22.623993,-3.5507917,-6.0381174,-2.3000538
-92.341805,123.26121,43.994247,58.536037,4.069062,7.2541256,-0.61057776,-0.7872439,0.3557329,0.010562697,0.59067404,0.48057988,0.6222242,-0.5914283,1.6908303,-1.0152379,-1.8491603,-1.0267963,2.0217886,1.2124419,-0.98742265,1.7593104,-1.0440153,-1.8603599,-1.0701567,1.9872746,1.1636645,-0.9326505,-1.125076,0.68900853,-0.87545377,1.5613939,1.2986059,1.307744,-0.44088826,2.8936577,-0.2585919,0.5580811,-3.1507163,-0.20402841,4.875974,0.50421906,-0.48731065,0.70482427,0.61297846,0.15866947,0.13469712,0.7621929,-1.1225883,-1.1046121,0.6125026,1.0,0.0,0.0,0.0,0.0,0.0,0.0,-3.5436578,-0.14140812,-0.0080810785,-40.19866,3.7649632,55.514587,-3.7521124,-22.31164,-14.741135,-1.5506327
-35.165962,130.80898,51.548534,31.177118,1.2446728,6.329504,0.13987543,-0.800431,0.4471255,0.034850646,0.5741428,0.5398027,0.6080697,-0.58133703,1.6792673,-0.99930274,-1.8568748,-1.0127424,2.041255,1.2244714,-0.9907842,1.7459093,-1.0366701,-1.8649814,-1.0559107,1.9986463,1.1756369,-0.93707746,-1.4133008,0.74802244,-0.31823748,1.3785871,1.0801965,1.1585386,-0.44619069,2.8621712,-0.26063085,0.60606784,-3.147566,-0.20382443,4.772913,0.49201584,-0.49763417,0.7121824,0.62587076,0.15087481,0.12869023,0.75429523,-1.2653903,-0.99450064,0.78017944,1.0,0.0,0.0,0.0,0.0,0.0,0.0,-3.5121713,-0.13936916,-0.056067824,-29.318428,5.382991,57.610023,-18.432379,-22.750378,-15.495706,-1.3936758
1.2345521,122.14794,47.989685,14.59438,-0.3943612,4.599409,0.3449015,-0.81702685,0.5113306,0.03309845,0.58452123,0.5574313,0.59312606,-0.5904842,1.6642066,-0.98553705,-1.8616716,-0.9974586,2.0543895,1.2349495,-0.9961259,1.7306162,-1.0285944,-1.8652828,-1.0435187,2.0082483,1.1862475,-0.9415464,-1.5694014,0.82634234,0.070339784,1.1920527,0.91875654,1.0279912,-0.44929677,2.830719,-0.26266742,0.6530247,-3.1444192,-0.20362064,4.6699553,0.47896194,-0.50659037,0.7208303,0.63811994,0.14219838,0.12293103,0.7466395,-1.330021,-0.8478051,0.89390135,1.0,0.0,0.0,0.0,0.0,0.0,0.0,-3.480719,-0.13733259,-0.10302466,-16.00964,7.493043,40.137867,-18.858791,-16.646492,-13.184118,-0.980252
23.496576,117.826645,45.168045,6.5564895,-1.1917682,3.3465712,0.34837288,-0.8232599,0.58647805,0.07986626,0.5783922,0.5891538,0.59671855,-0.58647126,1.6482903,-0.96994656,-1.8572961,-0.98567945,2.0671637,1.2459193,-1.0001935,1.714564,-1.0195211,-1.8629463,-1.0326372,2.0168009,1.1957175,-0.94603056,-1.6180828,0.9333468,0.29098266,1.0528904,0.8332245,0.92023253,-0.45003244,2.7993011,-0.26470208,0.69895273,-3.1412754,-0.20341706,4.5670996,0.46562958,-0.5140319,0.7304127,0.6496316,0.13296697,0.11764351,0.7392283,-1.3427728,-0.6942472,0.97870684,1.0,0.0,0.0,0.0,0.0,0.0,0.0,-3.4493012,-0.13529792,-0.14895272,-5.1851034,10.454941,22.95714,-14.1151905,-8.819652,-10.72371,-0.6196976
34.936485,112.99127,42.521492,3.4531226,-1.4146525,2.5384753,0.3091258,-0.8149994,0.63813674,0.15381013,0.5709477,0.5993216,0.6005501,-0.57833993,1.633064,-0.95570743,-1.8475653,-0.9755425,2.076733,1.2557725,-1.0038645,1.6985651,-1.0093263,-1.8592021,-1.0226942,2.024907,1.2042586,-0.950509,-1.5946473,1.0476322,0.404413,0.974306,0.8024252,0.83242726,-0.4486154,2.7679138,-0.26673484,0.74385303,-3.1381347,-0.20321369,4.464347,0.45238113,-0.5200038,0.7407341,0.6604526,0.123353116,0.11287431,0.73201483,-1.3265827,-0.5491331,1.048111,1.0,0.0,0.0,0.0,0.0,0.0,0.0,-3.417914,-0.13326517,-0.19385302,2.0994425,11.238968,12.015075,-8.023334,-3.237331,-8.67784,-0.32307506
34.17553,104.590645,37.907272,3.9749994,-1.2306025,1.9763519,0.21113704,-0.8157055,0.6831662,0.1815359,0.5596905,0.6068866,0.6137104,-0.56837845,1.6169946,-0.9410097,-1.8410486,-0.9667252,2.0855958,1.2656296,-1.0073469,1.6829993,-0.99803674,-1.8548934,-1.0131918,2.0329523,1.2120501,-0.9549598,-1.5445015,1.1555547,0.44124264,0.9418844,0.8047387,0.761719,-0.4452615,2.736557,-0.26876545,0.7877266,-3.1349974,-0.20301051,4.361697,0.43932724,-0.52468824,0.7516323,0.6707071,0.11347787,0.10859632,0.7249011,-1.3025651,-0.42581347,1.1012305,1.0,0.0,0.0,0.0,0.0,0.0,0.0,-3.386557,-0.13123456,-0.23772657,4.8286676,10.643387,4.1950703,-3.3743978,0.14168024,-6.9865346,-0.05093813
28.6236,90.9534,31.51185,4.6957483,-0.8948751,1.4435053,0.14590035,-0.80876595,0.70437735,0.1830236,0.5450457,0.63022846,0.6180717,-0.56142527,1.6021227,-0.927599,-1.8365911,-0.95868725,2.0959752,1.2738572,-1.0111023,1.667956,-0.9858612,-1.8505867,-1.0038363,2.0411844,1.2192351,-0.9593696,-1.4914932,1.2378995,0.42848063,0.9330885,0.8294071,0.7043563,-0.44067764,2.7052307,-0.2707939,0.83057433,-3.1318629,-0.20280755,4.2591505,0.42650223,-0.5283437,0.762886,0.6805129,0.10349277,0.104723476,0.71779126,-1.2787565,-0.3296668,1.1305832,1.0,0.0,0.0,0.0,0.0,0.0,0.0,-3.3552308,-0.12920609,-0.28057432,5.1545143,8.127689,-0.88973045,-1.0183215,2.4274588,-5.6610584,0.1379013
20.309565,78.38429,25.623713,6.33967,-0.5219402,1.0925169,0.07229597,-0.80626625,0.7236121,0.17027049,0.5398889,0.63718456,0.6278807,-0.54906046,1.5873294,-0.91349995,-1.8335596,-0.9498474,2.104903,1.2820232,-1.0142757,1.6533419,-0.97305715,-1.8466194,-0.9944777,2.0496988,1.2259318,-0.963726,-1.4518774,1.2942597,0.38714442,0.93629783,0.85902226,0.6583303,-0.43480402,2.673935,-0.27282047,0.8723974,-3.1287317,-0.20260479,4.156706,0.41386414,-0.53122663,0.77428555,0.6899791,0.09352755,0.101175584,0.7105947,-1.2617818,-0.25867712,1.139965,1.0,0.0,0.0,0.0,0.0,0.0,0.0,-3.323935,-0.12717953,-0.3223974,3.8353205,5.5606365,-3.8320184,0.16305447,2.966404,-4.5411468,0.31414032
13.11021,66.29419,20.289124,7.3286777,-0.24246734,0.7862843,0.02090062,-0.80139613,0.72884834,0.14492506,0.535883,0.6355082,0.6346254,-0.53865635,1.5732023,-0.9001723,-1.8321269,-0.94088936,2.1132495,1.2893943,-1.0175916,1.6390101,-0.95989645,-1.8431861,-0.98506874,2.058465,1.2322375,-0.9680185,-1.427413,1.3231571,0.3294428,0.94182664,0.88309705,0.6215529,-0.4281606,2.6426697,-0.27484512,0.91319686,-3.1256037,-0.20240222,4.0543637,0.40135193,-0.53355455,0.7856357,0.69918835,0.08368914,0.097901456,0.7032404,-1.2504923,-0.2082711,1.130157,1.0,0.0,0.0,0.0,0.0,0.0,0.0,-3.2926698,-0.12515488,-0.36319685,2.3299456,2.8419256,-5.5283427,0.36336184,2.4478912,-3.608203,0.42343736
9.58794,60.173935,17.912619,7.177763,-0.1133703,0.6961272,0.060329445,-0.808162,0.73568654,0.15042503,0.5013633,0.6528487,0.6358007,-0.53961205,1.5581939,-0.8863278,-1.8281436,-0.9349324,2.12375,1.2958175,-1.0219797,1.6247755,-0.94657934,-1.8402145,-0.97576755,2.0674677,1.2382284,-0.9722499,-1.4223337,1.3344393,0.28724644,0.9254113,0.9062243,0.59186983,-0.42230052,2.611435,-0.27686763,0.9529736,-3.1224787,-0.20219986,3.952124,0.38891602,-0.5354295,0.7968113,0.7081393,0.07403974,0.094827265,0.6957475,-1.2429408,-0.16457179,1.1101897,1.0,0.0,0.0,0.0,0.0,0.0,0.0,-3.261435,-0.12313238,-0.4029736,0.3779173,1.0914564,-3.9601266,-1.8572211,2.3543358,-2.8851628,0.3522396
13.807183,61.004524,19.078493,4.9417167,-0.28827962,0.73597264,0.19455168,-0.7974639,0.7435377,0.1832801,0.45804605,0.66158444,0.63824165,-0.5373234,1.5450292,-0.8722256,-1.8218865,-0.92996293,2.1336262,1.3020526,-1.0259823,1.6105696,-0.93320596,-1.8373668,-0.96684784,2.0766726,1.2439677,-0.9764289,-1.4206133,1.3381342,0.28499067,0.8800362,0.92554367,0.5682527,-0.4173646,2.5802307,-0.278888,0.9917287,-3.1193569,-0.2019977,3.849987,0.37659073,-0.53678703,0.8077866,0.71672213,0.06455644,0.091873005,0.6882594,-1.2292548,-0.11064434,1.0901797,1.0,0.0,0.0,0.0,0.0,0.0,0.0,-3.2302308,-0.12111202,-0.4417287,0.025606155,0.33187866,0.10482669,-4.765594,1.9479036,-2.2444367,0.23543835
15.502808,61.946846,19.59338,4.3136845,-0.38076872,0.73839176,0.23929237,-0.7950018,0.7519779,0.18221983,0.4351511,0.66423947,0.64261234,-0.52820957,1.5310694,-0.85800815,-1.8191448,-0.92333275,2.1430964,1.3082289,-1.0292499,1.5963656,-0.9197973,-1.8344257,-0.9584612,2.08603,1.2495085,-0.98055834,-1.4207941,1.3416547,0.29840833,0.82416975,0.939285,0.5496582,-0.41242895,2.549057,-0.28090644,1.0294633,-3.116238,-0.20179574,3.7479522,0.36442947,-0.5375738,0.8185691,0.72487575,0.05519953,0.08901158,0.6808707,-1.21194,-0.052578438,1.0711644,1.0,0.0,0.0,0.0,0.0,0.0,0.0,-3.199057,-0.11909357,-0.47946328,-0.1680851,0.31692982,1.6900659,-5.810261,1.3884187,-1.7247558,0.23283958
17.640171,63.184696,20.122084,3.5186386,-0.5063242,0.70397043,0.2811981,-0.79301286,0.7592274,0.19088851,0.39781815,0.66821957,0.6333883,-0.51300955,1.5170643,-0.8438746,-1.8153368,-0.9186794,2.152852,1.3128474,-1.0318593,1.5821635,-0.9063343,-1.8312767,-0.95070785,2.0954943,1.2548834,-0.9846334,-1.4207344,1.3477805,0.32162967,0.7583998,0.94899064,0.53390914,-0.4067212,2.5179214,-0.28292298,1.0661782,-3.1131225,-0.201594,3.6460195,0.35248184,-0.5377426,0.82916826,0.732562,0.045944795,0.08625271,0.6736485,-1.1893343,0.009753316,1.0528715,1.0,0.0,0.0,0.0,0.0,0.0,0.0,-3.1679215,-0.11707702,-0.5161782,-0.1442194,0.5818844,2.6750445,-6.793058,0.98814964,-1.4163375,0.31244755
19.839336,64.33305,20.598099,2.6944227,-0.6289193,0.659178,0.31952983,-0.79098743,0.76587075,0.20868291,0.35349974,0.6745432,0.64336133,-0.5083759,1.5030648,-0.8297472,-1.8104084,-0.9153579,2.1629486,1.3192196,-1.035471,1.567969,-0.89278734,-1.8278377,-0.9436783,2.1050425,1.2601305,-0.9886531,-1.4194437,1.3568838,0.3526583,0.683695,0.95703447,0.5221933,-0.40123075,2.4868164,-0.28493762,1.1018746,-3.11001,-0.20139244,3.5441883,0.3407898,-0.53725815,0.83959025,0.73975205,0.036773007,0.08360748,0.6666516,-1.161215,0.07576286,1.0350462,1.0,0.0,0.0,0.0,0.0,0.0,0.0,-3.1368165,-0.115062386,-0.5518746,-0.01797676,0.8857012,3.4514904,-7.6762557,0.8301258,-0.98747015,0.29646754
22.949642,65.813805,21.339373,1.6076288,-0.77926767,0.6039135,0.37077186,-0.7833339,0.77215344,0.2384438,0.3070678,0.6731134,0.64137137,-0.49506837,1.4896356,-0.815572,-1.8039933,-0.91297156,2.1723537,1.3242676,-1.03816,1.5538241,-0.8791336,-1.8240039,-0.937447,2.114644,1.2652785,-0.99261373,-1.4133335,1.3680849,0.39489102,0.6022983,0.9616029,0.5129004,-0.39516303,2.455742,-0.28694987,1.1365534,-3.1069007,-0.20119108,3.442459,0.3294258,-0.5360756,0.8498445,0.74640423,0.027661944,0.08108175,0.6599555,-1.1259722,0.1462815,1.018403,1.0,0.0,0.0,0.0,0.0,0.0,0.0,-3.105742,-0.11305013,-0.5865534,0.4741907,1.1029005,4.5600533,-8.329296,0.49136877,-0.7155776,0.35986304
26.328775,64.15759,20.727108,-1.3077073,-1.0710967,0.38227487,0.452399,-0.7868143,0.7787349,0.254809,0.21155873,0.6785711,0.64004207,-0.48646158,1.4751426,-0.8012601,-1.7985231,-0.9162911,2.182501,1.3292826,-1.0412599,1.539723,-0.8653587,-1.8197467,-0.93228763,2.1242914,1.2703501,-0.99651235,-1.4096527,1.3806099,0.4370383,0.4865382,0.9660953,0.5060197,-0.38886917,2.4246979,-0.28896022,1.1702157,-3.1037943,-0.20098993,3.3408315,0.31851196,-0.5341563,0.8598628,0.75245345,0.018676877,0.07872015,0.6536574,-1.0780001,0.22007117,0.9921497,1.0,0.0,0.0,0.0,0.0,0.0,0.0,-3.074698,-0.11103979,-0.6202157,0.23248196,1.2500525,4.5350432,-11.766476,0.4929185,-0.39892197,0.40214062
30.17242,62.31574,20.187788,-4.3994875,-1.355888,0.13786061,0.54267216,-0.78458697,0.7836085,0.28302702,0.11373144,0.6841687,0.6330763,-0.48158622,1.4612644,-0.78699785,-1.7914441,-0.9209145,2.1927083,1.3336577,-1.0446709,1.5256563,-0.8514637,-1.8150413,-0.9285349,2.1339884,1.2753607,-1.0003498,-1.4061952,1.3926132,0.48268732,0.33765766,0.9714884,0.50058895,-0.38275403,2.3936844,-0.29096866,1.2028625,-3.1006913,-0.20078899,3.2393055,0.30817032,-0.5314789,0.86955035,0.7578274,0.009917066,0.07656839,0.6478708,-1.0162102,0.2959006,0.9566488,1.0,0.0,0.0,0.0,0.0,0.0,0.0,-3.0436845,-0.10903135,-0.6528625,0.22199154,1.2149811,4.8538923,-15.070671,0.59865713,-0.17865896,0.4073143
32.68105,59.607754,19.284101,-6.5565596,-1.5355234,-0.11104384,0.5967578,-0.7781653,0.78510493,0.30642334,0.024095714,0.6846193,0.6376881,-0.46965352,1.4478399,-0.77295315,-1.7843989,-0.92612535,2.2024503,1.3391296,-1.0473151,1.511643,-0.83747137,-1.8098838,-0.92640823,2.143735,1.2803313,-1.0041225,-1.3999859,1.4015162,0.527487,0.17045616,0.9760505,0.49726313,-0.37606615,2.3627014,-0.2929752,1.2344948,-3.0975912,-0.20058824,3.137881,0.29851913,-0.5280533,0.87882775,0.76248366,0.0014632609,0.07465614,0.6426842,-0.9436594,0.36922833,0.9133836,1.0,0.0,0.0,0.0,0.0,0.0,0.0,-3.0127015,-0.10702482,-0.6844948,0.52433014,0.9253502,4.703939,-16.885027,0.54268837,0.088614225,0.49757957
30.802788,56.95975,18.207937,-5.6329465,-1.4004481,-0.23562674,0.56972826,-0.7779806,0.78385603,0.33290428,-0.037438326,0.6846664,0.6344788,-0.44878104,1.433845,-0.7590858,-1.7765934,-0.93015206,2.2122016,1.3437791,-1.0490006,1.4976851,-0.82342756,-1.8042762,-0.9258713,2.1535196,1.2852713,-1.007817,-1.3945781,1.4056172,0.57230806,0.014270569,0.9796399,0.49445465,-0.36790204,2.331749,-0.29497957,1.2651136,-3.0944943,-0.20038769,3.036558,0.28957748,-0.5239563,0.88767,0.76645344,-0.0066576563,0.072973266,0.6381063,-0.8725152,0.43336618,0.869614,1.0,0.0,0.0,0.0,0.0,0.0,0.0,-2.981749,-0.10502043,-0.7151136,0.47240257,0.46367645,4.6222687,-15.760097,0.48525333,0.13771653,0.67884326
31.581593,55.25586,17.599766,-6.603537,-1.4766166,-0.40320933,0.59872204,-0.77682483,0.7879464,0.36105677,-0.14706722,0.68803763,0.6309257,-0.42958626,1.4200026,-0.7446329,-1.7681706,-0.94057804,2.2223234,1.3483639,-1.0507756,1.4837748,-0.8093475,-1.798209,-0.92698234,2.1633425,1.2901865,-1.0114238,-1.3900701,1.409025,0.6182793,-0.153271,0.98345476,0.49210048,-0.35847977,2.300827,-0.2969818,1.2947199,-3.0914004,-0.20018734,2.9353364,0.2813797,-0.5192313,0.8960476,0.7697441,-0.014404334,0.071526594,0.63416904,-0.7957702,0.49436697,0.82190466,1.0,0.0,0.0,0.0,0.0,0.0,0.0,-2.9508271,-0.103018194,-0.7447199,0.40693283,0.40986538,4.6752214,-16.871265,0.5345106,0.20694733,0.8376777
31.200989,55.225407,17.621359,-5.967907,-1.4209884,-0.4625877,0.59510803,-0.77054584,0.7918174,0.39363328,-0.22202787,0.68901306,0.62890774,-0.39224717,1.4067202,-0.7301658,-1.7588456,-0.94918513,2.2322438,1.3530773,-1.0506486,1.4699255,-0.79522836,-1.7916534,-0.92970127,2.1731997,1.2950789,-1.0149162,-1.3832884,1.4132098,0.66808975,-0.3117115,0.9869934,0.48993716,-0.3462201,2.2699356,-0.29898214,1.3233149,-3.0883098,-0.1999872,2.8342159,0.27395248,-0.513916,0.9039694,0.77237153,-0.021773333,0.07031181,0.63089174,-0.7190425,0.55188644,0.7769554,1.0,0.0,0.0,0.0,0.0,0.0,0.0,-2.9199357,-0.10101786,-0.7733149,0.66256523,0.5036831,4.9827814,-15.931005,0.5472183,0.22132397,1.1502922
29.331888,55.992424,17.928461,-3.8593311,-1.2265418,-0.43091127,0.55977917,-0.7632982,0.79546154,0.42838284,-0.273669,0.6939999,0.62825423,-0.34461612,1.3935957,-0.7156822,-1.7488151,-0.95706815,2.2425997,1.3579043,-1.0493778,1.4561678,-0.78105867,-1.78456,-0.93381256,2.1830988,1.2999521,-1.0182579,-1.373409,1.4185786,0.722704,-0.44449392,0.99197596,0.48783526,-0.33028552,2.2390747,-0.30098057,1.3508995,-3.085222,-0.19978726,2.7331965,0.26723862,-0.508049,0.91150093,0.7743763,-0.028825473,0.0692912,0.62825876,-0.6482961,0.60504615,0.7394951,1.0,0.0,0.0,0.0,0.0,0.0,0.0,-2.8890748,-0.09901944,-0.80089945,0.9957075,0.6395817,5.3809047,-13.3404255,0.74350834,0.20424724,1.5407681
24.759403,54.75136,17.394783,-0.46296072,-0.8858553,-0.36798275,0.4790111,-0.7627084,0.79206854,0.45959747,-0.30595005,0.6884154,0.63238335,-0.28698033,1.379897,-0.70185184,-1.7386003,-0.96440756,2.2519403,1.3631905,-1.046956,1.442494,-0.76686037,-1.7769077,-0.9389805,2.1930285,1.3048083,-1.0214088,-1.3652418,1.4206011,0.77911365,-0.5411545,0.99420035,0.4860662,-0.31015527,2.2082443,-0.3029771,1.3774745,-3.0821376,-0.19958751,2.6322782,0.26113892,-0.50170994,0.9187141,0.7758395,-0.03563766,0.0684122,0.6261969,-0.58980995,0.64963585,0.7093498,1.0,0.0,0.0,0.0,0.0,0.0,0.0,-2.8582444,-0.09702292,-0.82747453,0.82981586,0.31929016,5.4985285,-9.726763,0.51174164,0.19652843,1.9721746
18.86847,54.534134,17.07144,4.24224,-0.46530184,-0.22724625,0.34748113,-0.7617895,0.7957464,0.48418307,-0.3065311,0.68542165,0.6308757,-0.25353968,1.3663151,-0.6872857,-1.7284894,-0.96963364,2.2615707,1.3678958,-1.0467627,1.4288813,-0.75263727,-1.7687175,-0.9447531,2.202962,1.3096434,-1.0243499,-1.3598249,1.4233011,0.83158606,-0.58954644,0.99448186,0.48387986,-0.28880176,2.1774445,-0.30497146,1.4030411,-3.079056,-0.19938797,2.5314605,0.25549698,-0.49498296,0.925713,0.7768825,-0.042323228,0.06762938,0.62457055,-0.548196,0.6858921,0.6905632,1.0,0.0,0.0,0.0,0.0,0.0,0.0,-2.8274446,-0.09502855,-0.8530411,0.5425215,0.40175915,5.05749,-4.910469,0.36053658,0.10073781,2.1005511
17.011528,52.53745,16.274626,5.2243214,-0.38070464,-0.2828104,0.3106751,-0.7582826,0.7956705,0.50295925,-0.34814048,0.6799228,0.6269217,-0.2009939,1.353053,-0.6730702,-1.7184216,-0.97956717,2.2709541,1.3723356,-1.0444493,1.4153162,-0.7383951,-1.760062,-0.9509272,2.2128763,1.3144556,-1.0270565,-1.3551742,1.4249977,0.8761414,-0.6270091,0.9917176,0.481411,-0.2648595,2.146675,-0.30696368,1.4276003,-3.0759776,-0.19918862,2.430744,0.25024414,-0.4879241,0.932525,0.77756876,-0.04891048,0.066945896,0.6233079,-0.50944823,0.7175903,0.67165154,1.0,0.0,0.0,0.0,0.0,0.0,0.0,-2.7966752,-0.093036324,-0.87760025,0.46379566,0.30591488,4.2568684,-3.8226485,0.056946278,0.059449673,2.365154
14.393478,49.999054,15.158324,6.618611,-0.2337336,-0.34173587,0.25099874,-0.7566444,0.7967098,0.5094366,-0.35878605,0.6865575,0.6263252,-0.15917937,1.3396518,-0.6587241,-1.7091184,-0.9868058,2.281532,1.3770882,-1.0429744,1.4017893,-0.72413766,-1.7510726,-0.95736736,2.222783,1.319245,-1.029515,-1.3517386,1.4265083,0.90595526,-0.6501012,0.99142426,0.47896245,-0.2396925,2.1159363,-0.308954,1.451153,-3.0729022,-0.19898947,2.330128,0.24534988,-0.4805982,0.93914855,0.777957,-0.055393234,0.06637241,0.6223416,-0.47551194,0.7424525,0.6527514,1.0,0.0,0.0,0.0,0.0,0.0,0.0,-2.7659364,-0.091046005,-0.901153,0.33185482,0.29056072,2.7866125,-2.3995996,0.2963543,0.0397861,2.4904757
12.04114,46.379154,13.6295805,7.2129097,-0.15341473,-0.44561547,0.20563,-0.76236475,0.79470444,0.5137331,-0.37812957,0.68230057,0.62223583,-0.120752394,1.3255528,-0.6446672,-1.6996993,-0.9951803,2.2910132,1.3814685,-1.0415902,1.3882567,-0.7098793,-1.741885,-0.96402496,2.2326746,1.3240076,-1.031718,-1.353703,1.4260777,0.92240787,-0.6713961,0.98975366,0.4762525,-0.21398608,2.085228,-0.3109424,1.4737004,-3.06983,-0.19879052,2.2296126,0.24076462,-0.47307158,0.94555706,0.7781022,-0.061734967,0.06593764,0.6216091,-0.44386095,0.76047033,0.63019556,1.0,0.0,0.0,0.0,0.0,0.0,0.0,-2.735228,-0.089057595,-0.9237004,-0.22377968,0.094389915,1.4747739,-2.2365808,0.13756752,-0.003951788,2.546513
9.746503,44.8453,13.01405,8.7729845,-0.003884375,-0.44580352,0.15478218,-0.7644718,0.7956782,0.52341866,-0.3707055,0.6831929,0.6205334,-0.082440354,1.3118095,-0.6303115,-1.6895431,-1.0010955,2.300994,1.386061,-1.039962,1.3746859,-0.6956247,-1.7325752,-0.9707913,2.2425585,1.3287436,-1.0336635,-1.358479,1.4257528,0.93329597,-0.6788708,0.9886583,0.47346812,-0.18795337,2.0545502,-0.31292892,1.4952433,-3.0667608,-0.19859177,2.1291976,0.23645782,-0.46539497,0.9517582,0.77805734,-0.06793994,0.06564171,0.62104917,-0.41777262,0.7741123,0.6099936,1.0,0.0,0.0,0.0,0.0,0.0,0.0,-2.7045503,-0.08707109,-0.9452433,-0.5209923,0.10817051,0.92475414,-0.86790323,0.19528866,-0.034314394,2.5792212
8.7542925,42.39635,12.157798,9.170716,0.04987675,-0.5150437,0.13522714,-0.76369464,0.7912962,0.5242917,-0.37382537,0.6742289,0.62300265,-0.025368663,1.2983165,-0.6164951,-1.680146,-1.0081738,2.3099813,1.3910439,-1.0362004,1.3610712,-0.681394,-1.7232025,-0.977591,2.2524042,1.3334547,-1.0353324,-1.3626107,1.422648,0.93788356,-0.68079287,0.98430187,0.4712038,-0.15985073,2.023903,-0.3149135,1.515783,-3.0636945,-0.19839321,2.0288832,0.2324028,-0.45761013,0.95774925,0.7778528,-0.07400708,0.0654951,0.6206273,-0.39274985,0.7837329,0.5885947,1.0,0.0,0.0,0.0,0.0,0.0,0.0,-2.673903,-0.085086495,-0.96578294,-0.4607916,-0.17054081,0.30418634,-0.32348633,-0.1414299,0.007247925,2.7829857
8.567568,40.01348,11.3279295,8.564038,0.027760863,-0.6190883,0.14172374,-0.7713693,0.78820854,0.5266297,-0.39704183,0.67736584,0.62251127,0.00032537477,1.2839344,-0.60257316,-1.6705395,-1.0172951,2.3201408,1.3957058,-1.0352999,1.3473898,-0.6672081,-1.713805,-0.9844908,2.2622156,1.3381468,-1.0367267,-1.3702459,1.4176974,0.9398907,-0.6934396,0.981206,0.46922845,-0.13278647,1.9932861,-0.31689596,1.53532,-3.0606315,-0.19819486,1.9286687,0.2286148,-0.44974732,0.963495,0.7774948,-0.07989617,0.06550889,0.62034416,-0.36558524,0.7905555,0.56305593,1.0,0.0,0.0,0.0,0.0,0.0,0.0,-2.6432862,-0.083104044,-0.98532003,-0.81539154,-0.35994053,0.06905794,-1.3979554,-0.036633015,0.032162666,2.681291
5.6821117,38.369286,10.784318,10.945066,0.26379347,-0.5550082,0.09460288,-0.7778007,0.78349847,0.5283652,-0.36170536,0.66798276,0.6313027,0.10412537,1.2696097,-0.58885825,-1.6609684,-1.0206614,2.3290138,1.4012771,-1.0263141,1.3336111,-0.653087,-1.704396,-0.99134296,2.2719812,1.3428255,-1.0378025,-1.3805948,1.4106743,0.94082487,-0.6830496,0.97555685,0.4681925,-0.0993143,1.9626999,-0.31887627,1.5538558,-3.0575714,-0.1979967,1.8285544,0.22502899,-0.44184828,0.96902496,0.7770176,-0.08564309,0.06566253,0.62015903,-0.34753376,0.79287165,0.5427258,1.0,0.0,0.0,0.0,0.0,0.0,0.0,-2.6127,-0.08112374,-1.0038557,-1.1097431,-0.56340694,-0.0338912,0.8839965,-0.2791643,0.096827745,3.314589
1.5343285,36.806923,10.29729,14.687761,0.6243602,-0.40999556,0.013291482,-0.7874674,0.77690965,0.52994335,-0.30829665,0.65949374,0.6420343,0.19797897,1.2548643,-0.57539606,-1.6514016,-1.0221726,2.3379307,1.4070289,-1.0180045,1.3196989,-0.6390556,-1.6949775,-0.9978165,2.2816706,1.3475024,-1.0385025,-1.39501,1.4011595,0.9419087,-0.63608646,0.967728,0.46810502,-0.06043064,1.9321442,-0.32085466,1.5713911,-3.0545146,-0.19779874,1.7285402,0.22151184,-0.43396354,0.97442,0.77648497,-0.09135296,0.06591185,0.61998487,-0.34410608,0.7901171,0.5315783,1.0,0.0,0.0,0.0,0.0,0.0,0.0,-2.5821443,-0.07914534,-1.0213912,-1.5525103,-0.8067608,-0.016093254,4.5100927,-0.472188,0.15215874,3.8447409
-0.0051651,36.358673,10.264569,16.53199,0.7833817,-0.3439658,-0.024629727,-0.7933853,0.7749692,0.5278617,-0.27599826,0.66074145,0.65068674,0.26020783,1.2403604,-0.56155866,-1.6421914,-1.0254164,2.3477447,1.4125711,-1.0124817,1.3056399,-0.625111,-1.685559,-1.0036817,2.291295,1.3521849,-1.0388019,-1.4098866,1.3927193,0.9413434,-0.57069135,0.9617969,0.46886748,-0.019826526,1.901619,-0.32283115,1.5879271,-3.0514607,-0.19760099,1.628626,0.21798706,-0.42611146,0.97974473,0.7759363,-0.0971048,0.066218816,0.6197648,-0.34716144,0.78624266,0.525902,1.0,0.0,0.0,0.0,0.0,0.0,0.0,-2.551619,-0.07716885,-1.0379272,-1.6154051,-0.69749355,-0.17592907,6.344974,-0.2712369,0.2169311,4.013107
0.023339272,35.72522,10.128662,16.859838,0.78507787,-0.36923447,-0.046410244,-0.79706293,0.772035,0.5201985,-0.2471389,0.6533612,0.65237266,0.27905372,1.2259336,-0.5479075,-1.6335392,-1.0283955,2.3566313,1.4174222,-1.0108966,1.2914492,-0.6112417,-1.6761844,-1.0088563,2.3008547,1.356877,-1.0387199,-1.4223967,1.385551,0.93575233,-0.500476,0.9549758,0.46973848,0.017394269,1.8711243,-0.32480574,1.6034647,-3.04841,-0.19740343,1.5288117,0.2144165,-0.41829848,0.9850204,0.77539396,-0.10292562,0.066581786,0.6194654,-0.35022056,0.7824113,0.5213594,1.0,0.0,0.0,0.0,0.0,0.0,0.0,-2.5211244,-0.07519427,-1.0534647,-1.3795137,-0.57337284,-0.6691098,6.8306565,-0.3681779,0.21936297,3.6740918
0.37875652,36.31728,10.557422,17.391575,0.79532754,-0.3518336,-0.053360194,-0.80081546,0.77191424,0.520457,-0.20250475,0.6552622,0.6537663,0.31380695,1.2113676,-0.5340503,-1.6241387,-1.0291067,2.366381,1.4222536,-1.0073392,1.2771555,-0.597422,-1.6668651,-1.0132794,2.3103647,1.3615786,-1.0382812,-1.4321183,1.381334,0.9303518,-0.42357165,0.95076424,0.47058672,0.052487954,1.8406601,-0.3267784,1.6180049,-3.0453622,-0.19720607,1.4290972,0.21081924,-0.41050696,0.99027413,0.7748636,-0.10884613,0.0669947,0.61907244,-0.3539904,0.78073823,0.5200592,1.0,0.0,0.0,0.0,0.0,0.0,0.0,-2.4906602,-0.073221594,-1.0680048,-1.1012793,-0.279212,-0.64748526,7.508433,-0.104403496,0.20919442,3.461641
1.7821355,35.193443,10.428195,16.340477,0.7227401,-0.437568,-0.019718908,-0.8002332,0.76278925,0.5212026,-0.1768678,0.6537607,0.65640116,0.3427223,1.1971322,-0.5211431,-1.6147449,-1.0309662,2.3757408,1.4272187,-1.004009,1.2628027,-0.58366716,-1.657584,-1.016995,2.3198404,1.3662878,-1.0375106,-1.4366786,1.3739822,0.9270122,-0.35469168,0.94760764,0.47162026,0.085101984,1.8102264,-0.32874918,1.6315488,-3.0423174,-0.19700891,1.3294824,0.20721054,-0.4027288,0.9954952,0.77432096,-0.11485711,0.067444466,0.6186163,-0.3533917,0.77947706,0.5161472,1.0,0.0,0.0,0.0,0.0,0.0,0.0,-2.4602265,-0.071250826,-1.0815487,-0.5660057,-0.59945583,-0.43574572,6.7183313,-0.01540184,0.23370385,3.210236
1.0980854,35.474586,10.701047,17.817497,0.81331635,-0.37751067,-0.05570654,-0.8017743,0.7643103,0.51484936,-0.10775852,0.65218747,0.6607947,0.37070045,1.1826253,-0.5072361,-1.606099,-1.0277708,2.385059,1.4323673,-1.0004406,1.2484251,-0.5699657,-1.6483524,-1.0198941,2.3292933,1.3710085,-1.0364292,-1.4386805,1.3693264,0.9216349,-0.26890782,0.9453066,0.47277474,0.115504384,1.7798233,-0.3307178,1.6440972,-3.0392756,-0.19681193,1.2299672,0.20358276,-0.39495373,1.0007173,0.7737768,-0.12100455,0.06791149,0.61807376,-0.35726964,0.7794258,0.5176575,1.0,0.0,0.0,0.0,0.0,0.0,0.0,-2.4298234,-0.069282204,-1.0940971,-0.318408,-0.3288746,-0.64008236,8.410257,0.07945299,0.22764802,2.9874966
2.6182737,34.064777,10.243265,16.09944,0.66603327,-0.51905966,-0.022221409,-0.79920965,0.7589468,0.50462484,-0.094767004,0.6484447,0.6580027,0.39301047,1.1685041,-0.49407104,-1.5978899,-1.0293708,2.3941376,1.4368088,-0.9971281,1.2340533,-0.55631864,-1.6392105,-1.022059,2.3387156,1.3757406,-1.0350635,-1.4368114,1.3634998,0.911342,-0.19963042,0.94218546,0.47365415,0.14350496,1.7494507,-0.33268428,1.6556512,-3.036237,-0.19661516,1.1305516,0.1999588,-0.3871801,1.0059131,0.7732191,-0.12725717,0.06841647,0.6174601,-0.353929,0.77921957,0.51363647,1.0,0.0,0.0,0.0,0.0,0.0,0.0,-2.3994508,-0.06731573,-1.1056511,0.08869171,-0.4547119,-1.1180162,6.774002,-0.03130436,0.21185875,2.7481675
0.31846428,34.023422,10.521241,19.726385,0.9561611,-0.3531745,-0.1050164,-0.7895918,0.757021,0.49663478,0.021533897,0.6451271,0.6572458,0.4280054,1.155094,-0.48061654,-1.589547,-1.0199056,2.4032283,1.4414653,-0.99226296,1.219752,-0.54272497,-1.6301982,-1.0232015,2.3481035,1.3804766,-1.0334251,-1.4281971,1.358407,0.8975625,-0.086346306,0.93873805,0.47389567,0.17057538,1.7191086,-0.33464885,1.6662117,-3.0332012,-0.19641858,1.0312352,0.19628143,-0.3794086,1.0111579,0.7726841,-0.13371414,0.06891818,0.61670905,-0.36344418,0.77905405,0.5216078,1.0,0.0,0.0,0.0,0.0,0.0,0.0,-2.3691087,-0.06535116,-1.1162117,0.7498741,-0.37443638,-1.4897823,11.163987,-0.028300285,0.108247995,2.6474178
-0.4826851,30.12936,8.692858,18.526443,0.89734745,-0.5129901,-0.13351718,-0.80362785,0.75292224,0.4650551,0.028712709,0.64521503,0.6593006,0.40766636,1.1393892,-0.46743274,-1.5836928,-1.0203302,2.412625,1.4464066,-0.99265844,1.2054697,-0.5291885,-1.6214454,-1.0233712,2.3574648,1.3852164,-1.0315578,-1.4287053,1.3525356,0.8676259,0.0056724697,0.9358395,0.4741896,0.19170977,1.688797,-0.3366115,1.6757799,-3.0301688,-0.1962222,0.93201816,0.1925354,-0.37167907,1.0164193,0.7722161,-0.14033194,0.06944335,0.61576533,-0.36949992,0.77354264,0.5212241,1.0,0.0,0.0,0.0,0.0,0.0,0.0,-2.338797,-0.0633885,-1.1257799,-0.17716885,-0.46422482,-3.061545,9.032831,-0.007855892,0.11513233,2.060196
0.77462006,28.67171,8.206042,16.69971,0.7614219,-0.6441599,-0.09250074,-0.800682,0.74662465,0.4581177,0.050445877,0.64483535,0.65534246,0.41794956,1.1254015,-0.45452604,-1.5756336,-1.0183266,2.4219484,1.4507506,-0.98976284,1.191178,-0.51572645,-1.6129901,-1.0227857,2.3667994,1.3899561,-1.0295017,-1.4297117,1.3444986,0.8381031,0.07561652,0.933474,0.47416788,0.21008252,1.6585159,-0.33857226,1.6843567,-3.0271392,-0.19602603,0.8329003,0.18877411,-0.36400914,1.0216306,0.7718071,-0.14702603,0.07002403,0.6146493,-0.36877245,0.7675627,0.51480246,1.0,0.0,0.0,0.0,0.0,0.0,0.0,-2.308516,-0.061427742,-1.1343567,-0.21378994,-0.69053173,-2.999699,6.8380876,0.01732111,0.097465515,1.7852813
1.5596056,27.355986,7.6705,15.488574,0.65602714,-0.7586613,-0.07516618,-0.7959171,0.74304026,0.43310076,0.08445574,0.63843256,0.65695983,0.4375816,1.1115862,-0.4414224,-1.5696801,-1.01434,2.4306426,1.4556521,-0.9857435,1.1768938,-0.50234735,-1.6048782,-1.0215974,2.3760958,1.3946959,-1.0272701,-1.4282824,1.3361582,0.80212885,0.13284977,0.9291071,0.4743417,0.2272329,1.6282654,-0.3405311,1.6919429,-3.0241127,-0.19583003,0.73388153,0.18506241,-0.35640717,1.0267464,0.7714408,-0.15373677,0.07069075,0.6133896,-0.3629323,0.7606336,0.5043485,1.0,0.0,0.0,0.0,0.0,0.0,0.0,-2.2782655,-0.059468895,-1.141943,0.04236698,-0.7273674,-3.6347985,5.5751414,-0.2019763,0.12601614,1.6639024
1.1680017,24.88486,6.6732154,15.123598,0.6744705,-0.8513056,-0.08672587,-0.79528797,0.7354882,0.4021185,0.11866119,0.6399905,0.65278435,0.4459147,1.097365,-0.42879853,-1.5646664,-1.0097313,2.4400947,1.4599743,-0.9826786,1.1626307,-0.48906696,-1.5971935,-1.0198731,2.3853579,1.3994356,-1.0248821,-1.4260824,1.3256687,0.7572424,0.18500446,0.9260121,0.47410977,0.24260733,1.5980453,-0.34248805,1.6985397,-3.0210893,-0.19563425,0.63496184,0.18141556,-0.3489015,1.031738,0.77113044,-0.16042407,0.071455784,0.61197704,-0.35626268,0.7498414,0.49140826,1.0,0.0,0.0,0.0,0.0,0.0,0.0,-2.2480454,-0.057511955,-1.1485398,0.12381077,-0.9453535,-4.522741,5.0654144,-0.08511543,0.0867486,1.4890075
2.3861027,22.99515,5.4856367,11.982416,0.40693134,-1.0961589,-0.056892477,-0.806632,0.7359325,0.36257347,0.08602183,0.63690156,0.6523547,0.4366702,1.0819675,-0.4154737,-1.5609361,-1.011271,2.449048,1.4646711,-0.98121506,1.1483332,-0.4758681,-1.5900505,-1.0179391,2.3945856,1.4041735,-1.0223644,-1.4312247,1.3182452,0.70007324,0.19575685,0.9223139,0.47412774,0.25470057,1.5678558,-0.34444308,1.704148,-3.0180688,-0.19543865,0.536141,0.17792511,-0.34152746,1.0365144,0.77088404,-0.16694848,0.0723972,0.61042976,-0.33730498,0.7357528,0.4671515,1.0,0.0,0.0,0.0,0.0,0.0,0.0,-2.217856,-0.055556923,-1.1541481,-0.60896873,-0.6501913,-5.709946,0.9346038,-0.18949509,0.14098883,1.1699736
8.368139,24.9317,6.0619698,4.7058945,-0.25525177,-1.4745759,0.1379625,-0.8073326,0.7345877,0.36221856,-0.018252347,0.6361824,0.6535924,0.4319873,1.0675999,-0.40240932,-1.5538286,-1.0197643,2.4582038,1.4695327,-0.9791657,1.1339785,-0.46272504,-1.5833671,-1.0165238,2.403779,1.4089152,-1.0197437,-1.4369304,1.3132551,0.6580817,0.12312588,0.9183917,0.4750086,0.26420525,1.5376968,-0.3463962,1.7087691,-3.0150514,-0.19524325,0.437419,0.17485046,-0.33427048,1.0409046,0.7705992,-0.17306589,0.07361795,0.60893786,-0.28861806,0.7248537,0.42403594,1.0,0.0,0.0,0.0,0.0,0.0,0.0,-2.187697,-0.0536038,-1.1587691,-0.60453415,-0.42467117,-4.148233,-7.349071,-0.30230284,0.30061007,0.9177387
8.99212,24.494043,5.9947143,4.063238,-0.29275104,-1.553901,0.16351974,-0.8016466,0.7283071,0.3383812,-0.015566479,0.63006645,0.6510819,0.45134687,1.0538138,-0.38989434,-1.549529,-1.0180805,2.4667857,1.4740233,-0.974609,1.1196028,-0.44963968,-1.5770729,-1.0158772,2.4129229,1.4136645,-1.0170276,-1.4375829,1.3072199,0.6199303,0.044977352,0.9129005,0.47566062,0.27383444,1.5075684,-0.3483472,1.7124035,-3.012037,-0.19504805,0.33879572,0.1722908,-0.3271289,1.0448594,0.7702297,-0.17869823,0.07513928,0.60759133,-0.23679598,0.7124122,0.38052902,1.0,0.0,0.0,0.0,0.0,0.0,0.0,-2.1575685,-0.05165282,-1.1624036,-0.0698328,-0.5262852,-3.7866712,-7.886456,-0.46813488,0.27576685,0.93316436
10.972961,22.645338,4.901888,-0.20498657,-0.5831414,-1.868553,0.24249572,-0.8082157,0.72439086,0.30619693,-0.12568417,0.63281405,0.6530872,0.4589238,1.0387813,-0.3772006,-1.5464531,-1.0284457,2.4762042,1.4789732,-0.97113526,1.10521,-0.4366187,-1.5711925,-1.0163903,2.422021,1.4184233,-1.01422,-1.4397447,1.3006433,0.57769585,-0.083494805,0.9088936,0.47678515,0.28289375,1.4774704,-0.35029602,1.7150525,-3.0090256,-0.19485304,0.24027105,0.17036057,-0.32015467,1.0482776,0.76975125,-0.18368222,0.07700988,0.606476,-0.16903943,0.69351965,0.32371214,1.0,0.0,0.0,0.0,0.0,0.0,0.0,-2.1274705,-0.049703985,-1.1650524,-0.16188622,-0.5848408,-4.200864,-12.884962,-0.37772655,0.35396814,0.8904755
11.4971485,20.920713,4.101807,-2.05088,-0.6778037,-2.0401974,0.2732571,-0.8077852,0.718443,0.2841544,-0.20423146,0.6247597,0.6549109,0.46527743,1.0244315,-0.36477438,-1.5427771,-1.0368135,2.4844968,1.4839144,-0.96769226,1.0908056,-0.4236759,-1.5657356,-1.018353,2.4310617,1.4231936,-1.0113266,-1.4403502,1.2923849,0.53497577,-0.23388761,0.9027699,0.47797644,0.29131234,1.447403,-0.35224295,1.7167169,-3.006017,-0.19465823,0.14184488,0.1691742,-0.31340218,1.0510843,0.76915604,-0.18789195,0.079260014,0.60565126,-0.09467809,0.6692159,0.26128572,1.0,0.0,0.0,0.0,0.0,0.0,0.0,-2.097403,-0.04775706,-1.1667168,0.048470497,-0.7511854,-4.2822957,-15.050808,-0.6182432,0.35747886,0.8363664
10.750656,19.382528,3.807002,-1.3075752,-0.5525666,-2.0356665,0.27710527,-0.8011358,0.70695966,0.27583718,-0.256566,0.609967,0.65588886,0.49743354,1.0106921,-0.35297993,-1.5381519,-1.0440096,2.4920585,1.4887824,-0.9615832,1.0764319,-0.4108523,-1.5606391,-1.0217595,2.4400072,1.4279734,-1.0083358,-1.4358346,1.2792696,0.5010436,-0.37630242,0.8921116,0.4788829,0.30163103,1.417366,-0.35418797,1.7173978,-3.0030117,-0.19446361,0.043517124,0.16868591,-0.30690694,1.0532855,0.7684415,-0.19132517,0.081859164,0.6051375,-0.024067564,0.64224964,0.2014941,1.0,0.0,0.0,0.0,0.0,0.0,0.0,-2.0673661,-0.04581204,-1.1673977,0.59628487,-1.2299061,-3.4535646,-14.243847,-1.0621428,0.3014505,1.0275245
8.814841,15.968374,2.514491,-0.25859547,-0.37741446,-2.0528636,0.22899401,-0.79894906,0.6958088,0.24298267,-0.32254845,0.5918357,0.66346574,0.5042898,0.99653697,-0.34127143,-1.5363408,-1.0540143,2.4991908,1.4943199,-0.95790684,1.0621172,-0.3981918,-1.5559261,-1.0265203,2.4488077,1.4327666,-1.0052459,-1.4293388,1.2619485,0.4610795,-0.50926965,0.8758116,0.48007292,0.31137064,1.3873596,-0.35613108,1.7170962,-3.0000093,-0.1942692,-0.054712337,0.16886902,-0.30072165,1.0548972,0.7676435,-0.19399825,0.08478281,0.60489666,0.040721964,0.60907435,0.14295009,1.0,0.0,0.0,0.0,0.0,0.0,0.0,-2.0373597,-0.04386893,-1.1670961,0.8149147,-1.6476393,-4.0884733,-13.304633,-1.6258001,0.2958715,0.9677887
6.8851175,12.90234,1.0321627,0.20120907,-0.25769973,-2.1119158,0.16769274,-0.8067859,0.6918664,0.20277973,-0.40688848,0.59016615,0.66396815,0.48734826,0.98143864,-0.32900518,-1.5356481,-1.0672091,2.5078244,1.4991634,-0.9565111,1.0478255,-0.38569152,-1.551707,-1.0326257,2.4574594,1.4375693,-1.0020816,-1.4287591,1.2463148,0.40864864,-0.6444331,0.8613179,0.48082224,0.31801662,1.3573837,-0.35807228,1.715813,-2.9970098,-0.19407496,-0.1528436,0.16968536,-0.2949133,1.0559138,0.76683265,-0.19588,0.08803362,0.6048542,0.1019009,0.5689725,0.0831586,1.0,0.0,0.0,0.0,0.0,0.0,0.0,-2.0073838,-0.041927725,-1.165813,0.22759438,-1.480794,-5.3307,-13.52669,-1.4653087,0.2135098,0.6584346
8.445045,15.237206,2.5373783,-0.39928627,-0.36389446,-2.060418,0.25544402,-0.8006945,0.6788395,0.23834282,-0.50083315,0.55669415,0.66449046,0.5023374,0.96775603,-0.31780756,-1.5278728,-1.082709,2.5131288,1.5040183,-0.9518479,1.0335528,-0.37336576,-1.5477474,-1.0401654,2.4658937,1.4423777,-0.99884987,-1.4259999,1.2283142,0.3913095,-0.7905587,0.8376767,0.48133135,0.32480875,1.3274384,-0.36001158,1.7135493,-2.9940135,-0.19388093,-0.25087675,0.17113876,-0.28945184,1.0563339,0.76595986,-0.19697341,0.09159334,0.6050764,0.16645637,0.5353794,0.023590667,1.0,0.0,0.0,0.0,0.0,0.0,0.0,-1.9774383,-0.03998843,-1.1635492,0.48890114,-1.7105579,-1.8768132,-14.587975,-2.3623586,0.17624497,0.6795645
7.6786604,16.520988,3.8978295,2.8652973,-0.1430974,-1.8052204,0.2522426,-0.7903226,0.665531,0.25422832,-0.52109265,0.5270723,0.66939586,0.52331966,0.9545205,-0.30681264,-1.5223246,-1.0922747,2.518601,1.5093173,-0.9465179,1.0193487,-0.3612393,-1.5437572,-1.0489106,2.4740381,1.4471918,-0.9955435,-1.4179666,1.2077084,0.4009341,-0.9025026,0.8070532,0.48193133,0.3325583,1.2975235,-0.36194897,1.7103059,-2.9910202,-0.19368708,-0.34881186,0.17315674,-0.28426147,1.0562422,0.76496947,-0.19742242,0.095386796,0.6055966,0.21960485,0.5096865,-0.024802221,1.0,0.0,0.0,0.0,0.0,0.0,0.0,-1.9475235,-0.03805104,-1.160306,0.97477436,-1.9604206,0.7945061,-11.192429,-2.9910088,0.15604496,0.7694304
5.8067083,14.659195,3.9080973,6.037639,0.14801475,-1.5996697,0.21980047,-0.7838792,0.64238167,0.26649264,-0.54952484,0.48531643,0.67007214,0.53762764,0.9409608,-0.29700115,-1.517108,-1.1038631,2.5225697,1.514199,-0.9417807,1.0052496,-0.3493818,-1.5395458,-1.0585332,2.4817972,1.4520117,-0.992157,-1.407044,1.1787685,0.4272602,-0.98238075,0.7663158,0.48229223,0.34061727,1.2676392,-0.36388445,1.7060839,-2.9880297,-0.19349344,-0.44664904,0.1756134,-0.2793057,1.0557327,0.76384807,-0.19738597,0.09933839,0.60638833,0.2598158,0.4864156,-0.064490415,1.0,0.0,0.0,0.0,0.0,0.0,0.0,-1.9176391,-0.036115557,-1.1560838,1.2159824,-2.791214,2.4611115,-8.022881,-3.952694,0.10740161,0.78651905
5.206284,14.812955,4.294658,7.613222,0.28498518,-1.4925656,0.20481844,-0.7791777,0.63442636,0.2779535,-0.59617496,0.48281273,0.67195207,0.52798027,0.92733186,-0.28593916,-1.5117505,-1.1181507,2.5300784,1.5192069,-0.93935895,0.9912602,-0.33779848,-1.5350254,-1.0688577,2.4892092,1.4568354,-0.98870564,-1.3959385,1.1518626,0.45978183,-1.0493674,0.73292714,0.4825835,0.34665805,1.2377777,-0.36581802,1.7008843,-2.985042,-0.19329998,-0.5443885,0.17842865,-0.27456188,1.0548618,0.7625932,-0.19694625,0.103381366,0.60743403,0.294314,0.46581936,-0.099479616,1.0,0.0,0.0,0.0,0.0,0.0,0.0,-1.8877777,-0.034181982,-1.1508844,1.1984825,-2.5849342,3.0916035,-6.7483664,-3.1948566,0.08106232,0.58705807
2.9387112,11.935433,3.394034,10.255934,0.50873095,-1.3641579,0.13431397,-0.77280813,0.6135933,0.28161502,-0.60296404,0.42493877,0.67672527,0.5439239,0.91397935,-0.27643916,-1.5068638,-1.1291541,2.531703,1.5245079,-0.93431324,0.97738135,-0.32651126,-1.5302188,-1.0796552,2.496194,1.4616629,-0.9851904,-1.385122,1.1213225,0.48722294,-1.0902956,0.6873392,0.4830555,0.35297856,1.2079468,-0.3677497,1.694708,-2.9820578,-0.19310673,-0.6420302,0.18151855,-0.27002645,1.0536853,0.7612408,-0.19619115,0.10751047,0.60865664,0.31843606,0.4446197,-0.12860437,1.0,0.0,0.0,0.0,0.0,0.0,0.0,-1.8579468,-0.032250315,-1.1447079,1.1092186,-2.9510975,2.621919,-4.183507,-4.398644,0.07610321,0.5986273
-0.022835135,6.509225,1.0800753,11.854471,0.7863195,-1.359169,0.045835923,-0.7696492,0.5902241,0.26425198,-0.6213519,0.39910895,0.6714656,0.54367596,0.90041643,-0.26748887,-1.5037936,-1.1417904,2.5361047,1.5288094,-0.9308228,0.96359503,-0.31556785,-1.5252979,-1.0907655,2.502717,1.4664904,-0.98161983,-1.3764795,1.0856432,0.49348804,-1.1184832,0.64086837,0.4826723,0.3581492,1.1781464,-0.36967945,1.687556,-2.9790764,-0.19291365,-0.7395743,0.18478394,-0.26576734,1.0522275,0.7598705,-0.1951467,0.11171901,0.60994524,0.33307987,0.4148059,-0.15637161,1.0,0.0,0.0,0.0,0.0,0.0,0.0,-1.8281463,-0.030320555,-1.1375561,0.8603096,-3.4781218,0.5541742,-2.9429913,-4.5143485,-0.038087368,0.46385527
-1.786307,2.2847922,-0.72964525,12.132034,0.88895005,-1.397949,0.004506629,-0.76105,0.5636121,0.2567252,-0.64860743,0.33880556,0.66631573,0.5481348,0.88749003,-0.25920665,-1.4996253,-1.1556262,2.5365975,1.533122,-0.92680633,0.94990695,-0.3050288,-1.5204227,-1.1021619,2.5086832,1.4713084,-0.97800255,-1.3661427,1.0435752,0.48507476,-1.1472288,0.5819489,0.4815233,0.36268854,1.1483765,-0.3716073,1.6794294,-2.9760978,-0.19272079,-0.83702093,0.18816757,-0.26185393,1.0504763,0.7585426,-0.19378878,0.11603518,0.611224,0.34444287,0.37856174,-0.18615317,1.0,0.0,0.0,0.0,0.0,0.0,0.0,-1.7983764,-0.028392702,-1.1294293,1.048398,-4.129052,-0.90904236,-3.0068636,-5.7887435,-0.13551712,0.38312674
-3.7062407,-2.2363856,-2.6090157,12.594416,1.0932,-1.4240191,-0.033012427,-0.7529305,0.53288156,0.24113758,-0.6666761,0.3112444,0.66283333,0.54246694,0.8746139,-0.25174063,-1.4963089,-1.1688294,2.5398076,1.5375917,-0.9237559,0.9363371,-0.29496515,-1.5157363,-1.1138501,2.5140734,1.476113,-0.97435,-1.3537856,0.99419713,0.46296123,-1.1764069,0.52464473,0.4798046,0.36575308,1.1186371,-0.37353325,1.6703291,-2.9731221,-0.1925281,-0.9343701,0.19163895,-0.2583623,1.048417,0.7573027,-0.19208516,0.12044322,0.61244535,0.35002524,0.33443612,-0.21705799,1.0,0.0,0.0,0.0,0.0,0.0,0.0,-1.7686371,-0.026466757,-1.1203291,1.2682438,-4.8737526,-2.273786,-3.058982,-5.656421,-0.21585226,0.22242665
-6.181691,-7.624872,-4.797839,13.566954,1.2300085,-1.4028656,-0.08888134,-0.74636286,0.49084786,0.22163229,-0.6736792,0.19823514,0.6634559,0.5445018,0.86170083,-0.24588037,-1.4935731,-1.181218,2.533897,1.5424585,-0.9198998,0.922897,-0.28548706,-1.5113494,-1.1257882,2.5186625,1.4808985,-0.97067165,-1.3406633,0.93254244,0.4303127,-1.2000976,0.43751383,0.47805756,0.36807135,1.0889282,-0.3754573,1.660256,-2.9701498,-0.19233562,-1.0316219,0.1951065,-0.25535536,1.0460422,0.7562041,-0.19003606,0.12499642,0.61352867,0.34921494,0.28458622,-0.2485814,1.0,0.0,0.0,0.0,0.0,0.0,0.0,-1.7389282,-0.02454272,-1.110256,1.3539791,-6.1172485,-3.3213973,-2.5252342,-8.661622,-0.24246573,0.11781454
-10.565822,-20.223097,-9.09676,14.657188,1.7214637,-1.3652812,-0.102473706,-0.72550625,0.39105323,0.22434078,-0.68352294,0.06887059,0.6615179,0.55119544,0.8503463,-0.24638173,-1.4889153,-1.1941406,2.5255494,1.5470502,-0.91555214,0.909659,-0.2769698,-1.5072315,-1.1379342,2.5221148,1.4856669,-0.9669714,-1.3176942,0.82483363,0.405111,-1.2199188,0.31458715,0.47606987,0.3701299,1.0592499,-0.37737942,1.6492112,-2.9671803,-0.19214332,-1.1287766,0.19845963,-0.25296974,1.0433342,0.7552658,-0.18765539,0.12965056,0.6144507,0.3322631,0.21859187,-0.28217623,1.0,0.0,0.0,0.0,0.0,0.0,0.0,-1.7092499,-0.022620589,-1.0992112,2.4331331,-10.754835,-2.6617646,-2.1574974,-12.260252,-0.29127598,0.047177076
-23.735212,-54.368954,-22.580961,16.496534,3.0130632,-1.4901853,-0.26715568,-0.69297075,0.1929109,0.15096389,-0.6849124,-0.16750737,0.65445423,0.55781335,0.84036195,-0.2576787,-1.492135,-1.2064254,2.505364,1.5511123,-0.91119003,0.89678156,-0.27030933,-1.5036399,-1.1502194,2.5237894,1.4904085,-0.9632549,-1.276533,0.6128582,0.3430254,-1.2323055,0.118474595,0.4728327,0.37124822,1.029602,-0.37929964,1.6371955,-2.9642136,-0.19195122,-1.225834,0.20133972,-0.2516513,1.0402174,0.7546312,-0.18488221,0.13428456,0.6150754,0.27432293,0.09866148,-0.32505536,1.0,0.0,0.0,0.0,0.0,0.0,0.0,-1.679602,-0.020700365,-1.0871954,4.4914246,-21.27391,-6.4997854,-1.4583349,-19.686527,-0.49872994,-0.17263293
-60.282394,-143.21248,-60.163105,20.42551,6.8346453,-2.0686827,-0.8404271,-0.6620167,-0.23748598,-0.1080778,-0.68620896,-0.39961863,0.6346016,0.5400976,0.8305799,-0.29405794,-1.5144477,-1.2188404,2.4838276,1.5538687,-0.9092452,0.88443625,-0.26754653,-1.5018222,-1.162581,2.5230303,1.4950873,-0.9595566,-1.2174587,0.16299416,0.12614515,-1.2382835,-0.14205158,0.46476325,0.36754975,0.99998474,-0.38121748,1.6242099,-2.9612498,-0.1917593,-1.3227944,0.20278168,-0.25274348,1.0364739,0.754867,-0.18136045,0.138343,0.6149353,0.101395495,-0.18175474,-0.39334804,1.0,0.0,0.0,0.0,0.0,0.0,0.0,-1.6499847,-0.018782526,-1.0742099,6.8466187,-45.31503,-22.209124,-0.8231163,-26.469044,-1.2926579,-0.9323776
-73.19736,-170.92468,-72.71766,22.697159,8.204426,-2.1466432,-1.0552264,-0.6197955,-0.45317093,-0.26785263,-0.69151217,-0.5282269,0.6332053,0.5141704,0.8224567,-0.31286362,-1.5286075,-1.2317321,2.4702077,1.5584078,-0.9081395,0.8727995,-0.26981103,-1.5027931,-1.174973,2.5196466,1.4996744,-0.95591545,-1.1416368,-0.3577706,-0.17363575,-1.239038,-0.40561798,0.45386586,0.36113852,0.97039795,-0.3831334,1.6102554,-2.9582894,-0.19156758,-1.4196578,0.20217133,-0.25701952,1.0319872,0.75634027,-0.17686509,0.14144093,0.61372834,-0.117557794,-0.5106882,-0.46831802,1.0,0.0,0.0,0.0,0.0,0.0,0.0,-1.6203979,-0.016866595,-1.0602553,8.81784,-52.514286,-30.64444,0.06542206,-26.910055,-1.8859982,-1.2064815
-57.78349,-137.90933,-55.742744,21.252113,7.1153474,-1.4449887,-0.5214481,-0.59492767,-0.614138,-0.09751478,-0.7438617,-0.57579887,0.628272,0.53352416,0.81330675,-0.33122483,-1.5125445,-1.2493591,2.4620667,1.5625017,-0.90256304,0.86189425,-0.27701223,-1.5055015,-1.1875787,2.514001,1.5041529,-0.9523058,-1.0696387,-0.842228,-0.3060485,-1.2661557,-0.61857384,0.44293547,0.35986614,0.94083405,-0.38504744,1.595333,-2.9553318,-0.19137606,-1.5164244,0.19958878,-0.26403904,1.0268023,0.758649,-0.17154378,0.14332151,0.61195034,-0.30874997,-0.76453704,-0.5362721,1.0,0.0,0.0,0.0,0.0,0.0,0.0,-1.590834,-0.01495257,-1.0453329,8.360481,-48.834778,-14.024469,-2.20263,-21.698606,-1.9363463,-0.41438937
-19.784472,-57.894005,-15.829852,17.497755,3.9642067,-0.26474544,0.47195184,-0.51239556,-0.6898459,0.22347994,-0.78083926,-0.59503543,0.61533856,0.5184924,0.8106547,-0.34599683,-1.4831535,-1.2656626,2.4544973,1.5656867,-0.90045655,0.8518826,-0.28808343,-1.5072963,-1.200625,2.5067377,1.5085436,-0.9486942,-0.97642946,-1.1961361,-0.1395222,-1.3159442,-0.7620689,0.43639344,0.36204925,0.91130066,-0.38695955,1.5794437,-2.952377,-0.19118471,-1.6130942,0.19581604,-0.27235627,1.021137,0.76075894,-0.16594778,0.14389814,0.6107377,-0.40524402,-0.8503543,-0.57856065,1.0,0.0,0.0,0.0,0.0,0.0,0.0,-1.5613006,-0.013040453,-1.0294437,9.924364,-35.589718,15.942979,-4.5328856,-14.382553,-1.0613501,0.3373325
10.664497,7.2599983,14.341497,13.715988,1.176486,0.23315781,1.0195881,-0.33071175,-0.7332756,0.24908909,-0.7680589,-0.6199542,0.6007288,0.47343394,0.8188114,-0.361411,-1.4823874,-1.2774308,2.4447422,1.5686165,-0.90135086,0.8434292,-0.30159318,-1.5068328,-1.214066,2.4984522,1.5128924,-0.94508076,-0.80193084,-1.4026304,0.1073007,-1.3530469,-0.8498297,0.4345339,0.362209,0.8817978,-0.38886976,1.5625883,-2.9494252,-0.19099358,-1.7096674,0.19176102,-0.28065014,1.0152318,0.76188296,-0.16059762,0.14338128,0.6108882,-0.40936854,-0.8164158,-0.59725523,1.0,0.0,0.0,0.0,0.0,0.0,0.0,-1.5317978,-0.011130244,-1.0125883,17.387999,-20.672798,24.323425,-3.5427332,-8.5675955,-0.13203025,0.34341216
24.62906,38.911903,26.318136,10.902529,-0.27057645,0.009666324,1.0401146,-0.13830344,-0.7694409,0.11965721,-0.7477068,-0.6032096,0.60703737,0.40726864,0.82959884,-0.37853727,-1.4948671,-1.2888367,2.4381313,1.5735961,-0.9043539,0.83736193,-0.31631696,-1.5047214,-1.2276769,2.4896784,1.5172449,-0.9415169,-0.54356986,-1.4954666,0.24607305,-1.3638835,-0.8854948,0.436304,0.35560772,0.85232544,-0.39077806,1.5447681,-2.9464762,-0.19080262,-1.8061441,0.1880722,-0.28832173,1.0092218,0.7618283,-0.1556869,0.14209868,0.6125251,-0.35850325,-0.7437386,-0.6051855,1.0,0.0,0.0,0.0,0.0,0.0,0.0,-1.5023254,-0.009221941,-0.9947681,25.264442,-9.2278,14.0035095,-1.103878,-3.3418775,0.40915608,-0.33208132
20.768843,37.18206,19.358442,8.918102,-0.4349149,-0.85015213,0.55973774,0.018035736,-0.7756465,-0.17727649,-0.73307633,-0.5881943,0.60670435,0.38786077,0.8391655,-0.39388162,-1.522449,-1.3009845,2.4308589,1.5779154,-0.9027308,0.83418524,-0.33136022,-1.5031803,-1.2412248,2.4807978,1.5216128,-0.93804264,-0.24520677,-1.5071917,0.12570544,-1.3521029,-0.8884789,0.43729514,0.3451436,0.8228836,-0.39268446,1.5259837,-2.9435306,-0.19061185,-1.9025244,0.18497849,-0.29555535,1.0030506,0.76101243,-0.15096025,0.14047846,0.6150908,-0.29401073,-0.7092294,-0.6238679,1.0,0.0,0.0,0.0,0.0,0.0,0.0,-1.4728836,-0.0073155463,-0.9759837,28.95022,-1.1541367,-11.360502,1.1233568,-0.26443005,0.2000153,-0.8944392
16.134762,28.318777,10.390818,5.179835,-0.35362017,-1.730842,0.22730243,0.21138547,-0.78418297,-0.41541344,-0.7459848,-0.56672806,0.5991402,0.3884641,0.8553238,-0.40977854,-1.5447216,-1.3158232,2.424125,1.5815268,-0.8991962,0.8342606,-0.3462447,-1.5043724,-1.2546735,2.4720507,1.525973,-0.9346752,0.087976605,-1.4822707,-0.19718437,-1.342609,-0.8703973,0.43544474,0.33406055,0.7934723,-0.39458895,1.5062363,-2.9405878,-0.19042128,-1.9988083,0.18257141,-0.3027978,0.9965323,0.75990236,-0.14596678,0.13882528,0.6180368,-0.22211958,-0.72220963,-0.6641429,1.0,0.0,0.0,0.0,0.0,0.0,0.0,-1.4434723,-0.0054110587,-0.9562363,32.18338,2.4589777,-31.214062,0.87895393,1.7247438,-0.28627515,-1.0859191
10.706575,19.612709,3.9623175,4.2387896,-0.100011766,-2.0502012,0.034820143,0.28881752,-0.7914808,-0.51931083,-0.7650168,-0.5701318,0.5769523,0.41216713,0.8631423,-0.42539278,-1.5563035,-1.3311752,2.4150374,1.5836682,-0.8934585,0.8372828,-0.3608321,-1.5091388,-1.2681298,2.4634943,1.5302912,-0.9313936,0.37065822,-1.4510748,-0.566747,-1.346699,-0.8511671,0.42997026,0.32609522,0.7640915,-0.39649153,1.4855268,-2.9376478,-0.19023089,-2.0949957,0.18081665,-0.31036234,0.98951095,0.7587908,-0.14037831,0.13729514,0.62103176,-0.15789656,-0.7618601,-0.71863884,1.0,0.0,0.0,0.0,0.0,0.0,0.0,-1.4140915,-0.0035084784,-0.9355268,27.362316,3.052044,-36.052902,-0.42750835,1.7920852,-0.7682562,-0.82110167
6.6962843,16.830444,2.920374,7.020088,0.19006076,-1.7278268,-0.03416831,0.30569327,-0.79300237,-0.53591025,-0.76483005,-0.5744198,0.5879652,0.4076542,0.8678521,-0.44013232,-1.5627298,-1.3446128,2.4060524,1.5890877,-0.8906282,0.84238017,-0.37515676,-1.5169818,-1.2816491,2.4550867,1.5345637,-0.92818356,0.5545998,-1.4265287,-0.85534436,-1.3534335,-0.83759373,0.42579693,0.31923473,0.7347336,-0.3983922,1.4638561,-2.9347107,-0.19004071,-2.1910868,0.17956924,-0.31828928,0.98197436,0.7577794,-0.1341628,0.13591415,0.6239375,-0.11178993,-0.7977752,-0.77028215,1.0,0.0,0.0,0.0,0.0,0.0,0.0,-1.3847336,-0.0016078055,-0.9138561,17.942774,2.373433,-28.390884,-0.6206751,1.2057304,-0.63027143,-0.70316195
5.6509113,18.636734,5.09437,9.3760805,0.30264062,-1.2923471,0.013499036,0.33947223,-0.79170936,-0.56013775,-0.77499723,-0.5686296,0.5791236,0.41158172,0.8763274,-0.4543277,-1.5729957,-1.3591489,2.3982236,1.592476,-0.88702536,0.8487183,-0.38930833,-1.526902,-1.295279,2.4467936,1.5387961,-0.92502975,0.65969473,-1.411583,-1.0372381,-1.3659035,-0.82706106,0.42172134,0.31420824,0.7054062,-0.40029097,1.4412252,-2.9317765,-0.1898507,-2.287082,0.17867279,-0.32645774,0.9739811,0.75682116,-0.12743397,0.13462493,0.6267842,-0.077821694,-0.81815445,-0.81487304,1.0,0.0,0.0,0.0,0.0,0.0,0.0,-1.3554062,0.00029096007,-0.89122516,10.376811,1.4127731,-18.047905,-1.1588573,0.8996606,-0.582546,-0.49551725
2.87443,18.173641,6.062418,12.459578,0.6044384,-0.8509873,0.01423388,0.33582768,-0.7977102,-0.58577824,-0.77920693,-0.54650223,0.56534743,0.4031399,0.88230103,-0.46907935,-1.5854797,-1.3731997,2.3921432,1.5953308,-0.8847158,0.8555571,-0.40340793,-1.5379665,-1.3090348,2.4386415,1.5429846,-0.9219246,0.6924526,-1.4097034,-1.1298037,-1.3783493,-0.81212157,0.41730443,0.30946377,0.6761093,-0.40218782,1.4176351,-2.9288452,-0.18966089,-2.382981,0.17798615,-0.33475566,0.9656108,0.7558742,-0.12032739,0.1333217,0.62960374,-0.061754618,-0.82848185,-0.850849,1.0,0.0,0.0,0.0,0.0,0.0,0.0,-1.3261093,0.0021878183,-0.8676351,3.4006715,0.09453297,-9.348798,-1.1111975,1.3123274,-0.5783677,-0.45408607
0.65340805,19.860912,7.7758393,15.62749,0.7914577,-0.40642565,0.006196931,0.30642098,-0.79398215,-0.58273613,-0.7773793,-0.5413971,0.57645696,0.41536582,0.8861992,-0.48280615,-1.59624,-1.3867728,2.384502,1.6006303,-0.880388,0.86227,-0.41751707,-1.5494049,-1.3228765,2.4306269,1.5471426,-0.9188509,0.66534233,-1.411627,-1.1494156,-1.3855124,-0.79864717,0.41511744,0.30674908,0.64684296,-0.404083,1.3930867,-2.925917,-0.18947127,-2.4787843,0.17734528,-0.3430605,0.9569625,0.7549113,-0.11300224,0.13194142,0.63240075,-0.060171213,-0.8258701,-0.8762441,1.0,0.0,0.0,0.0,0.0,0.0,0.0,-1.2968429,0.0040830076,-0.84308666,-2.3924112,-0.29308796,-2.218604,-0.556159,1.1357784,-0.30050874,-0.24870634
-3.7295766,18.424784,6.9641867,18.120716,1.0372462,-0.10945809,-0.06898041,0.23927058,-0.7927807,-0.5864084,-0.7900003,-0.5426366,0.5666771,0.42664164,0.88619703,-0.49679515,-1.6080457,-1.4018764,2.3763633,1.6038103,-0.8761867,0.8682753,-0.43165386,-1.5607631,-1.3368134,2.4227076,1.5512778,-0.91579247,0.58056587,-1.4147632,-1.132595,-1.3956746,-0.7901107,0.4127674,0.30564854,0.6176071,-0.40597653,1.367581,-2.9229918,-0.18928184,-2.5744917,0.17660904,-0.3513217,0.9480922,0.7539787,-0.10553602,0.13048553,0.63509965,-0.07443825,-0.8206297,-0.89727765,1.0,0.0,0.0,0.0,0.0,0.0,0.0,-1.2676071,0.005976528,-0.817581,-7.9764247,-0.42865276,1.2918234,-0.8079052,0.59336424,-0.2972901,-0.1065433
-6.5932302,18.680593,7.151077,20.370308,1.2036738,0.1630024,-0.11893832,0.18034007,-0.7937533,-0.56633884,-0.785821,-0.54930896,0.57030046,0.42646226,0.88630927,-0.5110292,-1.617397,-1.4153955,2.3677766,1.6083078,-0.87314624,0.8731934,-0.4458245,-1.5717628,-1.3508077,2.4148264,1.5553976,-0.9127407,0.46421352,-1.4182534,-1.0907416,-1.3999646,-0.7883302,0.41152582,0.30491194,0.5884018,-0.40786815,1.3411189,-2.9200695,-0.18909259,-2.6701035,0.17563248,-0.35949802,0.9390587,0.7531213,-0.09800661,0.12896402,0.6376293,-0.10017539,-0.81075335,-0.9120239,1.0,0.0,0.0,0.0,0.0,0.0,0.0,-1.2384018,0.007868141,-0.7911189,-11.049265,-0.47192574,3.7353516,-0.19519329,-0.106191635,-0.15513301,-0.076943636
-8.222597,18.448105,6.8870573,21.172308,1.2822437,0.26895523,-0.14995801,0.1354314,-0.798451,-0.56529987,-0.7846028,-0.56293917,0.5694774,0.41810295,0.8867365,-0.5256696,-1.6282928,-1.429268,2.3585324,1.6123453,-0.87093043,0.8769232,-0.46004522,-1.58236,-1.3648133,2.4068995,1.559506,-0.90970135,0.34449703,-1.4237598,-1.0509388,-1.3999947,-0.7947372,0.4105739,0.30356327,0.5592232,-0.40975785,1.3137014,-2.91715,-0.18890354,-2.7656198,0.17438126,-0.36757827,0.9298871,0.75237,-0.09045291,0.12739725,0.6399433,-0.13099946,-0.80092394,-0.9251397,1.0,0.0,0.0,0.0,0.0,0.0,0.0,-1.2092232,0.009757847,-0.7637014,-11.392271,-0.6782532,3.540635,0.24683475,-0.93148947,-0.12137294,-0.13883114
-9.086009,17.692087,6.0707006,20.571934,1.3384941,0.22988984,-0.1637224,0.08945103,-0.801945,-0.57686585,-0.7959149,-0.54628134,0.54769903,0.40807343,0.8858683,-0.5402397,-1.6400466,-1.4444048,2.3522713,1.6142759,-0.868894,0.8795239,-0.47432888,-1.5927074,-1.3788571,2.3989534,1.5635897,-0.906682,0.2337282,-1.4302958,-1.0305996,-1.4049449,-0.79553837,0.40743458,0.3013876,0.53007126,-0.41164565,1.2853295,-2.9142334,-0.18871467,-2.8610406,0.17281342,-0.37560105,0.92055374,0.75175196,-0.08283016,0.12576462,0.64202136,-0.16302416,-0.79598933,-0.9419649,1.0,0.0,0.0,0.0,0.0,0.0,0.0,-1.1800712,0.011645645,-0.73532945,-10.534364,-0.7841587,1.6256571,-0.23050308,-0.3700018,-0.36275387,-0.21543503
-9.605174,17.939558,6.023655,20.744946,1.3726218,0.26251447,-0.18230954,0.041732464,-0.80706525,-0.57515794,-0.78570354,-0.5588406,0.54334533,0.38495108,0.8836971,-0.5550354,-1.6502231,-1.4574275,2.3430693,1.6179242,-0.8681869,0.88110316,-0.48868883,-1.602946,-1.392899,2.3909693,1.567639,-0.9036999,0.13426796,-1.4383028,-1.0228595,-1.4030561,-0.8000403,0.4039912,0.29713836,0.50094986,-0.41353154,1.2560041,-2.9113197,-0.18852599,-2.956366,0.17090988,-0.38358402,0.9110528,0.7512865,-0.07512873,0.12405966,0.64384264,-0.1964449,-0.792156,-0.95848614,1.0,0.0,0.0,0.0,0.0,0.0,0.0,-1.1509498,0.013531536,-0.7060041,-9.449408,-0.93340874,0.40740967,0.45895576,-0.73598623,-0.3965974,-0.41863322
-12.256297,15.655802,3.883565,20.461819,1.506214,0.2134332,-0.24628407,-0.026498558,-0.80888194,-0.6052909,-0.7971486,-0.55148613,0.50897,0.3691615,0.8784533,-0.56957704,-1.6634752,-1.4726139,2.3358207,1.618536,-0.86678374,0.8816649,-0.50312126,-1.6133144,-1.4069638,2.3829699,1.5716292,-0.90077114,0.031773053,-1.4453737,-1.0425801,-1.4066408,-0.801304,0.39705923,0.29151857,0.47185898,-0.41541553,1.2257261,-2.9084089,-0.1883375,-3.0515962,0.16863632,-0.39159465,0.90134096,0.751041,-0.067266025,0.12227936,0.6453375,-0.23496379,-0.7966189,-0.98098326,1.0,0.0,0.0,0.0,0.0,0.0,0.0,-1.121859,0.0154155195,-0.6757261,-9.744099,-0.85282326,-2.327156,-0.053930283,-0.43599606,-0.7857621,-0.565511
-19.17583,11.498235,0.42557764,22.471485,1.940504,0.36506537,-0.39545077,-0.14672719,-0.8119976,-0.61728793,-0.79812247,-0.53422517,0.4797621,0.33803192,0.8669922,-0.584321,-1.6750432,-1.4867761,2.3295474,1.6196054,-0.866968,0.8809105,-0.5176209,-1.6239669,-1.4210668,2.3750124,1.5755297,-0.89791775,-0.10903072,-1.4520571,-1.0740598,-1.4101878,-0.79523826,0.3873344,0.2831503,0.4427986,-0.4172976,1.1944966,-2.905501,-0.1881492,-3.146731,0.16584015,-0.3997233,0.8913884,0.7511587,-0.059163827,0.12040353,0.646346,-0.29322952,-0.8104378,-1.0053273,1.0,0.0,0.0,0.0,0.0,0.0,0.0,-1.0927986,0.017297596,-0.6444966,-13.466613,-0.84741116,-3.549099,0.021100044,0.23248196,-1.1012197,-0.8594811
-27.714695,7.323757,-3.3283334,25.313055,2.4367146,0.61753434,-0.57221985,-0.28223994,-0.812191,-0.6385749,-0.7946011,-0.5292857,0.47595286,0.3176842,0.8526865,-0.59884,-1.6878244,-1.5005269,2.3220837,1.623125,-0.8661493,0.87838805,-0.53217113,-1.6350029,-1.4351773,2.3671312,1.5793349,-0.89515877,-0.29755938,-1.4567771,-1.1148701,-1.4098513,-0.7876014,0.3776294,0.27330056,0.41376877,-0.41917777,1.1623164,-2.9025958,-0.18796109,-3.2417705,0.16227722,-0.4080515,0.8811909,0.7518208,-0.05078134,0.1184204,0.6466555,-0.37630767,-0.8320574,-1.0299597,1.0,0.0,0.0,0.0,0.0,0.0,0.0,-1.0637687,0.019177765,-0.6123164,-18.103811,-0.6959677,-4.539418,0.49760342,0.3063202,-1.1431694,-1.0327518
-31.420511,6.404569,-4.5371275,26.085165,2.6486042,0.7839017,-0.62873185,-0.37659374,-0.81757796,-0.66229224,-0.7968932,-0.51420486,0.46556187,0.28807175,0.8407287,-0.6139289,-1.7012321,-1.5148666,2.3157108,1.6258911,-0.8663516,0.8738848,-0.5467776,-1.6464832,-1.4492841,2.3593607,1.5830427,-0.89251137,-0.4986511,-1.46278,-1.1606507,-1.4090978,-0.7754516,0.36770755,0.2616647,0.3847618,-0.42105603,1.1291866,-2.899694,-0.18777317,-3.3367152,0.1578064,-0.41661072,0.8707368,0.7531166,-0.04209607,0.11629026,0.6461577,-0.4712285,-0.8549782,-1.0558708,1.0,0.0,0.0,0.0,0.0,0.0,0.0,-1.0347618,0.021056026,-0.5791866,-19.325954,-0.8507252,-5.0466537,0.5907059,0.7227421,-1.2096465,-1.2075901
-33.125244,6.640476,-4.7212706,25.894646,2.7345142,0.9196724,-0.6290128,-0.47495547,-0.8267873,-0.68525237,-0.8011722,-0.49761716,0.44653758,0.26442316,0.82638925,-0.62945634,-1.7150084,-1.5294013,2.309599,1.6276965,-0.8660691,0.8673731,-0.56147563,-1.6584289,-1.4633985,2.3517427,1.5866438,-0.889987,-0.6993589,-1.4729683,-1.2073117,-1.4103551,-0.75897086,0.35677925,0.24924405,0.35578537,-0.4229324,1.095108,-2.896795,-0.18758543,-3.431565,0.15233994,-0.42539263,0.86000794,0.7550577,-0.033093724,0.11394688,0.6448323,-0.5725084,-0.8760797,-1.0838367,1.0,0.0,0.0,0.0,0.0,0.0,0.0,-1.0057853,0.02293238,-0.545108,-19.290316,-1.2886286,-5.130458,0.42932034,1.1389136,-1.355809,-1.2693733
-32.723484,10.570397,-2.602432,25.764814,2.6797104,1.1345131,-0.60417473,-0.5776671,-0.8240598,-0.69190323,-0.7986534,-0.46763217,0.4545905,0.2104072,0.8096064,-0.6438816,-1.7276192,-1.5432638,2.3049796,1.6321028,-0.86894625,0.8588911,-0.57624805,-1.6707542,-1.4775147,2.3443575,1.5901514,-0.88761425,-0.8952225,-1.4795493,-1.2423894,-1.4101313,-0.73353994,0.34792772,0.23331223,0.32683945,-0.42480683,1.0600816,-2.893899,-0.18739788,-3.52632,0.14585495,-0.43431878,0.84902686,0.75761104,-0.023822324,0.11131981,0.6427019,-0.67536247,-0.8872541,-1.10815,1.0,0.0,0.0,0.0,0.0,0.0,0.0,-0.9768394,0.024806827,-0.5100816,-18.83508,-0.93410015,-3.9543629,0.58145523,2.0393848,-1.1588514,-1.59688
-32.937664,13.812449,-1.0090654,25.94206,2.7573652,1.3307705,-0.6338736,-0.680839,-0.82332426,-0.70918965,-0.7920984,-0.39494932,0.4507117,0.043783434,0.79080725,-0.6585805,-1.7416731,-1.5567245,2.3048625,1.6352226,-0.88323593,0.8484932,-0.59105957,-1.6833885,-1.4915948,2.337411,1.5935789,-0.88551044,-1.0855973,-1.4825557,-1.2716814,-1.4054863,-0.68324715,0.3400006,0.20284268,0.29792404,-0.42667937,1.0241084,-2.8910058,-0.18721053,-3.62098,0.13832855,-0.44331717,0.83783543,0.7607827,-0.014347856,0.10828678,0.63974816,-0.78255755,-0.89201236,-1.1280837,1.0,0.0,0.0,0.0,0.0,0.0,0.0,-0.947924,0.026679367,-0.4741084,-18.318903,-0.58522224,-3.3463955,1.0293007,4.53223,-1.0861397,-3.0193658
-27.73049,20.900421,3.8345869,24.853006,2.5658035,1.4781449,-0.5788858,-0.73481786,-0.82171786,-0.7016621,-0.7796659,-0.29856053,0.4629157,-0.19033235,0.7750114,-0.67323136,-1.7535547,-1.5695614,2.307555,1.6398705,-0.9045437,0.83644927,-0.60587204,-1.6961753,-1.5055718,2.331212,1.5969473,-0.8838682,-1.2420244,-1.4816928,-1.2821991,-1.3936827,-0.6001338,0.3349779,0.15168409,0.26903534,-0.42855,0.98718923,-2.8881154,-0.18702336,-3.7155457,0.12979126,-0.45227098,0.82651013,0.76452506,-0.004798021,0.104677245,0.6360197,-0.8804267,-0.8832766,-1.1392949,1.0,0.0,0.0,0.0,0.0,0.0,0.0,-0.9190353,0.028549999,-0.43718922,-15.051937,-0.17175674,-1.3910055,1.6772985,7.8935146,-0.759393,-5.037865
-20.986332,28.571594,9.321964,23.63276,2.3082614,1.5879421,-0.48288506,-0.7716126,-0.817033,-0.69248676,-0.7572574,-0.18863009,0.50860614,-0.33446676,0.759288,-0.68757534,-1.765424,-1.5812976,2.312349,1.647808,-0.9173149,0.8231636,-0.6206416,-1.7089393,-1.5193429,2.326085,1.6003119,-0.8828144,-1.3559283,-1.4761225,-1.275181,-1.3701235,-0.4842933,0.33626854,0.09040834,0.24017334,-0.43041873,0.9493252,-2.885228,-0.18683636,-3.8100166,0.120391846,-0.46104622,0.81514955,0.7687362,0.0046545425,0.100330465,0.6316302,-0.9645457,-0.86131316,-1.1399248,1.0,0.0,0.0,0.0,0.0,0.0,0.0,-0.8901733,0.030418724,-0.3993252,-10.953522,0.3402233,0.46098232,2.7546883,11.272317,-0.0664711,-6.005487
-13.893427,34.25337,13.4407625,21.331335,2.0176673,1.4944627,-0.36450067,-0.7859815,-0.81328404,-0.7035838,-0.7480786,-0.05948869,0.4994277,-0.41666758,0.7445655,-0.70197,-1.7792977,-1.5941508,2.3201363,1.6502546,-0.92448115,0.809096,-0.6353358,-1.7216403,-1.532866,2.3223543,1.6036917,-0.88238335,-1.4226302,-1.4677292,-1.2688708,-1.3453089,-0.33679384,0.33786392,0.027779762,0.21134186,-0.43228555,0.91050917,-2.8823433,-0.18664958,-3.9054585,0.110271454,-0.4695649,0.80380046,0.7732961,0.0139218215,0.0950996,0.62671787,-1.0313385,-0.8333594,-1.1380705,1.0,0.0,0.0,0.0,0.0,0.0,0.0,-0.86134183,0.03228554,-0.36050916,-6.376171,0.66719055,0.47893524,2.79243,14.535183,0.003516674,-6.1080685
-8.59988,36.317463,15.120815,18.271772,1.6186224,1.3174233,-0.27070105,-0.79399383,-0.81478846,-0.7258852,-0.7462746,-0.0029593431,0.4959794,-0.47354412,0.7296966,-0.71681464,-1.7942289,-1.6074934,2.3220584,1.6532897,-0.92973775,0.7946459,-0.6499623,-1.7343853,-1.5461888,2.3200464,1.6070849,-0.8825598,-1.4518461,-1.461427,-1.2767798,-1.3270632,-0.19606751,0.3393663,-0.032213833,0.1825409,-0.43415046,0.8707394,-2.8794615,-0.18646297,-4.000805,0.09962082,-0.47778916,0.79242235,0.7780932,0.023020575,0.08897917,0.62138844,-1.0811822,-0.8028204,-1.1424534,1.0,0.0,0.0,0.0,0.0,0.0,0.0,-0.83254087,0.03415045,-0.3207394,-2.72398,0.49316883,-0.89070797,2.0866394,13.924909,0.01437664,-5.842227
-4.8027143,39.497353,17.104485,16.404755,0.9873666,1.2808732,-0.2074391,-0.8052267,-0.8055152,-0.73142475,-0.7298127,-0.07272982,0.5229284,-0.48852617,0.71412325,-0.7305138,-1.8075278,-1.6191701,2.3127735,1.6593777,-0.9314124,0.78005373,-0.6645011,-1.7472503,-1.559319,2.3186426,1.6105143,-0.8832836,-1.4613014,-1.451711,-1.290042,-1.3076466,-0.12192655,0.34386367,-0.08540777,0.15377045,-0.4360137,0.8300169,-2.8765826,-0.18627654,-4.096056,0.08860397,-0.48563552,0.7809847,0.7830215,0.031949036,0.08225133,0.6157038,-1.1126205,-0.762263,-1.148854,1.0,0.0,0.0,0.0,0.0,0.0,0.0,-0.8037704,0.036013693,-0.2800169,-0.8067131,0.859952,-1.3946056,2.1595716,7.312055,0.36556125,-5.208996
-2.5397239,39.122948,16.837124,13.65036,0.51537263,1.1171613,-0.1455448,-0.80414546,-0.80825543,-0.7593225,-0.73945755,-0.100448,0.4912157,-0.5035907,0.6996392,-0.74532664,-1.8231826,-1.6332648,2.3085978,1.6596359,-0.9336427,0.76547015,-0.6789721,-1.7603672,-1.5723519,2.3176012,1.6139628,-0.8844881,-1.4569542,-1.4459381,-1.3192308,-1.3012719,-0.09867176,0.34502646,-0.13182954,0.12502289,-0.43787527,0.78834265,-2.8737066,-0.18609029,-4.1912117,0.077381134,-0.49306297,0.7694043,0.78798944,0.040794283,0.075185075,0.6097177,-1.1300982,-0.7195699,-1.1657046,0.0,1.0,0.0,0.0,0.0,0.0,0.0,-0.77502286,0.037875265,-0.23834264,0.5479336,0.4795313,-2.9897451,0.85492134,2.2300572,0.034880638,-4.5579014
-1.3645985,39.94179,17.545265,12.767264,0.19696009,1.1363238,-0.102944404,-0.8055279,-0.810301,-0.7602392,-0.72562766,-0.1473097,0.4973271,-0.5177724,0.68491733,-0.76000226,-1.8363911,-1.6449147,2.3028703,1.6636955,-0.93626535,0.75107706,-0.6933047,-1.7749777,-1.5857298,2.3140423,1.6199973,-0.88529694,-1.4334387,-1.4309822,-1.4938326,-1.3426391,-0.4163613,0.6429585,-0.08591338,0.108242035,-0.44049072,0.7908383,-1.5161371,-0.23286209,1.1612854,0.06605911,-0.49966717,0.75721025,0.79266065,0.048938937,0.06927386,0.6037344,-1.1335306,-0.6292005,-1.235476,0.0,1.0,0.0,0.0,0.0,0.0,0.0,-0.758242,0.040490717,-0.24083829,1.3415575,0.028896332,-3.234744,1.5927315,-2.2940576,-0.11436939,-4.2521534
72.476845,176.0,110.0,100.11564,-4.862125,9.288416,-0.47818387,-0.7902542,0.4666367,0.67272633,0.75290513,-0.24686432,0.6172119,-0.45544872,0.67205167,-0.6466411,-1.707705,-1.5104393,2.289356,1.6817185,-0.9308418,0.7424053,-0.705568,-1.790307,-1.5875494,2.3007634,1.6354506,-0.8845464,-0.6837012,-1.157607,-1.5375184,0.19952442,-1.6276941,1.854817,0.12374065,0.09309387,-0.4428177,0.80169797,-1.5146214,-0.23262927,1.0608732,0.05565262,-0.50377846,0.7488845,0.7970299,0.0484162,0.06995278,0.59791785,-1.010912,-0.32204852,-0.7004722,1.0,0.0,0.0,0.0,0.0,0.0,0.0,-0.74309385,0.042817682,-0.25169796,73.36098,27.5141,-1.8398762,152.59698,-119.84971,123.74673,19.4835
9.072149,153.0552,92.810036,97.047615,1.8876263,6.1755652,-0.79660606,-0.8016312,-0.5061351,0.23214668,0.7857582,-0.6189012,0.5420216,-0.24343571,0.6622422,-0.75618154,-1.7670923,-1.5089736,2.2388732,1.6896528,-0.90888995,0.7355913,-0.71577805,-1.8007116,-1.5783732,2.2833226,1.6538603,-0.8834058,-0.68050456,-0.9772102,-0.8714947,1.1561877,-1.7867537,1.8423692,0.11071006,0.07796097,-0.44514227,0.8115543,-1.5131071,-0.23239669,0.9605613,0.045463562,-0.5059142,0.74569803,0.80167484,0.040898684,0.07448032,0.59169024,-1.0200567,-0.16714883,-0.19621693,1.0,0.0,0.0,0.0,0.0,0.0,0.0,-0.72796094,0.045142263,-0.2615543,0.36580563,17.55048,67.54926,95.40382,-17.042042,0.55270195,-1.3711303
-19.395626,138.27525,64.3163,76.42354,2.4180734,4.133636,-1.1668196,-0.7900703,-0.12043645,-0.29334036,0.7491258,-0.6550029,0.59377897,0.18505579,0.65658426,-0.7278217,-1.8300457,-1.5034606,2.2178223,1.7132382,-0.86490023,0.72739065,-0.722923,-1.8067827,-1.5628169,2.266229,1.6711581,-0.8822404,-0.8644754,-0.62857765,-0.51932955,1.6893281,-1.6871674,1.6960896,0.11782418,0.06284332,-0.44746447,0.8204082,-1.5115942,-0.23216435,0.8603497,0.034915924,-0.50679064,0.74636364,0.8070155,0.030281981,0.08085238,0.58418477,-1.0648975,-0.0542383,0.14738989,1.0,0.0,0.0,0.0,0.0,0.0,0.0,-0.7128433,0.04746446,-0.2704082,-17.76464,34.33237,35.10698,53.446915,8.905649,-13.526416,0.5418107
-35.928417,101.19813,34.11237,51.767757,2.524343,2.2453682,-1.1737221,-0.791464,-0.035336506,-0.43605316,0.799367,-0.6682584,0.55909777,0.078524664,0.64824426,-0.72645664,-1.850388,-1.4828801,2.199403,1.7270678,-0.8743879,0.71684873,-0.7267148,-1.8113089,-1.5445788,2.250993,1.6866305,-0.88112557,-1.1158292,-0.2973218,-0.4318757,1.8693304,-1.4710598,1.4994569,0.10870847,0.047740936,-0.44978428,0.8282608,-1.510083,-0.23193222,0.76023835,0.023773193,-0.50688887,0.74914795,0.8131469,0.019196203,0.08828962,0.575003,-1.1284735,0.011993744,0.31534743,1.0,0.0,0.0,0.0,0.0,0.0,0.0,-0.6977409,0.049784273,-0.27826077,-24.651707,32.72488,8.320743,18.167328,21.08023,-19.104027,-1.1111289
-37.384315,61.650936,10.892715,29.223234,2.0304632,0.7158413,-0.8991279,-0.80566674,-0.03412188,-0.5062492,0.7940498,-0.66090536,0.62367415,-0.049899314,0.6362821,-0.730127,-1.8619338,-1.4651738,2.1849024,1.7489979,-0.8861155,0.7040762,-0.72798413,-1.8164206,-1.5262454,2.2378857,1.7002852,-0.8802005,-1.3303618,-0.070974745,-0.5388256,1.8215557,-1.258131,1.3212451,0.0864342,0.03265381,-0.45210195,0.83511305,-1.5085732,-0.23170033,0.6602271,0.012046814,-0.5066552,0.7525118,0.8199301,0.009314076,0.09613249,0.5642573,-1.1867406,0.03593923,0.33790398,1.0,0.0,0.0,0.0,0.0,0.0,0.0,-0.6826538,0.05210194,-0.28511304,-21.253227,22.396158,-11.006999,-4.724312,21.118784,-17.623447,-2.4416776
-29.733952,32.60818,-1.1084327,14.401303,1.4683521,-0.2651658,-0.5242034,-0.8083722,-0.051998273,-0.5436608,0.79323477,-0.66449624,0.63629663,-0.10635871,0.6232389,-0.733184,-1.8707867,-1.4469218,2.171436,1.7639148,-0.89083636,0.6897539,-0.7279479,-1.8231745,-1.5091002,2.2265103,1.7123492,-0.879532,-1.4659721,0.028048746,-0.72151023,1.6787329,-1.0977409,1.1681836,0.05969177,0.01758194,-0.45441723,0.8409659,-1.5070648,-0.23146868,0.56031585,-0.00015640259,-0.5064268,0.7554618,0.8271075,0.0013744632,0.10390929,0.5523533,-1.2299378,0.029031213,0.276844,1.0,0.0,0.0,0.0,0.0,0.0,0.0,-0.6675819,0.054417223,-0.2909659,-13.49442,9.786018,-18.41054,-14.296937,15.955114,-15.280819,-2.854844
-20.22693,13.653892,-5.275611,6.9984245,1.2045197,-0.70666033,-0.1890412,-0.80636376,-0.109767675,-0.55075675,0.78852016,-0.65485066,0.6511372,-0.14956355,0.6091175,-0.7389247,-1.8782501,-1.4302481,2.1610253,1.7774628,-0.89448833,0.6746696,-0.7278506,-1.8316298,-1.4934313,2.2163174,1.7230837,-0.87913907,-1.5224013,0.0034790242,-0.8870398,1.5298735,-0.9931435,1.0416046,0.032141645,0.0025253296,-0.45673013,0.8458175,-1.5055581,-0.23123726,0.46011075,-0.012718201,-0.50641155,0.7575298,0.8344178,-0.0046027186,0.11123485,0.5397708,-1.2635058,0.0035629773,0.18107927,1.0,0.0,0.0,0.0,0.0,0.0,0.0,-0.6525253,0.05673012,-0.2958175,-5.5913925,-2.4923065,-16.587294,-14.876318,10.371149,-12.684941,-2.85786
-15.424194,0.42099428,-7.0793476,5.6805,1.4144466,-0.7845401,-0.0058100596,-0.80685776,-0.20148706,-0.56335,0.7960738,-0.6397975,0.6466817,-0.14825474,0.5939838,-0.7479993,-1.8879647,-1.413824,2.1523376,1.7877519,-0.8939645,0.65942705,-0.728769,-1.8413668,-1.4788973,2.206857,1.7327158,-0.8789884,-1.524469,-0.12367462,-1.0026346,1.4283444,-0.9307862,0.9368247,0.009365077,-0.012516022,-0.45904088,0.8496677,-1.5040529,-0.23100607,0.36000583,-0.025665283,-0.50674295,0.7585843,0.8416998,-0.008968459,0.117783844,0.52686626,-1.303452,-0.033708427,0.07861139,1.0,0.0,0.0,0.0,0.0,0.0,0.0,-0.63748395,0.059040874,-0.29966772,-0.11253357,-12.706576,-11.56199,-10.042143,6.17224,-10.514725,-2.2784321
-8.387432,6.7400002,-0.6138755,7.486102,1.2403922,-0.5371129,0.11503547,-0.79730797,-0.22216551,-0.55307794,0.7965292,-0.6267218,0.6445794,-0.120878674,0.57969624,-0.75098556,-1.8966745,-1.3992444,2.1441848,1.7971737,-0.89107627,0.64440763,-0.7310731,-1.8517599,-1.464987,2.1978047,1.7414382,-0.87901413,-1.4942966,-0.2661061,-1.0514417,1.3790144,-0.89690787,0.8507181,-0.0065351385,-0.027542114,-0.46134925,0.85251766,-1.502549,-0.2307751,0.26000097,-0.03891754,-0.50735474,0.75880444,0.8488289,-0.012213544,0.12353294,0.51388705,-1.3314776,-0.05831907,0.0016495668,1.0,0.0,0.0,0.0,0.0,0.0,0.0,-0.62245786,0.061349243,-0.30251765,3.0713558,-14.256128,-4.8011303,-4.7986507,3.2677293,-8.626139,-1.5632616
-2.8866177,19.456774,7.307153,10.259723,0.98679787,-0.19521052,0.16138735,-0.7887775,-0.24051781,-0.53335774,0.7959213,-0.6223649,0.64819807,-0.13384505,0.5655299,-0.75512487,-1.9050957,-1.3853949,2.1355681,1.806258,-0.89239866,0.6297687,-0.7346236,-1.8622084,-1.451277,2.188947,1.7494204,-0.87918484,-1.4538532,-0.38489208,-1.0421431,1.3687677,-0.88262916,0.7807154,-0.020513784,-0.042552948,-0.46365523,0.8543683,-1.5010469,-0.23054437,0.16009614,-0.052330017,-0.50806665,0.7584942,0.8557222,-0.014795585,0.12865724,0.500967,-1.3436219,-0.06338434,-0.043496046,1.0,0.0,0.0,0.0,0.0,0.0,0.0,-0.607447,0.06365523,-0.30436832,4.0380716,-11.935163,1.1020422,-0.9166956,1.2274265,-6.9890976,-1.3871331
-2.3999295,29.00599,11.653942,13.183556,0.9366024,0.085036516,0.12698987,-0.791136,-0.26876384,-0.5298211,0.7987649,-0.615299,0.6429029,-0.12493058,0.5506551,-0.7615,-1.9151905,-1.3714005,2.127417,1.8137107,-0.8916779,0.61546266,-0.7391326,-1.8723745,-1.4374926,2.1801655,1.7567942,-0.8794719,-1.422837,-0.47324306,-1.0072877,1.3820151,-0.8774618,0.723008,-0.03140165,-0.057548523,-0.46595883,0.85522074,-1.4995462,-0.23031388,0.06029118,-0.06581879,-0.5087228,0.75789803,0.86236477,-0.01700362,0.13336304,0.4881107,-1.3505865,-0.054363314,-0.066827305,1.0,0.0,0.0,0.0,0.0,0.0,0.0,-0.59245145,0.06595883,-0.30522072,3.0810118,-8.933157,3.6967516,1.4209747,0.26769638,-5.7533026,-1.1031642
1.4817624,39.946747,17.16052,14.22437,0.6458117,0.2830729,0.1608397,-0.7691829,-0.28516108,-0.49063417,0.7981225,-0.6230616,0.65539145,-0.12709093,0.53854436,-0.7676487,-1.921438,-1.3576803,2.1178594,1.8223333,-0.892181,0.6014675,-0.7442767,-1.8819895,-1.4235289,2.1713688,1.7636797,-0.8798553,-1.3918896,-0.5285003,-0.9454148,1.4013257,-0.8815405,0.67719316,-0.040864263,-0.07253647,-0.4682603,0.85507584,-1.4980469,-0.23008361,-0.039414,-0.07926178,-0.509181,0.7572099,0.8687169,-0.019041501,0.13784996,0.4753584,-1.3413106,-0.031234676,-0.071606174,1.0,0.0,0.0,0.0,0.0,0.0,0.0,-0.5774635,0.06826028,-0.30507582,3.0269384,-5.6526184,6.458342,1.9726276,-0.7247925,-4.5372725,-0.9979867
-1.1057515,37.973232,15.162366,14.2503805,0.72981286,0.27718276,0.13943464,-0.76521075,-0.3395533,-0.49559584,0.7953427,-0.6332638,0.6517621,-0.08271075,0.5249464,-0.77823204,-1.9315491,-1.3439946,2.1080425,1.828856,-0.8881264,0.58771455,-0.7499768,-1.8910856,-1.4094031,2.1624844,1.7701666,-0.88028824,-1.3698214,-0.58418906,-0.89686114,1.4165783,-0.8915653,0.63948506,-0.04422903,-0.087509155,-0.47055936,0.8539346,-1.4965491,-0.22985357,-0.1390195,-0.09265137,-0.5094185,0.75643194,0.87478566,-0.020927604,0.14218707,0.46270376,-1.3378267,-0.009789158,-0.0821899,1.0,0.0,0.0,0.0,0.0,0.0,0.0,-0.5624908,0.07055935,-0.30393457,2.1677256,-5.6943536,5.0933957,1.595068,-1.291585,-3.732133,-0.38310215
2.7510161,46.51146,18.940662,14.084506,0.43439493,0.31560323,0.1908508,-0.73761773,-0.32270175,-0.46437204,0.79741096,-0.63271254,0.6558391,-0.021310745,0.5139528,-0.782247,-1.9375229,-1.329662,2.0992131,1.8357506,-0.8824193,0.57422864,-0.7559888,-1.8996916,-1.3951647,2.1535046,1.7763331,-0.88070023,-1.3418105,-0.60726285,-0.84772885,1.4262818,-0.9013914,0.6092113,-0.040507667,-0.10246658,-0.47285628,0.85179806,-1.4950529,-0.22962376,-0.2385254,-0.10589218,-0.5093875,0.7556217,0.8805395,-0.022683369,0.14648925,0.4501961,-1.3186475,0.01854605,-0.0831814,1.0,0.0,0.0,0.0,0.0,0.0,0.0,-0.5475334,0.07285628,-0.30179805,2.7198076,-2.4479747,5.1876426,0.9834528,-1.3160586,-2.9704094,0.2870135
1.5194592,41.44515,16.05088,12.914819,0.5162932,0.18344247,0.18057348,-0.7204268,-0.37620193,-0.46439812,0.79534525,-0.6386508,0.65108544,-0.035462704,0.50218594,-0.79360896,-1.9461313,-1.3156302,2.0896394,1.8414416,-0.8842465,0.56104124,-0.7623345,-1.9079447,-1.3808806,2.1444256,1.7822344,-0.8810798,-1.3113528,-0.6441348,-0.81709474,1.4292902,-0.91070336,0.58392775,-0.037340943,-0.11740875,-0.47515082,0.8486672,-1.4935582,-0.2293942,-0.3379318,-0.11898041,-0.50912666,0.75471234,0.8859902,-0.024262784,0.15073934,0.4378474,-1.305298,0.03937182,-0.096101515,1.0,0.0,0.0,0.0,0.0,0.0,0.0,-0.5325912,0.07515082,-0.2986672,2.982545,-3.8101196,3.3058882,0.34098625,-1.2213707,-2.4833083,0.25076643
-1.4115162,34.501514,11.893905,11.869544,0.64708555,0.05328238,0.15157567,-0.7073871,-0.41610423,-0.4821954,0.7943581,-0.6438321,0.6550813,-0.0045625633,0.49030253,-0.80394495,-1.9561642,-1.3014448,2.0800424,1.8477426,-0.88153607,0.5481504,-0.7691533,-1.9161062,-1.3665984,2.1352665,1.7879183,-0.88140595,-1.2817543,-0.69485235,-0.8152766,1.4281722,-0.9187802,0.56334835,-0.031185357,-0.13233566,-0.47744298,0.84455144,-1.4920648,-0.22916484,-0.43611562,-0.13201904,-0.5087147,0.753568,0.8911848,-0.025566982,0.15486044,0.425622,-1.3026192,0.05223866,-0.12328319,1.0,0.0,0.0,0.0,0.0,0.0,0.0,-0.5176643,0.077442974,-0.29455143,2.930355,-5.1770687,0.3712058,-0.028729439,-1.0339499,-2.0317197,0.57139134
-6.7224536,25.37889,6.3206706,11.378516,0.8992734,-0.078829885,0.08855951,-0.70154655,-0.4675606,-0.5173433,0.79480183,-0.6494002,0.6421333,0.015033072,0.47799575,-0.8159094,-1.9678406,-1.2871182,2.0703266,1.8521316,-0.87990266,0.5355066,-0.776632,-1.92451,-1.3523333,2.1260312,1.7934134,-0.8816577,-1.2583907,-0.765888,-0.848526,1.42647,-0.9254935,0.54490405,-0.023218531,-0.14724731,-0.479733,0.8394546,-1.4905732,-0.22893572,-0.53420126,-0.14517212,-0.5082369,0.7520199,0.8961932,-0.026456399,0.15876807,0.41343716,-1.3177757,0.05643,-0.16813353,1.0,0.0,0.0,0.0,0.0,0.0,0.0,-0.50275266,0.079732984,-0.28945458,2.363062,-7.1931005,-3.2102466,-0.013184547,-0.8158803,-1.8474817,0.78519285
-1.5495782,26.327822,8.084565,9.550242,0.6908228,-0.14222807,0.16385655,-0.6513352,-0.5063118,-0.49162635,0.7977438,-0.65912074,0.66935164,0.0073453835,0.4703731,-0.8272632,-1.9736726,-1.2725589,2.0601192,1.8603486,-0.88092315,0.52325284,-0.78487843,-1.9331503,-1.3380721,2.1167157,1.7987673,-0.8818418,-1.2144865,-0.84451854,-0.86842024,1.4264456,-0.93404454,0.5322495,-0.016698122,-0.1621437,-0.48202062,0.8333776,-1.4890829,-0.22870684,-0.63218886,-0.15839005,-0.5077281,0.7500196,0.9010001,-0.026962273,0.1624089,0.4013666,-1.3223033,0.059287526,-0.2135839,1.0,0.0,0.0,0.0,0.0,0.0,0.0,-0.48785627,0.08202061,-0.2833776,4.371023,-7.9458594,-1.8260121,0.13167858,-1.0183811,-1.2678385,0.6487984
0.2950282,22.539888,6.3938613,7.6625094,0.55969834,-0.34326142,0.2047753,-0.60883147,-0.56263274,-0.544177,0.7958562,-0.6826634,0.67328835,0.058211904,0.4623697,-0.8411417,-1.987568,-1.2584864,2.0484493,1.8660961,-0.8760206,0.5115713,-0.7940013,-1.942172,-1.3238146,2.107259,1.8040183,-0.8819295,-1.1527854,-0.93511593,-0.9127424,1.4260324,-0.94951046,0.5225353,-0.0060372017,-0.17702484,-0.4843061,0.8263083,-1.4875941,-0.22847818,-0.731836,-0.17164993,-0.5072546,0.7474693,0.90558964,-0.02703845,0.1657625,0.38948578,-1.3257,0.053412847,-0.27203807,1.0,0.0,0.0,0.0,0.0,0.0,0.0,-0.47297513,0.08430609,-0.2763083,6.1383963,-9.129167,-4.2746544,0.11160374,-1.672399,-0.98485947,1.0747753
5.568101,24.742487,8.4887085,5.8266683,0.34631622,-0.40465307,0.26253206,-0.5615777,-0.6044612,-0.53842926,0.7894868,-0.6714874,0.680564,0.014810672,0.45541352,-0.8544474,-1.996015,-1.2448659,2.0401103,1.8720746,-0.88044846,0.5006231,-0.8040244,-1.9515429,-1.3095915,2.0977032,1.809191,-0.88194954,-1.0757211,-1.0249782,-0.9446981,1.4214638,-0.9585697,0.51545227,-0.00065757835,-0.19189072,-0.4865892,0.81824327,-1.4861068,-0.22824974,-0.8313835,-0.18485641,-0.5068512,0.74434316,0.90994364,-0.02671621,0.16878715,0.37788856,-1.3176987,0.045851614,-0.3297981,1.0,0.0,0.0,0.0,0.0,0.0,0.0,-0.45810926,0.08658919,-0.26824325,7.6228857,-9.054983,-2.988255,-0.33493042,-1.0616302,-0.7306099,0.55040747
11.114404,21.734545,8.129177,2.4858956,0.076265335,-0.6373815,0.33621764,-0.48837024,-0.6689578,-0.58364314,0.7776877,-0.6680606,0.68532217,0.019173225,0.45178607,-0.8709202,-2.0099072,-1.2318227,2.0308971,1.8777232,-0.88003224,0.4906367,-0.81501836,-1.9613466,-1.2954695,2.088094,1.8143065,-0.8819219,-0.9734191,-1.1242992,-0.99136585,1.4095198,-0.9620939,0.5100944,0.003917717,-0.20674133,-0.4888699,0.8091835,-1.484621,-0.22802155,-0.9308315,-0.19792557,-0.5065994,0.7405563,0.91404605,-0.025973674,0.17141542,0.36669043,-1.3014938,0.027960798,-0.39886662,1.0,0.0,0.0,0.0,0.0,0.0,0.0,-0.44325864,0.0888699,-0.25918347,10.097742,-9.983397,-4.4395924,-1.0861874,-0.48573017,-0.5787134,0.4847682
16.071733,22.208923,8.813877,-0.12804961,-0.21311826,-0.79818434,0.411324,-0.4227121,-0.7087479,-0.62528944,0.75528824,-0.65259814,0.67320484,0.067000575,0.4483655,-0.88589317,-2.0238755,-1.2199407,2.0228343,1.881627,-0.87522185,0.48178613,-0.82695454,-1.9717188,-1.281565,2.0785153,1.8193667,-0.8818208,-0.8561951,-1.2169454,-1.0516678,1.3845259,-0.9566654,0.5044113,0.012240655,-0.22157669,-0.49114847,0.79912996,-1.4831368,-0.22779357,-1.0301801,-0.21075821,-0.5065713,0.73603785,0.9178822,-0.024749158,0.17360604,0.35600662,-1.2750516,0.0035804568,-0.4738697,1.0,0.0,0.0,0.0,0.0,0.0,0.0,-0.4284233,0.091148466,-0.24912995,11.545361,-9.312701,-5.78506,-2.4166822,0.41007996,-0.63357353,0.85603166
30.567902,28.087473,13.776168,-4.2904787,-0.91604453,-1.0820444,0.6027645,-0.28702846,-0.7416197,-0.6582063,0.7505655,-0.67322195,0.6728076,0.18327579,0.45308328,-0.9011165,-2.0375395,-1.2065084,2.011193,1.8866475,-0.8634932,0.4744848,-0.8397166,-1.982728,-1.2679102,2.0689404,1.8243754,-0.88155663,-0.6890974,-1.2960961,-1.1163279,1.3590505,-0.95844257,0.49942347,0.031116266,-0.23639679,-0.49342465,0.78808373,-1.4816539,-0.22756582,-1.1294292,-0.2230835,-0.5068712,0.7307887,0.92136985,-0.023035757,0.17541991,0.34608474,-1.2165399,-0.03262293,-0.54669696,1.0,0.0,0.0,0.0,0.0,0.0,0.0,-0.4136032,0.09342465,-0.23808372,16.406214,-7.957196,-6.1145544,-2.5720358,-0.35387278,-0.57225823,1.8770185
46.872116,34.375294,19.15365,-8.981798,-1.7098658,-1.4139816,0.80211097,-0.13899921,-0.7699105,-0.6977034,0.73236656,-0.6993323,0.6539555,0.2574809,0.46058488,-0.91670763,-2.0524983,-1.1946735,1.9990072,1.889771,-0.85580856,0.46924388,-0.8531558,-1.9944162,-1.2545435,2.0592587,1.829325,-0.8810588,-0.47052997,-1.3599015,-1.1847337,1.3286589,-0.9720239,0.49312028,0.055899393,-0.25120163,-0.4956987,0.77604574,-1.4801725,-0.22733831,-1.2285792,-0.23456955,-0.5076394,0.7248301,0.92440575,-0.020828143,0.17696907,0.33722714,-1.1222696,-0.084008195,-0.61732745,0.0,1.0,0.0,0.0,0.0,0.0,0.0,-0.39879835,0.095698684,-0.22604573,21.4239,-6.4178705,-6.384492,-3.1793118,-1.5833616,-0.7254422,2.4287224
39.97225,38.290253,18.63369,-5.5324593,-1.4143685,-1.245454,0.66166687,-0.118955664,-0.7801414,-0.72990954,0.7196344,-0.69936925,0.6119794,0.17321791,0.45734832,-0.9311699,-2.0674071,-1.1825801,1.9893218,1.890523,-0.86373705,0.46588027,-0.86706513,-2.0067737,-1.2414725,2.0494397,1.834183,-0.8803941,-0.29282007,-1.4015796,-1.2515365,1.2996042,-0.9859102,0.48300457,0.0697248,-0.2659912,-0.49797034,0.763017,-1.4786927,-0.22711101,-1.3276299,-0.24518967,-0.50885725,0.71823907,0.9270327,-0.018107632,0.17836356,0.3293461,-1.0387893,-0.12808073,-0.67847544,0.0,1.0,0.0,0.0,0.0,0.0,0.0,-0.38400877,0.09797034,-0.21301699,17.422312,-4.243636,-6.2807083,-2.9911041,-1.630938,-1.1410415,1.3206601
36.08756,43.855442,19.607,-2.8899808,-1.2367923,-1.0521457,0.55542797,-0.05308619,-0.7848607,-0.74790317,0.7019555,-0.7139976,0.62267655,0.052936733,0.46057165,-0.9455512,-2.081564,-1.1712769,1.9780399,1.8964506,-0.87510043,0.46407983,-0.8812353,-2.0197978,-1.2287489,2.039532,1.8389502,-0.87970585,-0.1399266,-1.4219651,-1.3398458,1.2515731,-0.9566769,0.48628205,0.07226708,-0.28045654,-0.49909234,0.7527552,-1.2281315,0.10927902,-0.07062245,-0.2550125,-0.5104604,0.7110912,0.9293211,-0.014868776,0.17967819,0.32226852,-0.9649965,-0.16718581,-0.7392933,0.0,1.0,0.0,0.0,0.0,0.0,0.0,-0.36954343,0.099092335,-0.20275521,15.553885,-2.0599604,-11.83424,-6.6898108,7.27973,1.3470113,0.60426146
-45.225548,56.77866,7.861119,30.656406,2.4683294,1.1130135,-0.3644225,-0.47082672,-0.713537,-0.646134,0.78105617,-0.7461583,0.60137016,0.3522492,0.41699716,-0.952589,-2.0844111,-1.1506433,1.9649161,1.8990872,-0.84448093,0.4613714,-0.89516276,-2.0329738,-1.2159868,2.0297701,1.8437529,-0.8787903,-0.31347626,-1.3840227,-1.3099686,1.2856244,-0.9840148,0.47808632,0.09764111,-0.29272842,-0.49800038,0.7512974,-1.2269037,0.10916977,-0.17083105,-0.26514816,-0.511652,0.7038637,0.9316089,-0.01132626,0.18113752,0.31490573,-1.0256389,-0.09856401,-0.72292614,0.0,1.0,0.0,0.0,0.0,0.0,0.0,-0.35727155,0.09800038,-0.2012974,-17.055115,3.5024643,3.099537,3.7477493,-3.131485,-0.86364746,2.419968
-70.011566,73.06487,9.541693,43.326096,3.8617907,2.0935335,-0.63743424,-0.55132186,-0.6694837,-0.5552609,0.7916145,-0.6954655,0.6130276,0.45027807,0.4062392,-0.9621111,-2.0884998,-1.1368254,1.9602236,1.9050556,-0.8337625,0.4561462,-0.90844077,-2.0452495,-1.2027384,2.0198977,1.8484926,-0.87754864,-0.59080434,-1.3102745,-1.199698,1.3392276,-0.9900896,0.47255933,0.1326231,-0.30498886,-0.49690962,0.74883825,-1.225677,0.109060615,-0.27093947,-0.27616882,-0.511796,0.6971431,0.9340334,-0.007823943,0.1830606,0.30660918,-1.1225153,0.018660804,-0.66046584,0.0,1.0,0.0,0.0,0.0,0.0,0.0,-0.34501112,0.09690961,-0.19883823,-27.308918,6.997514,11.165094,5.782509,-1.157546,-0.5744755,3.3881917
-64.64716,74.265114,11.353154,41.04541,3.7507226,2.0454538,-0.5926224,-0.5600555,-0.6772746,-0.53349155,0.78485984,-0.66174716,0.597739,0.344889,0.40014067,-0.9761682,-2.0985987,-1.1242524,1.953723,1.9082665,-0.8430597,0.44834182,-0.9210798,-2.0562816,-1.188996,2.0100367,1.8531599,-0.87605613,-0.84249467,-1.2497504,-1.070106,1.3872315,-0.98663193,0.4646428,0.15464035,-0.31723785,-0.4958198,0.74537873,-1.2244515,0.108951576,-0.37094775,-0.2880745,-0.5107899,0.69104487,0.9365921,-0.004533682,0.18535206,0.29735357,-1.2084447,0.13429724,-0.5977489,0.0,1.0,0.0,0.0,0.0,0.0,0.0,-0.33276212,0.0958198,-0.19537872,-24.813795,5.689025,13.137555,5.22027,-0.19410849,-0.8498788,2.1568954
-39.88775,75.46786,16.652948,31.568708,2.7083433,1.5592463,-0.32216993,-0.5485939,-0.6569524,-0.5014506,0.7793209,-0.6470904,0.6155584,0.2997633,0.39348242,-0.98677504,-2.1064267,-1.1110638,1.9453276,1.9147158,-0.8460798,0.43872544,-0.9331867,-2.066093,-1.174935,2.000275,1.857768,-0.87441105,-1.0008248,-1.198674,-0.9509243,1.4131719,-0.97417796,0.45922747,0.16766895,-0.3294716,-0.49473095,0.7409199,-1.2232274,0.10884265,-0.47085607,-0.3004799,-0.5088272,0.685489,0.9391756,-0.0015029332,0.18787624,0.2874879,-1.247813,0.22460589,-0.5459666,0.0,1.0,0.0,0.0,0.0,0.0,0.0,-0.3205284,0.09473094,-0.19091988,-15.667021,4.8022747,12.204337,2.8567076,0.7071018,-0.61582327,1.2574047
-21.099195,67.417725,17.21727,22.397375,1.8668053,1.0004293,-0.09949327,-0.5676362,-0.669515,-0.48089454,0.7800986,-0.62608,0.60261434,0.31161773,0.38196182,-1.0001382,-2.1141825,-1.0969251,1.9376669,1.9180295,-0.84324926,0.4281077,-0.9450056,-2.074943,-1.1607462,1.9907038,1.862319,-0.8726525,-1.0819803,-1.1771084,-0.862144,1.4213994,-0.9529314,0.45344883,0.17857912,-0.3416977,-0.49364352,0.73546267,-1.2220044,0.108733825,-0.57066447,-0.3130722,-0.50618505,0.6802573,0.9416965,0.0013393065,0.19044307,0.2773756,-1.2596117,0.28593063,-0.5195738,0.0,1.0,0.0,0.0,0.0,0.0,0.0,-0.30830228,0.09364352,-0.18546265,-8.06942,1.9213676,9.192562,0.99499226,1.6560912,-0.6601095,1.0609657
-1.5915663,60.339462,18.37903,13.613211,1.041966,0.4505875,0.11761439,-0.54788226,-0.6826056,-0.45277733,0.777649,-0.5962707,0.58516574,0.32537973,0.37331948,-1.0132662,-2.120221,-1.0829813,1.9310768,1.9208356,-0.8401145,0.4172406,-0.9568073,-2.0830913,-1.1465746,1.981417,1.8668051,-0.87078995,-1.0885268,-1.1817223,-0.79804283,1.4158739,-0.9221607,0.446764,0.188706,-0.35390854,-0.49255705,0.72900814,-1.2207826,0.108625114,-0.6703731,-0.32559204,-0.5031538,0.67512286,0.9440905,0.004061412,0.1928606,0.2673599,-1.2440809,0.31766814,-0.5151756,0.0,1.0,0.0,0.0,0.0,0.0,0.0,-0.29609144,0.09255704,-0.17900813,-0.72431564,-0.6340027,6.772554,-0.48749447,2.646196,-0.7494569,0.9785801
10.675576,58.70003,20.582125,8.929155,0.64147043,0.23540771,0.23775412,-0.54629195,-0.6934473,-0.36934325,0.77017546,-0.5756257,0.6000632,0.29644305,0.36261138,-1.026152,-2.1200256,-1.0695571,1.9238544,1.9268115,-0.84114563,0.4065747,-0.96877974,-2.0904574,-1.1325308,1.9724562,1.8712416,-0.8688597,-1.0597296,-1.2028817,-0.7148343,1.4004753,-0.8887283,0.44246048,0.19438377,-0.36610794,-0.49147153,0.72155726,-1.219562,0.108516514,-0.769982,-0.33781052,-0.49991345,0.6699901,0.94632334,0.00658692,0.19499473,0.25769335,-1.210465,0.33486483,-0.51622105,0.0,1.0,0.0,0.0,0.0,0.0,0.0,-0.28389204,0.09147152,-0.17155725,2.74024,-2.2577286,8.744585,-1.5478373,2.8877258,-0.50221086,0.538826
24.660362,53.654156,21.252522,2.7179735,0.021374464,-0.1539563,0.38448372,-0.48388064,-0.7163646,-0.35911617,0.7486083,-0.5554384,0.59936124,0.2928708,0.35818663,-1.0404162,-2.126369,-1.05767,1.9169123,1.9311777,-0.8395726,0.39655158,-0.98107356,-2.0971255,-1.1187426,1.9638312,1.8756418,-0.86688656,-0.98388064,-1.2386248,-0.6494795,1.3715348,-0.8551118,0.4390286,0.19808595,-0.3782959,-0.4903872,0.71311104,-1.2183428,0.10840802,-0.86949134,-0.34955215,-0.4966681,0.664729,0.9483693,0.008919673,0.1967511,0.24860604,-1.1581359,0.32936394,-0.53295547,0.0,1.0,0.0,0.0,0.0,0.0,0.0,-0.27170408,0.090387195,-0.16311103,7.3769093,-3.682375,6.992233,-2.968526,2.9145002,-0.411278,0.32874644
30.709934,45.157246,18.167858,-1.6800699,-0.48934793,-0.57165366,0.4646266,-0.42095807,-0.73709357,-0.42452517,0.72909766,-0.5443506,0.57531154,0.33788717,0.35445577,-1.0547829,-2.139578,-1.0458329,1.9093962,1.933173,-0.8330978,0.3875338,-0.9937759,-2.1036918,-1.1053219,1.9555178,1.8799605,-0.86483526,-0.87429094,-1.2809895,-0.6638659,1.3289682,-0.815817,0.427677,0.21020645,-0.39046478,-0.4887433,0.70522773,-1.1689456,0.23715623,-0.5222707,-0.36073685,-0.49363804,0.6591045,0.9502226,0.011336633,0.19809787,0.24021994,-1.1029336,0.30094138,-0.5776086,0.0,1.0,0.0,0.0,0.0,0.0,0.0,-0.2595352,0.0887433,-0.15522772,10.896659,-4.308939,-2.12996,-4.921961,4.5220375,-1.823777,1.6632408
5.813117,52.35575,15.258503,8.865942,0.52680075,-0.06942809,0.186793,-0.5172338,-0.7156155,-0.36716014,0.7569635,-0.57781464,0.52766657,0.3697996,0.33581042,-1.0653374,-2.1404078,-1.0296255,1.8977363,1.9327272,-0.8278553,0.37899557,-1.0067192,-2.1103027,-1.0921059,1.9474686,1.8841784,-0.8626527,-0.8472498,-1.2992604,-0.65913856,1.3193667,-0.80251074,0.4194056,0.22095181,-0.40187836,-0.48638153,0.6997919,-1.1336486,0.23781818,-0.55033576,-0.37164307,-0.4906361,0.65320057,0.9519515,0.013926285,0.19917119,0.23221786,-1.081725,0.30677342,-0.59824824,0.0,1.0,0.0,0.0,0.0,0.0,0.0,-0.24812162,0.086381525,-0.1497919,2.6314616,-1.9627571,0.7745981,-0.87902546,0.902617,-0.9704292,1.0478526
2.287506,63.75154,18.959633,12.976639,0.91680586,0.26734966,0.12256883,-0.50151116,-0.71101224,-0.26966432,0.7520882,-0.5781738,0.5701261,0.38306716,0.32884446,-1.0778204,-2.137269,-1.0168971,1.8896513,1.941191,-0.824346,0.37053838,-1.0197178,-2.1164374,-1.0789165,1.9394825,1.8883475,-0.8603582,-0.845409,-1.3006046,-0.59698856,1.3190825,-0.7988692,0.41588354,0.23221794,-0.4129448,-0.48392653,0.6942845,-1.0977376,0.24792118,-0.5515253,-0.3823166,-0.48746204,0.6472857,0.9535685,0.016456405,0.20016024,0.22443716,-1.0590222,0.3274541,-0.5927958,0.0,1.0,0.0,0.0,0.0,0.0,0.0,-0.23705518,0.08392653,-0.14428449,0.11745691,-0.29482841,6.5807104,0.04272461,-0.057327747,-0.41652322,1.099965
-5.11821,62.91292,17.005013,14.815217,1.237088,0.36211893,0.040123355,-0.5144158,-0.72544247,-0.26975614,0.7307488,-0.53588,0.515773,0.35872692,0.3190968,-1.092262,-2.143413,-1.0058417,1.8858944,1.9399248,-0.8244855,0.3619157,-1.0327355,-2.1219418,-1.0657731,1.9315981,1.8924478,-0.85798234,-0.8679844,-1.3025321,-0.5337595,1.3131608,-0.78620595,0.40786704,0.23946495,-0.42368698,-0.48135877,0.6887313,-1.0668056,0.2596507,-0.55695033,-0.39286804,-0.48402095,0.6414206,0.9551109,0.018870017,0.20104496,0.21676725,-1.0486962,0.35593918,-0.5877795,0.0,1.0,0.0,0.0,0.0,0.0,0.0,-0.226313,0.08135876,-0.1387313,-2.2790074,-0.35264492,6.631005,-0.47252178,0.88038445,-0.8675575,0.72971284
-13.362434,54.81954,11.488899,14.616882,1.2277452,0.2478882,0.010343876,-0.53283286,-0.7336181,-0.34076113,0.7077836,-0.5275167,0.4226337,0.40278852,0.30863243,-1.1060972,-2.156018,-0.99499476,1.8788464,1.9347112,-0.8177035,0.35296163,-1.0457951,-2.1272748,-1.0527841,1.9238433,1.8964013,-0.8555142,-0.90445805,-1.307512,-0.5322117,1.2948312,-0.7726821,0.39083636,0.24933429,-0.4342041,-0.47868395,0.68295276,-1.0468608,0.2700805,-0.5846969,-0.40341568,-0.4802928,0.6354496,0.95661217,0.021440575,0.20178127,0.20908804,-1.0529187,0.38473812,-0.60344625,0.0,1.0,0.0,0.0,0.0,0.0,0.0,-0.21579587,0.07868394,-0.13295275,-3.6160111,-0.6444931,0.331676,-1.6404867,1.0864377,-1.7805994,1.0057688
-9.932857,57.19504,12.645268,13.903832,1.1212867,0.20370346,0.034270357,-0.5216917,-0.7261897,-0.315137,0.71027875,-0.5128153,0.41739258,0.4231596,0.30079246,-1.118414,-2.1587884,-0.9817562,1.8725617,1.9381405,-0.81319827,0.3437372,-1.0588642,-2.1326344,-1.0399553,1.9162498,1.9001873,-0.85294116,-0.92841256,-1.307184,-0.5365049,1.2793707,-0.7558754,0.3741898,0.26000744,-0.44449997,-0.47591543,0.6769207,-1.0240359,0.27906483,-0.60932666,-0.41397095,-0.4763012,0.6293414,0.9580692,0.024247987,0.20237085,0.20139872,-1.050803,0.4102389,-0.6166388,0.0,1.0,0.0,0.0,0.0,0.0,0.0,-0.2055,0.075915426,-0.1269207,-2.3881674,-0.11422634,-0.21772385,-1.3806581,1.3921499,-1.7483532,1.0695279
-13.056351,51.76561,9.568893,13.348594,1.0831707,0.10175675,0.027002787,-0.53849524,-0.7391487,-0.3695232,0.7053273,-0.48958224,0.36955285,0.47730723,0.2898877,-1.1327791,-2.1695867,-0.9694225,1.8672916,1.9371425,-0.8052104,0.334282,-1.0719792,-2.1383338,-1.02726,1.9088607,1.9037842,-0.85023165,-0.9511137,-1.3134297,-0.5809258,1.2668141,-0.73393285,0.3545346,0.2746423,-0.45462036,-0.473068,0.67053217,-1.0080147,0.2866228,-0.648402,-0.4245491,-0.4720688,0.6230034,0.95948654,0.027429046,0.20279044,0.19367303,-1.0564831,0.43391746,-0.6429096,0.0,1.0,0.0,0.0,0.0,0.0,0.0,-0.19537961,0.07306799,-0.120532155,-2.2420049,-0.76515675,-4.2878985,-1.0490179,1.9735932,-2.0745873,1.4761627
-4.33921,51.140976,10.588055,9.841529,0.72583556,-0.0833258,0.11732642,-0.5099127,-0.73721516,-0.40192708,0.6795366,-0.43750155,0.3121392,0.4947472,0.28329074,-1.1457007,-2.1785264,-0.9593063,1.8651105,1.934998,-0.80075693,0.32480246,-1.0851437,-2.1446204,-1.0147725,1.9018167,1.90716,-0.84737605,-0.9469788,-1.3180475,-0.6442369,1.2432381,-0.6954686,0.33157754,0.28918958,-0.46456146,-0.47017694,0.6637273,-0.98948133,0.28987372,-0.69087195,-0.43510818,-0.46769238,0.61636126,0.9608556,0.031063769,0.20296717,0.18599977,-1.0504194,0.44551042,-0.67463976,0.0,1.0,0.0,0.0,0.0,0.0,0.0,-0.18543851,0.07017693,-0.11372727,0.39436817,-0.59394836,-6.136358,-2.2080183,3.6028504,-2.4239838,1.438129
-0.7498083,49.14747,10.415871,7.417203,0.5691631,-0.18496943,0.17301992,-0.51332533,-0.7437247,-0.43106416,0.639762,-0.37739673,0.1864376,0.5003934,0.27346992,-1.1595161,-2.1877267,-0.95079637,1.8640771,1.9258038,-0.7973367,0.3154078,-1.098375,-2.151586,-1.0026723,1.8952913,1.9102328,-0.8443856,-0.93709433,-1.3250465,-0.7136693,1.1993169,-0.6389404,0.29857343,0.30224058,-0.4743271,-0.46727157,0.6564477,-0.97178614,0.2907236,-0.73956996,-0.4455757,-0.4632442,0.6093541,0.9621825,0.035189796,0.20276484,0.17847385,-1.0404582,0.45120776,-0.71240765,0.0,1.0,0.0,0.0,0.0,0.0,0.0,-0.17567289,0.06727156,-0.1064477,0.9521842,-0.8232355,-6.7439675,-4.2676926,5.4010987,-3.453058,1.2857795
-6.0722594,46.317772,8.031145,7.657676,0.67531914,-0.27069587,0.16024189,-0.5409416,-0.7447945,-0.49903184,0.60232216,-0.3088634,-0.11880275,0.5441658,0.26131365,-1.1728544,-2.2014892,-0.9424401,1.864405,1.8983525,-0.789969,0.3059898,-1.1116673,-2.15941,-0.99112904,1.889457,1.9127663,-0.8412482,-0.9433668,-1.3309941,-0.80516714,1.1397657,-0.56553,0.2377804,0.31755257,-0.483963,-0.46435714,0.64860004,-0.9603658,0.2916845,-0.79855734,-0.45601273,-0.4587252,0.6019179,0.96349716,0.03996532,0.2020203,0.1710662,-1.0398887,0.45871362,-0.75706637,0.0,1.0,0.0,0.0,0.0,0.0,0.0,-0.16603696,0.06435713,-0.09860003,-0.6349325,-0.71878433,-8.999527,-5.79412,7.1124315,-6.2663407,1.5260637
-8.019341,50.991215,9.178941,9.246945,0.969406,-0.21016592,0.1120076,-0.549816,-0.7338668,-0.51944155,0.58094776,-0.20432784,-0.28843796,0.56415915,0.2510082,-1.185054,-2.2113543,-0.93303424,1.8690242,1.8839226,-0.7848323,0.2964454,-1.12495,-2.168069,-0.980181,1.8845587,1.9145938,-0.8379563,-0.9581747,-1.3278905,-0.88540703,1.080229,-0.46531492,0.16368355,0.3331021,-0.49348068,-0.46142292,0.6402124,-0.94822085,0.2939638,-0.8507277,-0.46648026,-0.45409107,0.59411293,0.96482927,0.045370944,0.20060867,0.16371313,-1.0427296,0.47175112,-0.7912206,0.0,1.0,0.0,0.0,0.0,0.0,0.0,-0.1565193,0.061422914,-0.090212405,-1.4918208,0.17499924,-7.8311324,-5.8036804,9.743584,-7.632768,1.5555918
