Afshin1997/kuka_rl_ros2/src/catch_and_throw/input_files/idealpd/polynomial_regressor/optimizer_files/env_158_data.csv
torque0,torque1,torque2,torque3,torque4,torque5,torque6,action0,action1,action2,action3,action4,action5,action6,set_target_0,set_target_1,set_target_2,set_target_3,set_target_4,set_target_5,set_target_6,joint_pos_0,joint_pos_1,joint_pos_2,joint_pos_3,joint_pos_4,joint_pos_5,joint_pos_6,joint_vel_0,joint_vel_1,joint_vel_2,joint_vel_3,joint_vel_4,joint_vel_5,joint_vel_6,tennisball_pos_0,tennisball_pos_1,tennisball_pos_2,tennisball_lin_vel_0,tennisball_lin_vel_1,tennisball_lin_vel_2,end_effector_pos_0,end_effector_pos_1,end_effector_pos_2,end_effector_rot_0,end_effector_rot_1,end_effector_rot_2,end_effector_rot_3,end_effector_lin_vel_0,end_effector_lin_vel_1,end_effector_lin_vel_2,obs_task_0,obs_task_1,obs_task_2,obs_task_3,obs_task_4,obs_task_5,obs_task_6,to_final_target_0,to_final_target_1,to_final_target_2,joint_acc_0,joint_acc_1,joint_acc_2,joint_acc_3,joint_acc_4,joint_acc_5,joint_acc_6
0.0,0.0,0.0,0.0,0.0,0.0,0.0,0.0,0.0,0.0,0.0,0.0,0.0,0.0,1.7802359,-1.0646509,-1.8151424,-1.1170107,1.9373155,1.1170107,-0.91629785,1.7802359,-1.0646509,-1.8151424,-1.1170107,1.9373155,1.1170107,-0.91629785,0.0,0.0,0.0,0.0,0.0,0.0,0.0,2.7989616,-0.62649536,0.24455945,-2.7332501,0.1844214,5.595722,0.5304146,-0.45449448,0.693097,0.5745483,0.17512383,0.15255436,0.7848268,0.0,0.0,0.0,1.0,0.0,0.0,0.0,0.0,0.0,0.0,-3.4489617,0.22649536,0.30544055,0.0,0.0,0.0,0.0,0.0,0.0,0.0
0.0,0.0,0.0,0.0,0.0,0.0,0.0,0.0,0.0,0.0,0.0,0.0,0.0,0.0,1.7802359,-1.0646509,-1.8151424,-1.1170107,1.9373155,1.1170107,-0.91629785,1.7802359,-1.0646509,-1.8151424,-1.1170107,1.9373155,1.1170107,-0.91629785,0.0,0.0,0.0,0.0,0.0,0.0,0.0,2.7989616,-0.62649536,0.24455945,-2.7332501,0.1844214,5.595722,0.5304146,-0.45449448,0.693097,0.5745483,0.17512383,0.15255436,0.7848268,0.0,0.0,0.0,1.0,0.0,0.0,0.0,0.0,0.0,0.0,-3.4489617,0.22649536,0.30544055,0.0,0.0,0.0,0.0,0.0,0.0,0.0
0.0,0.0,0.0,0.0,0.0,0.0,0.0,0.0,0.0,0.0,0.0,0.0,0.0,0.0,1.7802359,-1.0646509,-1.8151424,-1.1170107,1.9373155,1.1170107,-0.91629785,1.7802359,-1.0646509,-1.8151424,-1.1170107,1.9373155,1.1170107,-0.91629785,0.0,0.0,0.0,0.0,0.0,0.0,0.0,2.7989616,-0.62649536,0.24455945,-2.7332501,0.1844214,5.595722,0.5304146,-0.45449448,0.693097,0.5745483,0.17512383,0.15255436,0.7848268,0.0,0.0,0.0,1.0,0.0,0.0,0.0,0.0,0.0,0.0,-3.4489617,0.22649536,0.30544055,0.0,0.0,0.0,0.0,0.0,0.0,0.0
-176.0,77.61811,-2.14575,110.0,11.273783,5.1865263,-3.7479565,-0.8210205,0.38994133,-0.5254775,0.7337287,0.4345672,0.64504224,-0.58917123,1.6981338,-1.0256567,-1.8676901,-1.0436379,1.9807721,1.181515,-0.97521496,1.7786814,-1.0623144,-1.8204658,-1.1127383,1.9425569,1.1216933,-0.9184112,-0.20731628,0.31074265,-0.7092691,0.5699976,0.69792676,0.62247014,-0.28129572,2.7716503,-0.62465286,0.29973826,-2.7305176,0.18423703,5.4919415,0.52830315,-0.4575615,0.69396526,0.5783578,0.17380674,0.15107584,0.7826042,-0.28143632,-0.40921593,0.115434274,1.0,0.0,0.0,0.0,0.0,0.0,0.0,-3.4216504,0.22465286,0.25026175,-20.685766,30.892082,-70.74081,57.059853,69.55593,61.70508,-28.006824
-176.0,-14.269899,-39.34669,110.0,13.064817,2.1535127,-3.1413312,-0.8043932,-0.080751106,-0.53891176,0.70296764,0.48469004,0.64320874,-0.5821324,1.6982421,-1.0703895,-1.874357,-1.0424415,1.9910258,1.1860142,-0.9766244,1.7766482,-1.0588659,-1.83479,-1.1001326,1.9542851,1.1345354,-0.9208154,-0.19978021,0.35466656,-1.6749864,1.4934896,1.3309389,1.4986295,-0.22318791,2.7443657,-0.6228142,0.35388005,-2.7277875,0.18405284,5.3882647,0.5235386,-0.46561432,0.695025,0.5867893,0.17055151,0.1470103,0.7778036,-0.54287314,-0.936034,0.10325414,1.0,0.0,0.0,0.0,0.0,0.0,0.0,-3.3943658,0.22281417,0.19611996,1.389423,3.9412677,-97.06018,93.16101,63.209343,85.8166,6.8955393
-168.44826,112.17656,27.68087,99.00828,9.035593,7.8522363,-2.0657883,-0.78192794,0.33037984,-0.041243665,0.6593495,0.5197293,0.68610054,-0.5511608,1.6984553,-1.0258279,-1.8389144,-1.0341977,2.006258,1.2031455,-0.97593147,1.7713915,-1.0544332,-1.8502414,-1.0832106,1.9679856,1.149428,-0.92325205,-0.6343079,0.4695138,-1.4959286,1.7598426,1.3785601,1.4784999,-0.252038,2.7171078,-0.6209755,0.40698582,-2.7250602,0.18386883,5.2846913,0.51581,-0.476696,0.6976425,0.5982773,0.16578339,0.14154476,0.7710675,-0.8567296,-1.1593473,0.3184442,1.0,0.0,0.0,0.0,0.0,0.0,0.0,-3.3671079,0.22097549,0.1430142,-43.472446,10.503036,19.74113,27.02005,3.4286022,-4.3035746,-3.3170133
-107.632774,112.41666,40.848698,63.02446,5.5812325,8.073531,-0.50539994,-0.7827282,0.16543575,0.124067545,0.64891416,0.5400598,0.6566723,-0.58041567,1.6931187,-1.0378896,-1.8378347,-1.0183191,2.0219917,1.2150953,-0.9812936,1.7618967,-1.0499033,-1.8607471,-1.065869,1.9808545,1.1632887,-0.9259786,-1.0555441,0.4450541,-0.89456433,1.7262132,1.2515858,1.3507158,-0.28181005,2.6898785,-0.6191368,0.45905665,-2.7223358,0.18368499,5.1812215,0.5054436,-0.48873138,0.7022162,0.61090434,0.1596736,0.13499428,0.7635946,-1.1087778,-1.2077857,0.5086463,1.0,0.0,0.0,0.0,0.0,0.0,0.0,-3.3398786,0.2191368,0.09094337,-42.439903,-3.1578422,62.368427,-3.1567335,-14.139867,-14.114141,-3.6460936
-46.796124,124.94961,50.934845,34.692486,2.2788026,7.3448653,0.3113189,-0.79165924,0.24212821,0.16817078,0.65715104,0.5676963,0.6590794,-0.5686721,1.6827308,-1.0256904,-1.84393,-1.0001539,2.0376241,1.2291967,-0.9828458,1.7489916,-1.0455068,-1.8647506,-1.0499731,1.9921422,1.1756979,-0.9289951,-1.370246,0.43620697,-0.22923471,1.543977,1.0841589,1.2023361,-0.31082568,2.6626759,-0.6172981,0.51009357,-2.719614,0.18350133,5.077855,0.4932022,-0.50030136,0.70852596,0.6233712,0.15229443,0.12758417,0.7562651,-1.275504,-1.125554,0.6745706,1.0,0.0,0.0,0.0,0.0,0.0,0.0,-3.312676,0.21729812,0.039906442,-31.857658,-1.3857543,68.464676,-18.285728,-17.8123,-15.385938,-3.6678076
-3.5582604,121.80172,48.41409,15.281679,-0.11228594,5.346341,0.47773212,-0.79943913,0.32738367,0.12287898,0.6496483,0.5888337,0.6553937,-0.58738315,1.6690477,-1.0127685,-1.8524628,-0.9850083,2.0510256,1.2412373,-0.98773336,1.7340189,-1.0408167,-1.8636444,-1.0360495,2.0020185,1.1867529,-0.9322805,-1.5407625,0.4788594,0.22811641,1.3412234,0.9535051,1.0730723,-0.33665103,2.6355,-0.6154671,0.5600976,-2.7168949,0.18331787,4.974592,0.4799404,-0.5106468,0.7161065,0.6351612,0.14399876,0.1199095,0.7493039,-1.3547007,-0.99003303,0.7858438,1.0,0.0,0.0,0.0,0.0,0.0,0.0,-3.2855,0.21546707,-0.010097563,-17.368746,3.9243102,47.01559,-20.452309,-13.631189,-12.970018,-3.2469273
21.977737,129.66255,47.266903,6.643557,-1.7215192,3.9131644,0.26777935,-0.81032497,0.47758183,0.07093809,0.6199927,0.60237724,0.64469844,-0.58257735,1.6529864,-0.9930585,-1.8565506,-0.9740502,2.062256,1.2512227,-0.99053824,1.718186,-1.0349573,-1.8599365,-1.023913,2.0109754,1.1966692,-0.93578714,-1.5984703,0.6207045,0.4210972,1.1704237,0.87585646,0.9652717,-0.35734135,2.6083508,-0.613636,0.6090697,-2.7141786,0.1831346,4.8714323,0.46634293,-0.5194473,0.7246324,0.6462714,0.13514028,0.112750985,0.7425345,-1.3722086,-0.8298182,0.8730642,1.0,0.0,0.0,0.0,0.0,0.0,0.0,-3.2583508,0.21363601,-0.059069693,-6.0634375,13.90704,20.149113,-17.268753,-8.000219,-10.602498,-2.668196
28.506966,125.896675,41.924767,5.201169,-2.1541183,2.7327461,-0.01924246,-0.8219193,0.5651159,0.032184463,0.61243814,0.6101965,0.6352381,-0.5770119,1.6359941,-0.9784457,-1.8567181,-0.9626692,2.071995,1.260193,-0.9934883,1.7022654,-1.0273432,-1.8558376,-1.0130011,2.0194898,1.2056452,-0.9394626,-1.5906575,0.8076183,0.40802857,1.0643225,0.842672,0.8757287,-0.3725309,2.5812302,-0.61180496,0.65701103,-2.7114651,0.18295151,4.7683754,0.4527893,-0.5267563,0.7338612,0.65693104,0.12601626,0.10664296,0.7356553,-1.3583747,-0.6840643,0.93714327,1.0,0.0,0.0,0.0,0.0,0.0,0.0,-3.2312303,0.21180496,-0.10701102,0.5286217,18.477833,-0.7533431,-10.75983,-3.375578,-8.752298,-1.9951522
25.7907,112.06287,34.143597,5.638133,-1.993849,1.7580528,-0.21619572,-0.8251411,0.61977637,-0.023017744,0.5967951,0.6156025,0.63782704,-0.565683,1.6197512,-0.9653655,-1.8581394,-0.9533216,2.08105,1.2694279,-0.9960309,1.6866366,-1.0179075,-1.8528202,-1.0027548,2.027882,1.2138449,-0.9432525,-1.5543404,0.98837835,0.26744062,1.0108852,0.8383028,0.8019054,-0.3824165,2.5541363,-0.6099739,0.70392257,-2.708754,0.1827686,4.6654215,0.43945694,-0.53284454,0.7435182,0.6673744,0.116894245,0.10179658,0.72841233,-1.3318716,-0.56823117,0.9728378,1.0,0.0,0.0,0.0,0.0,0.0,0.0,-3.2041364,0.2099739,-0.15392256,3.420186,17.923546,-13.702422,-5.504298,-0.40738583,-7.228589,-1.3549209
20.816547,96.99081,28.276426,6.934369,-1.4567738,1.2667835,-0.24806261,-0.82053775,0.64771855,-0.029512264,0.5919229,0.6204071,0.6429147,-0.5647322,1.6045828,-0.95313567,-1.8557714,-0.9435625,2.089923,1.2781364,-0.9997257,1.6714178,-1.0069917,-1.8513458,-0.992746,2.0363393,1.2214037,-0.9471206,-1.511673,1.1255757,0.108346455,0.9969444,0.8484967,0.7409629,-0.38927972,2.527069,-0.6081505,0.74980533,-2.7060459,0.18258587,4.5625706,0.426363,-0.53798676,0.7533968,0.67772233,0.1079107,0.09806728,0.7207153,-1.307205,-0.48122555,0.990826,1.0,0.0,0.0,0.0,0.0,0.0,0.0,-3.1770692,0.20815048,-0.19980532,4.0956736,13.607168,-15.63149,-1.5858889,1.0693192,-6.0201883,-0.9960592
14.651377,84.58464,24.321123,8.780938,-0.8160789,1.1193995,-0.20650923,-0.81974816,0.6700901,-0.035057012,0.59035426,0.6280405,0.64673597,-0.5691865,1.589443,-0.9399827,-1.8548515,-0.9337106,2.0991433,1.2860773,-1.0040393,1.6565539,-0.99507576,-1.8512046,-0.9827095,2.044949,1.2284342,-0.95104784,-1.4784781,1.2132015,-0.016419945,1.005116,0.8651414,0.690539,-0.39474735,2.5000286,-0.60632706,0.7946604,-2.7033405,0.18240331,4.4598227,0.41342926,-0.5424347,0.763381,0.68800616,0.099083826,0.0951346,0.7125863,-1.292775,-0.41703713,0.9992672,1.0,0.0,0.0,0.0,0.0,0.0,0.0,-3.1500287,0.20632705,-0.24466038,3.1734705,8.670735,-12.206748,0.6052494,1.7087579,-5.042064,-0.8333683
9.653063,76.31068,22.005854,10.252775,-0.34457985,1.1422997,-0.14620727,-0.82033116,0.69040096,-0.04758961,0.5879939,0.6223219,0.65599185,-0.56828356,1.5745207,-0.92603564,-1.8559636,-0.92391014,2.1071813,1.2940334,-1.0078762,1.6419111,-0.98257786,-1.8519638,-0.9725405,2.0536923,1.2350336,-0.9550199,-1.4599375,1.2617935,-0.09466658,1.0200357,0.8775348,0.6495508,-0.3989907,2.4730148,-0.60450363,0.83848876,-2.7006376,0.18222094,4.3571777,0.40055466,-0.5463371,0.77341074,0.6982087,0.09037071,0.09270752,0.7040902,-1.2888037,-0.36582553,1.0029254,1.0,0.0,0.0,0.0,0.0,0.0,0.0,-3.123015,0.20450363,-0.28848875,1.7145395,4.7754526,-7.5218635,1.2716532,1.2663722,-4.145217,-0.70804954
8.882622,70.18272,20.644604,9.619707,-0.14774513,1.1211407,-0.02983784,-0.81532866,0.69805396,-0.0523687,0.57043034,0.63308614,0.6574989,-0.5702074,1.5603783,-0.9127725,-1.8572006,-0.9154975,2.117001,1.3007835,-1.0120406,1.6273848,-0.9698196,-1.8531749,-0.9623133,2.0625577,1.2412802,-0.9590301,-1.450738,1.2802604,-0.12876512,1.022865,0.8897655,0.6162,-0.40267107,2.4460297,-0.6026802,0.88129145,-2.6979375,0.18203874,4.254635,0.38769722,-0.5497627,0.7834294,0.708251,0.08174079,0.090550326,0.69534135,-1.2877364,-0.31841728,1.0003515,1.0,0.0,0.0,0.0,0.0,0.0,0.0,-3.0960298,0.2026802,-0.33129144,0.7754803,1.7733097,-3.060998,0.048351288,1.2290478,-3.372836,-0.6598711
9.074571,68.42887,20.495667,9.216166,-0.081443846,1.1661456,0.054790486,-0.8149689,0.70944965,-0.05188739,0.5573959,0.64033294,0.6612079,-0.57131094,1.545888,-0.89887464,-1.8583636,-0.9065737,2.126591,1.307401,-1.0161612,1.6128927,-0.9569755,-1.8544853,-0.9521538,2.0715413,1.2472426,-0.9630737,-1.4491657,1.2855113,-0.13055696,1.0128572,0.90098614,0.5893305,-0.40594095,2.4190712,-0.6008644,0.9230694,-2.6952403,0.18185675,4.152195,0.37483597,-0.55270386,0.7934122,0.71805525,0.07315632,0.088511534,0.68644774,-1.2877748,-0.26971567,0.99647474,1.0,0.0,0.0,0.0,0.0,0.0,0.0,-3.0690713,0.2008644,-0.3730694,0.002002716,0.45468807,0.21873116,-1.2403488,1.1104226,-2.717483,-0.62930584
9.623813,66.19469,19.530178,8.526947,-0.13430786,1.0493438,0.07960424,-0.809808,0.7175613,-0.08038881,0.54763454,0.64685035,0.6634419,-0.5656766,1.531912,-0.8852194,-1.8625242,-0.89739037,2.1362264,1.3135867,-1.0196413,1.5984102,-0.94410855,-1.855828,-0.9421555,2.0806317,1.2529761,-0.9671411,-1.44845,1.2868079,-0.13437854,0.9946411,0.9114374,0.56789887,-0.40807402,2.3921394,-0.5990486,0.9638238,-2.6925454,0.18167494,4.049857,0.3619938,-0.55516434,0.80331784,0.72758555,0.06462128,0.0865623,0.67745876,-1.2845428,-0.22154589,0.9873247,1.0,0.0,0.0,0.0,0.0,0.0,0.0,-3.0421395,0.19904861,-0.41382378,-0.08459091,0.06816387,0.0117868185,-2.068317,1.0374904,-2.1464825,-0.5107224
9.748934,66.92738,19.58751,8.611367,-0.17737448,1.0573174,0.09325029,-0.81440043,0.72630304,-0.07866954,0.53288954,0.6464172,0.66734654,-0.5613514,1.5169702,-0.87147826,-1.863695,-0.88886654,2.1452734,1.3197107,-1.0232762,1.5839049,-0.93121105,-1.8571746,-0.9323908,2.0897985,1.2585264,-0.9712238,-1.4518865,1.2905678,-0.13347562,0.9695837,0.9183635,0.5508936,-0.40931964,2.3652344,-0.5972328,1.0035555,-2.6898534,0.18149331,3.947622,0.34918976,-0.55711365,0.81313616,0.7368278,0.056124166,0.0847155,0.66839975,-1.2801745,-0.17118214,0.97873384,1.0,0.0,0.0,0.0,0.0,0.0,0.0,-3.0152345,0.19723281,-0.45355552,-0.5077839,0.31487942,0.5019158,-2.7520537,0.68079233,-1.6984224,-0.42186975
13.240936,67.72398,20.11546,7.0069137,-0.35106355,1.0074546,0.17532653,-0.8107325,0.7279047,-0.060313154,0.49716547,0.65989596,0.66975117,-0.559732,1.5028316,-0.8584206,-1.8632059,-0.8826743,2.155788,1.3255016,-1.027197,1.5693785,-0.91827446,-1.8584182,-0.92300284,2.099053,1.2639357,-0.97531503,-1.4534533,1.294592,-0.11970749,0.92776006,0.927621,0.5377046,-0.410165,2.338356,-0.595417,1.0422658,-2.6871643,0.18131186,3.8454895,0.33647728,-0.5585289,0.8228601,0.745723,0.047655284,0.082954876,0.65935165,-1.268669,-0.114958204,0.9689167,1.0,0.0,0.0,0.0,0.0,0.0,0.0,-2.988356,0.19541702,-0.49226576,-0.3296852,0.34780502,1.8139288,-4.4366956,0.90687275,-1.2798309,-0.38985014
15.533136,69.85899,20.928238,6.490986,-0.46596128,1.0160662,0.21896584,-0.8100161,0.73563087,-0.04253204,0.47316462,0.6606735,0.6747209,-0.55619186,1.4883769,-0.84471136,-1.8626714,-0.8756864,2.1651204,1.3314078,-1.0309342,1.5548464,-0.9052692,-1.8594387,-0.9140841,2.1083875,1.2692362,-0.97941107,-1.4538177,1.3024025,-0.094522305,0.87916183,0.9350199,0.5277396,-0.41050273,2.3115044,-0.59360504,1.0799553,-2.6844776,0.18113059,3.743459,0.32391357,-0.5593338,0.83250594,0.75422466,0.03918552,0.08127055,0.65038806,-1.2525717,-0.05389586,0.9615611,1.0,0.0,0.0,0.0,0.0,0.0,0.0,-2.9615045,0.19360504,-0.5299553,-0.21409988,0.7289648,2.9725895,-5.109477,0.71759224,-0.94122887,-0.3425002
15.198995,69.731476,20.323477,6.893353,-0.49503562,0.91274476,0.18318647,-0.8091965,0.7470145,-0.062769376,0.45858088,0.66671205,0.6776466,-0.54779744,1.4739268,-0.8305678,-1.8657156,-0.868226,2.1750586,1.3370008,-1.0341908,1.5403181,-0.8921419,-1.8603294,-0.9056202,2.1177945,1.2744547,-0.9835033,-1.4528713,1.3160297,-0.08593636,0.83469284,0.9425825,0.52011406,-0.40975887,2.2846794,-0.5917969,1.1166254,-2.6817937,0.1809495,3.6415305,0.31151962,-0.5595436,0.8420735,0.7623544,0.030714076,0.07970717,0.6414976,-1.2341586,0.00495549,0.95324534,1.0,0.0,0.0,0.0,0.0,0.0,0.0,-2.9346795,0.19179687,-0.5666254,-0.076675415,1.3176918,1.2781427,-4.690814,0.75457096,-0.7002115,-0.21900535
20.102135,69.210175,20.544842,4.0061398,-0.779482,0.75933516,0.30042008,-0.80513644,0.7472376,-0.026801297,0.3884514,0.67431855,0.67503256,-0.544628,1.4598045,-0.8174181,-1.8630096,-0.8667751,2.1852264,1.3419579,-1.0379661,1.5258204,-0.8788944,-1.8610237,-0.89780676,2.1272817,1.2796103,-0.98758596,-1.4492271,1.327549,-0.06257504,0.7627192,0.9509203,0.5144746,-0.40866712,2.2578812,-0.5899887,1.152277,-2.6791124,0.18076858,3.539704,0.29940033,-0.5591202,0.851519,0.77004504,0.022277387,0.07826823,0.63277835,-1.2034935,0.069352806,0.9394385,1.0,0.0,0.0,0.0,0.0,0.0,0.0,-2.9078813,0.1899887,-0.602277,0.18913746,1.1225224,2.7661204,-7.4510098,0.8294344,-0.42908192,-0.18498898
23.260395,69.39917,20.706642,2.0835881,-1.0091565,0.637392,0.3795624,-0.80736274,0.75765985,-0.0039836946,0.32511085,0.6754979,0.6772257,-0.53666097,1.4450841,-0.8031284,-1.8614221,-0.86529565,2.1948314,1.3473328,-1.041252,1.5113474,-0.86551434,-1.8614109,-0.8908907,2.1368413,1.284722,-0.9916515,-1.4471226,1.3414512,-0.029554823,0.6670936,0.95778376,0.51077974,-0.40677205,2.2311096,-0.58818054,1.186911,-2.6764338,0.18058784,3.4379792,0.28764915,-0.55802155,0.8608004,0.77722484,0.013913221,0.076964326,0.6243431,-1.1631582,0.13731903,0.9218729,1.0,0.0,0.0,0.0,0.0,0.0,0.0,-2.8811097,0.18818054,-0.636911,0.033664703,1.3750076,3.7257519,-9.815132,0.6904721,-0.17706156,-0.094372034
26.46277,67.90421,20.322641,-0.17491245,-1.2304999,0.43177798,0.45711002,-0.8048437,0.7631072,0.01617449,0.2519823,0.6813198,0.67520857,-0.53023344,1.430863,-0.78920364,-1.8597934,-0.8656925,2.2049732,1.3522428,-1.0446749,1.4969012,-0.8519998,-1.861428,-0.88510287,2.1464734,1.289807,-0.99569315,-1.4444135,1.3547553,0.008829082,0.54858017,0.9649146,0.5084411,-0.4042108,2.2043648,-0.5863762,1.2205286,-2.673758,0.18040729,3.3363562,0.27637863,-0.5562439,0.8698601,0.78383875,0.005679207,0.075809926,0.6162932,-1.1119697,0.20571227,0.8979411,1.0,0.0,0.0,0.0,0.0,0.0,0.0,-2.8543649,0.18637618,-0.6705286,0.10385513,1.3355494,4.226263,-12.0989685,0.73547363,0.025987625,-0.00667572
32.05712,68.46847,21.127094,-3.3784971,-1.5438676,0.28293678,0.606304,-0.8024964,0.76952595,0.07804408,0.14688587,0.6876926,0.6693279,-0.52620465,1.4166515,-0.77504724,-1.8536236,-0.87041426,2.2152426,1.3567398,-1.0483136,1.4824873,-0.83835655,-1.8608539,-0.880756,2.1561818,1.294871,-0.99970716,-1.4409833,1.3676429,0.07486914,0.39596847,0.9727434,0.5069516,-0.401362,2.1776466,-0.58457565,1.2531307,-2.6710846,0.1802269,3.2348347,0.265728,-0.5537224,0.8786516,0.7897894,-0.002375106,0.07478452,0.6087975,-1.0464983,0.2794994,0.8698646,1.0,0.0,0.0,0.0,0.0,0.0,0.0,-2.8276467,0.18457565,-0.70313066,0.18801689,1.3150692,6.9655747,-15.491575,0.8232951,0.19278526,0.041002035
41.06003,66.84765,21.462223,-9.909524,-2.1725626,-0.059382886,0.84981036,-0.8034614,0.7734047,0.14801827,-0.029176874,0.68954223,0.6618782,-0.5198563,1.4021412,-0.7610161,-1.846052,-0.8836737,2.225136,1.3610588,-1.0516928,1.4680964,-0.82459885,-1.859391,-0.8784634,2.165959,1.2999254,-1.0036896,-1.4388433,1.3785614,0.1711683,0.17305693,0.97950286,0.5066162,-0.39789268,2.1509552,-0.5827751,1.2847183,-2.668414,0.1800467,3.1334147,0.2559147,-0.5503998,0.887056,0.79490817,-0.010123405,0.07389095,0.60212845,-0.95468944,0.36058608,0.82716024,1.0,0.0,0.0,0.0,0.0,0.0,0.0,-2.8009553,0.18277511,-0.73471826,0.083470345,1.1493921,9.939602,-22.497051,0.73889494,0.46010017,0.14324188
45.718407,64.28729,20.99946,-13.473152,-2.495812,-0.3836451,0.96882856,-0.79747045,0.7768432,0.19829175,-0.16203313,0.6903485,0.6604197,-0.49494523,1.3883493,-0.7469145,-1.8395618,-0.8946667,2.2349937,1.3659674,-1.0531842,1.4537493,-0.81074864,-1.8568904,-0.8786408,2.1757932,1.3049818,-1.0076188,-1.433533,1.387409,0.27686375,-0.0819181,0.98503625,0.507282,-0.39180976,2.1242905,-0.5809746,1.3152925,-2.6657462,0.17986669,3.0320961,0.24713516,-0.5462723,0.8949649,0.799095,-0.017445225,0.07314748,0.59648335,-0.84672964,0.43961,0.7748735,1.0,0.0,0.0,0.0,0.0,0.0,0.0,-2.7742906,0.18097457,-0.76529247,0.45626163,0.970912,10.74712,-25.65091,0.67595243,0.6444812,0.4670143
43.381916,63.434334,20.682869,-11.560293,-2.2575555,-0.441038,0.9318033,-0.7955384,0.77928424,0.26258036,-0.24128637,0.6930873,0.660989,-0.46508962,1.3741955,-0.7328202,-1.8306324,-0.9027694,2.245102,1.3710808,-1.0541277,1.4394633,-0.7968288,-1.8532741,-0.8811976,2.185677,1.3100458,-1.0114659,-1.4272645,1.3939717,0.390033,-0.31390914,0.99059975,0.5079301,-0.38273573,2.0976524,-0.57917404,1.3448542,-2.663081,0.17968684,2.9308789,0.23939705,-0.5414009,0.9023888,0.8023804,-0.02434705,0.0725228,0.5918896,-0.7439413,0.5103738,0.7272929,1.0,0.0,0.0,0.0,0.0,0.0,0.0,-2.7476525,0.17917404,-0.7948542,0.6067753,0.7618904,11.33576,-23.291836,0.7656336,0.6204486,0.8238673
36.476547,66.79444,21.557287,-4.7244844,-1.5863428,-0.17137358,0.77508813,-0.78726685,0.78644323,0.33813563,-0.25751525,0.69557554,0.6550065,-0.4100783,1.3607366,-0.7181845,-1.8194605,-0.9069491,2.2552347,1.3755465,-1.0524738,1.4252669,-0.7828327,-1.8484504,-0.8854996,2.1956182,1.315106,-1.0151871,-1.41702,1.4019382,0.51254267,-0.46915054,0.99670184,0.50706637,-0.36872643,2.071041,-0.57738113,1.3734046,-2.6604185,0.17950718,2.8297627,0.23250389,-0.5358772,0.90950257,0.8048959,-0.031012794,0.071915045,0.5882253,-0.6641511,0.57354283,0.7012413,1.0,0.0,0.0,0.0,0.0,0.0,0.0,-2.7210412,0.17738113,-0.8234046,1.0380745,0.9189129,12.114298,-15.573865,0.93506575,0.37927628,1.3479769
29.336414,65.84618,20.914791,0.5467167,-1.0176755,-0.040174227,0.6275868,-0.787979,0.7837732,0.4005345,-0.30132738,0.6967908,0.6551466,-0.37706113,1.3464689,-0.7044554,-1.8083969,-0.9156323,2.2652972,1.3806207,-1.0528933,1.4111544,-0.76878697,-1.842408,-0.8909346,2.2056203,1.3201548,-1.018752,-1.4092524,1.4059075,0.63410777,-0.5683934,1.0025291,0.50547814,-0.3525101,2.0444565,-0.5755882,1.4009446,-2.6577585,0.1793277,2.7287476,0.22625732,-0.52978516,0.9164426,0.80678016,-0.037596606,0.07123916,0.58533514,-0.6041559,0.626941,0.68636817,1.0,0.0,0.0,0.0,0.0,0.0,0.0,-2.6944566,0.17558822,-0.8509446,0.8005142,0.52986145,11.932039,-9.964752,0.97147226,0.24299622,1.5842617
21.853132,65.14211,20.057802,5.865016,-0.53029704,0.090432316,0.45304972,-0.78978163,0.7897402,0.44413608,-0.31266242,0.68643135,0.6523117,-0.3227278,1.3321762,-0.68981296,-1.7979944,-0.9222008,2.2742634,1.385386,-1.0510248,1.3970877,-0.7546926,-1.8352649,-0.896958,2.2156415,1.3251826,-1.022128,-1.4058526,1.411031,0.74020565,-0.6137165,1.0029776,0.503021,-0.33262813,2.0178986,-0.5737953,1.4274751,-2.6551013,0.17914839,2.6278336,0.2204647,-0.52321625,0.9233137,0.8081813,-0.044215642,0.07048663,0.5830263,-0.56320775,0.6719913,0.6817599,1.0,0.0,0.0,0.0,0.0,0.0,0.0,-2.6678987,0.17379531,-0.8774751,0.35316944,0.6545782,10.340476,-4.5812488,0.4713297,0.09200573,1.9584954
14.48052,62.34416,18.642057,10.9094925,-0.0009898543,0.17980212,0.28223777,-0.7871521,0.7849843,0.48458135,-0.28540626,0.68194354,0.65259993,-0.26345202,1.3183725,-0.6761942,-1.7868068,-0.9254986,2.283836,1.3904426,-1.0484732,1.3830439,-0.740583,-1.8271911,-0.90301096,2.2256398,1.3301836,-1.025277,-1.4039209,1.4115112,0.828762,-0.60263133,1.0000712,0.500117,-0.3091562,1.9913673,-0.5720024,1.4529973,-2.6524467,0.17896928,2.5270207,0.2149353,-0.5162735,0.9302017,0.8092449,-0.05097661,0.069646865,0.5810966,-0.5417638,0.7064621,0.6852398,1.0,0.0,0.0,0.0,0.0,0.0,0.0,-2.6413674,0.1720024,-0.9029973,0.18875599,0.19652843,8.571159,1.0311961,0.15132427,-0.0161767,2.3086429
6.2290473,57.142677,16.074299,15.641688,0.5163447,0.1823065,0.076645456,-0.7905458,0.781427,0.4871204,-0.23672828,0.6800696,0.65934235,-0.21542288,1.3039893,-0.6624403,-1.7784791,-0.9266838,2.2936468,1.3961178,-1.0468193,1.3689886,-0.7264982,-1.818507,-0.90857184,2.2355962,1.3351599,-1.0281762,-1.4060581,1.4080727,0.8806757,-0.5409934,0.99566156,0.49746796,-0.28369337,1.9648628,-0.57021713,1.4775121,-2.6497948,0.17879036,2.4263084,0.20947266,-0.5090904,0.9371526,0.81013757,-0.057943545,0.068734504,0.5793057,-0.5395782,0.7269111,0.6921674,1.0,0.0,0.0,0.0,0.0,0.0,0.0,-2.614863,0.17021713,-0.9275121,-0.25269985,-0.19481182,4.936576,6.0398817,-0.020587444,-0.061511993,2.4946272
-0.028687477,53.21731,13.966064,19.070564,0.85104644,0.16693756,-0.09686129,-0.79838586,0.78433025,0.48146853,-0.18629016,0.67709875,0.660624,-0.19500923,1.28915,-0.64806515,-1.7703601,-0.92720085,2.303306,1.4012223,-1.0476772,1.3548685,-0.7124372,-1.8095729,-0.91327345,2.245503,1.3401114,-1.0308293,-1.414262,1.4058837,0.89691347,-0.44713673,0.9904152,0.49472255,-0.2594352,1.938385,-0.56843185,1.5010206,-2.6471455,0.17861162,2.3256967,0.2039299,-0.50177383,0.9441857,0.8110104,-0.06513913,0.06779864,0.5774273,-0.55090886,0.7376561,0.70071197,1.0,0.0,0.0,0.0,0.0,0.0,0.0,-2.588385,0.16843185,-0.95102054,-0.89588165,-0.07312298,1.4127254,9.227991,-0.13324022,-0.13033748,2.3684323
1.4973545,47.770454,12.086006,16.145763,0.6179668,-0.14408398,-0.075297,-0.79972863,0.7776522,0.48149115,-0.2052397,0.68022007,0.6597518,-0.20576353,1.2748957,-0.634672,-1.7614238,-0.9337974,2.313525,1.4060866,-1.0514057,1.3406626,-0.6984239,-1.8006351,-0.91725504,2.2553754,1.345038,-1.0332745,-1.4228826,1.4002434,0.8923343,-0.3823815,0.98695356,0.49242803,-0.23970407,1.9119339,-0.5666466,1.5235236,-2.6444988,0.17843306,2.2251856,0.19834328,-0.49438858,0.9512022,0.81189334,-0.07244859,0.066903934,0.57541645,-0.55221367,0.7434027,0.69565487,1.0,0.0,0.0,0.0,0.0,0.0,0.0,-2.561934,0.16664657,-0.97352356,-0.9351969,-0.43280125,-0.616014,6.314808,-0.019085407,-0.065374374,1.919359
2.5568318,46.0294,11.558951,14.97299,0.4881541,-0.27884522,-0.062417373,-0.8015714,0.7774039,0.48161635,-0.17525317,0.6762999,0.65528715,-0.18560466,1.2605054,-0.62068355,-1.7524735,-0.93478036,2.3230054,1.4105668,-1.051835,1.3263785,-0.68446213,-1.791806,-0.9206749,2.2652097,1.3499418,-1.0355328,-1.4303709,1.3952156,0.8793248,-0.32892635,0.9830697,0.49009326,-0.22137949,1.8855095,-0.5648613,1.5450224,-2.641855,0.17825466,2.1247752,0.19278145,-0.48695755,0.9581366,0.8127792,-0.07979458,0.06609821,0.5732834,-0.5484576,0.74830514,0.68632597,1.0,0.0,0.0,0.0,0.0,0.0,0.0,-2.5355096,0.16486129,-0.99502236,-0.82046986,-0.3781557,-1.4357328,5.188328,-0.08612871,-0.06317496,1.7802864
5.2478323,45.547256,11.612708,12.659552,0.2317791,-0.42190492,0.0018186942,-0.80771196,0.7790391,0.48328307,-0.17820968,0.6789511,0.65711564,-0.17746052,1.2456073,-0.6065582,-1.7434777,-0.9384959,2.3331048,1.4156535,-1.0532789,1.3120142,-0.67053086,-1.7830989,-0.923761,2.2750173,1.3548266,-1.0376233,-1.4386438,1.3927984,0.8674982,-0.3023617,0.9809376,0.48850486,-0.20508327,1.8591099,-0.56307983,1.5655177,-2.6392136,0.17807643,2.024465,0.18733025,-0.47945023,0.9649348,0.8136297,-0.08710828,0.0654165,0.5710862,-0.53501636,0.75558805,0.671292,1.0,0.0,0.0,0.0,0.0,0.0,0.0,-2.50911,0.16307983,-1.0155177,-0.8939028,-0.12505054,-1.2904167,2.5153399,0.061440468,0.033265352,1.5838593
9.237339,46.176437,12.243038,9.915014,-0.08603203,-0.56617785,0.09752363,-0.80535483,0.77977455,0.4893804,-0.18902121,0.67554694,0.6533876,-0.15511756,1.2314787,-0.5925534,-1.7341609,-0.94266313,2.342572,1.4201653,-1.053135,1.2976004,-0.6566072,-1.7744529,-0.92677844,2.2847981,1.359696,-1.0395535,-1.4425106,1.3925947,0.8633838,-0.30196843,0.9783225,0.48717585,-0.18911913,1.832737,-0.5613022,1.5850106,-2.636575,0.17789838,1.924255,0.18210602,-0.47184372,0.97154754,0.8143774,-0.094325915,0.06488753,0.5689302,-0.509243,0.76702344,0.65166366,1.0,0.0,0.0,0.0,0.0,0.0,0.0,-2.482737,0.16130218,-1.0350106,-0.43365955,0.091552734,-0.51003695,-0.07709861,-0.0063180923,0.09034872,1.5561879
13.161635,45.53987,12.445784,6.5744667,-0.40798262,-0.7654808,0.21781637,-0.8063717,0.7774502,0.49711406,-0.22498843,0.67623496,0.65368927,-0.105880454,1.2169632,-0.5788622,-1.7247415,-0.9492773,2.3524218,1.4250649,-1.0501416,1.2831656,-0.64268833,-1.7657783,-0.93004763,2.2945638,1.364556,-1.0413045,-1.4439834,1.391959,0.8684739,-0.33550122,0.9764802,0.48653215,-0.17051488,1.8063908,-0.55952454,1.6035023,-2.6339388,0.1777205,1.8241452,0.17724228,-0.4641037,0.9779073,0.8149373,-0.1013614,0.06453022,0.5669558,-0.4699374,0.78031605,0.62442964,1.0,0.0,0.0,0.0,0.0,0.0,0.0,-2.4563909,0.15952453,-1.0535023,-0.1717329,0.04374981,0.41992664,-3.446126,0.045466423,0.19744039,1.8285722
15.674715,44.82075,12.439295,4.2340307,-0.6312776,-0.9365766,0.2942891,-0.80755734,0.7780618,0.5012424,-0.26091996,0.67834604,0.6516001,-0.07599749,1.2024099,-0.56488216,-1.715654,-0.9561396,2.3623984,1.429716,-1.0489042,1.2687231,-0.62877136,-1.7570179,-0.93383753,2.304318,1.3694102,-1.0428628,-1.4442743,1.3919642,0.87827003,-0.3936952,0.97607166,0.48614267,-0.15108433,1.7800713,-0.5577469,1.6209935,-2.6313055,0.1775428,1.7241354,0.17284203,-0.45622635,0.98395336,0.8152512,-0.10813231,0.06436842,0.5652694,-0.4209186,0.79370534,0.5916665,1.0,0.0,0.0,0.0,0.0,0.0,0.0,-2.4300714,0.15774688,-1.0709934,-0.034952164,0.107097626,0.8893609,-5.8925033,0.17277002,0.24725199,1.922676
16.380318,44.26994,12.577839,3.9248543,-0.63560313,-0.9941135,0.35705113,-0.802867,0.7739639,0.5169291,-0.27464256,0.67419076,0.6499706,0.059941605,1.1884364,-0.551375,-1.7053249,-0.9613018,2.371737,1.4344072,-1.0368686,1.2543055,-0.61487156,-1.7480953,-0.9382063,2.3140607,1.3742605,-1.0441445,-1.4407182,1.389621,0.89662236,-0.45154604,0.97452974,0.48574603,-0.12058136,1.7537785,-0.55597305,1.6374855,-2.6286745,0.17736529,1.6242256,0.16893768,-0.4482231,0.9896762,0.8152712,-0.11462216,0.064390816,0.56395787,-0.37025216,0.8064691,0.55942726,1.0,0.0,0.0,0.0,0.0,0.0,0.0,-2.4037786,0.15597305,-1.0874856,0.36773682,-0.12302399,1.7202258,-5.847698,0.06943941,0.24799109,3.033185
15.366905,42.348446,11.970129,4.1955376,-0.5722139,-1.0480382,0.36459497,-0.8079927,0.7706275,0.52419966,-0.3034469,0.6690748,0.65877867,0.14371547,1.1735063,-0.53780884,-1.6956753,-0.968551,2.380968,1.4401385,-1.029773,1.2399031,-0.60101086,-1.7389781,-0.943153,2.3237767,1.3791147,-1.0450791,-1.4401124,1.3852818,0.9164733,-0.50919086,0.971273,0.48621547,-0.08440739,1.7275124,-0.55420303,1.6529791,-2.6260464,0.17718795,1.5244157,0.16553688,-0.44010162,0.995071,0.8149846,-0.12082504,0.06459488,0.56305313,-0.32114166,0.8161965,0.5265139,1.0,0.0,0.0,0.0,0.0,0.0,0.0,-2.3775125,0.15420303,-1.1029792,0.07112026,-0.32031536,1.8660426,-5.82903,-0.10099411,0.32430887,3.604561
12.703257,40.934845,11.575119,6.715724,-0.29350263,-0.9818338,0.31859586,-0.80388194,0.7649791,0.533473,-0.2900266,0.66420364,0.6568842,0.24879052,1.1595149,-0.52451295,-1.6856308,-0.9721557,2.390197,1.4448031,-1.0202,1.2255198,-0.587215,-1.7296627,-0.9484621,2.333447,1.3839709,-1.0456017,-1.4379085,1.3780941,0.93625104,-0.5383627,0.96664983,0.4862465,-0.04171408,1.701271,-0.552433,1.6674753,-2.623421,0.17701079,1.4247056,0.16254807,-0.43190765,1.0001856,0.81441677,-0.12680022,0.06495473,0.56251925,-0.28190413,0.82292056,0.5000398,1.0,0.0,0.0,0.0,0.0,0.0,0.0,-2.3512712,0.15243301,-1.1174753,0.22039413,-0.5970001,1.839304,-2.9995918,-0.2115488,0.24942756,4.2502193
9.060643,38.942665,10.71158,9.81701,0.015722275,-0.91186404,0.21206859,-0.80216914,0.7624124,0.5235969,-0.2687221,0.65732175,0.6600146,0.30647922,1.1453029,-0.51097375,-1.677303,-0.97533435,2.3991792,1.4499723,-1.0149539,1.2111593,-0.57349163,-1.7202461,-0.95381224,2.34306,1.388827,-1.0456914,-1.435441,1.3707387,0.9430491,-0.5342871,0.9601912,0.4861695,0.0017654299,1.6750565,-0.550663,1.6809753,-2.620798,0.17683381,1.3250952,0.15986443,-0.4236679,1.0050862,0.81363773,-0.13262899,0.06545096,0.56224495,-0.25454545,0.8256016,0.48019934,1.0,0.0,0.0,0.0,0.0,0.0,0.0,-2.3250566,0.15066299,-1.1309752,0.2193451,-0.6069422,0.541687,0.29542446,-0.37827492,0.20126104,4.321271
3.322225,35.869267,9.445917,14.834001,0.546834,-0.74828136,0.04120879,-0.80340326,0.7541691,0.51119035,-0.20501441,0.6520977,0.6589308,0.3408374,1.1308191,-0.4980747,-1.669127,-0.9743137,2.40827,1.45472,-1.0116076,1.1968104,-0.5598646,-1.7108696,-0.95873034,2.3526006,1.3936774,-1.0453652,-1.4349346,1.360577,0.9352699,-0.47823614,0.95320934,0.48540658,0.0427063,1.6488686,-0.548893,1.6934799,-2.618178,0.176657,1.2255844,0.15730095,-0.41545105,1.0098686,0.8127624,-0.13843676,0.066045955,0.5620414,-0.24751066,0.8226768,0.47113794,1.0,0.0,0.0,0.0,0.0,0.0,0.0,-2.2988687,0.14889297,-1.1434798,-0.029063225,-0.87993145,-0.9041786,5.4403424,-0.4024148,0.07728338,4.050042
1.5173273,33.36723,8.547832,16.217186,0.7228402,-0.7618117,-0.025796022,-0.79920244,0.7474166,0.49836373,-0.18277915,0.65322065,0.6550265,0.3608226,1.1168901,-0.48512292,-1.6610332,-0.9770083,2.4179227,1.45918,-1.009283,1.1824805,-0.546351,-1.701659,-0.9629742,2.3620877,1.3985182,-1.0446614,-1.4327338,1.348712,0.9160712,-0.4070119,0.9482354,0.48404938,0.079511546,1.6227055,-0.5471306,1.70499,-2.6155603,0.17648038,1.126173,0.15476227,-0.40728378,1.014577,0.81186205,-0.14427924,0.06671224,0.56179434,-0.24627605,0.8161086,0.46433735,1.0,0.0,0.0,0.0,0.0,0.0,0.0,-2.2727056,0.14713058,-1.15499,0.12750626,-1.052165,-2.032864,6.942004,-0.20637512,-0.0024020672,3.630191
3.6811252,33.55363,8.922074,14.421543,0.5467559,-0.8634832,0.039155867,-0.79673326,0.7433195,0.5088905,-0.19273968,0.6581179,0.64980817,0.3861088,1.1028072,-0.47201908,-1.65077,-0.9822482,2.4278996,1.4634991,-1.0060505,1.1681811,-0.53295,-1.69258,-0.96666396,2.371552,1.4033438,-1.0436143,-1.4291884,1.3375806,0.90494615,-0.35686803,0.9470378,0.48237646,0.113081686,1.5965691,-0.5453682,1.7155069,-2.6129453,0.17630394,1.0268611,0.15229416,-0.3991623,1.0191904,0.8109141,-0.15012358,0.067440465,0.56154525,-0.23745242,0.81140304,0.4540444,1.0,0.0,0.0,0.0,0.0,0.0,0.0,-2.2465692,0.14536819,-1.1655068,0.28214455,-0.9864092,-1.2165785,4.8607826,0.14960766,-0.021153688,3.31247
4.7799263,31.15009,8.031504,12.265812,0.37967694,-1.0572864,0.06370143,-0.7969195,0.7361403,0.4874346,-0.19543743,0.65570796,0.65283823,0.39386517,1.088489,-0.45933595,-1.6438365,-0.9862077,2.4371228,1.4686276,-1.0042278,1.1539122,-0.5196653,-1.683667,-0.9700419,2.3810086,1.408156,-1.0422639,-1.4262804,1.3258407,0.8864361,-0.3318801,0.9459907,0.48127148,0.14219493,1.5704594,-0.5436058,1.7250314,-2.610333,0.17612767,0.9276484,0.14997482,-0.3911171,1.0236433,0.80990374,-0.15587567,0.06825621,0.5613374,-0.2208086,0.803101,0.43621257,1.0,0.0,0.0,0.0,0.0,0.0,0.0,-2.2204595,0.1436058,-1.1750314,0.23314953,-1.0565519,-1.93367,2.358234,0.126338,0.048846006,2.8731108
7.983808,30.775698,7.997197,8.451929,0.017467678,-1.2993591,0.15801504,-0.7965214,0.73273945,0.48679745,-0.23527214,0.6575407,0.6473863,0.3991158,1.07426,-0.44639134,-1.6349872,-0.9935691,2.4467628,1.4728947,-1.0023522,1.1396681,-0.50648457,-1.6749065,-0.9734999,2.3904653,1.4129568,-1.0406541,-1.423843,1.315809,0.87227803,-0.35081604,0.9458728,0.48014104,0.1671414,1.5443764,-0.5418434,1.7335644,-2.607723,0.17595159,0.82853496,0.14793968,-0.383152,1.0278422,0.80879295,-0.16139866,0.0692056,0.561262,-0.18889143,0.7942131,0.40842763,1.0,0.0,0.0,0.0,0.0,0.0,0.0,-2.1943765,0.14184341,-1.1835644,0.22091866,-0.8961439,-1.4843225,-1.9975483,0.17448664,0.07663369,2.4691224
9.061538,30.160572,7.8111687,6.918137,-0.13664079,-1.4243968,0.19183052,-0.79650223,0.72845834,0.48008665,-0.24869297,0.65172935,0.64685434,0.42331523,1.0600178,-0.43363872,-1.6268978,-0.9983692,2.4556382,1.4776423,-0.99832255,1.1254412,-0.49339443,-1.6662757,-0.9772917,2.3999028,1.4177462,-1.0388077,-1.4223112,1.3071365,0.8597833,-0.38888267,0.9434348,0.47921857,0.19031471,1.5183182,-0.54008484,1.741107,-2.605116,0.17577568,0.7295206,0.14626694,-0.37529755,1.0317318,0.8075593,-0.16660471,0.07032761,0.56137764,-0.15045044,0.7843611,0.37656,1.0,0.0,0.0,0.0,0.0,0.0,0.0,-2.1683183,0.14008483,-1.191107,0.14526844,-0.76384544,-1.3132095,-3.8935363,-0.078547,0.10409355,2.299571
9.501119,28.029928,6.940473,5.2435236,-0.24885035,-1.5928187,0.20402066,-0.7989227,0.7225081,0.4640679,-0.28743774,0.65057737,0.6496392,0.42350784,1.0455489,-0.42114362,-1.619869,-1.0060354,2.4649606,1.4827101,-0.996457,1.1112124,-0.48039156,-1.6578052,-0.9816233,2.4093099,1.4225298,-1.0367573,-1.4230008,1.2983391,0.8426931,-0.4482415,0.94024134,0.47878665,0.20992869,1.4922867,-0.5383301,1.7476602,-2.6025112,0.17559995,0.6306052,0.14502907,-0.36755753,1.0352575,0.80620927,-0.17140844,0.07165587,0.56170374,-0.10619212,0.77018934,0.33873156,1.0,0.0,0.0,0.0,0.0,0.0,0.0,-2.1422868,0.13833007,-1.1976602,-0.06122589,-0.7806301,-1.765275,-6.0110626,-0.18379688,0.15736818,1.951924
9.819778,26.925089,6.48974,4.100113,-0.345136,-1.7060186,0.21774878,-0.8040278,0.7193826,0.4583252,-0.33341646,0.6439966,0.6490027,0.43483025,1.0308096,-0.4084533,-1.6119727,-1.0149649,2.4737096,1.4874301,-0.99327433,1.0969492,-0.46746784,-1.6494968,-0.98667586,2.4186673,1.4273096,-1.0345277,-1.4273725,1.2907358,0.8266001,-0.5245172,0.93476367,0.47842288,0.22741131,1.46628,-0.5365753,1.7532251,-2.5999093,0.1754244,0.53178877,0.14426994,-0.3599701,1.0383762,0.80475044,-0.17573644,0.07322151,0.56225616,-0.057492506,0.7537918,0.29717994,1.0,0.0,0.0,0.0,0.0,0.0,0.0,-2.11628,0.13657531,-1.2032251,-0.41882992,-0.66342354,-1.6610265,-7.6893272,-0.4310727,0.16007423,1.7467082
10.445162,25.413242,5.968749,2.648406,-0.4238791,-1.8467116,0.24133405,-0.8023748,0.7129885,0.44988436,-0.3906761,0.6442223,0.64781845,0.4360086,1.0167117,-0.396169,-1.6045084,-1.0257435,2.4830894,1.4920914,-0.9909268,1.0826536,-0.4546271,-1.6413486,-0.99261725,2.4279752,1.4320856,-1.0321435,-1.4303147,1.2821714,0.810692,-0.61750275,0.9300094,0.47800568,0.24219413,1.4403,-0.53482056,1.7578025,-2.5973098,0.175249,0.43307114,0.14402962,-0.35258102,1.0410458,0.8031832,-0.17951682,0.075034566,0.56306314,-0.003805764,0.73379487,0.25124067,1.0,0.0,0.0,0.0,0.0,0.0,0.0,-2.0903,0.13482055,-1.2078025,-0.24328232,-0.7612467,-1.6572952,-9.342182,-0.38112402,0.15171766,1.4840573
11.06546,25.86731,6.285879,2.1756716,-0.48933583,-1.8839525,0.26116055,-0.8024783,0.7112206,0.45398208,-0.4423126,0.6362126,0.6474292,0.43372858,1.0024058,-0.38350505,-1.5959504,-1.0368485,2.4915965,1.4968286,-0.9887706,1.0683352,-0.4418593,-1.6332996,-0.9995409,2.437222,1.4368578,-1.0296296,-1.4318836,1.275302,0.802787,-0.7173332,0.92344564,0.47750723,0.2542692,1.4143467,-0.5330696,1.7613935,-2.5947132,0.17507377,0.3344522,0.14435387,-0.34537506,1.0432528,0.80149925,-0.18272199,0.077093646,0.5641526,0.052709144,0.71472704,0.20495184,1.0,0.0,0.0,0.0,0.0,0.0,0.0,-2.0643468,0.1330696,-1.2113936,-0.08277893,-0.5886078,-0.8802891,-10.007751,-0.56180954,0.13227463,1.2199998
9.039861,24.232004,5.6505394,4.1410728,-0.28254557,-1.8289032,0.18858534,-0.802908,0.708477,0.4325749,-0.46035177,0.63190913,0.65435207,0.43891504,0.9880444,-0.3710116,-1.5900421,-1.0455761,2.500413,1.502293,-0.9857381,1.0540091,-0.42915112,-1.6253879,-1.0073153,2.446404,1.44163,-1.0270089,-1.4327965,1.2696719,0.7871391,-0.79752904,0.9166731,0.47745803,0.26461446,1.3884201,-0.5313225,1.7639991,-2.592119,0.17489873,0.23593189,0.14518356,-0.33836365,1.0450305,0.7997357,-0.18539149,0.079383016,0.5654652,0.10148885,0.6938146,0.1631301,1.0,0.0,0.0,0.0,0.0,0.0,0.0,-2.0384202,0.13132247,-1.213999,-0.03876686,-0.4595518,-1.6515017,-8.064795,-0.57052374,0.14573336,1.0423601
7.8045626,23.17987,5.584358,6.000145,-0.049539477,-1.7419755,0.15269579,-0.79666024,0.7007228,0.4342631,-0.48359525,0.64060426,0.6579441,0.42579675,0.97434306,-0.35907882,-1.5819616,-1.0556748,2.5104644,1.5074244,-0.98442924,1.0397078,-0.4165159,-1.6175983,-1.015742,2.4555593,1.4464022,-1.02431,-1.4290992,1.2618098,0.77587277,-0.85803425,0.91532856,0.47762677,0.27175125,1.3625183,-0.52957535,1.7656202,-2.5895274,0.17472386,0.13751006,0.14644814,-0.33156586,1.0464321,0.79791844,-0.18759826,0.081836514,0.5669532,0.142571,0.6727475,0.12678665,1.0,0.0,0.0,0.0,0.0,0.0,0.0,-2.0125184,0.12957534,-1.2156203,0.41220188,-0.6764889,-1.2278318,-6.112325,-0.003993511,0.14644265,0.71638227
6.872927,22.3938,5.4757137,7.08106,0.06496033,-1.6882597,0.13025212,-0.80117553,0.6973164,0.43617803,-0.5202696,0.63692683,0.6578511,0.41872117,0.9595902,-0.34678423,-1.5739805,-1.0677689,2.5192518,1.5121872,-0.98243785,1.0254236,-0.4039598,-1.6098773,-1.0247236,2.464703,1.4511763,-1.0215558,-1.4281517,1.2539235,0.7707028,-0.911768,0.9144383,0.47761226,0.2766503,1.3366413,-0.5278282,1.7662579,-2.5869384,0.17454918,0.039186638,0.14809799,-0.32496643,1.0474889,0.7960595,-0.18938686,0.08441233,0.5685915,0.17949244,0.6521241,0.09304277,1.0,0.0,0.0,0.0,0.0,0.0,0.0,-1.9866413,0.12782821,-1.2162578,0.117349625,-0.676918,-0.6087899,-5.443561,0.052309036,0.10934472,0.49142838
7.5062747,22.95454,6.0263934,7.0601387,0.046534985,-1.675164,0.1594398,-0.7923678,0.6932097,0.44541666,-0.5579683,0.6347362,0.65669304,0.417043,0.94618684,-0.33463883,-1.5653356,-1.0805205,2.5281768,1.5168456,-0.9798515,1.0111834,-0.3914824,-1.6021335,-1.034249,2.4738355,1.4559485,-1.0187615,-1.4223489,1.2460653,0.7752739,-0.96610594,0.91354907,0.4774515,0.28031224,1.310791,-0.5260811,1.765913,-2.584352,0.17437467,-0.05903849,0.1501236,-0.31855392,1.0482149,0.79414034,-0.19077717,0.08708246,0.57040495,0.21764964,0.633718,0.0601793,1.0,0.0,0.0,0.0,0.0,0.0,0.0,-1.960791,0.12608108,-1.215913,0.62429905,-0.66993237,0.33499002,-5.4916024,0.06517172,0.09035468,0.372231
5.8730817,20.086731,5.260295,8.598053,0.24910003,-1.6078571,0.13124657,-0.78718877,0.678162,0.4448216,-0.5638035,0.61476606,0.6664235,0.44404188,0.9324645,-0.32366621,-1.5576514,-1.0906293,2.5353122,1.5225909,-0.9743573,0.9970213,-0.37913328,-1.5943267,-1.0441977,2.482903,1.4607245,-1.0159177,-1.4140458,1.2315695,0.7818827,-1.0049005,0.90511435,0.47807804,0.28575078,1.2849674,-0.5243416,1.7645866,-2.5817683,0.17420034,-0.15716542,0.1524868,-0.31233978,1.0486349,0.7921616,-0.19181903,0.08981925,0.57237923,0.24873956,0.613537,0.0301919,1.0,0.0,0.0,0.0,0.0,0.0,0.0,-1.9349674,0.12434158,-1.2145865,0.86028576,-1.3339043,0.5398035,-3.9611459,-0.6771207,0.15192628,0.53727627
3.9807901,17.101046,4.266572,10.194536,0.46366334,-1.5593464,0.08306354,-0.7846835,0.66753656,0.43899667,-0.57137287,0.60593957,0.6580181,0.45342785,0.918553,-0.31237963,-1.5504271,-1.1013349,2.5434968,1.5265263,-0.97057486,0.98294127,-0.36695868,-1.5864875,-1.0544287,2.4918637,1.4655005,-1.0130166,-1.406002,1.2131661,0.7842786,-1.0296601,0.89350414,0.4777,0.2914414,1.2591686,-0.5226021,1.7622796,-2.579187,0.17402618,-0.25519425,0.15509796,-0.3063469,1.048777,0.79015297,-0.19255325,0.09260237,0.5744618,0.27254176,0.59068865,0.003109974,1.0,0.0,0.0,0.0,0.0,0.0,0.0,-1.9091686,0.122602075,-1.2122796,0.8049488,-1.7267227,0.14178753,-2.5839329,-0.9911299,0.0312984,0.5517781
3.1769521,14.653753,3.5078242,10.401289,0.5508437,-1.5696895,0.0803196,-0.7791049,0.65311337,0.44279513,-0.596893,0.5927625,0.6615766,0.46545568,0.9050308,-0.30164734,-1.5422081,-1.114118,2.55114,1.5316582,-0.966471,0.968948,-0.355002,-1.5786216,-1.0649172,2.5006795,1.4702746,-1.0100564,-1.3971342,1.1901935,0.7868405,-1.0555875,0.87835824,0.47751784,0.29758242,1.2333965,-0.5208626,1.7589931,-2.5766084,0.17385218,-0.35312504,0.15793991,-0.30059433,1.0486412,0.7881253,-0.19298303,0.09542131,0.57663757,0.29425266,0.5652137,-0.024780577,1.0,0.0,0.0,0.0,0.0,0.0,0.0,-1.8833965,0.12086257,-1.2089932,0.8944273,-2.1880388,0.15832186,-2.7046442,-1.3529301,0.039231777,0.592196
1.3709049,10.743047,2.1150398,11.380177,0.7521664,-1.5573816,0.04244541,-0.77240133,0.6329593,0.43351257,-0.60096204,0.5747633,0.6665903,0.47838536,0.8917079,-0.29170606,-1.5352703,-1.1250134,2.5581558,1.5369335,-0.96221787,0.955053,-0.34332424,-1.5707824,-1.0756098,2.509316,1.4750487,-1.0070313,-1.387042,1.1606663,0.78262454,-1.0743823,0.8589057,0.4776595,0.30408248,1.2076492,-0.5191231,1.7547281,-2.5740323,0.17367835,-0.45095792,0.16095924,-0.2951355,1.0482312,0.78610325,-0.1931152,0.098258704,0.57887256,0.30983624,0.5351076,-0.051996868,1.0,0.0,0.0,0.0,0.0,0.0,0.0,-1.8576492,0.11912307,-1.2047281,1.006937,-2.850175,-0.5032182,-2.0119905,-1.7933726,0.052839518,0.6159544
0.39694595,8.884302,1.2823764,11.691522,0.84560525,-1.5826042,0.012755545,-0.7710427,0.6230832,0.42078996,-0.61943823,0.57750326,0.65342045,0.471142,0.8779487,-0.28101593,-1.5287035,-1.1375536,2.5670662,1.5403907,-0.9599171,0.94124186,-0.3319307,-1.5630519,-1.0865103,2.5177922,1.4798151,-1.0039529,-1.3792577,1.1325363,0.7697924,-1.0957425,0.8444277,0.47633794,0.30901816,1.1819286,-0.5173874,1.7494854,-2.5714588,0.17350471,-0.54869306,0.16411781,-0.2899971,1.0475452,0.78412,-0.19293067,0.101108015,0.58112884,0.3232252,0.50195855,-0.079555474,1.0,0.0,0.0,0.0,0.0,0.0,0.0,-1.8319286,0.117387384,-1.1994853,0.76379776,-2.7162075,-1.3373613,-2.2716522,-1.3140321,-0.11179447,0.45889616
0.13681746,6.764582,0.661006,11.161421,0.85651493,-1.6190773,0.03725891,-0.7623349,0.59792215,0.42503396,-0.646428,0.5462613,0.6508333,0.48940185,0.86500835,-0.27213848,-1.5205486,-1.1511531,2.5724185,1.5448985,-0.9550127,0.92752516,-0.32086378,-1.5554225,-1.0976969,2.52607,1.4845644,-1.0008191,-1.3691031,1.0983787,0.7603004,-1.1267308,0.82235664,0.47466412,0.31483647,1.1562328,-0.5156555,1.7432661,-2.568888,0.17333125,-0.6463305,0.16741753,-0.28521347,1.0465614,0.7821738,-0.1923942,0.10396592,0.5834205,0.33733198,0.46640104,-0.10989246,1.0,0.0,0.0,0.0,0.0,0.0,0.0,-1.8062328,0.11565551,-1.1932662,1.0369301,-3.3254623,-1.0276318,-3.2248497,-2.0851731,-0.15748739,0.54383874
-1.474493,2.5348687,-1.0274405,11.223965,1.0072054,-1.662921,0.010743788,-0.7572816,0.57056445,0.4054775,-0.66519254,0.5237943,0.6417498,0.49308446,0.851797,-0.26380733,-1.5148748,-1.1642162,2.5784495,1.5487394,-0.95151067,0.9139124,-0.31019264,-1.5479515,-1.1092268,2.5340924,1.4892908,-0.99762905,-1.3585461,1.0569534,0.74241585,-1.1622329,0.7955245,0.47198528,0.3201659,1.1305637,-0.51392365,1.7360712,-2.5663195,0.17315796,-0.7438703,0.17083359,-0.28083038,1.0452559,0.7802854,-0.19146684,0.10683172,0.585732,0.34773692,0.42438868,-0.1425426,1.0,0.0,0.0,0.0,0.0,0.0,0.0,-1.7805637,0.11392364,-1.1860712,1.0947704,-4.063821,-1.8639088,-3.6826134,-2.5873542,-0.2795756,0.48453808
-2.6746435,1.202456,-1.564834,12.505449,1.1187141,-1.5902929,-0.02926151,-0.757509,0.5543777,0.39314213,-0.6700646,0.501157,0.64283043,0.4976321,0.8381615,-0.25475487,-1.5086372,-1.1762333,2.584208,1.5535738,-0.94786584,0.9003769,-0.29992586,-1.5406902,-1.12106,2.5418172,1.4939924,-0.99438846,-1.3518504,1.016809,0.72076255,-1.1908927,0.76517296,0.46945217,0.3251266,1.1049194,-0.5121918,1.7279017,-2.5637536,0.17298484,-0.84131265,0.17432404,-0.2768669,1.0436418,0.7784866,-0.19016209,0.109715976,0.588013,0.35339463,0.3827407,-0.17255597,1.0,0.0,0.0,0.0,0.0,0.0,0.0,-1.7549194,0.11219177,-1.1779017,0.6665945,-3.9392233,-2.2000194,-3.011179,-2.9412985,-0.2866745,0.44292212
-4.5610485,-3.1135702,-3.262881,13.377625,1.276434,-1.5747519,-0.07025352,-0.74319345,0.51855284,0.36441943,-0.6782488,0.43865308,0.640316,0.5215936,0.82605755,-0.24807058,-1.5042483,-1.1888849,2.5856824,1.558024,-0.9422291,0.8869492,-0.29012543,-1.5337379,-1.1331278,2.549107,1.4986693,-0.9910878,-1.339729,0.96802515,0.68666995,-1.2128074,0.71683425,0.46679747,0.33150443,1.0793018,-0.5104599,1.7187585,-2.5611904,0.17281188,-0.9386575,0.17783356,-0.27334976,1.0417289,0.77681077,-0.18849856,0.11264859,0.59020644,0.3536457,0.3366107,-0.2022979,1.0,0.0,0.0,0.0,0.0,0.0,0.0,-1.7293018,0.110459894,-1.1687584,1.220274,-4.81323,-3.446269,-2.3524523,-4.7545314,-0.31921268,0.5651653
-8.260303,-12.861179,-7.1545763,13.804384,1.6333001,-1.6301211,-0.13254899,-0.72657216,0.45700833,0.3227128,-0.693857,0.35557786,0.6315012,0.52453035,0.81429195,-0.2444246,-1.5014666,-1.2025135,2.5846648,1.5618194,-0.93863475,0.8737036,-0.28099638,-1.5272682,-1.1454111,2.5557218,1.5033137,-0.987728,-1.3192604,0.89467365,0.6334985,-1.234061,0.64318514,0.4633167,0.33710438,1.053709,-0.50873566,1.7086425,-2.5586298,0.1726391,-1.035905,0.18127441,-0.2703972,1.0394899,0.7753162,-0.18645073,0.115648985,0.59223837,0.34369665,0.27646416,-0.23541497,1.0,0.0,0.0,0.0,0.0,0.0,0.0,-1.703709,0.10873565,-1.1586425,2.120638,-7.2954655,-5.389333,-2.3062468,-7.3273897,-0.43230057,0.45013428
-16.3809,-33.385143,-15.505099,14.942229,2.5017867,-1.7352931,-0.27473754,-0.6995839,0.34672156,0.24238072,-0.696416,0.22937961,0.6253154,0.5269036,0.8037452,-0.24632423,-1.5030301,-1.2150527,2.5786598,1.5658453,-0.9350376,0.860767,-0.27299792,-1.52163,-1.1578604,2.5613065,1.507918,-0.9843205,-1.284461,0.768185,0.5403033,-1.2491281,0.5304319,0.45900562,0.34137702,1.028141,-0.5070114,1.6975547,-2.5560718,0.1724665,-1.1330553,0.18443108,-0.26828766,1.0368751,0.77412856,-0.18396367,0.11867949,0.59396756,0.30890566,0.18505317,-0.2740651,1.0,0.0,0.0,0.0,0.0,0.0,0.0,-1.678141,0.10701141,-1.1475546,3.6766052,-12.662184,-9.4544525,-1.7301321,-11.3188505,-0.57270527,0.24334192
-36.51177,-85.373474,-36.51698,16.666286,4.8587427,-2.031344,-0.5731276,-0.6521148,0.0803142,0.097089395,-0.70263034,0.022030631,0.61208904,0.5100791,0.79555553,-0.2649665,-1.5119212,-1.2281234,2.5635095,1.5691268,-0.9333126,0.8483702,-0.26734358,-1.5174873,-1.1704355,2.5652776,1.5124651,-0.98089683,-1.2230322,0.49735603,0.37132156,-1.2611005,0.35183752,0.45237434,0.34155926,1.0025997,-0.5052872,1.6854962,-2.5535161,0.17229408,-1.2301085,0.18676376,-0.26771545,1.0337495,0.7735209,-0.18087408,0.121471636,0.5951424,0.20903991,0.010675244,-0.32858187,1.0,0.0,0.0,0.0,0.0,0.0,0.0,-1.6525997,0.105287164,-1.1354961,6.6725492,-27.229721,-17.21958,-1.47717,-18.08474,-0.9517133,-0.327456
-62.122795,-151.10109,-63.18902,19.261587,7.7353377,-2.3394556,-0.9374916,-0.5547433,-0.28863788,-0.11584299,-0.68947995,-0.35360315,0.5738259,0.5054517,0.79289585,-0.29620737,-1.5290716,-1.2393836,2.5299172,1.5698477,-0.9303517,0.8369843,-0.26583916,-1.515826,-1.1830202,2.5665402,1.5169092,-0.97748744,-1.1071838,0.033783678,0.09568053,-1.2580124,0.049919933,0.43987173,0.33886406,0.9770832,-0.5035629,1.672468,-2.5509632,0.17212181,-1.3270646,0.18748856,-0.2696495,1.0299284,0.7738569,-0.17698324,0.123716384,0.5954129,0.026436197,-0.26379368,-0.401896,1.0,0.0,0.0,0.0,0.0,0.0,0.0,-1.6270832,0.10356292,-1.122468,12.551522,-46.67621,-28.153198,0.13222694,-30.608585,-1.8022895,-0.7982075
-61.150173,-152.95285,-61.340797,20.60036,8.0368595,-1.9148737,-0.6941578,-0.4733792,-0.5003676,-0.093388215,-0.6985797,-0.49405453,0.5626799,0.49539232,0.7896464,-0.31587592,-1.5251648,-1.2528782,2.517135,1.5731772,-0.92794824,0.8269955,-0.26934868,-1.5164268,-1.1955649,2.5647054,1.5212198,-0.9741076,-0.95956945,-0.48035532,-0.11409696,-1.2527158,-0.26220474,0.42567825,0.3362596,0.9515915,-0.5018463,1.6584707,-2.5484128,0.17194971,-1.4239239,0.1863079,-0.27425385,1.0253932,0.7750295,-0.17235635,0.12509687,0.5949566,-0.16862015,-0.52568287,-0.47169974,1.0,0.0,0.0,0.0,0.0,0.0,0.0,-1.6015915,0.10184631,-1.1084707,15.708041,-51.761482,-21.616884,0.7019758,-31.550703,-2.113098,-0.67054033
-32.605103,-97.81577,-31.788143,18.255907,5.6902122,-0.9182763,0.27100685,-0.32925516,-0.6521964,0.16725105,-0.7246568,-0.5448778,0.5931947,0.5116327,0.79407,-0.33456832,-1.4997017,-1.2680305,2.5102177,1.5805393,-0.92294437,0.8188683,-0.27761608,-1.5172431,-1.2081686,2.5601811,1.5254294,-0.9707221,-0.7623284,-0.94298524,-0.07266868,-1.2617716,-0.5156482,0.41782728,0.33904395,0.9261265,-0.5001297,1.6435058,-2.5458648,0.1717778,-1.5206861,0.18368149,-0.28063202,1.0203042,0.77620715,-0.16742331,0.12528145,0.59479105,-0.29767188,-0.67266923,-0.5223535,1.0,0.0,0.0,0.0,0.0,0.0,0.0,-1.5761265,0.100129694,-1.0935059,20.163631,-46.496155,3.6507502,-0.57213306,-25.364197,-1.2975395,0.21370053
6.110177,-20.591263,5.0367475,11.662852,1.9997356,-0.4258694,1.1903524,-0.03779676,-0.70667374,0.23887676,-0.73307014,-0.52956134,0.6055667,0.4522914,0.8150886,-0.34828347,-1.4933555,-1.2814757,2.507225,1.585986,-0.92549294,0.81366503,-0.2894407,-1.5166881,-1.2209231,2.5538335,1.5296026,-0.9673356,-0.44128758,-1.2624418,0.09852457,-1.279612,-0.6734953,0.41658214,0.3393018,0.9006882,-0.4984131,1.6275738,-2.5433195,0.17160606,-1.6173518,0.1806221,-0.28750992,1.0148644,0.7764285,-0.16265455,0.12419597,0.5960517,-0.31150544,-0.68933386,-0.55294687,1.0,0.0,0.0,0.0,0.0,0.0,0.0,-1.5506881,0.09841308,-1.0775738,31.598461,-32.007362,17.212873,-1.6632557,-15.526522,-0.28848052,0.2614081
22.870108,22.99705,21.682297,10.645117,-0.025185525,-0.3764444,1.2217646,0.10320508,-0.7378826,0.14508605,-0.691653,-0.54474014,0.63464725,0.3777587,0.8239855,-0.36322895,-1.5021795,-1.2900884,2.4993594,1.5930674,-0.9295597,0.81182635,-0.3033529,-1.5147884,-1.2336546,2.5464253,1.5338045,-0.9640025,-0.10091491,-1.4341772,0.22209881,-1.2711347,-0.76248455,0.42169282,0.33234888,0.87527466,-0.49669647,1.610676,-2.5407767,0.17143449,-1.7139207,0.17786407,-0.29411697,1.0092565,0.7754053,-0.15831394,0.12215446,0.59896696,-0.2648422,-0.64596075,-0.565731,1.0,0.0,0.0,0.0,0.0,0.0,0.0,-1.5252746,0.096696466,-1.0606761,33.17031,-17.16752,12.800058,0.804615,-8.671892,0.5511522,-0.41424036
21.61501,31.853262,19.32953,9.834635,-0.31114116,-0.9656215,0.7358837,0.23255816,-0.7607276,-0.08104567,-0.6828781,-0.46109352,0.6357704,0.30822566,0.8350822,-0.37942564,-1.522893,-1.3019425,2.500316,1.5973816,-0.9331799,0.8132254,-0.31815726,-1.5130584,-1.2462202,2.5387502,1.5380617,-0.9607972,0.21711627,-1.495911,0.15911053,-1.2521262,-0.7688518,0.4271508,0.31727037,0.84988594,-0.49498367,1.5928133,-2.5382364,0.17126308,-1.8103932,0.17565346,-0.30041885,1.0035053,0.7734943,-0.15424977,0.119517796,0.6030167,-0.20523305,-0.61899996,-0.5808316,1.0,0.0,0.0,0.0,0.0,0.0,0.0,-1.4998859,0.09498367,-1.0428133,30.854065,-6.1914444,-5.577132,1.8351316,-0.59404373,0.5605638,-1.3283014
11.437104,20.440502,6.944687,7.711961,0.31069025,-1.8444471,0.12805486,0.34905717,-0.7725604,-0.35458145,-0.709398,-0.34720927,0.6268408,0.29106393,0.8481311,-0.3954133,-1.5485165,-1.31716,2.5040293,1.6007458,-0.9316908,0.81746924,-0.3330894,-1.513583,-1.2587248,2.531567,1.5423571,-0.9577569,0.49034274,-1.4926149,-0.119926184,-1.2499607,-0.7017319,0.42978668,0.29981047,0.824522,-0.4932747,1.5739864,-2.5356987,0.17109185,-1.9067692,0.17394638,-0.3068657,0.99744576,0.7713239,-0.14996588,0.116538465,0.60744405,-0.15651427,-0.64789766,-0.61727464,1.0,0.0,0.0,0.0,0.0,0.0,0.0,-1.474522,0.09327468,-1.0239863,26.39014,0.24666786,-26.984192,0.20434856,6.581855,0.12679696,-1.6987026
8.568424,18.11457,2.601314,5.3159747,0.30242425,-2.2569785,-0.07187232,0.46026814,-0.7724998,-0.4642184,-0.7385438,-0.3206616,0.6016655,0.309406,0.86349607,-0.4103394,-1.5600048,-1.3325791,2.499501,1.6025237,-0.9268163,0.82412493,-0.347755,-1.5173728,-1.2713858,2.525189,1.5466505,-0.9548663,0.7213455,-1.4582081,-0.4627016,-1.2715838,-0.61684746,0.42827845,0.28558156,0.7991829,-0.4915657,1.5541966,-2.5331635,0.1709208,-2.0030487,0.17274475,-0.31373978,0.9909119,0.7692473,-0.14507248,0.11340625,0.61184263,-0.10475431,-0.69628733,-0.66919595,1.0,0.0,0.0,0.0,0.0,0.0,0.0,-1.4491829,0.0915657,-1.0041966,22.328186,3.342533,-33.47522,-2.150774,8.32696,-0.37326217,-1.4129281
8.747045,18.72201,3.0355034,4.7953215,0.471269,-2.2115366,-0.032109722,0.5430194,-0.78225774,-0.5071271,-0.76377624,-0.18251689,0.5596741,0.28873718,0.87842685,-0.4259808,-1.5680856,-1.3477634,2.5069373,1.602618,-0.92599255,0.8327433,-0.36208826,-1.5242126,-1.2843977,2.5199704,1.5508906,-0.952114,0.90690976,-1.4253665,-0.7560962,-1.3109426,-0.49021655,0.4218001,0.27207178,0.77387047,-0.48985672,1.5334446,-2.5306308,0.17074992,-2.0992317,0.17201996,-0.32110214,0.9838432,0.76730305,-0.13941857,0.110009514,0.6162032,-0.056855813,-0.74532855,-0.72417724,1.0,0.0,0.0,0.0,0.0,0.0,0.0,-1.4238704,0.089856714,-0.98344463,18.026173,3.1926632,-28.809965,-3.907156,12.529266,-0.8954525,-1.293683
7.2623835,20.153282,4.8853927,8.005936,0.53901505,-1.7298124,-0.01458627,0.554318,-0.7819042,-0.5320565,-0.7596297,-0.18024622,0.55532676,0.3189519,0.8881751,-0.44027868,-1.5774182,-1.3603607,2.5019457,1.6064233,-0.9202188,0.8426539,-0.37616163,-1.533263,-1.2977415,2.5158582,1.5550658,-0.94945705,1.0184674,-1.4015846,-0.9540969,-1.341861,-0.38519907,0.41539624,0.26382875,0.74858284,-0.48814774,1.5117316,-2.5281007,0.1705792,-2.1953187,0.17167664,-0.32883453,0.97629637,0.7654396,-0.1331052,0.106310375,0.6205508,-0.020797206,-0.7784332,-0.770537,1.0,0.0,0.0,0.0,0.0,0.0,0.0,-1.3985828,0.08814773,-0.9617316,10.960579,2.2920847,-19.603432,-3.0257463,10.371489,-0.8415818,-0.7520437
5.803208,20.908278,6.109109,10.090599,0.37956387,-1.3504995,-0.0127019435,0.5706401,-0.7810341,-0.58430547,-0.77539617,-0.24172284,0.52748317,0.31683472,0.89971787,-0.45426506,-1.5916935,-1.3752811,2.4916859,1.6078141,-0.9177736,0.85325205,-0.39008003,-1.5437477,-1.3113753,2.5123677,1.5591627,-0.9468707,1.0736638,-1.3888686,-1.0801092,-1.370051,-0.33727083,0.40720016,0.25711903,0.72332,-0.48644638,1.4890585,-2.5255733,0.17040865,-2.2913096,0.17164803,-0.3367958,0.96832246,0.7636177,-0.12626404,0.10246378,0.6248572,0.009272611,-0.7968106,-0.8126777,1.0,0.0,0.0,0.0,0.0,0.0,0.0,-1.37332,0.086446375,-0.9390585,5.537677,1.1881351,-12.6155615,-2.7232885,4.6615124,-0.9978652,-0.61769485
5.8470273,24.116692,8.793164,12.413128,0.14318371,-0.9451417,0.025268398,0.58662486,-0.7791456,-0.60275847,-0.7729976,-0.2967762,0.518415,0.32759574,0.9119145,-0.4679946,-1.6040235,-1.388675,2.48269,1.6110042,-0.91411114,0.86414397,-0.40393072,-1.5550048,-1.3251921,2.5089574,1.5631796,-0.94433486,1.0947239,-1.3840233,-1.1414236,-1.3850828,-0.34227934,0.39949253,0.2526123,0.6980839,-0.48474503,1.4654261,-2.5230482,0.17023829,-2.3872046,0.17189217,-0.34479523,0.95999485,0.7617729,-0.11906536,0.09865273,0.6291209,0.036296654,-0.79655135,-0.8461634,1.0,0.0,0.0,0.0,0.0,0.0,0.0,-1.3480839,0.08474502,-0.9154261,2.234149,0.4058361,-6.2605143,-1.4033318,-0.6254971,-0.90162754,-0.41803718
4.4117193,24.115517,9.388181,14.323994,0.0820654,-0.672158,0.017272182,0.5876493,-0.7862958,-0.63010955,-0.76953644,-0.36477524,0.5039526,0.3432606,0.9229089,-0.4825603,-1.6180158,-1.4021457,2.4724798,1.6135749,-0.9100088,0.8750731,-0.41780716,-1.5666282,-1.3390661,2.5051656,1.5671183,-0.94182575,1.0929513,-1.3891164,-1.1701186,-1.3876301,-0.39201307,0.3916629,0.250394,0.67287254,-0.48304367,1.4408355,-2.5205257,0.17006807,-2.4830036,0.1723671,-0.3527336,0.95137334,0.75987524,-0.1116472,0.09503245,0.6333193,0.05772712,-0.7878605,-0.87436026,1.0,0.0,0.0,0.0,0.0,0.0,0.0,-1.3228725,0.083043665,-0.89083546,0.010108948,-0.5923748,-3.0477285,-0.137496,-5.1097336,-0.89176893,-0.21511316
5.5769114,27.950066,11.951902,15.128067,-0.11474371,-0.44160202,0.082009874,0.58545315,-0.78345424,-0.61718965,-0.77375597,-0.40119648,0.5039864,0.37361547,0.93361837,-0.49615258,-1.6283472,-1.4164418,2.465046,1.6175169,-0.9044642,0.88589823,-0.43173844,-1.5782802,-1.3529383,2.5007482,1.5709883,-0.93930995,1.0797766,-1.3947166,-1.1641028,-1.386499,-0.4584634,0.38526505,0.25191146,0.647686,-0.48134232,1.4152876,-2.5180056,0.16989803,-2.5787067,0.17306137,-0.36049652,0.94251275,0.75786114,-0.10411747,0.09168602,0.6374949,0.08001294,-0.76698023,-0.89675313,1.0,0.0,0.0,0.0,0.0,0.0,0.0,-1.297686,0.08134231,-0.8652876,-1.1050463,-0.6343126,0.38292408,0.2210617,-6.772953,-0.71853995,0.15833974
4.8262844,27.53724,11.909243,15.570544,0.042187154,-0.34464324,0.08550712,0.58098507,-0.7916086,-0.63029647,-0.776182,-0.3899099,0.51734936,0.37765172,0.9439967,-0.5108993,-1.6413099,-1.4305565,2.4617572,1.6227232,-0.9015448,0.89656126,-0.44575745,-1.5898368,-1.3667933,2.4957814,1.5748144,-0.9367732,1.0625501,-1.4045441,-1.1534635,-1.3847536,-0.5098069,0.38130912,0.25430694,0.62252426,-0.47964478,1.3887835,-2.5154881,0.16972817,-2.6743143,0.17394066,-0.36806107,0.93343765,0.7557049,-0.0965209,0.08855147,0.6416793,0.09700742,-0.7474893,-0.9178462,1.0,0.0,0.0,0.0,0.0,0.0,0.0,-1.2725242,0.07964477,-0.83878344,-1.5060425,-1.0602236,0.8449316,0.29530525,-5.2724304,-0.4735887,0.25764108
4.5212812,27.885746,12.148535,15.533308,0.15318811,-0.28055903,0.098571524,0.5666977,-0.79660505,-0.6230403,-0.78478307,-0.38124382,0.5059374,0.38332272,0.95323104,-0.5254179,-1.6521409,-1.4452716,2.457657,1.6254082,-0.8984409,0.9070126,-0.45988327,-1.6012466,-1.3806692,2.49046,1.5785986,-0.93420875,1.0401433,-1.4155706,-1.1374133,-1.3883538,-0.5402094,0.37716088,0.25731394,0.5973873,-0.47795105,1.361324,-2.512973,0.16955848,-2.7698262,0.174963,-0.37544632,0.92415124,0.75339776,-0.08884927,0.08552396,0.6458972,0.1107725,-0.72901875,-0.93885565,1.0,0.0,0.0,0.0,0.0,0.0,0.0,-1.2473873,0.077951044,-0.81132394,-2.0130157,-1.1796951,1.3733864,-0.22959709,-3.1834602,-0.49432516,0.33399463
5.3454456,30.446167,13.603479,15.780361,0.02487284,-0.16106117,0.10991806,0.5600877,-0.79767257,-0.60718405,-0.7781226,-0.4382408,0.53859776,0.36461583,0.96302134,-0.53965056,-1.661965,-1.4584816,2.4466357,1.6324584,-0.89774716,0.9172522,-0.4741016,-1.6124446,-1.3945566,2.484776,1.5823694,-0.93163,1.0192033,-1.4241364,-1.1147872,-1.3884534,-0.5779949,0.37702817,0.25816226,0.57227707,-0.47625732,1.3329101,-2.5104606,0.16938895,-2.8652427,0.17613792,-0.3826065,0.91467625,0.750918,-0.081146106,0.082605004,0.6501644,0.12573269,-0.7045749,-0.9568056,1.0,0.0,0.0,0.0,0.0,0.0,0.0,-1.222277,0.07625732,-0.78291005,-1.8740177,-0.9278774,2.0313263,0.11432171,-3.9184928,-0.07953048,0.12020469
8.34623,34.06464,15.769064,14.593035,-0.21844858,-0.16891967,0.18669985,0.5771323,-0.7979983,-0.59898883,-0.7856124,-0.45312706,0.5537637,0.3882292,0.9749654,-0.55390143,-1.6723435,-1.4731178,2.4394634,1.6377459,-0.8928071,0.92741454,-0.48837858,-1.6234176,-1.4084765,2.478745,1.5861555,-0.92902744,1.0158473,-1.4290466,-1.0919845,-1.3926806,-0.6115962,0.3789603,0.26114595,0.5471916,-0.4745636,1.3035426,-2.5079508,0.1692196,-2.960564,0.17752266,-0.38947296,0.90502155,0.74820405,-0.073435426,0.07979659,0.6545459,0.1484738,-0.67442644,-0.97435397,1.0,0.0,0.0,0.0,0.0,0.0,0.0,-1.1971916,0.07456359,-0.7535426,-0.16355515,-0.55031776,2.068472,-0.31664371,-3.4801126,0.12295842,0.35151243
6.1749763,33.12664,14.736531,15.345434,-0.0073566437,-0.09775244,0.11871648,0.54794174,-0.79840696,-0.6043395,-0.78470874,-0.44232076,0.5614627,0.3751215,0.9822087,-0.5682193,-1.6838516,-1.4869473,2.4345129,1.6423018,-0.8915153,0.9374634,-0.50268245,-1.6342418,-1.4224287,2.4724889,1.5899683,-0.9264058,1.0019529,-1.4310353,-1.0799779,-1.3957471,-0.6309377,0.3818472,0.26254857,0.52213097,-0.47286987,1.2732227,-2.5054433,0.16905043,-3.0557897,0.17907524,-0.39608002,0.8951938,0.7452862,-0.06570741,0.07706006,0.6590089,0.16404757,-0.6487014,-0.99148715,1.0,0.0,0.0,0.0,0.0,0.0,0.0,-1.172131,0.07286987,-0.7232227,-1.1878014,-0.26426315,0.9847641,-0.18103123,-2.075386,0.21825433,0.1891017
3.2934458,32.27327,13.89363,16.623165,0.27970064,0.05063978,0.05607246,0.5111714,-0.7994726,-0.58712107,-0.78569436,-0.41665462,0.5569758,0.3715342,0.9885805,-0.5826297,-1.692954,-1.5009981,2.4308233,1.6456659,-0.88925236,0.9472233,-0.51699615,-1.6449268,-1.4364077,2.466187,1.5938059,-0.9237765,0.9682427,-1.4316912,-1.0652983,-1.3980924,-0.6304987,0.38421556,0.26324093,0.4970951,-0.47118378,1.2419512,-2.5029383,0.1688814,-3.1509202,0.18071365,-0.402462,0.88521034,0.7422293,-0.05795636,0.07431834,0.66348577,0.1691881,-0.62666833,-1.0061789,1.0,0.0,0.0,0.0,0.0,0.0,0.0,-1.1470951,0.07118377,-0.6919512,-3.1231523,-0.13642311,1.2308598,-0.088739395,-0.11810064,0.18075705,0.11806488
-2.576952,28.624958,11.153744,18.523281,0.76828504,0.23513423,-0.05941905,0.44801056,-0.8049117,-0.57900643,-0.78998804,-0.39112723,0.53677446,0.38017166,0.99202436,-0.59748733,-1.7028275,-1.5154065,2.4270742,1.6474833,-0.88575935,0.95638335,-0.53133464,-1.6554649,-1.4504191,2.460011,1.5976492,-0.92113674,0.89976835,-1.4349493,-1.0510867,-1.4015718,-0.61389184,0.38429207,0.26441386,0.47208405,-0.46949768,1.2097292,-2.5004358,0.16871256,-3.2459557,0.18227196,-0.4086914,0.87508106,0.7391381,-0.050158966,0.07148408,0.6678689,0.15677625,-0.6137955,-1.0205961,1.0,0.0,0.0,0.0,0.0,0.0,0.0,-1.122084,0.069497675,-0.6597292,-6.5256834,-0.4109621,1.1507273,-0.16069412,1.4643192,-0.038278103,0.15537739
-7.773055,26.2323,9.302273,20.441256,1.1784217,0.4602853,-0.15735462,0.38067812,-0.8102651,-0.5583584,-0.7909103,-0.36436734,0.5206708,0.35910028,0.99445117,-0.61236113,-1.7113007,-1.5295101,2.4235742,1.6497163,-0.8852267,0.9646231,-0.5457294,-1.6658046,-1.464461,2.4540906,1.6014811,-0.9185008,0.7999118,-1.4413193,-1.0291471,-1.4043692,-0.585535,0.382571,0.26333374,0.4470997,-0.46781158,1.1765575,-2.497936,0.16854389,-3.3408961,0.18359184,-0.41483307,0.86482084,0.7361187,-0.04230979,0.068473,0.67204946,0.12845528,-0.60685134,-1.032887,1.0,0.0,0.0,0.0,0.0,0.0,0.0,-1.0970997,0.06781158,-0.6265575,-9.60536,-0.7331133,1.8929958,-0.060224533,2.6161432,-0.20228028,-0.07458925
-13.5214,23.278458,6.6227055,21.97784,1.4686866,0.6343479,-0.2786312,0.30152124,-0.81297946,-0.5640033,-0.79244727,-0.39136484,0.5144096,0.35694873,0.99477524,-0.62702733,-1.7222049,-1.5437057,2.4149542,1.652922,-0.8828059,0.9716526,-0.56019473,-1.6759918,-1.4785277,2.4483457,1.6052881,-0.9158801,0.67209435,-1.4486634,-1.01609,-1.4065884,-0.57182294,0.38010764,0.2616817,0.4221382,-0.4661255,1.1424372,-2.4954386,0.16837537,-3.4357417,0.18452263,-0.42095566,0.854425,0.7332904,-0.03439272,0.06531639,0.6758965,0.08644086,-0.6062714,-1.046561,1.0,0.0,0.0,0.0,0.0,0.0,0.0,-1.0721382,0.06612548,-0.5924372,-12.349939,-0.84495544,0.98319054,0.037908554,1.120162,-0.28042793,-0.15494823
-25.393898,17.216267,0.89371824,25.552357,2.0742507,0.96244323,-0.5446092,0.15240723,-0.8119678,-0.584956,-0.78715473,-0.4474356,0.5131347,0.34333077,0.98689336,-0.6413915,-1.7344874,-1.5572431,2.4036021,1.6566017,-0.88154703,0.9769522,-0.5747163,-1.6861999,-1.492581,2.442513,1.6090723,-0.913288,0.48450753,-1.4537456,-1.023553,-1.4036254,-0.58847815,0.37757364,0.25821346,0.39720345,-0.4644432,1.1073691,-2.4929435,0.16820703,-3.5304923,0.18482971,-0.4271736,0.8438753,0.73088735,-0.026382336,0.062155552,0.67914975,0.016411686,-0.61835355,-1.0623018,1.0,0.0,0.0,0.0,0.0,0.0,0.0,-1.0472034,0.0644432,-0.55736905,-18.205458,-0.6525755,-1.1172771,0.636673,-1.9946456,-0.29827356,-0.39109588
-40.706177,7.405629,-7.934186,29.176476,3.0736876,1.1907539,-0.8728596,-0.01824649,-0.81624573,-0.65185624,-0.7907887,-0.44801494,0.46985534,0.34540996,0.9751275,-0.6563409,-1.7513856,-1.5716599,2.3977115,1.6560578,-0.878747,0.97990096,-0.58929324,-1.6968391,-1.5066077,2.4364705,1.6127974,-0.9107293,0.23400964,-1.4596399,-1.0786107,-1.4007636,-0.6114092,0.37038624,0.254761,0.37229156,-0.46276474,1.0713463,-2.490451,0.16803886,-3.6262138,0.18417358,-0.4337082,0.8330892,0.7292403,-0.01814282,0.05906671,0.68146193,-0.090010025,-0.6560141,-1.0883964,1.0,0.0,0.0,0.0,0.0,0.0,0.0,-1.0222915,0.062764734,-0.5213463,-24.357912,-0.79426765,-5.9215784,0.7568836,-2.736187,-0.83162785,-0.437361
-55.730804,0.89292765,-14.326297,33.291832,4.072174,1.6728272,-1.13965,-0.23931119,-0.8187183,-0.6617491,-0.7958929,-0.4140972,0.41836697,0.33030617,0.9559698,-0.67116505,-1.763014,-1.5861969,2.3950608,1.6546341,-0.87769866,0.9797722,-0.6039293,-1.7080715,-1.5206248,2.4303098,1.6164118,-0.90821445,-0.092360444,-1.465811,-1.1399577,-1.4001735,-0.61950284,0.35765284,0.2500849,0.3474064,-0.46108627,1.034367,-2.4879613,0.16787085,-3.7218394,0.1821537,-0.44073868,0.82202417,0.7286459,-0.009577077,0.055987895,0.6825311,-0.23666729,-0.7098349,-1.1169522,1.0,0.0,0.0,0.0,0.0,0.0,0.0,-0.99740636,0.061086267,-0.48436695,-31.771189,-0.89144707,-6.635833,0.6683588,-1.3724685,-1.4594316,-0.5827069
-55.676586,3.0166855,-13.502401,32.363792,4.018063,1.7571805,-1.1193116,-0.34440503,-0.8209194,-0.6977016,-0.7946867,-0.41848794,0.38240436,0.27170783,0.9453317,-0.6860212,-1.7778416,-1.6000934,2.3884609,1.6546522,-0.8810437,0.976503,-0.61862445,-1.7199733,-1.5346361,2.4240956,1.6198736,-0.9057845,-0.4023206,-1.4717243,-1.2085115,-1.3992825,-0.6237079,0.3413057,0.24038379,0.3225441,-0.4594078,0.99643207,-2.4854739,0.16770302,-3.8173695,0.17867088,-0.44828415,0.81065774,0.729158,-0.0006464105,0.052849784,0.6823012,-0.3843263,-0.7598136,-1.1474879,1.0,0.0,0.0,0.0,0.0,0.0,0.0,-0.9725441,0.0594078,-0.44643205,-30.149305,-0.8951664,-7.340288,0.7467747,-1.0077357,-1.9071698,-1.0637641
-50.591297,8.819084,-9.501637,29.808592,3.5433767,1.8350778,-0.95941645,-0.4612177,-0.82319945,-0.71453005,-0.8019261,-0.4331294,0.39289695,0.27872044,0.93038124,-0.7009444,-1.7914263,-1.6148287,2.3807826,1.6591634,-0.87791246,0.9703909,-0.633374,-1.7324817,-1.5486761,2.4178243,1.6231867,-0.90343845,-0.6782779,-1.4770365,-1.2664989,-1.4032513,-0.6302637,0.32708538,0.2324728,0.2977085,-0.45772934,0.95754254,-2.4829888,0.16753535,-3.9128041,0.17380905,-0.4562111,0.7989887,0.7306388,0.008623275,0.0496055,0.6809051,-0.5208586,-0.79423136,-1.1776435,1.0,0.0,0.0,0.0,0.0,0.0,0.0,-0.9477085,0.057729334,-0.40754253,-26.819801,-0.8387089,-6.2526464,0.26073456,-1.2242198,-1.7435312,-0.85240006
-44.29096,15.17634,-4.869574,27.376827,3.0000005,1.8938262,-0.8134995,-0.5698681,-0.8270134,-0.73517823,-0.7965097,-0.4557119,0.39093384,0.21010166,0.9134041,-0.7160753,-1.8059995,-1.6283271,2.3722532,1.6622801,-0.8824283,0.9618288,-0.6481788,-1.7454879,-1.5627314,2.4114308,1.6263739,-0.9012116,-0.91321725,-1.4825562,-1.3134187,-1.4043062,-0.6439171,0.3147432,0.21931764,0.27289772,-0.4560585,0.9176994,-2.4805064,0.16736785,-4.0081434,0.167696,-0.46437454,0.7870429,0.7329204,0.018157315,0.046236906,0.6784984,-0.64311886,-0.81186545,-1.2045823,1.0,0.0,0.0,0.0,0.0,0.0,0.0,-0.9228977,0.056058496,-0.36769938,-22.817575,-0.84826946,-5.092883,0.52518845,-1.890552,-1.563561,-1.3468534
-39.065834,22.159336,-0.005118847,25.915737,2.6604447,2.058914,-0.74053216,-0.68117994,-0.82332736,-0.73702025,-0.7916601,-0.40131038,0.41578737,-0.0051255045,0.89371085,-0.73051155,-1.8191899,-1.6418974,2.3712997,1.6679527,-0.90172416,0.95113814,-0.66300654,-1.7588108,-1.5767714,2.4050794,1.6294714,-0.8992661,-1.1191223,-1.4837209,-1.3397161,-1.4017804,-0.6336859,0.30713958,0.1863509,0.24811172,-0.45438766,0.8769036,-2.4780264,0.16720052,-4.103387,0.16043854,-0.47259903,0.7748857,0.73589766,0.027849376,0.042633742,0.675175,-0.7564668,-0.81425005,-1.2235879,1.0,0.0,0.0,0.0,0.0,0.0,0.0,-0.8981117,0.05438766,-0.32690358,-20.00425,-0.3974676,-2.976942,0.8382082,0.54980516,-1.0740519,-3.2854886
-31.856344,28.933699,5.6442947,24.460503,2.5264368,2.1585321,-0.6367221,-0.75019944,-0.8290626,-0.7202794,-0.77795184,-0.23061647,0.44058448,-0.24655598,0.8761182,-0.7459128,-1.8308387,-1.6545665,2.3820176,1.6735299,-0.9239217,0.9387013,-0.6778562,-1.7721832,-1.5907198,2.3993726,1.632527,-0.8978137,-1.2836641,-1.4862095,-1.3373533,-1.3909589,-0.5507807,0.30413988,0.13181292,0.22334862,-0.45271683,0.835156,-2.475549,0.16703334,-4.198535,0.1521244,-0.4807968,0.7626201,0.7394764,0.037553586,0.03846319,0.6710327,-0.860338,-0.8064657,-1.2316569,1.0,0.0,0.0,0.0,0.0,0.0,0.0,-0.8733486,0.05271682,-0.285156,-15.993071,-0.49712658,-0.034093857,1.5872002,7.915604,-0.5783737,-5.36263
-22.094019,35.651657,11.367043,22.08451,2.5100064,2.0329607,-0.49238217,-0.7725603,-0.8237637,-0.72126156,-0.7673547,0.0758398,0.4437303,-0.39492583,0.86144525,-0.76023257,-1.8443093,-1.6674553,2.4069567,1.6769,-0.9373063,0.92506564,-0.6926973,-1.7854469,-1.6045214,2.395413,1.6355654,-0.896984,-1.3892151,-1.4840791,-1.3234321,-1.3752339,-0.34522012,0.30293283,0.06740724,0.19861221,-0.451046,0.79245776,-2.473074,0.16686635,-4.2935877,0.14287567,-0.48889542,0.7503303,0.7435375,0.047179688,0.033185773,0.6662017,-0.9503363,-0.7958294,-1.2319995,1.0,0.0,0.0,0.0,0.0,0.0,0.0,-0.8486122,0.051045984,-0.24245775,-10.247612,0.015473366,1.2307882,1.9589663,20.308376,-0.3770709,-6.2555776
-13.029999,41.065422,16.026873,19.464695,2.2197201,1.87233,-0.35313484,-0.784737,-0.818531,-0.72175294,-0.7556498,0.276381,0.4731529,-0.46118554,0.84659195,-0.7745504,-1.8576221,-1.6800864,2.423051,1.6828806,-0.94310254,0.9107929,-0.7074354,-1.7990599,-1.6183956,2.39291,1.6394477,-0.89644116,-1.4337543,-1.4623104,-1.4664881,-1.4366776,-0.4199668,0.5258082,0.085655,0.17755127,-0.45128632,0.7658403,-1.5069005,-0.28774947,1.0242283,0.1328888,-0.49671173,0.73786974,0.7478374,0.05648317,0.02698923,0.66092384,-1.0086993,-0.73910016,-1.2908839,0.0,1.0,0.0,0.0,0.0,0.0,0.0,-0.82755125,0.05128631,-0.21584028,-3.395915,3.5392284,-30.307007,-13.886261,-41.964005,44.086628,10.239793
74.11598,176.0,110.0,105.98059,-7.7598243,10.499942,-0.28716582,-0.742607,0.5054928,0.6887352,0.7384695,-0.3274648,0.6714819,-0.3687147,0.8365322,-0.65688616,-1.7301863,-1.5445486,2.3601635,1.7065959,-0.93331265,0.90224224,-0.7203749,-1.8144083,-1.6206081,2.377514,1.6543689,-0.89404553,-0.66747427,-1.2371174,-1.5490643,0.17879635,-1.9085791,1.8233105,0.28600523,0.16249466,-0.4541626,0.7753305,-1.5053939,-0.2874618,0.9239531,0.123435974,-0.50185776,0.72916466,0.75208527,0.055975676,0.028158091,0.6560804,-0.9275206,-0.42470405,-0.7321593,1.0,0.0,0.0,0.0,0.0,0.0,0.0,-0.81249464,0.05416259,-0.22533047,75.05476,22.732973,-5.6739807,160.02684,-147.62167,132.52043,18.551758
3.2754834,156.27377,88.9972,100.452774,0.60224414,6.6584973,-0.90267503,-0.79162216,-0.48462987,0.12210934,0.7904789,-0.66455436,0.5345298,-0.27611545,0.82308,-0.76883787,-1.8021973,-1.5415602,2.3110585,1.7078218,-0.9216571,0.8956085,-0.7311724,-1.8257074,-1.6114814,2.3568954,1.6726851,-0.8914487,-0.66163796,-1.0288609,-0.98725,1.1565055,-2.1169302,1.840767,0.2506917,0.14745331,-0.45703506,0.78381866,-1.5038888,-0.28717437,0.8237782,0.11387634,-0.5052719,0.72559845,0.75695705,0.048084483,0.033298478,0.65084183,-0.96472377,-0.3023675,-0.23634481,1.0,0.0,0.0,0.0,0.0,0.0,0.0,-0.7974533,0.05703506,-0.23381865,0.6894231,20.358372,57.076,97.58144,-22.122192,3.595829,-3.5997808
-24.516876,150.17441,65.411575,81.011696,1.999525,4.850274,-1.4307394,-0.79250276,-0.094438344,-0.34063402,0.75702363,-0.64924055,0.5890527,-0.048749663,0.8163582,-0.7406162,-1.8597709,-1.5357791,2.2919714,1.7315904,-0.8963236,0.88755375,-0.73853475,-1.8331537,-1.595782,2.3369522,1.690023,-0.8892285,-0.8513143,-0.6404847,-0.66429,1.7081106,-1.9578087,1.7021542,0.21205364,0.13242722,-0.45990372,0.7913029,-1.5023853,-0.28688726,0.72330976,0.103666306,-0.507679,0.72597164,0.7629117,0.036933668,0.040153008,0.64419657,-1.0385617,-0.21324016,0.12121371,1.0,0.0,0.0,0.0,0.0,0.0,0.0,-0.7824272,0.05990371,-0.24130291,-18.329704,38.289524,32.15383,55.27184,14.647484,-12.690997,-3.959155
-36.439518,122.094025,41.803806,55.265434,2.256953,3.131719,-1.3500738,-0.8049149,0.019761296,-0.4085137,0.7928645,-0.6287931,0.5514206,-0.06569206,0.80706227,-0.7365586,-1.8740051,-1.5164956,2.274073,1.745165,-0.8957977,0.8770309,-0.7420357,-1.838767,-1.5773761,2.3197823,1.7055602,-0.88743085,-1.1177799,-0.25478432,-0.5281534,1.8850383,-1.639643,1.506102,0.16845845,0.11741638,-0.46277237,0.7977832,-1.5008831,-0.28660044,0.62294173,0.09269714,-0.5093651,0.72874355,0.7699301,0.025038976,0.047863644,0.6358378,-1.1152712,-0.14628176,0.32205847,1.0,0.0,0.0,0.0,0.0,0.0,0.0,-0.76741636,0.06277236,-0.24778318,-26.202333,38.114136,13.203514,17.786194,31.009531,-19.041847,-4.520443
-40.17039,74.69884,14.024131,30.930237,2.2467697,1.2602564,-1.1481245,-0.8199806,0.015136892,-0.55802244,0.7817536,-0.64158905,0.62716275,-0.19267069,0.79503286,-0.740522,-1.8945693,-1.4992008,2.2556233,1.7682765,-0.9066979,0.8641315,-0.7425936,-1.8447237,-1.5589817,2.3056374,1.719276,-0.88612527,-1.3467321,0.009650337,-0.6191945,1.8241407,-1.3403181,1.3271811,0.11721803,0.10241699,-0.4656334,0.80326056,-1.4993826,-0.2863139,0.522674,0.08101463,-0.5107384,0.7322867,0.7778285,0.0142002385,0.055840544,0.62582976,-1.185485,-0.12405189,0.35944805,1.0,0.0,0.0,0.0,0.0,0.0,0.0,-0.75241697,0.06563339,-0.25326055,-22.731638,26.174131,-9.404194,-6.0787916,29.641676,-17.742872,-5.326292
-32.284416,37.142464,-0.63683534,14.746014,1.9290415,0.026622593,-0.71428144,-0.822063,-0.033807486,-0.573261,0.7858219,-0.63579243,0.6432165,-0.25494492,0.7819252,-0.74597436,-1.9020498,-1.4803995,2.242058,1.7835976,-0.9116198,0.8495756,-0.7417429,-1.8521338,-1.5418918,2.29393,1.7313952,-0.88533086,-1.4917774,0.10979425,-0.7820343,1.6706171,-1.1148411,1.1732593,0.06634403,0.08743286,-0.46849442,0.807736,-1.4978836,-0.28602764,0.42250654,0.068761826,-0.51213074,0.7354735,0.786284,0.0052466393,0.06359525,0.61456114,-1.2381169,-0.13426845,0.30148786,1.0,0.0,0.0,0.0,0.0,0.0,0.0,-0.73743284,0.06849441,-0.25773597,-14.4587755,9.891401,-16.398216,-15.385461,22.405529,-15.429568,-5.2377224
-21.687065,12.500178,-6.2707806,6.3975163,1.6630557,-0.61769855,-0.3024725,-0.81677276,-0.10391634,-0.5689668,0.7853762,-0.62829816,0.65585554,-0.27181765,0.7678983,-0.75213456,-1.9090304,-1.4633542,2.2311003,1.7969809,-0.9125126,0.8342176,-0.7409876,-1.8610582,-1.5263336,2.283867,1.7421756,-0.88500184,-1.5502759,0.06408892,-0.92921066,1.5176504,-0.97072446,1.0459393,0.021585954,0.07246399,-0.47135544,0.81121045,-1.4963859,-0.28574166,0.3224392,0.05609131,-0.51379776,0.737752,0.7949518,-0.0017570929,0.07073545,0.6025322,-1.2763901,-0.16481707,0.20125014,1.0,0.0,0.0,0.0,0.0,0.0,0.0,-0.72246397,0.07135543,-0.26121044,-5.7983875,-4.5950055,-14.737093,-15.286994,14.305758,-12.79273,-4.5447955
-14.883549,-1.4309139,-7.4114423,4.7100563,1.7155695,-0.78272694,-0.053803016,-0.8138827,-0.19533335,-0.56636953,0.794959,-0.61545557,0.6526486,-0.27925354,0.7528293,-0.76052094,-1.9176952,-1.4468377,2.2223213,1.8074404,-0.9129272,0.81872517,-0.74148446,-1.8710585,-1.5119121,2.2747688,1.7518497,-0.8850667,-1.5485975,-0.087584466,-1.0235709,1.4173508,-0.88943857,0.94095165,-0.01581132,0.057510376,-0.47420883,0.813685,-1.4948899,-0.28545597,0.22247192,0.043052673,-0.51584625,0.7389685,0.80359536,-0.0071501792,0.07698656,0.5901324,-1.3126783,-0.20659573,0.09381297,1.0,0.0,0.0,0.0,0.0,0.0,0.0,-0.70751035,0.074208826,-0.263685,0.25815964,-15.144666,-9.423614,-9.919715,8.054554,-10.536062,-3.7184558
-7.4669294,6.4169836,-0.09329903,6.9104037,1.3265235,-0.49920893,0.10251002,-0.812891,-0.2149581,-0.5403241,0.7950105,-0.6062644,0.64443576,-0.2509125,0.73743606,-0.7629803,-1.9250909,-1.4324111,2.2141423,1.8162932,-0.9101579,0.80346256,-0.7435673,-1.8814783,-1.4980896,2.2661629,1.7606101,-0.8854348,-1.5186588,-0.24843991,-1.0478578,1.3709215,-0.8511278,0.85434765,-0.04371423,0.04257202,-0.47706223,0.8151607,-1.4933953,-0.28517058,0.12260461,0.029756546,-0.51820374,0.73932445,0.8120551,-0.011436423,0.08238006,0.5776237,-1.3360252,-0.23222382,0.015035495,1.0,0.0,0.0,0.0,0.0,0.0,0.0,-0.692572,0.07706222,-0.26516068,3.0407429,-16.088497,-2.3367882,-4.5104265,3.6996603,-8.657324,-2.755798
-4.249134,17.920345,6.179431,10.3453865,1.0885556,-0.17675745,0.108410284,-0.80893326,-0.239291,-0.5450006,0.79952794,-0.58763504,0.6386566,-0.2620514,0.7225692,-0.7674964,-1.9359784,-1.4181367,2.2073994,1.8244758,-0.9116399,0.78855187,-0.74704534,-1.8918772,-1.484412,2.2577934,1.7686172,-0.8860509,-1.4818624,-0.3810945,-1.0368909,1.3670491,-0.8329066,0.78286284,-0.06742852,0.027648926,-0.4799118,0.8156384,-1.4919022,-0.28488547,0.022837132,0.016288757,-0.5206833,0.7391129,0.82027924,-0.015034537,0.08711833,0.5650895,-1.3517451,-0.24155703,-0.03463068,1.0,0.0,0.0,0.0,0.0,0.0,0.0,-0.6776489,0.0799118,-0.2656384,3.6940336,-13.310581,1.2420893,-0.2608776,1.6424775,-7.12831,-2.3572073
-2.1697218,29.084238,11.906836,13.015359,0.9045589,0.16931456,0.11551584,-0.80710524,-0.28114083,-0.50301814,0.79957354,-0.56504494,0.63840693,-0.2893526,0.70784134,-0.7751594,-1.942179,-1.4044546,2.201289,1.8324579,-0.91498613,0.7739559,-0.7516325,-1.9018583,-1.470618,2.2495651,1.7760062,-0.886893,-1.4522874,-0.48478022,-0.9844628,1.3839337,-0.82008225,0.72431815,-0.089839906,0.012741089,-0.48275757,0.8151192,-1.4904106,-0.28460065,-0.0768306,0.0027122498,-0.52313614,0.7385962,0.82824606,-0.018273912,0.09136903,0.5525633,-1.3611773,-0.23385784,-0.059098583,1.0,0.0,0.0,0.0,0.0,0.0,0.0,-0.66274107,0.08275756,-0.2651192,2.9397726,-10.452575,5.442703,1.7910719,1.0399461,-5.8193207,-2.247183
-0.34854984,36.1409,15.507036,13.818923,0.729472,0.38015103,0.15440693,-0.79767215,-0.3268218,-0.45598713,0.7967371,-0.5486216,0.6313907,-0.26270938,0.69418865,-0.7843147,-1.9474571,-1.3909442,2.1947029,1.8391453,-0.9131639,0.75960594,-0.7571047,-1.9110975,-1.4566314,2.2414627,1.7828841,-0.88791436,-1.4293582,-0.56837314,-0.9030747,1.403858,-0.8077585,0.6757979,-0.10625179,-0.0021514893,-0.48560333,0.8136125,-1.4889205,-0.2843161,-0.17527549,-0.010917664,-0.5254135,0.7379433,0.83592194,-0.021372736,0.095222816,0.540102,-1.3643295,-0.21445121,-0.06942802,1.0,0.0,0.0,0.0,0.0,0.0,0.0,-0.6478485,0.08560333,-0.2636125,2.2526026,-8.462774,8.369839,2.0686388,0.94715357,-4.800427,-1.6597555
-3.9845843,35.186497,13.410775,14.073283,0.86956084,0.41390738,0.09322864,-0.8026206,-0.37576312,-0.46167594,0.79044604,-0.5380516,0.6170132,-0.26336324,0.6793439,-0.794681,-1.9572651,-1.3775868,2.1876576,1.8445854,-0.9142507,0.74538094,-0.76335126,-1.9196634,-1.4425037,2.2334862,1.789331,-0.8890769,-1.420194,-0.64377505,-0.84030104,1.4160643,-0.7949291,0.63436556,-0.11955429,-0.017028809,-0.48844147,0.8111221,-1.4874319,-0.28403184,-0.27362195,-0.024627686,-0.5275078,0.73715013,0.84334266,-0.024338648,0.098724894,0.52766865,-1.3746465,-0.19567418,-0.084938675,1.0,0.0,0.0,0.0,0.0,0.0,0.0,-0.63297117,0.08844146,-0.2611221,0.9102583,-7.6482415,6.4656496,1.325345,1.022327,-4.10496,-1.3460741
-3.7721448,36.493645,13.297025,13.496452,0.77781135,0.38920802,0.10183906,-0.7868578,-0.40857032,-0.44116294,0.790877,-0.5335672,0.606565,-0.23035124,0.6666952,-0.8042083,-1.9637797,-1.363416,2.1801295,1.8499875,-0.912112,0.731258,-0.770274,-1.9276991,-1.4283035,2.225628,1.7954078,-0.8903281,-1.409794,-0.7087027,-0.79080445,1.4217622,-0.7837424,0.59909415,-0.12711851,-0.03189087,-0.4912796,0.80764896,-1.4859447,-0.28374788,-0.37187007,-0.038425446,-0.5294075,0.7361854,0.8505209,-0.02713708,0.10192106,0.51525706,-1.3824489,-0.1754924,-0.102893054,1.0,0.0,0.0,0.0,0.0,0.0,0.0,-0.6181091,0.091279596,-0.25764894,1.0332823,-6.6009283,5.125952,0.6707907,0.8683324,-3.4848213,-0.77861845
-5.088514,36.536846,12.011344,13.3492985,0.7521368,0.32683545,0.07669854,-0.77954334,-0.44026634,-0.44579345,0.79229033,-0.55015326,0.60578614,-0.21646035,0.6533036,-0.8143006,-1.9722785,-1.3490745,2.1706126,1.8559864,-0.91197413,0.71724087,-0.77779084,-1.9354391,-1.4140747,2.217804,1.8011794,-0.8916308,-1.3990629,-0.7663383,-0.7680285,1.4235593,-0.7824658,0.56978285,-0.13139004,-0.04673767,-0.49411774,0.8031809,-1.484459,-0.2834642,-0.47177753,-0.052309036,-0.53110886,0.7349949,0.8574759,-0.029701216,0.10489795,0.50284123,-1.3910234,-0.15675381,-0.12724553,1.0,0.0,0.0,0.0,0.0,0.0,0.0,-0.6032623,0.09411773,-0.25318086,1.0795355,-5.8722258,2.4285913,0.2961874,-0.09652376,-2.8893828,-0.45543313
-3.2544427,37.446262,12.254997,12.210762,0.5628489,0.25861186,0.10386366,-0.7596633,-0.46966517,-0.4342075,0.788665,-0.5621106,0.61455834,-0.22125001,0.6412746,-0.82475734,-1.9788599,-1.3352082,2.161593,1.8626353,-0.91375583,0.7033964,-0.7858437,-1.9430361,-1.3998649,2.2099342,1.8067031,-0.89297074,-1.379644,-0.81864613,-0.7565128,1.420441,-0.789241,0.5466033,-0.13498779,-0.06157112,-0.49694824,0.7977145,-1.4829749,-0.28318077,-0.57158506,-0.06622887,-0.5326195,0.7335377,0.8642006,-0.031989258,0.107721955,0.49043852,-1.3932384,-0.13773593,-0.15493056,1.0,0.0,0.0,0.0,0.0,0.0,0.0,-0.58842885,0.096948236,-0.24771446,1.9316196,-5.336058,1.3087869,-0.20675659,-0.89679956,-2.269864,-0.39609373
-7.8891068,27.484562,6.5556617,10.970871,0.88455415,0.10137284,0.05489015,-0.7603035,-0.54077154,-0.47029817,0.7794727,-0.54137087,0.6081351,-0.18793565,0.627366,-0.8399208,-1.9900659,-1.3219177,2.1557972,1.8675166,-0.9117643,0.6897169,-0.79459554,-1.9507685,-1.3857334,2.202053,1.8120208,-0.89431447,-1.3638749,-0.8944163,-0.77854836,1.4112864,-0.78792465,0.5266348,-0.13412133,-0.07639122,-0.49977875,0.79125077,-1.4814923,-0.28289765,-0.6712928,-0.08028412,-0.5340309,0.7316518,0.87073976,-0.03388068,0.11030593,0.4780136,-1.4105303,-0.12991962,-0.20291129,1.0,0.0,0.0,0.0,0.0,0.0,0.0,-0.57360876,0.09977874,-0.24125075,1.6121864,-7.6640487,-2.110684,-0.73952675,-0.011503696,-1.9917369,0.09279549
-5.976088,28.044476,6.7185025,9.956533,0.7031054,0.026059091,0.07092912,-0.73195225,-0.5646237,-0.48427725,0.7809583,-0.5648569,0.61793673,-0.20202519,0.61652166,-0.8510579,-1.9991962,-1.3076376,2.1455674,1.8738145,-0.914517,0.6762815,-0.80407697,-1.9588232,-1.3716819,2.1941261,1.8171706,-0.8956563,-1.3365946,-0.96632975,-0.81423134,1.4037071,-0.79466003,0.51110435,-0.13420781,-0.09119606,-0.50260544,0.7837907,-1.4800111,-0.28261483,-0.77090085,-0.094472885,-0.5353584,0.7292639,0.87710226,-0.035317972,0.11266032,0.46556607,-1.4221483,-0.12242113,-0.25410828,1.0,0.0,0.0,0.0,0.0,0.0,0.0,-0.5588039,0.10260543,-0.2337907,2.7465582,-7.278013,-3.465581,-0.5842209,-0.8096814,-1.5509248,-0.008270144
-5.9008846,24.703083,5.4749446,8.737572,0.75568765,-0.011095583,0.081214845,-0.71962553,-0.6255258,-0.48911,0.77064306,-0.5468169,0.6364698,-0.22052515,0.604319,-0.86662954,-2.0077343,-1.2946177,2.1394444,1.8808177,-0.9177088,0.66313416,-0.81437856,-1.9672232,-1.3577316,2.1861916,1.8222003,-0.89701146,-1.3073739,-1.0517805,-0.8482434,1.3926803,-0.79370546,0.5000864,-0.13582759,-0.10598564,-0.5054283,0.7753353,-1.4785314,-0.28233227,-0.87040925,-0.108802795,-0.5366287,0.7263117,0.8832906,-0.03630364,0.11471871,0.45312163,-1.4362996,-0.11735683,-0.31260273,1.0,0.0,0.0,0.0,0.0,0.0,0.0,-0.54401433,0.10542831,-0.2253353,2.9416323,-8.625817,-3.3031583,-0.90293884,-0.024712086,-1.123774,-0.13432205
2.286131,29.073435,9.426624,6.572613,0.35426524,-0.07458848,0.21003804,-0.6676729,-0.66514456,-0.46749803,0.7655295,-0.5453784,0.64971864,-0.20232336,0.5963669,-0.880893,-2.013973,-1.2811786,2.1316538,1.8871722,-0.9172438,0.6504541,-0.8255289,-1.9757738,-1.3438995,2.178276,1.827148,-0.8983695,-1.2549499,-1.136425,-0.8567093,1.3806783,-0.7913577,0.49289477,-0.13572186,-0.120759964,-0.5082512,0.7658856,-1.477053,-0.28204998,-0.9698182,-0.123132706,-0.5378418,0.722813,0.8892391,-0.036935024,0.11643103,0.4408327,-1.4319584,-0.110299945,-0.36611146,1.0,0.0,0.0,0.0,0.0,0.0,0.0,-0.52924,0.108251184,-0.21588558,5.189681,-8.542037,-0.67270994,-1.0590553,0.06921291,-0.7276714,0.032567978
8.259645,29.900944,10.861541,4.2812433,0.10540581,-0.24577618,0.27007228,-0.616322,-0.7110784,-0.49047902,0.75487643,-0.5161728,0.6475845,-0.2283043,0.5888219,-0.8966368,-2.0248218,-1.2684119,2.1266587,1.8919064,-0.9211999,0.63846165,-0.83752614,-1.9844236,-1.3302104,2.1704712,1.8320346,-0.8997447,-1.1810194,-1.2209918,-0.8670857,1.3652201,-0.77720016,0.48709083,-0.13802318,-0.13551903,-0.51107025,0.7554425,-1.4755764,-0.281768,-1.0691278,-0.13733673,-0.5390129,0.7187626,0.8949098,-0.037260555,0.11773974,0.4288186,-1.4162394,-0.10780153,-0.42224106,0.0,1.0,0.0,0.0,0.0,0.0,0.0,-0.51448095,0.111070246,-0.20544249,7.2896004,-8.526421,-0.82633495,-1.4385462,1.2430072,-0.59821606,-0.20474195
7.3184757,25.555044,7.818219,2.41003,0.113417625,-0.4326262,0.24530554,-0.5879825,-0.75374496,-0.5647776,0.7217675,-0.46564406,0.6265654,-0.21209103,0.5796634,-0.9129006,-2.0409014,-1.2580338,2.1239069,1.8946911,-0.9209538,0.6272188,-0.85034543,-1.9934874,-1.3167999,2.16296,1.8368526,-0.9011294,-1.1056362,-1.3024601,-0.9191032,1.3335078,-0.7428755,0.4799162,-0.13855137,-0.15026283,-0.5138855,0.7440071,-1.4741012,-0.28148627,-1.1683381,-0.15141678,-0.54021454,0.71404284,0.9003375,-0.037140653,0.11856937,0.4170782,-1.4043351,-0.11291203,-0.49314538,0.0,1.0,0.0,0.0,0.0,0.0,0.0,-0.49973714,0.11388549,-0.1940071,7.444477,-8.210993,-5.0378203,-3.0342817,3.3103824,-0.7781267,-0.0123381615
17.19087,35.72903,13.785737,0.86037683,-0.4942858,-0.464894,0.37009865,-0.51424533,-0.76185656,-0.53993267,0.7110951,-0.48419672,0.63688934,-0.21009947,0.5757942,-0.9265311,-2.0474806,-1.2456903,2.1145403,1.9005415,-0.92213935,0.6169473,-0.8637939,-2.0031698,-1.3038235,2.1556416,1.8417009,-0.9026493,-1.0019265,-1.3590626,-0.9851937,1.2857561,-0.7147966,0.50508106,-0.14843288,-0.16516685,-0.51384735,0.740037,-1.3863245,0.014807486,-0.13169824,-0.16515732,-0.5414543,0.70862275,0.9054907,-0.036523495,0.119055316,0.40568256,-1.3663514,-0.1148764,-0.563349,0.0,1.0,0.0,0.0,0.0,0.0,0.0,-0.48483312,0.113847345,-0.19003701,9.487343,-5.7763577,-3.0171037,-3.336811,2.2138715,-0.568974,-0.06248951
4.6062717,85.49898,33.068485,18.943596,0.098444045,1.2743522,0.23183383,-0.67297065,-0.6362016,-0.21262285,0.776752,-0.5786945,0.6304573,-0.14774778,0.54965025,-0.92741406,-2.024432,-1.2261482,2.0977721,1.9047467,-0.9174241,0.6067201,-0.8770128,-2.0116155,-1.2908478,2.148306,1.8467249,-0.9040979,-1.0298795,-1.3102148,-0.7968163,1.301064,-0.7414966,0.50216955,-0.14414641,-0.17901993,-0.5137024,0.73796886,-1.3849385,0.014792682,-0.23184577,-0.17853165,-0.5421753,0.7034768,0.9102899,-0.036354702,0.119659044,0.39462933,-1.3251597,-0.046715517,-0.50354224,0.0,1.0,0.0,0.0,0.0,0.0,0.0,-0.47098005,0.11370239,-0.18796885,-2.8806925,4.664421,19.235647,1.4569283,-3.236723,-0.14884472,0.2785772
-3.942738,95.07567,35.14729,24.750132,0.6459835,1.6758289,0.10774186,-0.687206,-0.63947415,-0.17849813,0.77139544,-0.57031965,0.63177395,-0.1620438,0.5379995,-0.9409602,-2.0294654,-1.2137083,2.091274,1.9099022,-0.9203023,0.5958959,-0.8895946,-2.0178602,-1.2776299,2.140688,1.8517202,-0.90549886,-1.0999391,-1.2416003,-0.56590575,1.328698,-0.7705819,0.49931416,-0.13927351,-0.19285965,-0.51355743,0.7349,-1.3835539,0.014777892,-0.33189318,-0.19158173,-0.5421028,0.69911975,0.91477287,-0.036981847,0.120638035,0.3837569,-1.2971623,0.03530901,-0.41781092,0.0,1.0,0.0,0.0,0.0,0.0,0.0,-0.45714033,0.11355743,-0.18489999,-7.012582,6.619668,23.445534,2.7377844,-3.5102248,-0.106072426,0.35251677
-6.421701,84.10892,28.076271,22.148659,0.6559868,1.1785766,0.028686224,-0.6505289,-0.63511795,-0.2744562,0.7529268,-0.5568732,0.62905014,-0.16563872,0.530843,-0.9531064,-2.0453057,-1.2023371,2.0850005,1.9146252,-0.92206275,0.58453286,-0.90152794,-2.0225751,-1.2642174,2.1328335,1.8566641,-0.90685976,-1.1484017,-1.1779264,-0.43936655,1.3455085,-0.79228115,0.49333623,-0.13551134,-0.20668411,-0.5134125,0.73083144,-1.3821707,0.014763118,-0.43184057,-0.20442581,-0.5413437,0.6953882,0.91901684,-0.038126532,0.12201458,0.37291664,-1.2776481,0.09824959,-0.36263433,0.0,1.0,0.0,0.0,0.0,0.0,0.0,-0.44331586,0.11341247,-0.18083143,-4.8306704,6.1623096,12.898475,1.7252922,-2.6199937,-0.4547119,0.2670765
-8.487301,65.27676,18.508087,17.73795,0.71093094,0.57426894,-0.01503369,-0.639124,-0.64839786,-0.32633016,0.74943984,-0.53605336,0.6122308,-0.11666232,0.52062047,-0.9663677,-2.0552082,-1.1892734,2.0792282,1.9178871,-0.918526,0.57289517,-0.91305214,-2.0268514,-1.2507133,2.1248913,1.8615354,-0.9081501,-1.1687305,-1.1443785,-0.42329746,1.3523867,-0.796016,0.48535812,-0.12709743,-0.22049522,-0.5132675,0.72576416,-1.3807887,0.014748358,-0.53168803,-0.21717644,-0.5401459,0.6918726,0.9231004,-0.03931136,0.12366961,0.36200276,-1.2721424,0.13646926,-0.35172105,0.0,1.0,0.0,0.0,0.0,0.0,0.0,-0.42950475,0.11326751,-0.17576414,-2.0062447,3.1965733,1.7511666,0.8050442,-0.6518364,-0.7251203,0.77444017
-6.542678,54.012703,13.262619,14.122279,0.48996145,0.121284544,0.030716967,-0.61929196,-0.642639,-0.3615401,0.7632643,-0.56940746,0.60994124,0.016496377,0.51096594,-0.977316,-2.0630054,-1.174387,2.0679505,1.9225296,-0.90650046,0.561288,-0.92438275,-2.0315359,-1.2371254,2.1168652,1.8663305,-0.90926015,-1.157966,-1.1296589,-0.4830553,1.3613094,-0.8055186,0.47748375,-0.105909355,-0.23429298,-0.51312256,0.7196991,-1.3794081,0.0147336135,-0.63143563,-0.22987747,-0.53868866,0.68825185,0.92704195,-0.040164355,0.12556359,0.351018,-1.2677503,0.15697736,-0.36915174,0.0,1.0,0.0,0.0,0.0,0.0,0.0,-0.415707,0.11312255,-0.16969907,1.0870695,1.340723,-5.859727,1.0311127,-1.1345983,-0.75362325,2.0533667
-0.49448586,45.07472,10.475248,9.711749,0.19600904,-0.28543174,0.11792243,-0.5787373,-0.6547567,-0.40613353,0.76459575,-0.55610466,0.60716784,0.09141682,0.5034143,-0.9898584,-2.0721493,-1.1606659,2.0612547,1.9270473,-0.90011847,0.55005944,-0.9357293,-2.0371778,-1.2234834,2.1087775,1.8710098,-0.91013426,-1.110122,-1.1367986,-0.5957559,1.3635749,-0.8128946,0.46070457,-0.084037945,-0.24827003,-0.5122032,0.7140002,-1.4227463,0.20962596,-0.37655634,-0.24249077,-0.5371742,0.68427587,0.93083173,-0.040418282,0.12761553,0.34004834,-1.256546,0.15782693,-0.41248137,0.0,1.0,0.0,0.0,0.0,0.0,0.0,-0.40172994,0.11220321,-0.16400021,5.0071,-0.8416176,-12.12641,-0.062942505,-1.4884591,-2.6092112,1.5399828
-16.242264,48.283638,7.8824944,15.575495,0.81341195,0.075259745,-0.035931084,-0.66177493,-0.6135255,-0.44531325,0.7855804,-0.5814899,0.55533385,0.2118347,0.48388195,-0.9970819,-2.0817091,-1.1449254,2.0506284,1.9265432,-0.88895077,0.53890836,-0.94700646,-2.0440066,-1.209728,2.1006184,1.8755765,-0.91068536,-1.1164786,-1.1250907,-0.7116876,1.3802785,-0.8180803,0.4542935,-0.045979418,-0.2622738,-0.51016235,0.7100188,-1.3978096,0.20633653,-0.40711126,-0.2551899,-0.535511,0.67994034,0.9345182,-0.03996176,0.1299089,0.3289411,-1.272216,0.17766982,-0.4440005,0.0,1.0,0.0,0.0,0.0,0.0,0.0,-0.3877262,0.11016235,-0.1600188,-0.5646229,1.0225773,-11.522543,1.8862963,-0.82609653,-0.9209752,3.6560864
-20.992126,58.18436,10.197401,18.866919,0.9239693,0.3741256,-0.080246426,-0.67556435,-0.5678108,-0.48556063,0.79238045,-0.6021371,0.56835747,0.23490067,0.47135192,-1.0037875,-2.0925627,-1.13049,2.0404046,1.9324123,-0.8871953,0.527532,-0.9579499,-2.0519335,-1.195791,2.092335,1.8800741,-0.91087526,-1.1444706,-1.0846927,-0.81920403,1.3989763,-0.8323699,0.4478048,-0.010332276,-0.2761631,-0.5079498,0.7058722,-1.3861004,0.22697541,-0.41902426,-0.26804924,-0.5335579,0.67541766,0.9381054,-0.03884971,0.13261223,0.3175891,-1.2872595,0.210896,-0.45834988,0.0,1.0,0.0,0.0,0.0,0.0,0.0,-0.37383687,0.10794982,-0.15587217,-2.7275562,3.85499,-10.647619,2.0740747,-1.6045928,-0.6791115,3.4575038
-23.226616,54.2533,8.420723,18.099602,1.0334558,0.40686586,-0.06512087,-0.6829267,-0.5891543,-0.5457407,0.7855347,-0.5901304,0.5555984,0.28970358,0.4592393,-1.0168653,-2.1065075,-1.1172376,2.0333219,1.935634,-0.8819049,0.51582086,-0.9686081,-2.0609019,-1.1817269,2.0839581,1.884503,-0.91070175,-1.1797653,-1.0600966,-0.9224302,1.4097232,-0.8402207,0.4407814,0.026290007,-0.28995514,-0.50554276,0.70154256,-1.3768505,0.24653962,-0.43900633,-0.2810955,-0.5312576,0.67069405,0.9415881,-0.037070986,0.135671,0.30599156,-1.3076512,0.24522993,-0.4802525,0.0,1.0,0.0,0.0,0.0,0.0,0.0,-0.36004484,0.10554275,-0.15154254,-3.451252,2.2723198,-10.209203,1.3015985,-0.9719372,-0.80604553,3.5708368
-23.658108,54.599213,8.2404375,17.747927,0.96944517,0.44725823,-0.050417446,-0.69690007,-0.57336545,-0.60967815,0.79141843,-0.61863273,0.55357504,0.30340073,0.44613084,-1.0259446,-2.1218698,-1.1025851,2.022095,1.9398605,-0.8803617,0.5037502,-0.97903365,-2.0709121,-1.1675744,2.075444,1.8888658,-0.9101896,-1.216009,-1.0374198,-1.0268211,1.4177794,-0.8561,0.4341644,0.05913886,-0.3036499,-0.5029373,0.6970007,-1.3667636,0.26602736,-0.4602585,-0.2943344,-0.5286064,0.66573834,0.9449508,-0.03458852,0.13906564,0.2941635,-1.325912,0.28153855,-0.50372666,0.0,1.0,0.0,0.0,0.0,0.0,0.0,-0.34635007,0.10293731,-0.14700067,-3.5553455,2.070713,-10.293508,1.029563,-1.8003821,-0.7872462,3.1787486
-22.517025,51.94074,7.684541,16.144302,0.8904203,0.44785744,0.010508314,-0.71322215,-0.5815421,-0.6501679,0.78594166,-0.6333269,0.5384552,0.3649815,0.432428,-1.0371878,-2.1359289,-1.0889802,2.0121112,1.9427114,-0.8736915,0.49132696,-0.9893457,-2.0818794,-1.1534009,2.0667436,1.8931551,-0.90934086,-1.2509058,-1.0298126,-1.1195852,1.418052,-0.875488,0.42651102,0.09313368,-0.31724548,-0.5001526,0.69219446,-1.3568282,0.28400922,-0.4878421,-0.3077469,-0.52560425,0.6605013,0.9481669,-0.031384636,0.14272918,0.28217533,-1.3418818,0.31731054,-0.53322077,0.0,1.0,0.0,0.0,0.0,0.0,0.0,-0.3327545,0.10015258,-0.14219445,-3.4333706,0.56681633,-9.101796,0.25241375,-2.1729708,-0.9159744,3.2977357
-16.02937,56.73249,10.901336,14.793943,0.657945,0.46728608,0.09094056,-0.71061736,-0.5669075,-0.6654333,0.7880991,-0.64722306,0.54453176,0.37268138,0.42026523,-1.0460365,-2.1484227,-1.074591,2.0020213,1.9476082,-0.8720727,0.4786588,-0.9995748,-2.0935714,-1.1392425,2.05784,1.8973819,-0.9081811,-1.2721249,-1.0212159,-1.1847913,1.4158154,-0.8963963,0.42075238,0.123243,-0.33069992,-0.49718475,0.68716514,-1.3410727,0.30195057,-0.50766474,-0.32121086,-0.5222397,0.6550239,0.9511916,-0.027548883,0.14661284,0.2701483,-1.343656,0.35258365,-0.55517006,0.0,1.0,0.0,0.0,0.0,0.0,0.0,-0.31930006,0.09718475,-0.13716513,-2.1226168,0.6648779,-6.2541485,-0.066924095,-2.3968577,-0.7474363,2.888292
-12.048001,51.36219,10.204823,12.097665,0.57817674,0.36091185,0.1611658,-0.71271366,-0.6019038,-0.6923214,0.7828963,-0.6434271,0.5128465,0.42967424,0.40738744,-1.0597651,-2.1628036,-1.0609529,1.9934974,1.9486666,-0.86521363,0.46585995,-1.0099107,-2.105786,-1.1251355,2.0487761,1.9015323,-0.90671104,-1.2825361,-1.0382277,-1.2329288,1.4097116,-0.91067475,0.4124798,0.15459064,-0.34400558,-0.49406433,0.6818555,-1.3264318,0.3163515,-0.53802234,-0.33468056,-0.5185776,0.6492566,0.9540046,-0.023144975,0.15056294,0.25820574,-1.3431929,0.38180897,-0.5863934,0.0,1.0,0.0,0.0,0.0,0.0,0.0,-0.3059944,0.094064325,-0.13185549,-1.0573149,-1.872158,-4.5405865,-0.45428276,-1.7291784,-1.0165453,3.0378282
-5.755933,54.07277,12.524145,10.50177,0.38611957,0.32852334,0.23319608,-0.70385116,-0.6002348,-0.69942003,0.7787953,-0.65203,0.5056179,0.4587641,0.39547482,-1.0699341,-2.175728,-1.047256,1.9835732,1.9520941,-0.86083466,0.45306063,-1.0204297,-2.1183245,-1.1111051,2.03959,1.9056038,-0.9049374,-1.2792783,-1.0570089,-1.2597165,1.4009655,-0.9224589,0.404642,0.1846115,-0.35713387,-0.4908104,0.67626595,-1.3073924,0.3294124,-0.56441003,-0.34806252,-0.51465225,0.6432079,0.95658445,-0.018260702,0.15448737,0.24646784,-1.3313789,0.40766752,-0.613553,0.0,1.0,0.0,0.0,0.0,0.0,0.0,-0.2928661,0.09081039,-0.12626594,0.2640009,-2.0394087,-2.3466587,-0.77695847,-1.5260458,-0.9742677,2.8926225
-4.7186384,53.26644,12.449348,9.967318,0.3937292,0.31005442,0.24621329,-0.7082019,-0.61839527,-0.7139877,0.77918446,-0.6649986,0.47413132,0.49127328,0.38224044,-1.0822693,-2.1897233,-1.0331867,1.97309,1.9530169,-0.85581005,0.44030753,-1.0311929,-2.1310613,-1.0971471,2.0302777,1.9095786,-0.9028711,-1.2742412,-1.0833501,-1.2771454,1.3943167,-0.93503064,0.39453584,0.21360272,-0.3700695,-0.4874344,0.670395,-1.2881565,0.34108576,-0.59303975,-0.3613224,-0.51047134,0.6368781,0.9589287,-0.0129412925,0.15833104,0.23498802,-1.3187857,0.431801,-0.641907,0.0,1.0,0.0,0.0,0.0,0.0,0.0,-0.27993047,0.08743438,-0.120395005,0.4364252,-2.7900457,-1.3992548,-0.56505203,-1.6142368,-1.2090743,2.7986705
-2.7040513,59.308537,14.484426,10.366735,0.31573918,0.35071385,0.2756619,-0.70629656,-0.60374355,-0.72231364,0.76877236,-0.6789468,0.43623203,0.54204005,0.36967787,-1.0915673,-2.2032926,-1.0202699,1.962383,1.9532018,-0.8486671,0.42761216,-1.0421029,-2.143924,-1.0832881,2.0208275,1.9134338,-0.90050995,-1.2682508,-1.0942112,-1.2882125,1.3832686,-0.9497072,0.3819567,0.2432734,-0.38277817,-0.48394394,0.6643024,-1.2642003,0.3528255,-0.61266774,-0.3744011,-0.5060463,0.6303321,0.9610291,-0.0072115897,0.16211659,0.22380587,-1.2984756,0.4564885,-0.6613601,0.0,1.0,0.0,0.0,0.0,0.0,0.0,-0.2672218,0.08394393,-0.1143024,0.50218105,-1.249814,-0.70717335,-1.053834,-1.88725,-1.4618635,2.837056
-5.549468,57.165432,12.829443,10.423672,0.39235276,0.32385534,0.25447607,-0.7177625,-0.6236758,-0.74415517,0.7565869,-0.69558346,0.33403158,0.54544914,0.3558359,-1.1044705,-2.2183394,-1.0076294,1.9512691,1.946837,-0.845965,0.41491196,-1.0531522,-2.1569505,-1.0695759,2.011202,1.9170934,-0.8978809,-1.2708988,-1.1089838,-1.3059942,1.3675338,-0.96789646,0.36000007,0.26911232,-0.39526558,-0.48034286,0.65796643,-1.2423995,0.36328787,-0.638421,-0.38731003,-0.5013809,0.62355304,0.9628989,-0.0010008697,0.16582583,0.21290018,-1.282714,0.4809141,-0.68573415,0.0,1.0,0.0,0.0,0.0,0.0,0.0,-0.2547344,0.08034286,-0.10796642,-0.34337044,-1.6406775,-1.3988495,-1.4907598,-2.2357106,-2.4083555,2.4611652
-10.4968605,52.432293,10.04678,10.489388,0.54461944,0.3032602,0.21825647,-0.7369719,-0.6498987,-0.76125216,0.7432472,-0.71188825,0.20239554,0.5460851,0.34121478,-1.1181421,-2.2330756,-0.9952512,1.9400133,1.937333,-0.8432724,0.4020811,-1.0644323,-2.1701984,-1.0560526,2.0013707,1.9204423,-0.8950247,-1.2872758,-1.1349947,-1.3301251,1.3476989,-0.9893375,0.32578242,0.29089466,-0.4075699,-0.47664642,0.6512873,-1.2253956,0.37272653,-0.6752091,-0.40013313,-0.49646378,0.6164647,0.9645668,0.005797329,0.16937907,0.20220746,-1.2759445,0.50673336,-0.71902716,0.0,1.0,0.0,0.0,0.0,0.0,0.0,-0.24243009,0.07664642,-0.101287305,-1.6802549,-2.7634144,-2.0784378,-1.8351555,-2.5353909,-3.6535442,2.0842135
