Afshin1997/kuka_rl_ros2/src/catch_and_throw/input_files/idealpd/polynomial_regressor/optimizer_files/env_247_data.csv
torque0,torque1,torque2,torque3,torque4,torque5,torque6,action0,action1,action2,action3,action4,action5,action6,set_target_0,set_target_1,set_target_2,set_target_3,set_target_4,set_target_5,set_target_6,joint_pos_0,joint_pos_1,joint_pos_2,joint_pos_3,joint_pos_4,joint_pos_5,joint_pos_6,joint_vel_0,joint_vel_1,joint_vel_2,joint_vel_3,joint_vel_4,joint_vel_5,joint_vel_6,tennisball_pos_0,tennisball_pos_1,tennisball_pos_2,tennisball_lin_vel_0,tennisball_lin_vel_1,tennisball_lin_vel_2,end_effector_pos_0,end_effector_pos_1,end_effector_pos_2,end_effector_rot_0,end_effector_rot_1,end_effector_rot_2,end_effector_rot_3,end_effector_lin_vel_0,end_effector_lin_vel_1,end_effector_lin_vel_2,obs_task_0,obs_task_1,obs_task_2,obs_task_3,obs_task_4,obs_task_5,obs_task_6,to_final_target_0,to_final_target_1,to_final_target_2,joint_acc_0,joint_acc_1,joint_acc_2,joint_acc_3,joint_acc_4,joint_acc_5,joint_acc_6
0.0,0.0,0.0,0.0,0.0,0.0,0.0,0.0,0.0,0.0,0.0,0.0,0.0,0.0,1.7802359,-1.0646509,-1.8151424,-1.1170107,1.9373155,1.1170107,-0.91629785,1.7802359,-1.0646509,-1.8151424,-1.1170107,1.9373155,1.1170107,-0.91629785,0.0,0.0,0.0,0.0,0.0,0.0,0.0,2.976528,-0.4880333,0.4182359,-2.9713316,-0.08163224,5.1506596,0.5304168,-0.45449448,0.693097,0.5745483,0.17512383,0.15255436,0.7848268,0.0,0.0,0.0,1.0,0.0,0.0,0.0,0.0,0.0,0.0,-3.6265278,0.08803329,0.13176411,0.0,0.0,0.0,0.0,0.0,0.0,0.0
0.0,0.0,0.0,0.0,0.0,0.0,0.0,0.0,0.0,0.0,0.0,0.0,0.0,0.0,1.7802359,-1.0646509,-1.8151424,-1.1170107,1.9373155,1.1170107,-0.91629785,1.7802359,-1.0646509,-1.8151424,-1.1170107,1.9373155,1.1170107,-0.91629785,0.0,0.0,0.0,0.0,0.0,0.0,0.0,2.976528,-0.4880333,0.4182359,-2.9713316,-0.08163224,5.1506596,0.5304168,-0.45449448,0.693097,0.5745483,0.17512383,0.15255436,0.7848268,0.0,0.0,0.0,1.0,0.0,0.0,0.0,0.0,0.0,0.0,-3.6265278,0.08803329,0.13176411,0.0,0.0,0.0,0.0,0.0,0.0,0.0
0.0,0.0,0.0,0.0,0.0,0.0,0.0,0.0,0.0,0.0,0.0,0.0,0.0,0.0,1.7802359,-1.0646509,-1.8151424,-1.1170107,1.9373155,1.1170107,-0.91629785,1.7802359,-1.0646509,-1.8151424,-1.1170107,1.9373155,1.1170107,-0.91629785,0.0,0.0,0.0,0.0,0.0,0.0,0.0,2.976528,-0.4880333,0.4182359,-2.9713316,-0.08163224,5.1506596,0.5304168,-0.45449448,0.693097,0.5745483,0.17512383,0.15255436,0.7848268,0.0,0.0,0.0,1.0,0.0,0.0,0.0,0.0,0.0,0.0,-3.6265278,0.08803329,0.13176411,0.0,0.0,0.0,0.0,0.0,0.0,0.0
-176.0,69.40747,-5.0529118,110.0,11.142229,4.9108305,-3.71839,-0.81435776,0.34114867,-0.5116514,0.7289215,0.35700217,0.6644357,-0.60765207,1.6988001,-1.030536,-1.8663075,-1.0441185,1.9730157,1.1834543,-0.97706306,1.7787634,-1.0624784,-1.820668,-1.1119086,1.9415917,1.1218039,-0.9167499,-0.19609137,0.28897235,-0.73627216,0.68053144,0.5696141,0.63727593,-0.059819326,2.946837,-0.48884964,0.4689674,-2.9683607,-0.08155062,5.0473237,0.5282494,-0.4577675,0.69398695,0.5780737,0.17370155,0.15123224,0.7828073,-0.2886092,-0.43711117,0.11837656,1.0,0.0,0.0,0.0,0.0,0.0,0.0,-3.596837,0.088849634,0.081032604,-19.53654,28.709183,-73.48732,68.149635,56.76266,63.215836,-5.8660617
-176.0,-1.8600354,-33.04164,110.0,12.039498,2.3443682,-3.406623,-0.7984164,-0.02046177,-0.5567093,0.69676286,0.49378183,0.64785564,-0.5954984,1.6989218,-1.0645247,-1.876339,-1.0422323,1.9909699,1.1865895,-0.97629976,1.7765604,-1.0591806,-1.8347518,-1.097798,1.9502168,1.1337954,-0.915904,-0.22630239,0.3416861,-1.6341906,1.6575259,0.9605145,1.3810992,0.13537286,2.9171755,-0.489666,0.5186663,-2.965393,-0.08146909,4.9440913,0.5233856,-0.46606064,0.69528663,0.5860069,0.17032808,0.14806952,0.7782414,-0.55395305,-0.9582691,0.13433744,1.0,0.0,0.0,0.0,0.0,0.0,0.0,-3.5671754,0.08966598,0.031333685,-2.3574324,4.795003,-90.325905,98.56996,39.198673,72.77322,20.327848
-155.34291,108.954475,26.939903,89.82566,8.189005,7.4201837,-2.1340363,-0.7750025,0.3310757,-0.04881949,0.64780945,0.48426136,0.6832198,-0.54520637,1.6990602,-1.0260731,-1.8396338,-1.033017,1.9986429,1.2021173,-0.97042465,1.7710501,-1.05483,-1.8497818,-1.0795065,1.9603066,1.1475092,-0.9149217,-0.6592788,0.4631515,-1.4535286,1.8874041,1.0203254,1.3612634,0.08470955,2.8875437,-0.49048233,0.5673337,-2.9624283,-0.08138763,4.840962,0.5155934,-0.4772377,0.69818497,0.59689903,0.1654906,0.14379434,0.771782,-0.8617539,-1.1644231,0.34573346,1.0,0.0,0.0,0.0,0.0,0.0,0.0,-3.5375438,0.090482324,-0.017333686,-43.307854,11.2090225,19.827318,23.352123,4.574454,-4.061675,-5.4047318
-95.79136,115.95874,40.638268,55.389687,4.8443565,7.627721,-0.56785846,-0.78135306,0.24584322,0.039167933,0.63960946,0.5160703,0.65750504,-0.58187073,1.6929148,-1.0302457,-1.845865,-1.0155456,2.0119138,1.2132597,-0.97310877,1.761355,-1.0499471,-1.8603237,-1.0613352,1.9701695,1.1602865,-0.9146194,-1.0741724,0.4942842,-0.9136948,1.7939714,0.96959066,1.2455949,0.010078424,2.8579414,-0.49129868,0.61497056,-2.9594665,-0.081306264,4.7379355,0.5052457,-0.48916626,0.70301956,0.6089268,0.15942527,0.13856217,0.76458627,-1.1043273,-1.1903441,0.5345745,1.0,0.0,0.0,0.0,0.0,0.0,0.0,-3.5079412,0.09129867,-0.06497055,-41.85139,2.4077177,56.209244,-9.266758,-6.6299677,-12.891102,-8.043699
-34.788307,135.23643,53.81379,28.724632,1.7961948,7.3141193,0.38272893,-0.79557633,0.34629363,0.14042553,0.62072426,0.5732472,0.6558733,-0.5914654,1.6817974,-1.0153178,-1.8462812,-0.9992628,2.0274942,1.2258738,-0.9737659,1.748305,-1.0445493,-1.8647525,-1.0452982,1.9794049,1.1717592,-0.91509336,-1.3836899,0.5531094,-0.27880296,1.539552,0.90395075,1.1125103,-0.06897729,2.8283691,-0.4921112,0.66157794,-2.9565074,-0.08122497,4.635012,0.49310893,-0.5003166,0.7097031,0.6207791,0.1521413,0.13249573,0.7575824,-1.262868,-1.0756414,0.7162899,1.0,0.0,0.0,0.0,0.0,0.0,0.0,-3.4783692,0.0921112,-0.11157793,-31.463646,5.3515196,65.58551,-25.65081,-7.794559,-13.94608,-8.652412
3.6055763,131.45131,51.276955,12.366909,-0.28585327,5.5212545,0.5234958,-0.8113093,0.4352697,0.103878506,0.613415,0.575068,0.64839077,-0.60425806,1.667174,-1.0010223,-1.8543646,-0.9839567,2.0369117,1.2365984,-0.9755192,1.7331892,-1.0382761,-1.8642147,-1.0318094,1.9880643,1.1820189,-0.9162912,-1.555639,0.6506032,0.16935343,1.2843907,0.8511124,0.99682164,-0.13894995,2.7988265,-0.49291992,0.70715684,-2.9535515,-0.08114377,4.5321918,0.48000392,-0.50997543,0.7178459,0.631959,0.14390156,0.12612353,0.7510079,-1.3378466,-0.91410863,0.84744287,1.0,0.0,0.0,0.0,0.0,0.0,0.0,-3.4488263,0.092919916,-0.15715683,-17.614126,9.385085,46.23591,-25.76394,-5.940902,-11.702514,-7.65817
27.96716,133.09932,49.75046,4.5204363,-1.4966949,4.223112,0.43540907,-0.8197474,0.5477538,0.14206478,0.57706773,0.6178524,0.64232546,-0.59953845,1.6512145,-0.9835007,-1.8500081,-0.9741027,2.0498495,1.2462515,-0.97624505,1.717198,-1.0306333,-1.8606422,-1.0204798,1.9964738,1.1912657,-0.9181003,-1.6146609,0.8012371,0.42301452,1.081658,0.83637905,0.9011477,-0.19685271,2.769313,-0.49372864,0.75170827,-2.9505987,-0.08106264,4.4294744,0.46656808,-0.5178795,0.7271342,0.64240515,0.13497275,0.119979076,0.7447839,-1.3549721,-0.7353169,0.9547872,1.0,0.0,0.0,0.0,0.0,0.0,0.0,-3.419313,0.09372863,-0.20170826,-6.244564,14.784348,26.349604,-20.477509,-1.7883658,-9.464968,-6.3729615
34.7846,125.919464,44.498604,3.6590667,-1.7703907,3.1196551,0.17814632,-0.8187487,0.61972266,0.16338149,0.5841206,0.6117487,0.6411612,-0.5685791,1.6353232,-0.96866107,-1.8443041,-0.9620677,2.0576487,1.2553818,-0.9749582,1.7011687,-1.0213732,-1.8557556,-1.0104719,2.0048454,1.1996866,-0.92038435,-1.5998168,0.966932,0.5128837,0.9733643,0.8372926,0.8227984,-0.2404336,2.739829,-0.49453735,0.7952333,-2.9476488,-0.08098159,4.3268595,0.4531666,-0.52415085,0.73733693,0.6522986,0.12554643,0.11442824,0.73868173,-1.3426142,-0.57586503,1.0399042,1.0,0.0,0.0,0.0,0.0,0.0,0.0,-3.3898292,0.09453735,-0.2452333,1.2360811,16.362309,9.644288,-10.949839,-0.029146671,-7.686126,-4.8258066
32.626945,112.58432,37.596275,4.6973248,-1.5660169,2.2412224,-0.018538898,-0.81208783,0.6700642,0.16490152,0.58113563,0.6224472,0.6490329,-0.5435045,1.6199598,-0.95436674,-1.8392655,-0.95235837,2.06709,1.2645899,-0.9747348,1.6855532,-1.0105776,-1.8507679,-1.0009924,2.0133178,1.2074343,-0.9230165,-1.549471,1.1167433,0.49535495,0.93907833,0.85041505,0.75910044,-0.27198178,2.7103746,-0.49534607,0.83773303,-2.9447017,-0.080900624,4.224347,0.43995625,-0.5290718,0.74820733,0.6618546,0.11580516,0.10960669,0.73247796,-1.3194938,-0.44765064,1.0999874,1.0,0.0,0.0,0.0,0.0,0.0,0.0,-3.3603745,0.09534606,-0.28773302,4.8560143,14.832568,-1.3091445,-3.5187125,1.2825847,-6.2517524,-3.5222173
25.39667,94.86814,29.827076,5.6550236,-1.1527808,1.5486002,-0.10432752,-0.81388897,0.6986873,0.1564119,0.55801994,0.6385438,0.6502519,-0.5348669,1.6041642,-0.9407088,-1.8351266,-0.9451904,2.0771723,1.2724595,-0.9765032,1.6704451,-0.9985708,-1.8463466,-0.9916195,2.0219772,1.2146307,-0.92590326,-1.4985323,1.2283107,0.42521155,0.936329,0.8715768,0.70681036,-0.29532775,2.6809497,-0.4961548,0.8792083,-2.9417574,-0.08081974,4.1219373,0.42696124,-0.5329437,0.7594559,0.67121166,0.10594591,0.105475016,0.7260339,-1.2971579,-0.35236064,1.1301125,1.0,0.0,0.0,0.0,0.0,0.0,0.0,-3.3309498,0.09615478,-0.3292083,4.953885,11.056256,-6.7028165,-0.39266348,2.137649,-5.1380515,-2.6314974
19.153301,79.8554,23.945417,6.203521,-0.7717711,1.1104009,-0.109293155,-0.80479294,0.71877384,0.1449959,0.5481427,0.6445836,0.65524685,-0.52273023,1.5899658,-0.92669344,-1.8318471,-0.93680525,2.0864356,1.2801554,-0.9781763,1.6557814,-0.9857553,-1.8427112,-0.9821839,2.0308502,1.221377,-0.92897695,-1.4561948,1.2990104,0.3437827,0.94547135,0.8926314,0.6643212,-0.312269,2.6515543,-0.4969635,0.91966033,-2.938816,-0.08073894,4.01963,0.4141522,-0.5360527,0.7708355,0.6804262,0.09611444,0.10189957,0.71930426,-1.2786766,-0.2815439,1.1374456,1.0,0.0,0.0,0.0,0.0,0.0,0.0,-3.3015542,0.096963495,-0.36966032,4.1139126,7.0017576,-7.893771,0.75410604,2.1547437,-4.170251,-1.9589067
13.140808,67.67272,19.226162,6.7806277,-0.4540817,0.8092129,-0.110557966,-0.79925096,0.7327904,0.11185794,0.5426314,0.6476998,0.661336,-0.52637106,1.5758563,-0.9124763,-1.8315254,-0.92792076,2.0956202,1.2875106,-0.98161405,1.6414324,-0.972484,-1.8398979,-0.97265667,2.0399063,1.2277628,-0.93219465,-1.4280728,1.3363153,0.2611183,0.9545167,0.9099262,0.630173,-0.32579622,2.622188,-0.49777222,0.95909,-2.935878,-0.08065821,3.9174254,0.4014825,-0.53860474,0.78215104,0.68952423,0.086410604,0.09875726,0.7122756,-1.2653433,-0.22982112,1.1265359,1.0,0.0,0.0,0.0,0.0,0.0,0.0,-3.2721882,0.09777221,-0.40908998,2.7003527,3.6862135,-8.053595,0.7062316,1.7997622,-3.3348322,-1.5962601
8.524601,58.73836,15.937875,7.2401752,-0.20804167,0.62890303,-0.09199842,-0.79711664,0.7354242,0.08318016,0.53766066,0.6474486,0.6655813,-0.52181065,1.5617207,-0.8989416,-1.8315798,-0.9188906,2.1046512,1.294321,-0.9843757,1.6272589,-0.9590391,-1.8378398,-0.96307987,2.049092,1.2338568,-0.9355239,-1.4141552,1.3471183,0.18793355,0.95799035,0.92125255,0.60281473,-0.33613247,2.5928514,-0.49858093,0.9974984,-2.9329429,-0.080577575,3.8153229,0.38890636,-0.54073334,0.7932633,0.69850945,0.07689812,0.09594564,0.70495784,-1.256744,-0.1912399,1.1031854,1.0,0.0,0.0,0.0,0.0,0.0,0.0,-3.2428513,0.09858093,-0.44749838,1.2817144,1.0520935,-7.116884,0.12242794,1.2129903,-2.6499033,-1.2656808
7.0603666,56.517403,15.408686,7.4251976,-0.09727335,0.65824133,-0.033634346,-0.7975972,0.74227,0.07683402,0.523372,0.6546934,0.67222315,-0.5291906,1.5474992,-0.8848121,-1.8301564,-0.91074264,2.1145613,1.3010792,-0.988443,1.6131388,-0.94557416,-1.8363254,-0.95355934,2.0583694,1.23972,-0.9389476,-1.411653,1.3462498,0.13994835,0.94924456,0.93023294,0.5811108,-0.34524843,2.5635438,-0.49938965,1.0348866,-2.9300106,-0.08049701,3.7133224,0.37638932,-0.5424919,0.80412984,0.70734966,0.067570195,0.09337081,0.69740415,-1.2512139,-0.15431072,1.0784771,1.0,0.0,0.0,0.0,0.0,0.0,0.0,-3.213544,0.09938964,-0.4848866,0.13027191,-0.114274025,-4.558432,-1.1078715,0.96582174,-2.0907998,-1.1497974
9.915268,57.938904,16.527218,6.038707,-0.22103494,0.7277492,0.098652765,-0.7956622,0.74591905,0.08924566,0.48708162,0.6571029,0.66895366,-0.51770943,1.5335726,-0.8709823,-1.8274008,-0.9048512,2.1240797,1.3066154,-0.99071854,1.5990072,-0.9321455,-1.8350303,-0.94430965,2.0677154,1.2453963,-0.9424438,-1.4142574,1.3415532,0.12685563,0.9160125,0.9362999,0.56336504,-0.35187027,2.5342658,-0.50019073,1.0712556,-2.927081,-0.08041653,3.611424,0.3639552,-0.5438118,0.81476295,0.715943,0.05838706,0.09095671,0.6897416,-1.2416617,-0.108730674,1.05552,1.0,0.0,0.0,0.0,0.0,0.0,0.0,-3.1842656,0.10019073,-0.52125555,-0.39772987,-0.50029755,-0.9999722,-3.5633326,0.649333,-1.6755581,-0.9218633
13.952608,60.843136,17.980427,4.4690857,-0.4239289,0.7675785,0.21284842,-0.79169554,0.7524019,0.09642148,0.4504383,0.6618713,0.674502,-0.5128688,1.5198377,-0.8569053,-1.8253882,-0.8992658,2.1339025,1.3128464,-0.99373066,1.5848528,-0.9187397,-1.8336895,-0.9355492,2.0771148,1.2509238,-0.94599336,-1.4163718,1.3401948,0.13776588,0.8618476,0.94155914,0.5496807,-0.3568601,2.5050168,-0.5009918,1.1066062,-2.9241545,-0.08033613,3.5096276,0.35166582,-0.5445976,0.82518613,0.7241836,0.04930932,0.08866798,0.68210304,-1.224969,-0.053182155,1.0352919,1.0,0.0,0.0,0.0,0.0,0.0,0.0,-3.155017,0.100991815,-0.55660623,-0.360775,-0.16767979,1.4493048,-5.656755,0.553143,-1.2423515,-0.7744551
15.633144,62.264442,18.155045,3.8239632,-0.5843883,0.686363,0.2290802,-0.79060423,0.76467896,0.07070195,0.4202708,0.66574085,0.6756858,-0.5031903,1.5057924,-0.8422718,-1.8266193,-0.89352214,2.143689,1.3184923,-0.9963124,1.570685,-0.9052805,-1.8323009,-0.927401,2.0865676,1.2563368,-0.9495773,-1.4174266,1.3478271,0.14019291,0.7983376,0.94653887,0.53896403,-0.35981432,2.4757972,-0.5017929,1.1409397,-2.9212308,-0.08025581,3.4079328,0.33958438,-0.5448036,0.835405,0.7320358,0.04033493,0.08654442,0.6745418,-1.2020787,0.005413235,1.0146024,1.0,0.0,0.0,0.0,0.0,0.0,0.0,-3.1257973,0.1017929,-0.5909397,-0.2571106,0.7363558,0.59235096,-6.588459,0.5346656,-0.92270374,-0.5626619
17.316746,62.876083,18.234724,3.1560202,-0.70078236,0.5956005,0.25784636,-0.7894112,0.7700724,0.07121651,0.38079473,0.6701721,0.67148453,-0.49632022,1.4917439,-0.82827324,-1.8251792,-0.8893215,2.153585,1.3234853,-0.9992093,1.5565192,-0.89171255,-1.8309009,-0.9199442,2.0960739,1.2616564,-0.95318025,-1.4169182,1.3597105,0.1412261,0.7273157,0.9518931,0.53014046,-0.36128855,2.4466069,-0.502594,1.174257,-2.9183102,-0.08017557,3.3063397,0.32776985,-0.5444069,0.8454138,0.73948395,0.031476505,0.0846246,0.6670918,-1.1734184,0.065642245,0.9933542,1.0,0.0,0.0,0.0,0.0,0.0,0.0,-3.0966067,0.10259399,-0.624257,-0.09920597,1.169467,0.44140518,-7.3361635,0.5815387,-0.71069,-0.40684342
20.850014,64.91761,19.268856,1.8308125,-0.8655051,0.5707246,0.3495599,-0.78623646,0.77658904,0.10455778,0.32375276,0.6743188,0.6727681,-0.49247074,1.4778955,-0.81405365,-1.8204452,-0.88756895,2.1635058,1.3289332,-1.0024273,1.5423743,-0.8780092,-1.8293464,-0.9133038,2.1056335,1.2669016,-0.9567918,-1.4139482,1.3738679,0.16152386,0.64216435,0.95743597,0.523363,-0.3619476,2.4174457,-0.5033951,1.2065592,-2.9153926,-0.08009541,3.2048483,0.31629187,-0.54335403,0.85522527,0.74646956,0.0227194,0.08289599,0.6598448,-1.1372174,0.13200827,0.97393,1.0,0.0,0.0,0.0,0.0,0.0,0.0,-3.0674458,0.103395075,-0.65655917,0.14791489,1.4040232,2.3771553,-8.740115,0.6026983,-0.4748702,-0.32666326
22.64151,65.14358,19.646484,1.0921183,-0.91483736,0.52664745,0.42607892,-0.7879142,0.7779956,0.140043,0.26926804,0.67739344,0.67112345,-0.4811545,1.4635829,-0.80020964,-1.8153421,-0.886377,2.1733727,1.3340139,-1.0049073,1.5282522,-0.8641857,-1.8274257,-0.9075884,2.1152465,1.2720896,-0.96039957,-1.4120209,1.3852056,0.20348074,0.5473085,0.96283,0.5180092,-0.3611713,2.3883135,-0.50419617,1.2378471,-2.912478,-0.08001533,3.1034584,0.30520374,-0.541626,0.8648464,0.7529332,0.014046732,0.08131148,0.6529032,-1.096656,0.199982,0.9548189,1.0,0.0,0.0,0.0,0.0,0.0,0.0,-3.0383134,0.10419616,-0.6878471,0.050807,1.1327505,4.531124,-9.696043,0.599432,-0.304842,-0.17471313
23.552761,65.63355,20.108032,1.2271643,-0.8715892,0.51497155,0.47087595,-0.7853545,0.78009224,0.18421331,0.22811571,0.68005425,0.66579324,-0.47603768,1.4497168,-0.78617644,-1.8090044,-0.88477683,2.1832519,1.338669,-1.0080034,1.5141569,-0.85027444,-1.8249195,-0.90279907,2.124913,1.2772299,-0.96399397,-1.4090664,1.3932153,0.267314,0.455561,0.96800274,0.51327175,-0.35969663,2.3592105,-0.50499725,1.268122,-2.9095662,-0.079935335,3.0021698,0.29452422,-0.53920746,0.874302,0.758844,0.005420554,0.07980214,0.64634204,-1.0548985,0.26769128,0.9388206,1.0,0.0,0.0,0.0,0.0,0.0,0.0,-3.0092106,0.10499725,-0.71812195,0.16961098,0.8100748,6.6867323,-9.360033,0.5984545,-0.23263693,-0.09264946
25.22127,62.829926,19.163052,-0.542387,-1.00945,0.29260373,0.5340491,-0.78581834,0.78124934,0.20711586,0.145403,0.6885129,0.66152185,-0.46939927,1.4355751,-0.7721495,-1.8042079,-0.88825876,2.1937642,1.3433821,-1.0109339,1.5000826,-0.8363079,-1.8217666,-0.89907116,2.1346443,1.2823282,-0.96756834,-1.4070574,1.3978972,0.3322132,0.3445944,0.9752263,0.50948733,-0.35741916,2.3301365,-0.50579834,1.2973847,-2.9066572,-0.07985541,2.9009826,0.28431806,-0.5361328,0.88354117,0.76416826,-0.0031105718,0.07835842,0.6402321,-1.004875,0.3330663,0.91487104,1.0,0.0,0.0,0.0,0.0,0.0,0.0,-2.9801364,0.105798334,-0.7473847,0.08947849,0.49271584,6.7507505,-11.272526,0.8201957,-0.07959604,0.012809038
30.41337,62.97445,19.666245,-3.77283,-1.3360882,0.11515407,0.6866785,-0.77994335,0.7857651,0.27083072,0.040154926,0.6933263,0.6579209,-0.45238975,1.4220883,-0.7577314,-1.7946836,-0.89505565,2.2039769,1.3481203,-1.0128074,1.4860502,-0.82229555,-1.8178203,-0.89670223,2.1444557,1.2873942,-0.9711084,-1.402096,1.4024761,0.41609153,0.2005135,0.9830493,0.5067995,-0.3534878,2.3010917,-0.5065994,1.3256364,-2.9037511,-0.07977557,2.7998965,0.27471787,-0.53234863,0.89250135,0.76880693,-0.011481216,0.076977,0.6347271,-0.940105,0.40398324,0.88530684,1.0,0.0,0.0,0.0,0.0,0.0,0.0,-2.9510918,0.10659942,-0.7756364,0.40607452,0.496912,8.6143675,-14.559063,0.8976221,0.10859966,0.1989007
34.9746,60.141396,18.993254,-7.615358,-1.683181,-0.2023425,0.83266646,-0.77616423,0.7830717,0.3190066,-0.08225401,0.6987934,0.65227705,-0.4213929,1.4084338,-0.7439884,-1.7859197,-0.9049276,2.214335,1.3526219,-1.0132476,1.4720827,-0.8082632,-1.8129814,-0.89606804,2.1543472,1.2924372,-0.9745864,-1.3951772,1.4036115,0.50681376,0.017345428,0.99145454,0.5050383,-0.34646022,2.272076,-0.5073967,1.352878,-2.900848,-0.07969581,2.6989114,0.26588738,-0.5278549,0.90107965,0.7726537,-0.019582218,0.07568276,0.6299959,-0.8584808,0.47523633,0.84383255,1.0,0.0,0.0,0.0,0.0,0.0,0.0,-2.9220757,0.10739669,-0.80287796,0.6345272,0.17008781,9.23596,-18.441788,0.97779036,0.29104948,0.54475665
35.31447,60.361004,19.107697,-7.610916,-1.7022917,-0.28889477,0.857265,-0.7739084,0.78808707,0.37792662,-0.15840442,0.69692296,0.6431207,-0.38381562,1.394692,-0.72945446,-1.7751887,-0.9119085,2.2240396,1.3567493,-1.012968,1.4581858,-0.79420793,-1.8071735,-0.897263,2.1642997,1.2974592,-0.9779691,-1.3879592,1.4064308,0.6056313,-0.1653968,0.99735785,0.50294656,-0.33584875,2.2430892,-0.50819016,1.3791103,-2.8979475,-0.07961613,2.5980275,0.25788787,-0.52264404,0.90925527,0.7756843,-0.027380385,0.07448737,0.6261115,-0.77423215,0.54438984,0.8036949,1.0,0.0,0.0,0.0,0.0,0.0,0.0,-2.8930893,0.10819015,-0.8291103,0.69987774,0.35350323,9.950542,-18.35467,0.77735186,0.2701044,0.94423294
31.813786,62.384716,19.667255,-3.7891746,-1.3640258,-0.1751822,0.7562078,-0.7615699,0.7943096,0.43198723,-0.1767109,0.6934855,0.6411554,-0.3159038,1.3820288,-0.714777,-1.7639748,-0.9149341,2.2336483,1.3615748,-1.0095595,1.4444033,-0.7800993,-1.8003643,-0.8999142,2.1742904,1.3024603,-0.98120016,-1.374961,1.4126194,0.70576847,-0.29845983,1.0003985,0.5004967,-0.31912068,2.2141314,-0.5089836,1.4043347,-2.89505,-0.07953653,2.4972441,0.25063673,-0.51677704,0.9171334,0.7779712,-0.034980666,0.07335968,0.6230213,-0.70195687,0.6080936,0.77701086,1.0,0.0,0.0,0.0,0.0,0.0,0.0,-2.8641315,0.108983606,-0.85433465,1.3113976,0.70848465,9.960926,-13.347303,0.5676031,0.18512607,1.5859127
23.874613,62.047928,19.136803,2.417513,-0.745344,0.0032512974,0.5470422,-0.7585764,0.79447305,0.47283673,-0.16524737,0.6888046,0.64243287,-0.26116577,1.3685457,-0.70065194,-1.7530806,-0.91643894,2.243171,1.3667036,-1.0073167,1.4307467,-0.7659334,-1.7926223,-0.90336174,2.184285,1.3074366,-0.9842319,-1.3625218,1.418276,0.79661536,-0.3602997,1.0004913,0.49763808,-0.29820558,2.1852026,-0.50977707,1.4285519,-2.8921554,-0.07945701,2.3965616,0.24392843,-0.5103569,0.9248586,0.779677,-0.04254129,0.072249636,0.6205433,-0.6531877,0.6599398,0.76525223,1.0,0.0,0.0,0.0,0.0,0.0,0.0,-2.8352027,0.10977706,-0.8785519,1.2592316,0.67186356,8.942008,-6.2219563,0.33694506,0.06069541,2.0189166
14.720484,59.545258,17.647259,8.914673,-0.0861671,0.13550536,0.2895947,-0.7537669,0.7947652,0.48727864,-0.12622671,0.68463564,0.64405566,-0.2061444,1.35537,-0.68645686,-1.7438945,-0.9159844,2.2527485,1.3718421,-1.0048463,1.4172064,-0.75172365,-1.784169,-0.9068646,2.1942604,1.3123823,-0.98702997,-1.3512564,1.4223766,0.8609754,-0.34704667,0.9981707,0.49435222,-0.27396846,2.1563027,-0.5105705,1.451763,-2.8892636,-0.07937756,2.2959797,0.23751535,-0.5035324,0.9325585,0.7810106,-0.050206404,0.07112087,0.6184201,-0.62982714,0.69671863,0.76554537,1.0,0.0,0.0,0.0,0.0,0.0,0.0,-2.8063025,0.11057052,-0.901763,1.1242628,0.52917004,6.2476397,1.2604952,0.12843609,-0.070381165,2.3522258
0.1267395,56.17756,15.575021,19.014362,0.9650639,0.45736343,-0.08659911,-0.7672779,0.7938342,0.49304914,-0.0060967254,0.681277,0.6486959,-0.13791978,1.3404787,-0.6723402,-1.734864,-0.9074743,2.262388,1.377252,-1.000822,1.4036795,-0.737491,-1.7752903,-0.9094643,2.2042053,1.3172938,-0.9895572,-1.3534383,1.424012,0.8961421,-0.23141356,0.9947781,0.49042177,-0.2458515,2.1274316,-0.511364,1.4739692,-2.886375,-0.0792982,2.1954985,0.23101804,-0.49647903,0.94040465,0.7822581,-0.058176998,0.069911346,0.61627924,-0.6485297,0.7136017,0.7845381,1.0,0.0,0.0,0.0,0.0,0.0,0.0,-2.7774315,0.11136398,-0.9239692,-0.28014183,0.29444695,3.3132434,11.441263,0.0592947,-0.2799809,2.7287035
-10.437377,50.265144,12.79816,25.24606,1.6451087,0.57317346,-0.37699512,-0.7828831,0.78733,0.48088947,0.08634333,0.67469805,0.6561155,-0.14444755,1.3253912,-0.65875804,-1.7272013,-0.90083,2.271675,1.3829054,-1.004002,1.3900248,-0.7232841,-1.7663028,-0.91046184,2.2141044,1.322169,-0.9918317,-1.3699347,1.4200394,0.89899695,-0.056547105,0.98928577,0.4865978,-0.22170559,2.0985897,-0.51215744,1.4951713,-2.8834894,-0.07921892,2.0951178,0.22412558,-0.4893837,0.94848454,0.7836718,-0.06656974,0.06859112,0.61377704,-0.69481367,0.71409553,0.8091782,1.0,0.0,0.0,0.0,0.0,0.0,0.0,-2.7485895,0.112157434,-0.9451713,-1.760292,-0.26714802,0.101065636,17.317339,-0.1512289,-0.3744781,2.325943
-17.171919,47.166153,11.384448,30.15995,2.145323,0.71486795,-0.5868051,-0.7865594,0.7839828,0.46594977,0.22572732,0.66888,0.65772575,-0.11754634,1.3113688,-0.64488584,-1.7197078,-0.8878891,2.2809925,1.3879415,-1.0035864,1.3761832,-0.7091383,-1.7574699,-0.9092955,2.2239387,1.327006,-0.99387354,-1.3893312,1.4131328,0.8775385,0.17371477,0.9824207,0.4824186,-0.19864023,2.0697763,-0.5129509,1.5153704,-2.8806067,-0.07913971,1.9948372,0.21661107,-0.4823532,0.9568704,0.785429,-0.075493254,0.06713792,0.6106509,-0.7621747,0.706139,0.8416649,1.0,0.0,0.0,0.0,0.0,0.0,0.0,-2.7197762,0.11295089,-0.96537036,-2.063489,-0.5647421,-2.339542,22.846693,-0.27922392,-0.5082607,2.2155137
-11.982803,45.034393,10.690134,25.06068,1.5707691,0.42894068,-0.48210675,-0.79640937,0.7866226,0.45120525,0.22120908,0.6647577,0.6619096,-0.18375255,1.2965422,-0.630476,-1.7123494,-0.8871746,2.2904146,1.393197,-1.0122488,1.3621355,-0.6950439,-1.748944,-0.9062676,2.233693,1.3318106,-0.9957599,-1.4103029,1.4085131,0.8437638,0.34531727,0.9745161,0.47960058,-0.18557754,2.040992,-0.51374435,1.5345674,-2.8777268,-0.079060584,1.8946568,0.20857868,-0.47536469,0.9654529,0.78749985,-0.08483793,0.06564108,0.6069084,-0.80888706,0.70506394,0.8570057,1.0,0.0,0.0,0.0,0.0,0.0,0.0,-2.6909919,0.11374435,-0.98456734,-2.209735,-0.36246777,-3.5014033,17.005957,-0.45131445,-0.3267467,1.2237877
-3.2163515,43.793114,10.664371,17.519016,0.79764444,0.04820832,-0.243261,-0.8000891,0.7829691,0.44743824,0.21323133,0.6665228,0.66070986,-0.19374266,1.2821267,-0.616747,-1.7042003,-0.88494444,2.3003452,1.3978816,-1.0151342,1.3479124,-0.6809982,-1.7407291,-0.9021277,2.243386,1.3365961,-0.99754804,-1.4268626,1.4034927,0.81394434,0.43637842,0.9683169,0.47819725,-0.17676435,2.0122364,-0.5145378,1.5527632,-2.8748498,-0.07898154,1.7945765,0.20031181,-0.46831894,0.974037,0.78971785,-0.094386205,0.06420034,0.60275626,-0.8245468,0.7131175,0.8520158,1.0,0.0,0.0,0.0,0.0,0.0,0.0,-2.6622362,0.114537805,-1.0027633,-1.7513037,-0.4277706,-3.0164719,8.970737,-0.36344528,-0.08394122,0.7939398
7.8009443,43.002243,10.729392,7.9617357,-0.17661333,-0.46630818,0.06112906,-0.800509,0.78307563,0.43516433,0.15484507,0.67099303,0.6612962,-0.20413141,1.2678615,-0.60269064,-1.6972127,-0.8866432,2.3104854,1.4027257,-1.0179611,1.3335749,-0.6669897,-1.732785,-0.897839,2.253041,1.3413779,-0.99927133,-1.4362952,1.4001313,0.78821427,0.42592528,0.9651862,0.47881487,-0.17118219,1.9835094,-0.51532364,1.5699592,-2.8719757,-0.07890257,1.6945963,0.19219238,-0.4611168,0.9823883,0.79186654,-0.10385456,0.062938794,0.59849834,-0.7994544,0.729798,0.8227109,1.0,0.0,0.0,0.0,0.0,0.0,0.0,-2.6335094,0.11532363,-1.0199592,-1.02036,-0.28276443,-2.5070071,-1.1669934,-0.15372038,0.26959777,0.46668053
13.828098,44.291214,11.491516,3.3831072,-0.6613809,-0.6980823,0.24858204,-0.8039949,0.7836851,0.44369784,0.13841538,0.6693318,0.6555409,-0.17745692,1.2531754,-0.5886212,-1.6884152,-0.8839975,2.3199742,1.406932,-1.017017,1.3191744,-0.6529993,-1.7249725,-0.8940224,2.2626731,1.3461672,-1.00093,-1.4415952,1.3987706,0.7791593,0.3665054,0.9626501,0.47981185,-0.16434477,1.9548112,-0.51610947,1.5861559,-2.8691044,-0.078823686,1.5947161,0.18447748,-0.4537201,0.99038595,0.79378504,-0.1130856,0.061913416,0.59437656,-0.7535588,0.75230634,0.78534204,1.0,0.0,0.0,0.0,0.0,0.0,0.0,-2.6048112,0.11610946,-1.0361559,-0.59018135,-0.09076595,-0.7940769,-6.0415564,-0.13978481,0.37599802,0.58980584
17.513914,44.89925,11.799977,0.6027565,-0.95616126,-0.89512956,0.3656852,-0.8013377,0.78590906,0.43587562,0.10449827,0.6696568,0.6569644,-0.118212886,1.2390406,-0.57440835,-1.6813849,-0.8835726,2.3296387,1.4118637,-1.0127512,1.3047644,-0.6390022,-1.7172172,-0.89099735,2.2722862,1.3509699,-1.0024825,-1.4409894,1.4001099,0.77469957,0.28090748,0.961119,0.48141187,-0.15244524,1.9261416,-0.5168953,1.6013546,-2.866236,-0.07874488,1.4949356,0.17732218,-0.4460678,0.99797684,0.7953826,-0.12199412,0.061162326,0.5905447,-0.69404924,0.77639484,0.7436667,1.0,0.0,0.0,0.0,0.0,0.0,0.0,-2.5761416,0.11689529,-1.0513546,0.02424717,0.18019676,-0.3344059,-8.636981,-0.05888939,0.47633052,1.1041939
22.331165,44.093494,11.70764,-4.0303955,-1.3752465,-1.2075667,0.5443955,-0.80359787,0.7829179,0.45007893,-0.0053584334,0.67166615,0.6487493,-0.07753311,1.2244046,-0.56071043,-1.6722093,-0.8915332,2.3394527,1.4158448,-1.0102358,1.2903677,-0.6250013,-1.7094047,-0.8892178,2.2818916,1.355786,-1.0038921,-1.439281,1.4002154,0.7837993,0.14345124,0.96068645,0.4827745,-0.13728063,1.8975008,-0.5176811,1.6155562,-2.8633704,-0.07866615,1.3952551,0.17091104,-0.4381752,1.00507,0.79655516,-0.13044237,0.060721315,0.5871946,-0.61436296,0.80033994,0.6913379,1.0,0.0,0.0,0.0,0.0,0.0,0.0,-2.5475006,0.117681116,-1.0655563,0.16551018,0.057148933,1.0288715,-13.795286,0.016152859,0.52077174,1.4460564
18.859297,45.69967,12.569574,0.6227088,-0.8911923,-0.9823874,0.5063338,-0.7928057,0.7819749,0.47023648,0.04514238,0.67152494,0.65270245,0.1323023,1.2110871,-0.54680383,-1.662381,-0.8847036,2.349044,1.4210563,-0.99066186,1.2760435,-0.6110052,-1.7013977,-0.88836807,2.2915008,1.3606135,-1.005004,-1.4303191,1.3996792,0.80661535,0.065404564,0.961449,0.48357028,-0.10268077,1.8688886,-0.51846695,1.6287619,-2.8605077,-0.0785875,1.2956742,0.165155,-0.43004227,1.0117673,0.7972846,-0.1385489,0.06050973,0.58436286,-0.55342406,0.82329273,0.65612245,1.0,0.0,0.0,0.0,0.0,0.0,0.0,-2.5188885,0.11846694,-1.0787618,0.9079933,0.011253357,2.3120642,-7.8408318,0.207448,0.38509965,3.3905296
12.642933,42.842163,11.44669,5.751568,-0.35636276,-0.8366706,0.33850443,-0.79449195,0.7779233,0.45209303,0.06932793,0.6576794,0.6615777,0.23788069,1.1965944,-0.53321284,-1.6561884,-0.8814353,2.3572688,1.4267713,-0.98121595,1.2617937,-0.59703386,-1.6932628,-0.88785976,2.3010795,1.3654505,-1.005706,-1.4230989,1.3966323,0.8155254,0.045778155,0.9574816,0.48434883,-0.059577756,1.8403051,-0.5192528,1.6409725,-2.857648,-0.07850893,1.1961927,0.15984035,-0.42173004,1.0181957,0.79766923,-0.14647764,0.060472567,0.58190304,-0.51447076,0.83875364,0.63196886,1.0,0.0,0.0,0.0,0.0,0.0,0.0,-2.490305,0.11925277,-1.0909724,0.71151257,-0.22428036,0.8653283,-2.028113,-0.20593405,0.31077862,4.242377
5.683237,39.32671,10.324217,11.84432,0.32227778,-0.6215336,0.14348038,-0.79173386,0.7671204,0.44940838,0.12899004,0.654677,0.6557142,0.32004595,1.1826203,-0.52032185,-1.648322,-0.8749608,2.366547,1.4310219,-0.97370136,1.2476088,-0.58314073,-1.6851051,-0.88702625,2.3106124,1.3702856,-1.0059482,-1.4170263,1.3871357,0.8155132,0.09555872,0.9528187,0.48356077,-0.012577393,1.8117499,-0.5200386,1.652189,-2.854791,-0.07843044,1.0968108,0.15470962,-0.41332245,1.0244846,0.7978393,-0.154406,0.06052665,0.57961005,-0.50296396,0.8467398,0.6213042,1.0,0.0,0.0,0.0,0.0,0.0,0.0,-2.46175,0.1200386,-1.1021891,0.56328773,-0.8556366,-0.07044077,4.8698215,-0.21426678,0.071799755,4.621459
1.1594563,36.499825,9.298557,15.412746,0.7045519,-0.51422805,-0.0037976354,-0.7968593,0.7626714,0.43953413,0.16609588,0.6566526,0.6529552,0.33460563,1.1679229,-0.5068736,-1.6411517,-0.87041664,2.3762777,1.4355812,-0.9724876,1.2334391,-0.5693573,-1.6770275,-0.88543266,2.320111,1.3751055,-1.0057517,-1.4171145,1.375764,0.80482835,0.18020897,0.9500686,0.481841,0.030090462,1.7832234,-0.52082443,1.6624124,-2.8519368,-0.07835202,0.9975283,0.14957213,-0.40485382,1.0307148,0.79790694,-0.1624449,0.06061661,0.5773055,-0.50772417,0.8503476,0.61706233,1.0,0.0,0.0,0.0,0.0,0.0,0.0,-2.4332232,0.12082443,-1.1124125,-0.08816719,-1.0393858,-1.1407495,8.329836,0.0036239624,-0.073349476,4.185663
0.29108334,33.57248,8.1916275,15.391567,0.70799464,-0.6078495,-0.05443225,-0.7940658,0.75560015,0.41714996,0.18403031,0.6448395,0.6497671,0.3526326,1.1540325,-0.49379724,-1.6353124,-0.8670296,2.384595,1.4400822,-0.9704885,1.2192637,-0.55570066,-1.6691692,-0.8829941,2.3295562,1.3799063,-1.0051624,-1.4177574,1.3626673,0.7794487,0.26462826,0.94375587,0.47978243,0.06815567,1.7547255,-0.52161026,1.6716437,-2.8490856,-0.078273684,0.898345,0.1443855,-0.39638138,1.0368812,0.7979347,-0.17059207,0.060762968,0.5748968,-0.51261765,0.850336,0.61012894,1.0,0.0,0.0,0.0,0.0,0.0,0.0,-2.4047256,0.121610254,-1.1216438,-0.14653206,-1.2161255,-2.6009321,8.301297,-0.36484003,-0.11134744,3.7287257
2.077509,32.706177,7.734165,13.21475,0.44761008,-0.78262043,-0.029886931,-0.79112786,0.7540592,0.3948788,0.18768258,0.6361258,0.64937484,0.35739014,1.1401509,-0.48029473,-1.6296813,-0.86422586,2.393169,1.4448438,-0.96942335,1.2050921,-0.5421537,-1.6616466,-0.87989277,2.3389175,1.384688,-1.0042354,-1.4169735,1.352358,0.743173,0.32487595,0.934596,0.4781301,0.100629136,1.7262559,-0.5223923,1.679884,-2.8462372,-0.07819543,0.79926085,0.1392281,-0.38791275,1.0429323,0.79793286,-0.17876998,0.061034575,0.5723803,-0.5071016,0.85003,0.5970107,1.0,0.0,0.0,0.0,0.0,0.0,0.0,-2.376256,0.12239227,-1.129884,0.008749962,-0.9460926,-3.669083,5.899376,-0.6824136,-0.04708767,3.1767309
1.9841294,31.070822,7.023477,12.867992,0.3928228,-0.8827836,-0.0660101,-0.78701013,0.74927884,0.3569183,0.23207629,0.6282903,0.64646906,0.37097207,1.126391,-0.46722582,-1.6259547,-0.85668516,2.4017465,1.449335,-0.9671382,1.190951,-0.5286983,-1.6546066,-0.87620205,2.3481758,1.3894545,-1.0030147,-1.413369,1.3434689,0.690848,0.3833018,0.92370945,0.47645876,0.1290039,1.697815,-0.5231705,1.6871341,-2.8433917,-0.07811725,0.7002757,0.13414259,-0.3794632,1.0488389,0.79792875,-0.18693396,0.061484553,0.5697236,-0.4994452,0.8473958,0.58220047,1.0,0.0,0.0,0.0,0.0,0.0,0.0,-2.347815,0.123170465,-1.1371341,0.2955675,-0.8070946,-5.2747965,5.7180223,-0.86444616,-0.04838109,2.7713954
4.372376,30.646578,6.8134937,9.997516,0.10031867,-1.0726594,0.006772794,-0.78901416,0.7454959,0.33920076,0.21224885,0.6230066,0.6466749,0.37450004,1.1120496,-0.45414874,-1.6206865,-0.8549772,2.4104764,1.454122,-0.96556467,1.1768366,-0.5153221,-1.6480834,-0.87219375,2.3573234,1.3942076,-1.0015422,-1.4110186,1.3359635,0.63951385,0.40631136,0.9126602,0.47542524,0.15305835,1.6694024,-0.52394867,1.6933951,-2.840549,-0.07803915,0.6013896,0.12922993,-0.3710518,1.0545423,0.7979072,-0.19498876,0.062163454,0.5669736,-0.47901458,0.8444657,0.5602413,1.0,0.0,0.0,0.0,0.0,0.0,0.0,-2.3194022,0.12394866,-1.1433952,0.18348694,-0.6775856,-5.145037,2.1940887,-0.9214282,0.05053878,2.344489
9.030394,30.537552,6.9560056,4.793583,-0.3492189,-1.3621274,0.20267242,-0.7887228,0.7350774,0.34687072,0.14506249,0.619041,0.64506143,0.40699112,1.0979643,-0.44181436,-1.6133964,-0.85768753,2.4192276,1.4587138,-0.9608431,1.1627413,-0.502046,-1.6419075,-0.8684239,2.3663719,1.398955,-0.99983704,-1.4091587,1.3250526,0.6102707,0.36705506,0.90221196,0.47515917,0.17629664,1.6410182,-0.52472687,1.6986681,-2.8377092,-0.077961124,0.50260234,0.124684624,-0.36265564,1.0599355,0.7977696,-0.20277244,0.06309941,0.5643275,-0.4368479,0.84054154,0.5263986,1.0,0.0,0.0,0.0,0.0,0.0,0.0,-2.291018,0.12472686,-1.148668,0.17399788,-1.027751,-2.895975,-3.997022,-0.93177557,0.19854307,2.2682815
11.14505,28.18818,6.2250175,1.6968632,-0.5738275,-1.6136878,0.28835404,-0.780478,0.7216792,0.3245999,0.11035833,0.5994647,0.64708954,0.42942676,1.0846936,-0.42987806,-1.6094475,-0.857388,2.4263184,1.4636639,-0.95689434,1.1486975,-0.48892105,-1.6359928,-0.86529106,2.3752754,1.4037043,-0.99790776,-1.4026221,1.3085432,0.58506435,0.29520178,0.8866542,0.47571418,0.19832705,1.6126623,-0.52550507,1.7029539,-2.8348722,-0.07788318,0.40391392,0.120654315,-0.35435486,1.0649308,0.79746073,-0.21014798,0.06432343,0.56192225,-0.38230267,0.83068025,0.48480713,1.0,0.0,0.0,0.0,0.0,0.0,0.0,-2.2626624,0.12550506,-1.1529539,0.6872654,-1.5869617,-2.5062442,-7.2361827,-1.4807463,0.32292604,2.1578968
12.141447,27.296356,6.2625284,0.6891837,-0.58038175,-1.7035285,0.3576929,-0.77173674,0.70700216,0.33446848,0.07992978,0.59457296,0.64550495,0.46056238,1.0715238,-0.41822082,-1.602546,-0.8572981,2.4347327,1.4682548,-0.95185155,1.1347586,-0.47600353,-1.6301963,-0.8629555,2.38403,1.4084574,-0.9957591,-1.3909156,1.2863945,0.57791656,0.21287917,0.8717834,0.47625262,0.2202136,1.5843349,-0.52628326,1.7062535,-2.8320382,-0.07780531,0.30532414,0.11719355,-0.34615707,1.0695041,0.7969366,-0.21707164,0.06579478,0.55985975,-0.32474506,0.8184293,0.44266766,1.0,0.0,0.0,0.0,0.0,0.0,0.0,-2.234335,0.12628326,-1.1562536,1.2413979,-2.1478415,-0.7265091,-8.263144,-1.4256597,0.32615662,2.1476448
10.109653,25.656197,5.7857924,2.4429035,-0.3864928,-1.6732047,0.29811066,-0.77381724,0.69690675,0.32276797,0.069187395,0.5781596,0.64070725,0.4804637,1.0573769,-0.40631285,-1.5979196,-0.8560368,2.4418461,1.4725281,-0.9477128,1.1209112,-0.4633149,-1.6244571,-0.86132663,2.392617,1.4132124,-0.9934007,-1.382453,1.2632744,0.57242316,0.14604582,0.854625,0.47598547,0.2409413,1.5560356,-0.52706146,1.708568,-2.8292067,-0.07772752,0.20683295,0.114249,-0.33810043,1.0736883,0.7962193,-0.2235783,0.0674806,0.5581163,-0.27520016,0.8040433,0.40508425,1.0,0.0,0.0,0.0,0.0,0.0,0.0,-2.2060356,0.12706146,-1.1585679,0.9025097,-2.2401333,-0.5788326,-6.7240896,-1.6325116,0.21432042,2.0354033
10.98011,22.983868,4.7802753,0.06735563,-0.5472934,-1.9044431,0.33893973,-0.7681583,0.6806487,0.3107415,-0.021893915,0.55802035,0.63814574,0.4917827,1.0440954,-0.39525002,-1.593383,-0.86351603,2.448419,1.4770269,-0.94422245,1.1071497,-0.45087945,-1.6187999,-0.86058277,2.4010017,1.4179636,-0.9908496,-1.3737445,1.2372453,0.56337327,0.05037771,0.83325815,0.4756248,0.25982505,1.5277648,-0.52783966,1.7098982,-2.8263779,-0.07764981,0.10844021,0.11187092,-0.3302269,1.0774446,0.795326,-0.2295823,0.06940883,0.5567143,-0.21645565,0.78253025,0.36079267,1.0,0.0,0.0,0.0,0.0,0.0,0.0,-2.177765,0.12783965,-1.1598983,0.9648323,-2.5317192,-0.95232725,-9.589344,-2.0852447,0.22534132,1.8645346
12.580892,21.229353,4.144182,-2.8766885,-0.75049275,-2.149228,0.41726422,-0.7609192,0.6638267,0.31312662,-0.11858546,0.5433348,0.6330415,0.5081955,1.0310578,-0.38449678,-1.5874872,-0.8724413,2.4553351,1.4812678,-0.94003004,1.0934893,-0.43872297,-1.6132095,-0.86106247,2.4091613,1.4227072,-0.9881183,-1.3631403,1.2087017,0.5575165,-0.08065554,0.8103385,0.4749048,0.27752185,1.4995222,-0.52861786,1.7102454,-2.823552,-0.077572174,0.010145845,0.110170126,-0.3226204,1.0807025,0.7942436,-0.23494488,0.07160967,0.5557428,-0.14616151,0.75436765,0.3094451,1.0,0.0,0.0,0.0,0.0,0.0,0.0,-2.1495223,0.12861785,-1.1602454,1.2114286,-2.784276,-0.6628752,-13.093114,-2.2783875,0.20552278,1.7612994
9.602045,18.884266,3.551996,0.11567879,-0.40401888,-2.0466728,0.32415283,-0.75803536,0.6459357,0.30788487,-0.119629204,0.528699,0.63616353,0.5336946,1.0176858,-0.37412938,-1.582421,-0.8730254,2.4620311,1.4863236,-0.9347488,1.0799242,-0.4268688,-1.6076801,-0.86262554,2.417092,1.427445,-0.98521245,-1.3540068,1.177893,0.55106556,-0.18162476,0.78758186,0.4740738,0.29496917,1.4713079,-0.52939606,1.7096103,-2.8207288,-0.07749462,-0.088050246,0.10906747,-0.3153038,1.0835006,0.79300976,-0.2397084,0.07404362,0.5551513,-0.09014822,0.72420156,0.2654067,1.0,0.0,0.0,0.0,0.0,0.0,0.0,-2.1213078,0.12939605,-1.1596103,1.0368586,-3.0052185,-0.74088573,-10.1133375,-2.2264004,0.14463663,1.731658
8.074482,15.794934,2.3316777,0.31781673,-0.30927932,-2.1412137,0.2695227,-0.75985634,0.6312182,0.28107986,-0.19434921,0.5232111,0.6354496,0.53878117,1.0039386,-0.36374697,-1.5795721,-0.88206047,2.4694133,1.49099,-0.9313343,1.0664145,-0.41531837,-1.6023242,-0.8652281,2.4248283,1.4321734,-0.98214734,-1.3495929,1.1476351,0.5302231,-0.28654107,0.76881504,0.47306466,0.3103978,1.4431217,-0.53017044,1.707994,-2.8179085,-0.07741714,-0.18614815,0.1085094,-0.30833435,1.0858481,0.7916883,-0.2438569,0.076703,0.55486935,-0.036611084,0.6874318,0.22030039,1.0,0.0,0.0,0.0,0.0,0.0,0.0,-2.0931215,0.13017043,-1.157994,0.55999756,-2.951479,-2.1772027,-10.515862,-1.8392205,0.10364652,1.533711
8.110683,11.892323,1.1661205,-1.1720352,-0.3493378,-2.3041809,0.2933127,-0.7435496,0.5986792,0.2783889,-0.2792517,0.46913463,0.6372061,0.5571306,0.9920595,-0.35545045,-1.5744853,-0.8931533,2.4717417,1.495894,-0.9264343,1.053002,-0.40414417,-1.5971763,-0.86899227,2.4322593,1.4368922,-0.9789325,-1.337685,1.1075923,0.50938445,-0.40645102,0.7345581,0.47225535,0.32517147,1.4149637,-0.530941,1.7053975,-2.8150911,-0.07733974,-0.28414798,0.10852058,-0.30178452,1.0877063,0.79030323,-0.24731937,0.07961116,0.55490166,0.02106347,0.6428268,0.17030497,1.0,0.0,0.0,0.0,0.0,0.0,0.0,-2.0649638,0.130941,-1.1553974,1.3727903,-3.9327383,-2.2217631,-12.00059,-3.4151316,0.116068125,1.4672577
6.197485,5.7794256,-0.4006711,-0.56514835,-0.09942347,-2.3408992,0.27041438,-0.73182184,0.5535857,0.28223976,-0.32767203,0.41535804,0.64135647,0.57390976,0.97981983,-0.3487856,-1.5689523,-0.90175945,2.4737952,1.5010278,-0.9215415,1.0397536,-0.3935026,-1.5921733,-0.87391037,2.4392288,1.4416071,-0.97557557,-1.3200728,1.0499399,0.49671316,-0.5203921,0.68418324,0.4717347,0.33918154,1.386834,-0.5317116,1.7018217,-2.8122766,-0.07726242,-0.38204983,0.109057,-0.29574203,1.0890566,0.78886765,-0.25008434,0.08273556,0.55524796,0.07120914,0.5896746,0.11946009,1.0,0.0,0.0,0.0,0.0,0.0,0.0,-2.036834,0.13171157,-1.1518216,1.9735575,-5.6993484,-1.4361978,-11.419529,-5.0326943,0.11669397,1.3736963
2.4904356,-7.356783,-4.4057255,-0.7031555,0.36870968,-2.5368152,0.20489185,-0.7196845,0.48499528,0.2497715,-0.40066734,0.38504344,0.6456416,0.57905555,0.9677851,-0.34500307,-1.5671961,-0.9139771,2.4777331,1.5061712,-0.91767,1.026713,-0.38366115,-1.5873935,-0.88000625,2.4456604,1.4463183,-0.9720918,-1.297804,0.9623746,0.47098023,-0.6396055,0.6296818,0.4714031,0.35126564,1.3587325,-0.53248215,1.6972675,-2.809465,-0.07718517,-0.4798538,0.110013776,-0.29040146,1.0898435,0.78744614,-0.25207797,0.08598728,0.55586994,0.109880485,0.51311624,0.06160587,1.0,0.0,0.0,0.0,0.0,0.0,0.0,-2.0087323,0.13248214,-1.1472676,2.486062,-8.711779,-2.746421,-11.977922,-5.5002093,0.09598136,1.1502504
0.69329476,-17.098457,-6.994549,-1.4609737,0.7261535,-2.6836615,0.22369207,-0.68686175,0.40738678,0.25287566,-0.48041242,0.3364086,0.6427062,0.57701975,0.9580268,-0.34292248,-1.562106,-0.9280475,2.4793012,1.5105889,-0.91438985,1.0140101,-0.37492073,-1.5828216,-0.88736576,2.4515007,1.4510218,-0.968505,-1.2599857,0.84471405,0.45185545,-0.7683148,0.56824064,0.47037446,0.36084822,1.3306588,-0.5332527,1.6917361,-2.8066561,-0.077108,-0.57756,0.111309245,-0.2859497,1.0900085,0.7860541,-0.25322378,0.089227684,0.55680794,0.14131762,0.41959932,-0.0017120491,1.0,0.0,0.0,0.0,0.0,0.0,0.0,-1.9806588,0.13325271,-1.141736,4.117918,-11.744499,-2.1255255,-12.932528,-6.235242,-0.022095442,0.871861
-2.9760296,-31.908237,-10.995264,-1.4839797,1.2848053,-2.8080492,0.21125314,-0.652339,0.28798166,0.26143846,-0.5514272,0.23656115,0.6349536,0.5748687,0.9487762,-0.34612256,-1.5566778,-0.94250846,2.4751568,1.5145172,-0.91101813,1.0017954,-0.3677081,-1.5783432,-0.8960375,2.456536,1.4557062,-0.96484005,-1.2072463,0.6800243,0.44575757,-0.9004244,0.4814301,0.46786258,0.36789122,1.3026133,-0.5340233,1.6852283,-2.8038502,-0.07703091,-0.6751686,0.11281821,-0.28260803,1.0894866,0.78470284,-0.25346488,0.09230673,0.5581007,0.15818784,0.30347314,-0.07169066,1.0,0.0,0.0,0.0,0.0,0.0,0.0,-1.9526132,0.13402328,-1.1352284,5.6712627,-16.488123,-0.83529353,-13.297213,-8.820915,-0.24960637,0.5655587
-22.081907,-99.380875,-31.834543,-1.1481183,3.4939983,-3.5403986,-0.17808299,-0.5829444,-0.057119988,0.15307084,-0.60106283,-0.07143963,0.6292319,0.5547011,0.943501,-0.3734201,-1.5630361,-0.9561438,2.449392,1.5186294,-0.90936995,0.99035347,-0.3634795,-1.574372,-0.9059376,2.4598892,1.4603506,-0.9611436,-1.1213548,0.33651912,0.38076517,-1.0206468,0.28503725,0.4623759,0.3689734,1.2745959,-0.53479385,1.6777452,-2.801047,-0.076953895,-0.77267957,0.11404606,-0.2812462,1.0880053,0.78369844,-0.2525321,0.09497837,0.55948496,0.113796905,0.07763438,-0.1756749,1.0,0.0,0.0,0.0,0.0,0.0,0.0,-1.9245958,0.13479385,-1.1277452,9.145331,-34.536255,-6.567347,-12.241006,-20.072233,-0.80140233,-0.27867556
-41.240974,-167.92107,-53.860394,-0.81087613,5.704221,-4.3723726,-0.6368515,-0.42041856,-0.42528754,-0.06796874,-0.61362386,-0.41520795,0.5880966,0.53364366,0.9483116,-0.40600824,-1.5811689,-0.9673,2.4183683,1.5191603,-0.9077792,0.9804076,-0.3640207,-1.572047,-0.9167542,2.4603965,1.4648882,-0.9574729,-0.95020014,-0.18561263,0.1839665,-1.1025571,-0.029391263,0.44845933,0.36425403,1.2466063,-0.5355644,1.6692878,-2.7982466,-0.07687695,-0.87009305,0.1143861,-0.28300476,1.0852282,0.7834933,-0.25007495,0.09701676,0.5605252,0.008107637,-0.2617382,-0.31277314,1.0,0.0,0.0,0.0,0.0,0.0,0.0,-1.8966063,0.13556442,-1.1192877,17.748201,-52.59891,-19.439014,-8.38716,-32.182014,-2.1076858,-1.1222005
-29.730938,-145.03258,-42.80071,-0.36322504,5.4986997,-3.6279104,-0.045961674,-0.21317497,-0.6190039,0.147114,-0.6302873,-0.52953327,0.61851156,0.5118672,0.9590901,-0.42592108,-1.5573356,-0.97978294,2.4074433,1.5267394,-0.9062862,0.9729222,-0.36990678,-1.570544,-0.9281344,2.457791,1.4693056,-0.9538585,-0.6805181,-0.7241574,0.13992661,-1.149802,-0.33890665,0.43629804,0.35897425,1.2186449,-0.536335,1.6598569,-2.7954488,-0.07680009,-0.96740913,0.113749415,-0.28776932,1.0812097,0.7836864,-0.24640773,0.09794362,0.5617168,-0.08913913,-0.5471532,-0.43227723,1.0,0.0,0.0,0.0,0.0,0.0,0.0,-1.8686448,0.13633499,-1.1098568,27.204777,-54.219162,-4.1042,-4.7122717,-31.337276,-2.1234632,-0.98171234
0.8322001,-83.17961,-20.877018,-9.784598,3.0573227,-3.3616345,0.7894471,0.21625237,-0.7238378,0.065744564,-0.6657806,-0.5485992,0.6401277,0.4431432,0.9945474,-0.44229057,-1.5639695,-0.9947125,2.4029312,1.5333184,-0.90954417,0.96969783,-0.3804115,-1.5694015,-0.93991894,2.4526527,1.4736296,-0.9503318,-0.20592259,-1.160061,0.108613245,-1.1883961,-0.5722014,0.42817408,0.3500873,1.1907114,-0.53710556,1.6494536,-2.7926538,-0.07672331,-1.0646279,0.11284461,-0.29470062,1.0761293,0.7834846,-0.24195172,0.097484715,0.5640106,-0.09329028,-0.7396334,-0.5346051,1.0,0.0,0.0,0.0,0.0,0.0,0.0,-1.8407114,0.13710555,-1.0994537,46.584793,-43.83471,-2.2307098,-3.9719343,-23.296154,-1.6867101,-1.0551572
16.441757,-24.939781,-3.373705,-7.6808157,1.0775087,-2.6625855,0.8367014,0.3554061,-0.7505144,-0.05236477,-0.6166423,-0.55787975,0.6551098,0.32500407,1.0052384,-0.45546293,-1.574638,-1.0015832,2.3968647,1.5391406,-0.9178314,0.971197,-0.3939923,-1.5688922,-0.9517178,2.445813,1.4779097,-0.94696724,0.2636134,-1.424638,0.035679862,-1.1777514,-0.7209105,0.42597085,0.33197433,1.1628058,-0.5378723,1.6380789,-2.7898617,-0.0766466,-1.1617495,0.112280376,-0.30285645,1.0702876,0.78257763,-0.23711729,0.09590887,0.5675818,-0.04501942,-0.83628416,-0.6033231,1.0,0.0,0.0,0.0,0.0,0.0,0.0,-1.8128058,0.13787231,-1.088079,45.48895,-26.61116,-6.0454726,0.8316994,-14.718413,-0.8238852,-1.7908394
23.103048,6.8491316,3.279035,-8.141252,-0.25504732,-2.6856747,0.57655036,0.5145605,-0.7796621,-0.296008,-0.637181,-0.4746861,0.6564637,0.22134484,1.0226531,-0.47195852,-1.5984931,-1.0154359,2.3983443,1.5435561,-0.92483276,0.97701347,-0.40914142,-1.5701568,-0.96340126,2.4382637,1.482186,-0.94385254,0.68251103,-1.5454148,-0.1757714,-1.1662241,-0.7662407,0.42660543,0.30484667,1.1349281,-0.53863525,1.6257336,-2.7870724,-0.076569974,-1.2587739,0.11245544,-0.31170654,1.0638452,0.7811318,-0.23193054,0.09368585,0.57207006,0.04041451,-0.89659595,-0.66186595,1.0,0.0,0.0,0.0,0.0,0.0,0.0,-1.7849281,0.13863525,-1.0757337,40.3295,-12.1961355,-19.779997,0.87673664,-4.4582844,-0.40201545,-2.6715755
22.156061,22.80485,5.294771,-6.100468,-0.73514307,-2.6225746,0.24088106,0.59401816,-0.7925941,-0.44688255,-0.66428804,-0.35587505,0.641268,0.1028653,1.0364153,-0.48840082,-1.614845,-1.0298301,2.402676,1.5463128,-0.93356603,0.9861716,-0.4247502,-1.5740917,-0.9750895,2.43097,1.486468,-0.94108117,0.9897488,-1.56634,-0.46272132,-1.1704196,-0.7172137,0.42745027,0.26805133,1.1070783,-0.5393982,1.6124189,-2.784286,-0.07649342,-1.3557014,0.113512576,-0.32103348,1.0568644,0.7794628,-0.22623505,0.09116324,0.57701355,0.13255745,-0.9402918,-0.71542156,1.0,0.0,0.0,0.0,0.0,0.0,0.0,-1.7570783,0.13939819,-1.0624189,29.565393,-2.1844387,-27.665932,-0.6235361,4.899955,-0.2704203,-3.6407173
22.652122,33.73509,7.7529025,-5.797785,-0.77969474,-2.5257173,0.18620563,0.6802821,-0.7936886,-0.51731384,-0.7288001,-0.11621367,0.5974845,-0.0010760203,1.0541998,-0.50411904,-1.625823,-1.0479695,2.4193485,1.5462164,-0.94118875,0.9976939,-0.44015968,-1.5807846,-0.9871506,2.4250343,1.490729,-0.93872654,1.2039502,-1.5326693,-0.73607975,-1.2185591,-0.5523173,0.42456484,0.22493543,1.0792563,-0.54016113,1.5981356,-2.7815025,-0.07641694,-1.4525319,0.11547123,-0.3307228,1.0493644,0.7777056,-0.21985742,0.08829758,0.5822716,0.22440806,-0.9733994,-0.76786435,1.0,0.0,0.0,0.0,0.0,0.0,0.0,-1.7292563,0.14016113,-1.0481355,20.678116,3.3141613,-26.755322,-4.9764395,16.502714,-0.58517456,-4.2119384
19.94423,38.751896,9.857946,-1.9902945,-0.19093698,-2.1121442,0.17717914,0.7255387,-0.7902965,-0.5513764,-0.7497775,0.15591055,0.5745699,-0.028263975,1.0702478,-0.51918936,-1.6359222,-1.0621283,2.4406254,1.548186,-0.94155294,1.0107138,-0.45509422,-1.5896881,-0.99978775,2.4215095,1.494948,-0.93678296,1.3334572,-1.4805204,-0.94118905,-1.279014,-0.28578034,0.4202431,0.18479915,1.0514622,-0.5409241,1.5828847,-2.7787213,-0.07634054,-1.5492656,0.11816239,-0.34067535,1.0414122,0.77584255,-0.21278961,0.08474853,0.58788306,0.29292387,-0.99646133,-0.8116148,1.0,0.0,0.0,0.0,0.0,0.0,0.0,-1.7014621,0.14092407,-1.0328846,12.607026,5.1894665,-20.32404,-6.1454773,26.66465,-0.63686967,-3.8222134
16.822231,44.04295,12.697611,2.8139896,0.10338712,-1.538687,0.18205205,0.7347283,-0.7733681,-0.54734546,-0.7652959,0.26868743,0.5308469,-0.013227852,1.0841867,-0.532431,-1.6444227,-1.0763173,2.4483783,1.5480328,-0.93810576,1.0244658,-0.46947944,-1.5999153,-1.013,2.4207046,1.4990984,-0.93518364,1.3889512,-1.4245307,-1.0501869,-1.3357022,-0.012096644,0.41297132,0.15238565,1.0236958,-0.541687,1.5666672,-2.775943,-0.07626422,-1.6459028,0.121378765,-0.350708,1.0331191,0.7738108,-0.20516996,0.08033969,0.5938581,0.34088945,-0.99956465,-0.8432065,1.0,0.0,0.0,0.0,0.0,0.0,0.0,-1.6736958,0.141687,-1.0166671,5.5047035,5.597639,-11.007702,-5.72803,27.390491,-0.8205414,-3.00951
9.810528,39.888237,11.545605,7.942726,0.19859278,-1.0747671,0.039186534,0.7197463,-0.7765445,-0.5823814,-0.76215696,0.16524416,0.5210523,0.06161249,1.0964404,-0.5471339,-1.6581534,-1.0892158,2.437229,1.5512036,-0.9290224,1.0383189,-0.48344457,-1.6108215,-1.0266109,2.4218147,1.5031744,-0.93381226,1.3845496,-1.3872612,-1.1047642,-1.3695108,0.15217867,0.40558693,0.13247426,0.99595726,-0.54244995,1.5494841,-2.7731676,-0.07618797,-1.7424432,0.12492776,-0.3606987,1.0245471,0.77166545,-0.19715586,0.07534053,0.59998816,0.36919272,-0.99307054,-0.8700425,1.0,0.0,0.0,0.0,0.0,0.0,0.0,-1.6459572,0.14244995,-0.9994841,-0.29637814,3.7148,-5.6714535,-3.3651114,16.402475,-0.8049667,-1.8312097
5.45671,36.82167,10.284696,10.220488,-0.50128686,-0.77986604,-0.08746811,0.7079114,-0.77728474,-0.6094932,-0.76771533,-0.17576861,0.5326273,0.12601635,1.10911,-0.561173,-1.6717708,-1.1033823,2.4042377,1.5564371,-0.92121065,1.0518839,-0.4971856,-1.6220539,-1.0404334,2.4229743,1.5071913,-0.93256295,1.3478065,-1.3697288,-1.1304374,-1.3862604,0.1036923,0.4000717,0.12246544,0.96824634,-0.5432129,1.5313363,-2.770395,-0.07611179,-1.8388871,0.12878226,-0.37051773,1.0156901,0.7695297,-0.18887794,0.070523344,0.6059501,0.40013853,-0.9707648,-0.89911705,1.0,0.0,0.0,0.0,0.0,0.0,0.0,-1.6182463,0.14321288,-0.9813363,-3.4628868,1.736474,-2.8294802,-1.6194105,-4.890744,-0.6438494,-0.9764448
4.6122828,36.409256,10.598326,11.397908,-0.9480006,-0.55638504,-0.112110086,0.7195972,-0.78177136,-0.6108946,-0.75417346,-0.36672595,0.5694109,0.11311803,1.1238437,-0.57536274,-1.6831434,-1.1158508,2.3863018,1.5641325,-0.9212511,1.0651076,-0.51088226,-1.6333721,-1.054254,2.422673,1.5111891,-0.9314033,1.3144652,-1.3697301,-1.1331246,-1.3805443,-0.074670896,0.3993243,0.11368177,0.9405632,-0.54397583,1.5122247,-2.7676253,-0.0760357,-1.9352347,0.1329712,-0.38000488,1.0065557,0.7674555,-0.18049322,0.06648295,0.6115669,0.43392155,-0.935404,-0.9263248,1.0,0.0,0.0,0.0,0.0,0.0,0.0,-1.5905632,0.14397582,-0.96222466,-3.159237,-0.019216537,-0.522089,0.6324053,-17.867699,-0.16294122,-0.9219423
1.5903921,28.783026,7.6336207,12.111212,-0.7259418,-0.596949,-0.20203026,0.72246015,-0.80192214,-0.67433304,-0.7364834,-0.4406278,0.58061284,0.08160867,1.1373537,-0.59107447,-1.7008054,-1.1279024,2.3786101,1.5692503,-0.9232424,1.0780833,-0.5247334,-1.6449249,-1.0678763,2.4203537,1.5151926,-0.93034375,1.2926005,-1.3904877,-1.1630282,-1.3558327,-0.28458175,0.39999852,0.10316011,0.9129077,-0.54473877,1.4921503,-2.7648582,-0.07595968,-2.0314858,0.13744465,-0.38924026,0.9971124,0.76551783,-0.17204061,0.063403234,0.616737,0.46009868,-0.912212,-0.95823526,1.0,0.0,0.0,0.0,0.0,0.0,0.0,-1.5629077,0.14473876,-0.9421503,-2.0509243,-2.1264791,-3.1428576,2.5851965,-21.086628,-0.07368922,-1.1256963
2.1442242,28.17429,7.729083,12.22394,-0.4916898,-0.5880705,-0.16757232,0.7327747,-0.80845034,-0.6927085,-0.71620536,-0.46076742,0.5891118,0.07200489,1.1513608,-0.6055785,-1.7141957,-1.1394969,2.3742769,1.5741038,-0.92314327,1.090977,-0.5388354,-1.6568363,-1.0811572,2.4161842,1.5192095,-0.9293853,1.2886463,-1.4169873,-1.2008544,-1.3184446,-0.4617304,0.40179533,0.093206815,0.8852799,-0.5454979,1.4711142,-2.7620938,-0.07588374,-2.1276405,0.14215142,-0.3982811,0.98735666,0.76370806,-0.16353936,0.061163552,0.6215013,0.48211834,-0.8936611,-0.9891802,1.0,0.0,0.0,0.0,0.0,0.0,0.0,-1.5352799,0.14549789,-0.92111415,-0.30839443,-2.7114868,-3.8804293,3.8603306,-17.824476,0.038802624,-1.0428786
4.5505295,31.9982,9.687437,11.762086,-0.39824796,-0.529667,-0.05477178,0.73450327,-0.81027144,-0.6876458,-0.70777565,-0.4787353,0.5924509,0.10262146,1.1644273,-0.61986256,-1.7256008,-1.1519347,2.3683107,1.5784546,-0.9191232,1.103905,-0.5531701,-1.6690395,-1.0940776,2.410611,1.5232474,-0.92849076,1.294223,-1.4391571,-1.2273529,-1.2828932,-0.5894308,0.404014,0.08820057,0.85767967,-0.5462532,1.4491172,-2.7593322,-0.07580787,-2.223699,0.14708108,-0.40712357,0.97731584,0.76193017,-0.15501674,0.059546486,0.62600833,0.50419307,-0.87229794,-1.0168664,1.0,0.0,0.0,0.0,0.0,0.0,0.0,-1.5076797,0.1462532,-0.8991172,0.6219864,-2.272296,-2.7534008,3.660822,-12.870491,0.09763241,-0.5009785
6.037918,36.398014,11.772119,11.849639,-0.3527676,-0.39040494,0.03022904,0.7246802,-0.81324387,-0.6781338,-0.6964847,-0.5175934,0.6222793,0.125189,1.176373,-0.6344945,-1.7368529,-1.1637261,2.3588517,1.5854753,-0.9159719,1.1168635,-0.5676745,-1.6813724,-1.1066794,2.4040344,1.5273291,-0.9276172,1.296642,-1.4543225,-1.2356464,-1.2523707,-0.6808513,0.40926322,0.0872108,0.83010703,-0.5470085,1.4261603,-2.7565734,-0.075732075,-2.3196616,0.15221842,-0.41571045,0.9670308,0.7600888,-0.1465159,0.058372997,0.6303893,0.5246424,-0.84494364,-1.040203,1.0,0.0,0.0,0.0,0.0,0.0,0.0,-1.4801071,0.14700851,-0.8761603,0.31745434,-1.563406,-0.9625435,3.1446934,-9.243357,0.424093,-0.06492585
6.7917156,38.650017,12.953657,11.68903,-0.23919117,-0.30718273,0.10325466,0.7183592,-0.82176536,-0.67253864,-0.6919752,-0.52160794,0.62931204,0.16291983,1.1886994,-0.6498511,-1.7486262,-1.175877,2.3518736,1.5902603,-0.9113252,1.1298068,-0.58230865,-1.6936862,-1.1190505,2.3968246,1.531468,-0.9267169,1.2940673,-1.4666288,-1.2304779,-1.2316376,-0.73461306,0.41498357,0.09120434,0.80256194,-0.5477638,1.4022446,-2.7538176,-0.075656354,-2.415528,0.15754192,-0.42401123,0.9565241,0.75810474,-0.13804817,0.057473514,0.63475716,0.5425381,-0.8161324,-1.0618738,1.0,0.0,0.0,0.0,0.0,0.0,0.0,-1.4525619,0.14776382,-0.85224456,-0.16591549,-1.2733698,0.35831928,2.166915,-5.483556,0.4775226,0.46584755
5.1138244,41.369602,14.015839,13.247726,-0.051167548,-0.09208554,0.104161784,0.68814826,-0.81945246,-0.6547926,-0.67711407,-0.52637416,0.6492162,0.19691391,1.1986216,-0.6642539,-1.7591655,-1.1867619,2.3441873,1.5963897,-0.9070255,1.1425803,-0.5970105,-1.7058322,-1.131227,2.3892753,1.5356737,-0.925748,1.2720493,-1.4715275,-1.209972,-1.212716,-0.76243883,0.42244378,0.09898016,0.77504444,-0.54851913,1.3773708,-2.7510643,-0.075580716,-2.511299,0.16297826,-0.4319954,0.9458431,0.7559494,-0.12964864,0.056724384,0.6391511,0.55128926,-0.783873,-1.0777797,1.0,0.0,0.0,0.0,0.0,0.0,0.0,-1.4250444,0.14851913,-0.8273708,-2.0595312,-0.5305767,1.8625736,1.9906998,-2.9158115,0.6880224,0.8545831
5.868952,42.095833,14.1922655,12.1537,-0.073883116,-0.13346758,0.13957386,0.6870608,-0.82003105,-0.6656464,-0.69087064,-0.52106005,0.640318,0.22507024,1.2112863,-0.6790136,-1.7723969,-1.200314,2.3371694,1.5997056,-0.903241,1.1551325,-0.61173046,-1.7178295,-1.1433387,2.3815925,1.5399424,-0.92468274,1.2499843,-1.4722205,-1.1970426,-1.2103703,-0.77041024,0.42797506,0.10927984,0.7475544,-0.54927444,1.3515403,-2.7483137,-0.07550515,-2.606974,0.16852164,-0.43968582,0.9349768,0.7536041,-0.121269666,0.05606254,0.6436082,0.5624179,-0.75309145,-1.0968964,1.0,0.0,0.0,0.0,0.0,0.0,0.0,-1.3975544,0.14927444,-0.8015403,-2.0542622,-0.107216835,1.0922909,0.34310818,-0.93107224,0.47166944,1.116693
7.581663,44.484516,15.414098,11.234597,-0.21339732,-0.09952456,0.1972754,0.68203706,-0.81996125,-0.6446671,-0.6978865,-0.53954035,0.6439848,0.24345964,1.2233362,-0.6937266,-1.7822962,-1.2131274,2.3276384,1.6043409,-0.90033674,1.1674845,-0.626438,-1.7296455,-1.1555114,2.3738487,1.5442606,-0.9235078,1.2306938,-1.4704068,-1.177101,-1.219261,-0.7761127,0.43286103,0.120555446,0.7200919,-0.55002975,1.3247538,-2.745566,-0.07542966,-2.702553,0.17420922,-0.44702148,0.9239171,0.7510225,-0.11287746,0.055464443,0.64818794,0.57756305,-0.71770495,-1.1161004,1.0,0.0,0.0,0.0,0.0,0.0,0.0,-1.3700919,0.15002975,-0.77475375,-1.7794847,0.152874,1.7708063,-0.7847309,-0.6887436,0.3994882,1.226078
7.266905,45.765034,15.949144,11.769199,-0.1990419,-0.012211293,0.1857079,0.67105836,-0.81792206,-0.639241,-0.6861641,-0.55446845,0.6574278,0.26588115,1.2345904,-0.70823026,-1.7935696,-1.2241278,2.3184018,1.6100034,-0.89691967,1.1796496,-0.6411141,-1.7412746,-1.1677356,2.3660285,1.5486323,-0.9222137,1.2122699,-1.4666736,-1.1589022,-1.2230742,-0.78409386,0.4383254,0.1326816,0.69265676,-0.55078506,1.2970121,-2.742821,-0.07535425,-2.7980368,0.1800351,-0.45399857,0.9126831,0.7481944,-0.104490995,0.05493835,0.6528924,0.59055406,-0.6805498,-1.1325536,1.0,0.0,0.0,0.0,0.0,0.0,0.0,-1.3426567,0.15078506,-0.7470121,-1.694417,0.34587383,1.6037703,-0.27503967,-0.9212136,0.46890974,1.3094813
6.0244474,47.576054,16.744776,13.189925,-0.12759936,0.15498325,0.15343894,0.6522124,-0.81472415,-0.61731,-0.67230767,-0.57475483,0.66831416,0.2687471,1.2448708,-0.7225865,-1.8030056,-1.2349664,2.308553,1.6154637,-0.89533895,1.1915953,-0.6557406,-1.7526672,-1.1799159,2.3580825,1.553063,-0.92080796,1.1891141,-1.4613616,-1.133279,-1.21611,-0.7985673,0.4444937,0.14349282,0.66524917,-0.5515404,1.2683163,-2.7400787,-0.07527891,-2.8934252,0.1859528,-0.46059036,0.9013289,0.7451357,-0.0961758,0.054497395,0.6576875,0.5979795,-0.6405285,-1.1428314,1.0,0.0,0.0,0.0,0.0,0.0,0.0,-1.3152492,0.15154037,-0.71831626,-2.1637917,0.5051851,2.3520708,0.8008003,-1.5791893,0.5703747,1.1739284
4.129423,45.74783,15.423146,13.575578,-0.020973563,0.12017594,0.08449674,0.6438228,-0.81110126,-0.64875406,-0.66768116,-0.58411276,0.6593452,0.29320708,1.2559776,-0.73685074,-1.8175426,-1.2466841,2.2996712,1.6189976,-0.89148724,1.2033198,-0.67030513,-1.7639968,-1.1919913,2.34998,1.5575434,-0.9192897,1.16725,-1.4549869,-1.1334795,-1.2042415,-0.8148477,0.4488692,0.15486288,0.6378689,-0.5522957,1.2386672,-2.737339,-0.07520364,-2.9887183,0.19192556,-0.46681595,0.88985145,0.7419051,-0.08790986,0.05418343,0.66250485,0.60245335,-0.60697645,-1.1555527,1.0,0.0,0.0,0.0,0.0,0.0,0.0,-1.2878689,0.15229568,-0.68866724,-2.035308,0.6014824,-0.19330978,1.3122559,-1.7801523,0.37665367,1.2101114
3.728355,45.19362,15.209616,13.169392,0.02672857,0.13741463,0.09091923,0.6282481,-0.81220007,-0.6353763,-0.6783328,-0.5764345,0.6608973,0.29376236,1.2661446,-0.75152516,-1.8275344,-1.2598246,2.2923367,1.6236331,-0.8899135,1.2148097,-0.6848248,-1.7753284,-1.2040095,2.3417633,1.56206,-0.91766846,1.1433585,-1.4510548,-1.1336123,-1.2004354,-0.82453895,0.45242476,0.16476357,0.610516,-0.5530472,1.208066,-2.7346022,-0.07512845,-3.083916,0.1979381,-0.47273254,0.87822676,0.7385168,-0.079648815,0.053977974,0.6673345,0.6057655,-0.5752943,-1.1705725,1.0,0.0,0.0,0.0,0.0,0.0,0.0,-1.2605159,0.15304717,-0.658066,-2.2350311,0.35529137,-0.1884222,0.5191326,-1.1225343,0.2801478,1.0682344
4.2771873,45.98803,15.613296,12.729652,-0.04089892,0.163355,0.08986365,0.62089694,-0.8082189,-0.63346297,-0.6778389,-0.5978433,0.66733766,0.2617076,1.2768993,-0.7656467,-1.8386747,-1.2717934,2.2819788,1.6287937,-0.89149773,1.226084,-0.69930255,-1.7866695,-1.2160144,2.3334167,1.5666128,-0.9159843,1.1225574,-1.4467901,-1.1347349,-1.1999671,-0.83837485,0.4558401,0.1698624,0.5831905,-0.55379486,1.1765134,-2.7318683,-0.07505334,-3.1790183,0.20399785,-0.47831726,0.86644685,0.7349707,-0.07138046,0.05388333,0.67217505,0.61057174,-0.5420534,-1.1859906,1.0,0.0,0.0,0.0,0.0,0.0,0.0,-1.2331905,0.15379485,-0.6265134,-1.9317865,0.39002895,-0.28595924,0.18780231,-1.5333295,0.25721192,0.5873382
2.55521,43.80879,14.430379,12.488758,0.062999606,0.16735052,0.059230156,0.59937006,-0.81261265,-0.6459628,-0.68652135,-0.5995338,0.665361,0.24295539,1.286021,-0.78056383,-1.8512658,-1.2846665,2.2734632,1.6331489,-0.8916887,1.2371123,-0.71377075,-1.7980793,-1.2280688,2.324952,1.5711924,-0.91427433,1.0965996,-1.4469125,-1.1435474,-1.2066779,-0.8497726,0.45832884,0.17159665,0.5558923,-0.55454254,1.1440105,-2.729137,-0.07497831,-3.2740257,0.21008548,-0.48360825,0.8544756,0.7312905,-0.06305573,0.05388917,0.6770037,0.6121715,-0.5134732,-1.2061684,1.0,0.0,0.0,0.0,0.0,0.0,0.0,-1.2058923,0.15454254,-0.59401053,-2.4387598,-0.05581379,-1.0496378,-0.5049944,-1.2989521,0.14244914,0.24749339
-1.5510006,42.326775,13.142443,13.476309,0.23973292,0.29113764,-0.019013807,0.55759263,-0.8110479,-0.6518941,-0.693263,-0.6198748,0.66500354,0.20141962,1.2928716,-0.79487556,-1.8632686,-1.2973951,2.2629645,1.6376927,-0.8941324,1.2477419,-0.7282437,-1.8096035,-1.2402225,2.3163383,1.5757929,-0.91258633,1.0523503,-1.4476128,-1.1557041,-1.2178203,-0.86590165,0.4602499,0.16811085,0.5286214,-0.5552902,1.1105583,-2.7264082,-0.07490335,-3.3689382,0.21612419,-0.48864746,0.8422871,0.7275422,-0.054639053,0.054012816,0.6817474,0.60487366,-0.4884824,-1.2282261,1.0,0.0,0.0,0.0,0.0,0.0,0.0,-1.1786213,0.15529022,-0.56055826,-4.240322,-0.12218952,-1.3815165,-0.9232998,-1.795125,0.08307099,-0.2920866
-12.458319,38.35162,9.716929,16.766594,0.77964437,0.57356554,-0.20386624,0.46587926,-0.8119497,-0.6617681,-0.7031578,-0.6408545,0.6518095,0.15535226,1.2943299,-0.8094387,-1.8757802,-1.3105383,2.2522528,1.6409738,-0.8970511,1.2575667,-0.742731,-1.8212745,-1.2525191,2.3075187,1.5803992,-0.91097176,0.9600613,-1.4494387,-1.1715479,-1.232899,-0.8877187,0.4606158,0.15926789,0.50137776,-0.5560379,1.0761578,-2.7236824,-0.07482846,-3.4637556,0.22191373,-0.4935112,0.82986146,0.72387743,-0.04609197,0.05428709,0.6862433,0.573473,-0.47441962,-1.2523799,1.0,0.0,0.0,0.0,0.0,0.0,0.0,-1.1513777,0.1560379,-0.5261578,-8.977318,-0.25744438,-1.7425776,-1.265645,-2.425158,-0.05890727,-0.8668333
-42.33301,29.22646,1.1347849,26.697037,2.3372772,1.3809325,-0.6715692,0.22568314,-0.8111385,-0.65900975,-0.7194405,-0.652628,0.6385791,0.096400924,1.280135,-0.82384485,-1.8871754,-1.3244631,2.242256,1.6442571,-0.90133166,1.2654574,-0.7572354,-1.83306,-1.2650123,2.2984703,1.5850016,-0.90949166,0.73340964,-1.451232,-1.181542,-1.2534418,-0.9118028,0.45995745,0.14398754,0.47416136,-0.5567856,1.0408099,-2.7209594,-0.07475365,-3.5584784,0.22688653,-0.49845123,0.8171939,0.72068435,-0.037375636,0.054726724,0.69008845,0.47443566,-0.48908272,-1.2761995,1.0,0.0,0.0,0.0,0.0,0.0,0.0,-1.1241614,0.15678558,-0.49080986,-22.232903,-0.31805038,-1.146245,-1.6879797,-2.825129,-0.10262728,-1.597926
-111.104004,5.227554,-20.79742,47.862114,5.9463835,2.942576,-1.7167282,-0.30331132,-0.8103381,-0.6916744,-0.7717336,-0.62773144,0.5453035,0.04257747,1.2351263,-0.83826923,-1.9022275,-1.3421856,2.235697,1.639532,-0.9052339,1.2688334,-0.77175987,-1.8450611,-1.2778983,2.2892768,1.5895258,-0.90820515,0.20855802,-1.4540033,-1.20647,-1.2979314,-0.9245158,0.44976258,0.122799784,0.44697216,-0.55753326,1.0045154,-2.7182388,-0.07467891,-3.6531065,0.22974966,-0.504097,0.80420893,0.7188596,-0.028282043,0.055325888,0.69237274,0.22536051,-0.5786671,-1.3103133,1.0,0.0,0.0,0.0,0.0,0.0,0.0,-1.0969721,0.15753326,-0.4545154,-51.62812,-0.61342716,-2.606392,-3.7095308,-2.1250486,-1.0701418,-2.3524852
-129.89488,2.257539,-25.261915,53.236275,7.1108847,3.5064526,-1.8079791,-0.5190669,-0.8085177,-0.6842674,-0.7967678,-0.5394156,0.52449644,0.31747755,1.2169267,-0.85261166,-1.9134878,-1.357575,2.2353354,1.6419754,-0.8764574,1.2664645,-0.78630626,-1.8572471,-1.2912822,2.280259,1.5939223,-0.90690434,-0.38212645,-1.4564835,-1.2228358,-1.3485634,-0.89764524,0.43525723,0.13208233,0.41981015,-0.55828094,0.96727526,-2.715521,-0.07460425,-3.7476397,0.229788,-0.5107727,0.79089355,0.71873766,-0.01870427,0.055871125,0.69278044,-0.070150875,-0.68752,-1.3427109,1.0,0.0,0.0,0.0,0.0,0.0,0.0,-1.0698102,0.15828094,-0.41727525,-58.079796,-0.7282734,-1.7594337,-4.0606976,1.6156554,-1.7319739,0.7822901
-107.47487,13.734783,-16.35009,45.991474,6.048957,3.1994433,-1.3721458,-0.5815025,-0.8153905,-0.667827,-0.79151547,-0.5201688,0.50484705,0.35624772,1.2083142,-0.8678453,-1.9240298,-1.3704337,2.228242,1.6444069,-0.8712796,1.2590735,-0.8009051,-1.8694618,-1.3050437,2.2716033,1.5981604,-0.90545,-0.85533476,-1.4625255,-1.2216023,-1.3821001,-0.85798454,0.4182894,0.14991724,0.3926753,-0.5590286,0.9290905,-2.7128062,-0.07452966,-3.8420784,0.22721396,-0.5183296,0.77732086,0.7200173,-0.0087230345,0.056130137,0.6916273,-0.3224396,-0.76721156,-1.3660979,1.0,0.0,0.0,0.0,0.0,0.0,0.0,-1.0426753,0.15902862,-0.3790905,-46.484554,-1.0804653,-0.023150444,-2.3449183,2.996552,-2.140361,1.8106192
-79.2679,23.669819,-7.904688,36.110935,4.6417933,2.539542,-0.9489364,-0.66395235,-0.8135849,-0.72677904,-0.7895779,-0.4754462,0.47508183,0.40087035,1.1926782,-0.8822636,-1.9421396,-1.3840015,2.2240586,1.6456686,-0.86536294,1.2480624,-0.8155459,-1.881892,-1.3190074,2.2634513,1.6022154,-0.90377915,-1.1811202,-1.4659691,-1.2504177,-1.3981781,-0.8035328,0.39953807,0.17311808,0.3655676,-0.5597763,0.8899621,-2.710094,-0.07445515,-3.9364228,0.22258696,-0.526474,0.76350474,0.722274,0.0016346679,0.055979967,0.68933576,-0.51447326,-0.8185794,-1.390497,1.0,0.0,0.0,0.0,0.0,0.0,0.0,-1.0155675,0.1597763,-0.33996207,-31.954742,-0.74994564,-2.9969454,-0.7164717,4.6571255,-2.3805916,2.439633
-51.654175,33.93699,0.9555447,27.170952,3.300323,1.9650345,-0.6134223,-0.7271229,-0.81466234,-0.7551258,-0.7815554,-0.40977904,0.45771956,0.2627194,1.1753501,-0.8970122,-1.9574045,-1.3971629,2.2224734,1.6479874,-0.8775072,1.2348025,-0.83020675,-1.8947322,-1.3330054,2.2559745,1.6060892,-0.9019929,-1.3727462,-1.4671743,-1.2956007,-1.3980064,-0.73074824,0.38181293,0.18098484,0.33848697,-0.5605202,0.8498829,-2.7073843,-0.07438071,-4.0317383,0.21648334,-0.53492737,0.749455,0.72515005,0.012330025,0.05531385,0.68625486,-0.64885527,-0.84191984,-1.4133517,1.0,0.0,0.0,0.0,0.0,0.0,0.0,-0.98848695,0.16052017,-0.2998829,-18.752266,-0.4181862,-4.5996428,0.71029663,6.712556,-2.225244,0.9568423
-32.087925,42.193264,8.230115,21.528711,2.7089581,1.6687791,-0.43909413,-0.7833307,-0.8135961,-0.7566973,-0.77302855,-0.17672703,0.44210687,-0.032997537,1.1564695,-0.9115664,-1.970402,-1.4103082,2.2383018,1.6502999,-0.9052927,1.2203066,-0.844859,-1.907975,-1.3469176,2.249829,1.6097971,-0.90036786,-1.4744043,-1.4653195,-1.3339124,-1.3873435,-0.576888,0.36588216,0.15707864,0.3114334,-0.5612602,0.80885136,-2.7046776,-0.07430635,-4.126958,0.20929894,-0.54351044,0.73523307,0.72844183,0.023285685,0.053784683,0.6825961,-0.7491544,-0.84979296,-1.4285467,1.0,0.0,0.0,0.0,0.0,0.0,0.0,-0.9614334,0.16126022,-0.25885135,-9.916425,-0.019478798,-3.8818598,1.5679121,15.017378,-1.9680202,-2.1456985
-18.336115,47.86278,13.507296,18.36464,2.6614583,1.4652524,-0.38580483,-0.80035543,-0.81188434,-0.7726451,-0.7481983,0.16244376,0.43588108,-0.35360718,1.1402711,-0.92604744,-1.9852395,-1.4217374,2.2660735,1.6533853,-0.93572855,1.2052996,-0.8594769,-1.9215648,-1.3606067,2.2461097,1.6133639,-0.8992311,-1.5092182,-1.4609972,-1.3673493,-1.361582,-0.30457205,0.3524126,0.10036415,0.2844069,-0.5620003,0.7668683,-2.7019734,-0.07423206,-4.222082,0.20125335,-0.5521622,0.7209229,0.73208904,0.03441379,0.050847128,0.6784363,-0.83104324,-0.8549435,-1.4351503,1.0,0.0,0.0,0.0,0.0,0.0,0.0,-0.9344069,0.16200027,-0.21686828,-3.3541918,0.29697418,-3.3452988,2.915287,27.036322,-1.6680956,-5.346033
-10.71024,55.05821,18.599606,18.501717,2.4713318,1.5961463,-0.35238284,-0.81365234,-0.80478096,-0.7567635,-0.68783075,0.30506065,0.47388393,-0.40888935,1.1239344,-0.939955,-1.9972411,-1.4293897,2.2766159,1.6607523,-0.94012,1.190201,-0.8740176,-1.9353073,-1.3737826,2.2452629,1.6168448,-0.8986856,-1.5099261,-1.4520522,-1.3762603,-1.3024279,-0.011092003,0.34605902,0.040339295,0.25740743,-0.5627403,0.72393465,-2.699272,-0.07415784,-4.317112,0.19246483,-0.56079483,0.7066848,0.7360593,0.045488495,0.046283856,0.6737991,-0.90278524,-0.8507466,-1.4233712,0.0,1.0,0.0,0.0,0.0,0.0,0.0,-0.9074074,0.16274032,-0.17393464,-0.027775764,0.8074999,-0.84080696,6.120658,29.299322,-0.8575618,-5.6869946
-4.9800267,56.55191,20.071684,15.509136,1.5678186,1.513349,-0.28280476,-0.81860757,-0.8047309,-0.77372855,-0.68734884,0.23436847,0.44232583,-0.44845736,1.1083403,-0.95449066,-2.01268,-1.4425175,2.2686996,1.6610774,-0.94353133,1.1751306,-0.8883157,-1.9504261,-1.3871868,2.2454247,1.6202692,-0.89820075,-1.5032741,-1.4265254,-1.5291127,-1.3341901,0.048301194,0.32666597,0.036175016,0.24120052,-0.5667305,0.7225656,-1.5537368,-0.40040734,0.32627892,0.18328862,-0.569252,0.69198525,0.74009615,0.05707351,0.041266557,0.66880286,-0.93263793,-0.8283919,-1.4772604,0.0,1.0,0.0,0.0,0.0,0.0,0.0,-0.8912005,0.1667305,-0.17256558,1.8049002,0.59366226,-1.0115385,6.011033,19.072401,-1.7004132,-5.862523
65.76819,176.0,110.0,106.57355,-3.8010066,12.110091,-0.66942924,-0.7007186,0.55729866,0.71641105,0.7204294,-0.37658677,0.6778271,-0.30227172,1.1050588,-0.8325858,-1.878785,-1.3151438,2.207766,1.6880519,-0.92842793,1.1651037,-0.9040599,-1.9615803,-1.3856475,2.2321992,1.6334738,-0.89616656,-0.84008324,-1.6225253,-0.97211546,0.64491266,-1.7740049,1.6629502,0.25505525,0.22567481,-0.5707321,0.7250815,-1.5521834,-0.400007,0.22670154,0.17383088,-0.5756035,0.68192977,0.744367,0.05729275,0.041670006,0.66400224,-0.95611596,-0.55432993,-0.84933823,1.0,0.0,0.0,0.0,0.0,0.0,0.0,-0.8756748,0.17073211,-0.17508149,65.06197,-19.23995,57.324993,196.458,-180.52094,136.95483,20.655817
-7.29258,176.0,88.188705,89.7031,2.85633,6.8277364,-1.1610012,-0.8058525,-0.6025976,0.24035425,0.7643477,-0.6057604,0.58023226,-0.29379666,1.0845184,-0.96431965,-1.9375448,-1.3092128,2.1716232,1.691497,-0.9255462,1.1567667,-0.9199567,-1.9653053,-1.3719356,2.2118707,1.6499609,-0.8942354,-0.8306759,-1.5801383,-0.16924031,1.6137468,-2.1246567,1.6498444,0.17423092,0.2101646,-0.5747299,0.7266024,-1.5506315,-0.3996071,0.12722374,0.1636028,-0.58057785,0.6772213,0.74949294,0.049171794,0.044901885,0.6586548,-1.045614,-0.46665987,-0.34953827,1.0,0.0,0.0,0.0,0.0,0.0,0.0,-0.8601646,0.17472991,-0.17660236,1.1842966,3.8506985,81.27768,97.02463,-36.801888,0.47552586,-7.569602
-37.421295,143.76025,52.319542,62.85353,3.463884,4.2566857,-1.3221768,-0.7779379,-0.51344365,-0.123013176,0.7087748,-0.64314747,0.65147877,-0.33895302,1.0789728,-0.9713011,-1.9776067,-1.3010582,2.1475558,1.7151088,-0.9281307,1.147474,-0.9340501,-1.9646492,-1.3528602,2.1914163,1.6656126,-0.8929403,-0.9601191,-1.3536707,0.1438291,2.0069091,-2.0228126,1.5404423,0.11552207,0.19466993,-0.5787239,0.7271292,-1.5490812,-0.39920756,0.027845392,0.15227579,-0.5849724,0.67586917,0.75566965,0.03798501,0.04878989,0.65202767,-1.162141,-0.42217085,-0.07209371,1.0,0.0,0.0,0.0,0.0,0.0,0.0,-0.84466994,0.1787239,-0.17712921,-12.36136,22.275019,31.262869,39.731907,9.032249,-9.877539,-5.5827765
-40.341053,116.024155,34.585808,38.289154,2.737069,2.7218974,-0.82686514,-0.7814828,-0.49022225,0.022517694,0.7587041,-0.662907,0.628829,-0.18178797,1.0693258,-0.9830723,-1.9623975,-1.2769898,2.1251256,1.7284955,-0.9111191,1.1364152,-0.94572496,-1.9621487,-1.3328254,2.1734414,1.6797899,-0.8921125,-1.1530198,-1.1062629,0.28423557,2.0032353,-1.724609,1.3789675,0.07201036,0.17919074,-0.5827141,0.72666305,-1.5475324,-0.39880842,-0.071433604,0.13996802,-0.5889015,0.6762347,0.76254606,0.026335211,0.052535508,0.64425915,-1.2559894,-0.37663516,0.0638481,1.0,0.0,0.0,0.0,0.0,0.0,0.0,-0.82919073,0.18271407,-0.17666304,-18.91656,24.477053,13.638118,-0.14920235,29.203129,-15.464282,-4.2778373
-42.158302,83.55041,13.703178,22.035538,1.8532137,1.0542338,-0.76587564,-0.792374,-0.38353053,-0.22155762,0.77585906,-0.64250755,0.6220048,-0.15339056,1.0571778,-0.984078,-1.9843044,-1.2552395,2.1091907,1.7419903,-0.90745157,1.1236169,-0.95489264,-1.9605465,-1.3141582,2.158568,1.6924242,-0.8916433,-1.3216587,-0.85403335,0.11722089,1.8214066,-1.40831,1.226449,0.037945002,0.16372702,-0.5866966,0.7252048,-1.5459852,-0.3984097,-0.17061335,0.12693384,-0.59257126,0.67699075,0.76995003,0.015967004,0.056191523,0.63542455,-1.3225609,-0.35463297,0.071663156,1.0,0.0,0.0,0.0,0.0,0.0,0.0,-0.813727,0.18669662,-0.17520481,-16.72821,25.085306,-17.256847,-18.080067,31.65562,-14.775491,-3.5745463
-29.202602,64.64471,7.939788,12.283905,0.93114233,0.17417142,-0.4965854,-0.7916442,-0.35153285,-0.22844988,0.7904387,-0.6237624,0.61053264,-0.21497288,1.0444525,-0.9900459,-1.9833915,-1.2351143,2.0961916,1.7534775,-0.9131406,1.1095922,-0.96202135,-1.9611187,-1.2974975,2.1463914,1.703668,-0.8915136,-1.4293828,-0.66614527,-0.116414614,1.6142405,-1.1541092,1.0911465,0.003996054,0.14827876,-0.59067917,0.7227555,-1.5444396,-0.39801136,-0.26969394,0.11350697,-0.59607697,0.67743903,0.7776986,0.007524122,0.05991038,0.6257308,-1.3524088,-0.33956316,0.029970724,1.0,0.0,0.0,0.0,0.0,0.0,0.0,-0.79827875,0.19067916,-0.17275548,-10.772753,18.683315,-23.69704,-20.701431,25.43018,-13.287401,-3.5992682
-20.31025,45.48454,3.5972948,7.7745867,0.7498385,-0.34653318,-0.3146802,-0.80474675,-0.36954919,-0.26571402,0.7855628,-0.5616523,0.59089434,-0.23202369,1.0291176,-0.9989763,-1.9876901,-1.2189412,2.0902262,1.7627574,-0.91471595,1.0948865,-0.96801233,-1.9639568,-1.2825725,2.13629,1.7136987,-0.8916948,-1.4844885,-0.57697093,-0.34022656,1.4519866,-0.96237284,0.97375274,-0.025893295,0.13284594,-0.5946541,0.71931314,-1.5428954,-0.39761344,-0.36906925,0.099878974,-0.5995636,0.67724466,0.78563625,0.0010083162,0.06359834,0.61541027,-1.3687394,-0.341328,-0.040019795,0.0,1.0,0.0,0.0,0.0,0.0,0.0,-0.7828459,0.19465408,-0.16931313,-5.518532,8.843195,-22.550192,-16.201614,19.137537,-11.676073,-3.1249216
-7.774564,40.984375,7.9962883,6.639557,0.65631425,-0.30127633,-0.09794274,-0.80022097,-0.39195737,-0.1949256,0.7872395,-0.5077792,0.58819973,-0.30577713,1.0148644,-1.0072081,-1.9834493,-1.2038486,2.0855122,1.7725188,-0.9222725,1.0799711,-0.97375154,-1.9681206,-1.2687347,2.1276917,1.7226938,-0.89218974,-1.4939746,-0.57313716,-0.44168168,1.3610168,-0.8260222,0.8748544,-0.057551675,0.117428556,-0.598629,0.7148778,-1.5413529,-0.3972159,-0.46834517,0.08617205,-0.60305405,0.6764547,0.7935973,-0.0040827277,0.06698674,0.6047309,-1.3733469,-0.3415343,-0.09489506,0.0,1.0,0.0,0.0,0.0,0.0,0.0,-0.7674285,0.19862899,-0.16487777,-0.970006,0.3129959,-10.115576,-9.073234,13.458359,-9.902918,-3.2203689
6.917817,46.159695,16.979652,6.120558,0.4192085,0.0066459775,0.17393567,-0.78134453,-0.42504054,-0.056464855,0.7810418,-0.4890232,0.59752035,-0.34137475,1.0018367,-1.0162556,-1.973767,-1.1906306,2.0787895,1.7824458,-0.9263272,1.0652254,-0.97990656,-1.9720459,-1.2553833,2.1200738,1.7308363,-0.89299273,-1.4683379,-0.6298496,-0.37522373,1.326539,-0.74184257,0.7941057,-0.08787022,0.10202659,-0.6025963,0.7094505,-1.5398118,-0.3968188,-0.5675218,0.07254268,-0.6064453,0.6753648,0.8013579,-0.008523122,0.06977241,0.5940409,-1.3613943,-0.32646576,-0.11583979,0.0,1.0,0.0,0.0,0.0,0.0,0.0,-0.75202656,0.20259628,-0.15945047,2.4913788,-5.7461023,6.881845,-3.4631014,8.086753,-8.068824,-3.0330822
14.863338,52.95489,23.558266,6.7206798,0.30275798,0.31624743,0.32561123,-0.77285147,-0.45071802,0.050145827,0.7708082,-0.47412425,0.6077962,-0.34485346,0.9879402,-1.0249784,-1.9670314,-1.1783024,2.0726614,1.7916158,-0.9274781,1.0508306,-0.9868159,-1.9744511,-1.2421386,2.1130166,1.7382902,-0.8940675,-1.4286523,-0.71099377,-0.2069378,1.3186984,-0.7105866,0.6965826,-0.12308645,0.086640015,-0.60656357,0.70303214,-1.6913582,-0.23250113,-0.26498213,0.059099592,-0.609581,0.67427206,0.8087592,-0.012962151,0.07178882,0.5835981,-1.33427,-0.3027229,-0.11409599,0.0,1.0,0.0,0.0,0.0,0.0,0.0,-0.73664,0.20656356,-0.15303212,4.035878,-8.146739,15.945807,-1.3019323,1.1176586,-12.978387,-4.415235
15.751082,81.26849,33.768982,12.327114,-0.026839912,0.8795261,0.26832178,-0.7827993,-0.3280834,0.10101364,0.7700749,-0.4925424,0.608736,-0.34171095,0.9725507,-1.0196242,-1.9643497,-1.1651311,2.0637624,1.7991638,-0.92823863,1.0367485,-0.99385035,-1.9750941,-1.2288859,2.1059713,1.7447807,-0.89548755,-1.40186,-0.70147073,-0.013563025,1.3277727,-0.7027927,0.6365165,-0.14782493,0.06952782,-0.60811996,0.70258516,-1.7050304,-0.14703457,-0.024263162,0.04601003,-0.61227036,0.67357194,0.81581134,-0.017524904,0.073523335,0.5733577,-1.3029981,-0.24724863,-0.056905463,0.0,1.0,0.0,0.0,0.0,0.0,0.0,-0.7195278,0.20811996,-0.15258515,2.5127172,0.7695198,20.317919,1.061511,0.69948435,-5.0209045,-2.3240983
9.692022,94.79943,35.355568,16.491287,-0.100142926,1.0397906,0.107508585,-0.78821313,-0.2539967,0.07965192,0.7689281,-0.50255394,0.6115726,-0.32556152,0.9579272,-1.01925,-1.9671289,-1.151993,2.055716,1.8059379,-0.9280437,1.0228134,-1.0002477,-1.9742533,-1.2154983,2.0989099,1.7508336,-0.8970944,-1.390971,-0.6197791,0.11772513,1.3422832,-0.7090782,0.5955171,-0.16530366,0.052645642,-0.6093178,0.7029255,-1.6826261,-0.110659495,0.0532058,0.033197764,-0.61431503,0.673594,0.8225648,-0.022552412,0.07539159,0.5632003,-1.2758478,-0.18159114,0.019432453,0.0,1.0,0.0,0.0,0.0,0.0,0.0,-0.7026456,0.20931777,-0.15292549,1.0107517,7.991767,13.472444,1.4210463,-1.1080861,-3.919983,-1.8623054
4.0034037,102.63258,35.077187,19.360868,-0.09456402,1.098954,-0.024555879,-0.7884145,-0.17775047,0.06560459,0.7695465,-0.5159753,0.6175619,-0.32424885,0.943972,-1.0180228,-1.9676929,-1.1385437,2.0473123,1.8125898,-0.9295193,1.008907,-1.0054376,-1.9726325,-1.2019638,2.0917468,1.7565862,-0.8988387,-1.3909667,-0.4861679,0.17767304,1.3572141,-0.7198445,0.5691988,-0.17794816,0.035980333,-0.6101341,0.7040857,-1.6612031,-0.07172141,0.13639787,0.020630319,-0.6156845,0.67442524,0.8291101,-0.027940936,0.07781474,0.5529382,-1.2523503,-0.11231351,0.101929285,0.0,1.0,0.0,0.0,0.0,0.0,0.0,-0.6859803,0.21013412,-0.1540857,-0.064611435,13.173604,6.2700033,1.5010118,-1.4882922,-2.4373293,-1.4016122
-1.8390648,102.87531,32.221127,20.644722,-0.011862814,0.9970155,-0.13227873,-0.7965228,-0.10106166,0.034606434,0.7674423,-0.51073986,0.61636674,-0.32549295,0.92925465,-1.0155438,-1.9691719,-1.1252196,2.0406728,1.8182229,-0.931388,0.9949223,-1.0090997,-1.9709488,-1.1883229,2.0845027,1.7621226,-0.90069073,-1.4011236,-0.32691947,0.16592209,1.3664547,-0.72686255,0.5490818,-0.18806279,0.019512799,-0.6105614,0.7060243,-1.641969,-0.03318048,0.2123204,0.008253604,-0.6163864,0.67601997,0.8355268,-0.03348808,0.08105193,0.5424058,-1.2341775,-0.04692127,0.1764762,0.0,1.0,0.0,0.0,0.0,0.0,0.0,-0.66951275,0.21056136,-0.15602428,-1.0763407,15.741264,-0.9654999,0.95915794,-1.0366917,-1.8342137,-1.1544973
-6.6472826,92.82899,26.367998,19.800018,0.17278136,0.7263963,-0.20122132,-0.80063033,-0.05552457,-0.023362063,0.7655082,-0.4897726,0.6122103,-0.33190694,0.91485924,-1.0146521,-1.9732851,-1.1117721,2.0355253,1.8233436,-0.9338814,0.9808098,-1.0112722,-1.9698561,-1.1746358,2.0772777,1.7674857,-0.90263337,-1.4148589,-0.18131809,0.09093592,1.3696486,-0.7217386,0.5324321,-0.19678806,0.003208615,-0.6106415,0.7085437,-1.6265972,0.00065476116,0.26440227,-0.0040043653,-0.61652374,0.67816985,0.8418773,-0.038920153,0.0851495,0.53148603,-1.2238419,0.0049918815,0.22596307,0.0,1.0,0.0,0.0,0.0,0.0,0.0,-0.6532086,0.21064147,-0.1585437,-1.429534,14.398107,-7.344319,0.360322,0.26438236,-1.5364528,-1.0093242
-10.808226,76.11507,19.02851,17.879204,0.43965358,0.4201625,-0.24818991,-0.8056859,-0.03818431,-0.08839489,0.7706405,-0.46997198,0.61016005,-0.35024884,0.9002412,-1.0150906,-1.9786956,-1.0975717,2.0302804,1.8285017,-0.93765825,0.9665562,-1.0123079,-1.9698294,-1.1609181,2.0701826,1.7727002,-0.90466565,-1.4289343,-0.07811031,-0.026227955,1.3726288,-0.7060182,0.51793575,-0.20575398,-0.012981025,-0.6104355,0.71134853,-1.616457,0.027153313,0.28509313,-0.016247958,-0.61629105,0.68057,0.8482129,-0.04397866,0.08997767,0.5201007,-1.224559,0.038846485,0.24320027,0.0,1.0,0.0,0.0,0.0,0.0,0.0,-0.637019,0.21043548,-0.16134852,-1.4457703,10.19015,-11.611036,0.33462048,1.4084101,-1.3775706,-1.0205567
-14.223829,59.90574,12.478638,15.963664,0.7205242,0.15628865,-0.26652104,-0.8136827,-0.03246289,-0.16107167,0.7724608,-0.4410651,0.59138584,-0.3495277,0.8851879,-1.0155542,-1.9859366,-1.083672,2.026076,1.8318387,-0.9396184,0.9521595,-1.0126758,-1.9711531,-1.1471721,2.0633276,1.7777684,-0.9067779,-1.4433813,-0.023235835,-0.16745701,1.3754125,-0.67925763,0.50329727,-0.21335398,-0.02910786,-0.6100197,0.71413624,-1.6114798,0.046378653,0.27588496,-0.028589055,-0.6158447,0.68291354,0.8545655,-0.04845298,0.09532102,0.5082165,-1.2369027,0.055933267,0.2303688,0.0,1.0,0.0,0.0,0.0,0.0,0.0,-0.6208921,0.21001968,-0.16413623,-1.4580727,5.385959,-14.058176,0.31147003,2.5820374,-1.4385104,-0.87154806
-7.7887726,62.139698,15.448597,14.5104685,0.59003985,0.2076773,-0.14406875,-0.8031713,0.0036227382,-0.13085927,0.7762314,-0.44512698,0.6073586,-0.36340934,0.8718424,-1.0123135,-1.9842391,-1.069549,2.0188148,1.8385042,-0.9431189,0.9377028,-1.0126243,-1.973465,-1.1333915,2.0567017,1.7827201,-0.9089656,-1.4465796,0.014291421,-0.2517899,1.3789316,-0.6575134,0.49246696,-0.22098798,-0.045153454,-0.6093826,0.7169124,-1.6022761,0.069508985,0.27741778,-0.040984068,-0.61517334,0.68518984,0.8608598,-0.052459225,0.10100549,0.49594975,-1.2395042,0.07861507,0.22589244,0.0,1.0,0.0,0.0,0.0,0.0,0.0,-0.60484654,0.20938262,-0.16691238,-0.36363602,3.6393476,-8.257943,0.3451109,1.9893289,-1.0907471,-0.88783205
-8.690402,48.889137,11.052076,12.48874,0.7990291,0.03411877,-0.11273123,-0.80897665,-0.04261383,-0.19053248,0.7747504,-0.42291364,0.60404235,-0.3632731,0.8568051,-1.0168856,-1.9925182,-1.0559164,2.0144103,1.8431243,-0.9452929,0.92322505,-1.012588,-1.9765397,-1.119588,2.0503085,1.7875745,-0.91122097,-1.448239,-0.0001993303,-0.3255565,1.3808833,-0.6338236,0.48298663,-0.22737882,-0.061135072,-0.60855865,0.71951663,-1.5968252,0.086674176,0.2541387,-0.05346811,-0.6143837,0.68724215,0.8670636,-0.05600978,0.10678817,0.48338366,-1.2502326,0.08908988,0.19773391,0.0,1.0,0.0,0.0,0.0,0.0,0.0,-0.5888649,0.20855865,-0.16951662,-0.18587112,-1.5328124,-7.22425,0.19800663,2.2297382,-0.96881986,-0.74041784
-5.635585,53.32191,13.286104,12.478186,0.6855339,0.07677454,-0.06035274,-0.8022127,-0.011763951,-0.21355717,0.7834248,-0.4296447,0.6014563,-0.35386378,0.84300375,-1.0137644,-1.9978955,-1.0412456,2.007344,1.8477201,-0.94660735,0.90877783,-1.0126624,-1.9801999,-1.105735,2.044087,1.7923462,-0.91352427,-1.4437237,-0.010224209,-0.3788887,1.3867445,-0.6187457,0.47512445,-0.2317058,-0.07703635,-0.6075363,0.721959,-1.5878277,0.10732765,0.24088465,-0.06600983,-0.6134567,0.68907976,0.8731354,-0.05917034,0.11262334,0.47058395,-1.2542578,0.10471254,0.17864934,0.0,1.0,0.0,0.0,0.0,0.0,0.0,-0.5729636,0.20753631,-0.17195898,0.4121065,-1.1006033,-5.1199675,0.57389736,1.3165712,-0.81918836,-0.5458772
-7.3857317,45.759537,10.392878,11.509206,0.8328066,-0.011183798,-0.05420531,-0.80823696,-0.049895857,-0.26079014,0.7763442,-0.3905174,0.58914644,-0.34373727,0.8279541,-1.017652,-2.006279,-1.0281005,2.0050352,1.8512609,-0.947898,0.8943535,-1.0130115,-1.9844133,-1.0918609,2.0380857,1.7970375,-0.915856,-1.4421165,-0.043418087,-0.43479776,1.3877047,-0.5947024,0.46705642,-0.23399475,-0.09286837,-0.6063347,0.7241583,-1.581608,0.12430928,0.2129139,-0.07864393,-0.61240387,0.69062537,0.87907153,-0.061918885,0.11840372,0.45758033,-1.265085,0.11384628,0.1462314,0.0,1.0,0.0,0.0,0.0,0.0,0.0,-0.5571316,0.20633468,-0.17415828,0.13871193,-3.4018717,-5.406684,0.099897385,2.2485256,-0.8498311,-0.3242463
-7.5505266,52.064514,11.751243,12.523831,0.6413076,0.019128025,-0.036607318,-0.807017,-0.015285762,-0.32501036,0.7814004,-0.42746246,0.57649714,-0.29115787,0.8136518,-1.0145401,-2.0169144,-1.0137209,1.9953394,1.8546872,-0.9449718,0.8799416,-1.0135036,-1.9893342,-1.0779676,2.0321805,1.8016506,-0.9181658,-1.440915,-0.05132624,-0.51042604,1.3898433,-0.58949655,0.459108,-0.23043816,-0.10861188,-0.6049385,0.726149,-1.5718224,0.1448874,0.19463447,-0.091342136,-0.61123276,0.69190526,0.88485414,-0.06420285,0.12427772,0.44437152,-1.2698473,0.12857278,0.12176303,0.0,1.0,0.0,0.0,0.0,0.0,0.0,-0.5413881,0.2049385,-0.17614901,0.08435249,-0.89561415,-7.3499384,0.20811558,0.33570528,-0.8434832,0.23213923
-7.309337,50.319775,11.412029,12.250601,0.71874946,0.019727945,-0.022847708,-0.8053299,-0.049725994,-0.3332997,0.7847781,-0.40644488,0.5785753,-0.29983422,0.7994086,-1.0184761,-2.0226643,-0.99948984,1.991536,1.8595082,-0.9481492,0.86554396,-1.0141635,-1.9949018,-1.0640421,2.0263472,1.8061936,-0.9204441,-1.4394665,-0.071153365,-0.5715925,1.3934014,-0.58201426,0.45234546,-0.2272713,-0.124257095,-0.60333633,0.7279404,-1.5619591,0.16523392,0.17425998,-0.10410152,-0.60990906,0.6929292,0.89046925,-0.06604474,0.13023543,0.43097696,-1.2762711,0.14265719,0.0957863,0.0,1.0,0.0,0.0,0.0,0.0,0.0,-0.5257429,0.20333633,-0.17794037,0.1090765,-2.087263,-5.8828354,0.3547907,0.54864883,-0.7415414,0.19914508
-8.205894,50.45885,10.920738,12.408168,0.6526995,0.015975952,-0.005687326,-0.80766946,-0.053695392,-0.38809308,0.78511673,-0.43306318,0.5802948,-0.2588374,0.78477705,-1.019533,-2.0337112,-0.98553044,1.9830408,1.8642231,-0.9463278,0.85114723,-1.0150027,-2.0011528,-1.0500841,2.0204914,1.8106762,-0.92266136,-1.4399148,-0.088525765,-0.64213604,1.3965199,-0.58759016,0.44680607,-0.22034737,-0.1397967,-0.601532,0.729519,-1.5510833,0.1859288,0.15306728,-0.11691952,-0.608448,0.6936815,0.8959016,-0.06741495,0.13632353,0.41741028,-1.2818793,0.15750454,0.06831691,0.0,1.0,0.0,0.0,0.0,0.0,0.0,-0.51020324,0.20153198,-0.179519,-0.08046627,-1.8481493,-6.8125367,0.31433105,-0.76333284,-0.62449574,0.5643934
-5.7011404,56.255047,13.051003,12.658403,0.5278984,0.052619934,0.046997033,-0.7991993,-0.04205017,-0.4114356,0.7885228,-0.44607323,0.57442623,-0.20487505,0.7712273,-1.0192077,-2.0422964,-0.9712318,1.9758841,1.8681189,-0.94314885,0.83678013,-1.0159183,-2.008046,-1.0360917,2.0145326,1.8151089,-0.92477185,-1.4358022,-0.09291182,-0.70437044,1.4001789,-0.59969026,0.4418815,-0.20849702,-0.15519217,-0.59949493,0.73096734,-1.535478,0.21003121,0.1426576,-0.12973675,-0.6068001,0.6942288,0.90111065,-0.068340905,0.14261931,0.4037187,-1.2797037,0.17705336,0.05024616,0.0,1.0,0.0,0.0,0.0,0.0,0.0,-0.4948078,0.19949493,-0.18096733,0.3484726,-0.5666524,-5.913675,0.3411293,-1.4776826,-0.57694316,1.0321289
-8.091501,49.579857,10.635297,12.23491,0.7503841,0.008991778,0.03146209,-0.8081036,-0.08828253,-0.44106323,0.78736883,-0.41188282,0.56010824,-0.19989717,0.75596976,-1.0247465,-2.0521522,-0.9573548,1.9733443,1.8711197,-0.9447616,0.822413,-1.0170455,-2.015519,-1.0220743,2.0085542,1.8194858,-0.92676646,-1.4371231,-0.1198166,-0.76101273,1.4024296,-0.59805286,0.43588242,-0.19692172,-0.17045942,-0.59724426,0.7322149,-1.5235162,0.23054364,0.11971408,-0.14260334,-0.6049957,0.69452024,0.9061044,-0.068818115,0.14900671,0.38991767,-1.2869687,0.19179966,0.022124585,0.0,1.0,0.0,0.0,0.0,0.0,0.0,-0.47954056,0.19724426,-0.18221492,-0.17361641,-2.8064594,-5.3827405,0.23040771,-0.076174736,-0.70123076,1.0306984
-6.490263,57.35067,13.073801,13.084379,0.69007254,0.08247954,0.06598331,-0.8045867,-0.058083016,-0.47127867,0.78581005,-0.41379452,0.5601656,-0.14164579,0.7419543,-1.0228539,-2.0626469,-0.94349337,1.9671748,1.8755023,-0.940931,0.8080402,-1.0182834,-2.0235333,-1.0080532,2.0026143,1.8238077,-0.9286128,-1.4375516,-0.12540142,-0.8137947,1.4019439,-0.5935611,0.43066883,-0.18103996,-0.18556973,-0.5947571,0.73332906,-1.5064467,0.25527847,0.109926045,-0.15549481,-0.602993,0.6946205,0.91086435,-0.068878815,0.15549216,0.37603727,-1.2876071,0.2130566,0.0062547238,0.0,1.0,0.0,0.0,0.0,0.0,0.0,-0.46443024,0.19475707,-0.18332905,-0.116086006,-0.69752187,-4.9197316,-0.07567406,0.13591051,-0.64572096,1.434046
-9.687886,47.65335,9.328739,12.266974,0.83035207,-0.025409281,0.041946173,-0.81093615,-0.112486795,-0.5229608,0.788106,-0.40454963,0.53659695,-0.1320498,0.7269466,-1.0295321,-2.0758295,-0.9292426,1.9621593,1.8774674,-0.9418178,0.7936349,-1.0197749,-2.0321655,-0.9940282,1.9967445,1.8280628,-0.9303058,-1.4416522,-0.15740629,-0.8785957,1.4027483,-0.5856205,0.42341018,-0.16581947,-0.20054932,-0.5920639,0.7342009,-1.4946917,0.2742086,0.080991685,-0.16847101,-0.6008415,0.6944366,0.9154101,-0.068454206,0.16200675,0.36206642,-1.2985328,0.22676906,-0.026220346,0.0,1.0,0.0,0.0,0.0,0.0,0.0,-0.44945067,0.1920639,-0.18420088,-0.44603348,-3.3201516,-6.1943173,0.09942055,0.5485654,-0.8523941,1.3961345
-8.306429,54.24581,11.220974,12.91368,0.7004588,0.032912076,0.094340965,-0.8093078,-0.089297324,-0.55273795,0.7859617,-0.4313635,0.52751225,-0.04077108,0.7127041,-1.0287046,-2.0874393,-0.91543204,1.9536082,1.880814,-0.9343829,0.7791962,-1.0214496,-2.0414424,-0.980009,1.990872,1.8322468,-0.9317938,-1.4447849,-0.17124899,-0.942749,1.4015833,-0.5887796,0.41613358,-0.143618,-0.21537276,-0.58916473,0.73486066,-1.4776117,0.29644322,0.06292902,-0.1815011,-0.5985031,0.6939984,0.9197167,-0.06752353,0.16861789,0.3480368,-1.3018303,0.24594799,-0.04928875,0.0,1.0,0.0,0.0,0.0,0.0,0.0,-0.43462723,0.18916473,-0.18486065,-0.37755966,-1.5247524,-6.055939,-0.12640953,-0.6294489,-0.8854091,2.0663886
-9.6493025,43.450428,7.546933,11.064319,0.6595987,-0.09763378,0.13097824,-0.8102493,-0.15297648,-0.6009081,0.78415793,-0.4524936,0.5074814,0.028997317,0.69817126,-1.0367472,-2.1015332,-0.9015932,1.9456227,1.8829949,-0.9288941,0.76473176,-1.0234942,-2.0514212,-0.966006,1.9848812,1.8363456,-0.9330252,-1.4470884,-0.21577005,-1.0154188,1.3999333,-0.6031855,0.40758774,-0.11665168,-0.23006284,-0.5860901,0.7351813,-1.4654477,0.31197414,0.024002554,-0.19460905,-0.5960388,0.6931837,0.92377734,-0.06598815,0.1752987,0.333993,-1.3110539,0.25675488,-0.09174041,0.0,1.0,0.0,0.0,0.0,0.0,0.0,-0.41993713,0.18609008,-0.18518126,-0.258708,-4.566291,-6.987262,-0.1303196,-1.6811252,-0.9777248,2.560787
-9.949902,37.082985,5.5407424,9.747358,0.5934479,-0.15896243,0.17796409,-0.81037855,-0.19595604,-0.6344635,0.7836027,-0.4834895,0.4963734,0.10799936,0.6836939,-1.0430899,-2.1148674,-0.8876457,1.9365323,1.8859829,-0.92222524,0.7502538,-1.0261359,-2.0621133,-0.9520172,1.9786483,1.8403568,-0.93394905,-1.4481449,-0.28061974,-1.0864282,1.3986948,-0.63045096,0.3988087,-0.08467638,-0.24465092,-0.58288956,0.7350196,-1.4558378,0.32350922,-0.027279718,-0.20782666,-0.59349823,0.6918584,0.9275867,-0.06376445,0.18200043,0.3199887,-1.3226709,0.2634874,-0.14568782,0.0,1.0,0.0,0.0,0.0,0.0,0.0,-0.40534908,0.18288955,-0.18501961,-0.11320114,-6.585497,-6.859708,-0.053215027,-2.931738,-0.9885669,3.0767725
-7.2890577,39.417046,6.7217197,9.313138,0.5075134,-0.12772095,0.23216178,-0.8027219,-0.21632159,-0.6470621,0.7853124,-0.511224,0.5000415,0.17417568,0.6699816,-1.0477681,-2.1268196,-0.8734859,1.9275259,1.890361,-0.9165315,0.73580647,-1.0294242,-2.0733886,-0.9380301,1.972087,1.8442942,-0.93453026,-1.4437023,-0.34529743,-1.1403883,1.3989034,-0.6652302,0.39165086,-0.049664866,-0.25911963,-0.5795708,0.73437196,-1.4429609,0.33569363,-0.074647374,-0.2211185,-0.59087753,0.690023,0.93112046,-0.060881928,0.18871099,0.30609837,-1.3285112,0.2721747,-0.19580789,0.0,1.0,0.0,0.0,0.0,0.0,0.0,-0.39088035,0.17957076,-0.18437195,0.4169464,-6.5732718,-5.101776,0.080657005,-3.7299037,-0.8365691,3.372956
-9.987726,28.792744,3.453885,8.007286,0.66078436,-0.1950022,0.22389849,-0.8117958,-0.30298007,-0.6728476,0.7852023,-0.50660366,0.46515873,0.20744736,0.6546269,-1.0597222,-2.1406734,-0.8595099,1.9214267,1.89081,-0.9137855,0.7213659,-1.033607,-2.0851367,-0.92403066,1.9652299,1.8481394,-0.934769,-1.4440546,-0.44304463,-1.1856242,1.4007232,-0.692734,0.38173005,-0.015456623,-0.27351993,-0.5761719,0.73309565,-1.4380223,0.34208697,-0.14228506,-0.23455952,-0.58821106,0.68756545,0.9344064,-0.057325352,0.19527368,0.29234686,-1.3463609,0.27560642,-0.26216942,0.0,1.0,0.0,0.0,0.0,0.0,0.0,-0.37648004,0.17617187,-0.18309563,-0.014710426,-9.85927,-4.3218374,0.32577515,-2.9205441,-1.1191189,3.3535748
-9.240829,28.350048,3.4743333,7.4853415,0.65527856,-0.17235565,0.2528662,-0.80736655,-0.34500948,-0.6929038,0.78412336,-0.5184822,0.46568888,0.27635375,0.6406293,-1.068108,-2.154427,-0.8456183,1.9133817,1.8947083,-0.9071336,0.7069349,-1.038795,-2.0972776,-0.9100168,1.9581302,1.8518925,-0.93464947,-1.4427218,-0.5444441,-1.2228465,1.4021567,-0.71600944,0.37268856,0.020946162,-0.28787237,-0.57271576,0.7311266,-1.4332923,0.34776792,-0.2122671,-0.24817492,-0.58550644,0.68443704,0.9374567,-0.053106155,0.20159015,0.27877605,-1.363674,0.28034222,-0.32962826,0.0,1.0,0.0,0.0,0.0,0.0,0.0,-0.3621276,0.17271575,-0.1811266,0.15366077,-10.225696,-3.5152435,0.30591488,-2.5048852,-1.0465801,3.5878842
-6.761985,36.64773,6.147257,8.268607,0.6369523,-0.05983454,0.28655595,-0.8019111,-0.36435062,-0.6962292,0.7854632,-0.5358029,0.47164044,0.35354623,0.6267438,-1.07523,-2.1669006,-0.83147043,1.90455,1.8990566,-0.89929485,0.6925391,-1.0448546,-2.1096783,-0.89598876,1.950815,1.8555695,-0.93414336,-1.4385841,-0.62682766,-1.2450931,1.4033514,-0.73730725,0.36549366,0.06032062,-0.30213067,-0.5691757,0.7285574,-1.4221092,0.35692945,-0.26866248,-0.26190287,-0.5826988,0.68073595,0.94025373,-0.048311554,0.20767559,0.2654424,-1.372606,0.29168323,-0.38371778,0.0,1.0,0.0,0.0,0.0,0.0,0.0,-0.3478693,0.16917571,-0.1785574,0.3929615,-8.345043,-1.9118309,0.2425909,-2.4095774,-0.8882165,3.8626888
-5.924834,40.65969,7.465833,8.694932,0.742674,0.03701687,0.28286722,-0.8043976,-0.40909326,-0.6901443,0.7807092,-0.5207014,0.4831785,0.37100083,0.61209935,-1.0857639,-2.1786928,-0.8179178,1.8987448,1.9038873,-0.8970433,0.67816913,-1.0516832,-2.1221702,-0.88197684,1.9433849,1.8591912,-0.9332673,-1.4365234,-0.7020924,-1.2493886,1.4008353,-0.7457767,0.36047038,0.09658818,-0.31625924,-0.5655327,0.7254626,-1.4084041,0.36758354,-0.31976137,-0.27570516,-0.57974243,0.67655027,0.94280094,-0.0430541,0.21348815,0.25237954,-1.3793252,0.30786094,-0.43056443,0.0,1.0,0.0,0.0,0.0,0.0,0.0,-0.33374074,0.16553268,-0.1754626,0.16477108,-7.642913,-0.055003166,-0.14164448,-1.1896849,-0.6990731,3.5590603
-7.6067367,44.1822,7.831173,9.699192,0.78830343,0.10356504,0.26813576,-0.81335145,-0.4390964,-0.7086819,0.7763618,-0.5425061,0.450668,0.398837,0.596834,-1.0955929,-2.1930385,-0.80434066,1.8891343,1.904258,-0.8933836,0.66376865,-1.0591772,-2.1347234,-0.86801445,1.9358501,1.8627445,-0.93204767,-1.4413313,-0.76574594,-1.2560122,1.3950511,-0.75696355,0.35300863,0.13023855,-0.33023673,-0.5617752,0.721887,-1.3927951,0.37933803,-0.36695445,-0.2895704,-0.57660294,0.6719309,0.94510734,-0.03735024,0.21904644,0.23957404,-1.385227,0.32815248,-0.47297153,0.0,1.0,0.0,0.0,0.0,0.0,0.0,-0.31976324,0.1617752,-0.17188698,-0.52723885,-6.496167,-0.25393963,-0.4662037,-1.5081286,-0.9636998,3.2921479
-7.1666512,39.455597,6.6515613,8.361729,0.82997,0.044391274,0.2779699,-0.80984384,-0.50499946,-0.70579255,0.77000725,-0.50771767,0.38948527,0.4435991,0.5827843,-1.1096771,-2.2053027,-0.7910137,1.8850784,1.901693,-0.88768774,0.64933,-1.067415,-2.1473057,-0.85413146,1.9283247,1.8661816,-0.93049735,-1.4447215,-0.8435393,-1.2577093,1.3863724,-0.751771,0.33995718,0.16332205,-0.34409043,-0.5579262,0.7177566,-1.3813232,0.38793033,-0.4247236,-0.30352202,-0.5732727,0.66683227,0.9472055,-0.031194804,0.22423507,0.22704013,-1.3944558,0.34577513,-0.5228045,0.0,1.0,0.0,0.0,0.0,0.0,0.0,-0.30590954,0.15792617,-0.16775662,-0.36842823,-7.896042,0.18968582,-0.7237673,0.16908646,-1.5379727,3.2772393
-6.274329,40.46702,7.080879,8.24787,0.9150532,0.064230084,0.27457312,-0.80941665,-0.54297173,-0.6917745,0.7689856,-0.4827536,0.34419855,0.4902361,0.56838834,-1.1217122,-2.216483,-0.7772329,1.8800493,1.9006015,-0.8814737,0.63486755,-1.076433,-2.1598208,-0.84032744,1.9209476,1.8694606,-0.92861634,-1.4468433,-0.9217831,-1.2483115,1.3788055,-0.7339053,0.32311723,0.1964177,-0.35782877,-0.5539894,0.7130486,-1.3696743,0.39620817,-0.48248622,-0.31756327,-0.56975937,0.6612563,0.94912606,-0.024640752,0.22894087,0.21479869,-1.4031028,0.36495546,-0.57006913,0.0,1.0,0.0,0.0,0.0,0.0,0.0,-0.2921712,0.1539894,-0.16304857,-0.24797916,-7.941675,1.3184786,-0.611186,1.4169335,-1.9317687,3.2972364
-3.8243134,38.65576,7.031003,6.8703814,0.85413206,0.05632329,0.2992656,-0.80422515,-0.5970492,-0.6740104,0.75956273,-0.47222304,0.31281704,0.51934034,0.554445,-1.1361378,-2.2272217,-0.76437116,1.8737253,1.9007423,-0.8766823,0.6204183,-1.0862939,-2.1721492,-0.82662183,1.9137763,1.8725599,-0.92641675,-1.4444343,-1.00768,-1.2266961,1.3682424,-0.71233034,0.3046987,0.22792844,-0.37145594,-0.5499878,0.70772874,-1.358567,0.40280715,-0.5446361,-0.33167055,-0.56607056,0.65518457,0.9508928,-0.017743444,0.23307243,0.20289195,-1.4086615,0.382812,-0.62046576,0.0,1.0,0.0,0.0,0.0,0.0,0.0,-0.27854404,0.14998779,-0.15772873,0.20160675,-8.695948,2.535367,-0.90851784,1.7946243,-2.0890296,3.1583042
-3.7585182,45.986565,8.258987,7.991911,0.7030673,0.10554969,0.3198641,-0.8101634,-0.6011143,-0.68893856,0.74632025,-0.5271969,0.21219897,0.55433714,0.53940195,-1.1464053,-2.241043,-0.7519898,1.8610566,1.8937798,-0.87098306,0.60597014,-1.0968263,-2.184351,-0.8130667,1.9066305,1.8754166,-0.92391104,-1.4451338,-1.0689877,-1.2165191,1.351572,-0.7162607,0.27856404,0.25806713,-0.3849204,-0.54590607,0.70187,-1.3404185,0.4106681,-0.59567803,-0.34576598,-0.56217575,0.6486724,0.9524862,-0.010440404,0.23675993,0.19132634,-1.4049591,0.40312687,-0.662716,0.0,1.0,0.0,0.0,0.0,0.0,0.0,-0.2650796,0.14590606,-0.15187001,-0.13563633,-6.2542677,1.4676571,-1.5589237,-0.84712505,-2.854979,2.969101
-1.6519382,46.27657,8.742953,7.164812,0.83419037,0.101092875,0.31895185,-0.80696636,-0.6492319,-0.6578011,0.7236579,-0.42564526,0.13503966,0.5755107,0.5252735,-1.1617495,-2.2501311,-0.74070096,1.864066,1.8889205,-0.86635995,0.5915258,-1.1079767,-2.196351,-0.7997587,1.8997039,1.8779708,-0.92112046,-1.4444145,-1.1307796,-1.193208,1.3240622,-0.6858166,0.24696283,0.2860273,-0.3982104,-0.54175186,0.6954855,-1.3231556,0.4174706,-0.6487484,-0.3598254,-0.55807877,0.641753,0.9539394,-0.0027911311,0.23988926,0.1801251,-1.4010007,0.42342016,-0.70314336,0.0,1.0,0.0,0.0,0.0,0.0,0.0,-0.25178957,0.14175186,-0.14548546,-0.0044345856,-6.2942743,2.794361,-2.6592493,2.571988,-3.4238787,2.7782083
0.6188636,49.685555,9.814768,7.039108,0.96100724,0.065853715,0.3054676,-0.802727,-0.6711325,-0.64327264,0.69983846,-0.34266865,-0.033412427,0.5882336,0.5112531,-1.17509,-2.2606783,-0.72977483,1.865437,1.8746296,-0.8622971,0.5771072,-1.1196706,-2.2080839,-0.7868006,1.8933258,1.8801086,-0.91807306,-1.4412897,-1.1827385,-1.1650091,1.2864928,-0.6230346,0.20177673,0.3110115,-0.4113154,-0.5375328,0.6885961,-1.3042063,0.42369193,-0.69838834,-0.3738294,-0.55379105,0.63448006,0.955305,0.0051241973,0.24228969,0.16929778,-1.3946503,0.4433162,-0.7369406,0.0,1.0,0.0,0.0,0.0,0.0,0.0,-0.23868456,0.1375328,-0.13859612,0.21486282,-5.308628,3.3227444,-3.7038803,5.760765,-4.797056,2.4846196
3.528061,54.13654,10.7399235,6.666443,0.87085384,-0.024986982,0.3299494,-0.7947785,-0.67417145,-0.66281366,0.65874416,-0.28469238,-0.2578767,0.6057631,0.49762934,-1.1870878,-2.2743652,-0.7209262,1.8648566,1.8543209,-0.85749674,0.5627553,-1.1317365,-2.2196794,-0.7743498,1.8877072,1.8816587,-0.91479415,-1.4335977,-1.214946,-1.1559751,1.2311959,-0.5428735,0.1385254,0.33345306,-0.4242007,-0.53326416,0.68124896,-1.2812672,0.42830577,-0.74299407,-0.38772005,-0.54932404,0.62690496,0.95661014,0.013346074,0.24389414,0.15885344,-1.3814071,0.45942423,-0.7660085,0.0,1.0,0.0,0.0,0.0,0.0,0.0,-0.22579926,0.13326415,-0.13124895,0.6440878,-3.331256,1.4444351,-5.5378675,7.448399,-6.610531,2.1981418
6.026485,60.6236,12.372023,7.5662856,0.97333026,-0.007449746,0.29959053,-0.7832235,-0.67817605,-0.65081835,0.642297,-0.21078332,-0.3538139,0.6162202,0.48443294,-1.1995541,-2.2847612,-0.7101201,1.8666289,1.8462772,-0.8531721,0.54852635,-1.1440008,-2.2311952,-0.762441,1.8830022,1.8825474,-0.9113099,-1.4198697,-1.2306565,-1.1485561,1.1771241,-0.44796056,0.07146779,0.35321158,-0.43681818,-0.52894974,0.6735299,-1.253134,0.4326407,-0.7776303,-0.40144318,-0.5447006,0.6191238,0.95786995,0.021823183,0.24469335,0.14877543,-1.3633288,0.47565728,-0.783925,0.0,1.0,0.0,0.0,0.0,0.0,0.0,-0.2131818,0.12894973,-0.12352991,1.2171268,-1.683712,1.3531923,-5.473089,8.868533,-7.0036054,1.9053698
