Afshin1997/kuka_rl_ros2/src/catch_and_throw/input_files/idealpd/polynomial_regressor/optimizer_files/env_138_data.csv
torque0,torque1,torque2,torque3,torque4,torque5,torque6,action0,action1,action2,action3,action4,action5,action6,set_target_0,set_target_1,set_target_2,set_target_3,set_target_4,set_target_5,set_target_6,joint_pos_0,joint_pos_1,joint_pos_2,joint_pos_3,joint_pos_4,joint_pos_5,joint_pos_6,joint_vel_0,joint_vel_1,joint_vel_2,joint_vel_3,joint_vel_4,joint_vel_5,joint_vel_6,tennisball_pos_0,tennisball_pos_1,tennisball_pos_2,tennisball_lin_vel_0,tennisball_lin_vel_1,tennisball_lin_vel_2,end_effector_pos_0,end_effector_pos_1,end_effector_pos_2,end_effector_rot_0,end_effector_rot_1,end_effector_rot_2,end_effector_rot_3,end_effector_lin_vel_0,end_effector_lin_vel_1,end_effector_lin_vel_2,obs_task_0,obs_task_1,obs_task_2,obs_task_3,obs_task_4,obs_task_5,obs_task_6,to_final_target_0,to_final_target_1,to_final_target_2,joint_acc_0,joint_acc_1,joint_acc_2,joint_acc_3,joint_acc_4,joint_acc_5,joint_acc_6
0.0,0.0,0.0,0.0,0.0,0.0,0.0,0.0,0.0,0.0,0.0,0.0,0.0,0.0,1.7802359,-1.0646509,-1.8151424,-1.1170107,1.9373155,1.1170107,-0.91629785,1.7802359,-1.0646509,-1.8151424,-1.1170107,1.9373155,1.1170107,-0.91629785,0.0,0.0,0.0,0.0,0.0,0.0,0.0,3.2422104,-0.24050713,0.22198877,-3.766017,-0.34633994,4.7825303,0.5304184,-0.45449638,0.693097,0.5745483,0.17512383,0.15255436,0.7848268,0.0,0.0,0.0,1.0,0.0,0.0,0.0,0.0,0.0,0.0,-3.8922105,-0.15949288,0.32801124,0.0,0.0,0.0,0.0,0.0,0.0,0.0
0.0,0.0,0.0,0.0,0.0,0.0,0.0,0.0,0.0,0.0,0.0,0.0,0.0,0.0,1.7802359,-1.0646509,-1.8151424,-1.1170107,1.9373155,1.1170107,-0.91629785,1.7802359,-1.0646509,-1.8151424,-1.1170107,1.9373155,1.1170107,-0.91629785,0.0,0.0,0.0,0.0,0.0,0.0,0.0,3.2422104,-0.24050713,0.22198877,-3.766017,-0.34633994,4.7825303,0.5304184,-0.45449638,0.693097,0.5745483,0.17512383,0.15255436,0.7848268,0.0,0.0,0.0,1.0,0.0,0.0,0.0,0.0,0.0,0.0,-3.8922105,-0.15949288,0.32801124,0.0,0.0,0.0,0.0,0.0,0.0,0.0
0.0,0.0,0.0,0.0,0.0,0.0,0.0,0.0,0.0,0.0,0.0,0.0,0.0,0.0,1.7802359,-1.0646509,-1.8151424,-1.1170107,1.9373155,1.1170107,-0.91629785,1.7802359,-1.0646509,-1.8151424,-1.1170107,1.9373155,1.1170107,-0.91629785,0.0,0.0,0.0,0.0,0.0,0.0,0.0,3.2422104,-0.24050713,0.22198877,-3.766017,-0.34633994,4.7825303,0.5304184,-0.45449638,0.693097,0.5745483,0.17512383,0.15255436,0.7848268,0.0,0.0,0.0,1.0,0.0,0.0,0.0,0.0,0.0,0.0,-3.8922105,-0.15949288,0.32801124,0.0,0.0,0.0,0.0,0.0,0.0,0.0
-176.0,71.12214,-4.879093,110.0,10.494335,4.792576,-3.8034663,-0.8058106,0.36187053,-0.5437962,0.70631605,0.1959042,0.64000213,-0.5845861,1.6996548,-1.0284638,-1.869522,-1.0463791,1.9569058,1.181011,-0.9747565,1.7786604,-1.0622534,-1.8208568,-1.1122233,1.9423776,1.1220118,-0.9175958,-0.20967291,0.31880936,-0.7612245,0.6385957,0.67406213,0.6648296,-0.17257111,3.2045784,-0.24396706,0.26904175,-3.7622519,-0.34599367,4.679562,0.5281944,-0.4577694,0.6940005,0.578325,0.17370427,0.15108484,0.7826496,-0.29619348,-0.4367013,0.120163664,1.0,0.0,0.0,0.0,0.0,0.0,0.0,-3.8545785,-0.15603295,0.28095827,-20.90223,31.675985,-75.94064,63.941647,67.16012,65.91775,-17.12698
-176.0,-8.063418,-35.525887,109.63246,11.040154,1.9963534,-3.2683718,-0.8019384,-0.0543606,-0.5423682,0.67917687,0.39782777,0.6240564,-0.6330353,1.6984665,-1.0676894,-1.8750936,-1.0443056,1.9821603,1.1844174,-0.98089933,1.776282,-1.0588583,-1.8349559,-1.0985457,1.9515481,1.133967,-0.9178352,-0.2450467,0.34496447,-1.6276966,1.6137358,0.9982249,1.3672407,0.028187184,3.1669846,-0.24742508,0.3150658,-3.7584906,-0.34564775,4.576697,0.52329636,-0.46604347,0.6952547,0.58656186,0.17040911,0.14785449,0.7778464,-0.5554569,-0.95656073,0.12789412,1.0,0.0,0.0,0.0,0.0,0.0,0.0,-3.8169847,-0.15257493,0.23493421,-2.869159,2.1240354,-87.12625,98.385475,32.48649,68.645546,20.846834
-145.01813,93.48759,21.914585,81.80458,7.0490055,6.198238,-1.8058232,-0.7622455,0.28441373,-0.075560726,0.53461623,0.4709763,0.6425881,-0.56213254,1.7000574,-1.0304168,-1.842512,-1.045084,1.9986458,1.1982259,-0.97404844,1.7706705,-1.0547479,-1.850003,-1.0811411,1.9618115,1.1475035,-0.9178466,-0.6663603,0.43011224,-1.4582254,1.7838674,1.0312842,1.3430759,-0.011923309,3.1294289,-0.2508793,0.360062,-3.7547328,-0.3453022,4.4739347,0.51566696,-0.47709846,0.69777775,0.59751046,0.16587935,0.14365168,0.7712519,-0.8399588,-1.148358,0.29780173,1.0,0.0,0.0,0.0,0.0,0.0,0.0,-3.779429,-0.14912072,0.18993801,-42.13342,7.6495113,18.600632,17.374706,1.9582033,-4.231,-4.3148584
-85.99574,114.07458,40.781773,50.169983,3.9180863,6.8706255,-0.42631453,-0.7762405,0.26093712,0.019558808,0.5483612,0.4568272,0.62789387,-0.5849471,1.6930465,-1.0286542,-1.8480471,-1.026305,2.0074942,1.2102929,-0.9763413,1.7609717,-1.0501512,-1.8606842,-1.0643221,1.9714913,1.1600901,-0.9184007,-1.0721446,0.46748877,-0.9307679,1.6479949,0.9419604,1.2268867,-0.07199581,3.0919113,-0.25432968,0.40403134,-3.7509787,-0.34495696,4.3712754,0.50566864,-0.4887066,0.70203173,0.60936886,0.16024703,0.13873315,0.7640311,-1.0640056,-1.1532974,0.4731251,1.0,0.0,0.0,0.0,0.0,0.0,0.0,-3.7419114,-0.14567032,0.14596868,-40.96365,3.0535579,54.907204,-13.5688305,-10.447895,-12.751389,-6.6232166
-27.77313,128.14153,50.528286,22.490543,0.9975547,6.1416874,0.42810282,-0.79300547,0.36392638,0.0112163145,0.47341684,0.5479445,0.6148961,-0.57560456,1.6816711,-1.0137585,-1.8595625,-1.0169804,2.026286,1.2215797,-0.97596115,1.7479788,-1.0448736,-1.865895,-1.0502077,1.9803433,1.1713759,-0.91957563,-1.3766367,0.54636925,-0.3783557,1.3318504,0.8625435,1.0942521,-0.13505085,3.054428,-0.25777626,0.44697484,-3.7472284,-0.34461206,4.2687187,0.49411392,-0.49938202,0.7078562,0.6208926,0.15365256,0.13337314,0.7570303,-1.1978927,-1.0265763,0.6221738,1.0,0.0,0.0,0.0,0.0,0.0,0.0,-3.7044282,-0.14222375,0.10302517,-30.973673,7.4195147,57.105762,-31.895279,-9.050131,-13.696098,-7.0024743
15.777191,143.54369,58.66475,8.937794,-0.63009495,5.518481,0.7412766,-0.8012885,0.47153175,0.16398227,0.467711,0.58214283,0.5969458,-0.57226086,1.66785,-0.9977204,-1.8494968,-1.0034367,2.0385575,1.2310704,-0.9768017,1.7329794,-1.038423,-1.8660324,-1.039126,1.9886498,1.181439,-0.92132086,-1.5427979,0.67663103,0.112358145,1.0324559,0.8177751,0.97698015,-0.18999791,3.016983,-0.26121902,0.48889357,-3.7434819,-0.34426752,4.1662645,0.48174667,-0.5083008,0.71523595,0.6315176,0.1461016,0.12781158,0.750669,-1.2595873,-0.83393824,0.77735174,1.0,0.0,0.0,0.0,0.0,0.0,0.0,-3.6669831,-0.13878098,0.061106443,-17.096828,12.671542,50.50322,-30.239178,-5.121982,-11.773575,-6.1703444
36.74847,149.62181,59.47222,5.3767886,-1.3690357,4.646646,0.5714337,-0.802842,0.58918226,0.22094253,0.47791204,0.5985151,0.6019559,-0.5715874,1.6526952,-0.9795047,-1.8439381,-0.99133486,2.0485013,1.2416346,-0.9784796,1.7171808,-1.0302938,-1.8624561,-1.030276,1.9967484,1.1904799,-0.9235458,-1.5932682,0.8574229,0.4425469,0.83557194,0.8064101,0.8799417,-0.23520498,2.979576,-0.26465988,0.52978855,-3.7397392,-0.34392333,4.063913,0.46910095,-0.51522064,0.7241606,0.6412534,0.13759378,0.12236375,0.7449088,-1.2742913,-0.6320299,0.9300081,1.0,0.0,0.0,0.0,0.0,0.0,0.0,-3.6295762,-0.13534012,0.020211458,-5.391121,17.806673,33.98769,-19.841814,-1.4139414,-9.5967655,-5.0895395
44.823788,141.31247,54.388252,3.7817183,-1.604492,3.6179197,0.39268497,-0.79499453,0.6626115,0.2798678,0.45283636,0.621066,0.61060053,-0.5531854,1.6376814,-0.96403265,-1.8344693,-0.9849923,2.058855,1.25154,-0.9788643,1.7014471,-1.0203165,-1.8566501,-1.0227076,2.0049248,1.1986872,-0.9261436,-1.5674165,1.0438168,0.62871766,0.73037386,0.8212856,0.8014428,-0.26946852,2.9422073,-0.26809692,0.5696607,-3.7360003,-0.3435795,3.9616637,0.45650482,-0.52025986,0.7344445,0.65027016,0.12825683,0.11726286,0.73955953,-1.2597574,-0.44753343,1.0589968,1.0,0.0,0.0,0.0,0.0,0.0,0.0,-3.5922074,-0.13190308,-0.019660711,2.3596287,18.44288,19.260752,-10.552311,1.4034867,-7.6849937,-3.8755715
40.83589,120.98333,44.25693,3.8823576,-1.4439585,2.5046737,0.19006345,-0.78663445,0.7094719,0.28869084,0.4379326,0.6312849,0.6272587,-0.5306805,1.6227837,-0.9493693,-1.8277811,-0.9789143,2.0680532,1.2614131,-0.9792116,1.6862246,-1.0086931,-1.8499267,-1.0156752,2.0133286,1.2062289,-0.9290113,-1.5075402,1.2014325,0.68805087,0.6943227,0.8469364,0.73884964,-0.29369748,2.9048767,-0.27153015,0.6085112,-3.7322652,-0.34323597,3.859517,0.4441452,-0.5237427,0.7457075,0.6587748,0.1183516,0.11264029,0.7343846,-1.2326745,-0.3014508,1.1455803,1.0,0.0,0.0,0.0,0.0,0.0,0.0,-3.5548768,-0.12846985,-0.058511198,5.8449745,15.633106,6.3400507,-3.6021948,2.566123,-6.09957,-2.7591586
29.331636,96.60456,32.833027,5.8551116,-0.9566906,1.5719719,-0.013666641,-0.77931523,0.735712,0.27281633,0.45172653,0.6335138,0.6388663,-0.520927,1.608293,-0.9351219,-1.8226451,-0.97050256,2.07668,1.2701155,-0.981104,1.67162,-0.9958535,-1.8432796,-1.0086027,2.021984,1.2132403,-0.9320707,-1.4448645,1.3113382,0.6576652,0.7113735,0.8718449,0.68878967,-0.3109093,2.8675804,-0.27495956,0.646341,-3.7285337,-0.3428928,3.7574728,0.4320259,-0.5261307,0.7575151,0.6669998,0.10816738,0.1085239,0.72913206,-1.2079227,-0.20312762,1.1887136,1.0,0.0,0.0,0.0,0.0,0.0,0.0,-3.5175805,-0.12504044,-0.096341014,6.1745405,10.920119,-2.807963,1.670146,2.5441885,-4.874468,-1.9714236
18.930634,74.65188,23.35541,6.548109,-0.5260498,0.8967631,-0.08295286,-0.7756767,0.74650985,0.26075363,0.43988168,0.6439253,0.64204985,-0.50971484,1.5940523,-0.9212025,-1.8172042,-0.96461457,2.0863767,1.2774452,-0.9830422,1.6575266,-0.9822932,-1.837239,-1.0012785,2.0308723,1.2198225,-0.9352636,-1.3976812,1.3707975,0.5867344,0.73897785,0.8948718,0.64837533,-0.32279393,2.8303223,-0.27838516,0.6831511,-3.7248058,-0.34254998,3.6555305,0.42010498,-0.52780914,0.76946956,0.67507607,0.09796696,0.10484856,0.72365844,-1.1885284,-0.14136496,1.1935197,1.0,0.0,0.0,0.0,0.0,0.0,0.0,-3.4803224,-0.12161484,-0.13315111,4.6379805,5.9174776,-6.9528937,2.645564,2.3863912,-3.9084196,-1.3947129
11.141881,59.49302,17.068466,7.2174788,-0.19982791,0.5031351,-0.11596422,-0.7679528,0.75350165,0.23529881,0.44318807,0.6434328,0.64617646,-0.50804317,1.5807314,-0.906943,-1.8137091,-0.9569597,2.0952156,1.2844402,-0.9860679,1.6437804,-0.9684239,-1.8320091,-0.99367744,2.0399399,1.2260576,-0.93855375,-1.367281,1.3923163,0.5021312,0.7666195,0.91090125,0.61585736,-0.33162406,2.7931023,-0.28180885,0.7189426,-3.7210817,-0.34220752,3.5536897,0.40832138,-0.52906036,0.78128815,0.68306875,0.08792616,0.10152872,0.7178983,-1.1749436,-0.10419793,1.1738595,1.0,0.0,0.0,0.0,0.0,0.0,0.0,-3.4431024,-0.11819115,-0.16894257,2.961731,2.149582,-8.364523,2.5868416,1.7101884,-3.1128764,-1.0688186
8.592686,51.387634,14.129319,6.0554543,-0.13138068,0.31435663,-0.03975479,-0.7667842,0.7573844,0.2213012,0.41033605,0.655306,0.64439297,-0.51615757,1.567102,-0.8926855,-1.809879,-0.9526438,2.1054704,1.290497,-0.9901695,1.6302077,-0.9545098,-1.8275287,-0.9860223,2.0491562,1.2320143,-0.9419231,-1.3541951,1.3911476,0.43021896,0.7644683,0.9251797,0.58946925,-0.3393886,2.7559204,-0.28522873,0.7537164,-3.7173615,-0.34186536,3.451951,0.3966713,-0.5299835,0.7927962,0.6909436,0.078148484,0.09848187,0.7118926,-1.1618714,-0.073974445,1.139092,1.0,0.0,0.0,0.0,0.0,0.0,0.0,-3.4059205,-0.11477128,-0.2037164,1.2150764,-0.107860565,-7.0753393,-0.43709278,1.5354753,-2.4704933,-0.9620547
10.187098,51.28872,14.606771,4.7171087,-0.23053342,0.3485918,0.06877967,-0.7621521,0.7655286,0.2223757,0.38028038,0.6555836,0.64914864,-0.51479286,1.5539925,-0.8779569,-1.8052912,-0.94799423,2.1147146,1.2969291,-0.99340236,1.616696,-0.940651,-1.8235481,-0.97860175,2.0584755,1.2377478,-0.9453601,-1.3505224,1.3842217,0.38790813,0.73374146,0.93441266,0.5685901,-0.34580082,2.718773,-0.2886448,0.7874736,-3.713645,-0.34152356,3.350314,0.3851738,-0.53055954,0.80394804,0.69860905,0.06864103,0.095654525,0.7057506,-1.1461062,-0.037464596,1.103437,1.0,0.0,0.0,0.0,0.0,0.0,0.0,-3.368773,-0.111355215,-0.2374736,0.2579689,-0.68662167,-4.060173,-3.3046842,1.0165334,-1.9032121,-0.841254
12.768219,53.069927,15.665697,3.368887,-0.3775173,0.38247356,0.16949919,-0.7611466,0.77029437,0.21821816,0.3422564,0.6612232,0.64594406,-0.508653,1.5405813,-0.8636216,-1.8017262,-0.9443761,2.1245978,1.3023422,-0.9962254,1.6031805,-0.9268504,-1.8198116,-0.9716819,2.067871,1.2433001,-0.94884866,-1.3524237,1.3786789,0.36968353,0.67736477,0.9416249,0.5514872,-0.35059932,2.6816635,-0.29205704,0.82021517,-3.709932,-0.3411821,3.2487786,0.37386703,-0.5307045,0.8147527,0.7059685,0.05938041,0.0930187,0.6995927,-1.1256212,0.0071509113,1.0691633,1.0,0.0,0.0,0.0,0.0,0.0,0.0,-3.3316636,-0.10794297,-0.27021515,-0.31216145,-0.5507469,-1.6072094,-5.869019,0.80293417,-1.5066743,-0.68926215
22.528992,55.520805,17.484446,-2.3234463,-0.94905794,0.26065615,0.41809756,-0.7527485,0.77326435,0.2364548,0.2271954,0.67505854,0.64264506,-0.50864184,1.5279057,-0.84952396,-1.7961661,-0.94896233,2.135377,1.3075646,-0.9997128,1.589667,-0.91307646,-1.8160369,-0.96580344,2.0773582,1.2487074,-0.9523801,-1.351375,1.3769592,0.38100427,0.55716556,0.9512829,0.5382,-0.35467508,2.6445923,-0.29546547,0.8519421,-3.7062228,-0.34084103,3.1473448,0.36291885,-0.53025055,0.82516766,0.7128169,0.050400868,0.09057808,0.6936479,-1.0841516,0.07244368,1.0285206,1.0,0.0,0.0,0.0,0.0,0.0,0.0,-3.2945924,-0.10453454,-0.3019421,-0.03347397,-0.16522408,1.4127135,-12.263548,1.0267496,-1.0238171,-0.6369233
29.027206,59.389297,19.377724,-5.367628,-1.3278133,0.2083076,0.5649246,-0.74742454,0.78444296,0.25562856,0.1443513,0.6749312,0.64085,-0.48877752,1.5149245,-0.83463216,-1.790474,-0.95136833,2.1448514,1.3127924,-1.0012579,1.5761896,-0.899252,-1.8119953,-0.96138316,2.0869255,1.2540041,-0.9559316,-1.3468151,1.384336,0.41290855,0.40292427,0.95883656,0.5278674,-0.35605434,2.6075592,-0.298872,0.8826555,-3.7025173,-0.34050024,3.0460124,0.35247803,-0.52902603,0.83518255,0.7189918,0.0417142,0.08836445,0.68811506,-1.0281601,0.15128534,0.98866767,1.0,0.0,0.0,0.0,0.0,0.0,0.0,-3.2575593,-0.10112801,-0.3326555,0.32253265,0.75187683,3.4765363,-15.647054,0.82451105,-0.66964626,-0.36244392
32.50042,58.956608,19.327099,-7.4726834,-1.548892,0.020268172,0.63930327,-0.7423614,0.78538376,0.26407406,0.05334152,0.6794422,0.6362495,-0.48899904,1.5019535,-0.82071364,-1.7855879,-0.956049,2.1548698,1.3176291,-1.0048316,1.5627829,-0.8853417,-1.8076065,-0.95865756,2.0965652,1.2592112,-0.95949167,-1.3389429,1.3934096,0.44827417,0.22846694,0.9658791,0.51963514,-0.35667634,2.5705605,-0.3022747,0.9123563,-3.6988156,-0.3401598,2.9447813,0.3426857,-0.5269928,0.8447655,0.72441924,0.03335792,0.086410165,0.68310857,-0.96068716,0.23250212,0.9441211,1.0,0.0,0.0,0.0,0.0,0.0,0.0,-3.2205606,-0.0977253,-0.3623563,0.6750822,0.93910694,3.774625,-17.647734,0.79818964,-0.40746927,-0.26096702
35.443157,57.53157,18.845247,-9.477604,-1.7497258,-0.2069188,0.6999091,-0.73362654,0.78860843,0.27661628,-0.055976115,0.6822119,0.6392866,-0.4781593,1.4894202,-0.8064809,-1.7799448,-0.96425515,2.1647863,1.3231398,-1.0073076,1.5494868,-0.87133795,-1.80288,-0.957805,2.106266,1.2643515,-0.96304697,-1.3265777,1.4029275,0.48147956,0.03697959,0.9720809,0.5137356,-0.35570183,2.5335999,-0.3056736,0.9410456,-3.6951177,-0.33981973,2.8436513,0.33364487,-0.5241394,0.8538596,0.7290587,0.025393138,0.08475545,0.6787084,-0.882022,0.31353706,0.8935523,1.0,0.0,0.0,0.0,0.0,0.0,0.0,-3.1836,-0.09432641,-0.39104557,1.1543989,1.0033846,3.4933984,-19.325716,0.74357986,-0.12731552,-0.06918907
37.205383,58.166683,19.155819,-9.992128,-1.8315524,-0.3198319,0.72400314,-0.7214073,0.79824406,0.3027758,-0.15266094,0.684267,0.6328688,-0.47286567,1.4773461,-0.79151356,-1.7726024,-0.9730711,2.1746926,1.3276384,-1.0103335,1.5363566,-0.857215,-1.7977931,-0.9588731,2.116024,1.2694384,-0.966587,-1.3086798,1.4156555,0.51808405,-0.15521878,0.9774804,0.5086185,-0.35382837,2.4966774,-0.30906868,0.9687243,-3.6914232,-0.33947998,2.7426224,0.3254242,-0.52046967,0.8624589,0.732898,0.01783677,0.08341637,0.67496973,-0.79734635,0.39393094,0.84405756,1.0,0.0,0.0,0.0,0.0,0.0,0.0,-3.1466775,-0.090931326,-0.4187243,1.7439127,1.3437271,3.75337,-19.357252,0.70381165,-0.03348589,0.05544424
41.62534,58.702175,19.94349,-11.872122,-2.0057828,-0.45868543,0.8212389,-0.6949569,0.7994861,0.34784782,-0.26769668,0.6828713,0.62696636,-0.44340864,1.4668609,-0.7772664,-1.7630084,-0.9856428,2.1843112,1.332135,-1.0109279,1.523503,-0.84298235,-1.7922237,-0.96190864,2.1258202,1.2744795,-0.9700851,-1.2775866,1.4260997,0.57010597,-0.35329077,0.9810767,0.50422204,-0.34889728,2.4597893,-0.31245995,0.9953935,-3.6877325,-0.33914056,2.6416945,0.31812286,-0.5159645,0.87056327,0.735882,0.01068982,0.082379356,0.6719948,-0.70221967,0.47738886,0.7943144,1.0,0.0,0.0,0.0,0.0,0.0,0.0,-3.1097894,-0.08754006,-0.4453935,3.1168222,1.1365414,5.2016735,-19.898605,0.5697608,0.074875355,0.38917065
40.25527,57.428955,19.467213,-10.921757,-1.8984212,-0.54710543,0.79747975,-0.6825132,0.80334985,0.37051627,-0.35548076,0.6845673,0.615668,-0.42594278,1.4552516,-0.7626474,-1.755172,-0.9974567,2.1942768,1.3360463,-1.0126793,1.5109774,-0.82865816,-1.786124,-0.96683055,2.1356468,1.279473,-0.9735221,-1.2441558,1.4349661,0.6227688,-0.5386562,0.9841738,0.49932787,-0.34219274,2.4229393,-0.3158493,1.0210543,-3.6840456,-0.3388015,2.5408676,0.31176376,-0.5106659,0.8781821,0.73802483,0.003950783,0.081623115,0.6698069,-0.6082709,0.55415654,0.7456875,1.0,0.0,0.0,0.0,0.0,0.0,0.0,-3.0729394,-0.0841507,-0.47105426,3.387189,0.99680424,5.1751494,-18.59408,0.5624652,0.012236834,0.6018698
42.222797,58.182655,20.248186,-11.608503,-1.9426185,-0.6033082,0.8652853,-0.6575391,0.807496,0.4263458,-0.47046128,0.694736,0.6034627,-0.40753663,1.4452235,-0.7479086,-1.7434894,-1.0138767,2.2051203,1.3398192,-1.0142758,1.4988333,-0.81425387,-1.7793701,-0.9736255,2.1455307,1.284413,-0.9768819,-1.2043052,1.4427668,0.69247425,-0.72653,0.9907964,0.49399462,-0.33402932,2.3861275,-0.31923485,1.0457075,-3.6803622,-0.33846277,2.4401414,0.30636215,-0.50458145,0.88532835,0.73930097,-0.002385126,0.0811042,0.6684687,-0.51034236,0.6325271,0.69858176,1.0,0.0,0.0,0.0,0.0,0.0,0.0,-3.0361276,-0.08076516,-0.49570745,4.077983,0.90842247,6.783676,-18.79629,0.96776485,-0.018900633,0.77931285
42.874657,60.483685,21.530767,-10.326395,-1.8555653,-0.56786144,0.85943055,-0.6159902,0.81511384,0.47289923,-0.5309339,0.69635075,0.58569753,-0.38011748,1.4372343,-0.7327425,-1.7320801,-1.0267189,2.2151659,1.3429828,-1.0148937,1.4871985,-0.799758,-1.7718456,-0.9820855,2.1554832,1.289292,-0.9801454,-1.1494361,1.4523538,0.7714979,-0.8857282,0.99790436,0.48750827,-0.32384452,2.34935,-0.32261658,1.069354,-3.6766825,-0.33812436,2.339516,0.30194092,-0.49770164,0.8920751,0.73970836,-0.00838763,0.08076908,0.66801006,-0.4141674,0.7108165,0.66050386,1.0,0.0,0.0,0.0,0.0,0.0,0.0,-2.99935,-0.07738343,-0.51935405,5.632806,1.1099815,7.5942636,-15.884757,1.0860562,-0.1399517,1.0065436
37.910774,60.655743,21.84392,-5.4490485,-1.3699554,-0.40114954,0.7467692,-0.57927954,0.81155884,0.5206374,-0.5331841,0.6951845,0.57718015,-0.31357652,1.4292705,-0.7186021,-1.7197819,-1.035404,2.2250018,1.34701,-1.0115031,1.4761835,-0.7852021,-1.7634838,-0.9916566,2.165493,1.2941042,-0.9832668,-1.0847757,1.4571284,0.85644835,-0.98077434,1.0036173,0.48048234,-0.30817443,2.3126106,-0.3259945,1.0919952,-3.6730065,-0.33778632,2.238991,0.29833984,-0.49011993,0.8985554,0.73933536,-0.01420273,0.08051896,0.66835475,-0.33499867,0.77892804,0.63718575,1.0,0.0,0.0,0.0,0.0,0.0,0.0,-2.9626107,-0.074005514,-0.5419952,6.6316605,0.6499529,8.086502,-9.469938,1.014483,-0.23838878,1.5579283
27.661455,58.178192,20.477013,1.2270579,-0.71494323,-0.19174184,0.5361368,-0.5697647,0.812566,0.5504868,-0.53041154,0.6947706,0.5800454,-0.26995686,1.4192071,-0.7039455,-1.708435,-1.0446978,2.23497,1.3521087,-1.0102625,1.4657255,-0.77061754,-1.7543342,-1.0017302,2.1755447,1.2988497,-0.9862098,-1.0324271,1.4594336,0.9330088,-1.0162216,1.0074319,0.47381836,-0.28963926,2.2759094,-0.3293705,1.113632,-3.6693344,-0.3374486,2.1385667,0.2953415,-0.48197365,0.9048935,0.73835975,-0.019964922,0.08027519,0.6693147,-0.2819748,0.83025277,0.6255966,1.0,0.0,0.0,0.0,0.0,0.0,0.0,-2.9259095,-0.07062951,-0.56363195,5.3569317,0.41339397,7.240784,-3.5518289,0.8443117,-0.28054118,1.8395066
14.960083,51.417767,16.797533,7.4068093,-0.08740777,-0.11993456,0.27233782,-0.57935214,0.81298935,0.54544234,-0.52968216,0.69068664,0.5803314,-0.24211007,1.4077903,-0.6893186,-1.69979,-1.0546985,2.2446134,1.3568828,-1.0104208,1.4555784,-0.7560244,-1.7446582,-1.0118678,2.1856117,1.3035322,-0.9889621,-1.0086789,1.4598715,0.9779853,-1.0130838,1.007555,0.4672079,-0.27043802,2.2392426,-0.3327427,1.1342652,-3.6656656,-0.3371112,2.0382428,0.29267883,-0.47348595,0.9111267,0.7370244,-0.025705403,0.08004455,0.670617,-0.25428677,0.8585635,0.6152458,1.0,0.0,0.0,0.0,0.0,0.0,0.0,-2.8892426,-0.067257315,-0.5842652,2.405715,0.2235651,4.17068,0.23083687,0.43017864,-0.3661394,1.9002974
3.3890824,45.60017,13.541611,12.831738,0.461887,-0.01620759,0.041658998,-0.6039707,0.8160482,0.5515894,-0.52051175,0.6918492,0.5881635,-0.22507535,1.3951814,-0.6744196,-1.6894993,-1.063919,2.2547967,1.3623486,-1.0114696,1.4454027,-0.74141985,-1.7347057,-1.0218012,2.1956673,1.3081557,-0.99152845,-1.0208782,1.4611764,1.0003067,-0.98734015,1.0065653,0.46149024,-0.25208366,2.2026138,-0.33611107,1.1538959,-3.6620007,-0.33677417,1.938019,0.2901268,-0.4648552,0.9172636,0.73556405,-0.031419966,0.079864755,0.67199695,-0.24975002,0.86784065,0.6057056,1.0,0.0,0.0,0.0,0.0,0.0,0.0,-2.852614,-0.06388894,-0.60389584,-1.2958288,0.3058195,2.0127892,2.4199605,0.27861595,-0.3593862,1.8140137
-1.4710445,40.01638,11.086432,14.667969,0.7065061,-0.08151646,-0.042101838,-0.6080644,0.8069315,0.5571288,-0.5099777,0.68482774,0.58152056,-0.15251456,1.3845963,-0.6607267,-1.6789927,-1.072799,2.2641501,1.3663077,-1.0067799,1.4350001,-0.7268477,-1.7246387,-1.0314143,2.2056885,1.3127218,-0.99387735,-1.0469924,1.4563915,1.0083176,-0.95320964,1.0019717,0.4556138,-0.22924359,2.1660233,-0.33947563,1.172525,-3.6583395,-0.33643746,1.8378954,0.28756332,-0.45622444,0.92327726,0.73409986,-0.037075847,0.079754815,0.67332155,-0.25294283,0.8650567,0.5923358,1.0,0.0,0.0,0.0,0.0,0.0,0.0,-2.8160233,-0.060524374,-0.62252504,-2.7348042,-0.31223297,0.646925,3.2152057,-0.119018555,-0.41296482,2.2534342
-6.8255167,36.77087,9.402321,17.201925,0.9657514,-0.035068795,-0.15049052,-0.64485663,0.810328,0.5571082,-0.48924354,0.68799084,0.5912635,-0.12974897,1.3705144,-0.6458149,-1.6689279,-1.0803386,2.2744875,1.3718482,-1.0068523,1.4241701,-0.7123118,-1.7145603,-1.0406439,2.2156754,1.3172423,-0.99600023,-1.0957536,1.453277,1.0073303,-0.91359663,0.99876446,0.45111313,-0.20670447,2.129467,-0.3428383,1.1901538,-3.654682,-0.33610108,1.7378719,0.28487778,-0.44768524,0.9291588,0.7327342,-0.04265891,0.07973059,0.6744804,-0.26690212,0.8534682,0.5792975,1.0,0.0,0.0,0.0,0.0,0.0,0.0,-2.779467,-0.05716172,-0.6401538,-5.0648212,-0.15032291,-0.18360615,3.7302852,-0.00081062317,-0.31826496,2.2257805
-4.4866896,34.78714,8.834498,15.154194,0.7987093,-0.21027651,-0.08921294,-0.6543773,0.80580485,0.55698144,-0.50288886,0.6898205,0.5829001,-0.077064306,1.3587325,-0.63173133,-1.6588621,-1.0909328,2.2846575,1.3755323,-1.0037067,1.4128672,-0.6978188,-1.7045219,-1.0496256,2.2256432,1.3217169,-0.9978809,-1.1423855,1.4483578,1.0024959,-0.8936028,0.9969527,0.44664794,-0.18190621,2.092949,-0.34619713,1.2067832,-3.651028,-0.33576506,1.6379484,0.28211212,-0.43925667,0.9348589,0.7314564,-0.048107907,0.079819694,0.6754893,-0.2720911,0.84284365,0.5593565,1.0,0.0,0.0,0.0,0.0,0.0,0.0,-2.742949,-0.053802878,-0.65678316,-4.838419,-0.34191608,-0.5449772,1.7810225,0.108122826,-0.30794144,2.45364
-1.731379,35.893665,9.9315195,14.729094,0.73925453,-0.21244095,0.0021001175,-0.6584039,0.80122054,0.57428247,-0.46881315,0.68083,0.5925104,0.09925708,1.3470268,-0.61769676,-1.6470937,-1.096507,2.2937262,1.380968,-0.98795515,1.4011923,-0.68338686,-1.6944549,-1.058346,2.2355728,1.3261591,-0.99940485,-1.176317,1.4418697,1.0077785,-0.8655732,0.99269176,0.44389263,-0.14270113,2.0564651,-0.34955215,1.222414,-3.6473777,-0.33542937,1.5381248,0.2793312,-0.43089294,0.94038993,0.73018354,-0.053448576,0.08000865,0.67644197,-0.27373037,0.8368143,0.5433871,1.0,0.0,0.0,0.0,0.0,0.0,0.0,-2.7064652,-0.05044785,-0.672414,-3.5421371,-0.49586296,0.43683052,2.6003242,-0.11895895,-0.12674928,3.8875132
-7.577722,31.573433,8.084726,19.169407,1.2226598,-0.11328976,-0.12869425,-0.6921067,0.789926,0.5471736,-0.3795422,0.6695179,0.61563003,0.25960654,1.3319817,-0.60439426,-1.6397376,-1.0963002,2.3025246,1.3877221,-0.9734442,1.3891417,-0.6690617,-1.684449,-1.066437,2.24543,1.3305937,-1.0004433,-1.2152672,1.4298526,0.99774396,-0.7909796,0.9845019,0.44364202,-0.091027714,2.0200195,-0.35290337,1.2370473,-3.643731,-0.335094,1.438401,0.27640152,-0.42269897,0.9458201,0.7289834,-0.058769386,0.08025568,0.6772653,-0.29183444,0.8165758,0.53538513,1.0,0.0,0.0,0.0,0.0,0.0,0.0,-2.6700196,-0.04709664,-0.6870473,-4.0950775,-1.0458708,-1.0727406,7.2016597,-0.50623417,0.078588724,5.1173267
-12.8782215,29.363386,7.142354,24.195305,1.6776032,0.066494554,-0.2996234,-0.71770984,0.7849464,0.52908254,-0.27864373,0.6510416,0.6353304,0.3343947,1.3173707,-0.5905671,-1.6315407,-1.0943013,2.3105342,1.3941268,-0.9670039,1.3766772,-0.6548644,-1.6746376,-1.0733798,2.2551613,1.3350397,-1.0009469,-1.2576765,1.4169173,0.9754617,-0.6628793,0.97021955,0.4453274,-0.036968715,1.9836082,-0.35625267,1.250684,-3.640088,-0.334759,1.338777,0.2731552,-0.41478157,0.95126677,0.7280049,-0.06421152,0.08051845,0.67779243,-0.32742378,0.7863059,0.5404012,1.0,0.0,0.0,0.0,0.0,0.0,0.0,-2.6336083,-0.043747336,-0.700684,-4.4884443,-1.1317492,-2.2919416,12.511706,-1.0932565,0.22342801,5.344722
-9.455397,28.75329,7.269,21.89747,1.4331652,-0.07832438,-0.22017428,-0.7261972,0.7754939,0.5261222,-0.27326274,0.6302798,0.6368807,0.41371024,1.3040575,-0.577315,-1.6220254,-1.100706,2.3181891,1.3987278,-0.95957583,1.3638483,-0.64081293,-1.6650474,-1.0791781,2.264698,1.3395067,-1.0009011,-1.2918512,1.4016942,0.95344734,-0.55314255,0.9494738,0.4474249,0.018268757,1.9472351,-0.35959816,1.2633253,-3.6364489,-0.3344243,1.2392524,0.26963043,-0.4071331,0.9567244,0.7272296,-0.06978571,0.08082473,0.67803717,-0.3526764,0.7611439,0.5403222,1.0,0.0,0.0,0.0,0.0,0.0,0.0,-2.5972352,-0.040401846,-0.7133253,-3.6261559,-1.372242,-2.2675037,10.706162,-1.7593145,0.2802372,5.4635158
-4.8902316,28.513176,7.767709,18.598907,1.1262212,-0.23995115,-0.09796578,-0.73472416,0.75987905,0.53333664,-0.25734845,0.61470586,0.6443712,0.4500729,1.290376,-0.56482506,-1.6117138,-1.104913,2.3261685,1.4039439,-0.9558938,1.3507487,-0.62695414,-1.6555927,-1.0841048,2.274006,1.3440005,-1.0003308,-1.3163694,1.3810616,0.9427112,-0.4732873,0.9257918,0.450399,0.06966748,1.9108963,-0.36293983,1.2749721,-3.632813,-0.33408993,1.1398275,0.26595688,-0.3996811,0.96212476,0.72655016,-0.075435475,0.08119533,0.6781162,-0.36486876,0.74314266,0.5330254,1.0,0.0,0.0,0.0,0.0,0.0,0.0,-2.5608964,-0.03706017,-0.72497207,-2.6105165,-1.9253492,-1.1442423,7.754511,-2.0771265,0.39708614,5.078733
1.0811486,30.586308,9.175888,14.531256,0.71168566,-0.41353524,0.057844315,-0.73633623,0.7529182,0.54253584,-0.25500494,0.61197895,0.64204276,0.4732436,1.277115,-0.5516623,-1.6013391,-1.1096053,2.335204,1.4082048,-0.95300645,1.3374964,-0.61329657,-1.6461437,-1.0885203,2.2831116,1.3485228,-0.99928653,-1.3285887,1.3610802,0.94544196,-0.43152833,0.9062149,0.4532334,0.115729704,1.8745956,-0.3662777,1.2856253,-3.629181,-0.3337559,1.0405018,0.26228333,-0.39232445,0.96739763,0.7258251,-0.08108787,0.0816431,0.67818666,-0.3603818,0.73645914,0.5186077,1.0,0.0,0.0,0.0,0.0,0.0,0.0,-2.5245957,-0.03372231,-0.7356253,-1.3249636,-1.870656,0.19944906,3.9945245,-1.6926646,0.4220128,4.5479774
-2.042018,30.196413,9.400588,18.905954,1.1087434,-0.20663333,-0.061702497,-0.74314517,0.7399277,0.53630984,-0.12450577,0.5998651,0.6506392,0.5113099,1.2631819,-0.5393038,-1.5925127,-1.1009709,2.3430982,1.4135867,-0.9481555,1.3241583,-0.59984785,-1.6366622,-1.0921347,2.2920341,1.3530756,-0.9978093,-1.3357564,1.3398321,0.94872344,-0.33886993,0.8885789,0.45619687,0.15819348,1.8383331,-0.36961174,1.295286,-3.6255527,-0.3334222,0.94127554,0.25853348,-0.3850689,0.97263885,0.7250947,-0.0868578,0.082094975,0.67819893,-0.37130305,0.72511345,0.51926714,1.0,0.0,0.0,0.0,0.0,0.0,0.0,-2.4883332,-0.030388266,-0.74528605,-0.8371353,-1.9863367,0.2246499,9.069133,-1.4612913,0.39922595,4.18312
-5.018936,28.735266,8.827762,22.031815,1.3956802,-0.10101566,-0.1792639,-0.7537346,0.7314205,0.5187978,-0.045196667,0.5947237,0.6559496,0.529526,1.2487849,-0.5267058,-1.5847825,-1.0966544,2.3515065,1.4186705,-0.9448567,1.3107401,-0.5865994,-1.6272285,-1.0945876,2.300808,1.3576571,-0.99594295,-1.3444314,1.3203447,0.9412413,-0.2146408,0.87468785,0.45896506,0.19588436,1.802105,-0.37294388,1.3039553,-3.6219277,-0.33308887,0.8421485,0.2545929,-0.3779602,0.9779482,0.724459,-0.092854664,0.08249064,0.6780356,-0.3934123,0.7087399,0.5284102,1.0,0.0,0.0,0.0,0.0,0.0,0.0,-2.452105,-0.027056128,-0.7539553,-1.0107517,-1.8067837,-0.853765,12.215877,-1.0730863,0.34772158,3.7093818
-12.769798,28.037992,8.597963,31.604122,2.1639235,0.33426115,-0.5054772,-0.7514008,0.7302195,0.48209122,0.17633225,0.56654775,0.6585103,0.55204976,1.2356,-0.51357746,-1.5790194,-1.0769544,2.3574626,1.4235082,-0.94073796,1.2972647,-0.573495,-1.6180542,-1.094969,2.3093987,1.3622614,-0.9937285,-1.3491071,1.3076317,0.9090879,0.01973541,0.85544974,0.46063387,0.229831,1.7659111,-0.3762722,1.3116341,-3.6183066,-0.33275583,0.7431205,0.2501831,-0.37108994,0.9835735,0.7241553,-0.099367015,0.08275178,0.67740494,-0.44870618,0.68301296,0.5674754,1.0,0.0,0.0,0.0,0.0,0.0,0.0,-2.4159112,-0.023727804,-0.76163405,-0.65698624,-1.1078119,-3.3806086,23.203972,-1.5285611,0.14585257,3.3392816
-16.909937,20.758411,4.6823506,32.589764,2.3290114,0.15732457,-0.6900479,-0.7687418,0.71978474,0.3936153,0.24955325,0.5507285,0.6649259,0.5155345,1.2203906,-0.5015165,-1.5786927,-1.0700138,2.3644714,1.428754,-0.9421751,1.2836825,-0.56051546,-1.6096027,-1.0929701,2.3177834,1.366881,-0.9912404,-1.3618783,1.2953124,0.8233171,0.25912017,0.83387566,0.46224323,0.25497934,1.7297554,-0.3795967,1.3183233,-3.614689,-0.33242315,0.6441915,0.24518585,-0.3645916,0.98953056,0.7243928,-0.10640651,0.08292775,0.6760589,-0.5082848,0.6432014,0.5990194,1.0,0.0,0.0,0.0,0.0,0.0,0.0,-2.3797555,-0.020403296,-0.76832324,-1.4723301,-1.0777712,-8.741892,23.695776,-1.7802954,0.11202693,2.483064
-12.7520485,18.109577,2.9032574,25.781172,1.7375085,-0.30319083,-0.5740066,-0.7810421,0.71711147,0.33832523,0.23300974,0.5480318,0.6619237,0.49779177,1.2055782,-0.4888043,-1.5757701,-1.0696691,2.3725865,1.4330734,-0.9414612,1.2699305,-0.5476342,-1.6021965,-1.0891974,2.3259773,1.3715159,-0.98855007,-1.3800268,1.2860682,0.71261567,0.4159321,0.81568074,0.46378165,0.27368551,1.6936378,-0.3829193,1.3240238,-3.6110752,-0.3320908,0.54536146,0.23979187,-0.35847473,0.9956068,0.7251609,-0.11371023,0.08318185,0.6740121,-0.5428344,0.60599726,0.6045654,1.0,0.0,0.0,0.0,0.0,0.0,0.0,-2.343638,-0.017080694,-0.77402383,-1.9789219,-0.7994652,-11.181545,15.465909,-1.5106678,0.16171932,1.8507421
-2.0687037,19.650953,3.3422801,13.22319,0.5757882,-0.93106365,-0.1981082,-0.7886659,0.70964366,0.3204678,0.13351281,0.53235316,0.66465336,0.49900025,1.1910639,-0.47666982,-1.5701497,-1.0758461,2.3792126,1.4379812,-0.93865,1.2559916,-0.5348502,-1.5957859,-1.0849459,2.3339806,1.3761736,-0.9857005,-1.3987446,1.2761421,0.61728525,0.4276143,0.79574376,0.46672904,0.28861663,1.6575546,-0.3862381,1.3287369,-3.6074648,-0.33175877,0.44663027,0.2344017,-0.35261154,1.0014517,0.7262057,-0.120859236,0.083719105,0.6715722,-0.5300117,0.58451736,0.57229877,1.0,0.0,0.0,0.0,0.0,0.0,0.0,-2.3075547,-0.013761908,-0.7787369,-1.9899845,-0.9059906,-9.522713,0.9904802,-1.8102646,0.43826103,1.4599502
8.285731,21.949867,4.33642,1.7694292,-0.45615584,-1.50801,0.18297991,-0.78794104,0.6986578,0.30240232,0.027922656,0.51836133,0.6624022,0.5147617,1.1771975,-0.4649844,-1.5655457,-1.0821537,2.3858166,1.4424138,-0.9342243,1.2419192,-0.522193,-1.5901344,-1.0815356,2.3417778,1.3808619,-0.9827117,-1.4104581,1.2625457,0.5482002,0.31161737,0.77433974,0.47051,0.302143,1.6215057,-0.38955307,1.3324634,-3.603858,-0.3314271,0.34799778,0.22947693,-0.34687042,1.0067343,0.7272135,-0.12745027,0.08470172,0.6691356,-0.47270778,0.5758793,0.5084079,1.0,0.0,0.0,0.0,0.0,0.0,0.0,-2.2715058,-0.010446936,-0.7824634,-1.2287378,-1.2969017,-6.8038583,-11.737389,-2.079463,0.6479621,1.3026476
17.119436,21.249817,3.5547209,-10.001239,-1.4515603,-2.230333,0.51305103,-0.78704786,0.68535715,0.25586852,-0.15370813,0.48791456,0.6679103,0.5301865,1.1632143,-0.4536573,-1.5645475,-1.0969064,2.3905692,1.4476529,-0.92969304,1.2277857,-0.50970846,-1.5851276,-1.0802596,2.3493004,1.3855959,-0.97959316,-1.4140586,1.2439207,0.4852682,0.06587666,0.74483395,0.47567117,0.3149598,1.585495,-0.39286423,1.3352042,-3.600255,-0.33109573,0.24946393,0.22546387,-0.34119034,1.0111035,0.72792876,-0.13304234,0.08631814,0.6670596,-0.36904177,0.56992567,0.40831992,1.0,0.0,0.0,0.0,0.0,0.0,0.0,-2.235495,-0.0071357787,-0.78520423,-0.31659603,-1.8114805,-6.1501684,-24.65903,-3.0171514,0.8987069,1.2326717
21.232006,19.471872,2.9258788,-15.7807865,-1.8749151,-2.6186016,0.70040125,-0.7804409,0.65991,0.2428144,-0.30162016,0.44042933,0.66999847,0.5451066,1.1497416,-0.44371745,-1.5608462,-1.1104215,2.3933432,1.4525957,-0.9250825,1.2136885,-0.4974957,-1.5806148,-1.0819113,2.3564262,1.3903795,-0.9763497,-1.407565,1.2138599,0.44010252,-0.24215338,0.7014679,0.48071378,0.32732067,1.5495186,-0.39617348,1.3369606,-3.5966554,-0.3307647,0.15102859,0.22267151,-0.3355732,1.0143405,0.72819114,-0.13735473,0.08865972,0.6655905,-0.2429408,0.5610152,0.2911082,1.0,0.0,0.0,0.0,0.0,0.0,0.0,-2.1995187,-0.0038265288,-0.78696054,0.82116127,-2.9518366,-4.4381437,-30.817339,-4.46769,0.8929491,1.1949301
20.585705,18.863586,3.2273533,-14.367167,-1.7384546,-2.5682192,0.7022907,-0.76641256,0.6384403,0.239178,-0.3911213,0.3781498,0.67583025,0.56529933,1.1370473,-0.4336517,-1.556697,-1.1210234,2.3942413,1.4579625,-0.9198198,1.1997439,-0.48563868,-1.5764091,-1.0865004,2.3629913,1.3952109,-0.97298133,-1.3892827,1.1765414,0.41402715,-0.5309192,0.6411113,0.4849247,0.33982113,1.5135803,-0.3994789,1.3377333,-3.5930595,-0.330434,0.052691642,0.22109985,-0.33005333,1.0164531,0.7279647,-0.14040011,0.09170283,0.66479,-0.1216168,0.54995036,0.18040971,1.0,0.0,0.0,0.0,0.0,0.0,0.0,-2.1635804,-0.0005210936,-0.78773326,2.0875692,-3.6654234,-2.649051,-28.84196,-6.144762,0.7277131,1.2126267
16.090063,17.275213,2.867231,-8.74768,-1.3824576,-2.31065,0.5195723,-0.7529408,0.62024343,0.21010162,-0.44924894,0.24732186,0.680156,0.5779774,1.1244497,-0.42361432,-1.555399,-1.1314253,2.3877234,1.4632264,-0.9151836,1.1860358,-0.47416836,-1.5724742,-1.0934813,2.3686447,1.4000765,-0.96949375,-1.3637487,1.1374742,0.38618094,-0.7535949,0.5401495,0.48790216,0.351588,1.4776764,-0.40278053,1.3375233,-3.589467,-0.33010364,-0.045546986,0.2205925,-0.32465172,1.017584,0.7273611,-0.14238131,0.09547423,0.6644983,-0.01931558,0.53631324,0.08638337,1.0,0.0,0.0,0.0,0.0,0.0,0.0,-2.1276765,0.0027805269,-0.7875233,2.82197,-3.82905,-2.9145062,-22.23928,-10.144472,0.5027652,1.1240363
10.333019,14.521492,2.0879245,-2.3064103,-1.1334509,-1.9558791,0.2856851,-0.7501739,0.5891049,0.20270963,-0.5005485,-0.0033230283,0.68507504,0.5819792,1.1110184,-0.41525787,-1.5522033,-1.1435361,2.3683124,1.4685841,-0.91129583,1.1725527,-0.46314055,-1.5687721,-1.1021597,2.3726616,1.404967,-0.96590126,-1.3423265,1.0914339,0.3641776,-0.90591305,0.35527837,0.48993716,0.36148986,1.4418106,-0.40607834,1.3363317,-3.5858784,-0.3297736,-0.1436874,0.22097778,-0.31936836,1.0178975,0.7265559,-0.14358616,0.10015192,0.6644314,0.06204511,0.52417797,0.008622837,1.0,0.0,0.0,0.0,0.0,0.0,0.0,-2.0918107,0.0060783327,-0.7863317,2.3599625,-4.522419,-2.3584008,-15.242874,-18.472654,0.32817125,0.8936405
4.3858385,6.2539153,-0.49221003,2.4918108,-0.85137564,-1.7028108,0.11490712,-0.73891085,0.51696867,0.21541956,-0.55004984,-0.31677336,0.68960935,0.5760836,1.0986617,-0.41144368,-1.5472301,-1.1571647,2.3409843,1.4739279,-0.9082929,1.1592757,-0.45281082,-1.5651615,-1.1119673,2.3740807,1.4098746,-0.96223056,-1.3223308,1.0137262,0.35929462,-1.0058974,0.07097205,0.49142605,0.36837554,1.4059792,-0.40937424,1.3341595,-3.5822933,-0.3294439,-0.24172968,0.22202301,-0.3142414,1.0174878,0.7256884,-0.14426716,0.10594571,0.66433334,0.124851994,0.50635785,-0.06203239,1.0,0.0,0.0,0.0,0.0,0.0,0.0,-2.0559793,0.009374231,-0.7841595,2.1979809,-7.7008247,-0.67653656,-10.0538845,-28.378397,0.21880865,0.5212009
-19.715824,-55.297935,-25.19814,6.467713,1.6833354,-2.3716776,-0.2520258,-0.7038055,0.22261015,0.06975708,-0.5819935,-0.5045492,0.69309646,0.56054324,1.0888951,-0.4305498,-1.5581858,-1.1701667,2.3236258,1.4791842,-0.9061762,1.1463133,-0.44452864,-1.5622241,-1.1224864,2.372429,1.4147917,-0.9585246,-1.2862182,0.76616114,0.27109504,-1.0678318,-0.24416737,0.49168548,0.3699491,1.370182,-0.41266632,1.3310076,-3.5787117,-0.32911453,-0.33967394,0.22328568,-0.31023216,1.016117,0.7250993,-0.14421329,0.11246815,0.66391593,0.13140984,0.3629746,-0.1664299,1.0,0.0,0.0,0.0,0.0,0.0,0.0,-2.0201821,0.012666315,-0.7810076,4.0146112,-24.823761,-9.050202,-6.3886642,-31.62185,-0.029575825,-0.23605824
-59.49873,-160.5164,-66.71407,11.596011,6.44884,-3.4611802,-0.6390185,-0.66163385,-0.31029296,-0.08588142,-0.60150594,-0.5822542,0.68593985,0.5496446,1.0801499,-0.47555792,-1.5708123,-1.182637,2.3142035,1.4833857,-0.9035601,1.1338736,-0.4410501,-1.5608795,-1.1334212,2.3679276,1.4196898,-0.95483387,-1.227131,0.20736815,0.087920636,-1.1027344,-0.5197552,0.48776564,0.36651015,1.3344231,-0.4159546,1.326877,-3.5751338,-0.32878548,-0.4375203,0.22384644,-0.30929947,1.0132772,0.7252679,-0.14279743,0.118414745,0.6630032,0.03313932,0.0009243886,-0.32627207,1.0,0.0,0.0,0.0,0.0,0.0,0.0,-1.984423,0.015954584,-0.776877,6.69415,-56.20662,-18.637487,-3.7148714,-27.88121,-0.7737279,-1.0231256
-69.28447,-176.0,-76.19504,14.095042,7.902141,-3.6962323,-0.7395693,-0.58727175,-0.51165473,-0.2546274,-0.6159511,-0.57738936,0.65321875,0.5141509,1.0751464,-0.49221557,-1.5863422,-1.1950163,2.3101885,1.4850117,-0.9034188,1.1222883,-0.4430886,-1.5627773,-1.1445639,2.3619957,1.4248854,-0.9508122,-1.1328024,-0.3422564,-0.28304997,-1.1174994,-0.6193171,0.52744687,0.4121434,1.2986984,-0.41923904,1.3217686,-3.5715594,-0.32845676,-0.5352688,0.22317505,-0.31240654,1.008772,0.72643316,-0.13966721,0.1229345,0.6615701,-0.10084029,-0.41580182,-0.49333054,1.0,0.0,0.0,0.0,0.0,0.0,0.0,-1.9486984,0.019239038,-0.7717686,10.29067,-55.375923,-37.304413,-1.2888908,-10.460877,3.1656742,3.9953113
-54.544445,-150.2315,-62.705963,8.876488,6.56297,-3.3001697,-0.31902802,-0.5193499,-0.6691816,-0.2659163,-0.7267598,-0.66718847,0.66584504,0.52091855,1.0703534,-0.5100067,-1.5893689,-1.2172399,2.2952769,1.4914699,-0.8987204,1.1118304,-0.45058066,-1.5672195,-1.1562426,2.3547287,1.4300925,-0.9467,-1.0144602,-0.88614386,-0.49912655,-1.1826668,-0.76405364,0.5150222,0.41000718,1.2630081,-0.4225216,1.3156835,-3.5679886,-0.32812837,-0.6329196,0.22140121,-0.31916046,1.0026227,0.72831243,-0.1348044,0.12588641,0.65995556,-0.20481855,-0.7616966,-0.65644634,1.0,0.0,0.0,0.0,0.0,0.0,0.0,-1.9130081,0.022521585,-0.7656835,12.581563,-54.775738,-21.893751,-5.886078,-14.883793,-2.3002386,-0.46976805
-4.3080134,-45.800587,-11.587294,3.0463018,2.6954737,-1.274919,0.9238409,-0.3314936,-0.7029483,0.103762485,-0.74767095,-0.73156375,0.6831567,0.51385874,1.078681,-0.52087545,-1.5568433,-1.2310097,2.2815723,1.4984081,-0.8953141,1.1031729,-0.46220833,-1.5712364,-1.1686308,2.3461456,1.435187,-0.9426249,-0.81639403,-1.2554533,-0.369887,-1.2562518,-0.8896157,0.50565976,0.40731528,1.227356,-0.42580032,1.3086226,-3.5644214,-0.3278003,-0.7304728,0.21926117,-0.32756233,0.99540794,0.729697,-0.12915865,0.1273947,0.65926546,-0.22330345,-0.86314094,-0.7452672,1.0,0.0,0.0,0.0,0.0,0.0,0.0,-1.8773559,0.025800318,-0.7586226,19.775654,-37.06045,12.718183,-6.9911957,-12.473906,-1.4512658,-0.05401373
46.642303,47.129185,32.93685,-5.322502,-1.0723734,-0.20329463,1.9052742,0.02568327,-0.7250625,0.21007316,-0.716781,-0.7483744,0.69655013,0.48283508,1.1057413,-0.5347146,-1.5502291,-1.240309,2.2713082,1.504842,-0.8943414,1.0978285,-0.47618824,-1.5727794,-1.1814997,2.3365555,1.4402281,-0.9385985,-0.44352096,-1.4450626,-0.08200353,-1.2978486,-0.9802812,0.5038414,0.40273607,1.1917381,-0.42907524,1.3005868,-3.5608578,-0.32747257,-0.8279285,0.21774673,-0.33550262,0.98782974,0.7293531,-0.123829685,0.12772372,0.6606034,-0.13200586,-0.7656762,-0.7649547,1.0,0.0,0.0,0.0,0.0,0.0,0.0,-1.8417381,0.029075235,-0.7505868,36.359333,-18.827702,28.901142,-4.4008255,-8.553993,-0.06225109,0.014692545
53.42566,64.37362,35.676727,-6.4669495,-1.9873811,-0.7959945,1.5251853,0.2077962,-0.76487345,-0.10578161,-0.6832086,-0.7267181,0.69091177,0.43107373,1.1186081,-0.5526756,-1.5833576,-1.2498206,2.2638836,1.5093193,-0.8954911,1.0965868,-0.4911657,-1.5730178,-1.1944468,2.3263931,1.4452559,-0.93466175,-0.021341097,-1.5149038,-0.0030762507,-1.2947375,-1.0272402,0.502589,0.3918247,1.1561546,-0.43234825,1.2915773,-3.5572977,-0.32714516,-0.9252867,0.21740341,-0.3424225,0.9801221,0.7272862,-0.11899859,0.12737402,0.6638297,-0.0035751008,-0.6607295,-0.7756299,1.0,0.0,0.0,0.0,0.0,0.0,0.0,-1.8061546,0.032348245,-0.7415773,41.14225,-6.862855,8.34417,-0.04131794,-4.357147,-0.047659874,-0.76405406
44.78228,48.51371,21.372854,-7.4777346,-1.7131922,-2.0949745,0.8186296,0.4264311,-0.7959964,-0.47242165,-0.66581327,-0.6671193,0.68300915,0.33993286,1.1392299,-0.5707653,-1.62026,-1.2610282,2.2596812,1.5135568,-0.90066844,1.0997187,-0.50637496,-1.5748165,-1.2071497,2.3161392,1.450257,-0.9309081,0.4209497,-1.5229031,-0.2359686,-1.2630166,-1.024734,0.4985476,0.3701446,1.1206093,-0.43561745,1.2815949,-3.553741,-0.32681808,-1.0225476,0.2184143,-0.34881783,0.97208965,0.7241969,-0.11413441,0.12682301,0.66815275,0.13471256,-0.6256301,-0.8152465,1.0,0.0,0.0,0.0,0.0,0.0,0.0,-1.7706093,0.03561744,-0.73159486,43.097267,-0.78361034,-22.443974,2.9111624,0.33638477,-0.5986333,-2.055812
33.41482,33.86415,10.122232,-5.2326984,-1.1956124,-2.6749911,0.28355968,0.56914186,-0.805308,-0.64490515,-0.64487225,-0.6672714,0.6715328,0.2977135,1.1566329,-0.5869058,-1.639307,-1.271637,2.249412,1.5174103,-0.90113676,1.1068751,-0.5214497,-1.5800941,-1.2194102,2.3060226,1.4552046,-0.9273995,0.81063944,-1.5024978,-0.6223551,-1.214048,-1.0074112,0.492312,0.3444164,1.0850983,-0.43888283,1.2706406,-3.550188,-0.32649133,-1.1197113,0.22068787,-0.35522842,0.96351665,0.7207279,-0.10875232,0.12640907,0.67286325,0.26081198,-0.6389651,-0.87475914,1.0,0.0,0.0,0.0,0.0,0.0,0.0,-1.7350982,0.03888282,-0.7206406,38.018585,1.9876242,-37.79673,4.7784567,1.7056227,-0.94084144,-2.55785
20.931187,25.755547,4.9497094,0.35725307,-0.5194351,-2.3722,-0.031826712,0.6095254,-0.81031924,-0.69161636,-0.6347742,-0.66639376,0.6587212,0.26820102,1.1678276,-0.6024816,-1.6492558,-1.2828876,2.2393832,1.5210767,-0.9005794,1.1169897,-0.5362841,-1.5890625,-1.23119,2.2960968,1.4600817,-0.92415226,1.076494,-1.4774073,-0.9864733,-1.1658751,-0.9876705,0.4853185,0.3181233,1.0496216,-0.4421444,1.2587155,-3.5466385,-0.3261649,-1.2167778,0.22395325,-0.36189842,0.95434487,0.71726954,-0.102684304,0.12626734,0.67752254,0.35268807,-0.668573,-0.9359393,1.0,0.0,0.0,0.0,0.0,0.0,0.0,-1.6996216,0.042144388,-0.7087155,26.036095,2.4269342,-35.886204,4.843068,1.8980026,-1.0026157,-2.6273668
10.507232,26.249212,6.380438,8.643099,0.1774438,-1.4126637,-0.1867737,0.617525,-0.8148215,-0.67017126,-0.5899485,-0.6754494,0.67951125,0.20510608,1.1787422,-0.61776626,-1.6560795,-1.2901849,2.2285519,1.5280328,-0.90364164,1.1287619,-0.5509249,-1.6006725,-1.2423899,2.286312,1.4649187,-0.9211892,1.2101974,-1.4599549,-1.2184634,-1.1044356,-0.9759742,0.48238882,0.28910947,1.014183,-0.44540405,1.2458204,-3.5430927,-0.3258388,-1.3137473,0.22779465,-0.3687744,0.94473124,0.71398,-0.09614721,0.1263428,0.6819279,0.399197,-0.6861626,-0.97571206,1.0,0.0,0.0,0.0,0.0,0.0,0.0,-1.664183,0.045404047,-0.6958204,13.192296,1.6522646,-22.979523,6.2438965,1.0352254,-0.4740417,-2.883023
6.08619,32.2466,11.22207,14.351702,0.5448798,-0.5126987,-0.17494361,0.64034444,-0.81458277,-0.6477599,-0.5530029,-0.671183,0.68591523,0.13399972,1.1927963,-0.63238317,-1.6654484,-1.2976902,2.2191937,1.5335102,-0.90778923,1.1412112,-0.5654532,-1.6135375,-1.2529299,2.2766151,1.4697424,-0.91854084,1.2566081,-1.4507583,-1.3090409,-1.0367271,-0.9683286,0.48225945,0.25694078,0.97877884,-0.4486599,1.2319562,-3.5395503,-0.32551304,-1.4106197,0.23186111,-0.37565994,0.9349103,0.7108379,-0.08948916,0.12649651,0.6860757,0.41520905,-0.6807621,-0.99083215,1.0,0.0,0.0,0.0,0.0,0.0,0.0,-1.6287788,0.04865989,-0.68195623,4.66187,0.82776546,-9.016752,6.8711042,0.58785677,-0.07762313,-3.17052
-2.8088112,36.37865,14.594511,24.965574,1.3502111,0.45189458,-0.3853755,0.6213829,-0.8097609,-0.63810986,-0.40364143,-0.7049598,0.7009224,0.07901164,1.2033495,-0.64642924,-1.6773485,-1.2932941,2.206119,1.5398346,-0.91063964,1.153607,-0.57991946,-1.6265705,-1.2622454,2.266861,1.4745909,-0.9162253,1.2344515,-1.4456141,-1.3012236,-0.8960014,-0.9791162,0.48603648,0.22314475,0.94340897,-0.45191193,1.2171241,-3.5360115,-0.3251876,-1.5073954,0.23575592,-0.38241196,0.92524266,0.70793676,-0.08319822,0.12661365,0.68983513,0.38786978,-0.66511965,-0.9655174,1.0,0.0,0.0,0.0,0.0,0.0,0.0,-1.593409,0.05191192,-0.6671241,-2.065134,0.39374828,0.812459,14.169109,-1.3527751,0.49765706,-3.3461065
-7.2392797,34.42041,13.475798,27.524137,1.7109252,0.5837121,-0.47392553,0.62345535,-0.81240606,-0.68997175,-0.3482018,-0.69200987,0.6884152,0.039449945,1.2159525,-0.66116005,-1.6955676,-1.2970656,2.19766,1.5434325,-0.9122803,1.1656157,-0.5943762,-1.6394374,-1.2700636,2.2570152,1.4794699,-0.91424453,1.1903372,-1.4462228,-1.2818638,-0.7433957,-0.9875059,0.48894936,0.18979329,0.90807724,-0.45516205,1.2013249,-3.5324762,-0.32486248,-1.6040742,0.23929214,-0.38907242,0.91587126,0.70538855,-0.07744016,0.12664002,0.6931034,0.34776136,-0.6588162,-0.93438864,1.0,0.0,0.0,0.0,0.0,0.0,0.0,-1.5580772,0.055162042,-0.6513249,-4.2161226,-0.19755363,1.9693613,15.390432,-1.1460781,0.43287873,-3.3074558
-8.535772,29.634577,10.023354,23.828205,1.5450464,0.2692642,-0.4858212,0.59758514,-0.8159578,-0.7357143,-0.36595926,-0.6946447,0.6679985,-0.13796526,1.2253742,-0.675972,-1.7130089,-1.3066596,2.1875508,1.5462698,-0.92804104,1.1770769,-0.60887206,-1.6522853,-1.2767584,2.2470932,1.4843565,-0.91269577,1.13233,-1.4511938,-1.2858009,-0.6442223,-0.9951471,0.48856756,0.14328639,0.87277985,-0.45840836,1.1845597,-3.5289445,-0.32453766,-1.7006565,0.24248123,-0.39575768,0.9066435,0.70326525,-0.072004214,0.1266192,0.6958455,0.31591904,-0.66415656,-0.9254313,1.0,0.0,0.0,0.0,0.0,0.0,0.0,-1.5227798,0.05840835,-0.6345597,-5.564618,-0.63107014,-0.41885376,10.100102,-1.0517359,0.014525652,-4.6369104
0.4022827,28.317905,8.674233,10.973307,0.38647425,-0.39907667,-0.1443753,0.5912141,-0.8181968,-0.75410765,-0.50779295,-0.70767134,0.6399887,-0.2450214,1.2361983,-0.6906917,-1.7276961,-1.3275378,2.176326,1.5483553,-0.9371979,1.1880308,-0.62342894,-1.6653087,-1.2835181,2.2370758,1.4892031,-0.9116572,1.0837415,-1.4574727,-1.3083942,-0.68596745,-1.0045167,0.4829417,0.0908673,0.8375168,-0.46165085,1.1668293,-3.5254164,-0.3242132,-1.7971423,0.2456665,-0.40242767,0.8971427,0.7013732,-0.0663872,0.12670031,0.6982946,0.32588223,-0.66089165,-0.9647684,1.0,0.0,0.0,0.0,0.0,0.0,0.0,-1.4875168,0.061650842,-0.61682934,-4.6378136,-0.71918964,-2.4201632,-3.9782405,-1.1332512,-0.710845,-5.22404
1.8565974,27.233892,7.58043,5.181811,-0.11310232,-0.5460359,0.02723886,0.51993966,-0.8180371,-0.74754256,-0.58326393,-0.71186006,0.63694197,-0.27752957,1.2400248,-0.7052326,-1.740063,-1.3418444,2.1658897,1.5528973,-0.93941015,1.1983114,-0.6380373,-1.6785381,-1.2913439,2.2269707,1.4939867,-0.91112125,1.0104333,-1.4620793,-1.3287604,-0.8138719,-1.013239,0.47588754,0.04118141,0.80228806,-0.46488953,1.148135,-3.5218916,-0.32388905,-1.8935316,0.2490387,-0.40901566,0.88705426,0.6995326,-0.060214136,0.12698592,0.7006446,0.34728,-0.65057135,-1.0298779,1.0,0.0,0.0,0.0,0.0,0.0,0.0,-1.452288,0.06488952,-0.59813493,-7.043314,-0.5313873,-2.3186445,-12.561417,-1.0503292,-0.95659494,-4.958945
-3.3624382,28.31558,7.79438,8.221019,0.16688687,-0.17500329,-0.021235332,0.44050857,-0.8135737,-0.7336774,-0.5725909,-0.7222337,0.65918964,-0.2359926,1.2423623,-0.7193947,-1.7519058,-1.348603,2.1547472,1.5599056,-0.9347205,1.2076231,-0.6526543,-1.6918609,-1.300379,2.2167625,1.4987208,-0.9109982,0.9059395,-1.4618596,-1.3345386,-0.9325787,-1.0239121,0.47191045,0.0026725708,0.76709366,-0.4681263,1.1284775,-3.5183704,-0.32356524,-1.9898245,0.25250626,-0.4154873,0.8763733,0.6977304,-0.053475983,0.1274969,0.70289195,0.35040918,-0.638112,-1.0872201,1.0,0.0,0.0,0.0,0.0,0.0,0.0,-1.4170936,0.06812629,-0.57847744,-10.092092,-0.058412552,-0.88210106,-11.6163845,-1.2929678,-0.62204003,-3.8525946
-19.249886,22.684261,3.05576,13.816386,0.9312357,0.28303304,-0.22784881,0.25746146,-0.8085357,-0.739965,-0.6471809,-0.72073454,0.63519406,-0.15694258,1.2333692,-0.7335079,-1.7658575,-1.3650972,2.144689,1.5622401,-0.9266925,1.2152182,-0.66723406,-1.70522,-1.3106673,2.2064629,1.5034052,-0.9111508,0.7124775,-1.4570955,-1.337582,-1.0595616,-1.0326705,0.4665078,-0.021405134,0.7319374,-0.47135925,1.1078577,-3.5148528,-0.32324174,-2.086021,0.2557106,-0.42196465,0.86511886,0.6961357,-0.0461429,0.12824415,0.704854,0.31444412,-0.6423375,-1.144305,1.0,0.0,0.0,0.0,0.0,0.0,0.0,-1.3819374,0.07135925,-0.5578577,-18.802202,0.355649,-0.6634712,-12.341857,-1.2162447,-0.7573545,-2.4605162
-80.33388,2.1910763,-14.534456,39.076313,4.097617,1.9762923,-1.2389122,-0.32455778,-0.78277564,-0.7058839,-0.67518824,-0.7327146,0.64820534,0.04425202,1.1827624,-0.74551165,-1.7758083,-1.3781861,2.1331913,1.5682257,-0.9067256,1.2184359,-0.6816536,-1.7184284,-1.3220198,2.196041,1.5080534,-0.9113587,0.19539589,-1.4379021,-1.3169365,-1.1582129,-1.047971,0.46376535,-0.021412412,0.6968155,-0.4745903,1.0862767,-3.5113385,-0.32291856,-2.182121,0.25743484,-0.42901802,0.85343975,0.6955908,-0.038203344,0.12927671,0.705678,0.12886769,-0.71713454,-1.1816767,1.0,0.0,0.0,0.0,0.0,0.0,0.0,-1.3468155,0.074590296,-0.53627664,-50.54173,1.6018867,1.6164303,-9.15792,-2.33469,-0.42737722,-0.23923367
-97.55314,6.8996034,-13.751762,47.385223,5.07228,3.011848,-1.3154368,-0.5780818,-0.7531185,-0.59632534,-0.74590445,-0.6757713,0.66723865,0.3105829,1.1606277,-0.75696546,-1.7780609,-1.3966103,2.128464,1.5747772,-0.8803004,1.2157522,-0.6957575,-1.730912,-1.3343546,2.185646,1.5126921,-0.91133296,-0.4185425,-1.4025733,-1.2270747,-1.255691,-1.04008,0.4630515,0.010073112,0.6617279,-0.47781754,1.0637352,-3.507828,-0.32259572,-2.2781253,0.2569275,-0.43680954,0.8415763,0.696406,-0.029806172,0.1304599,0.70506054,-0.110689394,-0.79140425,-1.193148,1.0,0.0,0.0,0.0,0.0,0.0,0.0,-1.3117279,0.07781753,-0.51373523,-60.077213,3.1063795,8.484197,-8.889699,-0.23317337,-0.28514266,2.993956
-67.90533,42.034714,11.209569,43.036064,3.9230585,3.9009485,-0.5425647,-0.6366991,-0.7368605,-0.26370677,-0.7688844,-0.6334375,0.67958266,0.48049846,1.1520823,-0.7694436,-1.7572826,-1.4112431,2.1223023,1.5806503,-0.8632831,1.2077852,-0.70946753,-1.7409809,-1.3475058,2.1754951,1.5173479,-0.9108418,-0.9196386,-1.3613961,-0.9353602,-1.3328929,-1.0091119,0.46671492,0.06278433,0.62667847,-0.48104095,1.0402347,-3.5043209,-0.32227316,-2.3740335,0.25432205,-0.44467163,0.8300799,0.6979383,-0.021642739,0.13137771,0.7036714,-0.3131377,-0.77540475,-1.1395631,1.0,0.0,0.0,0.0,0.0,0.0,0.0,-1.2766784,0.08104095,-0.49023467,-49.16719,3.8214445,28.592514,-7.123375,2.3450136,0.4128158,5.4449806
-30.57642,58.03347,24.890373,30.613867,2.3065276,3.1779246,0.07455016,-0.6036342,-0.7412752,-0.2392648,-0.77453905,-0.61325765,0.6781028,0.51393163,1.1474218,-0.783595,-1.7649074,-1.4249597,2.1141694,1.5851582,-0.8594487,1.196488,-0.722859,-1.748204,-1.361212,2.1657295,1.5220515,-0.9098147,-1.198027,-1.3321564,-0.6531854,-1.3819479,-0.96667975,0.47211924,0.11719639,0.59165955,-0.48426056,1.0157757,-3.5008173,-0.32195097,-2.4698458,0.2503395,-0.45204353,0.8191846,0.69948435,-0.0141055165,0.13177091,0.70225286,-0.43127432,-0.7148729,-1.0759724,1.0,0.0,0.0,0.0,0.0,0.0,0.0,-1.2416595,0.08426055,-0.46577567,-27.347803,2.8145552,27.694607,-4.578829,3.9057732,0.76254606,5.769968
-14.042337,39.28998,13.74482,18.065763,1.4119059,1.0903769,0.085847296,-0.57636285,-0.7581867,-0.5489015,-0.77871525,-0.6455444,0.67049533,0.5093554,1.1388518,-0.7986777,-1.8030941,-1.4390836,2.101175,1.589101,-0.85887915,1.183911,-0.7361399,-1.7546775,-1.3752139,2.1562462,1.5267855,-0.9083022,-1.2769319,-1.3269136,-0.64634204,-1.4052411,-0.9430719,0.47395226,0.16319385,0.5566788,-0.48747826,0.99035925,-3.4973173,-0.32162908,-2.5655622,0.24570084,-0.4591503,0.8083938,0.7009178,-0.006682044,0.13182709,0.70092165,-0.47964552,-0.6991481,-1.0819145,1.0,0.0,0.0,0.0,0.0,0.0,0.0,-1.2066787,0.08747825,-0.44035923,-7.647705,0.45022964,0.4335165,-2.0228148,2.1178126,0.1500845,4.7845573
-7.354466,24.60455,4.4119573,10.952071,0.99593073,-0.20568812,0.016116053,-0.5906369,-0.76648617,-0.6843026,-0.7842851,-0.65980065,0.66520935,0.48824134,1.1248473,-0.8127885,-1.8231078,-1.4536424,2.0902662,1.5933064,-0.85947806,1.1713454,-0.7494904,-1.7624576,-1.3893263,2.1468735,1.5315195,-0.9064082,-1.2492852,-1.3380924,-0.8218845,-1.4123604,-0.9360858,0.4724435,0.1983842,0.52173233,-0.49069214,0.9639864,-3.4938207,-0.3213075,-2.6611829,0.24084091,-0.46635437,0.7971532,0.70232767,0.001235416,0.1317865,0.69954735,-0.49364102,-0.7178872,-1.1394587,1.0,0.0,0.0,0.0,0.0,0.0,0.0,-1.1717323,0.09069213,-0.41398638,2.89886,-1.2005568,-17.620838,-0.38263798,0.44350624,-0.3989935,3.585741
-10.574083,20.361286,0.93871355,11.080661,1.1666224,-0.35045737,-0.11328314,-0.656508,-0.7619178,-0.71483934,-0.78153723,-0.6356842,0.65578055,0.44039822,1.1056945,-0.82568216,-1.8339416,-1.4674801,2.0833051,1.5970976,-0.86236835,1.1590849,-0.762962,-1.7723281,-1.4034178,2.1375809,1.536225,-0.90425,-1.2178223,-1.3506054,-1.0423188,-1.406861,-0.9277449,0.46864304,0.2217367,0.48682022,-0.4939022,0.9366581,-3.4903276,-0.32098627,-2.7567081,0.2358017,-0.47384834,0.7852487,0.70383734,0.00989783,0.13171001,0.6979738,-0.5131087,-0.7492228,-1.2090839,1.0,0.0,0.0,0.0,0.0,0.0,0.0,-1.1368202,0.0939022,-0.38665807,3.2997847,-1.3653278,-22.06806,0.93460083,0.54067373,-0.7221997,2.3768663
-16.804443,22.270245,1.678268,14.099405,1.597703,0.111772835,-0.21002613,-0.7193405,-0.765707,-0.7240415,-0.7756653,-0.5792924,0.6340924,0.37791643,1.0871508,-0.8395327,-1.8447323,-1.4809843,2.0796516,1.5996342,-0.86645836,1.1468436,-0.7765604,-1.784106,-1.4173968,2.1285172,1.5408732,-0.90194404,-1.225523,-1.3634166,-1.2229143,-1.3933414,-0.9002955,0.46251658,0.23389493,0.45194244,-0.49711037,0.9083752,-3.486838,-0.32066533,-2.8521376,0.2304039,-0.4816513,0.77273524,0.70555264,0.019266652,0.13146776,0.6960893,-0.55470186,-0.77877295,-1.2674141,1.0,0.0,0.0,0.0,0.0,0.0,0.0,-1.1019424,0.09711036,-0.3583752,-0.5657196,-1.4313459,-18.09926,1.7843962,2.4168491,-0.9729564,1.2958437
-18.314615,30.411243,6.8507953,16.297348,1.7506236,0.7577847,-0.20198055,-0.753352,-0.76231843,-0.71728826,-0.7704663,-0.53035736,0.63379973,0.32074797,1.0715084,-0.85279226,-1.8558348,-1.4944434,2.0754814,1.6042532,-0.86986923,1.1342875,-0.790239,-1.7971103,-1.4312212,2.1198578,1.545468,-0.89958465,-1.265126,-1.36993,-1.3262892,-1.3775709,-0.8554525,0.45740774,0.23717706,0.417099,-0.5003128,0.87913877,-3.483352,-0.32034475,-2.9474716,0.22449112,-0.4896145,0.75982153,0.70747995,0.029105008,0.13088399,0.6938979,-0.610021,-0.7897973,-1.3018432,1.0,0.0,0.0,0.0,0.0,0.0,0.0,-1.067099,0.1003128,-0.32913876,-3.7523508,-0.8070946,-10.394716,1.9830227,4.163444,-0.8087754,0.4595101
-18.62077,35.977077,10.674749,17.422941,1.8519105,1.1973343,-0.19678403,-0.7791805,-0.7695971,-0.7336114,-0.7593448,-0.47687805,0.608297,0.2326744,1.0563694,-0.8671987,-1.8704715,-1.5071558,2.07217,1.6062977,-0.8763172,1.1212069,-0.8039843,-1.8107231,-1.4448683,2.1117592,1.5499998,-0.89727104,-1.3216902,-1.3765439,-1.3731558,-1.3590451,-0.79542625,0.45106518,0.23004328,0.3822937,-0.50351334,0.84894973,-3.4798694,-0.32002446,-3.0427103,0.2179718,-0.49760056,0.74669546,0.7096085,0.039193846,0.12979622,0.69142795,-0.6728095,-0.7881587,-1.3188219,1.0,0.0,0.0,0.0,0.0,0.0,0.0,-1.0322937,0.10351333,-0.29894972,-5.463505,-0.81596375,-4.749036,2.2327662,5.7034492,-0.88199973,-0.53882897
-18.260378,41.10748,13.714369,18.158522,1.8774226,1.4929368,-0.23863402,-0.80684066,-0.7638394,-0.75409484,-0.740933,-0.41915393,0.60002774,0.09048035,1.0405228,-0.88036823,-1.8861326,-1.5189617,2.0698438,1.6100026,-0.888223,1.1075121,-0.8177477,-1.824578,-1.4582846,2.104351,1.5544707,-0.8951396,-1.3847485,-1.3766965,-1.3897581,-1.3347583,-0.7234004,0.4450369,0.20815776,0.34751892,-0.50671005,0.817809,-3.4763901,-0.3197045,-3.137854,0.21080017,-0.5055008,0.7335018,0.71196645,0.049364973,0.12811205,0.6886611,-0.7384159,-0.77706677,-1.3221368,1.0,0.0,0.0,0.0,0.0,0.0,0.0,-0.9975189,0.10671005,-0.26780897,-6.1350346,-0.16393661,-1.7084837,2.7748346,6.9289327,-0.81202984,-1.9955069
-16.526344,47.437263,17.389217,19.349428,1.6629832,1.7552738,-0.3181937,-0.8281114,-0.7529976,-0.75077957,-0.69143945,-0.47148052,0.5983425,-0.05973335,1.024701,-0.89304745,-1.899656,-1.5274285,2.057203,1.6143049,-0.9011129,1.0932242,-0.8314425,-1.8384235,-1.4712756,2.097393,1.55889,-0.8933362,-1.4431554,-1.3675596,-1.3826393,-1.2863725,-0.6875081,0.44044185,0.17158668,0.3127823,-0.50990677,0.7857175,-3.4729145,-0.31938487,-3.2329025,0.20299911,-0.51320267,0.720398,0.71459585,0.05941052,0.12596297,0.6855337,-0.7997973,-0.75315887,-1.3088522,1.0,0.0,0.0,0.0,0.0,0.0,0.0,-0.96278226,0.10990676,-0.23571748,-5.711198,0.7826805,0.6990671,5.1218987,3.368032,-0.5969703,-3.4983158
-13.76229,52.12569,19.916336,19.916714,1.4052368,1.808249,-0.40492946,-0.83506227,-0.7382955,-0.76356184,-0.6355409,-0.5140112,0.55917877,-0.23045355,1.009718,-0.905272,-1.9147797,-1.5348296,2.045992,1.6148078,-0.91638154,1.0784785,-0.8449713,-1.8521888,-1.4835856,2.0905228,1.5632426,-0.8920096,-1.4848403,-1.348399,-1.3745661,-1.2117529,-0.6874807,0.4332905,0.12005175,0.27808,-0.51309586,0.75267625,-3.4694421,-0.31906554,-3.327856,0.19465637,-0.5206146,0.70750564,0.7175445,0.06917832,0.123585165,0.68196106,-0.85180306,-0.7223835,-1.2849315,1.0,0.0,0.0,0.0,0.0,0.0,0.0,-0.92807996,0.11309585,-0.20267624,-4.081893,1.8049955,0.84118843,7.682848,-0.16883612,-0.8017421,-5.043672
-13.621948,55.367935,21.711811,22.430098,1.5434364,1.9037466,-0.50704414,-0.8511779,-0.73096466,-0.7496906,-0.5428734,-0.50860304,0.48888376,-0.3254166,0.99336064,-0.91806775,-1.9271579,-1.5378729,2.0396624,1.6121309,-0.92455125,1.0633932,-0.8582922,-1.8658092,-1.4948275,2.0835762,1.5674769,-0.89123523,-1.516183,-1.3270077,-1.3575395,-1.0945382,-0.697555,0.4201607,0.063436255,0.24341202,-0.51628494,0.7186862,-3.4659734,-0.31874654,-3.4227147,0.18578339,-0.52773666,0.69496787,0.7208933,0.07852899,0.12110687,0.6778489,-0.90375274,-0.69451535,-1.2454274,0.0,1.0,0.0,0.0,0.0,0.0,0.0,-0.893412,0.11628494,-0.16868621,-3.0822992,2.0332575,1.7983437,11.89909,-1.1446834,-1.3659239,-5.5752754
-12.754265,54.136982,21.208517,23.011215,1.7640982,1.7685035,-0.542914,-0.8485432,-0.73551786,-0.75920314,-0.46468028,-0.4449045,0.41781133,-0.40583724,0.97853893,-0.931844,-1.9417295,-1.5412955,2.0390859,1.609258,-0.93181896,1.048107,-0.8714085,-1.879808,-1.5049014,2.076441,1.5721579,-0.89080584,-1.5344458,-1.3003664,-1.472161,-1.0010885,-0.76251304,0.5316093,0.056377094,0.2168541,-0.5197067,0.6993599,-1.5762212,-0.32549635,0.50628227,0.17634583,-0.53463745,0.6826576,0.7246329,0.08737287,0.118634425,0.6732005,-0.964904,-0.6709079,-1.2510924,0.0,1.0,0.0,0.0,0.0,0.0,0.0,-0.8668541,0.11970672,-0.14935988,-2.2330523,3.948474,-23.6562,4.6426773,-14.423836,24.168104,4.4653883
46.419174,176.0,110.0,99.12625,2.2417712,10.666311,-1.6464245,-0.79948217,0.4444048,0.708113,0.75546736,0.13558142,0.5525841,-0.47763103,0.96815884,-0.826968,-1.8089967,-1.4293547,2.0899992,1.6274163,-0.93856895,1.0364535,-0.88358384,-1.8915012,-1.5038868,2.0637488,1.5857106,-0.8892747,-1.045118,-1.190171,-1.0565163,0.4673357,-1.4287254,1.6354398,0.18272124,0.20155716,-0.52287674,0.7053639,-1.5746453,-0.32517093,0.40759006,0.16620255,-0.54008484,0.67452234,0.72905993,0.087235674,0.11913024,0.6683333,-1.0353961,-0.48810017,-0.6657894,0.0,1.0,0.0,0.0,0.0,0.0,0.0,-0.85155714,0.12287673,-0.15536392,48.065758,11.132979,43.156696,145.57033,-65.67526,112.51328,12.06406
7.0664535,161.02425,96.29515,81.900734,4.9872518,6.6572933,-1.2783432,-0.81208193,-0.5826823,0.4681805,0.7623721,-0.3844797,0.5344831,-0.37206492,0.9552453,-0.9418521,-1.8446832,-1.4276496,2.025301,1.639159,-0.9264812,1.0262129,-0.8947914,-1.896157,-1.4930035,2.0497603,1.6020433,-0.887745,-1.0167807,-1.098804,-0.2660387,1.2948241,-1.3926996,1.6374047,0.14461656,0.18582153,-0.52612686,0.70870036,-1.5730709,-0.32484582,0.30899662,0.1553421,-0.5444641,0.6716387,0.7345604,0.0799062,0.12053992,0.66295266,-1.1046531,-0.41164798,-0.1661319,0.0,1.0,0.0,0.0,0.0,0.0,0.0,-0.8358215,0.12612686,-0.15870035,2.9199123,8.783603,79.83446,82.59468,2.5898933,1.610899,-3.36453
-22.28225,107.587364,50.273327,54.695713,4.1172028,3.475351,-1.1291054,-0.7927675,-0.49165076,-0.09431195,0.67874473,-0.5676001,0.64380753,-0.09010432,0.9469362,-0.9439565,-1.9055883,-1.425129,1.9930004,1.666424,-0.89675546,1.0154097,-0.9049023,-1.8961875,-1.4771248,2.0367637,1.617508,-0.88650906,-1.1001117,-0.9829352,0.08470549,1.6864233,-1.2711827,1.5183271,0.11733087,0.17010117,-0.52937317,0.7110515,-1.5714982,-0.32452103,0.21050175,0.14366913,-0.5484886,0.6718552,0.74104583,0.0697337,0.12198545,0.656588,-1.1892915,-0.39053813,0.078327574,0.0,1.0,0.0,0.0,0.0,0.0,0.0,-0.82010114,0.12937316,-0.16105151,-7.906103,11.28552,35.117382,39.45639,11.450982,-11.252642,-2.4979248
-25.644926,81.92802,33.613373,34.200596,2.808843,2.2727985,-0.6312097,-0.7951933,-0.49141902,0.1347843,0.77462804,-0.6302539,0.55839294,-0.11440334,0.9358904,-0.95404416,-1.8827091,-1.399662,1.9737383,1.6733474,-0.8979494,1.0033858,-0.9141033,-1.8934944,-1.4594761,2.0250716,1.6314126,-0.88556683,-1.2353513,-0.899913,0.33043963,1.7919064,-1.1367255,1.3494426,0.086957954,0.15439606,-0.53261566,0.7124185,-1.569927,-0.32419658,0.11210535,0.13130188,-0.5522232,0.6736011,0.7481203,0.058811978,0.12326084,0.6493564,-1.2553005,-0.3598857,0.20023654,0.0,1.0,0.0,0.0,0.0,0.0,0.0,-0.80439603,0.13261566,-0.16241848,-13.190746,8.088028,24.429607,10.78248,12.914968,-16.463112,-2.8910234
-26.721146,54.988506,14.730291,18.050283,1.6171497,0.91831166,-0.38283435,-0.8029044,-0.4536092,0.042596474,0.77107376,-0.60796404,0.5987256,-0.15790913,0.92309535,-0.95946425,-1.8892347,-1.3823687,1.9642752,1.6912851,-0.90135777,0.99011207,-0.9225796,-1.8899944,-1.4421059,2.0146003,1.6437455,-0.88493645,-1.357506,-0.830509,0.35572103,1.7193497,-1.0176053,1.1956172,0.055198025,0.1387062,-0.53585815,0.71280223,-1.5683573,-0.32387245,0.013807314,0.11843872,-0.5557556,0.675663,0.75549453,0.04850835,0.12438457,0.64140725,-1.301065,-0.34196568,0.20211028,0.0,1.0,0.0,0.0,0.0,0.0,0.0,-0.7887062,0.13585815,-0.16280222,-12.061477,6.8394184,2.290827,-7.119322,11.734128,-15.069938,-3.154091
-20.007847,42.06477,7.8009057,9.251053,0.8081678,0.18152666,-0.18209958,-0.80601007,-0.4395059,0.040390808,0.7739076,-0.57944524,0.564421,-0.21199228,0.9095111,-0.9665302,-1.8859553,-1.3647151,1.9566557,1.7001877,-0.9061357,0.9759166,-0.9305323,-1.8869636,-1.4259163,2.0051398,1.6546766,-0.8846351,-1.4400928,-0.7836998,0.2848564,1.5859191,-0.9227684,1.0595323,0.021700121,0.123031616,-0.539093,0.71220374,-1.5667894,-0.32354864,-0.084392436,0.10529709,-0.5591545,0.6773465,0.7629848,0.039497744,0.12542573,0.63290006,-1.3223969,-0.32944202,0.1518027,0.0,1.0,0.0,0.0,0.0,0.0,0.0,-0.7730316,0.13909301,-0.16220373,-8.226609,4.623604,-7.267517,-13.276458,9.390545,-13.367391,-3.3775084
-18.70169,24.47532,-1.4382449,5.150076,0.7225105,-0.48350406,-0.1452432,-0.81385434,-0.47547334,-0.06410109,0.76263195,-0.52111167,0.560437,-0.2452656,0.8945312,-0.9780796,-1.8933737,-1.3496531,1.9530287,1.7107203,-0.9091616,0.9611852,-0.9383734,-1.8853424,-1.411039,1.9965491,1.6644021,-0.8846599,-1.4840747,-0.784299,0.120657265,1.4553833,-0.8377192,0.94395274,-0.010571809,0.107372284,-0.5423279,0.710624,-1.5652229,-0.32322517,-0.18249401,0.09196091,-0.56261444,0.67818224,0.7705563,0.0321262,0.12632643,0.6239011,-1.3413477,-0.34190887,0.056343347,0.0,1.0,0.0,0.0,0.0,0.0,0.0,-0.75737226,0.14232787,-0.16062397,-4.38993,-0.07288456,-16.580368,-12.967992,8.518326,-11.432325,-3.238645
-7.2275224,33.930374,7.212208,5.5149527,0.51890934,-0.2403717,-0.03297161,-0.80343556,-0.4584497,0.028208446,0.7685829,-0.48164862,0.56564325,-0.29775488,0.8808417,-0.98421836,-1.8825215,-1.3341807,1.9483843,1.7209665,-0.9144354,0.9463041,-0.94627935,-1.8848007,-1.3971306,1.988708,1.6731225,-0.8850118,-1.4895092,-0.7929233,0.03193716,1.369633,-0.7666241,0.8483422,-0.0434266,0.09172821,-0.5455551,0.70806396,-1.563658,-0.32290202,-0.2804975,0.078567505,-0.56608963,0.6783122,0.7781261,0.026051553,0.12702975,0.61457664,-1.3428369,-0.3392688,-0.0052472176,0.0,1.0,0.0,0.0,0.0,0.0,0.0,-0.7417282,0.14555511,-0.15806395,-0.55787563,-0.90880394,-8.8971,-8.515787,6.9806576,-9.459591,-3.2928076
1.2442231,45.324635,16.346756,7.301531,0.4763497,0.14350152,0.049505092,-0.79882205,-0.46076456,0.097178854,0.7641585,-0.46359888,0.57438004,-0.32035655,0.8664219,-0.9923558,-1.8750827,-1.3207147,1.9423481,1.7305605,-0.91704744,0.9315347,-0.95431256,-1.884475,-1.3837653,1.9813948,1.6809844,-0.8857005,-1.4718204,-0.8066593,0.026037537,1.3231828,-0.73078436,0.7595653,-0.08251946,0.07580948,-0.5485115,0.70558465,-1.655459,-0.22541824,0.02380539,0.06524277,-0.5694237,0.67810076,0.7855975,0.020706238,0.12753189,0.6050977,-1.3293408,-0.32123077,-0.033052567,0.0,1.0,0.0,0.0,0.0,0.0,0.0,-0.72580945,0.1485115,-0.15558463,1.9024134,-1.3956547,-1.5774645,-4.9726963,1.6441584,-9.872127,-4.7714868
8.020878,68.92406,29.2036,11.25965,0.24104375,0.6943556,0.043281056,-0.79617155,-0.37291083,0.15877646,0.77431786,-0.4903575,0.5855068,-0.33774912,0.85191756,-0.9916037,-1.8685974,-1.3063335,1.932359,1.7395351,-0.91947544,0.9169931,-0.9620564,-1.883634,-1.3705665,1.9742036,1.688083,-0.8867582,-1.4484404,-0.76409686,0.104139134,1.3188812,-0.71636593,0.6939386,-0.11362867,0.05901718,-0.5504761,0.7061584,-1.6864697,-0.18648629,0.06708228,0.052173615,-0.57234955,0.67804134,0.79290336,0.015568478,0.12815887,0.59551406,-1.3023562,-0.2733674,-8.66302e-05,0.0,1.0,0.0,0.0,0.0,0.0,0.0,-0.70901716,0.15047607,-0.15615839,2.2916555,4.127276,7.9786005,-0.44476986,1.1019707,-6.369221,-3.1665192
4.168782,67.921974,27.485048,12.948611,0.4395431,0.69281304,-0.03178469,-0.8005591,-0.3772688,0.114809945,0.7653834,-0.47611567,0.59790146,-0.34385633,0.8369372,-0.9997833,-1.8721529,-1.2940282,1.926592,1.7478732,-0.92114383,0.90263647,-0.9693625,-1.8821616,-1.3573049,1.9671004,1.6946244,-0.8880925,-1.4314181,-0.7197788,0.16210857,1.3284929,-0.7092633,0.64144313,-0.14020155,0.04193878,-0.5520096,0.7071149,-1.7145939,-0.14169659,0.10411431,0.039310455,-0.5748329,0.6782973,0.80006045,0.010415471,0.12898532,0.5857965,-1.2841682,-0.23083134,0.031192347,0.0,1.0,0.0,0.0,0.0,0.0,0.0,-0.69193876,0.15200958,-0.15711486,1.683569,4.307306,5.9358687,0.98507404,0.4307747,-5.0792217,-2.6968508
-2.588207,68.71475,24.513803,15.234319,0.537699,0.6126567,-0.16152391,-0.8077014,-0.3109086,0.03272406,0.7697451,-0.49443513,0.5946102,-0.31569675,0.82186633,-1.0004534,-1.8788892,-1.2803304,1.9176569,1.7540854,-0.9196622,0.88835806,-0.9759896,-1.8806319,-1.343881,1.9600164,1.7007437,-0.8896233,-1.4266951,-0.6440883,0.15017991,1.3472052,-0.70824707,0.6037018,-0.15727724,0.02476883,-0.5531273,0.70834017,-1.7115288,-0.10552707,0.12704967,0.026546478,-0.5769386,0.67881876,0.80714947,0.005384861,0.13021763,0.57578135,-1.2761579,-0.1934284,0.056335732,0.0,1.0,0.0,0.0,0.0,0.0,0.0,-0.6747688,0.15312728,-0.15834016,0.46904087,7.4488163,-1.1242032,1.9331217,0.053572655,-3.257823,-1.6885251
-9.055026,64.21816,19.077703,16.290075,0.6123027,0.36739343,-0.28143358,-0.8053391,-0.2605105,-0.073384404,0.7832381,-0.5022462,0.5912034,-0.31799787,0.80782413,-1.0020406,-1.8879703,-1.2655572,1.9097917,1.759864,-0.9214231,0.8740892,-0.9817383,-1.8798842,-1.3302206,1.9529213,1.7065711,-0.8912903,-1.4269375,-0.552134,0.04972149,1.3725832,-0.7101754,0.5761971,-0.17009158,0.0077934265,-0.5540199,0.7096321,-1.6933967,-0.0840967,0.12955531,0.013793945,-0.578743,0.6794507,0.8142606,0.00074706704,0.13205925,0.56527805,-1.2778779,-0.1676071,0.06295949,0.0,1.0,0.0,0.0,0.0,0.0,0.0,-0.6577934,0.15401992,-0.15963209,-0.003862381,9.082913,-10.035012,2.6270628,-0.31231642,-2.6024103,-1.3712347
-12.558065,59.85339,15.202224,16.054752,0.63864225,0.19562775,-0.31611812,-0.80562425,-0.21748911,-0.15828022,0.78464,-0.4859981,0.59519017,-0.32215104,0.79352677,-1.0034872,-1.8957123,-1.2517565,1.9043214,1.7660902,-0.9235054,0.8597955,-0.9865439,-1.8805519,-1.3163427,1.9458549,1.7121671,-0.89306885,-1.4300904,-0.4570724,-0.10562376,1.3932306,-0.70557475,0.55432475,-0.18077594,-0.009029388,-0.55472183,0.7108601,-1.678516,-0.06545627,0.11956743,0.0009727478,-0.58034897,0.68003213,0.8214389,-0.003244483,0.13458933,0.5541779,-1.2849069,-0.14940816,0.054210324,0.0,1.0,0.0,0.0,0.0,0.0,0.0,-0.6409706,0.15472183,-0.16086006,-0.29113293,9.39551,-15.547243,2.153325,0.38850307,-2.0899415,-1.1777639
-11.754028,59.603317,15.085348,15.26335,0.5449124,0.17868304,-0.2678512,-0.80248845,-0.1736181,-0.20795752,0.78903717,-0.49589366,0.6031992,-0.32349178,0.7795467,-1.0039057,-1.9013476,-1.237439,1.8962655,1.772487,-0.925418,0.84548277,-0.9904244,-1.8827991,-1.3023008,1.9388114,1.7175809,-0.8949409,-1.4317169,-0.3654629,-0.26433942,1.4080536,-0.7042618,0.5372488,-0.189755,-0.025691986,-0.5552292,0.7119978,-1.6623387,-0.04573133,0.110762194,-0.011894226,-0.58177567,0.68050563,0.8286512,-0.006514583,0.13781752,0.5424951,-1.2891425,-0.12981632,0.043142524,0.0,1.0,0.0,0.0,0.0,0.0,0.0,-0.624308,0.15522918,-0.1619978,-0.15051365,9.038628,-15.849248,1.5429974,0.036287308,-1.656735,-1.0279417
-12.3733635,55.612083,13.094517,14.418045,0.51475716,0.11234629,-0.23100889,-0.80324185,-0.14473593,-0.3041612,0.79462934,-0.51059794,0.6093511,-0.31741711,0.7651586,-1.004898,-1.9132153,-1.2228379,1.8877516,1.778516,-0.92668265,0.8311557,-0.99350095,-1.8867111,-1.2881426,1.9317318,1.72285,-0.8968864,-1.4329505,-0.28885826,-0.43324825,1.4186713,-0.7093744,0.52354497,-0.19665302,-0.042201996,-0.5555458,0.7129982,-1.6471478,-0.027187366,0.09546215,-0.024822235,-0.5830231,0.68079513,0.8358566,-0.009001976,0.14172295,0.53026134,-1.2947513,-0.11336556,0.022701696,0.0,1.0,0.0,0.0,0.0,0.0,0.0,-0.607798,0.1555458,-0.1629982,-0.10998249,7.536107,-16.850662,1.1096478,-0.60327053,-1.3653278,-0.8326113
-12.7157955,45.645817,9.620618,12.746417,0.6727283,0.034981012,-0.16340604,-0.8010118,-0.16941111,-0.36908787,0.79620147,-0.48923427,0.6100078,-0.31086114,0.7510545,-1.010442,-1.9236199,-1.2085224,1.8828084,1.7838508,-0.9279725,0.8168325,-0.9961703,-1.8921968,-1.2739118,1.9246596,1.7279963,-0.8988863,-1.4320606,-0.25993213,-0.5867574,1.4247316,-0.70683646,0.51140434,-0.20148171,-0.058589935,-0.555706,0.71372986,-1.636277,-0.012577107,0.064838685,-0.037857056,-0.5841675,0.6807593,0.8430191,-0.010689901,0.14608143,0.5175564,-1.3078604,-0.104791805,-0.013483331,0.0,1.0,0.0,0.0,0.0,0.0,0.0,-0.59141004,0.15570602,-0.16372985,0.11444092,2.783811,-15.292621,0.66423416,0.17250776,-1.2590766,-0.6015122
-10.4387045,46.39,10.983748,12.04965,0.6385284,0.12209022,-0.085393324,-0.79621077,-0.14443105,-0.41545036,0.80031765,-0.5018014,0.6307046,-0.28121257,0.7372114,-1.0106134,-1.9337418,-1.1938801,1.8744795,1.7910668,-0.92700756,0.8025436,-0.9986441,-1.8989966,-1.2596334,1.9175854,1.7330532,-0.90090334,-1.4277987,-0.24363974,-0.71057135,1.4290786,-0.7081361,0.50351834,-0.20221627,-0.07485199,-0.55570984,0.7141918,-1.6231956,0.0038523127,0.03918101,-0.051006317,-0.58519745,0.68038857,0.85007423,-0.011666357,0.1507657,0.50448716,-1.3179419,-0.091890976,-0.04578448,0.0,1.0,0.0,0.0,0.0,0.0,0.0,-0.575148,0.15570983,-0.16419178,0.43530464,1.5102863,-12.266005,0.4762888,-0.25550127,-0.8606553,-0.19440055
-7.3956475,48.58367,13.893312,11.7174015,0.7631246,0.3077307,-0.014096227,-0.79448926,-0.15332235,-0.40233126,0.804301,-0.48066536,0.63417596,-0.29537275,0.72309464,-1.0139763,-1.9392297,-1.1792033,1.8695189,1.7964708,-0.9304406,0.7883033,-1.0011036,-1.9065574,-1.245313,1.910561,1.7380508,-0.9029309,-1.4228165,-0.24726309,-0.7705792,1.4331217,-0.7011515,0.49809107,-0.20327644,-0.09096527,-0.5555229,0.7144741,-1.6073413,0.023263393,0.023716677,-0.06424713,-0.5860481,0.6797812,0.85695845,-0.012164406,0.1556013,0.49118462,-1.3262818,-0.07214458,-0.06643454,0.0,1.0,0.0,0.0,0.0,0.0,0.0,-0.5590347,0.15552291,-0.16447407,0.4790306,-0.4918307,-5.799389,0.43013096,0.49934387,-0.6409347,-0.20346642
-7.0059156,50.482292,14.930872,11.845707,0.7903811,0.38834798,0.016603887,-0.79709065,-0.14582787,-0.446883,0.80338097,-0.48553807,0.6355451,-0.27181613,0.70859426,-1.0156864,-1.9512458,-1.1649749,1.8620071,1.8016053,-0.93011254,0.77409166,-1.0036175,-1.9145817,-1.2309698,1.9035956,1.7430061,-0.9049489,-1.4207531,-0.25314477,-0.81219786,1.434809,-0.69582605,0.49427408,-0.20165595,-0.10690689,-0.5551338,0.7146264,-1.5897346,0.044101704,0.012120987,-0.07756424,-0.58667374,0.6789971,0.8636349,-0.012306268,0.16051476,0.47772184,-1.333522,-0.048622556,-0.082875095,0.0,1.0,0.0,0.0,0.0,0.0,0.0,-0.5430931,0.15513381,-0.16462636,0.17492771,-0.7270545,-3.9224505,0.18832684,0.30001402,-0.4927516,0.06572306
-1.7164454,60.69757,21.048077,11.980467,0.85747236,0.6350636,0.07865693,-0.7913075,-0.12921734,-0.38323405,0.7975696,-0.4346422,0.6415862,-0.29715782,0.6949609,-1.0165392,-1.952905,-1.1512128,1.8601314,1.8071647,-0.93466467,0.7599133,-1.006118,-1.9225239,-1.2166532,1.8968322,1.747944,-0.9069659,-1.4172316,-0.24936374,-0.78703433,1.4306164,-0.6708557,0.49317023,-0.20203531,-0.122612,-0.55448914,0.7148314,-1.5641427,0.07115322,0.023389699,-0.09086609,-0.5869713,0.6782341,0.8700534,-0.012358156,0.16540177,0.464216,-1.3305427,-0.012167108,-0.074440904,0.0,1.0,0.0,0.0,0.0,0.0,0.0,-0.527388,0.15448913,-0.1648314,0.2626419,0.21633804,2.8700352,-0.4566908,2.1528482,-0.23819804,-0.12705922
-0.7738292,62.55551,21.929138,12.064325,0.89660174,0.66466,0.08451393,-0.79021645,-0.13219078,-0.38741928,0.7973967,-0.42789674,0.6414886,-0.30744132,0.6808917,-1.0193372,-1.9612658,-1.1369135,1.8540425,1.8120929,-0.93771005,0.7457666,-1.0085804,-1.9301113,-1.2023844,1.8903316,1.7528766,-0.90899533,-1.4141046,-0.24556687,-0.74813384,1.425391,-0.64440876,0.4929674,-0.20346528,-0.13804626,-0.5535698,0.71516985,-1.5364672,0.098829515,0.03753315,-0.104133606,-0.5868912,0.6775865,0.87619877,-0.012458173,0.17021021,0.45072052,-1.3250602,0.02602562,-0.06188879,0.0,1.0,0.0,0.0,0.0,0.0,0.0,-0.5119537,0.15356979,-0.16516984,0.21333694,0.21584928,4.268682,-0.56757927,2.2789001,-0.14881492,-0.22829771
-2.9664721,54.190357,18.114227,11.362638,1.0581263,0.53631973,0.080400944,-0.7920153,-0.17566746,-0.395175,0.79363537,-0.38876277,0.62832147,-0.2832973,0.66656506,-1.0261472,-1.9696288,-1.1230208,1.8514553,1.8157088,-0.93732506,0.73163503,-1.0112107,-1.9373649,-1.1881746,1.8841653,1.757792,-0.91102105,-1.4130636,-0.26917696,-0.71681875,1.4192796,-0.6083537,0.49071622,-0.20244738,-0.15324783,-0.55241394,0.71551436,-1.5146459,0.12147301,0.03367867,-0.11742401,-0.5864868,0.676952,0.8820994,-0.01257309,0.17480569,0.43724748,-1.3287147,0.055954255,-0.06440616,0.0,1.0,0.0,0.0,0.0,0.0,0.0,-0.49675214,0.15241393,-0.16551435,0.034332275,-2.4994373,3.4629107,-0.61593056,3.2990098,-0.35104752,0.05068779
1.1156907,66.16405,22.787031,12.029567,0.7526951,0.62235564,0.11857869,-0.779484,-0.11328697,-0.36663815,0.7962065,-0.4526343,0.6353914,-0.24239738,0.65368664,-1.0225394,-1.9740287,-1.108554,1.8389019,1.8213311,-0.9352608,0.71756357,-1.013795,-1.9442675,-1.1740068,1.8781265,1.7627034,-0.91300374,-1.4055798,-0.25539517,-0.6801987,1.4156895,-0.6036043,0.49098986,-0.19716448,-0.16814804,-0.55099106,0.71597946,-1.4817677,0.149515,0.0514083,-0.13060379,-0.5857086,0.67642915,0.887709,-0.012732227,0.17938705,0.42382872,-1.3138785,0.09552062,-0.048749473,0.0,1.0,0.0,0.0,0.0,0.0,0.0,-0.48185194,0.15099105,-0.16597944,0.6383896,1.2127519,4.060149,-0.41906834,0.0936389,-0.076174736,0.4253924
2.4296274,63.303066,22.605392,11.55342,0.9282605,0.62604403,0.12800202,-0.776419,-0.16379412,-0.28970736,0.798678,-0.41444072,0.63501716,-0.2665347,0.63992167,-1.0301744,-1.9732382,-1.094139,1.8366824,1.8262051,-0.9396572,0.7035769,-1.0164329,-1.9505292,-1.1598467,1.8721788,1.7676178,-0.91495115,-1.3967186,-0.26718703,-0.60683686,1.4158589,-0.59302515,0.49127954,-0.19409867,-0.18273163,-0.54929733,0.71658945,-1.4499544,0.17602034,0.0650809,-0.14365005,-0.5845566,0.67606163,0.8930218,-0.013065224,0.1838922,0.4105179,-1.3012102,0.13308606,-0.03325637,0.0,1.0,0.0,0.0,0.0,0.0,0.0,-0.46726835,0.14929733,-0.16658944,0.7776737,-1.3319016,7.7563286,-0.028681755,0.66685677,-0.07399917,0.23995638
-3.0352578,60.76126,19.439589,12.4636,0.9542272,0.5390353,0.083184406,-0.7944092,-0.14548302,-0.34055033,0.7857114,-0.41341227,0.61784434,-0.22742695,0.624136,-1.0309812,-1.9845842,-1.0812755,1.8308376,1.8294022,-0.93769383,0.68957984,-1.0191149,-1.9563886,-1.1457323,1.8663129,1.7725166,-0.9168442,-1.4009426,-0.269126,-0.577856,1.4097736,-0.5856519,0.4892211,-0.18793681,-0.19701767,-0.54735565,0.71726656,-1.4215481,0.20035678,0.069068566,-0.15663528,-0.58303833,0.6757712,0.89807075,-0.013439761,0.18834905,0.3972565,-1.2958838,0.16735238,-0.028212652,0.0,1.0,0.0,0.0,0.0,0.0,0.0,-0.4529823,0.14735565,-0.16726655,-0.4994154,-0.34415126,3.2542229,-0.6224394,0.3954649,-0.30516386,0.5428821
-7.04455,52.538925,15.098518,12.304,1.077423,0.3953745,0.050424736,-0.7967341,-0.17810895,-0.34927076,0.78765184,-0.38591868,0.61165076,-0.20570134,0.60990644,-1.0369258,-1.9913157,-1.0669671,1.827721,1.8336817,-0.93741435,0.6755084,-1.0219549,-1.9621656,-1.1316655,1.860575,1.7773813,-0.91866475,-1.4093219,-0.28939107,-0.5768322,1.4057429,-0.57054096,0.48527163,-0.18023074,-0.21107864,-0.545208,0.7178391,-1.4004291,0.2199025,0.054688264,-0.16965103,-0.5812454,0.67540777,0.9029038,-0.013688131,0.19271468,0.38397688,-1.3022465,0.19405952,-0.03959948,0.0,1.0,0.0,0.0,0.0,0.0,0.0,-0.43892133,0.14520797,-0.16783911,-0.8781433,-2.1563768,0.3877282,-0.3739357,1.2425303,-0.4985094,0.71966946
-7.829164,50.62732,13.469304,11.90427,0.9846675,0.2945199,0.064420104,-0.7942042,-0.17704266,-0.36969092,0.7819521,-0.38737372,0.6005324,-0.1540351,0.59608793,-1.0396591,-1.9991347,-1.0534703,1.8218375,1.8374345,-0.93406826,0.6613682,-1.0249819,-1.9681333,-1.1176522,1.8549672,1.7821983,-0.9203758,-1.4157113,-0.30739915,-0.6027387,1.399861,-0.55825806,0.48011532,-0.16824567,-0.22493744,-0.542881,0.7182165,-1.38035,0.23741795,0.033770505,-0.18273163,-0.57920074,0.6748742,0.90753186,-0.013672862,0.19700181,0.37066057,-1.3086767,0.21776997,-0.058482923,0.0,1.0,0.0,0.0,0.0,0.0,0.0,-0.42506254,0.142881,-0.16821647,-0.66952705,-1.9261599,-2.3340344,-0.55139065,0.97960234,-0.6815016,1.1646867
-6.912835,43.2592,10.961571,10.213976,0.93784463,0.18489528,0.08958888,-0.78648025,-0.22583167,-0.36607644,0.7828553,-0.37987092,0.6087398,-0.14596805,0.58272016,-1.047565,-2.004741,-1.0393666,1.8169801,1.8430723,-0.93497264,0.6472194,-1.028375,-1.974364,-1.1036788,1.8494724,1.7869678,-0.9219695,-1.4146273,-0.3501586,-0.6290594,1.3965201,-0.54718095,0.47551125,-0.15644619,-0.23862839,-0.5404167,0.7182816,-1.3645371,0.25085554,-0.00066219695,-0.19590378,-0.57696533,0.67406046,0.9119618,-0.013343261,0.20114046,0.3573376,-1.3174789,0.23570581,-0.08944119,0.0,1.0,0.0,0.0,0.0,0.0,0.0,-0.4113716,0.14041671,-0.16828161,0.0893116,-4.3792906,-2.4032593,-0.28014183,0.90949535,-0.5770147,1.1557996
-2.9829464,50.023026,14.467172,10.361254,0.9850006,0.284252,0.11817029,-0.78034043,-0.22324318,-0.32133538,0.78528345,-0.35531858,0.6091727,-0.11059114,0.5691854,-1.0506994,-2.0064976,-1.0251505,1.8139405,1.847885,-0.9330286,0.6331269,-1.0321344,-1.9805968,-1.0897169,1.8441414,1.7917017,-0.92342883,-1.4075539,-0.38491258,-0.6204121,1.3961297,-0.5292451,0.47224417,-0.14241354,-0.25211334,-0.53779984,0.71810025,-1.3425828,0.26691762,-0.022288645,-0.20909882,-0.5745125,0.6730505,0.9161801,-0.012843073,0.20508046,0.34407994,-1.3178191,0.25913227,-0.10542545,0.0,1.0,0.0,0.0,0.0,0.0,0.0,-0.39788663,0.13779983,-0.16810024,0.6555319,-3.593862,1.1733055,-0.01707077,1.5116453,-0.40013194,1.3447046
-5.808751,42.7629,11.041443,9.780075,1.0313818,0.17960566,0.10346461,-0.7868892,-0.27161142,-0.3640259,0.77986807,-0.33276096,0.58756286,-0.09730359,0.554438,-1.0592955,-2.0169995,-1.0117301,1.8108653,1.8504579,-0.9331592,0.6190782,-1.0363706,-1.9868733,-1.0757703,1.8390249,1.7963834,-0.92475075,-1.4040673,-0.43691754,-0.62928134,1.3943113,-0.50639,0.46646518,-0.12875813,-0.26543045,-0.53504944,0.7175798,-1.3273414,0.279078,-0.059965625,-0.2223587,-0.57186127,0.6717746,0.92021227,-0.012139012,0.20874654,0.33088785,-1.3268869,0.2774497,-0.1356714,0.0,1.0,0.0,0.0,0.0,0.0,0.0,-0.38456953,0.13504943,-0.16757977,0.32742023,-5.302775,-0.63848495,-0.117468834,2.0664215,-0.7025957,1.3632417
-9.357631,39.726192,8.163085,9.940083,0.8555361,0.057429552,0.12014311,-0.78934014,-0.28608096,-0.44098195,0.7771415,-0.37196738,0.56726754,0.0046147252,0.5401442,-1.0649787,-2.0309715,-0.9980561,1.8018281,1.8531101,-0.9242893,0.60503906,-1.041099,-1.9935998,-1.0618502,1.8339822,1.8009918,-0.9258755,-1.4038738,-0.4851358,-0.68649286,1.3916184,-0.5040136,0.4587154,-0.10707512,-0.27861404,-0.53219223,0.71660167,-1.3149801,0.28871894,-0.10848973,-0.23574448,-0.5690613,0.6700918,0.92405975,-0.011000152,0.21223684,0.31772324,-1.3390634,0.29207006,-0.17982563,0.0,1.0,0.0,0.0,0.0,0.0,0.0,-0.37138593,0.13219222,-0.16660166,0.024056435,-4.9226046,-5.534911,-0.1714468,0.06972551,-0.89092255,2.1493526
-7.1334586,39.965458,8.324785,9.209952,0.6836411,0.0111413,0.16460249,-0.77135825,-0.3142904,-0.45007253,0.787039,-0.39818254,0.56647664,0.075755395,0.52790326,-1.072528,-2.0386071,-0.9831463,1.794164,1.8576394,-0.9183,0.5910736,-1.0463175,-2.0009286,-1.0479056,1.8288398,1.8055276,-0.9267444,-1.3940547,-0.53431207,-0.7477421,1.3956144,-0.5178889,0.45176333,-0.08027128,-0.29166794,-0.52924347,0.71513003,-1.3005999,0.29734194,-0.15702982,-0.24919891,-0.56612015,0.6679568,0.9276943,-0.009334372,0.21565276,0.30461425,-1.3454484,0.30513,-0.22545116,0.0,1.0,0.0,0.0,0.0,0.0,0.0,-0.35833204,0.12924346,-0.16513002,0.9788513,-5.0198317,-5.924213,0.4938364,-1.5660405,-0.7958412,2.640225
-5.817019,35.59441,7.461879,7.947008,0.7239728,-0.0027884245,0.18638359,-0.7654214,-0.3780273,-0.44086406,0.7870337,-0.37894228,0.56470644,0.09077688,0.51453143,-1.0841202,-2.045015,-0.9692022,1.7909455,1.8619982,-0.91766673,0.5772318,-1.0521959,-2.008706,-1.0339129,1.8235961,1.8099971,-0.92735416,-1.3808717,-0.60599643,-0.7871434,1.4008436,-0.52685934,0.44511372,-0.054566815,-0.30459595,-0.5262222,0.7131129,-1.2894673,0.3038279,-0.21392806,-0.26273727,-0.5630646,0.6653257,0.9311228,-0.0071979137,0.21889672,0.291621,-1.3538533,0.31647247,-0.2765204,0.0,1.0,0.0,0.0,0.0,0.0,0.0,-0.34540403,0.12622222,-0.16311288,1.3185501,-7.259941,-3.734529,0.6389141,-1.0707974,-0.77367425,2.5613234
-3.46806,38.184605,8.705478,7.392871,0.58021057,0.0464378,0.23877448,-0.75611293,-0.40106937,-0.45100436,0.78706044,-0.43406385,0.57348293,0.16707589,0.50162053,-1.0923028,-2.0538065,-0.9552069,1.7801898,1.8673453,-0.91064656,0.5635455,-1.0587705,-2.0167658,-1.0198762,1.8181217,1.8144156,-0.92767596,-1.3646095,-0.6749951,-0.8115598,1.4050738,-0.55473113,0.44065684,-0.024741722,-0.31738663,-0.52313614,0.71056104,-1.2743545,0.31074595,-0.2662448,-0.27630234,-0.5598831,0.6622097,0.93432325,-0.004640194,0.22198714,0.27881938,-1.354185,0.3296834,-0.32431605,0.0,1.0,0.0,0.0,0.0,0.0,0.0,-0.33261335,0.12313613,-0.16056103,1.6084433,-6.9982886,-2.1921039,0.52764416,-3.0033112,-0.549525,2.9625053
-8.438987,19.729967,2.1826167,5.156067,0.8034209,-0.09148091,0.2436513,-0.767644,-0.5273454,-0.47201297,0.77381575,-0.34782887,0.50907856,0.23510234,0.48678112,-1.111505,-2.0639672,-0.9424947,1.7833388,1.8653234,-0.90416574,0.54993755,-1.0664533,-2.0250475,-1.005861,1.8126309,1.8187324,-0.92767173,-1.359385,-0.7994079,-0.833438,1.4010092,-0.5473652,0.42844793,0.009053287,-0.3301239,-0.520031,0.7071861,-1.2733107,0.31109574,-0.357241,-0.2900467,-0.55661774,0.65839636,0.93736947,-0.0016237143,0.22460447,0.26624906,-1.3776963,0.33615157,-0.40148193,0.0,1.0,0.0,0.0,0.0,0.0,0.0,-0.31987607,0.12003097,-0.15718609,0.57263374,-12.498307,-2.0753622,-0.18043518,0.6523013,-1.3534725,3.4723706
-12.716394,12.903383,-0.6668264,4.774831,1.0192788,-0.1062696,0.22809088,-0.7774931,-0.59216756,-0.49651164,0.7635667,-0.26766917,0.4397218,0.3214528,0.47218823,-1.1256701,-2.0746987,-0.9295044,1.785864,1.8627045,-0.89552647,0.5362962,-1.0754999,-2.0335925,-0.99194217,1.8075039,1.8228751,-0.9272893,-1.3653833,-0.93990713,-0.86124283,1.389975,-0.50111437,0.40908474,0.04849751,-0.34284592,-0.516922,0.70286417,-1.2720376,0.3107847,-0.45716304,-0.30412674,-0.5532799,0.65372956,0.9403473,0.0018914841,0.22643709,0.2539084,-1.415149,0.34430295,-0.48976845,0.0,1.0,0.0,0.0,0.0,0.0,0.0,-0.30715406,0.11692199,-0.15286416,-0.50940514,-14.100647,-2.743125,-0.7936239,4.59975,-2.10222,4.107404
-2.6448603,25.937603,6.699268,3.9868479,1.2523059,0.16249853,0.26628447,-0.7531207,-0.63877374,-0.35814548,0.75774276,-0.18523729,0.4574775,0.37095758,0.4609841,-1.1393772,-2.069407,-0.9161679,1.7889802,1.8686229,-0.8901935,0.5226844,-1.0858797,-2.0416987,-0.9781587,1.8030808,1.8268481,-0.9265092,-1.3597198,-1.0709481,-0.7928042,1.3751421,-0.42327908,0.3927662,0.088578254,-0.3555565,-0.51381683,0.6975438,-1.2707658,0.31047398,-0.55698514,-0.31845474,-0.5497894,0.6484179,0.94328654,0.0054915384,0.22726063,0.24193557,-1.4337649,0.36292827,-0.5468044,0.0,1.0,0.0,0.0,0.0,0.0,0.0,-0.2944435,0.11381683,-0.14754379,0.5736351,-13.174915,7.08102,-1.2650251,7.576537,-1.8160045,4.1996
6.1503687,38.00737,12.717359,3.0320299,1.2247876,0.3752373,0.30293208,-0.7418241,-0.6868795,-0.26341474,0.7343452,-0.1658465,0.46768734,0.36536002,0.44850197,-1.1545676,-2.0680401,-0.9047242,1.7864962,1.8736169,-0.8899732,0.5091882,-1.0974382,-2.0486073,-0.9646169,1.7994167,1.8306977,-0.9253815,-1.3463278,-1.1844738,-0.65597016,1.3472748,-0.3483939,0.38252524,0.12090914,-0.36825943,-0.5106659,0.6915253,-1.2704264,0.31898025,-0.59921,-0.332798,-0.5460663,0.64271563,0.94618195,0.00875031,0.2270287,0.23047996,-1.4300784,0.38805205,-0.58048666,0.0,1.0,0.0,0.0,0.0,0.0,0.0,-0.28174055,0.11066589,-0.14152527,1.274085,-11.439657,14.100969,-2.6583195,7.114005,-1.2247622,3.4384756
6.6998997,46.100777,14.18362,3.4249628,0.7847914,0.42335325,0.33224288,-0.7479326,-0.7028099,-0.276805,0.70421743,-0.26468933,0.42506412,0.37505212,0.4343949,-1.1677192,-2.0762877,-0.89419514,1.7729478,1.8732041,-0.8878763,0.49579084,-1.1098589,-2.0543315,-0.95146364,1.7960689,1.8344371,-0.9239664,-1.3378582,-1.2614822,-0.543166,1.3049675,-0.33089504,0.3708893,0.14905508,-0.3808937,-0.5073967,0.6852495,-1.2565671,0.32896554,-0.63601327,-0.34697723,-0.5420799,0.63671416,0.94897395,0.011716979,0.22606157,0.21956128,-1.4095781,0.4138944,-0.6093146,0.0,1.0,0.0,0.0,0.0,0.0,0.0,-0.26910627,0.10739669,-0.1352495,0.77261925,-7.806778,11.684334,-4.138732,1.5106142,-1.2732923,3.0099332
8.967534,55.632195,16.412737,4.318945,0.49852675,0.4136384,0.33539185,-0.72970676,-0.7100253,-0.25398293,0.69713944,-0.3010896,0.41380194,0.40555385,0.42282015,-1.1808614,-2.0797298,-0.8817497,1.76596,1.8758173,-0.88341105,0.48253232,-1.1227735,-2.0591376,-0.9387052,1.7926577,1.838072,-0.922275,-1.3221614,-1.3019253,-0.45851624,1.2662295,-0.34581086,0.3609088,0.17598906,-0.39320755,-0.5040436,0.67869174,-1.2221714,0.33733854,-0.66055566,-0.3608513,-0.5378494,0.63050705,0.95160115,0.014529818,0.22471939,0.2091535,-1.3749285,0.43789938,-0.62761986,0.0,1.0,0.0,0.0,0.0,0.0,0.0,-0.25679243,0.10404357,-0.12869173,1.4763117,-4.1678905,8.902634,-3.837061,-1.932019,-1.0726869,2.7267277
3.0799723,57.3794,14.3145,6.4354725,0.36508405,0.29105312,0.2785324,-0.7315269,-0.71218485,-0.31674957,0.6886866,-0.30799183,0.3694196,0.44354373,0.40937963,-1.193992,-2.0908124,-0.86983657,1.7618586,1.875014,-0.8779206,0.46939778,-1.1358789,-2.063707,-0.92626995,1.7890118,1.8415848,-0.92031837,-1.3107574,-1.3136314,-0.45546532,1.2362386,-0.3718953,0.34784174,0.20218907,-0.4051857,-0.50061417,0.67188525,-1.1887531,0.3446769,-0.6859144,-0.37441635,-0.53339386,0.6240777,0.9540359,0.017498525,0.22329459,0.1991203,-1.3449404,0.4591479,-0.6510809,0.0,1.0,0.0,0.0,0.0,0.0,0.0,-0.24481428,0.10061416,-0.12188524,1.0787487,-1.3031483,0.650084,-2.9216528,-2.9780626,-1.3861775,2.613753
3.3496904,63.29906,16.131002,7.8891554,0.7126362,0.30857456,0.2096632,-0.72021943,-0.71763974,-0.26070946,0.6791243,-0.19619374,0.34023932,0.4726686,0.39737582,-1.2076429,-2.089778,-0.85835755,1.7693925,1.8756087,-0.8730515,0.45639342,-1.1489958,-2.0682268,-0.9140771,1.7854552,1.8449551,-0.9181077,-1.2972082,-1.3115548,-0.4494527,1.213808,-0.35146958,0.33316076,0.22742091,-0.4168167,-0.49710846,0.6648895,-1.153807,0.35262656,-0.7024264,-0.38770294,-0.5287056,0.6175186,0.9563147,0.020604644,0.2217576,0.18937078,-1.3181629,0.48274058,-0.66064835,0.0,1.0,0.0,0.0,0.0,0.0,0.0,-0.23318326,0.09710845,-0.1148895,1.2844801,0.06554127,0.9844184,-2.1852493,1.6400993,-1.5764654,2.523017
5.8003016,62.10941,16.487001,6.382025,1.17012,0.28064102,0.17811647,-0.7130106,-0.73343927,-0.23260427,0.6157911,0.07571827,0.30614763,0.46184376,0.38509235,-1.2223396,-2.0914872,-0.852498,1.793027,1.8755698,-0.8719233,0.443525,-1.1621164,-2.0726135,-0.90232104,1.7829595,1.8481607,-0.91567963,-1.2836288,-1.31255,-0.43399897,1.1629286,-0.21674931,0.31586796,0.2481512,-0.42814255,-0.49352837,0.65768516,-1.1244895,0.35989076,-0.72492784,-0.40078735,-0.523777,0.61088276,0.9585541,0.023596954,0.21965571,0.17991266,-1.2995526,0.50710326,-0.66748387,0.0,1.0,0.0,0.0,0.0,0.0,0.0,-0.22185743,0.09352836,-0.10768515,1.2775183,-0.2289772,1.9167542,-5.0543785,13.086444,-1.8861651,2.1343172
9.68827,48.855934,11.589411,0.0829134,0.5975425,-0.0913977,0.34033483,-0.7006266,-0.7385946,-0.36510855,0.48573557,0.24059767,0.07544209,0.44931242,0.37346232,-1.2359759,-2.1091244,-0.8537475,1.8070192,1.8557049,-0.8707484,0.4308158,-1.1752657,-2.0774808,-0.8916179,1.7822778,1.8510307,-0.9130826,-1.2669804,-1.3159548,-0.503743,1.039486,-0.019361628,0.2768409,0.26385307,-0.43924332,-0.48992157,0.6500375,-1.1045305,0.36075163,-0.77688205,-0.4136696,-0.51872253,0.6039144,0.96082264,0.026706517,0.21658953,0.1708667,-1.2786368,0.51507604,-0.7095408,0.0,1.0,0.0,0.0,0.0,0.0,0.0,-0.21075666,0.089921564,-0.100037515,1.5849829,-0.42943954,-6.76986,-12.3200655,19.481993,-4.061514,1.6420007
14.056078,45.175785,9.883808,-2.7910926,-0.12645167,-0.33413208,0.4547447,-0.673,-0.7321981,-0.43885508,0.44414374,0.18007973,-0.099895634,0.4714586,0.3635158,-1.2484854,-2.1213663,-0.8472035,1.8002858,1.8410411,-0.86593676,0.41836646,-1.1884168,-2.0834312,-0.88222885,1.783171,1.8533989,-0.910336,-1.2378575,-1.3150669,-0.6246361,0.90533024,0.12498209,0.22310008,0.27836064,-0.45012665,-0.48634338,0.6418223,-1.0821078,0.3567936,-0.8347385,-0.42624664,-0.5136986,0.5964019,0.9630732,0.030330056,0.21265052,0.16232626,-1.244932,0.50836223,-0.7678418,0.0,1.0,0.0,0.0,0.0,0.0,0.0,-0.19987333,0.08634338,-0.09182227,2.831459,0.015974045,-11.935687,-13.402796,14.222839,-5.5031986,1.4802396
3.1707225,45.516197,7.3913207,2.2409673,-0.2987968,-0.39480972,0.33043873,-0.67995304,-0.7319027,-0.53121394,0.49187285,-0.0022984792,-0.28381336,0.4984326,0.35037115,-1.2616072,-2.1365526,-0.83304155,1.7829412,1.8250176,-0.86049277,0.406137,-1.2015527,-2.0908961,-0.87367713,1.7845795,1.8551248,-0.9074449,-1.2180616,-1.3132153,-0.7867126,0.83886206,0.14560083,0.1552736,0.2926929,-0.46079254,-0.48280144,0.6330448,-1.0607516,0.35327294,-0.89081544,-0.43855667,-0.50873184,0.58827806,0.965204,0.03491051,0.20836563,0.15409774,-1.2201211,0.5023843,-0.8297791,0.0,1.0,0.0,0.0,0.0,0.0,0.0,-0.18920743,0.08280143,-0.08304477,1.9576311,0.09088516,-16.078854,-6.533134,1.8764496,-6.9415927,1.4258921
4.2225027,62.786022,13.650196,7.7969646,0.45107734,-0.19278717,0.14189172,-0.6449688,-0.71014875,-0.47858188,0.53736806,0.11228734,-0.33791614,0.56349206,0.3416401,-1.2725676,-2.1387544,-0.8199403,1.7958082,1.8213332,-0.8510957,0.39419982,-1.2145685,-2.099452,-0.86523795,1.7862167,1.856187,-0.90437824,-1.1857843,-1.2979882,-0.87731177,0.84569174,0.16887173,0.089324705,0.31119296,-0.47116852,-0.47927475,0.6239657,-1.0296471,0.3523905,-0.9119644,-0.45063782,-0.5037575,0.579859,0.9671976,0.040208917,0.20396687,0.14597803,-1.1979338,0.50593644,-0.8483096,0.0,1.0,0.0,0.0,0.0,0.0,0.0,-0.17883146,0.079274744,-0.07396567,3.1657457,1.401186,-8.740843,0.71629286,2.0338626,-6.800461,1.8041551
3.1651733,64.64127,14.990396,8.183911,0.8675118,0.025667131,0.11667949,-0.65986264,-0.7241236,-0.46346843,0.4604505,0.2234615,-0.3942432,0.55665606,0.32821354,-1.2869809,-2.145799,-0.8191929,1.8085629,1.8167627,-0.8487126,0.38245767,-1.2275003,-2.108442,-0.8568722,1.7883062,1.8566111,-0.9011454,-1.1706038,-1.29203,-0.90502024,0.8335729,0.22131212,0.026135283,0.32726866,-0.48124695,-0.47574425,0.6147024,-0.99969035,0.35318223,-0.92935234,-0.46253586,-0.4986744,0.57132715,0.9691006,0.045842316,0.19927968,0.13794966,-1.1798873,0.51855814,-0.85717607,0.0,1.0,0.0,0.0,0.0,0.0,0.0,-0.16875303,0.07574424,-0.06470239,1.4460087,0.47512054,-2.3997426,-1.194191,4.900995,-6.5500007,1.5914142
-1.4893389,67.32517,15.309576,9.547677,1.0663345,0.23681724,0.10500407,-0.6825357,-0.71159655,-0.4757496,0.41999587,0.21752752,-0.4776132,0.56268287,0.3142041,-1.2986599,-2.156017,-0.8148726,1.810059,1.8088498,-0.8448771,0.3706845,-1.2403463,-2.1174786,-0.8487878,1.790851,1.8564069,-0.8977651,-1.1797673,-1.2824985,-0.9020973,0.80016434,0.26425964,-0.036569707,0.34154218,-0.49102402,-0.47219276,0.60529315,-0.9699246,0.35550097,-0.942928,-0.47426224,-0.49339485,0.5627476,0.9709312,0.0516518,0.1942138,0.13002199,-1.1639181,0.54037476,-0.8604089,0.0,1.0,0.0,0.0,0.0,0.0,0.0,-0.15897596,0.07219276,-0.055293143,-0.98376274,0.8281946,0.6863713,-3.3162951,3.906256,-6.5101,1.4160991
-2.0143144,78.62984,18.89453,12.846745,1.4153196,0.48183823,0.019120581,-0.6754165,-0.6872395,-0.4178854,0.45856297,0.18998541,-0.46441418,0.5856341,0.30314285,-1.3090702,-2.1592672,-0.8029315,1.8098495,1.8099655,-0.8392017,0.35880122,-1.2530054,-2.1261032,-0.84084165,1.7936519,1.855655,-0.8942434,-1.1914946,-1.260794,-0.84766155,0.79275113,0.28399363,-0.08884841,0.35556245,-0.50045395,-0.4686165,0.5959196,-0.9334177,0.35827717,-0.93379927,-0.4858055,-0.48784065,0.5543267,0.97268033,0.057401143,0.1888884,0.12214457,-1.1454562,0.5698378,-0.8381512,0.0,1.0,0.0,0.0,0.0,0.0,0.0,-0.14954603,0.06861648,-0.045919597,-1.2656927,2.0354748,5.936408,-0.7676482,1.521635,-5.468274,1.3556302
7.9685655,84.37013,22.4879,10.456901,1.3119919,0.60917026,0.10499502,-0.6605576,-0.6787444,-0.31956103,0.40731916,0.21089002,-0.46104464,0.57602125,0.29274544,-1.3208798,-2.1580594,-0.80010974,1.8147409,1.8095505,-0.8366413,0.34687644,-1.2654299,-2.133713,-0.8331406,1.7966263,1.8544532,-0.8906033,-1.19322,-1.2365656,-0.73031926,0.7621734,0.30044764,-0.13113731,0.36656097,-0.50945663,-0.4650402,0.58675104,-0.8888228,0.35708785,-0.9095616,-0.49704742,-0.48203468,0.5462301,0.97435325,0.062767975,0.18330011,0.11444233,-1.110618,0.5935627,-0.8021173,0.0,1.0,0.0,0.0,0.0,0.0,0.0,-0.14054334,0.0650402,-0.036751032,-0.3067255,2.310419,12.276149,-3.175819,1.1678159,-4.415292,1.0218561
21.81801,92.61815,27.514925,7.3910756,1.2224813,0.7097338,0.2186616,-0.64192796,-0.65750587,-0.16768056,0.3514184,0.24712542,-0.48357284,0.5801736,0.28268364,-1.3311805,-2.150481,-0.7979988,1.8213389,1.806096,-0.83258593,0.3350494,-1.2775606,-2.1395528,-0.82597655,1.7998323,1.8528776,-0.88686496,-1.179802,-1.2053492,-0.53300816,0.7003337,0.32588995,-0.16667028,0.37593743,-0.5179329,-0.46151924,0.5779932,-0.83344203,0.35009247,-0.86321765,-0.50779724,-0.47605896,0.5386446,0.9759781,0.06733857,0.17734757,0.1071449,-1.0559038,0.607191,-0.7458408,0.0,1.0,0.0,0.0,0.0,0.0,0.0,-0.13206708,0.061519235,-0.027993202,1.1663675,3.0355453,20.315052,-6.4082146,2.0491123,-3.6586702,0.8249819
14.179955,91.026306,25.007994,9.604698,1.2326233,0.6725067,0.16194405,-0.6642829,-0.6316192,-0.18702726,0.34626383,0.22417212,-0.5229645,0.59021866,0.2686211,-1.3407226,-2.1582556,-0.7913502,1.8222495,1.8005812,-0.82784307,0.32326528,-1.2893175,-2.1437795,-0.8193857,1.8031836,1.8509609,-0.8830379,-1.178368,-1.1661806,-0.38428068,0.6448556,0.33688626,-0.20016666,0.3846292,-0.52589417,-0.45807076,0.5696616,-0.78361547,0.3429367,-0.82278425,-0.5180626,-0.46992302,0.5315673,0.97755134,0.071186155,0.1711199,0.10021842,-1.011148,0.6228647,-0.69701207,0.0,1.0,0.0,0.0,0.0,0.0,0.0,-0.12410581,0.05807075,-0.019661605,0.024461746,3.8284302,15.3354225,-5.6795716,0.6957352,-3.4452975,0.78455806
29.476553,109.56915,32.745266,10.263029,1.2864254,0.71691066,0.14793217,-0.5946686,-0.5777277,0.026472226,0.3807047,0.19158143,-0.5158182,0.5992413,0.26379842,-1.3470902,-2.1411324,-0.7813152,1.8223417,1.799379,-0.8231138,0.31179497,-1.3005079,-2.1459918,-0.81305426,1.8065178,1.8487674,-0.8791288,-1.1370809,-1.1035894,-0.16490111,0.6284648,0.33081293,-0.2259503,0.39247304,-0.53323746,-0.4547596,0.56206465,-0.717968,0.32715267,-0.7384987,-0.5277405,-0.46373367,0.52528775,0.97906643,0.07405183,0.16483112,0.09367984,-0.9477004,0.6247099,-0.6067726,0.0,1.0,0.0,0.0,0.0,0.0,0.0,-0.11676252,0.05475959,-0.012064636,3.9752245,6.1736345,22.496773,-1.8698096,-1.0373235,-2.5988102,0.6331265
41.558384,109.46549,35.450893,7.345005,1.4649081,0.63797843,0.1673395,-0.5519089,-0.59069484,0.23311827,0.35759038,0.31845686,-0.5226182,0.60384953,0.25660408,-1.3595774,-2.12268,-0.77729523,1.8383635,1.7965056,-0.8187439,0.30092785,-1.311231,-2.1454692,-0.806843,1.8101419,1.846349,-0.87514716,-1.0703709,-1.0621986,0.12690389,0.6179871,0.3714463,-0.24709743,0.39958924,-0.5399132,-0.451643,0.5553901,-0.65102434,0.30626085,-0.64376014,-0.5367584,-0.45760536,0.51998305,0.9805957,0.075446635,0.15831545,0.087613575,-0.8825894,0.6156445,-0.50672364,0.0,1.0,0.0,0.0,0.0,0.0,0.0,-0.1100868,0.051642984,-0.0053901076,6.536865,4.0514946,29.75877,-1.248002,3.635925,-2.1074176,0.5791724
51.288506,106.36185,35.953747,4.2414594,1.4506338,0.4189888,0.1925737,-0.48775434,-0.5747986,0.34521118,0.34669033,0.4841929,-0.52225584,0.6164219,0.2521524,-1.3687109,-2.110948,-0.77217394,1.8585612,1.7941234,-0.813505,0.29094812,-1.3216146,-2.1420324,-0.8007156,1.8146691,1.8437512,-0.8710939,-0.9742077,-1.0308625,0.4181719,0.6106321,0.47842067,-0.26403153,0.40680784,-0.54593277,-0.44877052,0.54968375,-0.58609533,0.2809469,-0.54789346,-0.5451431,-0.45165253,0.5156566,0.9822081,0.07506986,0.15131044,0.082079105,-0.8194309,0.59394115,-0.4097404,0.0,1.0,0.0,0.0,0.0,0.0,0.0,-0.10406721,0.048770517,0.00031626225,9.518087,3.0280113,29.708714,-0.85653067,10.282641,-1.6696692,0.60646534
49.043816,103.94644,33.491096,3.3733473,1.1817404,0.28256065,0.24919145,-0.45898685,-0.51329386,0.36296922,0.28243577,0.5950928,-0.49833018,0.61931205,0.24504943,-1.372944,-2.1057355,-0.772472,1.8741784,1.7939181,-0.80916274,0.28190792,-1.3315214,-2.136319,-0.794925,1.8205352,1.8410242,-0.8669739,-0.8807836,-0.9775595,0.62399834,0.5685508,0.6214324,-0.27537984,0.4134276,-0.55133057,-0.44615746,0.5448836,-0.5256517,0.25500616,-0.4601538,-0.55290604,-0.44594383,0.51219106,0.98389465,0.073081985,0.1437532,0.07710627,-0.75936466,0.5684912,-0.327439,0.0,1.0,0.0,0.0,0.0,0.0,0.0,-0.09866941,0.04615745,0.005116403,9.287273,5.2110314,21.058786,-4.2196155,13.977909,-1.0683,0.5766213
