Afshin1997/kuka_rl_ros2/src/catch_and_throw/input_files/idealpd/polynomial_regressor/optimizer_files/env_156_data.csv
torque0,torque1,torque2,torque3,torque4,torque5,torque6,action0,action1,action2,action3,action4,action5,action6,set_target_0,set_target_1,set_target_2,set_target_3,set_target_4,set_target_5,set_target_6,joint_pos_0,joint_pos_1,joint_pos_2,joint_pos_3,joint_pos_4,joint_pos_5,joint_pos_6,joint_vel_0,joint_vel_1,joint_vel_2,joint_vel_3,joint_vel_4,joint_vel_5,joint_vel_6,tennisball_pos_0,tennisball_pos_1,tennisball_pos_2,tennisball_lin_vel_0,tennisball_lin_vel_1,tennisball_lin_vel_2,end_effector_pos_0,end_effector_pos_1,end_effector_pos_2,end_effector_rot_0,end_effector_rot_1,end_effector_rot_2,end_effector_rot_3,end_effector_lin_vel_0,end_effector_lin_vel_1,end_effector_lin_vel_2,obs_task_0,obs_task_1,obs_task_2,obs_task_3,obs_task_4,obs_task_5,obs_task_6,to_final_target_0,to_final_target_1,to_final_target_2,joint_acc_0,joint_acc_1,joint_acc_2,joint_acc_3,joint_acc_4,joint_acc_5,joint_acc_6
0.0,0.0,0.0,0.0,0.0,0.0,0.0,0.0,0.0,0.0,0.0,0.0,0.0,0.0,1.7802359,-1.0646509,-1.8151424,-1.1170107,1.9373155,1.1170107,-0.91629785,1.7802359,-1.0646509,-1.8151424,-1.1170107,1.9373155,1.1170107,-0.91629785,0.0,0.0,0.0,0.0,0.0,0.0,0.0,2.8923206,-0.42777252,0.30595413,-3.5417933,-0.10606544,4.999229,0.5304146,-0.45449448,0.693097,0.5745483,0.17512383,0.15255436,0.7848268,0.0,0.0,0.0,1.0,0.0,0.0,0.0,0.0,0.0,0.0,-3.5423207,0.027772516,0.24404588,0.0,0.0,0.0,0.0,0.0,0.0,0.0
0.0,0.0,0.0,0.0,0.0,0.0,0.0,0.0,0.0,0.0,0.0,0.0,0.0,0.0,1.7802359,-1.0646509,-1.8151424,-1.1170107,1.9373155,1.1170107,-0.91629785,1.7802359,-1.0646509,-1.8151424,-1.1170107,1.9373155,1.1170107,-0.91629785,0.0,0.0,0.0,0.0,0.0,0.0,0.0,2.8923206,-0.42777252,0.30595413,-3.5417933,-0.10606544,4.999229,0.5304146,-0.45449448,0.693097,0.5745483,0.17512383,0.15255436,0.7848268,0.0,0.0,0.0,1.0,0.0,0.0,0.0,0.0,0.0,0.0,-3.5423207,0.027772516,0.24404588,0.0,0.0,0.0,0.0,0.0,0.0,0.0
0.0,0.0,0.0,0.0,0.0,0.0,0.0,0.0,0.0,0.0,0.0,0.0,0.0,0.0,1.7802359,-1.0646509,-1.8151424,-1.1170107,1.9373155,1.1170107,-0.91629785,1.7802359,-1.0646509,-1.8151424,-1.1170107,1.9373155,1.1170107,-0.91629785,0.0,0.0,0.0,0.0,0.0,0.0,0.0,2.8923206,-0.42777252,0.30595413,-3.5417933,-0.10606544,4.999229,0.5304146,-0.45449448,0.693097,0.5745483,0.17512383,0.15255436,0.7848268,0.0,0.0,0.0,1.0,0.0,0.0,0.0,0.0,0.0,0.0,-3.5423207,0.027772516,0.24404588,0.0,0.0,0.0,0.0,0.0,0.0,0.0
-176.0,72.63587,-4.776657,110.0,10.874176,4.942081,-3.8694685,-0.82025534,0.37262994,-0.5508995,0.73669165,0.24544619,0.64960676,-0.5725172,1.6982104,-1.0273879,-1.8702323,-1.0433415,1.9618601,1.1819714,-0.9735496,1.7787958,-1.0624346,-1.820586,-1.1127669,1.9423242,1.1218935,-0.9184198,-0.19184487,0.2948052,-0.7250673,0.56626004,0.6670032,0.6491725,-0.28254926,2.8569298,-0.428833,0.3551725,-3.5382524,-0.10595939,4.8960443,0.52836037,-0.4575081,0.6938535,0.5783308,0.1737551,0.15116544,0.78261834,-0.2736283,-0.40227976,0.10073867,1.0,0.0,0.0,0.0,0.0,0.0,0.0,-3.5069299,0.028833002,0.19482753,-19.131516,29.30117,-72.334305,56.69312,66.46422,64.408264,-28.124874
-176.0,-18.429747,-43.167416,110.0,12.749502,1.9437807,-3.4079068,-0.81192225,-0.08410373,-0.5770208,0.7125186,0.3356659,0.6415034,-0.58727175,1.6976036,-1.0708449,-1.878288,-1.041515,1.9758908,1.1860439,-0.977147,1.7770315,-1.0591253,-1.8353393,-1.1003386,1.9540944,1.1352679,-0.92141145,-0.17208156,0.33584467,-1.7104237,1.469265,1.3381112,1.5458062,-0.3065343,2.8215733,-0.4298935,0.40335977,-3.5347147,-0.10585345,4.7929626,0.5237217,-0.4654541,0.69467044,0.5868763,0.17041399,0.14718789,0.77773446,-0.5283703,-0.9244004,0.07710146,1.0,0.0,0.0,0.0,0.0,0.0,0.0,-3.4715734,0.029893488,0.14664024,1.7390788,1.9671798,-94.01512,90.62939,64.46235,83.36423,-2.9566944
-166.17812,119.52186,31.003345,99.65901,8.543324,7.9464507,-2.1364176,-0.7593825,0.33363965,-0.021102384,0.64767784,0.3736352,0.6793376,-0.5219768,1.7010933,-1.0257614,-1.8374496,-1.0355707,1.9914579,1.2032017,-0.97360915,1.7721258,-1.0548357,-1.8510177,-1.0837084,1.9674764,1.1506106,-0.9246635,-0.59684706,0.45673645,-1.5138648,1.7288529,1.33356,1.5232389,-0.33328742,2.786253,-0.43095398,0.450517,-3.5311809,-0.105747625,4.6899843,0.5162029,-0.47628784,0.69707084,0.5984842,0.1654874,0.1419766,0.77089113,-0.8337248,-1.1286174,0.2983618,1.0,0.0,0.0,0.0,0.0,0.0,0.0,-3.436253,0.030953974,0.09948301,-42.52863,11.087751,21.56179,26.296139,-1.8126011,-4.442477,-3.2044053
-106.68988,139.37909,51.14937,66.98719,5.126256,8.850397,-0.6505847,-0.7785313,0.26761985,0.1159815,0.6320376,0.4161866,0.64103144,-0.56108105,1.6942728,-1.0280737,-1.8394196,-1.0205046,2.009095,1.2147137,-0.9807716,1.7629515,-1.0499223,-1.8616168,-1.0667139,1.9795117,1.164847,-0.9281358,-1.0257208,0.500058,-0.9006094,1.6898029,1.154946,1.3860265,-0.35480428,2.750967,-0.43201065,0.4966452,-3.5276504,-0.1056419,4.5871086,0.5060482,-0.48779297,0.70174223,0.61125195,0.15897694,0.13605641,0.7632732,-1.0870906,-1.1477209,0.5282518,1.0,0.0,0.0,0.0,0.0,0.0,0.0,-3.4009671,0.032010645,0.0533548,-43.288467,3.5246134,63.750004,-3.8071394,-19.39559,-15.097547,-3.0131698
-50.922276,149.46413,57.961468,39.789776,1.9555633,7.8009005,0.045725875,-0.7973069,0.3749806,0.055266693,0.63774437,0.45716316,0.62852085,-0.55157167,1.6832209,-1.0124242,-1.8560902,-1.0029395,2.025228,1.227699,-0.983293,1.7502218,-1.0443205,-1.8661468,-1.0511976,1.9895654,1.1775328,-0.93178743,-1.3568712,0.57842517,-0.29722804,1.5052378,0.9518371,1.2271086,-0.37145326,2.7157173,-0.4330635,0.5417454,-3.5241234,-0.10553628,4.484336,0.49399948,-0.49863052,0.70845556,0.6240099,0.15105818,0.12984057,0.755602,-1.2566289,-1.0493361,0.722026,1.0,0.0,0.0,0.0,0.0,0.0,0.0,-3.3657174,0.0330635,0.008254588,-33.566048,7.253313,62.336765,-18.560028,-21.421587,-16.55619,-2.509904
-11.828743,133.76772,49.198174,19.720427,-0.2714765,5.236557,0.15141065,-0.81124485,0.46153873,-0.06825218,0.6325853,0.48009154,0.6119198,-0.5741154,1.6690974,-0.99816656,-1.872972,-0.9879391,2.0375745,1.2387248,-0.989199,1.7352396,-1.037681,-1.866595,-1.0376517,1.9979672,1.1887556,-0.9355888,-1.5464864,0.6912213,0.04344919,1.3039534,0.80108696,1.0869544,-0.38507012,2.680502,-0.43411636,0.5858187,-3.5206,-0.10543077,4.381666,0.48091698,-0.5082321,0.7165242,0.6363271,0.14231631,0.12399442,0.74797004,-1.3367095,-0.91576153,0.8357128,1.0,0.0,0.0,0.0,0.0,0.0,0.0,-3.330502,0.034116358,-0.035818696,-19.328928,10.910726,35.297867,-20.30661,-15.63965,-14.185452,-1.9868553
13.248053,126.07715,43.633926,9.975363,-1.4545317,3.4748826,0.048685595,-0.81838834,0.558673,-0.08917265,0.6358583,0.4896067,0.61846113,-0.5651001,1.6534008,-0.98181367,-1.8755122,-0.97406584,2.046928,1.2506018,-0.9920988,1.7192656,-1.029632,-1.8653495,-1.0257155,2.005322,1.1987559,-0.9394941,-1.6156021,0.8417328,0.15423903,1.1561707,0.7126856,0.97119206,-0.39414448,2.6453228,-0.43516922,0.6288661,-3.51708,-0.105325356,4.2790995,0.4674778,-0.5164528,0.7254331,0.648173,0.1332145,0.11903335,0.74024105,-1.3557093,-0.7756726,0.90829444,1.0,0.0,0.0,0.0,0.0,0.0,0.0,-3.295323,0.035169214,-0.078866065,-7.226634,14.792288,11.872276,-14.984703,-9.102988,-11.543835,-1.4166892
24.208649,112.98776,36.911533,5.6161733,-1.7359502,2.1624827,-0.037132654,-0.8247657,0.6133987,-0.09889066,0.620831,0.5174764,0.61537564,-0.55208457,1.636789,-0.9682921,-1.8752387,-0.96363235,2.0570695,1.2602935,-0.9947025,1.7031618,-1.0200914,-1.8641269,-1.0148112,2.0122342,1.2077528,-0.94346136,-1.6093098,0.9909555,0.11345275,1.0677317,0.68322295,0.8761903,-0.39892226,2.610178,-0.43622208,0.67088854,-3.5135636,-0.10522005,4.176635,0.45409203,-0.523407,0.7348249,0.6596341,0.12408016,0.11513369,0.73227805,-1.3403875,-0.6530879,0.948176,1.0,0.0,0.0,0.0,0.0,0.0,0.0,-3.260178,0.03622207,-0.12088853,0.36940575,14.745914,-3.5493045,-9.072781,-3.0594707,-9.409725,-0.8943558
29.360203,106.70981,34.872753,4.810609,-1.5234802,1.73928,0.0010384554,-0.8226276,0.65995306,-0.046132755,0.60278714,0.5441345,0.6220678,-0.5509743,1.6208991,-0.9540961,-1.8687402,-0.95453244,2.0666478,1.2699596,-0.99855876,1.6873938,-1.0092081,-1.8635108,-1.0044543,2.0191503,1.2159296,-0.947463,-1.566591,1.1202981,0.04563376,1.0242497,0.69417226,0.79858166,-0.4017906,2.5750694,-0.43727493,0.7118871,-3.5100508,-0.10511485,4.0742726,0.4409275,-0.529232,0.7445746,0.67074716,0.1150007,0.11213243,0.7240852,-1.3143442,-0.543875,0.9824304,1.0,0.0,0.0,0.0,0.0,0.0,0.0,-3.2250695,0.037274927,-0.16188711,4.0497303,12.794113,-6.3263407,-4.5877457,1.0203958,-7.710576,-0.6670773
28.659988,98.32198,32.3395,5.605012,-1.1228094,1.5374408,0.03928048,-0.81177837,0.6866867,-0.023223044,0.5998116,0.5403151,0.6303054,-0.54616785,1.606216,-0.9405394,-1.8658332,-0.9444731,2.0731819,1.2789602,-1.0020797,1.6721407,-0.9972962,-1.8634613,-0.99427474,2.0262609,1.2234427,-0.95148176,-1.512193,1.2143743,-0.0074097826,1.0150534,0.71618265,0.73537105,-0.40307823,2.5399952,-0.4383278,0.7518629,-3.5065415,-0.10500976,3.9720132,0.42800522,-0.5340996,0.7546282,0.68152744,0.10594739,0.10975512,0.7157159,-1.2890627,-0.45064437,1.0116078,1.0,0.0,0.0,0.0,0.0,0.0,0.0,-3.1899953,0.038327783,-0.20186287,5.253744,9.290934,-4.8845143,-1.1559725,2.1435142,-6.318474,-0.48375726
23.261433,90.03471,29.423185,7.469194,-0.637963,1.4712176,0.057273373,-0.80916667,0.7104959,-0.018881252,0.59369546,0.55183893,0.6458332,-0.5487274,1.5912241,-0.92624664,-1.8653494,-0.9349052,2.0814447,1.288026,-1.0063545,1.657355,-0.9846848,-1.8637645,-0.9840714,2.0336232,1.2304178,-0.95551103,-1.4677086,1.2764683,-0.036615394,1.0213007,0.74274534,0.68474275,-0.40390593,2.5049553,-0.43938065,0.7908168,-3.5030358,-0.10490477,3.8698564,0.41526222,-0.5381508,0.7649279,0.69200045,0.09688483,0.10775102,0.7072046,-1.2726161,-0.37370834,1.0348176,1.0,0.0,0.0,0.0,0.0,0.0,0.0,-3.1549554,0.03938064,-0.24081677,4.282832,6.106496,-2.5121217,0.39925575,2.6019573,-5.10571,-0.41233897
19.047817,81.50444,26.529955,7.855068,-0.32673615,1.3830295,0.1218698,-0.8052305,0.7189923,-0.0036060507,0.5726606,0.56264824,0.65154284,-0.54184204,1.5768319,-0.9127856,-1.8641251,-0.9268053,2.089888,1.2955722,-1.0096953,1.6428992,-0.9716815,-1.8641384,-0.9738575,2.041245,1.23696,-0.95954126,-1.4387357,1.3080262,-0.03633998,1.0205871,0.7681803,0.6439894,-0.40369353,2.4699516,-0.44042587,0.8287499,-3.4995334,-0.10479989,3.7678015,0.40263557,-0.54151154,0.7753845,0.70214415,0.08780655,0.105912074,0.69861734,-1.2623222,-0.30726737,1.0479165,1.0,0.0,0.0,0.0,0.0,0.0,0.0,-3.1199517,0.040425867,-0.27874988,2.7371168,3.0683517,0.44607967,-0.2989292,2.4878383,-4.117131,-0.29562712
16.578514,78.5021,25.741104,8.358046,-0.116550684,1.4556296,0.19281413,-0.8036168,0.73182917,0.033847857,0.5557222,0.5799255,0.65450835,-0.5425789,1.5625374,-0.89849854,-1.8607535,-0.9182853,2.0992374,1.3024108,-1.0137992,1.6286169,-0.9584855,-1.8642414,-0.9637362,2.0491185,1.2431551,-0.9635686,-1.4251788,1.3231647,0.00011077405,1.0085133,0.79333997,0.61101985,-0.40341896,2.4349823,-0.4414711,0.86566323,-3.4960346,-0.10469511,3.6658487,0.39006233,-0.5442314,0.7859579,0.7119164,0.078678615,0.10407288,0.6900388,-1.257652,-0.24354956,1.0589819,1.0,0.0,0.0,0.0,0.0,0.0,0.0,-3.0849824,0.041471094,-0.31566322,1.1887789,1.4305115,4.1050324,-1.4288425,2.4465203,-3.3430934,-0.28856397
14.362602,75.02529,24.226772,8.585922,-0.03391695,1.3957399,0.20742984,-0.8017958,0.73938245,0.04419047,0.5434153,0.5863126,0.6592433,-0.5410477,1.5484374,-0.88454723,-1.8598223,-0.9093946,2.1077497,1.3090794,-1.0176734,1.6143919,-0.94520557,-1.8639114,-0.953796,2.0572095,1.2490698,-0.9675912,-1.4220276,1.3293955,0.045476075,0.9884219,0.8138542,0.58477193,-0.4028925,2.4000492,-0.44251633,0.9015578,-3.4925394,-0.10459044,3.563998,0.3775196,-0.5463295,0.79660004,0.72130084,0.06949093,0.10216752,0.6815114,-1.2549738,-0.18324059,1.064257,1.0,0.0,0.0,0.0,0.0,0.0,0.0,-3.0500493,0.04251632,-0.3515578,0.14870167,0.5486965,4.9946966,-2.2265553,1.9886613,-2.6521802,-0.25232434
13.833881,74.11879,23.824875,8.637579,-0.00419724,1.3907695,0.2404992,-0.80300224,0.7440496,0.08058743,0.5262758,0.5981082,0.65845555,-0.53000474,1.5340917,-0.8708006,-1.8558526,-0.90116847,2.1170204,1.3149154,-1.0205917,1.6001498,-0.9318913,-1.8630283,-0.9441124,2.0654874,1.2547575,-0.9716005,-1.4257196,1.3318477,0.10419534,0.96093667,0.83205205,0.5634505,-0.40127906,2.3651505,-0.44356155,0.93643457,-3.4890475,-0.10448587,3.4622488,0.36499405,-0.54782486,0.8072855,0.73027784,0.060227767,0.1001629,0.67307824,-1.2527485,-0.12258347,1.067913,1.0,0.0,0.0,0.0,0.0,0.0,0.0,-3.0151505,0.043561548,-0.38643456,-0.53703785,0.17540455,6.3389764,-2.957964,1.7589092,-2.1449804,-0.13874173
12.943074,71.87991,22.218536,8.535941,-0.06829214,1.2082889,0.20152621,-0.80126786,0.7554589,0.06467867,0.5124744,0.61372304,0.6645934,-0.5196541,1.520023,-0.8563454,-1.8565605,-0.892865,2.1268597,1.3212168,-1.0235659,1.5858637,-0.9185208,-1.8617485,-0.93472064,2.0739484,1.2602679,-0.9755849,-1.4302708,1.3386048,0.1373609,0.9311707,0.8506848,0.5469596,-0.39853048,2.330286,-0.44460678,0.97029465,-3.4855592,-0.104381405,3.3606014,0.35250854,-0.5487442,0.81796074,0.7388697,0.050919462,0.09811356,0.6647198,-1.2476135,-0.0652083,1.0649202,1.0,0.0,0.0,0.0,0.0,0.0,0.0,-2.9802861,0.044606775,-0.42029464,-0.6170273,0.6169081,3.738369,-3.1858683,1.8307924,-1.6326427,-0.0055611134
13.642092,69.085915,20.774605,7.657075,-0.20004326,0.9943278,0.1901916,-0.7973376,0.7566673,0.06682081,0.4927671,0.6142573,0.6609664,-0.50589406,1.50613,-0.8428541,-1.8550664,-0.8854439,2.135374,1.3263645,-1.0261743,1.5715548,-0.90508544,-1.8602741,-0.92565215,2.0825582,1.265637,-0.97953314,-1.4316905,1.3450447,0.1521237,0.8980169,0.86450404,0.53369546,-0.3944795,2.295456,-0.445652,1.003139,-3.4820745,-0.104277045,3.2590559,0.3401146,-0.54909897,0.8285548,0.7470935,0.041616313,0.096098244,0.6564179,-1.2366451,-0.0099369595,1.0548493,1.0,0.0,0.0,0.0,0.0,0.0,0.0,-2.945456,0.045652002,-0.453139,-0.2964735,0.598073,1.8600494,-3.5297632,1.3704062,-1.2687325,0.1386702
14.439459,67.829346,19.901783,7.0017653,-0.32125103,0.8307086,0.18174985,-0.7965237,0.7650087,0.06368881,0.4688669,0.6246591,0.6590267,-0.49717867,1.4919024,-0.82858455,-1.8539052,-0.87876546,2.145024,1.3315398,-1.029251,1.5572478,-0.8915614,-1.858773,-0.9169508,2.0913014,1.2708918,-0.9834365,-1.4310404,1.3548186,0.15079431,0.86010414,0.877515,0.5230014,-0.3898222,2.260662,-0.44669724,1.0349687,-3.478593,-0.10417279,3.1576116,0.3278637,-0.5489044,0.8390173,0.75495917,0.032360557,0.09418628,0.6481653,-1.2203962,0.044304334,1.040451,1.0,0.0,0.0,0.0,0.0,0.0,0.0,-2.9106622,0.04669723,-0.48496872,-0.08690357,0.9404659,0.22583008,-4.0093064,1.3054013,-0.983727,0.21020174
17.919113,66.688194,19.577461,4.6620255,-0.5842671,0.6609134,0.2492931,-0.79469955,0.7684856,0.07571478,0.41602343,0.6288443,0.6650485,-0.49843475,1.4777778,-0.8147128,-1.8512015,-0.87534845,2.1541858,1.3373966,-1.03328,1.5429598,-0.87794006,-1.8572776,-0.90879214,2.1001554,1.2760607,-0.9872989,-1.4284825,1.3646079,0.15019721,0.80036837,0.888075,0.5154611,-0.38581464,2.2259026,-0.44773483,1.0657847,-3.4751153,-0.10406864,3.056269,0.3158455,-0.5481529,0.8492913,0.7624273,0.023196278,0.0924246,0.6400188,-1.1938725,0.102042496,1.0199021,1.0,0.0,0.0,0.0,0.0,0.0,0.0,-2.8759027,0.047734827,-0.5157847,0.10051727,0.95329285,0.3013581,-6.2028646,1.0642409,-0.61092377,0.14630556
18.243675,65.06622,19.003853,4.239023,-0.60690486,0.55623394,0.27497157,-0.79885113,0.7674066,0.08944825,0.38478628,0.631098,0.66019183,-0.49083447,1.4630747,-0.8011994,-1.8483328,-0.8703135,2.1632652,1.3420799,-1.0363823,1.5286776,-0.8642472,-1.8557327,-0.901281,2.1090932,1.2811648,-0.9911193,-1.4285474,1.3707275,0.15709543,0.733992,0.89588463,0.5092783,-0.3816004,2.1911774,-0.44877243,1.095588,-3.4716408,-0.10396459,2.9550273,0.3041134,-0.54681015,0.859343,0.76947576,0.014144951,0.09081617,0.63202786,-1.1643336,0.1577083,0.9968791,1.0,0.0,0.0,0.0,0.0,0.0,0.0,-2.8411775,0.048772424,-0.54558796,-0.15788078,0.5973339,1.0352463,-6.86394,0.7976651,-0.4513502,0.17804503
21.723454,65.11323,19.419212,2.2643275,-0.77043045,0.46030375,0.3741755,-0.7984572,0.76999605,0.120551504,0.31934446,0.6473664,0.6575442,-0.49855918,1.4488319,-0.7872476,-1.8436775,-0.86934656,2.1738298,1.3469192,-1.0409752,1.5143915,-0.85050666,-1.8539703,-0.8945967,2.118134,1.2862154,-0.9949083,-1.4290279,1.3751599,0.18371153,0.64574945,0.90709984,0.50448143,-0.37875026,2.1564865,-0.44981003,1.1243796,-3.46817,-0.10386065,2.8538873,0.29272842,-0.5449066,0.86914724,0.77604765,0.0052253366,0.08932395,0.6242948,-1.1265931,0.21681125,0.9714089,1.0,0.0,0.0,0.0,0.0,0.0,0.0,-2.8064866,0.049810022,-0.5743796,-0.1989603,0.43857098,3.0147047,-9.046566,1.1377335,-0.2681613,0.043845177
23.587646,67.76701,20.685232,2.4621906,-0.76527214,0.5076284,0.42328417,-0.79435474,0.77479064,0.16372927,0.28813455,0.64879805,0.6577486,-0.48546603,1.4349561,-0.7730276,-1.8375974,-0.8657832,2.183014,1.3519902,-1.0434549,1.5001189,-0.8367175,-1.851754,-0.8887707,2.127274,1.291226,-0.9986629,-1.4270179,1.380138,0.23544237,0.5609451,0.91665655,0.50063777,-0.37517047,2.12183,-0.45084763,1.1521606,-3.4647024,-0.10375681,2.7528484,0.28173447,-0.542366,0.87874496,0.78210247,-0.003614168,0.08789067,0.6169098,-1.0869423,0.2788512,0.95215625,1.0,0.0,0.0,0.0,0.0,0.0,0.0,-2.77183,0.05084762,-0.60216063,0.06270409,0.49846172,5.5126667,-8.675158,0.98392963,-0.17071962,0.12270808
27.026094,67.87503,20.971626,0.37672234,-0.9842045,0.37777072,0.51185864,-0.79414004,0.7788253,0.1973689,0.20734453,0.654142,0.65407145,-0.48067358,1.4207048,-0.75883496,-1.8320171,-0.86803627,2.1926882,1.3566332,-1.0467303,1.485869,-0.82287204,-1.8489215,-0.8839537,2.1365056,1.2962042,-1.0023816,-1.4246349,1.3860867,0.30037287,0.45474696,0.9255898,0.4977181,-0.37145552,2.0872097,-0.45188522,1.178932,-3.4612384,-0.10365307,2.6519103,0.2712021,-0.5391846,0.88812613,0.7875865,-0.012365892,0.08650201,0.6099769,-1.0376486,0.34400028,0.9294593,1.0,0.0,0.0,0.0,0.0,0.0,0.0,-2.7372098,0.051885217,-0.62893194,0.110435486,0.6072521,6.811494,-10.798847,0.93433857,-0.024098158,0.15146136
32.948677,65.39026,20.54529,-4.4215255,-1.4214704,0.06321618,0.6734945,-0.79391026,0.77878463,0.24039756,0.08133822,0.6675742,0.64364165,-0.47558644,1.406478,-0.74499357,-1.8248818,-0.87581986,2.203263,1.3605684,-1.0499402,1.4716421,-0.8089789,-1.8453567,-0.8805624,2.145844,1.3011557,-1.0060608,-1.422408,1.3904995,0.37597284,0.29995677,0.93723536,0.49539295,-0.3675268,2.0526237,-0.45292282,1.2046947,-3.457778,-0.10354944,2.551073,0.26129723,-0.5353241,0.8971891,0.7923961,-0.020919714,0.08517874,0.6036681,-0.969617,0.41175157,0.8941887,1.0,0.0,0.0,0.0,0.0,0.0,0.0,-2.7026238,0.052922815,-0.65469474,0.111413,0.47278404,7.84542,-15.6465,1.2177706,0.14275908,0.19810796
39.29922,62.688583,19.802824,-9.837351,-1.9772757,-0.3373804,0.8232814,-0.79069185,0.7866466,0.26896885,-0.061373245,0.6741382,0.6430622,-0.4576675,1.392573,-0.73031425,-1.8184599,-0.88669974,2.2132578,1.365462,-1.0518275,1.4574476,-0.7950181,-1.841069,-0.8791224,2.1553044,1.3060919,-1.0096905,-1.4186631,1.3980728,0.44719654,0.091541536,0.94916767,0.49461168,-0.36195096,2.0180721,-0.45396042,1.22945,-3.454321,-0.10344592,2.4503367,0.25223923,-0.5307617,0.9057893,0.7964288,-0.029105706,0.08400305,0.59816176,-0.8789774,0.4808612,0.84398174,1.0,0.0,0.0,0.0,0.0,0.0,0.0,-2.6680722,0.053960413,-0.67945,0.293684,0.8104086,7.3414145,-20.984293,1.2696743,0.41122437,0.40744543
36.976723,60.173553,18.555477,-8.70814,-1.8640835,-0.505351,0.7674333,-0.788822,0.7890942,0.2909164,-0.11863053,0.67302656,0.64844346,-0.41405967,1.3785654,-0.7161087,-1.8119774,-0.8909854,2.2226071,1.3709363,-1.0510964,1.443297,-0.7809819,-1.8361633,-0.8796593,2.1648602,1.3110262,-1.0132344,-1.4141642,1.4057071,0.50530803,-0.10241277,0.9582411,0.49467778,-0.35220587,1.9835548,-0.4549942,1.2531986,-3.4508672,-0.103342496,2.3497012,0.24407196,-0.52557755,0.9138881,0.7997151,-0.036868464,0.08302761,0.5934667,-0.78979456,0.5402176,0.7936024,1.0,0.0,0.0,0.0,0.0,0.0,0.0,-2.633555,0.054994196,-0.7031986,0.40740967,0.8365631,5.911362,-19.504665,1.0421157,0.4882872,0.8712411
31.464073,60.444435,18.395285,-4.096313,-1.391918,-0.40638164,0.6516348,-0.78789437,0.7901026,0.34045038,-0.1513048,0.6738858,0.651776,-0.36607048,1.3645076,-0.70197165,-1.8021183,-0.89478976,2.2322488,1.3762038,-1.0498414,1.4291884,-0.7668818,-1.8306396,-0.88177454,2.1744885,1.3159624,-1.0166504,-1.4099729,1.4117684,0.5679778,-0.24821426,0.96495825,0.49467093,-0.33818024,1.9490719,-0.45602417,1.2759416,-3.447417,-0.10323917,2.2491663,0.23667526,-0.51984787,0.92157525,0.80236125,-0.04429932,0.082209304,0.5894875,-0.7159031,0.5909632,0.7552146,1.0,0.0,0.0,0.0,0.0,0.0,0.0,-2.599072,0.056024164,-0.7259416,0.40106773,0.69601536,6.257665,-14.662191,0.87885857,0.41778088,1.3271749
27.102152,59.344025,17.800365,-0.82208586,-1.0504396,-0.38294438,0.5557927,-0.78570944,0.79091406,0.37190786,-0.20580934,0.6762041,0.6575208,-0.32843545,1.3506174,-0.6877904,-1.7934488,-0.9023555,2.242109,1.3817145,-1.049494,1.4151198,-0.752736,-1.8245075,-0.8850838,2.184174,1.3209006,-1.0199063,-1.4058149,1.415838,0.6279136,-0.3587833,0.9704164,0.49486586,-0.32149398,1.9146233,-0.45705414,1.2976799,-3.4439704,-0.10313595,2.1487317,0.22993279,-0.51366043,0.92893183,0.8044644,-0.05148427,0.081504636,0.5861256,-0.6531083,0.6340763,0.7236549,1.0,0.0,0.0,0.0,0.0,0.0,0.0,-2.5646234,0.057054132,-0.7476799,0.41110516,0.5106211,5.908215,-11.129272,0.801754,0.39713383,1.6118109
19.161983,57.902805,16.934244,5.4035335,-0.41141668,-0.23726699,0.3724418,-0.78176636,0.7861958,0.39652395,-0.184756,0.6673004,0.65386987,-0.2576588,1.3369431,-0.6741164,-1.7848551,-0.9035594,2.250904,1.3862876,-1.0456722,1.4011008,-0.7385882,-1.817826,-0.8889872,2.193871,1.3258349,-1.0229542,-1.4007124,1.4148431,0.6809704,-0.40111542,0.9707928,0.49389458,-0.2996095,1.880209,-0.4580841,1.3184147,-3.4405272,-0.103032835,2.0483978,0.22364807,-0.50712967,0.93607527,0.80616224,-0.058560427,0.080857284,0.58321106,-0.61272484,0.666148,0.7055424,1.0,0.0,0.0,0.0,0.0,0.0,0.0,-2.530209,0.0580841,-0.7684147,0.5002022,0.016236305,5.1573277,-4.322463,0.34495592,0.20242333,2.1300316
3.8006024,56.65724,15.434861,17.111052,0.7283542,0.15107995,0.0023908466,-0.79170513,0.78486824,0.39584556,-0.06741713,0.65357137,0.65409416,-0.18419951,1.3219303,-0.6601014,-1.7782415,-0.8957289,2.2592282,1.3912443,-1.0413742,1.3870722,-0.7244681,-1.8107784,-0.89245284,2.2035222,1.330752,-1.0257466,-1.4037738,1.4115152,0.71202636,-0.32888794,0.964637,0.49139556,-0.27287683,1.845829,-0.45911407,1.3381468,-3.4370873,-0.10292982,1.9481637,0.21743774,-0.50038147,0.94322133,0.80771434,-0.06577576,0.080192514,0.5803794,-0.6156442,0.68248445,0.71171623,1.0,0.0,0.0,0.0,0.0,0.0,0.0,-2.495829,0.05911407,-0.7881468,-0.37133694,-0.2071619,2.9295444,7.076502,-0.25188923,-0.10288358,2.5943816
-15.2213,57.85114,14.545679,32.9858,2.212686,0.8039267,-0.5017214,-0.80118966,0.7866852,0.38546413,0.15050085,0.63834834,0.65036196,-0.15950419,1.3069532,-0.6457996,-1.7722319,-0.8774027,2.267357,1.3957882,-1.041697,1.3729521,-0.7103728,-1.8036144,-0.8940226,2.2130704,1.335631,-1.0282776,-1.4152025,1.4093179,0.7171061,-0.100254275,0.9528168,0.48638994,-0.24690084,1.8114834,-0.46014404,1.3568773,-3.433651,-0.102826916,1.8480301,0.21076202,-0.49357986,0.95070374,0.8094762,-0.07352111,0.079398334,0.57709515,-0.6769171,0.68518275,0.7544417,1.0,0.0,0.0,0.0,0.0,0.0,0.0,-2.4614835,0.060144037,-0.8068773,-1.2782812,-0.08804798,0.30578375,22.658657,-0.74403286,-0.5715251,2.4873705
-26.508587,53.498486,12.108143,40.85889,2.9789789,1.0197942,-0.82893765,-0.81324476,0.7801376,0.343018,0.29882646,0.6322562,0.65684855,-0.20056976,1.2916276,-0.632359,-1.7693126,-0.8641399,2.276296,1.4013159,-1.0483346,1.3586622,-0.6963242,-1.7966945,-0.8927256,2.2224927,1.3404585,-1.0306065,-1.4340512,1.4038541,0.6828472,0.20562159,0.93989307,0.48073703,-0.2285884,1.7771721,-0.461174,1.3746073,-3.430218,-0.10272411,1.7479964,0.20323372,-0.48683167,0.9586963,0.8117198,-0.08201932,0.07843103,0.5729156,-0.7693742,0.6770502,0.8080687,1.0,0.0,0.0,0.0,0.0,0.0,0.0,-2.4271722,0.061174005,-0.8246073,-2.0418406,-0.42898655,-3.627634,30.369884,-0.8499503,-0.78788996,1.7167658
-21.114746,53.489532,12.570368,36.88687,2.5145264,0.90940535,-0.719557,-0.81386244,0.78127617,0.34988955,0.34343925,0.6263843,0.65577203,-0.22404782,1.277276,-0.6181966,-1.7617055,-0.8583817,2.2851312,1.4060357,-1.0530113,1.3442084,-0.6823195,-1.7901142,-0.8886553,2.2317853,1.3452307,-1.0327961,-1.4497182,1.3996388,0.649343,0.47360602,0.9269021,0.47544578,-0.21613203,1.7428951,-0.46220398,1.3913378,-3.4267886,-0.10262141,1.6480628,0.19489479,-0.48009872,0.9671513,0.81441844,-0.09124436,0.07732775,0.56781805,-0.8471935,0.67955315,0.85177344,1.0,0.0,0.0,0.0,0.0,0.0,0.0,-2.3928952,0.062203974,-0.84133774,-1.6867876,-0.33729076,-3.4998536,26.640438,-0.9182453,-0.7556617,1.1356205
-10.8564005,48.9438,11.310214,26.576889,1.473237,0.35949013,-0.48857686,-0.8189335,0.7807548,0.30291688,0.34005705,0.62331134,0.65286505,-0.26662368,1.262315,-0.60424405,-1.7598225,-0.8546496,2.2941165,1.4105172,-1.0594585,1.3296171,-0.66834915,-1.7840202,-0.8826729,2.2409596,1.3499609,-1.0349133,-1.4624336,1.3964622,0.5959988,0.6393054,0.91517806,0.4718459,-0.2105869,1.7086525,-0.46322632,1.4070696,-3.4233625,-0.102518804,1.5482291,0.18606567,-0.47331238,0.9758124,0.8174106,-0.100913405,0.07624141,0.56199974,-0.8868406,0.6877998,0.8645881,1.0,0.0,0.0,0.0,0.0,0.0,0.0,-2.3586526,0.06322631,-0.85706955,-1.3731003,-0.26051998,-5.387366,16.429651,-0.895524,-0.45813322,0.45302212
3.7569036,45.973495,11.052562,12.968416,0.13468248,-0.29272273,-0.107865624,-0.8226954,0.77851355,0.29160094,0.27536684,0.6174079,0.65628123,-0.28740644,1.2473476,-0.5904978,-1.75486,-0.8551362,2.3027005,1.4155891,-1.063654,1.3149248,-0.6544093,-1.7784164,-0.8760649,2.2500196,1.354674,-1.0370057,-1.4717263,1.3932359,0.54887176,0.6674797,0.90351284,0.47151092,-0.20907752,1.6744442,-0.46424866,1.4218037,-3.4199398,-0.10241631,1.4484951,0.1772232,-0.4663887,0.98434186,0.82044476,-0.110631034,0.075352356,0.5558355,-0.87491375,0.7038434,0.8427202,1.0,0.0,0.0,0.0,0.0,0.0,0.0,-2.3244443,0.06424865,-0.8718037,-1.0271549,-0.28381348,-4.6260357,2.6750803,-1.0120153,0.08447766,0.042775273
13.566457,43.65493,10.67192,3.7048397,-0.73319364,-0.81433487,0.1514185,-0.82329714,0.77847195,0.26399195,0.23445109,0.6285428,0.65567595,-0.29142085,1.2325951,-0.5765621,-1.7520173,-0.85261977,2.3128738,1.4202416,-1.0661478,1.3001734,-0.6404933,-1.7732799,-0.8698689,2.2590184,1.3593966,-1.0390942,-1.4765052,1.3911637,0.5022434,0.60312784,0.8988692,0.47327143,-0.2089596,1.6402702,-0.465271,1.4355413,-3.4165206,-0.10231391,1.3488609,0.16876984,-0.4593048,0.99248457,0.8233273,-0.120074846,0.07477595,0.5496569,-0.8270712,0.7203186,0.7984743,1.0,0.0,0.0,0.0,0.0,0.0,0.0,-2.2902703,0.06527099,-0.88554126,-0.567317,-0.17035007,-4.503858,-6.580317,-0.3851652,0.45087337,-0.094679
20.084257,41.997566,10.667022,-2.126112,-1.2159275,-1.1624206,0.35594463,-0.82110703,0.7700719,0.26376024,0.17974214,0.6288404,0.6573354,-0.26039568,1.2180626,-0.5634861,-1.7469039,-0.8518947,2.3219025,1.4251301,-1.0651338,1.2854143,-0.6266297,-1.768481,-0.86473715,2.2679944,1.364144,-1.0411599,-1.4760903,1.3849719,0.47283235,0.48284113,0.89711756,0.47638866,-0.20604962,1.6061306,-0.46629333,1.4482833,-3.4131048,-0.102211624,1.2493262,0.16095734,-0.45205688,1.0000945,0.8259204,-0.12904888,0.07454123,0.54373276,-0.7568479,0.7349349,0.74247146,1.0,0.0,0.0,0.0,0.0,0.0,0.0,-2.2561307,0.06629333,-0.8982833,-0.019359589,-0.57582855,-2.7623951,-12.158561,-0.13984442,0.6806791,0.19083321
18.038773,42.430077,10.625794,-0.0646615,-1.0369009,-1.1477032,0.313085,-0.82667816,0.77396905,0.23833169,0.18603195,0.622724,0.6637126,-0.21291573,1.2027465,-0.5492328,-1.7446479,-0.84613395,2.3302667,1.4305153,-1.0624515,1.2706476,-0.61280334,-1.7639778,-0.8606688,2.2769475,1.3689238,-1.0431607,-1.477016,1.3821341,0.44345322,0.3810369,0.8949233,0.47959313,-0.19837019,1.5720253,-0.46731567,1.4600308,-3.4096923,-0.10210943,1.1498911,0.15380287,-0.44467926,1.0071957,0.82822895,-0.13756028,0.074642524,0.5380914,-0.69284695,0.7468351,0.69356054,1.0,0.0,0.0,0.0,0.0,0.0,0.0,-2.2220254,0.06731567,-0.9100308,-0.14648438,-0.23183823,-2.8027594,-10.297716,-0.15484095,0.6462753,0.6804973
16.476055,43.538754,11.089075,2.252967,-0.80772597,-1.0751965,0.3022672,-0.82302094,0.77192587,0.23567446,0.1666104,0.62105983,0.6686209,-0.120400876,1.1883456,-0.53561074,-1.7404103,-0.84400773,2.3390534,1.4357859,-1.0552008,1.2558924,-0.59899986,-1.759692,-0.8574301,2.2858777,1.3737341,-1.0450184,-1.4752836,1.3799239,0.42384094,0.30447567,0.89300245,0.48250076,-0.18177058,1.5379543,-0.468338,1.4707845,-3.4062834,-0.102007344,1.0505555,0.14722633,-0.43717194,1.013874,0.8302662,-0.14569938,0.07503462,0.5327283,-0.6365339,0.75863624,0.6535754,1.0,0.0,0.0,0.0,0.0,0.0,0.0,-2.1879544,0.06833801,-0.92078453,0.12960434,-0.1619339,-1.8654346,-7.760799,-0.098097324,0.5713105,1.5761137
10.173431,39.306473,9.146992,6.5825057,-0.36364216,-1.054846,0.13620473,-0.82978404,0.7659708,0.18075591,0.17675212,0.6036218,0.66740924,-0.05393161,1.172914,-0.52240276,-1.7416164,-0.8397549,2.3462398,1.440475,-1.0504116,1.2411219,-0.58523643,-1.7557857,-0.85463107,2.294743,1.3785654,-1.0466664,-1.477676,1.3753806,0.37975013,0.27119672,0.88521737,0.48421693,-0.15941131,1.5039177,-0.46936035,1.4805458,-3.4028778,-0.10190536,0.95131916,0.14108658,-0.4296112,1.0202014,0.8321344,-0.15354142,0.075718686,0.52748835,-0.59742945,0.7614408,0.62028664,1.0,0.0,0.0,0.0,0.0,0.0,0.0,-2.1539178,0.069360346,-0.93054575,-0.29957294,-0.38638115,-4.3638763,-3.460294,-0.6377697,0.38960576,2.158609
6.066866,37.571712,8.313226,10.202867,0.00068056583,-0.98865277,0.02781529,-0.8264977,0.76457,0.1433505,0.19259109,0.60450256,0.67269343,0.029693432,1.1584721,-0.5087794,-1.7414507,-0.835372,2.3551934,1.4458348,-1.043697,1.2263399,-0.5715188,-1.7524402,-0.851874,2.3035436,1.3834139,-1.0480435,-1.4785334,1.3707929,0.3195977,0.2766684,0.8787732,0.48546898,-0.13075182,1.4699135,-0.47037888,1.4893154,-3.3994756,-0.101803474,0.85218203,0.13522911,-0.42204285,1.0262558,0.83392113,-0.16117305,0.07668119,0.52222466,-0.57228136,0.7605399,0.595119,1.0,0.0,0.0,0.0,0.0,0.0,0.0,-2.1199136,0.07037887,-0.9393154,-0.15790462,-0.38759708,-6.000143,0.3958285,-0.4696846,0.28594732,2.7851195
1.794797,34.29035,6.924549,13.103125,0.2991668,-0.960864,-0.06356521,-0.83649004,0.75921285,0.097155035,0.20889427,0.58974665,0.67639077,0.14769931,1.1426909,-0.49559748,-1.7427247,-0.8309846,2.3625183,1.451053,-1.0332736,1.2115046,-0.5578612,-1.7498138,-0.8488718,2.3122487,1.3882719,-1.0490696,-1.4853647,1.3642408,0.2438382,0.3074489,0.8684722,0.48636636,-0.09328738,1.4359436,-0.4713936,1.4970944,-3.3960767,-0.10170169,0.753144,0.12953568,-0.41451645,1.0320885,0.83569634,-0.16864805,0.07793734,0.5168124,-0.5592113,0.7549941,0.5740778,1.0,0.0,0.0,0.0,0.0,0.0,0.0,-2.0859437,0.07139358,-0.9470944,-0.7815838,-0.5855799,-7.5638323,2.8999507,-0.83322525,0.20701885,3.6608756
5.957162,33.20025,7.0964985,9.322968,-0.02682215,-1.1601497,0.096965864,-0.8266788,0.747362,0.09167809,0.15178572,0.56860876,0.67860436,0.26526093,1.1288368,-0.483125,-1.740646,-0.83369327,2.3691096,1.4561324,-1.0225435,1.196652,-0.5443133,-1.7478225,-0.8458172,2.3208013,1.3931433,-1.049659,-1.4852773,1.3518962,0.18431231,0.3042455,0.8512342,0.48780674,-0.047836028,1.402008,-0.4724083,1.5038837,-3.3926814,-0.10160001,0.654205,0.124074936,-0.4070511,1.0376544,0.8373966,-0.17590734,0.079506114,0.511373,-0.5315703,0.7489331,0.5457738,1.0,0.0,0.0,0.0,0.0,0.0,0.0,-2.0520082,0.07240829,-0.9538837,-0.05106926,-1.1633635,-5.938649,-0.47421455,-1.5578389,0.31725764,4.4618473
3.8759413,28.435387,5.4601197,9.814081,0.0880692,-1.2654675,0.062405415,-0.8327356,0.7331702,0.034929875,0.17255114,0.5430431,0.6805526,0.3623924,1.1133785,-0.4709963,-1.7443296,-0.8285621,2.3751056,1.4611986,-1.0134197,1.1817881,-0.530939,-1.7465045,-0.8427626,2.329121,1.398028,-1.0497582,-1.4870853,1.3328042,0.11433746,0.3053135,0.8264918,0.48928908,0.0024136158,1.3681068,-0.473423,1.5096844,-3.3892894,-0.10149843,0.55536497,0.11886978,-0.39969254,1.0429231,0.8390251,-0.18290575,0.08141953,0.505918,-0.50784206,0.7354841,0.51578116,1.0,0.0,0.0,0.0,0.0,0.0,0.0,-2.018107,0.073423,-0.95968443,-0.23853779,-1.8358946,-6.9993467,-0.05995035,-2.3040771,0.3189504,4.9435706
1.737824,19.428583,2.2143164,8.697887,0.13213688,-1.5768895,-0.0017162636,-0.8305542,0.71125823,-0.058940873,0.16320124,0.52191275,0.67357564,0.42782736,1.0987327,-0.45981315,-1.7523986,-0.8264425,2.3813124,1.4653856,-1.0069754,1.1669222,-0.5178298,-1.7461631,-0.83975565,2.3371625,1.4029223,-1.0493519,-1.4866204,1.3039272,0.0074252374,0.29854932,0.7975441,0.49015865,0.05320689,1.33424,-0.4744377,1.5144974,-3.3859007,-0.101396956,0.45662373,0.11390495,-0.3925972,1.0478259,0.84065664,-0.18952803,0.08373719,0.5003635,-0.4841976,0.70590496,0.47735956,1.0,0.0,0.0,0.0,0.0,0.0,0.0,-1.9842399,0.07443771,-0.9644974,0.01964569,-2.8070211,-10.744028,-0.85835457,-2.7282834,0.28420687,5.011123
3.3430734,16.245129,1.5642843,6.2452617,0.00071412325,-1.7681203,0.073043555,-0.8280649,0.68830335,-0.07834173,0.12023759,0.4950882,0.6675236,0.47592643,1.0841157,-0.44899943,-1.7539973,-0.8277319,2.3866713,1.4696746,-1.0017593,1.1520754,-0.50507057,-1.746804,-0.8370167,2.3448873,1.4078203,-1.0484536,-1.4838408,1.2668184,-0.088168666,0.26512548,0.7641312,0.49058518,0.10199626,1.3004074,-0.47545242,1.5183238,-3.3825154,-0.101295575,0.35798126,0.10922432,-0.38582993,1.0523007,0.8422874,-0.19566925,0.0864661,0.49476156,-0.4535469,0.6705972,0.43337363,1.0,0.0,0.0,0.0,0.0,0.0,0.0,-1.9504074,0.07545242,-0.96832377,0.28688908,-3.625846,-9.625806,-3.5050511,-3.2013297,0.2737224,4.816626
5.2163787,14.259888,1.4161322,3.9984412,-0.17757559,-1.9063152,0.150886,-0.82401973,0.65950024,-0.0969169,0.07883746,0.43328738,0.67001307,0.5074147,1.0696734,-0.43912053,-1.7564957,-0.829133,2.388216,1.4748217,-0.9977121,1.1372782,-0.49274853,-1.7482326,-0.83479273,2.3521466,1.412726,-1.0470955,-1.4780918,1.2210325,-0.16132435,0.20776732,0.7135571,0.49142426,0.1468782,1.2666073,-0.47646713,1.5211645,-3.3791337,-0.1011943,0.2594374,0.104911804,-0.37944412,1.0563002,0.8438814,-0.20126253,0.089616105,0.4892101,-0.4152174,0.6321976,0.38519558,1.0,0.0,0.0,0.0,0.0,0.0,0.0,-1.9166073,0.07646713,-0.9711645,0.62117577,-4.4886827,-7.3964148,-5.871415,-4.9425364,0.3432691,4.4297457
3.024479,11.92546,0.38706136,5.379662,0.009563267,-1.9684008,0.06207431,-0.8196976,0.64405197,-0.18698469,0.080786675,0.43617883,0.6641552,0.516129,1.0553085,-0.42834333,-1.766931,-0.82671404,2.3957646,1.4791416,-0.9954826,1.1225554,-0.4808648,-1.7505577,-0.83306277,2.358975,1.4176337,-1.0453331,-1.4702597,1.1778177,-0.25656298,0.16094899,0.6730036,0.49129626,0.18572183,1.2328415,-0.47748184,1.5230205,-3.3757553,-0.10109313,0.16099209,0.10093689,-0.3734703,1.0598365,0.8454851,-0.20628758,0.09317412,0.48365167,-0.38383558,0.588351,0.3399076,1.0,0.0,0.0,0.0,0.0,0.0,0.0,-1.8828415,0.077481836,-0.9730205,0.8341789,-4.233718,-9.622672,-4.823503,-3.9419174,0.21211505,3.826642
2.7360408,12.291481,0.68287396,5.875831,0.065335214,-1.9472823,0.06505928,-0.8233127,0.62003624,-0.2061838,0.04468842,0.40189543,0.6641515,0.521836,1.0402241,-0.41886118,-1.7711761,-0.8285939,2.3991644,1.4840488,-0.9931495,1.1078802,-0.4694107,-1.7537181,-0.83183444,2.3653913,1.4225394,-1.0432274,-1.4665114,1.1348494,-0.33599493,0.10967656,0.6316178,0.4908468,0.21864486,1.19911,-0.47848892,1.5238928,-3.3723803,-0.100992054,0.06264518,0.09726143,-0.36792755,1.0629369,0.84711677,-0.21075362,0.09710749,0.4780651,-0.354623,0.5456757,0.29728281,1.0,0.0,0.0,0.0,0.0,0.0,0.0,-1.84911,0.078488916,-0.97389275,0.41680336,-4.213238,-8.019548,-5.260809,-4.0414095,0.15687943,3.2306015
4.3231153,14.531132,1.4618235,4.763288,-0.11069006,-1.9894904,0.11096733,-0.82295126,0.6069707,-0.24054925,-0.016765147,0.3730101,0.66935134,0.5288881,1.025585,-0.4087136,-1.777773,-0.83351094,2.4026923,1.4894745,-0.9903386,1.0932242,-0.45833233,-1.7575977,-0.83127654,2.3713956,1.4274431,-1.040828,-1.4651399,1.0990621,-0.40532154,0.037440106,0.590526,0.49086004,0.24662285,1.165411,-0.479496,1.5237824,-3.3690085,-0.10089108,-0.0356034,0.093933105,-0.36278915,1.065605,0.848761,-0.21463287,0.10141782,0.47249517,-0.31911173,0.5051582,0.25421718,1.0,0.0,0.0,0.0,0.0,0.0,0.0,-1.815411,0.079495996,-0.97378236,0.17900467,-3.4942627,-6.98927,-7.342009,-4.0353656,0.19845366,2.7387202
5.591518,14.961838,1.7251177,3.4552488,-0.27438256,-2.0697656,0.15064509,-0.8201741,0.586662,-0.272758,-0.07483674,0.3260917,0.6697055,0.5321413,1.0112067,-0.39966613,-1.7848735,-0.8387602,2.4040048,1.4944137,-0.98761386,1.0785834,-0.44759443,-1.7621028,-0.83158076,2.3769345,1.4323469,-1.0381844,-1.4635326,1.0656599,-0.46558633,-0.053360272,0.54203963,0.4909447,0.27013186,1.1317463,-0.48050308,1.5226902,-3.3656402,-0.10079021,-0.13375376,0.09101105,-0.3580551,1.0678259,0.8504057,-0.2178774,0.10612719,0.46698654,-0.27772635,0.46378487,0.20923142,1.0,0.0,0.0,0.0,0.0,0.0,0.0,-1.7817463,0.08050308,-0.97269017,0.21920204,-3.2514095,-6.0886264,-9.181365,-4.792273,0.20477176,2.2951245
9.386075,18.098948,2.8544602,-0.08184314,-0.7034383,-2.223153,0.27020457,-0.82163554,0.5829207,-0.2928393,-0.18656436,0.29989123,0.672073,0.5315314,0.9964198,-0.38930237,-1.7913867,-0.8502372,2.4069238,1.4995543,-0.98503125,1.0639483,-0.43710878,-1.7671154,-0.83313906,2.3819966,1.4372545,-1.0353367,-1.4632204,1.0432068,-0.51333696,-0.19020186,0.4943538,0.4914412,0.28960076,1.0981159,-0.48151016,1.5206171,-3.3622751,-0.10068944,-0.23180598,0.08862114,-0.3537407,1.06955,0.85201114,-0.22037593,0.111272976,0.4616597,-0.22006008,0.42240572,0.15822388,1.0,0.0,0.0,0.0,0.0,0.0,0.0,-1.7481159,0.08151016,-0.9706171,0.11794567,-2.14262,-4.8481584,-13.753562,-4.738969,0.25886297,1.9070029
12.50506,18.384655,3.1740913,-3.9227548,-1.1533701,-2.421061,0.37594375,-0.8213942,0.5687708,-0.30410525,-0.30577266,0.21789448,0.67803764,0.5260304,0.98180884,-0.3802317,-1.7975259,-0.8637163,2.4037862,1.5050583,-0.98273367,1.049317,-0.42682388,-1.772496,-0.83639586,2.3864331,1.4421736,-1.0323231,-1.4626689,1.0240073,-0.54680955,-0.37092736,0.42676347,0.49267164,0.30522457,1.064518,-0.48251724,1.5175644,-3.3589134,-0.100588776,-0.32976016,0.08694267,-0.34985352,1.0706973,0.85354114,-0.22198598,0.116935484,0.45663512,-0.14637856,0.37681323,0.09837447,1.0,0.0,0.0,0.0,0.0,0.0,0.0,-1.714518,0.08251724,-0.9675644,0.20368099,-1.798892,-3.4785151,-18.097889,-6.7442775,0.34370422,1.5389264
15.175686,24.24989,5.2312303,-4.5300207,-1.8340029,-2.3138556,0.41018566,-0.8149015,0.56279945,-0.27443287,-0.37960628,-0.06841115,0.68247056,0.5253677,0.96782684,-0.37054393,-1.7999393,-0.8743565,2.379592,1.5104207,-0.97978634,1.034722,-0.41669205,-1.7779434,-0.8414751,2.389439,1.4471079,-1.029176,-1.4580303,1.0100518,-0.5446223,-0.55356973,0.25845432,0.49431187,0.31771132,1.0309544,-0.48352432,1.5135328,-3.3555553,-0.10048821,-0.42761642,0.08613205,-0.3463211,1.0712487,0.85496116,-0.22270648,0.1234243,0.4518956,-0.055368453,0.3441076,0.03882239,1.0,0.0,0.0,0.0,0.0,0.0,0.0,-1.6809543,0.08352432,-0.96353275,0.6346941,-1.25947,0.022935867,-18.25673,-16.772354,0.38391352,1.2094378
9.7093525,18.16661,2.7211595,-0.6560066,-1.8066818,-2.238171,0.18011269,-0.8090166,0.533288,-0.33013627,-0.3883539,-0.35939518,0.69012666,0.5121498,0.9538203,-0.36336324,-1.810957,-0.88031054,2.3534997,1.5161206,-0.977961,1.0201975,-0.40678623,-1.7835338,-0.8479773,2.390019,1.4520594,-1.0259354,-1.4498487,0.9844845,-0.56439066,-0.68245804,-0.008662388,0.49605528,0.32570678,0.9974232,-0.4845314,1.5085233,-3.3522005,-0.10038774,-0.5253748,0.08616066,-0.3431282,1.0712265,0.8563531,-0.22261491,0.13111445,0.44711405,0.025461143,0.3093865,-0.018027214,1.0,0.0,0.0,0.0,0.0,0.0,0.0,-1.6474231,0.0845314,-0.95852333,0.988245,-2.4398446,-2.1751165,-12.904525,-26.64973,0.3413856,0.68200827
1.4698365,8.251907,-0.57343924,6.0797625,-0.95119244,-2.06211,-0.052550074,-0.79847187,0.48450845,-0.35357234,-0.35898495,-0.53505105,0.6874485,0.51967406,0.9403503,-0.35833538,-1.818891,-0.8838758,2.3365138,1.5208043,-0.973968,1.0057932,-0.39732674,-1.7894104,-0.85515463,2.3876996,1.4570223,-1.0226281,-1.4368821,0.93336636,-0.59572226,-0.729776,-0.3060668,0.49673516,0.3317081,0.9639263,-0.48553467,1.5025371,-3.348849,-0.10028737,-0.62303555,0.08675766,-0.34031296,1.0707141,0.857805,-0.2218798,0.14006527,0.44195196,0.07294396,0.26866427,-0.06483058,1.0,0.0,0.0,0.0,0.0,0.0,0.0,-1.6139263,0.08553466,-0.9525371,1.4125586,-5.036807,-3.2571554,-4.804802,-29.692238,0.1745224,0.39866567
-11.26247,-2.7725098,-4.1268797,18.937977,0.9205729,-1.5792744,-0.37701833,-0.7980303,0.41685036,-0.35769987,-0.21847835,-0.6220633,0.68406445,0.5314729,0.92599016,-0.3556417,-1.8251803,-0.8770025,2.3254933,1.5254288,-0.96948075,0.9914938,-0.38863972,-1.7955711,-0.8617798,2.3826528,1.4619852,-1.0192654,-1.4278646,0.8471405,-0.6226441,-0.64059323,-0.570481,0.4963847,0.33697447,0.9304638,-0.48653412,1.495575,-3.345501,-0.10018711,-0.72059864,0.08734894,-0.33790588,1.0699372,0.8593932,-0.22088286,0.14994128,0.43608668,0.056081004,0.22812088,-0.08461544,1.0,0.0,0.0,0.0,0.0,0.0,0.0,-1.5804638,0.08653411,-0.94557494,0.8419514,-8.620691,-2.618575,8.733892,-26.413387,0.024604797,0.26516914
-24.073923,-15.561289,-8.614096,30.78684,2.8926728,-1.2391425,-0.7075977,-0.7995661,0.34073466,-0.40772825,-0.060720723,-0.64225405,0.68074054,0.5326745,0.91153723,-0.35456625,-1.8363439,-0.86785185,2.3184273,1.5300593,-0.96599793,0.97724116,-0.38105848,-1.8021533,-0.8665987,2.3755116,1.4669405,-1.0158551,-1.4249548,0.72826743,-0.66956705,-0.42974225,-0.76207864,0.49539325,0.34148067,0.8970337,-0.48753357,1.4876379,-3.3421562,-0.10008694,-0.8180642,0.087285995,-0.33592606,1.0691549,0.86121815,-0.22001024,0.16023959,0.429211,-0.026003415,0.18291987,-0.07867319,1.0,0.0,0.0,0.0,0.0,0.0,0.0,-1.5470337,0.08753356,-0.93763787,0.13709068,-11.955118,-4.4938326,20.845264,-19.165564,-0.054848194,0.19034743
-26.912073,-29.112535,-10.891071,31.69862,4.2116747,-1.2782068,-0.56601834,-0.7825069,0.20470461,-0.30925015,-0.0053644585,-0.6042917,0.6843286,0.53990513,0.89899045,-0.360588,-1.8330784,-0.86713517,2.3150826,1.5353733,-0.9618646,0.96307814,-0.3751004,-1.8086822,-0.86918795,2.367146,1.4718882,-1.0123932,-1.4133376,0.55136913,-0.6473078,-0.2023925,-0.86134946,0.49472442,0.3472301,0.863636,-0.48853302,1.4787269,-3.3388147,-0.09998687,-0.91543233,0.086149216,-0.33452606,1.0684612,0.8632248,-0.2194437,0.17022596,0.4215573,-0.14149843,0.123132326,-0.068269275,1.0,0.0,0.0,0.0,0.0,0.0,0.0,-1.513636,0.088533014,-0.92872685,1.1800528,-17.762148,2.1924376,22.619072,-9.859586,-0.025761127,0.4349351
-32.477943,-60.18218,-18.212755,27.816162,5.6020904,-1.7533,-0.392143,-0.7760208,-0.01795522,-0.20984045,0.062166106,-0.56262094,0.6781869,0.5244548,0.88547605,-0.37689593,-1.8296663,-0.86297137,2.310884,1.5397068,-0.95994776,0.94906676,-0.37166432,-1.8144329,-0.86965144,2.358357,1.4768244,-1.0088837,-1.395807,0.27420858,-0.55218416,0.005963791,-0.88434756,0.4932309,0.35217398,0.8302727,-0.48953247,1.468843,-3.3354766,-0.09988691,-1.0127031,0.08356285,-0.3340454,1.0677618,0.86536694,-0.21914503,0.17903884,0.41359448,-0.2969345,0.020742707,-0.07174186,1.0,0.0,0.0,0.0,0.0,0.0,0.0,-1.4802727,0.089532465,-0.918843,2.1212578,-27.769184,9.077847,20.92248,-2.136135,-0.13953447,0.48650503
-38.74614,-104.92119,-29.461071,18.025684,6.7530165,-2.6733458,-0.15840587,-0.7500204,-0.31612876,-0.1079072,0.084637746,-0.50480187,0.665578,0.4843996,0.87406474,-0.4032772,-1.8252236,-0.86118764,2.3078768,1.5433822,-0.96044374,0.93535197,-0.37196854,-1.8187912,-0.8684994,2.34977,1.4817301,-1.0053513,-1.3607548,-0.13200635,-0.40014693,0.15275979,-0.848917,0.4894078,0.35396725,0.79694366,-0.49053192,1.4579871,-3.3321419,-0.09978704,-1.1098765,0.07913971,-0.33511734,1.0667677,0.8676749,-0.21883789,0.18579894,0.40586823,-0.4909097,-0.14933737,-0.109199814,1.0,0.0,0.0,0.0,0.0,0.0,0.0,-1.4469436,0.090531915,-0.90798706,4.3141127,-40.6263,14.279736,15.010087,3.8114786,-0.4906237,0.32140017
-20.699387,-125.85519,-31.729025,-14.854441,4.5974393,-4.2027884,0.84931356,-0.6966322,-0.550678,0.07920851,-0.3169358,-0.45335796,0.655981,0.4530546,0.86568874,-0.42703635,-1.8108703,-0.900193,2.3044343,1.5473282,-0.9600458,0.92218935,-0.37677076,-1.8209407,-0.86832106,2.3417706,1.4865729,-1.0018322,-1.299302,-0.5962375,-0.15510811,-0.026210986,-0.7832011,0.4810432,0.35169616,0.7636471,-0.49153137,1.4461602,-3.3288105,-0.09968727,-1.2069529,0.0733242,-0.33841324,1.06475,0.8699949,-0.21758817,0.18999581,0.39958218,-0.6119808,-0.38874736,-0.2329493,1.0,0.0,0.0,0.0,0.0,0.0,0.0,-1.413647,0.091531366,-0.8961602,6.787634,-46.398567,23.913774,-17.605299,6.6324115,-1.3213098,-0.11693835
-0.7269268,-113.60967,-26.509914,-37.724594,1.743114,-4.8722634,1.551554,-0.66320014,-0.68834126,0.18958193,-0.6376956,-0.48570928,0.64409757,0.41717672,0.85586935,-0.4456049,-1.8019825,-0.93209064,2.2931998,1.5509826,-0.9601146,0.9096867,-0.38588598,-1.820441,-0.87187445,2.334271,1.4913012,-0.9983752,-1.2339778,-1.0170101,0.11928042,-0.4649264,-0.7401163,0.46660244,0.34356245,0.7303829,-0.49253082,1.4333632,-3.3254824,-0.099587604,-1.3039322,0.06700134,-0.34423065,1.06106,0.87213796,-0.21450755,0.19177668,0.39570633,-0.6415465,-0.64179283,-0.4150771,1.0,0.0,0.0,0.0,0.0,0.0,0.0,-1.3803829,0.09253082,-0.8833632,6.508422,-42.19569,27.766388,-43.854755,3.976488,-2.4666965,-0.89175105
13.027482,-66.12408,-12.839249,-34.93216,0.14816302,-3.944306,1.6000178,-0.596666,-0.74847245,0.25728732,-0.6924796,-0.51155645,0.64346457,0.37096837,0.8500201,-0.46073323,-1.7947123,-0.9411224,2.2831154,1.5556476,-0.9612783,0.8979851,-0.3983157,-1.8174446,-0.8798214,2.3269963,1.4958845,-0.99503446,-1.1502664,-1.3190545,0.36197126,-0.90509063,-0.72478366,0.45157117,0.33060494,0.6971531,-0.49352264,1.4195973,-3.3221576,-0.099488035,-1.4008145,0.06082344,-0.35203934,1.055684,0.8739517,-0.20960657,0.19167295,0.39437935,-0.6138758,-0.8226737,-0.58021003,1.0,0.0,0.0,0.0,0.0,0.0,0.0,-1.3471531,0.09352264,-0.86959726,7.957411,-30.43623,24.933647,-44.132042,1.1152387,-2.674991,-1.3963163
18.301159,-14.229749,0.118368745,-20.115593,-0.64550626,-2.5953145,1.1835243,-0.5189782,-0.7640716,0.20485716,-0.690461,-0.56618124,0.65551215,0.3550888,0.8460873,-0.47472286,-1.7969588,-0.9488675,2.270378,1.5614357,-0.9595256,0.8873106,-0.41270378,-1.8129737,-0.8911797,2.319615,1.5003573,-0.99182534,-1.0412405,-1.4793824,0.47670078,-1.2129962,-0.7434162,0.44308442,0.31755525,0.6639576,-0.49451447,1.4048631,-3.3188362,-0.09938856,-1.4976,0.055137634,-0.36100388,1.0490232,0.8753918,-0.20342535,0.19047451,0.39500222,-0.556974,-0.9134698,-0.6974789,1.0,0.0,0.0,0.0,0.0,0.0,0.0,-1.3139576,0.09451446,-0.8548631,10.472655,-16.214657,11.897355,-30.870605,-2.085185,-1.6537309,-1.3243616
14.065058,22.089909,7.7026386,-2.295877,-0.51561296,-1.4151409,0.60848874,-0.50649154,-0.76814526,0.15187266,-0.6988232,-0.5699864,0.65104336,0.36213475,0.83666146,-0.4895183,-1.7977865,-0.961062,2.2626162,1.5654616,-0.9556119,0.87758887,-0.4278386,-1.8082855,-0.90449584,2.311997,1.5047823,-0.98872495,-0.9497189,-1.5250609,0.46628484,-1.3709185,-0.7680553,0.44144776,0.3077808,0.6307945,-0.4955063,1.389162,-3.3155181,-0.099289194,-1.5942886,0.049980164,-0.37036896,1.0415719,0.8765464,-0.19654311,0.18890347,0.39667705,-0.50569236,-0.9351252,-0.76449215,1.0,0.0,0.0,0.0,0.0,0.0,0.0,-1.2807945,0.09550628,-0.83916193,8.994425,-4.631591,-1.0781825,-15.730619,-2.4992824,-0.4460752,-0.88835955
11.856956,51.622665,15.818854,12.338834,-0.13342795,-0.31735682,0.28934726,-0.4891339,-0.76943785,0.23334454,-0.6938817,-0.6050885,0.64611536,0.37417376,0.8286755,-0.5047824,-1.784951,-0.973884,2.2514882,1.5693939,-0.9513076,0.86860526,-0.44291523,-1.8037288,-0.9184691,2.3040586,1.5092245,-0.98569417,-0.88093024,-1.5017006,0.45061022,-1.4056951,-0.80159813,0.44602603,0.3023047,0.5976639,-0.4964981,1.3724946,-3.3122034,-0.09918993,-1.6908807,0.04527092,-0.37950516,1.0338131,0.8774401,-0.18956879,0.18737304,0.39881563,-0.46258736,-0.89686203,-0.783433,1.0,0.0,0.0,0.0,0.0,0.0,0.0,-1.2476639,0.0964981,-0.82249457,6.95796,2.4024248,-2.060938,-3.3505201,-3.1734586,0.68956614,-0.3254652
8.2946825,61.544846,18.575851,20.097294,0.34180596,0.16404241,0.1067196,-0.47592857,-0.7757514,0.26355225,-0.70544505,-0.6092127,0.6449115,0.3701651,0.8210124,-0.52049035,-1.7773736,-0.98901355,2.2431374,1.5737157,-0.94867766,0.860129,-0.4575899,-1.7992523,-0.9323288,2.2958264,1.5137278,-0.9827063,-0.83588207,-1.45567,0.44433647,-1.3788046,-0.8295764,0.4532697,0.2984776,0.56456757,-0.49748993,1.354862,-3.3088918,-0.099090755,-1.7873762,0.04087639,-0.38809204,1.0260527,0.878095,-0.18288682,0.18601361,0.40112388,-0.4333684,-0.8361582,-0.77713364,1.0,0.0,0.0,0.0,0.0,0.0,0.0,-1.2145675,0.09748992,-0.80486196,4.7197223,4.7174215,-1.3079405,2.8531075,-2.5577664,1.1684239,-0.10380745
2.650098,52.24546,14.562264,21.497255,0.7844624,-0.084454894,-0.06741506,-0.43938047,-0.7820815,0.15960985,-0.7131591,-0.5648068,0.62844825,0.35079676,0.81619096,-0.5357981,-1.7832913,-1.0036447,2.2393458,1.5765727,-0.94762665,0.85208,-0.47185114,-1.7952831,-0.94578135,2.2875066,1.5182844,-0.9797671,-0.7939267,-1.4159845,0.37948436,-1.3334395,-0.83209896,0.4576838,0.29314002,0.5315037,-0.49848175,1.3362652,-3.3055835,-0.098991685,-1.8837752,0.036634445,-0.3962059,1.0183442,0.87863064,-0.1764915,0.18481345,0.40336442,-0.42296913,-0.7933691,-0.7719007,1.0,0.0,0.0,0.0,0.0,0.0,0.0,-1.1815037,0.098481745,-0.7862652,4.4011116,4.0475607,-6.9882336,4.7308445,-0.14053583,0.7926285,-0.30810237
-2.3574803,35.385784,7.559956,18.61467,0.86193377,-0.68449545,-0.19178756,-0.39238754,-0.7844315,-0.002117266,-0.7221204,-0.5726967,0.62575626,0.38499656,0.81284124,-0.5502943,-1.7954948,-1.0179935,2.230237,1.58086,-0.94126743,0.84453356,-0.48583534,-1.7926815,-0.9588505,2.2791905,1.522864,-0.97685647,-0.74115694,-1.3925475,0.2195717,-1.2974439,-0.8314794,0.45863786,0.29060167,0.4984722,-0.49947357,1.3167052,-3.3022785,-0.09889271,-1.9800777,0.03240013,-0.4041481,1.0105416,0.87920606,-0.17008156,0.18381365,0.4053165,-0.42411372,-0.78574246,-0.7860842,1.0,0.0,0.0,0.0,0.0,0.0,0.0,-1.1484722,0.099473566,-0.7667052,5.4033875,2.3516893,-16.173836,3.8147926,-0.019466877,0.21407604,-0.1509428
-7.1109586,11.51939,-2.7311192,12.204958,0.667256,-1.6483805,-0.32199344,-0.3179255,-0.79135627,-0.2837529,-0.7414526,-0.57872504,0.6115042,0.4182539,0.81274104,-0.56497097,-1.8210567,-1.0329957,2.221318,1.5840144,-0.93503106,0.8377453,-0.49973133,-1.7928455,-0.9717566,2.2708707,1.5274206,-0.9739506,-0.6580039,-1.3888838,-0.09426588,-1.2874602,-0.8332966,0.45392162,0.29028976,0.46547508,-0.5004616,1.2961828,-3.298977,-0.098793834,-2.0762837,0.028104782,-0.41241074,1.0023246,0.8800187,-0.16309863,0.18314636,0.40672243,-0.4326371,-0.83053356,-0.8367325,1.0,0.0,0.0,0.0,0.0,0.0,0.0,-1.115475,0.10046157,-0.74618274,8.322167,0.27713776,-31.134247,1.2463093,-0.5122781,-0.7026911,-0.108230114
-3.9186401,3.8736453,-5.7249813,6.032169,0.16814555,-2.129666,-0.22713795,-0.23167059,-0.7891969,-0.45862046,-0.75972927,-0.6053438,0.60980994,0.47739434,0.81457824,-0.578651,-1.8387076,-1.0477295,2.2103362,1.5884017,-0.9262112,0.83205664,-0.51365495,-1.7965991,-0.98474944,2.2624516,1.5319163,-0.9710047,-0.5394004,-1.3939035,-0.4678477,-1.3024375,-0.84644383,0.44685665,0.2955168,0.43251038,-0.5014458,1.274699,-3.2956786,-0.09869506,-2.1723936,0.023807526,-0.4212761,0.9934274,0.8811153,-0.15513483,0.18290447,0.40757188,-0.42920378,-0.8978609,-0.91145116,1.0,0.0,0.0,0.0,0.0,0.0,0.0,-1.0825104,0.101445764,-0.72469896,11.781061,-0.6240368,-36.94367,-1.2613297,-1.704669,-1.1251211,0.3651142
-0.88198936,8.741215,-2.6783748,5.6396017,0.19170803,-1.8258594,-0.071578905,-0.20806661,-0.8006462,-0.48104742,-0.75937,-0.6121476,0.6041171,0.46055445,0.81125,-0.59371954,-1.8447039,-1.0606865,2.201237,1.592328,-0.9249493,0.8274685,-0.52770543,-1.803477,-0.99793303,2.2538838,1.5363413,-0.9680159,-0.4320995,-1.4090663,-0.7601944,-1.3229625,-0.8612822,0.43975425,0.29971474,0.3995781,-0.50242996,1.2522548,-3.2923837,-0.09859639,-2.2684073,0.019575119,-0.43071747,0.9838016,0.88239276,-0.14621098,0.18297397,0.4080756,-0.4225958,-0.9520299,-0.9848744,1.0,0.0,0.0,0.0,0.0,0.0,0.0,-1.0495781,0.102429956,-0.70225483,10.699469,-1.6274452,-28.978312,-1.8222332,-1.7836928,-1.1102974,0.31948686
-6.3107576,18.873796,1.5411124,12.379988,0.8444574,-0.9186928,-0.03960827,-0.29543826,-0.7984644,-0.43991724,-0.7645787,-0.61456954,0.6074696,0.47455877,0.7979247,-0.6075519,-1.8474687,-1.0743909,2.192427,1.5970882,-0.92056,0.8232676,-0.5418894,-1.8121593,-1.011321,2.2451825,1.540711,-0.9649737,-0.41550717,-1.421918,-0.90435195,-1.3431144,-0.8739483,0.43526387,0.30572668,0.36668015,-0.50341415,1.2288513,-3.289092,-0.09849781,-2.3643253,0.015262604,-0.4404335,0.97359586,0.88374513,-0.136626,0.18317363,0.40838134,-0.43486896,-0.9703898,-1.0387943,1.0,0.0,0.0,0.0,0.0,0.0,0.0,-1.0166801,0.10341415,-0.6788513,1.8675148,-1.397562,-14.47742,-1.7256737,-1.5314221,-0.70914626,0.5984366
-10.550162,28.686903,5.7548733,18.047882,1.4388928,-0.13011205,-0.008624442,-0.34857965,-0.8018887,-0.41090903,-0.77726287,-0.59467906,0.5935762,0.46181864,0.7884096,-0.6220783,-1.8532501,-1.0890472,2.1857147,1.6000687,-0.91879183,0.81870234,-0.556185,-1.8213375,-1.0249184,2.2364469,1.5450407,-0.96187997,-0.46911088,-1.432436,-0.9232944,-1.3642095,-0.87419736,0.43173304,0.31080917,0.3338127,-0.50439835,1.2044894,-3.2858036,-0.09839933,-2.4601471,0.01071167,-0.4501114,0.96300435,0.88509125,-0.12671903,0.1833,0.40860358,-0.46251762,-0.9576741,-1.0728204,1.0,0.0,0.0,0.0,0.0,0.0,0.0,-0.9838127,0.10439834,-0.65448934,-4.9982014,-1.1604786,-2.1835923,-1.7891407,-0.2609849,-0.47866702,0.60001016
-13.865649,36.271942,8.871128,22.544931,1.9089944,0.43150946,-0.013375074,-0.39012343,-0.8042677,-0.3933727,-0.77335197,-0.5749453,0.5894914,0.47527012,0.77969,-0.63661176,-1.8606747,-1.1022537,2.1789522,1.6039898,-0.91435295,0.8133074,-0.5705607,-1.8301551,-1.0386533,2.2277951,1.5493418,-0.9587281,-0.56151795,-1.4396935,-0.8693888,-1.3755903,-0.8625325,0.42970517,0.31718072,0.3009796,-0.50538254,1.1791699,-3.2825184,-0.098300956,-2.5558732,0.0057964325,-0.45949173,0.9522036,0.8863879,-0.11676941,0.18319675,0.4088035,-0.50165087,-0.9235093,-1.0895109,1.0,0.0,0.0,0.0,0.0,0.0,0.0,-0.9509796,0.10538253,-0.6291699,-8.807182,-0.8268833,4.974532,-0.80587864,0.9587884,-0.2155304,0.7979512
-17.205273,35.201126,7.890388,23.713875,2.1340864,0.48675197,-0.08350982,-0.42249393,-0.8112971,-0.43961754,-0.7800554,-0.5542157,0.5577128,0.45220137,0.771058,-0.6516904,-1.8741169,-1.1166588,2.1723735,1.605113,-0.91350794,0.80693305,-0.5850136,-1.8385208,-1.0524777,2.2193341,1.5536047,-0.9555342,-0.6612039,-1.4475559,-0.82696915,-1.3834751,-0.8418265,0.4249393,0.32060093,0.26817894,-0.5063667,1.1528939,-3.2792366,-0.098202676,-2.6515036,0.0004310608,-0.46855164,0.94124085,0.8876668,-0.106831916,0.18279263,0.40892717,-0.5494723,-0.89040935,-1.1051904,1.0,0.0,0.0,0.0,0.0,0.0,0.0,-0.9181789,0.106366724,-0.6028939,-9.51488,-0.89912415,3.8323045,-0.42128563,1.8423557,-0.50171614,0.50995946
-21.586422,32.373848,5.6030483,24.6077,2.2423315,0.4651291,-0.18984301,-0.4742011,-0.81167585,-0.4834021,-0.77844775,-0.56569105,0.5665831,0.46267003,0.75951296,-0.6661812,-1.886861,-1.1303225,2.162765,1.610263,-0.9092672,0.7995392,-0.59952664,-1.8467586,-1.0663346,2.211022,1.5578276,-0.95230603,-0.7639878,-1.4530714,-0.8240388,-1.3850751,-0.8285965,0.42100626,0.32398,0.23541069,-0.5073509,1.1256623,-3.275958,-0.09810449,-2.7470384,-0.0054779053,-0.47731018,0.9300896,0.88899416,-0.09683096,0.18214914,0.40882128,-0.60575634,-0.8618699,-1.1247995,1.0,0.0,0.0,0.0,0.0,0.0,0.0,-0.88541067,0.107350916,-0.5756623,-9.806765,-0.6865263,-0.06709099,0.25439262,1.041925,-0.4643619,0.47703385
-30.873108,23.476091,-0.28000927,25.777489,2.5507128,0.2942928,-0.39785624,-0.55538255,-0.8130388,-0.575928,-0.78428894,-0.54235435,0.53830206,0.41378942,0.744001,-0.68083054,-1.9043514,-1.1447635,2.1567864,1.6116579,-0.9109271,0.79099715,-0.6140845,-1.8555152,-1.0802048,2.202866,1.5619856,-0.9490874,-0.88251156,-1.457353,-0.8938216,-1.3860594,-0.8127741,0.41341546,0.32136494,0.20267677,-0.5083313,1.0974761,-3.2726827,-0.098006405,-2.8424778,-0.012104034,-0.48590088,0.9186456,0.8905055,-0.08654973,0.18134277,0.4081959,-0.6830191,-0.8468733,-1.1570776,1.0,0.0,0.0,0.0,0.0,0.0,0.0,-0.85267675,0.10833129,-0.5474761,-11.308861,-0.6248474,-7.2449565,0.42889118,1.1612535,-0.9671867,-0.17692447
-38.974777,17.291088,-4.746558,27.225431,2.8982015,0.25890094,-0.5734334,-0.6311643,-0.81557524,-0.65369076,-0.7772256,-0.51140845,0.5408571,0.3404096,0.7278807,-0.695642,-1.9208844,-1.1579274,2.1517253,1.6160713,-0.9150464,0.7811848,-0.6286843,-1.8653648,-1.0940388,2.1949239,1.5660692,-0.9459555,-1.0121521,-1.4617251,-1.0158461,-1.3804771,-0.7899164,0.40543994,0.31064916,0.16997337,-0.50930786,1.0683362,-3.2694106,-0.09790842,-2.9378219,-0.019651413,-0.4943924,0.90681016,0.89232635,-0.07580701,0.18039729,0.40677246,-0.78045225,-0.838794,-1.198464,1.0,0.0,0.0,0.0,0.0,0.0,0.0,-0.81997335,0.109307855,-0.51833624,-12.3640175,-0.6943941,-12.38674,1.1873245,1.7466068,-1.1272788,-1.0204673
-43.549347,16.999695,-6.293351,28.20672,3.0217063,0.3777297,-0.6779145,-0.70499,-0.80908924,-0.7223797,-0.77226794,-0.5102735,0.53818494,0.24155563,0.7106858,-0.7095932,-1.9376028,-1.1712656,2.1438966,1.6198877,-0.92179996,0.7700325,-0.6432879,-1.8766162,-1.107787,2.1871762,1.5700747,-0.9430039,-1.147478,-1.4609147,-1.1620501,-1.3707213,-0.77173537,0.3973169,0.29002243,0.1373043,-0.5102844,1.0382437,-3.266142,-0.09781053,-3.0330706,-0.028238297,-0.50278854,0.8945332,0.8945203,-0.064511076,0.17934318,0.40436092,-0.88718295,-0.8278303,-1.2437807,1.0,0.0,0.0,0.0,0.0,0.0,0.0,-0.7873043,0.11028442,-0.48824364,-12.905717,-0.2196312,-14.746952,1.6654968,1.2031198,-1.2228549,-2.0349264
-39.092113,24.945364,-2.238337,27.282692,2.8692453,0.6778605,-0.569712,-0.74691,-0.807946,-0.72950715,-0.76814926,-0.48563752,0.55579686,0.19590311,0.6953415,-0.72408247,-1.949567,-1.1846019,2.1386125,1.6256543,-0.9234136,0.7576605,-0.6578667,-1.889077,-1.1214322,2.1796422,1.5740191,-0.9402821,-1.265316,-1.4577783,-1.2743483,-1.3601642,-0.7490978,0.39230677,0.26647112,0.10466766,-0.511261,1.0071993,-3.2628765,-0.09771274,-3.128224,-0.03780365,-0.5109863,0.8818535,0.8970239,-0.052755598,0.17811972,0.40104643,-0.9833534,-0.8027098,-1.2826241,1.0,0.0,0.0,0.0,0.0,0.0,0.0,-0.75466764,0.11126098,-0.45719928,-11.234117,0.027823448,-11.347175,1.6953707,1.7060995,-0.8828342,-2.293682
-30.480976,35.919247,3.9769778,25.531322,2.5533276,0.97682977,-0.42394626,-0.77249575,-0.8035768,-0.73299974,-0.7587144,-0.45929363,0.552543,0.08166718,0.6804109,-0.7382244,-1.962377,-1.1973037,2.1337128,1.6292734,-0.9321154,0.7443348,-0.6723902,-1.9023082,-1.1349534,2.172379,1.5779253,-0.9378588,-1.3535675,-1.4512831,-1.3397299,-1.347873,-0.7201314,0.3889793,0.23453996,0.072063446,-0.51223755,0.9752041,-3.2596142,-0.09761505,-3.223282,-0.04817772,-0.51882553,0.86887246,0.89972234,-0.04074922,0.17662403,0.39704302,-1.0585421,-0.7622216,-1.3101494,1.0,0.0,0.0,0.0,0.0,0.0,0.0,-0.7220634,0.11223754,-0.4252041,-8.407283,0.41360855,-6.653452,1.7530441,2.4624705,-0.62508583,-3.0872166
-22.053003,44.931103,9.345598,23.68114,2.2052686,1.1698589,-0.3215834,-0.7887255,-0.79984033,-0.7473339,-0.74318236,-0.44642028,0.5399724,-0.07466673,0.66546226,-0.75237423,-1.9770416,-1.2092717,2.127737,1.6319226,-0.9453255,0.73036444,-0.6868346,-1.915942,-1.1483124,2.1654058,1.5817991,-0.93584657,-1.4105543,-1.4427792,-1.371643,-1.3306586,-0.6907634,0.38616937,0.1905192,0.039491653,-0.5132141,0.94225895,-3.2563553,-0.09751745,-3.3182452,-0.059135437,-0.5261879,0.85568964,0.9025214,-0.028685426,0.17479222,0.3925301,-1.1123964,-0.71168524,-1.3278133,1.0,0.0,0.0,0.0,0.0,0.0,0.0,-0.6894916,0.113214105,-0.39225894,-5.4089785,0.66883564,-3.2969713,2.1275043,2.6263237,-0.48245192,-4.269421
-16.537775,49.43832,12.543831,22.325203,2.0919251,1.2708343,-0.27118674,-0.80437136,-0.80458134,-0.7545955,-0.7259516,-0.39111018,0.53186625,-0.24493685,0.6499273,-0.76729274,-1.9914016,-1.2209076,2.1262946,1.6349858,-0.96034026,0.71599734,-0.70122933,-1.9297264,-1.161456,2.1588368,1.5856463,-0.9343693,-1.4448028,-1.4388103,-1.3810486,-1.3077409,-0.64592606,0.38362145,0.1340307,0.0069522858,-0.5141907,0.9083649,-3.2530997,-0.097419955,-3.4131134,-0.070552826,-0.53302383,0.84237796,0.9053765,-0.016723055,0.17252383,0.3876201,-1.1548134,-0.65740573,-1.338855,1.0,0.0,0.0,0.0,0.0,0.0,0.0,-0.65695226,0.11419067,-0.35836488,-3.221178,0.2518177,-1.0387421,2.6251554,4.2670727,-0.40300488,-5.4828315
-14.04792,50.82857,13.783037,21.381416,2.3225296,1.2630298,-0.24929193,-0.81915975,-0.80391914,-0.7710688,-0.7198963,-0.21208146,0.47980055,-0.37557065,0.63408136,-0.7816212,-2.0068333,-1.2334456,2.1376288,1.6336263,-0.9719264,0.70138514,-0.71560025,-1.9435756,-1.1743859,2.1531987,1.5894305,-0.93350816,-1.4661596,-1.4370562,-1.3864849,-1.2870296,-0.53718936,0.376255,0.07087345,-0.025554657,-0.51516724,0.8735229,-3.2498472,-0.09732255,-3.5078866,-0.08240318,-0.53933716,0.82898283,0.9083023,-0.004963464,0.16954634,0.38238236,-1.1981388,-0.60501426,-1.3461084,1.0,0.0,0.0,0.0,0.0,0.0,0.0,-0.6244453,0.11516723,-0.32352287,-1.9747734,0.044465065,-0.62372684,2.3728848,10.699105,-0.89163184,-6.0898557
-13.458574,55.389046,16.00316,23.115902,2.6332076,1.474366,-0.27318108,-0.83100504,-0.7980042,-0.7573534,-0.6725166,-0.09020469,0.51539683,-0.41851774,0.61828464,-0.7954007,-2.019311,-1.2416376,2.1441782,1.6409701,-0.9753599,0.68660605,-0.72993875,-1.9573753,-1.1869458,2.14893,1.5931727,-0.9332526,-1.4814613,-1.4332223,-1.3777673,-1.2447069,-0.39054638,0.37323025,0.011252387,-0.058029175,-0.51613617,0.83773386,-3.246598,-0.09722525,-3.6025653,-0.0947094,-0.5450859,0.81561476,0.91132385,0.006415341,0.16567034,0.37682998,-1.2444372,-0.5472861,-1.3396956,0.0,1.0,0.0,0.0,0.0,0.0,0.0,-0.5919708,0.11613616,-0.28773385,-1.4118433,0.26421547,0.8227825,4.4880867,14.540863,-0.41684508,-5.7062745
-11.407383,59.265957,17.500849,22.883066,2.0426261,1.5916489,-0.2797235,-0.832458,-0.7889275,-0.76556957,-0.63821065,-0.24040776,0.56580013,-0.42298424,0.60336024,-0.8088315,-2.0339322,-1.2507669,2.1248894,1.6497527,-0.975551,0.67181325,-0.74414766,-1.9721087,-1.1992961,2.1453824,1.5988276,-0.9331854,-1.477833,-1.4176674,-1.5000004,-1.2288868,-0.35211474,0.6088386,-0.0026408352,-0.077358246,-0.51501083,0.8322927,-1.6413479,0.22086039,0.3257112,-0.10744667,-0.55008316,0.8019826,0.914283,0.016977694,0.1615823,0.37106523,-1.2832166,-0.46834996,-1.3752023,0.0,1.0,0.0,0.0,0.0,0.0,0.0,-0.57264173,0.11501083,-0.28229266,-0.3525257,0.6799221,0.32362938,6.269121,5.8357954,-0.35808086,-5.122489
57.31749,176.0,110.0,110.0,3.3487377,13.067656,-1.3773996,-0.8250659,0.47607285,0.63798755,0.67436093,-0.23283401,0.66174406,-0.39090356,0.58930665,-0.69654036,-1.9083099,-1.13186,2.122099,1.665002,-0.97227573,0.6612723,-0.76072824,-1.9805106,-1.1986362,2.133408,1.6137774,-0.93335325,-0.9030836,-1.6762143,-0.72191864,0.4735421,-1.3883325,1.8374332,0.008956701,-0.09375954,-0.51280594,0.8348109,-1.6397069,0.22063959,0.22719961,-0.11958504,-0.5521889,0.7922099,0.9165752,0.017502207,0.16201177,0.36515152,-1.1908026,-0.1047561,-0.8500165,1.0,0.0,0.0,0.0,0.0,0.0,0.0,-0.55624044,0.11280593,-0.2848109,60.406982,-7.2435856,47.37935,163.01007,-76.377655,136.98532,10.279121
-37.980576,174.74686,60.43585,103.178314,7.023979,5.249711,-2.106449,-0.82516605,-0.5467424,-0.3573195,0.74309397,-0.55380785,0.59968764,-0.08596975,0.5787557,-0.8154025,-2.0162425,-1.1243268,2.0780272,1.6737461,-0.9419502,0.6522801,-0.77634084,-1.9855117,-1.1871501,2.1185765,1.6320937,-0.933317,-0.89643174,-1.5241206,-0.42468163,1.3750268,-1.516413,1.8357126,0.002686526,-0.11014366,-0.51060104,0.8363447,-1.6380675,0.22041899,0.12878652,-0.13211632,-0.5520897,0.78662634,0.91909343,0.011941455,0.165481,0.35740826,-1.2704495,0.058602057,-0.46679083,1.0,0.0,0.0,0.0,0.0,0.0,0.0,-0.5398563,0.11060104,-0.2863447,1.128149,14.8576975,30.208843,90.63136,-13.413644,1.5850544,-0.3621369
-60.431644,143.73389,32.914146,78.72868,5.5076227,2.7148695,-1.7497212,-0.80605376,-0.4575689,-0.5719357,0.7226802,-0.6342339,0.53924686,0.36824322,0.5716747,-0.8220977,-2.0427053,-1.1148821,2.0551531,1.6860183,-0.89649266,0.64233994,-0.7893957,-1.9902457,-1.1701556,2.104012,1.6493323,-0.9329956,-1.0243118,-1.2341423,-0.4906856,1.8096763,-1.4374783,1.6899548,0.041606992,-0.12651253,-0.50839615,0.83689517,-1.6364298,0.22019862,0.030471813,-0.14554977,-0.5507202,0.7836792,0.9221222,0.005044577,0.17058022,0.34722838,-1.3642578,0.17043692,-0.24500933,1.0,0.0,0.0,0.0,0.0,0.0,0.0,-0.52348745,0.10839614,-0.28689516,-12.09029,28.559208,-6.863892,44.08071,7.604122,-13.592696,3.775429
-54.09709,96.74115,15.883506,48.308792,3.787144,1.0891159,-0.892128,-0.785406,-0.5405786,-0.4282199,0.77368927,-0.6260206,0.5420169,0.3691529,0.5637993,-0.8434535,-2.0330677,-1.0927867,2.04141,1.703534,-0.8960803,0.6307986,-0.8001903,-1.9958647,-1.1514274,2.0908628,1.6647341,-0.93230325,-1.1958425,-1.0290275,-0.5867904,1.8950334,-1.2745361,1.4914346,0.078019775,-0.14286613,-0.5061989,0.8364632,-1.6347936,0.21997847,-0.0677446,-0.15976906,-0.54857635,0.7819155,0.92546064,-0.0012017987,0.17630348,0.3353179,-1.4378257,0.23794273,-0.1611177,1.0,0.0,0.0,0.0,0.0,0.0,0.0,-0.50713384,0.10619888,-0.2864632,-16.68961,20.163227,-9.965825,8.92818,16.069984,-19.45796,3.5271049
-37.605858,61.425953,6.348564,24.362535,1.9158511,0.035845995,-0.21096875,-0.78287405,-0.54638046,-0.4527726,0.7742377,-0.6496433,0.58572704,0.34260002,0.55251116,-0.85482836,-2.041142,-1.0740036,2.0258985,1.7233068,-0.8980433,0.61779046,-0.809625,-2.0026238,-1.1333019,2.0792203,1.678282,-0.9312981,-1.3352028,-0.91579944,-0.70621544,1.7857467,-1.1284778,1.3097588,0.10761588,-0.15920067,-0.5040016,0.8350418,-1.6331592,0.21975853,-0.16692802,-0.17447281,-0.5460434,0.78024393,0.9288779,-0.005889978,0.18196298,0.32255307,-1.4771096,0.26861674,-0.17563742,1.0,0.0,0.0,0.0,0.0,0.0,0.0,-0.4907993,0.10400161,-0.2850418,-13.731599,11.10146,-12.162662,-10.754681,14.383125,-18.03875,2.8164194
-20.374146,53.36403,7.0851336,13.270207,0.65770626,-0.3383168,0.15593636,-0.78411716,-0.47864255,-0.5063825,0.7883085,-0.6557055,0.5601071,0.3652148,0.53937876,-0.8574893,-2.053262,-1.054471,2.0136497,1.7342927,-0.8947766,0.6037934,-0.8182014,-2.0105813,-1.116664,2.0687184,1.6901839,-0.9300211,-1.4210802,-0.8388593,-0.82587665,1.6231027,-1.0256182,1.1504904,0.13379619,-0.17551994,-0.50180435,0.8326293,-1.6315264,0.21953881,-0.2660123,-0.18929672,-0.54333496,0.7781978,0.9322038,-0.008783618,0.18740115,0.30951503,-1.4799402,0.2834591,-0.21950576,1.0,0.0,0.0,0.0,0.0,0.0,0.0,-0.47448003,0.101804346,-0.2826293,-8.561873,7.521832,-11.958515,-16.237759,9.948039,-15.878701,2.4235442
-16.616537,44.54503,4.4019938,10.387538,0.34520596,-0.6190435,0.18550497,-0.8065576,-0.4498405,-0.63564444,0.7900082,-0.6416833,0.5126419,0.37361056,0.5231376,-0.86318547,-2.0741458,-1.0376632,2.0045502,1.741448,-0.89266,0.5892165,-0.8262285,-2.0200455,-1.1014873,2.058968,1.7006495,-0.9285086,-1.4697106,-0.7912462,-0.9862051,1.4828304,-0.95884466,1.0118506,0.15638883,-0.19182396,-0.4996109,0.82922673,-1.6298952,0.21931931,-0.36499754,-0.20414734,-0.5405693,0.7755838,0.93539214,-0.009829725,0.19267377,0.29634732,-1.4815435,0.28516576,-0.27921623,1.0,0.0,0.0,0.0,0.0,0.0,0.0,-0.45817602,0.099610895,-0.27922672,-4.8437834,4.616809,-16.004456,-13.979888,6.3886046,-13.879919,2.0620108
-14.983398,35.791775,2.3091938,9.64524,0.37229013,-0.70962083,0.17698076,-0.8141074,-0.47166386,-0.7067699,0.7829035,-0.6558053,0.54224914,0.3882161,0.5078057,-0.8733949,-2.0907226,-1.0231969,1.9933876,1.7548745,-0.88968694,0.57438016,-0.8341068,-2.031131,-1.0873519,2.0496068,1.7099211,-0.92678624,-1.4881588,-0.7871561,-1.148905,1.3908954,-0.9291459,0.8987106,0.17701781,-0.20811081,-0.49742126,0.82483506,-1.6282656,0.21910004,-0.4638838,-0.21905708,-0.5378494,0.77230835,0.9384343,-0.009150482,0.19781338,0.28306723,-1.490014,0.28028297,-0.34670553,1.0,0.0,0.0,0.0,0.0,0.0,0.0,-0.44188917,0.09742126,-0.27483505,-1.7969847,0.28100014,-16.229652,-9.076095,2.7314544,-11.386406,1.9062191
-16.777935,22.69239,-1.475169,8.781165,0.534184,-0.76001537,0.14025125,-0.82607025,-0.53238344,-0.76271564,0.76409656,-0.7011743,0.556115,0.31480977,0.49177313,-0.88734514,-2.1074026,-1.0109422,1.9794893,1.7655326,-0.8953053,0.559459,-0.8423723,-2.043708,-1.0738326,2.0402532,1.7182219,-0.9249342,-1.493149,-0.84006137,-1.2943046,1.3395964,-0.93778205,0.80668205,0.18771265,-0.2243805,-0.49523163,0.81945527,-1.6266377,0.218881,-0.5626711,-0.23416519,-0.5352211,0.7682534,0.9413382,-0.0069127185,0.20277616,0.26965958,-1.5132749,0.2707176,-0.42785966,1.0,0.0,0.0,0.0,0.0,0.0,0.0,-0.42561948,0.09523162,-0.26945525,-0.38716793,-5.3999066,-14.54854,-4.887557,-1.0174751,-9.318697,0.98558366
-13.5100355,16.435282,-1.2270583,7.6945877,0.7273396,-0.63884497,0.18434611,-0.8118906,-0.6034693,-0.75939006,0.76459646,-0.70149624,0.6097983,0.3106253,0.4782699,-0.90271926,-2.119647,-0.997373,1.9701035,1.7792017,-0.89387167,0.54462266,-0.85153806,-2.0572999,-1.060548,2.0307317,1.7257674,-0.9229954,-1.4801718,-0.94245243,-1.3805804,1.3258,-0.95711905,0.7365107,0.19596702,-0.24063492,-0.493042,0.8130883,-1.6250113,0.21866216,-0.6613597,-0.24953842,-0.53266907,0.7633761,0.94409865,-0.0034370017,0.20740253,0.25622246,-1.5411648,0.26281434,-0.510178,1.0,0.0,0.0,0.0,0.0,0.0,0.0,-0.40936506,0.093041986,-0.2630883,1.4121532,-10.333073,-8.607316,-1.0635614,-2.0561576,-7.16058,0.8348167
-8.377595,23.56527,3.1482913,8.288004,0.7982359,-0.3355677,0.2392166,-0.79907393,-0.63205284,-0.75413805,0.7663018,-0.7016965,0.6269976,0.35875183,0.46471527,-0.91474336,-2.1327136,-0.9839178,1.960562,1.7884672,-0.8871202,0.52999425,-0.8617605,-2.0713303,-1.0472327,2.0210118,1.7327254,-0.92094976,-1.4568241,-1.0492789,-1.4101065,1.3343837,-0.97745615,0.6816057,0.20747289,-0.25687408,-0.49086,0.80573523,-1.6233866,0.21844354,-0.7599497,-0.26511765,-0.5301323,0.75779396,0.9466868,0.00090338255,0.21161447,0.24290411,-1.5589875,0.2646117,-0.57706404,1.0,0.0,0.0,0.0,0.0,0.0,0.0,-0.3931259,0.09085998,-0.25573522,2.3880482,-10.7887745,-2.8065443,1.1492968,-2.2267222,-5.642462,1.187709
-2.3384151,27.90928,6.1288095,7.184458,0.67861235,-0.21488118,0.30144238,-0.77014095,-0.68337613,-0.766597,0.7653438,-0.7032795,0.61469257,0.37123558,0.45298016,-0.9300981,-2.14799,-0.97069836,1.9506838,1.7941947,-0.8838262,0.5157101,-0.8730558,-2.0854409,-1.0337783,2.0111165,1.7392027,-0.91878873,-1.4189706,-1.15664,-1.4110539,1.3501192,-0.9941434,0.63603574,0.21908292,-0.27309418,-0.48867798,0.797397,-1.6217636,0.21822515,-0.85844105,-0.2807865,-0.5275612,0.75159496,0.9490796,0.0058642537,0.21537425,0.229842,-1.565088,0.2685733,-0.6374023,1.0,0.0,0.0,0.0,0.0,0.0,0.0,-0.3769058,0.08867797,-0.247397,3.7778854,-10.839105,0.13651848,1.8181324,-1.9028306,-4.712689,1.2082219
4.0438743,40.620102,11.470054,7.6855183,0.5825967,0.056143403,0.35205346,-0.74596107,-0.7002622,-0.74687564,0.76519334,-0.6884849,0.640742,0.4033907,0.441114,-0.94308203,-2.1601284,-0.957259,1.942268,1.8032769,-0.8784497,0.501858,-0.88522756,-2.0993454,-1.0201789,2.0011373,1.7453063,-0.9165018,-1.3741975,-1.2377385,-1.3827558,1.3635864,-1.0005904,0.6013437,0.23201992,-0.289299,-0.48649597,0.7880746,-1.6201422,0.21800697,-0.95683396,-0.2963791,-0.5248909,0.7449328,0.9512526,0.011215849,0.21871407,0.21715622,-1.5524452,0.28001928,-0.6795215,0.0,1.0,0.0,0.0,0.0,0.0,0.0,-0.36070096,0.086495966,-0.2380746,4.378152,-8.22978,3.2179594,1.480484,-1.0010362,-3.6222816,1.3054907
8.3637905,48.792862,14.46484,7.663951,0.45528847,0.1733911,0.37814683,-0.7178043,-0.7244177,-0.74550325,0.76232874,-0.68090886,0.6348414,0.41439736,0.43007755,-0.9576693,-2.1738958,-0.94394606,1.9330463,1.8087904,-0.8750621,0.4884932,-0.8980421,-2.1129372,-1.0064994,1.9911485,1.7511103,-0.91409093,-1.3244449,-1.2964771,-1.3498913,1.3695819,-0.99987054,0.5727963,0.24400684,-0.3054886,-0.48431778,0.77776897,-1.6185224,0.21778901,-1.0551285,-0.31175613,-0.5220947,0.73792344,0.95319146,0.016834527,0.22169708,0.20492196,-1.5267924,0.2932623,-0.7120317,0.0,1.0,0.0,0.0,0.0,0.0,0.0,-0.3445114,0.08431777,-0.22776896,4.8191547,-6.0034513,3.7657738,0.6522894,-0.36088228,-3.008628,1.171574
13.430128,54.370956,16.329763,6.361887,0.124320626,0.17212081,0.43535057,-0.6786981,-0.73718196,-0.76178694,0.74367845,-0.6887468,0.6334179,0.4391877,0.4206234,-0.9717603,-2.189116,-0.9321316,1.9222738,1.814452,-0.87017214,0.475693,-0.91127336,-2.1263268,-0.9928886,1.9811559,1.7566664,-0.9115589,-1.2658832,-1.3325112,-1.3338424,1.357993,-1.0004394,0.5493759,0.25604314,-0.3216629,-0.4821434,0.76648116,-1.6169043,0.21757127,-1.1533247,-0.32676697,-0.51919174,0.73060614,0.9548776,0.0227323,0.22441705,0.19320686,-1.4867973,0.30262986,-0.74256366,0.0,1.0,0.0,0.0,0.0,0.0,0.0,-0.32833707,0.082143396,-0.21648115,5.648875,-3.7325144,2.1419525,-1.191783,-0.5389929,-2.4932504,1.1147976
15.877227,58.454216,17.515287,6.0104346,0.060227096,0.17937016,0.45524505,-0.65144235,-0.7499381,-0.75127697,0.7251825,-0.6614268,0.6023145,0.43556833,0.41054875,-0.98626715,-2.2014544,-0.9203704,1.9150132,1.8168979,-0.8680021,0.46348628,-0.9247573,-2.1396427,-0.97953016,1.9711757,1.7620288,-0.90899724,-1.2036747,-1.3544074,-1.3459913,1.3208705,-1.0095216,0.54529756,0.2378837,-0.33782768,-0.47915268,0.75646204,-1.5644912,0.53087234,-0.2926818,-0.34132195,-0.5162163,0.7229806,0.95631087,0.028934354,0.2269306,0.1820293,-1.4371948,0.30756998,-0.7808107,0.0,1.0,0.0,0.0,0.0,0.0,0.0,-0.3121723,0.07915267,-0.20646203,6.380439,-2.3575783,-3.0594587,-4.8623085,-3.3604622,1.2662172,-4.708734
-14.425678,78.93092,16.562397,21.612772,1.4389501,0.91672266,0.08412901,-0.7750463,-0.66589624,-0.7546863,0.75368726,-0.70399404,0.5406566,0.5209293,0.38598165,-0.99134696,-2.2151113,-0.90416145,1.9007763,1.8160945,-0.8569043,0.45117244,-0.93796283,-2.1530933,-0.966358,1.9610362,1.7672969,-0.9064948,-1.2408935,-1.3100951,-1.3430936,1.3162081,-1.0176975,0.5200337,0.25389242,-0.3534603,-0.47385025,0.75279003,-1.562927,0.5303416,-0.3920341,-0.35562515,-0.5128403,0.7152869,0.95750093,0.035505276,0.22959422,0.17093197,-1.4213368,0.35798147,-0.7697801,0.0,1.0,0.0,0.0,0.0,0.0,0.0,-0.29653966,0.073850244,-0.20279002,-3.8037062,4.1728973,0.87046623,-0.39258003,-1.4868498,-2.7020335,1.4461488
-20.694508,82.43586,15.758509,24.46653,1.717164,1.0405059,0.013206497,-0.7663069,-0.66374433,-0.76781476,0.74703807,-0.7126433,0.5493969,0.5318637,0.37454176,-1.0043373,-2.2298748,-0.8916542,1.8897718,1.8222365,-0.85330844,0.43837222,-0.95064956,-2.1665974,-0.95319635,1.9507842,1.772338,-0.90382737,-1.2932352,-1.2558024,-1.35084,1.3165224,-1.0299073,0.49815637,0.27047235,-0.36907768,-0.46855164,0.74812526,-1.5613644,0.5298114,-0.49128708,-0.36981583,-0.5089226,0.7077413,0.95845306,0.04245118,0.23246872,0.15976153,-1.4117395,0.41637212,-0.75329906,0.0,1.0,0.0,0.0,0.0,0.0,0.0,-0.2809223,0.06855163,-0.19812524,-5.29716,5.150199,-0.18014908,0.1354456,-1.9142389,-2.3839831,1.4935076
-23.63874,84.330505,15.235729,25.576374,1.8623633,1.0728655,0.00118424,-0.7838621,-0.64114475,-0.7847205,0.7321398,-0.71895283,0.5060904,0.54626167,0.359986,-1.0147641,-2.2450695,-0.87998235,1.878889,1.822947,-0.8492012,0.42499456,-0.9627612,-2.1802197,-0.94005185,1.9404235,1.7771369,-0.90097684,-1.3528293,-1.1972096,-1.3641536,1.3141053,-1.0404754,0.4730126,0.28927845,-0.3846798,-0.46325684,0.74246866,-1.5598034,0.5292817,-0.59044075,-0.3839283,-0.5043869,0.70037323,0.9591599,0.04981302,0.23555794,0.14846995,-1.4046994,0.47763434,-0.73487747,0.0,1.0,0.0,0.0,0.0,0.0,0.0,-0.26532018,0.06325683,-0.19246864,-6.0254097,5.5722475,-0.7088661,-0.13151169,-1.7812014,-2.7369022,1.7116964
-17.406977,84.46529,16.277338,23.562351,1.7021416,1.0202353,0.06350568,-0.77849805,-0.6240979,-0.7818059,0.7347535,-0.7183606,0.5422808,0.56722075,0.34714475,-1.025171,-2.2584002,-0.8665765,1.8685874,1.831365,-0.84425473,0.41117105,-0.9743417,-2.193945,-0.92691976,1.9299827,1.7817355,-0.89794034,-1.3925691,-1.1459115,-1.373177,1.3131031,-1.0478086,0.4545227,0.30779216,-0.40026665,-0.45796967,0.7358213,-1.5582439,0.5287525,-0.6894953,-0.39790916,-0.49927902,0.6931778,0.95960784,0.057549477,0.23882087,0.13713291,-1.3891668,0.5323132,-0.7176039,0.0,1.0,0.0,0.0,0.0,0.0,0.0,-0.24973333,0.05796966,-0.1858213,-4.0920496,4.8637867,-0.22046566,-0.048327446,-1.4748096,-2.0866632,1.6743124
-11.586617,84.63666,17.196468,21.66275,1.5353358,0.9526788,0.12177424,-0.7842071,-0.60100293,-0.78112787,0.7315949,-0.72559124,0.5311752,0.57990533,0.33275032,-1.034442,-2.2720578,-0.85376024,1.8574235,1.834853,-0.8399498,0.39707288,-0.98545104,-2.2077236,-0.91381055,1.9194694,1.7861644,-0.89473027,-1.4161141,-1.1000975,-1.3771052,1.3101573,-1.0552094,0.43823332,0.32488808,-0.41583824,-0.4526863,0.7281841,-1.5566859,0.5282239,-0.78845084,-0.4116783,-0.4936905,0.6861435,0.95978606,0.06561167,0.24221449,0.12584881,-1.3654764,0.57961667,-0.70156956,0.0,1.0,0.0,0.0,0.0,0.0,0.0,-0.23416173,0.052686304,-0.17818409,-2.517271,4.336238,0.3419876,-0.29945374,-1.5049219,-1.8752158,1.5208423
-6.007511,79.57309,16.475052,18.113058,1.2133915,0.775979,0.20474187,-0.78564507,-0.5913521,-0.7975727,0.70756274,-0.73218393,0.48957092,0.5603023,0.3185084,-1.0445863,-2.2874808,-0.8430543,1.846251,1.8351215,-0.83870006,0.38285944,-0.99619675,-2.2216928,-0.9008579,1.9092295,1.7905487,-0.8912615,-1.4237385,-1.0668225,-1.4004214,1.2898848,-1.0222117,0.43654758,0.3501942,-0.42907715,-0.44797134,0.7215481,-1.2840371,0.46976992,-0.61490643,-0.42521286,-0.48767853,0.6791734,0.95971966,0.07394452,0.24555556,0.114772536,-1.3415214,0.61948377,-0.69833356,0.0,1.0,0.0,0.0,0.0,0.0,0.0,-0.22092283,0.047971338,-0.17154807,-1.0375023,3.1311274,-0.72221756,-1.8843889,-0.46105385,-1.7967045,1.4163017
-0.80793524,73.82865,16.324085,15.709508,1.2735343,0.6620749,0.24081999,-0.77649224,-0.6098528,-0.7600818,0.7236671,-0.68575317,0.4878301,0.5967564,0.3052102,-1.0571821,-2.297701,-0.8284912,1.8406543,1.8393317,-0.8315859,0.3686758,-1.0068161,-2.235627,-0.8880174,1.8991586,1.7948276,-0.88765013,-1.4172014,-1.0610363,-1.3888134,1.2819059,-1.004084,0.42431203,0.36432233,-0.44164848,-0.443264,0.71525514,-1.2460039,0.47083306,-0.63014376,-0.43847847,-0.4813385,0.6722011,0.9594342,0.082479045,0.24874827,0.103959315,-1.3144828,0.64933014,-0.6991949,0.0,1.0,0.0,0.0,0.0,0.0,0.0,-0.2083515,0.043264,-0.16525513,0.46236515,0.39901733,1.8631697,-0.8419275,1.1273623,-1.4621079,1.2628973
5.6934757,73.058655,17.52797,14.025653,1.2214341,0.5848565,0.26584157,-0.75802934,-0.6102584,-0.731598,0.7286364,-0.6628824,0.45998082,0.59933954,0.29287285,-1.067842,-2.3087866,-0.8151538,1.8328704,1.8408257,-0.8277162,0.35467246,-1.0174762,-2.2492595,-0.875194,1.8892821,1.7989686,-0.8839205,-1.3953978,-1.0679895,-1.3524395,1.282134,-0.9841475,0.41001984,0.37541887,-0.45381927,-0.43857193,0.70880145,-1.2055601,0.46814543,-0.64622563,-0.4514389,-0.4747696,0.66522807,0.95896643,0.09106769,0.25169563,0.09348415,-1.2817967,0.67123693,-0.6987007,0.0,1.0,0.0,0.0,0.0,0.0,0.0,-0.1961807,0.038571924,-0.15880144,1.9593716,-0.8505583,4.375458,-0.061941147,1.292634,-1.65779,0.9713292
15.018439,82.54562,21.904488,14.324409,1.3072414,0.66311395,0.2763595,-0.7253956,-0.5822772,-0.6777184,0.739646,-0.6247159,0.4563226,0.6344093,0.2821329,-1.0757039,-2.3170314,-0.8012294,1.8268105,1.8446008,-0.8204796,0.34102902,-1.0281059,-2.2622814,-0.86229426,1.8796878,1.8029786,-0.88006896,-1.3549969,-1.0618001,-1.282657,1.2918329,-0.9534921,0.39751667,0.38800913,-0.4655094,-0.43393326,0.70230997,-1.1540967,0.46114042,-0.64504725,-0.46395683,-0.46801758,0.6584068,0.9583435,0.09947949,0.2544033,0.08342988,-1.2342976,0.6870694,-0.6786197,0.0,1.0,0.0,0.0,0.0,0.0,0.0,-0.18449056,0.033933252,-0.15230995,3.7383556,0.47252178,7.8784466,0.7678747,2.2426128,-1.4819324,1.107508
16.1782,77.29575,20.784014,12.803791,1.3884103,0.5177723,0.28073975,-0.71739525,-0.6095335,-0.6370973,0.72818863,-0.56871164,0.34733474,0.6331704,0.2692895,-1.0890592,-2.3259912,-0.7894754,1.8228166,1.837712,-0.8167519,0.32778046,-1.0387908,-2.2744946,-0.8493449,1.8705244,1.8067958,-0.8761039,-1.3157147,-1.0710379,-1.1982627,1.2953658,-0.90622115,0.3757488,0.39909035,-0.47672272,-0.42938232,0.6957756,-1.1078274,0.45186356,-0.65198696,-0.4760418,-0.46113968,0.65174425,0.95762885,0.10759629,0.25674725,0.07382875,-1.1921154,0.69780105,-0.6639192,0.0,1.0,0.0,0.0,0.0,0.0,0.0,-0.17327726,0.029382318,-0.14577562,3.6504984,-1.0528564,9.29153,0.1825571,3.9415479,-2.4176776,1.0125756
30.092705,79.841995,24.35111,9.475694,1.2553763,0.3842004,0.3690917,-0.6587908,-0.61126417,-0.5368251,0.71012956,-0.49086192,0.20245689,0.64239955,0.26190138,-1.0999173,-2.3281772,-0.77833194,1.8214382,1.8270415,-0.8118639,0.31510174,-1.0495826,-2.2855525,-0.8364709,1.8620126,1.8103044,-0.87203217,-1.2530348,-1.0821129,-1.071898,1.283799,-0.83547425,0.34201238,0.40961078,-0.4874153,-0.42497635,0.6892312,-1.0535942,0.43548578,-0.65054184,-0.4875965,-0.4542656,0.64528346,0.95690686,0.115218766,0.25855815,0.06481935,-1.1356384,0.69237936,-0.641903,0.0,1.0,0.0,0.0,0.0,0.0,0.0,-0.16258466,0.024976343,-0.1392312,5.9250355,-1.2052774,13.601637,-1.4349461,6.19179,-3.6064565,0.96559525
43.065865,85.618614,29.025097,7.4037123,1.4989882,0.3198166,0.42926103,-0.619242,-0.6178718,-0.36274981,0.67560625,-0.3557644,-0.02000382,0.6498,0.25317755,-1.1113697,-2.3218274,-0.7689103,1.8264362,1.8083041,-0.80705214,0.30312923,-1.0605003,-2.2947407,-0.8238926,1.8545254,1.8133361,-0.86785954,-1.179948,-1.0952008,-0.8641978,1.2480079,-0.7230384,0.28950953,0.41969392,-0.49749565,-0.4207878,0.6828007,-0.99035406,0.4117879,-0.6362879,-0.49849892,-0.44752884,0.63916206,0.95632094,0.12195402,0.25956902,0.056579445,-1.0679005,0.6750066,-0.60396767,0.0,1.0,0.0,0.0,0.0,0.0,0.0,-0.15250432,0.020787805,-0.1328007,6.913185,-1.3878107,21.885014,-3.9355993,10.210156,-5.4800987,0.9668648
58.07052,83.89228,33.15485,2.6977382,2.1735892,0.18090338,0.4776932,-0.5733493,-0.6541197,-0.123512164,0.5964303,0.04142578,-0.2985041,0.6387314,0.2457943,-1.1259122,-2.307092,-0.76424956,1.858668,1.7834858,-0.80398643,0.29195252,-1.0716888,-2.3010337,-0.8120248,1.8492131,1.8156672,-0.8636023,-1.098268,-1.1269525,-0.5469422,1.1649759,-0.47068197,0.21358128,0.42802495,-0.5069351,-0.41687012,0.6765586,-0.9257178,0.38364434,-0.61592466,-0.5087147,-0.44103622,0.63353103,0.9561835,0.12707384,0.25910288,0.04930474,-0.9995315,0.64836514,-0.551171,0.0,1.0,0.0,0.0,0.0,0.0,0.0,-0.14306486,0.016870111,-0.1265586,7.758069,-3.2293797,32.91527,-8.694959,24.123562,-7.83768,0.9037018
76.67594,94.74279,42.224705,0.2474438,3.2533484,0.54787403,0.50756276,-0.5466478,-0.67267865,0.32912445,0.48533654,0.39773434,-0.3710851,0.60839176,0.23728774,-1.1389567,-2.2681212,-0.7634911,1.8889866,1.7785586,-0.8027631,0.2815331,-1.0832511,-2.302521,-0.8014341,1.8472813,1.8172414,-0.85929215,-1.0245652,-1.1660956,-0.011366028,1.0223835,-0.10489089,0.1381226,0.43247318,-0.5156002,-0.4132805,0.6707603,-0.84519726,0.349704,-0.56525344,-0.5181198,-0.43479538,0.6287383,0.95688534,0.12935475,0.25644496,0.043287043,-0.9147067,0.62201333,-0.45693177,0.0,1.0,0.0,0.0,0.0,0.0,0.0,-0.13439977,0.013280481,-0.12076026,6.9568396,-3.986168,54.955452,-14.673805,35.272972,-7.737839,0.57021976
75.93988,91.7495,40.813004,0.9460882,3.4206784,0.3645244,0.37287393,-0.4866701,-0.7000761,0.467955,0.4866601,0.56847394,-0.42408583,0.58657736,0.23286608,-1.1532587,-2.2557254,-0.7527681,1.9041288,1.7748328,-0.8006344,0.2719296,-1.0952636,-2.2987747,-0.7920661,1.8490688,1.818098,-0.85496724,-0.9398307,-1.2134618,0.50768924,0.90749323,0.2696852,0.067858666,0.43274727,-0.52347565,-0.41004562,0.6654872,-0.7678447,0.3145821,-0.51371,-0.5267563,-0.42882156,0.6248727,0.95853966,0.12838049,0.25147623,0.03846839,-0.8423108,0.59404427,-0.36501724,0.0,1.0,0.0,0.0,0.0,0.0,0.0,-0.12652433,0.010045618,-0.11548716,8.201206,-4.8685074,53.11615,-11.706829,36.360806,-7.1350904,0.10021329
76.976074,83.37397,35.828335,-2.1617556,2.0899563,-0.09626958,0.44166815,-0.39005896,-0.6945433,0.4754225,0.42069733,0.6113281,-0.40980712,0.578248,0.23292369,-1.1647179,-2.2512324,-0.74999636,1.9102015,1.7771173,-0.79714245,0.26343095,-1.107629,-2.2910697,-0.78381133,1.8540345,1.818348,-0.8506538,-0.82053685,-1.2447025,0.8613942,0.79796183,0.5691022,0.01058162,0.43078613,-0.53059196,-0.40720367,0.6606498,-0.6939053,0.27448663,-0.47530845,-0.53466415,-0.42329788,0.6216501,0.9609339,0.12475583,0.24461012,0.034751795,-0.7709033,0.54520315,-0.31040025,0.0,1.0,0.0,0.0,0.0,0.0,0.0,-0.11940801,0.0072036684,-0.110649765,11.729503,-3.3006191,36.378788,-11.002946,29.080427,-5.7275586,-0.21410584
75.17967,80.56267,32.10243,-3.275187,1.0020394,-0.34039354,0.51416886,-0.31864357,-0.6827948,0.5629709,0.350089,0.657584,-0.34488595,0.5844555,0.2315666,-1.1759084,-2.2347727,-0.7488024,1.9197929,1.7838595,-0.79220825,0.25624797,-1.1201335,-2.2808015,-0.77665424,1.861363,1.8181525,-0.84635586,-0.6847077,-1.2530669,1.0849148,0.6886295,0.7850332,-0.02936561,0.42933035,-0.53697014,-0.40478897,0.65615916,-0.6213546,0.23139563,-0.44414422,-0.54183006,-0.41835403,0.6187813,0.9637793,0.11925641,0.23638359,0.032096215,-0.6976071,0.48288247,-0.28186956,0.0,1.0,0.0,0.0,0.0,0.0,0.0,-0.11302984,0.004788965,-0.10615915,13.431322,-1.0371447,23.181475,-10.843622,20.938229,-3.8972287,-0.17409325
54.81675,73.49751,24.794226,-0.2591269,0.615725,-0.39769682,0.4593321,-0.31394932,-0.6864982,0.61584985,0.28317115,0.6897536,-0.2894295,0.56934947,0.22485304,-1.1887833,-2.2192166,-0.74833715,1.9303384,1.7892096,-0.7894209,0.2501594,-1.1326457,-2.2691028,-0.7706046,1.8702819,1.8176578,-0.84208035,-0.5837944,-1.2510792,1.2000942,0.57775265,0.9260194,-0.05578802,0.42703623,-0.5427265,-0.4027481,0.6518301,-0.5631982,0.1963767,-0.43407863,-0.5484028,-0.4139328,0.61599475,0.9668349,0.112614594,0.22721976,0.030321997,-0.64309597,0.43260953,-0.2806488,0.0,1.0,0.0,0.0,0.0,0.0,0.0,-0.10727346,0.002748102,-0.101830065,10.028421,0.027060509,11.977935,-10.889303,13.771116,-2.4870248,-0.18282533
59.513256,55.73713,19.77846,-10.984855,-1.0336109,-0.5600699,0.8728347,-0.26794073,-0.68926,0.6599607,0.00587035,0.7237728,-0.19894452,0.54113543,0.22336534,-1.2015717,-2.2031066,-0.77001756,1.9426593,1.7977633,-0.7879668,0.2449484,-1.145116,-2.2567177,-0.7666721,1.8802199,1.8170108,-0.83784175,-0.5005161,-1.246089,1.2526067,0.33247274,1.0153241,-0.067066886,0.4230893,-0.54795456,-0.401062,0.6473647,-0.5124981,0.16062482,-0.45629907,-0.55430984,-0.41018295,0.6128299,0.96996117,0.10547275,0.2171808,0.02971915,-0.5739899,0.3610628,-0.3316122,0.0,1.0,0.0,0.0,0.0,0.0,0.0,-0.10204542,0.0010620058,-0.097364664,8.238422,0.31061172,5.5633307,-24.317938,8.710587,-0.90865195,-0.29363632
41.05758,36.575985,11.133178,-15.246916,-1.6937685,-0.51218295,1.106785,-0.33495906,-0.69255483,0.6651028,-0.27734226,0.7472112,-0.1945205,0.5492319,0.2114525,-1.2143714,-2.1902075,-0.7944063,1.954941,1.7975587,-0.7829186,0.23997058,-1.1575481,-2.2441657,-0.76622504,1.890782,1.8162739,-0.8336295,-0.49698806,-1.242683,1.2558744,-0.050329536,1.0698073,-0.07532841,0.42125544,-0.5528221,-0.3996544,0.64234555,-0.48089403,0.1353977,-0.5225982,-0.5595989,-0.40706253,0.60879445,0.9730867,0.09844038,0.20610361,0.03054406,-0.51475745,0.29959714,-0.43069607,0.0,1.0,0.0,0.0,0.0,0.0,0.0,-0.09717786,-0.00034561753,-0.092345536,0.31776428,0.1707077,0.23152828,-38.040234,5.4991484,-0.6075382,0.032269955
23.930601,30.99551,6.60914,-12.181746,-1.488776,-0.49580365,1.0081195,-0.35253686,-0.702189,0.64448965,-0.39933512,0.7636897,-0.2571064,0.55260324,0.20471689,-1.227767,-2.1797166,-0.80615854,1.9671509,1.7905633,-0.7783692,0.23471901,-1.1700011,-2.231864,-0.7696164,1.9017155,1.8154112,-0.8294283,-0.53441477,-1.2465436,1.220619,-0.4343346,1.1015747,-0.08949996,0.42070103,-0.5574837,-0.3984146,0.636527,-0.4632776,0.12124921,-0.60519314,-0.5644226,-0.40444183,0.6036754,0.9761477,0.091904655,0.19395986,0.03268953,-0.47182137,0.25337556,-0.5414404,0.0,1.0,0.0,0.0,0.0,0.0,0.0,-0.0925163,-0.0015853941,-0.08652699,-3.6991954,-0.5341768,-3.866005,-38.079338,3.3771276,-1.2862608,0.25131702
15.481356,33.919518,6.1347136,-6.376977,-0.9336738,-0.5102166,0.72885615,-0.3287848,-0.7284676,0.6255052,-0.43241587,0.76805264,-0.27245298,0.548008,0.20184052,-1.2428479,-2.1693134,-0.812858,1.9785208,1.7881659,-0.7746275,0.22914621,-1.182624,-2.2200503,-0.77608526,1.9128494,1.8144025,-0.825233,-0.5645771,-1.2678226,1.1670566,-0.7164482,1.1179967,-0.10464336,0.420266,-0.5619812,-0.3973198,0.62987834,-0.44657344,0.10674869,-0.68679196,-0.5689373,-0.40218735,0.5975336,0.97908074,0.0859342,0.1809235,0.035816744,-0.4434694,0.21829942,-0.6400674,0.0,1.0,0.0,0.0,0.0,0.0,0.0,-0.088018775,-0.0026802123,-0.07987833,-2.914834,-2.2416592,-5.7567835,-27.83438,1.8895149,-1.4643133,0.30100346
14.222415,49.870033,10.183506,1.7356008,-0.22769651,-0.39451274,0.3863176,-0.28942916,-0.7287382,0.61186427,-0.4164949,0.76015985,-0.19779259,0.54576296,0.2002033,-1.2554978,-2.158864,-0.8177347,1.9888654,1.7946233,-0.7706567,0.22353074,-1.1954509,-2.208778,-0.7842945,1.9240551,1.8133174,-0.82104623,-0.5600312,-1.2878166,1.1121683,-0.8545678,1.1226103,-0.109461926,0.41921252,-0.56627274,-0.39637756,0.62261266,-0.42402947,0.09085796,-0.73959374,-0.57320786,-0.40021896,0.5906781,0.9818196,0.080349855,0.16736948,0.039514136,-0.42046303,0.19163252,-0.7019503,0.0,1.0,0.0,0.0,0.0,0.0,0.0,-0.08372724,-0.0036224425,-0.07261264,0.60323477,-2.0403624,-5.951524,-13.442087,0.80862045,-0.39885938,0.21581054
25.7792,71.020294,17.694355,7.0796905,0.10710353,-0.26057807,0.14523332,-0.20886314,-0.7194288,0.6156888,-0.36918584,0.7527626,0.00035551033,0.5239903,0.20264442,-1.2673938,-2.147209,-0.82121307,1.9993314,1.813353,-0.7686472,0.21842477,-1.2083846,-2.1979213,-0.7928604,1.9352586,1.8123617,-0.81688803,-0.49352494,-1.2952551,1.074786,-0.8562551,1.1216005,-0.090052955,0.41569042,-0.5702629,-0.39561462,0.6151444,-0.3908412,0.07158797,-0.7488547,-0.5771885,-0.39856339,0.5835398,0.98431164,0.0747945,0.15376893,0.04349168,-0.38838738,0.15980564,-0.718764,0.0,1.0,0.0,0.0,0.0,0.0,0.0,-0.07973707,-0.004385382,-0.06514436,6.826335,-0.7041693,-4.2528152,0.15531778,0.45764446,2.1862135,-0.055402517
50.00918,82.39148,24.711622,3.9834845,-0.43217477,-0.32533646,0.18617526,-0.099709794,-0.7238433,0.63470954,-0.37168968,0.74497414,0.18843503,0.48794258,0.20845379,-1.280769,-2.1344504,-0.83002937,2.009756,1.8312052,-0.76809376,0.21450728,-1.2213603,-2.1872168,-0.8010009,1.9464327,1.8117622,-0.8127897,-0.35724825,-1.2981255,1.0676132,-0.79896283,1.1181496,-0.04863236,0.40881184,-0.5738411,-0.39511108,0.6077903,-0.3468083,0.04293987,-0.7298948,-0.58068275,-0.39740372,0.5764073,0.9865336,0.06891778,0.1404229,0.047782175,-0.33391112,0.10192119,-0.7120195,0.0,1.0,0.0,0.0,0.0,0.0,0.0,-0.07615888,-0.004888922,-0.05779028,13.803255,-0.2291441,-1.1852503,6.0363054,0.2747774,4.503402,-0.42505264
26.638016,91.462006,23.999844,14.314299,0.6768724,0.04472673,-0.11550441,-0.14038746,-0.7103334,0.6264752,-0.30811104,0.733775,0.26272684,0.47833014,0.20046854,-1.2923937,-2.1245692,-0.831812,2.0198102,1.8380349,-0.76495665,0.2116293,-1.2342727,-2.176516,-0.8081791,1.9575311,1.8116163,-0.80876714,-0.26396468,-1.2884159,1.0690894,-0.68984115,1.1092333,-0.0020661145,0.40086406,-0.5770321,-0.39481735,0.6007099,-0.30999365,0.024751067,-0.6992236,-0.5838051,-0.3965683,0.56950307,0.9884855,0.062584646,0.12753652,0.052095186,-0.30323043,0.07934045,-0.6838578,0.0,1.0,0.0,0.0,0.0,0.0,0.0,-0.07296789,-0.0051826537,-0.050709903,9.528149,1.0681629,-0.38454533,11.195755,-0.22301674,5.022864,-0.53871274
26.049326,96.65298,25.491865,15.561246,0.70654875,0.09764962,-0.1359288,-0.07470843,-0.6956173,0.6333124,-0.27132106,0.7251648,0.30610633,0.47717214,0.20415846,-1.3038344,-2.113185,-0.8353112,2.0300477,1.842227,-0.7610499,0.20968044,-1.2470062,-2.1657276,-0.8142053,1.968519,1.811932,-0.80481905,-0.17119329,-1.2680827,1.0802519,-0.57264197,1.0976051,0.04408158,0.39359537,-0.5798626,-0.3946991,0.5940148,-0.27418017,0.0075508743,-0.658282,-0.58662605,-0.3959427,0.56295913,0.9901752,0.055759877,0.11521403,0.05629928,-0.27285135,0.05857595,-0.6456771,0.0,1.0,0.0,0.0,0.0,0.0,0.0,-0.07013738,-0.0053009093,-0.04401481,9.478796,2.1253586,0.6207466,12.01104,-0.5115986,4.9913993,-0.4829049
7.8387623,93.564735,22.276894,19.297037,1.2136406,0.27729926,-0.22067998,-0.09565314,-0.68973684,0.63111055,-0.25502735,0.72498256,0.31382045,0.48218104,0.20011513,-1.3159798,-2.1026165,-0.83970803,2.0410173,1.843314,-0.7566009,0.20828806,-1.259526,-2.1548364,-0.8192359,1.9793943,1.8126607,-0.8009331,-0.12790252,-1.246316,1.0904465,-0.47896615,1.0862596,0.083494015,0.3876926,-0.5824032,-0.39468765,0.58767176,-0.2475934,-0.001033257,-0.62564886,-0.58926773,-0.3953476,0.55675656,0.991625,0.04851663,0.10340677,0.060273476,-0.25964588,0.060858797,-0.6129572,0.0,1.0,0.0,0.0,0.0,0.0,0.0,-0.06759679,-0.0053123534,-0.037671745,4.5320363,2.2653341,0.5057812,9.653455,-0.5138874,4.268499,-0.3391564
-5.4948945,98.68368,21.824198,24.495766,1.6905673,0.44145042,-0.346007,-0.08632937,-0.6569609,0.6256263,-0.16881227,0.71016276,0.31885627,0.500294,0.19965512,-1.3252221,-2.0922737,-0.83611715,2.0504105,1.8445463,-0.7509037,0.20712909,-1.2717197,-2.143893,-0.8232299,1.9901311,1.8137367,-0.79708713,-0.11121148,-1.2101357,1.0936805,-0.37195766,1.0716872,0.11682977,0.3843383,-0.5847111,-0.39472198,0.5817241,-0.22563873,-0.0036689814,-0.5843129,-0.59186745,-0.3945999,0.55095696,0.9928521,0.040932786,0.092163734,0.063836485,-0.25888792,0.080981165,-0.5704765,0.0,1.0,0.0,0.0,0.0,0.0,0.0,-0.0652889,-0.005278021,-0.031724095,1.8795967,3.725195,-0.22008419,10.974651,-0.80668926,3.6704273,-0.09855032
-1.7976248,98.09563,21.712719,21.249828,1.1593577,0.31655276,-0.2137939,-0.057902183,-0.6178799,0.58797383,-0.19188254,0.7108447,0.2784453,0.50299424,0.20133887,-1.3335077,-2.0850956,-0.84241813,2.0612156,1.8415812,-0.7467877,0.20612322,-1.283427,-2.1331203,-0.82652205,2.000749,1.8150736,-0.79326403,-0.09640275,-1.1572529,1.0702875,-0.3139955,1.0604471,0.14024606,0.38233995,-0.58680344,-0.39479065,0.57617754,-0.2040632,-0.0076970356,-0.5454908,-0.5943966,-0.39372253,0.5455311,0.99386346,0.033187777,0.0814656,0.067062214,-0.24995832,0.09113043,-0.53484625,0.0,1.0,0.0,0.0,0.0,0.0,0.0,-0.06319654,-0.0052093565,-0.026177526,1.6749591,5.3700447,-2.8378487,6.088102,-0.51841736,2.666688,0.035202503
-7.35081,98.3189,20.701134,20.930813,1.0120789,0.35915565,-0.15043549,-0.086715706,-0.57123274,0.55930245,-0.2165142,0.70388615,0.24206376,0.50945646,0.19745165,-1.3405503,-2.0771902,-0.8481735,2.0711377,1.83928,-0.7423184,0.20506871,-1.2944725,-2.122729,-0.82962185,2.0112622,1.8165774,-0.78945297,-0.107847184,-1.0866667,1.0269064,-0.30774498,1.0501902,0.15480901,0.38153726,-0.5886955,-0.3948784,0.5710056,-0.18477605,-0.00898018,-0.5091774,-0.59682083,-0.39270782,0.5404319,0.9946692,0.02548172,0.07125713,0.070044674,-0.23992376,0.10485033,-0.5032812,0.0,1.0,0.0,0.0,0.0,0.0,0.0,-0.06130445,-0.0051216185,-0.02100557,-0.95739216,7.1365595,-4.8718452,0.91108084,-0.4053831,1.7796546,0.15631914
-4.7612557,99.21772,20.803701,18.20804,0.52390695,0.24997571,-0.019625332,-0.0891535,-0.51218605,0.50726616,-0.26122826,0.7029922,0.1413363,0.5284334,0.19615336,-1.3456911,-2.0720024,-0.85574466,2.0815613,1.830711,-0.73660964,0.20384736,-1.3046634,-2.1129715,-0.83305323,2.0216959,1.8181247,-0.78563243,-0.12630238,-0.9962818,0.95697016,-0.35396734,1.0431663,0.155644,0.38306826,-0.590395,-0.39499283,0.56618977,-0.16545443,-0.0113892555,-0.4742767,-0.59908867,-0.3916397,0.53562224,0.99527675,0.018034935,0.061481524,0.07293083,-0.2212501,0.10968194,-0.475137,0.0,1.0,0.0,0.0,0.0,0.0,0.0,-0.059605002,-0.0050071776,-0.016189754,-1.6708508,9.107817,-7.530141,-4.336071,-0.08792877,0.40985048,0.3860891
12.255453,106.49566,24.999496,14.059643,-0.22831,0.076487914,0.12388353,-0.02868813,-0.44977936,0.4900179,-0.24729308,0.6906483,0.18443199,0.53880817,0.20097855,-1.3496413,-2.0639699,-0.85778254,2.0907607,1.8365679,-0.7317516,0.20273776,-1.3138301,-2.1038964,-0.83693206,2.0320528,1.8196987,-0.7817852,-0.10530392,-0.8901098,0.88966465,-0.39826614,1.0351874,0.15935409,0.38596797,-0.59186554,-0.3951645,0.56182814,-0.14223742,-0.019319173,-0.42514265,-0.60102654,-0.39068222,0.5311882,0.99568707,0.0108761955,0.052198473,0.0759224,-0.1840817,0.09139458,-0.43429855,0.0,1.0,0.0,0.0,0.0,0.0,0.0,-0.058134437,-0.004835516,-0.0118281245,2.2680073,10.680771,-7.2071433,-4.1419625,-0.20794868,0.74061453,0.507009
21.967323,113.034004,28.456516,12.726851,-0.53367114,-0.0014409423,0.16683894,0.004653797,-0.39221826,0.4882178,-0.22950597,0.68259466,0.20717181,0.53028345,0.20320314,-1.353052,-2.0550747,-0.85988265,2.1003122,1.8404158,-0.72875684,0.20203827,-1.3218906,-2.0953367,-0.84108454,2.0423288,1.8213258,-0.777916,-0.057587624,-0.77779776,0.84322363,-0.42003325,1.0268742,0.16484396,0.3878424,-0.59309196,-0.3954239,0.55805755,-0.11630641,-0.02694659,-0.36256132,-0.60253334,-0.38999557,0.5272713,0.9959079,0.003891039,0.043491554,0.07912399,-0.13943598,0.061989263,-0.3786929,0.0,1.0,0.0,0.0,0.0,0.0,0.0,-0.05690801,-0.004576117,-0.008057535,4.9411983,11.301565,-5.0947666,-1.8993914,-0.24282932,0.917235,0.38662553
17.628063,145.81319,36.06029,21.84129,-0.41387066,0.22244617,0.00961335,0.029285522,-0.20213905,0.38309088,-0.15681158,0.67030287,0.22378251,0.5331823,0.20496683,-1.3421046,-2.0570276,-0.8567657,2.109359,1.843704,-0.7245978,0.20190382,-1.3282039,-2.0875738,-0.8450013,2.0525143,1.8230292,-0.7740307,0.0019124384,-0.5819701,0.752536,-0.38127503,1.0182142,0.17365623,0.38934058,-0.5940571,-0.39574814,0.5553115,-0.09025559,-0.033853162,-0.24598533,-0.60357094,-0.38954544,0.5243346,0.99595284,-0.0028787437,0.035822358,0.08237874,-0.091776334,0.03992989,-0.26611215,0.0,1.0,0.0,0.0,0.0,0.0,0.0,-0.055942893,-0.0042518675,-0.005311489,6.1396556,19.707489,-9.592974,4.145378,-0.115180016,1.3358653,0.31861663
13.123068,176.0,46.123707,33.87383,-0.06629156,0.49836862,-0.22891216,0.08910113,-0.0030950618,0.33034217,0.004144599,0.6458836,0.24782413,0.5135458,0.21081394,-1.3285134,-2.0545394,-0.84458685,2.1171026,1.8478116,-0.7226761,0.20246649,-1.3325202,-2.0795171,-0.8472816,2.0612464,1.8245322,-0.7702693,0.075117834,-0.38125393,0.82180864,-0.17613664,0.82724005,0.14420548,0.37188444,-0.5947571,-0.39609146,0.55426717,-0.06629896,-0.03264013,-0.057463687,-0.6041584,-0.38923645,0.52308774,0.9958519,-0.009589299,0.029984495,0.08536995,-0.047662135,0.02745958,-0.07850457,0.0,0.0,1.0,0.0,0.0,0.0,0.0,-0.055242896,-0.003908545,-0.004267156,7.5399423,20.212275,6.3860774,20.762325,-18.325197,-2.449745,-1.6925633
-12.462826,111.006226,19.053886,27.27504,-0.15568882,-0.4662963,-0.4728373,0.08665325,-0.09529122,-0.13208252,0.03682707,0.59970087,0.1920239,0.4766292,0.21113181,-1.3420494,-2.0927253,-0.84359884,2.1212165,1.8437345,-0.72260636,0.20366454,-1.335118,-2.074001,-0.84784234,2.0692189,1.8259702,-0.76659197,0.13487875,-0.21898763,0.46077,-0.015416749,0.78828204,0.14415853,0.36674044,-0.5953541,-0.39643478,0.55400723,-0.05840034,-0.034688808,-0.015864994,-0.60463333,-0.38904572,0.5226498,0.9956968,-0.015117772,0.025809148,0.08771094,-0.04764346,0.017389625,-0.032949556,0.0,0.0,1.0,0.0,0.0,0.0,0.0,-0.054645896,-0.003565222,-0.0040072203,6.036937,16.304598,-36.312473,16.250225,-3.5788655,0.17899275,-0.3820479
