Afshin1997/kuka_rl_ros2/src/catch_and_throw/input_files/idealpd/polynomial_regressor/optimizer_files/env_210_data.csv
torque0,torque1,torque2,torque3,torque4,torque5,torque6,action0,action1,action2,action3,action4,action5,action6,set_target_0,set_target_1,set_target_2,set_target_3,set_target_4,set_target_5,set_target_6,joint_pos_0,joint_pos_1,joint_pos_2,joint_pos_3,joint_pos_4,joint_pos_5,joint_pos_6,joint_vel_0,joint_vel_1,joint_vel_2,joint_vel_3,joint_vel_4,joint_vel_5,joint_vel_6,tennisball_pos_0,tennisball_pos_1,tennisball_pos_2,tennisball_lin_vel_0,tennisball_lin_vel_1,tennisball_lin_vel_2,end_effector_pos_0,end_effector_pos_1,end_effector_pos_2,end_effector_rot_0,end_effector_rot_1,end_effector_rot_2,end_effector_rot_3,end_effector_lin_vel_0,end_effector_lin_vel_1,end_effector_lin_vel_2,obs_task_0,obs_task_1,obs_task_2,obs_task_3,obs_task_4,obs_task_5,obs_task_6,to_final_target_0,to_final_target_1,to_final_target_2,joint_acc_0,joint_acc_1,joint_acc_2,joint_acc_3,joint_acc_4,joint_acc_5,joint_acc_6
0.0,0.0,0.0,0.0,0.0,0.0,0.0,0.0,0.0,0.0,0.0,0.0,0.0,0.0,1.7802359,-1.0646509,-1.8151424,-1.1170107,1.9373155,1.1170107,-0.91629785,1.7802359,-1.0646509,-1.8151424,-1.1170107,1.9373155,1.1170107,-0.91629785,0.0,0.0,0.0,0.0,0.0,0.0,0.0,2.8575974,-0.5155573,0.05937083,-2.749218,0.017903542,5.6568036,0.5304165,-0.45449448,0.693097,0.5745483,0.17512383,0.15255436,0.7848268,0.0,0.0,0.0,1.0,0.0,0.0,0.0,0.0,0.0,0.0,-3.5075974,0.11555728,0.4906292,0.0,0.0,0.0,0.0,0.0,0.0,0.0
0.0,0.0,0.0,0.0,0.0,0.0,0.0,0.0,0.0,0.0,0.0,0.0,0.0,0.0,1.7802359,-1.0646509,-1.8151424,-1.1170107,1.9373155,1.1170107,-0.91629785,1.7802359,-1.0646509,-1.8151424,-1.1170107,1.9373155,1.1170107,-0.91629785,0.0,0.0,0.0,0.0,0.0,0.0,0.0,2.8575974,-0.5155573,0.05937083,-2.749218,0.017903542,5.6568036,0.5304165,-0.45449448,0.693097,0.5745483,0.17512383,0.15255436,0.7848268,0.0,0.0,0.0,1.0,0.0,0.0,0.0,0.0,0.0,0.0,-3.5075974,0.11555728,0.4906292,0.0,0.0,0.0,0.0,0.0,0.0,0.0
0.0,0.0,0.0,0.0,0.0,0.0,0.0,0.0,0.0,0.0,0.0,0.0,0.0,0.0,1.7802359,-1.0646509,-1.8151424,-1.1170107,1.9373155,1.1170107,-0.91629785,1.7802359,-1.0646509,-1.8151424,-1.1170107,1.9373155,1.1170107,-0.91629785,0.0,0.0,0.0,0.0,0.0,0.0,0.0,2.8575974,-0.5155573,0.05937083,-2.749218,0.017903542,5.6568036,0.5304165,-0.45449448,0.693097,0.5745483,0.17512383,0.15255436,0.7848268,0.0,0.0,0.0,1.0,0.0,0.0,0.0,0.0,0.0,0.0,-3.5075974,0.11555728,0.4906292,0.0,0.0,0.0,0.0,0.0,0.0,0.0
-176.0,58.341892,-10.202652,110.0,11.30172,4.465814,-3.7380245,-0.8175443,0.29809225,-0.5461152,0.7389254,0.34782863,0.65659815,-0.5954533,1.6984814,-1.0348417,-1.869754,-1.0431181,1.9720984,1.1826705,-0.9758432,1.7789503,-1.0624136,-1.8213413,-1.112393,1.943501,1.1225973,-0.91863054,-0.17119808,0.2976762,-0.82602733,0.6162137,0.82375455,0.7428521,-0.31032085,2.8301258,-0.515378,0.11515998,-2.7464693,0.017885642,5.552962,0.5282688,-0.45783043,0.693762,0.5785412,0.17374736,0.150715,0.78255147,-0.28580567,-0.44465873,0.08849043,1.0,0.0,0.0,0.0,0.0,0.0,0.0,-3.480126,0.11537799,0.43484002,-17.041155,29.553154,-82.41148,61.72087,82.07021,73.665,-30.825148
-176.0,-39.73271,-48.623642,110.0,12.455296,1.2449259,-2.9154701,-0.7995703,-0.21929005,-0.51152724,0.7004473,0.44898486,0.64093107,-0.5889719,1.6989933,-1.0843426,-1.872494,-1.0423483,1.9883995,1.1866904,-0.97752774,1.7775236,-1.0599207,-1.8364551,-1.0985953,1.955359,1.1362635,-0.9206571,-0.13636911,0.22077547,-1.7104231,1.6348329,1.2898368,1.5408167,-0.17287517,2.802681,-0.5151987,0.1699115,-2.7437234,0.01786776,5.449224,0.5235634,-0.46643162,0.6943605,0.58707535,0.17047676,0.14622566,0.7777521,-0.5332708,-0.996775,0.053442925,1.0,0.0,0.0,0.0,0.0,0.0,0.0,-3.452681,0.1151987,0.3800885,2.5911837,-11.381611,-79.63569,102.08213,41.564823,69.637825,11.915341
-161.09065,94.314316,25.458769,94.033676,8.85185,7.362585,-1.628818,-0.77482146,0.16355503,0.1396419,0.64734966,0.50821835,0.67827255,-0.5427841,1.7000415,-1.0435652,-1.8224909,-1.0338603,2.0061808,1.2040907,-0.97493553,1.7728678,-1.0575823,-1.8511779,-1.0803972,1.9684014,1.1514899,-0.92255586,-0.5752787,0.23495695,-1.3863802,1.8833594,1.3039277,1.5099918,-0.19663353,2.7752647,-0.5150194,0.2236264,-2.7409804,0.017849896,5.3455896,0.51593876,-0.4781084,0.6963744,0.5983496,0.16572879,0.13997631,0.77130955,-0.84676725,-1.2178072,0.25453594,1.0,0.0,0.0,0.0,0.0,0.0,0.0,-3.4252648,0.11501941,0.3263736,-43.851654,0.44911802,34.36904,25.413132,-0.17132759,-5.0982,-2.69033
-107.274605,72.08848,28.7913,55.99615,6.0095305,6.7159233,-0.036139183,-0.7760806,-0.14134479,0.2895353,0.65576124,0.5420465,0.6529098,-0.5838377,1.6952597,-1.0717168,-1.8222244,-1.0148212,2.0226061,1.2167808,-0.9809396,1.763846,-1.0565771,-1.859616,-1.0620905,1.980494,1.1655947,-0.9247512,-1.0117309,0.053811528,-0.6559713,1.8144895,1.1721106,1.3741536,-0.22816221,2.7478752,-0.5148411,0.27630576,-2.7382398,0.01783205,5.2420588,0.5056906,-0.49095345,0.69986117,0.61038417,0.15986235,0.13192713,0.76450664,-1.0960284,-1.295633,0.38375154,1.0,0.0,0.0,0.0,0.0,0.0,0.0,-3.3978753,0.114841074,0.27369425,-43.775833,-18.6666,75.07413,-6.4609528,-14.8204565,-14.533377,-3.4318476
-48.94816,87.3377,38.973385,27.923233,2.8984244,5.992138,0.6986738,-0.7903981,-0.075625785,0.35473606,0.641446,0.5941686,0.65279114,-0.5755394,1.6848062,-1.0641397,-1.8241425,-0.9979459,2.0399108,1.2308738,-0.98230517,1.7512366,-1.0570253,-1.8605659,-1.045714,1.9911962,1.1782118,-0.92727655,-1.3445115,-0.07902096,0.09718307,1.5788608,1.0323298,1.2234762,-0.26201707,2.7205124,-0.5146637,0.32795057,-2.735502,0.01781422,5.138632,0.49358273,-0.5036249,0.7044742,0.6219205,0.15308611,0.12228544,0.7581726,-1.2623345,-1.2452825,0.48735917,1.0,0.0,0.0,0.0,0.0,0.0,0.0,-3.3705125,0.11466369,0.22204944,-33.449818,-13.654741,76.92358,-23.517822,-15.17632,-15.315604,-3.8073719
-10.899286,77.55527,33.758827,10.158716,0.864078,3.916043,0.7762099,-0.7974669,-0.092101686,0.36065242,0.6524058,0.59392184,0.65059376,-0.5943888,1.6714898,-1.0662354,-1.8245007,-0.98047346,2.0505884,1.2432712,-0.98671544,1.7364165,-1.0585226,-1.855643,-1.0316778,2.0007272,1.1894575,-0.93011945,-1.5281514,-0.17405194,0.6271106,1.344961,0.92455965,1.0922856,-0.2928589,2.6931782,-0.5144863,0.37856188,-2.732767,0.01779641,5.035308,0.4804392,-0.5155144,0.709685,0.6325321,0.14579211,0.11163761,0.7524525,-1.3446025,-1.158321,0.52950406,1.0,0.0,0.0,0.0,0.0,0.0,0.0,-3.3431783,0.11448631,0.17143813,-18.461752,-9.733489,53.911995,-23.477745,-11.419905,-12.966561,-3.426379
15.258297,122.66918,45.592453,8.141692,-1.0329676,3.7177055,0.263225,-0.8100281,0.18654373,0.29495558,0.6385197,0.5929921,0.6474943,-0.59400785,1.6554136,-1.0398682,-1.8261474,-0.9678259,2.0600264,1.254207,-0.98952025,1.7206408,-1.0592855,-1.8477085,-1.0195376,2.0094895,1.199555,-0.93324465,-1.5945144,-0.04464121,0.85098404,1.1703473,0.8593552,0.9835863,-0.32078713,2.6658707,-0.5143089,0.42814076,-2.730035,0.017778618,4.9320874,0.4668522,-0.52610874,0.7156557,0.64244014,0.13801575,0.10115334,0.74698746,-1.3758456,-1.0156379,0.6153941,1.0,0.0,0.0,0.0,0.0,0.0,0.0,-3.3158708,0.11430892,0.12185925,-6.77917,12.65102,23.021269,-17.509651,-6.760466,-10.521102,-3.301394
21.72534,134.2911,43.524452,8.812822,-2.041629,2.7286391,-0.3058905,-0.814451,0.32909244,0.12808731,0.6303424,0.5734518,0.64797765,-0.5916122,1.6391957,-1.0263762,-1.8348998,-0.95650333,2.0668347,1.2643528,-0.9924059,1.7047602,-1.0578092,-1.8398731,-1.0085627,2.0178018,1.2087141,-0.93661207,-1.5866357,0.21095389,0.7622649,1.0733894,0.82179767,0.8945065,-0.34349138,2.6385918,-0.51413155,0.4766882,-2.7273054,0.017760843,4.8289704,0.45322227,-0.535264,0.7224408,0.6521171,0.12991774,0.09198992,0.74121696,-1.3698308,-0.8718397,0.6953177,1.0,0.0,0.0,0.0,0.0,0.0,0.0,-3.2885919,0.11413154,0.073311806,0.60818195,25.30668,-8.511925,-9.658813,-3.731203,-8.521784,-2.7204335
24.805796,147.0398,45.302464,10.738005,-2.4375782,2.5213294,-0.56386,-0.8186584,0.48729756,0.073499516,0.6028568,0.58840144,0.64385813,-0.5813505,1.6228944,-1.0090795,-1.8325231,-0.948277,2.0766418,1.2730999,-0.9947471,1.6891867,-1.0532278,-1.8339736,-0.99818707,2.0259461,1.2170931,-0.94016737,-1.5482793,0.53968376,0.53378284,1.0256536,0.8122737,0.8198158,-0.36094806,2.6113396,-0.51395416,0.52420527,-2.7245786,0.017743086,4.7259564,0.4397459,-0.54295826,0.7301344,0.6618844,0.1215821,0.08476365,0.7348074,-1.3491191,-0.72382265,0.7905343,1.0,0.0,0.0,0.0,0.0,0.0,0.0,-3.2613397,0.11395416,0.025794744,3.6223173,32.61692,-22.513855,-4.7317266,-0.88119507,-7.210231,-2.169025
22.078135,136.44806,40.912144,10.92589,-2.1373982,2.1220095,-0.54711217,-0.82373714,0.5616045,0.03674813,0.5738523,0.61518973,0.63349444,-0.591094,1.606813,-0.99706733,-1.8302988,-0.94080186,2.087465,1.2804426,-0.99927676,1.6740004,-1.0455984,-1.8305023,-0.98812294,2.0341668,1.2248064,-0.9438762,-1.5094528,0.83673894,0.28594145,0.9997379,0.8257769,0.75541234,-0.3753457,2.584114,-0.5137768,0.5706929,-2.7218547,0.017725347,4.6230454,0.4264803,-0.5493164,0.738666,0.67182827,0.11310615,0.079441,0.727697,-1.3263636,-0.5942311,0.8713455,1.0,0.0,0.0,0.0,0.0,0.0,0.0,-3.2341142,0.11377677,-0.020692885,3.6670446,29.47662,-24.439651,-2.6328921,1.3843179,-6.362438,-1.8015802
18.030207,117.73625,34.913532,10.380297,-1.599158,1.7549343,-0.41852176,-0.8207143,0.6165413,-0.003413188,0.55870414,0.62288344,0.6461723,-0.59637153,1.591929,-0.98394424,-1.8308436,-0.9322525,2.096455,1.2894237,-1.0035133,1.6591364,-1.0355543,-1.82919,-0.97823715,2.042582,1.2319609,-0.94771093,-1.4793723,1.0598131,0.08101745,0.98439413,0.8467406,0.70198435,-0.38722727,2.5569153,-0.5135994,0.6161522,-2.7191334,0.017707625,4.5202374,0.41339493,-0.55456924,0.7478225,0.6818988,0.1045874,0.07564517,0.7199676,-1.3077575,-0.48864624,0.9286249,1.0,0.0,0.0,0.0,0.0,0.0,0.0,-3.2069154,0.11359939,-0.066152215,2.8041124,22.116364,-20.125637,-1.6683459,2.091658,-5.385983,-1.5116274
15.610199,98.691025,29.547548,9.204822,-1.0606403,1.457175,-0.24058987,-0.80902886,0.65415066,-0.026917478,0.55206835,0.6264871,0.65605444,-0.59937555,1.5782335,-0.9701392,-1.8318818,-0.9230303,2.1052308,1.2975663,-1.0076485,1.644528,-1.0239004,-1.8293979,-0.9684582,2.0511994,1.2386557,-0.9516496,-1.4553728,1.200116,-0.053372763,0.9751316,0.86683685,0.6584923,-0.3971281,2.529745,-0.513422,0.6605842,-2.7164147,0.017689921,4.4175315,0.40045452,-0.5589342,0.7573773,0.6919776,0.09607225,0.072891004,0.71177524,-1.2935804,-0.40437436,0.9631411,1.0,0.0,0.0,0.0,0.0,0.0,0.0,-3.1797452,0.11342201,-0.1105842,2.2130728,13.880491,-13.0511875,-1.126945,1.9824743,-4.429388,-1.302731
12.619656,83.84416,25.642641,8.745994,-0.54072016,1.3139992,-0.07578256,-0.8093045,0.67863923,-0.027055642,0.54196507,0.6341471,0.651844,-0.59779435,1.5635976,-0.95603645,-1.8321035,-0.9142617,2.1146142,1.30384,-1.0114291,1.6300741,-1.0113615,-1.8303821,-0.9587736,2.06,1.2449728,-0.95567316,-1.4427055,1.2715242,-0.11198875,0.96550965,0.8844181,0.6223893,-0.40507853,2.5026016,-0.5132446,0.7039899,-2.7136989,0.017672235,4.3149285,0.38759518,-0.56258583,0.7671532,0.70193714,0.08756588,0.07071071,0.7032897,-1.2866682,-0.33709198,0.9814429,1.0,0.0,0.0,0.0,0.0,0.0,0.0,-3.1526017,0.11324462,-0.15398991,1.0922909,7.0232153,-5.4466844,-1.1911154,1.714611,-3.6918879,-1.1058271
11.418106,72.87643,22.49733,7.9870257,-0.2637396,1.1325343,0.023264308,-0.8005037,0.6959316,-0.04699051,0.53677106,0.63660604,0.6624279,-0.5976254,1.5500238,-0.9417683,-1.8350811,-0.90509653,2.1236606,1.3112156,-1.0154357,1.6157213,-0.9984468,-1.8316467,-0.9491825,2.0689416,1.2509848,-0.9597654,-1.4333436,1.2976706,-0.12990506,0.95624244,0.8973827,0.5941075,-0.41151962,2.4754848,-0.51306725,0.7463704,-2.710986,0.017654566,4.2124286,0.3747816,-0.5656557,0.77700704,0.7116881,0.079073094,0.06879585,0.69463265,-1.2817948,-0.28127304,0.9857289,1.0,0.0,0.0,0.0,0.0,0.0,0.0,-3.125485,0.11306724,-0.19637036,0.7757902,2.5247335,-1.3824344,-1.1692166,1.2575507,-2.8771281,-0.95112324
9.750356,66.91784,20.515266,7.734646,-0.113555014,1.0286071,0.07798788,-0.8057514,0.71167284,-0.05861637,0.51663834,0.6475863,0.66144174,-0.5960336,1.5351462,-0.92727953,-1.8375083,-0.8975187,2.1337001,1.317129,-1.0193688,1.6013972,-0.98542917,-1.8329399,-0.93975353,2.0780053,1.2567564,-0.963911,-1.4326516,1.3028355,-0.12790471,0.9376395,0.9096296,0.5712752,-0.41654006,2.4483948,-0.5128908,0.7877266,-2.7082753,0.017636916,4.1100307,0.36200237,-0.56821156,0.7868378,0.72117704,0.070609085,0.0669896,0.6858793,-1.2787137,-0.2316742,0.981136,1.0,0.0,0.0,0.0,0.0,0.0,0.0,-3.0983949,0.11289081,-0.23772657,-0.08940697,0.44226646,0.6101072,-2.1084785,1.1870027,-2.3062587,-0.8009076
12.964416,67.8619,21.331783,6.3371015,-0.23102474,1.0504179,0.17747445,-0.80150276,0.72520095,-0.028877215,0.4839896,0.64970744,0.65688854,-0.5967527,1.5212469,-0.9129091,-1.8358276,-0.89135456,2.142976,1.3224453,-1.0235863,1.587073,-0.9723953,-1.8339984,-0.93063927,2.087172,1.2623297,-0.9681005,-1.4329563,1.303343,-0.097056024,0.9018566,0.9186185,0.55256885,-0.42082253,2.4213333,-0.51271534,0.8280596,-2.7055676,0.017619282,4.0077353,0.34928322,-0.5702219,0.7966283,0.7303217,0.06215016,0.06521037,0.67713743,-1.2707838,-0.17518562,0.9771906,1.0,0.0,0.0,0.0,0.0,0.0,0.0,-3.0713334,0.11271533,-0.2780596,-0.20046234,-0.019550323,3.5395994,-3.8310766,0.8456588,-1.8630028,-0.7409513
17.291714,68.27699,21.782337,4.132929,-0.4347874,0.9712299,0.2815596,-0.79634297,0.7293777,-0.0061125257,0.43956318,0.6647594,0.66071737,-0.59066457,1.5074387,-0.8994575,-1.8346097,-0.8866829,2.153648,1.3284014,-1.027167,1.5727602,-0.95936334,-1.8346336,-0.92204857,2.0964456,1.2677466,-0.97232336,-1.4311025,1.3029646,-0.050808787,0.8439129,0.93018717,0.5381627,-0.42381963,2.3942986,-0.51253986,0.8673705,-2.7028627,0.017601667,3.9055426,0.3367052,-0.57161427,0.80636054,0.73902625,0.05368926,0.06342107,0.66853225,-1.253781,-0.11209193,0.97043014,1.0,0.0,0.0,0.0,0.0,0.0,0.0,-3.0442986,0.11253986,-0.31737047,0.008893013,-0.09737015,5.0965233,-6.054175,1.1015654,-1.3778329,-0.61698556
19.810904,69.83557,22.328781,3.1267705,-0.58595645,0.9360173,0.33719346,-0.7970107,0.73733234,0.021503165,0.3998923,0.66772777,0.66753745,-0.5802722,1.4930592,-0.88563013,-1.8324833,-0.88205934,2.1632183,1.3345003,-1.0303506,1.5584646,-0.9463018,-1.8347385,-0.9141407,2.105822,1.2730471,-0.9765634,-1.4296807,1.307066,0.0044846274,0.7722617,0.940128,0.52757615,-0.42514935,2.3672905,-0.5123644,0.9056602,-2.7001603,0.017584069,3.803452,0.32434177,-0.5723362,0.81602806,0.7472277,0.045218196,0.061621834,0.66015816,-1.2305835,-0.044179406,0.9638523,1.0,0.0,0.0,0.0,0.0,0.0,0.0,-3.0172906,0.11236438,-0.3556602,-0.03581047,0.3581047,6.001185,-7.4180245,0.9461403,-0.95995665,-0.44497848
22.414646,68.86664,21.364388,1.284164,-0.87271965,0.68359274,0.34198222,-0.7907926,0.7532983,-0.0014076352,0.34331188,0.67854947,0.66780585,-0.57603264,1.4793854,-0.870972,-1.8348793,-0.8798095,2.173677,1.3398277,-1.0341667,1.5442091,-0.933123,-1.8345115,-0.90707684,2.1153092,1.2782618,-0.98080915,-1.4247172,1.3213983,0.030094473,0.6835224,0.9517241,0.5198573,-0.42538533,2.3403091,-0.5121889,0.94292974,-2.6974607,0.017566489,3.7014635,0.3122902,-0.5723686,0.8255747,0.7549158,0.036803324,0.05991677,0.652041,-1.1956758,0.024728347,0.94950074,1.0,0.0,0.0,0.0,0.0,0.0,0.0,-2.9903092,0.112188905,-0.39292973,0.3238678,1.3996124,2.978836,-9.132171,1.1437774,-0.6081581,-0.31067133
24.400723,67.8487,20.907745,-0.050527573,-1.0211277,0.52813864,0.38385144,-0.79062897,0.75626826,0.02865338,0.2807251,0.6833063,0.6669059,-0.56923014,1.4651462,-0.85749614,-1.8316462,-0.8790043,2.1836398,1.3449523,-1.0377321,1.5299994,-0.9197935,-1.834029,-0.9010143,2.1249108,1.2834135,-0.98505014,-1.4201893,1.336729,0.05558855,0.57960325,0.96257275,0.5141699,-0.4245647,2.3133545,-0.51201344,0.97918016,-2.694764,0.017548926,3.599577,0.300642,-0.57170486,0.8349479,0.76206905,0.028501455,0.058357168,0.64423037,-1.1530437,0.09375815,0.9308056,1.0,0.0,0.0,0.0,0.0,0.0,0.0,-2.9633546,0.11201343,-0.42918015,0.28653145,1.5172005,2.9327385,-10.646772,1.0924935,-0.35601854,-0.18635988
25.499428,64.35313,19.242676,-1.4996023,-1.1977427,0.24552417,0.38228464,-0.78640616,0.7644543,0.012158389,0.2132971,0.6837141,0.6703664,-0.5551788,1.4513588,-0.843348,-1.8328131,-0.8796846,2.1932821,1.3504502,-1.040568,1.5158468,-0.90630186,-1.8334606,-0.89608574,2.1346002,1.2885233,-0.98927015,-1.4142805,1.3533106,0.058464497,0.46306884,0.97084105,0.51060486,-0.42199108,2.2864265,-0.51183796,1.0144125,-2.6920695,0.01753138,3.4977925,0.28947926,-0.57037926,0.8440658,0.7686921,0.020398615,0.057025634,0.6367452,-1.1012617,0.15825452,0.9027728,1.0,0.0,0.0,0.0,0.0,0.0,0.0,-2.9364266,0.11183795,-0.4644125,0.4388094,1.6663551,0.60161424,-11.909998,0.86995363,-0.08672476,0.021398067
31.662193,62.937294,19.234762,-5.7669573,-1.5735052,0.001695782,0.53707343,-0.7848711,0.7693415,0.054509893,0.081887394,0.6989373,0.6700234,-0.5581492,1.4373597,-0.8293677,-1.8280096,-0.887897,2.204494,1.3555256,-1.0450851,1.5017477,-0.89265954,-1.832732,-0.8926754,2.1443925,1.2936064,-0.9934673,-1.4089484,1.3679374,0.07863006,0.29945722,0.9821588,0.5088749,-0.41963777,2.2595253,-0.5116625,1.0486277,-2.689378,0.017513853,3.3961096,0.2789631,-0.56836414,0.8528344,0.77469283,0.01259774,0.05594155,0.6297323,-1.0321025,0.22768903,0.8652811,1.0,0.0,0.0,0.0,0.0,0.0,0.0,-2.9095254,0.11166248,-0.49862772,0.3877163,1.4975071,2.306883,-16.61753,1.1910081,0.19490719,0.019598007
45.414776,61.3868,19.802177,-15.178781,-2.4729152,-0.4425456,0.85329556,-0.77650356,0.77501625,0.10893226,-0.13630405,0.69745535,0.65900475,-0.5540488,1.4240974,-0.8151579,-1.8218387,-0.9063058,2.214138,1.3595068,-1.0488721,1.4877287,-0.8788847,-1.8315723,-0.89162636,2.1542726,1.298678,-0.99763864,-1.4001528,1.3808438,0.12940325,0.039301943,0.9906381,0.50856185,-0.41688105,2.2326508,-0.511487,1.0818269,-2.6866894,0.017496342,3.2945285,0.26941395,-0.56553555,0.86108434,0.7798318,0.005283051,0.05514528,0.623533,-0.9252796,0.31144214,0.80839336,1.0,0.0,0.0,0.0,0.0,0.0,0.0,-2.8826509,0.111487,-0.5318269,0.757432,1.3662815,5.327372,-26.258749,0.92835426,0.5287051,0.09658337
51.760662,63.675694,21.283333,-18.480263,-2.8216474,-0.58155143,1.0092875,-0.77159554,0.7885225,0.17303288,-0.2798208,0.6932235,0.658036,-0.5370894,1.4105692,-0.80003244,-1.8142691,-0.9196084,2.223595,1.3644817,-1.0513476,1.473807,-0.8649553,-1.8296516,-0.8934488,2.1642098,1.3037535,-1.0017698,-1.3896015,1.3972551,0.21332867,-0.2566573,0.9953362,0.5092226,-0.412241,2.2058048,-0.51131153,1.114011,-2.684003,0.017478848,3.193049,0.2610464,-0.5618124,0.86875796,0.7839564,-0.0014715908,0.054638565,0.6184049,-0.80222666,0.40152654,0.75005364,1.0,0.0,0.0,0.0,0.0,0.0,0.0,-2.855805,0.111311525,-0.56401104,0.98838806,1.75066,8.512667,-29.764778,0.6300926,0.6939888,0.34801364
48.707737,64.64452,21.860733,-15.124244,-2.4252434,-0.5144179,0.96369076,-0.76069653,0.7894935,0.23408738,-0.34694922,0.7052514,0.6582337,-0.5083742,1.3977373,-0.786006,-1.8062428,-0.92814374,2.234735,1.3695768,-1.0526072,1.4600245,-0.8508915,-1.8267276,-0.89792156,2.1742158,1.3088347,-1.0058343,-1.3743958,1.4098998,0.31841943,-0.51115763,1.0035756,0.50967187,-0.40464598,2.1789856,-0.51113605,1.1451812,-2.6813197,0.017461373,3.0916708,0.2538252,-0.5572405,0.8759359,0.7870959,-0.007749678,0.054317057,0.6143856,-0.6896321,0.48273316,0.702843,1.0,0.0,0.0,0.0,0.0,0.0,0.0,-2.8289857,0.11113605,-0.59518117,1.5180349,1.4007092,10.439163,-25.543367,1.1034608,0.6317854,0.70228577
44.561012,68.83028,23.616913,-9.599015,-1.9034133,-0.27057153,0.8612465,-0.7374593,0.79641926,0.3170159,-0.39330068,0.7024858,0.6431549,-0.48614615,1.3862785,-0.77124953,-1.7950261,-0.9372516,2.2444644,1.3731501,-1.054449,1.4464804,-0.8367075,-1.8225753,-0.9043999,2.1842942,1.3139063,-1.0098093,-1.3475505,1.4217336,0.44676065,-0.69355106,1.0105135,0.50807023,-0.39517012,2.152193,-0.51096153,1.1753383,-2.678639,0.017443916,2.9903939,0.24759674,-0.5518875,0.8828053,0.78935444,-0.0137566645,0.054035563,0.6114003,-0.5944726,0.55830604,0.6768392,1.0,0.0,0.0,0.0,0.0,0.0,0.0,-2.8021932,0.11096153,-0.62533826,2.7336836,1.3463259,12.570869,-18.276524,1.1148453,0.37618876,0.9260237
37.270184,71.95519,24.818575,-2.66116,-1.2333202,0.055108123,0.72171724,-0.7256348,0.8002914,0.40724444,-0.4189399,0.7045844,0.63991034,-0.44937637,1.3739169,-0.75667834,-1.7818509,-0.94629383,2.2547526,1.3778974,-1.0547469,1.4332243,-0.82242143,-1.8169849,-0.9121256,2.1944413,1.3189551,-1.0136697,-1.3179896,1.4314784,0.59498656,-0.7989528,1.0175139,0.5054572,-0.38291144,2.1254272,-0.51078796,1.2044834,-2.6759608,0.017426476,2.8892183,0.24212837,-0.5458298,0.8895796,0.7908639,-0.019736996,0.053643785,0.60931695,-0.524204,0.62684584,0.6722069,1.0,0.0,0.0,0.0,0.0,0.0,0.0,-2.7754273,0.11078796,-0.6544834,3.0247688,1.1569738,14.421296,-10.552597,1.2366772,0.21350384,1.2199283
32.204037,70.591255,24.358856,1.0628462,-0.86411226,0.13128963,0.6275564,-0.711021,0.79845977,0.47753245,-0.46158543,0.70052963,0.6252054,-0.40722927,1.3621222,-0.74257547,-1.7692317,-0.95828414,2.2644942,1.3814756,-1.0543927,1.4202715,-0.8080772,-1.8099105,-0.92057896,2.2046304,1.3239676,-1.0173852,-1.2874973,1.4359584,0.74349755,-0.8607287,1.0212371,0.5011932,-0.367713,2.0986881,-0.5106144,1.2326174,-2.6732855,0.017409053,2.788144,0.23725986,-0.539135,0.8963619,0.79172516,-0.025820062,0.053073402,0.6080195,-0.4675453,0.6878305,0.6744833,1.0,0.0,0.0,0.0,0.0,0.0,0.0,-2.7486882,0.11061439,-0.68261737,3.131938,0.63877106,14.3859625,-6.18217,0.94771385,0.016999245,1.5216053
23.913715,69.95637,23.556822,7.1336393,-0.34892145,0.2878118,0.43531302,-0.6950285,0.80856156,0.5195871,-0.42605332,0.69781065,0.6224883,-0.33687854,1.3507687,-0.7272211,-1.7579519,-0.9631843,2.2744114,1.3862164,-1.0510731,1.407622,-0.79366815,-1.8015316,-0.9291563,2.2148347,1.3289343,-1.0209081,-1.2572465,1.4432818,0.8677231,-0.8568271,1.0220894,0.49633512,-0.34719604,2.0719757,-0.5104408,1.2597414,-2.6706126,0.017391648,2.687171,0.23279476,-0.53190804,0.90325654,0.7920903,-0.032125305,0.052320436,0.6073083,-0.43224615,0.73860216,0.68829685,1.0,0.0,0.0,0.0,0.0,0.0,0.0,-2.7219758,0.11044082,-0.7097414,3.091979,0.9328604,11.935496,0.36623478,0.6756544,-0.106447935,2.050352
6.9105225,60.89189,18.842514,15.688208,0.5584627,0.3982402,0.09947096,-0.7209023,0.8014329,0.52564496,-0.36072838,0.6954525,0.6396011,-0.30356726,1.3355317,-0.7135249,-1.748967,-0.96522915,2.28438,1.3928944,-1.0512649,1.3950697,-0.7792343,-1.7922657,-0.93720245,2.2250276,1.3338629,-1.0242193,-1.2547209,1.4440435,0.9448212,-0.787558,1.0201875,0.4924107,-0.32566303,2.04529,-0.51026726,1.2858565,-2.6679425,0.01737426,2.5862985,0.22840786,-0.5243654,0.9103088,0.7922343,-0.03871907,0.05141622,0.60681295,-0.43350318,0.7634215,0.704322,1.0,0.0,0.0,0.0,0.0,0.0,0.0,-2.69529,0.11026725,-0.7358565,0.22552013,0.2693653,7.3262453,6.8100333,0.33745766,-0.14083385,2.129203
-1.7207413,52.880035,14.960819,18.71051,0.8923088,0.28736264,-0.074333265,-0.7349703,0.80143756,0.52777255,-0.34396863,0.69190204,0.6346933,-0.25806892,1.3215727,-0.69909054,-1.7394884,-0.97159934,2.2942178,1.3973322,-1.0500262,1.3823935,-0.7648109,-1.7825572,-0.9444475,2.2351823,1.3387495,-1.0273015,-1.2722352,1.4423983,0.9786515,-0.70402926,1.0156518,0.4879573,-0.30235764,2.018631,-0.5100937,1.3109636,-2.665275,0.01735689,2.485527,0.22390366,-0.51669693,0.91746575,0.79235625,-0.045544427,0.050445512,0.60626113,-0.4484853,0.7722947,0.71285564,1.0,0.0,0.0,0.0,0.0,0.0,0.0,-2.668631,0.11009368,-0.7609636,-1.8416882,0.014448166,3.1064868,8.180809,-0.004339218,-0.2606988,2.2996962
-6.3203354,46.452038,12.081127,19.794409,1.044907,0.14710984,-0.16928408,-0.7492136,0.7986063,0.52716815,-0.3118561,0.6903659,0.6380681,-0.21444464,1.3074721,-0.6849503,-1.7298404,-0.97563314,2.3042188,1.4025563,-1.048746,1.3694483,-0.75042474,-1.772742,-0.9508476,2.2452874,1.3435961,-1.0301397,-1.3024622,1.4379776,0.9818525,-0.6193817,1.0102382,0.4839892,-0.2776845,1.9919987,-0.5099201,1.3350638,-2.6626103,0.017339537,2.3848562,0.21920395,-0.5090227,0.9246499,0.7925644,-0.052515734,0.04948802,0.6055037,-0.46919483,0.77048033,0.7135809,1.0,0.0,0.0,0.0,0.0,0.0,0.0,-2.6419988,0.109920114,-0.7850638,-3.153491,-0.2769947,0.122606754,8.257067,-0.1508236,-0.25010705,2.432543
-10.601399,43.146614,10.647535,22.696613,1.3310235,0.16738376,-0.28815064,-0.7585133,0.7933424,0.521848,-0.21563019,0.67889553,0.64083135,-0.17968889,1.293597,-0.6710905,-1.7205572,-0.9724106,2.3131769,1.4076792,-1.0481086,1.3561884,-0.73610437,-1.7630336,-0.95616245,2.2553124,1.3484064,-1.0327299,-1.3344092,1.4306034,0.96646756,-0.50292754,1.0012008,0.4804385,-0.25283363,1.9653921,-0.50974655,1.358158,-2.6599483,0.017322201,2.284286,0.21421242,-0.50142384,0.93186605,0.7929605,-0.059650727,0.048567403,0.6043977,-0.5008806,0.76091695,0.71749705,1.0,0.0,0.0,0.0,0.0,0.0,0.0,-2.6153922,0.109746546,-0.808158,-3.3501148,-0.5753517,-1.7136455,11.408436,-0.5242348,-0.25257468,2.4390042
-13.046116,40.634335,9.5788,24.333946,1.4910693,0.15731362,-0.37147132,-0.77632356,0.7908787,0.50075436,-0.14179316,0.679327,0.6483369,-0.17417106,1.2785561,-0.6570165,-1.7129582,-0.97034174,2.323245,1.4132401,-1.0501469,1.3425947,-0.7218603,-1.7536075,-0.96018887,2.2652574,1.3531901,-1.0350912,-1.3682232,1.4229128,0.93439996,-0.37001643,0.99358064,0.47785112,-0.2308546,1.9388123,-0.509573,1.3802472,-2.6572888,0.017304882,2.1838164,0.20885658,-0.4939556,0.9391285,0.79362494,-0.0669788,0.047690228,0.6028257,-0.5388243,0.74686575,0.7225445,1.0,0.0,0.0,0.0,0.0,0.0,0.0,-2.5888124,0.10957298,-0.8302472,-3.551507,-0.6146908,-3.358543,13.042868,-0.39778948,-0.19040108,2.1476626
-10.872079,37.83381,8.714212,22.17164,1.3184003,-0.022716388,-0.3407848,-0.7914487,0.7840121,0.47875375,-0.114607446,0.68386644,0.65726686,-0.1797417,1.2634499,-0.6434591,-1.7057321,-0.9716496,2.333644,1.4189167,-1.0530653,1.3286749,-0.70770776,-1.7445743,-0.9630432,2.2751565,1.3579584,-1.0372636,-1.4003736,1.413063,0.8926785,-0.2580071,0.98963195,0.47672954,-0.21286361,1.9122591,-0.5093994,1.4013325,-2.654632,0.017287582,2.0834472,0.20318031,-0.4866333,0.9463827,0.79455584,-0.07444424,0.046872333,0.6007844,-0.56883645,0.73237497,0.71978074,1.0,0.0,0.0,0.0,0.0,0.0,0.0,-2.5622592,0.10939941,-0.8513325,-3.3747435,-0.84753036,-4.2889476,10.962481,-0.07036924,-0.036507845,1.7482013
-2.1311245,37.61655,9.175048,15.35714,0.6442457,-0.37285018,-0.15315646,-0.79744065,0.78186655,0.4690228,-0.14795114,0.6827935,0.6529579,-0.17929132,1.2489308,-0.62952113,-1.697672,-0.97783834,2.3434358,1.4232543,-1.0551927,1.3144957,-0.6936449,-1.7359264,-0.96527004,2.285029,1.3627173,-1.0392797,-1.4241949,1.4043213,0.8552367,-0.21152863,0.98687524,0.4762343,-0.19795287,1.8857327,-0.50922585,1.421415,-2.651978,0.017270299,1.9831784,0.19740963,-0.479393,0.9534944,0.79562587,-0.08188457,0.04617511,0.5984499,-0.5711791,0.7262556,0.70178574,1.0,0.0,0.0,0.0,0.0,0.0,0.0,-2.5357327,0.10922584,-0.87141496,-2.502513,-0.75867176,-3.8136601,4.4502525,-0.014293194,0.09493828,1.4438123
4.345614,41.309116,11.210396,12.138451,0.24767923,-0.47099125,-0.015710495,-0.7952944,0.7834088,0.4753445,-0.12128001,0.6806771,0.65008605,-0.15327525,1.2349663,-0.615304,-1.6883919,-0.97739804,2.3530967,1.4277259,-1.0546073,1.3001772,-0.6796392,-1.7275207,-0.9672127,2.2948709,1.3674742,-1.041147,-1.4348967,1.3996778,0.83554,-0.1889932,0.98441684,0.47602215,-0.18310024,1.8592329,-0.50905323,1.4404954,-2.6493266,0.017253032,1.8830097,0.1917305,-0.47213554,0.96042037,0.79670066,-0.0892476,0.045622017,0.59600466,-0.55793965,0.73058313,0.6832184,1.0,0.0,0.0,0.0,0.0,0.0,0.0,-2.509233,0.109053224,-0.89049536,-1.1543274,-0.35567284,-2.0356894,2.097118,0.001001358,0.15880466,1.4347911
9.981964,44.187916,12.91891,9.143811,-0.08937132,-0.5749201,0.11970112,-0.7921872,0.7816026,0.48438498,-0.12389555,0.6834087,0.6482891,-0.12516172,1.2209585,-0.60147893,-1.6790822,-0.9796022,2.3632116,1.4323031,-1.0536631,1.285834,-0.66566503,-1.7191684,-0.9691057,2.3047013,1.3722292,-1.0428598,-1.434234,1.3969991,0.83498824,-0.18969141,0.98366505,0.47611755,-0.1676467,1.8327599,-0.50888157,1.4585749,-2.6466777,0.017235782,1.7829411,0.18629074,-0.46477127,0.967149,0.79765797,-0.09651315,0.04519827,0.59361935,-0.5307576,0.7433153,0.66323346,1.0,0.0,0.0,0.0,0.0,0.0,0.0,-2.48276,0.10888156,-0.9085749,0.016474724,-0.1634121,-0.120699406,-0.18974245,0.15776157,0.22474527,1.4930367
14.153069,45.00307,13.55045,5.844591,-0.42869678,-0.7405812,0.23861465,-0.7979709,0.7812384,0.49085262,-0.16543607,0.6817969,0.6471909,-0.09501243,1.2060368,-0.5875412,-1.6700832,-0.98564935,2.372881,1.4369483,-1.052361,1.2715079,-0.65170515,-1.7107265,-0.97127247,2.3145242,1.3769861,-1.0444105,-1.4321202,1.3960398,0.84713185,-0.22602266,0.9828852,0.4764954,-0.15121406,1.8063135,-0.5087099,1.4756545,-2.6440315,0.017218549,1.6829726,0.18122196,-0.457242,0.97363037,0.7983956,-0.10361316,0.04492244,0.5914479,-0.48955074,0.7607489,0.63688946,1.0,0.0,0.0,0.0,0.0,0.0,0.0,-2.4563136,0.1087099,-0.9256545,0.18086433,0.0030755997,1.166153,-3.7253947,0.13086796,0.28927922,1.5976906
16.223082,45.240265,13.904874,4.303953,-0.5782057,-0.84279513,0.3281135,-0.79655296,0.7799055,0.5034776,-0.1877792,0.679795,0.64331985,0.013519294,1.1918526,-0.5737146,-1.6603787,-0.9900504,2.3825037,1.4413182,-1.0430585,1.2572161,-0.63775194,-1.70209,-0.97391987,2.3243394,1.3817469,-1.0457323,-1.4280813,1.3953553,0.8689801,-0.27785757,0.9815848,0.47668082,-0.12606348,1.7798939,-0.50853825,1.4917351,-2.6413882,0.017201334,1.5831039,0.17661858,-0.44952106,0.97983086,0.7988351,-0.11049866,0.04480748,0.5896141,-0.44135702,0.7798381,0.6081499,1.0,0.0,0.0,0.0,0.0,0.0,0.0,-2.429894,0.10853824,-0.9417351,0.39031506,0.031256676,2.1310449,-5.256337,0.07456541,0.2862692,2.4759352
15.848139,43.945007,13.70478,4.519306,-0.5111276,-0.8712929,0.3735273,-0.796668,0.7720821,0.52595484,-0.20048046,0.6751649,0.6449022,0.13776012,1.1775492,-0.5605437,-1.6494945,-0.9939679,2.391856,1.4462371,-1.0319562,1.2429606,-0.6238388,-1.6931541,-0.9770727,2.334128,1.3865095,-1.0467279,-1.424639,1.3903234,0.9015687,-0.3280064,0.97875684,0.4769679,-0.09078273,1.753499,-0.5083666,1.5068178,-2.6387472,0.017184136,1.4833351,0.17248726,-0.44161987,0.9857475,0.7989309,-0.11716703,0.04483744,0.58819294,-0.39439556,0.79710984,0.5798488,1.0,0.0,0.0,0.0,0.0,0.0,0.0,-2.4034991,0.10836658,-0.9568178,0.33814907,-0.39932728,3.188157,-5.083519,-0.067174435,0.2927661,3.4914718
12.8188505,41.231316,12.566617,6.683053,-0.28197533,-0.86985373,0.3113311,-0.7936616,0.7692454,0.5165807,-0.18818057,0.666902,0.6514036,0.24368975,1.1635944,-0.5469142,-1.6414961,-0.9958908,2.400818,1.4516499,-1.0223589,1.2287451,-0.6099876,-1.6839893,-0.9805441,2.3438668,1.3912779,-1.0473154,-1.4206216,1.3838273,0.9213102,-0.35382664,0.97298867,0.477594,-0.04815665,1.7271309,-0.5081949,1.5209036,-2.636109,0.017166955,1.383666,0.16876411,-0.43358803,0.9914058,0.79871595,-0.12365051,0.045009658,0.5871435,-0.35578692,0.80835617,0.5548246,1.0,0.0,0.0,0.0,0.0,0.0,0.0,-2.377131,0.10819492,-0.9709036,0.38526058,-0.53822994,1.8858433,-2.669084,-0.34600496,0.30019283,4.227206
9.062795,38.264008,11.398083,9.609326,0.02664727,-0.820029,0.21867082,-0.7921451,0.7622399,0.5166549,-0.16638382,0.6574971,0.65110505,0.311337,1.1495306,-0.53376365,-1.6323237,-0.9971825,2.4096165,1.4563885,-1.0161817,1.2145659,-0.59622324,-1.6747043,-0.98404026,2.3535256,1.396052,-1.0474603,-1.4171292,1.3744286,0.93049693,-0.348602,0.96439457,0.47783974,-0.0034127736,1.7007895,-0.50802326,1.5339935,-2.6334734,0.017149793,1.2840966,0.16533661,-0.4254856,0.9968542,0.7982634,-0.13001421,0.045312613,0.58636045,-0.3289245,0.8135224,0.5350643,1.0,0.0,0.0,0.0,0.0,0.0,0.0,-2.3507895,0.108023256,-0.9839935,0.3121376,-0.8210659,0.81841946,0.40835738,-0.6098628,0.22922754,4.4356422
9.595665,36.6582,10.737898,8.399205,-0.06403077,-0.954749,0.22834657,-0.7928869,0.7606006,0.52033824,-0.21026605,0.6616569,0.6487078,0.33471155,1.1352772,-0.5201632,-1.6226705,-1.0050669,2.4196913,1.4609228,-1.0139892,1.2004076,-0.5825447,-1.6653697,-0.98760605,2.3631196,1.4008261,-1.0471818,-1.4154726,1.3661253,0.9341591,-0.35958385,0.95861185,0.4778173,0.0379827,1.6744747,-0.5078516,1.5460883,-2.6308405,0.017132645,1.1846268,0.16221428,-0.41734505,1.0020703,0.79759675,-0.13621724,0.045762427,0.5858243,-0.29727274,0.81646496,0.51074964,1.0,0.0,0.0,0.0,0.0,0.0,0.0,-2.3244748,0.107851595,-0.9960883,0.13151169,-0.716424,0.28437376,-1.2051761,-0.353086,0.20729303,4.1071305
8.437878,34.214573,9.836128,9.00709,0.04203564,-1.0134418,0.19123574,-0.7877788,0.7521312,0.5151011,-0.2001764,0.6589427,0.64302903,0.3714605,1.1216297,-0.50733155,-1.6138597,-1.0076237,2.429014,1.465129,-1.0100358,1.1862818,-0.5689653,-1.6560543,-0.9912281,2.372664,1.4055945,-1.0465105,-1.4119029,1.3555759,0.930327,-0.36348277,0.9539405,0.47704896,0.076816715,1.6481867,-0.50767994,1.5571892,-2.62821,0.017115517,1.0852565,0.15938854,-0.4092064,1.0070449,0.79674554,-0.14223787,0.046355784,0.58550483,-0.26825663,0.8148675,0.4866121,1.0,0.0,0.0,0.0,0.0,0.0,0.0,-2.2981868,0.10767993,-1.0071893,0.32160282,-0.9400368,-0.46662092,-0.5060971,-0.24684668,0.12238026,3.850443
10.044848,32.819237,9.247886,6.586852,-0.1528399,-1.2045934,0.23309621,-0.7897972,0.74899125,0.51334924,-0.25192985,0.6610532,0.64093804,0.39285997,1.1073021,-0.49406618,-1.6047193,-1.0164211,2.4387693,1.4696883,-1.0072244,1.172175,-0.5554842,-1.6467979,-0.9951124,2.3821816,1.4103533,-1.0454786,-1.4101722,1.3459854,0.9238732,-0.39711186,0.9515686,0.4762139,0.11191584,1.6219234,-0.5075083,1.5672972,-2.6255825,0.017098404,0.9859854,0.15692425,-0.40109444,1.0117211,0.79570806,-0.1479861,0.0471172,0.58543026,-0.2297947,0.8112671,0.45500815,1.0,0.0,0.0,0.0,0.0,0.0,0.0,-2.2719235,0.10750827,-1.0172973,0.1532793,-0.8523226,-0.7080674,-3.4612596,-0.053167343,0.12939572,3.4853578
10.90332,33.89954,9.849702,6.462762,-0.21061388,-1.2213987,0.24804583,-0.7826871,0.74762595,0.5235616,-0.2568723,0.65593034,0.63933,0.4152318,1.0939063,-0.4807216,-1.5944418,-1.0207996,2.4477746,1.4742863,-1.0039554,1.1581122,-0.5420793,-1.6375549,-0.999341,2.3916688,1.4151026,-1.0441206,-1.4050106,1.3390417,0.92432904,-0.43170142,0.94858205,0.475272,0.14376087,1.5956869,-0.5073366,1.5764133,-2.6229572,0.01708131,0.88681364,0.1548605,-0.39299965,1.0160953,0.79446954,-0.15344617,0.048053894,0.58563054,-0.18914549,0.8101104,0.42532757,1.0,0.0,0.0,0.0,0.0,0.0,0.0,-2.245687,0.10733661,-1.0264132,0.5084038,-0.58465004,-0.031208992,-3.5415828,-0.11022091,0.115168095,3.1645894
10.457947,32.899643,9.558988,6.818252,-0.16677636,-1.2505306,0.23165429,-0.77891517,0.7419593,0.5190513,-0.2662083,0.65392697,0.6409048,0.4388958,1.0802207,-0.4678834,-1.5856497,-1.0259619,2.4570615,1.4791931,-1.000231,1.1441141,-0.5287441,-1.6283119,-1.0038917,2.4011254,1.4198443,-1.042465,-1.3981276,1.3320168,0.9239646,-0.4629391,0.94555026,0.47453773,0.17290886,1.5694771,-0.5071659,1.5845382,-2.6203349,0.017064232,0.787741,0.15320015,-0.38492203,1.0201786,0.7930391,-0.1586272,0.049156696,0.5860973,-0.14951617,0.807525,0.39650503,1.0,0.0,0.0,0.0,0.0,0.0,0.0,-2.2194772,0.1071659,-1.0345383,0.6834507,-0.5904436,-0.1203537,-3.2057881,-0.11407137,0.12669563,2.897069
9.042536,31.081312,9.074993,8.2259655,0.002390802,-1.2289358,0.19417758,-0.7712037,0.7324091,0.5183233,-0.2600275,0.6493795,0.63732576,0.46455377,1.0669937,-0.4555032,-1.5764796,-1.0298945,2.4660635,1.4835769,-0.9960096,1.1302077,-0.5155033,-1.6190727,-1.0086353,2.410544,1.4245764,-1.0405328,-1.3879937,1.3217385,0.9234764,-0.47838315,0.94167346,0.47343075,0.19998874,1.543294,-0.50699615,1.5916733,-2.6177151,0.01704717,0.68876743,0.15189075,-0.37688637,1.0239995,0.7914422,-0.16356641,0.05039399,0.5867926,-0.115616746,0.8024087,0.37109748,1.0,0.0,0.0,0.0,0.0,0.0,0.0,-2.193294,0.10699615,-1.0416732,1.0050535,-0.91121197,-0.14628172,-1.6385138,-0.18684864,0.07370114,2.68707
5.997676,27.59214,7.848729,10.735836,0.3071748,-1.17362,0.10621509,-0.76699907,0.72149277,0.5052471,-0.2374977,0.6469731,0.63935477,0.47621062,1.0535078,-0.443354,-1.568548,-1.0323851,2.4752412,1.4885119,-0.99291176,1.1164042,-0.50239885,-1.6099002,-1.0133445,2.4199243,1.429299,-1.0383527,-1.3777665,1.3071169,0.9148334,-0.4687875,0.9378309,0.47238672,0.22397418,1.5171356,-0.5068264,1.5978193,-2.615098,0.017030127,0.5898928,0.1508379,-0.3689394,1.0276002,0.78973836,-0.16832417,0.051720142,0.58762676,-0.092792824,0.7920185,0.35030124,1.0,0.0,0.0,0.0,0.0,0.0,0.0,-2.1671357,0.106826395,-1.0478194,0.9876728,-1.3412237,-0.9599328,0.8338392,-0.16919374,0.054609776,2.3711653
7.1439195,26.551813,7.2466125,8.361386,0.09387678,-1.34629,0.13121037,-0.7719305,0.72069794,0.500256,-0.30145848,0.6435034,0.6393132,0.45461768,1.0392112,-0.43032905,-1.5598747,-1.0434904,2.4842746,1.4932303,-0.99289095,1.1026579,-0.48941982,-1.6008365,-1.0182045,2.4292626,1.434012,-1.0359781,-1.3737018,1.2951963,0.9034952,-0.49218926,0.9332602,0.4715369,0.24200615,1.491004,-0.50665665,1.6029774,-2.6124833,0.0170131,0.4911171,0.1500864,-0.36110592,1.0309335,0.7879475,-0.1728229,0.053170376,0.58859473,-0.060561243,0.779928,0.32167917,1.0,0.0,0.0,0.0,0.0,0.0,0.0,-2.141004,0.10665664,-1.0529773,0.3837347,-1.0817289,-1.2004137,-2.4432063,-0.28299093,0.080025196,1.7853171
8.641991,26.679249,7.28052,6.387068,-0.0935477,-1.4770584,0.17744622,-0.76955444,0.716832,0.50385666,-0.3406821,0.64142436,0.63029045,0.4596735,1.0257025,-0.41773662,-1.5504508,-1.0522727,2.493405,1.4970411,-0.99001074,1.0889384,-0.47654283,-1.591851,-1.0234897,2.4385552,1.4387118,-1.0334451,-1.3715247,1.2855757,0.89679915,-0.5410387,0.92867565,0.46997055,0.25713453,1.4648991,-0.5064869,1.6071484,-2.6098714,0.016996091,0.3924401,0.14972305,-0.3533907,1.0339416,0.78605306,-0.17696576,0.05478376,0.58974767,-0.019867193,0.7679394,0.28797075,1.0,0.0,0.0,0.0,0.0,0.0,0.0,-2.1148992,0.10648689,-1.0571485,0.2179861,-0.8573532,-0.730741,-4.961288,-0.30961037,0.0126719475,1.5033007
8.928663,26.316793,7.168295,5.787922,-0.15609324,-1.5330157,0.18880634,-0.7693124,0.7121805,0.50277776,-0.3653618,0.6341245,0.6321388,0.46801022,1.0120071,-0.4053248,-1.5415732,-1.0600259,2.5019677,1.5019256,-0.9866441,1.0752264,-0.46375072,-1.5829074,-1.0293415,2.4477906,1.4433981,-1.0307729,-1.3711102,1.2774279,0.893234,-0.59991384,0.92225784,0.46866694,0.27039766,1.4388199,-0.50631714,1.6103333,-2.607262,0.016979098,0.2938618,0.1497879,-0.34579468,1.0365987,0.78404725,-0.18070646,0.056579884,0.5911123,0.023717681,0.7557415,0.25250128,1.0,0.0,0.0,0.0,0.0,0.0,0.0,-2.08882,0.10631713,-1.0603333,0.05030632,-0.7108927,-0.41759014,-5.9515595,-0.5019307,0.032138824,1.3220251
8.470607,23.833494,6.285031,5.499811,-0.106063664,-1.6040168,0.1845732,-0.76228315,0.6998777,0.4936902,-0.39390165,0.62625384,0.63890153,0.48053038,0.9989981,-0.39376295,-1.5335385,-1.0687317,2.510416,1.5072882,-0.9827199,1.061545,-0.45107114,-1.574023,-1.0358036,2.456946,1.4480768,-1.0279768,-1.3670163,1.2651469,0.8865889,-0.66172934,0.91385347,0.46815166,0.28265128,1.4127665,-0.5061474,1.6125333,-2.6046553,0.016962122,0.19538206,0.1502924,-0.33834743,1.0388851,0.78194004,-0.18401735,0.05855653,0.59268755,0.06737061,0.7393217,0.21491696,1.0,0.0,0.0,0.0,0.0,0.0,0.0,-2.0627666,0.10614738,-1.0625334,0.4399538,-1.1256933,-0.7391691,-6.244874,-0.71285963,0.10212064,1.2194932
6.798623,20.796455,5.0357676,6.2210646,0.03181058,-1.6370456,0.13274261,-0.76392955,0.6922884,0.47657302,-0.4185857,0.62103164,0.6345374,0.4738605,0.98515207,-0.38184232,-1.5263658,-1.0776621,2.5190492,1.5115306,-0.9805907,1.047896,-0.43852746,-1.565274,-1.0428512,2.4660134,1.452748,-1.0250776,-1.3643,1.251078,0.8708097,-0.7192768,0.9048744,0.4672019,0.29223275,1.3867397,-0.50597763,1.6137493,-2.602051,0.016945165,0.09700077,0.15120506,-0.33110046,1.0407943,0.77977234,-0.18688248,0.060706414,0.59442794,0.10701555,0.7177792,0.17718942,1.0,0.0,0.0,0.0,0.0,0.0,0.0,-2.0367398,0.105977625,-1.0637493,0.29363632,-1.3058901,-1.642859,-5.8315516,-0.77939034,0.038713217,0.9495497
5.443699,15.621668,3.1996374,6.186787,0.2095328,-1.719459,0.11635939,-0.7484596,0.66608924,0.46237808,-0.45023525,0.6026296,0.64124966,0.48568347,0.97305006,-0.37191853,-1.5190362,-1.0878748,2.5262764,1.5168729,-0.9765092,1.0343386,-0.4262184,-1.5567348,-1.0504634,2.4749513,1.4574152,-1.0220888,-1.3525813,1.2245111,0.8479585,-0.77536106,0.89058363,0.46693024,0.30111432,1.3607388,-0.5058079,1.6139821,-2.5994496,0.016928222,-0.0012821585,0.15249157,-0.324131,1.0423048,0.7775747,-0.1892798,0.06299814,0.5963069,0.1434852,0.6874466,0.13666673,1.0,0.0,0.0,0.0,0.0,0.0,0.0,-2.0107388,0.10580787,-1.063982,1.2336493,-2.5618315,-2.3769736,-5.697286,-1.3301849,0.095021725,0.86703897
4.772614,14.334791,2.870478,6.64145,0.27760184,-1.708939,0.11226807,-0.7468958,0.65513223,0.4613633,-0.48336405,0.5886959,0.63966197,0.49269983,0.959649,-0.36070517,-1.5105984,-1.0987998,2.5338209,1.5213814,-0.9728188,1.0208994,-0.41419065,-1.548392,-1.0586364,2.483725,1.4620787,-1.019016,-1.3409939,1.1958414,0.8291638,-0.831659,0.87318724,0.4664559,0.3092263,1.3347635,-0.5056381,1.6132329,-2.5968506,0.016911298,-0.09946682,0.15412807,-0.31746864,1.0434151,0.77535284,-0.1912077,0.065410726,0.5983218,0.17777653,0.65627074,0.09688411,1.0,0.0,0.0,0.0,0.0,0.0,0.0,-1.9847635,0.10563812,-1.0632329,1.2227058,-2.7731657,-1.9760966,-5.7192326,-1.6398668,0.058084726,0.78899264
3.2508688,11.316268,1.8577054,7.6659155,0.4478159,-1.6954637,0.08219471,-0.73625964,0.63292783,0.44409192,-0.5019312,0.5676801,0.6341299,0.50237125,0.94727343,-0.35089785,-1.5039829,-1.1088295,2.540493,1.5254917,-0.9687789,1.0076014,-0.4024924,-1.5402648,-1.067313,2.4922853,1.4667326,-1.0158651,-1.3259403,1.1614774,0.80685365,-0.8799438,0.85100657,0.46530557,0.31695393,1.308815,-0.50546837,1.6115025,-2.5942543,0.016894389,-0.19755334,0.15607452,-0.31114483,1.0441362,0.7731282,-0.1926799,0.067927144,0.60044414,0.20678474,0.621312,0.05846185,1.0,0.0,0.0,0.0,0.0,0.0,0.0,-1.958815,0.10546836,-1.0615025,1.5712261,-3.3452988,-2.3337603,-4.9324393,-2.1194339,-0.028759241,0.7426441
0.7810867,6.180076,-0.3686347,8.460226,0.6786759,-1.7494211,0.011821726,-0.72713727,0.60894054,0.3999146,-0.5266273,0.55653286,0.62606955,0.50030166,0.93488765,-0.34159836,-1.5002733,-1.1199757,2.5479386,1.5293396,-0.9658349,0.99446464,-0.39117658,-1.5325153,-1.0764415,2.5006242,1.4713675,-1.0126474,-1.3093209,1.1218634,0.7639912,-0.9242394,0.8286789,0.4631527,0.32316652,1.2828913,-0.50529957,1.6087921,-2.5916605,0.016877498,-0.29554176,0.15826702,-0.30523872,1.0444629,0.77096343,-0.19367506,0.07053123,0.60260314,0.22965842,0.5770925,0.01889025,1.0,0.0,0.0,0.0,0.0,0.0,0.0,-1.9328912,0.10529956,-1.0587921,1.7276764,-3.8807392,-4.3705463,-4.5539618,-2.1624923,-0.15555024,0.57911277
-1.0580189,1.5684892,-2.0751371,9.169556,0.8591378,-1.7624284,-0.017116297,-0.708647,0.5738756,0.37388152,-0.546831,0.50990945,0.62568665,0.5263616,0.92359996,-0.33378902,-1.4951271,-1.1311246,2.5516152,1.5339361,-0.96001124,0.9815452,-0.3803357,-1.5252616,-1.0859764,2.5086465,1.4759814,-1.0093572,-1.2858558,1.0717748,0.712255,-0.9636714,0.7935453,0.46090665,0.33072996,1.2569942,-0.5051317,1.6051024,-2.5890694,0.016860625,-0.39343223,0.16065407,-0.29982185,1.0443888,0.7688995,-0.19418706,0.073218904,0.604751,0.24730669,0.52655303,-0.021144569,1.0,0.0,0.0,0.0,0.0,0.0,0.0,-1.9069942,0.105131716,-1.0551023,2.4347544,-4.9372196,-5.272448,-4.081106,-3.4572244,-0.18539429,0.698483
-2.758289,-5.2824173,-4.4263897,8.726458,1.0987179,-1.833325,-0.0026128327,-0.6836618,0.5163777,0.35436288,-0.58700967,0.469163,0.6170332,0.53098774,0.91317904,-0.32869792,-1.4898254,-1.1446773,2.5555627,1.5376847,-0.9562584,0.96893954,-0.37016523,-1.5185192,-1.0959747,2.5162377,1.4805666,-1.0059965,-1.251693,0.99895996,0.6610291,-1.0124046,0.74803776,0.45789242,0.33763817,1.231123,-0.5049639,1.6004347,-2.5864809,0.016843768,-0.49122483,0.16318798,-0.29498863,1.0438763,0.76693875,-0.19417632,0.07593962,0.60690486,0.2604698,0.46511513,-0.06590276,1.0,0.0,0.0,0.0,0.0,0.0,0.0,-1.881123,0.10496387,-1.0504346,3.5767794,-7.2273135,-5.2720785,-5.012512,-4.5220494,-0.28089285,0.6145358
-6.047863,-14.835358,-7.717513,9.098899,1.4721525,-1.8399441,-0.0073456857,-0.66829073,0.43892318,0.3404525,-0.6216177,0.3956881,0.61251116,0.54218364,0.90211046,-0.3262729,-1.484474,-1.1581365,2.5558066,1.5418178,-0.9517781,0.95669246,-0.36096275,-1.5122268,-1.1065166,2.5232224,1.4851195,-1.002567,-1.2150458,0.8941053,0.61815596,-1.0686787,0.6817385,0.45440346,0.34437922,1.2052774,-0.504796,1.5947896,-2.583895,0.016826928,-0.5889197,0.16578197,-0.29087257,1.04288,0.76508504,-0.19360645,0.0786182,0.6090817,0.2633195,0.3904773,-0.11514237,1.0,0.0,0.0,0.0,0.0,0.0,0.0,-1.8552774,0.10479602,-1.0447896,3.8731813,-10.456669,-4.4674516,-5.779791,-6.6281915,-0.36193132,0.5705595
-19.755827,-54.32789,-23.152077,9.699419,3.2047603,-2.1637688,-0.1750297,-0.6084109,0.22362776,0.2329723,-0.6542817,0.32272297,0.58676386,0.53456527,0.8958514,-0.33859998,-1.4889296,-1.1719447,2.5554948,1.5437958,-0.9491105,0.94502044,-0.3536471,-1.5067356,-1.1176574,2.529406,1.489617,-0.99908805,-1.1499342,0.6771485,0.52523273,-1.129895,0.59669834,0.4477409,0.3482741,1.1794577,-0.5046282,1.5881684,-2.5813117,0.016810104,-0.6865169,0.16810131,-0.2880354,1.0412391,0.7634823,-0.19229104,0.080931835,0.6112028,0.22462006,0.24482654,-0.18401237,1.0,0.0,0.0,0.0,0.0,0.0,0.0,-1.8294576,0.104628175,-1.0381684,6.9212675,-21.767784,-9.548426,-6.349206,-8.664751,-0.78133345,0.17601252
-45.265163,-128.21512,-52.301163,10.612454,6.238763,-2.7404964,-0.5016672,-0.48322508,-0.1802392,0.049246848,-0.683326,0.06340719,0.5485847,0.49467105,0.89669794,-0.37167102,-1.5018109,-1.18599,2.5357468,1.5444754,-0.94962096,0.93450904,-0.35015,-1.5029228,-1.1294048,2.5340753,1.4940077,-0.9956176,-1.015682,0.23968053,0.332043,-1.1906762,0.4220468,0.4350381,0.34520873,1.1536636,-0.50446033,1.5805719,-2.5787308,0.016793298,-0.78401655,0.16948032,-0.2876253,1.0386256,0.76245576,-0.18988796,0.08234227,0.6130443,0.110874295,-0.029587863,-0.28974757,1.0,0.0,0.0,0.0,0.0,0.0,0.0,-1.8036636,0.10446033,-1.0305719,14.17985,-44.01667,-19.693344,-6.3498735,-17.91156,-1.6560435,-0.7242322
-44.17853,-143.8111,-57.19584,6.575489,6.061891,-3.0970669,-0.33302432,-0.14672369,-0.4452901,-0.12504862,-0.6760778,-0.45230266,0.48358223,0.50723684,0.91983664,-0.394679,-1.5154276,-1.1970125,2.488845,1.5423659,-0.94489396,0.9267652,-0.35177696,-1.5016487,-1.1415584,2.5356202,1.4982172,-0.99217486,-0.69168717,-0.29791668,0.057880018,-1.2237701,0.064013384,0.41445762,0.3424599,1.1278963,-0.5042925,1.5720012,-2.5761526,0.016776508,-0.8814187,0.16983223,-0.2901001,1.0348321,0.76197344,-0.18633153,0.08290512,0.61465746,0.009445239,-0.32125872,-0.41048878,1.0,0.0,0.0,0.0,0.0,0.0,0.0,-1.7778963,0.10429248,-1.0220013,33.109283,-54.08159,-27.79674,-3.3620834,-36.20014,-2.663678,-0.725919
-23.48063,-115.712135,-42.55765,-0.40328223,4.7301035,-3.120337,0.31557825,0.25861222,-0.65738356,-0.2114851,-0.6864324,-0.5467307,0.5372845,0.49925676,0.9526264,-0.4175153,-1.5227972,-1.2102016,2.4809473,1.5519457,-0.9422492,0.9238088,-0.3587693,-1.5030487,-1.1539237,2.5336366,1.5022684,-0.98875403,-0.1643898,-0.8338792,-0.20523499,-1.2405518,-0.28630593,0.39985666,0.34128097,1.1021538,-0.50412464,1.5624571,-2.573577,0.016759735,-0.97872347,0.16958427,-0.29514122,1.02985,0.7614584,-0.18181014,0.08248726,0.61670256,-0.038065325,-0.56394523,-0.5282831,1.0,0.0,0.0,0.0,0.0,0.0,0.0,-1.7521538,0.104124635,-1.0124571,52.49908,-53.864956,-26.05781,-1.5753984,-35.119675,-2.159053,-0.3506124
-2.9065943,-65.77925,-22.05862,-1.8324188,2.7316165,-2.7650158,0.569555,0.4896296,-0.73143077,-0.3466681,-0.6476913,-0.58040214,0.6252391,0.39271438,0.97277176,-0.43191236,-1.5377154,-1.2186929,2.4755964,1.5647924,-0.9494826,0.9264276,-0.37011945,-1.5070064,-1.1661708,2.5287118,1.5062624,-0.98541045,0.399557,-1.2360684,-0.45547628,-1.2192403,-0.5607467,0.39721555,0.332102,1.076438,-0.5039568,1.5519407,-2.571004,0.016742978,-1.075931,0.16929245,-0.30198765,1.0238695,0.7604865,-0.17665856,0.08116372,0.6195679,-0.027803717,-0.7219042,-0.6230362,1.0,0.0,0.0,0.0,0.0,0.0,0.0,-1.7264379,0.10395679,-1.0019407,55.07874,-40.418648,-23.917187,2.2001505,-27.341902,-0.9037554,-0.92188716
8.403528,-23.558264,-7.6838975,-1.273602,1.0436251,-2.4862204,0.434177,0.57373875,-0.76095265,-0.48884052,-0.65633017,-0.58522016,0.6230543,0.25381708,0.9838015,-0.44621474,-1.5558904,-1.2318039,2.4701898,1.5685679,-0.96002877,0.93381286,-0.38421905,-1.5134208,-1.1781929,2.521769,1.5102526,-0.98225665,0.8464866,-1.4684294,-0.6993416,-1.1964766,-0.73846537,0.39778155,0.31020096,1.0507469,-0.50378895,1.540453,-2.5684335,0.016726239,-1.1730412,0.16937733,-0.30992317,1.0170883,0.75907135,-0.17104056,0.07932395,0.6231078,0.02246187,-0.81368613,-0.7001468,1.0,0.0,0.0,0.0,0.0,0.0,0.0,-1.7007469,0.10378894,-0.99045295,43.176914,-23.388409,-23.11387,2.2898912,-17.681622,-0.4638195,-2.1019638
12.679294,3.2868853,0.43303275,-0.12129402,0.1947763,-2.2477837,0.21460363,0.6358028,-0.79590374,-0.5922623,-0.6886389,-0.49974412,0.61365205,0.08367723,0.99739313,-0.46380943,-1.5726471,-1.2470567,2.4717946,1.5716178,-0.97388893,0.94451594,-0.39966047,-1.5221069,-1.190171,2.5139184,1.5142523,-0.9794395,1.1413214,-1.5697099,-0.9221822,-1.1981711,-0.80027044,0.39939663,0.27251258,1.0250816,-0.5036211,1.5279949,-2.5658655,0.016709516,-1.2700545,0.17005157,-0.31849098,1.0096289,0.75742024,-0.16492926,0.07724608,0.6270134,0.087398976,-0.86691153,-0.7668383,1.0,0.0,0.0,0.0,0.0,0.0,0.0,-1.6750816,0.103621095,-0.97799486,28.393793,-10.241246,-21.39647,-0.16832352,-6.151414,-0.24136305,-3.6609888
19.097395,29.692566,10.94586,1.2912722,-0.53903025,-1.8230035,0.18123557,0.71545357,-0.8001094,-0.59428453,-0.7100626,-0.39301792,0.6021522,-0.14737979,1.0160613,-0.47967142,-1.5815353,-1.2611773,2.4746165,1.5744675,-0.99417746,0.95731425,-0.41540945,-1.5324123,-1.2023284,2.5061936,1.5182692,-0.97715163,1.3240265,-1.5767709,-1.0654111,-1.2216995,-0.7629113,0.40152818,0.21474311,0.9994421,-0.50345325,1.5145674,-2.5633001,0.01669281,-1.3669707,0.1714325,-0.32724953,1.0016406,0.7556005,-0.15836434,0.07497989,0.63116294,0.16266564,-0.87409943,-0.8166243,1.0,0.0,0.0,0.0,0.0,0.0,0.0,-1.6494421,0.10345325,-0.96456736,17.673159,-0.7578373,-13.946259,-2.4082422,3.763187,-0.029742718,-5.6295247
21.442387,44.463417,17.710463,4.2784085,-0.5118055,-1.3852726,0.19210005,0.76712537,-0.79738456,-0.5949076,-0.72010666,-0.18983822,0.55875826,-0.25263393,1.0340267,-0.4951479,-1.5919031,-1.2743391,2.4872098,1.574145,-1.0024151,0.97133136,-0.4308623,-1.543576,-1.2147796,2.4996438,1.5222803,-0.9754827,1.4268355,-1.5348123,-1.1332412,-1.2532581,-0.619016,0.40052316,0.15159282,0.9738283,-0.5032873,1.5001714,-2.5607374,0.01667612,-1.4637899,0.17349052,-0.33589268,0.99329656,0.7535816,-0.15142365,0.07230419,0.63557667,0.22935864,-0.8558532,-0.84824526,1.0,0.0,0.0,0.0,0.0,0.0,0.0,-1.6238283,0.10328731,-0.9501714,10.077381,4.1793823,-6.778598,-3.2331705,14.402676,-0.21073222,-6.121981
20.435444,51.82972,22.472061,9.188962,0.47495067,-0.85408664,0.29206735,0.76452607,-0.781662,-0.5345511,-0.7351178,0.29530174,0.50424457,-0.17722611,1.047784,-0.5090285,-1.5970311,-1.2882915,2.529174,1.5727048,-0.9932053,0.98583007,-0.4457401,-1.5547225,-1.2275703,2.4959626,1.5262457,-0.97432876,1.45789,-1.4721323,-1.1092857,-1.2878122,-0.28477308,0.39534974,0.10429036,0.9482403,-0.5031214,1.484808,-2.558177,0.016659448,-1.5605124,0.17598248,-0.34431267,0.984804,0.7512343,-0.14417501,0.06849982,0.6404438,0.2654749,-0.83150136,-0.85760367,1.0,0.0,0.0,0.0,0.0,0.0,0.0,-1.5982403,0.10312137,-0.93480796,3.2223701,6.264639,2.1385193,-3.5218716,33.42219,-0.47585368,-4.4451966
15.71484,51.220364,22.89666,13.395962,0.61867183,-0.39075416,0.2805204,0.7294426,-0.7756771,-0.48618734,-0.7450898,0.2772177,0.506189,0.004964554,1.0587744,-0.5233078,-1.6033413,-1.3020793,2.5236845,1.5768646,-0.9738323,1.0001647,-0.46004045,-1.5651844,-1.2406719,2.495318,1.5301634,-0.9734485,1.4263891,-1.4160604,-1.0264664,-1.3177722,0.009205402,0.391144,0.083355844,0.92267704,-0.50295544,1.4684781,-2.5556195,0.016642792,-1.6571382,0.1787014,-0.3524227,0.9762863,0.74850357,-0.13674073,0.0634628,0.64576834,0.28343475,-0.7980645,-0.8575663,1.0,0.0,0.0,0.0,0.0,0.0,0.0,-1.572677,0.10295543,-0.9184781,-2.8302193,5.6052923,7.885337,-3.008628,29.389864,-0.3099382,-1.8571734
4.223762,40.16603,16.242899,17.781929,0.25469124,-0.12413433,-0.0015433729,0.6513086,-0.7677113,-0.52549815,-0.73363876,-0.08730492,0.5126731,0.22042358,1.0652956,-0.5368116,-1.6177342,-1.3140358,2.4865875,1.5814307,-0.9514062,1.0136993,-0.47389543,-1.5750072,-1.253926,2.4959168,1.5340468,-0.9725721,1.3307227,-1.3754148,-0.9691045,-1.3276786,0.0761314,0.3876018,0.08925587,0.8971405,-0.5027895,1.4511827,-2.5530643,0.016626153,-1.7536675,0.1815033,-0.36020184,0.9677306,0.745609,-0.12924017,0.05804775,0.6511486,0.28811985,-0.7648873,-0.8621832,1.0,0.0,0.0,0.0,0.0,0.0,0.0,-1.5471405,0.10278949,-0.9011827,-9.094405,4.034853,5.311775,-0.90260506,6.599012,-0.30604005,0.6370351
0.620554,33.303993,12.178549,17.699858,-0.586291,-0.16067962,-0.140749,0.66787547,-0.77117896,-0.56276697,-0.72048223,-0.45260876,0.558308,0.25207877,1.0804869,-0.55101335,-1.6312839,-1.3259742,2.450656,1.5898776,-0.9473642,1.0263927,-0.48751247,-1.5846069,-1.2671344,2.4954476,1.5379301,-0.9715898,1.2501994,-1.3573083,-0.95802474,-1.3181566,-0.08838273,0.38835022,0.10089212,0.87162876,-0.50262356,1.4329227,-2.5505118,0.01660953,-1.8501002,0.1844387,-0.36761284,0.9590508,0.7427561,-0.121788174,0.053317055,0.65623033,0.30307412,-0.72653985,-0.87654334,1.0,0.0,0.0,0.0,0.0,0.0,0.0,-1.5216287,0.10262355,-0.8829227,-7.6756716,1.7650127,0.7811904,1.0724068,-16.573942,0.028914213,1.0846303
0.20894146,27.085083,9.524355,17.350552,-0.60725224,-0.29767787,-0.16828033,0.7111905,-0.7911204,-0.5988658,-0.68005717,-0.532736,0.5955685,0.22086258,1.0975118,-0.5666245,-1.6444935,-1.3351401,2.442174,1.597487,-0.94950354,1.0386856,-0.5011601,-1.594424,-1.2800167,2.4928308,1.5418497,-0.970515,1.2229294,-1.3675044,-0.99012446,-1.2778922,-0.3199029,0.3928424,0.10927755,0.84614277,-0.5024576,1.4136992,-2.547962,0.016592924,-1.9464365,0.18754578,-0.37471104,0.950194,0.74001604,-0.11446724,0.049665276,0.66091365,0.32064462,-0.6976434,-0.89491177,1.0,0.0,0.0,0.0,0.0,0.0,0.0,-1.4961427,0.10245761,-0.86369914,-2.5329351,-1.0901213,-3.3630252,4.160595,-23.292585,0.35685897,0.740394
-1.1402407,21.220669,6.3468156,16.638796,-0.22881871,-0.4945265,-0.21322823,0.70940715,-0.7979721,-0.6604595,-0.6633739,-0.53850037,0.59259826,0.19663669,1.1096263,-0.5809573,-1.66047,-1.346354,2.4389808,1.6011095,-0.9508513,1.0509136,-0.5150065,-1.604903,-1.2924278,2.4881043,1.5458113,-0.96938586,1.2231704,-1.3905644,-1.0674602,-1.2284842,-0.524112,0.3966264,0.11388839,0.8206825,-0.5022917,1.393513,-2.5454144,0.016576335,-2.0426764,0.19081306,-0.38166332,0.94109774,0.7374467,-0.107220225,0.047016304,0.6651809,0.33513165,-0.6874661,-0.9205187,1.0,0.0,0.0,0.0,0.0,0.0,0.0,-1.4706825,0.10229167,-0.84351295,0.13668537,-2.4016857,-7.780528,5.107355,-20.596254,0.24496913,0.37474483
1.0116506,19.518208,5.4680567,13.1181755,-0.09674364,-0.734761,-0.14589304,0.7127062,-0.8095281,-0.6948578,-0.69305,-0.54032815,0.58328825,0.12575902,1.1221842,-0.5959593,-1.6743888,-1.3617327,2.4340715,1.6041402,-0.95680994,1.0632617,-0.52912945,-1.6162593,-1.30457,2.4817796,1.5497957,-0.96827006,1.2391467,-1.4198008,-1.1586341,-1.2088323,-0.6687625,0.3984332,0.11060225,0.7952471,-0.50212574,1.372365,-2.5428696,0.016559761,-2.13882,0.19426823,-0.38859558,0.9316469,0.7350238,-0.099860705,0.04512156,0.66912764,0.35563338,-0.6877612,-0.9592592,1.0,0.0,0.0,0.0,0.0,0.0,0.0,-1.445247,0.102125734,-0.822365,1.6757011,-3.0214548,-9.160471,2.1529198,-14.629782,-0.006842613,-0.36830157
5.7876005,27.004929,10.064765,11.590058,-0.26388478,-0.6055742,0.026530437,0.70803285,-0.80898756,-0.66040546,-0.69556236,-0.5589518,0.6060121,0.14126188,1.134065,-0.6100282,-1.6822999,-1.3741262,2.4258845,1.610397,-0.9541439,1.0757663,-0.5434889,-1.6281974,-1.316653,2.474402,1.5538126,-0.96717906,1.2545531,-1.4415287,-1.205719,-1.2075471,-0.7614938,0.40210956,0.10866719,0.7698374,-0.5019598,1.3502564,-2.5403273,0.016543206,-2.2348673,0.19796562,-0.39543152,0.921838,0.7325908,-0.092351794,0.043716844,0.67295665,0.38127893,-0.6744021,-0.9942868,1.0,0.0,0.0,0.0,0.0,0.0,0.0,-1.4198374,0.101959795,-0.80025643,1.6267538,-2.2490263,-4.813385,0.28579235,-9.411037,0.1978457,-0.17823428
9.551447,35.07998,15.0655575,11.701098,-0.39855057,-0.356655,0.15685508,0.7074205,-0.8102784,-0.6324468,-0.68579805,-0.5740238,0.6384081,0.14043862,1.1465083,-0.6245168,-1.6914421,-1.3852328,2.4169996,1.6176535,-0.9531352,1.0883911,-0.55799717,-1.6402462,-1.3287494,2.4663835,1.5578905,-0.96610427,1.265505,-1.4541824,-1.2051148,-1.2099569,-0.8153414,0.4091367,0.107281,0.74445343,-0.50179386,1.327188,-2.5377874,0.016526666,-2.3308187,0.20192814,-0.4020157,0.9117591,0.7299827,-0.08478476,0.04259388,0.67684746,0.4075333,-0.6450434,-1.0187416,1.0,0.0,0.0,0.0,0.0,0.0,0.0,-1.3944534,0.101793855,-0.777188,1.1947155,-1.3213873,-0.094246864,-0.122094154,-5.508721,0.57551265,-0.07801503
9.13275,39.152092,17.56937,13.647844,-0.26255703,-0.065275535,0.17992838,0.6882384,-0.81482345,-0.61315995,-0.6700274,-0.5800287,0.65435314,0.15349245,1.1572149,-0.6394795,-1.7015622,-1.3957522,2.4083805,1.6233258,-0.950755,1.1009967,-0.5725922,-1.6520469,-1.3408115,2.458033,1.5620486,-0.9650295,1.2593833,-1.4613439,-1.1723859,-1.2046993,-0.8422581,0.41782606,0.10770392,0.7190943,-0.5016279,1.3031609,-2.5352502,0.016510142,-2.4266741,0.20608425,-0.40826035,0.90152067,0.7271305,-0.07727409,0.041587662,0.68086743,0.4248893,-0.6087627,-1.0318483,1.0,0.0,0.0,0.0,0.0,0.0,0.0,-1.3690943,0.101627916,-0.7531609,-0.4736662,-0.7666588,3.0890465,0.6326914,-2.831173,0.7938087,0.12103617
9.850197,41.871952,19.043537,14.035542,-0.2538767,0.02439338,0.18325603,0.6965143,-0.8142293,-0.61182374,-0.6659917,-0.58549166,0.66519266,0.12737606,1.1706482,-0.6540151,-1.7132293,-1.4074106,2.399484,1.6285678,-0.95229185,1.113549,-0.58721584,-1.6634853,-1.3528011,2.4495301,1.5662962,-0.963969,1.2542486,-1.4628714,-1.1349664,-1.196525,-0.8534279,0.42693692,0.10583363,0.6937609,-0.50146294,1.2781758,-2.5327156,0.016493635,-2.5224338,0.21040726,-0.41411877,0.89118546,0.7240182,-0.069875084,0.040617846,0.6850293,0.44096184,-0.56951874,-1.0399908,1.0,0.0,0.0,0.0,0.0,0.0,0.0,-1.3437608,0.10146293,-0.7281758,-0.37298203,-0.1978159,3.5565853,0.91700554,-1.257956,0.85547566,-0.09650439
8.262213,42.61817,19.177807,15.630463,-0.08835107,0.13811743,0.12455416,0.6899455,-0.8123989,-0.60734034,-0.64187044,-0.5878024,0.67573833,0.11621194,1.1825435,-0.6684557,-1.7242193,-1.4169881,2.39075,1.63387,-0.9523478,1.126025,-0.6018242,-1.6745918,-1.3646038,2.4409776,1.5706373,-0.9629352,1.2457303,-1.4602544,-1.1032127,-1.1744436,-0.8563839,0.43625292,0.10276963,0.6684532,-0.5012989,1.252234,-2.5301833,0.016477145,-2.6180975,0.2148447,-0.4196062,0.88081014,0.72068775,-0.06263374,0.03964788,0.6892852,0.45061752,-0.5324543,-1.0423036,1.0,0.0,0.0,0.0,0.0,0.0,0.0,-1.3184532,0.1012989,-0.70223397,-0.7058382,0.2128601,3.0111551,2.3110151,-0.45200586,0.9036839,-0.22098422
5.2843637,39.909004,17.055733,16.24069,0.13256907,0.12513329,0.05124052,0.6780704,-0.81371,-0.6257993,-0.6337518,-0.58995134,0.676615,0.1542966,1.193832,-0.68319523,-1.7371716,-1.427979,2.3819823,1.6382989,-0.94750553,1.1383731,-0.61640495,-1.6855628,-1.3761661,2.4324212,1.5750624,-0.96190333,1.2317502,-1.457566,-1.0954497,-1.1495638,-0.8561081,0.4443364,0.10352719,0.64317036,-0.5011349,1.2253362,-2.5276537,0.016460672,-2.7136657,0.21933842,-0.4247942,0.87038636,0.71721727,-0.055514116,0.038682863,0.6935569,0.45450595,-0.50489366,-1.0476366,1.0,0.0,0.0,0.0,0.0,0.0,0.0,-1.2931703,0.10113487,-0.6753362,-1.242876,0.2089262,0.63512325,2.6170254,-0.14677048,0.7745743,0.14423579
4.7295327,39.500916,16.347937,15.239134,0.08585,0.08115919,0.046225034,0.6669132,-0.8073686,-0.6266493,-0.64574355,-0.59733796,0.6719139,0.18499157,1.2050644,-0.6971418,-1.7482278,-1.4407405,2.3726873,1.6422538,-0.9434042,1.1505497,-0.6309332,-1.6965473,-1.3875835,2.4238534,1.5795542,-0.96083903,1.2136058,-1.4514542,-1.0999259,-1.1385683,-0.85740703,0.45041394,0.107608415,0.6179123,-0.50097084,1.1974834,-2.5251267,0.016444214,-2.8091385,0.22388268,-0.42972183,0.8598672,0.71363753,-0.048435763,0.03776595,0.69781744,0.459664,-0.47914374,-1.0582873,1.0,0.0,0.0,0.0,0.0,0.0,0.0,-1.2679123,0.100970834,-0.6474834,-1.6453743,0.5507231,-0.59809685,1.2438774,-0.3051281,0.5517185,0.46546757
4.7244587,37.70201,15.231987,13.193352,0.033756852,-0.009386227,0.07830377,0.6568668,-0.81241906,-0.632374,-0.6701508,-0.5931748,0.66603523,0.21605347,1.2162364,-0.71217513,-1.7597847,-1.4545985,2.3645358,1.6461577,-0.93923366,1.1625316,-0.645431,-1.7076385,-1.3990657,2.4152894,1.5840899,-0.9597099,1.1937261,-1.4494731,-1.1129057,-1.151007,-0.85685414,0.45430884,0.114827774,0.59268,-0.5008068,1.1686766,-2.522602,0.016427774,-2.9045155,0.22850132,-0.43440914,0.8491677,0.70992935,-0.04127701,0.03690649,0.7020929,0.46755108,-0.45598227,-1.0787815,1.0,0.0,0.0,0.0,0.0,0.0,0.0,-1.24268,0.1008068,-0.6186766,-1.8118143,0.13709068,-1.467371,-1.0763884,-0.11216402,0.29160976,0.78065246
4.56892,38.875626,15.742652,12.781793,-0.01339972,0.057966158,0.10170171,0.6387954,-0.8047298,-0.6283172,-0.6753496,-0.58917993,0.66824216,0.2650722,1.2264111,-0.725904,-1.7704703,-1.4666007,2.3563714,1.6509141,-0.9332027,1.1742771,-0.6598868,-1.7188385,-1.4107368,2.4067445,1.588658,-0.9584758,1.168682,-1.4444898,-1.1230161,-1.1717305,-0.8543814,0.45744568,0.12647526,0.5674734,-0.5006428,1.1389167,-2.5200799,0.01641135,-2.9997973,0.2331953,-0.4388504,0.83825696,0.70606434,-0.033986345,0.03610958,0.7064093,0.47453937,-0.43018264,-1.0997239,1.0,0.0,0.0,0.0,0.0,0.0,0.0,-1.2174734,0.10064277,-0.5889167,-2.3160458,0.4406929,-1.1940002,-1.9011259,0.07984638,0.21109581,1.222837
1.2637019,37.874428,14.973254,13.678599,0.13136244,0.22963487,0.07739889,0.59752524,-0.80902284,-0.62141794,-0.6836044,-0.60508204,0.6670581,0.30882502,1.2340295,-0.74078906,-1.7809802,-1.4790972,2.3462362,1.6553638,-0.92759335,1.1856296,-0.6743216,-1.7300804,-1.4226348,2.3981767,1.5932547,-0.9570997,1.1248941,-1.4432914,-1.1251949,-1.195177,-0.85850644,0.45992517,0.1414841,0.54229164,-0.50047874,1.1082048,-2.5175602,0.016394941,-3.094984,0.23789597,-0.44304657,0.8271386,0.7020547,-0.02656844,0.035376713,0.7107473,0.47274414,-0.40613645,-1.1202074,1.0,0.0,0.0,0.0,0.0,0.0,0.0,-1.1922916,0.10047874,-0.5582048,-4.166341,0.058960915,-0.4130602,-2.1568775,-0.59301853,0.15249848,1.5500695
-1.462317,37.80912,14.809384,15.202976,0.2966879,0.41169548,0.03184741,0.5683575,-0.81147736,-0.6170229,-0.6776272,-0.61670995,0.6706284,0.3013998,1.2424654,-0.7554693,-1.7917826,-1.4903976,2.3365057,1.6603175,-0.9269597,1.196471,-0.6887669,-1.7412937,-1.4346893,2.389525,1.5978743,-0.95559,1.0711714,-1.4451305,-1.1207134,-1.2082282,-0.8679235,0.46252143,0.1542288,0.51713467,-0.5003147,1.0765418,-2.5150433,0.01637855,-3.1900754,0.24251938,-0.44701862,0.81584847,0.69793737,-0.019071879,0.034700617,0.71506333,0.46254596,-0.38394994,-1.1361012,1.0,0.0,0.0,0.0,0.0,0.0,0.0,-1.1671346,0.10031471,-0.52654177,-5.1582813,-0.24814606,0.2635479,-1.1123896,-1.1330962,0.18512607,1.3197005
-9.979278,33.763977,10.951359,17.441183,0.6993787,0.5973489,-0.1367552,0.49007463,-0.80831474,-0.6506918,-0.6901211,-0.64869523,0.6582349,0.288973,1.2454784,-0.76959836,-1.8063629,-1.5037014,2.3246555,1.6636977,-0.9266927,1.2065132,-0.7032227,-1.7526081,-1.4468715,2.38069,1.6025091,-0.9539802,0.98274225,-1.4459243,-1.1357571,-1.2207297,-0.88989913,0.46352825,0.16332576,0.49200344,-0.5001507,1.0439285,-2.5125287,0.016362173,-3.2850718,0.24691486,-0.45086098,0.8043692,0.6938647,-0.0114738755,0.034137543,0.7192042,0.4351841,-0.3739838,-1.1557304,1.0,0.0,0.0,0.0,0.0,0.0,0.0,-1.1420034,0.100150675,-0.4939285,-8.582104,-0.16322136,-1.6842604,-1.0159969,-2.4297595,0.031000376,0.91400445
-32.43863,23.759497,1.5122502,23.162575,1.8297588,1.147097,-0.5211591,0.2853452,-0.80595887,-0.67918324,-0.72835064,-0.66491145,0.6308672,0.21775694,1.2350477,-0.7838186,-1.8205264,-1.5197066,2.314199,1.6655959,-0.9322045,1.214854,-0.7176747,-1.7642162,-1.4593112,2.3715959,1.6071306,-0.9523494,0.7858195,-1.445407,-1.1699667,-1.250578,-0.91712683,0.4616185,0.16262354,0.466897,-0.49998665,1.010366,-2.5100167,0.016345816,-3.3799732,0.25068378,-0.45482635,0.7926222,0.6902067,-0.0036536956,0.03375516,0.7228152,0.36007854,-0.39334515,-1.1847173,1.0,0.0,0.0,0.0,0.0,0.0,0.0,-1.116897,0.09998664,-0.46036595,-19.27451,-0.08473396,-3.6370993,-2.6434422,-3.0672193,-0.24712086,-0.14842749
-88.19404,3.2621546,-18.8148,40.73091,4.841167,2.7800958,-1.4159936,-0.19519827,-0.80368495,-0.6904348,-0.7535948,-0.6622292,0.61292297,0.12084641,1.1953342,-0.7980432,-1.8332597,-1.5346707,2.305373,1.6684229,-0.94026476,1.2192008,-0.7321152,-1.7761981,-1.472121,2.3622575,1.6117216,-0.95081687,0.3202762,-1.4446561,-1.2083936,-1.2890465,-0.94128174,0.45812672,0.14934582,0.44181538,-0.49982262,0.9758551,-2.507507,0.016329473,-3.4747796,0.25276375,-0.45949745,0.78055865,0.68782854,0.004495865,0.033537578,0.725084,0.15907502,-0.48189443,-1.2169458,1.0,0.0,0.0,0.0,0.0,0.0,0.0,-1.0918154,0.09982261,-0.4258551,-45.762096,-0.2163887,-4.1319847,-3.237009,-3.0738711,-0.36398172,-1.5613765
-120.228516,-6.042901,-29.455034,50.206043,6.6896935,3.7519648,-1.7927237,-0.5200741,-0.80220866,-0.70522106,-0.78459275,-0.59574974,0.5527935,0.30681533,1.1671934,-0.8123361,-1.8467202,-1.5505803,2.3026824,1.667001,-0.9201353,1.2178276,-0.74655193,-1.7885578,-1.4853771,2.352919,1.6162249,-0.9492786,-0.28638777,-1.4448546,-1.2463441,-1.3348814,-0.93426216,0.44696912,0.15458716,0.4167595,-0.49965858,0.9403889,-2.505,0.016313147,-3.5705566,0.2522812,-0.46535873,0.7681592,0.6873095,0.013081895,0.033303574,0.7254829,-0.1165059,-0.6108443,-1.2508816,1.0,0.0,0.0,0.0,0.0,0.0,0.0,-1.0667595,0.09965858,-0.3903889,-59.636986,-0.48439503,-4.142189,-3.6740303,-0.22617579,-1.3166845,0.2921462
-102.98429,7.5827513,-18.41684,45.540222,5.8472385,3.7271533,-1.3684319,-0.5995702,-0.80459493,-0.64498955,-0.78369707,-0.542584,0.57607305,0.43821356,1.1578705,-0.8270114,-1.8530567,-1.5637468,2.2986608,1.6738322,-0.90545726,1.2110584,-0.7610058,-1.8009174,-1.4989898,2.3438668,1.620629,-0.9475677,-0.8041438,-1.4470901,-1.2335467,-1.3669493,-0.89873296,0.4370359,0.1763545,0.3917284,-0.49949646,0.9039657,-2.5024955,0.016296837,-3.6662378,0.24926758,-0.4722557,0.75555414,0.6884025,0.021976596,0.032768838,0.7242549,-0.3646641,-0.70597553,-1.266652,1.0,0.0,0.0,0.0,0.0,0.0,0.0,-1.0417284,0.099496454,-0.3539657,-50.86688,-0.7017374,0.93283653,-2.2715807,2.6644945,-1.3500988,2.1204293
-71.53138,20.804514,-6.211149,34.788456,4.1380305,2.931198,-0.86231613,-0.6419263,-0.80639654,-0.6871313,-0.7825462,-0.54542845,0.5519564,0.4740184,1.1468657,-0.8416455,-1.8696306,-1.5772444,2.289324,1.6758246,-0.90016586,1.2004001,-0.77548736,-1.8132446,-1.5128067,2.3351693,1.6249243,-0.945606,-1.1507511,-1.4496844,-1.2331535,-1.3840351,-0.862379,0.4255359,0.20297495,0.3667221,-0.49933434,0.8665864,-2.4999936,0.016280543,-3.7618237,0.24429893,-0.47979736,0.7428042,0.690559,0.03108976,0.03182589,0.72190624,-0.54465485,-0.75878733,-1.2803247,1.0,0.0,0.0,0.0,0.0,0.0,0.0,-1.0167221,0.09933433,-0.31658638,-34.011208,-0.6469965,-0.23658276,-0.90925694,2.9438138,-1.5469849,2.7213156
-44.19746,29.79477,2.997983,25.270824,2.727687,2.1327286,-0.503976,-0.69970345,-0.81298393,-0.73084533,-0.775487,-0.5147895,0.52585316,0.38963595,1.1304297,-0.8567858,-1.8863292,-1.5903554,2.2836905,1.6775097,-0.9066424,1.1874111,-0.7900147,-1.8257663,-1.5266769,2.32688,1.6290957,-0.9434564,-1.3469776,-1.4546813,-1.259203,-1.3860211,-0.8197434,0.4132705,0.2194203,0.3417406,-0.4991722,0.8282519,-2.4974942,0.016264267,-3.8573136,0.23799896,-0.4876461,0.7298924,0.69332725,0.040417362,0.030433085,0.71884453,-0.6638063,-0.78095734,-1.297169,1.0,0.0,0.0,0.0,0.0,0.0,0.0,-0.9917406,0.099172205,-0.2782519,-19.210075,-0.77557564,-2.7934313,0.42119026,3.776884,-1.5791655,1.7593294
-24.350533,36.44119,10.064045,18.383831,1.8345017,1.5890756,-0.29457432,-0.7523088,-0.8184272,-0.74192804,-0.7769095,-0.40593237,0.4726285,0.15849689,1.1121802,-0.8718574,-1.8999591,-1.6043679,2.2862868,1.6763586,-0.9276067,1.1732261,-0.8046059,-1.8386066,-1.540528,2.3192773,1.6331202,-0.9413383,-1.4416442,-1.4611692,-1.2926993,-1.3833935,-0.7418443,0.39789692,0.20977013,0.3167839,-0.4990101,0.78896326,-2.4949973,0.016248006,-3.9527082,0.2308321,-0.49557495,0.7168034,0.69643074,0.04997965,0.028453263,0.7153157,-0.7406153,-0.7831578,-1.31502,1.0,0.0,0.0,0.0,0.0,0.0,0.0,-0.9667839,0.09901008,-0.23896325,-9.222341,-0.830245,-3.4769058,0.7184744,7.4703217,-1.8217504,-0.80455244
-14.144016,41.72217,14.941592,16.234451,1.7388604,1.4226406,-0.28557688,-0.79464126,-0.8163794,-0.7441272,-0.75346524,-0.17616504,0.46375665,-0.18998857,1.093762,-0.8862438,-1.9130193,-1.6158745,2.3016608,1.6794958,-0.96033716,1.1585014,-0.8192372,-1.8517387,-1.5542343,2.3130631,1.6369997,-0.939595,-1.4822203,-1.464235,-1.3201079,-1.3654504,-0.58227867,0.38383377,0.16325115,0.29185295,-0.49884796,0.7487214,-2.4925027,0.01623176,-4.048007,0.22301579,-0.5035019,0.7035939,0.6998169,0.059746638,0.025556974,0.71136034,-0.80155975,-0.781041,-1.3249916,1.0,0.0,0.0,0.0,0.0,0.0,0.0,-0.9418529,0.098847955,-0.19872141,-3.9162874,-0.43399334,-2.8027296,2.1291494,15.758669,-1.6452849,-4.4349046
-8.780598,47.315308,19.0233,16.762213,1.8611175,1.4694571,-0.32107863,-0.81206757,-0.8037988,-0.7475216,-0.7092523,0.049911264,0.49158645,-0.37540334,1.0772946,-0.8996171,-1.9264909,-1.6251595,2.3180542,1.6861584,-0.9771353,1.1435827,-0.8337838,-1.8653613,-1.5677613,2.3086042,1.6408182,-0.93830746,-1.4979134,-1.4426005,-1.4493235,-1.3963046,-0.5000242,0.34629592,0.135513,0.26980114,-0.5000887,0.71934175,-1.6349951,-0.39276603,0.44369385,0.2146616,-0.51138306,0.69026154,0.70347136,0.06971822,0.021648068,0.70696443,-0.83613163,-0.771522,-1.3716049,0.0,1.0,0.0,0.0,0.0,0.0,0.0,-0.9198011,0.100088686,-0.16934174,-2.0361662,3.4960508,-24.066425,-10.327172,-6.8191886,-6.8244457,1.1266947
65.10084,176.0,110.0,106.719315,-4.652968,10.3665085,-0.6008189,-0.7290723,0.56170547,0.7043968,0.73617274,-0.2862906,0.6498802,-0.39148632,1.0706755,-0.7776133,-1.7949216,-1.4941441,2.2799752,1.7058063,-0.9774561,1.13384,-0.84710854,-1.8792468,-1.5691041,2.2934332,1.6542898,-0.93545216,-0.80365133,-1.2948956,-1.3611865,0.2812461,-1.8518082,1.6892804,0.331619,0.2534628,-0.50401306,0.7230309,-1.6333604,-0.39237332,0.34399906,0.20618725,-0.5174103,0.68089455,0.70761126,0.06979791,0.022840718,0.70277506,-0.85669595,-0.5314833,-0.7921282,1.0,0.0,0.0,0.0,0.0,0.0,0.0,-0.90346277,0.104013056,-0.17303091,68.20772,15.035629,10.956407,166.21149,-133.89247,136.85608,18.432993
-11.1808605,158.95813,85.885475,97.71441,2.7163224,6.13882,-1.2424095,-0.8141945,-0.51114243,0.07478185,0.7829422,-0.6324889,0.48431674,-0.2884425,1.0524205,-0.8982228,-1.8717686,-1.4908099,2.2301843,1.7027215,-0.9642964,1.1259092,-0.8586585,-1.8888847,-1.5590771,2.2738981,1.6712252,-0.93248147,-0.7893463,-1.1098764,-0.82819587,1.2426779,-1.9910257,1.7000694,0.28574157,0.23714161,-0.5079336,0.72572386,-1.6317273,-0.39198104,0.24440397,0.1969471,-0.52250576,0.67660874,0.7129734,0.062304873,0.026596392,0.69791085,-0.94759226,-0.49160805,-0.31147063,1.0,0.0,0.0,0.0,0.0,0.0,0.0,-0.8871416,0.10793361,-0.17572385,1.5327334,18.037437,54.237972,96.011986,-15.052676,2.6726246,-4.5440555
-45.478592,126.79361,50.220158,75.39185,4.072134,4.1972,-1.6309779,-0.8078712,-0.3054691,-0.4125592,0.7449119,-0.63235563,0.594084,-0.21222654,1.0451221,-0.8892054,-1.9301406,-1.484586,2.2106626,1.7306336,-0.9537041,1.116815,-0.8677165,-1.8954536,-1.5427922,2.2552328,1.6872984,-0.9300763,-0.9475812,-0.8394962,-0.59976315,1.7581904,-1.8279572,1.5792001,0.22554323,0.22083664,-0.51185036,0.72742164,-1.630096,-0.39158913,0.14490847,0.18648243,-0.5275316,0.6757386,0.71990734,0.05188031,0.03118901,0.6914253,-1.0796791,-0.49804425,-0.018771844,1.0,0.0,0.0,0.0,0.0,0.0,0.0,-0.8708366,0.11185035,-0.17742163,-15.253925,26.530325,22.867071,51.854015,15.396214,-11.225009,-5.9956493
-50.96926,99.14455,29.94049,48.84215,3.4510322,2.7330658,-1.281966,-0.8081783,-0.22580099,-0.41241005,0.78506666,-0.62756187,0.5555938,-0.1037031,1.0359972,-0.8902966,-1.9366946,-1.4642855,2.1924765,1.7428578,-0.9404466,1.1056551,-0.87415856,-1.9008666,-1.5241517,2.2391462,1.7017447,-0.9282071,-1.1707642,-0.58044267,-0.5226792,1.90014,-1.537516,1.4009634,0.17382418,0.20454788,-0.5157633,0.7281252,-1.6284662,-0.39119762,0.045512438,0.17481327,-0.532568,0.67669123,0.7281203,0.041010357,0.036058936,0.6832705,-1.1975324,-0.49702802,0.12645265,1.0,0.0,0.0,0.0,0.0,0.0,0.0,-0.85454786,0.11576328,-0.1781252,-21.882175,25.497663,7.4546456,14.427876,28.45633,-17.458057,-5.2482185
-50.26156,54.96728,5.0732555,25.81576,2.8542712,1.1060023,-0.9788374,-0.82392716,-0.2612004,-0.5519061,0.78825223,-0.61814654,0.58282775,-0.15320595,1.0232624,-0.9002786,-1.9560572,-1.4453264,2.1773317,1.7600274,-0.9435277,1.0924848,-0.8788211,-1.9069701,-1.505721,2.2258291,1.7145048,-0.92683285,-1.3649313,-0.4288842,-0.6404008,1.8244387,-1.2633991,1.2342601,0.12499676,0.18827534,-0.5196724,0.72783256,-1.6268381,-0.3908065,-0.054177962,0.16213608,-0.5377531,0.6779412,0.7372345,0.031378947,0.04086967,0.6736692,-1.2935787,-0.51564294,0.11908113,1.0,0.0,0.0,0.0,0.0,0.0,0.0,-0.8382753,0.11967239,-0.17783254,-19.16709,14.933645,-12.047458,-7.397723,27.250408,-16.631746,-4.9856944
-36.469887,28.946337,-3.6497676,10.657905,1.9185888,0.16411984,-0.5518106,-0.82752913,-0.29774782,-0.55293995,0.7875417,-0.59353185,0.6010547,-0.24723834,1.0097319,-0.90859586,-1.9622642,-1.4269668,2.166476,1.7746103,-0.9515567,1.0778917,-0.88281983,-1.9145519,-1.4886731,2.2147894,1.7257754,-0.92595834,-1.4904096,-0.3906085,-0.7978735,1.6652803,-1.0511303,1.0908227,0.074763454,0.172019,-0.5235777,0.7265438,-1.6252116,-0.39041576,-0.1537687,0.14876556,-0.5431442,0.6785491,0.74684024,0.023684837,0.045363482,0.6630315,-1.3547457,-0.5353601,0.037470575,1.0,0.0,0.0,0.0,0.0,0.0,0.0,-0.822019,0.123577684,-0.17654377,-12.434292,3.7180245,-15.88887,-15.800619,21.118809,-14.444518,-5.091128
-20.2472,22.518236,-1.310047,4.1643248,1.1201932,-0.19630146,-0.2129005,-0.82570165,-0.30207166,-0.5414055,0.78837043,-0.53957164,0.5927225,-0.276454,0.9953215,-0.913027,-1.9686924,-1.409836,2.1608322,1.7850477,-0.95360374,1.0625757,-0.8869216,-1.9234668,-1.4731587,2.2054472,1.7357813,-0.925553,-1.545196,-0.41688982,-0.9226946,1.5136328,-0.89544517,0.9700914,0.028899278,0.15577888,-0.5274792,0.72425985,-1.6235867,-0.39002544,-0.25325987,0.13502216,-0.54867554,0.6782437,0.7565842,0.017871218,0.049391605,0.6517832,-1.3845549,-0.54623497,-0.055922437,1.0,0.0,0.0,0.0,0.0,0.0,0.0,-0.80577886,0.12747917,-0.17425984,-5.4466963,-2.693981,-12.497103,-15.085435,15.401387,-12.187778,-4.6261234
-8.594913,25.73805,5.0653467,3.6306503,0.74026155,-0.12294632,-0.011436138,-0.83255506,-0.32184774,-0.51145226,0.7852953,-0.47512922,0.58706367,-0.311873,0.97932017,-0.91910636,-1.974612,-1.3946292,2.1579342,1.7944877,-0.9567403,1.0470518,-0.8915526,-1.9330951,-1.4588135,2.197379,1.7447344,-0.9255797,-1.5549842,-0.47872552,-0.9759605,1.4082788,-0.77839005,0.8699602,-0.013217298,0.13955498,-0.53137684,0.7209817,-1.6219634,-0.38963547,-0.35265157,0.12110996,-0.55423737,0.6771475,0.7662399,0.013499181,0.052845493,0.6402354,-1.3974307,-0.5462931,-0.12962684,0.0,1.0,0.0,0.0,0.0,0.0,0.0,-0.78955495,0.13137683,-0.1709817,-0.9991169,-6.2453213,-5.232334,-10.475373,11.477745,-10.103083,-4.2252316
-1.8119788,28.028187,9.6318655,4.8559566,0.7589321,0.0033161044,0.086064816,-0.82719624,-0.37618425,-0.48638391,0.77976745,-0.38723987,0.5800547,-0.34129536,0.96433216,-0.929171,-1.9817334,-1.3808368,2.1586552,1.8027399,-0.9597093,1.0316423,-0.8970296,-1.9427863,-1.4451455,2.1903868,1.7528139,-0.9259984,-1.5363808,-0.5708962,-0.966208,1.353176,-0.6738506,0.7870485,-0.051320612,0.12334728,-0.5352707,0.71671045,-1.6203418,-0.38924593,-0.4519439,0.10710716,-0.55977726,0.67545426,0.77569747,0.010090083,0.055571087,0.62857246,-1.405232,-0.5431317,-0.18440838,0.0,1.0,0.0,0.0,0.0,0.0,0.0,-0.77334726,0.13527068,-0.16671044,1.8139362,-9.276808,1.1384487,-5.447817,10.21558,-8.364201,-3.785643
3.5035653,37.08034,16.638964,7.309974,0.8393314,0.31790143,0.13998154,-0.8232467,-0.40687612,-0.40570322,0.7724459,-0.2561125,0.5711549,-0.39609987,0.94931763,-0.9377172,-1.9833567,-1.3679008,2.1647756,1.8099294,-0.96560836,1.0164903,-0.90343446,-1.95181,-1.4317578,2.1845617,1.7601706,-0.9267928,-1.5084087,-0.6639263,-0.880272,1.3341012,-0.5530834,0.718179,-0.088724256,0.1071558,-0.5391607,0.711447,-1.6187217,-0.38885674,-0.5511369,0.09304333,-0.5652075,0.673446,0.78490174,0.007146857,0.0573786,0.61691636,-1.4109917,-0.52969235,-0.20824374,0.0,1.0,0.0,0.0,0.0,0.0,0.0,-0.7571558,0.13916072,-0.16144699,2.7129889,-9.383261,8.836758,-1.8776178,11.787498,-6.9439173,-3.701529
6.238309,47.73643,22.879078,10.058489,0.9797389,0.6452502,0.14688437,-0.82069474,-0.4239546,-0.32049394,0.7676644,-0.10334872,0.56336075,-0.4195839,0.9344209,-0.9458299,-1.9838594,-1.3549913,2.1742268,1.8165066,-0.9687512,1.0015978,-0.910629,-1.9595557,-1.4184064,2.180171,1.7669226,-0.92793816,-1.48304,-0.7382895,-0.73835534,1.3353697,-0.40182006,0.66089284,-0.123104505,0.09098053,-0.54304695,0.7051924,-1.6171033,-0.38846797,-0.6502307,0.078912735,-0.5704231,0.67142093,0.7938412,0.004243658,0.05811113,0.60532725,-1.4178655,-0.50578696,-0.20275061,0.0,1.0,0.0,0.0,0.0,0.0,0.0,-0.7409805,0.14304695,-0.15519238,2.4331331,-7.5437546,14.488422,0.11937618,14.793009,-5.773771,-3.409052
8.208738,55.64383,26.759012,11.144504,1.011492,0.83451366,0.1525179,-0.8114038,-0.43843997,-0.24550082,0.74913555,0.049435303,0.5720755,-0.43126148,0.92045736,-0.95447296,-1.9841058,-1.3434929,2.1851146,1.8241302,-0.9710643,0.9869467,-0.9183906,-1.9657519,-1.4050742,2.1774263,1.7731119,-0.9294636,-1.4568318,-0.78840274,-0.5966234,1.3258996,-0.23757888,0.63193727,-0.16124766,0.07410526,-0.5463886,0.69979554,-1.6346501,-0.28028557,0.13843203,0.064741135,-0.5753441,0.66955507,0.80252725,0.0011724717,0.057711847,0.59381634,-1.4219308,-0.47247198,-0.19016363,0.0,1.0,0.0,0.0,0.0,0.0,0.0,-0.72410524,0.14638862,-0.14979553,2.9214144,-5.0369024,12.102688,-1.8521547,14.5508795,-1.207006,-4.569039
23.369965,122.17348,57.310635,19.601715,-0.90888643,1.9598429,0.2745309,-0.8159627,-0.12585042,-0.02435605,0.76138985,-0.10033751,0.5714632,-0.445776,0.90535045,-0.9309756,-1.9681875,-1.3289353,2.1673925,1.8302583,-0.9740412,0.97245085,-0.92499,-1.9697745,-1.3917686,2.175641,1.779164,-0.9312966,-1.4481077,-0.6179459,-0.3356326,1.330998,-0.1606649,0.5968903,-0.19171481,0.05777073,-0.54918957,0.7004314,-1.6330158,-0.28000534,0.03864873,0.05093479,-0.57928085,0.66878635,0.81079006,-0.002841084,0.057223465,0.58252627,-1.3705307,-0.35505626,-0.041570332,0.0,1.0,0.0,0.0,0.0,0.0,0.0,-0.7077707,0.14918956,-0.1504314,0.6172657,16.775858,26.607328,0.16825199,7.0977836,-3.265071,-3.3782423
23.177635,111.54184,52.768887,17.354275,-1.2616365,1.7648256,0.38770145,-0.8045039,-0.2352081,0.06961257,0.7537167,-0.2700385,0.61889887,-0.4150907,0.89200044,-0.9485108,-1.9628133,-1.316397,2.1486373,1.8410538,-0.9728057,0.95803416,-0.9302457,-1.9711554,-1.3784362,2.1737757,1.7849604,-0.93336797,-1.4401766,-0.49560362,-0.07067447,1.3331071,-0.19702643,0.5749032,-0.2133099,0.04145336,-0.55198765,0.7000786,-1.6313831,-0.27972537,-0.0599116,0.03770542,-0.5820799,0.66934484,0.81849766,-0.007969942,0.05716049,0.57160366,-1.3101579,-0.24306108,0.08611959,0.0,1.0,0.0,0.0,0.0,0.0,0.0,-0.69145334,0.15198764,-0.1500786,0.5879164,12.002659,26.95269,-0.017237663,-4.1607885,-1.911366,-2.439168
8.973112,85.67009,35.139164,16.20262,-1.0973415,1.1015271,0.1982326,-0.8027828,-0.23593572,-0.06397002,0.7661723,-0.47919494,0.62143934,-0.35099724,0.8777559,-0.95383924,-1.9775524,-1.301819,2.1258562,1.8471043,-0.9684677,0.9436772,-0.9345828,-1.9711226,-1.3650162,2.1707425,1.7905084,-0.93557674,-1.4335256,-0.41363415,0.023942458,1.3433324,-0.33835867,0.5487531,-0.22430459,0.025029182,-0.554162,0.69976914,-1.6506587,-0.13435668,0.14887403,0.024956703,-0.5840187,0.67068416,0.8257605,-0.013655188,0.058014855,0.56086314,-1.2654961,-0.16766222,0.14624813,0.0,1.0,0.0,0.0,0.0,0.0,0.0,-0.67502916,0.15416202,-0.14976913,0.7675886,8.040619,8.84219,0.7353544,-14.104361,-2.9578805,-1.385346
-0.7878504,86.95168,29.755457,19.295284,-0.98128426,0.8924091,-0.03314029,-0.8103785,-0.07091396,-0.12813124,0.7822454,-0.5192228,0.6006435,-0.32685044,0.8626393,-0.94167423,-1.9839357,-1.2867917,2.1188202,1.8505727,-0.9682618,0.9293301,-0.93767935,-1.9711454,-1.3514264,2.1661997,1.7959098,-0.93783695,-1.4353229,-0.27552187,-0.010493809,1.3640785,-0.49342456,0.5373485,-0.22728887,0.008734703,-0.55538654,0.70163286,-1.6244817,-0.11444373,0.199074,0.0125722885,-0.58525467,0.6725447,0.8327691,-0.019412693,0.060312826,0.54998267,-1.2313173,-0.09920738,0.19764133,0.0,1.0,0.0,0.0,0.0,0.0,0.0,-0.6587347,0.15538654,-0.15163285,-0.2364397,13.642627,-3.2962413,2.0733118,-15.702909,-1.0961175,-0.50705373
-10.131851,73.13709,19.530903,19.090902,-0.50738037,0.49340117,-0.20308866,-0.8104598,-0.039998114,-0.23077159,0.784014,-0.5493817,0.60600454,-0.31625974,0.8482841,-0.9416792,-1.9942225,-1.2730249,2.1112616,1.8565102,-0.96946293,0.9149497,-0.9394904,-1.9723623,-1.33764,2.160264,1.8011967,-0.9401087,-1.4390136,-0.15002759,-0.15851663,1.3835272,-0.62718683,0.526363,-0.22775196,-0.0074129105,-0.5563507,0.70375735,-1.6114932,-0.09024692,0.21671934,0.00038909912,-0.58598614,0.67463654,0.83968705,-0.02479183,0.06418346,0.5386942,-1.2150087,-0.055329777,0.21167836,0.0,1.0,0.0,0.0,0.0,0.0,0.0,-0.64258707,0.1563507,-0.15375733,-0.39613247,12.410066,-14.741432,1.9736767,-13.48027,-0.8989692,-0.21867156
-17.120106,51.758663,8.977154,16.824587,0.19883132,0.14873031,-0.28434333,-0.815275,-0.0713712,-0.30932033,0.7824082,-0.53276306,0.61386037,-0.32803822,0.8334222,-0.9466275,-2.0032942,-1.2593992,2.1069877,1.8625827,-0.97291255,0.9005082,-0.94051653,-1.9754083,-1.3237088,2.1533558,1.806381,-0.9423926,-1.4457607,-0.08723708,-0.3531106,1.3965925,-0.71217823,0.51601946,-0.22902326,-0.023493767,-0.55714035,0.70578307,-1.6069709,-0.07527505,0.19699514,-0.01181221,-0.586483,0.6765536,0.84661967,-0.029426755,0.06927568,0.5268492,-1.2224219,-0.038494904,0.18395373,0.0,1.0,0.0,0.0,0.0,0.0,0.0,-0.6265062,0.15714034,-0.15578306,-0.65271854,6.1766357,-19.453753,1.3635635,-8.52325,-0.92463493,-0.27424097
-16.028206,39.5061,5.539389,14.1217985,0.5594704,-0.0030038357,-0.22371328,-0.8074719,-0.096366115,-0.32840824,0.7859239,-0.5362154,0.6186195,-0.35172594,0.81976104,-0.9501532,-2.008249,-1.2451164,2.0997343,1.868243,-0.97756517,0.8860449,-0.9413691,-1.9801711,-1.3096821,2.1458757,1.8114704,-0.9447061,-1.4464037,-0.08488878,-0.5170909,1.4051433,-0.759889,0.50663,-0.2325549,-0.03955269,-0.5578108,0.70749027,-1.6056305,-0.06440265,0.16075546,-0.024155617,-0.5869036,0.6780504,0.85355514,-0.033239853,0.0750877,0.5144906,-1.2383752,-0.033879995,0.13753515,0.0,1.0,0.0,0.0,0.0,0.0,0.0,-0.6104473,0.15781078,-0.15749025,-0.02772808,0.15200675,-16.36771,0.9167671,-4.798925,-0.89405775,-0.4829496
-16.239195,34.322132,4.4364424,13.173174,0.8437918,0.0052905083,-0.17515858,-0.8166266,-0.10385494,-0.37943515,0.78642875,-0.52847457,0.60634494,-0.32597688,0.80438226,-0.9517546,-2.0181146,-1.2310393,2.0930283,1.8721049,-0.97730374,0.87154907,-0.94243914,-1.986329,-1.2956022,2.138147,1.8164626,-0.9470341,-1.4505829,-0.11469272,-0.6484805,1.4091331,-0.77757925,0.4967377,-0.23330764,-0.05561447,-0.5583811,0.708795,-1.6064858,-0.054624353,0.11916596,-0.036720276,-0.58730793,0.67903924,0.8604551,-0.03627526,0.08122813,0.50170016,-1.2621908,-0.033052817,0.08543145,0.0,1.0,0.0,0.0,0.0,0.0,0.0,-0.5943855,0.15838107,-0.158795,-0.37415028,-3.0618653,-13.081133,0.47810078,-1.8149376,-0.9969413,-0.18648505
-13.081958,34.122055,6.057459,12.15914,0.88943547,0.052010536,-0.08823715,-0.81150144,-0.12522256,-0.4065192,0.78851944,-0.5297341,0.6066349,-0.3051277,0.79039896,-0.9549614,-2.0269809,-1.2167503,2.0851736,1.8771261,-0.9775469,0.85703987,-0.9439536,-1.9934744,-1.2814993,2.1303577,1.8213668,-0.9493497,-1.4509524,-0.16396832,-0.7362383,1.4110292,-0.77979785,0.48814014,-0.23132205,-0.07167721,-0.5588436,0.709704,-1.6063161,-0.043708213,0.08029349,-0.049510002,-0.58769226,0.67953044,0.86725557,-0.038653743,0.087436534,0.48859853,-1.2843059,-0.029898738,0.03652032,0.0,1.0,0.0,0.0,0.0,0.0,0.0,-0.57832277,0.1588436,-0.15970397,-0.01077652,-5.012414,-8.664143,0.26671886,-0.31232834,-0.89778304,0.09966195
-11.507716,31.491333,6.315708,11.30426,1.0735807,0.07860112,-0.04570043,-0.81039214,-0.17716327,-0.42524543,0.79190546,-0.4888226,0.6061234,-0.31491992,0.7760007,-0.9616699,-2.0359988,-1.2023088,2.0814755,1.8819791,-0.9808417,0.8425402,-0.946147,-2.001218,-1.2673734,2.1227174,1.8261932,-0.95164996,-1.449551,-0.23805535,-0.7864923,1.4133441,-0.7588427,0.48048112,-0.22984216,-0.08774376,-0.55920124,0.7101999,-1.6068884,-0.033257023,0.038502585,-0.06254482,-0.588048,0.6795255,0.87391895,-0.04050456,0.09344223,0.47528255,-1.309762,-0.02753348,-0.013182911,0.0,1.0,0.0,0.0,0.0,0.0,0.0,-0.5622562,0.15920123,-0.16019988,0.16155243,-7.4886203,-4.8857093,0.32439232,1.987505,-0.8350611,0.08176863
-4.874958,47.692627,14.206465,12.406438,0.72843504,0.28636193,0.05530943,-0.79983884,-0.13730565,-0.416975,0.7942483,-0.50309956,0.61433196,-0.2584814,0.7625563,-0.9598776,-2.0429156,-1.1879486,2.0724075,1.8876264,-0.9774981,0.8281054,-0.94878006,-2.009164,-1.2532266,2.1152709,1.8309695,-0.9538911,-1.4416277,-0.27208585,-0.79667836,1.4152977,-0.74106777,0.47641903,-0.2225683,-0.10375404,-0.559392,0.7105034,-1.5990225,-0.014428286,0.027031185,-0.075696945,-0.5882559,0.6792482,0.8803637,-0.042045724,0.09927655,0.46188304,-1.3165567,-0.007775396,-0.033072785,0.0,1.0,0.0,0.0,0.0,0.0,0.0,-0.54624593,0.15939197,-0.16050339,0.742054,-3.523749,-0.7587671,0.21753311,1.5431881,-0.47748685,0.61832964
-3.6054988,52.42249,16.0236,12.84329,0.63574207,0.33267906,0.081328146,-0.7988379,-0.15387537,-0.44085592,0.7941203,-0.5052423,0.60700685,-0.22976778,0.7482216,-0.9641676,-2.0532496,-1.1738147,2.0647466,1.8916701,-0.97686785,0.81375164,-0.9516525,-2.0171711,-1.2390684,2.1079657,1.8357111,-0.9560378,-1.4335529,-0.29284182,-0.8007272,1.4160866,-0.72778684,0.4731676,-0.21252495,-0.119662285,-0.5593767,0.71075016,-1.5880953,0.0068638464,0.023410527,-0.088876724,-0.5882311,0.6788282,0.88654697,-0.043368626,0.10503506,0.44846532,-1.3178877,0.016528666,-0.0453868,0.0,1.0,0.0,0.0,0.0,0.0,0.0,-0.5303377,0.15937671,-0.16075015,0.7385731,-2.209103,-0.1106143,0.08299351,1.0576844,-0.39777756,0.8805573
-9.355385,46.74039,11.715428,13.190092,0.79516065,0.2562551,0.019178564,-0.8112251,-0.18533354,-0.51409155,0.79135805,-0.49734533,0.58265793,-0.19805007,0.7326291,-0.9701859,-2.0685804,-1.1599326,2.058231,1.8939769,-0.97584283,0.7994055,-0.95476437,-2.0255063,-1.2249178,2.1007755,1.8404015,-0.9580682,-1.4351484,-0.31784064,-0.84370744,1.4150194,-0.71681714,0.4673352,-0.20030363,-0.13548756,-0.55916977,0.7108598,-1.5806438,0.025374409,0.0064401277,-0.10214901,-0.5880041,0.6781864,0.89250773,-0.04434361,0.110766456,0.43496478,-1.329906,0.035313547,-0.07104045,0.0,1.0,0.0,0.0,0.0,0.0,0.0,-0.5145124,0.15916976,-0.16085976,-0.18672943,-2.6293278,-4.067099,-0.053596497,0.8835316,-0.6676674,1.1098832
-10.765503,47.723938,11.193494,13.705497,0.8110955,0.25225824,0.0008354187,-0.80827326,-0.18573059,-0.54443634,0.79427993,-0.4862447,0.58134884,-0.17381422,0.7185782,-0.9733374,-2.0799499,-1.1454898,2.052151,1.8985364,-0.9754496,0.78503555,-0.958066,-2.0343983,-1.2107671,2.0937023,1.8450347,-0.95996827,-1.4376948,-0.33481354,-0.9035142,1.4154209,-0.7050785,0.46167836,-0.18701467,-0.15123463,-0.55877304,0.71079934,-1.5726697,0.044336207,-0.01045606,-0.1155529,-0.5875845,0.6772864,0.8982705,-0.04487835,0.116525166,0.42132878,-1.3431331,0.054952506,-0.09684353,0.0,1.0,0.0,0.0,0.0,0.0,0.0,-0.49876535,0.15877303,-0.16079932,-0.27770996,-1.836586,-5.7503104,0.09999275,0.95926523,-0.66541433,1.2067974
-7.128419,59.930645,16.078434,14.904752,0.568892,0.37601247,0.054470845,-0.8015966,-0.14318956,-0.545577,0.7928559,-0.50406355,0.58116955,-0.12493288,0.7048759,-0.9723849,-2.088956,-1.1314815,2.0432959,1.9031516,-0.9724616,0.7706675,-0.96127796,-2.0438054,-1.1966223,2.0866787,1.8496252,-0.9617087,-1.4367577,-0.3171683,-0.95218766,1.4142803,-0.70261914,0.45774907,-0.17035887,-0.16684437,-0.55814266,0.71073246,-1.5570229,0.06919524,-0.005385337,-0.1289854,-0.5868902,0.6762773,0.90378964,-0.045032904,0.12246566,0.40760085,-1.342111,0.08530697,-0.10273891,0.0,1.0,0.0,0.0,0.0,0.0,0.0,-0.4831556,0.15814266,-0.16073245,0.016117096,1.5916646,-4.537976,-0.11925697,-0.06785393,-0.50032735,1.488772
-3.3920007,70.12982,20.284855,15.923372,0.37839675,0.4691053,0.10279712,-0.7944273,-0.113047,-0.55489737,0.7964699,-0.5268911,0.5976778,-0.0899475,0.69122475,-0.97258264,-2.0992951,-1.1169753,2.0339897,1.9093931,-0.9707035,0.7563471,-0.9641228,-2.0535975,-1.1824754,2.0795949,1.8542007,-0.9632688,-1.4309293,-0.27431065,-0.9867534,1.4145181,-0.7114698,0.45714512,-0.15192868,-0.1822424,-0.55722904,0.7108559,-1.5339209,0.098768845,0.018668808,-0.14231014,-0.58583355,0.67533636,0.9090059,-0.044907738,0.12874903,0.39384678,-1.3278991,0.123306096,-0.09158954,0.0,1.0,0.0,0.0,0.0,0.0,0.0,-0.46775758,0.15722904,-0.16085589,0.45268536,4.0874124,-3.028965,-0.04401207,-1.2892604,-0.17668009,1.6181052
-8.379061,51.855694,12.604846,13.546529,0.6060186,0.2617638,0.0798433,-0.80380785,-0.19923458,-0.6069486,0.79321104,-0.53798145,0.5812063,-0.08217074,0.6759663,-0.9840462,-2.1142924,-1.1031543,2.0257967,1.9123213,-0.9714859,0.742042,-0.9669647,-2.0638437,-1.1683342,2.0723696,1.8587497,-0.9646574,-1.4305422,-0.28799787,-1.035962,1.4142092,-0.72725326,0.45380902,-0.13508841,-0.19747448,-0.55608654,0.71095914,-1.5194728,0.119549155,0.008001155,-0.15562248,-0.584507,0.6742623,0.9139431,-0.044388432,0.1352476,0.38005993,-1.3305742,0.14668334,-0.11281128,0.0,1.0,0.0,0.0,0.0,0.0,0.0,-0.4525255,0.15608653,-0.16095912,-0.022172928,-1.5214801,-4.6051264,-0.006580353,-1.8627882,-0.44663548,1.5215427
-4.5633974,60.269604,16.385984,14.192541,0.5071939,0.34309304,0.14776275,-0.79363716,-0.15139848,-0.5922326,0.79481703,-0.545061,0.583609,0.018981544,0.6626783,-0.98210454,-2.123067,-1.0888525,2.0178635,1.9171107,-0.96275926,0.7277741,-0.9698162,-2.0744102,-1.154193,2.0649877,1.8632734,-0.96581906,-1.4258784,-0.28483805,-1.0619925,1.4140946,-0.74334955,0.45150912,-0.11050538,-0.21251583,-0.5547104,0.7110664,-1.4986035,0.14378811,0.012510844,-0.16888237,-0.58290005,0.673087,0.9185716,-0.04351853,0.14193861,0.36631367,-1.3226974,0.17624424,-0.11919211,0.0,1.0,0.0,0.0,0.0,0.0,0.0,-0.43748415,0.15471038,-0.16106641,0.35676956,0.1444459,-2.1936178,-0.039601326,-1.9815922,-0.35368204,2.2652717
-7.5536194,56.268257,14.152627,14.3994465,0.6864476,0.31473172,0.12251614,-0.80313504,-0.17194173,-0.62350696,0.7981242,-0.54452807,0.5696606,0.051355224,0.6474606,-0.98701036,-2.136761,-1.0743806,2.0105348,1.9202394,-0.9606835,0.71350515,-0.97273344,-2.0852628,-1.1400328,2.0574715,1.8677611,-0.966729,-1.42752,-0.2945829,-1.0916365,1.4166653,-0.75559455,0.44747642,-0.085126325,-0.2273674,-0.5531082,0.7111532,-1.4801885,0.16593978,0.008517166,-0.1821289,-0.5810175,0.6717981,0.92289877,-0.042292833,0.14877735,0.3526109,-1.3227575,0.20301454,-0.13215879,0.0,1.0,0.0,0.0,0.0,0.0,0.0,-0.42263258,0.15310821,-0.1611532,-0.25167465,-1.1423349,-2.5764465,0.26478767,-1.5755534,-0.542295,2.3643136
-9.390905,51.339767,11.907213,13.646042,0.76905316,0.27674443,0.12736756,-0.80901676,-0.19720857,-0.6433313,0.7898566,-0.5487842,0.56060004,0.09170942,0.63260347,-0.9924543,-2.149596,-1.0610471,2.002593,1.9238211,-0.95755804,0.6991828,-0.9758634,-2.096417,-1.1258838,2.0498476,1.8721992,-0.9673802,-1.4340256,-0.31967166,-1.1224147,1.4144763,-0.765606,0.44219628,-0.058899492,-0.24205303,-0.5513048,0.71111476,-1.4642419,0.18546239,-0.006693228,-0.19541168,-0.578887,0.6703102,0.9269436,-0.040657364,0.15567376,0.3389514,-1.3281463,0.22724414,-0.15446188,0.0,1.0,0.0,0.0,0.0,0.0,0.0,-0.40794694,0.15130481,-0.16111475,-0.719738,-2.665472,-2.7163744,-0.18157959,-1.3280988,-0.6714821,2.4685965
-9.1152115,48.43747,10.787506,12.6827135,0.76628387,0.22919822,0.14219505,-0.80633044,-0.21659437,-0.6609855,0.78541136,-0.55055094,0.5555923,0.11595784,0.61854976,-0.99752283,-2.1625154,-1.0473427,1.9947925,1.9277585,-0.95578444,0.684808,-0.97931665,-2.1078875,-1.1117808,2.0421448,1.8765815,-0.9677771,-1.4388137,-0.35447338,-1.1541344,1.4090226,-0.7727872,0.43648127,-0.033766404,-0.25658607,-0.5493221,0.71086293,-1.4490637,0.20281784,-0.029707758,-0.20875835,-0.5765295,0.6685526,0.93071604,-0.038571488,0.16255134,0.32535636,-1.3342283,0.24936068,-0.18294823,0.0,1.0,0.0,0.0,0.0,0.0,0.0,-0.3934139,0.14932212,-0.16086292,-0.54261684,-3.62674,-2.8236628,-0.4975319,-1.0321856,-0.71781874,2.3695774
-9.6433525,49.70896,10.941448,13.153405,0.8224925,0.2686929,0.14513396,-0.81255656,-0.2267165,-0.67060196,0.7889363,-0.5579288,0.56266,0.16991793,0.60355234,-1.0019883,-2.1749477,-1.0328871,1.9863518,1.9328475,-0.9507853,0.6703703,-0.98311037,-2.11964,-1.0977138,2.0343723,1.8809144,-0.9679098,-1.4456661,-0.38823113,-1.1811161,1.4061983,-0.77988106,0.4318891,-0.006799237,-0.27096176,-0.5471659,0.7103804,-1.4329773,0.22027272,-0.052228317,-0.22217083,-0.5739355,0.6665265,0.93421876,-0.036046725,0.1693873,0.3118393,-1.3406866,0.27347517,-0.20926331,0.0,1.0,0.0,0.0,0.0,0.0,0.0,-0.3790382,0.14716586,-0.16038036,-0.75268745,-3.5296082,-2.3288012,-0.22819042,-1.0439515,-0.618732,2.5538764
-5.3030195,56.760353,14.050007,13.38312,0.74552727,0.31158125,0.17838484,-0.8017379,-0.2214561,-0.66404206,0.78735244,-0.5559515,0.5660376,0.19116294,0.5901965,-1.0052559,-2.1860442,-1.0189786,1.9787772,1.9375182,-0.94879353,0.65592587,-0.98713297,-2.1315482,-1.0836735,2.0265546,1.8852129,-0.96778136,-1.4443438,-0.4074855,-1.1924472,1.4032463,-0.78319985,0.42869538,0.018864201,-0.28512955,-0.5448227,0.7097533,-1.4104034,0.23935829,-0.06367817,-0.23556614,-0.57107925,0.6643249,0.93743277,-0.033168588,0.17619778,0.2984527,-1.3363173,0.30065957,-0.22389506,0.0,1.0,0.0,0.0,0.0,0.0,0.0,-0.36487043,0.14482269,-0.15975326,0.01797676,-2.088523,-0.6810427,-0.29706955,-0.74213743,-0.48912764,2.397857
-6.04975,46.979317,10.675166,11.33012,0.77954686,0.1843549,0.18555498,-0.8023575,-0.28969294,-0.68332374,0.7850368,-0.5518931,0.55031854,0.21722847,0.57569015,-1.0161023,-2.1998806,-1.0051697,1.9713652,1.9402448,-0.9460585,0.6415091,-0.9915771,-2.143583,-1.0696598,2.0187242,1.8894675,-0.9674068,-1.4409498,-0.45716348,-1.2061789,1.4008824,-0.7839109,0.42390156,0.04337289,-0.29911613,-0.54232883,0.7088592,-1.3937854,0.25314024,-0.09532533,-0.24897194,-0.56800365,0.66185147,0.9403788,-0.02991947,0.18286464,0.28522465,-1.338857,0.32085812,-0.25534663,0.0,1.0,0.0,0.0,0.0,0.0,0.0,-0.35088384,0.14232883,-0.1588592,0.26209354,-5.1013947,-0.9999275,-0.18785,-0.40080547,-0.6407559,2.327107
-2.8450432,53.767784,13.407922,11.982755,0.76834285,0.23943079,0.20939952,-0.79411066,-0.27960867,-0.66828245,0.787398,-0.5463856,0.5507909,0.26930797,0.562098,-1.0195379,-2.2104113,-0.99092,1.9640857,1.9445466,-0.940476,0.62716484,-0.99641126,-2.1556442,-1.0556542,2.0109172,1.8936782,-0.9667732,-1.4325247,-0.49264944,-1.2046165,1.4002999,-0.7805094,0.4197839,0.0695676,-0.31289577,-0.53968716,0.707724,-1.3713931,0.26836243,-0.116374776,-0.2623453,-0.5647001,0.65915203,0.94305456,-0.026360197,0.18936728,0.27220073,-1.3330697,0.34419584,-0.27506012,0.0,1.0,0.0,0.0,0.0,0.0,0.0,-0.3371042,0.13968715,-0.15772396,0.7254839,-3.6937714,0.6082058,-0.054240227,-0.06209612,-0.5844414,2.4770432
-3.2968426,44.276516,10.186444,9.665691,0.7029098,0.11256307,0.23858951,-0.79036987,-0.3466221,-0.68321574,0.7800599,-0.55560553,0.5280192,0.3183162,0.54812783,-1.0310735,-2.2239656,-0.9776482,1.9553566,1.9464802,-0.9349416,0.6129168,-1.0018023,-2.1677282,-1.0416769,2.0031106,1.8978317,-0.96586883,-1.4224699,-0.5549639,-1.2082464,1.3968283,-0.7814099,0.413506,0.097107336,-0.32649612,-0.53693104,0.7062307,-1.354905,0.2785511,-0.15693131,-0.27569675,-0.56121635,0.6561257,0.94547635,-0.022450479,0.19562581,0.25942442,-1.3321673,0.3609184,-0.31205907,0.0,1.0,0.0,0.0,0.0,0.0,0.0,-0.32350385,0.13693103,-0.15623069,0.92475414,-6.3480616,0.0045776367,-0.29468536,-0.4123211,-0.78419447,2.6506171
-5.008986,49.99398,11.090591,11.403646,0.7601806,0.19908363,0.22294301,-0.7959627,-0.33698788,-0.69548595,0.7798104,-0.5616237,0.52467924,0.366782,0.53332055,-1.0355011,-2.2372768,-0.9636958,1.9469483,1.9502996,-0.92919064,0.5987241,-1.0076693,-2.1798966,-1.0277373,1.9952763,1.9019238,-0.9646792,-1.4185317,-0.597839,-1.2184336,1.3932863,-0.7850651,0.40730673,0.125876,-0.33990765,-0.5340595,0.70438904,-1.3350507,0.29043213,-0.18965954,-0.28902817,-0.55752563,0.6527924,0.94764966,-0.018162537,0.20168889,0.24688435,-1.3296512,0.3825565,-0.3408788,0.0,1.0,0.0,0.0,0.0,0.0,0.0,-0.31009233,0.13405952,-0.15438902,0.30186176,-4.42698,-0.6077528,-0.30751228,-0.7399559,-0.7920742,2.7505085
-6.1126356,51.663475,11.024283,12.0647,0.8282728,0.21680051,0.21758255,-0.7951888,-0.3590165,-0.7033453,0.779141,-0.5513079,0.49676695,0.42888346,0.5192053,-1.043571,-2.250231,-0.94982314,1.9401455,1.9516004,-0.92179084,0.58454865,-1.0139235,-2.1921978,-1.0138266,1.9874352,1.9059366,-0.9631839,-1.4174938,-0.6350739,-1.2326193,1.3903537,-0.78475136,0.39878148,0.15708138,-0.35311794,-0.5310707,0.70221967,-1.3147041,0.30207655,-0.22199573,-0.3023424,-0.553607,0.64918786,0.9495824,-0.013480783,0.20758568,0.23456247,-1.3279474,0.40569323,-0.36747444,0.0,1.0,0.0,0.0,0.0,0.0,0.0,-0.29688203,0.1310707,-0.15221965,0.011062622,-3.8713574,-0.99396706,-0.24077892,-0.3630638,-1.0378003,2.9898973
-6.4968157,51.489517,10.55617,11.9361925,0.8108164,0.20793438,0.22290576,-0.7937301,-0.38496143,-0.7148817,0.7738765,-0.55973834,0.46811897,0.45938942,0.50517565,-1.0524197,-2.263686,-0.936439,1.9314613,1.9527485,-0.9172449,0.570376,-1.0205458,-2.204671,-0.9999598,1.9795753,1.9098477,-0.96138394,-1.4174865,-0.6718648,-1.2509981,1.3855431,-0.7872722,0.38796824,0.18729764,-0.366127,-0.5279741,0.6997046,-1.2944809,0.31260878,-0.25719023,-0.3156395,-0.54945755,0.6453063,0.9512814,-0.008372756,0.21331958,0.22245935,-1.3257846,0.4286642,-0.3957436,0.0,1.0,0.0,0.0,0.0,0.0,0.0,-0.28387296,0.12797412,-0.14970458,-0.090408325,-3.8271427,-1.4131069,-0.42243004,-0.65208673,-1.2713909,2.8899312
-4.298517,57.98284,12.875088,12.888967,0.9000315,0.28946316,0.22056529,-0.7905668,-0.3865829,-0.6940552,0.7731918,-0.5427726,0.4685667,0.4837156,0.4913193,-1.0592041,-2.2740765,-0.9226406,1.925298,1.9567044,-0.9130124,0.5562119,-1.0274428,-2.2171934,-0.9861405,1.9717473,1.913658,-0.959294,-1.4164497,-0.696221,-1.2511615,1.3807261,-0.7824931,0.37811968,0.21581201,-0.3788967,-0.524765,0.69690573,-1.2690785,0.3240161,-0.28295115,-0.32886887,-0.54505634,0.6412291,0.9527501,-0.0029207414,0.21888238,0.21059228,-1.3175032,0.45480853,-0.41232145,0.0,1.0,0.0,0.0,0.0,0.0,0.0,-0.27110326,0.12476501,-0.14690572,-0.02477169,-2.5936007,0.49538612,-0.4655838,-0.0032544136,-1.1924922,2.7051063
-5.757848,48.899773,9.947447,11.006787,0.92992365,0.18936604,0.21634796,-0.7953912,-0.45063663,-0.69888985,0.7676557,-0.5287872,0.39841115,0.4966289,0.47667277,-1.0725064,-2.2870824,-0.90937495,1.9188685,1.9534991,-0.90963113,0.5420363,-1.0347859,-2.2296968,-0.9723783,1.9640008,1.9173247,-0.9569431,-1.418203,-0.7474818,-1.2486428,1.3748869,-0.77290875,0.36221623,0.2413423,-0.39147568,-0.5214691,0.693706,-1.2518631,0.33196253,-0.32746974,-0.34207535,-0.5404215,0.6368763,0.95402575,0.0028782364,0.22414546,0.19896038,-1.3171295,0.4767806,-0.4435869,0.0,1.0,0.0,0.0,0.0,0.0,0.0,-0.2585243,0.12146911,-0.14370596,-0.26295185,-5.2610755,0.6751776,-0.5074978,0.55953264,-1.7976403,2.4617195
