Afshin1997/kuka_rl_ros2/src/catch_and_throw/input_files/idealpd/polynomial_regressor/optimizer_files/env_122_data.csv
torque0,torque1,torque2,torque3,torque4,torque5,torque6,action0,action1,action2,action3,action4,action5,action6,set_target_0,set_target_1,set_target_2,set_target_3,set_target_4,set_target_5,set_target_6,joint_pos_0,joint_pos_1,joint_pos_2,joint_pos_3,joint_pos_4,joint_pos_5,joint_pos_6,joint_vel_0,joint_vel_1,joint_vel_2,joint_vel_3,joint_vel_4,joint_vel_5,joint_vel_6,tennisball_pos_0,tennisball_pos_1,tennisball_pos_2,tennisball_lin_vel_0,tennisball_lin_vel_1,tennisball_lin_vel_2,end_effector_pos_0,end_effector_pos_1,end_effector_pos_2,end_effector_rot_0,end_effector_rot_1,end_effector_rot_2,end_effector_rot_3,end_effector_lin_vel_0,end_effector_lin_vel_1,end_effector_lin_vel_2,obs_task_0,obs_task_1,obs_task_2,obs_task_3,obs_task_4,obs_task_5,obs_task_6,to_final_target_0,to_final_target_1,to_final_target_2,joint_acc_0,joint_acc_1,joint_acc_2,joint_acc_3,joint_acc_4,joint_acc_5,joint_acc_6
0.0,0.0,0.0,0.0,0.0,0.0,0.0,0.0,0.0,0.0,0.0,0.0,0.0,0.0,1.7802359,-1.0646509,-1.8151424,-1.1170107,1.9373155,1.1170107,-0.91629785,1.7802359,-1.0646509,-1.8151424,-1.1170107,1.9373155,1.1170107,-0.91629785,0.0,0.0,0.0,0.0,0.0,0.0,0.0,3.1216202,-0.6670284,0.05148132,-3.39367,0.014871634,5.0252633,0.5304184,-0.45449448,0.693097,0.5745483,0.17512383,0.15255436,0.7848268,0.0,0.0,0.0,1.0,0.0,0.0,0.0,0.0,0.0,0.0,-3.7716203,0.26702842,0.4985187,0.0,0.0,0.0,0.0,0.0,0.0,0.0
0.0,0.0,0.0,0.0,0.0,0.0,0.0,0.0,0.0,0.0,0.0,0.0,0.0,0.0,1.7802359,-1.0646509,-1.8151424,-1.1170107,1.9373155,1.1170107,-0.91629785,1.7802359,-1.0646509,-1.8151424,-1.1170107,1.9373155,1.1170107,-0.91629785,0.0,0.0,0.0,0.0,0.0,0.0,0.0,3.1216202,-0.6670284,0.05148132,-3.39367,0.014871634,5.0252633,0.5304184,-0.45449448,0.693097,0.5745483,0.17512383,0.15255436,0.7848268,0.0,0.0,0.0,1.0,0.0,0.0,0.0,0.0,0.0,0.0,-3.7716203,0.26702842,0.4985187,0.0,0.0,0.0,0.0,0.0,0.0,0.0
0.0,0.0,0.0,0.0,0.0,0.0,0.0,0.0,0.0,0.0,0.0,0.0,0.0,0.0,1.7802359,-1.0646509,-1.8151424,-1.1170107,1.9373155,1.1170107,-0.91629785,1.7802359,-1.0646509,-1.8151424,-1.1170107,1.9373155,1.1170107,-0.91629785,0.0,0.0,0.0,0.0,0.0,0.0,0.0,3.1216202,-0.6670284,0.05148132,-3.39367,0.014871634,5.0252633,0.5304184,-0.45449448,0.693097,0.5745483,0.17512383,0.15255436,0.7848268,0.0,0.0,0.0,1.0,0.0,0.0,0.0,0.0,0.0,0.0,-3.7716203,0.26702842,0.4985187,0.0,0.0,0.0,0.0,0.0,0.0,0.0
-176.0,9.097969,-29.817162,110.0,11.218316,2.5847783,-3.5952208,-0.7886132,0.051826097,-0.57417715,0.73677045,0.14757356,0.68600523,-0.6060738,1.7013745,-1.0594683,-1.8725601,-1.0433336,1.9520729,1.1856112,-0.9769052,1.7797877,-1.0637678,-1.8218544,-1.1103789,1.939734,1.1227003,-0.91538614,-0.0591898,0.117211655,-0.8952129,0.8850603,0.32232496,0.7576899,0.12234964,3.0877075,-0.66687965,0.1009598,-3.3902771,0.014856764,4.922053,0.5285988,-0.45814514,0.6932212,0.5779089,0.17359696,0.15159342,0.78288233,-0.24309826,-0.48685706,0.016314892,1.0,0.0,0.0,0.0,0.0,0.0,0.0,-3.7377076,0.26687965,0.4490402,-5.7349463,11.554138,-89.59074,88.76115,32.17109,75.46629,12.435495
-176.0,-57.9993,-55.194874,108.85844,12.691877,0.5299728,-3.1325269,-0.78412545,-0.3132398,-0.52470946,0.69905317,0.30333066,0.6653714,-0.56110126,1.7013751,-1.0950918,-1.8743253,-1.0404736,1.970067,1.1892375,-0.9714963,1.7796732,-1.063743,-1.8374126,-1.0932223,1.9449849,1.1362387,-0.91236395,-0.00476244,-0.059814636,-1.710423,1.9906355,0.5590617,1.4865341,0.3431732,3.053833,-0.6667309,0.14940697,-3.3868876,0.0148419095,4.8189454,0.5244293,-0.46725273,0.6929098,0.5854705,0.17010431,0.14867762,0.778578,-0.47401807,-1.0480379,-0.04023115,1.0,0.0,0.0,0.0,0.0,0.0,0.0,-3.703833,0.26673087,0.40059304,2.6808271,-24.947626,-61.860012,109.96397,13.629741,53.063057,16.366327
-151.38751,101.16628,30.011177,86.92418,8.694903,8.009667,-1.5055357,-0.7397927,0.08862145,0.23264608,0.64344656,0.33519247,0.7028854,-0.47750545,1.705694,-1.0548809,-1.814148,-1.0288776,1.9785042,1.2065272,-0.9601145,1.77628,-1.0642046,-1.8515632,-1.0720164,1.9509778,1.150952,-0.9093866,-0.45067102,-0.04448887,-1.3101202,2.1656573,0.60668516,1.4611632,0.28203094,3.019989,-0.6665821,0.19682382,-3.3835013,0.01482707,4.715941,0.51742554,-0.4791956,0.6940363,0.5955442,0.16515578,0.14403671,0.7728545,-0.7821783,-1.2348603,0.16692224,1.0,0.0,0.0,0.0,0.0,0.0,0.0,-3.669989,0.2665821,0.35317618,-44.509518,0.6209768,42.011906,18.008995,2.8939247,-4.110408,-6.261629
-103.93305,81.25768,32.63364,51.19034,6.085712,7.3861175,0.14622968,-0.7518336,-0.22599259,0.3361431,0.6710827,0.35403052,0.6939051,-0.53543687,1.7010967,-1.0868038,-1.8179489,-1.0049081,1.9863808,1.2203425,-0.96293026,1.768273,-1.0657419,-1.8588989,-1.0517031,1.956902,1.1646181,-0.9072799,-0.9178149,-0.19183081,-0.5344969,1.9873593,0.5810506,1.3325311,0.18679121,2.9861794,-0.66643333,0.2432114,-3.3801186,0.014812245,4.6130395,0.50779724,-0.4920435,0.696711,0.60623735,0.15914838,0.13735422,0.76699525,-1.0347195,-1.2900673,0.30337012,1.0,0.0,0.0,0.0,0.0,0.0,0.0,-3.6361794,0.26643333,0.30678862,-46.836197,-15.254673,79.64874,-17.54489,-4.5769095,-13.682294,-9.570869
-49.349556,123.81533,50.781693,30.191637,3.1134677,7.520597,0.684152,-0.7791014,-0.015211195,0.37122035,0.6642289,0.5045275,0.6942979,-0.53841746,1.6903628,-1.067263,-1.8217769,-0.9852802,2.0073547,1.2340479,-0.9611217,1.7563215,-1.067634,-1.8587024,-1.0342871,1.9628911,1.1768976,-0.9061374,-1.288119,-0.18999687,0.2101471,1.6593225,0.59972936,1.1918223,0.08882663,2.952404,-0.66628456,0.28857076,-3.3767393,0.014797435,4.510241,0.4961548,-0.50443554,0.7009511,0.61651987,0.15216392,0.12891026,0.7616637,-1.2192283,-1.2105523,0.46335608,1.0,0.0,0.0,0.0,0.0,0.0,0.0,-3.602404,0.26628456,0.26142925,-37.24077,-0.29822886,76.19468,-32.892944,0.35066605,-14.457226,-10.154122
-18.410881,98.98064,37.954586,14.09306,1.2147014,4.654071,0.5840459,-0.7935206,-0.06148193,0.2933575,0.6742792,0.5217349,0.6759916,-0.58950305,1.6769695,-1.0737822,-1.8293667,-0.96685916,2.0150645,1.2444968,-0.9650877,1.7418181,-1.0694326,-1.8532588,-1.0198694,1.9691739,1.1878897,-0.90591615,-1.5049796,-0.17734414,0.6585325,1.3689364,0.63537985,1.0683151,-0.0008928665,2.9186592,-0.6661358,0.33290288,-3.3733633,0.01478264,4.4075456,0.48332214,-0.515954,0.7061299,0.62615615,0.14469334,0.11942816,0.75678873,-1.3175547,-1.1213732,0.53273714,1.0,0.0,0.0,0.0,0.0,0.0,0.0,-3.5686593,0.26613578,0.21709713,-21.800756,0.9902179,45.6688,-29.116917,2.870071,-12.299919,-9.210137
7.83109,134.62956,45.957077,11.100752,-0.7632989,4.085957,0.0049274564,-0.8089873,0.22189619,0.21473916,0.64718485,0.5340243,0.68109363,-0.5928125,1.6609193,-1.047243,-1.831785,-0.95515096,2.0225763,1.2559991,-0.9651974,1.7261053,-1.0696825,-1.8456924,-1.0077177,1.9758573,1.197806,-0.9065017,-1.5939302,0.024640525,0.7910878,1.1637421,0.6785947,0.9671045,-0.079106376,2.8849525,-0.6659889,0.3762088,-3.3699906,0.01476786,4.3049526,0.4699173,-0.5262222,0.71221274,0.6354125,0.13686635,0.11015162,0.7519209,-1.3592966,-0.9850518,0.62923425,1.0,0.0,0.0,0.0,0.0,0.0,0.0,-3.5349526,0.26598892,0.1737912,-9.058213,19.902594,13.783216,-20.527029,4.0763736,-9.834087,-8.221478
15.086509,128.43933,37.938576,9.211213,-1.7946613,2.4314678,-0.55130816,-0.8125633,0.32870364,0.021532904,0.63525534,0.5273055,0.67815775,-0.5904158,1.6448491,-1.0368121,-1.8435391,-0.9441922,2.0285878,1.2656218,-0.96554327,1.7101542,-1.0674337,-1.8390968,-0.9968859,1.9829049,1.2068468,-0.9077682,-1.596053,0.29088432,0.61644953,1.0563018,0.7136104,0.88410896,-0.1436336,2.8512764,-0.66584206,0.4184896,-3.3666213,0.014753095,4.202462,0.45643616,-0.5352297,0.7189829,0.6447113,0.12896492,0.102203496,0.746505,-1.3550613,-0.86209095,0.6890559,1.0,0.0,0.0,0.0,0.0,0.0,0.0,-3.5012765,0.26584205,0.1315104,-0.40152073,26.406176,-17.214657,-10.725236,3.525877,-7.964182,-6.79709
18.632862,130.0175,35.964592,9.570307,-2.2028399,1.8359487,-0.80339307,-0.8169082,0.4727808,-0.0804298,0.6066861,0.5547024,0.67461705,-0.5763979,1.6284634,-1.0201557,-1.8471397,-0.9362173,2.0383751,1.2743086,-0.96540797,1.6944796,-1.0622534,-1.835284,-0.9866711,1.9903035,1.215161,-0.909584,-1.5587628,0.59311926,0.30347008,1.0096775,0.7489627,0.81458634,-0.1953921,2.8176384,-0.6656952,0.45974624,-3.3632553,0.014738345,4.1000743,0.4431305,-0.5430565,0.7263168,0.6543262,0.12117474,0.0961747,0.74021906,-1.330812,-0.7444601,0.745226,1.0,0.0,0.0,0.0,0.0,0.0,0.0,-3.4676385,0.26569518,0.09025377,3.520465,30.0215,-31.082928,-4.706812,3.613305,-6.7406535,-5.5164843
20.082594,119.15679,32.526875,8.4183445,-2.0913858,1.4461774,-0.7281533,-0.81128156,0.54332113,-0.12781107,0.57462025,0.5593195,0.6724454,-0.58424836,1.6133515,-1.0079212,-1.8480651,-0.92920905,2.0462356,1.2824055,-0.9680088,1.6792666,-1.0543741,-1.8345668,-0.97673285,1.997992,1.2228628,-0.9118518,-1.5095866,0.85217255,-0.0046031387,0.9879695,0.77565217,0.7555687,-0.23834416,2.784031,-0.6655483,0.4999798,-3.3598926,0.014723609,3.997789,0.43011475,-0.5498009,0.73411244,0.66428226,0.11355869,0.092055395,0.73304796,-1.2993068,-0.6386163,0.78907996,1.0,0.0,0.0,0.0,0.0,0.0,0.0,-3.434031,0.26554832,0.050020218,4.7119856,25.723183,-30.542555,-2.338159,2.7088761,-5.8438897,-4.6354175
22.446598,110.778244,31.745064,6.734808,-1.785218,1.4776247,-0.4463855,-0.8033071,0.61135334,-0.13635463,0.52912086,0.57935405,0.6733802,-0.58595294,1.5989358,-0.99323875,-1.8482023,-0.92382073,2.0559275,1.2902008,-0.9704471,1.6645094,-1.0443548,-1.8362339,-0.9670683,2.0059333,1.2300459,-0.9144935,-1.4652267,1.0512674,-0.21934053,0.9584167,0.79995173,0.70579296,-0.27399632,2.7504578,-0.66540146,0.53919125,-3.3565333,0.014708889,3.8956063,0.4173851,-0.55552197,0.7423151,0.67440164,0.10606644,0.08944764,0.7252113,-1.2689239,-0.5365234,0.8298115,1.0,0.0,0.0,0.0,0.0,0.0,0.0,-3.4004579,0.26540145,0.010808766,4.218769,19.741583,-21.085476,-3.2221198,2.405715,-5.0225496,-3.9323688
22.59837,100.16227,30.066748,5.5467668,-1.3548276,1.4896686,-0.17201398,-0.7951749,0.65886617,-0.15257853,0.49516794,0.59781057,0.67214966,-0.5868144,1.5849919,-0.9784682,-1.8514917,-0.9175515,2.0657144,1.2972609,-0.9731749,1.6501108,-1.0328287,-1.8393066,-0.9577881,2.0141082,1.2367941,-0.9174451,-1.4320034,1.1858623,-0.33498883,0.91685313,0.82320046,0.66410375,-0.30348274,2.716919,-0.6652546,0.5773816,-3.3531775,0.014694183,3.7935257,0.40491486,-0.5602865,0.7508628,0.6844693,0.09862469,0.08785181,0.71697766,-1.2429606,-0.44247985,0.8628686,1.0,0.0,0.0,0.0,0.0,0.0,0.0,-3.366919,0.2652546,-0.027381599,3.0989885,13.319278,-11.091482,-4.4695854,2.2643685,-4.2502165,-3.3259928
20.45815,89.53323,27.820679,5.493504,-0.87651086,1.475406,0.016296005,-0.789531,0.68742394,-0.15625884,0.47495994,0.6054682,0.68178326,-0.5932926,1.5711577,-0.9640863,-1.8549324,-0.9102921,2.074655,1.3049724,-0.9767744,1.6359526,-1.0203832,-1.8429267,-0.9489466,2.0224853,1.2431856,-0.92065614,-1.4111531,1.2636853,-0.36910558,0.872221,0.8423308,0.63061494,-0.32831138,2.6834106,-0.6651077,0.61455196,-3.3498251,0.014679492,3.6915472,0.39265823,-0.56420135,0.7596731,0.69433075,0.09117063,0.08681905,0.7085585,-1.2239652,-0.360134,0.8872336,1.0,0.0,0.0,0.0,0.0,0.0,0.0,-3.3334107,0.26510772,-0.06455195,1.8673897,7.6708317,-2.9016614,-4.7780156,1.8392563,-3.4328341,-2.8533459
22.629904,79.88889,25.697418,2.7971745,-0.770929,1.3012855,0.24295707,-0.78018916,0.7021724,-0.13954818,0.41034383,0.62242204,0.6842565,-0.59744114,1.5579337,-0.950166,-1.8568816,-0.9079122,2.0847275,1.3116113,-0.98040026,1.6219527,-1.0074838,-1.8464382,-0.9407536,2.031057,1.2492949,-0.9240865,-1.3969966,1.2983638,-0.34346896,0.80054706,0.86181,0.6042989,-0.34919438,2.6499405,-0.66496086,0.65070325,-3.346476,0.014664817,3.5896707,0.38061142,-0.56731606,0.7686184,0.7038125,0.083701275,0.086015716,0.70017385,-1.2011706,-0.281089,0.89689416,1.0,0.0,0.0,0.0,0.0,0.0,0.0,-3.2999406,0.26496086,-0.10070324,1.1998415,3.3942223,3.083849,-7.4929833,1.8838525,-2.631843,-2.4555504
19.858313,73.6353,23.615442,3.631246,-0.4950316,1.186137,0.27344698,-0.7767563,0.7179645,-0.13806114,0.39667702,0.63033956,0.69374543,-0.59096223,1.5442771,-0.9356874,-1.8602443,-0.90108585,2.094091,1.3186694,-0.9831827,1.6080481,-0.9944041,-1.8495452,-0.9332253,2.039804,1.2551848,-0.9276933,-1.3889006,1.3109348,-0.2981791,0.73591614,0.8790579,0.58413815,-0.36558506,2.6165009,-0.664814,0.6858366,-3.3431304,0.014650155,3.487896,0.36875153,-0.5697193,0.7776101,0.71286553,0.07621662,0.08526065,0.6919136,-1.1820451,-0.21301861,0.8996781,1.0,0.0,0.0,0.0,0.0,0.0,0.0,-3.266501,0.264814,-0.1358366,0.61428547,1.2034655,5.005574,-6.765914,1.6869664,-1.9951344,-1.981777
25.022556,71.660645,23.537357,0.21373224,-0.77143234,1.0529481,0.45508412,-0.7725302,0.72925395,-0.08576285,0.29682076,0.6416531,0.68713725,-0.59547687,1.5307951,-0.9214787,-1.8581215,-0.9035432,2.1039693,1.3238986,-0.98724097,1.5942026,-0.98126435,-1.8519828,-0.9266411,2.048719,1.2609049,-0.9314441,-1.3837491,1.3149339,-0.22401828,0.6314936,0.89553756,0.5682897,-0.37935355,2.5830917,-0.6646671,0.71995294,-3.339788,0.014635507,3.386223,0.35716248,-0.57138157,0.7865706,0.7213675,0.068741105,0.08446899,0.68393606,-1.151361,-0.13699083,0.8942083,1.0,0.0,0.0,0.0,0.0,0.0,0.0,-3.2330918,0.26466712,-0.16995293,0.31530857,0.37224293,7.891929,-10.753286,1.6260028,-1.4619231,-1.7159224
28.279953,70.5783,22.98647,-2.1358695,-1.0562154,0.8541379,0.5397879,-0.7708378,0.74642146,-0.069299854,0.2114759,0.6546525,0.68823045,-0.59001726,1.5171188,-0.90662223,-1.8589128,-0.9054935,2.1141841,1.329728,-0.99044585,1.5803915,-0.96805024,-1.853709,-0.92132723,2.0578017,1.2664953,-0.9353084,-1.3808007,1.3235891,-0.15421169,0.49703977,0.91265196,0.556464,-0.38991985,2.5497208,-0.66452026,0.75305337,-3.336449,0.014620874,3.2846518,0.34596252,-0.57224846,0.79541874,0.7292244,0.061338954,0.08366951,0.67636424,-1.1093158,-0.05721742,0.88049555,1.0,0.0,0.0,0.0,0.0,0.0,0.0,-3.1997209,0.26452026,-0.20305336,0.1026392,0.86164474,7.408017,-13.752562,1.7251968,-0.97563267,-1.3715565
41.1564,67.228714,22.190037,-11.400121,-2.0899048,0.32331115,0.8325888,-0.7638519,0.7587481,-0.042544026,0.0016324141,0.66417307,0.68144774,-0.5843129,1.5040064,-0.89217544,-1.8579634,-0.921164,2.124219,1.3346401,-0.99373966,1.5666281,-0.9547045,-1.8547904,-0.91809523,2.0670524,1.2719904,-0.9392585,-1.3754998,1.3383609,-0.09171237,0.26423827,0.9293049,0.54862696,-0.39766186,2.5163803,-0.6643734,0.78513885,-3.3331132,0.014606256,3.183182,0.33545685,-0.5721741,0.80394024,0.7362148,0.054224554,0.083002776,0.66944593,-1.030703,0.040446464,0.84103334,1.0,0.0,0.0,0.0,0.0,0.0,0.0,-3.1663804,0.2643734,-0.23513883,0.3431797,1.5243292,6.618093,-23.612059,1.7228842,-0.3481865,-1.0586739
53.136185,62.60714,20.721619,-20.027233,-3.0821166,-0.32445872,1.0611806,-0.747289,0.77330047,-0.0421729,-0.20006156,0.66640145,0.68553066,-0.56309813,1.4918993,-0.8773745,-1.8590077,-0.9381014,2.1336925,1.3405435,-0.99556834,1.5529886,-0.94116044,-1.8554409,-0.9178015,2.0764441,1.277434,-0.94325536,-1.36057,1.3601929,-0.055247974,-0.049991816,0.94283384,0.54503256,-0.4011517,2.4830742,-0.66422653,0.8162103,-3.3297808,0.014591653,3.0818136,0.3260002,-0.5710392,0.8118702,0.74212164,0.04767017,0.082673125,0.66343665,-0.91457003,0.14828537,0.7749042,1.0,0.0,0.0,0.0,0.0,0.0,0.0,-3.1330743,0.26422653,-0.26621032,1.3536692,2.287221,3.8783453,-31.739075,1.4796376,0.27680397,-0.5685985
58.044247,60.563953,20.179876,-22.83662,-3.4057212,-0.68054193,1.1328532,-0.728729,0.78420424,-0.016199857,-0.34659666,0.66918653,0.67793065,-0.5545546,1.4801158,-0.86274004,-1.8570608,-0.9524612,2.1433628,1.345227,-0.9987108,1.5395781,-0.92737794,-1.8557823,-0.92078745,2.0859466,1.282849,-0.9472694,-1.3349162,1.3846859,-0.026948756,-0.38221025,0.9536607,0.5426716,-0.40192264,2.4498024,-0.6640816,0.8462689,-3.3264518,0.014577065,2.9805467,0.31782913,-0.5688257,0.8190825,0.7468706,0.041816708,0.082784,0.6584697,-0.78195816,0.25386852,0.7004282,1.0,0.0,0.0,0.0,0.0,0.0,0.0,-3.0998025,0.26408157,-0.29626888,2.5049686,2.5988579,2.8784235,-33.466347,1.2982965,0.4641652,-0.21641254
58.300247,64.28704,22.236835,-20.048542,-3.0890954,-0.5733446,1.1091624,-0.6978498,0.7912837,0.06365459,-0.4373765,0.67112476,0.6641876,-0.54729205,1.4697931,-0.84824955,-1.8494169,-0.9645251,2.153059,1.3492677,-1.0019985,1.5265394,-0.91336846,-1.8555915,-0.9267441,2.0955443,1.2882334,-0.9512786,-1.2935042,1.407028,0.033996552,-0.6674306,0.9627641,0.53942716,-0.40086052,2.4165611,-0.6639366,0.87531555,-3.323126,0.014562491,2.879381,0.31093216,-0.5655813,0.82567894,0.75050294,0.03656324,0.083236896,0.65458393,-0.6542915,0.35386044,0.6424826,1.0,0.0,0.0,0.0,0.0,0.0,0.0,-3.0665612,0.2639366,-0.32531554,4.160166,2.4207354,5.9255753,-28.678535,1.2715459,0.35066605,0.027191639
49.807476,71.81865,25.371023,-10.669901,-2.101562,-0.020785265,0.9213072,-0.6761803,0.8005852,0.16409256,-0.4541286,0.6624921,0.65677625,-0.5204661,1.4589214,-0.83330995,-1.8391823,-0.97215694,2.1617935,1.353911,-1.0033252,1.5139567,-0.899153,-1.8544109,-0.93476737,2.105188,1.2935797,-0.95525545,-1.2462069,1.4270456,0.14494379,-0.84771866,0.96702284,0.5348517,-0.39672595,2.3833542,-0.66379166,0.9033513,-3.3198037,0.014547931,2.7783163,0.3050804,-0.5614157,0.83197486,0.75319064,0.03157463,0.083808534,0.65167695,-0.55740243,0.44251853,0.6209601,1.0,0.0,0.0,0.0,0.0,0.0,0.0,-3.0333543,0.26379165,-0.3533513,4.7835827,2.209115,10.730469,-18.125416,0.95835924,0.11689663,0.3638625
43.64926,78.15393,28.532103,-2.4565806,-1.1925149,0.49134132,0.78094774,-0.63465405,0.799471,0.27792996,-0.4547141,0.6676343,0.642443,-0.49183494,1.4504913,-0.8192059,-1.8266178,-0.9802388,2.1719513,1.357824,-1.004439,1.5019461,-0.8848021,-1.8517349,-0.9438158,2.1148772,1.2988688,-0.9591703,-1.1857179,1.438605,0.3067116,-0.9240986,0.97226405,0.52874887,-0.38990816,2.3501816,-0.6636467,0.9303772,-3.3164847,0.014533386,2.6773527,0.2999916,-0.55641556,0.8383156,0.7550986,0.026469564,0.084216714,0.64964074,-0.48792002,0.5229605,0.63349634,1.0,0.0,0.0,0.0,0.0,0.0,0.0,-3.0001817,0.2636467,-0.38037717,6.1279774,1.3813496,15.643417,-7.705581,1.2170196,-0.08856058,0.6324947
40.839912,82.15046,30.7679,2.241888,-0.7167338,0.7989086,0.7174547,-0.5919591,0.80256087,0.3842693,-0.46907416,0.66693175,0.63472956,-0.45629162,1.4427502,-0.804546,-1.813308,-0.99072325,2.1815703,1.3623418,-1.0047995,1.4906222,-0.87037396,-1.8472068,-0.9531504,2.1246123,1.3040949,-0.9629945,-1.1141913,1.4449737,0.49928242,-0.9367865,0.9767535,0.5221994,-0.38009974,2.3170395,-0.66350174,0.9563942,-3.313169,0.014518855,2.5764902,0.29549026,-0.55062485,0.8449409,0.75631356,0.02096764,0.084268585,0.64842033,-0.4333916,0.6013659,0.66663283,1.0,0.0,0.0,0.0,0.0,0.0,0.0,-2.9670396,0.26350173,-0.40639418,7.2624445,0.8706808,18.624348,-1.3033867,1.2244225,-0.15369654,0.9299159
33.819603,80.09566,29.741285,6.4978075,-0.27124804,0.8713706,0.58453965,-0.56698537,0.805042,0.44918087,-0.45929006,0.6761269,0.62576056,-0.41875103,1.4339236,-0.7898698,-1.8022888,-0.9990794,2.192225,1.366671,-1.0048696,1.4799811,-0.8559067,-1.840842,-0.9622971,2.1344123,1.3092524,-0.96669954,-1.0470394,1.4480404,0.6802477,-0.90735936,0.9832091,0.5149428,-0.36749902,2.2839355,-0.6633568,0.9814033,-3.3098564,0.01450434,2.4757283,0.29140472,-0.54413414,0.85193866,0.75694,0.014962374,0.083902456,0.6479029,-0.39473578,0.66894686,0.7049567,1.0,0.0,0.0,0.0,0.0,0.0,0.0,-2.9339356,0.26335678,-0.43140328,6.8293095,0.528574,17.482208,2.9195428,1.3797045,-0.28432608,1.2080014
14.645966,73.27194,25.410143,15.986589,0.74479,1.0288832,0.21943757,-0.5786657,0.8037285,0.4843771,-0.36364347,0.66775745,0.6275483,-0.35154143,1.4221145,-0.77553385,-1.7924043,-0.9986614,2.201188,1.3720073,-1.0018537,1.4697729,-0.8414357,-1.8329837,-0.9706284,2.1442351,1.3143374,-0.9702386,-1.0119807,1.4473997,0.8195507,-0.8087206,0.98405075,0.50724626,-0.34966984,2.2508621,-0.6632118,1.0054055,-3.3065472,0.014489839,2.3750672,0.28740692,-0.53718376,0.8593588,0.7572512,0.008400089,0.0831462,0.647755,-0.39466128,0.70791924,0.74817544,1.0,0.0,0.0,0.0,0.0,0.0,0.0,-2.9008622,0.26321182,-0.45540553,3.5439491,0.13895035,13.434148,9.782446,0.72141886,-0.47690868,1.7150283
-9.42865,61.924145,18.499523,26.107388,1.9170613,1.1134578,-0.21866189,-0.6274228,0.80245227,0.48506337,-0.27141693,0.68309027,0.6294465,-0.31339303,1.4070307,-0.7611904,-1.7844774,-0.9977701,2.2125442,1.377282,-1.001578,1.4595,-0.82698846,-1.8242004,-0.977595,2.1540923,1.3193442,-0.9735841,-1.0326226,1.4444107,0.89676976,-0.66001743,0.98798144,0.4989817,-0.32976744,2.2178192,-0.66306686,1.028402,-3.3032413,0.014475351,2.2745068,0.2830925,-0.53012085,0.86718446,0.7576216,0.0013191345,0.082063735,0.6475131,-0.43936408,0.7099714,0.78757817,1.0,0.0,0.0,0.0,0.0,0.0,0.0,-2.8678193,0.26306686,-0.47840196,-2.1588802,-0.11463165,7.4046135,14.689005,0.9084344,-0.7040262,1.9172788
-35.14572,51.754704,11.966487,38.61424,3.321978,1.358127,-0.7376356,-0.6893502,0.7992378,0.4716345,-0.09772903,0.68467367,0.63888484,-0.2686428,1.3905649,-0.7470647,-1.7770369,-0.98736787,2.2225597,1.3832326,-1.0004483,1.4486109,-0.812587,-1.8150947,-0.98248065,2.1639838,1.3242728,-0.9767141,-1.1085155,1.439223,0.91453713,-0.43236732,0.991356,0.49076042,-0.30769882,2.1848145,-0.6629219,1.0503935,-3.2999387,0.014460878,2.174047,0.27792358,-0.5233345,0.87544626,0.758496,-0.0062949844,0.08070776,0.64663005,-0.5368059,0.6733294,0.8325066,1.0,0.0,0.0,0.0,0.0,0.0,0.0,-2.8348145,0.2629219,-0.50039345,-7.8230143,-0.34031868,1.5812039,22.477352,0.7982135,-0.88977814,2.132219
-53.852234,45.31943,7.6084538,49.84199,4.495603,1.6154877,-1.230748,-0.73176277,0.7973681,0.42881978,0.14067353,0.6776765,0.65087944,-0.26633698,1.3754346,-0.7328502,-1.7722127,-0.9684133,2.2317514,1.3893607,-1.0033478,1.4367777,-0.79823995,-1.8062541,-0.9843327,2.173883,1.3291289,-0.9796409,-1.2092154,1.4336777,0.87316436,-0.103886254,0.9910154,0.48299012,-0.2878804,2.1518402,-0.66277695,1.0713812,-3.2966394,0.014446421,2.0736878,0.27145386,-0.51713467,0.8842566,0.7603101,-0.014564699,0.079107285,0.6445605,-0.67770225,0.6076452,0.8906452,1.0,0.0,0.0,0.0,0.0,0.0,0.0,-2.8018403,0.26277694,-0.5213812,-10.360336,-0.37856102,-4.3334723,32.52094,0.4305601,-1.027441,1.9207478
-52.03544,41.122387,6.068183,48.42536,4.3028154,1.4342314,-1.2805468,-0.7534699,0.7902315,0.39446616,0.25662705,0.6677764,0.66393787,-0.30010173,1.3614308,-0.7192168,-1.7668076,-0.95866996,2.2406607,1.3955226,-1.0096511,1.4240004,-0.783972,-1.7980754,-0.9828993,2.1837401,1.333922,-0.98241514,-1.3013505,1.424971,0.79879266,0.22479194,0.985552,0.47706884,-0.274091,2.1188965,-0.662632,1.0913662,-3.2933435,0.014431978,1.9734286,0.26361465,-0.5115948,0.8935809,0.763184,-0.023486687,0.07733699,0.6411064,-0.813548,0.5434219,0.9399737,1.0,0.0,0.0,0.0,0.0,0.0,0.0,-2.7688966,0.26263198,-0.54136616,-9.446502,-0.72488785,-7.65903,32.5981,-0.10339022,-0.8956492,1.3388932
-31.464119,39.373367,6.988451,33.40098,2.6866882,0.77964336,-0.8232892,-0.7731543,0.78581506,0.38250014,0.20438948,0.67544824,0.66399896,-0.3440556,1.3466849,-0.7053905,-1.7598255,-0.96246034,2.251285,1.400322,-1.0168207,1.4104601,-0.7698004,-1.7906215,-0.9792181,2.1935592,1.3386713,-0.9851045,-1.3721066,1.4149201,0.7272019,0.41519368,0.98194593,0.47371554,-0.267442,2.085991,-0.66248703,1.1103493,-3.2900507,0.014417549,1.8732697,0.2548256,-0.5064812,0.9031202,0.7668,-0.032774176,0.07554004,0.6365825,-0.89366645,0.5092623,0.9523961,1.0,0.0,0.0,0.0,0.0,0.0,0.0,-2.735991,0.26248702,-0.5603493,-7.244396,-0.90777874,-7.2844744,18.82702,-0.019192696,-0.4820943,0.61888695
0.2683792,40.609898,9.648202,10.476864,0.19751084,-0.20809798,-0.07237349,-0.7733819,0.78914183,0.37474963,0.04334248,0.6824811,0.65764594,-0.3635661,1.3331219,-0.69088626,-1.7531465,-0.97488385,2.2618072,1.4044359,-1.0214611,1.3964621,-0.7556946,-1.783736,-0.9752499,2.203363,1.3434054,-0.98775953,-1.4096621,1.4093046,0.6760207,0.39001748,0.9806795,0.47395778,-0.26517856,2.0531158,-0.6623421,1.1283315,-3.2867613,0.014403134,1.7732109,0.24591827,-0.50139713,0.9123986,0.7705572,-0.041923743,0.07394056,0.63167775,-0.8843396,0.51796925,0.9137037,1.0,0.0,0.0,0.0,0.0,0.0,0.0,-2.703116,0.26234207,-0.57833153,-3.8942575,-0.50542355,-5.0359607,-2.723211,0.0485301,0.21334887,0.14052987
28.770699,43.41033,12.802,-9.96207,-1.9875562,-1.091303,0.64969397,-0.77357167,0.7884686,0.40103105,-0.14701009,0.68697566,0.6452881,-0.37101114,1.3191049,-0.67684776,-1.7436329,-0.9899509,2.2720604,1.4079342,-1.0248606,1.3822886,-0.7416241,-1.7770393,-0.9730145,2.2131705,1.3481528,-0.9904079,-1.4202719,1.4064628,0.6682703,0.16740039,0.9808616,0.47681254,-0.2650835,2.0202713,-0.662199,1.1453139,-3.2834752,0.014388734,1.673252,0.23770905,-0.49596214,0.9209749,0.7738415,-0.05044394,0.07272219,0.62716526,-0.7929637,0.56161207,0.8331808,1.0,0.0,0.0,0.0,0.0,0.0,0.0,-2.6702714,0.262199,-0.59531385,-1.1635542,-0.24545193,-0.530076,-22.447044,0.050783157,0.7972956,-0.10011196
45.377895,48.09813,16.145905,-19.89347,-3.0452461,-1.5271637,1.0779023,-0.7562124,0.78535193,0.44476098,-0.2643912,0.69022506,0.63116854,-0.324357,1.3066673,-0.6630889,-1.7325631,-0.9994536,2.282193,1.4112697,-1.0228436,1.3682162,-0.72757936,-1.7700698,-0.97362673,2.2229934,1.3529269,-0.9930238,-1.4029893,1.4040657,0.70733035,-0.13769917,0.9825175,0.47984287,-0.26068586,1.9874611,-0.66205597,1.1612974,-3.2801924,0.014374348,1.5733931,0.23073196,-0.48994923,0.92865646,0.7762499,-0.058103997,0.07192226,0.62360823,-0.65780365,0.62280875,0.7408851,1.0,0.0,0.0,0.0,0.0,0.0,0.0,-2.6374612,0.26205596,-0.6112974,1.7273903,-0.19173622,4.1092396,-30.603525,0.17268658,0.95003843,0.35082698
45.699295,50.434822,17.355392,-18.278492,-2.8877146,-1.5238503,1.0928574,-0.7468276,0.78382146,0.46468768,-0.31666812,0.68550926,0.6350883,-0.24937676,1.2935334,-0.6491972,-1.7236011,-1.0052935,2.2915442,1.4164357,-1.0179615,1.3544108,-0.71355367,-1.762574,-0.9770752,2.23282,1.3577315,-0.99553865,-1.372811,1.4022032,0.763751,-0.41398358,0.98295593,0.482627,-0.24856105,1.9546852,-0.6619129,1.1762831,-3.276913,0.014359976,1.473634,0.22509003,-0.48332977,0.93549883,0.77770436,-0.064950936,0.07148771,0.6211657,-0.5248323,0.68115246,0.6595477,1.0,0.0,0.0,0.0,0.0,0.0,0.0,-2.6046853,0.2619129,-0.6262831,3.105235,-0.112485886,5.6755424,-27.639633,0.12909174,0.8776009,1.1699617
29.70998,50.81271,17.057919,-3.9795241,-1.3921537,-0.92190444,0.75406474,-0.744165,0.7749876,0.48417616,-0.22796786,0.66165215,0.6439107,0.05435151,1.2799942,-0.63605493,-1.7141564,-0.999872,2.2989852,1.4221225,-0.9901035,1.3408915,-0.6995795,-1.754504,-0.9821249,2.2425857,1.362559,-0.99770826,-1.344604,1.3960892,0.8210711,-0.53532875,0.9749593,0.4839959,-0.20660435,1.9219398,-0.66176987,1.190272,-3.2736366,0.014345619,1.3739747,0.22038269,-0.4762602,0.9418235,0.778416,-0.07134699,0.071267955,0.6195959,-0.4455456,0.7203678,0.6174397,1.0,0.0,0.0,0.0,0.0,0.0,0.0,-2.57194,0.26176986,-0.64027196,2.8978825,-0.5007267,5.5927634,-12.163776,-0.5602002,0.5413294,4.1586757
7.4728804,45.974632,14.239171,13.3166065,0.4733765,-0.24811947,0.23161218,-0.7562772,0.75989074,0.47697827,-0.10710136,0.6392087,0.6561716,0.27000883,1.2652638,-0.6235904,-1.7068062,-0.99283504,2.3065066,1.4281762,-0.97070736,1.3275229,-0.6857312,-1.7460353,-0.9870821,2.2522063,1.3673941,-0.99931043,-1.3343933,1.3814732,0.8549617,-0.48299283,0.95896196,0.4841094,-0.14491467,1.889225,-0.6616268,1.203265,-3.2703636,0.0143312765,1.274415,0.2159462,-0.46900177,0.94801515,0.7787717,-0.07774331,0.07109873,0.6183975,-0.43500715,0.73147446,0.6135416,1.0,0.0,0.0,0.0,0.0,0.0,0.0,-2.539225,0.2616268,-0.65326494,0.9899616,-1.3244152,3.1998754,5.090797,-1.2515783,0.20933151,6.100121
-9.108137,41.90765,11.696958,26.043179,1.7336285,0.23647727,-0.21633139,-0.7674797,0.7550141,0.4570577,0.0022444283,0.5965804,0.6580663,0.38600245,1.2507749,-0.61022973,-1.7003295,-0.98685765,2.3118644,1.4332007,-0.96071017,1.3141237,-0.6720383,-1.7374713,-0.9905869,2.2615561,1.3722216,-1.000246,-1.3421956,1.3657354,0.85636437,-0.3071327,0.92816967,0.48257333,-0.07669395,1.8565483,-0.66148376,1.215263,-3.267094,0.014316948,1.1749549,0.21124649,-0.46177006,0.9543673,0.77914554,-0.08448959,0.07092358,0.61706036,-0.47385982,0.7242178,0.6361758,1.0,0.0,0.0,0.0,0.0,0.0,0.0,-2.5065484,0.26148376,-0.665263,-0.91102123,-1.4243364,-0.04309416,17.357439,-2.676487,-0.107091665,6.732991
-12.55736,38.773647,10.42451,28.457375,1.9094032,0.2889633,-0.33917812,-0.76368856,0.74061906,0.4592531,0.04862219,0.53660536,0.6633546,0.4327679,1.237755,-0.5979764,-1.6915461,-0.9857247,2.3152168,1.438557,-0.95696926,1.3006235,-0.6585381,-1.7289855,-0.9921404,2.2704482,1.3770357,-1.0005245,-1.3529525,1.345325,0.8452732,-0.105549514,0.8773544,0.48104262,-0.011713265,1.8239021,-0.6613407,1.2262673,-3.2638276,0.014302634,1.0755942,0.2060852,-0.45463657,0.9609651,0.77969635,-0.09171411,0.070791095,0.61534595,-0.52153885,0.71392226,0.6614939,1.0,0.0,0.0,0.0,0.0,0.0,0.0,-2.4739022,0.2613407,-0.6762673,-1.2112379,-1.8998146,-1.2841821,19.928057,-4.689002,-0.14682412,6.4094954
-3.5693703,35.14834,9.588571,19.49202,1.0245044,-0.22354354,-0.08881479,-0.75474286,0.7198379,0.46665227,-0.016155541,0.49654526,0.6621641,0.4673823,1.2251493,-0.5865543,-1.6823204,-0.99375594,2.3201027,1.4432521,-0.9537863,1.2870699,-0.64530015,-1.7205989,-0.9923607,2.2787642,1.3818384,-1.0001945,-1.3564749,1.3170825,0.8360787,0.00514219,0.8171187,0.48041925,0.047511254,1.7912865,-0.66119766,1.2362788,-3.2605643,0.014288334,0.9763327,0.2007103,-0.44756603,0.96761274,0.7803011,-0.099210046,0.07081869,0.61341035,-0.535096,0.70933557,0.65977436,1.0,0.0,0.0,0.0,0.0,0.0,0.0,-2.4412866,0.26119766,-0.68627876,-0.42989254,-2.7114868,-1.0340691,10.882887,-5.7305574,0.037413836,5.841602
11.17655,31.793451,8.931171,4.5310273,-0.38902968,-1.0537517,0.35268366,-0.74980235,0.69942254,0.4783282,-0.1633156,0.4755666,0.6596913,0.47041377,1.2120897,-0.5753579,-1.6727661,-1.0086923,2.326321,1.4478076,-0.9531532,1.2735335,-0.63239026,-1.7122238,-0.9926735,2.2865043,1.386643,-0.9993396,-1.3527224,1.2824711,0.8379955,-0.04395702,0.75984955,0.48141152,0.097885475,1.7587051,-0.6610546,1.2452983,-3.2573044,0.014274049,0.8771706,0.1956253,-0.44048595,0.9739214,0.780672,-0.1065154,0.071151726,0.61167234,-0.4918442,0.71200293,0.6153223,1.0,0.0,0.0,0.0,0.0,0.0,0.0,-2.4087052,0.2610546,-0.69529825,0.36268234,-3.383541,0.18428564,-5.047953,-5.581343,0.36720634,4.9607544
21.832851,31.070198,9.265083,-5.5870094,-1.2796972,-1.6171143,0.69282436,-0.7397359,0.67910904,0.50496984,-0.2630607,0.47571763,0.65417904,0.4924143,1.1995599,-0.56447935,-1.6617268,-1.0189795,2.334076,1.4520609,-0.95009816,1.2601,-0.6198542,-1.703675,-0.99429286,2.2937865,1.3914591,-0.9980283,-1.3401439,1.2441497,0.8604134,-0.20153208,0.7178812,0.48297226,0.14194754,1.7261581,-0.66091156,1.2533269,-3.2540479,0.014259777,0.77810764,0.19125748,-0.4333477,0.9795932,0.7805447,-0.113247976,0.07183375,0.6105447,-0.40995142,0.71856195,0.54543537,1.0,0.0,0.0,0.0,0.0,0.0,0.0,-2.3761582,0.26091155,-0.7033269,1.3115883,-3.7738085,2.2722483,-15.842967,-4.140997,0.51898956,4.335271
19.973894,30.928354,9.277489,-2.787839,-0.9856648,-1.5816573,0.59594095,-0.71428645,0.6604787,0.4922326,-0.20301789,0.43890718,0.6588602,0.5235431,1.1886714,-0.55380636,-1.6544517,-1.0145947,2.3376772,1.4573451,-0.94567394,1.2469088,-0.60770154,-1.6949642,-0.99718153,2.3006606,1.3962923,-0.9963088,-1.3119215,1.205801,0.87444216,-0.31822234,0.67761004,0.48451182,0.18176417,1.6936417,-0.6607685,1.2603656,-3.2507944,0.01424552,0.6791437,0.18764877,-0.42617512,0.98464304,0.77991986,-0.11941109,0.0728208,0.6100517,-0.3368981,0.7201122,0.48603806,1.0,0.0,0.0,0.0,0.0,0.0,0.0,-2.3436418,0.2607685,-0.7103656,2.9095173,-3.7630558,1.3507843,-11.743194,-3.9422035,0.46855807,3.9191961
14.20565,28.254084,7.9644623,2.385902,-0.47092813,-1.4718187,0.37243417,-0.6964916,0.63825095,0.46398225,-0.17885433,0.38517213,0.65975136,0.52522403,1.1772597,-0.54387647,-1.6485659,-1.015067,2.3391778,1.4622675,-0.9437864,1.2340552,-0.5959389,-1.6862953,-1.0007823,2.3070693,1.401137,-0.9942384,-1.2762772,1.1667876,0.8642097,-0.3743364,0.6289972,0.4853829,0.2153,1.6611557,-0.66062546,1.2664155,-3.2475443,0.014231278,0.58027875,0.18462753,-0.4190483,0.9891912,0.7789554,-0.1251412,0.07408821,0.6099829,-0.28267837,0.7125641,0.43922305,1.0,0.0,0.0,0.0,0.0,0.0,0.0,-2.3111558,0.26062545,-0.71641546,3.6418438,-3.8152218,-1.1279345,-5.711663,-4.743016,0.340271,3.2930672
13.900581,24.082066,5.964917,-0.26315165,-0.6056153,-1.7375009,0.39059848,-0.70615244,0.61769533,0.45560724,-0.326527,0.38484326,0.6599018,0.4945221,1.1634399,-0.5341694,-1.6407346,-1.033435,2.3455536,1.4671272,-0.9447862,1.2214495,-0.58456254,-1.6778076,-1.0053027,2.3130736,1.4059893,-0.99189806,-1.2552257,1.1282163,0.8435018,-0.47825894,0.5912033,0.48595667,0.24009742,1.6287079,-0.6604824,1.2714775,-3.2442973,0.014217049,0.4815126,0.18221283,-0.4120493,0.9931716,0.777711,-0.13032179,0.07565706,0.6102932,-0.22086635,0.6974688,0.37932092,1.0,0.0,0.0,0.0,0.0,0.0,0.0,-2.278708,0.2604824,-0.72147745,2.1747828,-3.7839174,-2.1320224,-10.486788,-3.7094831,0.30212402,2.4290233
13.559638,27.758059,7.5164094,1.5261288,-0.5928338,-1.5915179,0.36956182,-0.6879742,0.6081801,0.47680676,-0.34463856,0.32561716,0.6510944,0.5250355,1.152652,-0.5237445,-1.630127,-1.0397666,2.3456354,1.4710988,-0.93939453,1.2090498,-0.57351327,-1.6694171,-1.0107596,2.318624,1.4108378,-0.9893241,-1.2346413,1.0974408,0.83718646,-0.5683863,0.5430594,0.48521832,0.263088,1.5962906,-0.6603403,1.2755525,-3.2410536,0.014202835,0.38284522,0.1803894,-0.40514374,0.9966225,0.7762001,-0.13497692,0.07755331,0.6109665,-0.16245556,0.689432,0.3288678,1.0,0.0,0.0,0.0,0.0,0.0,0.0,-2.2462907,0.2603403,-0.7255525,2.126503,-2.9951096,-0.725317,-9.088421,-4.7139525,0.1419425,2.2592664
10.083031,20.071524,4.470326,2.7134137,-0.51659006,-1.7086326,0.23164828,-0.6606954,0.5584095,0.43508464,-0.35827282,0.15496962,0.66174984,0.5291338,1.1429803,-0.5176723,-1.6259087,-1.0465869,2.334121,1.4770128,-0.9364107,1.196921,-0.56290364,-1.6612384,-1.0169413,2.3232627,1.4156843,-0.98654604,-1.2055367,1.0490391,0.81096905,-0.6351708,0.4378327,0.48515877,0.2823938,1.5639038,-0.66019917,1.2786416,-3.2378132,0.014188635,0.28427652,0.17912292,-0.39839268,0.9995411,0.7745192,-0.13914639,0.07992416,0.6118581,-0.1078421,0.67083746,0.27491227,1.0,0.0,0.0,0.0,0.0,0.0,0.0,-2.213904,0.26019916,-0.72864157,2.9931307,-4.7614813,-2.7322292,-6.7870736,-10.437435,0.18027425,1.8643498
0.12091255,-6.6918974,-5.6302266,4.110982,0.17020112,-2.1191485,-0.0052508637,-0.63447046,0.43141627,0.36972344,-0.36091146,-0.07325675,0.66071475,0.52006936,1.133474,-0.51976204,-1.6242661,-1.0530324,2.315937,1.4817559,-0.9345391,1.1851526,-0.55328965,-1.6536014,-1.0235617,2.3262572,1.4205271,-0.9836116,-1.167015,0.9323756,0.74755627,-0.67191875,0.25333834,0.48452803,0.29659587,1.5315475,-0.660058,1.2807457,-3.234576,0.014174449,0.18580635,0.1782875,-0.3921547,1.0017745,0.77287686,-0.14275317,0.08288322,0.6127097,-0.07014615,0.6084613,0.20174171,1.0,0.0,0.0,0.0,0.0,0.0,0.0,-2.1815476,0.26005802,-0.73074573,3.958273,-11.621571,-6.426835,-3.8928509,-18.434816,0.06945133,1.2649953
-28.57476,-112.27226,-43.833767,-0.81306696,3.5123422,-4.0833597,-0.25175852,-0.56863546,-0.054036375,0.23572505,-0.42723584,-0.21372467,0.655697,0.4775214,1.1282891,-0.5586933,-1.630029,-1.0662853,2.3048847,1.4860969,-0.93585944,1.1740137,-0.54701066,-1.6471641,-1.0306876,2.3271613,1.4253508,-0.9806037,-1.09516,0.525953,0.6092148,-0.727748,0.03527759,0.4815365,0.30067933,1.4992256,-0.6599169,1.281866,-3.231342,0.014160278,0.08743464,0.1774025,-0.3879633,1.0025327,0.77159923,-0.14508589,0.0857192,0.6133814,-0.08890603,0.3560238,0.030408058,1.0,0.0,0.0,0.0,0.0,0.0,0.0,-2.1492257,0.25991687,-0.73186594,7.4579716,-40.771317,-13.779057,-6.100583,-22.08505,-0.357306,-0.046789646
-37.695248,-176.0,-77.11633,-16.066948,5.3548446,-6.819814,-0.23931554,-0.26622042,-0.50087434,-0.11867117,-0.5039409,-0.37237677,0.57594067,0.45584765,1.1473917,-0.5970981,-1.6590313,-1.0810816,2.2899237,1.4829448,-0.93501896,1.1650587,-0.54467034,-1.647435,-1.0387404,2.3289084,1.4316069,-0.9760928,-0.8275362,0.13588665,-0.23801425,-0.83189374,0.21814218,0.6720762,0.49953595,1.466938,-0.65977573,1.2820032,-3.2281113,0.01414612,-0.010838723,0.1763649,-0.38762856,1.0007266,0.7709176,-0.1450402,0.08772733,0.61396515,-0.10564647,-0.074552156,-0.2525542,1.0,0.0,0.0,0.0,0.0,0.0,0.0,-2.116938,0.25977573,-0.73200315,27.238392,-39.263687,-84.3494,-10.686838,17.423689,18.570566,19.397598
27.026287,-148.88467,-50.898354,-41.53475,1.6892294,-7.7227674,1.0890313,0.4929908,-0.6588058,-0.20152877,-0.45190454,-0.5926675,0.6313179,0.45398727,1.2143579,-0.61055094,-1.6675879,-1.0839309,2.2696416,1.4947387,-0.9306941,1.1620337,-0.5480511,-1.6524646,-1.0472968,2.329122,1.4382712,-0.9710784,-0.12683359,-0.4963583,-0.5925551,-0.8629997,-0.04409852,0.66288584,0.5019156,1.4346809,-0.6596346,1.2811584,-3.2248838,0.014131977,-0.10901383,0.17634201,-0.39086342,0.9962749,0.76991373,-0.14271106,0.08847602,0.61566085,0.03133975,-0.4070926,-0.5099208,1.0,0.0,0.0,0.0,0.0,0.0,0.0,-2.084681,0.25963458,-0.73115844,70.33974,-63.293873,-35.789524,-2.9201388,-26.214588,-1.3970852,0.16354322
26.827513,-115.25853,-38.008213,-27.792053,1.5182892,-6.3836093,0.69244915,0.6054694,-0.74846333,-0.53298783,-0.2587365,-0.63972455,0.6813001,0.3348887,1.2225807,-0.62289745,-1.7057635,-1.0731704,2.2651496,1.5064012,-0.9375895,1.1659151,-0.55714345,-1.660794,-1.055012,2.326406,1.444718,-0.9662757,0.55738163,-1.0472709,-0.91168535,-0.7400094,-0.34652045,0.6362453,0.4735624,1.4024544,-0.65949345,1.2793326,-3.2216597,0.014117848,-0.20709078,0.1775589,-0.3969221,0.9897187,0.76842153,-0.13881113,0.08809508,0.61846495,0.14972353,-0.6713147,-0.7051974,1.0,0.0,0.0,0.0,0.0,0.0,0.0,-2.0524545,0.25949344,-0.7293326,67.6566,-55.21076,-31.466436,12.580633,-30.001554,-3.3884645,-2.6763856
25.6837,-61.32734,-19.475454,-14.503965,0.7840111,-4.546537,0.34940627,0.66496855,-0.79205483,-0.6575211,-0.2333862,-0.6018411,0.67182523,0.15358438,1.232412,-0.63634896,-1.7265462,-1.0783507,2.266222,1.5119005,-0.95091724,1.1753451,-0.57044816,-1.6716335,-1.0612471,2.3210998,1.450852,-0.9619403,1.0677389,-1.4253352,-1.1387208,-0.58357847,-0.59102124,0.6034532,0.42116544,1.3702621,-0.6593523,1.2765268,-3.2184386,0.014103733,-0.30506968,0.17980576,-0.40488338,0.98170626,0.7666445,-0.1339782,0.08699388,0.6218828,0.25059754,-0.8346664,-0.8364221,1.0,0.0,0.0,0.0,0.0,0.0,0.0,-2.0202622,0.2593523,-0.7265268,49.922096,-37.94198,-21.917248,15.921831,-24.222385,-3.9572597,-4.9601736
23.514072,-9.298349,-2.4346137,-4.5448537,-0.17057818,-2.8136919,0.0526097,0.7021752,-0.8232243,-0.68024534,-0.25612828,-0.62095016,0.69203746,-0.1692149,1.2455626,-0.6527706,-1.739658,-1.08686,2.2590048,1.5200558,-0.9788618,1.1882559,-0.586179,-1.6839931,-1.0662482,2.3139014,1.4567057,-0.95835257,1.3628035,-1.6228116,-1.2665286,-0.47168016,-0.76247275,0.57777405,0.33880758,1.3381042,-0.65921116,1.2727419,-3.215221,0.014089633,-0.4029506,0.1829071,-0.41376686,0.9727834,0.7647884,-0.12865223,0.08566046,0.6254675,0.3358193,-0.90138716,-0.9168124,1.0,0.0,0.0,0.0,0.0,0.0,0.0,-1.9881042,0.25921115,-0.7227419,28.711796,-19.867945,-12.198687,11.380852,-17.049265,-3.0439377,-8.017415
16.598644,34.00645,12.193396,8.882487,-0.27957416,-1.0458308,-0.21366532,0.71933514,-0.8279282,-0.6581654,-0.16612208,-0.61333066,0.69433075,-0.2760362,1.2601894,-0.66897184,-1.7498096,-1.0828604,2.2525682,1.5261388,-0.9859562,1.202767,-0.60280156,-1.6968849,-1.070101,2.3055434,1.4623533,-0.95562506,1.4795718,-1.6757134,-1.295837,-0.3564452,-0.86034125,0.56006396,0.2510877,1.3059769,-0.65907,1.267979,-3.2120063,0.014075546,-0.5007337,0.18654633,-0.42275906,0.96353245,0.76303095,-0.12332218,0.08440866,0.62884855,0.38185722,-0.8918885,-0.9356657,1.0,0.0,0.0,0.0,0.0,0.0,0.0,-1.9559768,0.25907,-0.717979,11.400151,-5.402899,-2.6633263,11.603326,-9.889793,-1.9123912,-8.675587
2.9765997,58.461575,20.215645,24.701994,0.6787156,0.42765033,-0.54813117,0.71079606,-0.83090764,-0.6330672,-0.001207395,-0.570557,0.70557165,-0.32554963,1.2738466,-0.68589234,-1.7601916,-1.0702218,2.2484877,1.5329105,-0.98818004,1.2175127,-0.6193316,-1.7095611,-1.0723555,2.2967238,1.4678789,-0.95373774,1.4733281,-1.6458099,-1.2578435,-0.18159202,-0.8903321,0.5506801,0.16805802,1.27388,-0.6589289,1.262239,-3.208795,0.014061473,-0.598419,0.1901741,-0.43139935,0.9545371,0.7615885,-0.11852911,0.0832559,0.63166624,0.36785758,-0.8480286,-0.8957704,1.0,0.0,0.0,0.0,0.0,0.0,0.0,-1.92388,0.25892887,-0.71223897,-0.4850626,2.8527021,3.9079428,17.53946,-3.3241987,-0.7517934,-8.292019
-7.282382,62.29393,19.804407,31.31675,1.2596405,0.7978051,-0.7653801,0.7075191,-0.8282747,-0.6875184,0.08523124,-0.5887028,0.6832848,-0.32298666,1.2882646,-0.70215905,-1.7783129,-1.0638324,2.2378535,1.5362074,-0.9860364,1.2317702,-0.6353171,-1.721976,-1.0727541,2.2877898,1.4733206,-0.95259047,1.410898,-1.5832864,-1.2358164,0.0075642364,-0.8959851,0.54272497,0.09674997,1.2418137,-0.6587877,1.2555227,-3.205587,0.014047414,-0.6960067,0.19345474,-0.43963146,0.94605565,0.760674,-0.114453584,0.08225588,0.6336476,0.32555288,-0.80820847,-0.84037787,1.0,0.0,0.0,0.0,0.0,0.0,0.0,-1.8918136,0.25878772,-0.7055227,-5.9162617,6.0911894,2.2550821,19.017237,-0.97925663,-0.5295396,-7.1848793
-3.5818062,55.653446,16.284378,22.652958,0.63377523,0.16937491,-0.54978967,0.7110235,-0.82887703,-0.7229431,-0.0003660752,-0.6003409,0.6593785,-0.3538997,1.3028725,-0.7182048,-1.7942704,-1.0727907,2.2277558,1.5392585,-0.9879804,1.2453562,-0.6507027,-1.7343967,-1.0720828,2.2788634,1.4786669,-0.9520917,1.3421813,-1.5241765,-1.2442435,0.08735115,-0.8924746,0.5323009,0.034013636,1.2097816,-0.6586466,1.2478313,-3.2023818,0.01403337,-0.79349685,0.19651794,-0.44754696,0.93786204,0.76025206,-0.11073382,0.08153232,0.6349073,0.3104228,-0.77992046,-0.8198971,1.0,0.0,0.0,0.0,0.0,0.0,0.0,-1.8597816,0.25864658,-0.69783133,-6.5711737,5.7700634,-0.8682251,8.088395,0.024580956,-0.95294714,-6.3474684
6.2503486,49.581623,14.147285,10.826111,-0.3677913,-0.5283906,-0.18308747,0.7153598,-0.8237738,-0.7284846,-0.08555198,-0.62589747,0.655154,-0.37811005,1.3168921,-0.7330801,-1.8072451,-1.0806379,2.2162738,1.5441823,-0.9899027,1.2583967,-0.66561437,-1.7469985,-1.0715029,2.2699256,1.4839064,-0.9521594,1.2921971,-1.4805695,-1.2657348,0.04861312,-0.89487064,0.5206928,-0.020676093,1.177784,-0.65850544,1.2391658,-3.1991801,0.014019339,-0.8908895,0.19974518,-0.4551916,0.9295723,0.7600905,-0.106884696,0.08119484,0.6358029,0.3363848,-0.7541248,-0.8390607,1.0,0.0,0.0,0.0,0.0,0.0,0.0,-1.827784,0.25850543,-0.6891658,-4.804611,4.256773,-2.2212267,-3.796547,-0.45671463,-1.2642741,-5.538876
16.265917,44.446304,13.235331,1.2172623,-1.1241344,-1.0213984,0.18033428,0.72648257,-0.82904047,-0.72117734,-0.15390939,-0.63686234,0.6684425,-0.35434735,1.331045,-0.7485184,-1.8191162,-1.0868939,2.2062395,1.5507506,-0.9875941,1.2711607,-0.68027043,-1.7597816,-1.0719111,2.2609344,1.4890429,-0.9526868,1.2716216,-1.4608958,-1.2827233,-0.07047231,-0.9009997,0.51025057,-0.06349915,1.1458168,-0.6583662,1.2295271,-3.1959817,0.014005323,-0.9881848,0.20348358,-0.46257687,0.9208683,0.75990033,-0.10256013,0.08124843,0.63673514,0.3948873,-0.7276798,-0.8876206,1.0,0.0,0.0,0.0,0.0,0.0,0.0,-1.7958168,0.2583662,-0.6795271,-1.9680738,1.8991947,-1.7983198,-11.848649,-0.74477196,-1.2982845,-4.3129673
20.054111,42.556957,13.37601,-2.1277618,-1.3437401,-1.0746033,0.37573284,0.71057427,-0.82884777,-0.7017407,-0.20432141,-0.6485211,0.679747,-0.3062543,1.3422182,-0.7631552,-1.8299557,-1.0923432,2.1960824,1.5570176,-0.9833122,1.2837874,-0.69485307,-1.7725971,-1.0737231,2.2518516,1.4940916,-0.9535451,1.2599686,-1.4575013,-1.281571,-0.21772017,-0.91116375,0.50184065,-0.093232244,1.1138802,-0.65822697,1.2189163,-3.1927865,0.0139913205,-1.0853828,0.20787811,-0.46967793,0.9116012,0.759471,-0.097637616,0.081635684,0.6379705,0.4619568,-0.69787174,-0.9461801,1.0,0.0,0.0,0.0,0.0,0.0,0.0,-1.7638801,0.25822696,-0.6689163,-1.0987997,0.29053688,-0.019598007,-14.651415,-1.1181116,-1.1560678,-2.9662504
22.709158,40.85146,13.280251,-4.6307206,-1.5068326,-1.1036103,0.506949,0.7058311,-0.83225787,-0.70199895,-0.29223084,-0.65602654,0.6815491,-0.2796531,1.3543705,-0.77807885,-1.8427969,-1.1029462,2.186249,1.5622466,-0.9815104,1.2963492,-0.7094834,-1.7853572,-1.0771563,2.2426581,1.4990641,-0.9546313,1.2550436,-1.4650315,-1.2747418,-0.38505277,-0.92252636,0.49453712,-0.11358662,1.081974,-0.65808773,1.2073342,-3.1895943,0.013977332,-1.1824837,0.21298599,-0.47646523,0.9016844,0.7586663,-0.09206003,0.08230679,0.63966864,0.5346245,-0.6654894,-1.0133107,1.0,0.0,0.0,0.0,0.0,0.0,0.0,-1.731974,0.25808772,-0.65733415,-0.4250288,-0.7864952,0.4974842,-16.63276,-1.2072921,-1.0988593,-1.9949019
15.895727,48.55051,16.622122,4.487085,-0.6710255,-0.37596163,0.3660671,0.6896673,-0.82338583,-0.65096176,-0.21878812,-0.6628585,0.70833594,-0.15953663,1.3653159,-0.79182196,-1.8504534,-1.0990351,2.1763723,1.5698977,-0.970585,1.3088232,-0.72416806,-1.7977989,-1.0815508,2.2333465,1.5040022,-0.9557948,1.2449491,-1.4697369,-1.2343284,-0.4574035,-0.9347552,0.4927242,-0.11708937,1.0501022,-0.6579485,1.1947817,-3.1864054,0.013963358,-1.2794875,0.21856308,-0.48289013,0.8913572,0.75750303,-0.08615774,0.083141044,0.6417581,0.57319975,-0.62671393,-1.0455744,1.0,0.0,0.0,0.0,0.0,0.0,0.0,-1.7001022,0.2579485,-0.64478165,-0.9296894,-0.51887035,3.9110422,-7.140732,-1.3633728,-0.39348006,-0.28225183
4.521717,52.692825,17.794907,15.901876,0.53968525,0.26415005,0.06792509,0.6770704,-0.826705,-0.6347063,-0.11528422,-0.657557,0.7136109,-0.08194319,1.3765303,-0.8068386,-1.8612695,-1.0930792,2.1675909,1.5753633,-0.96398914,1.3211523,-0.73890424,-1.8097675,-1.0857584,2.2239432,1.5089422,-0.9569106,1.2292311,-1.4751463,-1.1845316,-0.40827185,-0.9426328,0.49445817,-0.10957168,1.0182648,-0.65780926,1.18126,-3.1832197,0.013949397,-1.3763943,0.22422409,-0.48899746,0.8809798,0.75616336,-0.0803829,0.0839896,0.64397305,0.56941175,-0.5967389,-1.04126,1.0,0.0,0.0,0.0,0.0,0.0,0.0,-1.6682647,0.25780925,-0.63126,-1.4941692,-0.6191015,4.9655914,5.011928,-1.0148168,0.15571713,0.83159655
2.3894339,50.754112,16.376732,16.73521,0.72544014,0.1817629,-0.0024117827,0.6800178,-0.8279181,-0.6656686,-0.14693421,-0.64344937,0.70167977,-0.042931013,1.3891541,-0.82169604,-1.8763343,-1.1004518,2.1595984,1.5791103,-0.9612037,1.3333613,-0.7536862,-1.8214672,-1.089371,2.2145324,1.5138956,-0.9579148,1.2184118,-1.4795177,-1.1648881,-0.34505022,-0.94161034,0.49546596,-0.097179115,0.9864578,-0.65767,1.1667699,-3.180037,0.01393545,-1.4732043,0.22981644,-0.49487972,0.8706325,0.7547573,-0.07481446,0.08482276,0.64618057,0.5624844,-0.57648784,-1.0383244,1.0,0.0,0.0,0.0,0.0,0.0,0.0,-1.6364578,0.25767002,-0.61676985,-1.0056257,-0.52604675,1.9851208,6.4436316,-0.13017654,0.08252859,1.3090982
6.5011606,49.473007,15.728262,12.729548,0.31388748,-0.07565564,0.069466315,0.68763024,-0.82564056,-0.6762509,-0.19336954,-0.64494985,0.6954776,-0.06871962,1.4021243,-0.83625025,-1.8890922,-1.1087079,2.1500373,1.5834434,-0.96478677,1.3455359,-0.76848817,-1.833144,-1.0926173,2.2051444,1.5188509,-0.95881987,1.217357,-1.4806151,-1.168593,-0.31731948,-0.9383171,0.495072,-0.08814653,0.9546814,-0.6575308,1.1513125,-3.1768577,0.013921518,-1.5699174,0.23546219,-0.5005522,0.8602126,0.75326794,-0.06930698,0.08570748,0.6484119,0.57096946,-0.55556864,-1.0488559,1.0,0.0,0.0,0.0,0.0,0.0,0.0,-1.6046814,0.25753078,-0.60131246,-0.035762787,-0.19388199,-0.36764145,2.9021084,0.12762547,-0.13244152,0.9617418
-1.7552109,52.99021,16.403858,20.407223,1.0743023,0.32489318,-0.1703414,0.6726015,-0.82588303,-0.6559071,-0.028668912,-0.6660207,0.71060795,-0.029921882,1.412796,-0.8510765,-1.8987347,-1.0954841,2.1385424,1.5899117,-0.9618121,1.3576609,-0.7832911,-1.8448284,-1.094971,2.195726,1.5238158,-0.9596181,1.2110577,-1.480492,-1.1680728,-0.2074977,-0.9438295,0.4971963,-0.07690706,0.9229355,-0.65739155,1.1348886,-3.1736815,0.013907599,-1.6665338,0.24098969,-0.5060692,0.8498684,0.75182855,-0.06403105,0.08664754,0.6504967,0.5530506,-0.54188347,-1.0351548,1.0,0.0,0.0,0.0,0.0,0.0,0.0,-1.5729355,0.25739154,-0.58488864,-0.5658865,-0.0947237,0.14696121,11.109397,-0.81219673,0.23878217,1.1724025
-1.367651,51.000786,15.194204,18.74699,0.98823,0.16123731,-0.18107311,0.6711879,-0.8261812,-0.6823093,-0.037769295,-0.6430377,0.6876179,-0.09194172,1.4247797,-0.8659092,-1.9130594,-1.0987478,2.131422,1.5925776,-0.9688123,1.3697249,-0.79808927,-1.8566368,-1.0963633,2.1863189,1.5287844,-0.960361,1.205118,-1.479912,-1.1848342,-0.11601484,-0.9406818,0.49654078,-0.07333635,0.8912201,-0.6572523,1.1174994,-3.1705084,0.013893695,-1.7630537,0.24638367,-0.51148605,0.8395962,0.7505076,-0.05896658,0.08765229,0.6523636,0.5403466,-0.53312814,-1.0300629,1.0,0.0,0.0,0.0,0.0,0.0,0.0,-1.5412201,0.2572523,-0.56749934,-0.5255699,-0.054836273,-1.5794039,9.292605,0.06403923,-0.08355975,0.39560497
-0.039720535,47.978195,13.534567,15.308693,0.64234495,-0.038567007,-0.15486836,0.6591207,-0.8253681,-0.70984125,-0.05730046,-0.6606105,0.68107814,-0.19661577,1.435637,-0.8806261,-1.9276209,-1.1020933,2.1202579,1.5968922,-0.9800226,1.3816878,-0.81287694,-1.8687408,-1.0971663,2.1768966,1.5337359,-0.9611592,1.193518,-1.4787748,-1.2188188,-0.06780919,-0.9434473,0.4943636,-0.08193373,0.85953903,-0.6571131,1.0991457,-3.1673386,0.013879804,-1.859477,0.25172424,-0.51681805,0.8292532,0.7493068,-0.053932242,0.08881256,0.65402055,0.5379995,-0.5245495,-1.0412021,1.0,0.0,0.0,0.0,0.0,0.0,0.0,-1.509539,0.25711307,-0.54914564,-1.0768652,0.0025510788,-3.330493,4.9824924,-0.50172806,-0.30848384,-0.84394217
5.830871,44.760216,12.629169,8.954517,-0.018004715,-0.29760304,0.021272883,0.6569022,-0.83145297,-0.7226687,-0.11304465,-0.6798187,0.67820114,-0.24223888,1.4473779,-0.89602226,-1.9410076,-1.1084708,2.1089146,1.601556,-0.9853831,1.3935381,-0.82768273,-1.8812149,-1.0979998,2.1673903,1.5386568,-0.96208334,1.1826906,-1.4814707,-1.2570263,-0.088006765,-0.9538241,0.4907551,-0.09592828,0.8278923,-0.65697384,1.0798284,-3.164172,0.013865927,-1.9558039,0.25720215,-0.52200603,0.81863296,0.7481157,-0.048698004,0.09021728,0.6556006,0.55553323,-0.50864136,-1.0744485,1.0,0.0,0.0,0.0,0.0,0.0,0.0,-1.4778923,0.25697383,-0.52982837,-0.9971857,-0.3668785,-3.8080215,-1.8493369,-1.2243152,-0.56058764,-1.3915002
7.9394593,41.19517,11.070379,3.632481,-0.56798655,-0.4148347,0.17144443,0.61944026,-0.8317143,-0.7397567,-0.20776331,-0.7046988,0.67262566,-0.30443296,1.4554821,-0.91085416,-1.9551905,-1.1187761,2.0969205,1.6059194,-0.99252665,1.4051348,-0.8425181,-1.894078,-1.0996325,2.1577086,1.5435358,-0.9631896,1.1523999,-1.484534,-1.2963907,-0.18779977,-0.97343594,0.48584846,-0.11554729,0.7962761,-0.6568346,1.0595485,-3.1610084,0.013852064,-2.0520341,0.26293182,-0.52697945,0.8075092,0.7468018,-0.043013994,0.091963924,0.6572515,0.58479565,-0.4846944,-1.1304773,1.0,0.0,0.0,0.0,0.0,0.0,0.0,-1.4462761,0.2568346,-0.5095485,-2.9022932,-0.38707256,-4.0067673,-9.785858,-2.119577,-0.7892132,-1.9713149
4.3822527,44.984814,12.257967,5.318074,-0.43844104,-0.05336149,0.18694772,0.5772496,-0.82325786,-0.72108096,-0.22248685,-0.72407806,0.6994633,-0.27942854,1.4628597,-0.9248439,-1.9661862,-1.1218812,2.085301,1.6134821,-0.99113244,1.4162623,-0.8573401,-1.9071529,-1.1023238,2.1477904,1.5483881,-0.96446085,1.0999798,-1.4816436,-1.3113059,-0.29575595,-0.9987872,0.4842587,-0.13098353,0.7646904,-0.65669537,1.0383071,-3.1578481,0.013838215,-2.1481683,0.26887512,-0.53166294,0.7958762,0.7453101,-0.036880735,0.094066836,0.6590175,0.60245794,-0.4534416,-1.1796821,1.0,0.0,0.0,0.0,0.0,0.0,0.0,-1.4146904,0.25669536,-0.48830706,-5.08523,0.21207333,-1.5799999,-10.605425,-2.7279973,-0.4384756,-1.5584737
-8.941322,48.183308,11.904636,12.190857,0.3583982,0.51536775,0.023238502,0.4933875,-0.81562936,-0.7083913,-0.22533731,-0.74000156,0.70886177,-0.2513412,1.465601,-0.93890303,-1.977992,-1.1248575,2.0737903,1.6192743,-0.989595,1.426541,-0.8720896,-1.9202144,-1.1058981,2.1376052,1.5532423,-0.96584654,1.004473,-1.4730895,-1.304444,-0.37738776,-1.0263044,0.4851257,-0.14122668,0.7331352,-0.6565571,1.016105,-3.154691,0.013824379,-2.2442064,0.27475357,-0.5360842,0.78387153,0.74373204,-0.030450318,0.096487224,0.6607765,0.58697337,-0.4284066,-1.2126385,1.0,0.0,0.0,0.0,0.0,0.0,0.0,-1.3831352,0.25655708,-0.46610504,-9.349155,0.7648468,0.6198883,-7.95995,-3.0162811,-0.101196766,-1.0530263
-19.799595,44.31311,8.684215,14.66007,0.8537016,0.7078049,-0.06230256,0.40729117,-0.81843525,-0.7301108,-0.30949655,-0.7364986,0.69069916,-0.2685664,1.4672701,-0.9539331,-1.9932255,-1.1368479,2.0639553,1.6223122,-0.9927032,1.4355856,-0.88677144,-1.933253,-1.1104033,2.1272025,1.5580927,-0.96733046,0.87206936,-1.4669154,-1.3037994,-0.4739969,-1.0461501,0.48456264,-0.15095212,0.70161057,-0.65641975,0.9929434,-3.151537,0.013810557,-2.3401484,0.2803383,-0.54034233,0.7714921,0.742165,-0.023695365,0.09918301,0.66241395,0.55106604,-0.4150337,-1.2514057,1.0,0.0,0.0,0.0,0.0,0.0,0.0,-1.3516105,0.25641975,-0.4429434,-12.989926,0.5111456,-0.0076532364,-9.4007015,-2.2853136,-0.24389029,-1.0077327
-41.158695,43.638046,5.26266,23.003004,1.9800789,1.2859774,-0.27442527,0.25316256,-0.80777603,-0.71774286,-0.33266625,-0.75065094,0.69919014,-0.14113909,1.4609019,-0.967549,-2.0050273,-1.14367,2.0521374,1.6280117,-0.98144436,1.4428107,-0.90136266,-1.9462287,-1.1157477,2.116609,1.5629488,-0.96880484,0.6736681,-1.4570073,-1.2954342,-0.5535672,-1.0652328,0.48551935,-0.1465402,0.6701164,-0.6562824,0.968823,-3.148386,0.0137967495,-2.4359946,0.2852249,-0.5446062,0.75879383,0.7407741,-0.016640836,0.10211402,0.66373897,0.47059482,-0.4201192,-1.2807357,1.0,0.0,0.0,0.0,0.0,0.0,0.0,-1.3201164,0.25628242,-0.418823,-19.527245,0.84569454,0.8096218,-7.635963,-2.315116,-0.02349019,0.3845483
-91.274185,28.131392,-9.010368,35.186596,4.0881863,2.0830765,-0.6764523,-0.109977156,-0.80861074,-0.73581463,-0.4925302,-0.72687435,0.6750147,-0.029112792,1.4318129,-0.98222375,-2.0198102,-1.1650007,2.0439217,1.6304502,-0.9717161,1.4466845,-0.9158833,-1.9592083,-1.1223795,2.105928,1.5677935,-0.9701438,0.29370856,-1.4512193,-1.2987206,-0.69771695,-1.0712489,0.48352534,-0.12999831,0.6386528,-0.6561451,0.9437449,-3.1452382,0.013782956,-2.531745,0.28865433,-0.5492897,0.7456385,0.73991376,-0.00902672,0.10523111,0.6643588,0.3006376,-0.4745328,-1.3315626,1.0,0.0,0.0,0.0,0.0,0.0,0.0,-1.2886528,0.2561451,-0.3937449,-37.462055,0.3111124,-0.3116846,-13.818288,-1.2627602,-0.3785491,1.549226
-145.5487,15.46541,-22.919659,47.41515,6.33123,3.1367917,-0.94646335,-0.5443918,-0.7977086,-0.7114007,-0.7015214,-0.6613899,0.6407085,0.28606868,1.3922453,-0.99565417,-2.0303483,-1.1925317,2.039789,1.6318643,-0.9415369,1.4452139,-0.9303286,-1.9721191,-1.1311896,2.0954032,1.572579,-0.9710784,-0.29156047,-1.4438857,-1.2881066,-0.9387736,-1.0500906,0.47548532,-0.081509635,0.6072273,-0.65600777,0.91771,-3.1420937,0.013769176,-2.6273994,0.28963852,-0.554842,0.7318245,0.7399037,-0.00045339632,0.10836563,0.6639271,0.03037874,-0.57285094,-1.4020327,1.0,0.0,0.0,0.0,0.0,0.0,0.0,-1.2572273,0.25600776,-0.36771,-57.742233,0.25641918,1.1618853,-23.075317,1.017642,-1.2396574,4.7912283
-115.19489,64.18547,5.2804813,47.92015,6.0806227,4.773052,-0.27286604,-0.6476856,-0.74891394,-0.23540993,-0.73624784,-0.5352438,0.6921396,0.55842763,1.3804454,-1.00522,-1.9956601,-1.2048143,2.0418787,1.641793,-0.91523564,1.438275,-0.944484,-1.9827068,-1.1422484,2.0854926,1.5773398,-0.9713168,-0.8259055,-1.407176,-0.98311543,-1.1588193,-0.9741463,0.475772,-0.003355355,0.57583237,-0.65587044,0.8907193,-3.1389523,0.013755409,-2.7229583,0.28802872,-0.56077003,0.718133,0.74033624,0.008307245,0.110668465,0.66301256,-0.22777256,-0.590147,-1.361654,1.0,0.0,0.0,0.0,0.0,0.0,0.0,-1.2258323,0.25587043,-0.34071928,-52.831627,3.3295631,30.273485,-21.209478,6.682956,-0.109398365,8.1777525
-70.99408,72.34479,15.852858,35.94187,4.5113816,3.885356,0.04817284,-0.63977563,-0.76462275,-0.28649548,-0.7381882,-0.46877554,0.68042874,0.5198108,1.3742974,-1.0209463,-2.0113564,-1.2160672,2.038615,1.6453826,-0.9193357,1.4274222,-0.9583571,-1.9905117,-1.1549532,2.076532,1.5821062,-0.9708371,-1.1702352,-1.3812126,-0.7146261,-1.3058778,-0.8712496,0.4770158,0.06677906,0.5444679,-0.6557331,0.8627737,-3.135814,0.013741656,-2.8184216,0.2844429,-0.5666609,0.7049275,0.7408384,0.016812501,0.11173982,0.66211027,-0.40567407,-0.5787384,-1.3093041,1.0,0.0,0.0,0.0,0.0,0.0,0.0,-1.1944679,0.2557331,-0.3127737,-34.029316,2.4252176,26.408731,-14.115238,9.855806,0.115162134,7.5210795
-47.466503,53.662445,9.124486,24.386211,3.0640426,2.0948904,-0.018171668,-0.6895552,-0.7736822,-0.5380663,-0.7593746,-0.46100262,0.65740836,0.5448796,1.3584666,-1.0357254,-2.0443182,-1.2308908,2.0304315,1.647847,-0.9163492,1.4143244,-0.97208714,-1.9974124,-1.1686404,2.068502,1.5868632,-0.9697175,-1.3554206,-1.3707957,-0.6828885,-1.3877022,-0.78157157,0.474388,0.12826473,0.513134,-0.6555958,0.8338742,-3.1326787,0.013727917,-2.9137895,0.27960205,-0.57256603,0.69180644,0.74137527,0.0254265,0.11195838,0.66119707,-0.5168786,-0.5841095,-1.3140491,1.0,0.0,0.0,0.0,0.0,0.0,0.0,-1.163134,0.25559577,-0.2838742,-18.22927,0.89621544,2.9149532,-7.615638,8.625185,-0.46355724,6.514667
-32.333523,40.10848,3.532448,16.796974,2.0463858,0.83430666,-0.12825541,-0.7289988,-0.7694168,-0.6753662,-0.7627671,-0.4370775,0.65352035,0.531466,1.3414245,-1.0490289,-2.064949,-1.244917,2.024794,1.6522152,-0.9165709,1.4002138,-0.9857676,-2.005361,-1.18273,2.061235,1.59158,-0.9680762,-1.4291246,-1.3676276,-0.83206046,-1.4142948,-0.70929134,0.4696155,0.17684436,0.4818306,-0.65545845,0.8040218,-3.1295466,0.013714192,-3.009062,0.27396774,-0.5786257,0.67829865,0.74201304,0.034605537,0.111831084,0.66008556,-0.58476955,-0.60219306,-1.3632735,1.0,0.0,0.0,0.0,0.0,0.0,0.0,-1.1318306,0.25545844,-0.25402176,-7.1666,0.16782284,-14.945316,-2.1188974,6.8510413,-0.8467078,5.0723195
-24.94294,38.98872,3.4115021,14.495678,1.7381358,0.5076948,-0.19608898,-0.77505136,-0.7577405,-0.71499443,-0.76027185,-0.35631603,0.6463268,0.49204385,1.3227087,-1.0615417,-2.0768604,-1.2587571,2.0256033,1.6562127,-0.9188718,1.3857371,-0.9993994,-2.0152183,-1.1968176,2.0547385,1.5962435,-0.96604776,-1.4534829,-1.3621397,-1.0366026,-1.4054118,-0.6307459,0.46377143,0.21200363,0.4505577,-0.6553211,0.7732173,-3.1264179,0.0137004815,-3.1042392,0.26776505,-0.5848808,0.6642359,0.7428019,0.044513226,0.111540675,0.65865195,-0.6383408,-0.621102,-1.4209148,1.0,0.0,0.0,0.0,0.0,0.0,0.0,-1.1005577,0.25532112,-0.22321731,-2.276516,0.40307045,-20.379412,1.3820887,7.4811935,-1.0044515,3.6768885
-18.993622,44.071632,6.9170218,14.002478,1.644634,0.6568595,-0.20175245,-0.7959284,-0.7550859,-0.73472923,-0.7438009,-0.29254204,0.6366895,0.42398188,1.3061442,-1.074908,-2.0886912,-1.2711977,2.0254843,1.6599125,-0.92364955,1.3711821,-1.0129759,-2.026937,-1.2106383,2.049066,1.6008459,-0.96377325,-1.4558125,-1.3565242,-1.2167068,-1.3729199,-0.5473467,0.45793048,0.23306061,0.41931534,-0.6551838,0.7414617,-3.123292,0.013686784,-3.1993215,0.26107025,-0.5912657,0.649688,0.74374896,0.055058528,0.11103113,0.6568699,-0.68670726,-0.6313684,-1.4667495,1.0,0.0,0.0,0.0,0.0,0.0,0.0,-1.0693153,0.2551838,-0.19146168,-0.110554695,0.43680668,-17.927313,3.6657572,8.038354,-0.9656191,2.2651644
-14.831531,50.388153,11.28941,13.840969,1.6493945,1.0073749,-0.14372276,-0.8128834,-0.75657135,-0.74651164,-0.7357223,-0.21892992,0.6265269,0.40303105,1.2898937,-1.0886331,-2.1015882,-1.2842106,2.027173,1.6634986,-0.92347014,1.3566195,-1.0265162,-2.04001,-1.2241004,2.0442863,1.6053911,-0.9613433,-1.4562237,-1.3533052,-1.3377036,-1.336149,-0.4552706,0.45249793,0.24692307,0.3881035,-0.65504646,0.70875597,-3.1201694,0.0136731,-3.2943087,0.25389862,-0.59767056,0.6348146,0.7448155,0.066043295,0.11012345,0.65479827,-0.73446286,-0.62992823,-1.4951301,1.0,0.0,0.0,0.0,0.0,0.0,0.0,-1.0381035,0.25504646,-0.15875596,0.051283836,0.22101402,-12.050557,4.0233374,8.988344,-0.8586824,1.5754014
-10.382406,56.50839,15.839952,13.447537,1.7715704,1.3418072,-0.09006038,-0.81742626,-0.7572637,-0.75001884,-0.72813886,-0.0673275,0.6008469,0.3023166,1.2748768,-1.1022426,-2.115012,-1.2969142,2.0375535,1.6654758,-0.93111163,1.3420492,-1.0400393,-2.0538268,-1.2372324,2.0407157,1.6098734,-0.9588733,-1.4570527,-1.3521612,-1.3961306,-1.3047348,-0.32475752,0.4461161,0.24782863,0.35692215,-0.65490913,0.6751011,-3.1170497,0.01365943,-3.3892007,0.24625397,-0.6040001,0.61979634,0.74597985,0.077271976,0.10850645,0.6525101,-0.78186315,-0.61936045,-1.5051334,1.0,0.0,0.0,0.0,0.0,0.0,0.0,-1.0069221,0.25490913,-0.12510109,-0.021839142,0.043153763,-5.8335304,3.4124613,12.920893,-0.87819695,0.33373833
-9.103998,61.924168,19.533274,14.580898,2.0929995,1.698759,-0.10345867,-0.82774264,-0.7614434,-0.73322356,-0.6969527,0.09042677,0.58941877,0.20685722,1.259275,-1.1161836,-2.127149,-1.3069277,2.0497584,1.6688153,-0.93818754,1.3274218,-1.0535777,-2.0677924,-1.2500021,2.0387397,1.6142946,-0.95647955,-1.4643444,-1.354691,-1.3968334,-1.2669566,-0.15539493,0.44007686,0.23750222,0.32577515,-0.6547718,0.64049804,-3.1139333,0.013645773,-3.483998,0.23809052,-0.6102009,0.6048266,0.7472771,0.088527925,0.10584649,0.65002793,-0.83426696,-0.6057337,-1.4953616,1.0,0.0,0.0,0.0,0.0,0.0,0.0,-0.9757751,0.2547718,-0.09049803,-0.6962061,-0.30355453,-0.07824898,3.9908648,16.88357,-0.7759392,-0.7419586
-8.790931,65.97338,21.517128,15.682331,1.9062271,1.9268872,-0.17610385,-0.8322984,-0.7585269,-0.73782027,-0.6481,0.046864945,0.59520537,0.14296506,1.2441919,-1.1294303,-2.1415744,-1.3148122,2.0434263,1.6738151,-0.942183,1.3127028,-1.0671313,-2.0815902,-1.262253,2.038076,1.6186682,-0.95424414,-1.4743886,-1.3558786,-1.3742831,-1.2105811,-0.036857132,0.43601012,0.21969543,0.29466248,-0.6546354,0.60494775,-3.11082,0.01363213,-3.5787005,0.22942734,-0.6162176,0.5900425,0.7487484,0.09960808,0.1022305,0.6473044,-0.8836545,-0.58516204,-1.4738815,0.0,1.0,0.0,0.0,0.0,0.0,0.0,-0.94466245,0.25463542,-0.054947734,-0.9886265,-0.15752316,2.256775,5.811572,11.851863,-0.52720904,-1.545018
-8.1762705,66.374016,21.268572,14.57171,1.0652614,1.9840528,-0.20640185,-0.8416852,-0.75727963,-0.75233424,-0.6243084,-0.1749269,0.60420626,0.10087174,1.2285342,-1.1428592,-2.1568236,-1.3246839,2.0205832,1.6790888,-0.94415694,1.2978013,-1.080572,-2.0960095,-1.2743723,2.0379694,1.622326,-0.9522631,-1.4942179,-1.3416842,-1.4575052,-1.2068337,-0.010754515,0.33340085,0.19340788,0.27623367,-0.6564989,0.59774476,-1.6184694,-0.20091633,0.0124177355,0.2204094,-0.6220627,0.57510436,0.75035894,0.11116579,0.09828011,0.644162,-0.9131859,-0.56846625,-1.4994177,0.0,1.0,0.0,0.0,0.0,0.0,0.0,-0.92623365,0.2564989,-0.04774475,-1.1589766,-0.16047955,1.8873453,6.5527678,-1.9918479,-1.052922,-2.0329685
63.024937,176.0,110.0,110.0,2.8925512,13.048876,-1.8469787,-0.6253872,0.58362806,0.7521364,0.66393495,-0.44017056,0.6737287,-0.4025496,1.2352625,-1.0222092,-2.0207958,-1.2079788,1.9939523,1.6896989,-0.99251807,1.2873509,-1.0966777,-2.104604,-1.2704165,2.02688,1.637396,-0.9482615,-0.8923979,-1.6762146,-0.6916734,0.9164627,-1.4393309,1.9195719,0.47553545,0.26006317,-0.6585064,0.5971324,-1.6168512,-0.20071545,-0.08578062,0.21069336,-0.626956,0.56474745,0.75298744,0.11069014,0.0976922,0.6412595,-0.9961411,-0.44771382,-0.88028044,1.0,0.0,0.0,0.0,0.0,0.0,0.0,-0.91006315,0.2585064,-0.047132373,61.10394,-26.25425,67.04678,208.28378,-132.25056,165.00531,30.133146
-11.79693,176.0,89.64128,86.97371,6.68855,6.8125663,-1.7786032,-0.8130593,-0.64108866,0.42182764,0.72649735,-0.37034354,0.53991246,-0.2232672,1.2060449,-1.1607865,-2.0624213,-1.1977668,1.9898456,1.6913872,-0.9705882,1.2784111,-1.1134394,-2.1049016,-1.2544425,2.0106637,1.656437,-0.94404054,-0.8934862,-1.6762153,0.19281273,1.8244873,-1.6862135,1.9050844,0.40694773,0.24390793,-0.660512,0.5955388,-1.6152347,-0.20051478,-0.1838808,0.20001602,-0.63158035,0.5595953,0.75725,0.10188534,0.09833469,0.6375909,-1.0916108,-0.45534778,-0.39718053,1.0,0.0,0.0,0.0,0.0,0.0,0.0,-0.8939079,0.26051196,-0.045538783,0.22804737,-0.00014305115,89.0844,90.87594,-25.753021,0.37724972,-6.049794
-53.561752,133.12932,37.03373,53.66257,4.9529886,3.3744533,-1.5106329,-0.7938914,-0.6120193,-0.19676785,0.61234385,-0.49985427,0.6626349,-0.20191014,1.199022,-1.1746414,-2.1245782,-1.1932081,1.9606783,1.7227005,-0.96423155,1.2685196,-1.1288565,-2.1016438,-1.2343447,1.9946052,1.6744424,-0.94052625,-1.0195749,-1.4976174,0.37009373,2.0730906,-1.5805217,1.7684346,0.33354622,0.22776794,-0.66251564,0.5929649,-1.6136198,-0.20031431,-0.2818829,0.18820953,-0.6363468,0.5570671,0.76285887,0.090961695,0.09923826,0.6323955,-1.2124317,-0.4747234,-0.21253946,0.0,1.0,0.0,0.0,0.0,0.0,0.0,-0.8777679,0.26251563,-0.042964876,-12.176275,17.5951,17.679262,25.305344,10.062981,-12.826204,-7.125372
-36.159187,126.24367,39.58558,31.553213,3.4362805,3.155478,-0.5337827,-0.80468655,-0.6512612,0.4562562,0.7180027,-0.50624627,0.56600004,-0.1959138,1.188051,-1.1939826,-2.056018,-1.1625445,1.9439806,1.7310424,-0.96011764,1.2569096,-1.142496,-2.095731,-1.2144377,1.980651,1.6905786,-0.9377644,-1.2073348,-1.3202391,0.6646978,1.9635867,-1.3364112,1.5640215,0.2577627,0.21164322,-0.6645174,0.58941174,-1.6120065,-0.20011404,-0.37978703,0.17551422,-0.6408758,0.5561107,0.7691213,0.079760395,0.099511825,0.62624913,-1.2923026,-0.43661398,-0.06559164,0.0,1.0,0.0,0.0,0.0,0.0,0.0,-0.8616432,0.2645174,-0.039411724,-18.548632,17.5071,29.370653,-10.85465,23.645067,-19.852018,-7.3755684
-26.253084,93.78973,25.631634,13.944584,1.7491404,1.8928648,-0.1287205,-0.8117097,-0.6310451,0.3917649,0.6884839,-0.49940476,0.59777683,-0.28448412,1.1757387,-1.2056005,-2.0565546,-1.1455894,1.9307106,1.7503563,-0.9662128,1.2436306,-1.1546153,-2.088117,-1.196852,1.969144,1.7047979,-0.9357588,-1.3678714,-1.1760545,0.7925447,1.6902262,-1.0898974,1.3759761,0.18169333,0.19553375,-0.66651726,0.58487225,-1.6103948,-0.19991396,-0.4786585,0.16230011,-0.64494896,0.5558404,0.7755511,0.069221705,0.098884135,0.61963767,-1.3363729,-0.38877457,-0.022078404,0.0,1.0,0.0,0.0,0.0,0.0,0.0,-0.8455337,0.26651725,-0.034872234,-15.996861,14.310741,12.496233,-27.34871,24.297714,-18.34774,-7.544568
-17.114773,77.034225,19.30577,7.578412,1.2568367,1.0210952,-0.06553193,-0.82198614,-0.5754714,0.3603114,0.6760426,-0.28227812,0.53569007,-0.37983835,1.161432,-1.2121624,-2.0520856,-1.1292477,1.9409162,1.7583668,-0.97374266,1.2291502,-1.1654916,-2.080138,-1.1820381,1.9602543,1.7171059,-0.9344925,-1.4741658,-1.0567613,0.7803978,1.405236,-0.8117215,1.1798507,0.109062605,0.17871094,-0.66818905,0.5822633,-1.5464213,-0.14494918,0.43737355,0.1488266,-0.6486511,0.55563205,0.78200626,0.059962574,0.0973853,0.61268806,-1.3559576,-0.35714182,-0.03320024,0.0,1.0,0.0,0.0,0.0,0.0,0.0,-0.8287109,0.26818904,-0.03226328,-10.521436,12.08086,-4.242909,-29.566097,27.842056,-21.96393,-6.958963
-2.510726,125.076355,39.547493,17.023046,1.2862949,1.6414843,-0.24937046,-0.8208237,-0.2900067,0.4764322,0.71056974,-0.10786759,0.5756369,-0.44353548,1.1470678,-1.1944922,-2.0324948,-1.1109811,1.9494675,1.7746695,-0.9788461,1.2140459,-1.1742444,-2.072108,-1.1692684,1.9542156,1.7278671,-0.9339413,-1.5226263,-0.81512946,0.810452,1.234276,-0.53540826,1.0434535,0.03682504,0.1632576,-0.6696377,0.5858893,-1.5448753,-0.14480427,0.33768508,0.13528824,-0.65186214,0.5561122,0.78856003,0.051429838,0.095373414,0.60533607,-1.3583529,-0.29979554,0.07029554,0.0,1.0,0.0,0.0,0.0,0.0,0.0,-0.8132576,0.26963767,-0.035889268,-4.8689127,24.028051,2.8945923,-17.044044,27.350283,-13.107061,-7.302907
5.205827,109.47271,36.30789,15.040431,1.4470454,1.1412799,-0.23449041,-0.8135928,-0.3425453,0.5066777,0.6816699,0.06523051,0.5936469,-0.44962454,1.1326866,-1.208499,-2.0214403,-1.1011014,1.9607387,1.7872318,-0.9789038,1.1988062,-1.1811509,-2.0637233,-1.1576164,1.9509121,1.7374706,-0.9340376,-1.5244759,-0.64959514,0.84780765,1.1424912,-0.2627149,0.9340069,-0.025109742,0.14781952,-0.6710844,0.58851916,-1.5433307,-0.14465949,0.2380963,0.12175751,-0.6546354,0.5574686,0.7952401,0.043095246,0.09277946,0.59760183,-1.3567297,-0.26087692,0.15355922,0.0,1.0,0.0,0.0,0.0,0.0,0.0,-0.7978195,0.2710844,-0.038519144,-0.20401478,16.44318,3.7411332,-9.105039,27.033829,-10.574317,-6.2197447
6.834817,99.72424,32.70662,15.043903,0.9731605,0.8437779,-0.25870514,-0.8051878,-0.29304382,0.47608006,0.68990636,-0.06943857,0.6204795,-0.4444302,1.1182873,-1.2104553,-2.0161154,-1.0886258,1.9439683,1.7995186,-0.97848064,1.1837515,-1.1867261,-2.0551212,-1.1463058,1.9493366,1.7461605,-0.9346747,-1.4990573,-0.52731395,0.8647552,1.1277025,-0.1231687,0.8485089,-0.07674424,0.1323967,-0.6725302,0.5901539,-1.5417876,-0.14451486,0.1386071,0.108299255,-0.6570568,0.5595228,0.8020064,0.034813426,0.08996234,0.58947474,-1.3466685,-0.22647485,0.21949062,0.0,1.0,0.0,0.0,0.0,0.0,0.0,-0.7823967,0.27253017,-0.04015386,2.5409698,12.13106,1.7507553,-1.3759375,13.777683,-8.219123,-5.2158065
2.924149,82.6661,25.601973,14.146915,0.8684464,0.5508336,-0.28039837,-0.80455357,-0.28001252,0.45748675,0.6925841,-0.058581147,0.6397643,-0.45898765,1.1032962,-1.2147274,-2.0093725,-1.0770473,1.9434786,1.8101369,-0.9805734,1.1689911,-1.1915019,-2.0465367,-1.1348373,1.9486128,1.7541121,-0.9357695,-1.4676203,-0.46091,0.85022587,1.1512798,-0.059257414,0.7634533,-0.12050119,0.11690521,-0.6739073,0.5910388,-1.6157486,-0.07471191,0.3307366,0.09489441,-0.65921974,0.561988,0.8088405,0.026615342,0.08721011,0.58091563,-1.338779,-0.20543103,0.24996066,0.0,1.0,0.0,0.0,0.0,0.0,0.0,-0.7669052,0.27390727,-0.04103881,3.23112,6.6034317,-2.1409154,2.2178411,5.8755674,-9.944534,-4.4046507
1.4370685,108.93392,33.669083,19.519758,0.55665493,0.97002673,-0.32043993,-0.8018066,-0.06904485,0.4465758,0.7011717,-0.099825196,0.64055943,-0.4399326,1.0888104,-1.1984063,-2.0018792,-1.0647202,1.9386303,1.818168,-0.97976273,1.1545123,-1.1949751,-2.038232,-1.1230106,1.9480691,1.7613173,-0.9372315,-1.4413611,-0.309741,0.82387227,1.1937698,-0.053132635,0.7071502,-0.15508498,0.100925446,-0.67450905,0.5948687,-1.5921314,-0.054086402,0.40038702,0.08162308,-0.6610203,0.56509596,0.8157031,0.018454386,0.0851295,0.57187486,-1.3267449,-0.16230829,0.32832634,0.0,1.0,0.0,0.0,0.0,0.0,0.0,-0.7509254,0.27450904,-0.044868708,2.64287,15.000218,-2.5727391,4.4169903,0.52184236,-5.2921653,-3.5396993
-4.9233103,102.28749,30.203508,19.8647,0.91604185,0.9720249,-0.342551,-0.8128103,-0.05305301,0.43002775,0.6985996,0.037057012,0.6480848,-0.4662549,1.0732312,-1.2002804,-1.9952294,-1.0531507,1.9517748,1.8261257,-0.983857,1.1401652,-1.1970713,-2.0302632,-1.1108112,1.9478173,1.7680414,-0.9390085,-1.4322693,-0.176528,0.788037,1.229249,-0.01607375,0.6614007,-0.18545526,0.08514404,-0.67490864,0.5992863,-1.5739497,-0.034238394,0.45639393,0.068367004,-0.66242886,0.5688911,0.82261145,0.01021475,0.083702825,0.5623165,-1.3292679,-0.12435868,0.39407358,0.0,1.0,0.0,0.0,0.0,0.0,0.0,-0.735144,0.27490863,-0.049286306,0.92828274,13.211724,-3.5386443,3.7143946,3.6255996,-4.331672,-3.0833988
-5.478248,105.89646,31.23452,19.945572,0.79763764,1.0852587,-0.29676953,-0.80870795,0.035820536,0.41830844,0.70252043,0.019673342,0.6630918,-0.482002,1.0592945,-1.1934893,-1.9884323,-1.0405592,1.9497846,1.8343506,-0.98720866,1.1258563,-1.1977618,-2.0226336,-1.0983334,1.9478487,1.7743956,-0.9410627,-1.4306141,-0.033528764,0.75479203,1.2545187,0.009360964,0.62737745,-0.21221428,0.06954193,-0.6750803,0.604322,-1.5556852,-0.010230854,0.52016205,0.055080414,-0.66340256,0.5733804,0.82952976,0.0018667295,0.082933016,0.552267,-1.3302248,-0.078454584,0.4649644,0.0,1.0,0.0,0.0,0.0,0.0,0.0,-0.7195419,0.2750803,-0.054322004,0.16701221,14.173293,-3.2428622,2.685237,2.4462535,-3.1876922,-2.7251453
-6.632989,94.50722,27.231787,17.724838,0.7128911,0.98229086,-0.23454702,-0.8112352,0.049281765,0.41070655,0.7133684,-0.013291649,0.6743745,-0.49606115,1.0447328,-1.1928335,-1.9815629,-1.0269965,1.9465195,1.841833,-0.9906688,1.1115166,-1.1973193,-2.0152788,-1.0856495,1.9479741,1.7804694,-0.943362,-1.4352636,0.06977614,0.7293156,1.2733045,0.013226487,0.6010633,-0.23585671,0.054100037,-0.6750183,0.6098504,-1.5407674,0.012998653,0.56446457,0.04177475,-0.66393566,0.57841796,0.83640724,-0.006562198,0.08276946,0.5417831,-1.3324593,-0.03472202,0.5145045,0.0,1.0,0.0,0.0,0.0,0.0,0.0,-0.7041,0.2750183,-0.059850395,-0.47216415,10.217327,-2.444172,1.9986868,0.28431004,-2.4602532,-2.402985
-4.843213,96.76517,27.674232,16.732403,0.23254842,0.9640304,-0.14714107,-0.8088984,0.1420963,0.37670738,0.7167356,-0.12824696,0.6739466,-0.4841021,1.0306268,-1.1831096,-1.9776081,-1.013976,1.9351494,1.847864,-0.99177223,1.0971295,-1.19578,-2.008248,-1.0728359,1.9477378,1.7863204,-0.9458587,-1.4400054,0.18175313,0.6947052,1.284265,-0.03633627,0.5802059,-0.25449228,0.038829803,-0.67469406,0.6158472,-1.5228864,0.040273573,0.6121581,0.028541565,-0.66397285,0.58394814,0.843159,-0.015029678,0.0834211,0.53094053,-1.3225045,0.017189952,0.56394446,0.0,1.0,0.0,0.0,0.0,0.0,0.0,-0.6888298,0.27469406,-0.06584716,-0.50463676,11.071232,-3.3178568,1.1986017,-5.090484,-1.8978715,-1.9194543
-2.4188612,79.93429,22.614023,12.560766,0.06019172,0.72734296,-0.04150386,-0.8056636,0.10881038,0.38933992,0.7158538,-0.17478849,0.6795818,-0.48381644,1.016563,-1.184899,-1.9693141,-1.0012505,1.930259,1.8542787,-0.99424034,1.0827156,-1.1935713,-2.0014236,-1.0599728,1.9468427,1.7919974,-0.9485166,-1.4418054,0.23348792,0.67876387,1.2870054,-0.107683524,0.5639436,-0.2697185,0.023719788,-0.674119,0.6221056,-1.5071344,0.06478079,0.63106614,0.015415192,-0.66354847,0.58974254,0.8497132,-0.023459261,0.08481083,0.51985013,-1.3087546,0.06193659,0.58263195,0.0,1.0,0.0,0.0,0.0,0.0,0.0,-0.67371976,0.274119,-0.07210559,-0.2206564,5.073595,-1.4159083,0.30755997,-7.2948246,-1.455164,-1.5827477
-5.2291756,77.021805,20.505638,12.834841,0.069913656,0.61827576,-0.052846566,-0.81467426,0.1691608,0.3258087,0.7254665,-0.2032572,0.66088384,-0.45855194,1.0012482,-1.1766553,-1.9688427,-0.9874261,1.926517,1.8580859,-0.9943718,1.0682541,-1.1908514,-1.9949721,-1.0470715,1.9452261,1.7975224,-0.9512871,-1.4475906,0.28461644,0.6343939,1.2912257,-0.18013905,0.5490125,-0.27962333,0.008758545,-0.6733036,0.62849706,-1.4931115,0.088668756,0.6426071,0.002418518,-0.6627016,0.5956585,0.85606045,-0.031730574,0.08693826,0.5085226,-1.2972758,0.10296047,0.592922,0.0,1.0,0.0,0.0,0.0,0.0,0.0,-0.6587585,0.2733036,-0.07849705,-0.61905384,5.0206842,-4.2868257,0.4527092,-7.3801336,-1.3284326,-1.0468781
-2.2895896,76.23523,21.071009,11.866411,0.1102407,0.57001233,-0.012620082,-0.80862635,0.18713716,0.35232168,0.7285506,-0.22181463,0.6637937,-0.4638252,0.9873915,-1.1721377,-1.9597399,-0.9742164,1.9230446,1.8639019,-0.99766964,1.0537697,-1.187712,-1.9887846,-1.0341282,1.9429663,1.8029172,-0.95414346,-1.4487431,0.32347512,0.614301,1.2954099,-0.24179222,0.5366305,-0.28784958,-0.0060577393,-0.6722393,0.6350253,-1.4783217,0.114036776,0.6567807,-0.010444641,-0.66145134,0.60168266,0.862183,-0.03986721,0.08969781,0.49699625,-1.2830585,0.14342627,0.60399914,0.0,1.0,0.0,0.0,0.0,0.0,0.0,-0.64394224,0.2722393,-0.08502531,-0.16446114,3.7864268,-1.7999768,0.43067932,-6.3585787,-1.105094,-0.8891642
-2.1431136,73.49421,20.233923,11.302244,0.2465123,0.50002146,0.0022410983,-0.81292677,0.19909471,0.34017152,0.7236201,-0.21549177,0.6515879,-0.44547448,0.972477,-1.1678025,-1.9547673,-0.9617662,1.9214171,1.8680761,-0.9986909,1.0392662,-1.1842597,-1.9827535,-1.0211773,1.9402608,1.8081945,-0.95705646,-1.4509562,0.35194302,0.59991115,1.2950424,-0.28083655,0.524995,-0.2926732,-0.020740509,-0.6709204,0.6416686,-1.4646474,0.13940881,0.66712135,-0.023204803,-0.65981483,0.607785,0.8680726,-0.04788419,0.09291576,0.48530778,-1.2711293,0.18082911,0.6105386,0.0,1.0,0.0,0.0,0.0,0.0,0.0,-0.62925947,0.27092037,-0.091668606,-0.27370453,2.750951,-1.2160897,-0.038433075,-4.1101575,-1.0533571,-0.55022836
-0.5884434,76.543335,21.6887,11.583008,0.47970662,0.47539097,-0.004045056,-0.8092938,0.22822434,0.3474947,0.7270925,-0.1597699,0.6355217,-0.44152215,0.95833683,-1.1614373,-1.948004,-0.948468,1.9242837,1.8717467,-1.0012087,1.0247647,-1.1804984,-1.9767644,-1.0082252,1.9374682,1.8133563,-0.96000534,-1.4501278,0.38383356,0.59945464,1.2953031,-0.27963683,0.51324874,-0.29585844,-0.035282135,-0.66933155,0.6484753,-1.4509314,0.16689563,0.6852655,-0.03583908,-0.6578083,0.61400646,0.8737342,-0.05584209,0.096384674,0.47347677,-1.2610501,0.21786508,0.6244274,0.0,1.0,0.0,0.0,0.0,0.0,0.0,-0.61471784,0.26933154,-0.09847528,0.02617836,3.0828118,0.21393299,0.02720356,-0.12655854,-1.1039138,-0.3869593
-2.956386,77.11004,21.068682,12.482597,0.63951397,0.42829955,-0.041465305,-0.8165352,0.25841638,0.30570614,0.72795135,-0.13182716,0.6306844,-0.43483582,0.9431111,-1.1546568,-1.9461938,-0.93543005,1.9242854,1.8764247,-1.0034889,1.0102421,-1.1763575,-1.9709355,-0.9952686,1.9348656,1.8184081,-0.9629752,-1.4531571,0.42364419,0.57816464,1.2958722,-0.25451216,0.5025058,-0.2975258,-0.04970169,-0.6674614,0.6554571,-1.4385388,0.19508374,0.7028185,-0.048423767,-0.6554432,0.620363,0.87919074,-0.06372798,0.10002713,0.4614725,-1.255455,0.2534655,0.6377349,0.0,1.0,0.0,0.0,0.0,0.0,0.0,-0.6002983,0.2674614,-0.10545707,-0.3591776,3.875041,-1.8896222,0.0647068,2.2873282,-1.0141015,-0.23208857
-4.286668,78.33101,21.351652,13.383464,0.9741648,0.41891652,-0.09043275,-0.8209338,0.2792688,0.30589002,0.73011804,-0.024755208,0.61938035,-0.44676223,0.92814875,-1.1484306,-1.9403465,-0.92225677,1.9323901,1.8803462,-1.0076514,0.99566865,-1.1718028,-1.9653069,-0.98229575,1.9328533,1.8233523,-0.965966,-1.4590023,0.46562833,0.558474,1.2977245,-0.1840771,0.49168766,-0.29979578,-0.06401062,-0.66529465,0.66263545,-1.4278827,0.22514229,0.7230006,-0.06100464,-0.6527281,0.62688,0.8844757,-0.071567625,0.103674136,0.44925746,-1.2570277,0.28820866,0.65464413,0.0,1.0,0.0,0.0,0.0,0.0,0.0,-0.58598936,0.26529464,-0.11263543,-0.64098835,4.087919,-1.7193079,0.19655228,6.814501,-1.0639787,-0.29006004
-3.1342835,85.60639,23.940248,14.369581,1.1787062,0.45819506,-0.10536316,-0.8211833,0.32742125,0.31429043,0.72969407,0.07993962,0.6075304,-0.44488227,0.9135503,-1.1390606,-1.9338778,-0.9093263,1.9408473,1.8841053,-1.0104542,0.9810402,-1.1667044,-1.9597945,-0.9693086,1.9318247,1.8281877,-0.96897495,-1.4643493,0.5242225,0.5497235,1.299091,-0.07681628,0.48068106,-0.30149123,-0.078201294,-0.6627865,0.6701177,-1.4161828,0.25995404,0.75728256,-0.07361221,-0.6496296,0.63366956,0.8895973,-0.0794662,0.10716907,0.43682557,-1.2591844,0.32788882,0.6855162,0.0,1.0,0.0,0.0,0.0,0.0,0.0,-0.5717987,0.26278648,-0.120117664,-0.60145855,5.7272196,-0.5705595,0.15873909,10.4530115,-1.1298656,-0.2364695
-3.2786384,84.75731,23.243519,14.078871,1.2141321,0.40259156,-0.11240748,-0.82504183,0.35287452,0.28029135,0.7224728,0.16896218,0.60338414,-0.45810187,0.89853597,-1.1314169,-1.9317654,-0.89706135,1.9487209,1.8885261,-1.0147852,0.9663536,-1.1610072,-1.9544766,-0.9563463,1.932013,1.8329201,-0.97200865,-1.4704258,0.5842457,0.5268313,1.2952244,0.049800556,0.47055244,-0.30421382,-0.09227371,-0.6599226,0.67791426,-1.4045688,0.2957081,0.78790426,-0.086242676,-0.64613724,0.6407436,0.8945566,-0.08743505,0.110437304,0.42417812,-1.2615381,0.36757404,0.7130541,0.0,1.0,0.0,0.0,0.0,0.0,0.0,-0.55772626,0.2599226,-0.12791425,-0.6830692,5.871594,-1.9828558,-0.38018227,12.401252,-1.0481715,-0.34705997
-4.065234,83.06441,22.159626,13.829796,1.0822711,0.37609696,-0.101840004,-0.8331363,0.38319978,0.25411147,0.7206646,0.19654691,0.5987087,-0.46302903,0.88303995,-1.1226872,-1.9290655,-0.8842798,1.9516678,1.8927909,-1.0183115,0.9515821,-1.154711,-1.949479,-0.94343626,1.9333456,1.8375586,-0.97507095,-1.4797142,0.64421046,0.49173474,1.2895979,0.16028698,0.4613681,-0.30714244,-0.106227875,-0.6566906,0.6859895,-1.3923402,0.33270857,0.8153368,-0.09889221,-0.6422396,0.648063,0.8993446,-0.09542998,0.11354435,0.411315,-1.2613163,0.40865886,0.73667246,0.0,1.0,0.0,0.0,0.0,0.0,0.0,-0.5437721,0.2566906,-0.13598949,-1.0106802,5.8680773,-3.2031178,-0.57053566,10.807829,-0.9455025,-0.37214756
-4.850689,77.015854,19.781149,13.042221,0.9636847,0.29407024,-0.09248814,-0.8379443,0.39130607,0.2261138,0.7227723,0.23029031,0.588211,-0.4663613,0.86778766,-1.1155804,-1.9268676,-0.871159,1.9563746,1.8963797,-1.021707,0.9367095,-1.1479342,-1.9449105,-0.9305663,1.935628,1.8421079,-0.9781628,-1.490013,0.68840134,0.44613656,1.2859516,0.25024337,0.452653,-0.31010976,-0.12006378,-0.6531019,0.6942476,-1.3806449,0.3679753,0.83095264,-0.111522675,-0.6379576,0.6555289,0.9039553,-0.103378125,0.11656326,0.39823446,-1.2602248,0.4468012,0.74841964,0.0,1.0,0.0,0.0,0.0,0.0,0.0,-0.5299362,0.25310192,-0.14424759,-1.1126757,4.3046474,-4.2680206,-0.40147305,8.785799,-0.88118315,-0.3822744
-4.383132,72.5343,17.528522,11.945825,0.52505946,0.16384494,-0.0482002,-0.836531,0.41538313,0.15890388,0.7269141,0.17580964,0.5848058,-0.46567646,0.85305643,-1.1063958,-1.9290202,-0.8578749,1.953209,1.9005885,-1.0247304,0.9217626,-1.1407607,-1.9410287,-0.9177011,1.9384081,1.8465788,-0.9812806,-1.4965328,0.72674733,0.36981636,1.2865129,0.2866956,0.445353,-0.31269157,-0.13376999,-0.64916897,0.70258343,-1.3670229,0.401861,0.83639,-0.12408829,-0.63331604,0.66302276,0.9083675,-0.11113247,0.11974475,0.3849405,-1.2498662,0.4819612,0.74837613,0.0,1.0,0.0,0.0,0.0,0.0,0.0,-0.51623,0.24916896,-0.15258342,-0.73976517,3.7285209,-7.3600473,-0.010371208,3.4632027,-0.6937921,-0.35325885
-5.182107,62.12697,13.368804,10.329849,0.24240842,-0.039558947,-0.019185733,-0.83893496,0.405054,0.07639356,0.72393024,0.1632882,0.5652522,-0.45806178,0.8378691,-1.1002553,-1.9333893,-0.8453081,1.954737,1.9031041,-1.0270869,0.9067651,-1.1333773,-1.9381806,-0.90483403,1.9413123,1.8509754,-0.9844173,-1.5010415,0.74205536,0.25700536,1.2863287,0.29141673,0.43796363,-0.3142927,-0.1473465,-0.64494324,0.7107945,-1.3541154,0.42998666,0.8182428,-0.13652802,-0.62839794,0.6703445,0.9125818,-0.11847389,0.123274736,0.3714318,-1.2370044,0.5070906,0.72554666,0.0,1.0,0.0,0.0,0.0,0.0,0.0,-0.5026535,0.24494323,-0.1607945,-0.53596497,1.4518619,-11.070806,-0.1332283,0.35265684,-0.6593108,-0.26345253
-4.421505,50.996445,9.670141,8.42177,0.10128537,-0.24609768,0.0008400604,-0.83038527,0.38342133,0.0021817535,0.7309647,0.17698123,0.53881246,-0.42926496,0.8237266,-1.0950352,-1.9379624,-0.8317376,1.9590105,1.9048567,-1.0273439,0.8917828,-1.1260455,-1.9366256,-0.89193535,1.944195,1.8552903,-0.98754734,-1.497545,0.73019093,0.121980876,1.2905147,0.28714702,0.42970493,-0.31296045,-0.16080856,-0.640502,0.7186657,-1.3434882,0.4497794,0.77940565,-0.14884186,-0.62331486,0.6772922,0.91661364,-0.12522094,0.12717676,0.3577221,-1.2244505,0.5205371,0.6835307,0.0,1.0,0.0,0.0,0.0,0.0,0.0,-0.4891914,0.24050197,-0.1686657,0.27549267,-1.2390971,-13.34771,0.26557446,-0.49772263,-0.7255912,0.01938343
-8.776861,30.795994,2.5288272,6.653509,0.13584444,-0.48950297,-0.029946469,-0.836234,0.3274536,-0.13544175,0.72879004,0.21081722,0.5041821,-0.40642738,0.8081594,-1.0933001,-1.9501698,-0.81905633,1.9652767,1.9057086,-1.0281901,0.8768231,-1.1191466,-1.9367946,-0.8790041,1.9471006,1.8595113,-0.9906463,-1.4956366,0.67648715,-0.0632968,1.2934405,0.29210466,0.42000055,-0.3092641,-0.17422485,-0.635972,0.72585505,-1.3405899,0.45503804,0.70164067,-0.161129,-0.6182356,0.6835582,0.92052704,-0.13110213,0.13137354,0.34377787,-1.2246938,0.5153652,0.60698044,0.0,1.0,0.0,0.0,0.0,0.0,0.0,-0.47577512,0.23597202,-0.17585504,0.1535654,-5.3691506,-18.548384,0.114011765,0.5696237,-0.8143604,0.26373267
-12.558733,10.271851,-4.169839,4.9472265,0.11288455,-0.69976383,-0.045866307,-0.8338058,0.24339552,-0.25426963,0.74416643,0.16061147,0.462025,-0.3669865,0.79344255,-1.094807,-1.9622216,-0.8045875,1.9631618,1.9057138,-1.027345,0.8618924,-1.1131632,-1.9390377,-0.865976,1.9499121,1.863614,-0.993679,-1.4921834,0.5725069,-0.27860677,1.3053901,0.2781163,0.40768155,-0.30156437,-0.18761826,-0.6314249,0.732114,-1.3392496,0.45458308,0.60066,-0.17351913,-0.61334133,0.6888115,0.92438805,-0.1358429,0.13581057,0.3295584,-1.2373645,0.49228075,0.49789777,0.0,1.0,0.0,0.0,0.0,0.0,0.0,-0.46238172,0.2314249,-0.182114,0.3668785,-10.3473425,-21.729643,1.0389566,-1.1809886,-1.0256946,0.68657994
-13.090089,-5.6869497,-8.932493,2.6409888,-0.19072759,-0.8556338,0.010228034,-0.8232444,0.14882396,-0.36493692,0.7563256,0.018180676,0.43802324,-0.3175461,0.77956796,-1.0982808,-1.9755313,-0.7903434,1.9517301,1.9074163,-1.0254335,0.8470418,-1.1085474,-1.9435047,-0.8527771,1.9521551,1.867587,-0.9966001,-1.4823283,0.4249159,-0.50408334,1.3244373,0.20762707,0.39487892,-0.28914165,-0.20100403,-0.62688255,0.737364,-1.3379107,0.4541286,0.4997803,-0.1860466,-0.6087761,0.6927785,0.92821574,-0.1392166,0.14056669,0.31507984,-1.2523583,0.45561644,0.36327207,0.0,1.0,0.0,0.0,0.0,0.0,0.0,-0.44899595,0.22688255,-0.18736398,1.0663748,-14.673633,-22.882874,1.8124342,-6.7209425,-1.017201,1.1792719
-10.590734,-5.7406077,-7.635421,2.0577128,-0.15873992,-0.79509425,0.071881905,-0.81653,0.06782155,-0.38392162,0.7634338,-0.05012008,0.4267905,-0.26541877,0.7653888,-1.1017653,-1.9818969,-0.77643377,1.9471431,1.910266,-1.023142,0.8323142,-1.1055472,-1.9497684,-0.8393761,1.9535055,1.871436,-0.99936384,-1.4691355,0.25860918,-0.66812027,1.3453306,0.11192946,0.38218197,-0.2723245,-0.21437454,-0.622344,0.74160594,-1.336573,0.45367455,0.39900142,-0.19872284,-0.60456085,0.69543177,0.9319758,-0.14129183,0.14558908,0.30043554,-1.2672266,0.42099997,0.23352602,0.0,1.0,0.0,0.0,0.0,0.0,0.0,-0.43562543,0.22234401,-0.19160593,1.4157534,-16.557915,-16.670168,2.076745,-9.296113,-1.0531485,1.6293168
-11.143136,6.283269,-4.1912537,4.2628894,-0.18865651,-0.7359406,0.13052416,-0.8196286,0.03736915,-0.48473635,0.77487206,-0.13579851,0.334996,-0.1445621,0.7503513,-1.1018102,-1.998242,-0.76188886,1.9399257,1.9049356,-1.01382,0.8176829,-1.1039965,-1.9575542,-0.8257538,1.9537554,1.8750981,-1.001882,-1.4608262,0.120589964,-0.81601,1.3679212,-0.0033210372,0.3613238,-0.24512887,-0.2277298,-0.6178112,0.7448408,-1.3352368,0.45322096,0.29832327,-0.21149826,-0.6006222,0.6969429,0.9356194,-0.14213766,0.15097818,0.28568998,-1.2773974,0.39553696,0.124703154,0.0,1.0,0.0,0.0,0.0,0.0,0.0,-0.42227018,0.2178112,-0.19484079,0.91319084,-13.783358,-14.925742,2.298832,-11.372704,-1.9526124,2.6531935
-8.900359,12.356995,-1.6394136,4.4473157,-0.0984914,-0.69458747,0.21422969,-0.8127869,-0.045413736,-0.5148983,0.77629125,-0.18428865,0.2431356,0.011508984,0.73640424,-1.1085379,-2.0090442,-0.74812466,1.9353265,1.8994117,-1.0007311,0.80313367,-1.1037924,-1.9664825,-0.8119513,1.9528913,1.8784932,-1.0040277,-1.4527357,-0.0128906,-0.91861075,1.384587,-0.11409172,0.3324535,-0.20458156,-0.2410698,-0.6132822,0.74706966,-1.3339018,0.45276785,0.1977458,-0.22436905,-0.59690094,0.69745874,0.93909967,-0.1418502,0.15667677,0.2709663,-1.2854724,0.37527463,0.028548054,0.0,1.0,0.0,0.0,0.0,0.0,0.0,-0.40893018,0.2132822,-0.19706964,0.87242126,-13.355723,-10.27317,1.733017,-11.0389385,-2.8133094,3.984344
-10.427912,17.064167,-0.40505934,5.5527563,0.082984865,-0.7443773,0.23434252,-0.820308,-0.10695244,-0.5842956,0.77333206,-0.20364581,0.0070188767,0.10987847,0.72110283,-1.1144876,-2.024912,-0.73461807,1.9325268,1.8791951,-0.9930399,0.78860444,-1.1048319,-1.9763588,-0.79805243,1.951087,1.8814381,-1.0057195,-1.4527805,-0.13435856,-1.0106248,1.3919519,-0.20263909,0.2819805,-0.15759887,-0.25439835,-0.608758,0.7482935,-1.3325682,0.45231515,0.09726889,-0.2373352,-0.5933609,0.69708264,0.94241685,-0.14042078,0.16256253,0.25633144,-1.2971696,0.35745555,-0.058317296,0.0,1.0,0.0,0.0,0.0,0.0,0.0,-0.39560163,0.20875797,-0.1982935,0.05259514,-12.180488,-9.147108,0.8322954,-8.903498,-5.0374746,4.6340704
-11.245453,1.8764148,-4.692715,2.4719725,-0.104374856,-0.95676816,0.3122385,-0.82124287,-0.23881431,-0.65988886,0.75447613,-0.3089733,-0.27428046,0.21669643,0.70648015,-1.1287134,-2.0423477,-0.7226048,1.9201896,1.8540101,-0.9840499,0.7740523,-1.1073477,-1.9872192,-0.7842108,1.9483232,1.8836983,-1.0068983,-1.4556869,-0.29067814,-1.1117014,1.3821838,-0.3007567,0.20757194,-0.10463467,-0.26771545,-0.6042385,0.7485133,-1.3312359,0.45186293,-0.003107569,-0.2504654,-0.59010506,0.6956488,0.9456101,-0.13760173,0.16849092,0.2418637,-1.3150141,0.32578775,-0.17062868,0.0,1.0,0.0,0.0,0.0,0.0,0.0,-0.38228452,0.2042385,-0.19851327,-0.17426014,-15.622362,-10.235119,-0.78496933,-9.7247305,-7.3888273,5.286291
-6.621232,22.444187,0.93144846,3.9131217,-0.38653386,-0.8915131,0.4153561,-0.81536853,-0.22417143,-0.69473857,0.74383885,-0.43445018,-0.41115937,0.29977113,0.6925155,-1.1297649,-2.056693,-0.70982695,1.9048783,1.8425825,-0.9769212,0.75948876,-1.1110346,-1.9989914,-0.77054656,1.9443846,1.8851556,-1.0075372,-1.456477,-0.3949755,-1.1984842,1.3615304,-0.42557636,0.12510616,-0.05059665,-0.2810173,-0.59972286,0.7477301,-1.3299049,0.45141116,-0.10338367,-0.2636261,-0.5870762,0.6933189,0.9486292,-0.13335435,0.17461267,0.22766098,-1.3125839,0.30603582,-0.25285637,0.0,1.0,0.0,0.0,0.0,0.0,0.0,-0.36898267,0.19972286,-0.19773006,-0.048160553,-10.485488,-8.517551,-1.9602776,-12.680036,-8.26625,5.309721
-6.645003,17.900541,-0.268443,2.4945254,-0.43014935,-0.8988245,0.46600676,-0.82376176,-0.3219003,-0.7450668,0.7122393,-0.4850838,-0.5119235,0.38308272,0.6771126,-1.1432247,-2.073498,-0.69932264,1.8958762,1.8339632,-0.969229,0.7448842,-1.1158354,-2.0116103,-0.7572199,1.9392481,1.885785,-1.0076269,-1.4615334,-0.508571,-1.2826936,1.3235664,-0.5435434,0.042046458,0.004706232,-0.2943039,-0.595212,0.74594486,-1.3285754,0.45095983,-0.20355952,-0.27677155,-0.58426476,0.6900964,0.9514593,-0.12764138,0.18088698,0.2138056,-1.312931,0.28337216,-0.34458274,0.0,1.0,0.0,0.0,0.0,0.0,0.0,-0.35569608,0.19521198,-0.19594485,-0.45700073,-11.403894,-8.303499,-3.647852,-11.972493,-8.34001,5.4530187
-1.8492105,43.390358,6.722632,5.4305625,-0.33363882,-0.7052503,0.48443604,-0.81599814,-0.29179126,-0.756083,0.7001855,-0.5359019,-0.5309725,0.41933262,0.66328436,-1.1450145,-2.0872185,-0.6872014,1.8856579,1.8326877,-0.96569365,0.7302634,-1.1213267,-2.0248663,-0.74429095,1.9330072,1.8856477,-1.0071977,-1.4625293,-0.563056,-1.3380678,1.282711,-0.65252775,-0.03275683,0.055009216,-0.30758286,-0.5907059,0.74315864,-1.327247,0.45050898,-0.3036352,-0.28980255,-0.5815563,0.6862536,0.95404226,-0.12066717,0.18735534,0.2003512,-1.2964877,0.2777433,-0.39697346,0.0,1.0,0.0,0.0,0.0,0.0,0.0,-0.34241712,0.19070587,-0.19315863,-0.17027855,-5.562365,-5.0403357,-4.0939093,-11.4345665,-7.62674,4.8521357
-2.4310575,42.94637,6.864106,5.7704115,-0.02655755,-0.6114666,0.41238296,-0.8218101,-0.36524165,-0.76559514,0.6826435,-0.5582698,-0.54492307,0.3700771,0.6480824,-1.1578509,-2.101426,-0.6760266,1.8771802,1.8311553,-0.97019005,0.7156169,-1.127415,-2.0384963,-0.7317635,1.9258623,1.884837,-1.0063604,-1.465699,-0.62444377,-1.3695832,1.2429236,-0.7370385,-0.097835265,0.092843264,-0.32084656,-0.5862036,0.73937243,-1.3259201,0.45005855,-0.40361086,-0.30270767,-0.57887936,0.6818911,0.9563763,-0.11263646,0.19386935,0.1872753,-1.2870306,0.27506742,-0.44909623,0.0,1.0,0.0,0.0,0.0,0.0,0.0,-0.32915342,0.18620357,-0.18937242,-0.38535595,-6.250739,-2.6387453,-3.9657354,-9.000719,-6.7042885,3.6261349
-3.824268,49.683037,8.626675,8.129859,0.39192256,-0.46392083,0.3142609,-0.8238781,-0.38904703,-0.7649049,0.68709034,-0.58063865,-0.54140913,0.36520404,0.6332291,-1.1663196,-2.1149867,-0.66305447,1.8677984,1.8306961,-0.96984,0.70093125,-1.1340487,-2.0522635,-0.7195078,1.9180326,1.8834542,-1.0052027,-1.4698038,-0.67677814,-1.3773036,1.2197452,-0.8005107,-0.15252188,0.12288948,-0.334095,-0.581707,0.7345872,-1.3245944,0.4496086,-0.5034865,-0.31557083,-0.5761595,0.67710656,0.9584699,-0.10377043,0.20029116,0.17450078,-1.2826785,0.2813695,-0.48837805,0.0,1.0,0.0,0.0,0.0,0.0,0.0,-0.31590497,0.181707,-0.18458718,-0.4999876,-5.368805,-0.15370846,-2.3140192,-6.991327,-5.7374387,2.8490095
-1.2145336,36.56593,5.8018184,4.3129883,0.27720737,-0.50172824,0.34301004,-0.81896544,-0.4740691,-0.7753605,0.63688004,-0.6035679,-0.56680536,0.33926547,0.6190347,-1.1814556,-2.1297996,-0.65581983,1.8576759,1.8267736,-0.9712761,0.68623704,-1.1414454,-2.066069,-0.7076107,1.9096975,1.8815793,-1.0038046,-1.4694984,-0.76088476,-1.3802726,1.1798971,-0.8460669,-0.20005393,0.14507043,-0.3473282,-0.57721424,0.728804,-1.3232701,0.44915906,-0.6032623,-0.32839966,-0.5734358,0.67175925,0.96035415,-0.09412139,0.20639157,0.16206047,-1.2823122,0.2796015,-0.55059105,0.0,1.0,0.0,0.0,0.0,0.0,0.0,-0.3026718,0.17721424,-0.17880398,-0.015163422,-8.498896,0.14138222,-3.9152622,-5.0228596,-4.9975066,2.1109939
-3.0460296,30.164518,4.2512927,3.8699179,0.49047795,-0.45549744,0.29761058,-0.822321,-0.5328083,-0.77654845,0.63284826,-0.58864266,-0.57180196,0.36669543,0.6040049,-1.1947262,-2.1437237,-0.6443259,1.8508333,1.8243991,-0.967135,0.67154187,-1.1498148,-2.079878,-0.696056,1.9010992,1.8792828,-1.0021967,-1.4695278,-0.8625191,-1.3802314,1.1478388,-0.8654478,-0.24032648,0.16597751,-0.36055374,-0.5727253,0.7220237,-1.3219471,0.44871,-0.7029383,-0.34132004,-0.5707245,0.6657202,0.9620696,-0.08374512,0.21195398,0.14994816,-1.2921876,0.27877942,-0.6224191,0.0,1.0,0.0,0.0,0.0,0.0,0.0,-0.28944623,0.17272529,-0.17202371,-0.009393692,-10.242534,0.33681393,-3.0571222,-2.3014069,-4.29945,2.035296
-0.47458124,29.109203,4.369563,3.0904396,0.5495106,-0.41747564,0.2858943,-0.8036148,-0.58540434,-0.77355325,0.63581645,-0.57606196,-0.55871177,0.4094702,0.5911804,-1.2083553,-2.1572335,-0.63247436,1.843493,1.8234117,-0.96124965,0.65693635,-1.1592467,-2.0936644,-0.684713,1.8924551,1.876645,-1.0003713,-1.4575679,-0.97028184,-1.3772619,1.1303141,-0.8652216,-0.2726291,0.18794808,-0.37376404,-0.5682421,0.71424747,-1.3206254,0.44826138,-0.8025147,-0.35433197,-0.56801796,0.6589554,0.9636348,-0.07275638,0.21685152,0.13816625,-1.3022127,0.2786824,-0.6956856,0.0,1.0,0.0,0.0,0.0,0.0,0.0,-0.27623594,0.16824207,-0.16424745,1.1891842,-10.851299,0.6016731,-1.5915632,-0.29690266,-3.5280466,2.1610408
6.2575083,25.414433,4.1331306,-0.4020393,0.22539602,-0.42565185,0.38225782,-0.78196335,-0.65080434,-0.77542853,0.5948123,-0.5745461,-0.5592058,0.44628102,0.57874,-1.2243271,-2.1712072,-0.6252318,1.8350005,1.8207244,-0.95574325,0.6425511,-1.1698058,-2.1074317,-0.6736485,1.8838758,1.8737286,-0.99832094,-1.4321462,-1.0846354,-1.3758112,1.0989649,-0.856443,-0.29899353,0.21065019,-0.38695908,-0.56376266,0.70547616,-1.3193051,0.4478132,-0.9019915,-0.36738586,-0.56535435,0.65139264,0.96505517,-0.061204888,0.22099283,0.12682487,-1.3029091,0.2732562,-0.77802587,0.0,1.0,0.0,0.0,0.0,0.0,0.0,-0.2630409,0.16376266,-0.15547615,2.5248528,-11.486721,0.40171146,-2.9925823,0.61796904,-2.92809,2.2372901
9.140633,33.113834,6.2822285,0.25683832,0.3393807,-0.27402294,0.38401017,-0.7689315,-0.68571234,-0.7470984,0.58834004,-0.54986686,-0.5119549,0.4838517,0.565658,-1.238377,-2.1821415,-0.61481446,1.8288891,1.8225331,-0.9499358,0.6284568,-1.1813929,-2.121054,-0.6628748,1.8754606,1.8706177,-0.9960388,-1.4021391,-1.1837455,-1.356279,1.0704262,-0.8375819,-0.31618845,0.23386475,-0.40014267,-0.559288,0.69571084,-1.317986,0.4473655,-1.0013689,-0.38038635,-0.5627003,0.6431021,0.96632653,-0.04925028,0.224352,0.115989335,-1.2967621,0.27387613,-0.8479914,0.0,1.0,0.0,0.0,0.0,0.0,0.0,-0.2498573,0.15928802,-0.14571083,2.941084,-9.974718,2.327466,-2.7678013,1.5218496,-2.0470858,2.2741914
7.285518,43.54126,8.488692,3.1703906,0.7727131,-0.055425167,0.31041637,-0.76657015,-0.7112887,-0.72708935,0.57909894,-0.46803725,-0.4456339,0.49539292,0.5517998,-1.2525218,-2.1937628,-0.6049649,1.8286569,1.8260543,-0.9464995,0.6146142,-1.1937964,-2.1343863,-0.6523596,1.8674593,1.8674115,-0.99354017,-1.3786912,-1.2596426,-1.323552,1.0454302,-0.7891628,-0.32334366,0.25495747,-0.41331482,-0.55481815,0.6849525,-1.3166683,0.44691822,-1.1006469,-0.39333344,-0.5599518,0.6342509,0.9674605,-0.03713083,0.22690198,0.10562652,-1.2908739,0.2865225,-0.8996203,0.0,1.0,0.0,0.0,0.0,0.0,0.0,-0.23668516,0.15481815,-0.13495249,2.2525787,-7.679057,3.7827492,-2.4571419,4.344678,-1.0940194,2.0552993
3.2062373,54.83832,10.652428,7.0458193,1.4394245,0.1776002,0.19921821,-0.7687884,-0.72684854,-0.70396346,0.56409615,-0.31499344,-0.38842258,0.517678,0.53773534,-1.2664813,-2.2047827,-0.59595,1.8359599,1.8285693,-0.94177234,0.6009175,-1.2067645,-2.1473143,-0.6420895,1.8603601,1.8641938,-0.9908384,-1.3670679,-1.3095522,-1.2801169,1.0208483,-0.68551373,-0.32258782,0.27501342,-0.4264717,-0.5503521,0.6732021,-1.3153518,0.4464714,-1.1998256,-0.4062729,-0.5569649,0.62504584,0.9684975,-0.025128044,0.22854419,0.0956479,-1.2903204,0.31419283,-0.9297459,0.0,1.0,0.0,0.0,0.0,0.0,0.0,-0.22352827,0.15035209,-0.123202085,1.0442734,-5.107379,4.98693,-2.4553776,9.731447,-0.3575027,1.9543946
16.698162,63.487713,14.591404,4.440628,1.9485085,0.21466738,0.2010491,-0.7158489,-0.7412806,-0.64763993,0.49670696,0.10220159,-0.35840964,0.5344403,0.52933264,-1.2808925,-2.2120783,-0.5924188,1.8705803,1.8283528,-0.9373944,0.5875146,-1.2200835,-2.159609,-0.6323229,1.8554602,1.8610162,-0.9879478,-1.3320214,-1.3395364,-1.2176948,0.9584878,-0.41576347,-0.30352122,0.28929842,-0.43961334,-0.5458908,0.6604607,-1.2798115,0.38478863,-1.0859532,-0.41913986,-0.5536938,0.6156925,0.96956694,-0.013747126,0.2287574,0.08614469,-1.2820549,0.34468415,-0.9415952,0.0,1.0,0.0,0.0,0.0,0.0,0.0,-0.21038663,0.1458908,-0.1104607,3.3012629,-3.0777216,6.279516,-6.7045927,27.426846,2.870375,0.93913674
6.2678504,71.04322,14.795593,9.148203,2.4606962,0.43177193,0.09353783,-0.75917226,-0.73542076,-0.6261549,0.45962647,0.18528554,-0.38395298,0.5152015,0.51159734,-1.2936256,-2.2222245,-0.5863603,1.8739887,1.8226209,-0.93642765,0.57422507,-1.2335284,-2.17136,-0.6233073,1.8534513,1.8579851,-0.9849223,-1.3285862,-1.3465303,-1.1565627,0.8824929,-0.13501306,-0.3038786,0.30610743,-0.4514923,-0.5416765,0.650641,-1.1787415,0.42574912,-0.98154014,-0.43201828,-0.5500126,0.6063077,0.9707489,-0.0032187055,0.22738141,0.07703137,-1.2837708,0.38737115,-0.9393916,0.0,1.0,0.0,0.0,0.0,0.0,0.0,-0.19850767,0.14167652,-0.10064101,0.14634132,-0.80344677,7.4362993,-7.6097727,26.2013,-0.27586222,1.4072001
8.796549,80.496704,16.377558,9.876604,2.0918427,0.5193927,0.1626781,-0.75148034,-0.7136409,-0.5721153,0.4012545,0.14575821,-0.4824055,0.50344396,0.49907702,-1.3048924,-2.2285717,-0.58318186,1.8680271,1.8097446,-0.9345779,0.5609251,-1.2468493,-2.1823647,-0.6151848,1.8535708,1.8549018,-0.9817832,-1.3310995,-1.3274535,-1.078465,0.7880286,0.058220748,-0.3112058,0.31619033,-0.46300125,-0.5373306,0.64079696,-1.1412834,0.43792006,-0.9838022,-0.44476318,-0.5459223,0.5970341,0.97199845,0.006574377,0.22474286,0.06831046,-1.2660737,0.42726588,-0.9251712,0.0,1.0,0.0,0.0,0.0,0.0,0.0,-0.18699872,0.13733062,-0.09079695,-0.457263,1.8065453,8.695269,-9.669865,18.48925,-1.1053741,0.90806484
13.137218,78.97813,15.6619625,7.13577,1.3717297,0.47970355,0.33103633,-0.75016135,-0.70637023,-0.56432813,0.29437652,0.18951115,-0.53064203,0.5296948,0.485909,-1.3174863,-2.2387974,-0.5857471,1.8725219,1.8018376,-0.92881376,0.5475775,-1.2599108,-2.1926973,-0.60831153,1.8551552,1.8516991,-0.97853863,-1.3366402,-1.2991407,-1.0155877,0.652977,0.189498,-0.32432264,0.32683077,-0.47410583,-0.5328989,0.63090914,-1.0994701,0.4445992,-0.98843235,-0.45721054,-0.54152393,0.58783066,0.9732638,0.01585658,0.22111419,0.06012125,-1.2322898,0.45529476,-0.920635,0.0,1.0,0.0,0.0,0.0,0.0,0.0,-0.17589414,0.1328989,-0.08090913,-0.7481098,2.7596235,7.07283,-13.745176,12.379986,-1.5836656,0.9389043
10.957243,85.510086,16.407394,9.969278,1.4439024,0.5387148,0.26349998,-0.7516491,-0.6830212,-0.51381,0.28652596,0.22164813,-0.5529565,0.5365834,0.4724126,-1.328213,-2.2440784,-0.5796589,1.87732,1.7964034,-0.92488027,0.53417075,-1.27261,-2.202367,-0.60259134,1.8577086,1.8483558,-0.97519517,-1.3426201,-1.260555,-0.94810677,0.54424083,0.27513388,-0.338563,0.33645168,-0.48476028,-0.5284071,0.62106633,-1.053789,0.45044538,-0.9814041,-0.46931458,-0.53683376,0.5787559,0.9745044,0.024706671,0.21675432,0.052424017,-1.1970923,0.4840479,-0.90502846,0.0,1.0,0.0,0.0,0.0,0.0,0.0,-0.16523969,0.12840709,-0.07106632,-0.780797,3.7902117,7.4929953,-11.107672,7.8749895,-1.6579449,0.82764626
