Afshin1997/kuka_rl_ros2/src/catch_and_throw/input_files/idealpd/polynomial_regressor/optimizer_files/env_222_data.csv
torque0,torque1,torque2,torque3,torque4,torque5,torque6,action0,action1,action2,action3,action4,action5,action6,set_target_0,set_target_1,set_target_2,set_target_3,set_target_4,set_target_5,set_target_6,joint_pos_0,joint_pos_1,joint_pos_2,joint_pos_3,joint_pos_4,joint_pos_5,joint_pos_6,joint_vel_0,joint_vel_1,joint_vel_2,joint_vel_3,joint_vel_4,joint_vel_5,joint_vel_6,tennisball_pos_0,tennisball_pos_1,tennisball_pos_2,tennisball_lin_vel_0,tennisball_lin_vel_1,tennisball_lin_vel_2,end_effector_pos_0,end_effector_pos_1,end_effector_pos_2,end_effector_rot_0,end_effector_rot_1,end_effector_rot_2,end_effector_rot_3,end_effector_lin_vel_0,end_effector_lin_vel_1,end_effector_lin_vel_2,obs_task_0,obs_task_1,obs_task_2,obs_task_3,obs_task_4,obs_task_5,obs_task_6,to_final_target_0,to_final_target_1,to_final_target_2,joint_acc_0,joint_acc_1,joint_acc_2,joint_acc_3,joint_acc_4,joint_acc_5,joint_acc_6
0.0,0.0,0.0,0.0,0.0,0.0,0.0,0.0,0.0,0.0,0.0,0.0,0.0,0.0,1.7802359,-1.0646509,-1.8151424,-1.1170107,1.9373155,1.1170107,-0.91629785,1.7802359,-1.0646509,-1.8151424,-1.1170107,1.9373155,1.1170107,-0.91629785,0.0,0.0,0.0,0.0,0.0,0.0,0.0,3.0375862,-0.24289703,0.31725758,-3.4142408,-0.36599573,4.9186606,0.530416,-0.45449448,0.693097,0.5745483,0.17512383,0.15255436,0.7848268,0.0,0.0,0.0,1.0,0.0,0.0,0.0,0.0,0.0,0.0,-3.6875863,-0.15710297,0.23274243,0.0,0.0,0.0,0.0,0.0,0.0,0.0
0.0,0.0,0.0,0.0,0.0,0.0,0.0,0.0,0.0,0.0,0.0,0.0,0.0,0.0,1.7802359,-1.0646509,-1.8151424,-1.1170107,1.9373155,1.1170107,-0.91629785,1.7802359,-1.0646509,-1.8151424,-1.1170107,1.9373155,1.1170107,-0.91629785,0.0,0.0,0.0,0.0,0.0,0.0,0.0,3.0375862,-0.24289703,0.31725758,-3.4142408,-0.36599573,4.9186606,0.530416,-0.45449448,0.693097,0.5745483,0.17512383,0.15255436,0.7848268,0.0,0.0,0.0,1.0,0.0,0.0,0.0,0.0,0.0,0.0,-3.6875863,-0.15710297,0.23274243,0.0,0.0,0.0,0.0,0.0,0.0,0.0
0.0,0.0,0.0,0.0,0.0,0.0,0.0,0.0,0.0,0.0,0.0,0.0,0.0,0.0,1.7802359,-1.0646509,-1.8151424,-1.1170107,1.9373155,1.1170107,-0.91629785,1.7802359,-1.0646509,-1.8151424,-1.1170107,1.9373155,1.1170107,-0.91629785,0.0,0.0,0.0,0.0,0.0,0.0,0.0,3.0375862,-0.24289703,0.31725758,-3.4142408,-0.36599573,4.9186606,0.530416,-0.45449448,0.693097,0.5745483,0.17512383,0.15255436,0.7848268,0.0,0.0,0.0,1.0,0.0,0.0,0.0,0.0,0.0,0.0,-3.6875863,-0.15710297,0.23274243,0.0,0.0,0.0,0.0,0.0,0.0,0.0
-176.0,75.20073,-3.3442497,110.0,10.616529,5.0133543,-3.8508394,-0.81400114,0.37996995,-0.53664684,0.7207972,0.20262808,0.64982533,-0.5836899,1.6988357,-1.0266539,-1.8688071,-1.0449309,1.9575783,1.1819932,-0.97466683,1.7786013,-1.0620397,-1.8210151,-1.1124102,1.9418454,1.1218287,-0.91717523,-0.21772972,0.34750023,-0.7824537,0.6136276,0.60298795,0.64037174,-0.116752915,3.0034685,-0.24655151,0.36567083,-3.4108272,-0.3656298,4.815557,0.5282459,-0.45762634,0.6939863,0.57818806,0.17375,0.1514557,0.7826689,-0.28906697,-0.4174592,0.11833492,1.0,0.0,0.0,0.0,0.0,0.0,0.0,-3.6534686,-0.15344849,0.18432918,-21.716187,34.533756,-78.03729,61.428364,60.049915,63.47615,-11.587814
-176.0,-8.88893,-36.149887,110.0,11.903879,2.1778903,-3.4368677,-0.81641006,-0.04514401,-0.5581378,0.69185275,0.37918854,0.6243142,-0.6202436,1.6969603,-1.0665542,-1.8768289,-1.0432249,1.9797642,1.1842601,-0.9791996,1.7762343,-1.0581945,-1.8357589,-1.099116,1.9511437,1.1341292,-0.91731066,-0.24054626,0.39521214,-1.7065756,1.5709621,1.0385673,1.421108,0.023580505,2.9693851,-0.250206,0.41305384,-3.407417,-0.36526424,4.7125564,0.5233917,-0.46572495,0.69519055,0.58636975,0.1704312,0.14849891,0.7778635,-0.5523323,-0.93945456,0.12185183,1.0,0.0,0.0,0.0,0.0,0.0,0.0,-3.6193852,-0.14979401,0.13694617,-1.6049355,4.2486134,-92.88301,96.59159,43.562305,76.42445,14.858672
-146.87663,101.22212,26.521633,86.13284,7.8648944,7.1008563,-1.8883816,-0.7669528,0.3069651,-0.022094294,0.56539327,0.45857,0.6471625,-0.5671741,1.699539,-1.027498,-1.8379683,-1.0425767,1.9970007,1.1988454,-0.97402805,1.7706591,-1.0535368,-1.8512905,-1.081946,1.9618783,1.1482168,-0.9174184,-0.66337174,0.4859992,-1.495643,1.7668184,1.0799524,1.398092,-0.023487007,2.935336,-0.25385666,0.4594076,-3.4040103,-0.36489907,4.6096587,0.5157175,-0.4766159,0.6978498,0.59736043,0.16569479,0.14436798,0.771274,-0.8465071,-1.1320435,0.31828377,1.0,0.0,0.0,0.0,0.0,0.0,0.0,-3.5853362,-0.14614335,0.090592414,-42.348343,8.116049,22.996117,19.941902,2.628851,-4.3029547,-5.066591
-89.60267,124.00328,46.283897,56.15638,4.659328,7.970687,-0.52067953,-0.78464574,0.29045016,0.07791763,0.60100025,0.43518832,0.62583,-0.5882773,1.6921945,-1.0244918,-1.8434987,-1.0218459,2.005397,1.2107998,-0.9762461,1.7609469,-1.048364,-1.8618896,-1.0649477,1.9719472,1.161307,-0.91810507,-1.0752798,0.525109,-0.9066265,1.6776145,0.9770554,1.2749747,-0.086112775,2.9013214,-0.2575035,0.50473315,-3.400607,-0.36453426,4.506864,0.5055475,-0.4880829,0.7025644,0.60937214,0.15958972,0.13935381,0.7640531,-1.0852317,-1.1405143,0.52784914,1.0,0.0,0.0,0.0,0.0,0.0,0.0,-3.5513215,-0.1424965,0.045266867,-41.62284,3.1314373,61.314426,-8.866906,-11.939419,-13.632154,-6.955483
-34.201103,134.67213,53.656662,29.397675,1.5894432,6.9960713,0.23790142,-0.7959556,0.39389285,0.03200879,0.5723458,0.5031332,0.61528414,-0.57228345,1.6813513,-1.0089748,-1.8586887,-1.0077132,2.0222604,1.2228354,-0.9753334,1.7479006,-1.0425161,-1.8666275,-1.0500056,1.9809136,1.1730067,-0.9194116,-1.3827732,0.6027734,-0.32282194,1.4323298,0.8657905,1.1328833,-0.14791875,2.867341,-0.26114655,0.54903156,-3.3972073,-0.3641698,4.404172,0.49365997,-0.49873352,0.70913273,0.6212469,0.152272,0.13383,0.75693786,-1.2350676,-1.0262519,0.7030343,1.0,0.0,0.0,0.0,0.0,0.0,0.0,-3.5173411,-0.13885346,0.00096845627,-31.26247,7.219422,60.388844,-24.727272,-12.308145,-14.818072,-6.922652
6.4417906,139.40062,55.90647,13.671407,-0.29689044,5.723092,0.50358814,-0.8124136,0.49416196,0.10635736,0.55830014,0.55147576,0.6013169,-0.5807064,1.6666592,-0.9930999,-1.8559917,-0.99417555,2.0360613,1.2331383,-0.97748226,1.7327906,-1.0355486,-1.8665016,-1.037541,1.9890752,1.1834017,-0.92127794,-1.5551503,0.7265972,0.1293348,1.1838753,0.79737693,1.0076659,-0.20172013,2.833395,-0.26478577,0.5923038,-3.3938107,-0.3638057,4.3015823,0.48084164,-0.5078201,0.7172753,0.6324582,0.14396909,0.12819964,0.75022286,-1.3079611,-0.85567373,0.85212153,1.0,0.0,0.0,0.0,0.0,0.0,0.0,-3.483395,-0.13521424,-0.0423038,-17.691135,11.985529,46.680386,-25.08502,-7.5354815,-12.699461,-6.0468645
30.171818,140.08354,54.844246,6.884387,-1.2902523,4.5492363,0.427984,-0.8114522,0.59144354,0.17442444,0.5641393,0.5573876,0.60867757,-0.56938666,1.6516454,-0.9764042,-1.8490591,-0.9811271,2.0448139,1.2442695,-0.9782166,1.7168432,-1.0270609,-1.863095,-1.0269877,1.996819,1.1927038,-0.92360395,-1.6091666,0.88852376,0.4145145,1.0118498,0.76548415,0.90461606,-0.24478719,2.7994823,-0.26842117,0.6345509,-3.3904176,-0.36344197,4.1990957,0.46768332,-0.5151062,0.72678876,0.642936,0.13483563,0.1228184,0.74388725,-1.3270435,-0.67174757,0.98347366,1.0,0.0,0.0,0.0,0.0,0.0,0.0,-3.4494824,-0.13157883,-0.08455092,-5.748868,15.888286,29.548532,-17.361355,-3.5553098,-10.285341,-4.875362
38.439854,128.59593,48.518738,4.3108106,-1.5336773,3.3369575,0.27970123,-0.805902,0.65056366,0.2134463,0.55696744,0.5820227,0.611021,-0.5482327,1.636253,-0.9620045,-1.8417504,-0.97129095,2.0550213,1.253806,-0.97842723,1.7009283,-1.0169653,-1.8579471,-1.0175349,2.0044942,1.2011191,-0.92627996,-1.5864292,1.0490443,0.5505876,0.92280805,0.76786447,0.8207437,-0.27682212,2.765603,-0.27205276,0.6757739,-3.3870277,-0.3630786,4.096711,0.45455313,-0.52070236,0.73739827,0.65279865,0.12507473,0.11789224,0.73777485,-1.314859,-0.50755036,1.0844994,1.0,0.0,0.0,0.0,0.0,0.0,0.0,-3.4156032,-0.12794724,-0.1257739,2.031684,15.83035,14.313137,-8.98844,0.058412552,-8.298492,-3.658253
35.956623,111.67776,40.062458,4.3077025,-1.3578054,2.3333373,0.1167774,-0.80007136,0.69709176,0.22421503,0.54889786,0.5984702,0.6258842,-0.5365478,1.6209211,-0.9472561,-1.8355256,-0.96264505,2.0643413,1.2637075,-0.97993475,1.6854903,-1.005443,-1.8522594,-1.0085074,2.0123372,1.2088209,-0.9292163,-1.5299944,1.1860981,0.5762936,0.89583224,0.7895187,0.7536849,-0.30032665,2.731758,-0.27568054,0.71597385,-3.3836415,-0.36271557,3.9944293,0.44162083,-0.52490234,0.7487681,0.6622197,0.114923514,0.11349162,0.73169476,-1.2908549,-0.37639752,1.1514438,1.0,0.0,0.0,0.0,0.0,0.0,0.0,-3.3817582,-0.124319464,-0.16597384,5.476165,13.549614,3.049314,-2.7600288,2.0837069,-6.6132903,-2.707827
27.430065,90.901695,30.526144,5.3243275,-0.95266604,1.4976046,-0.016874332,-0.7933101,0.71870434,0.21162055,0.54917616,0.6013552,0.6370418,-0.52743775,1.6061592,-0.93357253,-1.8310974,-0.95358974,2.0724728,1.2725251,-0.9819601,1.6706415,-0.9928678,-1.8468406,-0.9994608,2.0204244,1.2159525,-0.93234056,-1.4699984,1.2809519,0.5315219,0.9072137,0.8149358,0.70009077,-0.31730777,2.6979475,-0.2793045,0.75515175,-3.3802586,-0.3623529,3.89225,0.4289155,-0.52809906,0.76053506,0.67136514,0.10462077,0.109601885,0.7254728,-1.2670432,-0.28359845,1.1816827,1.0,0.0,0.0,0.0,0.0,0.0,0.0,-3.3479476,-0.1206955,-0.20515174,5.87945,9.38673,-4.1646123,1.0423064,2.5267243,-5.272782,-1.9813776
18.29982,74.39796,23.372463,6.8332534,-0.50679594,1.0162283,-0.09002637,-0.78729975,0.7333195,0.2023623,0.55410486,0.6020021,0.64679956,-0.5224564,1.5919116,-0.9195359,-1.8266044,-0.9440503,2.0806246,1.2806325,-0.9845862,1.6562983,-0.97964895,-1.8420589,-0.9901682,2.0287328,1.2226301,-0.9356012,-1.4227132,1.3353878,0.46115285,0.93611896,0.8363821,0.6573585,-0.329729,2.6641703,-0.28292465,0.7933086,-3.376879,-0.3619906,3.7901728,0.4163909,-0.53058624,0.77241284,0.6803483,0.094333194,0.10614013,0.71900046,-1.2502911,-0.22097029,1.1862429,1.0,0.0,0.0,0.0,0.0,0.0,0.0,-3.3141704,-0.117075354,-0.2433086,4.63078,5.383563,-6.817216,2.7506113,2.1750093,-4.1963816,-1.4825583
11.677083,63.184746,18.80491,7.4872346,-0.19178122,0.7676711,-0.081543684,-0.7860868,0.74355215,0.19131227,0.5423756,0.615958,0.6430693,-0.5241083,1.5776896,-0.9052937,-1.8229277,-0.93593067,2.0903287,1.2869371,-0.988012,1.6422793,-0.9661125,-1.8379638,-0.9806496,2.0372472,1.2289377,-0.9389667,-1.3953174,1.3595822,0.3930662,0.9566045,0.85681087,0.62226367,-0.33951145,2.6304264,-0.286541,0.8304454,-3.3735027,-0.3616287,3.6881976,0.40397692,-0.5325775,0.7842056,0.68920493,0.08417073,0.10299389,0.71225286,-1.2403939,-0.17606139,1.1734117,1.0,0.0,0.0,0.0,0.0,0.0,0.0,-3.2804265,-0.11345902,-0.2804454,2.6400566,2.380991,-6.612301,1.8667936,2.095449,-3.4301996,-1.2013555
7.5274053,57.670834,16.6448,8.020723,-0.006992042,0.7087423,-0.051664583,-0.7868651,0.75245917,0.17828383,0.5346288,0.6211366,0.6487015,-0.51577663,1.5635928,-0.8908666,-1.8201355,-0.9271867,2.099361,1.2938079,-0.9905444,1.6283976,-0.9524616,-1.8344429,-0.971027,2.0459332,1.2349459,-0.94240946,-1.3862073,1.3668921,0.33928323,0.9634107,0.8731749,0.5940713,-0.3464962,2.596717,-0.29015732,0.86656326,-3.3701298,-0.36126718,3.5863245,0.39161777,-0.5341835,0.79581064,0.6979257,0.074175484,0.10007473,0.70525366,-1.2360567,-0.1388221,1.1528043,1.0,0.0,0.0,0.0,0.0,0.0,0.0,-3.246717,-0.10984269,-0.31656325,0.8007765,0.7007837,-5.167842,0.4764676,1.6939998,-2.7419925,-0.91627836
8.243905,55.19364,16.10465,6.7206,-0.05423826,0.6708925,0.048750468,-0.7833812,0.75194645,0.17787008,0.5075486,0.6290549,0.65357566,-0.51767266,1.5500594,-0.87726694,-1.8166559,-0.9202722,2.1088388,1.3003035,-0.99417675,1.6145388,-0.9388231,-1.8312786,-0.9615246,2.0547643,1.2407175,-0.9459123,-1.386415,1.3627962,0.30973515,0.9451806,0.886836,0.57180506,-0.3523245,2.5630407,-0.29376602,0.9016632,-3.3667605,-0.360906,3.484553,0.37931347,-0.53539276,0.80717033,0.7064381,0.06435758,0.0973109,0.69809294,-1.2297388,-0.09920855,1.1270546,1.0,0.0,0.0,0.0,0.0,0.0,0.0,-3.2130408,-0.106233984,-0.35166317,-0.1455307,-0.43661594,-2.6989639,-2.0470977,1.4128804,-2.1241307,-0.8129358
12.45582,56.52751,17.043127,4.4641066,-0.3037116,0.6523421,0.17399669,-0.77693003,0.7583952,0.17962594,0.46812326,0.6332461,0.6508032,-0.50771284,1.5368458,-0.8629836,-1.813316,-0.9147123,2.118089,1.3057978,-0.9966836,1.6006705,-0.92522466,-1.8282478,-0.952417,2.0637097,1.2462984,-0.949459,-1.387544,1.3587097,0.301928,0.89857537,0.89717835,0.5538474,-0.35625887,2.529398,-0.29737473,0.93574613,-3.3633945,-0.3605452,3.3828835,0.3671317,-0.536129,0.8182645,0.71463156,0.054709807,0.09467868,0.69090116,-1.2150246,-0.049625516,1.1001556,1.0,0.0,0.0,0.0,0.0,0.0,0.0,-3.179398,-0.10262528,-0.38574612,-0.25236607,-0.43709278,-0.4703045,-4.8942566,1.0618448,-1.6545415,-0.64088106
14.508077,58.83305,17.936003,4.06535,-0.41743806,0.66389364,0.2102808,-0.7729512,0.76581854,0.17379889,0.4526215,0.6327845,0.65414274,-0.500126,1.5233754,-0.8486428,-1.8108679,-0.90715486,2.1269882,1.3117127,-0.9994716,1.5868021,-0.9116291,-1.8252265,-0.9438149,2.0727277,1.2517267,-0.9530334,-1.386997,1.3596867,0.30311537,0.84659475,0.9032462,0.53960127,-0.35864082,2.4957895,-0.3009758,0.9688132,-3.3600318,-0.36018473,3.2813156,0.3551221,-0.5363312,0.8291172,0.72245526,0.04519604,0.092188455,0.6837522,-1.196056,0.004853072,1.0767664,1.0,0.0,0.0,0.0,0.0,0.0,0.0,-3.1457896,-0.09902421,-0.41881317,-0.08575916,0.068330765,0.44420958,-5.421233,0.6311774,-1.2773275,-0.48778653
16.761852,59.85886,18.330822,3.1044707,-0.54853094,0.60273784,0.26341033,-0.77164924,0.7690296,0.17518912,0.41211557,0.64287347,0.653027,-0.4912402,1.5096372,-0.8347261,-1.8077077,-0.9026033,2.137015,1.3170295,-1.0021574,1.5729471,-0.8979982,-1.8221538,-0.93581927,2.0818105,1.257033,-0.95662016,-1.3853111,1.3641121,0.30990556,0.78316486,0.9101589,0.52814525,-0.35953367,2.4622145,-0.30457687,1.0008653,-3.3566725,-0.35982463,3.1798491,0.34334135,-0.53595734,0.83973575,0.72987026,0.03580447,0.08985294,0.6767081,-1.1711951,0.06301069,1.0533555,1.0,0.0,0.0,0.0,0.0,0.0,0.0,-3.1122146,-0.09542313,-0.45086533,0.027227402,0.41718483,1.0104358,-6.5615296,0.7167578,-0.9756088,-0.33715367
21.276405,59.99482,18.567013,0.31027603,-0.8368349,0.44498265,0.37591806,-0.7686136,0.7722188,0.18628818,0.33529678,0.65936184,0.6525187,-0.49871036,1.4960858,-0.82077634,-1.803525,-0.90228957,2.1477466,1.3222848,-1.0064912,1.5591246,-0.8843063,-1.8189571,-0.9286858,2.0909963,1.2622439,-0.9602193,-1.3817588,1.3707281,0.32406324,0.6893689,0.9216337,0.51940656,-0.36081,2.4286728,-0.30817032,1.0319035,-3.3533165,-0.35946488,3.078484,0.3318963,-0.53495026,0.8500818,0.73679286,0.0265729,0.087679975,0.6698823,-1.1340557,0.12741746,1.0246611,1.0,0.0,0.0,0.0,0.0,0.0,0.0,-3.078673,-0.09182969,-0.4819035,0.21078587,0.64606667,1.75668,-9.6028805,1.1724949,-0.6410599,-0.37407875
27.367722,61.169,19.360977,-3.3358974,-1.2378972,0.294356,0.53533113,-0.7650601,0.779174,0.21615042,0.2373819,0.66225314,0.6564832,-0.48227036,1.4826186,-0.8063889,-1.7973421,-0.9049476,2.1572216,1.3278922,-1.0084463,1.5453516,-0.8705257,-1.8154914,-0.92279017,2.1002927,1.2673861,-0.96381754,-1.3764461,1.3805659,0.35519022,0.5556504,0.93247145,0.51357347,-0.36029294,2.3951654,-0.31176376,1.0619289,-3.349964,-0.3591055,2.9772205,0.32093763,-0.5332184,0.86010385,0.74309844,0.017552026,0.08569235,0.66344064,-1.0809427,0.20161934,0.9908318,1.0,0.0,0.0,0.0,0.0,0.0,0.0,-3.0451655,-0.08823624,-0.51192886,0.38740635,0.9792805,3.464383,-13.590967,1.1109471,-0.27102232,-0.19196868
30.628586,63.441795,20.564085,-4.4829597,-1.3651807,0.26665992,0.6300264,-0.7610762,0.78468525,0.26613975,0.16871183,0.666515,0.6439104,-0.47733265,1.469244,-0.7920572,-1.7888775,-0.905919,2.1669443,1.3317771,-1.0115508,1.5316416,-0.8566364,-1.8115127,-0.91832507,2.1096883,1.272473,-0.96740526,-1.3695904,1.3918265,0.41294172,0.40952158,0.94232816,0.5081333,-0.35903436,2.3616905,-0.31534958,1.0909424,-3.3466146,-0.35874647,2.876058,0.3105569,-0.5307045,0.86981237,0.7487031,0.0087302765,0.08386613,0.65752095,-1.020715,0.2805504,0.9600504,1.0,0.0,0.0,0.0,0.0,0.0,0.0,-3.0116906,-0.08465043,-0.5409424,0.5603552,1.1331081,6.09898,-14.7991295,1.0327578,-0.2008915,-0.10315776
30.601067,62.211777,19.94289,-4.358744,-1.3488532,0.115731716,0.62119377,-0.75376797,0.7898981,0.2744491,0.10827129,0.67686385,0.6431432,-0.46377915,1.4562649,-0.7776466,-1.7840677,-0.90749794,2.1773746,1.3367873,-1.0137832,1.5180231,-0.8426317,-1.8069942,-0.91527903,2.1191945,1.2775141,-0.97096914,-1.3596132,1.4034275,0.4656522,0.26921937,0.95363975,0.50376076,-0.35618505,2.32825,-0.3189354,1.118945,-3.3432686,-0.3583878,2.7749968,0.30079317,-0.5274315,0.87920845,0.7536127,0.00011323705,0.082193196,0.6521596,-0.9575826,0.3540984,0.9283533,1.0,0.0,0.0,0.0,0.0,0.0,0.0,-2.97825,-0.08106461,-0.568945,0.9012222,1.1857986,5.51309,-14.189482,1.2198925,-0.076437,0.089108944
29.913853,60.817364,19.296131,-3.8927288,-1.3010423,-0.009776011,0.60042495,-0.74773824,0.7943705,0.29968524,0.041189127,0.67908317,0.64072454,-0.45264295,1.4432493,-0.7631947,-1.7770257,-0.9111601,2.1871028,1.3415866,-1.0162334,1.5045172,-0.8285183,-1.8019683,-0.9135729,2.1288037,1.2825152,-0.9744968,-1.347806,1.4141905,0.51540333,0.13731048,0.9634514,0.5000223,-0.35214153,2.2948418,-0.3225174,1.1459377,-3.339926,-0.35802948,2.6740365,0.29166174,-0.5234604,0.88828844,0.7578638,-0.008290021,0.080676116,0.6473524,-0.89343345,0.42195728,0.89646286,1.0,0.0,0.0,0.0,0.0,0.0,0.0,-2.9448419,-0.07748261,-0.59593767,1.1104822,1.1192322,5.1401258,-13.325628,1.1091709,-0.003504753,0.23949742
32.781887,56.136395,17.706778,-7.6239977,-1.620753,-0.35461158,0.71705806,-0.7516991,0.7915504,0.33282837,-0.11050501,0.68197024,0.63879305,-0.4376668,1.4293473,-0.74936324,-1.7686855,-0.9246234,2.1970007,1.3463944,-1.0182635,1.4910876,-0.81434,-1.7964332,-0.91352427,2.138493,1.2874857,-0.9779739,-1.3414936,1.4193051,0.5666014,-0.039629254,0.9714074,0.49752,-0.34668142,2.261468,-0.32609558,1.1719216,-3.3365867,-0.35767153,2.5731773,0.28327942,-0.5188141,0.89693576,0.7614038,-0.01635616,0.079363175,0.6431938,-0.81451696,0.4881826,0.8491547,1.0,0.0,0.0,0.0,0.0,0.0,0.0,-2.911468,-0.073904425,-0.6219216,0.57935715,0.56967735,5.247569,-17.818237,0.93262196,0.19836426,0.41441917
37.558064,57.56768,18.627335,-10.385872,-1.9321221,-0.49902287,0.85508627,-0.73884624,0.80156773,0.39194223,-0.2285172,0.6806238,0.63226026,-0.38599503,1.417203,-0.7341832,-1.757239,-0.936376,2.2065554,1.3507117,-1.0165734,1.4777552,-0.8000902,-1.7902458,-0.915444,2.1482396,1.2924334,-0.9813604,-1.3306558,1.4270376,0.63625175,-0.242911,0.97632354,0.49544248,-0.3363156,2.2281265,-0.32966995,1.1968976,-3.3332508,-0.35731393,2.4724188,0.2757826,-0.5134506,0.9050939,0.76413316,-0.02401696,0.078282945,0.6398401,-0.7221816,0.56037265,0.7993602,1.0,0.0,0.0,0.0,0.0,0.0,0.0,-2.8781266,-0.07033005,-0.6468976,1.0746956,0.8477211,7.0195436,-20.401413,0.6672263,0.29138327,0.939101
37.987835,58.75267,19.257185,-9.672142,-1.8634214,-0.53364193,0.8709447,-0.7223815,0.8067352,0.4365965,-0.29566965,0.68786466,0.6229965,-0.3275508,1.4055171,-0.7194167,-1.7465861,-0.94501096,2.217026,1.354733,-1.0141155,1.4645888,-0.7857555,-1.7832916,-0.919273,2.1580434,1.2973562,-0.9846038,-1.3117108,1.4359382,0.7148196,-0.4296564,0.98252445,0.49284378,-0.32057372,2.1948195,-0.3332405,1.2208668,-3.3299181,-0.3569567,2.371761,0.26920223,-0.5073776,0.9127981,0.76603013,-0.031297565,0.07741094,0.63735837,-0.6298084,0.6305741,0.75509065,1.0,0.0,0.0,0.0,0.0,0.0,0.0,-2.8448195,-0.0667595,-0.6708668,1.9337654,0.9854078,7.795155,-18.699259,0.85924864,0.23575425,1.5119255
34.10196,56.058716,18.31925,-7.091749,-1.5273159,-0.5668259,0.79989815,-0.71475744,0.79898703,0.47668713,-0.35450727,0.6911068,0.6169364,-0.28090385,1.393113,-0.7058568,-1.7356229,-0.9547237,2.227154,1.3590499,-1.0126942,1.4516245,-0.77138555,-1.7755401,-0.92472804,2.1679082,1.3022505,-0.98766416,-1.2911258,1.4376695,0.79463613,-0.5841287,0.988928,0.48965168,-0.30131677,2.1615448,-0.33680725,1.2438302,-3.3265889,-0.3565998,2.271204,0.26347303,-0.5006676,0.9200919,0.76715314,-0.03824332,0.07668721,0.63571423,-0.546992,0.68981314,0.7147363,1.0,0.0,0.0,0.0,0.0,0.0,0.0,-2.811545,-0.063192755,-0.6938302,2.1254778,0.2861023,7.823038,-15.457511,0.93079805,0.14449358,1.8867671
27.982574,55.356503,17.789486,-2.3028603,-1.0652833,-0.46824467,0.64570343,-0.70379615,0.8042309,0.50448686,-0.37442014,0.6866434,0.6060318,-0.20449787,1.3812449,-0.69096243,-1.7250915,-0.96217006,2.2365725,1.3628536,-1.008114,1.4388739,-0.75699556,-1.7670677,-0.9313208,2.177815,1.3071028,-0.9904899,-1.2694814,1.4399017,0.8642125,-0.6842662,0.9924702,0.4851553,-0.27638873,2.1283045,-0.34037018,1.2657888,-3.323263,-0.35624328,2.1707475,0.25844336,-0.49345398,0.9270658,0.76762986,-0.04494281,0.076071315,0.6347736,-0.48102337,0.73848355,0.68540996,1.0,0.0,0.0,0.0,0.0,0.0,0.0,-2.7783046,-0.059629828,-0.7157888,2.2327662,0.35555363,6.7219257,-10.029137,0.6979108,-0.043034554,2.4676263
18.00906,52.222866,16.074936,4.690689,-0.363136,-0.32458267,0.3962399,-0.6977587,0.8032037,0.5083591,-0.344667,0.6776182,0.60941625,-0.09147638,1.3690981,-0.6766752,-1.7162318,-0.9657875,2.2455769,1.3680444,-0.99963754,1.4263121,-0.74259603,-1.7580917,-0.9383503,2.187718,1.3119131,-0.9930009,-1.25153,1.440421,0.9080308,-0.7094109,0.99098235,0.48055682,-0.24286915,2.0950966,-0.3439293,1.2867436,-3.3199403,-0.35588712,2.0703914,0.25387287,-0.48586273,0.9338423,0.76766074,-0.051527325,0.075537525,0.6342995,-0.44133848,0.7697553,0.66843534,1.0,0.0,0.0,0.0,0.0,0.0,0.0,-2.7450967,-0.056070715,-0.7367436,1.8242598,0.20060539,4.1193843,-2.5817156,0.22422075,-0.13800263,3.32056
9.405754,48.64054,14.150072,9.915822,0.14953285,-0.23317178,0.18069549,-0.7065201,0.80550724,0.5097609,-0.33737534,0.6732994,0.61232543,-0.045740366,1.3556601,-0.6620453,-1.7071157,-0.97208786,2.2550478,1.3731457,-0.997575,1.4138304,-0.728186,-1.7488582,-0.9453007,2.1975865,1.3166796,-0.9951677,-1.247117,1.4417356,0.9277949,-0.6906907,0.9865527,0.47612977,-0.20815642,2.061922,-0.3474846,1.3066955,-3.316621,-0.3555313,1.9701356,0.24954557,-0.4780693,0.9404968,0.7674449,-0.058073603,0.0750902,0.6340482,-0.42206842,0.78727597,0.6576962,1.0,0.0,0.0,0.0,0.0,0.0,0.0,-2.7119222,-0.052515417,-0.75669545,0.41184425,0.28574467,1.7446637,1.7533541,-0.07382631,-0.1917839,3.4356742
2.9329195,43.318287,11.677048,12.931586,0.48228526,-0.2695108,0.028925955,-0.7189521,0.8025688,0.49809718,-0.3300765,0.66707456,0.61355346,0.012398625,1.3419352,-0.64792913,-1.6990485,-0.9783083,2.264294,1.378035,-0.99392784,1.401282,-0.71377885,-1.7396114,-0.95191824,2.2073903,1.3214041,-0.99697775,-1.2576318,1.4408357,0.92323506,-0.6526105,0.97945267,0.47189602,-0.17212096,2.028781,-0.3510399,1.3256457,-3.3133051,-0.35517585,1.8699797,0.24531698,-0.47019196,0.94703555,0.7671353,-0.06458177,0.07476512,0.6338317,-0.41529825,0.7918632,0.6457477,1.0,0.0,0.0,0.0,0.0,0.0,0.0,-2.678781,-0.04896012,-0.7756457,-1.1357784,0.059890747,-0.6287813,3.6404967,-0.36991835,-0.22414327,3.5621762
-2.2040548,38.29276,9.580025,15.238516,0.78203964,-0.29052913,-0.07879178,-0.73787695,0.7951579,0.49298203,-0.30700046,0.6643042,0.6218726,0.057695836,1.3274943,-0.63426304,-1.6903132,-0.9826183,2.2738206,1.3835914,-0.99120814,1.3885161,-0.6994184,-1.7304981,-0.95806944,2.2171216,1.3260962,-0.9984302,-1.2832606,1.4348695,0.90700656,-0.6032883,0.9719691,0.4686912,-0.1364501,1.9956722,-0.35458755,1.343595,-3.3099926,-0.35482076,1.769924,0.24107552,-0.46234894,0.9534445,0.7668428,-0.07103999,0.0745685,0.633518,-0.41917104,0.7857444,0.6323869,1.0,0.0,0.0,0.0,0.0,0.0,0.0,-2.6456723,-0.04541245,-0.793595,-2.6953936,-0.45337677,-1.7419696,4.7238827,-0.4326105,-0.16303062,3.5192072
-2.2074223,38.104847,9.661025,15.717495,0.81217647,-0.29291868,-0.07200963,-0.740323,0.79763603,0.49132508,-0.27949724,0.66159856,0.6263544,0.16477405,1.3144838,-0.61965483,-1.6813656,-0.9860192,2.2832816,1.3887316,-0.9819528,1.3755003,-0.6851057,-1.7215583,-0.96368563,2.2267804,1.3307635,-0.999484,-1.3081313,1.4305264,0.88937914,-0.54841405,0.96522194,0.46641353,-0.095085286,1.9625969,-0.35813522,1.3605446,-3.3066833,-0.35446602,1.6699685,0.23678637,-0.45455933,0.95973605,0.766587,-0.077462025,0.07450137,0.63308245,-0.42394397,0.7800165,0.62129843,1.0,0.0,0.0,0.0,0.0,0.0,0.0,-2.612597,-0.041864783,-0.81054455,-2.6245356,-0.29349327,-1.8719316,5.2805185,-0.35963058,-0.081300735,4.0861425
-6.755394,35.7428,8.843118,19.580395,1.2180431,-0.16654429,-0.1833306,-0.7566954,0.7882177,0.4752051,-0.18721846,0.64468,0.63930637,0.28207362,1.2998308,-0.6062839,-1.6740378,-0.98240745,2.2912483,1.3946941,-0.97127664,1.3622156,-0.6708683,-1.7128341,-0.9684454,2.23634,1.3354174,-1.0000737,-1.3359455,1.4219518,0.86639756,-0.45252612,0.9539395,0.46540746,-0.047139756,1.9295549,-0.36167526,1.3764952,-3.3033774,-0.35411164,1.5701128,0.23233509,-0.44688797,0.9659803,0.7664317,-0.083940215,0.074527524,0.6324413,-0.443935,0.7671514,0.618687,1.0,0.0,0.0,0.0,0.0,0.0,0.0,-2.579555,-0.038324744,-0.82649523,-2.9509783,-0.7145643,-2.4031281,9.348273,-0.7936239,-0.00192523,4.729654
-14.370618,34.38893,8.582629,27.467855,2.0119953,0.19425704,-0.41503966,-0.76506543,0.77562463,0.46120483,-0.010617709,0.62606525,0.6469629,0.36545992,1.2857091,-0.5933058,-1.6667136,-0.9695072,2.2989466,1.4001137,-0.9635277,1.3486754,-0.6567625,-1.7043617,-0.9715611,2.245747,1.3400656,-1.0001633,-1.3606035,1.407281,0.840346,-0.2654175,0.9378791,0.4646092,0.0033561236,1.8965454,-0.3652153,1.3914481,-3.3000746,-0.35375762,1.4703571,0.22745228,-0.43941116,0.97236305,0.7665322,-0.09071817,0.074533425,0.63138205,-0.49468833,0.7453267,0.63814765,1.0,0.0,0.0,0.0,0.0,0.0,0.0,-2.5465455,-0.034784704,-0.8414481,-2.6710749,-1.3134718,-2.7502298,18.42786,-1.2085676,-0.07130504,4.9622006
-27.11745,33.230267,7.9631886,39.915775,3.1932046,0.7797489,-0.8408818,-0.786373,0.77342534,0.41273385,0.25156716,0.6170397,0.6634904,0.39273223,1.2700381,-0.57942,-1.6630883,-0.94640434,2.307451,1.4064146,-0.9608901,1.3348585,-0.64279306,-1.6963241,-0.9718033,2.254994,1.34471,-0.99977803,-1.3897082,1.3939983,0.7908939,0.055213463,0.92194015,0.46398503,0.050061565,1.8635693,-0.3687477,1.4054042,-3.296775,-0.35340396,1.3707011,0.22169638,-0.43224335,0.9791836,0.76717776,-0.098169416,0.07436617,0.6295002,-0.5942419,0.71146744,0.6901954,1.0,0.0,0.0,0.0,0.0,0.0,0.0,-2.5135694,-0.031252295,-0.8554042,-3.1697035,-1.1620283,-5.155885,31.743929,-1.1018395,-0.21916628,4.576308
-27.97569,31.227125,7.3594933,41.237297,3.3156452,0.80995786,-0.9174292,-0.78947026,0.7623321,0.36844966,0.37794852,0.61244565,0.6639701,0.406621,1.2559115,-0.56655985,-1.6594791,-0.9340085,2.3162384,1.4111071,-0.9591159,1.3208052,-0.6289753,-1.6889236,-0.9686743,2.2640996,1.3493468,-0.9989655,-1.4112402,1.3782091,0.7221331,0.3978176,0.9084852,0.46277323,0.09139954,1.8306265,-0.37228012,1.4183645,-3.293479,-0.35305065,1.2711447,0.21489954,-0.42541504,0.9865386,0.76848143,-0.10643508,0.073973544,0.6266066,-0.6996601,0.6780695,0.7441139,1.0,0.0,0.0,0.0,0.0,0.0,0.0,-2.4806266,-0.027719885,-0.8683645,-2.3555279,-1.4305353,-7.1321487,33.995583,-0.8497119,-0.3468871,4.0534973
-19.415527,33.275654,8.645022,34.151173,2.5405622,0.5860353,-0.6732526,-0.80074406,0.75654995,0.3702543,0.41274667,0.60611916,0.66172385,0.39202732,1.2407308,-0.5533203,-1.6518981,-0.92739964,2.3247116,1.4155191,-0.95976275,1.3065592,-0.61530817,-1.6820858,-0.96270716,2.2730832,1.3539702,-0.99779916,-1.4294856,1.3631742,0.6703854,0.66244286,0.89616305,0.46175966,0.12478271,1.7977161,-0.37580872,1.4303299,-3.2901862,-0.35269767,1.1716878,0.20725346,-0.4188156,0.9943013,0.77028614,-0.115393914,0.07341348,0.6228594,-0.778044,0.6624118,0.7806689,1.0,0.0,0.0,0.0,0.0,0.0,0.0,-2.4477162,-0.02419129,-0.8803299,-1.9609213,-1.3955116,-5.365658,26.28336,-0.8199215,-0.2872765,3.2619462
-5.399145,36.863293,10.45217,21.867645,1.2448883,0.10308767,-0.2535571,-0.80098563,0.7536799,0.37161067,0.39058945,0.6050993,0.65935063,0.38568047,1.2264607,-0.5399402,-1.6449246,-0.92364824,2.3335931,1.4199052,-0.95923114,1.292193,-0.6017679,-1.6755836,-0.9550797,2.28196,1.3585898,-0.9963486,-1.4391832,1.3512083,0.64339817,0.79576,0.8859122,0.46207118,0.1514246,1.7648392,-0.3793335,1.4413016,-3.2868967,-0.35234502,1.0723304,0.19919586,-0.41220856,1.0022075,0.77227557,-0.12475258,0.07282287,0.618647,-0.80710554,0.6684212,0.7876025,1.0,0.0,0.0,0.0,0.0,0.0,0.0,-2.4148393,-0.02066651,-0.8913016,-1.063633,-1.1330128,-2.7290463,13.207043,-0.7610202,-0.006967783,2.5669694
5.1047235,36.09548,10.192025,10.904743,0.17860389,-0.4818408,0.07277143,-0.80369484,0.7425891,0.34859878,0.36120865,0.59691155,0.6559183,0.39023426,1.2118236,-0.527509,-1.6407237,-0.9189588,2.3416512,1.4241816,-0.9573252,1.2777678,-0.5883602,-1.6693046,-0.94700205,2.29073,1.3632208,-0.99466634,-1.443678,1.3373461,0.62304765,0.8114281,0.87458426,0.46395415,0.1734688,1.7319946,-0.38285446,1.4512805,-3.2836106,-0.35199273,0.97307223,0.19117737,-0.40548706,1.0099548,0.7741816,-0.13415082,0.0723629,0.6143369,-0.79197353,0.68179226,0.7640772,1.0,0.0,0.0,0.0,0.0,0.0,0.0,-2.3819947,-0.017145544,-0.90128046,-0.52769184,-1.3464212,-1.9333959,1.4475465,-0.99134445,0.32408237,2.0942926
12.25093,36.47507,10.094694,3.4143748,-0.5685929,-0.92646205,0.28090715,-0.80597633,0.74313855,0.32777038,0.3223411,0.60345703,0.66276896,0.38074595,1.1971701,-0.5140463,-1.6365275,-0.9147679,2.3510756,1.4294977,-0.9565917,1.2633196,-0.57505643,-1.6632335,-0.93938506,2.2994275,1.3678824,-0.99280095,-1.445316,1.3281419,0.60225165,0.7447678,0.86805385,0.4677784,0.19055249,1.6991835,-0.3863716,1.4602675,-3.2803276,-0.3516408,0.87391335,0.1835494,-0.39860916,1.0173228,0.77584213,-0.14329793,0.07216307,0.61018616,-0.7449822,0.69832814,0.7214437,1.0,0.0,0.0,0.0,0.0,0.0,0.0,-2.3491836,-0.013628393,-0.91026753,-0.23429394,-0.89302063,-1.8960238,-6.777644,-0.5931735,0.6384015,1.5962929
16.862646,36.39619,9.935979,-1.4850378,-1.0563507,-1.260432,0.42907098,-0.80455315,0.7375249,0.32313463,0.26362458,0.58732575,0.66005826,0.41217828,1.1828643,-0.5013039,-1.63092,-0.9130226,2.35816,1.4338882,-0.95158315,1.2488791,-0.5618366,-1.6573322,-0.9328276,2.3080297,1.3725821,-0.9907658,-1.4437551,1.3200487,0.5866437,0.62583303,0.8575629,0.47193927,0.20756379,1.6664047,-0.38988495,1.4682637,-3.2770479,-0.3512892,0.77485365,0.17655277,-0.39156342,1.0241789,0.7771577,-0.15199916,0.07232173,0.6063758,-0.6761403,0.7148325,0.66757435,1.0,0.0,0.0,0.0,0.0,0.0,0.0,-2.3164048,-0.010115057,-0.91826373,0.1093626,-0.7838011,-1.3500452,-11.987567,-1.0394216,0.74793696,1.5960604
17.215645,33.467564,8.712946,-2.9401593,-1.1338502,-1.4885141,0.45267823,-0.8043421,0.72575146,0.30541003,0.21373314,0.57156175,0.65836906,0.45126075,1.1684449,-0.48926145,-1.6267912,-0.91145426,2.3651857,1.438419,-0.9456397,1.2344633,-0.5487255,-1.6516178,-0.9275719,2.3164945,1.3773218,-0.9885495,-1.4409779,1.3083416,0.5668384,0.49194637,0.8427636,0.47572595,0.22604991,1.6336584,-0.39339447,1.47527,-3.2737715,-0.350938,0.67589295,0.17029381,-0.38440704,1.0304607,0.7781155,-0.16014786,0.07288506,0.60297304,-0.60083777,0.72365737,0.60926574,1.0,0.0,0.0,0.0,0.0,0.0,0.0,-2.2836585,-0.0066055357,-0.92527,0.2590418,-1.1344194,-1.8094897,-13.472444,-1.473844,0.73121786,1.7626226
15.570339,30.722528,7.687975,-1.8940492,-1.0069687,-1.5690771,0.40059617,-0.798751,0.71347696,0.2913405,0.17800623,0.5337385,0.6583424,0.48469985,1.1545882,-0.47737777,-1.6224837,-0.90977126,2.3698683,1.4431561,-0.9400795,1.220101,-0.535766,-1.6461265,-0.9235436,2.324719,1.382094,-0.9861405,-1.4347003,1.292028,0.543545,0.37289485,0.8157093,0.4787746,0.24558805,1.6009455,-0.396904,1.4812874,-3.2704985,-0.35058713,0.5770312,0.16475868,-0.37720108,1.0361792,0.77876407,-0.16773683,0.07387209,0.59994483,-0.5290182,0.72564584,0.5538176,1.0,0.0,0.0,0.0,0.0,0.0,0.0,-2.2509456,-0.0030960143,-0.93128735,0.6360054,-1.5821218,-2.2221088,-11.981421,-2.6794076,0.6354928,1.88272
16.808542,30.950764,7.9377522,-2.9190927,-1.0684075,-1.6731772,0.4633921,-0.7925899,0.70564425,0.3043876,0.086145304,0.5269707,0.6535342,0.51097816,1.140842,-0.4652016,-1.6156877,-0.91492903,2.3774161,1.4474474,-0.9350427,1.2058245,-0.52297723,-1.6407592,-0.9207932,2.3326802,1.3868872,-0.98353505,-1.4251205,1.2746755,0.53467697,0.24225494,0.78971523,0.48077294,0.26524076,1.568265,-0.40040588,1.4863169,-3.2672286,-0.35023662,0.4782683,0.15997696,-0.3699646,1.0413425,0.77908957,-0.17474878,0.07526222,0.5973423,-0.452467,0.72661597,0.49853677,1.0,0.0,0.0,0.0,0.0,0.0,0.0,-2.218265,0.00040587783,-0.9363169,0.9978056,-1.6807079,-0.80690384,-13.114494,-2.5818825,0.5278528,1.9023001
12.818416,28.531755,7.047264,0.72638416,-0.6544343,-1.5959849,0.33281106,-0.79241586,0.69648474,0.27989465,0.076970324,0.5203398,0.6567536,0.52069235,1.1265829,-0.45332876,-1.6127697,-0.91309613,2.3847141,1.4525626,-0.9314658,1.19163,-0.5103649,-1.6355407,-0.9190699,2.3404164,1.3916975,-0.9807465,-1.4174125,1.2570242,0.5177788,0.14871824,0.7682391,0.4820628,0.28320295,1.5356169,-0.40390778,1.4903595,-3.263962,-0.34988648,0.3796042,0.15584469,-0.36277008,1.04602,0.7791624,-0.1812515,0.07699339,0.5950848,-0.3914327,0.72107893,0.4524403,1.0,0.0,0.0,0.0,0.0,0.0,0.0,-2.185617,0.00390777,-0.94035953,0.799036,-1.6986132,-1.6631365,-9.416845,-2.0863295,0.39750338,1.7432213
10.039164,24.834763,5.290372,2.069735,-0.48335648,-1.697606,0.21525437,-0.7905349,0.69147027,0.2261136,0.025491761,0.5088567,0.6610259,0.5234666,1.1125765,-0.44121787,-1.6129293,-0.9165207,2.391302,1.4578001,-0.92839986,1.1775004,-0.49790704,-1.6307113,-0.91818964,2.347958,1.3965212,-0.9777968,-1.4116001,1.2422845,0.4713206,0.067584015,0.7496715,0.48324448,0.29876167,1.5030022,-0.40740204,1.4934163,-3.2606988,-0.3495367,0.2810387,0.15228367,-0.35568237,1.0502423,0.7790973,-0.18724701,0.079073094,0.5930374,-0.33601603,0.7064652,0.40731606,1.0,0.0,0.0,0.0,0.0,0.0,0.0,-2.1530023,0.0074020326,-0.9434163,0.6024122,-1.4002323,-4.6477914,-8.192095,-1.7827868,0.36099553,1.51456
9.577583,20.952465,3.6135173,0.57777214,-0.5619677,-1.9200206,0.20903268,-0.79219675,0.67812556,0.1959058,-0.06575332,0.48169047,0.6554781,0.54690874,1.0982807,-0.43009448,-1.6111207,-0.924765,2.3961272,1.462069,-0.9231059,1.1633993,-0.48561275,-1.6264484,-0.91827834,2.3552785,1.4013506,-0.9746926,-1.4095168,1.2253947,0.41111928,-0.0345991,0.7263087,0.48370534,0.31415495,1.4704199,-0.4108963,1.4954882,-3.2574387,-0.3491872,0.18257178,0.14931583,-0.34881973,1.0539627,0.7789578,-0.19263393,0.08155671,0.5911559,-0.27525893,0.68306845,0.35568532,1.0,0.0,0.0,0.0,0.0,0.0,0.0,-2.12042,0.010896295,-0.94548815,0.24716854,-1.6135216,-6.029558,-10.294281,-2.2861123,0.29476285,1.5067637
11.34801,17.570894,2.498595,-2.8473797,-0.7870774,-2.1896486,0.3005552,-0.78293645,0.6540367,0.18662904,-0.17413244,0.43891284,0.66123223,0.55445856,1.0851057,-0.42020908,-1.6077855,-0.9356916,2.3991697,1.4674739,-0.91924673,1.1493498,-0.47355974,-1.622731,-0.91967356,2.3622785,1.4061896,-0.9714463,-1.403226,1.1988696,0.35842296,-0.17469968,0.6908714,0.48477212,0.3280726,1.43787,-0.41438293,1.4965761,-3.2541819,-0.34883806,0.0842033,0.14705181,-0.34222794,1.0570896,0.7787254,-0.19727209,0.084483325,0.5895193,-0.20206958,0.65220946,0.293995,1.0,0.0,0.0,0.0,0.0,0.0,0.0,-2.0878701,0.014382929,-0.94657606,0.7364273,-2.5754929,-5.311102,-14.055181,-3.535533,0.375098,1.3651729
11.071857,14.578775,1.5721169,-3.4903607,-0.766639,-2.3098538,0.31177482,-0.7713887,0.63316804,0.1587361,-0.23807614,0.39681664,0.6610473,0.5686475,1.0722109,-0.41024292,-1.6068574,-0.94348115,2.4019601,1.4722943,-0.91458154,1.1354128,-0.46182668,-1.6195247,-0.92251456,2.3688397,1.411038,-0.96806645,-1.3902193,1.1650543,0.30766454,-0.3206933,0.64468026,0.48556256,0.34119016,1.4053526,-0.41786957,1.496681,-3.2509284,-0.34848928,-0.014066834,0.14553404,-0.3359909,1.0595804,0.7783964,-0.2010951,0.08786463,0.5881661,-0.12758154,0.6149448,0.23006289,1.0,0.0,0.0,0.0,0.0,0.0,0.0,-2.0553527,0.017869562,-0.94668096,1.4574051,-3.3014536,-5.163133,-14.6292,-4.62296,0.32718778,1.2841046
7.5515757,10.750299,0.41002578,-0.45317698,-0.49671394,-2.210996,0.19775514,-0.767059,0.6057534,0.13023862,-0.25953957,0.29520592,0.67043287,0.58252525,1.0587069,-0.40125135,-1.6065009,-0.9484685,2.3983603,1.4780813,-0.90981394,1.1216112,-0.45049703,-1.6168182,-0.9265753,2.374703,1.415898,-0.9645617,-1.3763971,1.1225501,0.25796962,-0.43459806,0.56704116,0.48667404,0.35346416,1.3728676,-0.4213524,1.495804,-3.247678,-0.34814087,-0.11223872,0.1446681,-0.33013535,1.0614746,0.77803725,-0.2041725,0.091728255,0.5869903,-0.06595273,0.5740042,0.17209518,1.0,0.0,0.0,0.0,0.0,0.0,0.0,-2.0228677,0.02135238,-0.94580394,1.5295267,-4.170084,-5.0787687,-11.443424,-7.746351,0.30820966,1.1801898
2.1033363,4.509246,-2.1502266,3.5116491,-0.17616701,-2.1564388,-0.027264794,-0.76223785,0.58074754,0.047766976,-0.27141264,0.17445183,0.67417234,0.5843502,1.0453875,-0.3924223,-1.6120415,-0.9537166,2.392148,1.4833152,-0.9061267,1.1079394,-0.4396261,-1.6148612,-0.93145335,2.379521,1.4207674,-0.9609482,-1.363842,1.0755435,0.17479993,-0.5057971,0.45342252,0.48749927,0.3636666,1.340415,-0.4248314,1.493946,-3.244431,-0.3477928,-0.21031244,0.14430237,-0.32476044,1.0628285,0.77781,-0.20658933,0.09618483,0.5857311,-0.020374257,0.5247869,0.119612664,1.0,0.0,0.0,0.0,0.0,0.0,0.0,-1.990415,0.024831384,-0.94394594,1.3680458,-4.6273947,-8.408514,-7.2208285,-11.342078,0.22452474,0.93776584
2.2449408,3.1766915,-2.8351302,1.940515,-0.6135466,-2.245424,-0.028098784,-0.7666637,0.5518464,0.033994693,-0.3773665,-0.05118514,0.6734499,0.5824994,1.031273,-0.38444147,-1.6114618,-0.96919,2.3744023,1.4881124,-0.9026983,1.094338,-0.4292549,-1.6136672,-0.9372183,2.382668,1.4256426,-0.9572499,-1.3585062,1.024526,0.10055484,-0.6002508,0.26884386,0.48797512,0.3716232,1.3079948,-0.42830658,1.491108,-3.2411873,-0.3474451,-0.30828813,0.14448118,-0.3198471,1.0636034,0.7777846,-0.20831296,0.101504534,0.5842548,0.03614768,0.47757274,0.06003129,1.0,0.0,0.0,0.0,0.0,0.0,0.0,-1.9579948,0.028306574,-0.9411079,0.6743431,-5.0349236,-7.5125127,-9.518886,-18.466068,0.17573237,0.68261623
4.4119344,2.3057342,-1.4741613,0.39562726,-0.8269773,-2.1096647,0.18064535,-0.7560693,0.4692111,0.15484162,-0.45648298,-0.3240843,0.67760634,0.57667655,1.0187311,-0.3823338,-1.598183,-0.9828666,2.3502595,1.4934032,-0.8995822,1.0808092,-0.4196614,-1.612458,-0.94408095,2.3833737,1.4305254,-0.9534886,-1.3504423,0.93789065,0.12719992,-0.71504134,0.0048199943,0.48867208,0.37717563,1.2756071,-0.43177795,1.4872909,-3.2379467,-0.34709772,-0.40616584,0.14527273,-0.31534576,1.0637515,0.77780986,-0.20939009,0.10778938,0.5827084,0.098572746,0.43891317,-0.0035143693,1.0,0.0,0.0,0.0,0.0,0.0,0.0,-1.9256071,0.03177795,-0.93729085,1.0112047,-8.599043,2.488318,-11.502099,-26.370174,0.18926263,0.41319132
-4.515196,-28.235111,-10.263434,1.8887663,0.5188743,-2.296067,0.16183382,-0.72335464,0.27528605,0.17766242,-0.46957713,-0.5136692,0.6901474,0.5717126,1.0084738,-0.3921328,-1.5946918,-0.9910387,2.332007,1.4995402,-0.8963173,1.0675017,-0.4117149,-1.6106803,-0.95192206,2.3812222,1.4354197,-0.9496901,-1.323086,0.74695826,0.19395141,-0.80739224,-0.28840372,0.48989695,0.37999576,1.2432518,-0.4352455,1.4824958,-3.2347095,-0.34675068,-0.5039457,0.1464243,-0.31159592,1.0631722,0.7778278,-0.20982733,0.11470459,0.58120483,0.12479918,0.3512103,-0.07919268,1.0,0.0,0.0,0.0,0.0,0.0,0.0,-1.8932518,0.035245508,-0.9324958,3.0713797,-19.087337,6.41368,-9.300125,-29.309908,0.1749754,0.038433075
-32.58849,-113.90374,-38.443268,4.7617455,4.2601066,-3.240235,-0.15984672,-0.7006423,-0.143179,0.12303788,-0.4869352,-0.59713256,0.69087887,0.5556479,0.9974374,-0.4260328,-1.5983765,-1.0006156,2.321509,1.5045075,-0.89412534,1.054566,-0.40744436,-1.6084907,-0.96048605,2.3763928,1.4403139,-0.94589543,-1.2816586,0.31980598,0.22657163,-0.8734122,-0.5484804,0.48874703,0.37772292,1.2109289,-0.43870926,1.4767237,-3.2314754,-0.346404,-0.6016278,0.14709663,-0.30988312,1.0615371,0.7780971,-0.20930189,0.12122921,0.5797078,0.051121335,0.10870987,-0.194264,1.0,0.0,0.0,0.0,0.0,0.0,0.0,-1.8609289,0.038709253,-0.92672366,4.7190905,-42.899834,3.0565114,-6.7911863,-26.181137,-0.2993703,-0.7293165
-50.555904,-161.89726,-55.100353,8.5778055,6.7922297,-3.7431839,-0.43336874,-0.65462583,-0.4251957,0.03272795,-0.49357986,-0.5736428,0.6690843,0.48626062,0.98910344,-0.44996393,-1.6052179,-1.0098441,2.3190286,1.5072224,-0.89726937,1.0422083,-0.40834177,-1.6065414,-0.96948016,2.3696218,1.4451605,-0.9421809,-1.2182703,-0.22738564,0.18409558,-0.90839213,-0.72067,0.4812498,0.3674781,1.1786385,-0.442173,1.4699755,-3.2282445,-0.34605765,-0.6992123,0.14651108,-0.31127548,1.058634,0.7789244,-0.20751916,0.12637958,0.57813555,-0.09427727,-0.2242072,-0.32376382,1.0,0.0,0.0,0.0,0.0,0.0,0.0,-1.8286384,0.042173,-0.91997546,7.008767,-55.04726,-4.325798,-3.5931945,-17.543077,-1.3397574,-1.5817046
-40.82041,-146.35489,-47.901333,4.2516284,6.5329175,-3.4828892,0.070265666,-0.5695955,-0.62695694,0.18588296,-0.62347794,-0.5521055,0.66047144,0.49237314,0.98524874,-0.47103745,-1.5879531,-1.0318279,2.3144112,1.5112077,-0.89294356,1.0307795,-0.41469276,-1.6044071,-0.9792315,2.3617597,1.449906,-0.93855214,-1.1158704,-0.7722016,0.22305124,-0.99689263,-0.8090429,0.469242,0.3603542,1.1463804,-0.44562912,1.4622521,-3.225017,-0.34571168,-0.7966992,0.14459467,-0.31580353,1.054429,0.7800518,-0.20445038,0.12952754,0.577011,-0.22557409,-0.5281571,-0.45336437,1.0,0.0,0.0,0.0,0.0,0.0,0.0,-1.7963804,0.045629114,-0.9122521,10.797524,-54.829155,3.8339047,-8.7097645,-9.135556,-2.1618366,-1.0326147
-12.205122,-79.75605,-22.869495,-1.9515913,3.953438,-2.6208887,0.7538009,-0.40814134,-0.70387644,0.30878875,-0.70360374,-0.60301036,0.6469274,0.47043893,0.9899653,-0.48508042,-1.5735282,-1.0495919,2.3014586,1.5145987,-0.8915082,1.0209547,-0.42549074,-1.601239,-0.990131,2.3532796,1.4545294,-0.9349873,-0.9378283,-1.1831391,0.34838453,-1.1206577,-0.8615193,0.45713785,0.35512972,1.1141548,-0.44908524,1.4535546,-3.2217927,-0.34536606,-0.8940887,0.14198017,-0.32247543,1.0491143,0.78085285,-0.20043741,0.13070816,0.5770693,-0.27667075,-0.7090082,-0.5583887,1.0,0.0,0.0,0.0,0.0,0.0,0.0,-1.7641548,0.04908523,-0.9035546,17.857122,-41.335533,12.591494,-12.261534,-5.349672,-2.1183372,-0.54854155
14.800247,-9.87697,2.0936801,-4.000861,1.2158592,-1.763239,1.0538987,-0.19280022,-0.7350664,0.28403935,-0.66996396,-0.679622,0.66495013,0.38969514,1.0016747,-0.4989974,-1.5728351,-1.0571275,2.2853174,1.5210245,-0.8960178,1.0136458,-0.4391049,-1.5969703,-1.0019217,2.3442845,1.4590784,-0.93151784,-0.6635673,-1.4211469,0.45387986,-1.1988469,-0.9119778,0.45250735,0.34469444,1.0819607,-0.45253372,1.4438839,-3.2185714,-0.34502074,-0.99138075,0.13946533,-0.33000946,1.0430586,0.7808545,-0.19604929,0.13045906,0.57862866,-0.2465662,-0.76471376,-0.62287724,1.0,0.0,0.0,0.0,0.0,0.0,0.0,-1.7319607,0.052533716,-0.8938839,26.893175,-23.889614,10.823404,-7.9004765,-4.9286127,-0.94929934,-0.8973956
31.494558,30.065546,14.245005,-7.248534,-0.7093699,-1.7948151,1.0198736,0.040407617,-0.766752,0.09894659,-0.6685833,-0.6632402,0.65396214,0.33706135,1.0176865,-0.5157801,-1.5870757,-1.06878,2.2779605,1.5244746,-0.8978117,1.0097281,-0.45407665,-1.5927684,-1.0141935,2.3349614,1.4635969,-0.9281876,-0.30434498,-1.5225043,0.4112895,-1.2376355,-0.93837243,0.4510051,0.32965696,1.049799,-0.4559822,1.4332411,-3.2153535,-0.34467578,-1.0885756,0.13771725,-0.33771896,1.0365053,0.7799582,-0.19153363,0.12941465,0.581577,-0.15329818,-0.76538205,-0.66823184,1.0,0.0,0.0,0.0,0.0,0.0,0.0,-1.699799,0.055982202,-0.8832411,34.92515,-10.145259,-3.6034107,-4.1261435,-2.4952292,-0.38579106,-1.3699651
33.65238,37.40932,12.948647,-8.798719,-1.4578199,-2.3533764,0.67099893,0.21912855,-0.79224795,-0.16858229,-0.67599237,-0.6225866,0.647316,0.3271717,1.0316409,-0.5333015,-1.6096267,-1.0817928,2.2727027,1.5283285,-0.89547044,1.0095736,-0.46944225,-1.5905197,-1.0266562,2.3256001,1.468104,-0.9250109,0.076909326,-1.5413399,0.16607982,-1.2500403,-0.93539506,0.44976854,0.31370583,1.0176697,-0.45942688,1.421627,-3.212139,-0.34433118,-1.1856732,0.13708305,-0.34549332,1.029476,0.7784336,-0.18671548,0.12812962,0.585458,-0.03440316,-0.77429056,-0.71704304,1.0,0.0,0.0,0.0,0.0,0.0,0.0,-1.6676697,0.059426874,-0.87162703,36.968178,-1.905036,-23.553122,-1.505208,0.31529665,-0.37035942,-1.5753806
30.09154,31.828707,7.3908167,-9.345203,-1.61306,-2.8868308,0.3252688,0.37466505,-0.80320084,-0.4106211,-0.6891998,-0.5961715,0.6498105,0.3208246,1.0470401,-0.5497623,-1.6315818,-1.0955762,2.265983,1.5330851,-0.8929285,1.0130736,-0.48469293,-1.5918357,-1.0391741,2.3164144,1.4725996,-0.9219887,0.4373864,-1.5198014,-0.22743602,-1.2532521,-0.9135693,0.44823498,0.29810888,0.9855728,-0.46286774,1.4090427,-3.2089274,-0.34398693,-1.2826738,0.1376586,-0.3535385,1.0218662,0.77665454,-0.18125778,0.12700813,0.5897646,0.08957422,-0.8084916,-0.77901024,1.0,0.0,0.0,0.0,0.0,0.0,0.0,-1.6355728,0.06286773,-0.8590427,34.962505,2.102685,-38.321213,-0.52526,2.1116614,-0.49782395,-1.6271353
24.261398,26.46332,3.6786847,-7.1129932,-1.4324172,-2.9277174,0.09347469,0.477391,-0.80259854,-0.56770426,-0.694671,-0.6059873,0.6482766,0.32569122,1.0608127,-0.5649528,-1.6486062,-1.1086411,2.2558155,1.5374273,-0.8894196,1.0196863,-0.49962223,-1.5973232,-1.0516977,2.3074193,1.4770781,-0.91910386,0.73318285,-1.4841913,-0.6531469,-1.2522074,-0.8947281,0.44633925,0.28491154,0.9535079,-0.46630478,1.3954891,-3.205719,-0.343643,-1.3795774,0.13937187,-0.3620186,1.0135938,0.7748871,-0.1749477,0.1262981,0.5941314,0.20161055,-0.85343987,-0.8477799,1.0,0.0,0.0,0.0,0.0,0.0,0.0,-1.6035079,0.06630477,-0.8454891,28.778326,3.50132,-41.780807,0.00081062317,1.800859,-0.57222843,-1.4054179
20.485325,27.387197,4.918235,-3.2884674,-1.0759698,-2.4266012,0.07963264,0.55728,-0.80932903,-0.6143663,-0.69488853,-0.60968536,0.6557069,0.30802125,1.0754143,-0.58055514,-1.6587598,-1.1211866,2.2464507,1.5426488,-0.88830173,1.0286871,-0.51425636,-1.6063678,-1.0641928,2.2985692,1.481547,-0.91634583,0.9539689,-1.4566902,-0.986744,-1.2486924,-0.88181907,0.44586036,0.2726598,0.92147446,-0.469738,1.3809673,-3.202514,-0.34329942,-1.476384,0.14203787,-0.37083054,1.0046904,0.77316326,-0.16785625,0.12599097,0.59847236,0.2931672,-0.8854105,-0.91045314,1.0,0.0,0.0,0.0,0.0,0.0,0.0,-1.5714744,0.069738,-0.83096725,21.574677,2.7032375,-32.921528,0.31528473,1.2526989,-0.3809929,-1.2530446
14.844479,30.066639,7.561694,2.7163706,-0.5712521,-1.6336219,0.07101922,0.57849896,-0.81229484,-0.6304529,-0.6855992,-0.63990617,0.6626084,0.30006036,1.086537,-0.59548587,-1.6694131,-1.1327527,2.2345786,1.5478078,-0.8863398,1.0391909,-0.52871406,-1.6177433,-1.0766039,2.2897153,1.4860235,-0.9136994,1.0819511,-1.4422604,-1.1873748,-1.2385681,-0.8864313,0.4473091,0.2619808,0.88947344,-0.47317123,1.365478,-3.1993122,-0.3429562,-1.5730939,0.14538717,-0.3798256,0.99527514,0.771427,-0.16023174,0.12599652,0.6027861,0.35492054,-0.8955712,-0.9588603,1.0,0.0,0.0,0.0,0.0,0.0,0.0,-1.5394734,0.07317123,-0.815478,12.583017,1.3998508,-19.925,1.0367632,-0.5096197,-0.09003878,-1.0488212
11.699095,35.33471,11.542183,7.528062,-0.15892148,-0.8827785,0.12850556,0.60014004,-0.8150597,-0.618804,-0.67863554,-0.64197785,0.6648413,0.27828297,1.0992049,-0.61022,-1.6796236,-1.1444675,2.2255175,1.5525076,-0.8858711,1.0504595,-0.5431174,-1.6301467,-1.0888872,2.2807813,1.4905211,-0.9111607,1.1415609,-1.4398346,-1.258125,-1.2249258,-0.8960488,0.45019013,0.25140476,0.85750437,-0.47659683,1.3490224,-3.1961136,-0.3426133,-1.6697072,0.14917326,-0.3887291,0.9855068,0.7695711,-0.15237482,0.12615539,0.6071466,0.3931439,-0.88212466,-0.9904682,1.0,0.0,0.0,0.0,0.0,0.0,0.0,-1.5075043,0.07659683,-0.7990224,5.914283,0.20534992,-7.1286917,1.4055014,-1.0226965,0.15985966,-0.9862304
8.041374,39.56841,14.523276,12.483033,0.26745266,-0.26973772,0.111112945,0.60460305,-0.8146827,-0.6099985,-0.6463284,-0.6501184,0.67405754,0.26327798,1.1109198,-0.6245857,-1.6911466,-1.1535201,2.2157695,1.5579268,-0.8848329,1.0619551,-0.5575408,-1.6426094,-1.1009054,2.2717252,1.4950606,-0.908726,1.1524299,-1.4433788,-1.2426691,-1.1939322,-0.9091906,0.45493987,0.24112977,0.82556725,-0.48002243,1.3316014,-3.192918,-0.3422708,-1.7662238,0.15317392,-0.39738464,0.9755559,0.7675344,-0.14457165,0.12633812,0.61157876,0.4092814,-0.85209435,-1.0044216,1.0,0.0,0.0,0.0,0.0,0.0,0.0,-1.4755672,0.080022424,-0.78160137,1.1478424,-0.39453506,1.4039516,3.150344,-1.412797,0.45196414,-0.93019605
5.0632615,39.989506,14.983879,14.651358,0.52355146,-0.026550502,0.08320144,0.5987098,-0.8163764,-0.6185519,-0.640778,-0.64567447,0.671151,0.26418585,1.121826,-0.6391784,-1.7044646,-1.1649833,2.2071576,1.5621756,-0.8823074,1.0733362,-0.5720223,-1.6546886,-1.1126184,2.262566,1.499642,-0.90638185,1.1335595,-1.4499382,-1.1969693,-1.1636729,-0.9186946,0.45941123,0.2324892,0.7936621,-0.4834404,1.313216,-3.1897259,-0.34192857,-1.8626438,0.15724564,-0.40571976,0.965508,0.7653183,-0.1369413,0.12647343,0.61606765,0.41341093,-0.8194699,-1.0126466,1.0,0.0,0.0,0.0,0.0,0.0,0.0,-1.443662,0.08344039,-0.76321596,-1.75457,-0.7015228,4.389119,3.1039476,-1.0870814,0.45529604,-0.76183975
3.0949407,40.836796,15.171919,15.91643,0.6311513,0.092864335,0.041342422,0.58571523,-0.8112912,-0.61574954,-0.62661237,-0.6526145,0.67487884,0.26239568,1.1319078,-0.65315145,-1.7162635,-1.1752797,2.1973047,1.5671299,-0.8801423,1.0844084,-0.58654106,-1.6662834,-1.124032,2.2533154,1.5042692,-0.90411496,1.0990435,-1.4526354,-1.1475888,-1.133672,-0.92779833,0.4638381,0.22503383,0.76178885,-0.48685837,1.293867,-3.1865368,-0.3415867,-1.9589676,0.16131544,-0.4137268,0.9553984,0.7629557,-0.1295105,0.12656392,0.6205699,0.41162252,-0.78610873,-1.01767,1.0,0.0,0.0,0.0,0.0,0.0,0.0,-1.4117888,0.08685836,-0.743867,-3.2770634,-0.3170967,4.7433376,3.0949116,-1.0710359,0.46853423,-0.65151453
-0.42973852,37.095398,12.77181,16.274002,0.76537514,0.023503989,-0.033931285,0.55638534,-0.8124269,-0.64035225,-0.62364507,-0.6550602,0.6794358,0.28862664,1.140047,-0.66778374,-1.7303185,-1.1863965,2.1878095,1.5722128,-0.8752523,1.0950304,-0.60107696,-1.6775997,-1.1352091,2.2439847,1.5089365,-0.9018948,1.0506353,-1.4541404,-1.126871,-1.1120379,-0.935368,0.46780443,0.2211907,0.7299471,-0.49027252,1.2735555,-3.1833508,-0.3412452,-2.055195,0.16532946,-0.42147446,0.9451913,0.76052564,-0.12219256,0.12666085,0.62500143,0.40429893,-0.7630358,-1.0286837,1.0,0.0,0.0,0.0,0.0,0.0,0.0,-1.3799471,0.090272516,-0.7235555,-4.622841,-0.21135807,1.8904209,2.3041725,-0.95466375,0.39029717,-0.31779408
-0.23437977,34.917286,11.246733,14.086912,0.641677,-0.16405958,-0.01900807,0.5428888,-0.81189185,-0.6577403,-0.64729714,-0.6421503,0.66415757,0.27062726,1.1493193,-0.6822661,-1.7433738,-1.1999388,2.1797698,1.5753523,-0.8748321,1.105187,-0.6156157,-1.6889179,-1.1463594,2.2346349,1.5136248,-0.8997195,1.0046453,-1.4540324,-1.133969,-1.1154126,-0.9352058,0.46897346,0.21652944,0.69813776,-0.49368286,1.2522825,-3.1801682,-0.34090403,-2.1513262,0.16931581,-0.42905045,0.9347891,0.7580643,-0.11482256,0.12679853,0.6293459,0.40270767,-0.74729395,-1.0506771,1.0,0.0,0.0,0.0,0.0,0.0,0.0,-1.3481377,0.093682855,-0.7022825,-4.3771505,-0.052332878,-0.8904457,-0.17118454,-0.18126965,0.0479877,-0.4099667
-1.7962098,32.487335,9.549428,12.740133,0.5640922,-0.24457878,-0.023405984,0.49808168,-0.8110564,-0.66995126,-0.67645794,-0.6526055,0.65001595,0.26281714,1.1549952,-0.6967214,-1.755913,-1.2140052,2.1693742,1.5786264,-0.87343776,1.1147925,-0.63014495,-1.7004364,-1.1577387,2.2252736,1.5183073,-0.8975928,0.94675916,-1.4528528,-1.1586137,-1.1449331,-0.9371224,0.4676123,0.21155687,0.6663599,-0.4970894,1.2300489,-3.1769886,-0.34056318,-2.247361,0.17329597,-0.43650436,0.92408794,0.7555977,-0.107236296,0.12702775,0.6335901,0.4021788,-0.73656905,-1.0832461,1.0,0.0,0.0,0.0,0.0,0.0,0.0,-1.3163599,0.09708938,-0.6800489,-5.531478,0.049829483,-2.6623487,-2.750039,-0.40326118,-0.26081204,-0.45965314
-2.876029,33.184128,9.731766,12.619479,0.5662937,-0.14000666,5.7145953e-05,0.45400473,-0.8085557,-0.65979314,-0.69607264,-0.6524497,0.64667904,0.2803423,1.160193,-0.7110005,-1.7664157,-1.227346,2.1600287,1.5829753,-0.8695586,1.123736,-0.64465034,-1.712157,-1.1695127,2.215897,1.5229708,-0.89549756,0.8778518,-1.4500059,-1.1770626,-1.1875107,-0.9385285,0.46551684,0.20896794,0.634614,-0.5004921,1.2068557,-3.1738122,-0.3402227,-2.3432999,0.17725563,-0.4438362,0.9130442,0.75311667,-0.099366024,0.12736483,0.6377458,0.3990067,-0.72347945,-1.117748,1.0,0.0,0.0,0.0,0.0,0.0,0.0,-1.284614,0.10049209,-0.65685564,-6.6099524,0.21719933,-2.0652294,-4.04222,-0.3612995,-0.34574866,-0.22099018
-12.380775,32.822716,8.960115,17.453573,1.1264571,0.32941127,-0.1259428,0.3289139,-0.8026509,-0.6240186,-0.7062051,-0.64803994,0.65121686,0.30976492,1.1566274,-0.72491544,-1.7745589,-1.2401333,2.151093,1.5880924,-0.8645211,1.1315542,-0.6591033,-1.7238414,-1.1816969,2.2065206,1.5276209,-0.89340234,0.75113904,-1.4439965,-1.166444,-1.2279632,-0.93861055,0.4644517,0.20984788,0.60289955,-0.503891,1.1827037,-3.170639,-0.33988255,-2.4391427,0.18097878,-0.45104218,0.9017173,0.7506929,-0.09126622,0.12778696,0.64171726,0.36805683,-0.7098469,-1.1439991,1.0,0.0,0.0,0.0,0.0,0.0,0.0,-1.2528995,0.103890985,-0.6327037,-12.282276,0.5142689,0.81095695,-3.7851572,-0.30525923,-0.19398332,0.11071861
-57.316696,14.227185,-4.2569723,36.14392,3.5408034,1.4301322,-0.9349891,-0.07826175,-0.79879415,-0.6214071,-0.7063308,-0.6752108,0.6560175,0.27397913,1.123728,-0.7389827,-1.7859821,-1.25233,2.1389995,1.5932226,-0.8660044,1.1363932,-0.67349136,-1.7353542,-1.194169,2.1970448,1.5322672,-0.8913281,0.3975189,-1.4378376,-1.1471076,-1.2519007,-0.9528737,0.46459076,0.20620708,0.57121706,-0.5072861,1.1575941,-3.167469,-0.33954272,-2.5348897,0.18356657,-0.4583969,0.89017975,0.7489224,-0.08292244,0.12837476,0.64479375,0.2258962,-0.73491246,-1.1630372,1.0,0.0,0.0,0.0,0.0,0.0,0.0,-1.221217,0.107286066,-0.6075941,-34.531956,0.3868103,1.6831398,-1.8563509,-2.0979166,-0.028681755,-0.48111677
-79.30881,4.053895,-11.513592,42.5215,4.7173347,1.8706583,-1.1761461,-0.313429,-0.8017936,-0.610862,-0.7792861,-0.61929387,0.58497477,0.3431868,1.1050503,-0.7536707,-1.7964404,-1.2720977,2.1351154,1.5907646,-0.8570094,1.1369005,-0.68785083,-1.7466362,-1.2071047,2.1875844,1.5368582,-0.88923764,-0.061470374,-1.4364871,-1.1228697,-1.3048924,-0.9468182,0.45660397,0.20966722,0.53956604,-0.51068115,1.1315278,-3.164302,-0.33920324,-2.630541,0.18435097,-0.4661789,0.87839794,0.7481951,-0.07417745,0.12906486,0.6465633,0.031277325,-0.7830936,-1.1888586,1.0,0.0,0.0,0.0,0.0,0.0,0.0,-1.189566,0.11068115,-0.58152777,-44.847244,-0.20329952,2.1301508,-4.5426846,-0.27313232,-0.96389055,0.23494959
-61.696365,29.61434,4.486535,39.970734,4.1467943,2.6102996,-0.62845623,-0.38458097,-0.79220426,-0.34629694,-0.7927993,-0.56848,0.6079418,0.47513348,1.0984424,-0.76707125,-1.7812659,-1.2863846,2.1307364,1.5976524,-0.8417243,1.1332575,-0.70216453,-1.7564895,-1.2205648,2.178368,1.5413958,-0.8869984,-0.46251693,-1.4305543,-0.9410285,-1.3577914,-0.9154456,0.45268968,0.22912824,0.5079465,-0.5140686,1.1045057,-3.1611385,-0.33886412,-2.7260969,0.18337202,-0.47400665,0.8666651,0.7481445,-0.06543082,0.12950303,0.6474778,-0.14111823,-0.7745278,-1.1733152,1.0,0.0,0.0,0.0,0.0,0.0,0.0,-1.1579465,0.1140686,-0.55450565,-39.240067,0.34143925,17.71519,-4.6877623,2.477944,-0.38725734,2.0709336
-42.176193,41.296616,12.679829,33.638042,3.2910848,2.3838062,-0.29398376,-0.4350505,-0.799195,-0.31751356,-0.7838122,-0.56377834,0.59241974,0.47116303,1.0897524,-0.78208405,-1.7882409,-1.298946,2.1219902,1.6006378,-0.83988214,1.1264902,-0.7164544,-1.7644508,-1.2343969,2.1694913,1.5458933,-0.8845618,-0.74602073,-1.4290375,-0.7495761,-1.3902279,-0.8800347,0.44888574,0.24927482,0.4763589,-0.51745605,1.0765287,-3.157978,-0.33852533,-2.8215573,0.18100786,-0.48158646,0.8551705,0.748382,-0.056988575,0.12947075,0.6480077,-0.2701475,-0.7442271,-1.1460099,1.0,0.0,0.0,0.0,0.0,0.0,0.0,-1.1263589,0.11745605,-0.52652866,-27.738417,-0.004673004,18.646633,-2.7793646,3.1405807,-0.28811693,2.2616057
-23.34526,36.640045,10.542393,22.664978,2.1073802,1.1008868,-0.14131223,-0.41352922,-0.80101806,-0.501146,-0.7890756,-0.5720262,0.5809994,0.48474675,1.0851374,-0.7965562,-1.8145654,-1.3133045,2.1122887,1.6039933,-0.8360871,1.1180674,-0.7307471,-1.7717235,-1.2484446,2.1608968,1.5503412,-0.8819325,-0.87333906,-1.4297734,-0.72095627,-1.4084424,-0.8536005,0.44334462,0.2681359,0.44480276,-0.5208359,1.0475978,-3.1548207,-0.33818686,-2.9169219,0.17781353,-0.48900604,0.8436903,0.7487496,-0.048605036,0.12908961,0.6483421,-0.33901703,-0.73126346,-1.1522253,1.0,0.0,0.0,0.0,0.0,0.0,0.0,-1.0948027,0.12083587,-0.49759775,-12.373281,-0.18138885,2.5582552,-1.4419794,2.3600101,-0.59593916,2.0722985
-15.0886545,26.971054,4.886825,15.722788,1.4425522,0.07798451,-0.16905789,-0.43335214,-0.8098791,-0.6361395,-0.78652763,-0.5982367,0.5714778,0.44743004,1.0747322,-0.81173503,-1.8353374,-1.3270973,2.101073,1.607489,-0.8371895,1.1090914,-0.7450961,-1.7798316,-1.2625666,2.1524167,1.5547224,-0.8791678,-0.90501624,-1.4369265,-0.8409898,-1.4120992,-0.8472346,0.43567646,0.27954957,0.4132781,-0.5242157,1.017714,-3.1516666,-0.33784875,-3.0121913,0.17418385,-0.49649048,0.8318698,0.74926466,-0.03985999,0.12858893,0.64844316,-0.37448967,-0.74321336,-1.1948678,1.0,0.0,0.0,0.0,0.0,0.0,0.0,-1.0632781,0.12421569,-0.467714,-2.941072,-0.8275032,-12.1129875,0.008392334,0.34633875,-0.9827137,1.2302697
-23.498802,19.82431,-0.53975844,17.23203,1.7879777,0.004843235,-0.3755206,-0.55364746,-0.81144536,-0.687929,-0.78425235,-0.58948445,0.5703582,0.39912993,1.0537267,-0.8262406,-1.8486246,-1.3409919,2.0934682,1.6117582,-0.8392548,1.099671,-0.75952613,-1.7895591,-1.2766523,2.1439633,1.5590254,-0.8763468,-0.95338416,-1.4455584,-1.0167841,-1.4057748,-0.84631413,0.42730168,0.28303227,0.38178492,-0.5275917,0.9868782,-3.1485155,-0.33751097,-3.1073656,0.17007923,-0.50421524,0.81951463,0.75008917,-0.030503679,0.1280839,0.6480973,-0.42621908,-0.77197963,-1.2521249,1.0,0.0,0.0,0.0,0.0,0.0,0.0,-1.0317849,0.1275917,-0.4368782,-4.555261,-1.0351181,-17.619122,1.1081219,-0.30241013,-1.1838496,0.39482117
-36.6651,17.730213,-3.6539798,21.767792,2.4958155,0.41394082,-0.6159998,-0.67770964,-0.80332416,-0.73733854,-0.7849081,-0.5348547,0.5492775,0.28058833,1.0319,-0.83985853,-1.8632929,-1.3551432,2.090478,1.6139531,-0.848288,1.0893351,-0.7739934,-1.8010547,-1.2906523,2.135651,1.5632311,-0.8735945,-1.0588431,-1.4479282,-1.193969,-1.3960412,-0.8280639,0.41679266,0.27281696,0.3503232,-0.5309639,0.95509136,-3.1453676,-0.33717352,-3.2024446,0.16520643,-0.51228714,0.8065977,0.7514387,-0.020455368,0.12753202,0.64703715,-0.511902,-0.80688715,-1.3084198,1.0,0.0,0.0,0.0,0.0,0.0,0.0,-1.0003232,0.13096389,-0.40509135,-10.155535,-0.4867077,-17.734455,1.5706778,1.2982368,-1.4956355,-0.97432137
-41.62474,23.319818,-1.002516,24.813889,3.0046988,0.99948525,-0.6543678,-0.7517799,-0.8012149,-0.74380016,-0.7740307,-0.4316528,0.54568106,0.21573712,1.014157,-0.8541149,-1.8754348,-1.3680553,2.092486,1.6177992,-0.8520208,1.0777174,-0.7884549,-1.8139274,-1.3045111,2.1278234,1.5673376,-0.87099576,-1.1947898,-1.4464732,-1.3185028,-1.3805324,-0.7696025,0.4069863,0.25601763,0.31889296,-0.5343323,0.9223545,-3.142223,-0.33683643,-3.2974286,0.15931654,-0.52062607,0.79324716,0.753385,-0.009847063,0.12669541,0.6451839,-0.61962676,-0.83128214,-1.3478645,1.0,0.0,0.0,0.0,0.0,0.0,0.0,-0.96889293,0.13433227,-0.3723545,-13.179183,-0.13668537,-12.469411,2.1727085,5.2868366,-1.4312625,-1.571691
-39.53849,30.676657,3.4078887,25.516575,3.1460109,1.3871317,-0.6729472,-0.791677,-0.8000433,-0.77106947,-0.7486364,-0.3399739,0.5390824,-0.041664504,0.9985497,-0.8684592,-1.8910344,-1.3793747,2.093826,1.6212459,-0.8751622,1.0647913,-0.8028859,-1.8277099,-1.3181219,2.1208272,1.5713526,-0.86874604,-1.3241305,-1.4429168,-1.3980404,-1.3526196,-0.6779002,0.39824218,0.21509585,0.28749418,-0.53769684,0.88866854,-3.1390812,-0.33649966,-3.3923175,0.15232563,-0.5291214,0.7796319,0.75593704,0.0011011341,0.12531787,0.64253664,-0.7313251,-0.84194565,-1.3701327,1.0,0.0,0.0,0.0,0.0,0.0,0.0,-0.93749416,0.13769683,-0.33866853,-12.568879,0.08063316,-7.9552174,3.3667564,8.663988,-1.2911797,-3.9270282
-33.1055,40.572117,9.737304,25.494696,3.0291297,1.7183809,-0.6362369,-0.82158846,-0.7927141,-0.7722869,-0.7037486,-0.26469144,0.53816664,-0.23358923,0.98263246,-0.8821573,-1.9049386,-1.3884968,2.094358,1.6251693,-0.892105,1.0507628,-0.8172463,-1.8419292,-1.3312845,2.11488,1.5752951,-0.86703134,-1.4282631,-1.4345689,-1.429939,-1.3027254,-0.5684786,0.39179513,0.15757367,0.25612688,-0.5410614,0.85403436,-3.135943,-0.33616322,-3.4871116,0.14428091,-0.5376015,0.76596117,0.7590552,0.012101986,0.12323234,0.6391419,-0.83528167,-0.8346531,-1.3703371,1.0,0.0,0.0,0.0,0.0,0.0,0.0,-0.90612686,0.1410614,-0.30403435,-10.143948,0.6011486,-3.17173,5.451417,10.5552435,-0.9629667,-5.5521755
-25.437817,49.774918,15.775364,25.482801,2.7743626,1.9230759,-0.60584986,-0.83644956,-0.7844248,-0.7690473,-0.6327334,-0.22450577,0.5338632,-0.37279704,0.9671178,-0.8956888,-1.918834,-1.3945578,2.0924294,1.6286814,-0.90431106,1.0359617,-0.83148944,-1.8562114,-1.343688,2.1099782,1.5791861,-0.8659594,-1.4969634,-1.4215747,-1.4276184,-1.2184857,-0.46488735,0.3873993,0.091039,0.22479105,-0.54441833,0.81845295,-3.1328075,-0.33582714,-3.581811,0.13530397,-0.5458908,0.7524498,0.76268375,0.02286126,0.120422736,0.6350506,-0.9251613,-0.8126044,-1.348874,1.0,0.0,0.0,0.0,0.0,0.0,0.0,-0.874791,0.14441833,-0.26845294,-6.7082405,1.1191607,0.28533936,8.749819,10.113067,-0.63839555,-6.460385
-17.95256,55.055157,19.361916,23.648611,2.4157386,1.8722024,-0.5426162,-0.84441626,-0.772217,-0.7829663,-0.5893929,-0.14860962,0.48862302,-0.4766703,0.95152014,-0.90871114,-1.9345081,-1.4026273,2.0951173,1.6280484,-0.91362643,1.020722,-0.8455628,-1.8704193,-1.3551683,2.1061254,1.5830084,-0.8655751,-1.5327973,-1.4029831,-1.4184484,-1.1238593,-0.35935435,0.3801061,0.02148526,0.19348669,-0.54777527,0.78192526,-3.1296754,-0.33549136,-3.6764157,0.1255598,-0.5539131,0.7392099,0.76675755,0.033242952,0.11692219,0.6303229,-0.9972213,-0.78342915,-1.3196199,1.0,0.0,0.0,0.0,0.0,0.0,0.0,-0.84348667,0.14777526,-0.23192525,-3.495574,1.7225981,0.9965658,9.687257,10.405678,-0.86645484,-6.7833066
-11.207857,54.6968,20.25444,19.902153,2.0760484,1.6660416,-0.4089952,-0.84411836,-0.7774744,-0.7906627,-0.57087606,-0.035796218,0.47715062,-0.5275433,0.9363102,-0.9233103,-1.9494855,-1.412256,2.1025457,1.6307235,-0.9183294,1.005324,-0.8595036,-1.8845565,-1.3658171,2.1034474,1.5867563,-0.8658564,-1.5418092,-1.3914694,-1.4119546,-1.0446503,-0.23737887,0.37250775,-0.04403033,0.16221333,-0.5511284,0.74445224,-3.1265464,-0.33515593,-3.7709258,0.115213394,-0.5616493,0.72620845,0.77117604,0.043261416,0.11268181,0.62507504,-1.0530088,-0.7535922,-1.2974424,0.0,1.0,0.0,0.0,0.0,0.0,0.0,-0.8122133,0.15112838,-0.19445223,-0.8532524,1.0460615,0.7223606,8.10349,12.111157,-0.8840084,-6.374792
-5.784094,52.407425,19.908728,15.779581,1.6634592,1.444677,-0.26490223,-0.8377946,-0.7825565,-0.8012387,-0.5572492,0.038481627,0.49368313,-0.5283465,0.92154455,-0.9377593,-1.9646804,-1.4215419,2.1072955,1.6361246,-0.91869104,0.9899671,-0.87330836,-1.8995587,-1.3761804,2.1015062,1.591243,-0.86640596,-1.5325086,-1.3788006,-1.515132,-1.0265481,-0.1761796,0.45002276,-0.066435814,0.14383459,-0.55376434,0.74133474,-1.6975203,-0.21807131,0.25536072,0.10439396,-0.569046,0.71300644,0.77572316,0.053056255,0.10802909,0.6194903,-1.0953641,-0.7197163,-1.3261969,0.0,1.0,0.0,0.0,0.0,0.0,0.0,-0.79383457,0.15376434,-0.19133472,1.3049126,0.100016594,-0.44033527,6.1419725,11.945152,-1.108396,-5.4630494
52.81653,176.0,110.0,102.90766,0.98976636,11.722827,-1.3615925,-0.80637527,0.5442256,0.66764766,0.73267186,-0.033199932,0.6577448,-0.4186568,0.9093296,-0.8188858,-1.832794,-1.3029132,2.0981863,1.6570175,-0.9082717,0.9792392,-0.88787574,-1.9106785,-1.3731973,2.090436,1.6051362,-0.865499,-0.92321944,-1.4821255,-0.9723407,0.73570156,-1.4123518,1.7113501,0.13995937,0.12687206,-0.55594635,0.74314994,-1.6958231,-0.21785328,0.15691948,0.09317207,-0.5744171,0.70409393,0.78036183,0.052785467,0.10782383,0.61369616,-1.134924,-0.46079493,-0.747909,1.0,0.0,0.0,0.0,0.0,0.0,0.0,-0.77687204,0.15594634,-0.19314992,59.830402,-10.167766,55.885147,174.99786,-122.149445,128.81538,19.726511
-3.5150857,171.71565,88.73388,82.929756,4.618302,6.3140283,-1.3678021,-0.809049,-0.591042,0.23674668,0.76995176,-0.51462376,0.5651444,-0.31204775,0.8983343,-0.94697994,-1.8870038,-1.2962022,2.0389736,1.6616507,-0.8967038,0.9702556,-0.9018671,-1.9153038,-1.3595064,2.0751162,1.6222756,-0.8642583,-0.88943344,-1.3730553,-0.28932232,1.5802767,-1.5765742,1.7198131,0.119580805,0.1099267,-0.5581207,0.74398154,-1.6941276,-0.21763547,0.058576647,0.08129501,-0.5782509,0.70008904,0.7856738,0.04524389,0.11008319,0.60708416,-1.2051479,-0.34573555,-0.2898013,1.0,0.0,0.0,0.0,0.0,0.0,0.0,-0.7599267,0.15812072,-0.19398153,3.5731912,10.436344,69.29599,84.52615,-17.710781,2.3337126,-1.7975003
-35.559383,117.0666,43.137093,54.9767,3.7820516,3.085278,-1.2352343,-0.7816751,-0.5023989,-0.31437495,0.6983043,-0.63394487,0.6398832,0.042523697,0.8920881,-0.95210695,-1.9467413,-1.289676,2.0117216,1.6862639,-0.8600059,0.9605367,-0.91414756,-1.9167515,-1.3411939,2.059743,1.63853,-0.8631177,-0.9976587,-1.1809517,-0.096321374,1.9162092,-1.5270061,1.5964812,0.11236734,0.092998505,-0.5602951,0.7438304,-1.6924338,-0.21741788,-0.039667867,0.068572044,-0.58140564,0.6988022,0.79179215,0.035524048,0.11328059,0.5991417,-1.2943491,-0.29577857,-0.08257268,1.0,0.0,0.0,0.0,0.0,0.0,0.0,-0.7429985,0.1602951,-0.19383037,-10.337734,18.831371,19.329777,33.992077,4.2524576,-11.587453,-0.691168
-42.813976,84.82162,22.019165,33.983795,2.7761436,1.5564069,-0.784343,-0.7851162,-0.4828995,-0.24012741,0.7803324,-0.6506519,0.5419979,0.09812891,0.8820251,-0.9624375,-1.9407642,-1.2631607,1.9946778,1.6927298,-0.8533048,0.94925475,-0.9245607,-1.9176422,-1.3219564,2.045724,1.6531212,-0.86204576,-1.1705806,-0.9955722,-0.08757556,1.9272382,-1.3611599,1.4147179,0.105222896,0.07608652,-0.5624695,0.74268955,-1.6907418,-0.2172005,-0.13887936,0.055068016,-0.58418655,0.698557,0.7984808,0.02613017,0.116846174,0.5899938,-1.3703129,-0.26327902,-0.013075053,1.0,0.0,0.0,0.0,0.0,0.0,0.0,-0.7260865,0.16246948,-0.19268954,-16.95695,18.283772,0.5695313,1.3639212,16.273426,-17.747211,-0.7830858
-40.490707,52.182964,4.554612,17.88473,1.7020901,0.2696356,-0.49650383,-0.7916125,-0.4678271,-0.3441267,0.78991723,-0.6272417,0.57640433,-0.018762134,0.8700935,-0.97134346,-1.9520549,-1.2429646,1.9829998,1.7107617,-0.863922,0.93639827,-0.9334919,-1.9197708,-1.3037813,2.0334635,1.6660035,-0.86112547,-1.3235108,-0.8594533,-0.25584656,1.7814306,-1.1813515,1.2465062,0.08721869,0.059191704,-0.56464005,0.7405574,-1.6890514,-0.21698335,-0.23799166,0.04095888,-0.58683777,0.69818133,0.805538,0.018396588,0.120469294,0.5798768,-1.4258343,-0.25525317,-0.052630924,1.0,0.0,0.0,0.0,0.0,0.0,0.0,-0.7091917,0.16464004,-0.19055736,-15.126324,13.4783745,-17.212755,-14.427018,17.978859,-16.623688,-1.936935
-29.810074,32.975506,-1.6970602,8.396453,0.99836135,-0.40540951,-0.24206153,-0.7929767,-0.47955176,-0.3805784,0.78907835,-0.5842437,0.5628986,-0.14572543,0.8571006,-0.98144704,-1.9578286,-1.2248734,1.9750391,1.7222934,-0.87569803,0.9224117,-0.9416048,-1.9238926,-1.2873132,2.0228434,1.6773579,-0.86047125,-1.4234707,-0.79549354,-0.4651845,1.6022967,-1.0223284,1.0985987,0.057864893,0.042314053,-0.5668068,0.7374348,-1.6873627,-0.21676642,-0.3370049,0.026462078,-0.5895119,0.6970397,0.8128,0.012762687,0.12392733,0.56906515,-1.459155,-0.2613211,-0.13997352,0.0,1.0,0.0,0.0,0.0,0.0,0.0,-0.692314,0.16680679,-0.18743479,-9.918118,6.315911,-21.20034,-17.802668,15.893698,-14.763379,-3.0398123
-18.377684,28.310587,-0.26404023,5.0606112,0.6103958,-0.56402975,-0.07041362,-0.7935312,-0.4755789,-0.41142014,0.78876185,-0.5602157,0.57013756,-0.14799507,0.8430586,-0.9891627,-1.9650346,-1.2084371,1.9668218,1.7343717,-0.8752708,0.9078338,-0.9494478,-1.9299198,-1.2723577,2.0135088,1.6874154,-0.86009455,-1.4690393,-0.78085464,-0.6489366,1.4601,-0.9037812,0.97462523,0.03078286,0.02545309,-0.56897354,0.7333228,-1.6856756,-0.2165497,-0.4359191,0.011759281,-0.59228134,0.6949948,0.82012475,0.00906234,0.1271194,0.5578117,-1.4750059,-0.26915926,-0.23014079,0.0,1.0,0.0,0.0,0.0,0.0,0.0,-0.67545307,0.16897354,-0.18332279,-4.5163393,1.3914704,-18.48986,-14.11469,11.762404,-12.449145,-2.7782097
-7.2443743,31.119186,4.8316507,4.7861004,0.4802829,-0.4850065,0.03254305,-0.77485234,-0.48648104,-0.42782524,0.7976835,-0.53010523,0.5791663,-0.15409769,0.8303486,-0.9980959,-1.9727024,-1.1925894,1.9604983,1.745332,-0.8755043,0.89318347,-0.957411,-1.9373299,-1.2583368,2.0051012,1.696399,-0.85996294,-1.4637483,-0.8017237,-0.77166796,1.383101,-0.81989896,0.87277275,0.0071655973,0.008608818,-0.5711403,0.7282224,-1.6839902,-0.21633318,-0.5347344,-0.002998352,-0.5950928,0.69218487,0.8274003,0.006836912,0.1299962,0.54631764,-1.4772373,-0.2734084,-0.30125266,0.0,1.0,0.0,0.0,0.0,0.0,0.0,-0.6586088,0.17114028,-0.17822242,0.53253174,-2.1641374,-12.237811,-7.6084137,8.219051,-10.260618,-2.3976994
-5.4063954,30.97763,6.417567,6.3389916,0.71258646,-0.32375574,0.011200383,-0.7827402,-0.5153482,-0.47085038,0.7892535,-0.48267502,0.58432835,-0.1952382,0.81490946,-1.0089458,-1.9844149,-1.1794114,1.9568337,1.7548318,-0.87948674,0.8787048,-0.965789,-1.9456669,-1.244726,1.997407,1.7045033,-0.8600669,-1.4426231,-0.8501529,-0.85399556,1.3541639,-0.7531118,0.7893702,-0.01623823,-0.008218288,-0.5732994,0.72213465,-1.6823066,-0.21611689,-0.6334509,-0.017815113,-0.5979538,0.6887436,0.83460724,0.005686857,0.1324944,0.5346433,-1.4844323,-0.2771161,-0.3613115,0.0,1.0,0.0,0.0,0.0,0.0,0.0,-0.6417817,0.1732994,-0.17213464,2.1227598,-4.9269915,-8.137751,-2.7636766,6.503737,-8.442807,-2.3318164
1.7083783,46.013145,15.312496,8.144211,0.60327417,0.1553629,0.06132681,-0.76947343,-0.49897146,-0.413968,0.783072,-0.47699893,0.6104896,-0.25395486,0.80175745,-1.0156862,-1.9870638,-1.1664188,1.949707,1.7655523,-0.8854624,0.86451507,-0.9745447,-1.954189,-1.2311914,1.9901972,1.7119076,-0.8604245,-1.4113376,-0.88450664,-0.8507832,1.3533055,-0.7113056,0.72399217,-0.042315725,-0.025028706,-0.5754585,0.7150605,-1.6806247,-0.21590082,-0.7320688,-0.03260231,-0.60069275,0.6849869,0.8416838,0.005111449,0.13467379,0.52288157,-1.4779776,-0.25966808,-0.38333687,0.0,1.0,0.0,0.0,0.0,0.0,0.0,-0.6249713,0.17545852,-0.16506046,3.0719042,-3.5559058,0.57491064,-0.033140182,3.877592,-6.606519,-2.622535
3.5905523,47.776707,17.099945,8.470447,0.62045026,0.31880635,0.09929024,-0.7559057,-0.54208416,-0.40318567,0.78269523,-0.47913754,0.6262894,-0.2375722,0.7889245,-1.0287532,-1.9945076,-1.1529219,1.9422834,1.7745366,-0.88418174,0.8506639,-0.98373735,-1.9624238,-1.2175752,1.9831775,1.7187228,-0.86105114,-1.3758337,-0.93107456,-0.818267,1.3631152,-0.70727104,0.6636408,-0.07420635,-0.042426586,-0.5769005,0.708973,-1.8181137,-0.04192752,-0.34058183,-0.047295094,-0.6032295,0.68105084,0.84858257,0.0048339055,0.13659939,0.5111014,-1.4655113,-0.23948841,-0.4018379,0.0,1.0,0.0,0.0,0.0,0.0,0.0,-0.6075734,0.17690048,-0.15897298,3.668356,-4.75626,2.5176764,0.6885052,-1.5926003,-6.9919467,-4.278196
1.268229,76.94282,27.180748,15.01502,0.6222369,0.9518869,-0.025194455,-0.7805551,-0.4008754,-0.3936603,0.7923161,-0.47319788,0.6010339,-0.25436255,0.7726084,-1.0238249,-2.0017898,-1.1383436,1.9358578,1.7788262,-0.8864874,0.8369701,-0.99263895,-1.9702199,-1.2037927,1.9761925,1.7250637,-0.8619409,-1.367616,-0.8771951,-0.76538986,1.3831867,-0.69737047,0.6239668,-0.09441244,-0.060333252,-0.57709885,0.70588946,-1.7828516,-0.012405726,-0.2995761,-0.061820507,-0.60533524,0.6773466,0.855306,0.0046230643,0.13867548,0.49919862,-1.4490273,-0.18851134,-0.36280075,0.0,1.0,0.0,0.0,0.0,0.0,0.0,-0.5896667,0.17709884,-0.15588945,0.71828365,5.1718235,5.7109594,1.9553185,0.48644543,-4.0220976,-2.164565
1.1242332,90.71269,32.07852,17.669312,0.6367825,1.2549758,-0.044394672,-0.78014565,-0.35878608,-0.35202622,0.79273754,-0.47489768,0.6087604,-0.26319003,0.75895554,-1.0285176,-2.0054226,-1.124519,1.9287027,1.7859397,-0.88825995,0.82327056,-1.0006908,-1.9773707,-1.1898328,1.9692613,1.7310812,-0.8630138,-1.3711474,-0.78207844,-0.69649,1.4000001,-0.6936722,0.5941402,-0.11222491,-0.07786131,-0.57694244,0.7034139,-1.7432885,0.024557821,-0.23257092,-0.07613945,-0.6068268,0.67422336,0.8618295,0.004240847,0.14113523,0.4871476,-1.4262676,-0.12409867,-0.2981293,0.0,1.0,0.0,0.0,0.0,0.0,0.0,-0.57213867,0.17694244,-0.15341389,-0.48484802,9.259474,7.385111,1.5783548,-0.19901991,-3.0058622,-1.9646153
-0.48113918,95.495155,32.812042,18.783152,0.6694944,1.3304238,-0.047606904,-0.7853923,-0.31063053,-0.345855,0.78695285,-0.47457868,0.62285244,-0.24108785,0.7447313,-1.0317539,-2.0119562,-1.1111375,1.9218035,1.7933664,-0.8871226,0.8094709,-1.0076431,-1.9839176,-1.1757756,1.9623646,1.7368635,-0.86422116,-1.383484,-0.66717714,-0.6391357,1.4072815,-0.69035065,0.5727286,-0.1242487,-0.09497976,-0.5764046,0.70165086,-1.7017258,0.062922016,-0.15951875,-0.090221405,-0.6076546,0.6717888,0.8681329,0.003652388,0.1441011,0.47493875,-1.4023755,-0.056377027,-0.2275701,0.0,1.0,0.0,0.0,0.0,0.0,0.0,-0.5550202,0.17640457,-0.15165085,-1.3716698,11.226845,6.242478,0.61917305,-0.25068521,-2.1786451,-1.4037967
-1.8589413,97.54834,32.258038,19.543095,0.659101,1.2678766,-0.07092818,-0.7881375,-0.24245465,-0.3534019,0.7938395,-0.4896558,0.6135294,-0.24622868,0.73065716,-1.0318886,-2.0192578,-1.0963917,1.913399,1.7982165,-0.888844,0.7955358,-1.0133499,-1.9900974,-1.1616596,1.9554487,1.7424605,-0.8655334,-1.3973436,-0.5394547,-0.6091411,1.412682,-0.6939057,0.5551185,-0.13430627,-0.111673355,-0.5754852,0.70061684,-1.6588545,0.10093769,-0.0861708,-0.104058266,-0.60779953,0.6700517,0.8742104,0.0029328428,0.1476908,0.46253103,-1.3771195,0.009740297,-0.15764014,0.0,1.0,0.0,0.0,0.0,0.0,0.0,-0.5383266,0.17548522,-0.15061682,-1.526761,12.505901,3.5026908,0.43506622,-0.9283066,-1.8152952,-1.2234151
-1.5997329,93.269325,30.05652,18.524462,0.6475936,1.1010982,-0.0377458,-0.7858175,-0.20071557,-0.348712,0.7932443,-0.4867274,0.61991173,-0.2125713,0.71695405,-1.0334214,-2.0249686,-1.0823351,1.906776,1.8044517,-0.8867905,0.7814987,-1.0178722,-1.9961132,-1.1475166,1.9485041,1.7479101,-0.8669067,-1.4062892,-0.42398158,-0.5972599,1.4144244,-0.69659406,0.5412237,-0.13897236,-0.12794638,-0.5742073,0.7002425,-1.6169466,0.1361833,-0.022303795,-0.11764383,-0.6073456,0.6689304,0.88004535,0.0021717658,0.1518986,0.44993588,-1.3516465,0.06907499,-0.09840278,0.0,1.0,0.0,0.0,0.0,0.0,0.0,-0.5220536,0.1742073,-0.15024251,-1.0370016,11.298007,1.6772509,0.077700615,-0.8093953,-1.465106,-0.6741226
-4.0377483,77.132515,23.220392,16.150036,0.72851396,0.77050275,-0.020351592,-0.7886522,-0.2094093,-0.36994258,0.7931617,-0.4893308,0.6171999,-0.2085009,0.70263344,-1.0388131,-2.0331075,-1.0682005,1.8995711,1.8096302,-0.88775676,0.76739573,-1.0216049,-2.0022047,-1.1333679,1.9415292,1.7532299,-0.86831146,-1.4120002,-0.35709807,-0.61151993,1.4147391,-0.699227,0.52855384,-0.14147948,-0.14386415,-0.57263565,0.7002696,-1.5835537,0.16385622,0.010118112,-0.13105917,-0.606411,0.6681614,0.88564557,0.001531383,0.15656278,0.43716988,-1.3370228,0.11238574,-0.0708231,0.0,1.0,0.0,0.0,0.0,0.0,0.0,-0.5061358,0.17263564,-0.15026957,-0.67539215,6.485587,-1.022768,-0.012016296,-0.69316626,-1.356554,-0.41368008
-5.480234,70.08867,20.078148,15.282432,0.7834284,0.63394207,-0.021415263,-0.79371035,-0.17928427,-0.37883684,0.795799,-0.4982894,0.6258038,-0.22602186,0.6880247,-1.0395334,-2.0400884,-1.053788,1.8917003,1.8158102,-0.89091367,0.7532394,-1.0248379,-2.0085218,-1.1192096,1.9345084,1.7584411,-0.86974764,-1.4171919,-0.31267142,-0.6370062,1.4160227,-0.7043069,0.51826704,-0.14479558,-0.1594758,-0.5708122,0.7005124,-1.553683,0.18828379,0.02856117,-0.14437008,-0.6050873,0.66756094,0.8910233,0.0011139683,0.16157065,0.42423013,-1.3277525,0.14911716,-0.057246175,0.0,1.0,0.0,0.0,0.0,0.0,0.0,-0.49052417,0.17081222,-0.1505124,-0.60756207,4.258728,-2.1752,0.105285645,-0.89359283,-1.1289954,-0.47928393
-2.893198,69.14942,20.598642,14.226358,0.86279184,0.63929343,0.029793002,-0.7930907,-0.15939681,-0.33730862,0.7864577,-0.46641532,0.63198775,-0.23446998,0.67393035,-1.0407776,-2.0422525,-1.0405638,1.8878669,1.8216399,-0.8931946,0.7390506,-1.0277408,-2.0148733,-1.1050857,1.9275393,1.763568,-0.8712191,-1.4198697,-0.2833756,-0.6334763,1.4110718,-0.69568896,0.51035273,-0.14830424,-0.17478037,-0.5687485,0.7009349,-1.5226649,0.21238911,0.04644689,-0.15757608,-0.6034012,0.6670981,0.896166,0.00084423035,0.16676426,0.41118768,-1.3164886,0.18557097,-0.04326358,0.0,1.0,0.0,0.0,0.0,0.0,0.0,-0.4752196,0.16874847,-0.15093488,-0.3738165,2.754283,0.7672787,-0.5355835,0.44761896,-0.9062886,-0.481835
-1.462585,60.837902,18.143536,12.208184,0.9123932,0.49445593,0.077037096,-0.7870148,-0.18645549,-0.3281969,0.784937,-0.45359057,0.6279362,-0.22365002,0.66034913,-1.0463864,-2.047693,-1.026592,1.8821803,1.8263617,-0.8935841,0.7248771,-1.0306057,-2.0210912,-1.0910208,1.9207053,1.7686206,-0.87271327,-1.4168252,-0.28819573,-0.61619836,1.4050492,-0.6805285,0.50312525,-0.15004206,-0.18980265,-0.5664711,0.7014192,-1.4952703,0.23263524,0.04925526,-0.1706934,-0.6014061,0.66667175,0.901072,0.00067565986,0.17193942,0.39812738,-1.308306,0.21476631,-0.04285067,0.0,1.0,0.0,0.0,0.0,0.0,0.0,-0.46019733,0.1664711,-0.15141916,0.21002293,-0.6277263,2.1186233,-0.6285429,1.1409521,-0.83203316,-0.27151108
-0.98057127,60.495705,18.094978,12.061313,0.98451096,0.4881649,0.08887726,-0.78890413,-0.17691821,-0.31360972,0.7824913,-0.43801007,0.6275027,-0.21127376,0.6459867,-1.0482975,-2.052452,-1.0127717,1.8769044,1.8313708,-0.8938407,0.7107332,-1.0335621,-2.0270536,-1.0770171,1.9140599,1.7736083,-0.87421054,-1.4138408,-0.29857302,-0.5884728,1.3987056,-0.6604391,0.4969719,-0.14993858,-0.20454979,-0.56399536,0.70192,-1.4676197,0.25240898,0.05062849,-0.18373394,-0.59911346,0.6662519,0.90574485,0.00055663945,0.17699242,0.3850967,-1.3004519,0.2436882,-0.042284105,0.0,1.0,0.0,0.0,0.0,0.0,0.0,-0.4454502,0.16399536,-0.15191996,0.203228,-1.1798441,3.1733274,-0.6587267,1.627934,-0.72643757,-0.075632334
-2.504015,56.644306,15.998683,11.732305,0.9832511,0.39076075,0.09511241,-0.7892573,-0.18685527,-0.33207595,0.7799772,-0.43605396,0.6191831,-0.15969905,0.63180745,-1.0522476,-2.0602612,-0.9990193,1.8704544,1.8355266,-0.89018047,0.6966149,-1.0366768,-2.0328596,-1.0630724,1.9075938,1.7785331,-0.875666,-1.4114705,-0.3163933,-0.57711613,1.3930925,-0.6431508,0.4907268,-0.14436014,-0.2190404,-0.56134033,0.702362,-1.442549,0.26992673,0.042590413,-0.19672298,-0.5965576,0.66577244,0.9101919,0.00054203643,0.1819058,0.37210292,-1.2961192,0.2689065,-0.050477903,0.0,1.0,0.0,0.0,0.0,0.0,0.0,-0.43095958,0.16134033,-0.15236199,0.15976429,-1.9133866,1.496625,-0.56631565,1.3887525,-0.7285714,0.47942698
-5.7139034,44.09259,10.903477,10.264787,1.0314021,0.1977107,0.08601195,-0.7905303,-0.24796107,-0.3450518,0.77965146,-0.4242516,0.6121586,-0.15675929,0.6175619,-1.0614729,-2.0673647,-0.9851073,1.8651687,1.839749,-0.8913419,0.6825081,-1.0402321,-2.0386808,-1.049166,1.9012922,1.7833905,-0.8770632,-1.4105778,-0.36888513,-0.58309746,1.3901097,-0.6265747,0.4837446,-0.13831872,-0.23334932,-0.558548,0.702535,-1.4266759,0.28209376,0.009586916,-0.20975924,-0.5938263,0.66503716,0.91444725,0.00074971473,0.18657613,0.35913068,-1.3037611,0.28527862,-0.08175342,0.0,1.0,0.0,0.0,0.0,0.0,0.0,-0.41665065,0.15854797,-0.15253496,0.057458878,-5.3485928,-0.3336072,-0.24929047,1.4183402,-0.79392195,0.5635381
-4.651856,48.4228,11.945553,10.510532,0.8736387,0.21781904,0.10723718,-0.783198,-0.22474167,-0.3604415,0.77583915,-0.43631342,0.6190199,-0.1030342,0.6041883,-1.0627062,-2.074725,-0.97158206,1.8576609,1.8452926,-0.88736665,0.66843665,-1.0441612,-2.044677,-1.0352919,1.8950855,1.7881927,-0.878365,-1.4061209,-0.40145096,-0.6041433,1.3866074,-0.6194718,0.47860035,-0.12759537,-0.24746943,-0.55563354,0.7024274,-1.4066911,0.29522732,-0.016665583,-0.22282028,-0.5909004,0.66403055,0.91849965,0.0012456798,0.19108671,0.346183,-1.3042718,0.30414864,-0.10762559,0.0,1.0,0.0,0.0,0.0,0.0,0.0,-0.40253055,0.15563354,-0.15242738,0.40028095,-3.368783,-1.8194199,-0.31621456,0.45257807,-0.6252527,1.0148674
-8.233877,41.953125,8.679484,10.290211,0.8690188,0.1113351,0.09255909,-0.7892233,-0.27040792,-0.399202,0.77892935,-0.44409752,0.5988011,-0.07109083,0.5895143,-1.071202,-2.084597,-0.95739895,1.8506757,1.8480729,-0.8854741,0.6543803,-1.0485157,-2.0510623,-1.0214254,1.8888899,1.7929304,-0.8795412,-1.4055655,-0.44703692,-0.64914185,1.3868977,-0.62019026,0.47175923,-0.11451706,-0.2614317,-0.5526085,0.70194966,-1.3922263,0.30550852,-0.05688579,-0.23594761,-0.58782196,0.66266364,0.9223555,0.0021533512,0.1954781,0.3332326,-1.3127724,0.3189293,-0.14693561,0.0,1.0,0.0,0.0,0.0,0.0,0.0,-0.38856828,0.15260848,-0.15194964,0.042152405,-4.66041,-4.2794347,0.10614395,-0.271976,-0.7872343,1.2595534
-6.388843,47.2895,10.346406,10.652602,0.7478896,0.14556158,0.12898102,-0.77856106,-0.26524198,-0.41716623,0.78172964,-0.4625942,0.6040902,0.009068869,0.5765242,-1.0750399,-2.092779,-0.9432524,1.8426305,1.8533394,-0.87863433,0.64036894,-1.0532039,-2.0579326,-1.0075359,1.8826157,1.7976109,-0.8805372,-1.3997622,-0.47647372,-0.69901925,1.38979,-0.63067615,0.46651238,-0.09488669,-0.2752118,-0.5494728,0.7011323,-1.3726736,0.3168659,-0.08870786,-0.24910212,-0.58457947,0.66095966,0.9259901,0.0035147464,0.19984747,0.32029814,-1.313413,0.33617792,-0.17895003,0.0,1.0,0.0,0.0,0.0,0.0,0.0,-0.37478817,0.1494728,-0.15113229,0.5461216,-3.0617654,-4.719305,0.34503937,-1.2953162,-0.635308,1.8883079
-8.661367,38.265663,6.551615,9.4981165,0.6757645,-0.03466034,0.15512474,-0.77491736,-0.32885894,-0.4787539,0.78866094,-0.47967413,0.5848426,0.09171318,0.5628772,-1.0860898,-2.105808,-0.9286698,1.8346483,1.8560952,-0.8713659,0.62643,-1.0583729,-2.0654929,-0.9935791,1.8761793,1.8022262,-0.8812894,-1.3919257,-0.5306068,-0.77405226,1.3979213,-0.64852595,0.4595876,-0.06879211,-0.28885078,-0.546257,0.69984293,-1.3603089,0.3239166,-0.14067027,-0.26232624,-0.5812149,0.65878546,0.9294007,0.005464602,0.20419003,0.30739367,-1.3221092,0.3461197,-0.23078963,0.0,1.0,0.0,0.0,0.0,0.0,0.0,-0.3611492,0.14625701,-0.14984292,0.7855177,-5.5134773,-7.314515,0.9200096,-1.9529581,-0.79683065,2.5492623
-8.817493,34.37706,4.985393,8.455599,0.5334052,-0.09684974,0.2017448,-0.76862276,-0.36259505,-0.52387816,0.78972065,-0.5094283,0.5826045,0.17205061,0.5495677,-1.0946324,-2.1178806,-0.91460705,1.8252366,1.8604866,-0.86408436,0.6125874,-1.0641521,-2.0738847,-0.9795409,1.8694896,1.806773,-0.8817389,-1.3816506,-0.59409493,-0.8603433,1.4062121,-0.67616093,0.452913,-0.037233252,-0.30238485,-0.5429802,0.6979675,-1.3502305,0.32895982,-0.20113225,-0.27563906,-0.5777817,0.6560253,0.9325759,0.008114951,0.20849909,0.29455805,-1.3311797,0.35361645,-0.29183426,0.0,1.0,0.0,0.0,0.0,0.0,0.0,-0.34761512,0.14298019,-0.14796752,1.0404348,-6.444049,-8.466172,0.9590864,-2.9049277,-0.7722795,3.0951343
-4.6468644,36.598454,6.894168,7.5442195,0.55339575,-0.030946374,0.2535184,-0.7537482,-0.39922905,-0.50557315,0.7939224,-0.5026136,0.59011984,0.22235292,0.53721255,-1.1040751,-2.124442,-0.90014863,1.8192282,1.8657849,-0.8595036,0.5988973,-1.0706123,-2.082868,-0.9654188,1.862578,1.8112663,-0.8818596,-1.3648789,-0.6636953,-0.91045266,1.4145432,-0.6967014,0.44791013,-0.0038834265,-0.31579542,-0.5396538,0.69552034,-1.3370339,0.33419636,-0.2570816,-0.2889986,-0.57424927,0.65270346,0.9355067,0.011358494,0.21269308,0.28188595,-1.3341112,0.362848,-0.34646147,0.0,1.0,0.0,0.0,0.0,0.0,0.0,-0.33420455,0.13965377,-0.14552033,1.6622543,-7.058871,-4.774523,0.9444237,-2.2595644,-0.6245196,3.284949
-5.152872,34.12962,6.606104,7.0279846,0.76530266,0.033980906,0.27111956,-0.76030743,-0.45888206,-0.49992636,0.78796786,-0.46562943,0.57040846,0.28793362,0.52286655,-1.1165005,-2.1328607,-0.886622,1.8160151,1.8683071,-0.85306627,0.5853188,-1.0778888,-2.0921068,-0.9512613,1.8556205,1.8157,-0.88162833,-1.3555506,-0.74917793,-0.9276334,1.4166362,-0.69598186,0.44133475,0.03214593,-0.3291006,-0.5362778,0.69247115,-1.3272469,0.33906892,-0.31838372,-0.30242872,-0.57061005,0.64882904,0.9382232,0.015048289,0.21657392,0.26945606,-1.3422254,0.3746719,-0.40193638,0.0,1.0,0.0,0.0,0.0,0.0,0.0,-0.32089937,0.13627777,-0.14247113,0.92310905,-8.643209,-1.4694571,0.35011768,-0.1481533,-0.80831647,3.60395
-2.0709348,35.899338,8.177836,6.305521,0.9009861,0.10672897,0.29017857,-0.74830866,-0.50528747,-0.47502467,0.78589284,-0.42625967,0.5597338,0.3254053,0.5104879,-1.1284176,-2.1396093,-0.872672,1.8129945,1.8716735,-0.84908783,0.57184815,-1.0860596,-2.1012428,-0.93711525,1.8488332,1.8200635,-0.8810413,-1.3442622,-0.8398329,-0.90806997,1.41436,-0.6736398,0.43429276,0.06765734,-0.34229803,-0.5328522,0.68882775,-1.3160112,0.34421754,-0.3770015,-0.31591892,-0.5668335,0.64444786,0.9407625,0.018998135,0.21995139,0.25734442,-1.3473015,0.38904035,-0.45108944,0.0,1.0,0.0,0.0,0.0,0.0,0.0,-0.30770195,0.13285217,-0.13882774,1.0982513,-9.160495,2.2612333,-0.09827614,1.9606829,-0.87512136,3.5862968
-4.403781,32.60381,6.9201303,5.970152,1.0693946,0.124450564,0.27441478,-0.7587858,-0.5658532,-0.47344813,0.77144384,-0.37256902,0.5010844,0.3600357,0.49596956,-1.1426449,-2.1485877,-0.85997087,1.8115762,1.8701719,-0.8450377,0.55841357,-1.0952034,-2.110111,-0.92306644,1.8424363,1.8243152,-0.8801092,-1.3432455,-0.93971795,-0.87868255,1.4023075,-0.6290887,0.42160803,0.10204106,-0.35541964,-0.5293808,0.6845354,-1.3097496,0.34897703,-0.4439194,-0.3295145,-0.56290054,0.63954365,0.94318056,0.02312716,0.22264773,0.24556746,-1.359198,0.40557772,-0.5048223,0.0,1.0,0.0,0.0,0.0,0.0,0.0,-0.29458034,0.12938079,-0.13453537,0.09243488,-10.078632,3.2081842,-1.0330915,4.201615,-1.4612973,3.5256252
5.0290127,43.162605,12.28199,5.254713,1.0429505,0.2908932,0.32512426,-0.72935855,-0.5980622,-0.36564103,0.77323824,-0.37798792,0.5253976,0.4086915,0.48547772,-1.1550096,-2.146675,-0.8457426,1.8046376,1.8768549,-0.83924,0.54509544,-1.1052647,-2.1182015,-0.90913206,1.8364382,1.8284724,-0.87883246,-1.3282627,-1.0285585,-0.78438336,1.39071,-0.59130317,0.41315785,0.13652496,-0.3683858,-0.5258484,0.67973125,-1.2907878,0.35512227,-0.48976183,-0.3430791,-0.5587845,0.6342685,0.94548404,0.027161963,0.22462124,0.23423813,-1.350913,0.42528382,-0.53655905,0.0,1.0,0.0,0.0,0.0,0.0,0.0,-0.28161418,0.12584838,-0.12973124,1.4168262,-8.985937,9.880363,-1.0783911,3.3614755,-1.0273039,3.5235853
10.490114,48.637012,14.948246,4.5317187,1.017774,0.34811318,0.35036987,-0.7166617,-0.63977534,-0.29712623,0.7586775,-0.3515696,0.4991177,0.44484308,0.47342926,-1.1692421,-2.1479142,-0.8332643,1.8012812,1.8783841,-0.83434814,0.53197575,-1.1161537,-2.1250978,-0.895359,1.8308177,1.8325388,-0.877219,-1.3069055,-1.1094617,-0.6561033,1.3728664,-0.55383366,0.40410414,0.1699184,-0.38111067,-0.52225494,0.67454743,-1.2649976,0.36101252,-0.5252697,-0.35647774,-0.55446243,0.62876004,0.9476812,0.030880397,0.22586499,0.22345397,-1.3312402,0.4446692,-0.55746436,0.0,1.0,0.0,0.0,0.0,0.0,0.0,-0.2688893,0.12225494,-0.12454742,2.0212412,-8.197331,13.367581,-1.7502546,3.240049,-1.0773063,3.4134836
7.9122396,50.79094,14.396454,5.3339176,0.9373717,0.34706146,0.32069114,-0.7243269,-0.6651616,-0.28685236,0.7375647,-0.3627399,0.44187865,0.44428974,0.45954305,-1.1826699,-2.153783,-0.8216025,1.7945437,1.8767267,-0.83279,0.5190038,-1.1277313,-2.130869,-0.8818329,1.8254566,1.8364829,-0.8753083,-1.2942371,-1.1742007,-0.5490434,1.3460013,-0.53179777,0.39074323,0.19829686,-0.3935671,-0.5186043,0.6690217,-1.2379467,0.3666886,-0.5593656,-0.3696723,-0.54994583,0.6230405,0.9497799,0.03433504,0.22647814,0.21318242,-1.310414,0.46458444,-0.57882303,0.0,1.0,0.0,0.0,0.0,0.0,0.0,-0.2564329,0.11860427,-0.119021714,1.1698961,-6.589055,11.211241,-2.6355028,1.7050624,-1.4877319,2.8967767
11.523664,58.459328,17.082253,5.791648,0.9567939,0.4274002,0.30815336,-0.7072795,-0.68487334,-0.18416886,0.72531146,-0.35654706,0.44386607,0.44722626,0.44827586,-1.1962186,-2.1492858,-0.80930173,1.789802,1.8808695,-0.83058566,0.5061855,-1.1398315,-2.1354003,-0.868593,1.8202581,1.8403084,-0.8731475,-1.278047,-1.2224141,-0.41928515,1.3166442,-0.5175803,0.3793795,0.22225408,-0.40569353,-0.5148964,0.6632623,-1.2029624,0.37245646,-0.5794728,-0.38258266,-0.54522324,0.6172127,0.95178336,0.037454095,0.22655584,0.20341593,-1.2795078,0.48538163,-0.586377,0.0,1.0,0.0,0.0,0.0,0.0,0.0,-0.24430645,0.11489639,-0.113262296,1.4992714,-4.949045,13.5608015,-2.9221773,0.83920956,-1.2685359,2.438867
17.420498,67.52115,21.058062,5.897606,1.1556641,0.55190355,0.29795927,-0.6938657,-0.7046358,-0.028006392,0.69790065,-0.31488186,0.436654,0.44001666,0.4367989,-1.2102951,-2.138201,-0.7988029,1.78877,1.8839738,-0.82914585,0.49355215,-1.1523266,-2.1381962,-0.85571444,1.8152757,1.8440316,-0.87078255,-1.2588731,-1.2590072,-0.23069292,1.2781826,-0.49394208,0.36961284,0.24155502,-0.4174018,-0.5111313,0.65743697,-1.1589502,0.3783636,-0.581856,-0.3951044,-0.54026794,0.611463,0.9537197,0.039951973,0.22606586,0.19420816,-1.2378923,0.507766,-0.5736112,0.0,1.0,0.0,0.0,0.0,0.0,0.0,-0.23259819,0.11113128,-0.107436955,1.7701864,-3.7995577,19.564365,-3.8807154,1.6561389,-1.0923624,1.9843549
8.358275,67.23288,18.4243,8.113945,1.2822714,0.4925118,0.21876997,-0.71979505,-0.70284754,-0.04488692,0.6572228,-0.27605113,0.32452464,0.43649757,0.42157263,-1.2226113,-2.142685,-0.78999215,1.7876706,1.876484,-0.8271328,0.4809517,-1.165041,-2.1395195,-0.8433319,1.8106134,1.847583,-0.8682536,-1.2607216,-1.2761725,-0.097506896,1.2250589,-0.4589326,0.35003665,0.25687435,-0.42870855,-0.50730515,0.6515473,-1.1203488,0.3846698,-0.59009063,-0.40729904,-0.5350723,0.6057997,0.9556203,0.041944586,0.22503476,0.18544523,-1.2084008,0.5330784,-0.5665249,0.0,1.0,0.0,0.0,0.0,0.0,0.0,-0.22129142,0.10730514,-0.1015473,-0.2737522,-1.8555403,13.858977,-5.278206,2.9161513,-2.0460606,1.5903205
6.3345647,69.30693,18.12623,8.781976,1.5114117,0.42134997,0.17035298,-0.7174669,-0.69813454,0.005924548,0.60982794,-0.12719794,0.22542663,0.44264928,0.40920502,-1.2348545,-2.138927,-0.7823491,1.7978936,1.8701258,-0.8239887,0.46829596,-1.1778011,-2.1397293,-0.83160734,1.8067027,1.8508751,-0.8655892,-1.2674286,-1.2765235,0.005873529,1.1550994,-0.37010536,0.32186127,0.26993755,-0.4396429,-0.50341415,0.6455782,-1.0838435,0.3907725,-0.5983033,-0.4192419,-0.5296135,0.6002277,0.9575378,0.04350886,0.2233593,0.17702813,-1.1848577,0.5592205,-0.5568613,0.0,1.0,0.0,0.0,0.0,0.0,0.0,-0.21035707,0.10341415,-0.09557819,-0.74272156,-0.1693964,10.796894,-6.948948,8.362526,-2.8972983,1.3750672
7.00805,54.90381,12.4384365,4.0910616,0.94909096,-0.07081765,0.2638459,-0.69644034,-0.7114035,-0.11351819,0.5195939,0.056154743,0.005514168,0.4598351,0.39865193,-1.2489414,-2.151081,-0.77964795,1.8123182,1.8514266,-0.8196057,0.45566308,-1.1905689,-2.1398587,-0.82087183,1.80416,1.8537337,-0.8628006,-1.2621275,-1.2771288,-0.018256167,1.0465894,-0.21661256,0.27355108,0.28202036,-0.45030355,-0.49950027,0.63929623,-1.0598267,0.39141962,-0.63751954,-0.43099546,-0.52401733,0.5944749,0.95951086,0.04504487,0.2208313,0.16894759,-1.1675673,0.5682527,-0.5840224,0.0,1.0,0.0,0.0,0.0,0.0,0.0,-0.19969642,0.09950027,-0.08929622,0.46901703,-0.16043186,-2.1749053,-10.782218,15.037635,-4.9231234,1.26701
0.4514742,45.48145,7.176073,3.8699894,0.6071279,-0.3793286,0.24158892,-0.6973511,-0.708679,-0.24527748,0.49245778,0.13609946,-0.13711707,0.4814435,0.38592798,-1.2614368,-2.1643865,-0.77162606,1.81777,1.840022,-0.81465626,0.4430946,-1.2033157,-2.1411405,-0.81117105,1.8032328,1.8560257,-0.8598912,-1.2551436,-1.2742608,-0.16482498,0.9450146,-0.051960517,0.21390498,0.29405522,-0.4608035,-0.49559784,0.632458,-1.0465237,0.39004868,-0.6988071,-0.44266748,-0.51839066,0.5882521,0.9615303,0.047089044,0.21746817,0.16108854,-1.162426,0.57019633,-0.6377058,0.0,1.0,0.0,0.0,0.0,0.0,0.0,-0.18919647,0.09559783,-0.08245796,0.6753206,0.20303726,-14.599477,-10.021055,16.33199,-6.087878,1.259017
3.5251882,43.33883,6.290665,2.5736156,0.2135799,-0.57775617,0.2741152,-0.66966754,-0.7096386,-0.3094136,0.463065,0.17857298,-0.30660623,0.506844,0.37612784,-1.2742796,-2.1720817,-0.76486456,1.8210901,1.8253651,-0.8092068,0.4307197,-1.2160378,-2.144211,-0.8023647,1.8037932,1.8576392,-0.8568567,-1.2317038,-1.2717091,-0.35412776,0.85966754,0.09154873,0.14329626,0.30664048,-0.47116756,-0.49172974,0.62497866,-1.0327436,0.38565227,-0.76364076,-0.45425606,-0.51280594,0.5814283,0.96355295,0.049960744,0.21339184,0.15340617,-1.1526023,0.56233376,-0.69961447,0.0,1.0,0.0,0.0,0.0,0.0,0.0,-0.17883241,0.09172973,-0.07497865,2.3175955,0.1733303,-18.863684,-8.405172,14.223396,-7.207313,1.2873888
4.8148375,49.18715,8.042938,3.7556133,0.21580046,-0.5147757,0.26115254,-0.66077447,-0.69723797,-0.35031095,0.4346887,0.21781395,-0.41405246,0.5440376,0.36464226,-1.2857616,-2.1792421,-0.7588958,1.8255746,1.816234,-0.8024529,0.41860327,-1.2286816,-2.1490595,-0.79427475,1.8055685,1.8585254,-0.8536826,-1.2050223,-1.2622274,-0.52825814,0.79241127,0.20570464,0.06983214,0.3210842,-0.48135567,-0.48791122,0.6169344,-1.0137746,0.3808767,-0.8170373,-0.46571207,-0.50730133,0.57406646,0.9655352,0.05368934,0.20874579,0.14589113,-1.1378261,0.5549105,-0.75068265,0.0,1.0,0.0,0.0,0.0,0.0,0.0,-0.16864431,0.08791122,-0.06693441,2.6331425,0.8589268,-17.27081,-6.628239,11.234969,-7.51449,1.4472187
-1.0031854,55.21329,8.859456,7.2909794,0.39116687,-0.32201797,0.19126725,-0.6734874,-0.6863266,-0.41641265,0.42357007,0.18337744,-0.49210268,0.56870174,0.35125452,-1.2973142,-2.1907008,-0.7519177,1.8239062,1.8093151,-0.7968124,0.4066442,-1.2411861,-2.1554909,-0.78667575,1.80807,1.8586875,-0.850359,-1.19295,-1.2469627,-0.68076706,0.74948746,0.2641826,-0.0023491357,0.33608028,-0.49133587,-0.48412704,0.60843295,-0.99223757,0.37794116,-0.8600061,-0.47703838,-0.501812,0.5662772,0.96742624,0.05827428,0.20375535,0.13847092,-1.1251637,0.5561676,-0.7904442,0.0,1.0,0.0,0.0,0.0,0.0,0.0,-0.1586641,0.08412704,-0.058432937,1.1812449,1.4214277,-15.048515,-4.190564,5.61707,-7.4179163,1.4842331
-1.045507,67.62676,12.937271,10.472021,0.7678365,0.013879001,0.13071333,-0.6731032,-0.6681316,-0.38509342,0.41311866,0.16002715,-0.5026762,0.5790265,0.33933386,-1.3079993,-2.1940002,-0.7453639,1.8240726,1.80842,-0.7924564,0.3947385,-1.2534752,-2.16283,-0.77937144,1.8108331,1.8581973,-0.8468926,-1.1899515,-1.223191,-0.7507345,0.7242677,0.27930158,-0.06541626,0.34995514,-0.5010338,-0.48036194,0.59968626,-0.96171564,0.3761938,-0.8781291,-0.48819447,-0.49623108,0.5582988,0.969195,0.06345938,0.19860198,0.13111523,-1.1064299,0.56728095,-0.8022285,0.0,1.0,0.0,0.0,0.0,0.0,0.0,-0.1489662,0.08036193,-0.049686253,0.24158955,2.2612095,-6.645763,-2.4873734,1.1667728,-6.5067344,1.3336241
-2.7419846,75.89228,15.240948,13.1100025,0.93527806,0.28667125,0.0941377,-0.6811187,-0.65284103,-0.38093895,0.41038343,0.058178328,-0.50435907,0.5881549,0.32662663,-1.3187593,-2.200924,-0.7383331,1.816651,1.8077614,-0.7880771,0.3827832,-1.2654915,-2.1704326,-0.77220523,1.8132893,1.8571503,-0.84329826,-1.1976242,-1.1948214,-0.7622708,0.71409297,0.23323774,-0.118527114,0.3624571,-0.510386,-0.4766159,0.59088016,-0.9253768,0.3745733,-0.87971956,-0.49912596,-0.49047852,0.55033344,0.97080433,0.06903756,0.19349991,0.12381586,-1.0828393,0.5852392,-0.7964395,0.0,1.0,0.0,0.0,0.0,0.0,0.0,-0.13961399,0.0766159,-0.040880144,-0.84388256,2.7133226,-0.70848465,-1.0146141,-5.026579,-5.527024,1.1753917
11.355013,85.85401,20.802694,11.142667,1.1068671,0.43328637,0.14322901,-0.6432725,-0.63531965,-0.28339106,0.38197294,0.13852532,-0.49681744,0.5879799,0.31845593,-1.3290235,-2.1987717,-0.73400795,1.8271418,1.8074685,-0.78450024,0.37091184,-1.2771969,-2.177455,-0.76520425,1.8154799,1.8556513,-0.83959436,-1.1841217,-1.1628249,-0.68068236,0.69495136,0.21275753,-0.16104652,0.37277475,-0.5192938,-0.47291946,0.58223945,-0.87809646,0.36827633,-0.8570587,-0.50969887,-0.48459625,0.542621,0.9722849,0.074529655,0.18837786,0.11670939,-1.0428284,0.5967733,-0.7645886,0.0,1.0,0.0,0.0,0.0,0.0,0.0,-0.13070619,0.07291946,-0.032239437,1.2083054,3.099084,8.723986,-2.0497322,-2.5390685,-4.431188,0.9217262
21.49782,83.78889,22.918581,6.5270586,1.2776477,0.54074585,0.26191336,-0.65003246,-0.6452614,-0.15091667,0.27516502,0.27612454,-0.52630526,0.58010197,0.3059086,-1.341723,-2.1925466,-0.73768777,1.8430923,1.8030207,-0.78158414,0.35915634,-1.2887001,-2.1829743,-0.7588604,1.8179437,1.8537643,-0.8358036,-1.1732157,-1.1462474,-0.5074315,0.61351854,0.2561077,-0.1983823,0.38083997,-0.52771616,-0.46930313,0.5738396,-0.8296706,0.35933214,-0.8325356,-0.5198188,-0.47863007,0.53525436,0.97374505,0.07936153,0.18279812,0.11003264,-0.9958303,0.6045076,-0.7288635,0.0,1.0,0.0,0.0,0.0,0.0,0.0,-0.12228382,0.069303125,-0.023839593,0.9379864,1.591444,17.865383,-8.31883,3.8577528,-3.8588822,0.728482
35.894623,112.408875,34.58561,10.035838,2.4383223,0.95623195,0.14032371,-0.6192704,-0.59161645,0.20274885,0.30255774,0.36343518,-0.5177402,0.5953063,0.2972293,-1.3478618,-2.1626995,-0.7286046,1.8542873,1.8019903,-0.776273,0.3476307,-1.2998676,-2.1852665,-0.7531688,1.8211746,1.8515668,-0.83193433,-1.1462703,-1.1069994,-0.13402164,0.5533707,0.3436986,-0.22711623,0.38861585,-0.5354967,-0.4658165,0.5661795,-0.76058036,0.34499332,-0.7425072,-0.5293727,-0.47254944,0.5287906,0.9753231,0.082479775,0.1764983,0.10387648,-0.93645835,0.61651003,-0.62037337,0.0,1.0,0.0,0.0,0.0,0.0,0.0,-0.114503264,0.06581649,-0.016179502,2.505064,3.8629055,38.03016,-6.311655,8.215648,-2.912912,0.6567359
44.89469,104.01054,34.033978,5.361697,2.3189518,0.7670121,0.21886086,-0.5880261,-0.61716473,0.32503325,0.22731473,0.51136196,-0.56780136,0.6055126,0.2888281,-1.3615841,-2.1527631,-0.73043734,1.8723109,1.7947867,-0.77138305,0.33649465,-1.3108139,-2.1836529,-0.74825263,1.825672,1.8490874,-0.82798797,-1.1031599,-1.0907977,0.26186827,0.4703696,0.4836703,-0.2547645,0.39641038,-0.5426116,-0.46250534,0.55937576,-0.6951924,0.3265003,-0.6592665,-0.5383334,-0.46642685,0.52332443,0.9771149,0.08338634,0.16917978,0.09834318,-0.878059,0.6164918,-0.52371055,0.0,1.0,0.0,0.0,0.0,0.0,0.0,-0.10738838,0.062505335,-0.009375751,4.193282,1.5562296,40.13133,-8.489603,13.599396,-2.7372062,0.6954968
34.160477,99.69893,28.472525,6.980074,1.7067304,0.47928256,0.21969913,-0.5796716,-0.53578043,0.18176512,0.17430063,0.5810353,-0.5613029,0.61634064,0.2785275,-1.3643919,-2.1654763,-0.73082256,1.8837756,1.7929571,-0.7663539,0.32577202,-1.3213062,-2.1796062,-0.7442348,1.8316199,1.8463713,-0.8239632,-1.06213,-1.035501,0.45305333,0.37883136,0.63116646,-0.27712166,0.40440887,-0.54913235,-0.4593811,0.5532823,-0.6385087,0.30780298,-0.5943719,-0.5467725,-0.4603424,0.5186144,0.9790374,0.082680464,0.16104364,0.09335242,-0.8289526,0.61215615,-0.45527512,0.0,1.0,0.0,0.0,0.0,0.0,0.0,-0.10086763,0.059381098,-0.0032823086,4.063678,5.4614305,19.389116,-9.183323,14.597201,-2.1476328,0.75926185
27.824112,110.94641,28.703018,11.743457,1.5633714,0.45806637,0.1357475,-0.55243236,-0.44928616,0.24518508,0.17633489,0.5974782,-0.5205554,0.6143023,0.2705288,-1.3662349,-2.1550877,-0.7266013,1.8913677,1.7943158,-0.762533,0.31548712,-1.3308964,-2.1743884,-0.7409161,1.8388344,1.8434931,-0.8198671,-1.0172822,-0.9337934,0.54525155,0.3163989,0.7515089,-0.2909006,0.41120782,-0.55506945,-0.45645905,0.54796195,-0.5799886,0.28734767,-0.5140351,-0.5547247,-0.4542923,0.5146673,0.9809678,0.08091294,0.15257935,0.08874004,-0.78098047,0.6077409,-0.3764713,0.0,1.0,0.0,0.0,0.0,0.0,0.0,-0.09493053,0.05645904,0.0020380616,4.486513,10.111594,9.350914,-6.198728,12.055122,-1.2273252,0.65608025
28.495756,109.42572,28.398853,10.9386635,1.3702337,0.4703668,0.17868586,-0.53274614,-0.4341229,0.40248173,0.118125595,0.63060397,-0.4852462,0.6119425,0.2622125,-1.3743087,-2.1341403,-0.7291035,1.9018948,1.7949685,-0.75867283,0.30563566,-1.3395176,-2.1681526,-0.7382564,1.8470484,1.8405292,-0.8157128,-0.9743617,-0.83842283,0.6498001,0.24944374,0.84494334,-0.29772887,0.41678005,-0.5604305,-0.4537506,0.54345983,-0.52292484,0.2659835,-0.4323718,-0.56217813,-0.44830704,0.51148313,0.98286086,0.07819441,0.14397474,0.084507026,-0.731356,0.60041726,-0.30102038,0.0,1.0,0.0,0.0,0.0,0.0,0.0,-0.08956945,0.053750604,0.0065401793,4.3185353,9.484541,10.513342,-6.6143155,9.452211,-0.5007088,0.5523622
