Afshin1997/kuka_rl_ros2/src/catch_and_throw/input_files/idealpd/polynomial_regressor/optimizer_files/env_25_data.csv
torque0,torque1,torque2,torque3,torque4,torque5,torque6,action0,action1,action2,action3,action4,action5,action6,set_target_0,set_target_1,set_target_2,set_target_3,set_target_4,set_target_5,set_target_6,joint_pos_0,joint_pos_1,joint_pos_2,joint_pos_3,joint_pos_4,joint_pos_5,joint_pos_6,joint_vel_0,joint_vel_1,joint_vel_2,joint_vel_3,joint_vel_4,joint_vel_5,joint_vel_6,tennisball_pos_0,tennisball_pos_1,tennisball_pos_2,tennisball_lin_vel_0,tennisball_lin_vel_1,tennisball_lin_vel_2,end_effector_pos_0,end_effector_pos_1,end_effector_pos_2,end_effector_rot_0,end_effector_rot_1,end_effector_rot_2,end_effector_rot_3,end_effector_lin_vel_0,end_effector_lin_vel_1,end_effector_lin_vel_2,obs_task_0,obs_task_1,obs_task_2,obs_task_3,obs_task_4,obs_task_5,obs_task_6,to_final_target_0,to_final_target_1,to_final_target_2,joint_acc_0,joint_acc_1,joint_acc_2,joint_acc_3,joint_acc_4,joint_acc_5,joint_acc_6
0.0,0.0,0.0,0.0,0.0,0.0,0.0,0.0,0.0,0.0,0.0,0.0,0.0,0.0,1.7802359,-1.0646509,-1.8151424,-1.1170107,1.9373155,1.1170107,-0.91629785,1.7802359,-1.0646509,-1.8151424,-1.1170107,1.9373155,1.1170107,-0.91629785,0.0,0.0,0.0,0.0,0.0,0.0,0.0,2.7953568,-0.5958061,0.24899375,-3.503205,0.12561128,5.027423,0.5304184,-0.45449448,0.693097,0.5745483,0.17512383,0.15255436,0.7848268,0.0,0.0,0.0,1.0,0.0,0.0,0.0,0.0,0.0,0.0,-3.4453568,0.19580612,0.30100626,0.0,0.0,0.0,0.0,0.0,0.0,0.0
0.0,0.0,0.0,0.0,0.0,0.0,0.0,0.0,0.0,0.0,0.0,0.0,0.0,0.0,1.7802359,-1.0646509,-1.8151424,-1.1170107,1.9373155,1.1170107,-0.91629785,1.7802359,-1.0646509,-1.8151424,-1.1170107,1.9373155,1.1170107,-0.91629785,0.0,0.0,0.0,0.0,0.0,0.0,0.0,2.7953568,-0.5958061,0.24899375,-3.503205,0.12561128,5.027423,0.5304184,-0.45449448,0.693097,0.5745483,0.17512383,0.15255436,0.7848268,0.0,0.0,0.0,1.0,0.0,0.0,0.0,0.0,0.0,0.0,-3.4453568,0.19580612,0.30100626,0.0,0.0,0.0,0.0,0.0,0.0,0.0
0.0,0.0,0.0,0.0,0.0,0.0,0.0,0.0,0.0,0.0,0.0,0.0,0.0,0.0,1.7802359,-1.0646509,-1.8151424,-1.1170107,1.9373155,1.1170107,-0.91629785,1.7802359,-1.0646509,-1.8151424,-1.1170107,1.9373155,1.1170107,-0.91629785,0.0,0.0,0.0,0.0,0.0,0.0,0.0,2.7953568,-0.5958061,0.24899375,-3.503205,0.12561128,5.027423,0.5304184,-0.45449448,0.693097,0.5745483,0.17512383,0.15255436,0.7848268,0.0,0.0,0.0,1.0,0.0,0.0,0.0,0.0,0.0,0.0,-3.4453568,0.19580612,0.30100626,0.0,0.0,0.0,0.0,0.0,0.0,0.0
-176.0,73.26156,-4.817383,110.0,11.080781,4.9521365,-3.8565218,-0.82541305,0.38273627,-0.5644711,0.7373646,0.32875463,0.6436662,-0.57984143,1.6976945,-1.0263773,-1.8715895,-1.0432743,1.9701909,1.1813773,-0.974282,1.778731,-1.0619959,-1.8214118,-1.1121756,1.9438977,1.1227156,-0.9187831,-0.20044006,0.3531648,-0.83510953,0.6448752,0.8767823,0.7584126,-0.33073086,2.7603455,-0.5945511,0.2984938,-3.4997027,0.12548569,4.9242105,0.5280762,-0.45794296,0.69404286,0.57879746,0.17358984,0.1506298,0.7824133,-0.3123345,-0.459628,0.12581198,1.0,0.0,0.0,0.0,0.0,0.0,0.0,-3.4103456,0.19455108,0.2515062,-19.977783,35.086254,-83.28842,64.56835,87.360435,75.13287,-32.871113
-176.0,-10.809595,-36.440414,108.92286,11.209946,1.9475545,-3.0370798,-0.81017804,-0.06577152,-0.5574139,0.7035933,0.41112304,0.6315614,-0.5666625,1.6977131,-1.068573,-1.8771533,-1.0418162,1.98501,1.1858717,-0.9754494,1.7764765,-1.0583166,-1.8363807,-1.0982214,1.9551092,1.1357275,-0.92048925,-0.23312704,0.36810508,-1.7104226,1.6477851,1.198385,1.4678261,-0.11709584,2.72538,-0.59329987,0.34696254,-3.4962037,0.12536022,4.821101,0.5229721,-0.4665451,0.6953434,0.58770895,0.17009786,0.14674109,0.7772592,-0.5775532,-0.99169534,0.13287635,1.0,0.0,0.0,0.0,0.0,0.0,0.0,-3.37538,0.19329986,0.20303747,-3.0265272,0.10457039,-85.43239,100.97141,30.835415,66.69684,21.415297
-152.34276,104.78114,25.669876,88.58606,7.4098873,6.8656125,-1.9221625,-0.77902365,0.3423838,-0.07641416,0.65607,0.4337354,0.6815366,-0.5214725,1.6985742,-1.0240782,-1.8440222,-1.0326145,1.9984828,1.2038811,-0.9726365,1.770888,-1.0537771,-1.852103,-1.0799185,1.9669386,1.1502062,-0.9218072,-0.6676043,0.47907716,-1.5196476,1.8924088,1.1731938,1.434089,-0.13830177,2.690445,-0.59204865,0.39440095,-3.4927082,0.12523489,4.718095,0.514946,-0.4780159,0.6982171,0.599556,0.16510154,0.14198662,0.77013874,-0.88534033,-1.1926304,0.3433821,1.0,0.0,0.0,0.0,0.0,0.0,0.0,-3.340445,0.19204864,0.15559906,-43.470192,10.092789,20.970798,24.8497,-3.9430618,-5.5475473,-2.6098132
-91.97221,112.41986,39.869297,53.877148,4.1701365,7.070987,-0.4867257,-0.7842614,0.24560808,0.027522428,0.6468468,0.43865615,0.64644885,-0.551481,1.6924618,-1.0292163,-1.8493508,-1.0152339,2.0108042,1.2148511,-0.97695535,1.761109,-1.048839,-1.8631217,-1.0616232,1.9775511,1.1635996,-0.92345136,-1.0827832,0.49629813,-0.95481634,1.8090873,1.0186826,1.3034286,-0.17546083,2.6555405,-0.5907974,0.44081008,-3.4892163,0.12510969,4.6151915,0.50440216,-0.490139,0.7030227,0.61243993,0.1587767,0.13659461,0.76226586,-1.1242657,-1.2066454,0.5318678,1.0,0.0,0.0,0.0,0.0,0.0,0.0,-3.3055406,0.19079742,0.10918993,-41.906834,0.9753823,58.8388,-8.244753,-17.043114,-14.349103,-4.4384985
-38.750404,120.8239,46.256786,28.03177,1.4063008,6.1018524,0.20121801,-0.8034437,0.3448689,-0.023125572,0.64036644,0.49339512,0.63738847,-0.54727376,1.6807647,-1.0143521,-1.8654343,-0.99758655,2.0268905,1.2273384,-0.97817874,1.7479578,-1.0434774,-1.868552,-1.0453459,1.986674,1.1755606,-0.9255037,-1.3942052,0.54773086,-0.39909625,1.5667202,0.87275106,1.1584303,-0.21766968,2.6206741,-0.5895462,0.48619094,-3.4857278,0.12498461,4.512391,0.49212646,-0.5015335,0.7094396,0.62514836,0.15138057,0.13085178,0.7544212,-1.2744299,-1.1029946,0.6818771,1.0,0.0,0.0,0.0,0.0,0.0,0.0,-3.2706742,0.1895462,0.06380907,-31.626534,4.6230793,57.549522,-24.428177,-15.786945,-15.071917,-4.956478
-3.394739,113.95037,41.930817,12.095479,-0.42718625,4.2308764,0.2903417,-0.81812006,0.4352242,-0.11328651,0.6341011,0.5129407,0.62274945,-0.558767,1.6661458,-0.999955,-1.8798807,-0.9819358,2.037968,1.2378355,-0.98138034,1.7327276,-1.0372728,-1.870116,-1.0315233,1.9946791,1.1861979,-0.927947,-1.5674253,0.6435123,-0.07136448,1.3198303,0.77429366,1.0317415,-0.2552041,2.585846,-0.588295,0.5305446,-3.4822428,0.124859646,4.4096937,0.47898102,-0.51161957,0.7169342,0.6372651,0.14337708,0.12532823,0.7467456,-1.3400882,-0.96190923,0.7729395,1.0,0.0,0.0,0.0,0.0,0.0,0.0,-3.235846,0.18829498,0.019455433,-17.736244,9.239447,34.053787,-24.968481,-10.482037,-12.783122,-4.361969
16.213448,111.21999,38.267246,6.065732,-1.3097125,2.880751,0.11812749,-0.8251296,0.5355257,-0.15585402,0.63472885,0.5362172,0.6224451,-0.556353,1.6502147,-0.98372024,-1.8857014,-0.9680505,2.0483007,1.2484424,-0.98358226,1.7166201,-1.0297464,-1.8700931,-1.0196368,2.0020988,1.1957251,-0.93071645,-1.6262912,0.7881376,0.029572729,1.1439434,0.73026025,0.9267162,-0.28587663,2.5510483,-0.5870476,0.573872,-3.4787614,0.12473481,4.3070984,0.46557617,-0.52028275,0.7251318,0.6488383,0.13513117,0.120540164,0.73906595,-1.3509433,-0.81917036,0.8350326,1.0,0.0,0.0,0.0,0.0,0.0,0.0,-3.2010484,0.18704757,-0.023872018,-6.230545,14.2207985,10.917594,-17.87057,-4.7014832,-10.453522,-3.5808504
24.041473,105.22059,34.28115,4.7157297,-1.5186188,2.0024443,-0.048022553,-0.8293204,0.6000578,-0.16188398,0.62255096,0.5344886,0.6320522,-0.55342364,1.6336881,-0.9697406,-1.8862815,-0.95738167,2.0555477,1.2589303,-0.98605883,1.7004534,-1.0206903,-1.870116,-1.0089213,2.0093162,1.204352,-0.9337463,-1.6143631,0.9442249,-0.011103713,1.0464814,0.71848357,0.8413752,-0.3100534,2.5162811,-0.585804,0.6161743,-3.4752834,0.1246101,4.204606,0.45225525,-0.5276375,0.7338226,0.6600418,0.1268368,0.11674523,0.73118234,-1.3337455,-0.69227064,0.8796136,1.0,0.0,0.0,0.0,0.0,0.0,0.0,-3.1662812,0.18580398,-0.06617427,0.9133816,15.430713,-3.4963553,-10.01637,-1.3140082,-8.466757,-2.8551102
24.926092,96.79037,30.775703,5.3544674,-1.2560964,1.5449822,-0.09748633,-0.82866627,0.637016,-0.14289165,0.6066947,0.5484859,0.6380863,-0.5487359,1.6175867,-0.9569887,-1.8844051,-0.9482518,2.0641649,1.2681607,-0.98861986,1.6846415,-1.0102438,-1.8708789,-0.9987458,2.0165832,1.2122427,-0.9369764,-1.5707927,1.0775348,-0.09660413,1.0069091,0.7294037,0.77165496,-0.32871413,2.4815598,-0.5845604,0.65745234,-3.4718087,0.124485515,4.102216,0.43914032,-0.53388596,0.7428842,0.6709957,0.118568696,0.113881074,0.7230057,-1.3090494,-0.5869309,0.91406703,1.0,0.0,0.0,0.0,0.0,0.0,0.0,-3.1315598,0.18456039,-0.10745233,4.130268,13.192129,-8.09514,-4.223156,1.02247,-6.957674,-2.2538126
23.357866,89.97577,28.652147,6.5072193,-0.88484675,1.4094741,-0.07044406,-0.82076395,0.6713696,-0.122317635,0.59290755,0.55870676,0.6460517,-0.55039644,1.602565,-0.94310683,-1.8831106,-0.93945503,2.072454,1.2768478,-0.992016,1.6693217,-0.99870455,-1.8723896,-0.98872364,2.0240333,1.2195345,-0.9403667,-1.5199025,1.1789826,-0.16798502,0.9997527,0.75030535,0.7148141,-0.3436374,2.446869,-0.5833168,0.69770724,-3.4683375,0.12436106,3.9999282,0.42624664,-0.5391998,0.7522621,0.6817372,0.1103071,0.11171451,0.71455336,-1.2870347,-0.49738726,0.94494265,1.0,0.0,0.0,0.0,0.0,0.0,0.0,-3.096869,0.1833168,-0.14770722,4.893589,10.0271225,-6.7187696,-0.9769559,2.040422,-5.7222843,-1.8535793
19.909853,82.576385,26.51289,7.471674,-0.49228054,1.375389,0.002837752,-0.81744766,0.6903819,-0.09936464,0.57600516,0.5704549,0.6462694,-0.54784393,1.5875769,-0.92966634,-1.882326,-0.93112314,2.0810788,1.2841614,-0.9951511,1.654431,-0.986426,-1.8743122,-0.97871006,2.03172,1.2263323,-0.9438819,-1.4792333,1.243763,-0.19892876,1.0009973,0.7744345,0.66791147,-0.3553535,2.4122086,-0.5820732,0.73694,-3.46487,0.124236725,3.8977432,0.41351318,-0.54372025,0.76190746,0.6922443,0.10201262,0.10996217,0.70590335,-1.2724493,-0.42072824,0.9704734,1.0,0.0,0.0,0.0,0.0,0.0,0.0,-3.0622087,0.1820732,-0.18694001,3.8840055,6.3723564,-2.6572256,-0.13012886,2.352786,-4.767692,-1.517576
16.246708,77.33007,25.059856,8.597464,-0.14537716,1.4248643,0.06797925,-0.814076,0.70514876,-0.071002804,0.5691573,0.5831949,0.652553,-0.55403334,1.5730234,-0.91591114,-1.8814124,-0.9217943,2.0900395,1.2915876,-0.9992853,1.639834,-0.97371733,-1.8762138,-0.9686755,2.0396469,1.2327276,-0.9475021,-1.4536407,1.2795937,-0.18564935,1.0034735,0.7984214,0.6297887,-0.36537433,2.3775864,-0.5808296,0.7751518,-3.4614058,0.12411251,3.7956605,0.40086365,-0.54753494,0.7717868,0.7024802,0.09363039,0.10836955,0.69714475,-1.2666609,-0.35280994,0.99319464,1.0,0.0,0.0,0.0,0.0,0.0,0.0,-3.0275865,0.18082961,-0.22515178,2.380371,3.4840822,1.7972171,0.007748604,2.3263693,-3.9129972,-1.3400912
13.062914,72.2746,23.254002,8.905427,0.028054953,1.398222,0.11801497,-0.8169549,0.71506906,-0.052743603,0.5497194,0.58725643,0.6579479,-0.54913193,1.5581386,-0.9022104,-1.8814882,-0.91370356,2.0983725,1.2985225,-1.0024153,1.6253668,-0.96079695,-1.8777893,-0.9587048,2.0477722,1.2387987,-0.9512052,-1.4448894,1.2958419,-0.14633183,0.99415964,0.8173538,0.59923834,-0.37307313,2.3430023,-0.579586,0.8123435,-3.457945,0.12398843,3.69368,0.38822937,-0.5507088,0.78183854,0.71240735,0.0851416,0.10678865,0.68834794,-1.2659634,-0.29035994,1.008488,1.0,0.0,0.0,0.0,0.0,0.0,0.0,-2.9930024,0.17958602,-0.26234347,0.6941557,1.5352249,4.421687,-1.1653781,1.8151045,-3.1439304,-1.0983944
12.923265,69.67849,22.264166,8.399151,0.023198009,1.3256726,0.15729281,-0.80884576,0.7262657,-0.0373353,0.5352123,0.59624153,0.65858114,-0.5472384,1.5444822,-0.88817036,-1.8815228,-0.9051836,2.1073964,1.3046569,-1.005929,1.6109492,-0.9477745,-1.8789032,-0.94890106,2.0560653,1.2446066,-0.9549722,-1.4413512,1.3041279,-0.09807841,0.97505176,0.83318466,0.57467824,-0.3790855,2.3084488,-0.57835007,0.8485161,-3.4544878,0.123864464,3.5918012,0.37557983,-0.55327606,0.7920021,0.7219879,0.07655031,0.1051621,0.67956924,-1.2638853,-0.22845435,1.0179906,1.0,0.0,0.0,0.0,0.0,0.0,0.0,-2.958449,0.17835006,-0.2985161,0.17287731,0.74825287,5.319442,-2.1440864,1.508534,-2.515459,-0.92526674
12.165815,68.603676,21.71918,8.470316,0.04816681,1.3099519,0.18431973,-0.8140769,0.7327859,-0.002364024,0.5182069,0.6041625,0.6605524,-0.54018646,1.5295415,-0.8744959,-1.8791395,-0.89708036,2.1164815,1.3106618,-1.0089909,1.5965067,-0.93469393,-1.8794563,-0.93935096,2.0644996,1.2502066,-0.95878595,-1.4456407,1.3091427,-0.039352622,0.94762725,0.8466452,0.5550271,-0.38316572,2.2739258,-0.5771141,0.8836707,-3.451034,0.12374062,3.4900243,0.36297607,-0.5552063,0.8022444,0.73119766,0.06784812,0.10346373,0.6708515,-1.2622216,-0.16665506,1.024997,1.0,0.0,0.0,0.0,0.0,0.0,0.0,-2.9239259,0.1771141,-0.33367068,-0.6118059,0.427413,6.370098,-2.9683352,1.2734652,-2.0071864,-0.7233679
10.186068,64.43002,19.337086,8.664614,0.027989984,1.0769995,0.117411345,-0.81096065,0.73823863,-0.031809777,0.5168083,0.6069571,0.6677438,-0.5363352,1.5154107,-0.86087006,-1.8826373,-0.88767016,2.1251953,1.316981,-1.0124195,1.5820242,-0.92156374,-1.8796852,-0.9300374,2.0730445,1.2556463,-0.96262926,-1.4495549,1.3141475,-0.0159246,0.92517716,0.8569074,0.5401043,-0.38570842,2.239441,-0.57587814,0.9178083,-3.4475837,0.12361691,3.3883493,0.35037994,-0.55659103,0.8124861,0.7400802,0.059086107,0.10176483,0.66214347,-1.2584964,-0.11262179,1.0221462,1.0,0.0,0.0,0.0,0.0,0.0,0.0,-2.889441,0.17587814,-0.36780828,-0.55794716,0.44162273,2.7668364,-2.4702787,0.99248886,-1.501739,-0.5413532
12.11203,62.65072,18.634163,7.083231,-0.124183,0.92819095,0.16702376,-0.8126084,0.7400082,-0.0058466373,0.4734748,0.6218605,0.66345215,-0.5339096,1.5007634,-0.8475629,-1.8802699,-0.8826899,2.1352305,1.3219916,-1.0160202,1.5675017,-0.9083897,-1.8797042,-0.92108524,2.081704,1.2609583,-0.96649164,-1.4536611,1.3183535,0.0040130336,0.88441277,0.8692467,0.5281845,-0.38730693,2.2049942,-0.5746422,0.95092994,-3.4441369,0.12349332,3.2867758,0.33789062,-0.557415,0.8226488,0.74861443,0.050325118,0.100109234,0.6534691,-1.2475197,-0.056937784,1.0122502,1.0,0.0,0.0,0.0,0.0,0.0,0.0,-2.8549943,0.17464218,-0.40092993,-0.5801439,0.3748417,2.4088318,-4.3127656,1.207006,-1.1492729,-0.4404068
13.768856,61.925987,18.247478,6.024945,-0.26250952,0.81147766,0.19764015,-0.8135126,0.7455288,0.0058015296,0.44134426,0.62522954,0.6646932,-0.52169913,1.4861504,-0.8338368,-1.879124,-0.8769508,2.1442268,1.3274276,-1.0186615,1.5529448,-0.8951603,-1.8795555,-0.91262996,2.090474,1.2661711,-0.9703569,-1.4569374,1.3243651,0.019796202,0.8318032,0.87994856,0.5190229,-0.38724315,2.170578,-0.5734062,0.98303664,-3.4406934,0.12336985,3.185304,0.32552338,-0.5576706,0.8326828,0.7567672,0.041603398,0.09853143,0.6448752,-1.2299644,0.000120523866,0.9981802,1.0,0.0,0.0,0.0,0.0,0.0,0.0,-2.820578,0.17340621,-0.43303663,-0.49784184,0.56450367,1.9847391,-5.501604,1.0546088,-0.83442926,-0.26890635
15.11928,61.035255,17.740368,5.161223,-0.3851017,0.67974985,0.21282163,-0.81289047,0.7514484,0.0046786284,0.40763116,0.63021666,0.66949034,-0.51509714,1.4716557,-0.8200155,-1.8790876,-0.8718668,2.1534956,1.3331201,-1.0218666,1.5383688,-0.8818537,-1.8793094,-0.90476406,2.0993469,1.2713076,-0.97421545,-1.458388,1.3326542,0.027296279,0.7707567,0.88958126,0.5124753,-0.38617802,2.1361923,-0.57217026,1.0141294,-3.4372535,0.123246506,3.0839336,0.31340027,-0.5573578,0.842549,0.7645247,0.032956176,0.097074,0.6363901,-1.2060902,0.056967024,0.98018754,1.0,0.0,0.0,0.0,0.0,0.0,0.0,-2.7861924,0.17217025,-0.4641294,-0.31180382,0.80361366,1.1325643,-6.3472033,0.9617448,-0.538671,-0.15829206
17.151976,60.132744,17.419895,3.983883,-0.5170078,0.5435684,0.246978,-0.8100017,0.7552391,0.0105649885,0.36336753,0.63773763,0.6700238,-0.5103956,1.4573686,-0.8063298,-1.8782529,-0.8684273,2.1631207,1.33831,-1.025255,1.5238005,-0.86846125,-1.879008,-0.89758575,2.1083152,1.2763926,-0.97805876,-1.4567754,1.3415095,0.032371365,0.69942254,0.89928067,0.5077864,-0.38454136,2.1018448,-0.5709419,1.0442091,-3.433817,0.12312329,2.9826643,0.30155945,-0.5564728,0.85220754,0.7718669,0.024416344,0.095767766,0.6280555,-1.1747897,0.11394717,0.9584364,1.0,0.0,0.0,0.0,0.0,0.0,0.0,-2.751845,0.17094192,-0.4942091,9.536743e-05,0.8735657,0.8669537,-7.377529,0.9838581,-0.31135082,-0.09163022
18.333649,60.56502,17.691212,3.6495552,-0.54893154,0.5067135,0.2845092,-0.81301767,0.75938416,0.037922066,0.31973502,0.6448267,0.666819,-0.5108154,1.4424987,-0.79252285,-1.8752159,-0.86561227,2.172798,1.3430744,-1.0291402,1.5092398,-0.85497916,-1.8785522,-0.8911694,2.117379,1.2814375,-0.9818868,-1.4563514,1.3503344,0.05106345,0.6215425,0.90901583,0.5040239,-0.3830072,2.0675354,-0.5697136,1.073277,-3.4303837,0.12300019,2.8814967,0.2900467,-0.5550003,0.8616583,0.77876985,0.015981602,0.09459685,0.6199302,-1.1400901,0.17164573,0.93761307,1.0,0.0,0.0,0.0,0.0,0.0,0.0,-2.7175355,0.16971359,-0.523277,-0.11589527,0.8789301,2.2208378,-8.022726,0.9958029,-0.20110607,-0.09467602
20.073696,61.716164,18.35937,3.3588572,-0.57995385,0.49792343,0.33082446,-0.81083024,0.7631474,0.07323636,0.2764557,0.6469249,0.6645093,-0.50763,1.4281567,-0.7786644,-1.8712286,-0.86352384,2.1820714,1.3478885,-1.0326498,1.4946905,-0.8414141,-1.8777606,-0.88555324,2.1265266,1.28645,-0.9856977,-1.4547435,1.3585966,0.08973226,0.5408517,0.9170613,0.5009336,-0.38133803,2.0332565,-0.56848526,1.101334,-3.426954,0.12287721,2.78043,0.2789154,-0.5529289,0.8709221,0.78520584,0.007623368,0.09352045,0.6120846,-1.1018013,0.23139964,0.9195603,1.0,0.0,0.0,0.0,0.0,0.0,0.0,-2.6832566,0.16848525,-0.55133396,0.01077652,0.83162785,4.202573,-8.286929,0.8410573,-0.115931034,-0.07382631
20.629755,60.176247,17.915972,2.8216329,-0.6037275,0.39336404,0.36188763,-0.81344616,0.7625259,0.09661796,0.2225714,0.6508174,0.66299975,-0.50271684,1.4133459,-0.7651615,-1.8680989,-0.8632961,2.1916084,1.3527501,-1.0359694,1.4801451,-0.82779276,-1.8765132,-0.88079727,2.1357467,1.2914358,-0.9894895,-1.4549276,1.3634558,0.13727374,0.45327315,0.9241786,0.49853462,-0.37926966,1.9990082,-0.5672569,1.128381,-3.4235277,0.12275436,2.6794646,0.2681656,-0.5502777,0.87998694,0.7911547,-0.0006536634,0.09251175,0.6045787,-1.060092,0.2887281,0.8987585,1.0,0.0,0.0,0.0,0.0,0.0,0.0,-2.6490083,0.16725692,-0.578381,-0.157547,0.50361156,5.056697,-8.964044,0.76692104,-0.018835068,-0.016856194
20.027496,60.481873,17.901249,3.6529665,-0.5345323,0.36501762,0.34834316,-0.8132888,0.76938444,0.12209304,0.19153537,0.65719897,0.6610898,-0.49541837,1.3988162,-0.7508543,-1.864304,-0.86164373,2.2014666,1.3575448,-1.0390314,1.4655958,-0.81411135,-1.8747623,-0.87685,2.1450431,1.2963988,-0.9932565,-1.4552782,1.3697826,0.18852662,0.37451488,0.9317557,0.4963992,-0.37656063,1.964798,-0.5660286,1.1544191,-3.420105,0.12263163,2.5786,0.2578354,-0.54706955,0.8888683,0.79663557,-0.0088650845,0.09155203,0.5974205,-1.0194043,0.34358516,0.8808816,1.0,0.0,0.0,0.0,0.0,0.0,0.0,-2.614798,0.16602859,-0.60441905,-0.16076565,0.6588459,5.382046,-8.061165,0.8390188,0.0073313713,0.067573786
21.564526,57.507114,16.913574,1.7754607,-0.6962445,0.14801167,0.39479086,-0.8151756,0.76949465,0.14146486,0.1093265,0.6645381,0.6554872,-0.4901268,1.3840783,-0.7371619,-1.8606158,-0.8659174,2.2114968,1.3619475,-1.0422692,1.4510351,-0.8003794,-1.8725307,-0.8738507,2.1544235,1.3013426,-0.99699396,-1.4568186,1.3743647,0.23552509,0.2745315,0.9404035,0.49464715,-0.37340668,1.9306259,-0.56480026,1.1794493,-3.4166856,0.122509025,2.4778361,0.24798584,-0.54333496,0.8975077,0.80163366,-0.016945107,0.090662114,0.59065783,-0.97006005,0.39529318,0.85430646,1.0,0.0,0.0,0.0,0.0,0.0,0.0,-2.580626,0.16480026,-0.6294493,-0.26755333,0.49993992,4.9162655,-10.179281,0.9629369,0.10249615,0.13540387
21.029423,55.132202,15.976842,1.5994701,-0.7014039,0.004410535,0.38998356,-0.81750894,0.76995,0.16174142,0.0613177,0.6655576,0.6565681,-0.4704937,1.3692843,-0.7233844,-1.8563565,-0.86771894,2.2209792,1.3669994,-1.0440433,1.4364496,-0.786615,-1.869868,-0.8718623,2.1638763,1.3062731,-1.0006875,-1.4595295,1.3772537,0.27703914,0.17295787,0.9475901,0.49352515,-0.3684542,1.8964844,-0.56357956,1.2034726,-3.4132695,0.12238654,2.377173,0.23862457,-0.53910446,0.9058578,0.8061597,-0.024840416,0.08986548,0.58430606,-0.918763,0.44136587,0.82433647,1.0,0.0,0.0,0.0,0.0,0.0,0.0,-2.5464845,0.16357955,-0.6534726,-0.3693819,0.34313202,4.3147683,-10.327846,0.84387064,0.18522143,0.33923984
26.24881,54.961895,16.36591,-1.7710824,-1.0613716,-0.19227153,0.50334793,-0.8091263,0.77682835,0.20093828,-0.045071866,0.6686168,0.655815,-0.46310005,1.355537,-0.70893216,-1.8497742,-0.8763695,2.230738,1.3718545,-1.0469974,1.4218794,-0.772802,-1.8667343,-0.87113845,2.173394,1.3111979,-1.0043286,-1.4563564,1.3828351,0.32580328,0.03828146,0.9537995,0.49336302,-0.3629931,1.8623734,-0.56235886,1.22649,-3.409857,0.12226418,2.2766106,0.22988129,-0.5343857,0.91385823,0.81015456,-0.032478157,0.08919636,0.5784796,-0.8506921,0.49091575,0.78744113,1.0,0.0,0.0,0.0,0.0,0.0,0.0,-2.5123734,0.16235885,-0.67649,0.24328232,0.62868595,4.9975276,-13.617423,0.76138973,0.35749674,0.4141569
26.772243,51.307384,15.226889,-3.3071065,-1.1554341,-0.40911552,0.550014,-0.8172217,0.77167475,0.22787452,-0.13346459,0.6713611,0.6485228,-0.42948154,1.3401573,-0.69563454,-1.8439468,-0.8844849,2.24053,1.3760501,-1.0472767,1.4073111,-0.7589661,-1.8631027,-0.87191,2.1829689,1.3161188,-1.0078915,-1.4571604,1.3842082,0.3757364,-0.116098404,0.959293,0.4930393,-0.3545362,1.8283005,-0.56113815,1.2485026,-3.406448,0.12214194,2.1761487,0.22190094,-0.52921677,0.9214299,0.813584,-0.039763115,0.088676676,0.5732682,-0.77631366,0.5342155,0.7425053,1.0,0.0,0.0,0.0,0.0,0.0,0.0,-2.4783006,0.16113815,-0.6985026,-0.13320446,0.22263527,5.056894,-15.572444,0.7117748,0.37859678,0.7460058
21.914566,52.544,15.355065,1.1291647,-0.73277587,-0.27022052,0.43961117,-0.8168186,0.7741009,0.26366645,-0.123002596,0.6674028,0.6563152,-0.3832399,1.3256292,-0.681556,-1.8367361,-0.8842102,2.2497091,1.3817503,-1.0462155,1.3927332,-0.74511683,-1.8589332,-0.873844,2.192578,1.3210398,-1.0113419,-1.4581183,1.3854923,0.43072245,-0.21948957,0.96200943,0.49290198,-0.34211105,1.7942657,-0.55991745,1.2695113,-3.403042,0.12201983,2.075787,0.21450806,-0.5236473,0.9286591,0.81652665,-0.046788927,0.08826305,0.56859887,-0.71847224,0.57176775,0.7116522,1.0,0.0,0.0,0.0,0.0,0.0,0.0,-2.4442658,0.15991744,-0.71951133,-0.13606548,0.22351742,5.4798007,-10.455391,0.49667358,0.32886267,1.1586726
15.229228,53.65735,15.138081,6.9305086,-0.21038371,-0.089939594,0.2577671,-0.81515783,0.778145,0.2757827,-0.09782983,0.66443574,0.66596603,-0.35549018,1.3112174,-0.6673023,-1.831355,-0.883627,2.2590218,1.3876364,-1.046891,1.3781534,-0.7312418,-1.8542888,-0.8763007,2.202191,1.3259627,-1.014655,-1.4581469,1.3885678,0.4752682,-0.25482568,0.962428,0.49288478,-0.32803774,1.7602615,-0.55869675,1.2895173,-3.3996398,0.12189783,1.975526,0.20754242,-0.51774216,0.9357053,0.819131,-0.053733267,0.08791069,0.56427723,-0.68274325,0.6028606,0.6972413,1.0,0.0,0.0,0.0,0.0,0.0,0.0,-2.4102616,0.15869674,-0.7395173,-0.047540665,0.40910244,4.3773055,-3.6520271,0.316298,0.2503693,1.32671
6.5228066,52.538986,14.053001,13.442846,0.424042,0.09125815,0.043503467,-0.8232669,0.77384514,0.28464478,-0.04671099,0.65760684,0.66031075,-0.326723,1.2958268,-0.6538573,-1.8258244,-0.8809718,2.2679517,1.3919938,-1.0473273,1.3635355,-0.7173592,-1.8493011,-0.8785676,2.211789,1.330876,-1.0178193,-1.4631623,1.3884909,0.50632197,-0.21776766,0.9594523,0.49127448,-0.31279987,1.7262878,-0.55747604,1.3085213,-3.396241,0.121775955,1.8753649,0.20072174,-0.51159286,0.94272065,0.82157505,-0.060769327,0.08756673,0.56004775,-0.6742361,0.6245724,0.6977481,1.0,0.0,0.0,0.0,0.0,0.0,0.0,-2.376288,0.15747604,-0.75852126,-0.57156086,0.09407997,3.007871,3.562802,0.0069379807,-0.011771917,1.4333427
2.1473064,53.113407,13.950264,17.442215,0.78129715,0.24109961,-0.0792988,-0.8240188,0.77598083,0.30250934,-0.0024681916,0.6578545,0.6608687,-0.31903166,1.2811337,-0.6397611,-1.8190502,-0.8788144,2.2775743,1.3969629,-1.0497224,1.3488642,-0.70347464,-1.8440444,-0.8801192,2.2213562,1.3357702,-1.0208386,-1.4687303,1.3888166,0.5318989,-0.13483657,0.9565869,0.4890161,-0.2988116,1.6923447,-0.55625916,1.3265245,-3.3928454,0.1216542,1.775304,0.19385529,-0.50523376,0.9498255,0.823975,-0.068042025,0.087191224,0.5557274,-0.68157274,0.64448786,0.7094714,1.0,0.0,0.0,0.0,0.0,0.0,0.0,-2.3423448,0.15625915,-0.7765245,-0.64172745,0.13122559,2.4582744,8.143219,0.02963543,-0.14383793,1.2995481
-0.80410004,53.431885,13.837658,20.39653,1.0040708,0.3465627,-0.17601317,-0.821988,0.77738327,0.30686432,0.06887048,0.6438034,0.6585813,-0.29181933,1.2666655,-0.6257363,-1.8133581,-0.8732322,2.2857366,1.4016284,-1.0500206,1.3341566,-0.68958247,-1.8386009,-0.88055694,2.230851,1.3406378,-1.0237149,-1.471752,1.3896934,0.54821223,-0.013962808,0.9485786,0.48608595,-0.28426942,1.6584473,-0.5550461,1.3435278,-3.3894532,0.121532574,1.675343,0.1868515,-0.49869156,0.9571094,0.8264052,-0.07566722,0.08677709,0.5511792,-0.69972104,0.6644284,0.7293147,1.0,0.0,0.0,0.0,0.0,0.0,0.0,-2.3084474,0.15504608,-0.7935278,-0.3927946,0.1803875,1.535058,11.937709,-0.47996044,-0.2678156,1.3454676
-2.9386835,49.865288,12.312642,21.06322,1.0579603,0.25828254,-0.25266185,-0.82518846,0.77405113,0.28032005,0.1257754,0.6363551,0.6612899,-0.29867598,1.2516378,-0.6121774,-1.8105688,-0.8679794,2.2944865,1.4067668,-1.0535825,1.3194185,-0.6756979,-1.8331878,-0.8797082,2.2402542,1.3454787,-1.0264653,-1.4749519,1.3883274,0.5387533,0.11735518,0.9381843,0.48342186,-0.27243814,1.6245804,-0.553833,1.3595321,-3.3860643,0.12141107,1.575482,0.17962646,-0.4919777,0.9645661,0.82892483,-0.0836503,0.086360574,0.54628557,-0.72135705,0.679532,0.74557394,1.0,0.0,0.0,0.0,0.0,0.0,0.0,-2.2745805,0.153833,-0.8095321,-0.4150629,-0.05326271,-1.019299,12.97391,-0.7451534,-0.26718974,1.0724306
-2.0356789,47.118713,11.332193,19.329458,0.86863256,0.10452238,-0.24011531,-0.8306905,0.7746382,0.26658636,0.15421669,0.62781817,0.65549445,-0.3092272,1.2363495,-0.5982341,-1.8065292,-0.8642865,2.303036,1.4110281,-1.0573881,1.3046309,-0.6618267,-1.8279808,-0.8777045,2.2495391,1.3502909,-1.0291203,-1.480356,1.3869528,0.5145657,0.2274679,0.92604905,0.48067087,-0.2636066,1.590744,-0.55261993,1.3745387,-3.382679,0.121289685,1.4757209,0.17222595,-0.4851303,0.9721208,0.83154035,-0.09190873,0.08601178,0.54101324,-0.7360194,0.6935064,0.7531309,1.0,0.0,0.0,0.0,0.0,0.0,0.0,-2.240744,0.15261993,-0.82453865,-0.6385803,-0.064992905,-2.4528623,10.854515,-0.9555578,-0.26284456,0.7749498
4.700107,41.56389,9.832896,11.644627,0.17560172,-0.37953082,-0.06350022,-0.8307742,0.7713855,0.2374113,0.08785922,0.63282764,0.6582577,-0.31937408,1.2215534,-0.5846882,-1.8042396,-0.8689186,2.3128219,1.4161167,-1.0610577,1.2897974,-0.6479832,-1.8231418,-0.8752488,2.2587326,1.3550879,-1.0317086,-1.4845948,1.3837757,0.47372752,0.2510781,0.9177734,0.47984332,-0.2573643,1.5569382,-0.55140686,1.3885484,-3.379297,0.12116842,1.3760594,0.16493988,-0.4781723,0.9795495,0.83415633,-0.10017151,0.08584173,0.5355184,-0.7198471,0.70345366,0.73384535,1.0,0.0,0.0,0.0,0.0,0.0,0.0,-2.2069383,0.15140685,-0.83854836,-0.50685406,-0.24883747,-4.06698,2.2047133,-0.64127445,0.057697296,0.5317867
9.76561,38.594227,9.150715,6.228878,-0.32647446,-0.7184004,0.080302134,-0.8334548,0.7712344,0.21849665,0.051433407,0.6284727,0.65798,-0.30114627,1.2064519,-0.57085973,-1.8012922,-0.87010545,2.32158,1.4208859,-1.0618232,1.2749239,-0.63416827,-1.8187435,-0.87303054,2.2678535,1.359883,-1.0342301,-1.488667,1.3809764,0.4286309,0.21153434,0.910632,0.48031282,-0.2505258,1.5231705,-0.5501938,1.4015622,-3.3759184,0.12104727,1.2764976,0.15796661,-0.4711342,0.98665863,0.8366718,-0.108189456,0.085945465,0.5299893,-0.6808807,0.71061176,0.6977219,1.0,0.0,0.0,0.0,0.0,0.0,0.0,-2.1731706,0.15019378,-0.8515622,-0.4794836,-0.21038055,-4.4582663,-4.107198,-0.57224035,0.27974248,0.6019294
17.0091,35.874226,8.753303,-1.0977001,-0.9880455,-1.1501172,0.2961524,-0.8343756,0.77185875,0.20175765,-0.060352992,0.63439786,0.660304,-0.27056918,1.1914864,-0.5569824,-1.7985677,-0.8790659,2.3312933,1.4259133,-1.061287,1.260018,-0.6203705,-1.8147781,-0.87184894,2.2769363,1.3646933,-1.0366658,-1.4914051,1.3796209,0.3861332,0.08649985,0.907944,0.4824724,-0.24135038,1.4894409,-0.5489807,1.4135811,-3.372543,0.120926246,1.1770353,0.1516037,-0.46405792,0.99324954,0.83896345,-0.11569307,0.08640878,0.5246799,-0.6109052,0.7141534,0.64082867,1.0,0.0,0.0,0.0,0.0,0.0,0.0,-2.139441,0.1489807,-0.8635811,-0.31540394,-0.057172775,-4.1815996,-12.636683,-0.17569065,0.57241917,0.8588463
22.07402,36.02256,9.426135,-5.1808047,-1.3352273,-1.3704324,0.46820888,-0.83194834,0.7709308,0.21371402,-0.14971875,0.64006525,0.6555063,-0.21789372,1.1768231,-0.54327744,-1.7934067,-0.8868208,2.3409429,1.430244,-1.0584552,1.2451082,-0.6065823,-1.8110664,-0.8722724,2.2860267,1.3695246,-1.0389756,-1.4907746,1.37881,0.36622885,-0.085665375,0.90944123,0.48476163,-0.2276469,1.4557419,-0.54777527,1.4246062,-3.3691711,0.12080534,1.0776725,0.14608765,-0.45692444,0.99921316,0.84091514,-0.122518696,0.087238476,0.51984644,-0.5227475,0.7168972,0.57631904,1.0,0.0,0.0,0.0,0.0,0.0,0.0,-2.105742,0.14777526,-0.8746062,0.066185,0.009942055,-1.9529283,-17.309244,0.23114681,0.6420255,1.3361484
16.76537,37.57095,9.840431,0.850194,-0.74766785,-1.1133542,0.35464525,-0.82949543,0.7666694,0.2093224,-0.093294844,0.62759304,0.65740997,-0.09728385,1.1621587,-0.52991533,-1.7901342,-0.88160187,2.348786,1.4352655,-1.048704,1.2302252,-0.5928179,-1.8074634,-0.8738812,2.2951057,1.3743731,-1.041068,-1.4875275,1.3760251,0.35804918,-0.1863368,0.90772647,0.48599344,-0.20321569,1.4220734,-0.5465698,1.4346384,-3.3658028,0.120684564,0.97840905,0.14128876,-0.44977188,1.0046833,0.84255844,-0.12882724,0.08835016,0.5154542,-0.4590866,0.71958256,0.532147,1.0,0.0,0.0,0.0,0.0,0.0,0.0,-2.0720735,0.14656982,-0.88463837,0.32231808,-0.1783371,-0.8492768,-10.166067,-0.019347668,0.43085814,2.4031103
9.996361,39.02697,10.010349,7.968803,-0.05714053,-0.79242873,0.19275673,-0.8345145,0.7666885,0.20296209,-0.058638584,0.63714635,0.66057074,-0.012944058,1.1467738,-0.51614904,-1.7871672,-0.87974507,2.3588204,1.4404302,-1.0423623,1.2153498,-0.5790783,-1.8039062,-0.87591445,2.3041961,1.3792292,-1.0428666,-1.4877611,1.3735974,0.3546153,-0.20950349,0.91023636,0.48613802,-0.17236623,1.3884354,-0.5453644,1.4436786,-3.3624377,0.12056391,0.8792448,0.13687134,-0.4425621,1.0098742,0.84399056,-0.13488519,0.08962473,0.5113251,-0.4252226,0.72385544,0.5096475,1.0,0.0,0.0,0.0,0.0,0.0,0.0,-2.0384355,0.14536437,-0.8936786,-0.07379055,-0.14131069,-0.39066076,-2.4493158,0.4646182,0.20986795,3.0251682
-0.49980927,39.771877,9.53462,18.633724,0.90811014,-0.31927705,-0.1006681,-0.83547086,0.76384705,0.17388321,0.07221217,0.6185298,0.6698774,0.10472027,1.1318027,-0.5026936,-1.7865179,-0.86869323,2.366049,1.446217,-1.0323945,1.2004553,-0.5653702,-1.800492,-0.87725914,2.3132637,1.3840834,-1.0442933,-1.4903861,1.3701671,0.33689797,-0.11012214,0.9063781,0.48539314,-0.13327484,1.3548355,-0.54415894,1.451728,-3.359076,0.120443374,0.78017974,0.13246918,-0.43530273,1.0150629,0.8453736,-0.14105825,0.0909668,0.5071203,-0.43539008,0.7308529,0.51689374,1.0,0.0,0.0,0.0,0.0,0.0,0.0,-2.0048356,0.14415893,-0.901728,-0.39887428,-0.24755001,-1.8106699,9.733005,-0.096488,-0.037521124,3.804493
-9.780748,37.57649,8.115239,27.314083,1.717769,0.01702717,-0.37975532,-0.83603245,0.7538929,0.12875511,0.21378285,0.59965664,0.67194265,0.17994668,1.116852,-0.4899809,-1.7876165,-0.85588086,2.3732293,1.4512776,-1.0262986,1.1855284,-0.5517374,-1.7974536,-0.87683856,2.322232,1.3889242,-1.0453061,-1.4942564,1.3612303,0.29273912,0.09201508,0.8950868,0.4833117,-0.091141865,1.3212738,-0.5429535,1.4587874,-3.3557177,0.12032296,0.6812137,0.12769318,-0.42795944,1.0204831,0.84688073,-0.14767139,0.09232331,0.50245637,-0.48287237,0.737791,0.5453787,1.0,0.0,0.0,0.0,0.0,0.0,0.0,-1.9712738,0.14295349,-0.9087874,-0.5858898,-0.81350803,-4.439211,19.951136,-0.79672337,-0.31403303,4.0707426
-13.298804,28.491974,4.1856923,27.058382,1.7242804,-0.26518965,-0.5243417,-0.83225936,0.74648345,-0.0037482537,0.2595353,0.5835033,0.67001605,0.24647577,1.1023024,-0.47708908,-1.7978284,-0.85088503,2.3805823,1.4559258,-1.0206585,1.1705843,-0.538221,-1.7954414,-0.8743628,2.331044,1.3937422,-1.0458859,-1.4948764,1.348626,0.1705992,0.29847464,0.87772524,0.48085424,-0.047397442,1.2877426,-0.54174805,1.4648579,-3.3523626,0.12020266,0.58234656,0.122428894,-0.42066574,1.0261047,0.8486527,-0.15467615,0.09381982,0.49705285,-0.53292406,0.7297354,0.5627464,1.0,0.0,0.0,0.0,0.0,0.0,0.0,-1.9377426,0.14174804,-0.9148579,-0.2379179,-1.1939764,-12.255579,20.366959,-1.4297724,-0.37093163,4.2434273
-9.332861,21.485676,2.0484257,20.16911,1.1593479,-0.7270687,-0.389867,-0.8387362,0.73093826,-0.058502387,0.22718543,0.5689678,0.66128045,0.29854277,1.0867107,-0.46512717,-1.8012916,-0.8516443,2.3879406,1.4598702,-1.0160316,1.1556154,-0.5248848,-1.7948081,-0.87043655,2.3396575,1.3985354,-1.0460309,-1.4978514,1.3288907,0.027366254,0.42319992,0.8567939,0.47875512,-0.0038928005,1.254242,-0.54055023,1.4699407,-3.349011,0.12008248,0.48357835,0.11682892,-0.41355515,1.0317075,0.8506752,-0.16176656,0.09560677,0.49096078,-0.55820453,0.70990753,0.5547318,1.0,0.0,0.0,0.0,0.0,0.0,0.0,-1.9042419,0.14055023,-0.91994065,-0.41704178,-1.9120455,-14.36916,12.221443,-1.8418312,-0.22928119,4.2476764
-3.8265085,16.218395,0.8318269,12.522653,0.4823118,-1.1737242,-0.19520581,-0.84022635,0.7107676,-0.11488537,0.19911695,0.5209676,0.6585031,0.37653026,1.0715928,-0.45380807,-1.8062967,-0.85052484,2.3917544,1.4643856,-1.0083779,1.140618,-0.51180995,-1.7956016,-0.86593235,2.347947,1.4033152,-1.0457257,-1.5005407,1.3006942,-0.115234755,0.4587534,0.8204821,0.4781174,0.0416328,1.2207718,-0.5393524,1.4740363,-3.3456626,0.119962424,0.38490894,0.11122894,-0.4067154,1.0370445,0.8528562,-0.16860378,0.097828254,0.48439512,-0.5538627,0.68007153,0.5223863,1.0,0.0,0.0,0.0,0.0,0.0,0.0,-1.8707718,0.13935241,-0.9240363,-0.32644272,-2.7504444,-14.31254,3.33516,-3.4378529,0.059002638,4.4736896
5.7202125,10.72141,0.451149,1.0061216,-0.3603571,-1.7741078,0.17977369,-0.8381959,0.6746486,-0.12696694,0.06459991,0.51638323,0.6601927,0.43838498,1.0567983,-0.4443451,-1.8082983,-0.85947233,2.3995852,1.4693345,-1.0018872,1.1256148,-0.49913657,-1.7975166,-0.86208045,2.3559005,1.4081045,-1.0449628,-1.5001057,1.2565356,-0.21722528,0.36004466,0.78701246,0.48009896,0.08761291,1.1873398,-0.5381546,1.4771461,-3.3423176,0.119842485,0.28633815,0.10595703,-0.40029526,1.0418146,0.85501474,-0.17477372,0.10050572,0.47781014,-0.5076265,0.63503695,0.45802295,1.0,0.0,0.0,0.0,0.0,0.0,0.0,-1.8373398,0.1381546,-0.92714614,0.0849247,-4.315853,-10.263986,-10.032797,-3.243494,0.53043365,4.553309
9.411068,9.919193,0.9884541,-2.6289067,-0.58917606,-1.9642481,0.3321241,-0.8345564,0.65049165,-0.15252708,0.023852427,0.50221026,0.6624966,0.46603382,1.0421591,-0.4340874,-1.8127693,-0.8596952,2.4061215,1.4743541,-0.9983594,1.110644,-0.4869486,-1.8001983,-0.85955703,2.3635414,1.4129168,-1.0437669,-1.4958807,1.2065487,-0.28541273,0.21606936,0.7565683,0.48291346,0.13015293,1.1539459,-0.5369568,1.4792709,-3.338976,0.119722664,0.18786593,0.10127258,-0.39434814,1.0458868,0.85703903,-0.18008113,0.10357702,0.47151533,-0.44854403,0.584657,0.3869765,1.0,0.0,0.0,0.0,0.0,0.0,0.0,-1.8039459,0.13695678,-0.9292709,0.5150795,-4.885912,-6.90065,-14.517119,-2.9804945,0.65309405,4.2225523
11.460352,9.8563175,1.3339882,-4.8687544,-0.7342251,-2.1115189,0.41676417,-0.83720094,0.63095695,-0.18413222,-0.06852754,0.49682334,0.6598561,0.47827402,1.0269239,-0.42385292,-1.8186115,-0.8664098,2.4132237,1.4789023,-0.99593943,1.0957056,-0.47524655,-1.803416,-0.85873306,2.3709304,1.4177538,-1.0421857,-1.492764,1.1584824,-0.33428115,0.037543524,0.7330781,0.48533544,0.1676234,1.1205826,-0.535759,1.4804118,-3.3356376,0.11960296,0.089492165,0.09723663,-0.3889389,1.0492165,0.8588896,-0.1844293,0.1069815,0.46567103,-0.38154694,0.52983314,0.31218356,1.0,0.0,0.0,0.0,0.0,0.0,0.0,-1.7705826,0.13575897,-0.93041176,0.43821335,-4.685807,-4.9875617,-17.937326,-2.3148417,0.61168075,3.7325888
12.353872,14.239841,2.8668344,-4.04906,-0.73076653,-2.0414488,0.43392158,-0.8347084,0.62245196,-0.1974241,-0.1441613,0.49156755,0.6595901,0.4844697,1.0122348,-0.41300136,-1.8231584,-0.8731492,2.420087,1.4837128,-0.9937387,1.0808016,-0.46393788,-1.8069847,-0.85969913,2.3781364,1.4226099,-1.0402707,-1.4892349,1.12208,-0.36464784,-0.14154229,0.7162335,0.4868766,0.1996609,1.0872498,-0.53456116,1.4805696,-3.3323026,0.11948338,-0.00878326,0.09386444,-0.3840332,1.051849,0.86055493,-0.187836,0.110666744,0.46034306,-0.31440717,0.48078287,0.24452229,1.0,0.0,0.0,0.0,0.0,0.0,0.0,-1.7372497,0.13456115,-0.9305696,0.47783852,-3.520155,-3.1405032,-17.972792,-1.6515017,0.46725273,3.1967492
12.997879,17.077751,3.4514136,-4.2871566,-0.8549067,-2.0892825,0.41427407,-0.8347602,0.6237682,-0.24655132,-0.26202372,0.49784425,0.6622871,0.46328077,0.9973256,-0.40156105,-1.8316398,-0.8859015,2.4279208,1.4888387,-0.9939426,1.0659262,-0.45285904,-1.8109462,-0.86256206,2.3852432,1.4274794,-1.0380887,-1.4867582,1.1035537,-0.4071205,-0.33466426,0.7088369,0.48793557,0.22429335,1.0539474,-0.53336716,1.4797454,-3.328971,0.11936392,-0.10696043,0.09120941,-0.37958527,1.053812,0.8620624,-0.19027957,0.114646755,0.4555196,-0.2431015,0.43250823,0.17800172,1.0,0.0,0.0,0.0,0.0,0.0,0.0,-1.7039474,0.13336715,-0.9297454,0.38349628,-1.7276049,-4.3671966,-19.362677,-0.7180214,0.37574172,2.4736822
13.804495,19.502085,4.3845277,-4.225684,-0.96773016,-2.0575812,0.43140605,-0.8351952,0.6116949,-0.23394844,-0.37199357,0.4416741,0.66302264,0.46836752,0.9824067,-0.39168957,-1.834341,-0.89976144,2.4294107,1.4937817,-0.99125195,1.0510641,-0.4419185,-1.8151844,-0.86740005,2.3921478,1.4323584,-1.0356911,-1.4855763,1.0913277,-0.42981142,-0.5336238,0.68423396,0.4885106,0.2448237,1.0206833,-0.532177,1.4779401,-3.3256426,0.119244576,-0.20503943,0.08930206,-0.37559128,1.0551238,0.8634199,-0.19176061,0.11895821,0.4512015,-0.16839719,0.38800815,0.11346508,1.0,0.0,0.0,0.0,0.0,0.0,0.0,-1.6706833,0.13217697,-0.9279401,0.27132034,-1.0895252,-2.4270952,-19.923264,-2.4254203,0.2953887,2.07614
12.757458,17.577686,3.3565226,-4.596656,-1.0003788,-2.181891,0.3678244,-0.83475596,0.61176676,-0.29527333,-0.49399763,0.4392526,0.6590592,0.4267465,0.96758854,-0.3807418,-1.8447117,-0.9167998,2.436073,1.4982643,-0.9930165,1.0362097,-0.43103945,-1.8198364,-0.87430084,2.3988197,1.4372355,-1.0331486,-1.4846891,1.0872223,-0.47743163,-0.74230105,0.6611725,0.4880201,0.2574971,0.9874573,-0.5309868,1.4751548,-3.3223176,0.11912535,-0.3030204,0.088150024,-0.37208557,1.0557642,0.8646842,-0.19220954,0.123643726,0.44731292,-0.09410768,0.3363615,0.045346502,1.0,0.0,0.0,0.0,0.0,0.0,0.0,-1.6374573,0.13098678,-0.92515475,0.28440952,-0.2740383,-4.955387,-20.881594,-2.2984028,0.13770461,1.3014972
9.9751,20.286861,3.545125,-0.7364235,-0.79913986,-2.0057094,0.2235757,-0.8337459,0.6285791,-0.34351212,-0.54503655,0.41032463,0.65874726,0.4051806,0.9528351,-0.36818153,-1.8541876,-0.9288045,2.4398522,1.5031102,-0.9926306,1.0213648,-0.4200865,-1.825114,-0.8830117,2.405217,1.442103,-1.0305203,-1.4840984,1.0984002,-0.54508287,-0.9141057,0.6321989,0.48656717,0.26471928,0.9542618,-0.5297966,1.4713904,-3.318996,0.11900625,-0.40090337,0.087654114,-0.36904526,1.0558022,0.86593366,-0.19169316,0.12875704,0.44365993,-0.03155898,0.29160357,-0.012338548,1.0,0.0,0.0,0.0,0.0,0.0,0.0,-1.6042618,0.1297966,-0.92139035,0.20809174,1.2482405,-6.9149733,-17.230833,-2.8905988,-0.04146695,0.7345736
6.113419,18.029295,2.3300176,2.6533136,-0.45165503,-1.9020177,0.087023765,-0.8326854,0.6254103,-0.39437717,-0.6009265,0.37809777,0.6569081,0.39879552,0.9380963,-0.35754547,-1.8645518,-0.9431043,2.4430268,1.5077938,-0.99064076,1.0065256,-0.4090215,-1.8311946,-0.8931626,2.4112709,1.4469496,-1.0278405,-1.4834744,1.1095833,-0.6294127,-1.0490404,0.59661174,0.484266,0.26883808,0.9210968,-0.5286064,1.4666479,-3.3156776,0.11888726,-0.4986885,0.08768463,-0.36644363,1.0553147,0.8672455,-0.19030756,0.13431194,0.44003233,0.014552021,0.2463362,-0.063453615,1.0,0.0,0.0,0.0,0.0,0.0,0.0,-1.5710968,0.12860641,-0.91664785,0.1746893,1.2324572,-8.5209255,-13.58428,-3.5771728,-0.19817352,0.38465858
0.23287344,9.954878,-0.926707,5.668286,0.10022168,-1.9124815,-0.09131722,-0.8388791,0.61118865,-0.4741326,-0.64911985,0.37405825,0.64274997,0.33434305,0.9226377,-0.34790263,-1.8786079,-0.95807457,2.4486766,1.5112246,-0.99440616,0.99165976,-0.39793265,-1.8383224,-0.904415,2.417012,1.4517599,-1.0251817,-1.4873868,1.1088904,-0.74046123,-1.1511734,0.56622386,0.47981352,0.26467392,0.88796234,-0.5274162,1.4609282,-3.3123627,0.118768394,-0.5963759,0.08798218,-0.36437988,1.0543356,0.86872905,-0.18809438,0.14023769,0.43619213,0.036257856,0.19025438,-0.11220867,1.0,0.0,0.0,0.0,0.0,0.0,0.0,-1.5379623,0.12741622,-0.9109282,-0.31239986,0.0052928925,-11.070633,-10.347605,-3.1464696,-0.5027294,-0.5051851
-2.8000135,6.280181,-2.2945485,8.029159,0.37638217,-1.8307047,-0.18707758,-0.83218527,0.6002333,-0.5208013,-0.6819437,0.28899765,0.6374608,0.29006782,0.90844125,-0.3379093,-1.8904026,-0.9726094,2.4459116,1.515506,-0.9961749,0.9767834,-0.3869325,-1.846566,-0.91646564,2.4222648,1.4565207,-1.0226048,-1.48752,1.0971732,-0.8520411,-1.2236536,0.5112098,0.47470763,0.25483304,0.8548584,-0.52622604,1.4542325,-3.309051,0.11864965,-0.6939656,0.088401794,-0.36287308,1.0528992,0.87044126,-0.18511967,0.14651872,0.43196645,0.04450657,0.13314968,-0.15700465,1.0,0.0,0.0,0.0,0.0,0.0,0.0,-1.5048584,0.12622604,-0.90423244,0.04489422,-1.1221647,-11.071825,-7.4061155,-5.6323886,-0.61240196,-1.1262536
-4.156231,5.0695877,-2.44741,10.1595955,0.46710715,-1.6718984,-0.20801263,-0.821565,0.5789653,-0.54222906,-0.69348305,0.12935609,0.63617355,0.31613192,0.8946269,-0.32903597,-1.9007889,-0.985814,2.4352005,1.520138,-0.99099165,0.9619614,-0.37615645,-1.8557498,-0.9290074,2.4265563,1.4612356,-1.0201062,-1.4803159,1.0711774,-0.9403353,-1.2648925,0.40149006,0.4699765,0.24738783,0.8217926,-0.5250435,1.4465616,-3.3057427,0.11853102,-0.7914578,0.08888245,-0.3618889,1.0510525,0.8723608,-0.18150254,0.15323305,0.42727393,0.04673847,0.08184316,-0.19671,1.0,0.0,0.0,0.0,0.0,0.0,0.0,-1.4717926,0.12504348,-0.89656156,0.7550478,-2.5647402,-8.741689,-4.292059,-11.066044,-0.57765245,-0.9391248
-6.909556,-1.5209248,-4.5363717,10.841583,0.37406713,-1.6457119,-0.2513611,-0.82749444,0.5301634,-0.5686607,-0.7093532,-0.16117631,0.6399362,0.31908575,0.87921196,-0.3231401,-1.9126159,-0.9999427,2.4104388,1.5252292,-0.9881976,0.94718707,-0.3658477,-1.8656471,-0.9418248,2.4289825,1.4659125,-1.0176762,-1.4763099,1.017491,-1.0060676,-1.2878449,0.18922573,0.46639287,0.24055836,0.78876495,-0.52386093,1.4379165,-3.3024375,0.11841251,-0.8888525,0.08937073,-0.36144257,1.0487784,0.87446636,-0.17728655,0.16062891,0.42199096,0.04580389,0.027926818,-0.24040525,1.0,0.0,0.0,0.0,0.0,0.0,0.0,-1.4387649,0.123860925,-0.8879165,0.44932365,-5.3628206,-6.483686,-2.4367094,-21.323944,-0.45717955,-0.962618
-8.540629,-4.0766277,-5.306075,12.10127,0.23462665,-1.53394,-0.26749164,-0.82937425,0.48819593,-0.57865065,-0.7032451,-0.46316716,0.6448409,0.32853806,0.86424965,-0.3170281,-1.9235121,-1.0121493,2.3826659,1.5303966,-0.98482245,0.93242896,-0.35621464,-1.8760021,-0.95471275,2.428582,1.4705626,-1.0153035,-1.4755597,0.94521254,-1.0450054,-1.2895578,-0.11670098,0.46413052,0.23504888,0.7557678,-0.5226784,1.4282982,-3.2991357,0.11829412,-0.9861498,0.08984375,-0.36151123,1.046064,0.8767097,-0.1725132,0.16900428,0.4160009,0.044740226,-0.022112386,-0.28458232,1.0,0.0,0.0,0.0,0.0,0.0,0.0,-1.4057678,0.12267837,-0.8782982,0.105929375,-7.242465,-3.7924051,-0.2892971,-30.67336,-0.30803084,-0.90528727
-9.334264,-6.321042,-5.3300023,13.474242,0.5241612,-1.3995837,-0.17777489,-0.8255259,0.4254208,-0.54668933,-0.68639266,-0.62478274,0.6596372,0.3930672,0.84987634,-0.31367257,-1.930671,-1.023352,2.3661036,1.5365263,-0.9759968,0.91768324,-0.3474766,-1.8864105,-0.96746624,2.4250305,1.4752032,-1.0129308,-1.4742744,0.8498994,-1.0391582,-1.2708066,-0.43452552,0.46405372,0.23687752,0.7228012,-0.5214958,1.4177077,-3.2958372,0.11817585,-1.08335,0.09025574,-0.36205292,1.0429342,0.8789828,-0.1672743,0.17833921,0.40939432,0.034628153,-0.06978411,-0.32526293,1.0,0.0,0.0,0.0,0.0,0.0,0.0,-1.3728012,0.12149581,-0.86770767,0.13935566,-9.561407,0.66964626,1.7860413,-31.817924,-0.07407069,-0.18179715
-12.326953,-12.272022,-7.183098,14.98399,1.1989417,-1.390986,-0.14938605,-0.82733524,0.35405728,-0.5562272,-0.6622295,-0.68499964,0.66182905,0.41130003,0.83494973,-0.31207088,-1.9420332,-1.0336891,2.3565304,1.541386,-0.97180074,0.9029366,-0.33985054,-1.8966835,-0.97989833,2.4187171,1.4798476,-1.010518,-1.4746847,0.73329926,-1.0229808,-1.234273,-0.6974086,0.46428958,0.24140194,0.6898651,-0.52031326,1.4061458,-3.292542,0.1180577,-1.1804528,0.090400696,-0.3631363,1.0394247,0.8812282,-0.16163781,0.18832056,0.40230015,0.0021660961,-0.12466307,-0.36235568,1.0,0.0,0.0,0.0,0.0,0.0,0.0,-1.3398651,0.12031326,-0.8561458,-0.0300169,-11.72359,1.7296791,3.5857677,-26.341772,-0.07228255,0.09315014
-21.8872,-44.418568,-17.598764,11.235866,2.4130735,-2.0324214,-0.12972505,-0.8210775,0.16223812,-0.5846062,-0.6708339,-0.7200493,0.67885774,0.41736278,0.8208288,-0.32362673,-1.955144,-1.0469817,2.346712,1.5477333,-0.96878165,0.8882271,-0.33405888,-1.906924,-0.99203384,2.4103286,1.4845034,-1.0080594,-1.4686302,0.5273055,-1.0245134,-1.2063677,-0.8863887,0.4654902,0.24606854,0.65695953,-0.5191307,1.3936136,-3.2892501,0.117939666,-1.2774587,0.08982849,-0.36516953,1.0353899,0.8835102,-0.15543573,0.19832572,0.39486247,-0.08090144,-0.2333095,-0.41995597,1.0,0.0,0.0,0.0,0.0,0.0,0.0,-1.3069595,0.1191307,-0.84361356,0.9150982,-20.74647,-0.22492409,2.8689384,-18.986298,-0.06441474,0.059065223
-23.000153,-47.615314,-18.45332,10.825514,2.9345248,-2.0482976,-0.034761652,-0.82372,0.08175348,-0.5598872,-0.6749317,-0.6950037,0.6876222,0.40705323,0.8058551,-0.32588354,-1.9629127,-1.059527,2.3408282,1.5532656,-0.96735406,0.8735701,-0.33041346,-1.9171035,-1.0039895,2.4007041,1.4891726,-1.0055627,-1.4634477,0.30971736,-1.0161005,-1.1914611,-0.988014,0.46669653,0.24993777,0.6240921,-0.51795197,1.3801122,-3.2859616,0.11782175,-1.3743675,0.0883255,-0.3683281,1.0307785,0.88584787,-0.14860542,0.20781508,0.3873018,-0.181548,-0.34546417,-0.47741878,1.0,0.0,0.0,0.0,0.0,0.0,0.0,-1.2740921,0.11795196,-0.83011216,0.9021282,-21.927326,0.69437027,1.650238,-10.25182,-0.14813542,0.056409836
-32.28085,-88.082085,-30.446806,2.474528,4.051641,-2.889274,0.15805902,-0.8196604,-0.22771099,-0.49912643,-0.73239154,-0.67730355,0.6940188,0.42042243,0.79160404,-0.35318455,-1.9670162,-1.0772287,2.3329737,1.5585744,-0.9635204,0.8589951,-0.32991755,-1.9269397,-1.0161297,2.390557,1.4938475,-1.0030183,-1.4528698,-0.03799621,-0.974502,-1.2200396,-1.0240399,0.46612114,0.25474042,0.5912628,-0.51677704,1.3656423,-3.2826765,0.11770396,-1.4711794,0.0854187,-0.37309647,1.0253257,0.8883059,-0.14090014,0.2159759,0.38001856,-0.3356314,-0.52113855,-0.5702443,1.0,0.0,0.0,0.0,0.0,0.0,0.0,-1.2412628,0.11677703,-0.8156423,1.8571138,-35.0317,3.6492825,-2.4177313,-3.6496162,-0.5552292,0.17194748
-31.565182,-98.97981,-31.431288,-1.5735054,4.51778,-2.9418473,0.48040015,-0.7947611,-0.45948023,-0.34583443,-0.7524108,-0.63319343,0.6856719,0.48310626,0.77951896,-0.37586558,-1.9615232,-1.0913708,2.3272376,1.5624146,-0.9547076,0.8446337,-0.33342326,-1.9356678,-1.0286877,2.3804443,1.4984976,-1.0003728,-1.4277102,-0.4557775,-0.8412849,-1.2655952,-1.0069888,0.46250823,0.267223,0.55846405,-0.5156021,1.3502051,-3.2793944,0.117586285,-1.5678945,0.080841064,-0.37968826,1.0188651,0.8908462,-0.13229628,0.22205606,0.3736065,-0.5059044,-0.70316595,-0.6737759,1.0,0.0,0.0,0.0,0.0,0.0,0.0,-1.208464,0.115602106,-0.80020505,3.399539,-42.072304,12.609541,-3.9333582,1.7454624,-1.0651708,1.13464
-14.6192,-60.853256,-14.792687,0.7788224,3.7438178,-1.8076229,0.8889563,-0.7773764,-0.55001354,-0.070602216,-0.77139467,-0.5942204,0.68623364,0.49275765,0.76689607,-0.3884246,-1.9427279,-1.1058272,2.3210223,1.567121,-0.951097,0.83056605,-0.3406998,-1.9418647,-1.0417473,2.370736,1.5031191,-0.9975859,-1.3978186,-0.8189196,-0.5482394,-1.3176942,-0.9583643,0.45996156,0.28328818,0.5256958,-0.5144272,1.3338014,-3.2761157,0.11746872,-1.6645129,0.07497406,-0.38755035,1.0115622,0.8932157,-0.12325927,0.2257868,0.36877227,-0.6205885,-0.8092432,-0.7521556,1.0,0.0,0.0,0.0,0.0,0.0,0.0,-1.1756958,0.11442718,-0.7838014,3.544855,-36.51068,28.580236,-4.703188,5.046022,-0.85433125,1.8253028
2.6207476,-17.206038,2.9451556,5.359911,2.7631402,-0.5876261,1.1345947,-0.75194585,-0.6432398,0.17596933,-0.7725616,-0.58517116,0.67144257,0.49527967,0.75537145,-0.40502378,-1.9242678,-1.1190035,2.3122187,1.5702634,-0.94805795,0.8168484,-0.35098803,-1.9442718,-1.0552342,2.3615386,1.5077215,-0.9946362,-1.3620708,-1.0990282,-0.14060663,-1.3582069,-0.9056989,0.45945752,0.3004497,0.49295807,-0.51325226,1.3164324,-3.2728403,0.11735127,-1.7610347,0.06845856,-0.39588547,1.0037352,0.8951407,-0.11440791,0.22729607,0.36601976,-0.66890305,-0.8353402,-0.7965586,1.0,0.0,0.0,0.0,0.0,0.0,0.0,-1.142958,0.11325225,-0.76643234,3.8727283,-28.08466,39.972515,-3.7763834,5.59839,-0.33537745,2.1701872
12.754265,16.165413,14.555368,10.319148,2.016662,0.20841563,1.0870926,-0.72357005,-0.70719934,0.30707327,-0.7747706,-0.529303,0.6319478,0.45006546,0.7444914,-0.42170796,-1.9135644,-1.1327113,2.3086083,1.5709163,-0.9496296,0.8035418,-0.36338246,-1.9426563,-1.0690129,2.3529518,1.5123087,-0.9915596,-1.3193237,-1.2862153,0.259243,-1.3841527,-0.84153795,0.4585885,0.31185853,0.46025085,-0.51207733,1.2980987,-3.269568,0.11723394,-1.85746,0.061790466,-0.40410995,0.9956818,0.89650714,-0.10617321,0.22692247,0.36538786,-0.6705937,-0.8083776,-0.811988,1.0,0.0,0.0,0.0,0.0,0.0,0.0,-1.1102508,0.112077326,-0.7480987,4.5256853,-18.702793,39.088272,-2.481866,6.8049073,-0.053983927,1.6824782
11.416225,28.081457,15.625828,14.533744,1.9088451,0.3437808,0.7379261,-0.68194544,-0.75920135,0.2842278,-0.7641992,-0.39201376,0.6206368,0.36368385,0.7353472,-0.4393026,-1.9142334,-1.1454328,2.3137505,1.5743724,-0.95519125,0.79076827,-0.3771006,-1.9381416,-1.0828907,2.345307,1.5168883,-0.9884535,-1.2623893,-1.4002246,0.5125133,-1.388545,-0.73758346,0.4583405,0.3118192,0.42757416,-0.5109024,1.2788016,-3.266299,0.11711673,-1.953789,0.055145264,-0.41199112,0.98757595,0.89743614,-0.09864926,0.2250047,0.36640078,-0.66840243,-0.77108365,-0.81324375,1.0,0.0,0.0,0.0,0.0,0.0,0.0,-1.0775741,0.1109024,-0.72880155,5.985689,-11.3598585,24.471409,-0.32811165,10.712183,0.15769601,0.49722195
3.4310782,30.82806,11.342805,18.483402,1.831286,0.23248261,0.25062147,-0.6804779,-0.76451546,0.20553961,-0.7591944,-0.35967377,0.6260697,0.32024845,0.7227205,-0.45355213,-1.9175876,-1.1588101,2.3093398,1.5794952,-0.95642865,0.7784668,-0.39143097,-1.9325149,-1.0967076,2.3386657,1.5214735,-0.9854008,-1.2181402,-1.4438536,0.5768287,-1.3786339,-0.639178,0.459386,0.30437008,0.3949356,-0.5097351,1.258542,-3.2630334,0.11699963,-2.0500212,0.04840088,-0.41955185,0.97946113,0.89816535,-0.091636024,0.22205794,0.36822817,-0.6783608,-0.7395134,-0.813272,1.0,0.0,0.0,0.0,0.0,0.0,0.0,-1.0449356,0.1097351,-0.7085419,4.795289,-4.324651,5.681741,1.1977911,10.025358,0.34207106,-0.36447048
-11.199946,16.501934,-0.6659305,19.241394,1.7699362,-0.41935003,-0.31894693,-0.65578467,-0.77047056,-0.05439309,-0.7577176,-0.4142091,0.6353305,0.31560588,0.71288836,-0.46847802,-1.9379542,-1.1724794,2.2972448,1.5850066,-0.9538402,0.76658213,-0.40588152,-1.9282062,-1.1103833,2.3326309,1.5260664,-0.9824406,-1.1774036,-1.4456165,0.38096315,-1.3627934,-0.5917809,0.4593734,0.29377672,0.3623352,-0.5085678,1.2373207,-3.259771,0.11688266,-2.1461575,0.04131317,-0.42707825,0.971162,0.8990131,-0.08457365,0.21877234,0.36981258,-0.7194182,-0.7449465,-0.837604,1.0,0.0,0.0,0.0,0.0,0.0,0.0,-1.0123352,0.108567804,-0.68732065,4.4157743,-0.21269321,-19.960476,1.9440889,4.647839,0.028067827,-0.9029865
-24.361128,-1.3008423,-12.704449,17.651686,1.6982303,-1.110848,-0.70110005,-0.63496417,-0.7781601,-0.32590115,-0.7676929,-0.48159677,0.6263998,0.39788607,0.7030857,-0.48369753,-1.9607964,-1.1871526,2.2844713,1.5887064,-0.942652,0.7550789,-0.42023098,-1.9274051,-1.123956,2.3266456,1.5306383,-0.979529,-1.1401434,-1.4318594,-0.020210275,-1.3538359,-0.60223114,0.4553147,0.2900566,0.32976532,-0.5074005,1.2151387,-3.256512,0.116765805,-2.2421975,0.033592224,-0.43494797,0.96237034,0.90024984,-0.076774456,0.21573868,0.37028718,-0.79079574,-0.78933835,-0.89562607,1.0,0.0,0.0,0.0,0.0,0.0,0.0,-0.9797653,0.10740051,-0.66513866,4.072404,1.2294054,-40.163116,1.4048338,-1.416719,-0.68460107,-0.43011904
-27.309273,-6.535432,-15.711297,15.942429,1.6414769,-1.2488528,-0.71127397,-0.6195577,-0.7921452,-0.44380146,-0.7754717,-0.48600265,0.6010642,0.44099027,0.69312316,-0.4994455,-1.9717853,-1.2015032,2.2780454,1.5907447,-0.93543,0.74391425,-0.43447983,-1.9308193,-1.1375115,2.3204086,1.5351397,-0.9766165,-1.1071544,-1.4233066,-0.4484771,-1.3540376,-0.63239986,0.4470878,0.2912947,0.29722595,-0.5062332,1.191997,-3.253256,0.11664907,-2.3381417,0.025108337,-0.4433174,0.9528848,0.9019437,-0.06788474,0.21314059,0.3694052,-0.87055975,-0.8420018,-0.9697624,1.0,0.0,0.0,0.0,0.0,0.0,0.0,-0.9472259,0.10623321,-0.64199704,3.7151098,0.6432295,-42.830757,0.5536318,-3.4889102,-1.2567937,-0.0075519085
-23.138615,3.5993438,-10.200998,16.67437,1.5425513,-0.70514774,-0.51646054,-0.6452236,-0.7882987,-0.44833955,-0.7772047,-0.5031939,0.61854833,0.4486811,0.67939186,-0.5133097,-1.9756532,-1.215232,2.2700891,1.5969945,-0.9317484,0.732864,-0.4486524,-1.9376247,-1.1511033,2.313813,1.53958,-0.9736773,-1.102681,-1.415876,-0.75850046,-1.3592018,-0.6701947,0.4416735,0.2944944,0.2647171,-0.5050659,1.1678967,-3.2500036,0.11653244,-2.4339898,0.015899658,-0.45201492,0.9427327,0.9039704,-0.05802487,0.21090108,0.36741164,-0.9380774,-0.86746466,-1.0353271,1.0,0.0,0.0,0.0,0.0,0.0,0.0,-0.9147171,0.10506591,-0.61789674,0.952363,0.5334377,-31.179989,0.030398369,-4.191208,-0.90177655,0.23117065
-19.0528,13.841562,-4.221682,18.073061,1.7098529,-0.12407637,-0.31248477,-0.67423004,-0.79233915,-0.471589,-0.77967083,-0.44443348,0.5971519,0.43977618,0.66544104,-0.5278863,-1.9847836,-1.2290703,2.2693696,1.5992951,-0.92969966,0.72163546,-0.46279442,-1.9465396,-1.1647656,2.3070724,1.5439612,-0.97070754,-1.1278998,-1.414337,-0.9368696,-1.3669685,-0.67662275,0.43616354,0.29783076,0.23223877,-0.5038986,1.1428386,-3.2467542,0.116415925,-2.529742,0.006095886,-0.46077347,0.93205106,0.90618217,-0.047499996,0.20874262,0.3646972,-0.99805367,-0.86550725,-1.0851326,1.0,0.0,0.0,0.0,0.0,0.0,0.0,-0.88223875,0.103898615,-0.5928386,-1.9874096,-0.03926754,-18.152905,-0.27563572,-0.97614527,-0.808388,0.3426969
-14.240732,26.523865,2.8186224,20.221706,1.7977055,0.5292981,-0.13886221,-0.70890546,-0.7894091,-0.45259368,-0.7728231,-0.42304194,0.6072422,0.41394153,0.6507449,-0.54173535,-1.991799,-1.2420479,2.2647681,1.6046854,-0.92931336,0.7099596,-0.47692597,-1.9562633,-1.178468,2.3004081,1.5483099,-0.9677216,-1.179072,-1.413252,-0.9857097,-1.3699889,-0.6634224,0.43413442,0.2992691,0.19979095,-0.50273514,1.1168237,-3.243508,0.11629953,-2.6253984,-0.004219055,-0.46928787,0.92103726,0.9084452,-0.03669859,0.2064111,0.36162832,-1.0447803,-0.83315223,-1.113292,1.0,0.0,0.0,0.0,0.0,0.0,0.0,-0.84979093,0.10273513,-0.56682366,-4.609823,-0.04556179,-5.3058267,0.11899471,1.0887861,-0.30047297,0.25487542
-11.917705,33.561493,6.3525195,21.097631,1.7367971,0.8526236,-0.07638769,-0.7307466,-0.78194433,-0.49140686,-0.7724972,-0.439795,0.6095513,0.3961472,0.636885,-0.5551204,-2.005404,-1.2557178,2.2564287,1.6092651,-0.92810684,0.69771445,-0.4910184,-1.9661033,-1.1921818,2.293862,1.552651,-0.9647356,-1.2380788,-1.4083439,-0.98514235,-1.3708068,-0.65240985,0.43393767,0.29884857,0.16737366,-0.50157547,1.0898529,-3.2402654,0.11618326,-2.7209594,-0.014923096,-0.47737122,0.9098207,0.9106831,-0.025853442,0.20382665,0.35838863,-1.0816561,-0.78635824,-1.1310778,1.0,0.0,0.0,0.0,0.0,0.0,0.0,-0.81737363,0.101575464,-0.5398529,-5.435586,0.3594637,-0.38245916,0.29218197,0.9157181,-0.040721893,0.10173321
-10.302712,35.65278,7.635881,20.543518,1.6253041,0.9123219,-0.057518594,-0.73447347,-0.7846561,-0.53293043,-0.7706415,-0.4474266,0.6032948,0.34748918,0.6242671,-0.569484,-2.0193963,-1.269246,2.2491195,1.6129805,-0.9299867,0.6849762,-0.5050765,-1.9759204,-1.205888,2.2873886,1.5569884,-0.96179163,-1.2844315,-1.405358,-0.98181206,-1.3693244,-0.64631927,0.43368688,0.29340383,0.13500214,-0.5004158,1.0619273,-3.2370257,0.116067104,-2.8164246,-0.025939941,-0.48498535,0.89843404,0.91286886,-0.015033374,0.20098743,0.35503298,-1.1118101,-0.7376504,-1.1474816,1.0,0.0,0.0,0.0,0.0,0.0,0.0,-0.7850021,0.100415796,-0.5119273,-4.2370796,0.18122196,-0.06532669,0.49607754,0.4508257,-0.034701824,-0.3951192
-11.135536,33.30819,6.3318825,19.493656,1.6055104,0.80245215,-0.09832916,-0.7438072,-0.7894318,-0.58945173,-0.7714206,-0.4370127,0.58979577,0.28062883,0.6105955,-0.5840197,-2.0348656,-1.28303,2.2436874,1.615968,-0.93372875,0.67187846,-0.51913846,-1.985934,-1.2195771,2.2809799,1.5613104,-0.95895255,-1.3170606,-1.4068307,-1.0090996,-1.3677579,-0.6395098,0.43161762,0.28112578,0.10266113,-0.49925613,1.0330477,-3.2337894,0.11595106,-2.9117944,-0.03727722,-0.4921608,0.8868366,0.915021,-0.004189451,0.19788814,0.35151008,-1.1442857,-0.69503725,-1.1699544,1.0,0.0,0.0,0.0,0.0,0.0,0.0,-0.7526611,0.09925613,-0.48304766,-2.901554,-0.27518272,-3.0635118,0.5215645,0.5097985,-0.2743423,-1.094228
-12.187796,31.33791,5.1726766,18.6967,1.609284,0.74494696,-0.13049832,-0.758517,-0.7953411,-0.62266684,-0.77028704,-0.4319387,0.5857535,0.22533263,0.5960268,-0.59867257,-2.0482006,-1.2966058,2.237786,1.6198858,-0.9364193,0.65851367,-0.5332519,-1.9963806,-1.233249,2.2746398,1.5656077,-0.9562746,-1.3418282,-1.4133186,-1.0575261,-1.3655218,-0.6328575,0.42871135,0.2638313,0.07035065,-0.49809647,1.0032151,-3.2305562,0.11583513,-3.0070689,-0.048965454,-0.4989357,0.87497246,0.91716206,0.0067436695,0.19451399,0.34775344,-1.1798416,-0.6560306,-1.197742,1.0,0.0,0.0,0.0,0.0,0.0,0.0,-0.7203506,0.09809646,-0.45321506,-2.1353245,-0.7887125,-5.13556,0.61142445,0.4790187,-0.40715933,-1.6048908
-13.267738,31.72094,4.7974067,18.713715,1.5788165,0.7929891,-0.18666747,-0.77734995,-0.7943427,-0.65155935,-0.7624679,-0.45446187,0.5794851,0.117560804,0.58077866,-0.61268616,-2.0615366,-1.3094957,2.2291937,1.6235561,-0.94451857,0.64490664,-0.54742444,-2.0073948,-1.2468636,2.2682846,1.5698725,-0.9538399,-1.3658974,-1.4191486,-1.116821,-1.3588679,-0.63713694,0.42519236,0.23707864,0.03807068,-0.4969368,0.9724305,-3.2273264,0.11571932,-3.1022482,-0.061019897,-0.50531006,0.86282045,0.919308,0.017796423,0.19090512,0.3436731,-1.2160307,-0.61560035,-1.2268518,1.0,0.0,0.0,0.0,0.0,0.0,0.0,-0.68807065,0.09693679,-0.42243052,-2.0766973,-0.7327795,-6.191373,1.0663509,-0.62417984,-0.48907995,-2.5676906
-11.954764,33.61046,5.887327,18.178463,1.4626569,0.87269634,-0.19457114,-0.77977693,-0.7993304,-0.66890734,-0.75734043,-0.46592778,0.5782044,-0.025934264,0.5669289,-0.6273575,-2.0742855,-1.3225976,2.2216918,1.6276929,-0.9564333,0.63111556,-0.56166565,-2.0189648,-1.2603924,2.2618377,1.574103,-0.95176375,-1.3825713,-1.4262424,-1.1714587,-1.3497888,-0.64775014,0.42194828,0.19822657,0.005821228,-0.49577713,0.9406948,-3.2240996,0.115603626,-3.1973324,-0.073402405,-0.5112686,0.8503823,0.92145383,0.028949197,0.18709078,0.339237,-1.2463076,-0.5723817,-1.2553988,1.0,0.0,0.0,0.0,0.0,0.0,0.0,-0.6558212,0.095777124,-0.3906948,-1.3802767,-0.8539438,-5.6916,1.2910843,-1.2397289,-0.45675635,-3.7810774
-11.726793,36.053,6.8432255,18.639442,1.4473158,1.0040116,-0.22593565,-0.78960747,-0.8008419,-0.6934117,-0.73780847,-0.47882217,0.5861944,-0.14663321,0.5521548,-0.64174986,-2.088306,-1.3341733,2.2139554,1.6327224,-0.9664271,0.6171738,-0.57596886,-2.0310497,-1.2737553,2.2552497,1.5783106,-0.9501406,-1.3972106,-1.4321908,-1.2212347,-1.3306478,-0.6629857,0.42011586,0.15070093,-0.026397705,-0.4946251,0.908009,-3.2208762,0.115488045,-3.2923214,-0.08605957,-0.5167732,0.83769,0.92359686,0.040147617,0.1831027,0.33441028,-1.2737757,-0.5248853,-1.2795732,1.0,0.0,0.0,0.0,0.0,0.0,0.0,-0.6236023,0.094625086,-0.35800898,-1.2064695,-0.7372856,-5.174947,2.2830963,-1.6907692,-0.30038357,-4.65225
-11.359984,38.922604,8.151282,19.428453,1.5231061,1.1580784,-0.24634399,-0.7985071,-0.80455154,-0.70411277,-0.7129225,-0.463508,0.5826894,-0.26644573,0.53732306,-0.65642405,-2.101461,-1.3450476,2.208899,1.6365795,-0.9767852,0.6030909,-0.59033024,-2.0435352,-1.2868359,2.2485778,1.5825049,-0.94904387,-1.4112878,-1.4380056,-1.2579662,-1.2991678,-0.66933304,0.4186704,0.096376434,-0.05858612,-0.49347305,0.87437403,-3.217656,0.115372576,-3.3872156,-0.09899902,-0.52176285,0.82481146,0.92574203,0.051293425,0.1789269,0.32917437,-1.2996525,-0.4727535,-1.296185,1.0,0.0,0.0,0.0,0.0,0.0,0.0,-0.59141386,0.09347305,-0.32437402,-1.1817694,-0.7189989,-3.8427591,3.4960985,-0.7819176,-0.23648143,-5.3193955
-11.179698,44.650974,10.425636,21.572592,1.627492,1.4324598,-0.27716926,-0.8138186,-0.7960855,-0.7000568,-0.6682741,-0.46692798,0.59949076,-0.335073,0.521709,-0.6699388,-2.113541,-1.3536633,2.201885,1.6424539,-0.98255116,0.58883345,-0.60469353,-2.0562305,-1.2994359,2.2418602,1.586701,-0.9484936,-1.4300025,-1.4362578,-1.2737991,-1.2460129,-0.67295307,0.41983947,0.04160661,-0.09074402,-0.492321,0.8397908,-3.214439,0.115257226,-3.482015,-0.11215973,-0.52617264,0.811882,0.927893,0.06223404,0.1745957,0.32350853,-1.3221846,-0.4120714,-1.2974439,0.0,1.0,0.0,0.0,0.0,0.0,0.0,-0.55925596,0.09232101,-0.2897908,-1.6794443,0.047397614,-1.7191648,5.6214333,-0.4942894,0.08619428,-5.360275
-9.324655,49.359062,12.946117,22.371626,1.6039727,1.6264217,-0.24117514,-0.8195427,-0.79419994,-0.68451315,-0.63394743,-0.4682437,0.6149393,-0.35045555,0.5068792,-0.6841135,-2.124682,-1.3628306,2.1950357,1.6481949,-0.98353916,0.5745452,-0.61897296,-2.0698988,-1.3118874,2.2355843,1.5932826,-0.9481923,-1.4280344,-1.4261411,-1.3923495,-1.240617,-0.62428975,0.7161487,0.02067088,-0.10722351,-0.49245453,0.83758074,-1.2837254,-0.014509874,0.68476874,-0.12567902,-0.52970505,0.7987041,0.92999554,0.07216758,0.17025666,0.3176675,-1.3577757,-0.3178841,-1.3281202,0.0,1.0,0.0,0.0,0.0,0.0,0.0,-0.54277647,0.09245452,-0.28758073,-1.2596369,0.2744913,0.31776428,7.1478367,-0.3158331,-0.3497839,-4.535529
72.60784,176.0,110.0,110.0,2.3942525,12.144943,-1.0970738,-0.796701,0.3316661,0.7070861,0.71779335,-0.36912346,0.6531862,-0.45107388,0.4948751,-0.58580637,-1.9991902,-1.240108,2.1986718,1.6586012,-0.99329966,0.5639203,-0.6353676,-2.0768416,-1.3118492,2.2222824,1.6080264,-0.94921273,-0.9339821,-1.6762156,-0.5118734,0.4023926,-1.5230676,1.7541243,-0.12249025,-0.12004852,-0.4925995,0.8436869,-1.2824419,-0.014495368,0.5858981,-0.13755035,-0.53059006,0.78996843,0.931703,0.07234182,0.17072071,0.31233078,-1.1272815,0.007533181,-0.7260306,1.0,0.0,0.0,0.0,0.0,0.0,0.0,-0.52995145,0.09259948,-0.29368687,51.389133,-14.690232,72.90658,159.41658,-77.06046,111.8932,-8.16657
22.548649,176.0,81.36853,94.21589,5.04309,6.437701,-0.99580365,-0.7609532,-0.64906585,0.39945123,0.75829947,-0.61153823,0.7018695,-0.37579316,0.487825,-0.70027417,-2.0368965,-1.2360193,2.1611285,1.6782134,-0.986792,0.55461055,-0.6519453,-2.0756247,-1.3007962,2.2058563,1.6253031,-0.9510085,-0.9282108,-1.6519452,0.33342326,1.3401744,-1.6863971,1.7270916,-0.19544941,-0.1328659,-0.49274445,0.848805,-1.2811596,-0.014480875,0.48712635,-0.1481781,-0.529232,0.78640795,0.9334403,0.06500876,0.17413945,0.30681962,-1.039184,0.18770197,-0.23783669,1.0,0.0,0.0,0.0,0.0,0.0,0.0,-0.5171341,0.09274444,-0.298805,1.1427641,2.3133278,84.6897,93.93756,-17.506577,-0.28135777,-6.3738494
7.748717,138.9322,54.20366,61.019955,3.6112835,3.557246,-0.45278978,-0.69710624,-0.6728535,0.3447498,0.62847435,-0.69501597,0.6541774,0.13199247,0.48489994,-0.71923065,-2.0411496,-1.2379487,2.1363547,1.6907209,-0.9378092,0.5448888,-0.6673252,-2.0688765,-1.2844406,2.189659,1.6415881,-0.9527251,-0.9841787,-1.5006711,0.7875277,1.7354301,-1.6007967,1.6005121,-0.16184933,-0.14566803,-0.4928894,0.85293615,-1.2798787,-0.0144663965,0.38845336,-0.15821838,-0.5265007,0.7861764,0.9352259,0.05432773,0.17837936,0.3009678,-0.991187,0.3080124,0.04171706,1.0,0.0,0.0,0.0,0.0,0.0,0.0,-0.50433195,0.0928894,-0.30293614,-4.812634,14.922285,44.97887,39.911938,7.6583147,-11.187935,3.8975806
-0.08130646,104.466385,35.763084,37.141727,2.5030265,1.8254862,-0.061421763,-0.6899114,-0.6724832,0.5192768,0.69634956,-0.67742604,0.6106322,0.21061097,0.47589764,-0.73457354,-2.016949,-1.2148057,2.1219165,1.7026513,-0.931664,0.5342849,-0.6811392,-2.0589163,-1.2667099,2.1750488,1.6562842,-0.95397633,-1.0839678,-1.3421767,1.0634269,1.7863224,-1.4162289,1.4294721,-0.11201557,-0.1584549,-0.49303436,0.8560813,-1.2785991,-0.014451933,0.28987905,-0.16789246,-0.5228729,0.7876675,0.93695164,0.042557634,0.18242337,0.2950122,-0.96145,0.38674387,0.17760403,1.0,0.0,0.0,0.0,0.0,0.0,0.0,-0.49154508,0.09303436,-0.3060813,-9.423733,15.701056,26.992226,5.3512573,18.000364,-16.091442,5.2644835
-2.3973832,66.77314,18.90007,17.872536,1.3069727,0.28730738,0.18440033,-0.65636635,-0.68139064,0.5101221,0.695602,-0.69040173,0.6039823,0.21301831,0.46864825,-0.74927825,-2.007904,-1.1971498,2.1060088,1.7166824,-0.9326745,0.52293044,-0.693721,-2.0476859,-1.2498757,2.1622124,1.6693515,-0.95474595,-1.1521283,-1.2303886,1.1416179,1.6495306,-1.2398238,1.2681794,-0.065082826,-0.17123413,-0.49317932,0.85824144,-1.2773209,-0.014437485,0.19140328,-0.1773529,-0.5188446,0.78960276,0.9385666,0.031152556,0.18580537,0.28913397,-0.94407356,0.41508582,0.19243501,1.0,0.0,0.0,0.0,0.0,0.0,0.0,-0.47876585,0.093179315,-0.30824143,-6.636858,11.108422,7.3843,-13.580108,17.529917,-15.463591,4.7695293
-1.7526102,38.626728,8.003014,7.0128736,0.61784256,-0.743124,0.302002,-0.6253852,-0.7007668,0.49053296,0.68524015,-0.6856107,0.5915036,0.2001599,0.4603919,-0.7637977,-1.9986326,-1.1813517,2.0936513,1.7285018,-0.93472993,0.5112594,-0.70568484,-2.0365965,-1.2348229,2.1508255,1.680952,-0.9551093,-1.1722164,-1.1851354,1.0972277,1.4573573,-1.1049262,1.1253487,-0.02672425,-0.18399811,-0.49332428,0.8594096,-1.2760438,-0.01442305,0.09196077,-0.18670654,-0.51483536,0.7911457,0.9400734,0.020895053,0.18837923,0.2834407,-0.9374117,0.4029471,0.1362139,1.0,0.0,0.0,0.0,0.0,0.0,0.0,-0.46600187,0.093324274,-0.30940956,-2.0464182,4.4934273,-4.66516,-19.196297,13.482666,-13.874221,3.8377054
-1.7775788,22.87359,2.398046,3.490207,0.4457847,-1.20906,0.29083836,-0.61350757,-0.71559143,0.4741342,0.6665348,-0.6663489,0.5746839,0.17449231,0.4499086,-0.777244,-1.9891831,-1.1681694,2.0841906,1.7384204,-0.93766004,0.4996379,-0.71758765,-2.026354,-1.221542,2.1404762,1.6912745,-0.9551589,-1.1590885,-1.1921647,0.99923307,1.2849901,-1.0119406,1.0020245,0.002312324,-0.19674683,-0.49346924,0.85958403,-1.274768,-0.014408629,-0.0073823244,-0.19610596,-0.51109695,0.7919188,0.9415132,0.012019947,0.19015284,0.27793914,-0.94209766,0.36997148,0.05314117,1.0,0.0,0.0,0.0,0.0,0.0,0.0,-0.45325315,0.09346923,-0.30958402,1.2273788,-0.7236481,-9.915388,-17.204618,9.298801,-12.090325,2.9091341
-0.1449194,20.06449,2.3679113,4.788359,0.49710232,-1.2561126,0.21623465,-0.5854295,-0.7264749,0.45897716,0.6670824,-0.666226,0.5833922,0.13567257,0.44109496,-0.79023516,-1.9804564,-1.1548338,2.0738537,1.7496138,-0.9415916,0.4883631,-0.7297756,-2.0171263,-1.2095143,2.1307487,1.7005213,-0.95498914,-1.117145,-1.2277023,0.89747924,1.1758442,-0.960001,0.89934975,0.021997396,-0.20948792,-0.4936142,0.85876584,-1.2734935,-0.014394224,-0.1066261,-0.20555878,-0.5077286,0.7918996,0.942921,0.004383786,0.19126806,0.27257517,-0.94931585,0.33265075,-0.023821998,1.0,0.0,0.0,0.0,0.0,0.0,0.0,-0.44051206,0.09361419,-0.30876583,4.1273355,-3.5817146,-10.21446,-10.830688,5.1454425,-10.106337,2.000587
-1.1839433,21.548971,3.1750407,7.805293,0.71524394,-1.1191868,0.11559668,-0.57363576,-0.74108636,0.43129116,0.6559583,-0.66188943,0.57504565,0.1258091,0.43099952,-0.80388427,-1.9739972,-1.1439184,2.0645597,1.7580259,-0.9424082,0.4775527,-0.7424032,-2.0088217,-1.1981617,2.121334,1.7088679,-0.9546611,-1.0690554,-1.2745619,0.8080932,1.1223584,-0.9355126,0.8135212,0.03660397,-0.22221375,-0.49375916,0.85695595,-1.2722203,-0.014379833,-0.20577067,-0.21513367,-0.50468826,0.79121155,0.94432425,-0.0022674918,0.19189148,0.2672532,-0.9614919,0.300334,-0.08703819,1.0,0.0,0.0,0.0,0.0,0.0,0.0,-0.42778623,0.09375915,-0.30695593,4.7929525,-4.7189474,-8.975029,-5.2058935,2.3884416,-8.447123,1.526371
2.7877336,24.595558,5.484909,8.05277,0.6280777,-1.0671208,0.10284173,-0.5226842,-0.76203954,0.39134687,0.6297598,-0.6468712,0.57817554,0.07185121,0.4252843,-0.81860715,-1.969687,-1.1351857,2.056647,1.7666855,-0.94747597,0.46736985,-0.75552386,-2.0013258,-1.1871372,2.1120758,1.7164706,-0.954251,-1.0014516,-1.3246915,0.7300759,1.0964638,-0.92301494,0.74282414,0.04272289,-0.23492432,-0.4939041,0.8541553,-1.2709483,-0.014365456,-0.3048161,-0.22476959,-0.5019722,0.7899533,0.9457255,-0.008150185,0.19212879,0.26196054,-0.96569926,0.26892486,-0.14191973,1.0,0.0,0.0,0.0,0.0,0.0,0.0,-0.41507566,0.09390411,-0.3041553,6.7246675,-5.061221,-7.75671,-2.4366856,1.1313319,-6.9616556,0.67751557
12.339405,27.270174,8.440936,4.4013968,0.1255873,-1.1804343,0.21973483,-0.44161728,-0.78230566,0.33859432,0.5751771,-0.626358,0.58471483,0.03967576,0.42320812,-0.8337544,-1.9674664,-1.1296196,2.04944,1.774942,-0.9502834,0.45811683,-0.7691261,-1.9946082,-1.1764504,2.1029358,1.7234648,-0.95382184,-0.90040463,-1.372353,0.652985,1.059644,-0.91203904,0.68493396,0.043010805,-0.24762726,-0.49404907,0.850365,-1.2696776,-0.014351093,-0.40376252,-0.23428345,-0.4996109,0.7881269,0.9470905,-0.013364491,0.19201247,0.25685048,-0.9483595,0.22987294,-0.19955708,1.0,0.0,0.0,0.0,0.0,0.0,0.0,-0.40237272,0.09404907,-0.30036497,9.972227,-4.839587,-7.505715,-3.5737753,0.8830309,-5.7287335,0.05646348
21.334854,27.785679,9.633347,0.21015188,-0.44613305,-1.4570203,0.32444468,-0.34098637,-0.79594934,0.227579,0.53988665,-0.6147728,0.5828098,0.060213774,0.4240182,-0.848721,-1.9718503,-1.1224617,2.0414586,1.7817458,-0.94780046,0.45017558,-0.78314036,-1.9889624,-1.1662136,2.0939026,1.7299517,-0.953386,-0.7595065,-1.4114755,0.5362128,1.0118662,-0.90130794,0.636719,0.043684818,-0.26031494,-0.49419403,0.84558594,-1.2684082,-0.014336745,-0.50260997,-0.24349213,-0.49775696,0.78565186,0.9483815,-0.017845128,0.19159131,0.2520849,-0.912708,0.1762433,-0.26681826,1.0,0.0,0.0,0.0,0.0,0.0,0.0,-0.38968503,0.094194025,-0.29558593,13.849438,-4.004693,-11.334133,-4.7083616,0.8093834,-4.818344,0.04665777
16.58461,24.46656,6.1858387,1.4813808,-0.3208477,-1.5855356,0.18264598,-0.2929086,-0.8084243,0.07995195,0.55445325,-0.6084325,0.6001007,0.021909425,0.42088473,-0.8639828,-1.9809672,-1.1107683,2.0330594,1.7899618,-0.95119506,0.44362575,-0.7974779,-1.984976,-1.1562954,2.0849762,1.7360324,-0.952975,-0.6208262,-1.4414661,0.35370952,0.985576,-0.8903349,0.59851164,0.040251434,-0.27298737,-0.494339,0.83981913,-1.26714,-0.014322412,-0.60135865,-0.2524414,-0.49645615,0.782454,0.94963455,-0.021448106,0.19097768,0.24751094,-0.891371,0.11845767,-0.34084597,0.0,1.0,0.0,0.0,0.0,0.0,0.0,-0.3770126,0.09433898,-0.28981912,13.655615,-3.0840158,-17.977947,-2.503264,0.9360671,-3.843832,-0.35984814
3.6051295,20.737757,0.9665078,6.0653863,0.15295134,-1.543827,-0.047151636,-0.2746963,-0.8114588,-0.08453399,0.5813355,-0.61665696,0.6060796,0.055583518,0.4161561,-0.8786238,-1.9934294,-1.0981618,2.0233104,1.7966403,-0.9474166,0.43820935,-0.8120205,-1.9833128,-1.1463906,2.0761185,1.7417887,-0.9525725,-0.5155605,-1.4588019,0.104133934,0.9928741,-0.8839986,0.56805575,0.040256526,-0.28565216,-0.49448395,0.8330656,-1.2658732,-0.014308092,-0.70000863,-0.26142883,-0.4956894,0.77849334,0.9509248,-0.023982687,0.19035307,0.24276029,-0.8993162,0.06700735,-0.4181586,0.0,1.0,0.0,0.0,0.0,0.0,0.0,-0.36434782,0.09448394,-0.28306562,10.425938,-1.804924,-24.86507,0.95846653,0.63682795,-3.0661345,0.0036470592
-17.69446,14.248499,-6.673129,12.264118,0.90574586,-1.3351629,-0.32211977,-0.31443188,-0.8122591,-0.27220896,0.5864717,-0.60896426,0.59900296,0.098840326,0.40676618,-0.8932464,-2.0105338,-1.0877434,2.015222,1.801689,-0.94268847,0.43330413,-0.82665557,-1.9846041,-1.1362988,2.067337,1.74728,-0.95213383,-0.48189694,-1.4652401,-0.20743302,1.0159893,-0.87556654,0.5426716,0.045182943,-0.2983017,-0.4946289,0.8253263,-1.2646075,-0.014293787,-0.79855996,-0.270813,-0.49531174,0.77370214,0.9523516,-0.025188254,0.18986915,0.23736364,-0.95097244,0.032169096,-0.5034093,0.0,1.0,0.0,0.0,0.0,0.0,0.0,-0.35169828,0.0946289,-0.2753263,3.4592807,-0.7062197,-31.343636,2.6860714,1.0460496,-2.5527358,0.52042973
-28.829073,12.501375,-9.849737,15.625849,1.2303693,-1.1318867,-0.4406371,-0.31376907,-0.81411135,-0.44047543,0.60459554,-0.62074614,0.60675,0.1342279,0.40192723,-0.9080667,-2.0286517,-1.0758393,2.0052624,1.807955,-0.93871105,0.42844707,-0.84131163,-1.9891951,-1.1258827,2.05859,1.7525557,-0.9516179,-0.4862943,-1.46591,-0.5439382,1.0518233,-0.8732028,0.5222934,0.053706378,-0.31093597,-0.49477386,0.8166023,-1.2633432,-0.014279497,-0.8970127,-0.2808609,-0.4951744,0.7680427,0.9539581,-0.024894651,0.18965206,0.23103291,-1.0216967,0.010709704,-0.5911773,0.0,1.0,0.0,0.0,0.0,0.0,0.0,-0.339064,0.09477386,-0.26660228,-0.2269566,-0.15349388,-33.948715,4.050565,0.49351454,-2.0868182,0.86960566
-20.529663,19.081146,-5.3273315,13.166119,0.86908114,-1.0215605,-0.2638142,-0.25867525,-0.81622297,-0.5415319,0.5991162,-0.598446,0.5852941,0.20325996,0.40257955,-0.92293394,-2.0433483,-1.0659711,1.9987453,1.8110851,-0.9312919,0.42366922,-0.85596025,-1.996858,-1.1152004,2.0499074,1.7576185,-0.9509665,-0.47375265,-1.46461,-0.84718776,1.0697185,-0.8662379,0.49536157,0.070635796,-0.3236847,-0.4946022,0.8076734,-1.3004799,0.13405083,-0.60199434,-0.2914734,-0.4952469,0.76155293,0.955684,-0.023151929,0.18968827,0.22394262,-1.0693421,-0.011301817,-0.6758074,0.0,1.0,0.0,0.0,0.0,0.0,0.0,-0.32631528,0.0946022,-0.25767338,1.5069366,0.04980564,-31.325829,1.4597893,0.7321358,-3.5581946,1.9050546
-39.628765,24.204077,-6.212123,21.458323,1.7638412,-0.34147292,-0.43309027,-0.39420635,-0.8083742,-0.6301493,0.64459974,-0.6298993,0.55078596,0.28191498,0.38424858,-0.9367977,-2.0598729,-1.0507405,1.9869175,1.8126972,-0.922775,0.41837594,-0.8705571,-2.0070958,-1.104192,2.0412035,1.7624325,-0.95009947,-0.54670674,-1.4586828,-1.08312,1.1129638,-0.8718173,0.47602555,0.09208799,-0.3366394,-0.49326706,0.8010751,-1.2965297,0.1345303,-0.6822846,-0.30275726,-0.49525452,0.7543777,0.957517,-0.020061474,0.1900169,0.21599132,-1.1453516,0.0072416267,-0.7365801,0.0,1.0,0.0,0.0,0.0,0.0,0.0,-0.31336057,0.09326705,-0.2510751,-6.9536448,0.40888786,-23.827194,4.8536777,-0.5811572,-2.1129966,2.151063
-19.942806,41.129173,4.9049954,17.805384,1.1709704,-0.0927273,-0.1397928,-0.31322443,-0.79797715,-0.6339489,0.65634155,-0.6229386,0.59169143,0.35259658,0.3870535,-0.9503548,-2.0704906,-1.0385579,1.9789096,1.8216016,-0.9148398,0.41270304,-0.88504916,-2.0188923,-1.0927831,2.0324419,1.7670988,-0.94897807,-0.57362753,-1.4466814,-1.2118201,1.151294,-0.87812805,0.46314272,0.11859462,-0.3495865,-0.49180603,0.79401,-1.2928134,0.14906678,-0.71811837,-0.31443787,-0.4950676,0.7468054,0.95934176,-0.01610467,0.19062981,0.20751894,-1.1724722,0.028305583,-0.76941454,0.0,1.0,0.0,0.0,0.0,0.0,0.0,-0.3004135,0.091806024,-0.24400997,-2.5417447,0.99680424,-12.807059,4.1604757,-0.71275234,-1.4034629,2.5918796
5.2176476,51.219273,14.092695,10.1091175,0.21069473,-0.17015946,0.21612686,-0.23505299,-0.8045683,-0.6506429,0.6352728,-0.6384234,0.5703207,0.3741434,0.38919774,-0.965506,-2.0839565,-1.0292559,1.9685996,1.8241309,-0.91156375,0.40725183,-0.899463,-2.0313716,-1.0811903,2.0236073,1.7716546,-0.94759905,-0.53589994,-1.4402888,-1.2590551,1.1623218,-0.8868056,0.45263585,0.14401813,-0.36226654,-0.49025345,0.78670824,-1.2611018,0.15667157,-0.736723,-0.32601166,-0.49480057,0.7389863,0.96102506,-0.011658529,0.19141783,0.19913353,-1.1466652,0.032900028,-0.7914487,0.0,1.0,0.0,0.0,0.0,0.0,0.0,-0.28773344,0.09025344,-0.23670822,3.6949635,0.4648924,-4.395747,1.1798143,-1.2002349,-1.184386,2.4449468
15.256321,56.87278,18.318256,7.4871492,-0.080892205,-0.1617595,0.352722,-0.22497414,-0.7998384,-0.6644047,0.6374547,-0.6357428,0.53646,0.4005065,0.38475442,-0.9794468,-2.0978122,-1.0174448,1.9600329,1.8253006,-0.9075484,0.40232044,-0.91381866,-2.0439794,-1.0695884,2.0147128,1.7760996,-0.9459731,-0.47944045,-1.4344764,-1.2596369,1.1594445,-0.89183384,0.4412311,0.168413,-0.37456512,-0.48864746,0.77930874,-1.2201073,0.16185418,-0.7436538,-0.3371811,-0.49452972,0.73100924,0.9625099,-0.006947413,0.19228932,0.1911837,-1.1002687,0.03131301,-0.80480236,0.0,1.0,0.0,0.0,0.0,0.0,0.0,-0.27543485,0.088647455,-0.22930872,5.4804683,0.41885376,0.38158894,-0.31647682,-0.9214282,-1.278317,2.3387432
3.4719553,55.078274,15.708917,11.108147,0.5356132,0.0675866,0.23031494,-0.2921962,-0.8056109,-0.66563857,0.6379914,-0.6130495,0.50632405,0.40326837,0.37310082,-0.99437976,-2.1105433,-1.0057893,1.9534079,1.8267319,-0.90564626,0.39758486,-0.9281638,-2.0564196,-1.0580553,2.005842,1.7804145,-0.9441256,-0.4718305,-1.4351779,-1.2375472,1.1515106,-0.88696605,0.42762443,0.19006114,-0.38650513,-0.48696136,0.7718117,-1.1864445,0.1709479,-0.75420403,-0.34803772,-0.4941597,0.7229169,0.9638373,-0.0020623428,0.1931412,0.18360238,-1.076653,0.044538427,-0.815753,0.0,1.0,0.0,0.0,0.0,0.0,0.0,-0.26349485,0.08696136,-0.22181171,0.687623,-0.24776459,2.585125,-0.7239342,0.063335896,-1.5135765,2.114007
-6.9494076,55.469597,13.775437,14.7543335,1.0630484,0.27423614,0.11215187,-0.32289457,-0.7981834,-0.6637454,0.64147866,-0.589507,0.50114673,0.43830425,0.3652954,-1.0079821,-2.1227942,-0.9939074,1.9468913,1.8305291,-0.90029514,0.39264864,-0.94249755,-2.0685966,-1.046583,1.9970963,1.7845978,-0.94205916,-0.5008957,-1.4334588,-1.2101294,1.1461743,-0.8719637,0.41463763,0.21206279,-0.3981552,-0.48516083,0.76420295,-1.1588472,0.18286817,-0.76520854,-0.35878754,-0.49355316,0.7147459,0.965058,0.002962015,0.19391692,0.17621136,-1.0714198,0.072125256,-0.8223792,0.0,1.0,0.0,0.0,0.0,0.0,0.0,-0.25184476,0.08516082,-0.21420294,-2.909857,-0.023126602,3.0735493,-0.39052963,1.0722637,-1.4574826,2.1726756
-2.6164937,58.174767,15.361641,14.025724,0.9762577,0.2543279,0.13236254,-0.28560725,-0.7974662,-0.64332676,0.65088964,-0.58775,0.50009316,0.44809535,0.3640879,-1.0222442,-2.1329293,-0.98149407,1.9383214,1.8346071,-0.89724964,0.38754362,-0.9568141,-2.080449,-1.0351052,1.9885069,1.7886642,-0.9397881,-0.51387864,-1.431597,-1.175527,1.1486728,-0.85625786,0.40351728,0.231965,-0.40950775,-0.48325348,0.75651896,-1.1274481,0.19315636,-0.7714817,-0.36946106,-0.49269485,0.70654076,0.9661785,0.008055759,0.1946095,0.16900106,-1.0587484,0.096180044,-0.82447493,0.0,1.0,0.0,0.0,0.0,0.0,0.0,-0.24049222,0.08325347,-0.20651895,-1.3399482,-0.002837181,3.839779,0.35443306,1.1257291,-1.265794,1.9543052
-17.177845,56.051548,11.524183,18.26676,1.5118868,0.43495163,-0.025650412,-0.36769548,-0.7953501,-0.6511663,0.65347564,-0.5890153,0.47191647,0.45538366,0.35077408,-1.036349,-2.1455657,-0.9697577,1.9296054,1.8358558,-0.89424974,0.38198102,-0.9711049,-2.0920649,-1.0235677,1.9800332,1.7926071,-0.93733406,-0.5702096,-1.4290233,-1.1555796,1.1561745,-0.84590024,0.390749,0.24982376,-0.42060852,-0.48121262,0.7487122,-1.1052579,0.20733339,-0.7849835,-0.380188,-0.49147797,0.69829965,0.96722746,0.013276876,0.19524802,0.16178022,-1.0700381,0.13592494,-0.8284519,0.0,1.0,0.0,0.0,0.0,0.0,0.0,-0.22939146,0.08121261,-0.19871217,-5.5803776,0.049209595,2.2895575,0.96747875,0.62447786,-1.4330089,1.7702401
-15.470753,59.11814,12.835351,18.471832,1.550252,0.5118214,-0.029965483,-0.36485928,-0.79068154,-0.6147877,0.67003953,-0.5706532,0.5018807,0.4803241,0.34549507,-1.050173,-2.1535437,-0.9565637,1.9229678,1.8427951,-0.88930166,0.37591136,-0.98535365,-2.1033912,-1.0118814,1.971688,1.7964582,-0.93470335,-0.61910456,-1.424126,-1.1239842,1.1734872,-0.83226097,0.38257557,0.2674549,-0.43147278,-0.47903442,0.7408228,-1.0802878,0.22130756,-0.79219747,-0.39095306,-0.4898491,0.69007206,0.9682103,0.018563006,0.19584648,0.1544935,-1.0771377,0.1775445,-0.8250747,0.0,1.0,0.0,0.0,0.0,0.0,0.0,-0.2185272,0.07903442,-0.19082278,-4.862678,0.2821684,3.4993887,1.9217014,0.925982,-0.9734869,1.7448723
-9.247548,60.230934,13.986453,16.263952,1.2522854,0.42627954,0.029430002,-0.35625508,-0.7889662,-0.608557,0.66813284,-0.5809971,0.49024028,0.47276396,0.34028584,-1.0642502,-2.1642468,-0.94506806,1.9135883,1.8454822,-0.887427,0.36951122,-0.999551,-2.1144347,-1.0000485,1.9634271,1.8002338,-0.93192333,-0.6470544,-1.4189379,-1.096474,1.1870306,-0.82541054,0.37521133,0.28154066,-0.44207,-0.47674942,0.7328608,-1.0518023,0.23151873,-0.7989631,-0.40174866,-0.48786545,0.6818646,0.9691096,0.023896065,0.19642822,0.14721222,-1.0724828,0.21066222,-0.8234567,0.0,1.0,0.0,0.0,0.0,0.0,0.0,-0.20792997,0.076749414,-0.18286079,-2.8128028,0.32322407,3.1308174,1.4950037,0.23752451,-0.8943498,1.3708293
-8.43877,59.571545,13.679684,15.283842,1.2199645,0.4036056,0.047829032,-0.38330603,-0.7894719,-0.59466946,0.6580107,-0.5498041,0.45943382,0.47399718,0.3311806,-1.0784982,-2.1739016,-0.93424743,1.9084467,1.8461772,-0.88452363,0.3628374,-1.0137111,-2.125215,-0.9881667,1.9553009,1.80392,-0.9290186,-0.6742324,-1.4154586,-1.0703716,1.1890707,-0.8098942,0.36590979,0.2933133,-0.45237732,-0.47436905,0.72479427,-1.0241077,0.2402262,-0.8101859,-0.4124756,-0.48557281,0.67364687,0.9699285,0.029287912,0.1969412,0.13998199,-1.0668035,0.24189758,-0.82501346,0.0,1.0,0.0,0.0,0.0,0.0,0.0,-0.19762266,0.07436904,-0.17479426,-2.7415276,0.16109943,2.9847383,0.33819675,1.1067152,-1.0930777,1.1432767
-15.747086,59.7343,11.99866,17.492632,1.5019864,0.48548812,-0.019217737,-0.43409657,-0.7872716,-0.5913863,0.6683828,-0.54507,0.44173348,0.5011426,0.31942776,-1.0924382,-2.1843536,-0.9213284,1.9007939,1.8480934,-0.87890434,0.35574254,-1.0278388,-2.1357896,-0.9762505,1.947319,1.8075061,-0.92599076,-0.7212043,-1.4125154,-1.0522968,1.1931177,-0.79566556,0.3554789,0.30586803,-0.46244812,-0.4718895,0.71657246,-1.0009675,0.25061414,-0.8265123,-0.42321014,-0.48290253,0.66540325,0.97068036,0.034778953,0.19737045,0.13272105,-1.0721322,0.28148654,-0.8280244,0.0,1.0,0.0,0.0,0.0,0.0,0.0,-0.18755186,0.07188949,-0.16657245,-4.68179,0.09689331,2.1494865,0.59752464,0.99101067,-1.2198865,1.2411892
-19.74917,62.54279,12.243272,19.301605,1.8262173,0.6530646,-0.072016776,-0.47288433,-0.78275245,-0.5449469,0.67292714,-0.50155175,0.45771232,0.5027807,0.3084541,-1.106114,-2.1902843,-0.90895784,1.8971639,1.8532773,-0.8757127,0.34806833,-1.0419246,-2.146036,-0.9642848,1.9395789,1.8110062,-0.9228477,-0.7827318,-1.4081236,-1.0143088,1.1984117,-0.7683288,0.34747988,0.31720924,-0.47229767,-0.4692917,0.7082075,-0.9788191,0.26302904,-0.83998334,-0.4340515,-0.47976685,0.6571855,0.97138584,0.040286325,0.19766873,0.12535402,-1.0824479,0.3308735,-0.82348967,0.0,1.0,0.0,0.0,0.0,0.0,0.0,-0.17770231,0.06929168,-0.15820748,-6.127274,0.23491383,4.157305,0.7373333,2.2784472,-0.9855032,1.14519
-18.679024,64.61561,13.296469,18.979952,2.0097337,0.7296523,-0.0723954,-0.5013729,-0.78245807,-0.49175104,0.65441734,-0.4152215,0.4175236,0.4792739,0.29793105,-1.1201704,-2.195211,-0.89884305,1.8980567,1.8527585,-0.8749203,0.33975515,-1.0559741,-2.1557062,-0.9523629,1.9323375,1.8144046,-0.91962,-0.8474693,-1.4046067,-0.9500814,1.1907351,-0.710915,0.3366205,0.3247973,-0.48191833,-0.4665718,0.69971615,-0.9565644,0.2753639,-0.852282,-0.44500732,-0.47611237,0.6490529,0.97208065,0.045646712,0.19767927,0.11789102,-1.0916284,0.38337728,-0.813405,0.0,1.0,0.0,0.0,0.0,0.0,0.0,-0.16808164,0.0665718,-0.14971614,-6.46261,0.15497208,6.805706,-0.58026314,5.2577496,-1.2804568,0.7978022
-12.874769,65.20765,14.355446,16.582413,1.8368254,0.67136633,-0.008445047,-0.51225054,-0.77905214,-0.46607924,0.6287616,-0.35663974,0.36914015,0.4826158,0.28853008,-1.1338793,-2.2023141,-0.88948673,1.8966736,1.8513186,-0.8713584,0.33089408,-1.0699836,-2.164701,-0.9406535,1.9257967,1.8176682,-0.91632617,-0.89905185,-1.4002423,-0.8812004,1.1648461,-0.6366844,0.32223514,0.3310386,-0.49131012,-0.46374893,0.6910884,-0.93227834,0.28462395,-0.8655288,-0.45597076,-0.47198486,0.6410102,0.9727862,0.05077815,0.19727148,0.110419914,-1.0918324,0.42915082,-0.8044975,0.0,1.0,0.0,0.0,0.0,0.0,0.0,-0.15868986,0.063748926,-0.14108837,-5.178988,0.2583027,7.2856903,-2.450943,6.9326878,-1.6333163,0.66131353
-6.065239,64.327065,15.241802,13.244771,1.7202606,0.5375412,0.07018439,-0.52879155,-0.7772827,-0.42502493,0.57212424,-0.20451067,0.21033384,0.4729403,0.27801493,-1.1477119,-2.2072034,-0.8834411,1.9053457,1.8387016,-0.86903214,0.32160577,-1.0839492,-2.1729634,-0.9294583,1.9203488,1.8206801,-0.91298664,-0.9389203,-1.3957899,-0.80679476,1.1046535,-0.5156501,0.29350471,0.33510998,-0.50045776,-0.4608574,0.68228954,-0.9079386,0.2903796,-0.8833057,-0.46688843,-0.46747208,0.63303185,0.97354615,0.055612538,0.19619572,0.103064306,-1.0854441,0.46604913,-0.7988561,0.0,1.0,0.0,0.0,0.0,0.0,0.0,-0.14954221,0.060857385,-0.13228953,-4.03738,0.2922535,7.8338146,-5.936265,11.619032,-3.0694008,0.45546293
-5.6622257,62.192398,13.899678,11.945511,1.5737947,0.3808896,0.088181876,-0.5518642,-0.765909,-0.44816744,0.535585,-0.12083843,0.056758158,0.49619943,0.26641935,-1.1605401,-2.21778,-0.8758998,1.9082649,1.8263559,-0.8633667,0.3119546,-1.0978271,-2.1807683,-0.9189792,1.9162143,1.8233048,-0.9095983,-0.97397625,-1.385513,-0.77090675,1.0292329,-0.38081363,0.25135314,0.34032443,-0.5093765,-0.4579239,0.6732589,-0.88624966,0.2941234,-0.9085296,-0.47774506,-0.4626274,0.6250434,0.97438025,0.060266327,0.19433141,0.095845714,-1.0799402,0.4972387,-0.8018887,0.0,1.0,0.0,0.0,0.0,0.0,0.0,-0.14062345,0.057923883,-0.12325889,-3.5484552,0.8866787,3.92133,-7.4568033,13.062489,-4.4181466,0.5649388
2.4777446,66.016205,16.437733,10.502058,1.470583,0.28683978,0.12898992,-0.5404681,-0.7578315,-0.3850618,0.5118855,-0.010338911,-0.097109824,0.5245366,0.25790778,-1.1736102,-2.2192745,-0.8677907,1.9151804,1.8135937,-0.85714465,0.30211648,-1.1115733,-2.1881115,-0.9092355,1.9135363,1.82542,-0.9061422,-0.98734313,-1.3715632,-0.7211168,0.9562172,-0.23158796,0.19766343,0.3475329,-0.5180359,-0.45498657,0.66405606,-0.85898983,0.29368085,-0.9239083,-0.48847198,-0.45755386,0.61708534,0.9753,0.06469584,0.19161116,0.088822395,-1.0648887,0.5186707,-0.79681283,0.0,1.0,0.0,0.0,0.0,0.0,0.0,-0.13196409,0.054986566,-0.11405605,-1.4198422,1.2690306,5.3611517,-7.2839975,14.484414,-5.5597453,0.75006485
4.0184264,63.932907,15.874065,9.148941,1.4060901,0.21904504,0.1479038,-0.5567176,-0.75720423,-0.37111598,0.45061582,0.11396409,-0.19868441,0.5268363,0.24644473,-1.1872938,-2.225223,-0.8641739,1.9249327,1.8055515,-0.8534585,0.2921644,-1.1252013,-2.1950157,-0.90031946,1.9124465,1.8269631,-0.90261745,-0.9981196,-1.3601531,-0.67892593,0.87008625,-0.06940858,0.13926175,0.3542273,-0.52643585,-0.4520645,0.6546625,-0.8332959,0.29172024,-0.94344133,-0.49907684,-0.45228195,0.6091342,0.9763218,0.068873234,0.18794522,0.08202848,-1.0501074,0.53641415,-0.79718447,0.0,1.0,0.0,0.0,0.0,0.0,0.0,-0.123564124,0.05206451,-0.10466248,-1.1550665,1.0292053,4.560995,-8.594788,15.830413,-6.0290484,0.70664287
18.291115,70.33884,20.35187,6.727977,0.9597435,0.19710457,0.2481047,-0.5123004,-0.7459376,-0.28194284,0.42787397,0.113335334,-0.23603357,0.5492985,0.24093434,-1.1997951,-2.2232099,-0.8575321,1.9237801,1.8033597,-0.8476876,0.28235915,-1.1386958,-2.2012026,-0.8921855,1.9126863,1.827953,-0.8990182,-0.9751508,-1.3460845,-0.5971514,0.7941975,0.053766787,0.085046455,0.36174273,-0.53448486,-0.44921875,0.64522785,-0.7945075,0.28198683,-0.9422533,-0.5093231,-0.44696426,0.6012698,0.97742,0.07266491,0.18344393,0.075619295,-1.0120543,0.5368223,-0.7853624,0.0,1.0,0.0,0.0,0.0,0.0,0.0,-0.11551511,0.049218744,-0.09522784,2.159953,1.3156891,8.605373,-7.6765537,11.906464,-5.549921,0.7303119
38.495388,83.735054,28.646399,5.5133233,0.67158556,0.2755292,0.32142624,-0.4441029,-0.7417902,-0.089063354,0.45173544,0.07660051,-0.22535227,0.5493817,0.23794886,-1.2128749,-2.210109,-0.847012,1.9203464,1.8054178,-0.8440801,0.2731295,-1.1520587,-2.2057877,-0.8844922,1.9137377,1.8284737,-0.8953523,-0.9062494,-1.3333764,-0.41016585,0.76035714,0.12069344,0.040957604,0.36784506,-0.54198456,-0.44655228,0.63613296,-0.73495317,0.26142395,-0.8986803,-0.51898956,-0.44179916,0.59377503,0.97856665,0.075646795,0.17835635,0.06981282,-0.9442897,0.5164953,-0.740069,0.0,1.0,0.0,0.0,0.0,0.0,0.0,-0.10801542,0.04655227,-0.08613294,6.677747,1.1949301,19.289959,-3.606546,6.217979,-4.443098,0.5189955
61.30505,92.02558,36.22391,2.0644817,0.4392962,0.23063496,0.42821556,-0.35967267,-0.7560578,0.13709278,0.44365418,0.1348168,-0.26272336,0.5355934,0.23716223,-1.2276645,-2.1920784,-0.8401268,1.9272194,1.8022014,-0.84179294,0.26494458,-1.1653968,-2.207634,-0.87697554,1.9153705,1.8285898,-0.8916452,-0.79010886,-1.3342437,-0.10673068,0.7478207,0.1754061,0.0017741576,0.37125513,-0.5487671,-0.44417953,0.6277351,-0.6595558,0.22929765,-0.8213228,-0.52778625,-0.43701172,0.5869292,0.97979045,0.07723117,0.17273554,0.06487182,-0.85230446,0.4710719,-0.66849184,0.0,1.0,0.0,0.0,0.0,0.0,0.0,-0.10123289,0.04417953,-0.07773507,11.357546,-0.16438961,31.088293,-1.5437007,4.903057,-3.8836305,0.21792054
75.006836,100.464355,41.06648,1.6085814,0.35454497,0.1374422,0.4304484,-0.263864,-0.74229777,0.2939921,0.4792873,0.18088858,-0.24364403,0.5386875,0.23855819,-1.2396266,-2.1782348,-0.8290468,1.9334593,1.8042254,-0.8377764,0.25822023,-1.1787158,-2.206131,-0.86930054,1.917523,1.8283778,-0.8879096,-0.6340361,-1.3315492,0.23890834,0.7733239,0.2262823,-0.028615125,0.3738431,-0.554718,-0.44219208,0.62031907,-0.5747355,0.18889566,-0.71617705,-0.53556824,-0.43280792,0.58096164,0.9811095,0.07702125,0.16667812,0.060910746,-0.7499847,0.40836775,-0.57525903,0.0,1.0,0.0,0.0,0.0,0.0,0.0,-0.09528196,0.04219207,-0.07031906,15.366709,0.14531612,35.437885,2.320397,4.4187813,-2.978157,0.119930506
63.437855,91.89023,35.82905,2.4254904,0.6358535,0.033219665,0.3499618,-0.24826632,-0.7446352,0.35823908,0.42881688,0.33823252,-0.25314027,0.51676184,0.2333936,-1.2531793,-2.1703072,-0.8264189,1.9513463,1.8030639,-0.8362334,0.25286016,-1.1920253,-2.201592,-0.86154836,1.9205171,1.8278939,-0.8841681,-0.50379115,-1.3315133,0.5282862,0.77573746,0.32163733,-0.054811638,0.3740526,-0.5599289,-0.4405632,0.6137971,-0.50485754,0.15418908,-0.63345236,-0.54250336,-0.4291458,0.57577765,0.9825472,0.075065814,0.16007707,0.057804704,-0.6722266,0.3563915,-0.5021368,0.0,1.0,0.0,0.0,0.0,0.0,0.0,-0.09007108,0.040563196,-0.06379712,12.887692,-0.15308857,29.675972,0.20524263,8.935142,-2.5893064,-0.045883656
44.58522,94.53802,31.626787,9.201603,1.1894987,0.046581954,0.11981179,-0.20450002,-0.69669664,0.3761615,0.48662618,0.44476026,-0.20598318,0.5441226,0.23241016,-1.2616949,-2.1639757,-0.81288576,1.9649931,1.8072956,-0.82975584,0.24862881,-1.2051173,-2.1949592,-0.8535344,1.924667,1.8272148,-0.88040566,-0.39641878,-1.3022034,0.7101329,0.8103386,0.44435647,-0.07203731,0.37690452,-0.5645294,-0.43922806,0.60807073,-0.4466886,0.12725005,-0.55586714,-0.5488739,-0.4258423,0.5713147,0.98407245,0.07166409,0.15303478,0.055191036,-0.622702,0.32579502,-0.4304837,0.0,1.0,0.0,0.0,0.0,0.0,0.0,-0.08547056,0.039228052,-0.05807072,10.691452,2.771926,18.742859,3.5740495,11.840868,-1.6801403,0.26502013
55.396004,88.43427,30.794615,3.1022265,0.4654772,-0.15492137,0.2883213,-0.0861427,-0.6942722,0.47816628,0.42301053,0.5452602,-0.061372135,0.5385944,0.24001454,-1.2745446,-2.1471426,-0.81123334,1.979193,1.8210776,-0.8265462,0.24566673,-1.2179098,-2.1868217,-0.8454889,1.9301664,1.8265029,-0.87662035,-0.26302987,-1.2720257,0.8503187,0.8032333,0.5833197,-0.070744835,0.37905398,-0.5685501,-0.43819046,0.60304135,-0.3892735,0.096439525,-0.49047378,-0.554657,-0.42298126,0.5674144,0.98564786,0.06699131,0.1455545,0.053142976,-0.56112957,0.2764584,-0.3794267,0.0,1.0,0.0,0.0,0.0,0.0,0.0,-0.08144987,0.038190454,-0.05304134,13.275337,2.8272867,14.6381855,-0.54425,13.428879,0.17276406,0.20478368
43.02431,70.20975,22.410635,-1.4622952,-0.07756477,-0.18837371,0.44653022,-0.11001435,-0.68595856,0.4642895,0.24245583,0.6166523,0.025807504,0.5087875,0.23466529,-1.2865057,-2.1403928,-0.82124335,1.9918315,1.8290837,-0.8257416,0.2436309,-1.2304163,-2.1779,-0.8384235,1.9370192,1.825892,-0.87283605,-0.18392268,-1.2439957,0.907373,0.6749507,0.71820635,-0.05762421,0.3783822,-0.5721054,-0.43740845,0.5982862,-0.34640932,0.072614126,-0.47497603,-0.55983734,-0.42055893,0.56363827,0.98723453,0.061501835,0.13747294,0.051832676,-0.506023,0.23354928,-0.38028952,0.0,1.0,0.0,0.0,0.0,0.0,0.0,-0.07789457,0.03740844,-0.0482862,7.8692017,2.6426792,6.041229,-12.641597,13.248396,1.4031537,-0.004428625
26.347301,67.96333,18.583855,0.2776055,0.010379225,0.034518808,0.47814173,-0.14728074,-0.6432166,0.520798,0.116689876,0.6540988,0.00072963117,0.51501095,0.22890283,-1.2947379,-2.1258202,-0.8267545,2.002429,1.8259649,-0.82133496,0.24188082,-1.2425184,-2.1685503,-0.83323777,1.9450511,1.8253958,-0.8690546,-0.17198028,-1.199302,0.94447416,0.4671798,0.83136564,-0.046279125,0.37840036,-0.57528687,-0.43680954,0.59358525,-0.31029984,0.056472067,-0.47423044,-0.5645447,-0.41841888,0.5597595,0.9887936,0.055563387,0.12871757,0.051299877,-0.45824245,0.20980294,-0.39378443,0.0,1.0,0.0,0.0,0.0,0.0,0.0,-0.07471311,0.036809534,-0.04358524,1.2096614,4.354191,3.72926,-20.58888,11.335492,1.3114288,0.11585355
23.033497,60.483116,15.636934,-4.1986394,-0.5436039,0.054385632,0.69728625,-0.1687565,-0.619911,0.5562833,-0.13080224,0.68509465,-0.09558835,0.5084786,0.22500516,-1.3045095,-2.112922,-0.846318,2.0135605,1.815837,-0.8182068,0.23990749,-1.254138,-2.1588743,-0.8310294,1.9540272,1.8249334,-0.8652768,-0.20564753,-1.1499238,0.9746988,0.13940859,0.9201826,-0.045533717,0.3781253,-0.5781326,-0.4363594,0.58872294,-0.27675974,0.041846413,-0.49573234,-0.5686798,-0.41653442,0.5555624,0.99029136,0.049486835,0.11913802,0.0517698,-0.40096256,0.18345642,-0.4316206,0.0,1.0,0.0,0.0,0.0,0.0,0.0,-0.07186735,0.0363594,-0.038722932,-3.3254504,4.8375607,2.8119802,-32.58183,9.066212,0.30967668,0.13894439
10.086834,56.451397,12.544845,-2.6961849,-0.41068327,0.17879005,0.69714797,-0.22947042,-0.6018402,0.5655222,-0.30180383,0.71410626,-0.13001572,0.54687387,0.21696045,-1.314322,-2.102322,-0.8612098,2.0254378,1.8119318,-0.81058943,0.23724079,-1.2652845,-2.1489735,-0.832403,1.9637321,1.8244381,-0.8614693,-0.28668454,-1.1031009,0.99373436,-0.22877347,0.9882569,-0.050142817,0.38234404,-0.5806885,-0.43601227,0.5835347,-0.24942647,0.033066917,-0.5311388,-0.5723343,-0.414814,0.55090225,0.9916957,0.043503977,0.10865666,0.053299267,-0.3522745,0.17119211,-0.48015314,0.0,1.0,0.0,0.0,0.0,0.0,0.0,-0.0693115,0.036012262,-0.033534706,-8.003384,4.6138763,1.4415026,-36.57257,7.1823835,-0.224597,0.65205693
20.68164,53.98788,13.689208,-4.487013,-0.69290006,-0.07202044,0.65830106,-0.16296728,-0.62063146,0.57952964,-0.3434452,0.7312456,-0.10411688,0.5581071,0.22094406,-1.3273476,-2.0910206,-0.8667475,2.0368567,1.8140264,-0.80565864,0.2341352,-1.2761774,-2.1389031,-0.83686924,1.9739735,1.8239136,-0.8576106,-0.318094,-1.084824,1.0101948,-0.5181357,1.0371565,-0.052514445,0.38799444,-0.58296967,-0.4357834,0.57799876,-0.22216831,0.02017415,-0.5649882,-0.57547,-0.4133339,0.54575443,0.99296784,0.037621576,0.09736903,0.05584509,-0.30097628,0.14156303,-0.5281318,0.0,1.0,0.0,0.0,0.0,0.0,0.0,-0.06703031,0.03578338,-0.027998745,-3.0155182,1.7676592,1.2025833,-28.628557,5.270171,-0.0382185,0.8363366
25.140135,59.271618,15.88334,-1.8917513,-0.6350639,-0.13124838,0.49224383,-0.12928823,-0.61028785,0.5713965,-0.36196184,0.7306309,0.061940107,0.55591255,0.22120637,-1.3372062,-2.0817635,-0.8730654,2.0470366,1.8301076,-0.80201936,0.23105697,-1.2869596,-2.1287675,-0.84337527,1.9845519,1.8234959,-0.85369956,-0.30390728,-1.0762227,1.0131534,-0.6936358,1.0661359,-0.03756218,0.39309376,-0.5849838,-0.43568802,0.5722197,-0.19514371,0.0061307186,-0.58380234,-0.57814026,-0.41218567,0.54024243,0.9940632,0.031739436,0.085584104,0.059214458,-0.25255054,0.10686854,-0.5601938,0.0,1.0,0.0,0.0,0.0,0.0,0.0,-0.06501615,0.035688013,-0.022219718,1.5704274,0.84016323,-0.15580654,-17.221558,3.3348322,1.7043918,0.8047581
21.779078,71.92907,19.428043,5.387444,-0.055999473,0.0077794045,0.20818485,-0.10704213,-0.5935322,0.6024052,-0.31255776,0.7232871,0.21500726,0.54432565,0.22035275,-1.3463129,-2.068527,-0.87463105,2.0568807,1.8449966,-0.799267,0.22834162,-1.2976427,-2.1185098,-0.85059744,1.9952881,1.8233472,-0.84975326,-0.2601467,-1.065307,1.0281794,-0.73065186,1.0780741,-0.0064864196,0.396099,-0.5867462,-0.43571472,0.5664813,-0.1700591,-0.004959595,-0.57096976,-0.5804062,-0.41130447,0.53466034,0.9949551,0.025636949,0.07371671,0.06303063,-0.21697184,0.08291332,-0.558216,0.0,1.0,0.0,0.0,0.0,0.0,0.0,-0.06325376,0.035714716,-0.01648128,4.5550528,1.1406422,1.0061264,-3.4018278,1.7429352,3.3800054,0.5823314
11.912361,85.6647,21.697636,13.461243,0.46437657,0.16942354,-0.045998946,-0.097985275,-0.54433364,0.56490034,-0.27575445,0.71223205,0.28837118,0.54505205,0.2185431,-1.352076,-2.0620198,-0.8781729,2.0665114,1.8521843,-0.79524803,0.22610001,-1.308011,-2.108305,-0.8574848,2.0060415,1.8235517,-0.8457831,-0.21153276,-1.0268638,1.0163724,-0.673871,1.0766048,0.030657453,0.39823517,-0.58828735,-0.4358139,0.56107116,-0.14885093,-0.01122394,-0.53050226,-0.5824127,-0.41053772,0.5293202,0.9956332,0.019261481,0.06220532,0.06688704,-0.19569068,0.07448812,-0.5264464,0.0,1.0,0.0,0.0,0.0,0.0,0.0,-0.061712623,0.035813898,-0.011071146,5.0523014,3.9554358,-1.7102718,5.950165,0.4971981,4.049968,0.4797995
12.780354,106.70092,27.17082,18.242035,0.42121112,0.25442144,-0.13321182,-0.048703402,-0.44544706,0.53111994,-0.24206094,0.70243615,0.3130679,0.53645474,0.22122967,-1.3525558,-2.055193,-0.8816909,2.0762851,1.8548584,-0.7921376,0.22448139,-1.3175535,-2.0984209,-0.86346203,2.0167303,1.8241205,-0.8418025,-0.14460787,-0.92962974,0.9775759,-0.5713812,1.0687226,0.06717715,0.3987571,-0.589592,-0.43597412,0.5563734,-0.1253609,-0.017229185,-0.4495902,-0.58418274,-0.4098816,0.5245985,0.9960961,0.012661047,0.051487178,0.070578694,-0.16926886,0.065117754,-0.45464307,0.0,1.0,0.0,0.0,0.0,0.0,0.0,-0.060407996,0.035974115,-0.0063734055,6.8996816,9.876049,-4.4407487,10.520411,-0.043940544,4.104828,0.28092265
15.803505,113.906975,29.398659,18.428223,0.16873059,0.18952933,-0.11144601,-0.0050417865,-0.38695183,0.5069398,-0.21730089,0.69790506,0.3002515,0.5305496,0.22397721,-1.3562487,-2.0477269,-0.8851921,2.086521,1.8541456,-0.78874755,0.22361188,-1.3259325,-2.0890214,-0.8683868,2.027324,1.8250076,-0.8378256,-0.06707168,-0.80695677,0.92572063,-0.46524164,1.0586386,0.09742736,0.3981196,-0.5906677,-0.43619537,0.55258024,-0.10258771,-0.023599993,-0.3558436,-0.5856476,-0.40934753,0.5206953,0.99635893,0.005916727,0.041768603,0.07408831,-0.13801949,0.049183473,-0.36962846,0.0,1.0,0.0,0.0,0.0,0.0,0.0,-0.05933225,0.036195368,-0.0025802255,7.9505877,12.407279,-5.686724,10.888738,-0.29406548,3.4662678,0.15129447
10.853729,139.52234,35.171448,24.809338,0.14745484,0.38512182,-0.18009834,0.022067778,-0.20920861,0.43059742,-0.1389638,0.6717963,0.31984016,0.52956766,0.22581865,-1.3468534,-2.0459616,-0.8822832,2.0945036,1.8569915,-0.78486884,0.22348194,-1.332469,-2.080427,-0.87212527,2.037761,1.826171,-0.8338583,0.0057394537,-0.60183185,0.83555037,-0.34244645,1.0415915,0.12436729,0.39693433,-0.5915146,-0.43645477,0.5500718,-0.07885204,-0.026410509,-0.21608679,-0.58675385,-0.40892792,0.51799613,0.9964438,-0.00082720467,0.03344543,0.077332385,-0.10171933,0.039813433,-0.23745851,0.0,1.0,0.0,0.0,0.0,0.0,0.0,-0.05848539,0.036454767,-7.176399e-05,7.4860625,20.674538,-9.561181,12.561136,-0.8314371,3.2240376,0.064480305
9.323515,157.30347,39.3115,28.755245,-0.0047413968,0.41643623,-0.22568204,0.07414553,-0.04839084,0.342527,-0.045155358,0.6539157,0.30573815,0.50651306,0.23089649,-1.337308,-2.0461743,-0.8766408,2.1031525,1.8567449,-0.783207,0.22412686,-1.3365068,-2.0730226,-0.8744752,2.0479963,1.8275539,-0.82992154,0.0846851,-0.3371008,0.7070769,-0.1982632,1.0202653,0.14447308,0.39314243,-0.59213257,-0.4367218,0.54919726,-0.055710692,-0.026833648,-0.044725854,-0.5874634,-0.40860748,0.51686865,0.9963866,-0.0074011297,0.026908686,0.08021712,-0.061500974,0.030439865,-0.07203312,0.0,0.0,1.0,0.0,0.0,0.0,0.0,-0.057867408,0.036721796,0.00080275536,8.077479,26.613056,-13.3185625,14.697367,-1.2666225,2.473679,-0.23040175
