Afshin1997/kuka_rl_ros2/src/catch_and_throw/input_files/idealpd/polynomial_regressor/optimizer_files/env_327_data.csv
torque0,torque1,torque2,torque3,torque4,torque5,torque6,action0,action1,action2,action3,action4,action5,action6,set_target_0,set_target_1,set_target_2,set_target_3,set_target_4,set_target_5,set_target_6,joint_pos_0,joint_pos_1,joint_pos_2,joint_pos_3,joint_pos_4,joint_pos_5,joint_pos_6,joint_vel_0,joint_vel_1,joint_vel_2,joint_vel_3,joint_vel_4,joint_vel_5,joint_vel_6,tennisball_pos_0,tennisball_pos_1,tennisball_pos_2,tennisball_lin_vel_0,tennisball_lin_vel_1,tennisball_lin_vel_2,end_effector_pos_0,end_effector_pos_1,end_effector_pos_2,end_effector_rot_0,end_effector_rot_1,end_effector_rot_2,end_effector_rot_3,end_effector_lin_vel_0,end_effector_lin_vel_1,end_effector_lin_vel_2,obs_task_0,obs_task_1,obs_task_2,obs_task_3,obs_task_4,obs_task_5,obs_task_6,to_final_target_0,to_final_target_1,to_final_target_2,joint_acc_0,joint_acc_1,joint_acc_2,joint_acc_3,joint_acc_4,joint_acc_5,joint_acc_6
0.0,0.0,0.0,0.0,0.0,0.0,0.0,0.0,0.0,0.0,0.0,0.0,0.0,0.0,1.7802359,-1.0646509,-1.8151424,-1.1170107,1.9373155,1.1170107,-0.91629785,1.7802359,-1.0646509,-1.8151424,-1.1170107,1.9373155,1.1170107,-0.91629785,0.0,0.0,0.0,0.0,0.0,0.0,0.0,3.0468159,-0.51784134,0.08770028,-3.6104643,-0.0983798,5.323596,0.5304146,-0.45449448,0.693097,0.5745483,0.17512383,0.15255436,0.7848268,0.0,0.0,0.0,1.0,0.0,0.0,0.0,0.0,0.0,0.0,-3.696816,0.11784133,0.46229973,0.0,0.0,0.0,0.0,0.0,0.0,0.0
0.0,0.0,0.0,0.0,0.0,0.0,0.0,0.0,0.0,0.0,0.0,0.0,0.0,0.0,1.7802359,-1.0646509,-1.8151424,-1.1170107,1.9373155,1.1170107,-0.91629785,1.7802359,-1.0646509,-1.8151424,-1.1170107,1.9373155,1.1170107,-0.91629785,0.0,0.0,0.0,0.0,0.0,0.0,0.0,3.0468159,-0.51784134,0.08770028,-3.6104643,-0.0983798,5.323596,0.5304146,-0.45449448,0.693097,0.5745483,0.17512383,0.15255436,0.7848268,0.0,0.0,0.0,1.0,0.0,0.0,0.0,0.0,0.0,0.0,-3.696816,0.11784133,0.46229973,0.0,0.0,0.0,0.0,0.0,0.0,0.0
0.0,0.0,0.0,0.0,0.0,0.0,0.0,0.0,0.0,0.0,0.0,0.0,0.0,0.0,1.7802359,-1.0646509,-1.8151424,-1.1170107,1.9373155,1.1170107,-0.91629785,1.7802359,-1.0646509,-1.8151424,-1.1170107,1.9373155,1.1170107,-0.91629785,0.0,0.0,0.0,0.0,0.0,0.0,0.0,3.0468159,-0.51784134,0.08770028,-3.6104643,-0.0983798,5.323596,0.5304146,-0.45449448,0.693097,0.5745483,0.17512383,0.15255436,0.7848268,0.0,0.0,0.0,1.0,0.0,0.0,0.0,0.0,0.0,0.0,-3.696816,0.11784133,0.46229973,0.0,0.0,0.0,0.0,0.0,0.0,0.0
-176.0,51.10312,-13.44618,110.0,10.695681,4.127629,-3.8797107,-0.8045012,0.2628331,-0.56417733,0.7500773,0.07008078,0.6712822,-0.58017784,1.6997857,-1.0383676,-1.8715601,-1.042003,1.9443235,1.1841389,-0.97431564,1.7791048,-1.0629,-1.8210914,-1.1114355,1.9408879,1.1222235,-0.91638273,-0.15042631,0.23285024,-0.7928932,0.74397874,0.47564825,0.69363815,-0.010852824,3.0107384,-0.51882553,0.14015985,-3.6068547,-0.09828144,5.220087,0.52835655,-0.45786285,0.6937229,0.5780521,0.17360274,0.15139899,0.782813,-0.27414998,-0.4496936,0.083265424,1.0,0.0,0.0,0.0,0.0,0.0,0.0,-3.6607385,0.118825525,0.40984017,-14.935244,23.10587,-79.21879,74.538055,47.403984,68.92641,-0.9412666
-176.0,-55.528763,-54.87733,108.5429,12.006337,0.49918622,-3.4577432,-0.8014589,-0.29449135,-0.55943257,0.71534985,0.22374709,0.64413345,-0.5665417,1.698959,-1.092349,-1.8770347,-1.0399005,1.9632627,1.1866368,-0.9730369,1.7780482,-1.0615286,-1.8361022,-1.095595,1.9475751,1.1353213,-0.9145908,-0.093235694,0.09438721,-1.7104225,1.8655148,0.71937174,1.4836304,0.23618868,2.974697,-0.5198097,0.19158512,-3.6032486,-0.09818318,5.116682,0.5238533,-0.466671,0.694054,0.58591694,0.17008562,0.1483741,0.77830404,-0.5100809,-1.0214622,0.019824028,1.0,0.0,0.0,0.0,0.0,0.0,0.0,-3.6246972,0.11980972,0.3584149,5.0200715,-17.13939,-83.7449,112.5489,20.31126,69.55836,22.77786
-154.82326,97.439316,24.99617,87.554054,8.063123,7.161847,-1.9413323,-0.75203025,0.18030494,0.08391625,0.6603545,0.3031702,0.6891752,-0.45313036,1.7028451,-1.043498,-1.8277106,-1.0295596,1.9778922,1.2042388,-0.95990384,1.773892,-1.060243,-1.8511646,-1.0752836,1.9548497,1.1500441,-0.9125623,-0.52267706,0.13700472,-1.4324592,2.0881596,0.7248784,1.4627956,0.19113487,2.938692,-0.5207939,0.24197713,-3.599646,-0.098085016,5.01338,0.5165405,-0.4784546,0.6956786,0.5965379,0.1651067,0.14406393,0.7720931,-0.81283754,-1.2230936,0.21366635,1.0,0.0,0.0,0.0,0.0,0.0,0.0,-3.5886922,0.12079391,0.3080229,-42.841427,3.3867524,29.509903,22.7777,-1.0154247,-3.7328243,-4.6880665
-105.63223,74.48015,28.044971,51.169968,5.6306887,6.5697327,-0.10130077,-0.7672694,-0.14168067,0.21579948,0.6748684,0.34618825,0.6627912,-0.5441228,1.6971651,-1.074411,-1.8295846,-1.0077968,1.9894686,1.2163233,-0.9669746,1.7653395,-1.0599226,-1.8604381,-1.0553805,1.9616418,1.1637503,-0.9112424,-0.96660393,-0.004661871,-0.7523989,1.9588567,0.6579214,1.3370321,0.11197547,2.9027214,-0.5217705,0.29133686,-3.5960472,-0.09798695,4.910181,0.5066643,-0.49126053,0.69870496,0.60797703,0.15915443,0.13815574,0.7654715,-1.0570246,-1.2885561,0.3359854,1.0,0.0,0.0,0.0,0.0,0.0,0.0,-3.5527215,0.12177047,0.25866315,-44.526005,-14.6753235,69.971954,-12.589049,-8.506203,-13.413334,-7.998331
-47.76083,109.6795,45.441814,28.01814,2.8232725,6.6669855,0.678348,-0.78024006,0.011709482,0.2863623,0.68172485,0.44947496,0.6880804,-0.53516597,1.6873155,-1.0587516,-1.8318019,-0.987208,2.0065892,1.2325584,-0.964759,1.7530943,-1.0602735,-1.8625782,-1.0379301,1.9679666,1.1760699,-0.9107446,-1.3113779,-0.046669662,-0.028476857,1.6733887,0.6191001,1.1956376,0.027878165,2.8667889,-0.52274704,0.33966538,-3.5924518,-0.097888984,4.807086,0.49489594,-0.5036926,0.70310616,0.6190489,0.15228939,0.13071233,0.7592764,-1.2290758,-1.2153753,0.47568268,1.0,0.0,0.0,0.0,0.0,0.0,0.0,-3.516789,0.122747034,0.21033463,-34.733868,-4.633124,74.160324,-28.60353,-5.359876,-14.5178795,-8.751625
-12.687119,104.48532,40.22714,12.825577,0.8078228,4.586973,0.62277305,-0.79651684,0.05774337,0.18986328,0.6760817,0.48944724,0.6634006,-0.57104206,1.6734426,-1.0544991,-1.8435918,-0.97032195,2.0169113,1.24241,-0.96784884,1.7384821,-1.0605692,-1.8594882,-1.0232588,1.9741597,1.1870829,-0.91104025,-1.5117941,-0.024696479,0.42483902,1.39795,0.61692345,1.0699935,-0.049793024,2.8308907,-0.5237236,0.38696373,-3.58886,-0.09779111,4.704094,0.48202896,-0.51514053,0.7084832,0.6294341,0.14487255,0.12242216,0.7535499,-1.3183988,-1.1085908,0.55657387,1.0,0.0,0.0,0.0,0.0,0.0,0.0,-3.4808908,0.1237236,0.16303629,-20.233679,1.9059416,46.337807,-27.675034,-0.97613335,-12.544346,-8.096501
11.621183,143.81636,48.0887,10.9993,-1.1698599,4.065018,-0.064817674,-0.80912703,0.35720116,0.047121927,0.66346943,0.46891522,0.66864777,-0.558694,1.6575694,-1.024849,-1.854776,-0.95691186,2.0210512,1.2539476,-0.96690965,1.7227732,-1.0590643,-1.8544261,-1.0107542,1.9803929,1.1969992,-0.9120254,-1.5913018,0.20773387,0.535665,1.2008798,0.6242962,0.96616346,-0.11629705,2.7950287,-0.52470016,0.43323293,-3.5852718,-0.09769334,4.601205,0.46867943,-0.5251503,0.71489227,0.6394311,0.13701302,0.1146371,0.74780583,-1.352033,-0.9541796,0.66596174,1.0,0.0,0.0,0.0,0.0,0.0,0.0,-3.4450288,0.12470016,0.11676708,-8.18882,22.93028,11.732602,-19.799305,0.44910908,-10.176098,-7.1325765
18.171415,140.32603,41.29463,9.830954,-2.0043879,2.658792,-0.58409715,-0.817474,0.46112007,-0.10687734,0.6464318,0.47580057,0.654632,-0.56006104,1.6410258,-1.0129522,-1.8651139,-0.946111,2.027973,1.2624624,-0.9680315,1.7068506,-1.0547594,-1.8503635,-0.99957144,1.9867578,1.2060038,-0.9135894,-1.5932565,0.50386894,0.3644003,1.0906355,0.640626,0.8792954,-0.17115471,2.759203,-0.5256767,0.47847402,-3.5816875,-0.09759567,4.4984183,0.4552803,-0.53372574,0.72216564,0.6494459,0.1289836,0.10840218,0.7415067,-1.344996,-0.813031,0.74503225,1.0,0.0,0.0,0.0,0.0,0.0,0.0,-3.409203,0.12567672,0.07152599,-0.44124126,29.370134,-16.755611,-11.095977,1.5930295,-8.472574,-5.8995633
22.039839,136.671,38.51615,9.6748905,-2.1204143,2.079253,-0.71467525,-0.81785536,0.5697398,-0.14677231,0.6180928,0.5179485,0.6454301,-0.55814266,1.6250651,-0.9977854,-1.8650408,-0.93776214,2.0385525,1.2705468,-0.9694037,1.6911951,-1.0474542,-1.8487194,-0.98905814,1.9934087,1.2142397,-0.91562647,-1.557071,0.8051644,0.098831445,1.0378578,0.6731245,0.80547255,-0.2158325,2.7234135,-0.5266533,0.52268803,-3.5781064,-0.09749809,4.3957343,0.4420681,-0.5409813,0.7301652,0.6596732,0.120960124,0.10403791,0.73442215,-1.3210642,-0.68328524,0.81609017,1.0,0.0,0.0,0.0,0.0,0.0,0.0,-3.3734136,0.12665328,0.02731198,3.3723116,29.916573,-26.22307,-5.4145813,3.2462358,-7.307291,-4.851088
21.672043,123.06928,34.80706,9.515202,-1.6950055,1.7797611,-0.5932023,-0.8154437,0.6279391,-0.14760718,0.60064393,0.5295568,0.64321107,-0.5641726,1.6096507,-0.9846603,-1.8634801,-0.92899376,2.0463643,1.2785609,-0.97204375,1.6759707,-1.0375971,-1.8494709,-0.9788109,2.0003915,1.2218252,-0.9180526,-1.5117012,1.0451094,-0.13191633,1.0196627,0.7063411,0.7427563,-0.25271824,2.6876602,-0.52762985,0.56587595,-3.5745292,-0.09740061,4.2931533,0.4290886,-0.5470886,0.7387805,0.6701026,0.112972,0.101299845,0.72659355,-1.2964629,-0.57251614,0.87537175,1.0,0.0,0.0,0.0,0.0,0.0,0.0,-3.3376603,0.12762985,-0.015875936,4.3111324,23.810446,-22.708624,-2.0329475,3.2869458,-6.3403845,-4.0469704
21.366724,109.342026,32.402893,8.996779,-1.1251101,1.7399399,-0.33053207,-0.8045451,0.66937584,-0.12325017,0.58852404,0.53867006,0.6469155,-0.55560666,1.5955162,-0.9706595,-1.8617959,-0.9199585,2.0542586,1.2865168,-0.97361326,1.6611811,-1.0259336,-1.8517768,-0.9686295,2.00767,1.2288634,-0.92079157,-1.4687359,1.2061844,-0.26201227,1.0168879,0.73487157,0.6903708,-0.2821025,2.6519413,-0.5286064,0.6080388,-3.5709553,-0.097303234,4.190675,0.4162979,-0.5521965,0.7479247,0.6805872,0.10494694,0.099663325,0.71823007,-1.2777834,-0.47606438,0.92687917,1.0,0.0,0.0,0.0,0.0,0.0,0.0,-3.3019414,0.12860641,-0.05803877,4.083991,15.948725,-12.568638,-0.5338907,2.7806044,-5.387497,-3.298211
17.450117,93.07841,28.056305,9.022799,-0.5935509,1.5635121,-0.17370395,-0.796852,0.69791704,-0.14844333,0.58940524,0.5333565,0.65876335,-0.5584757,1.5814959,-0.95614195,-1.8666211,-0.90968895,2.0610056,1.2947397,-0.97663915,1.6467444,-1.0131944,-1.8548725,-0.9584013,2.0151505,1.2354552,-0.9237842,-1.4358354,1.2960788,-0.32387695,1.0238922,0.7519968,0.6481973,-0.30617124,2.6162586,-0.52957535,0.6491776,-3.5673852,-0.09720595,4.088299,0.4036274,-0.55649567,0.75745285,0.6910098,0.096845604,0.0986676,0.70950055,-1.2667339,-0.39876148,0.96132284,1.0,0.0,0.0,0.0,0.0,0.0,0.0,-3.2662587,0.12957534,-0.0991776,3.0992746,8.861613,-5.734563,0.43609142,1.6379714,-4.3739915,-2.7529955
14.176925,80.33683,24.671907,8.449455,-0.18756187,1.4435183,0.0034778155,-0.7991542,0.71286243,-0.13754193,0.5652593,0.55392456,0.66293824,-0.56139815,1.566829,-0.9419082,-1.8686267,-0.9018754,2.070543,1.301749,-0.979924,1.6325136,-0.9999594,-1.8581264,-0.9481989,2.022799,1.2416884,-0.92698663,-1.4195346,1.3323609,-0.32424107,1.018088,0.7689679,0.6144174,-0.3260418,2.5806122,-0.5305443,0.6892935,-3.5638185,-0.09710877,3.986025,0.39101982,-0.560112,0.76720715,0.7012513,0.088670306,0.09793909,0.70056546,-1.2622116,-0.33406612,0.98018646,1.0,0.0,0.0,0.0,0.0,0.0,0.0,-3.2306123,0.13054428,-0.13929349,1.4454365,3.5272598,0.44244528,-0.8464813,1.6103268,-3.503251,-2.3229837
12.975033,71.604515,22.20632,7.6194577,0.0016524196,1.3007659,0.120681606,-0.7922061,0.7193953,-0.1268454,0.5523834,0.5606717,0.6700988,-0.5588929,1.553293,-0.9280199,-1.870811,-0.89296055,2.0788662,1.3086983,-0.98287594,1.6183859,-0.9866118,-1.8611267,-0.93812716,2.0305963,1.2476374,-0.9303588,-1.4111549,1.3353028,-0.2902712,1.002612,0.7830525,0.5880955,-0.34204504,2.545,-0.5315132,0.7283874,-3.5602555,-0.09701168,3.8838542,0.37843895,-0.5631485,0.7770591,0.7112168,0.08043458,0.09723732,0.69155324,-1.2590926,-0.27682054,0.98669726,1.0,0.0,0.0,0.0,0.0,0.0,0.0,-3.1950002,0.13151321,-0.1783874,0.6620884,0.2161026,3.8766801,-1.8124819,1.3287783,-2.7080417,-1.9293547
11.356663,68.83446,21.180302,8.027325,0.118509054,1.2697271,0.15240255,-0.79252434,0.73145866,-0.113575794,0.545655,0.56549346,0.67255867,-0.55849785,1.5391334,-0.9134659,-1.8724842,-0.8835617,2.0871456,1.3148932,-0.9862086,1.6042849,-0.973308,-1.8636844,-0.9282347,2.0385118,1.2533633,-0.93386835,-1.4101508,1.3285027,-0.24245033,0.983943,0.7943659,0.56717986,-0.3549882,2.5094242,-0.53248215,0.76646036,-3.556696,-0.096914686,3.7817855,0.3658676,-0.56562424,0.7869509,0.7208707,0.072129816,0.09646461,0.6825228,-1.2582251,-0.2229722,0.98963386,1.0,0.0,0.0,0.0,0.0,0.0,0.0,-3.1594243,0.13248214,-0.21646035,-0.07212162,-0.7508993,5.263585,-2.1207213,1.05201,-2.1534204,-1.6136825
12.299467,69.623,21.41185,7.7017655,0.08976275,1.2791544,0.2094484,-0.79253876,0.7404476,-0.082255624,0.5208407,0.58277184,0.6710237,-0.5566964,1.525031,-0.89926326,-1.87191,-0.8761506,2.096789,1.3204656,-0.989538,1.5901667,-0.9600596,-1.8656814,-0.9186102,2.0465646,1.2589079,-0.9374885,-1.4128135,1.3234106,-0.18376148,0.9543939,0.80838346,0.5502657,-0.36538368,2.4738846,-0.5334511,0.8035134,-3.55314,-0.09681779,3.6798189,0.35331154,-0.56755066,0.79687536,0.73017204,0.063738115,0.09557826,0.6735362,-1.2554518,-0.16577694,0.99262035,1.0,0.0,0.0,0.0,0.0,0.0,0.0,-3.1238847,0.13345107,-0.2535134,-0.44412613,-0.57713985,6.3679338,-3.2032847,1.3188362,-1.7356396,-1.3582408
14.066347,73.52761,22.633644,7.9035025,0.014510512,1.3591497,0.23372218,-0.7887168,0.7532994,-0.04549873,0.5098065,0.58494514,0.6751599,-0.5507489,1.511295,-0.8847296,-1.8702313,-0.8676296,2.1050591,1.3264239,-0.99256337,1.5760332,-0.94679016,-1.8670356,-0.90928614,2.0547395,1.2643114,-0.9411935,-1.4140532,1.3278545,-0.11742497,0.9243716,0.81991935,0.53688407,-0.3733013,2.4383793,-0.53442,0.8395476,-3.5495875,-0.09672099,3.577954,0.34080505,-0.56884384,0.8068758,0.73909295,0.05520344,0.09458767,0.6646407,-1.2501377,-0.102193005,1.0014528,1.0,0.0,0.0,0.0,0.0,0.0,0.0,-3.0883794,0.13442001,-0.28954756,-0.30493736,0.37305355,7.149409,-3.235972,1.0673165,-1.3828516,-1.112175
17.259628,75.9464,23.646156,6.940883,-0.09069961,1.3746418,0.32312375,-0.7866014,0.7568442,0.010663761,0.4770125,0.60776174,0.6694074,-0.5407941,1.4973731,-0.87110573,-1.8659693,-0.8615849,2.1155157,1.3312522,-0.99527293,1.5619017,-0.9334454,-1.8676078,-0.9003445,2.063067,1.2695967,-0.9449596,-1.4133906,1.3364812,-0.03543186,0.88333863,0.83668005,0.5257156,-0.37872922,2.4029102,-0.53538895,0.8745638,-3.5460386,-0.09662429,3.476191,0.32837868,-0.569458,0.81698376,0.74757457,0.046485554,0.09346657,0.65592325,-1.2392645,-0.0318643,1.0123339,1.0,0.0,0.0,0.0,0.0,0.0,0.0,-3.0529103,0.13538894,-0.3245638,-0.116848946,0.7943392,8.733775,-4.326606,1.5847445,-1.1360168,-0.86607337
18.03422,74.38613,22.685837,6.223319,-0.20087934,1.2127066,0.33116418,-0.78607553,0.76166815,0.025317656,0.45048183,0.6161815,0.6699127,-0.5299614,1.4832941,-0.8572786,-1.8650761,-0.8552963,2.124685,1.3365879,-0.99795574,1.5477835,-0.9199967,-1.8674629,-0.89185774,2.0715623,1.2747866,-0.9487619,-1.4117652,1.3475145,0.0327989,0.836305,0.8536399,0.517001,-0.38175145,2.3674774,-0.5363579,0.9085632,-3.5424933,-0.09652769,3.3745298,0.3161049,-0.56937027,0.8271606,0.75559527,0.037612494,0.09224406,0.64741945,-1.2229478,0.037422482,1.0173072,1.0,0.0,0.0,0.0,0.0,0.0,0.0,-3.0174775,0.13635787,-0.35856318,-0.010585785,1.0473967,7.3158393,-4.920268,1.6304374,-0.8474231,-0.6085217
16.9716,70.91852,20.7521,6.126361,-0.26265007,0.9791305,0.27763426,-0.7839245,0.7681602,0.020193305,0.43362546,0.62196004,0.6799453,-0.51247036,1.469391,-0.84318066,-1.8654436,-0.8484952,2.1337583,1.3427811,-1.000009,1.533692,-0.9064259,-1.8668678,-0.8838202,2.080214,1.2799116,-0.9525737,-1.4087076,1.3601242,0.06972547,0.7921535,0.86904484,0.51131296,-0.38194194,2.332079,-0.5373192,0.94154674,-3.5389516,-0.09643118,3.2729702,0.30400848,-0.56863403,0.8373289,0.7631907,0.02865039,0.0910068,0.6390907,-1.2031322,0.10031257,1.0141276,1.0,0.0,0.0,0.0,0.0,0.0,0.0,-2.982079,0.13731918,-0.39154673,0.14805794,1.2204647,4.1129208,-4.6290994,1.5161753,-0.5076289,-0.2987206
15.923159,67.352684,18.982952,5.831575,-0.32375666,0.76897943,0.24400763,-0.7867348,0.7725313,0.027702538,0.40225074,0.6251373,0.6799671,-0.50901276,1.4550185,-0.8291728,-1.8640975,-0.8435951,2.1427279,1.3479084,-1.003475,1.5196158,-0.89273494,-1.8660591,-0.8762528,2.0889955,1.2849928,-0.95637983,-1.4077986,1.3719685,0.08573846,0.7442888,0.88129467,0.5073213,-0.38108972,2.2967148,-0.5382805,0.97351545,-3.5354135,-0.09633477,3.1715121,0.29213715,-0.56731415,0.8474096,0.77039725,0.019672452,0.08983642,0.63089657,-1.1800708,0.15756942,1.0031067,1.0,0.0,0.0,0.0,0.0,0.0,0.0,-2.9467149,0.13828048,-0.42351544,-0.059342384,1.1579752,1.9710615,-5.003166,1.2283087,-0.30184984,-0.17205477
17.67723,63.51524,17.523533,3.8707485,-0.52637875,0.50807923,0.2769351,-0.7833334,0.7743161,0.03277013,0.34872785,0.631024,0.6784094,-0.51813287,1.4412824,-0.8153033,-1.862782,-0.84138,2.152098,1.3528337,-1.0081931,1.5055567,-0.8789477,-1.8651874,-0.86929667,2.0978875,1.2900416,-0.9601831,-1.4056413,1.3808349,0.088804536,0.6785728,0.8917259,0.50474,-0.38090655,2.2613869,-0.5392418,1.0044703,-3.5318787,-0.09623846,3.0701556,0.28055573,-0.5654335,0.8573049,0.77721,0.010772636,0.08879616,0.6228512,-1.1475646,0.21198907,0.9817735,1.0,0.0,0.0,0.0,0.0,0.0,0.0,-2.911387,0.13924178,-0.45447034,0.07119179,0.8781433,0.64035654,-6.800592,1.06709,-0.09492636,-0.2248168
20.343761,63.046867,17.866634,2.5012255,-0.6090352,0.44349217,0.3839236,-0.7832306,0.77152795,0.0888499,0.29833314,0.63437736,0.6684526,-0.50311184,1.4272337,-0.8017949,-1.8563024,-0.83946335,2.1613252,1.3568869,-1.0104942,1.4915167,-0.8651175,-1.8640773,-0.8631102,2.1068673,1.2950636,-0.9639749,-1.4039067,1.3838578,0.11946919,0.5978948,0.8998998,0.50216234,-0.3793234,2.2260952,-0.5402031,1.0344125,-3.5283475,-0.09614223,2.9689002,0.26934814,-0.5629959,0.8669793,0.7835682,0.0019717987,0.08784979,0.6150604,-1.1088756,0.2682629,0.9593153,1.0,0.0,0.0,0.0,0.0,0.0,0.0,-2.8760953,0.14020309,-0.4844125,0.033569336,0.30436516,3.4025311,-8.28917,0.8446574,-0.056278706,-0.08331537
24.546482,62.275505,17.944685,-0.4165697,-0.87725824,0.27882206,0.52168626,-0.7852198,0.77681667,0.11673936,0.20673557,0.65079683,0.66787636,-0.5032598,1.4129947,-0.7874358,-1.8524034,-0.8424366,2.171947,1.3618512,-1.0143008,1.4774805,-0.85125583,-1.8625476,-0.85799944,2.115954,1.3000685,-0.9677505,-1.4039869,1.3869642,0.16527793,0.48140928,0.91161805,0.5007367,-0.37772027,2.1908379,-0.5411644,1.0633428,-3.5248199,-0.09604611,2.8677464,0.2586155,-0.5599556,0.87638056,0.78938246,-0.006678745,0.08697562,0.60767263,-1.0574574,0.32775941,0.93017215,1.0,0.0,0.0,0.0,0.0,0.0,0.0,-2.840838,0.14116439,-0.5133428,-0.1450777,0.32765865,4.9087377,-11.865812,1.2067199,0.13424158,-0.06902218
29.343754,62.332253,18.286625,-3.2564707,-1.1785693,0.10620418,0.645722,-0.77899283,0.7825783,0.14851244,0.11751165,0.6568567,0.670598,-0.49472085,1.3995812,-0.772998,-1.8476964,-0.84624827,2.1816397,1.3671283,-1.0172225,1.4634672,-0.8373465,-1.8604763,-0.85426867,2.1251588,1.3050677,-0.97150415,-1.4006692,1.3923428,0.22219759,0.33627653,0.92355394,0.50068635,-0.37528872,2.1556168,-0.5421257,1.0912623,-3.5212958,-0.09595008,2.7666936,0.2484932,-0.55630493,0.8854557,0.7945702,-0.015119351,0.086180605,0.60083485,-0.99193215,0.39036676,0.8961531,1.0,0.0,0.0,0.0,0.0,0.0,0.0,-2.8056169,0.1421257,-0.5412623,0.21195412,0.5722046,5.9798536,-14.713049,1.2540579,0.34422874,0.033694506
36.249958,59.87722,17.945786,-8.59099,-1.6893001,-0.23642251,0.84779596,-0.7777194,0.78435296,0.18758859,-0.036380637,0.6719887,0.66259134,-0.49069244,1.3856953,-0.7589112,-1.8417174,-0.85790676,2.1923575,1.3713268,-1.0205734,1.449494,-0.8233828,-1.857764,-0.8524281,2.1345086,1.3100668,-0.97523016,-1.3964309,1.3979747,0.28828332,0.13281024,0.9388196,0.50130534,-0.372404,2.12043,-0.543087,1.118172,-3.5177753,-0.095854156,2.6657417,0.23919296,-0.5519867,0.8940868,0.7990108,-0.023210602,0.08549599,0.5947548,-0.903409,0.4552538,0.84793687,1.0,0.0,0.0,0.0,0.0,0.0,0.0,-2.77043,0.143087,-0.56817204,0.32954216,0.62212944,6.8398657,-20.527369,1.6145706,0.53350925,0.11461973
41.302254,59.54371,18.206676,-12.160143,-2.0504882,-0.46866715,1.0069644,-0.7776191,0.79212147,0.24204876,-0.18113549,0.6827955,0.6565105,-0.46630156,1.3717321,-0.74417067,-1.8335592,-0.87054163,2.202788,1.3757179,-1.0218604,1.4355608,-0.8093371,-1.8542831,-0.85293543,2.1440187,1.3150717,-0.9789104,-1.3925278,1.4070137,0.3685106,-0.112335384,0.955577,0.50217944,-0.36697957,2.0852795,-0.5440483,1.144073,-3.5142581,-0.09575832,2.5648906,0.23090744,-0.5470123,0.90218276,0.80260307,-0.030834345,0.0849519,0.58962756,-0.798021,0.52187026,0.792419,1.0,0.0,0.0,0.0,0.0,0.0,0.0,-2.7352796,0.1440483,-0.594073,0.33597946,0.984931,8.160943,-24.647081,1.8126249,0.63617826,0.41970015
40.273907,58.89514,17.893227,-11.054705,-1.9509473,-0.5772003,0.9680277,-0.76661915,0.7958276,0.27346197,-0.25511172,0.6848477,0.6573589,-0.4191523,1.3588989,-0.7297543,-1.8269368,-0.8784466,2.2125034,1.3808076,-1.0208256,1.4217116,-0.7951979,-1.8500278,-0.8557421,2.1536736,1.320088,-0.9825029,-1.3826234,1.4166778,0.44446284,-0.3370467,0.96986526,0.50304526,-0.356845,2.0501633,-0.545002,1.1689663,-3.5107446,-0.09566258,2.4641404,0.22365952,-0.5413933,0.9097498,0.80536693,-0.03798219,0.084557146,0.5854839,-0.69402945,0.581544,0.7401083,1.0,0.0,0.0,0.0,0.0,0.0,0.0,-2.7001634,0.14500198,-0.6189663,0.98855495,1.0686636,7.586318,-22.553707,1.6436577,0.6245971,0.94121695
32.76631,61.080498,18.420507,-4.3295393,-1.2702944,-0.33152363,0.7858408,-0.76269084,0.7962353,0.3413093,-0.26324606,0.6782653,0.6525836,-0.34854802,1.3454425,-0.7155744,-1.8158969,-0.8820667,2.2215002,1.3853464,-1.0173577,1.4079691,-0.7809805,-1.8449047,-0.8602158,2.1634278,1.3251024,-0.98594564,-1.3714315,1.4238954,0.5345226,-0.4843652,0.97806513,0.502434,-0.34018195,2.0150814,-0.54595566,1.1928527,-3.5072346,-0.095566936,2.363491,0.21725273,-0.535244,0.9169514,0.80743116,-0.044829946,0.08422958,0.58219445,-0.6152263,0.63339007,0.70836824,1.0,0.0,0.0,0.0,0.0,0.0,0.0,-2.6650815,0.14595565,-0.6428527,1.1402369,0.84095,8.858448,-14.785767,1.1388421,0.3835559,1.6167998
24.233093,59.935272,17.594765,1.7042637,-0.653924,-0.18335876,0.5756795,-0.7658593,0.7946692,0.38011548,-0.28884378,0.6735856,0.6526526,-0.3069969,1.3313832,-0.7015136,-1.8068931,-0.88910013,2.2307863,1.3903677,-1.0166453,1.394301,-0.76672214,-1.838906,-0.8656794,2.1732202,1.3301054,-0.9891996,-1.3652214,1.4269621,0.6210384,-0.56727934,0.98086,0.50087416,-0.32060766,1.9800358,-0.54690933,1.2157335,-3.503728,-0.09547139,2.2629423,0.21145248,-0.5286293,0.92393345,0.80895877,-0.05154708,0.08390656,0.5795586,-0.5605799,0.67486125,0.6893549,1.0,0.0,0.0,0.0,0.0,0.0,0.0,-2.6300359,0.14690933,-0.6657335,0.6353378,0.43570995,8.435547,-8.353508,0.65180063,0.2084136,1.9158661
14.555223,59.34078,16.746614,8.912151,0.036448896,0.023116447,0.31269836,-0.76509196,0.7968013,0.40502834,-0.2555129,0.6649468,0.6519728,-0.23841272,1.3177918,-0.687042,-1.7984033,-0.8912307,2.2397149,1.3953027,-1.0130409,1.3806692,-0.7524428,-1.832154,-0.8713795,2.1829972,1.3350874,-0.9922227,-1.3625424,1.4287076,0.69241405,-0.57131577,0.9777858,0.49833804,-0.2964232,1.9450245,-0.547863,1.2376096,-3.5002248,-0.09537594,2.162494,0.20598984,-0.52168274,0.93084687,0.8101387,-0.058307637,0.083552055,0.5773167,-0.53418213,0.70628136,0.6862382,1.0,0.0,0.0,0.0,0.0,0.0,0.0,-2.5950246,0.147863,-0.6876096,0.25484562,0.31177998,6.888795,-0.4962325,0.10187626,0.016999245,2.368623
3.1121306,58.249416,15.573048,17.58828,0.8625129,0.29130995,-0.017615542,-0.7647373,0.795865,0.41506532,-0.15504439,0.6489915,0.66020066,-0.16417599,1.3041955,-0.6728563,-1.7906475,-0.8868839,2.2478964,1.4011074,-1.0086403,1.367045,-0.7381615,-1.8248718,-0.876392,2.1926866,1.3400465,-0.99497026,-1.3626921,1.4284911,0.7393831,-0.4784223,0.96747965,0.49562517,-0.26773027,1.9100494,-0.5488167,1.258482,-3.4967253,-0.09528058,2.0621462,0.2005291,-0.5145035,0.93787146,0.81119806,-0.06532857,0.08314181,0.5751323,-0.5422187,0.72651803,0.70190006,1.0,0.0,0.0,0.0,0.0,0.0,0.0,-2.5600495,0.14881667,-0.70848197,-0.07278919,0.121331215,4.4448853,9.145623,-0.5992532,-0.11637211,2.7961254
-10.168788,53.95745,13.106834,26.260387,1.7607965,0.51024795,-0.38363254,-0.78372794,0.7897604,0.40358657,-0.030343946,0.64977604,0.6640731,-0.1440802,1.2886722,-0.65918547,-1.7845131,-0.8794264,2.2576642,1.4064538,-1.0093783,1.353316,-0.7239165,-1.8173683,-0.8798319,2.2022767,1.344977,-0.99744123,-1.3766285,1.4236733,0.7532548,-0.29992554,0.9577927,0.4922225,-0.24048236,1.8751087,-0.54977036,1.2783515,-3.4932292,-0.095185325,1.9618986,0.19470406,-0.5072365,0.9451549,0.8123938,-0.072792135,0.082638696,0.5726154,-0.5877109,0.73170954,0.73103684,1.0,0.0,0.0,0.0,0.0,0.0,0.0,-2.5251088,0.14977035,-0.72835153,-1.5161991,-0.34410954,1.180017,17.645163,-0.5497694,-0.32145977,2.6291847
-23.200024,52.540092,11.769086,36.44359,2.7665021,0.89265877,-0.786257,-0.7948103,0.78586423,0.3911311,0.18150379,0.6448306,0.66302323,-0.15142196,1.273835,-0.6453301,-1.7782551,-0.8616815,2.2667599,1.4112793,-1.0125834,1.3393923,-0.70973915,-1.8099239,-0.8806759,2.211779,1.3498656,-0.99967474,-1.3981786,1.4162947,0.74076986,-0.013396494,0.94880825,0.48729888,-0.21795651,1.8402023,-0.550724,1.2972193,-3.4897366,-0.09509016,1.8617511,0.18810463,-0.49998856,0.952895,0.8139935,-0.08094811,0.081967026,0.5693358,-0.675666,0.7274769,0.7821253,1.0,0.0,0.0,0.0,0.0,0.0,0.0,-2.4902024,0.15072402,-0.74721926,-2.319312,-0.6061554,-1.4572144,28.418577,-0.45784712,-0.64566135,2.139583
-29.029823,52.825394,11.67014,42.032524,3.2512078,1.1825211,-0.9781116,-0.79939795,0.7813326,0.38532495,0.3744766,0.61989284,0.66838884,-0.09049272,1.2594525,-0.63160586,-1.7713914,-0.8432282,2.2737684,1.4167044,-1.008724,1.3252608,-0.6956467,-1.8026912,-0.8781611,2.2211366,1.3547045,-1.0016644,-1.4187448,1.4071529,0.71673614,0.33908245,0.9327214,0.48183563,-0.193126,1.8053303,-0.5516777,1.3150864,-3.4862475,-0.09499509,1.7617037,0.18045235,-0.4927826,0.96124834,0.8161371,-0.09002186,0.08108743,0.5650142,-0.7863552,0.72541875,0.8467057,1.0,0.0,0.0,0.0,0.0,0.0,0.0,-2.4553304,0.1516777,-0.76508635,-2.2023916,-0.8025408,-2.6302934,35.053303,-1.1595368,-0.8448541,2.369061
-23.259398,50.44691,11.033102,36.640865,2.6022432,0.93490404,-0.87257814,-0.8066742,0.7814845,0.35022065,0.42954895,0.59998816,0.6700272,-0.16107747,1.2445934,-0.6174983,-1.7676692,-0.83520615,2.2811353,1.4217073,-1.0177722,1.3109423,-0.6816296,-1.7958457,-0.872542,2.2302842,1.3594958,-1.003484,-1.4366496,1.4001305,0.67339414,0.63570493,0.91035056,0.47725785,-0.17837577,1.7704945,-0.55262375,1.3319538,-3.4827619,-0.09490012,1.6617564,0.17186356,-0.48553467,0.970108,0.81877625,-0.099923655,0.08010699,0.55964583,-0.87495464,0.7313132,0.89252657,1.0,0.0,0.0,0.0,0.0,0.0,0.0,-2.4204946,0.15262374,-0.78195375,-1.8956184,-0.6252527,-4.5055985,29.527414,-1.8671393,-0.7398546,1.379627
-12.183071,46.68065,10.170438,25.98228,1.4932806,0.41218868,-0.5807681,-0.8138744,0.7800522,0.31204507,0.43282446,0.59524673,0.67056733,-0.21240051,1.2295549,-0.6036244,-1.7646413,-0.8292596,2.289809,1.4265525,-1.024724,1.2964655,-0.66766876,-1.7895496,-0.864823,2.239222,1.3642546,-1.0052178,-1.4516478,1.3948739,0.6147853,0.81696135,0.88908297,0.47486266,-0.17204104,1.735693,-0.5535698,1.3478224,-3.4792798,-0.09480523,1.561909,0.16270828,-0.47820663,0.97918046,0.82172865,-0.11032038,0.079198584,0.5534608,-0.92043865,0.74365914,0.9054519,1.0,0.0,0.0,0.0,0.0,0.0,0.0,-2.385693,0.15356979,-0.7978224,-1.591301,-0.47967434,-5.91501,18.006992,-1.8644214,-0.3756106,0.54093003
0.45424747,41.703613,8.8158045,13.235238,0.21647698,-0.2901614,-0.23015714,-0.8197152,0.7794618,0.2571941,0.38418496,0.59322184,0.6700452,-0.25260687,1.214494,-0.5897226,-1.7638302,-0.8264045,2.2985442,1.4312592,-1.0304785,1.281861,-0.65374416,-1.7839897,-0.8563353,2.2479806,1.3690039,-1.0069363,-1.4638734,1.3917466,0.53671986,0.85887134,0.87189794,0.47543612,-0.1720884,1.7009258,-0.55451584,1.3626933,-3.4758012,-0.09471045,1.4621614,0.15349197,-0.47075653,0.9880972,0.82478166,-0.12075392,0.078568354,0.54679114,-0.9135516,0.75635815,0.8803008,1.0,0.0,0.0,0.0,0.0,0.0,0.0,-2.350926,0.15451583,-0.8126933,-1.3254642,-0.28049946,-7.7345133,4.043448,-1.5559077,0.15799999,-0.10178983
11.766432,38.305557,8.102642,2.3708444,-0.8394585,-0.90904784,0.10617844,-0.82000905,0.77721876,0.21775876,0.31542745,0.58901125,0.6706937,-0.2513037,1.1998601,-0.57602227,-1.7622138,-0.82479256,2.3068817,1.4360733,-1.0320667,1.2671744,-0.6398472,-1.7792442,-0.84830344,2.2565942,1.3737742,-1.0086625,-1.4707369,1.3891814,0.45420244,0.784081,0.85809445,0.47864872,-0.17325336,1.6661949,-0.5554619,1.3765675,-3.472326,-0.09461576,1.3625135,0.14468575,-0.463192,0.9965472,0.8277371,-0.13081379,0.07837638,0.5399963,-0.86094517,0.7665626,0.82662934,1.0,0.0,0.0,0.0,0.0,0.0,0.0,-2.316195,0.15546188,-0.8265675,-0.788641,-0.22454262,-8.084154,-7.6489687,-1.3001442,0.63393116,-0.22011995
20.422749,38.89776,9.043734,-4.5493336,-1.4509068,-1.2465734,0.4075652,-0.82085294,0.7735559,0.22793818,0.235436,0.598366,0.66796654,-0.24449526,1.1850891,-0.56249166,-1.7564504,-0.82475984,2.3164308,1.4405708,-1.0331119,1.2524477,-0.6259827,-1.7750823,-0.84159434,2.2651315,1.3785826,-1.0103981,-1.4734336,1.3856317,0.40449196,0.63258636,0.8523658,0.4828789,-0.17403689,1.6314983,-0.5564079,1.389446,-3.4688544,-0.09452116,1.2629653,0.13661957,-0.45552063,1.0043687,0.83041614,-0.14026672,0.078639336,0.5334324,-0.77880967,0.7772653,0.761018,1.0,0.0,0.0,0.0,0.0,0.0,0.0,-2.2814984,0.15640792,-0.839446,-0.34992695,-0.31893253,-4.7371206,-15.300322,-0.56267977,0.8501828,-0.18830895
21.5266,37.91082,8.766885,-5.7745557,-1.5173182,-1.4190736,0.47912097,-0.8271513,0.77276695,0.19232397,0.18388525,0.599515,0.67063296,-0.18134485,1.1697326,-0.548706,-1.75585,-0.8232058,2.325083,1.4456459,-1.0285326,1.2376887,-0.61214966,-1.7713726,-0.83652174,2.2736459,1.383433,-1.0120919,-1.4769573,1.382683,0.3606789,0.46503475,0.8512059,0.48718548,-0.16826355,1.5968361,-0.557354,1.4013296,-3.4653864,-0.094426654,1.1635166,0.12941933,-0.44776917,1.0115235,0.8327593,-0.1490244,0.079338916,0.5272655,-0.6911719,0.7822781,0.6944618,1.0,0.0,0.0,0.0,0.0,0.0,0.0,-2.2468362,0.15735397,-0.8513296,-0.40898323,-0.24590492,-4.1831493,-16.886002,-0.10133982,0.86636543,0.48659146
25.061459,41.777744,10.74817,-6.7615914,-1.5717316,-1.4145399,0.6782826,-0.81799203,0.7703442,0.23287033,0.097618826,0.59665173,0.6743123,-0.0097204875,1.1558895,-0.53511524,-1.7480855,-0.8267599,2.333311,1.4508642,-1.0130639,1.2229506,-0.59834903,-1.7677581,-0.8331791,2.2821565,1.3883253,-1.0136006,-1.4728888,1.3794423,0.36231908,0.2904092,0.85106695,0.491258,-0.145184,1.5622082,-0.5583,1.4122195,-3.4619217,-0.09433225,1.0641674,0.12314224,-0.43992996,1.0180585,0.83466357,-0.15712412,0.08039456,0.5217139,-0.5975532,0.7919891,0.6343581,1.0,0.0,0.0,0.0,0.0,0.0,0.0,-2.2122083,0.15830001,-0.8622195,0.39639473,-0.2660036,0.32981038,-17.539585,0.0033974648,0.8342087,2.2248
19.198048,42.916656,11.352918,-0.13757038,-0.88677025,-1.1060095,0.5899893,-0.8177708,0.7583667,0.2521243,0.128929,0.5623146,0.67907035,0.21546373,1.1411735,-0.5225124,-1.7425457,-0.8202862,2.338388,1.4562323,-0.9920542,1.2082621,-0.5846285,-1.7639225,-0.83100665,2.2905717,1.3932501,-1.0147145,-1.4674841,1.369902,0.39093283,0.19273685,0.8386346,0.49406442,-0.10026452,1.5276146,-0.55924606,1.4221168,-3.4584603,-0.09423793,0.96491736,0.11758804,-0.4319687,1.0241461,0.83612055,-0.16479851,0.081696115,0.5167877,-0.5312494,0.80350995,0.59487396,1.0,0.0,0.0,0.0,0.0,0.0,0.0,-2.1776147,0.15924606,-0.87211674,0.5359411,-0.8872986,2.9389918,-9.834573,-1.1457086,0.5903125,4.40841
5.44201,36.95894,8.55739,11.064739,0.19855917,-0.8051774,0.13761955,-0.81610286,0.7442858,0.17084493,0.24494842,0.51011646,0.68265516,0.34843114,1.1266518,-0.51019996,-1.746838,-0.8065118,2.3415833,1.4615157,-0.9798714,1.1936289,-0.5710606,-1.7601612,-0.82881606,2.2987123,1.398194,-1.0152981,-1.4622196,1.3527681,0.37110865,0.22742331,0.8064608,0.49501696,-0.044816427,1.4930553,-0.5601845,1.4310223,-3.4550025,-0.09414372,0.8657666,0.11234093,-0.4239502,1.0300043,0.83734757,-0.17235066,0.08323058,0.51207125,-0.5129719,0.8060207,0.5774905,1.0,0.0,0.0,0.0,0.0,0.0,0.0,-2.1430554,0.16018447,-0.8810223,0.47683716,-1.6394138,-2.0021677,3.3305259,-3.0165553,0.24143457,5.451016
-4.3579073,27.873455,4.7570915,17.366604,0.781438,-0.7841358,-0.23119637,-0.8123934,0.7243705,0.08210168,0.30581114,0.4342593,0.67979556,0.42416155,1.1123896,-0.49862355,-1.751951,-0.79823494,2.3421383,1.4661735,-0.972882,1.179051,-0.55773586,-1.7570751,-0.82568896,2.3063264,1.4031378,-1.0153134,-1.4566327,1.3260025,0.28747407,0.3404718,0.7471292,0.49443692,0.012622163,1.4585304,-0.5611229,1.438937,-3.4515483,-0.094049595,0.766715,0.10706711,-0.41599274,1.0357386,0.83860224,-0.17992534,0.08511109,0.507079,-0.5228421,0.7959358,0.5668031,1.0,0.0,0.0,0.0,0.0,0.0,0.0,-2.1085305,0.16112289,-0.88893694,0.48305988,-2.6013613,-8.443904,11.1036415,-5.6818604,0.008898973,5.64687
-7.7382736,16.879463,0.90301716,16.92384,0.77748585,-1.0671053,-0.36955595,-0.80814004,0.68934816,0.0079477085,0.3105746,0.3373663,0.67028147,0.47422862,1.098237,-0.48880103,-1.7562803,-0.7946315,2.340063,1.470166,-0.9678905,1.1645361,-0.5448021,-1.7551563,-0.8214146,2.3131127,1.4080683,-1.0147698,-1.4500545,1.2826989,0.15956108,0.45564312,0.65681607,0.49294958,0.067780875,1.4240398,-0.5620613,1.4458619,-3.4480975,-0.09395556,0.6677624,0.10167694,-0.40826416,1.041287,0.8400379,-0.18743926,0.087508984,0.5015427,-0.53464377,0.7697014,0.5457596,1.0,0.0,0.0,0.0,0.0,0.0,0.0,-2.07404,0.1620613,-0.8958619,0.6093979,-4.2539597,-12.926743,11.294603,-8.773649,-0.050359964,5.430802
-1.8872089,13.123583,0.2922275,9.824326,0.20571727,-1.4560976,-0.13067663,-0.81030524,0.66150165,0.0025529314,0.22354734,0.30124718,0.66006213,0.4937009,1.0835056,-0.47865197,-1.7549009,-0.79905987,2.3432374,1.4740745,-0.9653997,1.1500651,-0.5323691,-1.7543628,-0.8166405,2.318995,1.4129835,-1.0137208,-1.446319,1.2305031,0.052239608,0.4840198,0.566155,0.49158102,0.11706704,1.3895855,-0.5629997,1.4517981,-3.44465,-0.093861625,0.56890875,0.09637451,-0.40085602,1.0464816,0.84160095,-0.1946445,0.090481505,0.49561512,-0.5200359,0.7357134,0.5061208,1.0,0.0,0.0,0.0,0.0,0.0,0.0,-2.0395856,0.16299972,-0.90179807,0.37009716,-5.142808,-10.836592,2.6535034,-8.875502,0.07553697,4.8542037
1.7686172,11.212655,-0.189435,5.1922455,-0.13575137,-1.7685323,0.00658489,-0.8084372,0.6429584,-0.06925008,0.19041996,0.2968642,0.65788335,0.51261616,1.0692214,-0.46807325,-1.7612878,-0.7975985,2.3486814,1.4787719,-0.96245915,1.1356226,-0.5204415,-1.7546718,-0.81203806,2.3241296,1.4178873,-1.0122216,-1.4433539,1.1804342,-0.05893521,0.45175922,0.49649268,0.49079427,0.16049,1.3551655,-0.56393814,1.4567465,-3.441206,-0.093767785,0.47015402,0.09134483,-0.39385605,1.051193,0.8432286,-0.20130505,0.09402158,0.48949137,-0.48863727,0.69338155,0.45537853,1.0,0.0,0.0,0.0,0.0,0.0,0.0,-2.0051656,0.16393813,-0.90674645,0.31962395,-4.9267054,-11.206764,-3.3877194,-6.820965,0.19396544,4.2744427
0.96720505,7.097726,-1.7481503,4.236335,-0.08610344,-1.9912122,-0.027422905,-0.80564183,0.6176348,-0.18155697,0.19130944,0.29719576,0.65789396,0.5299496,1.0550585,-0.458678,-1.7728275,-0.7929071,2.3538492,1.4836767,-0.9592266,1.1212126,-0.50900215,-1.7563236,-0.8078848,2.3287606,1.4227835,-1.0103276,-1.4399643,1.1321,-0.20121548,0.4025744,0.45222747,0.4902569,0.1986165,1.3207798,-0.56487656,1.460708,-3.4377656,-0.093674034,0.37149802,0.08662605,-0.38735962,1.0553632,0.84495294,-0.20726988,0.09809522,0.4831883,-0.45762154,0.63936985,0.40068224,1.0,0.0,0.0,0.0,0.0,0.0,0.0,-1.9707798,0.16487655,-0.910708,0.38323402,-4.7490597,-14.348992,-5.079156,-4.2883515,0.22073984,3.750664
-1.7058563,7.8009567,-1.5853984,7.5764933,0.13145167,-1.8542988,-0.14395837,-0.7998752,0.59016854,-0.24253173,0.23795143,0.19822727,0.6518837,0.5541664,1.0412251,-0.4499853,-1.7805767,-0.7840897,2.3485835,1.4879719,-0.95491093,1.106856,-0.49804252,-1.7593963,-0.80396044,2.332808,1.4276682,-1.0080845,-1.4340042,1.0841736,-0.3430334,0.3885838,0.38936803,0.48869953,0.23272635,1.2864285,-0.565815,1.4636837,-3.4343286,-0.09358037,0.27294064,0.08213806,-0.38136292,1.0590608,0.8468302,-0.21260162,0.10271923,0.47657943,-0.43819168,0.589669,0.35644716,1.0,0.0,0.0,0.0,0.0,0.0,0.0,-1.9364284,0.16581497,-0.9136837,0.63693523,-4.719496,-14.306164,-1.5563667,-6.1438265,0.058811903,3.3361554
-2.8982897,7.842509,-1.4024978,9.045366,0.1670652,-1.766901,-0.18132716,-0.80265504,0.55591697,-0.28737715,0.23029174,0.08696001,0.65597415,0.5675964,1.0265905,-0.44245082,-1.788134,-0.7809313,2.341504,1.4932656,-0.9513249,1.0925375,-0.48759502,-1.7637451,-0.8000933,2.335997,1.4325415,-1.0055325,-1.4309566,1.0318259,-0.46565378,0.385649,0.29598343,0.4874455,0.26251918,1.2521114,-0.5667534,1.4656746,-3.4308949,-0.093486816,0.17448181,0.077819824,-0.37584305,1.0623466,0.8488772,-0.2173823,0.107945055,0.46957442,-0.42277423,0.54401815,0.31679836,1.0,0.0,0.0,0.0,0.0,0.0,0.0,-1.9021114,0.16675338,-0.9156746,0.34167767,-5.171585,-12.365627,-0.43851733,-9.210319,0.06631613,2.8906136
0.16034365,10.102367,-0.030314207,7.2031345,-0.2527057,-1.7377431,-0.061072838,-0.79745114,0.51536304,-0.27843317,0.18459314,-0.11669294,0.6578885,0.57335925,1.0127923,-0.43605873,-1.7915884,-0.781634,2.3243277,1.4983304,-0.9481966,1.078261,-0.47773498,-1.7689025,-0.79640734,2.3377633,1.4374052,-1.0027134,-1.426398,0.97091097,-0.5325379,0.36255306,0.13710812,0.48684773,0.28786355,1.2178288,-0.5676842,1.4666817,-3.4274647,-0.09339335,0.07612143,0.07376289,-0.37070084,1.0652223,0.85102713,-0.22163536,0.11390076,0.46223062,-0.39341104,0.5058267,0.2757522,1.0,0.0,0.0,0.0,0.0,0.0,0.0,-1.8678287,0.16768417,-0.9166817,0.5055666,-6.028998,-6.752658,-2.415502,-15.799275,0.1609683,2.430874
6.779246,14.969933,2.4642007,2.466971,-0.77325845,-1.8129891,0.22153866,-0.79184854,0.48398688,-0.23645993,0.08735072,-0.22418629,0.65778804,0.55727476,0.9990762,-0.4293363,-1.7925485,-0.7876723,2.3153446,1.5031841,-0.94698596,1.0640475,-0.46849674,-1.7741935,-0.79339087,2.3377976,1.4422671,-0.99968815,-1.4195743,0.90841967,-0.5279478,0.28112862,-0.041312847,0.48673874,0.30723014,1.1835804,-0.56861496,1.4667059,-3.424038,-0.09329997,-0.022140628,0.070178986,-0.3659172,1.0676411,0.8531265,-0.22530393,0.12059684,0.4548293,-0.34046823,0.47247997,0.22883189,1.0,0.0,0.0,0.0,0.0,0.0,0.0,-1.8335804,0.16861495,-0.9167059,0.7418394,-6.175518,0.45155287,-8.203679,-17.815536,0.2422154,1.829052
5.805519,20.478561,4.493228,6.274091,-0.47135103,-1.5146306,0.19885921,-0.7901512,0.45641875,-0.213494,0.13621952,-0.34058106,0.6663988,0.5537393,0.9850323,-0.42285487,-1.795543,-0.77976894,2.3037395,1.508907,-0.94431424,1.0498949,-0.4598593,-1.7791164,-0.7909113,2.3359933,1.4471327,-0.9964981,-1.4136167,0.849076,-0.48018658,0.2366293,-0.22657667,0.48694748,0.322442,1.1493664,-0.56954575,1.4657482,-3.4206147,-0.09320669,-0.120304435,0.06704712,-0.36135483,1.0696946,0.85509443,-0.22853914,0.12795097,0.4474504,-0.29843754,0.4528366,0.19582503,1.0,0.0,0.0,0.0,0.0,0.0,0.0,-1.7993664,0.16954574,-0.9157482,0.60908794,-5.87914,4.8197865,-4.5073214,-18.515673,0.20449162,1.410687
1.5777152,24.098969,5.525934,13.042179,0.24300274,-1.1674461,0.032757565,-0.78247637,0.42922664,-0.20917565,0.21586163,-0.40557182,0.6605697,0.5457185,0.97164726,-0.41693664,-1.8000339,-0.76932514,2.2954361,1.5131897,-0.94192624,1.0358187,-0.45178074,-1.7835052,-0.7883297,2.3325067,1.4519926,-0.99318314,-1.4055507,0.7942487,-0.42481825,0.2651948,-0.38930702,0.4858208,0.33408377,1.1151867,-0.57047653,1.4638096,-3.4171948,-0.093113504,-0.2183701,0.064144135,-0.356884,1.0715637,0.8569353,-0.23161559,0.13579683,0.43997177,-0.28218994,0.44619244,0.18234791,1.0,0.0,0.0,0.0,0.0,0.0,0.0,-1.7651867,0.17047653,-0.9138096,0.7711172,-5.4528117,5.604416,2.7847648,-16.261673,-0.008106232,1.0684192
-2.4339304,20.176357,3.6718495,15.419042,0.6719785,-1.240163,-0.122308224,-0.78630525,0.40428993,-0.2677221,0.21799822,-0.41903913,0.64872396,0.53640056,0.9571882,-0.41135174,-1.8102775,-0.7665299,2.2906027,1.516865,-0.93954307,1.021792,-0.44421,-1.7877128,-0.78531134,2.3277383,1.4568297,-0.9897766,-1.4020319,0.74477154,-0.41910684,0.3137448,-0.50591385,0.4832249,0.34255153,1.0810413,-0.5714073,1.4608911,-3.4137783,-0.09302041,-0.31633773,0.06128502,-0.35253525,1.0733188,0.85872847,-0.23458114,0.14401248,0.4322239,-0.2817,0.43215016,0.17151316,1.0,0.0,0.0,0.0,0.0,0.0,0.0,-1.7310413,0.17140731,-0.9108911,0.31459332,-4.927373,0.6212294,4.769272,-11.649251,-0.17843246,0.7579386
-2.3355389,5.9570193,0.12123895,10.43207,0.86631894,-1.7221544,-0.0016310588,-0.77373695,0.3264199,-0.251385,0.1450156,-0.40977365,0.6427549,0.5299594,0.9444184,-0.41156802,-1.8128513,-0.77080977,2.2867608,1.5211052,-0.9367807,1.0078436,-0.43735117,-1.7919319,-0.78217566,2.322188,1.4616381,-0.9863033,-1.3923228,0.66640216,-0.42300928,0.31337976,-0.57148075,0.48046046,0.3487114,1.0469284,-0.5723381,1.4569937,-3.410365,-0.092927404,-0.4142074,0.05841446,-0.3485527,1.0748341,0.86049813,-0.23722714,0.15234369,0.42433202,-0.28391552,0.38722855,0.14323002,1.0,0.0,0.0,0.0,0.0,0.0,0.0,-1.6969284,0.1723381,-0.9069937,1.0342598,-7.795024,-0.4535675,-0.09479523,-6.5244913,-0.1607418,0.5343318
-2.9669228,-4.7072873,-2.3896208,7.5625377,1.0877166,-2.008651,0.08507182,-0.76744163,0.2581426,-0.2299393,0.12299947,-0.42957228,0.651738,0.5329434,0.9310995,-0.4115369,-1.8149258,-0.7698757,2.2792306,1.5268118,-0.93300897,0.9940115,-0.43146223,-1.7961414,-0.7792603,2.3161912,1.4664294,-0.98277473,-1.3797339,0.5632356,-0.420607,0.28422475,-0.6089239,0.4789796,0.35395536,1.0128498,-0.5732689,1.4521183,-3.4069555,-0.092834495,-0.5119792,0.055475235,-0.3451767,1.0759876,0.86224407,-0.23938525,0.16054289,0.41648033,-0.29286277,0.32191306,0.10466439,1.0,0.0,0.0,0.0,0.0,0.0,0.0,-1.6628498,0.17326888,-0.90211827,1.390171,-10.264671,0.10139346,-2.9480815,-3.6973238,-0.027108192,0.44923425
-12.207521,-61.999138,-16.957869,-1.5532953,2.1538079,-3.2118409,0.14119007,-0.7459752,-0.006966818,-0.22771877,0.043536164,-0.43410787,0.65905434,0.5086627,0.919414,-0.43215892,-1.8189132,-0.77490664,2.2727804,1.5323348,-0.9319085,0.98040164,-0.42765898,-1.8003318,-0.7770344,2.309977,1.4712168,-0.9792185,-1.3532717,0.31971082,-0.42037868,0.20223077,-0.62488526,0.4789826,0.35587078,0.97880554,-0.5741997,1.4462658,-3.4035492,-0.09274168,-0.60965335,0.052122116,-0.3431778,1.0764077,0.86409056,-0.24063624,0.16805686,0.4088992,-0.34574702,0.16017073,0.020136973,1.0,0.0,0.0,0.0,0.0,0.0,0.0,-1.6288055,0.17419967,-0.8962658,3.0965805,-24.258827,-0.5115986,-8.139237,-1.4087796,0.15462637,0.12028813
-23.387394,-101.28006,-26.379143,-1.1871147,3.7365632,-3.6405804,0.058186084,-0.72857356,-0.23988229,-0.1576578,0.087379165,-0.41582438,0.65281427,0.49854746,0.90754426,-0.4516472,-1.8160976,-0.7682965,2.2683947,1.5364982,-0.9293637,0.96711695,-0.42712873,-1.8042057,-0.77535784,2.3037553,1.4759909,-0.97565365,-1.3180697,-0.035657074,-0.3788847,0.15675372,-0.6206134,0.47698545,0.35676432,0.9447956,-0.57512283,1.4394374,-3.4001462,-0.09264896,-0.7072298,0.04777527,-0.34316254,1.0758811,0.8661713,-0.24085625,0.1741988,0.40173402,-0.46242562,-0.051145352,-0.0774732,1.0,0.0,0.0,0.0,0.0,0.0,0.0,-1.5947956,0.17512283,-0.8894374,4.163432,-35.465153,3.3976555,-4.348111,0.6596923,-0.21109581,0.094908476
-17.522352,-137.90448,-34.580696,-21.514835,2.9679558,-4.9396243,0.6285566,-0.6828021,-0.4952225,-0.112199426,-0.26969102,-0.39203653,0.64616406,0.44364503,0.89883673,-0.47665098,-1.8154256,-0.8023269,2.2645516,1.5406073,-0.93128914,0.9543406,-0.43080324,-1.8074481,-0.7756258,2.2976823,1.480723,-0.97212505,-1.2621244,-0.47791713,-0.3077551,-0.08708634,-0.6026624,0.47073838,0.35149133,0.91082,-0.576046,1.431634,-3.3967469,-0.09255633,-0.8047087,0.0424366,-0.3458748,1.0738955,0.86850625,-0.2394135,0.17849392,0.3956234,-0.5577908,-0.342893,-0.23904142,1.0,0.0,0.0,0.0,0.0,0.0,0.0,-1.56082,0.17604598,-0.88163394,6.228137,-44.185394,6.5533934,-24.118328,1.8401384,-1.004827,-0.55220723
-0.01254797,-130.72636,-30.082233,-37.748627,1.267948,-5.202634,1.3906709,-0.613989,-0.684767,0.08658514,-0.5788561,-0.48644873,0.662167,0.3991802,0.89294165,-0.49927995,-1.7987896,-0.8335114,2.2490375,1.5469397,-0.93220705,0.94233763,-0.43893665,-1.8090923,-0.7796427,2.2914872,1.485377,-0.96868706,-1.1791157,-0.9254113,-0.11614124,-0.50604135,-0.6261035,0.4606158,0.3407573,0.87687874,-0.57696915,1.4228565,-3.3933508,-0.092463784,-0.9020902,0.03664589,-0.35154724,1.0700295,0.8708689,-0.23584647,0.1807905,0.3915081,-0.5884517,-0.63907266,-0.43637207,1.0,0.0,0.0,0.0,0.0,0.0,0.0,-1.5268787,0.17696914,-0.87285644,8.4764,-44.841957,19.338877,-41.743774,-2.675867,-1.9667387,-1.182878
17.985603,-69.66934,-12.427609,-34.23384,-0.12675396,-3.8585255,1.7065738,-0.5294405,-0.7265487,0.2512494,-0.6621971,-0.5735178,0.65985596,0.4050863,0.88939357,-0.5115915,-1.7839674,-0.8458624,2.2341354,1.5513625,-0.9281784,0.9314028,-0.4506411,-1.8081977,-0.78773844,2.2847657,1.4899279,-0.96534824,-1.065968,-1.2527213,0.15989782,-0.91103816,-0.68881446,0.44957006,0.3312448,0.8429699,-0.5778923,1.4131058,-3.3899581,-0.092371345,-0.9993743,0.031061172,-0.35942078,1.0644578,0.8728988,-0.23054342,0.18136674,0.38987616,-0.5525754,-0.8320542,-0.59934366,1.0,0.0,0.0,0.0,0.0,0.0,0.0,-1.4929699,0.1778923,-0.86310583,10.996628,-32.91142,28.148544,-40.552914,-6.62179,-2.1962106,-1.0344863
28.255308,-2.5062308,5.8807693,-19.250032,-0.5515072,-2.0662053,1.5352327,-0.42549118,-0.7533879,0.36044532,-0.6327213,-0.60913527,0.66755337,0.34843704,0.88885367,-0.5259799,-1.7721533,-0.85101056,2.2238522,1.5566832,-0.93050456,0.92187655,-0.46457,-1.804467,-0.7987677,2.2773538,1.4944063,-0.96213055,-0.9165144,-1.4399803,0.444683,-1.1675086,-0.7583546,0.44521835,0.3189646,0.8090954,-0.57881546,1.4023832,-3.3865688,-0.092278995,-1.0965611,0.026094437,-0.36828995,1.0577757,0.8743118,-0.2244572,0.18064916,0.39059392,-0.48194242,-0.9001901,-0.69430274,1.0,0.0,0.0,0.0,0.0,0.0,0.0,-1.4590954,0.17881545,-0.8523832,14.466131,-18.83111,28.67437,-25.81427,-6.897104,-1.0506749,-1.1302948
27.028687,44.9414,17.241875,-1.3704382,-0.32355642,-0.6739461,1.0101362,-0.37039354,-0.76237214,0.38809592,-0.59145874,-0.6175179,0.67115164,0.2921391,0.8848372,-0.5408072,-1.7656574,-0.85791355,2.215602,1.5615215,-0.93291664,0.9138304,-0.47946924,-1.7984531,-0.8110949,2.2693467,1.4988886,-0.9590597,-0.7681987,-1.5064666,0.652273,-1.2547987,-0.81319475,0.44921398,0.30407023,0.7752552,-0.5797386,1.3906894,-3.383183,-0.092186734,-1.1936507,0.02182579,-0.3771782,1.050636,0.87505805,-0.21847638,0.17913158,0.39300537,-0.41125312,-0.876496,-0.72409207,1.0,0.0,0.0,0.0,0.0,0.0,0.0,-1.4252552,0.17973861,-0.84068936,14.532471,-6.615019,20.39895,-8.835173,-5.0898075,0.43568015,-1.212585
15.171356,60.23202,18.461151,13.1128235,0.3256678,-0.084575355,0.34405914,-0.37232518,-0.77335197,0.34631225,-0.571402,-0.60131735,0.6548705,0.24395278,0.8765979,-0.5568044,-1.7638218,-0.8682351,2.209215,1.5643756,-0.9346644,0.9069058,-0.49449772,-1.7913196,-0.8234221,2.260985,1.5034243,-0.9561596,-0.6672731,-1.5012411,0.73164403,-1.2250603,-0.84230894,0.45618308,0.28648198,0.74144936,-0.5806618,1.3780253,-3.3798006,-0.09209456,-1.2906433,0.018030167,-0.38557816,1.0434732,0.875345,-0.21301907,0.17728193,0.39618808,-0.37133053,-0.8192178,-0.71684694,1.0,0.0,0.0,0.0,0.0,0.0,0.0,-1.3914493,0.18066177,-0.8280253,10.105335,0.6269455,7.2975993,3.0490398,-2.5222063,1.0920584,-1.4282465
13.098279,62.165398,17.530058,14.747462,0.19137256,-0.25395012,0.10744277,-0.27764222,-0.7788652,0.29454467,-0.6052694,-0.59274197,0.64750206,0.20934045,0.87914157,-0.57238424,-1.7618651,-0.88394904,2.2017107,1.5681745,-0.93522555,0.90104353,-0.5092444,-1.7842262,-0.83526766,2.2524743,1.5080229,-0.95344925,-0.5592112,-1.4654616,0.7005681,-1.1707658,-0.8526633,0.46252647,0.26682147,0.70767593,-0.58158493,1.364392,-3.3764215,-0.09200248,-1.3875389,0.01461792,-0.3934555,1.036412,0.8753597,-0.20805974,0.17541212,0.3996087,-0.3318248,-0.7683105,-0.7052164,1.0,0.0,0.0,0.0,0.0,0.0,0.0,-1.3576759,0.18158492,-0.81439203,10.795868,3.6854744,-3.5639167,5.5344105,-0.7781863,1.0476172,-1.6986132
8.261994,45.217422,10.4636,11.853708,0.026857883,-0.9681409,-0.105056316,-0.20793195,-0.7877566,0.11127607,-0.62891734,-0.5698718,0.63222,0.2253473,0.88025033,-0.58802,-1.7730986,-0.8981594,2.195487,1.571245,-0.9309145,0.8962904,-0.52364486,-1.7785747,-0.8466803,2.2439904,1.5126559,-0.9509134,-0.44766903,-1.4314107,0.5199293,-1.1310656,-0.84667283,0.46411532,0.2495367,0.67393684,-0.5825043,1.3497906,-3.3730457,-0.091910504,-1.4843377,0.011545181,-0.40112686,1.0293022,0.87532884,-0.20318228,0.17375495,0.4028965,-0.29920194,-0.7592277,-0.7152359,1.0,0.0,0.0,0.0,0.0,0.0,0.0,-1.3239368,0.18250427,-0.79979056,11.061168,3.4429789,-18.103672,4.0940523,0.58294535,0.32598376,-1.6212165
0.5906118,23.326439,1.4445446,8.841486,-0.04637666,-1.6866786,-0.2997657,-0.18548858,-0.7868768,-0.11238577,-0.6561506,-0.5533228,0.6303046,0.28456435,0.8777416,-0.60233253,-1.7898133,-0.91229534,2.1886582,1.5756863,-0.922457,0.89247954,-0.5377783,-1.7757518,-0.85794795,2.2356362,1.5172812,-0.94849396,-0.3592064,-1.4075108,0.20402636,-1.1247234,-0.83245033,0.46169445,0.23924576,0.6402321,-0.5834198,1.3342218,-3.3696733,-0.091818616,-1.5810397,0.008695602,-0.4090538,1.0218624,0.87551093,-0.197794,0.17253618,0.40569612,-0.2802488,-0.7961439,-0.7561223,1.0,0.0,0.0,0.0,0.0,0.0,0.0,-1.2902321,0.1834198,-0.7842218,8.761681,2.3444176,-31.319872,0.81071854,1.150012,-0.3682673,-1.0808676
-1.7258738,10.59231,-3.4235034,5.37726,-0.20471945,-2.090908,-0.2919634,-0.13919024,-0.7884164,-0.27706918,-0.6826164,-0.5605652,0.627647,0.34708956,0.87856054,-0.61661994,-1.8034587,-0.92620957,2.1795797,1.5800458,-0.913785,0.88948023,-0.5517735,-1.7764747,-0.8693882,2.2273927,1.5218683,-0.9461155,-0.28036958,-1.3971953,-0.16310403,-1.1498191,-0.8230255,0.45644954,0.23681946,0.60655975,-0.5843353,1.3176868,-3.3663042,-0.09172682,-1.677645,0.006008148,-0.4175415,1.0138416,0.87602943,-0.19145711,0.17187287,0.40789258,-0.2640681,-0.859382,-0.82068187,1.0,0.0,0.0,0.0,0.0,0.0,0.0,-1.2565597,0.18433532,-0.7676868,7.8253746,0.9362221,-36.323277,-2.3069382,0.5530596,-0.8596599,-0.37977695
-1.2617959,9.719088,-2.9224744,4.2019806,-0.123552606,-1.9343827,-0.116711795,-0.12764996,-0.79839545,-0.31512722,-0.71817863,-0.56729615,0.6270665,0.39353496,0.87671524,-0.631613,-1.8079875,-0.9412061,2.170663,1.5845749,-0.906762,0.8870808,-0.56578296,-1.7803123,-0.8812834,2.2191987,1.5263983,-0.94371414,-0.22639078,-1.4025552,-0.4564365,-1.202014,-0.81956136,0.4506653,0.24099056,0.57292175,-0.58525085,1.3001865,-3.3629386,-0.09163511,-1.7741537,0.0034675598,-0.4266281,1.0051305,0.8768212,-0.18408027,0.17166628,0.40967014,-0.2498823,-0.91867816,-0.89224005,1.0,0.0,0.0,0.0,0.0,0.0,0.0,-1.2229217,0.18525085,-0.7501865,5.430758,-0.6394863,-29.089468,-4.9964666,-0.0089764595,-0.9746969,0.31046867
1.2067239,28.210762,5.2399993,8.49733,0.2362751,-1.0035605,0.11510831,-0.14677651,-0.7902354,-0.20111057,-0.71334994,-0.6078652,0.64952016,0.414208,0.87240314,-0.6448065,-1.8004234,-0.9526184,2.1584122,1.5913503,-0.9022933,0.8849226,-0.5798411,-1.7856357,-0.89363444,2.2109056,1.5309035,-0.9412432,-0.21186931,-1.4071387,-0.5580244,-1.245558,-0.8333619,0.44984916,0.24921662,0.5393181,-0.5861664,1.2817218,-3.3595765,-0.09154349,-1.8705659,0.0010643005,-0.43595505,0.99590385,0.8776535,-0.17608848,0.17168367,0.41139022,-0.23666717,-0.93034095,-0.9381572,1.0,0.0,0.0,0.0,0.0,0.0,0.0,-1.1893181,0.18616638,-0.7317218,1.5754551,-0.50935745,-10.280037,-4.1722536,-1.5310884,-0.2615273,0.85719526
-4.3743567,32.590664,7.033186,13.535719,0.81385803,-0.4855919,0.075274184,-0.19178341,-0.79587847,-0.2462742,-0.7189972,-0.61085826,0.6519106,0.4194397,0.8657443,-0.65942895,-1.8102632,-0.96553415,2.1498196,1.5960945,-0.8992992,0.882547,-0.59396785,-1.7913768,-0.90632594,2.2024522,1.5354124,-0.9386854,-0.24527413,-1.414748,-0.5804219,-1.2762408,-0.84953994,0.45102373,0.25823236,0.50574684,-0.5870819,1.2622937,-3.3562176,-0.09145196,-1.9668818,-0.0013523102,-0.44524384,0.98632115,0.8784333,-0.16780685,0.17177184,0.4131468,-0.24272636,-0.92186004,-0.9707363,1.0,0.0,0.0,0.0,0.0,0.0,0.0,-1.1557468,0.1870819,-0.7122937,-3.0972452,-0.811553,-2.5217652,-2.8393269,-1.7485619,0.03144145,0.99677444
-4.435481,41.561287,10.797906,16.338684,1.0896834,-0.052857637,0.12208568,-0.2021612,-0.79142237,-0.22088464,-0.72619355,-0.603931,0.6534347,0.430664,0.8623309,-0.67311007,-1.8134652,-0.9789453,2.142059,1.6007559,-0.89561903,0.879727,-0.60813564,-1.7968395,-0.91923964,2.1938844,1.5399443,-0.9360342,-0.29341593,-1.417616,-0.5362197,-1.2956707,-0.8593624,0.45392224,0.26805595,0.47220993,-0.58799744,1.2419032,-3.3528621,-0.091360524,-2.063101,-0.0038585663,-0.45429993,0.97653073,0.879092,-0.15950002,0.17179903,0.4150204,-0.25267467,-0.89269406,-0.98764867,1.0,0.0,0.0,0.0,0.0,0.0,0.0,-1.1222099,0.18799743,-0.6919032,-4.551518,-0.31199455,4.0105343,-1.734519,-1.0326266,0.3256023,1.1446416
-8.021479,41.670258,10.49542,18.342031,1.3228247,0.060060382,0.042406224,-0.23730382,-0.7922342,-0.25047433,-0.7343058,-0.6036821,0.6478763,0.43398845,0.8559966,-0.68735904,-1.8218869,-0.99267024,2.133516,1.6047319,-0.89263535,0.8763195,-0.6223187,-1.8018882,-0.93229353,2.1852517,1.544499,-0.9332895,-0.35555688,-1.4186375,-0.49599132,-1.3079439,-0.86482686,0.45637745,0.27704695,0.43870544,-0.58891296,1.2205513,-3.34951,-0.09126919,-2.159224,-0.0065364838,-0.46304703,0.96659595,0.8796433,-0.15124781,0.17172985,0.41696593,-0.27208513,-0.86154693,-1.0010637,1.0,0.0,0.0,0.0,0.0,0.0,0.0,-1.0887054,0.18891296,-0.67055124,-5.915922,-0.13234615,3.603536,-0.9878397,-0.6192684,0.29786825,1.0677218
-6.301624,41.625103,10.348975,17.0876,1.1477362,-0.05860132,0.035970025,-0.2260339,-0.7906076,-0.29214057,-0.7388214,-0.6174627,0.6416061,0.4486792,0.85371614,-0.7013794,-1.8311023,-1.0061756,2.1235054,1.6086596,-0.8884216,0.87245715,-0.63649315,-1.8068016,-0.94543517,2.1765466,1.5490729,-0.93045616,-0.39563894,-1.4171728,-0.49087042,-1.3154111,-0.87265605,0.45766693,0.28597653,0.4052353,-0.5898285,1.1982387,-3.3461611,-0.09117794,-2.2552512,-0.009361267,-0.4715271,0.9565024,0.88010985,-0.14300205,0.17160864,0.418936,-0.2854617,-0.8358672,-1.0173377,1.0,0.0,0.0,0.0,0.0,0.0,0.0,-1.0552353,0.18982849,-0.6482387,-3.7639499,0.1196146,0.1611054,-0.5221844,-0.8612752,0.15948415,1.0397255
-5.8949475,40.00307,9.676622,16.391338,1.1168075,-0.15696758,0.007163331,-0.23298557,-0.7944793,-0.31650925,-0.73487395,-0.6118239,0.645957,0.44394806,0.8491586,-0.7159411,-1.8384525,-1.0189226,2.115364,1.6136686,-0.8860614,0.8683144,-0.6506676,-1.8118808,-0.9585959,2.1677918,1.5536581,-0.92754745,-0.41987234,-1.4176419,-0.5147928,-1.315521,-0.8765859,0.4587697,0.29295766,0.37179947,-0.5907364,1.1749667,-3.3428156,-0.09108678,-2.3511822,-0.012313843,-0.47979736,0.94621974,0.8805151,-0.134704,0.17145291,0.42089418,-0.298242,-0.81646,-1.0369389,1.0,0.0,0.0,0.0,0.0,0.0,0.0,-1.0217994,0.19073638,-0.6249667,-2.2157729,-0.07855892,-2.6759624,0.21195412,-0.48857927,0.11059046,0.8286357
-9.192087,36.907913,7.8224554,17.165564,1.190584,-0.21508986,-0.09289277,-0.26127246,-0.7924511,-0.36981475,-0.7246193,-0.62892514,0.6565627,0.45608267,0.84218717,-0.7299127,-1.8488623,-1.0310578,2.1048994,1.6193144,-0.8819392,0.86391604,-0.66484016,-1.8174827,-0.9716841,2.1589608,1.5582567,-0.9245701,-0.44579232,-1.4173381,-0.5760291,-1.3058513,-0.8859472,0.4602399,0.29955807,0.33839607,-0.5916443,1.1507361,-3.3394735,-0.090995714,-2.4470172,-0.015443802,-0.48792648,0.9357078,0.8809178,-0.1262655,0.17132801,0.42271432,-0.31785288,-0.8032662,-1.0608989,1.0,0.0,0.0,0.0,0.0,0.0,0.0,-0.98839605,0.19164428,-0.6007361,-2.377218,-0.020647049,-6.3334465,1.219964,-1.0938883,0.10450482,0.7554412
-11.313876,32.332115,5.5040293,16.372284,1.172013,-0.36142904,-0.14298843,-0.27705935,-0.7951097,-0.4407918,-0.73616457,-0.62664837,0.63927007,0.44685903,0.83621013,-0.74435115,-1.8615619,-1.0453006,2.096296,1.6221838,-0.8798842,0.8592583,-0.6790232,-1.823983,-0.9847237,2.1500497,1.5628535,-0.9215441,-0.47170332,-1.4189435,-0.6750701,-1.3023783,-0.89366597,0.45898882,0.30385336,0.305027,-0.5925522,1.1255478,-3.3361347,-0.090904735,-2.5427566,-0.01880455,-0.49598694,0.9248802,0.881376,-0.11753436,0.1712818,0.424293,-0.34131098,-0.7998761,-1.0949887,1.0,0.0,0.0,0.0,0.0,0.0,0.0,-0.955027,0.19255218,-0.57554775,-2.3699105,-0.23610592,-10.03983,0.6356716,-0.9959221,-0.25122166,0.49120188
-13.905791,30.994375,4.549025,16.562416,1.2108415,-0.31695825,-0.16297422,-0.3104054,-0.79496586,-0.47998697,-0.7443947,-0.6445279,0.63312465,0.45519015,0.82821774,-0.75851977,-1.8719816,-1.0591632,2.0855968,1.6261659,-0.8760251,0.8542534,-0.6932244,-1.8315189,-0.9977852,2.1410203,1.5674292,-0.91847706,-0.5092507,-1.4207138,-0.78012174,-1.3062556,-0.90683967,0.45649368,0.3078899,0.27169037,-0.5934601,1.0994028,-3.3327992,-0.090813845,-2.6384,-0.022424698,-0.50403595,0.9136751,0.8819146,-0.108407125,0.17134061,0.42557812,-0.36937633,-0.7971481,-1.1339196,1.0,0.0,0.0,0.0,0.0,0.0,0.0,-0.92169034,0.19346008,-0.5494028,-3.5074353,-0.27110577,-10.622549,-0.066185,-1.5860796,-0.42080283,0.4508257
-22.06761,26.291494,1.7041749,18.50387,1.5596349,-0.22272909,-0.26287845,-0.38227445,-0.8005441,-0.5427158,-0.75872135,-0.6392656,0.60225946,0.44374806,0.816026,-0.7732788,-1.8857905,-1.0736574,2.0770938,1.6276551,-0.87410223,0.8486086,-0.70746845,-1.8401611,-1.0109608,2.131884,1.5719534,-0.91538334,-0.5818259,-1.426059,-0.89268035,-1.3198822,-0.91668135,0.45016268,0.31001368,0.23838806,-0.594368,1.0723021,-3.329467,-0.090723045,-2.733948,-0.026470184,-0.5120659,0.9020328,0.88259125,-0.09877525,0.17149164,0.4264584,-0.41657415,-0.79647464,-1.1796136,1.0,0.0,0.0,0.0,0.0,0.0,0.0,-0.88838804,0.19436797,-0.5223021,-6.9289684,-0.6738186,-11.34882,-0.9502411,-1.3556123,-0.8831799,0.24911165
-31.683802,22.521477,-0.75742006,21.45688,2.087249,-0.006708145,-0.36422127,-0.46727973,-0.81029975,-0.58695257,-0.7690343,-0.62009525,0.5772087,0.44359243,0.80188066,-0.7884984,-1.8988564,-1.0878643,2.0698745,1.6296743,-0.8710241,0.8419348,-0.72180885,-1.8498638,-1.0243104,2.1227326,1.5763937,-0.91227245,-0.6944933,-1.437391,-0.99650365,-1.338134,-0.9165864,0.44096056,0.31171796,0.20511818,-0.5952759,1.0442467,-3.3261383,-0.090632334,-2.8294003,-0.031169891,-0.5200844,0.88991314,0.88347363,-0.0885759,0.17164639,0.42680922,-0.4883934,-0.79338086,-1.2282728,1.0,0.0,0.0,0.0,0.0,0.0,0.0,-0.85511816,0.19527587,-0.49424666,-10.849524,-1.3244629,-10.463226,-1.307416,-0.46731234,-1.2379467,0.22125244
-42.484917,23.037971,-1.9217131,26.172142,2.7277696,0.3777147,-0.51937383,-0.571607,-0.807136,-0.62580293,-0.76196724,-0.5984329,0.5760891,0.41032365,0.7847741,-0.8025224,-1.9124441,-1.100507,2.0628893,1.6340027,-0.8712401,0.8338171,-0.73623985,-1.8604953,-1.0377743,2.1136613,1.5807463,-0.90917015,-0.84915805,-1.4457746,-1.0856977,-1.3470418,-0.9058652,0.43207788,0.3099725,0.17188072,-0.5961838,1.0152375,-3.3228128,-0.09054172,-2.9247572,-0.03678894,-0.52799225,0.87735295,0.8846349,-0.07784496,0.17172346,0.42646495,-0.58719563,-0.7799649,-1.2710019,1.0,0.0,0.0,0.0,0.0,0.0,0.0,-0.8218807,0.19618377,-0.46523744,-14.968276,-1.0822535,-8.982468,-0.27959347,0.4913926,-1.237011,-0.10293722
-49.263706,25.52945,-2.040996,29.248276,3.1582513,0.6945529,-0.6220869,-0.66278934,-0.8027434,-0.6751931,-0.75725836,-0.5647262,0.58138365,0.3703259,0.7675382,-0.8165142,-1.9280146,-1.1135001,2.0571887,1.6388847,-0.87213755,0.82399714,-0.7507109,-1.8719718,-1.0512555,2.1047997,1.5850207,-0.90611553,-1.0244489,-1.4484458,-1.1683353,-1.3463172,-0.88191956,0.42458475,0.30428204,0.1386776,-0.5970917,0.9852754,-3.3194907,-0.0904512,-3.0200188,-0.04351616,-0.53570175,0.8644127,0.8861286,-0.06664854,0.17164215,0.42529172,-0.7030142,-0.75669414,-1.3076442,1.0,0.0,0.0,0.0,0.0,0.0,0.0,-0.7886776,0.19709167,-0.43527538,-16.99617,-0.5510092,-8.297348,0.7439375,1.7444015,-1.1315942,-0.474298
-47.09649,30.55388,-0.15184438,28.679972,3.05782,0.8535967,-0.5962449,-0.71342754,-0.7985439,-0.7271242,-0.7506972,-0.5621282,0.5993976,0.33148867,0.7526544,-0.8305653,-1.9446843,-1.1263251,2.0485868,1.6449604,-0.87296665,0.81256354,-0.7651648,-1.8842723,-1.0646718,2.096167,1.5892416,-0.90314484,-1.1813451,-1.4453214,-1.2506428,-1.3376893,-0.8589565,0.42004523,0.29500505,0.105508804,-0.59799194,0.9543614,-3.316172,-0.090360776,-3.115185,-0.051353455,-0.54312515,0.8511349,0.8879344,-0.05505243,0.17137687,0.42328677,-0.812934,-0.7255139,-1.3404111,1.0,0.0,0.0,0.0,0.0,0.0,0.0,-0.7555088,0.19799194,-0.40436137,-15.205932,0.028944016,-8.237863,1.5140772,1.6676784,-0.84587336,-0.8230388
-40.82034,37.07702,3.210699,27.023493,2.8973236,0.9743869,-0.5150236,-0.75503355,-0.7966967,-0.75341773,-0.73500884,-0.5181658,0.58697706,0.26516137,0.7370602,-0.84483445,-1.9596142,-1.1381726,2.0443506,1.6479393,-0.8766287,0.79980814,-0.7795662,-1.8972976,-1.0779259,2.0878587,1.5934187,-0.90030956,-1.3055539,-1.4393739,-1.3197091,-1.3193779,-0.82341456,0.41569197,0.28010944,0.07237244,-0.5988922,0.92249644,-3.3128564,-0.09027044,-3.2102563,-0.06018448,-0.5502014,0.837585,0.88999283,-0.043174036,0.17084238,0.42054918,-0.90985703,-0.68691456,-1.3659499,1.0,0.0,0.0,0.0,0.0,0.0,0.0,-0.7223724,0.1988922,-0.37249643,-12.026167,0.33831596,-6.9046974,2.410388,3.0118227,-0.79568624,-1.3577402
-29.986017,43.79911,7.5784993,23.42024,2.441789,1.0342321,-0.35413298,-0.77365077,-0.79980797,-0.7601941,-0.7256424,-0.5145866,0.58405346,0.19713502,0.72244304,-0.859547,-1.973317,-1.1504902,2.0364,1.6518241,-0.88059604,0.786142,-0.7939257,-1.9108303,-1.090976,2.0798745,1.5975577,-0.897665,-1.386073,-1.4354017,-1.3644093,-1.2986226,-0.7914022,0.4125341,0.25984648,0.039268494,-0.5997925,0.8896815,-3.3095443,-0.09018019,-3.3052325,-0.069797516,-0.5568466,0.8238196,0.89220154,-0.03115187,0.16997114,0.41727167,-0.98140275,-0.6421921,-1.3859955,1.0,0.0,0.0,0.0,0.0,0.0,0.0,-0.68926847,0.19979247,-0.3396815,-7.7722073,0.19803047,-4.492688,2.5408983,2.8038025,-0.6035447,-1.875037
-21.04199,52.176086,12.13693,21.537842,1.9705689,1.1649925,-0.26019186,-0.78919226,-0.7883074,-0.7710105,-0.6899408,-0.5664318,0.6129568,0.15587442,0.70722276,-0.8727564,-1.9879313,-1.15997,2.0232313,1.6588533,-0.8820776,0.7719389,-0.8082022,-1.92467,-1.1036999,2.0719934,1.6016985,-0.89523983,-1.4310825,-1.4255161,-1.3905637,-1.2624952,-0.7879461,0.41394222,0.23717235,0.006198883,-0.60069275,0.8559175,-3.3062356,-0.09009003,-3.4001138,-0.079935074,-0.5629883,0.80993134,0.8944594,-0.019138837,0.1688543,0.413599,-1.0281912,-0.5893426,-1.3955992,1.0,0.0,0.0,0.0,0.0,0.0,0.0,-0.65619886,0.20069274,-0.3059175,-4.3251514,0.84564686,-2.6446104,3.9514542,0.075006485,-0.04171133,-2.1389484
-13.787217,53.93436,13.993723,18.353798,1.5730355,1.0965828,-0.18120076,-0.7969126,-0.79386437,-0.78951955,-0.6865574,-0.56548476,0.5852619,0.011200686,0.6922476,-0.8875886,-2.003622,-1.1723557,2.0154448,1.6602247,-0.89411974,0.757486,-0.8224148,-1.9387252,-1.1161034,2.0640855,1.6058375,-0.89312935,-1.449633,-1.4202112,-1.4106548,-1.2320181,-0.79240096,0.4134215,0.2026943,-0.026838303,-0.601593,0.82120544,-3.3029299,-0.08999996,-3.4949002,-0.09041023,-0.5686264,0.79593295,0.89670616,-0.007183042,0.1675283,0.4096349,-1.0565615,-0.5382503,-1.4068745,0.0,1.0,0.0,0.0,0.0,0.0,0.0,-0.6231617,0.20159301,-0.27120543,-1.7383337,0.4237175,-2.050805,3.3244133,-0.6368756,-0.20418167,-3.3235164
-9.684252,54.846844,15.099123,16.194206,1.4512,1.0653902,-0.14568692,-0.8086479,-0.7927365,-0.79712707,-0.6887121,-0.50182515,0.54995865,-0.16797316,0.6766212,-0.90168846,-2.0184379,-1.1849747,2.013903,1.6608334,-0.90992665,0.7428875,-0.8365098,-1.9537634,-1.1285824,2.0559826,1.6097023,-0.89138705,-1.4622259,-1.4065219,-1.5343701,-1.2518655,-0.8293422,0.36469066,0.16456632,-0.048225403,-0.5999832,0.8121106,-1.854769,0.30395103,-0.029611565,-0.10110283,-0.573925,0.7815374,0.89893675,0.005268838,0.16612567,0.40532357,-1.0739018,-0.5110707,-1.4566829,0.0,1.0,0.0,0.0,0.0,0.0,0.0,-0.6017746,0.19998321,-0.2621106,-0.33724308,0.1345396,-1.4571428,2.460146,1.1359453,-1.259476,-5.0469456
37.606903,176.0,110.0,110.0,5.8915887,11.877902,-1.8202337,-0.8110834,0.5446195,0.6751508,0.63919383,-0.28218213,0.64917326,-0.38533065,0.66177917,-0.78204787,-1.8862482,-1.0646629,2.0277643,1.6746197,-0.92992014,0.731761,-0.8532716,-1.9595903,-1.1272472,2.038099,1.6201279,-0.88931566,-0.98250806,-1.6762141,-0.42373797,0.5603006,-1.9664638,1.338699,0.25861692,-0.06675911,-0.5969467,0.81107825,-1.8529146,0.30364713,-0.1277679,-0.111730576,-0.57644653,0.7714689,0.9006077,0.008284218,0.16881807,0.40042168,-1.0603563,-0.14943933,-0.86374,1.0,0.0,0.0,0.0,0.0,0.0,0.0,-0.58324087,0.19694671,-0.26107824,52.05319,9.536743e-05,63.601334,170.73776,-71.20578,118.46037,20.578793
-59.304554,135.95082,41.974854,91.33709,8.802138,3.676223,-2.7167366,-0.8037954,-0.658285,-0.5234471,0.7129381,-0.45848522,0.5905264,-0.31935894,0.65138143,-0.9191001,-2.011935,-1.0559534,1.9922506,1.6791805,-0.92125154,0.7220278,-0.8694316,-1.9623197,-1.1149887,2.0187356,1.6336167,-0.8871098,-0.9683693,-1.5969079,-0.22173454,1.4501805,-1.9282995,1.3563416,0.21047612,-0.08527374,-0.5939102,0.80906504,-1.851062,0.30334353,-0.2258261,-0.123729706,-0.57720184,0.7652663,0.9029518,0.0056516356,0.17348605,0.3931267,-1.2443411,-0.041447837,-0.5441344,1.0,0.0,0.0,0.0,0.0,0.0,0.0,-0.56472623,0.19391021,-0.25906503,1.9695401,7.670164,20.479212,89.7469,3.2536268,3.0356407,-4.0415673
-64.38597,142.68835,32.30603,71.54749,6.3561816,2.2626956,-2.0534039,-0.79194874,-0.441093,-0.55050766,0.7289268,-0.5865177,0.5441187,0.26221883,0.6428329,-0.9135409,-2.0173705,-1.042096,1.9600838,1.6880286,-0.86088794,0.71158123,-0.88308823,-1.9655966,-1.0973896,2.0014322,1.6465256,-0.8850165,-1.0681703,-1.2899665,-0.3636578,1.8652245,-1.6656401,1.2715955,0.20918961,-0.10377121,-0.59088135,0.806064,-1.8492115,0.30304027,-0.32485148,-0.13719177,-0.5769348,0.7614799,0.9061907,0.0017314005,0.17892373,0.38314697,-1.3776925,0.056811687,-0.33053055,1.0,0.0,0.0,0.0,0.0,0.0,0.0,-0.54622877,0.19088134,-0.256064,-9.405971,30.28772,-14.373845,42.13419,25.88427,-7.78327,-0.061306357
-52.76825,90.36596,14.415382,41.28068,4.092061,0.748028,-1.0481404,-0.7566406,-0.5807628,-0.44725776,0.7878136,-0.5920928,0.5895827,0.18257082,0.6359172,-0.9411645,-2.0103223,-1.0186082,1.942223,1.7054839,-0.8667594,0.69992447,-0.8944837,-1.9706281,-1.0782455,1.9870603,1.658273,-0.8830138,-1.196975,-1.0904449,-0.5506963,1.932212,-1.3615875,1.1426976,0.19723403,-0.1222496,-0.5878525,0.8020735,-1.8473625,0.3027373,-0.42377785,-0.15169907,-0.5760422,0.7587134,0.90999275,-0.0016613916,0.18437842,0.371369,-1.4729693,0.10919833,-0.26574212,1.0,0.0,0.0,0.0,0.0,0.0,0.0,-0.5277504,0.18785247,-0.25207347,-12.536216,19.640017,-19.010914,7.0768833,30.238415,-12.778068,-1.2362778
-38.77787,58.29648,4.528757,20.717686,1.934246,-0.05784601,-0.29800466,-0.7765495,-0.559216,-0.545568,0.7816066,-0.62038696,0.578937,0.28667957,0.6222695,-0.9504053,-2.0251849,-1.0000849,1.9250216,1.7161667,-0.8543458,0.6870651,-0.9044343,-1.9778436,-1.059872,1.9752157,1.6687748,-0.88104445,-1.3151113,-0.9640511,-0.7795211,1.8062322,-1.1257738,1.0192176,0.19619468,-0.14070892,-0.5848274,0.79709446,-1.8455155,0.30243462,-0.52260536,-0.16683769,-0.57484055,0.7558712,0.91402316,-0.0035345068,0.18949267,0.35866636,-1.5245742,0.13388164,-0.29635754,0.0,1.0,0.0,0.0,0.0,0.0,0.0,-0.50929105,0.18482742,-0.24709445,-11.654806,12.430644,-23.142195,-12.436223,23.490572,-12.403369,-0.26506186
-21.61089,52.590427,5.964419,11.121983,0.6511333,-0.21539825,0.120208666,-0.7775685,-0.49733332,-0.58905244,0.7957102,-0.6226532,0.5515944,0.30038312,0.60930824,-0.95416766,-2.036749,-0.980301,1.9129504,1.7239343,-0.85100615,0.6733303,-0.91342366,-1.9870771,-1.0431064,1.9650972,1.6781437,-0.87906843,-1.3929679,-0.8778133,-0.97140396,1.6335338,-0.97480285,0.9088779,0.19733644,-0.15914917,-0.5818062,0.7911279,-1.8436704,0.30213225,-0.621334,-0.18217468,-0.57346344,0.752547,0.9180258,-0.0036708163,0.19430913,0.34562844,-1.5336416,0.15136357,-0.34885305,0.0,1.0,0.0,0.0,0.0,0.0,0.0,-0.4908508,0.18180618,-0.24112791,-7.7709913,8.446932,-19.18037,-17.254686,14.821935,-11.133968,-0.09652078
-13.953408,43.461334,4.9018316,7.403041,0.19021556,-0.3549928,0.2608198,-0.78648084,-0.50000364,-0.67549247,0.7970198,-0.63170236,0.55038303,0.3346835,0.5946822,-0.963424,-2.0546265,-0.9634045,1.901927,1.7331821,-0.84560007,0.6590891,-0.9219409,-1.9980577,-1.0278572,1.9559305,1.6865361,-0.8770514,-1.434489,-0.84347785,-1.1399242,1.488794,-0.8983962,0.8156645,0.20260431,-0.17757225,-0.57878494,0.7841748,-1.8418272,0.30183017,-0.71996397,-0.19752502,-0.5719948,0.74858695,0.92187476,-0.002154117,0.1989209,0.3325245,-1.5321434,0.15888818,-0.41506755,0.0,1.0,0.0,0.0,0.0,0.0,0.0,-0.47242773,0.17878494,-0.23417479,-4.1560173,3.29113,-16.75129,-14.442635,7.347703,-9.445869,0.3404081
-13.372366,28.19037,1.2259941,5.9705534,0.26583377,-0.47373593,0.29039052,-0.8012386,-0.5614062,-0.7343381,0.7876237,-0.6475224,0.5561976,0.39346227,0.57896525,-0.9780815,-2.0714915,-0.94909483,1.8911783,1.7421558,-0.8377052,0.64459705,-0.93065274,-2.0104709,-1.0136703,1.9471204,1.6941178,-0.8749333,-1.4540011,-0.88082445,-1.2749133,1.395826,-0.87579674,0.7386569,0.21459414,-0.19597626,-0.57577133,0.7762361,-1.8399856,0.3015284,-0.81849533,-0.21295547,-0.5705185,0.7438372,0.9255376,0.000851074,0.20328812,0.31945786,-1.5431409,0.15684204,-0.49761567,0.0,1.0,0.0,0.0,0.0,0.0,0.0,-0.45402372,0.17577133,-0.2262361,-1.8961191,-3.8423538,-13.432193,-9.1293335,2.0522118,-7.8540087,1.1095583
-10.5618,30.104042,3.5302854,7.1961126,0.45695242,-0.24815214,0.2844411,-0.8029682,-0.5741772,-0.74374306,0.7821279,-0.657046,0.59517276,0.43081442,0.56430024,-0.9880705,-2.084845,-0.9354575,1.8814158,1.753635,-0.83185184,0.6300335,-0.93992245,-2.0238147,-1.0000385,1.9383066,1.7010624,-0.8726693,-1.4564124,-0.9423804,-1.3623543,1.3486518,-0.8996171,0.6733517,0.22817981,-0.2143631,-0.5727577,0.7673128,-1.8798927,0.42030165,-0.5608427,-0.22849083,-0.56902695,0.73835224,0.92899185,0.0050191814,0.20739548,0.3064899,-1.5508943,0.15891898,-0.5718699,0.0,1.0,0.0,0.0,0.0,0.0,0.0,-0.43563688,0.17275771,-0.21731281,-0.14033318,-6.2333226,-9.451151,-4.934907,-4.1858554,-7.2750926,1.1161536
-8.802521,39.448612,7.402588,9.573669,0.63355327,0.061599135,0.25398016,-0.80854386,-0.57450336,-0.7550701,0.7751203,-0.6820021,0.59732157,0.45181218,0.5491791,-0.9973728,-2.0993216,-0.9225265,1.8701063,1.7607946,-0.82748806,0.6154852,-0.9497587,-2.0377343,-0.98664874,1.9290525,1.7074257,-0.87027454,-1.4542896,-0.9978771,-1.4001774,1.336711,-0.9339577,0.623766,0.24324867,-0.23324776,-0.56817627,0.7621887,-1.8867594,0.46262705,-0.5217457,-0.2440548,-0.56742096,0.7322663,0.9321946,0.010168404,0.21140994,0.2936248,-1.5544707,0.1742537,-0.62290144,0.0,1.0,0.0,0.0,0.0,0.0,0.0,-0.41675222,0.16817626,-0.21218866,0.20120144,-5.7054877,-3.3098936,-0.91342926,-3.3586025,-5.024636,1.5188873
-7.8831735,50.82253,11.16225,11.929245,0.7722255,0.35576898,0.2249797,-0.8153312,-0.5698059,-0.76810646,0.7654929,-0.69734603,0.59595776,0.4690803,0.53395206,-1.0067393,-2.1145449,-0.91009945,1.8593179,1.7670215,-0.8233665,0.60094184,-0.95998394,-2.0518305,-0.9732726,1.9194633,1.7133758,-0.86772436,-1.4544598,-1.0312804,-1.4112959,1.3384721,-0.96878797,0.58469784,0.2587146,-0.25187874,-0.563427,0.7568315,-1.8567799,0.478669,-0.54372144,-0.2596016,-0.56557846,0.72583216,0.9351347,0.01595428,0.21535316,0.28087607,-1.5511812,0.2017664,-0.6528237,0.0,1.0,0.0,0.0,0.0,0.0,0.0,-0.39812124,0.16342697,-0.20683151,-0.06289482,-3.5189152,-0.6860018,0.3058672,-3.9366126,-4.0989637,1.4670372
-6.7697625,59.47416,14.041838,13.395868,0.9566159,0.58923805,0.21338935,-0.8187537,-0.57472855,-0.7644347,0.75452244,-0.6950962,0.6060804,0.47074908,0.51906645,-1.0174568,-2.128274,-0.89782035,1.8499537,1.7739838,-0.82064945,0.5863755,-0.9704181,-2.0658696,-0.9598695,1.9096261,1.719005,-0.8650321,-1.4576752,-1.0481045,-1.3994441,1.3411618,-0.9905997,0.55489755,0.27243575,-0.27015686,-0.5584984,0.7513696,-1.8197049,0.49695745,-0.55063903,-0.27507782,-0.56339264,0.7192148,0.9378031,0.022182392,0.21924515,0.2682627,-1.5423166,0.23793224,-0.66730404,0.0,1.0,0.0,0.0,0.0,0.0,0.0,-0.37984312,0.15849838,-0.20136958,-0.40912628,-1.8789291,1.7157793,0.344944,-2.7284145,-3.1894565,1.2829125
-4.444383,65.454254,16.07713,13.9253235,1.0508374,0.7076207,0.22050783,-0.81158805,-0.5782457,-0.75695544,0.7567613,-0.6860179,0.6229998,0.49936408,0.50521666,-1.0282427,-2.141565,-0.88419336,1.8410244,1.781305,-0.81509566,0.5718081,-0.9809352,-2.0797062,-0.9464295,1.8996718,1.7243952,-0.86219704,-1.4569275,-1.0535707,-1.376332,1.3451133,-0.99925745,0.532823,0.28677356,-0.2880249,-0.5533867,0.74590355,-1.7771399,0.51528805,-0.5482745,-0.29042435,-0.56082916,0.7125286,0.94019645,0.028699787,0.2230723,0.2558235,-1.5273389,0.27761754,-0.67161983,0.0,1.0,0.0,0.0,0.0,0.0,0.0,-0.36197507,0.15338668,-0.19590354,-0.05030632,-0.74875355,2.916479,0.41897297,-1.4716983,-2.4275541,1.3347089
-6.494438,62.33713,14.33135,13.487928,1.0630795,0.66000736,0.21279544,-0.8240525,-0.59876883,-0.769201,0.74201167,-0.6988533,0.5899727,0.47591916,0.48940283,-1.0408121,-2.1566262,-0.8722283,1.8297864,1.7833924,-0.8146051,0.557196,-0.9915477,-2.0933843,-0.9330231,1.8896443,1.7295722,-0.8592519,-1.46295,-1.0645013,-1.3629887,1.3393068,-1.0059209,0.5118522,0.296875,-0.3054943,-0.5481148,0.7403886,-1.7382797,0.53107285,-0.555464,-0.3056507,-0.5578728,0.70574135,0.942329,0.035518542,0.22679736,0.24355139,-1.516308,0.31553948,-0.683762,0.0,1.0,0.0,0.0,0.0,0.0,0.0,-0.34450567,0.14811477,-0.19038856,-0.7046938,-1.2880802,1.8982887,-0.5243063,-1.2477875,-2.330184,0.9228349
-3.4879653,69.75027,16.6095,14.243684,1.100019,0.7537056,0.217949,-0.809887,-0.57595295,-0.7580061,0.75438446,-0.69043654,0.6185631,0.5309434,0.47620732,-1.049143,-2.169185,-0.85758466,1.8206006,1.7914284,-0.8061576,0.5425886,-1.0021417,-2.1069303,-0.9196308,1.8796047,1.7345891,-0.8561801,-1.4604965,-1.0583447,-1.3492849,1.3391511,-1.0056702,0.4974125,0.3102168,-0.32252693,-0.5426903,0.7348772,-1.6926082,0.5462154,-0.55201924,-0.3207054,-0.55451584,0.69891787,0.94419396,0.04258556,0.2304522,0.23146471,-1.4966433,0.3555714,-0.68435335,0.0,1.0,0.0,0.0,0.0,0.0,0.0,-0.32747304,0.14269027,-0.18487722,0.098228455,0.4130602,2.0198822,-0.027608871,-0.620389,-1.6838193,1.2150288
-3.7871904,60.472183,13.657251,12.170772,1.0292228,0.5900129,0.23676175,-0.8090625,-0.62201375,-0.7588837,0.74739456,-0.69103223,0.60171056,0.5076605,0.46168235,-1.0643431,-2.1828187,-0.84489137,1.8105015,1.7947601,-0.805414,0.5280223,-1.0128629,-2.1203818,-0.9062604,1.8695806,1.7394704,-0.85300237,-1.455651,-1.0773966,-1.3420185,1.3365469,-1.0031794,0.4841127,0.32003936,-0.33916283,-0.5371399,0.72926587,-1.6546737,0.5573371,-0.56622505,-0.33560944,-0.55081177,0.6919684,0.94580954,0.04991088,0.23395652,0.21958493,-1.4832134,0.38863584,-0.7009968,0.0,1.0,0.0,0.0,0.0,0.0,0.0,-0.31083715,0.13713989,-0.17926586,0.37267208,-2.0814419,1.2828827,-0.21438599,-0.30481815,-1.5758991,0.9040296
-2.972855,69.48072,15.747492,13.784046,1.0850728,0.70443,0.22537817,-0.8081488,-0.5797557,-0.76307803,0.74712896,-0.6899605,0.5869672,0.5568987,0.4472074,-1.0708385,-2.1966896,-0.8315475,1.8005846,1.7981671,-0.7973125,0.5135064,-1.0235822,-2.1338139,-0.8929176,1.8595906,1.7442257,-0.84970456,-1.4507499,-1.0708611,-1.3414922,1.3335028,-0.9999174,0.47179964,0.33259714,-0.35536575,-0.5314865,0.7235971,-1.6097202,0.5679718,-0.5688304,-0.35032654,-0.5467529,0.68494815,0.947168,0.05749649,0.2373626,0.20790823,-1.4620322,0.42519903,-0.7048966,0.0,1.0,0.0,0.0,0.0,0.0,0.0,-0.29463422,0.1314865,-0.1735971,0.33967495,0.4598379,0.7028341,-0.32348633,-0.31843185,-1.4856994,1.1302292
-1.6100457,72.642075,16.752075,14.299999,1.2200565,0.7677259,0.22045676,-0.8019364,-0.5828738,-0.738005,0.75343937,-0.6706015,0.61015075,0.58378273,0.43331277,-1.0818696,-2.2076144,-0.81757367,1.7925305,1.8052409,-0.7913263,0.49905643,-1.0342195,-2.1471465,-0.87957186,1.8496892,1.7488909,-0.8462723,-1.4436074,-1.0618378,-1.3282025,1.3348562,-0.989315,0.4637707,0.34639457,-0.3711033,-0.52573776,0.7179263,-1.5622922,0.57714087,-0.56747335,-0.36480904,-0.5423126,0.6779381,0.94827324,0.06525373,0.24068107,0.19644943,-1.4383322,0.462772,-0.7019073,0.0,1.0,0.0,0.0,0.0,0.0,0.0,-0.2788967,0.12573776,-0.16792631,0.5425215,0.70786476,2.0351648,0.09036064,0.37292242,-1.0680258,1.257664
-0.7576709,75.22479,17.22393,14.594425,1.2592194,0.7888534,0.21864715,-0.79797024,-0.57346845,-0.7364064,0.74905926,-0.6646343,0.6032223,0.59520763,0.4192594,-1.0915663,-2.220787,-0.8046659,1.7832258,1.8092132,-0.7867515,0.48468274,-1.0447233,-2.1603453,-0.8662268,1.8399044,1.7534859,-0.84270704,-1.4359004,-1.0470065,-1.3143098,1.334167,-0.97722137,0.45687392,0.35955548,-0.38636017,-0.51992035,0.7122788,-1.5130281,0.58431804,-0.5645171,-0.37904358,-0.5375023,0.6709832,0.9491304,0.07313637,0.24391954,0.18521826,-1.4115654,0.49971583,-0.69529724,0.0,1.0,0.0,0.0,0.0,0.0,0.0,-0.2636398,0.11992034,-0.16227877,0.584054,1.2887955,2.1335125,-0.13792515,0.48855543,-0.97881556,1.1858702
-0.5019417,70.54015,15.606666,13.342436,1.1583774,0.66383165,0.2393814,-0.7923852,-0.5873977,-0.74154,0.74314564,-0.6697615,0.54620093,0.5972206,0.4054442,-1.103463,-2.2344992,-0.7919122,1.7729282,1.8081061,-0.782985,0.4703957,-1.0551641,-2.1734524,-0.8529154,1.8302059,1.7579778,-0.8390222,-1.426879,-1.0436051,-1.3072394,1.3299915,-0.96952486,0.44545132,0.3710957,-0.4011593,-0.51405716,0.70658094,-1.467955,0.58855784,-0.5717186,-0.39301872,-0.5323601,0.6640258,0.9497487,0.08119205,0.24704328,0.17422614,-1.3867126,0.5311855,-0.6978176,0.0,1.0,0.0,0.0,0.0,0.0,0.0,-0.24884069,0.11405715,-0.15658092,0.73251724,0.16067028,1.4027119,-0.45807362,0.14938116,-1.4890671,1.0747731
-1.1706209,69.888985,14.835209,13.200009,1.1275756,0.6261009,0.24555993,-0.7923674,-0.5784347,-0.7487566,0.7338444,-0.6679741,0.51356065,0.60660654,0.39115897,-1.1130075,-2.248328,-0.77953094,1.7634085,1.8093339,-0.77836156,0.4561788,-1.065563,-2.1865559,-0.83968884,1.8205658,1.7623369,-0.83522964,-1.4204841,-1.0392447,-1.3093092,1.3200903,-0.96442574,0.43161055,0.3816213,-0.41552162,-0.50816345,0.70077467,-1.4245157,0.590909,-0.58339334,-0.40675163,-0.5269165,0.65702015,0.95013183,0.08948551,0.25003842,0.16347021,-1.3622253,0.56091005,-0.7034561,0.0,1.0,0.0,0.0,0.0,0.0,0.0,-0.23447835,0.108163446,-0.15077466,0.4746914,0.2601385,0.48065186,-1.0272741,-0.10534525,-1.7462969,0.9744525
-0.2301178,69.866066,14.746083,12.943727,1.1631509,0.61547804,0.2522717,-0.78488404,-0.5779407,-0.7396952,0.7303496,-0.6492321,0.50608855,0.6186476,0.3776904,-1.123357,-2.2605255,-0.7666539,1.7556427,1.8129457,-0.7733649,0.44203818,-1.0759332,-2.1996593,-0.8265691,1.8110135,1.7665628,-0.83133495,-1.4125133,-1.0367202,-1.3087564,1.3091065,-0.9542969,0.41835684,0.3916989,-0.4294548,-0.5022621,0.69483185,-1.3816508,0.5914064,-0.59720904,-0.42023277,-0.5211792,0.6499569,0.95029014,0.098006524,0.25287554,0.1529619,-1.3370506,0.5891211,-0.70905274,0.0,1.0,0.0,0.0,0.0,0.0,0.0,-0.22054517,0.10226211,-0.14483184,0.6255865,0.08363724,0.7572174,-1.1499643,0.34387112,-1.6493678,0.9053767
3.30509,72.90398,16.322886,13.275114,1.3951042,0.66930014,0.22505587,-0.7659824,-0.5779841,-0.69905233,0.7490426,-0.6000254,0.517637,0.64093286,0.36543995,-1.1337316,-2.2695646,-0.7516648,1.7510109,1.8183265,-0.76724166,0.42804584,-1.0862882,-2.2125678,-0.81345206,1.8016989,1.770679,-0.8273343,-1.3954706,-1.0356443,-1.2824333,1.3123367,-0.9261736,0.4081376,0.40268803,-0.44294167,-0.49637222,0.6887953,-1.3359678,0.58990484,-0.6045976,-0.4334488,-0.5151596,0.642921,0.95025986,0.1065784,0.2554956,0.1427203,-1.3089844,0.6169354,-0.70344126,0.0,1.0,0.0,0.0,0.0,0.0,0.0,-0.20705831,0.09637222,-0.13879532,1.502204,-0.05528927,3.4050703,0.23133755,2.0949483,-1.2879789,0.99553466
6.162305,71.417564,16.401937,12.260557,1.4339055,0.6008556,0.23588789,-0.7538947,-0.5904946,-0.6737756,0.7420644,-0.57023335,0.4373706,0.63897234,0.35265636,-1.1453377,-2.2799454,-0.73924565,1.7446756,1.814416,-0.76343703,0.41426042,-1.0966985,-2.225094,-0.8003065,1.7927355,1.7746462,-0.82323456,-1.3736157,-1.0432473,-1.2401631,1.3148792,-0.88865894,0.3917812,0.41224015,-0.4559784,-0.49050903,0.68265927,-1.2912712,0.5858656,-0.61483204,-0.44636917,-0.5088997,0.6359389,0.9500862,0.11508005,0.2578053,0.1327746,-1.2798729,0.6401733,-0.6980085,0.0,1.0,0.0,0.0,0.0,0.0,0.0,-0.19402158,0.09050903,-0.13265926,1.9783735,-0.9094238,5.0091743,0.15461445,3.018093,-1.9505799,0.89101195
8.935078,74.96923,17.583935,12.238272,1.5488766,0.58843195,0.2418854,-0.7439188,-0.5779821,-0.63871396,0.72645694,-0.51838905,0.31642497,0.64559877,0.33986855,-1.1544968,-2.2889655,-0.7276608,1.7408966,1.8062887,-0.7586747,0.4007,-1.1071297,-2.237083,-0.7872105,1.7842526,1.778371,-0.8190452,-1.3509439,-1.0435117,-1.1823856,1.3073074,-0.83730537,0.36495766,0.42099535,-0.46854973,-0.48470688,0.6764514,-1.2437189,0.57902765,-0.6208151,-0.45897675,-0.50242233,0.62906635,0.94981223,0.123425655,0.25972334,0.12315217,-1.2466356,0.6605486,-0.6851644,0.0,1.0,0.0,0.0,0.0,0.0,0.0,-0.18145025,0.08470687,-0.12645137,2.0369291,-0.1699686,6.6230297,-0.8981943,4.333687,-2.995348,0.8143604
11.775623,84.48163,19.981833,13.71697,1.7359335,0.64391756,0.22598386,-0.7307939,-0.5489134,-0.59618974,0.7157523,-0.48299283,0.22685105,0.65425706,0.32762063,-1.162021,-2.296702,-0.7156353,1.7359533,1.801056,-0.7536195,0.3873714,-1.1174141,-2.2483926,-0.77425265,1.7763165,1.7817771,-0.8147737,-1.3276793,-1.0237412,-1.1107236,1.2912887,-0.78184193,0.331447,0.42902222,-0.48059273,-0.47899628,0.67025805,-1.1885297,0.56840557,-0.6157797,-0.4711933,-0.4957466,0.62242997,0.94946265,0.13152963,0.2612581,0.11386333,-1.2057832,0.67921335,-0.65775543,0.0,1.0,0.0,0.0,0.0,0.0,0.0,-0.16940725,0.07899627,-0.12025803,2.0571947,1.8271446,8.1350565,-1.8060923,4.6179056,-3.6620677,0.7147908
19.787966,85.8171,22.097813,11.808636,1.9765037,0.6019453,0.26222086,-0.70543885,-0.55904275,-0.48308644,0.68332845,-0.33665502,0.07716633,0.6486961,0.3168275,-1.1733184,-2.2967012,-0.7059198,1.742651,1.7894938,-0.74990404,0.37433413,-1.1275402,-2.2585924,-0.7615962,1.7692734,1.784762,-0.81043285,-1.29673,-1.0093204,-0.9867442,1.2561643,-0.6815209,0.28656924,0.43564305,-0.4920578,-0.473423,0.6641525,-1.1304584,0.5536235,-0.6062178,-0.48295593,-0.48893738,0.6161402,0.94914293,0.13911155,0.2622047,0.10499691,-1.1595861,0.6910883,-0.62076646,0.0,1.0,0.0,0.0,0.0,0.0,0.0,-0.15794218,0.073423,-0.11415249,2.7971983,1.3175011,13.435162,-3.770256,9.034836,-4.793799,0.6192148
28.83846,85.28045,23.691095,8.996805,2.0643942,0.43277177,0.32333517,-0.67518055,-0.55876505,-0.38231197,0.6355158,-0.19165364,-0.20749682,0.6529185,0.30681607,-1.1834167,-2.2968235,-0.6980446,1.750108,1.7640123,-0.745141,0.36168644,-1.1375576,-2.2672584,-0.74948144,1.7635566,1.7871205,-0.80603015,-1.2551305,-0.9995892,-0.8235225,1.1955552,-0.5383347,0.21814494,0.44174904,-0.5029278,-0.46802902,0.6581558,-1.070301,0.53342336,-0.59430635,-0.49422264,-0.48209,0.6102551,0.9489907,0.1459081,0.2622643,0.096668094,-1.1083269,0.69105244,-0.5790209,0.0,1.0,0.0,0.0,0.0,0.0,0.0,-0.1470722,0.068029016,-0.10815579,3.8476467,0.87587833,17.382454,-6.3622713,13.290882,-7.1121006,0.5884409
42.73006,90.642685,28.486803,6.1938086,2.661655,0.5055181,0.38258085,-0.6460991,-0.5501284,-0.15017918,0.5458695,0.113367446,-0.37674117,0.65538436,0.29707652,-1.1925704,-2.2822764,-0.6948945,1.7748934,1.7494464,-0.74049175,0.34951332,-1.1474794,-2.2734983,-0.73831856,1.7600015,1.7887155,-0.8015692,-1.205864,-0.9897545,-0.5536087,1.0886086,-0.29808718,0.13918103,0.44761539,-0.5131302,-0.462883,0.6523953,-1.0017542,0.50740623,-0.56697476,-0.50489044,-0.47528076,0.6049631,0.9492483,0.15128471,0.26097032,0.08907863,-1.0465552,0.6847102,-0.5134933,0.0,1.0,0.0,0.0,0.0,0.0,0.0,-0.13686979,0.06288299,-0.102395296,4.5812607,0.9111643,28.166008,-11.068177,22.897184,-8.141104,0.6153405
54.72467,93.53041,33.658375,3.4132376,3.56165,0.798881,0.42358503,-0.6469726,-0.5803013,0.25966415,0.43008152,0.38102093,-0.47770903,0.6412785,0.28481606,-1.2055095,-2.247532,-0.6953104,1.7981037,1.7409446,-0.73744136,0.33772826,-1.1574701,-2.275523,-0.7286254,1.7593764,1.789514,-0.7970637,-1.1704437,-1.0024865,-0.081317425,0.92834777,0.012296201,0.059580464,0.45185238,-0.52258873,-0.45802307,0.6470377,-0.9255897,0.47800276,-0.52284247,-0.5148716,-0.46852112,0.6005384,0.9502535,0.15419792,0.25774893,0.08250233,-0.9761769,0.6806409,-0.41998723,0.0,1.0,0.0,0.0,0.0,0.0,0.0,-0.12741125,0.058023065,-0.09703767,3.22783,-1.3356328,48.464893,-16.376698,29.863497,-8.127887,0.519979
47.07896,96.97095,33.313107,7.6173997,4.243624,0.8556206,0.22056499,-0.645742,-0.57329863,0.43683097,0.41543025,0.56397265,-0.5450557,0.6567425,0.27315405,-1.2148,-2.23184,-0.6870824,1.8157737,1.7350084,-0.73138946,0.32618546,-1.1675829,-2.2726429,-0.7203447,1.7619567,1.7895479,-0.7925128,-1.1494633,-1.0145297,0.4140561,0.7939755,0.3369657,-0.015664726,0.4564171,-0.5313053,-0.45344543,0.6421781,-0.8530124,0.45098498,-0.4726059,-0.5242634,-0.46169662,0.59714556,0.95214766,0.15416814,0.25247264,0.07684135,-0.92196774,0.6891741,-0.31394562,0.0,1.0,0.0,0.0,0.0,0.0,0.0,-0.11869466,0.05344543,-0.09217811,1.9238234,-1.30198,50.51412,-13.611913,31.56069,-7.6128974,0.53954124
53.47942,93.78385,31.465347,4.9915433,3.1944592,0.5520342,0.27886093,-0.5633118,-0.5574295,0.49776515,0.35762173,0.6134607,-0.5161099,0.63367355,0.26985428,-1.2233258,-2.2228663,-0.68458253,1.8233027,1.737937,-0.7291454,0.3151405,-1.1777242,-2.2656453,-0.71328753,1.7673362,1.7889416,-0.7879423,-1.0898861,-1.0144814,0.7976543,0.67618966,0.6026253,-0.07537737,0.45728374,-0.53925896,-0.44919586,0.6378263,-0.77684885,0.41629037,-0.42355022,-0.5330429,-0.4549446,0.5946415,0.9547659,0.1515254,0.24550743,0.07202848,-0.86007774,0.6770522,-0.2310731,0.0,1.0,0.0,0.0,0.0,0.0,0.0,-0.11074102,0.049195856,-0.08782631,5.8499336,-0.117993355,39.12892,-11.835456,25.905598,-5.928564,0.08298159
52.478584,96.34547,29.215431,5.4709806,2.2294953,0.35537702,0.31178546,-0.5159138,-0.509122,0.5433518,0.29806432,0.656079,-0.43951845,0.633161,0.26354912,-1.2286365,-2.2113101,-0.6834811,1.8329442,1.7449898,-0.7246262,0.30485272,-1.1876081,-2.2558994,-0.70730907,1.7748454,1.7878834,-0.7833683,-1.0086272,-0.98007464,1.0354306,0.5720136,0.7987637,-0.11544248,0.45734408,-0.54641914,-0.4453392,0.63399094,-0.6976077,0.37638077,-0.37284955,-0.5411587,-0.44840622,0.59283197,0.95781255,0.14694788,0.23743938,0.06800025,-0.79335374,0.65207726,-0.16645989,0.0,1.0,0.0,0.0,0.0,0.0,0.0,-0.10358083,0.045339197,-0.08399093,8.072066,3.3061147,24.310589,-10.341334,19.21872,-3.8378522,-0.016129017
57.576237,88.06308,25.828812,-2.0293427,0.574966,0.19514745,0.73117006,-0.49859914,-0.46401685,0.60776275,0.03947715,0.7046118,-0.40203342,0.62333435,0.2549928,-1.2340099,-2.1951232,-0.70336133,1.8453065,1.7476801,-0.7210349,0.2953275,-1.1969293,-2.2445643,-0.70325893,1.7838904,1.7865276,-0.7788002,-0.9339895,-0.916532,1.1671355,0.34989557,0.93876016,-0.14126237,0.4565447,-0.55277634,-0.44192123,0.630558,-0.6180634,0.33154806,-0.3380309,-0.5484543,-0.44228745,0.59135306,0.9610376,0.14117368,0.22857341,0.06504467,-0.706894,0.6038743,-0.14420229,0.0,1.0,0.0,0.0,0.0,0.0,0.0,-0.09722364,0.04192123,-0.080558,7.410431,6.213391,13.453603,-22.07685,13.838077,-2.241537,-0.080925226
68.23868,55.700012,18.903627,-17.75797,-1.5484209,-0.20354345,1.3488249,-0.47255823,-0.50426495,0.66937906,-0.27390453,0.7526055,-0.36932662,0.60323733,0.24807169,-1.2473558,-2.1776264,-0.7306494,1.8591509,1.7495949,-0.7184765,0.28647074,-1.205871,-2.2323415,-0.7026098,1.7940307,1.7849884,-0.7742521,-0.8698451,-0.8873274,1.2410027,-0.029530244,1.0386808,-0.15687001,0.45443085,-0.55844307,-0.43896103,0.6270955,-0.55238813,0.2856478,-0.35384178,-0.5547638,-0.43691635,0.589515,0.96431464,0.13483472,0.218748,0.06376673,-0.6055621,0.52091676,-0.19951749,0.0,1.0,0.0,0.0,0.0,0.0,0.0,-0.09155691,0.038961023,-0.07709551,6.341183,2.7615786,7.4920654,-37.785866,9.949946,-1.1387348,-0.14185905
65.73611,28.235828,12.028452,-24.125322,-2.417111,-0.5666516,1.4703028,-0.43703267,-0.5725609,0.6933782,-0.39085016,0.7677862,-0.2593919,0.5820356,0.24276747,-1.2631271,-2.1630037,-0.7416948,1.8708093,1.7590492,-0.71604854,0.27822295,-1.2149881,-2.2196782,-0.7057897,1.8048784,1.7833985,-0.76973724,-0.80986136,-0.92057997,1.2747931,-0.41338432,1.0998957,-0.15865928,0.45106092,-0.5636139,-0.436409,0.62312895,-0.50787735,0.24628536,-0.41592497,-0.5601578,-0.4324417,0.58673185,0.9675738,0.12832855,0.20781463,0.064386174,-0.5178665,0.4268686,-0.30667353,0.0,1.0,0.0,0.0,0.0,0.0,0.0,-0.086386085,0.03640899,-0.07312894,5.963576,-3.4926772,3.360176,-38.158066,6.1316013,0.1327157,-0.15983582
43.021885,17.883404,6.468206,-17.735428,-1.8330996,-0.66345316,1.124883,-0.4429424,-0.61713976,0.6766242,-0.42908484,0.7724285,-0.19989528,0.58414084,0.23392871,-1.276702,-2.1520157,-0.7486982,1.8821212,1.763409,-0.71132314,0.2703747,-1.224748,-2.2069833,-0.7120907,1.8160892,1.7818387,-0.76525116,-0.7763812,-0.9947258,1.2673043,-0.70136267,1.128005,-0.15483098,0.44857895,-0.5685539,-0.43408203,0.61835116,-0.49080718,0.22974205,-0.50053036,-0.56495476,-0.42872238,0.5827711,0.9707477,0.121913046,0.19585522,0.06653356,-0.4667188,0.3568269,-0.42707402,0.0,1.0,0.0,0.0,0.0,0.0,0.0,-0.08144605,0.034082025,-0.06835115,3.374827,-7.5571537,-0.8874655,-28.509748,2.8502703,0.5001366,0.011450052
18.298826,37.523804,7.639487,-2.090425,-0.32049876,-0.32417282,0.50976944,-0.43781787,-0.59923095,0.66465235,-0.3926688,0.7592783,-0.035729766,0.5888605,0.2265929,-1.2846711,-2.1405182,-0.75135756,1.892017,1.7782657,-0.7063651,0.26272956,-1.2351125,-2.1945486,-0.72009486,1.8274136,1.780448,-0.760783,-0.76016426,-1.0506158,1.2340587,-0.8323737,1.1346673,-0.13356441,0.4471859,-0.5732689,-0.43198013,0.61281127,-0.46625778,0.20536256,-0.5716559,-0.5694618,-0.42539215,0.57792914,0.9737559,0.11560427,0.18331888,0.069493145,-0.44425595,0.3271691,-0.5041305,0.0,1.0,0.0,0.0,0.0,0.0,0.0,-0.076731086,0.031980127,-0.062811255,1.7321706,-5.6394815,-3.6881685,-12.79093,0.88939667,2.2111237,0.15480518
28.572464,53.43627,13.003951,1.3857471,-0.050196633,-0.25738612,0.2664256,-0.3258266,-0.62118465,0.6796111,-0.3787348,0.7590341,0.14314166,0.56326556,0.2301469,-1.297231,-2.1265874,-0.75796837,1.903317,1.7947621,-0.70445645,0.25566855,-1.2459673,-2.182395,-0.728528,1.8387334,1.7794044,-0.7563482,-0.6875852,-1.0971379,1.2074248,-0.84591836,1.132565,-0.09395216,0.44319096,-0.5777054,-0.43008804,0.60684913,-0.43618184,0.1834506,-0.6040521,-0.5736866,-0.42241287,0.57257694,0.97654676,0.10919172,0.1706479,0.0728893,-0.4140997,0.29080996,-0.5460956,0.0,1.0,0.0,0.0,0.0,0.0,0.0,-0.07229459,0.030088037,-0.056849122,7.399249,-4.644346,-3.0732155,-1.0500908,0.21634102,4.1694613,-0.10933876
31.49641,63.446552,16.057053,4.8779445,0.26894042,-0.21117893,0.045931563,-0.26463464,-0.64819735,0.67381907,-0.3332995,0.75687927,0.27098784,0.52096975,0.22920509,-1.310787,-2.1150131,-0.761858,1.9144213,1.8065032,-0.7042512,0.2495679,-1.257255,-2.1704738,-0.7364386,1.8500075,1.7788393,-0.7519841,-0.5837413,-1.138998,1.1857475,-0.771811,1.1274089,-0.043249957,0.4350462,-0.5818176,-0.42842865,0.60071886,-0.40286577,0.159874,-0.61514586,-0.5776291,-0.41978836,0.56697994,0.97910196,0.10248101,0.1581416,0.076473884,-0.3857817,0.25511712,-0.5644084,0.0,1.0,0.0,0.0,0.0,0.0,0.0,-0.06818235,0.028428644,-0.050718844,10.536921,-4.1410923,-2.5607347,7.6993823,-0.035858154,5.3326206,-0.55383444
39.472416,69.96284,18.78051,3.9468656,0.07968059,-0.2322906,0.06538364,-0.19820757,-0.6568775,0.6772382,-0.33775964,0.75037634,0.3067735,0.5120806,0.22974715,-1.3229427,-2.10275,-0.77021456,1.9250451,1.8095167,-0.70077604,0.24466383,-1.2688726,-2.158682,-0.7435166,1.8612186,1.778774,-0.747704,-0.45878562,-1.1691483,1.1758556,-0.68544006,1.1207299,0.0067358385,0.4264647,-0.58556366,-0.42703247,0.59458506,-0.3652377,0.13250509,-0.6115076,-0.5812168,-0.4175949,0.56129265,0.9814143,0.09537759,0.14592715,0.08021315,-0.3485698,0.20977531,-0.57053345,0.0,1.0,0.0,0.0,0.0,0.0,0.0,-0.06443632,0.027032465,-0.04458505,12.650937,-2.9734135,-1.3468504,8.941364,-0.18174648,5.3025045,-0.6094992
21.534437,72.00859,17.147913,9.242776,0.67540795,-0.06493685,-0.07130536,-0.21991654,-0.6658359,0.6686453,-0.32128125,0.7473043,0.2681329,0.5168948,0.22267218,-1.3354563,-2.0918176,-0.7756448,1.935949,1.8055873,-0.6960145,0.240656,-1.2807192,-2.146967,-0.7497908,1.8723536,1.7791245,-0.7434992,-0.38091135,-1.1896658,1.1685426,-0.6070545,1.1128222,0.04526851,0.41936335,-0.5889969,-0.4258499,0.58847344,-0.33584014,0.11400126,-0.6101775,-0.5845623,-0.4156685,0.5555791,0.98349553,0.08793174,0.1339989,0.08395744,-0.32907552,0.1884278,-0.5724356,0.0,1.0,0.0,0.0,0.0,0.0,0.0,-0.06100309,0.025849909,-0.038473427,7.9532623,-2.0029545,-1.1384726,8.146095,-0.29108524,4.1161137,-0.45064092
9.24241,80.713135,17.823385,14.300026,1.1580548,0.14857644,-0.17846742,-0.20539664,-0.64428866,0.66652274,-0.2829147,0.745151,0.2685713,0.5312232,0.22011635,-1.3451481,-2.0803146,-0.77808225,1.9468687,1.8059816,-0.6903769,0.23718177,-1.292581,-2.135309,-0.7553202,1.883418,1.7798058,-0.73934597,-0.33563343,-1.1849542,1.1632533,-0.53394336,1.1061593,0.07690285,0.41480717,-0.59215355,-0.42481232,0.5824697,-0.309413,0.10013137,-0.5964169,-0.5877819,-0.41381454,0.54996395,0.9853549,0.08019662,0.12239613,0.08754071,-0.31814247,0.18535773,-0.55898887,0.0,1.0,0.0,0.0,0.0,0.0,0.0,-0.057846427,0.024812311,-0.03246969,4.713464,0.54035187,-1.0252476,7.6213717,-0.08649826,3.4636111,-0.20065308
15.27532,80.8301,18.631634,11.177828,0.7564151,0.08836095,-0.048337717,-0.14828345,-0.64611244,0.66889125,-0.29226336,0.74623334,0.27163708,0.52549726,0.22235343,-1.3571922,-2.06842,-0.78454655,1.9580413,1.8069695,-0.68679625,0.23419248,-1.3043455,-2.1236703,-0.76037276,1.8944383,1.7807631,-0.7352337,-0.28608945,-1.1735743,1.1623888,-0.49465188,1.1022829,0.10297761,0.41084018,-0.59502983,-0.4239273,0.5766235,-0.28099176,0.08491969,-0.5805373,-0.5908184,-0.41207504,0.5444687,0.98699415,0.072202586,0.11108374,0.09104742,-0.29815227,0.17244741,-0.5476949,0.0,1.0,0.0,0.0,0.0,0.0,0.0,-0.054970145,0.023927301,-0.026623487,5.133587,1.186347,-0.54466724,4.2545023,0.1563549,2.9172256,-0.14366508
-0.4592244,80.624214,16.462284,14.158284,1.0200229,0.23729157,-0.07327021,-0.19986664,-0.6217889,0.63396525,-0.32776678,0.7466816,0.21692115,0.5302746,0.21420582,-1.3665243,-2.060274,-0.7931494,1.9691064,1.8024553,-0.6822063,0.23131692,-1.3158792,-2.1121924,-0.765394,1.9054303,1.7819008,-0.731152,-0.2874167,-1.1463495,1.1410491,-0.50362116,1.1000127,0.11837459,0.4081498,-0.5976734,-0.42314148,0.5708916,-0.25925377,0.076769926,-0.57127756,-0.593729,-0.4103241,0.53905153,0.9884163,0.06411569,0.099989906,0.09446824,-0.28826493,0.17773932,-0.5409847,0.0,1.0,0.0,0.0,0.0,0.0,0.0,-0.05232656,0.023141474,-0.020891607,0.051635504,2.781558,-2.6934147,-0.57502985,0.37286282,1.8291965,0.0009775162
4.017149,88.27533,18.84928,13.793421,0.7823482,0.22921672,-0.026363913,-0.15735325,-0.5826541,0.62613803,-0.3056481,0.7344061,0.19527046,0.5511374,0.2155816,-1.3741447,-2.0495787,-0.79595876,1.9788709,1.8014278,-0.67603827,0.2285007,-1.3269819,-2.1009657,-0.7705276,1.9163791,1.7831504,-0.7270779,-0.27906635,-1.0979707,1.1147578,-0.5154967,1.0953325,0.12827373,0.40803775,-0.6000767,-0.42245483,0.56537,-0.23433593,0.066569455,-0.54642195,-0.59648323,-0.4085617,0.53379685,0.98961544,0.0560208,0.089171045,0.097834155,-0.27015617,0.17603166,-0.5215318,0.0,1.0,0.0,0.0,0.0,0.0,0.0,-0.0499233,0.022454828,-0.015370011,1.0259151,4.90582,-3.2058,-0.8575678,0.17795563,1.3254434,0.24598241
1.7385321,92.60412,19.504953,15.249427,0.75830674,0.20486547,-0.06899155,-0.1509622,-0.5469348,0.5836107,-0.28369105,0.7252224,0.15135604,0.55828536,0.21340448,-1.3816754,-2.0426047,-0.79889673,1.9889014,1.7982861,-0.6712494,0.22576793,-1.3374933,-2.0901587,-0.77568674,1.9272608,1.7844486,-0.7229971,-0.27072212,-1.0351784,1.0672818,-0.5148936,1.0879039,0.1314712,0.40893513,-0.60224724,-0.42185974,0.56015515,-0.21184166,0.05708466,-0.51398736,-0.5990696,-0.40682602,0.52878976,0.99059224,0.048019566,0.07872464,0.10111156,-0.25397697,0.17498007,-0.49495476,0.0,1.0,0.0,0.0,0.0,0.0,0.0,-0.047752738,0.021859735,-0.010155141,1.0229826,6.362796,-5.3260326,0.3834486,-0.07760525,0.67195296,0.33437014
4.1904306,111.695885,25.001335,20.107784,1.0137662,0.333596,-0.2387918,-0.10073238,-0.4720869,0.5870546,-0.15645993,0.70779747,0.24408135,0.56373084,0.21569468,-1.384702,-2.0314531,-0.7913327,1.9980406,1.8088567,-0.66662407,0.2233396,-1.3471369,-2.079756,-0.7802168,1.9380355,1.7858396,-0.71890396,-0.23285978,-0.9403002,1.0294607,-0.43132514,1.0763036,0.14292507,0.4100759,-0.60417175,-0.42136002,0.5555711,-0.18598658,0.049504776,-0.44080046,-0.60149,-0.4050789,0.52434766,0.99136204,0.04002388,0.06896201,0.104132965,-0.23777582,0.17592533,-0.4283873,0.0,1.0,0.0,0.0,0.0,0.0,0.0,-0.045828223,0.02136001,-0.0055710673,3.9909153,9.607971,-4.356146,8.66794,-0.42364597,1.5643924,0.31400323
21.743406,121.01987,28.908583,14.911821,0.065752015,0.1607059,-0.008211724,-0.042635288,-0.3839533,0.542055,-0.21161899,0.6989112,0.22165462,0.55419654,0.21907607,-1.3855321,-2.0255506,-0.8013787,2.0079267,1.808005,-0.66348433,0.22153978,-1.355575,-2.069834,-0.7841631,1.9486921,1.7873294,-0.7148061,-0.16169304,-0.8112873,0.9782577,-0.3812143,1.0643003,0.15278405,0.41017985,-0.6057968,-0.42100143,0.55184627,-0.15664864,0.031362526,-0.35065988,-0.6035652,-0.4035263,0.5206677,0.99191725,0.03206276,0.06005654,0.107075945,-0.19673124,0.14944558,-0.34901682,0.0,1.0,0.0,0.0,0.0,0.0,0.0,-0.044203162,0.021001428,-0.0018462539,7.3126316,12.993919,-5.6205153,5.344468,-0.51317215,1.4621496,0.19057989
32.702618,129.41512,32.413578,12.215235,-0.43624076,0.11395345,0.12420309,0.00743746,-0.30159962,0.54481196,-0.19755137,0.6882814,0.2602721,0.53522867,0.22228353,-1.3857349,-2.0153527,-0.80391824,2.0175202,1.8133566,-0.6612832,0.22060663,-1.3625654,-2.0603054,-0.78770703,1.9592264,1.7889334,-0.7107234,-0.069866054,-0.6613271,0.9427502,-0.34429455,1.0518365,0.16436121,0.40815756,-0.60708237,-0.42082596,0.5491464,-0.12008626,0.015844362,-0.24436013,-0.605114,-0.40234375,0.51790136,0.9922562,0.024106096,0.052091464,0.11014956,-0.1410808,0.10830029,-0.25370023,0.0,1.0,0.0,0.0,0.0,0.0,0.0,-0.04291761,0.020825952,0.0008535981,9.378305,15.073072,-4.010594,4.0361223,-0.5888939,1.634109,-0.033169985
38.57599,134.86183,34.475197,10.543745,-0.7993575,0.066172436,0.21812144,0.058515612,-0.20831151,0.5250316,-0.1844693,0.67890245,0.2818423,0.52691907,0.22645819,-1.3833965,-2.0078022,-0.80615395,2.0271165,1.8171176,-0.65803146,0.22066599,-1.3679365,-2.0511005,-0.7909743,1.969636,1.7906636,-0.7066675,0.03185564,-0.4953579,0.91170174,-0.31958133,1.0394201,0.17735402,0.40527982,-0.6080189,-0.42084122,0.5475717,-0.08526019,-0.0057695373,-0.1293257,-0.60604095,-0.40163422,0.5161624,0.99238276,0.016135905,0.04512032,0.1134905,-0.07672874,0.058733296,-0.1483613,0.0,1.0,0.0,0.0,0.0,0.0,0.0,-0.0419811,0.020841211,0.0024282932,10.366353,16.661304,-3.534031,2.8312266,-0.5927801,1.7352402,-0.11319518
17.717255,141.10414,33.48425,19.017765,-0.1045583,0.23377894,-0.056347534,0.056207884,-0.09127817,0.4274231,-0.088010944,0.66679674,0.2827399,0.5161029,0.22628678,-1.3770643,-2.0083582,-0.7997754,2.0363157,1.8189375,-0.6550572,0.22150356,-1.3714765,-2.0425632,-0.7936495,1.9798996,1.7925042,-0.7026487,0.10167221,-0.3066423,0.83315873,-0.24911752,1.0242227,0.18744557,0.40126055,-0.6086712,-0.42097092,0.5471968,-0.059374496,-0.013817895,-0.0072560403,-0.60648537,-0.40122986,0.5155656,0.9923369,0.008317533,0.039325748,0.11684071,-0.03465415,0.03616675,-0.031260658,0.0,0.0,1.0,0.0,0.0,0.0,0.0,-0.041328788,0.02097091,0.0028032064,7.1618633,18.96252,-8.305216,7.3769093,-0.8464813,1.4163136,-0.23189187
