Afshin1997/kuka_rl_ros2/src/catch_and_throw/input_files/idealpd/polynomial_regressor/optimizer_files/env_149_data.csv
torque0,torque1,torque2,torque3,torque4,torque5,torque6,action0,action1,action2,action3,action4,action5,action6,set_target_0,set_target_1,set_target_2,set_target_3,set_target_4,set_target_5,set_target_6,joint_pos_0,joint_pos_1,joint_pos_2,joint_pos_3,joint_pos_4,joint_pos_5,joint_pos_6,joint_vel_0,joint_vel_1,joint_vel_2,joint_vel_3,joint_vel_4,joint_vel_5,joint_vel_6,tennisball_pos_0,tennisball_pos_1,tennisball_pos_2,tennisball_lin_vel_0,tennisball_lin_vel_1,tennisball_lin_vel_2,end_effector_pos_0,end_effector_pos_1,end_effector_pos_2,end_effector_rot_0,end_effector_rot_1,end_effector_rot_2,end_effector_rot_3,end_effector_lin_vel_0,end_effector_lin_vel_1,end_effector_lin_vel_2,obs_task_0,obs_task_1,obs_task_2,obs_task_3,obs_task_4,obs_task_5,obs_task_6,to_final_target_0,to_final_target_1,to_final_target_2,joint_acc_0,joint_acc_1,joint_acc_2,joint_acc_3,joint_acc_4,joint_acc_5,joint_acc_6
0.0,0.0,0.0,0.0,0.0,0.0,0.0,0.0,0.0,0.0,0.0,0.0,0.0,0.0,1.7802359,-1.0646509,-1.8151424,-1.1170107,1.9373155,1.1170107,-0.91629785,1.7802359,-1.0646509,-1.8151424,-1.1170107,1.9373155,1.1170107,-0.91629785,0.0,0.0,0.0,0.0,0.0,0.0,0.0,3.2088394,-0.25009918,0.18810259,-3.6365254,-0.26255316,4.9491806,0.5304184,-0.45449448,0.693097,0.5745483,0.17512383,0.15255436,0.7848268,0.0,0.0,0.0,1.0,0.0,0.0,0.0,0.0,0.0,0.0,-3.8588395,-0.14990082,0.3618974,0.0,0.0,0.0,0.0,0.0,0.0,0.0
0.0,0.0,0.0,0.0,0.0,0.0,0.0,0.0,0.0,0.0,0.0,0.0,0.0,0.0,1.7802359,-1.0646509,-1.8151424,-1.1170107,1.9373155,1.1170107,-0.91629785,1.7802359,-1.0646509,-1.8151424,-1.1170107,1.9373155,1.1170107,-0.91629785,0.0,0.0,0.0,0.0,0.0,0.0,0.0,3.2088394,-0.25009918,0.18810259,-3.6365254,-0.26255316,4.9491806,0.5304184,-0.45449448,0.693097,0.5745483,0.17512383,0.15255436,0.7848268,0.0,0.0,0.0,1.0,0.0,0.0,0.0,0.0,0.0,0.0,-3.8588395,-0.14990082,0.3618974,0.0,0.0,0.0,0.0,0.0,0.0,0.0
0.0,0.0,0.0,0.0,0.0,0.0,0.0,0.0,0.0,0.0,0.0,0.0,0.0,0.0,1.7802359,-1.0646509,-1.8151424,-1.1170107,1.9373155,1.1170107,-0.91629785,1.7802359,-1.0646509,-1.8151424,-1.1170107,1.9373155,1.1170107,-0.91629785,0.0,0.0,0.0,0.0,0.0,0.0,0.0,3.2088394,-0.25009918,0.18810259,-3.6365254,-0.26255316,4.9491806,0.5304184,-0.45449448,0.693097,0.5745483,0.17512383,0.15255436,0.7848268,0.0,0.0,0.0,1.0,0.0,0.0,0.0,0.0,0.0,0.0,-3.8588395,-0.14990082,0.3618974,0.0,0.0,0.0,0.0,0.0,0.0,0.0
-176.0,71.0277,-5.0482807,110.0,10.710583,4.8158765,-3.790423,-0.81237346,0.3633919,-0.5455597,0.7107129,0.25681874,0.6288095,-0.5841504,1.6989986,-1.0283117,-1.8696984,-1.0459394,1.9629973,1.1798917,-0.9747129,1.778813,-1.0624708,-1.8205917,-1.1126143,1.9426751,1.1220537,-0.9177646,-0.18956542,0.29001287,-0.7257503,0.58631516,0.71388066,0.67045784,-0.1951217,3.1725006,-0.2527237,0.23682082,-3.6328895,-0.26229066,4.8460464,0.52830887,-0.4576149,0.69389075,0.57810307,0.17377035,0.15089199,0.782836,-0.28095302,-0.41552517,0.1056392,1.0,0.0,0.0,0.0,0.0,0.0,0.0,-3.8225007,-0.14727631,0.3131792,-18.900015,28.81669,-72.39797,58.70495,71.14344,66.51321,-19.368816
-176.0,-13.115914,-40.27993,110.0,11.829265,1.9808638,-3.5181735,-0.808898,-0.071935415,-0.54498285,0.681081,0.4261836,0.62214684,-0.6326528,1.6979232,-1.0696644,-1.87509,-1.0445062,1.9852935,1.1842685,-0.98102987,1.7769915,-1.0591425,-1.8352306,-1.0998904,1.9544301,1.1353365,-0.91928095,-0.17773473,0.34531203,-1.7104226,1.5039253,1.3286921,1.5405742,-0.13397154,3.1362,-0.2553444,0.2845085,-3.6292574,-0.2620284,4.7430153,0.5235901,-0.46567535,0.69482803,0.58619577,0.17048061,0.1467312,0.77831924,-0.5372286,-0.9351231,0.090390444,1.0,0.0,0.0,0.0,0.0,0.0,0.0,-3.7862,-0.14465562,0.26549152,1.7806023,4.9552145,-98.643425,92.54682,61.234592,84.97694,7.086235
-157.40259,104.163475,25.516357,89.95851,7.7195463,6.9113145,-1.960654,-0.7641752,0.26862347,0.00037907198,0.53125703,0.48934382,0.64154303,-0.5679468,1.7005739,-1.0322801,-1.8351927,-1.0467646,2.0033646,1.1994908,-0.97607565,1.7720019,-1.0550493,-1.8508079,-1.0834986,1.9679875,1.1505934,-0.92090505,-0.60619533,0.42776626,-1.5008672,1.6853178,1.3600287,1.5139105,-0.1732548,3.0999336,-0.25796127,0.33116663,-3.625629,-0.26176643,4.640087,0.51608276,-0.47652817,0.69709074,0.5970789,0.16581762,0.1412601,0.7720406,-0.82934517,-1.1296831,0.27552128,1.0,0.0,0.0,0.0,0.0,0.0,0.0,-3.7499337,-0.14203873,0.21883339,-42.907745,7.3369503,22.798061,18.46776,1.7197609,-4.6581984,-4.326624
-98.96829,125.37396,45.83138,58.900417,4.5927296,7.790609,-0.49172682,-0.779492,0.22261615,0.124341026,0.54834706,0.49306825,0.6272849,-0.59247965,1.6940527,-1.0327877,-1.8383738,-1.0286639,2.0172944,1.2133219,-0.980153,1.7627436,-1.0506376,-1.8612754,-1.0674139,1.9805226,1.1647478,-0.9229526,-1.0336696,0.44324487,-0.8876545,1.5832573,1.2129093,1.3785005,-0.21772578,3.0637054,-0.26057816,0.37679625,-3.622004,-0.2615047,4.537262,0.5060768,-0.48800278,0.7012917,0.60891837,0.15983136,0.13495085,0.7651539,-1.0683143,-1.1429441,0.47308713,1.0,0.0,0.0,0.0,0.0,0.0,0.0,-3.7137055,-0.13942185,0.17320377,-43.14871,0.83551407,63.61934,-10.143781,-16.212225,-14.726996,-5.214596
-40.50235,137.24664,54.693985,31.43451,1.6178625,6.913454,0.32861066,-0.7915395,0.3106743,0.11198948,0.5219336,0.550991,0.6163644,-0.5833808,1.6835897,-1.0195701,-1.8500764,-1.0152205,2.0356216,1.2263843,-0.9812907,1.7499834,-1.0458463,-1.865443,-1.0534464,1.991406,1.1773688,-0.9254264,-1.3583182,0.48924965,-0.25367126,1.3340818,1.0431331,1.22183,-0.25991404,3.0275116,-0.26319122,0.42139837,-3.618383,-0.26124325,4.43454,0.49433517,-0.49871063,0.7072735,0.62053716,0.15262677,0.12814964,0.7584302,-1.2209299,-1.0342482,0.64232147,1.0,0.0,0.0,0.0,0.0,0.0,0.0,-3.6775117,-0.13680878,0.12860164,-32.91979,4.112315,65.265724,-25.078583,-18.013073,-16.104841,-5.008644
3.6952062,146.01408,58.231236,15.081706,-0.3725339,5.6369743,0.558904,-0.8071468,0.42909408,0.16197126,0.50417227,0.586388,0.59883285,-0.58492863,1.6692687,-1.002937,-1.8492459,-1.0030292,2.0500448,1.237252,-0.98391926,1.7350279,-1.0401186,-1.8644073,-1.0419756,2.0009365,1.1885458,-0.92827505,-1.5426377,0.5994708,0.22693862,1.0841578,0.92107284,1.0830362,-0.295393,2.991356,-0.26580048,0.46497408,-3.6147652,-0.26098207,4.3319197,0.48164368,-0.5078888,0.71479875,0.6314353,0.14441746,0.121321894,0.7521397,-1.2951761,-0.8663525,0.789429,1.0,0.0,0.0,0.0,0.0,0.0,0.0,-3.641356,-0.13419953,0.08502594,-18.81969,10.667599,49.356712,-25.193573,-12.749088,-13.897085,-4.2419314
28.361181,148.7021,56.990063,8.609062,-1.4223053,4.3623624,0.3809285,-0.8060794,0.53988874,0.18851389,0.5185266,0.58560383,0.60367197,-0.5785094,1.65442,-0.9861297,-1.8455559,-0.990123,2.0594969,1.248913,-0.986126,1.7191588,-1.0328649,-1.8601177,-1.0323759,2.0096073,1.1985079,-0.9314222,-1.602745,0.7665269,0.49913388,0.9181652,0.84818774,0.96786296,-0.32305527,2.9552345,-0.26840973,0.5075244,-3.6111512,-0.26072112,4.2294025,0.4686165,-0.515316,0.7236744,0.64161503,0.13539384,0.11493813,0.74618214,-1.3142123,-0.687418,0.9187443,1.0,0.0,0.0,0.0,0.0,0.0,0.0,-3.6052346,-0.13159028,0.04247564,-6.301284,16.437328,28.068459,-16.715122,-7.509434,-11.367559,-3.3331692
38.48,142.44467,52.264336,5.930747,-1.7822134,3.2733028,0.20306157,-0.80876625,0.62561214,0.22297649,0.4942091,0.6110014,0.6083655,-0.5748944,1.6382822,-0.9703037,-1.83782,-0.98295504,2.0707076,1.2593445,-0.9889116,1.7032553,-1.0237802,-1.8543231,-1.023892,2.0179157,1.2074744,-0.9347982,-1.5869993,0.95505315,0.60809577,0.8250794,0.8247693,0.8737138,-0.34393385,2.9191513,-0.27101517,0.5490502,-3.6075408,-0.26046047,4.1269875,0.4556198,-0.52103806,0.7336767,0.6512276,0.1257678,0.10928046,0.7403667,-1.3014615,-0.52099633,1.0248137,1.0,0.0,0.0,0.0,0.0,0.0,0.0,-3.5691514,-0.12898484,0.0009498,1.3532877,18.651104,11.480904,-9.352648,-2.4230123,-9.230173,-2.5315285
42.116074,129.01324,45.99702,3.5660129,-1.8196204,2.3806148,0.16158278,-0.7974259,0.6829143,0.2638274,0.45626783,0.63018066,0.6122912,-0.55267894,1.6235127,-0.9554888,-1.8279405,-0.9782653,2.0809338,1.2687035,-0.99006605,1.6878058,-1.0129408,-1.8481109,-1.0160242,2.0262318,1.2156302,-0.93833154,-1.5317186,1.126517,0.6272552,0.7738556,0.8336713,0.7969522,-0.35764685,2.8831024,-0.2736168,0.58955264,-3.603934,-0.26020005,4.0246754,0.44288254,-0.5252495,0.7445295,0.66035986,0.11575214,0.10439312,0.734594,-1.2703835,-0.37353486,1.1024331,1.0,0.0,0.0,0.0,0.0,0.0,0.0,-3.5331025,-0.12638322,-0.03955263,5.353856,16.997982,2.3561716,-5.1576853,0.86312294,-7.4919343,-1.7341316
38.906216,108.77677,37.549137,1.8544917,-1.6078634,1.5826473,0.16440213,-0.78722256,0.7151903,0.27371967,0.41841388,0.6422784,0.6327145,-0.5471581,1.6090835,-0.94142175,-1.8207389,-0.97418284,2.0904596,1.2789016,-0.99304736,1.6729647,-1.0007128,-1.8420589,-1.008555,2.0347538,1.2231394,-0.94197077,-1.4685274,1.2545732,0.5988815,0.73759234,0.8579516,0.7362167,-0.36704725,2.8470917,-0.2762184,0.62903273,-3.6003308,-0.2599399,3.9224656,0.43048477,-0.5281906,0.7558904,0.6690526,0.10557017,0.100179255,0.7288261,-1.2322179,-0.25301763,1.14374,1.0,0.0,0.0,0.0,0.0,0.0,0.0,-3.4970918,-0.12378159,-0.07903272,6.17826,12.708187,-2.5021672,-3.7048697,2.437067,-5.8841705,-1.2433231
28.781403,86.92525,28.363441,2.724794,-1.0924339,0.95337254,0.11505224,-0.78500986,0.73200965,0.25471544,0.40472665,0.65562344,0.6356393,-0.53799796,1.5944637,-0.9275118,-1.8165873,-0.96808237,2.100316,1.2867033,-0.9957706,1.65865,-0.9875835,-1.8364952,-1.0013548,2.0435581,1.2301279,-0.94567865,-1.419594,1.3322026,0.5430055,0.71376747,0.887798,0.687076,-0.372816,2.8111153,-0.27881622,0.6674915,-3.5967312,-0.25968003,3.8203583,0.4184265,-0.53019714,0.7674112,0.6773802,0.09544068,0.09649025,0.7230053,-1.1992255,-0.16819845,1.1511271,1.0,0.0,0.0,0.0,0.0,0.0,0.0,-3.4611154,-0.12118378,-0.11749148,4.7774076,7.7136755,-5.353701,-2.517891,3.035593,-4.72914,-0.8252084
21.152905,72.61601,22.508091,3.7101274,-0.7147815,0.61129045,0.08728402,-0.7756952,0.7527731,0.23676151,0.38897222,0.6632803,0.6417721,-0.53511405,1.5810806,-0.9123062,-1.812819,-0.9624576,2.1098862,1.2943051,-0.99919003,1.6447092,-0.97394407,-1.8315341,-0.9943644,2.052641,1.2366987,-0.94942945,-1.3860433,1.3744951,0.48103204,0.6936002,0.91522527,0.64757425,-0.37657452,2.7751732,-0.28141022,0.70492995,-3.5931354,-0.2594204,3.718353,0.4066391,-0.53152466,0.7788554,0.6854081,0.0854944,0.093195446,0.71709204,-1.1721848,-0.10678997,1.138247,1.0,0.0,0.0,0.0,0.0,0.0,0.0,-3.4251733,-0.11858979,-0.15492994,3.2483816,4.2089224,-6.0127316,-2.1968722,2.8207302,-3.7682533,-0.59752464
12.237492,61.454437,17.961813,6.3686295,-0.22852433,0.44867048,0.018843632,-0.77396065,0.7536342,0.21848467,0.3984494,0.6638184,0.6416514,-0.5331075,1.5673132,-0.8985807,-1.8096857,-0.95451945,2.1190228,1.3008639,-1.0027401,1.6309725,-0.9601129,-1.827153,-0.98746073,2.0619411,1.2429262,-0.9532079,-1.3697362,1.3859782,0.4243118,0.6885328,0.9351949,0.6150825,-0.3789568,2.7392693,-0.2840042,0.74134916,-3.5895429,-0.25916103,3.6164498,0.39504242,-0.5324135,0.7900875,0.69322246,0.075785235,0.09017087,0.7110333,-1.1564248,-0.06835435,1.1143188,1.0,0.0,0.0,0.0,0.0,0.0,0.0,-3.3892694,-0.115995795,-0.19134915,1.5338421,1.1478424,-5.5295944,-0.71048737,2.0970821,-3.0947447,-0.43643713
11.878765,57.096493,16.5537,5.272599,-0.252446,0.34403762,0.08719078,-0.76742744,0.7613994,0.20724048,0.3536762,0.66776633,0.6434534,-0.53097534,1.5542297,-0.883973,-1.8064289,-0.9520931,2.128718,1.3072716,-1.0063055,1.6173311,-0.9462637,-1.8232315,-0.98076403,2.071394,1.2488772,-0.9570045,-1.3625199,1.3845161,0.381878,0.66261035,0.948921,0.5888636,-0.38055515,2.7033997,-0.2865944,0.7767501,-3.5859542,-0.25890192,3.5146482,0.38360977,-0.53292465,0.8010232,0.7008048,0.06633894,0.08735677,0.70486915,-1.139031,-0.031189725,1.0828125,1.0,0.0,0.0,0.0,0.0,0.0,0.0,-3.3533998,-0.113405615,-0.22675008,0.6159067,-0.14052391,-4.079795,-2.8175116,1.4695644,-2.4438143,-0.36013722
14.302021,57.719837,17.282972,3.7586012,-0.39015293,0.3601338,0.19640338,-0.7659921,0.76726633,0.21694401,0.3074446,0.6723307,0.63736904,-0.530932,1.5407319,-0.86953706,-1.801537,-0.9500196,2.138627,1.3126141,-1.0100977,1.6037146,-0.93245256,-1.819535,-0.9745213,2.0809498,1.2545973,-0.9608144,-1.3616662,1.3800082,0.36622462,0.6107948,0.95829654,0.56707287,-0.38187656,2.6675682,-0.28918076,0.81113374,-3.5823689,-0.25864306,3.4129486,0.3723755,-0.5330162,0.81164086,0.7080726,0.057148006,0.08471983,0.6987058,-1.1174247,0.012761855,1.0510619,1.0,0.0,0.0,0.0,0.0,0.0,0.0,-3.3175683,-0.11081925,-0.26113373,-0.032019615,-0.44527054,-1.360178,-5.4104686,1.025343,-1.97891,-0.34227967
18.833176,58.933388,18.146706,1.2128711,-0.6629662,0.29768664,0.3210594,-0.7614763,0.77121407,0.21746485,0.24765915,0.67864597,0.6434408,-0.52097845,1.5275669,-0.8553312,-1.7977885,-0.9497554,2.1488144,1.3189414,-1.0129123,1.5901018,-0.9186729,-1.815871,-0.96902144,2.0905857,1.2601343,-0.9646291,-1.3613986,1.3773699,0.36725163,0.5288434,0.96588415,0.55022156,-0.3820192,2.631771,-0.29176712,0.84450114,-3.5787873,-0.25838447,3.3113506,0.3614235,-0.53258514,0.82192516,0.714923,0.048211344,0.082256824,0.69267195,-1.0862983,0.06582435,1.017152,1.0,0.0,0.0,0.0,0.0,0.0,0.0,-3.2817712,-0.108232886,-0.29450113,-0.09770393,-0.25451183,0.33419728,-8.425593,0.8421421,-1.4398217,-0.22861958
26.00954,60.805614,19.4236,-3.0315342,-1.1156266,0.17893678,0.5069598,-0.7596754,0.7752492,0.23840131,0.14687794,0.6806134,0.6441528,-0.512517,1.5141343,-0.841148,-1.7920308,-0.95433366,2.158647,1.3245497,-1.0158808,1.5764929,-0.9048904,-1.8120372,-0.9646956,2.1002827,1.2655321,-0.96843714,-1.3609279,1.3786635,0.38949662,0.3998116,0.9713547,0.5374573,-0.38117588,2.596012,-0.29434967,0.87685335,-3.5752091,-0.25812614,3.2098541,0.35089874,-0.53152466,0.83183503,0.7212069,0.039559923,0.07999469,0.6869472,-1.0393398,0.13279913,0.9784805,1.0,0.0,0.0,0.0,0.0,0.0,0.0,-3.2460122,-0.105650336,-0.32685333,-0.08299351,0.1462698,2.4813712,-13.132011,0.62829256,-0.9535551,-0.13042688
34.00911,62.572365,20.451374,-7.4323215,-1.6160324,-0.03850484,0.662073,-0.74572515,0.78506345,0.24480048,0.04399844,0.68429923,0.6476287,-0.5020082,1.5019203,-0.82638407,-1.7875571,-0.96029574,2.1687126,1.330295,-1.0186379,1.5629565,-0.89103925,-1.807944,-0.9619452,2.110033,1.2708288,-0.97222894,-1.3517237,1.3873416,0.41666928,0.23263998,0.9761907,0.5284367,-0.3791287,2.5602875,-0.2969284,0.9081913,-3.5716348,-0.25786805,3.1084592,0.34098434,-0.5296936,0.8413182,0.726788,0.03124752,0.077995405,0.6817033,-0.9730618,0.21133384,0.934231,1.0,0.0,0.0,0.0,0.0,0.0,0.0,-3.2102876,-0.1030716,-0.3581913,0.805068,0.8996725,2.9535174,-16.93078,0.5782008,-0.49693584,0.0051498413
42.7585,60.04656,19.881855,-14.665783,-2.3029087,-0.46242282,0.90207845,-0.7512262,0.7877882,0.26455233,-0.15088563,0.69235456,0.6376985,-0.50814253,1.4878339,-0.81226045,-1.7814888,-0.97703373,2.1792686,1.3345987,-1.0230432,1.5494848,-0.87708795,-1.8035324,-0.9614712,2.1198406,1.2760473,-0.9760036,-1.3459339,1.3978313,0.4500498,-0.0151044205,0.9825976,0.52165556,-0.3775174,2.5245972,-0.29950714,0.93851614,-3.5680637,-0.25761023,3.0071657,0.33192825,-0.52698517,0.8502136,0.7314866,0.023448085,0.07636088,0.6771606,-0.8799596,0.3012661,0.8703632,1.0,0.0,0.0,0.0,0.0,0.0,0.0,-3.1745973,-0.100492865,-0.38851613,0.4790783,1.1018515,3.554809,-24.974735,0.740993,-0.14588833,-0.002783537
51.907097,61.520424,21.353445,-19.79179,-2.7857842,-0.70099366,1.1247625,-0.73252,0.7919157,0.32447758,-0.30976066,0.69752735,0.6271806,-0.4988621,1.4762329,-0.7978964,-1.7710845,-0.99244726,2.1895933,1.3387654,-1.0258898,1.5361449,-0.86302984,-1.798579,-0.96380293,2.1297207,1.2812067,-0.97975534,-1.3303733,1.4087521,0.51087075,-0.306329,0.99004275,0.51606745,-0.374873,2.488945,-0.30207825,0.9678288,-3.5644965,-0.25735268,2.9059732,0.3239479,-0.5232811,0.85842985,0.735124,0.0162638,0.075111516,0.6735625,-0.7655535,0.40203568,0.8008838,1.0,0.0,0.0,0.0,0.0,0.0,0.0,-3.138945,-0.09792176,-0.4178288,1.5174627,1.1705875,6.2056184,-29.256308,0.8912802,0.05443096,0.14531612
54.665665,61.958645,21.900478,-19.98478,-2.8042266,-0.8554596,1.1392274,-0.6998759,0.79537016,0.3508457,-0.40639228,0.6992362,0.6176463,-0.48600972,1.4661573,-0.7834928,-1.7634944,-1.0044422,2.1996443,1.3429713,-1.0283563,1.5230986,-0.84887064,-1.7929866,-0.9688984,2.1396694,1.2863127,-0.9834718,-1.2958444,1.4186251,0.5753621,-0.57753855,0.99733377,0.5106978,-0.3708128,2.4533272,-0.30464935,0.99613035,-3.5609326,-0.25709537,2.804882,0.31715393,-0.518589,0.86598146,0.7376717,0.009687911,0.074224025,0.6709972,-0.64500064,0.4991147,0.7349802,1.0,0.0,0.0,0.0,0.0,0.0,0.0,-3.1033273,-0.09535065,-0.44613034,3.4973621,1.0957241,6.406963,-27.182596,0.95261335,0.0818491,0.3381908
55.484196,65.09379,23.460398,-17.945484,-2.66124,-0.83123636,1.0975726,-0.65998244,0.8052013,0.3947923,-0.4953601,0.7000898,0.6087688,-0.47132835,1.4571004,-0.7683505,-1.7535074,-1.0184344,2.2096784,1.3471895,-1.0306046,1.510554,-0.8345932,-1.7866924,-0.9763838,2.149683,1.2913634,-0.98713773,-1.2402112,1.4312261,0.64658237,-0.80546695,1.003916,0.5051379,-0.36531726,2.4177437,-0.30722046,1.0234216,-3.5573726,-0.25683832,2.7038918,0.31155014,-0.51293564,0.8729717,0.7391744,0.0036230737,0.073642224,0.66946614,-0.5263406,0.5932204,0.68146247,1.0,0.0,0.0,0.0,0.0,0.0,0.0,-3.0677438,-0.09277955,-0.47342163,5.6851387,1.4007568,6.902623,-22.787153,0.98000765,0.04775524,0.5247891
56.05906,69.02647,25.647564,-15.0964365,-2.42372,-0.7139091,1.055103,-0.60381925,0.81035197,0.4568194,-0.56159097,0.70555645,0.59380037,-0.46286684,1.4501721,-0.753558,-1.7410104,-1.032543,2.2202387,1.3507434,-1.0334244,1.498757,-0.8201908,-1.7795722,-0.98573077,2.159769,1.2963511,-0.99074644,-1.1590121,1.4438357,0.732402,-0.97750974,1.0118557,0.4987303,-0.35934672,2.3821983,-0.30978394,1.0497038,-3.5538158,-0.25658154,2.6030025,0.30709076,-0.50634766,0.87955356,0.7396839,-0.002089591,0.073262304,0.66895133,-0.4134021,0.6853998,0.6443967,1.0,0.0,0.0,0.0,0.0,0.0,0.0,-3.0321984,-0.09021607,-0.49970382,8.315897,1.4343739,8.182896,-17.144775,1.2255669,-0.04850626,0.59829354
43.87169,67.82694,24.696316,-6.7660494,-1.6350402,-0.43274012,0.80026263,-0.5907599,0.8138631,0.49146938,-0.5767987,0.69963086,0.59213716,-0.42517224,1.439681,-0.73880446,-1.7304254,-1.0434107,2.229732,1.3555648,-1.0332637,1.4876982,-0.80567586,-1.7716186,-0.99624217,2.1699085,1.3012758,-0.9942731,-1.0873828,1.4546688,0.8146599,-1.0755662,1.0161183,0.49200436,-0.35034645,2.3466873,-0.3123474,1.0749779,-3.5502627,-0.256325,2.5022144,0.30353546,-0.49897385,0.88588965,0.73938775,-0.007623095,0.07298888,0.66926837,-0.32971582,0.7590757,0.6234084,1.0,0.0,0.0,0.0,0.0,0.0,0.0,-2.9966874,-0.087652594,-0.52497786,7.341218,1.2733698,7.762611,-9.762597,0.9095192,-0.17398596,0.9110451
29.483688,64.10486,22.548492,2.1483717,-0.753397,-0.15900044,0.50786924,-0.5767055,0.8143765,0.51860803,-0.56473535,0.698586,0.5898877,-0.38537776,1.4300276,-0.7242382,-1.7197578,-1.0527157,2.239767,1.3602647,-1.0328109,1.477223,-0.79108274,-1.7629325,-1.007193,2.1800709,1.306132,-0.9976863,-1.0337605,1.4615285,0.8851015,-1.1015178,1.0180347,0.48492315,-0.33838704,2.3112106,-0.3149109,1.0992447,-3.546713,-0.25606874,2.401527,0.30057526,-0.49102402,0.8921173,0.73853934,-0.013123048,0.07274618,0.6701458,-0.27868846,0.81024915,0.61563236,1.0,0.0,0.0,0.0,0.0,0.0,0.0,-2.9612107,-0.08508912,-0.5492447,5.478239,0.8837223,6.594634,-2.611661,0.6855726,-0.3111124,1.1948586
13.87043,56.978016,18.59885,9.802867,0.028327048,0.005139321,0.21022804,-0.59019434,0.81592643,0.52493286,-0.5622055,0.695977,0.5938576,-0.35842928,1.4182036,-0.7094901,-1.7104392,-1.0634135,2.2496686,1.3655177,-1.0335293,1.4670225,-0.7764429,-1.7537258,-1.0180897,2.1902332,1.3109213,-1.0009699,-1.0154457,1.4653549,0.931362,-1.0859469,1.0169262,0.47805923,-0.3250554,2.275772,-0.31746674,1.1225054,-3.543167,-0.25581273,2.30094,0.29790497,-0.48274612,0.89829314,0.7374048,-0.018645199,0.072516695,0.6712881,-0.25767404,0.83700776,0.6109306,1.0,0.0,0.0,0.0,0.0,0.0,0.0,-2.9257722,-0.08253327,-0.5725054,1.8432856,0.57389736,4.281044,1.4590502,0.3348112,-0.39544106,1.3208926
4.1344895,52.048286,15.95148,14.687848,0.52615106,0.092086256,0.019445093,-0.5936989,0.8195851,0.53495735,-0.54417306,0.6989399,0.5876712,-0.32022643,1.4076526,-0.69448435,-1.70023,-1.0725069,2.2601273,1.3696884,-1.0329925,1.4568316,-0.7617687,-1.7441986,-1.0286335,2.200388,1.315642,-1.0041056,-1.0205208,1.468685,0.95908093,-1.0442985,1.0160103,0.4708561,-0.30960435,2.240368,-0.32002258,1.1447612,-3.5396247,-0.25555697,2.2004538,0.29530334,-0.4743271,0.9044373,0.7361816,-0.024202235,0.07230688,0.672475,-0.2552161,0.84793615,0.6082186,1.0,0.0,0.0,0.0,0.0,0.0,0.0,-2.890368,-0.07997742,-0.5947612,-0.5728483,0.51956177,2.5100112,4.0096045,0.31881332,-0.49746037,1.5243292
-3.0409498,44.423492,12.337343,17.114492,0.8541217,-0.0001308471,-0.12333179,-0.60891646,0.8130981,0.5243174,-0.52959883,0.69982487,0.5877836,-0.30558226,1.39594,-0.6804589,-1.6917669,-1.0815934,2.2703705,1.3744204,-1.0346638,1.4464442,-0.747105,-1.734576,-1.0387081,2.2105312,1.3202959,-1.0070887,-1.0453458,1.4661719,0.96289545,-0.99598116,1.0148162,0.46406424,-0.2946077,2.204998,-0.32257843,1.1660128,-3.5360858,-0.25530145,2.1000679,0.29263687,-0.46590805,0.91050595,0.7350123,-0.029744463,0.07214036,0.67354864,-0.26282802,0.84283984,0.59895563,1.0,0.0,0.0,0.0,0.0,0.0,0.0,-2.854998,-0.077421576,-0.61601275,-2.6104212,-0.0800848,0.21665096,4.6221614,0.22742748,-0.5096853,1.4689803
-6.729538,39.690937,10.189608,17.75457,0.97116256,-0.06663388,-0.1760819,-0.63922054,0.8111036,0.52946347,-0.53022665,0.70017225,0.5948449,-0.29558173,1.3825221,-0.66599464,-1.6816297,-1.0917307,2.2805486,1.3797804,-1.0366468,1.4356619,-0.7324861,-1.7249706,-1.0483974,2.220663,1.3248926,-1.0099306,-1.0898814,1.4610775,0.9594434,-0.96063095,1.0135876,0.45862094,-0.2806531,2.1696625,-0.32512665,1.1862613,-3.5325506,-0.25504622,1.9997826,0.28987885,-0.45759583,0.9164358,0.7339717,-0.035202704,0.0720468,0.6744297,-0.27432406,0.83062583,0.5835121,1.0,0.0,0.0,0.0,0.0,0.0,0.0,-2.8196626,-0.07487336,-0.6362613,-4.6251297,-0.351429,-0.4371047,3.3031821,0.18467903,-0.4068315,1.3664424
-3.8361807,39.541454,10.381129,15.981557,0.77290225,-0.18831843,-0.12150137,-0.6448927,0.8150353,0.5310141,-0.5286238,0.70219505,0.5931983,-0.26853508,1.3711727,-0.6509826,-1.6718692,-1.1012598,2.2908826,1.3842125,-1.0367842,1.4244581,-0.7178968,-1.7154167,-1.0578464,2.2307873,1.3294398,-1.0126257,-1.1309521,1.4587494,0.95374817,-0.94050646,1.0133234,0.45402098,-0.266052,2.1343613,-0.32767487,1.2055076,-3.5290186,-0.25479123,1.8995972,0.28705978,-0.44938278,0.9221857,0.7330398,-0.040530365,0.07206171,0.6751422,-0.27786446,0.8224011,0.56463003,1.0,0.0,0.0,0.0,0.0,0.0,0.0,-2.7843614,-0.07232514,-0.6555076,-4.2652607,-0.08044243,-0.6492734,1.8002987,0.2639532,-0.31555295,1.4371276
-3.3876667,39.161865,10.607691,16.285585,0.7970257,-0.1809892,-0.10044494,-0.6665594,0.81051266,0.54112875,-0.5012672,0.6987171,0.59593534,-0.20918353,1.3578022,-0.6368455,-1.6613038,-1.1079731,2.300659,1.3890333,-1.0335441,1.4128462,-0.70333993,-1.7058685,-1.0670685,2.2409039,1.3339506,-1.0151472,-1.1717763,1.4551579,0.95500475,-0.9167518,1.0120431,0.45044753,-0.24750684,2.0990982,-0.33022308,1.2237529,-3.5254903,-0.25453648,1.7995119,0.28420258,-0.4412346,0.9277622,0.73219025,-0.045740873,0.07217684,0.67571855,-0.2817149,0.8148725,0.5478765,1.0,0.0,0.0,0.0,0.0,0.0,0.0,-2.7490983,-0.06977692,-0.67375284,-4.24366,-0.20720959,0.04836321,2.1651268,0.16713142,-0.21823645,1.8289953
-1.5834494,38.762917,10.967894,15.950474,0.770024,-0.22004971,-0.059263166,-0.6771876,0.8041626,0.54649055,-0.4802698,0.696489,0.60053587,-0.15594691,1.3451275,-0.6229237,-1.6512194,-1.1150954,2.3105528,1.3940042,-1.0307419,1.4008871,-0.6888412,-1.6962688,-1.0760158,2.2510014,1.3384348,-1.0174589,-1.2043325,1.4486265,0.96129936,-0.88822067,1.0101413,0.44807827,-0.22574998,2.0638695,-0.33276367,1.240998,-3.5219655,-0.254282,1.6995268,0.28131485,-0.43315125,0.9331826,0.7313901,-0.050864525,0.07236682,0.67619836,-0.2829608,0.8087843,0.5325498,1.0,0.0,0.0,0.0,0.0,0.0,0.0,-2.7138696,-0.067236334,-0.690998,-3.4012556,-0.5016327,0.5402684,2.6493192,0.10986328,-0.09324551,2.1437554
-0.1883707,37.702873,10.700166,14.947211,0.6681473,-0.32411784,-0.035839207,-0.69645345,0.8033029,0.5398436,-0.48159647,0.6965274,0.604455,-0.13571274,1.3312418,-0.6085109,-1.6422844,-1.1241754,2.3206542,1.3988804,-1.0310302,1.388621,-0.67440355,-1.6866367,-1.0847439,2.2610836,1.3429018,-1.0195551,-1.2345719,1.442642,0.96377915,-0.86837643,1.0082895,0.44662786,-0.20437415,2.028675,-0.33530426,1.2572441,-3.5184443,-0.25402778,1.5996416,0.27846146,-0.42513275,0.93842673,0.73061556,-0.05588262,0.07264127,0.67661005,-0.27948293,0.80359614,0.5142611,1.0,0.0,0.0,0.0,0.0,0.0,0.0,-2.6786752,-0.064695746,-0.7072441,-3.1624556,-0.45194626,0.17246008,1.789391,0.09651184,0.00029802322,2.107832
2.4141922,37.010715,10.799305,13.283337,0.52419,-0.44925708,0.03435673,-0.7052631,0.7974901,0.545648,-0.48519334,0.6977348,0.6016763,-0.08677196,1.3180946,-0.59465456,-1.6320719,-1.1332632,2.330857,1.4030695,-1.0282323,1.376103,-0.6600374,-1.6769645,-1.0933613,2.2711506,1.3473555,-1.0214243,-1.2579322,1.4350196,0.9680634,-0.86023444,1.007341,0.4453997,-0.18104005,1.9935188,-0.33784485,1.2724922,-3.5149267,-0.2537738,1.4998562,0.27568054,-0.41713333,0.9434625,0.72981846,-0.06076184,0.07301156,0.67700976,-0.26892743,0.8008118,0.4925617,1.0,0.0,0.0,0.0,0.0,0.0,0.0,-2.643519,-0.062155157,-0.72249216,-2.4510145,-0.6196737,0.35053492,0.63518286,0.17499924,0.03477335,2.3037581
4.861788,39.351513,12.273239,13.126944,0.43569982,-0.4304682,0.11014628,-0.7064666,0.8000536,0.559335,-0.46340123,0.6947781,0.6074874,0.047547903,1.3054564,-0.58003205,-1.621031,-1.1397014,2.3406284,1.4081042,-1.0166695,1.3634268,-0.64571893,-1.6671951,-1.1018528,2.2812023,1.3518034,-1.0229807,-1.2711012,1.4311978,0.9795094,-0.8459498,1.0058348,0.44508815,-0.14729089,1.9583969,-0.3403778,1.2867429,-3.5114124,-0.25352007,1.4001707,0.27303696,-0.40911865,0.94831663,0.7289279,-0.06553262,0.07347349,0.677474,-0.25546515,0.8039937,0.47553724,1.0,0.0,0.0,0.0,0.0,0.0,0.0,-2.608397,-0.0596222,-0.7367429,-1.4124632,-0.23329258,1.0407686,1.269412,0.13854504,0.13543963,3.3461094
2.6874666,36.892456,11.383684,14.681244,0.61176467,-0.40302628,0.08381532,-0.7269378,0.79155,0.5581174,-0.43755654,0.6879863,0.62417513,0.15550211,1.290733,-0.56656396,-1.6113833,-1.1456084,2.3500009,1.4142209,-1.0074304,1.3505884,-0.63146055,-1.6573265,-1.1101097,2.2912235,1.3562609,-1.0241442,-1.2884756,1.4245543,0.98896927,-0.8195597,1.0020491,0.446443,-0.1059979,1.9233093,-0.34291077,1.2999976,-3.5079017,-0.2532666,1.3005848,0.2704811,-0.4011116,0.95301545,0.7279424,-0.070232205,0.07401288,0.67800385,-0.24747361,0.8024072,0.46053833,1.0,0.0,0.0,0.0,0.0,0.0,0.0,-2.5733094,-0.05708924,-0.74999756,-1.855278,-0.51641464,0.85970163,2.4624586,-0.08876324,0.28283,4.0948167
-0.64742947,34.78582,10.762841,18.51918,0.9750041,-0.27256694,-0.0030142218,-0.7281266,0.78329563,0.553103,-0.35953715,0.6736396,0.63529164,0.29540846,1.2777758,-0.553131,-1.6020162,-1.1460634,2.3585875,1.41979,-0.99460334,1.3376108,-0.61729467,-1.647414,-1.1177715,2.3011723,1.3607394,-1.0248232,-1.3012958,1.4144933,0.991788,-0.7491319,0.99319285,0.44872287,-0.055247262,1.8882561,-0.34544373,1.3122573,-3.5043945,-0.2530134,1.2010984,0.26791382,-0.3931694,0.9576427,0.72691816,-0.07496432,0.07458728,0.67853296,-0.25135565,0.79367536,0.45598483,1.0,0.0,0.0,0.0,0.0,0.0,0.0,-2.5382562,-0.05455628,-0.7622573,-1.4242887,-0.8508682,0.1852274,6.834483,-0.5721569,0.34848452,5.026646
-2.4247417,31.586283,9.57302,19.69675,1.1221755,-0.28373775,-0.048732374,-0.7402079,0.772038,0.55073714,-0.33074394,0.66079843,0.6411332,0.3497119,1.2635901,-0.54009086,-1.5923402,-1.1508459,2.367252,1.4248526,-0.989852,1.3244902,-0.6032661,-1.6375091,-1.124657,2.310995,1.3652426,-1.0249949,-1.3161175,1.3994535,0.98981035,-0.66905826,0.9799682,0.45129648,-0.0046223085,1.8532372,-0.34796906,1.3235228,-3.5008907,-0.25276044,1.1017116,0.26528168,-0.3853531,0.9622293,0.72590137,-0.07977551,0.075182386,0.679007,-0.25917542,0.7798616,0.4522606,1.0,0.0,0.0,0.0,0.0,0.0,0.0,-2.5032372,-0.05203095,-0.7735228,-1.636982,-1.3532639,-0.27930737,7.7854156,-1.0181189,0.36244988,5.008939
-2.419055,30.5316,9.458392,20.366701,1.1755424,-0.2838769,-0.05415964,-0.7405675,0.76338345,0.5518418,-0.28293,0.6489041,0.64591783,0.42383942,1.2504334,-0.52692777,-1.582325,-1.15295,2.3758855,1.4298344,-0.9826109,1.311257,-0.58940446,-1.627631,-1.1306728,2.3206692,1.3697726,-1.0246553,-1.3262261,1.3822246,0.986944,-0.57990235,0.9640299,0.45399842,0.046604153,1.8182564,-0.35049438,1.3337952,-3.4973905,-0.25250772,1.0024241,0.26255417,-0.3776741,0.9667978,0.7249022,-0.084696665,0.07578246,0.67941165,-0.2681586,0.76553124,0.45112255,1.0,0.0,0.0,0.0,0.0,0.0,0.0,-2.4682565,-0.04950562,-0.7837952,-1.1591434,-1.5738964,-0.37275553,8.696628,-1.2885213,0.36997795,5.066015
-5.561642,27.363619,8.145851,23.031567,1.4435586,-0.22361255,-0.16595967,-0.7532052,0.75183946,0.53407717,-0.20132522,0.6331175,0.6548324,0.4605186,1.2359365,-0.51422054,-1.5742233,-1.1508054,2.383981,1.4352558,-0.9786035,1.2978998,-0.57573354,-1.6178615,-1.1356186,2.3301601,1.374333,-1.0238295,-1.3394821,1.3625797,0.9733551,-0.4671053,0.94532233,0.4569823,0.09438765,1.7833061,-0.3530197,1.3430754,-3.4938939,-0.25225526,0.9032359,0.2596779,-0.37019348,0.9713912,0.7239921,-0.08978495,0.07637122,0.6796627,-0.28604618,0.7443188,0.45504367,1.0,0.0,0.0,0.0,0.0,0.0,0.0,-2.4333062,-0.04698029,-0.7930754,-1.4993906,-1.8161535,-1.4339328,11.041898,-1.5639544,0.3723979,4.720655
-6.7451158,25.611235,7.270553,24.098244,1.5165111,-0.24714327,-0.24291867,-0.75902396,0.7468347,0.5071161,-0.13742806,0.61795557,0.6602767,0.4854919,1.2219975,-0.50105006,-1.5671499,-1.1493614,2.3919556,1.4403607,-0.9752803,1.2844111,-0.5622381,-1.6083457,-1.1393665,2.3394527,1.378924,-1.0225592,-1.352512,1.3456153,0.943948,-0.3448159,0.92465985,0.45998904,0.13757336,1.748394,-0.3555374,1.3513645,-3.4904006,-0.25200307,0.8041469,0.25661087,-0.36294556,0.9760349,0.72324514,-0.095065705,0.0769624,0.6796732,-0.30622697,0.7202744,0.46064162,1.0,0.0,0.0,0.0,0.0,0.0,0.0,-2.398394,-0.04446259,-0.8013645,-1.4842987,-1.551342,-3.0063868,11.991316,-1.765585,0.36059022,4.2653503
-10.3052025,24.4007,6.952169,28.946121,1.9341996,-0.049411625,-0.40310284,-0.761039,0.73992467,0.48142195,0.003991142,0.6135943,0.6534495,0.512222,1.2083071,-0.48824564,-1.5602036,-1.1389674,2.4008121,1.444269,-0.97133696,1.2708155,-0.5488943,-1.5992172,-1.1415104,2.348566,1.383536,-1.0208883,-1.3627038,1.3310789,0.9020757,-0.17171185,0.9077261,0.46146148,0.17667416,1.7135162,-0.3580551,1.3586634,-3.4869108,-0.25175112,0.70515686,0.25321198,-0.35597992,0.9808439,0.72277355,-0.10066479,0.07750692,0.6793067,-0.3417041,0.6910227,0.4810751,1.0,0.0,0.0,0.0,0.0,0.0,0.0,-2.3635163,-0.04194489,-0.8086634,-1.224494,-1.3013124,-4.274571,17.0611,-1.3589144,0.16546845,3.8594575
-11.44585,23.26776,6.4167056,30.417694,2.0177836,-0.022842288,-0.4875957,-0.7676089,0.7361476,0.44301176,0.09337004,0.5959796,0.66039926,0.5202844,1.1940546,-0.4752795,-1.554916,-1.1321734,2.408164,1.4495759,-0.9688599,1.2571207,-0.53566873,-1.5906227,-1.1418194,2.3575,1.3881632,-1.0188665,-1.3723947,1.3202769,0.8450327,0.015426537,0.88936585,0.46296266,0.21047214,1.6786728,-0.36057281,1.3649733,-3.4834247,-0.2514994,0.60626584,0.24943924,-0.34931564,0.9858815,0.72266024,-0.10665384,0.07800026,0.67845637,-0.38119382,0.66103727,0.5051343,1.0,0.0,0.0,0.0,0.0,0.0,0.0,-2.328673,-0.03942719,-0.8149733,-1.17414,-0.9324074,-5.796647,18.474842,-1.4959097,0.1457572,3.335908
-12.690082,17.991516,3.3885727,29.025341,1.9903452,-0.2717996,-0.57401836,-0.778981,0.7296501,0.35897785,0.15340553,0.5923755,0.668267,0.4883654,1.1792226,-0.4627037,-1.5547249,-1.1264788,2.4167376,1.4549899,-0.97003,1.2433039,-0.52254236,-1.5828884,-1.1403965,2.3662739,1.3928076,-1.016572,-1.385347,1.3105932,0.749135,0.18394627,0.8742868,0.46493313,0.23566528,1.6438637,-0.3630829,1.3702949,-3.4799418,-0.25124794,0.5074737,0.24530792,-0.3430214,0.9910777,0.7229928,-0.11294087,0.07850953,0.6770244,-0.41639128,0.62242687,0.51850885,1.0,0.0,0.0,0.0,0.0,0.0,0.0,-2.2938638,-0.03691712,-0.8202949,-1.489234,-0.8331537,-9.671509,16.613857,-1.1984944,0.19180179,2.489367
-10.431094,13.177245,0.6323401,23.064404,1.5775526,-0.7255039,-0.49680924,-0.7921987,0.7168273,0.29093042,0.14617653,0.57579017,0.6701965,0.47971562,1.1640841,-0.45085964,-1.5537953,-1.1257788,2.423853,1.4598273,-0.96860045,1.2293249,-0.5095428,-1.5762908,-1.1378025,2.3748798,1.397473,-1.0140676,-1.4027276,1.2968279,0.62974006,0.28384316,0.8569939,0.4673682,0.2552319,1.6090889,-0.36559296,1.3746294,-3.4764626,-0.25099677,0.4087804,0.24096298,-0.33713531,0.9962272,0.7237709,-0.11927378,0.07916303,0.67502785,-0.43245646,0.5798335,0.50817585,1.0,0.0,0.0,0.0,0.0,0.0,0.0,-2.259089,-0.03440705,-0.82462937,-1.8957853,-1.2616158,-11.988473,9.763828,-1.4811635,0.28779507,1.935488
-3.1949167,14.279173,0.77176285,13.683471,0.7266321,-1.234692,-0.23437628,-0.8000347,0.71246403,0.25227067,0.077617176,0.55829716,0.66590047,0.48835054,1.1493214,-0.4382964,-1.5510638,-1.1300408,2.4307096,1.464063,-0.9652326,1.2151686,-0.49667612,-1.5708396,-1.1349834,2.3832912,1.4021631,-1.0113897,-1.4202317,1.2835582,0.51697475,0.2806358,0.83630556,0.46999598,0.2718438,1.5743523,-0.36810303,1.3779776,-3.472987,-0.25074583,0.31018576,0.23670578,-0.33161926,1.0010645,0.72484356,-0.12532662,0.0801254,0.6726625,-0.41563857,0.5463835,0.4704054,1.0,0.0,0.0,0.0,0.0,0.0,0.0,-2.2243524,-0.03189698,-0.8279776,-1.8579245,-1.2365103,-11.258411,-0.5100548,-1.910615,0.39328337,1.634723
9.320991,14.578128,0.28171492,-3.6938577,-0.70547146,-2.2186134,0.26294044,-0.7974291,0.6927991,0.20855923,-0.15025282,0.5348225,0.6667983,0.4993087,1.1354257,-0.4273962,-1.5499837,-1.1500087,2.4367735,1.468843,-0.96145886,1.2008997,-0.48400226,-1.5664184,-1.1335682,2.3914547,1.4068877,-1.0085611,-1.4291435,1.2621917,0.41743204,0.09467147,0.8091851,0.47411492,0.28658038,1.5396461,-0.37060547,1.3803407,-3.4695146,-0.25049514,0.2116897,0.23307037,-0.32637405,1.0051291,0.72590023,-0.13053116,0.08163211,0.67034817,-0.33839363,0.52100885,0.3803941,1.0,0.0,0.0,0.0,0.0,0.0,0.0,-2.1896462,-0.029394537,-0.8303407,-0.8700609,-2.0703316,-9.861761,-18.720663,-2.7294755,0.7106185,1.4417946
18.71135,19.494524,2.6811953,-13.701397,-1.6538965,-2.6861687,0.64311117,-0.7926031,0.68127906,0.21246496,-0.30704165,0.4991324,0.66758066,0.5206577,1.1216394,-0.41587436,-1.5451719,-1.1642723,2.4413679,1.4736457,-0.95649534,1.1866175,-0.47156158,-1.5626743,-1.1348022,2.399271,1.4116541,-1.0055857,-1.4275076,1.2382311,0.36030605,-0.1962024,0.7722737,0.47856012,0.30098513,1.5049782,-0.3731079,1.3817196,-3.4660459,-0.25024468,0.113292105,0.23049927,-0.32127,1.00811,0.72663766,-0.1345034,0.08383363,0.6684897,-0.22423185,0.50843334,0.26637417,1.0,0.0,0.0,0.0,0.0,0.0,0.0,-2.1549783,-0.026892096,-0.8317196,0.3163576,-2.3336172,-5.6352797,-29.116222,-3.805995,0.79918504,1.4090896
22.247595,22.921165,5.2475004,-15.1246195,-1.8296026,-2.6750445,0.81488,-0.773081,0.6587056,0.22852753,-0.403172,0.45481902,0.6733933,0.54695845,1.1093094,-0.40569103,-1.5398215,-1.1751194,2.444753,1.4789934,-0.9508898,1.1724783,-0.4594151,-1.5591629,-1.1390232,2.406641,1.4164625,-1.0024633,-1.4085087,1.2070464,0.34800333,-0.4972155,0.7246779,0.48274833,0.31589904,1.4703445,-0.37561035,1.3821152,-3.4625804,-0.24999447,0.014992883,0.22909546,-0.3162346,1.0099636,0.7268695,-0.1371987,0.08669827,0.6673234,-0.10373135,0.5036441,0.15427716,1.0,0.0,0.0,0.0,0.0,0.0,0.0,-2.1203446,-0.024389654,-0.83211523,2.173996,-3.0422926,-1.2793422,-30.050373,-4.8656464,0.7330537,1.4675677
17.838617,20.591583,4.700976,-9.803652,-1.3356073,-2.4244683,0.6724698,-0.7724601,0.64149696,0.20099278,-0.46807832,0.40847984,0.67851675,0.55578357,1.0952322,-0.3952654,-1.5390636,-1.1858311,2.447489,1.4843142,-0.946885,1.1585356,-0.44759908,-1.5557296,-1.1458629,2.4134731,1.4213091,-0.9992018,-1.388513,1.1733583,0.34134015,-0.746026,0.6687989,0.48587707,0.32954216,1.4357452,-0.37810898,1.3815286,-3.4591186,-0.24974452,-0.08320806,0.22877121,-0.31127167,1.010809,0.7266364,-0.13876595,0.09014051,0.66679686,-0.0024796305,0.49293318,0.057111472,1.0,0.0,0.0,0.0,0.0,0.0,0.0,-2.0857453,-0.021891028,-0.8315286,2.2869587,-3.283453,-0.7997513,-24.826931,-5.641258,0.5241275,1.3412952
11.468174,16.422411,3.0563874,-3.034821,-0.7480756,-2.1229768,0.43701467,-0.77069044,0.6233935,0.1718029,-0.5298257,0.33157724,0.6821307,0.5624426,1.0814666,-0.38525975,-1.5385493,-1.1988455,2.446631,1.4895222,-0.9429575,1.1447607,-0.4361278,-1.5524395,-1.1546978,2.4196072,1.4261805,-0.9958153,-1.3729024,1.1386645,0.32439858,-0.9292763,0.59510595,0.48787615,0.34152997,1.4011803,-0.3806038,1.3799607,-3.45566,-0.24949484,-0.18131082,0.2292862,-0.30646896,1.0108094,0.726102,-0.13941066,0.094118744,0.666695,0.0745155,0.47414643,-0.023306893,1.0,0.0,0.0,0.0,0.0,0.0,0.0,-2.0511804,-0.019396216,-0.82996064,1.7991543,-3.382802,-1.8448591,-18.31087,-7.3783875,0.3168702,1.1579514
6.650522,12.9689865,2.2621484,2.7946892,-0.26166666,-1.7896551,0.28334165,-0.7644085,0.5912597,0.1840447,-0.58773714,0.23306756,0.67737836,0.5615118,1.0683199,-0.37700185,-1.534035,-1.2134715,2.442914,1.4939183,-0.9396641,1.1311194,-0.4250671,-1.5492408,-1.1649517,2.4248257,1.4310614,-0.9923258,-1.3608372,1.0954431,0.31781882,-1.0574843,0.49756145,0.48831418,0.35117894,1.3666496,-0.3830986,1.3774124,-3.4522052,-0.24924539,-0.27931547,0.2304039,-0.30186462,1.0101221,0.72538733,-0.13935196,0.09859143,0.6668388,0.13015112,0.45229512,-0.08833855,1.0,0.0,0.0,0.0,0.0,0.0,0.0,-2.0166497,-0.016901404,-0.8274124,1.3843298,-4.236436,-0.8108437,-12.849319,-9.715593,0.102347136,0.9002805
2.4928474,7.668096,0.52226174,6.510374,0.17602882,-1.5993667,0.1788154,-0.7597409,0.5504168,0.18447706,-0.6485859,0.14955685,0.6734857,0.54686207,1.0551453,-0.37002543,-1.5307931,-1.2298102,2.4397814,1.49841,-0.9376396,1.1175734,-0.41454044,-1.5460689,-1.1762508,2.4289646,1.4359385,-0.98876476,-1.3520455,1.0386643,0.31654173,-1.1542135,0.38632327,0.4876067,0.35734442,1.3321533,-0.3855896,1.3738849,-3.4487536,-0.2489962,-0.37722215,0.23197174,-0.29753494,1.0088408,0.724573,-0.13872716,0.10349965,0.6671106,0.1697678,0.42322615,-0.14583744,1.0,0.0,0.0,0.0,0.0,0.0,0.0,-1.9821533,-0.014410406,-0.8238849,1.0248661,-5.601883,-0.2776265,-9.733796,-11.07015,-0.055640936,0.5289197
-2.9214222,-2.9022155,-3.9884882,9.0422,0.2639268,-1.5646981,-0.00087412633,-0.7368473,0.48134723,0.14380172,-0.6756802,-0.17785665,0.67229277,0.5544863,1.0438887,-0.36640573,-1.5316887,-1.2438189,2.411179,1.5031677,-0.9333161,1.1041895,-0.40479866,-1.5430782,-1.1882728,2.4312,1.440806,-0.98515224,-1.3332444,0.9528538,0.29266828,-1.2185225,0.16961668,0.48633328,0.36198685,1.2976913,-0.38807678,1.369379,-3.4453056,-0.24874726,-0.47503096,0.23387527,-0.29356766,1.006973,0.7237862,-0.13765408,0.109070964,0.6672994,0.20084536,0.3840105,-0.20490631,1.0,0.0,0.0,0.0,0.0,0.0,0.0,-1.9476913,-0.011923224,-0.81937903,2.0626307,-8.528387,-2.5746107,-6.523323,-21.632484,-0.14577508,0.2947867
-23.241064,-48.28535,-23.973576,13.614577,2.210803,-1.9065112,-0.40238908,-0.7150475,0.2741596,0.0006519223,-0.66820455,-0.37417775,0.6802324,0.5425096,1.0326848,-0.3773827,-1.543013,-1.2550933,2.3937821,1.5088292,-0.9309013,1.0910803,-0.39675155,-1.5409935,-1.2006325,2.4308987,1.4456621,-0.9815178,-1.3024863,0.7551063,0.17979373,-1.2423819,-0.09681744,0.4848899,0.36271665,1.2632637,-0.39056396,1.3638958,-3.441861,-0.24849856,-0.57274204,0.23575974,-0.2906494,1.0043873,0.72335696,-0.13602954,0.11519947,0.66706806,0.18644391,0.25815904,-0.2806369,1.0,0.0,0.0,0.0,0.0,0.0,0.0,-1.9132637,-0.009436041,-0.81389576,3.4249306,-19.83583,-11.521229,-2.558875,-26.751644,-0.26655793,-0.2670884
-68.48882,-159.5135,-71.840996,18.144701,7.17111,-2.9323995,-0.95894015,-0.6779325,-0.25799632,-0.23460034,-0.68434405,-0.5465929,0.6757052,0.5383926,1.023287,-0.42255118,-1.5644535,-1.2690668,2.3762393,1.5132327,-0.9276785,1.0784365,-0.39298454,-1.5411041,-1.2131141,2.427805,1.4504858,-0.97789955,-1.2486082,0.24939376,-0.07630592,-1.2505972,-0.38179246,0.48013303,0.35934165,1.2288704,-0.39304733,1.3574362,-3.4384198,-0.24825011,-0.67035544,0.23671722,-0.2906189,1.00063,0.723862,-0.13326468,0.12089999,0.6660687,0.06638831,-0.08517581,-0.41060644,1.0,0.0,0.0,0.0,0.0,0.0,0.0,-1.8788704,-0.006952673,-0.80743617,6.2961817,-50.916256,-26.097116,-0.9513378,-28.89671,-0.9002328,-0.9792626
-81.28034,-176.0,-84.57398,20.216675,8.890399,-3.1362472,-1.0621624,-0.6169344,-0.477062,-0.39864904,-0.6966929,-0.56685966,0.6362674,0.5209507,1.0167431,-0.44069073,-1.580969,-1.2827834,2.371119,1.5141126,-0.9258045,1.0665327,-0.39397874,-1.5456645,-1.2256035,2.4234295,1.4559008,-0.97356033,-1.1672744,-0.21712135,-0.5839097,-1.2473118,-0.4583547,0.55924934,0.45687592,1.1945114,-0.3955269,1.3500012,-3.434982,-0.24800192,-0.7678712,0.23617554,-0.29449844,0.99546534,0.72556895,-0.12899692,0.12542896,0.66421163,-0.095562615,-0.49167302,-0.55325353,1.0,0.0,0.0,0.0,0.0,0.0,0.0,-1.8445114,-0.00447312,-0.8000012,9.237361,-47.088676,-51.188713,0.6307602,-8.3103,7.1059704,9.181476
-68.14829,-159.42583,-70.503174,17.454609,7.865527,-2.5501952,-0.6034546,-0.56255347,-0.64752907,-0.38562477,-0.7504252,-0.6615823,0.65824336,0.54453355,1.0102774,-0.45873165,-1.5842271,-1.300646,2.3572712,1.5217252,-0.91910696,1.055596,-0.40019527,-1.553313,-1.2382778,2.41749,1.461434,-0.968976,-1.0655658,-0.75790095,-0.8275141,-1.2713379,-0.6407328,0.5482856,0.45820698,1.1601868,-0.39800644,1.3415918,-3.4315479,-0.24775396,-0.86528945,0.23415375,-0.30196762,0.98894393,0.72817403,-0.12325872,0.12849817,0.6618595,-0.24233948,-0.83113253,-0.68622935,1.0,0.0,0.0,0.0,0.0,0.0,0.0,-1.8101867,-0.0019935668,-0.7915918,11.239862,-54.49594,-25.013792,-1.5928984,-18.69446,-2.0393968,-0.1183331
-20.270674,-59.332287,-16.818325,15.125833,3.9664624,-0.32924843,0.68569374,-0.5116871,-0.6816271,0.030701993,-0.7669203,-0.7147448,0.68364376,0.53046125,1.0044273,-0.46835798,-1.5502428,-1.3149698,2.3460155,1.5297984,-0.9159299,1.0456835,-0.4107181,-1.560271,-1.2512783,2.4098568,1.4668432,-0.96444035,-0.9653556,-1.1510955,-0.65357023,-1.3076082,-0.8041094,0.5371755,0.45267865,1.1258965,-0.40048218,1.332209,-3.428117,-0.24750626,-0.96261036,0.2312088,-0.31107712,0.981611,0.7305124,-0.11697731,0.1301411,0.6600994,-0.31767964,-0.93464506,-0.7513126,1.0,0.0,0.0,0.0,0.0,0.0,0.0,-1.7758964,0.00048217177,-0.782209,10.3508835,-39.513004,16.902542,-3.038144,-16.351377,-1.5006185,-0.34983158
29.199734,38.598495,34.213516,11.152245,-0.018728822,1.230509,1.7695833,-0.34713116,-0.69315225,0.29959226,-0.75555104,-0.72489697,0.69089955,0.5142124,1.0109704,-0.48003334,-1.5303118,-1.3268334,2.337367,1.5359333,-0.9130191,1.0372587,-0.42384306,-1.5634124,-1.2645668,2.4009075,1.4721724,-0.9599829,-0.80276674,-1.3660259,-0.2020557,-1.33603,-0.9238532,0.532367,0.44509566,1.0916405,-0.4029541,1.3218536,-3.4246895,-0.24725881,-1.0598339,0.2282219,-0.31964874,0.974166,0.7313573,-0.1112795,0.13059323,0.6600597,-0.29814002,-0.82679033,-0.7456167,1.0,0.0,0.0,0.0,0.0,0.0,0.0,-1.7416404,0.0029540956,-0.7718536,15.926849,-21.419907,44.80701,-2.8272152,-11.592078,-0.14861822,-0.24980903
56.055016,86.32493,56.470753,6.6179686,-2.1949866,1.1950014,2.0668495,-0.10465831,-0.73367065,0.27918854,-0.7278988,-0.72640663,0.68316966,0.47550574,1.0267929,-0.49721012,-1.5354936,-1.3373567,2.3282669,1.5404893,-0.9124323,1.0313116,-0.4381701,-1.5623062,-1.2779411,2.3911152,1.4774691,-0.95562553,-0.5275098,-1.4542205,0.2145524,-1.3388033,-0.996061,0.5307153,0.43439525,1.0574188,-0.40542603,1.3105268,-3.4212656,-0.2470116,-1.1569602,0.22595215,-0.32656097,0.9670136,0.7301754,-0.10670811,0.1301921,0.6621988,-0.20752361,-0.63874084,-0.70792395,1.0,0.0,0.0,0.0,0.0,0.0,0.0,-1.7074188,0.0054260194,-0.76052684,26.891972,-8.614993,41.52275,-0.56779385,-6.7608476,0.3894925,-0.5359769
49.459656,72.30015,42.029026,3.537395,-1.8989043,-0.36126268,1.3595448,0.11316619,-0.7748538,-0.067501076,-0.70145285,-0.670805,0.6641273,0.38735786,1.0426283,-0.5156555,-1.5690563,-1.3480864,2.3240347,1.5438818,-0.9168897,1.0287386,-0.45289293,-1.559634,-1.2911419,2.381033,1.4827276,-0.95144653,-0.16981667,-1.4778962,0.2859276,-1.314534,-1.0119519,0.5247876,0.4133005,1.0232315,-0.40789413,1.2982295,-3.417845,-0.24676463,-1.2539896,0.22470093,-0.33213806,0.9600343,0.7274417,-0.10288297,0.12930289,0.6659762,-0.09925918,-0.5233175,-0.69623154,1.0,0.0,0.0,0.0,0.0,0.0,0.0,-1.6732315,0.007894129,-0.74822944,34.973953,-2.246952,7.506818,2.1795988,-1.4014482,-0.38263798,-1.8202245
37.238384,40.806282,17.895742,-3.001535,-1.1503992,-2.4048064,0.6270479,0.38857666,-0.8018368,-0.46071106,-0.71358925,-0.6017435,0.6521239,0.31494182,1.0675963,-0.5330766,-1.605705,-1.3625008,2.3208585,1.54794,-0.91995233,1.0303656,-0.4676701,-1.5591762,-1.304129,2.3711643,1.4878985,-0.94753647,0.26988888,-1.4777476,-0.030727476,-1.2941157,-0.97898537,0.51369125,0.38375834,0.9890785,-0.41035843,1.2849625,-3.414428,-0.24651793,-1.3509219,0.224617,-0.33737946,0.9527284,0.7239604,-0.09887215,0.12822774,0.6705693,0.021640709,-0.51782453,-0.74329734,1.0,0.0,0.0,0.0,0.0,0.0,0.0,-1.6390785,0.010358423,-0.7349625,42.836636,-0.0043153763,-30.654991,1.8675089,3.2504678,-1.3388872,-2.9103339
26.913889,21.735086,3.4300983,-4.387895,-0.594586,-3.286744,0.16873169,0.55139714,-0.8060355,-0.6469432,-0.7033168,-0.6106034,0.6539014,0.33384553,1.0855052,-0.5482737,-1.6238705,-1.3744607,2.310104,1.5532886,-0.9141519,1.0362688,-0.48236576,-1.5631645,-1.3169044,2.3616543,1.4929549,-0.9438925,0.69362205,-1.4670856,-0.51800334,-1.2722228,-0.9420806,0.5015363,0.35781464,0.95495987,-0.41282272,1.270727,-3.4110143,-0.24627146,-1.4477571,0.2257042,-0.34300995,0.9447093,0.72030455,-0.09401414,0.12721395,0.6753808,0.13840353,-0.57033306,-0.82351196,1.0,0.0,0.0,0.0,0.0,0.0,0.0,-1.6049598,0.012822717,-0.720727,41.276623,0.9754896,-47.659607,2.1280289,3.5826921,-1.6221881,-2.6215553
16.685635,16.26051,-0.7291789,0.31891727,-0.15736169,-2.92053,-0.108025335,0.58273953,-0.7976934,-0.6980989,-0.69135886,-0.6515919,0.639338,0.33297268,1.0945427,-0.5621351,-1.6329744,-1.3860403,2.2964952,1.5568887,-0.91059524,1.0454756,-0.49690214,-1.5717037,-1.3294548,2.3523426,1.4978892,-0.9404812,0.99419993,-1.4494632,-0.9637315,-1.2490269,-0.9276132,0.48946306,0.3355768,0.92087555,-0.4152832,1.2555238,-3.407604,-0.24602523,-1.5444956,0.22773743,-0.34920883,0.93589455,0.71678215,-0.08815871,0.12645456,0.6800446,0.22821322,-0.62890524,-0.9043862,1.0,0.0,0.0,0.0,0.0,0.0,0.0,-1.5708755,0.015283197,-0.7055238,29.387547,1.6564846,-43.905376,2.3890495,1.3334274,-1.5852928,-2.245146
7.150999,17.74538,1.5015881,7.807482,0.3358767,-1.8143933,-0.20440945,0.55485064,-0.80466384,-0.6745841,-0.6882214,-0.66481936,0.6596106,0.31224513,1.1009606,-0.5773685,-1.6391621,-1.3982769,2.2858608,1.5638502,-0.9092567,1.05646,-0.5113162,-1.5834453,-1.3418087,2.3430614,1.5027357,-0.93727875,1.1325734,-1.4390754,-1.2436224,-1.2304142,-0.9288463,0.48215252,0.3151418,0.88682556,-0.41773987,1.239354,-3.404197,-0.24577926,-1.6411375,0.23034286,-0.35583496,0.92643064,0.7134842,-0.08153375,0.12596215,0.6844166,0.27621415,-0.666637,-0.9656863,1.0,0.0,0.0,0.0,0.0,0.0,0.0,-1.5368255,0.017739862,-0.689354,13.657188,0.9313822,-27.770948,2.0174742,-0.27421713,-0.99831223,-2.0499647
1.2712927,25.890703,8.006701,15.929244,0.6930244,-0.5648283,-0.2134412,0.5306219,-0.7975493,-0.64240277,-0.6541728,-0.6733818,0.67910016,0.29949483,1.1095222,-0.5910711,-1.6476855,-1.407226,2.2757232,1.5706458,-0.90732926,1.0678622,-0.52563465,-1.5966556,-1.3538765,2.3336964,1.5075442,-0.93426514,1.1434208,-1.4298047,-1.3467827,-1.198356,-0.93964857,0.48004833,0.29673404,0.8528099,-0.42019653,1.2222185,-3.4007936,-0.24553354,-1.7376827,0.23313904,-0.36258698,0.9166113,0.7103758,-0.074572936,0.1256562,0.68848795,0.28672364,-0.6716066,-0.9935628,1.0,0.0,0.0,0.0,0.0,0.0,0.0,-1.5028099,0.020196527,-0.6722185,1.2287617,0.821352,-10.366082,3.3663511,-1.290977,-0.3248036,-1.844424
-1.3218007,32.560123,13.271939,20.275358,0.8342258,0.25490224,-0.14825554,0.51038504,-0.79641557,-0.6242635,-0.643768,-0.68529516,0.6853223,0.30251113,1.1189007,-0.6052762,-1.6590819,-1.4182533,2.2651668,1.5760764,-0.90401405,1.0788218,-0.5398873,-1.6099765,-1.3656276,2.3241787,1.5123507,-0.9314108,1.0809178,-1.4240478,-1.3278757,-1.1668123,-0.9564088,0.4807675,0.28168038,0.8188286,-0.4226532,1.2041183,-3.3973935,-0.24528806,-1.8341314,0.23588562,-0.36923218,0.9066829,0.70736456,-0.06763295,0.12544581,0.6923327,0.27606496,-0.65293515,-0.99911445,1.0,0.0,0.0,0.0,0.0,0.0,0.0,-1.4688286,0.022653192,-0.65411824,-5.9547424,0.4762888,1.7042398,3.3008814,-1.9214153,0.054186583,-1.4983296
-8.557,30.436436,11.934114,23.456047,1.2703524,0.63900214,-0.25075066,0.4348327,-0.79593116,-0.6454094,-0.64189947,-0.67425716,0.6821981,0.27875474,1.122305,-0.61948043,-1.6745175,-1.4298176,2.256753,1.5805705,-0.9035353,1.088698,-0.5541047,-1.6228263,-1.377127,2.3145428,1.5171686,-0.9287052,0.9578812,-1.4214454,-1.271601,-1.1436845,-0.96687764,0.4820598,0.26678407,0.7848778,-0.42510223,1.1850543,-3.3939967,-0.24504282,-1.9304837,0.23836899,-0.37570572,0.89674205,0.70450217,-0.06082456,0.12526275,0.6959067,0.2435346,-0.6383435,-0.9987803,1.0,0.0,0.0,0.0,0.0,0.0,0.0,-1.4348778,0.025102228,-0.6350543,-11.877513,0.14977455,5.358863,2.502346,-1.3403058,0.14693141,-1.4953613
-17.448727,22.54586,6.0874324,23.31783,1.6198993,0.629207,-0.3827752,0.32350454,-0.79864943,-0.6775392,-0.6890117,-0.67774355,0.657812,0.253854,1.1210485,-0.6339696,-1.6905802,-1.4460282,2.2467685,1.5829499,-0.90331984,1.0969435,-0.5683278,-1.6352394,-1.3886932,2.304823,1.5219771,-0.9261522,0.7820331,-1.4230334,-1.2324058,-1.1601843,-0.9748992,0.48042667,0.2513646,0.7509651,-0.42755127,1.1650275,-3.3906033,-0.24479781,-2.0267396,0.24040985,-0.38217163,0.8866849,0.701936,-0.05397478,0.12510964,0.6990852,0.1959231,-0.64222616,-1.0140749,1.0,0.0,0.0,0.0,0.0,0.0,0.0,-1.4009651,0.027551264,-0.6150275,-17.030764,-0.28805733,3.5636663,-1.3703823,-1.1391878,-0.19674301,-1.5770435
-34.980705,13.156839,-1.7204554,27.828075,2.4299974,0.99113095,-0.6924337,0.08766298,-0.7871322,-0.66078013,-0.71781236,-0.68650955,0.65076107,0.30059248,1.1057098,-0.647041,-1.7013174,-1.4604745,2.236172,1.5870532,-0.896093,1.1026236,-0.5825242,-1.6473129,-1.4006199,2.2950153,1.5267626,-0.92370605,0.49922907,-1.4191376,-1.2005267,-1.2021778,-0.9842576,0.47770536,0.24211149,0.717083,-0.4300003,1.1440388,-3.3872135,-0.24455307,-2.122899,0.2416954,-0.38885498,0.876416,0.69994426,-0.046894718,0.12504275,0.70160043,0.109846726,-0.6691464,-1.0368054,1.0,0.0,0.0,0.0,0.0,0.0,0.0,-1.367083,0.0300003,-0.5940388,-27.474045,0.21266937,2.7015686,-3.7879229,-1.3876438,-0.32859445,-1.0240525
-61.271484,-2.8002725,-14.317009,34.821583,3.8192127,1.4438021,-1.1774063,-0.22942284,-0.7878492,-0.67311597,-0.7605543,-0.66478086,0.6175949,0.3003829,1.0796813,-0.6613091,-1.7146245,-1.4766753,2.2285373,1.5885221,-0.89366776,1.1044337,-0.5966891,-1.6592453,-1.4131397,2.2851887,1.5314909,-0.92133904,0.07858938,-1.4165133,-1.1930379,-1.2663114,-0.98450035,0.47089326,0.23441522,0.683239,-0.4324417,1.1220893,-3.383827,-0.24430858,-2.2189624,0.24169922,-0.39611816,0.86583275,0.6989824,-0.039342936,0.12506585,0.7030179,-0.03469878,-0.7369074,-1.070711,1.0,0.0,0.0,0.0,0.0,0.0,0.0,-1.333239,0.032441705,-0.57208925,-40.93167,-0.016331673,0.12242794,-5.7783127,-0.6698966,-0.8300662,-0.9324789
-53.2145,12.926682,-3.374837,34.472343,3.3801045,2.056311,-0.8189883,-0.3351221,-0.7763087,-0.506288,-0.7771347,-0.6409589,0.64094514,0.43594086,1.0709214,-0.67432,-1.709874,-1.4908532,2.2210927,1.5955855,-0.877745,1.1022097,-0.61077964,-1.6704109,-1.4262851,2.2754498,1.5361754,-0.9189291,-0.31931293,-1.4074825,-1.093297,-1.328784,-0.97246534,0.46719655,0.24308667,0.6494255,-0.43488312,1.0991799,-3.3804438,-0.24406432,-2.3149297,0.2402916,-0.4037552,0.855093,0.6988954,-0.031508915,0.12503624,0.70350426,-0.17485379,-0.76483727,-1.0799423,1.0,0.0,0.0,0.0,0.0,0.0,0.0,-1.2994255,0.03488311,-0.54917985,-38.757797,0.63796043,9.3330145,-5.6715727,0.5856514,-0.47550797,0.821802
-31.477728,35.40067,13.384596,30.49435,2.2576857,2.3556974,-0.27263784,-0.37370193,-0.77000856,-0.3637545,-0.77291155,-0.6415302,0.66412514,0.48877597,1.0648395,-0.6877805,-1.7067863,-1.5035763,2.2112968,1.6025879,-0.8700515,1.0968252,-0.62475383,-1.6799457,-1.4398903,2.2658443,1.5408522,-0.9163761,-0.60909843,-1.3946748,-0.90853935,-1.3698227,-0.9582004,0.46823657,0.2597499,0.61564636,-0.43732452,1.0753115,-3.377064,-0.2438203,-2.410801,0.23778915,-0.4112587,0.84448946,0.69916195,-0.023827778,0.124789484,0.7035854,-0.27750865,-0.7371581,-1.0580047,1.0,0.0,0.0,0.0,0.0,0.0,0.0,-1.2656463,0.037324518,-0.5253115,-28.269,1.1101961,17.92146,-3.7250042,1.0004878,0.15826225,1.7709017
-16.440666,41.678265,18.381073,24.798237,1.5380899,1.8373592,-0.014882952,-0.4027281,-0.7711895,-0.3997166,-0.7803775,-0.6315239,0.6448549,0.4983813,1.0565524,-0.70187277,-1.7199174,-1.517928,2.202692,1.6053376,-0.866538,1.0894514,-0.63862216,-1.6879947,-1.4537815,2.2563992,1.5455328,-0.9136505,-0.77853215,-1.3845145,-0.77169585,-1.3946949,-0.94091386,0.4682567,0.27732396,0.58190155,-0.4397583,1.0504853,-3.3736875,-0.24357651,-2.5065763,0.23455048,-0.41841507,0.8340813,0.69945836,-0.016422218,0.12426722,0.7035949,-0.34130526,-0.6990355,-1.0383353,1.0,0.0,0.0,0.0,0.0,0.0,0.0,-1.2319015,0.039758295,-0.50048524,-16.504074,0.91478825,13.27039,-2.2147417,1.4506578,0.08585453,1.9133627
-10.969293,35.013634,13.496091,20.035013,1.3212714,0.9419863,-0.043951593,-0.41927055,-0.7755898,-0.52377653,-0.7772226,-0.6417838,0.6417378,0.49809477,1.0475243,-0.71618116,-1.7403724,-1.5315038,2.1922207,1.6097066,-0.86384106,1.0811278,-0.652439,-1.6956775,-1.4677871,2.2470722,1.5502058,-0.9107666,-0.849384,-1.3810356,-0.7677883,-1.4015692,-0.93108064,0.4669913,0.29248098,0.54818726,-0.44219208,1.0247018,-3.3703146,-0.243333,-2.602256,0.2308693,-0.4253769,0.8236688,0.69976276,-0.009063207,0.12353821,0.703554,-0.3795549,-0.68430823,-1.0446101,1.0,0.0,0.0,0.0,0.0,0.0,0.0,-1.1981872,0.04219207,-0.47470182,-6.815624,0.26056767,0.14519691,-0.4212141,0.7451892,-0.15017986,1.6325772
-17.607037,19.017395,1.4822159,17.942083,1.7622298,0.15415609,-0.30831128,-0.4749367,-0.79265684,-0.6751147,-0.78280866,-0.63888466,0.6175149,0.43472236,1.0336341,-0.7317047,-1.763189,-1.546068,2.1831837,1.6119573,-0.8672944,1.0723578,-0.6663312,-1.7044151,-1.4818062,2.2378101,1.5548388,-0.9077997,-0.8855511,-1.3924284,-0.9094745,-1.4007635,-0.9252956,0.4611999,0.29828078,0.5145111,-0.44462585,0.9979623,-3.366945,-0.24308972,-2.69784,0.2267952,-0.43250656,0.81290585,0.70030546,-0.0013177571,0.12267675,0.7032218,-0.41974282,-0.7138948,-1.0889513,1.0,0.0,0.0,0.0,0.0,0.0,0.0,-1.1645111,0.04462585,-0.44796228,-3.3623457,-1.2765169,-14.314675,0.4625082,0.26881695,-0.8079827,0.6359458
-29.291594,13.050667,-4.595717,20.733315,2.3113885,0.30607256,-0.582698,-0.6029727,-0.7823082,-0.71409416,-0.7815092,-0.6441429,0.6261681,0.4049144,1.0120605,-0.744562,-1.7758245,-1.559957,2.1733959,1.6174556,-0.86730826,1.0628802,-0.68030536,-1.7148483,-1.4957756,2.2285595,1.5594164,-0.9048157,-0.96738285,-1.399803,-1.088461,-1.393931,-0.92594063,0.45529798,0.29858577,0.48086548,-0.447052,0.9702677,-3.3635788,-0.24284668,-2.7933285,0.22214127,-0.4400711,0.801632,0.7013553,0.007039833,0.12173663,0.70230436,-0.48525333,-0.7605762,-1.142502,1.0,0.0,0.0,0.0,0.0,0.0,0.0,-1.1308655,0.047051996,-0.4202677,-7.8175783,-0.93910694,-18.057596,1.1860847,-0.47540665,-0.92909336,0.05312562
-34.35565,15.574577,-3.7700276,22.788128,2.5603523,0.7494576,-0.66092926,-0.6847552,-0.7789499,-0.72599113,-0.77730757,-0.61361736,0.6208815,0.3510797,0.9944046,-0.75820035,-1.7874475,-1.5735064,2.1671977,1.6215045,-0.8697077,1.0523192,-0.69432056,-1.7268512,-1.5096515,2.2193813,1.5639311,-0.9018755,-1.0841094,-1.4028105,-1.2381209,-1.3835369,-0.91663724,0.44912577,0.2925257,0.44725418,-0.44947815,0.9416189,-3.360216,-0.24260388,-2.8887217,0.21669006,-0.4480667,0.7898845,0.7030242,0.015987467,0.12066246,0.70067245,-0.568432,-0.80145746,-1.1881263,1.0,0.0,0.0,0.0,0.0,0.0,0.0,-1.0972542,0.049478143,-0.3916189,-11.247349,-0.53863525,-15.14163,1.5891552,0.47482252,-0.98878145,-0.5722165
-31.029093,25.235697,3.12179,23.174198,2.405133,1.2748508,-0.5365889,-0.73361236,-0.77417195,-0.70987064,-0.7680366,-0.56385654,0.6221508,0.32869866,0.97895795,-0.77173775,-1.7978383,-1.5864552,2.1629956,1.6261462,-0.8690056,1.040547,-0.7083205,-1.7398307,-1.523394,2.2104435,1.5683943,-0.8990116,-1.2069554,-1.3998752,-1.3182518,-1.3696342,-0.88744724,0.4444677,0.28451103,0.41367722,-0.4519043,0.91201687,-3.3568563,-0.24236132,-2.9840195,0.21040726,-0.45630264,0.77783763,0.7052268,0.025315624,0.119318254,0.6984107,-0.6534319,-0.81834424,-1.2131878,1.0,0.0,0.0,0.0,0.0,0.0,0.0,-1.0636772,0.05190429,-0.36201686,-11.894512,0.064754486,-8.179259,1.8851042,2.4940848,-0.7783234,-0.72327256
-25.329042,33.773136,9.404699,22.331892,2.0934165,1.5739272,-0.43664604,-0.7691151,-0.76953954,-0.72333485,-0.7535927,-0.5366158,0.61165196,0.20431721,0.9636355,-0.78527445,-1.8121642,-1.5987532,2.156782,1.6295595,-0.8785799,1.027661,-0.7222575,-1.7532604,-1.536959,2.201868,1.5728136,-0.8963146,-1.3148283,-1.3923376,-1.3515251,-1.3507583,-0.8487899,0.44034457,0.26505286,0.38013458,-0.45432663,0.8814626,-3.3535001,-0.242119,-3.079222,0.20333481,-0.46455383,0.7656588,0.7078463,0.03480679,0.11760301,0.69563746,-0.7305611,-0.8144891,-1.2224547,1.0,0.0,0.0,0.0,0.0,0.0,0.0,-1.0301346,0.054326624,-0.33146256,-10.472846,0.5525112,-3.4610033,2.3040533,3.5018444,-0.6558597,-1.836282
-18.692606,40.59349,14.978938,21.005009,1.7725673,1.7380127,-0.33617073,-0.79713666,-0.7706009,-0.71735436,-0.73486775,-0.50166404,0.58182293,0.06339184,0.9479473,-0.7993176,-1.8249958,-1.6104459,2.1517017,1.6309959,-0.8899754,1.0138766,-0.7361268,-1.7667358,-1.5502857,2.193739,1.5771796,-0.8939085,-1.3986887,-1.3856255,-1.346539,-1.3256954,-0.80208856,0.43476272,0.23291056,0.34662628,-0.45674515,0.849957,-3.3501472,-0.24187693,-3.174329,0.19558334,-0.47266006,0.7534846,0.71078026,0.044273894,0.11544243,0.6924624,-0.79573405,-0.7942597,-1.218726,1.0,0.0,0.0,0.0,0.0,0.0,0.0,-0.99662626,0.05674514,-0.29995698,-8.158135,0.50730705,0.39880276,2.83854,4.386866,-0.7220745,-3.0763478
-15.826772,41.972572,16.29182,20.510492,1.7695221,1.6696362,-0.40603408,-0.8213168,-0.7762158,-0.74402404,-0.7009828,-0.44173813,0.48891562,-0.24028394,0.9317449,-0.81374836,-1.8411382,-1.620384,2.1495652,1.6260711,-0.9179369,0.9994321,-0.7499703,-1.7801654,-1.5632519,2.186182,1.5814253,-0.8920326,-1.4592178,-1.3844452,-1.3420675,-1.2859762,-0.74102277,0.42069787,0.17292666,0.3131485,-0.45916367,0.81750107,-3.3467977,-0.24163511,-3.2693412,0.18722153,-0.48056412,0.74137396,0.71405447,0.053648103,0.112759575,0.6888638,-0.85478413,-0.7748975,-1.2112428,1.0,0.0,0.0,0.0,0.0,0.0,0.0,-0.9631485,0.05916366,-0.26750106,-5.8792114,-0.027871132,0.38745403,4.272771,5.8792353,-1.5510678,-5.8461723
-15.368416,47.44469,19.403664,25.07531,1.924703,1.8670447,-0.5852808,-0.8401815,-0.75991565,-0.7390018,-0.5749844,-0.46565014,0.43949404,-0.37446266,0.9154139,-0.8259619,-1.8540657,-1.6207503,2.139617,1.6253747,-0.9294789,0.98452616,-0.7637433,-1.7935092,-1.5752968,2.1790752,1.5855032,-0.8908291,-1.5007192,-1.3753396,-1.3317562,-1.1765357,-0.70136344,0.40306595,0.103251755,0.27970505,-0.46157837,0.78409576,-3.3434515,-0.24139354,-3.3642583,0.17827606,-0.48827744,0.72952104,0.7177911,0.06271365,0.109658025,0.6847029,-0.91441995,-0.75579315,-1.1792064,1.0,0.0,0.0,0.0,0.0,0.0,0.0,-0.929705,0.061578363,-0.23409575,-4.0388823,0.7753372,1.0814667,11.176562,3.8065553,-1.8449783,-6.8554935
-14.349721,48.080524,19.707176,26.13118,1.9448489,1.775934,-0.6534555,-0.84632194,-0.7637729,-0.75122905,-0.5033061,-0.4635867,0.32649666,-0.47895858,0.89989394,-0.84012055,-1.8686322,-1.6256274,2.1327167,1.6181529,-0.93872494,0.96934843,-0.7774495,-1.8068168,-1.5860084,2.1722507,1.5893313,-0.8903456,-1.5232745,-1.3694913,-1.3301266,-1.0351226,-0.6765263,0.3758792,0.030341508,0.24629593,-0.46398926,0.7497419,-3.3401086,-0.2411522,-3.4590805,0.16874313,-0.4958458,0.71802336,0.7220585,0.071376786,0.10626286,0.6798861,-0.9700615,-0.7418646,-1.1423209,1.0,0.0,0.0,0.0,0.0,0.0,0.0,-0.8962959,0.06398925,-0.1997419,-2.1759987,0.4549265,0.26972294,14.353156,2.3631096,-2.793306,-7.2078557
-9.263844,46.79338,19.36167,20.873404,1.4490919,1.474262,-0.4858964,-0.84177047,-0.7676221,-0.76641244,-0.51345754,-0.43465823,0.28873143,-0.5329899,0.8851714,-0.8542117,-1.883458,-1.6373541,2.128785,1.6182044,-0.9436446,0.9540777,-0.79109466,-1.8205247,-1.5957026,2.1650717,1.5932143,-0.89031726,-1.5287254,-1.354191,-1.4629886,-0.97305924,-0.8949668,0.42643422,0.02539672,0.21791458,-0.46669006,0.7262048,-1.7629689,-0.22555242,0.9745884,0.1587944,-0.50318146,0.7066369,0.72665745,0.07974693,0.10291747,0.6745497,-0.99789435,-0.70623165,-1.1727599,0.0,1.0,0.0,0.0,0.0,0.0,0.0,-0.86791456,0.06669006,-0.1762048,-0.65455437,2.8327942,-25.37918,2.342379,-46.188164,12.898695,5.9755487
64.869705,176.0,110.0,99.42607,-0.6710469,10.222233,-1.2869064,-0.807838,0.49820942,0.6874781,0.7510687,0.16856857,0.56017065,-0.4823697,0.87329394,-0.7412737,-1.7517769,-1.5205958,2.1819286,1.6492313,-0.9385542,0.94349384,-0.80277526,-1.8346047,-1.5947375,2.1505034,1.6067507,-0.88870937,-0.90495294,-1.1056466,-1.3831655,0.44866833,-1.6409235,1.6688887,0.20320964,0.20029831,-0.46894073,0.7352069,-1.7612063,-0.22532691,0.87542796,0.14878464,-0.5087204,0.69884616,0.731447,0.079511784,0.10417235,0.66918707,-1.0060344,-0.48776624,-0.64944935,1.0,0.0,0.0,0.0,0.0,0.0,0.0,-0.8502983,0.06894073,-0.18520689,61.351692,24.945236,9.913111,140.8338,-73.64836,126.139114,16.960905
9.195433,160.14589,96.26443,88.53898,3.5392728,6.4668493,-1.3360268,-0.81982756,-0.47359,0.2520259,0.78412515,-0.5014293,0.48462293,-0.39168593,0.8615111,-0.85013425,-1.8094021,-1.516325,2.1003604,1.655213,-0.92787796,0.9346113,-0.81249225,-1.843615,-1.5840449,2.1340468,1.6234629,-0.88696223,-0.8826161,-0.92841697,-0.73776716,1.2753153,-1.6507167,1.6764439,0.16571595,0.18270111,-0.4711914,0.7432181,-1.7594454,-0.22510163,0.7763667,0.13842392,-0.51293564,0.6959276,0.7370474,0.07251132,0.10750934,0.6632835,-1.0464956,-0.38909456,-0.17700176,1.0,0.0,0.0,0.0,0.0,0.0,0.0,-0.8327011,0.0711914,-0.19321811,2.2589445,17.288662,65.342155,82.39647,-2.024269,2.1123886,-3.6105542
-23.253496,146.80994,63.95735,69.115875,3.2305367,4.0610304,-1.677701,-0.81189597,-0.049071524,-0.40777928,0.7505151,-0.6193596,0.60548884,0.057146724,0.85342175,-0.8173994,-1.884393,-1.5089934,2.072111,1.6840118,-0.8812476,0.924778,-0.81896484,-1.8492093,-1.5680232,2.118704,1.6392939,-0.8854354,-1.0153942,-0.55513614,-0.50023884,1.7112228,-1.49874,1.5545956,0.1476131,0.16511917,-0.47344208,0.75023955,-1.7576864,-0.22487657,0.67740446,0.12751007,-0.5164032,0.696481,0.74376345,0.0628999,0.11215958,0.6559571,-1.1071776,-0.32500112,0.12658717,1.0,0.0,0.0,0.0,0.0,0.0,0.0,-0.81511915,0.07344207,-0.20023954,-12.855185,36.84081,23.706257,43.660355,14.350247,-11.445498,-2.0282269
-44.843838,83.70175,23.30505,44.22068,3.440092,1.900593,-1.3724903,-0.81228,-0.18623355,-0.4830692,0.8011516,-0.6432924,0.56216735,-0.13224614,0.84354997,-0.8375882,-1.8975163,-1.487908,2.054375,1.6955106,-0.89866,0.91316605,-0.8228539,-1.8541245,-1.549953,2.1052268,1.6535151,-0.8842395,-1.2086568,-0.33454138,-0.48946396,1.8395776,-1.2983458,1.3787376,0.10992569,0.14755249,-0.47568893,0.7562721,-1.755929,-0.22465174,0.57854116,0.11577606,-0.51968,0.6985643,0.75152075,0.053249218,0.117459156,0.6469809,-1.196748,-0.319425,0.22992884,1.0,0.0,0.0,0.0,0.0,0.0,0.0,-0.79755247,0.07568893,-0.20627207,-18.973087,21.749378,0.8046806,13.033533,19.697357,-17.363214,-3.8778424
-49.936165,28.118029,-6.590292,22.365976,2.9783225,0.2845147,-0.88183093,-0.82601273,-0.2857675,-0.5546752,0.7932004,-0.6576207,0.6164678,-0.1864405,0.8305648,-0.85143065,-1.909592,-1.4706329,2.0394647,1.7151619,-0.9028835,0.89980125,-0.8258456,-1.8601632,-1.5320354,2.0934966,1.6660979,-0.8834327,-1.3782444,-0.28783333,-0.6427099,1.7764311,-1.1312085,1.2180468,0.070714876,0.1300087,-0.47793198,0.7613167,-1.7541734,-0.22442713,0.47977677,0.10310745,-0.52322006,0.700489,0.7600321,0.0451083,0.12264288,0.63661224,-1.2913499,-0.3557997,0.17568435,1.0,0.0,0.0,0.0,0.0,0.0,0.0,-0.7800087,0.07793197,-0.2113167,-16.707897,4.549086,-15.568983,-6.1171055,16.73653,-16.109539,-3.966652
-38.031742,6.0062504,-13.141689,9.659445,2.1320467,-0.3841874,-0.3800055,-0.8199531,-0.3151548,-0.53793454,0.80395025,-0.6333971,0.59894174,-0.22955045,0.81780595,-0.8573611,-1.9139566,-1.4516404,2.0301569,1.7259921,-0.90638775,0.885232,-0.8291825,-1.8678269,-1.5152373,2.0831206,1.6772254,-0.88301307,-1.4826348,-0.34911034,-0.80808085,1.6482078,-1.0066254,1.0774528,0.032518696,0.11248016,-0.48017502,0.7653744,-1.7524196,-0.22420275,0.38111117,0.08967209,-0.5271721,0.70143557,0.76893085,0.03895024,0.12726586,0.6253252,-1.3626112,-0.39674023,0.06435696,1.0,0.0,0.0,0.0,0.0,0.0,0.0,-0.76248014,0.08017501,-0.21537441,-10.272694,-6.168139,-16.664934,-12.634945,12.481666,-14.176083,-3.807299
-23.801195,6.60343,-7.890085,4.9271812,1.3877811,-0.41971046,-0.047393903,-0.8267975,-0.32555148,-0.52589357,0.80085,-0.609168,0.5768163,-0.24051589,0.8025522,-0.86173767,-1.9204164,-1.4351523,2.0222037,1.734907,-0.9070647,0.8700428,-0.83341587,-1.8767877,-1.4996963,2.0736868,1.6871054,-0.88293964,-1.5306813,-0.44820178,-0.92552793,1.5232602,-0.9222939,0.95784223,-0.0010400391,0.09496689,-0.48241806,0.7684382,-1.7506675,-0.2239786,0.28147897,0.075737,-0.5314255,0.70127577,0.7779089,0.034587424,0.13120832,0.6135517,-1.4066395,-0.42290232,-0.045453835,1.0,0.0,0.0,0.0,0.0,0.0,0.0,-0.74496686,0.082418054,-0.21843821,-4.7115326,-9.939837,-11.765385,-12.321067,8.35762,-12.059855,-3.320023
-11.820848,16.89714,1.1784699,5.0153303,0.9475979,-0.18139076,0.10871741,-0.8255731,-0.34227142,-0.5200792,0.8015721,-0.5726751,0.5640313,-0.26026815,0.7874855,-0.867643,-1.9287956,-1.4195391,2.0164194,1.7435086,-0.9089664,0.8546915,-0.8386296,-1.8864655,-1.4851089,2.0649207,1.6959364,-0.88317615,-1.5364784,-0.545852,-0.98150456,1.4375845,-0.86222243,0.8577849,-0.031133516,0.0774765,-0.48465347,0.77050644,-1.7489171,-0.22375466,0.1819464,0.061531067,-0.5358162,0.7002293,0.78678095,0.031564366,0.13451517,0.6015687,-1.4287597,-0.430616,-0.12680171,1.0,0.0,0.0,0.0,0.0,0.0,0.0,-0.7274765,0.08465347,-0.22050643,-0.5542517,-9.814781,-5.5226088,-8.431363,5.841124,-10.065472,-2.9724698
-5.2465177,27.843946,8.38303,7.218835,0.73153496,0.09340811,0.1288794,-0.822664,-0.36292192,-0.5324113,0.80234134,-0.56934565,0.5782009,-0.27405903,0.7724251,-0.8749218,-1.9397067,-1.4048747,2.007986,1.7537565,-0.91058207,0.83945656,-0.8446816,-1.8964162,-1.471046,2.0565627,1.7039092,-0.8836892,-1.5191526,-0.6253005,-0.9991453,1.3960493,-0.8276925,0.7769902,-0.058016904,0.060001373,-0.4868889,0.7715801,-1.7471685,-0.22353095,0.082513325,0.04719925,-0.5401726,0.6985836,0.7954662,0.029440768,0.13735612,0.5894913,-1.4381932,-0.42392007,-0.17981635,1.0,0.0,0.0,0.0,0.0,0.0,0.0,-0.71000135,0.08688888,-0.22158009,1.7186642,-8.0214615,-1.6239405,-4.0514946,3.2409787,-8.105803,-2.67618
-1.9605398,39.884956,14.335731,9.834743,0.5547779,0.35231233,0.09517273,-0.81921935,-0.3595921,-0.54578495,0.7981455,-0.5734418,0.57828814,-0.2721868,0.7575346,-0.8806408,-1.9509947,-1.3912314,1.9992185,1.761738,-0.9109079,0.82445335,-0.8512572,-1.9064145,-1.4571719,2.0483954,1.7111857,-0.88443977,-1.4942596,-0.668686,-0.99960387,1.3848346,-0.8139104,0.71113145,-0.0808848,0.042541504,-0.4891243,0.77166015,-1.7454218,-0.22330746,-0.016820326,0.032836914,-0.5443611,0.6965974,0.8039373,0.027908834,0.13997994,0.5773313,-1.4381855,-0.403763,-0.20759657,1.0,0.0,0.0,0.0,0.0,0.0,0.0,-0.6925415,0.08912429,-0.22166014,2.449274,-4.4484973,0.13868809,-1.0634661,1.1265397,-6.591332,-2.324429
-3.492587,45.781322,16.287186,12.436199,0.64670753,0.5523261,0.014593467,-0.8228599,-0.3738659,-0.5562667,0.8017692,-0.5693371,0.59143364,-0.2904586,0.74216735,-0.8886438,-1.9620411,-1.376995,1.9914616,1.770329,-0.91348565,0.8096514,-0.8581151,-1.9163938,-1.443254,2.0402892,1.7179015,-0.88540584,-1.4756162,-0.6919068,-0.99694526,1.3942552,-0.8100332,0.65852594,-0.10195508,0.025100708,-0.4913559,0.77074766,-1.7436767,-0.2230842,-0.11605466,0.01846695,-0.54831314,0.6944358,0.81221944,0.026788848,0.14256635,0.5650281,-1.4406492,-0.37814167,-0.22185338,1.0,0.0,0.0,0.0,0.0,0.0,0.0,-0.6751007,0.09135589,-0.22074765,1.8340588,-2.457583,0.4628539,1.0010242,0.12500286,-5.2758813,-2.1684542
-2.9389427,53.233757,19.368477,14.019918,0.6119735,0.7443097,-0.012098875,-0.81529725,-0.36535925,-0.5443785,0.80546,-0.56702507,0.6132717,-0.30625874,0.72812164,-0.894651,-1.9708316,-1.362708,1.9835867,1.7792287,-0.9160317,0.7950096,-0.8650292,-1.9262795,-1.4291778,2.0321906,1.7241824,-0.8865703,-1.4604915,-0.69171363,-0.9849012,1.4123077,-0.8108739,0.6178591,-0.1215729,0.0076789856,-0.49358368,0.7688436,-1.7419333,-0.22286116,-0.21518977,0.004081726,-0.5519333,0.6922357,0.8203158,0.02593931,0.14524664,0.55255085,-1.4396898,-0.3439751,-0.2221193,1.0,0.0,0.0,0.0,0.0,0.0,0.0,-0.65767896,0.09358367,-0.21884358,1.4687538,-0.1390338,1.4302135,1.835823,-0.37705898,-4.0827036,-2.0524712
-2.957493,56.091934,20.325909,14.413848,0.5985204,0.83087814,-0.00438552,-0.8096607,-0.36875075,-0.5366757,0.80627465,-0.57122815,0.6239597,-0.30633333,0.71404356,-0.9019043,-1.9799471,-1.3485503,1.9750677,1.7865783,-0.9172036,0.7804918,-0.8718833,-1.9360127,-1.414928,2.0240538,1.7301219,-0.88790923,-1.448958,-0.68383425,-0.9685698,1.4292283,-0.8152293,0.5860808,-0.13827759,-0.009727478,-0.49581146,0.7659489,-1.7401917,-0.22263834,-0.31422576,-0.01027298,-0.5551872,0.69006455,0.82821023,0.025281565,0.14808977,0.5399055,-1.4371313,-0.30615896,-0.21818836,1.0,0.0,0.0,0.0,0.0,0.0,0.0,-0.6402725,0.09581146,-0.21594888,1.1025429,0.62208176,1.873064,1.7121553,-0.7415652,-3.1978607,-1.7712414
0.9552579,64.69456,24.574524,14.358414,0.3681625,0.9571943,0.06205574,-0.7956765,-0.33279446,-0.5071079,0.8044492,-0.5788626,0.6400037,-0.28498816,0.70092416,-0.9051627,-1.9867235,-1.334483,1.9661676,1.7941222,-0.91640806,0.7661114,-0.87847507,-1.9454656,-1.4005618,2.0158484,1.7358038,-0.8893798,-1.4347308,-0.6516428,-0.9365663,1.438832,-0.8233839,0.56214356,-0.15041623,-0.027118683,-0.49803925,0.7620645,-1.7384518,-0.22241575,-0.41316277,-0.02450943,-0.5579872,0.6880285,0.83584136,0.024722328,0.15118967,0.52716184,-1.4215051,-0.25859854,-0.20145956,1.0,0.0,0.0,0.0,0.0,0.0,0.0,-0.6228813,0.09803924,-0.2120645,1.3281107,3.0402184,3.4867048,0.91707706,-1.1755347,-2.3995757,-1.349476
-2.635062,57.90032,20.105932,13.802544,0.5004462,0.8022727,0.04683549,-0.79528266,-0.35487914,-0.54452085,0.80594295,-0.59066325,0.6383909,-0.26656374,0.6865831,-0.91396296,-1.9999176,-1.3199675,1.9567821,1.7996429,-0.9160362,0.7518444,-0.88486373,-1.9548173,-1.3861365,2.0075362,1.7412779,-0.89093906,-1.4242748,-0.63520014,-0.9336961,1.4437709,-0.8345964,0.54261893,-0.15810077,-0.044487,-0.5002594,0.75719154,-1.7367138,-0.22219338,-0.51200086,-0.03866577,-0.56038284,0.68604016,0.8432098,0.024343016,0.15453531,0.51431835,-1.4143527,-0.2201955,-0.20035812,1.0,0.0,0.0,0.0,0.0,0.0,0.0,-0.605513,0.10025939,-0.20719153,0.9832382,1.4809847,0.53247213,0.49843788,-1.4231682,-1.9790411,-0.8866757
-4.79386,50.282963,15.988935,12.67765,0.58764374,0.6468799,0.060425602,-0.7857823,-0.3774245,-0.5611929,0.8074312,-0.6043325,0.65862364,-0.2491839,0.6732662,-0.92260617,-2.0109365,-1.3053935,1.9471029,1.8071404,-0.91585743,0.7376919,-0.89126194,-1.964293,-1.3716826,1.9990871,1.7466013,-0.89254695,-1.4124498,-0.6418324,-0.95137143,1.4459991,-0.84880465,0.52859265,-0.16197485,-0.061840057,-0.50247955,0.7513309,-1.7349774,-0.22197123,-0.6107401,-0.052799225,-0.5624542,0.68394065,0.8503275,0.024247514,0.15804651,0.50137466,-1.4141016,-0.19006848,-0.21544275,1.0,0.0,0.0,0.0,0.0,0.0,0.0,-0.5881599,0.10247955,-0.2013309,1.14398,-0.8069873,-1.553452,0.27070045,-1.668942,-1.442802,-0.48222244
-4.8614726,47.661892,14.737681,11.861912,0.60713166,0.59363234,0.088676326,-0.77762866,-0.3837075,-0.55820376,0.804805,-0.60801595,0.660802,-0.24671115,0.65992904,-0.92963266,-2.0201135,-1.2912022,1.9382855,1.8126816,-0.9172181,0.7236662,-0.8978089,-1.9739575,-1.3572345,1.9905117,1.7518065,-0.89418155,-1.3994857,-0.6594177,-0.97073597,1.4446325,-0.8613567,0.51762617,-0.16424331,-0.07917786,-0.5046997,0.74448365,-1.7332428,-0.2217493,-0.7093807,-0.06692886,-0.5642319,0.6816449,0.85718954,0.024475075,0.16164654,0.48836204,-1.4149624,-0.16236834,-0.23656987,1.0,0.0,0.0,0.0,0.0,0.0,0.0,-0.5708221,0.1046997,-0.19448364,1.2594223,-1.8939495,-1.7243147,-0.07712841,-1.4902711,-1.1446595,-0.3093779
-6.176043,45.92479,13.022714,11.506914,0.5814207,0.51873124,0.12238203,-0.7715061,-0.38555294,-0.5965844,0.8027564,-0.6300856,0.6641116,-0.1365512,0.6465156,-0.9363642,-2.033616,-1.2769588,1.9275031,1.8182176,-0.9078367,0.7097683,-0.90453804,-1.9839635,-1.3428168,1.9817741,1.7569182,-0.8957513,-1.3865939,-0.6778121,-1.0098883,1.4411516,-0.8786865,0.508997,-0.15487878,-0.0965004,-0.50691605,0.7366478,-1.7315099,-0.2215276,-0.80831635,-0.08109665,-0.56575775,0.6790832,0.8637782,0.025103945,0.16533893,0.47531036,-1.417612,-0.137276,-0.26490206,1.0,0.0,0.0,0.0,0.0,0.0,0.0,-0.5534996,0.10691604,-0.18664777,1.2628794,-1.9738317,-3.7171125,-0.27182102,-1.9467711,-0.92229843,0.8485198
-4.9482512,40.724518,11.236686,10.02413,0.5993028,0.39037332,0.1687724,-0.7492865,-0.42963946,-0.60921156,0.80576223,-0.62665826,0.6700409,-0.12085597,0.63483965,-0.94750196,-2.0448847,-1.2622406,1.9191083,1.8239223,-0.9078369,0.6960707,-0.91161716,-1.9943719,-1.3284163,1.9729011,1.7619612,-0.8972114,-1.3642417,-0.7183823,-1.0503819,1.439955,-0.890814,0.5025439,-0.14331844,-0.11380005,-0.5091286,0.72782326,-1.7297788,-0.22130612,-0.90715307,-0.09529877,-0.56707764,0.67616874,0.8700833,0.026162852,0.16903278,0.46227533,-1.4215341,-0.11793163,-0.30266052,1.0,0.0,0.0,0.0,0.0,0.0,0.0,-0.5361999,0.109128565,-0.17782325,2.2102594,-4.1742325,-3.8573742,-0.022816658,-1.3979435,-0.713253,1.0948211
-1.1879978,38.61434,11.65189,8.317156,0.53292906,0.33604723,0.2502672,-0.7241139,-0.46872902,-0.59924805,0.804756,-0.6277583,0.6872845,-0.09044881,0.62365925,-0.9584901,-2.0542967,-1.2479408,1.9101253,1.8306897,-0.90625626,0.68268013,-0.919237,-2.0050473,-1.3140254,1.9639385,1.7669642,-0.8985389,-1.3308392,-0.7768637,-1.072495,1.4391534,-0.8988687,0.49917454,-0.12939063,-0.13108444,-0.5113411,0.71801114,-1.7280493,-0.22108486,-1.0058911,-0.109500885,-0.56822205,0.67285484,0.8760797,0.027590424,0.17260432,0.44936723,-1.4205354,-0.10050288,-0.34330788,0.0,1.0,0.0,0.0,0.0,0.0,0.0,-0.51891553,0.11134109,-0.16801113,3.2943964,-5.95088,-1.9991398,0.012207031,-0.9934664,-0.40117502,1.3571173
-2.1710358,32.277428,9.082059,7.184448,0.6160978,0.2514416,0.2908436,-0.71452093,-0.52686095,-0.61688286,0.803788,-0.62623864,0.68184066,-0.0047422918,0.61122805,-0.9719231,-2.0667355,-1.2336466,1.9013146,1.8351482,-0.8990131,0.6696167,-0.9276217,-2.015923,-1.2996402,1.9549282,1.7719367,-0.8996728,-1.2982796,-0.85929024,-1.0917684,1.4388275,-0.9021832,0.49613696,-0.10803035,-0.14835358,-0.5135498,0.7072123,-1.7263216,-0.22086382,-1.1045305,-0.12374115,-0.5692253,0.669056,0.88176817,0.029377392,0.17591769,0.4366632,-1.4255257,-0.08792581,-0.39457762,0.0,1.0,0.0,0.0,0.0,0.0,0.0,-0.5016464,0.1135498,-0.15721232,3.2271624,-8.331787,-1.7375946,0.107598305,-0.4849553,-0.3776312,2.1432266
1.7542024,34.98044,10.983927,6.330777,0.45693123,0.23938769,0.36550623,-0.68163645,-0.55170274,-0.6150544,0.80819964,-0.6420829,0.6791534,0.09856719,0.60145307,-0.982792,-2.0774286,-1.2188202,1.8907199,1.839852,-0.8898161,0.65702224,-0.9368091,-2.0271864,-1.2853122,1.9459676,1.7773688,-0.90069705,-1.2469355,-0.9387244,-1.1370975,1.4318101,-0.88750005,0.5648786,-0.09526237,-0.16469574,-0.51301193,0.7062551,-1.5456485,0.10189571,0.19634037,-0.13800049,-0.5700569,0.66467625,0.88714284,0.031357713,0.17896898,0.424222,-1.4259224,-0.068898074,-0.4546038,0.0,1.0,0.0,0.0,0.0,0.0,0.0,-0.48530424,0.11301193,-0.15625507,4.167533,-7.9961777,-0.69806576,0.4243374,-0.6999135,-0.42364597,2.9828608
6.162552,88.44636,33.72867,16.598946,0.7883207,1.4363463,0.20698155,-0.7350095,-0.3661977,-0.4134402,0.80801624,-0.5779525,0.62532157,-0.04396235,0.5835213,-0.9734289,-2.0685303,-1.2045106,1.8881723,1.839901,-0.9050933,0.6445272,-0.9457231,-2.037612,-1.2709918,1.9372205,1.782963,-0.90156204,-1.2510313,-0.87644744,-1.0094607,1.4317058,-0.8723604,0.557405,-0.08405099,-0.18014145,-0.5119972,0.70746964,-1.5441031,0.10179384,0.09649918,-0.15198135,-0.5703697,0.6605873,0.89217037,0.033027392,0.18208098,0.41205302,-1.38836,-0.0066237985,-0.3967677,0.0,1.0,0.0,0.0,0.0,0.0,0.0,-0.46985853,0.11199722,-0.15746963,-0.60355663,5.997646,13.293886,-0.16615391,0.8923173,-0.7998109,0.97004324
3.3302689,118.83062,43.589405,24.196375,1.0868689,1.9471943,0.028285384,-0.75787103,-0.25365725,-0.4015765,0.8039791,-0.5631699,0.6126516,-0.094066545,0.56874007,-0.9710888,-2.0777695,-1.1905938,1.8809035,1.8442281,-0.91096866,0.6317594,-0.953281,-2.0465994,-1.256681,1.9286507,1.7884238,-0.9023698,-1.2861964,-0.71652734,-0.8597187,1.4300838,-0.85452515,0.54214466,-0.08050072,-0.1955719,-0.5109825,0.7076865,-1.5425593,0.101692066,-0.003242197,-0.16550827,-0.5699043,0.65748256,0.89686704,0.03416898,0.18570335,0.39997038,-1.3390388,0.07632309,-0.2845381,0.0,1.0,0.0,0.0,0.0,0.0,0.0,-0.45442808,0.11098251,-0.15768647,-3.7471533,15.682745,15.617455,-0.41749477,0.97874403,-1.5852928,0.094771385
-7.9058056,107.76596,34.93466,25.325222,1.3509076,1.6717632,-0.09949166,-0.77846456,-0.25840858,-0.4737393,0.79963046,-0.56719047,0.61676985,-0.07305759,0.55391294,-0.97912186,-2.0939734,-1.1767179,1.8719317,1.8501008,-0.90967554,0.61852145,-0.95933205,-2.054656,-1.2423968,1.9202107,1.7937167,-0.90314037,-1.3369079,-0.5689541,-0.7857162,1.4273363,-0.84274423,0.5246081,-0.07674221,-0.21098709,-0.5099678,0.7069067,-1.541017,0.101590395,-0.10288386,-0.17871857,-0.5686798,0.6553018,0.90129876,0.03502547,0.18994914,0.38775393,-1.3133137,0.14793798,-0.19812748,0.0,1.0,0.0,0.0,0.0,0.0,0.0,-0.43901289,0.1099678,-0.15690666,-5.221367,14.467108,7.9128385,-0.3969431,0.5241871,-1.8523455,0.14919639
-12.104023,82.063484,23.382776,21.108423,1.330975,1.109802,-0.07589223,-0.77196825,-0.29488975,-0.49628985,0.79981035,-0.56657463,0.6299616,-0.054814704,0.5413246,-0.988821,-2.104285,-1.1624157,1.8635533,1.8567128,-0.90862185,0.60488105,-0.96443135,-2.062461,-1.2281318,1.9118642,1.798857,-0.9038623,-1.3733413,-0.49096057,-0.7776105,1.4261658,-0.8335354,0.51008314,-0.07120638,-0.22638702,-0.5089531,0.7051312,-1.5394763,0.10148882,-0.2024259,-0.19182587,-0.5669098,0.6536031,0.90551585,0.03594409,0.19461548,0.37533158,-1.3081092,0.19732729,-0.16214246,0.0,1.0,0.0,0.0,0.0,0.0,0.0,-0.42361295,0.10895309,-0.15513116,-3.7263393,7.577735,1.1763334,-0.12564659,0.4790783,-1.5677094,0.400649
-12.55723,64.31268,15.910358,17.301643,1.1687,0.68513185,-0.011291556,-0.7676803,-0.2840972,-0.5239068,0.8037573,-0.56406444,0.63656497,0.0192676,0.528113,-0.99284106,-2.1148515,-1.1477561,1.8554577,1.8625134,-0.9019355,0.59102225,-0.9690929,-2.0705633,-1.2138495,1.9035958,1.8038752,-0.90447646,-1.3902645,-0.45847496,-0.8202909,1.4288777,-0.8255218,0.49855256,-0.058471113,-0.2417717,-0.5079384,0.70236945,-1.5379372,0.10138735,-0.30074522,-0.20495605,-0.5647621,0.6519996,0.9095281,0.037193853,0.19950822,0.36272818,-1.3124977,0.23081812,-0.16114095,0.0,1.0,0.0,0.0,0.0,0.0,0.0,-0.40822828,0.10793838,-0.15236944,-1.7377853,3.075552,-3.9973974,0.31108856,0.50097704,-1.2700915,1.1504948
-11.262655,50.789795,10.865841,13.756317,0.9798248,0.37292618,0.07016461,-0.76327205,-0.29489598,-0.55326915,0.80320084,-0.56659794,0.6370479,0.06587421,0.51469505,-0.9985825,-2.1258903,-1.1335294,1.846936,1.8675799,-0.897889,0.5771215,-0.97372776,-2.0793028,-1.1995387,1.8953866,1.8087943,-0.9049323,-1.3901179,-0.46567243,-0.8907424,1.432202,-0.8202089,0.48924777,-0.041526817,-0.2571411,-0.5069237,0.69862527,-1.5363995,0.10128599,-0.39896622,-0.21816254,-0.5623665,0.65020096,0.9133272,0.038949843,0.20446518,0.35001448,-1.3214598,0.2525778,-0.18706709,0.0,1.0,0.0,0.0,0.0,0.0,0.0,-0.39285886,0.10692367,-0.14862525,-0.007820129,-0.85480213,-6.835735,0.40171146,0.32260418,-1.0444582,1.593972
-0.72257614,53.060196,14.481536,11.001454,0.71856946,0.30881432,0.22740078,-0.73121667,-0.28491443,-0.5227135,0.806074,-0.5530589,0.6574763,0.16933672,0.5039998,-1.0022192,-2.1315742,-1.1189313,1.8400807,1.8745419,-0.88799864,0.563447,-0.9785054,-2.0886102,-1.185213,1.8874623,1.8138068,-0.9050974,-1.36006,-0.48213652,-0.9434633,1.4325737,-0.7818289,0.5084176,-0.008979034,-0.27136612,-0.5051422,0.69696915,-1.3712602,0.18966348,-0.07214382,-0.23135757,-0.5597725,0.64815843,0.9168672,0.04106256,0.20932324,0.33741966,-1.3166724,0.27308017,-0.21093357,0.0,1.0,0.0,0.0,0.0,0.0,0.0,-0.37863386,0.105142206,-0.14696914,2.6921988,-1.7366111,-3.990817,0.32172203,1.2557387,0.0865221,2.5118291
-5.0171742,43.719143,10.671475,10.436008,0.96139836,0.26368928,0.19104156,-0.75520885,-0.34444362,-0.5332508,0.8047992,-0.5323046,0.62079287,0.106872804,0.48792613,-1.0129497,-2.1419353,-1.104733,1.8342319,1.8758861,-0.89441013,0.5499553,-0.98373055,-2.0982497,-1.1708733,1.879786,1.8188623,-0.9050545,-1.3456097,-0.5363046,-0.96994394,1.434741,-0.763422,0.5043373,0.008646132,-0.28495407,-0.5031929,0.69593215,-1.3539873,0.19668408,-0.11269052,-0.24459457,-0.5569916,0.6457876,0.9201865,0.04347985,0.21392821,0.32496285,-1.3224117,0.2894817,-0.24669234,0.0,1.0,0.0,0.0,0.0,0.0,0.0,-0.3650459,0.103192896,-0.14593214,1.4026642,-5.522573,-2.4028301,0.2872467,1.6346693,-0.5311847,1.7203172
3.5733647,51.217274,16.12021,9.459234,0.88026094,0.39901364,0.2709859,-0.72628486,-0.35004961,-0.46806806,0.8016049,-0.51825583,0.64768267,0.12552845,0.4773268,-1.0187355,-2.1450565,-1.0907128,1.8279605,1.8836306,-0.89250165,0.536682,-0.989486,-2.1076982,-1.1565337,1.8722845,1.8238953,-0.9048478,-1.3215564,-0.588998,-0.9351689,1.4335833,-0.74670535,0.50280136,0.0245535,-0.29829788,-0.5011673,0.69459265,-1.3271048,0.20435075,-0.1392256,-0.25774002,-0.5540314,0.6431855,0.9232791,0.046005648,0.21822336,0.31275833,-1.309926,0.30919692,-0.26567936,0.0,1.0,0.0,0.0,0.0,0.0,0.0,-0.3517021,0.10116729,-0.14459264,2.299118,-5.375862,3.8334727,-0.11334419,1.3624787,-0.26165247,1.5517693
0.614944,40.746033,12.356675,8.174587,1.0310882,0.32264358,0.2716172,-0.7319886,-0.43593955,-0.4565827,0.80237424,-0.49279118,0.6291084,0.16469313,0.46348315,-1.03308,-2.1533566,-1.0762963,1.8230054,1.8868061,-0.8883785,0.52357644,-0.996052,-2.1166546,-1.1422018,1.864963,1.8288838,-0.90447444,-1.3071806,-0.6794698,-0.88154626,1.4332931,-0.7279139,0.49739802,0.041695736,-0.31145096,-0.49908447,0.6928424,-1.3103306,0.20964704,-0.1848731,-0.27086258,-0.5508957,0.640288,0.9261858,0.04854061,0.22204338,0.3008659,-1.3094257,0.3254732,-0.29893184,0.0,1.0,0.0,0.0,0.0,0.0,0.0,-0.33854902,0.09908447,-0.14284241,1.3727427,-9.131395,5.6637287,0.045895576,1.627934,-0.64247847,1.7466187
7.2755976,51.83634,18.031216,8.618034,1.018214,0.47705555,0.31560254,-0.7104863,-0.43466654,-0.3719508,0.801193,-0.48693803,0.62163556,0.22060543,0.45252782,-1.0395187,-2.1538496,-1.0620825,1.8162693,1.8910474,-0.88241386,0.51065505,-1.0033791,-2.124726,-1.1278832,1.8578204,1.8338246,-0.9039018,-1.2874312,-0.75075,-0.7812803,1.4314287,-0.7107528,0.4928944,0.062482882,-0.32435226,-0.4969406,0.69078004,-1.2820752,0.2160974,-0.21123098,-0.28385162,-0.54756165,0.6372193,0.92890984,0.05089538,0.22538143,0.2893775,-1.2918425,0.3459609,-0.31092685,0.0,1.0,0.0,0.0,0.0,0.0,0.0,-0.3256477,0.09694061,-0.14078003,1.8568516,-7.227397,10.434425,-0.17771721,1.3498664,-0.5381584,2.0980663
15.732043,56.99336,23.801003,7.687231,1.3705083,0.6926158,0.32874554,-0.7044659,-0.51260644,-0.15922216,0.791758,-0.40262112,0.6198239,0.15762949,0.44020844,-1.0546397,-2.1406484,-1.0487074,1.8175583,1.895807,-0.8881389,0.4979148,-1.0115712,-2.1309247,-1.1136293,1.8510671,1.8387291,-0.9031817,-1.2701384,-0.8423239,-0.56445247,1.4233744,-0.6650339,0.48944616,0.07555982,-0.3369217,-0.49472427,0.6885445,-1.2478563,0.22325096,-0.22611809,-0.29658127,-0.5439911,0.63419735,0.93150914,0.052568223,0.2280205,0.2784489,-1.2635924,0.37012407,-0.30089602,0.0,1.0,0.0,0.0,0.0,0.0,0.0,-0.31307828,0.09472427,-0.1385445,1.5705585,-9.25169,22.211468,-0.8407116,4.0787935,-0.42040348,1.4004111
18.7812,60.314026,26.31255,7.275415,1.4453958,0.81459767,0.35216394,-0.70927495,-0.5618866,-0.01267212,0.7710286,-0.41589522,0.59940505,0.18933892,0.4269873,-1.0677599,-2.132192,-1.0365264,1.8094776,1.8986696,-0.8842478,0.48527664,-1.0207093,-2.1345024,-1.0995492,1.8446964,1.8435917,-0.9023252,-1.262178,-0.938109,-0.2869128,1.4026935,-0.62954533,0.48508653,0.08945747,-0.34911728,-0.49243546,0.6862062,-1.209373,0.23069352,-0.23445612,-0.30897903,-0.54016113,0.63134956,0.93402725,0.053230837,0.229851,0.26819414,-1.2277275,0.39685446,-0.28137615,0.0,1.0,0.0,0.0,0.0,0.0,0.0,-0.3008827,0.09243545,-0.13620621,0.6462097,-9.677911,28.31691,-2.1106005,2.986598,-0.47540665,1.5081332
14.8953495,59.309307,24.692019,7.9091554,1.5269868,0.8050883,0.27985352,-0.7208905,-0.6061587,0.09055055,0.7538202,-0.41385597,0.5669028,0.1415444,0.4131876,-1.0813252,-2.1254473,-1.0241672,1.8033108,1.900282,-0.8881708,0.47261894,-1.0307877,-2.1353147,-1.085738,1.8386034,1.8483863,-0.9013809,-1.2672701,-1.0313146,-0.011104886,1.3739878,-0.6042277,0.47762176,0.09660094,-0.36094666,-0.49007416,0.6837624,-1.1732888,0.23842672,-0.24635546,-0.32105255,-0.5360527,0.62867355,0.9365054,0.052848015,0.23088577,0.25856623,-1.1971258,0.42478123,-0.26523852,0.0,1.0,0.0,0.0,0.0,0.0,0.0,-0.28905332,0.09007415,-0.13376236,-0.6013632,-9.423887,28.065586,-2.8693914,2.0043135,-0.7586241,0.8503437
1.9084868,53.670174,17.003918,9.551779,1.3133214,0.555802,0.1673174,-0.7318987,-0.6109033,0.023140185,0.73186857,-0.4239078,0.54964584,0.13444504,0.39942905,-1.091878,-2.1330006,-1.0125511,1.7962126,1.9033508,-0.8879364,0.45983502,-1.04157,-2.13438,-1.0722662,1.8326498,1.8530897,-0.90038836,-1.2821319,-1.0942394,0.12900405,1.3386995,-0.59337646,0.46799445,0.10049216,-0.3724823,-0.48763657,0.6810742,-1.1469152,0.24556723,-0.27565262,-0.33294296,-0.53167343,0.62596637,0.93894976,0.05190919,0.23134643,0.24931394,-1.1840703,0.45052624,-0.275254,0.0,1.0,0.0,0.0,0.0,0.0,0.0,-0.27751768,0.08763656,-0.13107419,-1.499629,-6.3848734,14.260204,-3.4386873,0.76642036,-0.9445369,0.49681664
-7.9004574,46.98147,10.012621,10.271557,1.0550932,0.25773597,0.100169964,-0.73137563,-0.62826884,-0.03360794,0.7173791,-0.4100103,0.5254775,0.16428544,0.38669747,-1.1043968,-2.1377409,-1.0005283,1.7916487,1.9056375,-0.88395983,0.44691133,-1.0528157,-2.1330411,-1.059138,1.8267848,1.8576788,-0.8993479,-1.2956637,-1.1349101,0.13554247,1.304667,-0.58463174,0.4559031,0.10552505,-0.3838234,-0.48513794,0.67796254,-1.1301937,0.2512088,-0.32321227,-0.34482193,-0.5270767,0.6229648,0.94134796,0.051027946,0.23145427,0.24018534,-1.1858419,0.47142094,-0.3114099,0.0,1.0,0.0,0.0,0.0,0.0,0.0,-0.26617658,0.08513793,-0.12796253,-1.3243675,-4.141927,0.7166505,-3.2407522,0.7469535,-1.1827409,0.58719516
-12.544805,45.51896,6.686761,11.40302,0.8105002,0.045295596,0.08113785,-0.7214975,-0.6375447,-0.0820707,0.7311722,-0.44020173,0.5069845,0.27773207,0.37476158,-1.1165701,-2.1412482,-0.98602074,1.7827647,1.9083772,-0.8715747,0.43393233,-1.0643265,-2.1323242,-1.0461946,1.8208884,1.86214,-0.8981797,-1.2984972,-1.156724,0.05007678,1.2916607,-0.591467,0.44290328,0.12072952,-0.39502335,-0.48259354,0.67432994,-1.1164129,0.25539547,-0.37681943,-0.3567543,-0.52230453,0.61951125,0.9436572,0.050667997,0.23145038,0.23102935,-1.1930995,0.48780882,-0.35964945,0.0,1.0,0.0,0.0,0.0,0.0,0.0,-0.25497663,0.08259353,-0.124329925,-0.23982525,-2.255106,-8.55825,-1.0915756,-0.7182598,-1.281035,1.5698075
-8.38219,50.651882,9.308565,11.616422,0.8460538,0.03925723,0.086092904,-0.7095389,-0.6535583,-0.04182704,0.7358075,-0.4151221,0.47959217,0.31911886,0.36297846,-1.1296823,-2.136507,-0.9726138,1.7793761,1.9100993,-0.8662678,0.42101672,-1.076011,-2.1323776,-1.0332704,1.8149834,1.8664645,-0.8968332,-1.2891461,-1.17247,-0.023960864,1.2932776,-0.5904141,0.42896116,0.13941802,-0.40604782,-0.4800148,0.6702264,-1.0977163,0.25896725,-0.4213473,-0.36870956,-0.51737976,0.61565375,0.94586104,0.050856467,0.23140553,0.2218375,-1.1937962,0.502853,-0.39733085,0.0,1.0,0.0,0.0,0.0,0.0,0.0,-0.24395216,0.080014795,-0.12022638,0.9570837,-1.662612,-7.341957,0.35037994,0.0074505806,-1.3957798,1.9033283
4.3058205,61.99011,17.232197,10.43953,1.00122,0.23413557,0.16232753,-0.69340724,-0.6723415,0.09440387,0.7242714,-0.39352298,0.47288072,0.37064436,0.351676,-1.1432451,-2.1229372,-0.9608432,1.7756311,1.9137526,-0.85976875,0.4082828,-1.0878708,-2.13237,-1.0203404,1.8091711,1.8706645,-0.8952704,-1.2682695,-1.190885,0.010057191,1.2930149,-0.5792229,0.4170662,0.16203031,-0.41677856,-0.47739792,0.665859,-1.0651683,0.26223004,-0.44172612,-0.38052368,-0.51229095,0.61163914,0.9479643,0.051157072,0.23122527,0.21279442,-1.173511,0.5186463,-0.40574485,0.0,1.0,0.0,0.0,0.0,0.0,0.0,-0.23322141,0.07739791,-0.11585897,2.0501375,-1.9496679,3.659726,0.071287155,0.8239031,-1.1903942,2.2972555
14.484435,73.982376,24.952478,9.981506,1.4123877,0.46909425,0.17075977,-0.6897129,-0.68227506,0.24139622,0.70155454,-0.31533208,0.42796358,0.3526145,0.33931148,-1.1560984,-2.1082304,-0.950185,1.7776378,1.9134609,-0.86000896,0.39575717,-1.0999177,-2.1311262,-1.0075212,1.8037132,1.8747307,-0.89350915,-1.2475994,-1.2096255,0.16374113,1.2782383,-0.5361291,0.4032777,0.18104796,-0.42709732,-0.4747467,0.6614654,-1.0204152,0.2661611,-0.4374531,-0.39202118,-0.5070267,0.60778326,0.9500184,0.050958857,0.23069118,0.2040825,-1.1381584,0.53812486,-0.38179436,0.0,1.0,0.0,0.0,0.0,0.0,0.0,-0.22290266,0.0747467,-0.111465394,1.9901991,-2.001214,15.792238,-1.4556408,3.8298368,-1.3706744,1.9639641
17.601126,75.113914,26.279583,8.427678,1.5557151,0.47283387,0.17377576,-0.6883674,-0.69436705,0.30032042,0.65367794,-0.22752447,0.3413543,0.30755612,0.32692042,-1.1693543,-2.101094,-0.94215333,1.7809608,1.9088662,-0.8627535,0.3833966,-1.1121628,-2.1280897,-0.9950757,1.7989297,1.8786076,-0.8916126,-1.2324107,-1.2297643,0.35200688,1.233222,-0.46068662,0.38244036,0.19276048,-0.43696213,-0.47206116,0.6571364,-0.974699,0.26961273,-0.4310461,-0.40315247,-0.5015602,0.6041984,0.9520888,0.04996153,0.22956723,0.19577964,-1.100412,0.5570077,-0.3535548,0.0,1.0,0.0,0.0,0.0,0.0,0.0,-0.21303785,0.07206115,-0.10713637,1.446414,-2.1404982,19.25043,-4.4910192,7.0429564,-2.0599008,1.2553573
14.022085,72.024376,23.801579,8.314645,1.7316254,0.28629404,0.11892281,-0.68431437,-0.6945896,0.30542392,0.620727,-0.0736408,0.17553031,0.32485697,0.31496516,-1.1816218,-2.0975473,-0.933003,1.7915657,1.8961606,-0.85912687,0.37115338,-1.1245587,-2.123474,-0.98320436,1.795285,1.8821611,-0.8896094,-1.2217239,-1.2433559,0.4993354,1.1719598,-0.33392614,0.34636703,0.2032015,-0.44641495,-0.4693451,0.6528135,-0.9358322,0.27260312,-0.43339157,-0.4139824,-0.4959259,0.60084003,0.95424414,0.04820868,0.22763552,0.18781914,-1.0744447,0.5740069,-0.33297303,0.0,1.0,0.0,0.0,0.0,0.0,0.0,-0.20358503,0.06934509,-0.10281348,1.0273695,-1.4729977,15.042889,-6.0773134,12.277901,-3.5780072,1.1429936
8.992471,56.041164,15.818284,5.056498,1.6029344,-0.25923306,0.1401518,-0.6679516,-0.70907,0.20294304,0.5449901,0.21623322,-0.15710323,0.40898946,0.3043582,-1.1954657,-2.1031797,-0.92870533,1.8169084,1.8664508,-0.8487105,0.3590499,-1.1371052,-2.1183357,-0.9721971,1.7936186,1.8851157,-0.8874587,-1.2066519,-1.258688,0.51916337,1.0772414,-0.11171499,0.2784723,0.21937296,-0.45562363,-0.4666214,0.64820325,-0.9163659,0.27230427,-0.4715431,-0.42472076,-0.49019623,0.5974101,0.9565721,0.046120938,0.22451197,0.1801023,-1.0702021,0.57948613,-0.34936902,0.0,1.0,0.0,0.0,0.0,0.0,0.0,-0.19437635,0.06662139,-0.09820324,1.4757872,-1.6123533,2.1046758,-9.377885,22.018343,-6.796259,1.7287582
-15.703609,32.5208,-0.38345683,6.8539734,1.0328244,-0.7774851,0.056292538,-0.68710977,-0.7011309,-0.12731054,0.53055674,0.2718419,-0.30943602,0.45690432,0.2903389,-1.2072183,-2.1310668,-0.9191414,1.8208028,1.8541721,-0.84176826,0.34697875,-1.1497262,-2.1149676,-0.96204156,1.79409,1.8872948,-0.88512063,-1.2072026,-1.2632899,0.2756077,0.9958839,0.10054234,0.19746524,0.23911911,-0.4647827,-0.46390152,0.6427621,-0.9157341,0.27200124,-0.5705493,-0.43569946,-0.4844513,0.59332573,0.95905304,0.044807237,0.22028115,0.1722956,-1.1045878,0.58144134,-0.43107653,0.0,1.0,0.0,0.0,0.0,0.0,0.0,-0.18521726,0.063901514,-0.09276211,-0.019741058,-0.48971176,-24.587923,-7.8776,21.378323,-8.14614,2.1124125
-17.42881,26.427557,-5.5471935,5.6316853,-0.060010597,-1.1412721,0.17408459,-0.6433236,-0.67747176,-0.33785498,0.5212855,0.19720635,-0.42648497,0.5377832,0.2826464,-1.2174733,-2.1487532,-0.909913,1.8138107,1.8446462,-0.83134234,0.3350707,-1.1622422,-2.1151583,-0.9525134,1.796047,1.8886375,-0.88254094,-1.1852045,-1.2479658,-0.11815431,0.93952173,0.22794226,0.112795986,0.26457486,-0.47393417,-0.46118546,0.6363088,-0.9148186,0.2717293,-0.67025805,-0.44696808,-0.4787941,0.5881969,0.9615378,0.045245644,0.21543391,0.16427445,-1.1316752,0.5686585,-0.5432486,0.0,1.0,0.0,0.0,0.0,0.0,0.0,-0.1760658,0.06118545,-0.08630878,2.2426367,1.4903069,-39.645897,-5.325234,12.935421,-8.548589,2.6509583
-11.849688,31.77243,-2.406139,4.7719183,-0.3795209,-0.97298074,0.26408458,-0.63513964,-0.68422914,-0.36919343,0.48783,0.18729398,-0.46037954,0.5811145,0.27155674,-1.2306651,-2.1520777,-0.9037304,1.8147764,1.8425996,-0.8244295,0.3234125,-1.174619,-2.1189616,-0.943484,1.7987916,1.8891869,-0.87969613,-1.159227,-1.2345923,-0.468268,0.89168894,0.29030123,0.03519466,0.2913422,-0.4830742,-0.4584694,0.6288591,-0.91390395,0.2714576,-0.76986706,-0.4583969,-0.4732666,0.58201516,0.9639152,0.047586456,0.21028902,0.15614562,-1.1413789,0.55547005,-0.64605445,0.0,1.0,0.0,0.0,0.0,0.0,0.0,-0.16692579,0.058469385,-0.07885909,2.6407003,1.2634993,-35.15706,-4.5098543,6.309861,-7.887974,2.7441382
-6.5005817,41.437763,3.4627335,5.277048,-0.0031625628,-0.60612696,0.24908786,-0.63760126,-0.6933172,-0.38551882,0.4575989,0.27646473,-0.49732357,0.58665127,0.25965238,-1.2439507,-2.1575134,-0.8977241,1.8264381,1.8394545,-0.821031,0.31195888,-1.1869328,-2.1254008,-0.9349124,1.8021085,1.889019,-0.8766062,-1.1407039,-1.2307879,-0.7023667,0.8462276,0.34536007,-0.034830853,0.31505257,-0.49220657,-0.45575714,0.620414,-0.9129902,0.2711862,-0.86937654,-0.4698372,-0.46780014,0.57500875,0.96617216,0.051374204,0.20484008,0.14802848,-1.1407493,0.55143297,-0.72156906,0.0,1.0,0.0,0.0,0.0,0.0,0.0,-0.1577934,0.055757135,-0.07041401,1.8748045,0.28607845,-23.39388,-4.342401,5.4412603,-7.1793914,2.418536
2.1449323,62.842686,14.37721,7.867402,0.7162647,-0.035644054,0.18672734,-0.63657737,-0.68305886,-0.29133654,0.4481518,0.30047798,-0.4916416,0.58644265,0.24830115,-1.2552387,-2.1545343,-0.8900972,1.8321563,1.8398548,-0.81796193,0.3006269,-1.199199,-2.1327946,-0.92672265,1.8058865,1.8882649,-0.8733224,-1.1308175,-1.2255046,-0.7513064,0.8098733,0.3885723,-0.0886053,0.33244497,-0.5013161,-0.45313644,0.61146235,-0.9076427,0.25571454,-0.879347,-0.4811592,-0.46227646,0.56764805,0.96832913,0.055751555,0.19904944,0.14003468,-1.1224976,0.56101024,-0.74350286,0.0,1.0,0.0,0.0,0.0,0.0,0.0,-0.1486839,0.053136438,-0.061462343,0.94218254,0.41913986,-4.6126842,-3.5455346,4.2140303,-5.8782005,1.9271195
18.611513,78.70334,24.489607,6.4341683,1.0986166,0.31173006,0.22737944,-0.6085169,-0.6874294,-0.16813827,0.40719473,0.36483312,-0.49908257,0.58356255,0.23977521,-1.267942,-2.1496084,-0.8860032,1.8423698,1.8383566,-0.8149662,0.28946885,-1.211448,-2.1394088,-0.91897774,1.8102036,1.8870269,-0.8698769,-1.1112343,-1.2249897,-0.63041985,0.76238257,0.44503802,-0.13592298,0.34849235,-0.5100708,-0.4506073,0.6027299,-0.86409146,0.25177744,-0.86911666,-0.49212646,-0.45666885,0.5603879,0.97043306,0.059798658,0.19277266,0.13237257,-1.0824476,0.5692378,-0.7226914,0.0,1.0,0.0,0.0,0.0,0.0,0.0,-0.13992918,0.050607294,-0.052729905,1.8265963,-0.032806396,12.509573,-4.8588753,5.3043723,-4.86082,1.5647829
38.10367,96.72833,35.794582,5.188179,1.5303969,0.5911697,0.2531421,-0.5718526,-0.6901452,0.0692518,0.38604125,0.42688355,-0.5068957,0.5771063,0.23228359,-1.2804625,-2.1324837,-0.8803736,1.8528919,1.8363373,-0.8121663,0.27864465,-1.223716,-2.14346,-0.9117155,1.8151946,1.8853772,-0.86629474,-1.0734594,-1.2276549,-0.32805625,0.71326816,0.51563936,-0.17467363,0.36114785,-0.51823807,-0.44815826,0.59447515,-0.80060977,0.24263197,-0.81033134,-0.5025253,-0.4510231,0.5536989,0.97255033,0.06255214,0.18585105,0.12526947,-1.0199388,0.57142574,-0.65334404,0.0,1.0,0.0,0.0,0.0,0.0,0.0,-0.13176191,0.04815826,-0.04447514,3.5859346,-0.33352375,30.795336,-5.1662445,6.651771,-3.9164453,1.1576891
56.818954,99.49544,40.17557,-0.024067163,1.2026309,0.42669842,0.3954847,-0.5097769,-0.6954301,0.19779658,0.32702374,0.5109843,-0.5585782,0.57290936,0.22766696,-1.293259,-2.1236804,-0.8790131,1.8662931,1.8295194,-0.80900383,0.26844415,-1.2360394,-2.1440933,-0.9051057,1.8210411,1.8833592,-0.8626067,-1.0028906,-1.2341782,0.026636645,0.64258975,0.60629374,-0.21066281,0.3708732,-0.52570343,-0.44586182,0.5869348,-0.72843105,0.22518796,-0.7352846,-0.51216125,-0.44550323,0.54776615,0.97472066,0.063500114,0.17814225,0.118964605,-0.94020027,0.55261666,-0.5758737,0.0,1.0,0.0,0.0,0.0,0.0,0.0,-0.124296546,0.04586181,-0.036934793,6.870723,-0.7168293,36.025284,-7.3432565,8.685648,-3.553933,0.8342445
46.49445,97.46664,35.70019,3.6347163,1.1630529,0.21351755,0.274002,-0.48907685,-0.6633138,0.15936412,0.34990835,0.555903,-0.5559264,0.5927175,0.21953647,-1.3023708,-2.128157,-0.87011486,1.8766314,1.8277665,-0.80333495,0.25896275,-1.2482731,-2.142041,-0.8989605,1.8277812,1.881024,-0.85882145,-0.93025076,-1.2201267,0.26647848,0.604751,0.6955919,-0.24090058,0.38065198,-0.53250504,-0.44374084,0.5800954,-0.6653321,0.20792668,-0.6690191,-0.5211296,-0.44015503,0.54250944,0.9769153,0.06291431,0.16981137,0.11332348,-0.87838256,0.53380436,-0.5116175,0.0,1.0,0.0,0.0,0.0,0.0,0.0,-0.11749494,0.04374084,-0.030095398,7.1639776,1.3223648,24.397963,-3.9046168,8.675432,-2.9747696,0.87981224
47.817394,103.69949,36.957325,5.339263,1.0998335,0.15667805,0.23626772,-0.43257627,-0.63813645,0.31485575,0.35200468,0.5856796,-0.508376,0.59769,0.21570513,-1.3120868,-2.1105554,-0.86376,1.8863492,1.8301864,-0.7990525,0.25031072,-1.260236,-2.1377616,-0.8930097,1.8353261,1.8784624,-0.85494715,-0.8437417,-1.1885192,0.48314986,0.5916674,0.7732938,-0.26106352,0.38937774,-0.53865814,-0.4418068,0.5740283,-0.6004257,0.18835557,-0.58918095,-0.52947235,-0.43503952,0.53795695,0.9790898,0.060951672,0.16110052,0.10823427,-0.81663,0.5106495,-0.4391278,0.0,1.0,0.0,0.0,0.0,0.0,0.0,-0.111341834,0.041806787,-0.024028301,8.587635,3.0644417,22.0586,-1.363802,7.560718,-1.9327104,0.7766366
38.19118,93.23719,30.832993,3.3866556,0.6579963,0.14332479,0.3631539,-0.44530326,-0.6214537,0.34881398,0.21084167,0.6347286,-0.50641155,0.5914757,0.20578039,-1.3223814,-2.1028802,-0.87192553,1.898799,1.8278213,-0.79579955,0.24227679,-1.2718269,-2.1318629,-0.8877236,1.8436,1.8757312,-0.8509988,-0.7900349,-1.1495662,0.62612057,0.50773656,0.84496796,-0.27674705,0.39649442,-0.5442352,-0.44005585,0.56857383,-0.5452943,0.17129931,-0.5350618,-0.53723145,-0.43011856,0.53389996,0.9812053,0.057960074,0.15203233,0.10374501,-0.7595498,0.49087733,-0.3974818,0.0,1.0,0.0,0.0,0.0,0.0,0.0,-0.10576475,0.04005584,-0.01857382,5.3471327,3.8043022,14.513529,-8.360124,7.0721626,-1.439929,0.68101287
