Afshin1997/kuka_rl_ros2/src/catch_and_throw/input_files/idealpd/polynomial_regressor/optimizer_files/env_469_data.csv
torque0,torque1,torque2,torque3,torque4,torque5,torque6,action0,action1,action2,action3,action4,action5,action6,set_target_0,set_target_1,set_target_2,set_target_3,set_target_4,set_target_5,set_target_6,joint_pos_0,joint_pos_1,joint_pos_2,joint_pos_3,joint_pos_4,joint_pos_5,joint_pos_6,joint_vel_0,joint_vel_1,joint_vel_2,joint_vel_3,joint_vel_4,joint_vel_5,joint_vel_6,tennisball_pos_0,tennisball_pos_1,tennisball_pos_2,tennisball_lin_vel_0,tennisball_lin_vel_1,tennisball_lin_vel_2,end_effector_pos_0,end_effector_pos_1,end_effector_pos_2,end_effector_rot_0,end_effector_rot_1,end_effector_rot_2,end_effector_rot_3,end_effector_lin_vel_0,end_effector_lin_vel_1,end_effector_lin_vel_2,obs_task_0,obs_task_1,obs_task_2,obs_task_3,obs_task_4,obs_task_5,obs_task_6,to_final_target_0,to_final_target_1,to_final_target_2,joint_acc_0,joint_acc_1,joint_acc_2,joint_acc_3,joint_acc_4,joint_acc_5,joint_acc_6
0.0,0.0,0.0,0.0,0.0,0.0,0.0,0.0,0.0,0.0,0.0,0.0,0.0,0.0,1.7802359,-1.0646509,-1.8151424,-1.1170107,1.9373155,1.1170107,-0.91629785,1.7802359,-1.0646509,-1.8151424,-1.1170107,1.9373155,1.1170107,-0.91629785,0.0,0.0,0.0,0.0,0.0,0.0,0.0,2.9505005,-0.3769207,0.20975748,-3.9043062,-0.16535603,4.69655,0.5304184,-0.45449638,0.693097,0.5745483,0.17512383,0.15255436,0.7848268,0.0,0.0,0.0,1.0,0.0,0.0,0.0,0.0,0.0,0.0,-3.6005006,-0.023079306,0.34024253,0.0,0.0,0.0,0.0,0.0,0.0,0.0
0.0,0.0,0.0,0.0,0.0,0.0,0.0,0.0,0.0,0.0,0.0,0.0,0.0,0.0,1.7802359,-1.0646509,-1.8151424,-1.1170107,1.9373155,1.1170107,-0.91629785,1.7802359,-1.0646509,-1.8151424,-1.1170107,1.9373155,1.1170107,-0.91629785,0.0,0.0,0.0,0.0,0.0,0.0,0.0,2.9505005,-0.3769207,0.20975748,-3.9043062,-0.16535603,4.69655,0.5304184,-0.45449638,0.693097,0.5745483,0.17512383,0.15255436,0.7848268,0.0,0.0,0.0,1.0,0.0,0.0,0.0,0.0,0.0,0.0,-3.6005006,-0.023079306,0.34024253,0.0,0.0,0.0,0.0,0.0,0.0,0.0
0.0,0.0,0.0,0.0,0.0,0.0,0.0,0.0,0.0,0.0,0.0,0.0,0.0,0.0,1.7802359,-1.0646509,-1.8151424,-1.1170107,1.9373155,1.1170107,-0.91629785,1.7802359,-1.0646509,-1.8151424,-1.1170107,1.9373155,1.1170107,-0.91629785,0.0,0.0,0.0,0.0,0.0,0.0,0.0,2.9505005,-0.3769207,0.20975748,-3.9043062,-0.16535603,4.69655,0.5304184,-0.45449638,0.693097,0.5745483,0.17512383,0.15255436,0.7848268,0.0,0.0,0.0,1.0,0.0,0.0,0.0,0.0,0.0,0.0,-3.6005006,-0.023079306,0.34024253,0.0,0.0,0.0,0.0,0.0,0.0,0.0
-176.0,61.532707,-9.675827,110.0,10.6044655,4.456587,-3.9090743,-0.81493336,0.32472208,-0.5770837,0.73299444,0.1092785,0.64884454,-0.5541296,1.6987425,-1.0321786,-1.8728508,-1.0437113,1.9482433,1.1818951,-0.9717108,1.7789065,-1.0622076,-1.8216789,-1.1118971,1.943255,1.1228625,-0.9186458,-0.17708845,0.3250926,-0.8708669,0.6821648,0.79092664,0.7780763,-0.31246623,2.9114914,-0.37857246,0.25595132,-3.9004028,-0.1651907,4.5936685,0.5281601,-0.45797348,0.6938882,0.5788453,0.17353125,0.1508674,0.78234524,-0.30228668,-0.46410915,0.105231,1.0,0.0,0.0,0.0,0.0,0.0,0.0,-3.5614915,-0.021427542,0.2940487,-17.619823,32.273155,-86.89448,68.32418,78.789955,77.14936,-31.046728
-176.0,-32.465485,-45.37308,106.85754,10.786083,1.2025107,-2.9999456,-0.80822927,-0.18248908,-0.55283874,0.6999205,0.19667487,0.6405222,-0.58370256,1.6980835,-1.0804565,-1.8769628,-1.041905,1.9629225,1.1869147,-0.97701603,1.777043,-1.0594171,-1.8369148,-1.097384,1.9529214,1.1360651,-0.92018694,-0.19268712,0.25104776,-1.7104237,1.7084098,1.0086699,1.4663315,-0.10889473,2.8725128,-0.38022423,0.3011171,-3.8965032,-0.16502555,4.490889,0.52326965,-0.4666977,0.6947014,0.5878044,0.17000854,0.14739016,0.77708375,-0.55216706,-1.0054278,0.07712632,1.0,0.0,0.0,0.0,0.0,0.0,0.0,-3.522513,-0.019775778,0.24888292,-2.518484,-11.204261,-74.78402,102.78382,16.766226,58.424854,18.092138
-144.4576,100.996864,26.483273,84.772026,6.942158,6.7061524,-1.7094736,-0.7545021,0.27477783,0.011449296,0.63172644,0.29183155,0.6754314,-0.51770175,1.7015928,-1.0319394,-1.8357699,-1.0342113,1.9821045,1.2036083,-0.9719571,1.7719275,-1.05631,-1.8521507,-1.0786614,1.9625592,1.1505247,-0.92143244,-0.61785126,0.32738912,-1.4550053,1.9283422,0.94369787,1.432861,-0.13131566,2.83358,-0.38187218,0.34525585,-3.8926075,-0.16486055,4.3882127,0.5155716,-0.4781704,0.69697076,0.59951615,0.16498445,0.14304653,0.7699987,-0.84877664,-1.1878343,0.28112376,1.0,0.0,0.0,0.0,0.0,0.0,0.0,-3.48358,-0.018127829,0.20474416,-42.52598,6.650853,27.47364,22.407913,-8.02499,-5.228257,-2.699195
-89.44053,107.8625,39.47212,51.771297,4.0743465,6.8699875,-0.3348611,-0.77351487,0.15175614,0.09351941,0.63571304,0.29905564,0.6352758,-0.5490658,1.694576,-1.0411345,-1.8427987,-1.0150901,1.9924648,1.2140523,-0.97633904,1.7625948,-1.0530943,-1.8621452,-1.0602021,1.9707761,1.1638857,-0.92301553,-1.0395445,0.3173623,-0.83997524,1.8187343,0.7752084,1.3002287,-0.1692905,2.7946777,-0.38352013,0.3883686,-3.8887155,-0.16469572,4.2856393,0.50540924,-0.4902172,0.7010988,0.6120929,0.1586432,0.13796692,0.7623252,-1.0831233,-1.1984581,0.46135223,1.0,0.0,0.0,0.0,0.0,0.0,0.0,-3.4446778,-0.01647988,0.1616314,-42.512928,-1.7197311,63.82017,-10.84981,-18.583143,-14.3654585,-4.39333
-38.495113,127.74378,49.13085,28.77996,1.4829735,6.208651,0.22861019,-0.79354393,0.30625787,0.02147159,0.6331874,0.3989109,0.6245335,-0.54002076,1.6832404,-1.0224684,-1.859998,-0.9968834,2.010667,1.2263391,-0.97701764,1.7497984,-1.0493292,-1.8663471,-1.0439725,1.977633,1.1758085,-0.9250049,-1.3609562,0.3945077,-0.2738496,1.5572603,0.65160036,1.1542904,-0.21097809,2.7558212,-0.38516617,0.4304564,-3.8848274,-0.16453105,4.183168,0.493515,-0.50149727,0.7069099,0.62443995,0.15122965,0.13247943,0.7547539,-1.2361248,-1.0909595,0.6236101,1.0,0.0,0.0,0.0,0.0,0.0,0.0,-3.4058213,-0.014833838,0.11954361,-32.58786,7.1646333,58.547436,-26.332474,-13.680851,-15.159035,-4.8202844
-6.133869,120.35335,43.38215,13.768814,-0.34073138,4.2354527,0.20577173,-0.81053966,0.4051958,-0.115621306,0.6215935,0.41113317,0.60847116,-0.55883425,1.6687444,-1.0088096,-1.8779092,-0.98181313,2.0187464,1.2366557,-0.9808883,1.7348181,-1.0443472,-1.8669441,-1.0303445,1.9836221,1.1863962,-0.9273843,-1.5447868,0.53153783,0.015671616,1.2971534,0.5789797,1.0263464,-0.24866062,2.7170029,-0.3868103,0.47152027,-3.8809435,-0.16436656,4.0807996,0.48072815,-0.51146126,0.71388614,0.6362559,0.14325115,0.1272943,0.7472976,-1.305164,-0.95134807,0.72256035,1.0,0.0,0.0,0.0,0.0,0.0,0.0,-3.367003,-0.013189703,0.07847974,-18.770313,13.337124,30.144197,-26.256393,-7.951665,-12.93745,-4.3020816
17.175747,126.031815,43.77124,7.7253604,-1.2981517,3.2426448,0.09029093,-0.816497,0.5369824,-0.10343987,0.6073607,0.44965938,0.6061026,-0.53226984,1.6531684,-0.9906489,-1.8772881,-0.9696084,2.028588,1.2470065,-0.9806113,1.7188841,-1.037517,-1.8661258,-1.0187993,1.9893022,1.1958605,-0.93007654,-1.6108644,0.7324436,0.10679461,1.1061718,0.5628835,0.9196263,-0.27764916,2.6782227,-0.38845253,0.5115612,-3.8770635,-0.16420223,3.9785335,0.46764374,-0.5199108,0.7217822,0.6475645,0.13498102,0.122941874,0.7398146,-1.3197353,-0.7954929,0.81121224,1.0,0.0,0.0,0.0,0.0,0.0,0.0,-3.3282228,-0.011547476,0.038438797,-6.9710493,19.797838,9.979303,-19.346214,-1.9981384,-10.683203,-3.3942282
28.83767,119.874565,40.765198,5.0342174,-1.5034404,2.4003196,0.023106799,-0.8122103,0.6027104,-0.08017785,0.58838224,0.4927864,0.61146575,-0.53608435,1.6376631,-0.9772459,-1.8741436,-0.95996106,2.038581,1.2570071,-0.98368496,1.7028853,-1.0286859,-1.8652427,-1.0085702,1.9951406,1.2044016,-0.9330167,-1.5972666,0.9325842,0.08414588,0.99448997,0.5899706,0.8324132,-0.3009143,2.6394806,-0.39009285,0.5505802,-3.8731873,-0.16403806,3.87637,0.45462036,-0.5268917,0.73045105,0.65845764,0.1265537,0.11955089,0.73220575,-1.3026123,-0.65106046,0.8843593,1.0,0.0,0.0,0.0,0.0,0.0,0.0,-3.2894807,-0.009907156,-0.0005801916,1.0522366,19.796204,-1.6118929,-11.406052,2.4796963,-8.705068,-2.754271
32.87433,114.241806,39.193336,4.889305,-1.2811837,2.107762,0.05535072,-0.8128146,0.66188574,-0.012476273,0.5572954,0.5241145,0.61820054,-0.53531194,1.6216038,-0.96249735,-1.8664904,-0.9528407,2.047552,1.2662216,-0.9865479,1.6872717,-1.0180582,-1.8646457,-0.9990547,2.001411,1.2121912,-0.9361543,-1.5502244,1.1054088,0.0535779,0.93640804,0.63880193,0.761112,-0.31937203,2.6007767,-0.39173317,0.5885784,-3.869315,-0.16387406,3.7743084,0.4418335,-0.5325241,0.73982865,0.66897476,0.11796694,0.11693744,0.72448754,-1.2769202,-0.5196856,0.9543476,1.0,0.0,0.0,0.0,0.0,0.0,0.0,-3.2507768,-0.008266836,-0.03857839,4.4410944,17.103886,-2.4748592,-6.0329437,4.706955,-7.1629643,-2.235943
31.370703,105.426926,36.681515,5.9771986,-0.8618379,1.9705874,0.10081154,-0.80423516,0.7001698,0.045482643,0.5482386,0.5340112,0.63540846,-0.5343341,1.6068482,-0.9480412,-1.8600974,-0.9442308,2.0548122,1.275732,-0.9895877,1.6721884,-1.0060476,-1.8641021,-0.9898164,2.0081668,1.2193743,-0.9394483,-1.495106,1.2324,0.056581702,0.91897166,0.68750674,0.7039413,-0.33400708,2.562111,-0.39336967,0.6255567,-3.8654463,-0.16371022,3.672349,0.42926788,-0.53697777,0.7498666,0.67912537,0.10914742,0.11479387,0.7167272,-1.254651,-0.40554428,1.0190715,1.0,0.0,0.0,0.0,0.0,0.0,0.0,-3.212111,-0.0066303313,-0.075556695,5.2933693,12.547803,0.8428924,-1.9439816,4.726815,-5.8009624,-1.8258512
26.313507,91.800285,31.89188,6.641085,-0.44453567,1.7083286,0.14128318,-0.7960425,0.71803904,0.07060638,0.5362049,0.55313206,0.6413508,-0.53083694,1.5925841,-0.9342437,-1.8570415,-0.93619597,2.06348,1.2835094,-0.992532,1.6575953,-0.99315387,-1.8633373,-0.9806211,2.0153804,1.2260691,-0.94286436,-1.4479729,1.307977,0.084814265,0.91909665,0.732087,0.6578201,-0.34529108,2.5234833,-0.39500618,0.66151625,-3.8615816,-0.16354655,3.5704916,0.4168625,-0.54045486,0.76041865,0.6889116,0.10009442,0.11283356,0.70897835,-1.2387321,-0.3129691,1.0658042,1.0,0.0,0.0,0.0,0.0,0.0,0.0,-3.1734834,-0.004993826,-0.11151624,4.532957,7.4368954,3.3165634,-0.17700195,4.3456674,-4.701841,-1.4645696
19.79705,79.24784,26.901255,7.4239426,-0.13854957,1.4442754,0.1354143,-0.7917221,0.7338932,0.079525925,0.5283611,0.5586838,0.6456692,-0.5310724,1.578423,-0.9197645,-1.8553847,-0.927785,2.0712488,1.2906361,-0.9959716,1.6433569,-0.97979194,-1.8622367,-0.9713876,2.0229564,1.2323729,-0.9463758,-1.416446,1.3453419,0.11993697,0.92403156,0.7656418,0.6208499,-0.35415706,2.4849014,-0.39664078,0.696458,-3.8577206,-0.16338304,3.4687362,0.40454865,-0.54315567,0.77129287,0.69835645,0.090864085,0.11089793,0.70124435,-1.2297318,-0.239878,1.0927745,1.0,0.0,0.0,0.0,0.0,0.0,0.0,-3.1349015,-0.0033592284,-0.14645797,2.9976845,3.6435604,3.950131,0.30474663,3.2775283,-3.7632823,-1.1951923
14.417743,68.644554,22.3839,7.7251453,0.033245564,1.1636233,0.11524564,-0.7857222,0.7424066,0.07648763,0.5219793,0.56873167,0.65299326,-0.52461344,1.5647846,-0.90555125,-1.854588,-0.9191897,2.0798295,1.2976722,-0.9988371,1.6293341,-0.96624595,-1.8608596,-0.9621246,2.0307994,1.2383639,-0.9499578,-1.3981776,1.3573657,0.14486998,0.92636925,0.7907144,0.5918294,-0.36042458,2.44635,-0.39827347,0.73038286,-3.8538635,-0.16321969,3.3670824,0.3923111,-0.5452385,0.78229487,0.70749104,0.08154644,0.10893776,0.69349766,-1.2245319,-0.18240015,1.1005024,1.0,0.0,0.0,0.0,0.0,0.0,0.0,-3.0963502,-0.001726538,-0.18038285,1.6867399,1.1342525,2.8766184,0.033974648,2.461195,-2.9297352,-0.9089649
9.791752,63.05222,19.714449,8.728542,0.16379899,1.0384321,0.077540554,-0.78640336,0.74976844,0.08541857,0.52420074,0.56547153,0.6571224,-0.5138115,1.5506938,-0.8912691,-1.8523178,-0.9097045,2.0873466,1.3040761,-1.001339,1.6153971,-0.9526685,-1.8592823,-0.95283866,2.038814,1.2441088,-0.9535827,-1.3927017,1.3577195,0.16335082,0.92874885,0.8045362,0.5688156,-0.3640982,2.4078445,-0.39990425,0.76329195,-3.8500104,-0.16305651,3.26553,0.38006592,-0.5468216,0.79330516,0.71635556,0.07219255,0.10695466,0.68569934,-1.2241031,-0.13461581,1.0988952,1.0,0.0,0.0,0.0,0.0,0.0,0.0,-3.0578446,-9.575486e-05,-0.21329194,0.41251183,-0.021195412,2.2029877,0.037014484,1.3564944,-2.3169518,-0.630033
8.816393,58.40744,17.58471,7.556484,0.08239925,0.84502953,0.103750594,-0.78962284,0.7521347,0.082647,0.48787007,0.5857314,0.6571234,-0.51199484,1.5364348,-0.877455,-1.8510176,-0.90405166,2.0973873,1.3098211,-1.0047822,1.6014429,-0.93912345,-1.8576057,-0.9437072,2.04697,1.2496611,-0.9572353,-1.396868,1.3532594,0.17027514,0.9071799,0.81912744,0.5507138,-0.36648396,2.3693695,-0.40153313,0.7951863,-3.8461614,-0.16289347,3.1640794,0.3678589,-0.54794884,0.8042057,0.7249392,0.06288058,0.10498612,0.6778548,-1.2203878,-0.089613765,1.0844971,1.0,0.0,0.0,0.0,0.0,0.0,0.0,-3.0193696,0.0015331209,-0.24518627,-0.56028366,-0.48770905,1.0329574,-2.3785472,1.447773,-1.772511,-0.48826337
11.551643,60.631203,18.606535,6.710185,-0.044588983,0.8765428,0.15821765,-0.78317654,0.75943565,0.11782785,0.47088516,0.59043956,0.659188,-0.51609313,1.5231253,-0.86317986,-1.8458229,-0.8966187,2.1060138,1.3155799,-1.0088446,1.5874544,-0.9255975,-1.8557441,-0.9348762,2.0552478,1.2550589,-0.9609117,-1.4000814,1.3522415,0.19250809,0.87423706,0.8306976,0.5364078,-0.36878985,2.3309402,-0.403162,0.82606685,-3.8423162,-0.16273062,3.06273,0.35572052,-0.548563,0.81498426,0.7331929,0.05360204,0.103038274,0.6700284,-1.211854,-0.03736163,1.0727614,1.0,0.0,0.0,0.0,0.0,0.0,0.0,-2.9809403,0.0031619966,-0.27606684,-0.47223568,-0.14541149,2.596736,-3.5117507,1.1360884,-1.378727,-0.48974156
14.261778,61.81872,19.062407,5.635428,-0.20704362,0.8272487,0.2000574,-0.77889293,0.7642586,0.12839991,0.4460507,0.592041,0.6596012,-0.50594157,1.5095651,-0.84917164,-1.8429041,-0.8902711,2.114452,1.321019,-1.0115058,1.5734583,-0.91205055,-1.8536384,-0.92645144,2.0636172,1.2603365,-0.96459955,-1.4000313,1.3553998,0.21796805,0.83121467,0.83894324,0.52511996,-0.36973065,2.2925415,-0.40478706,0.85593474,-3.8384748,-0.16256791,2.9614823,0.34371185,-0.54862213,0.8256426,0.74106896,0.044340074,0.10113569,0.6622857,-1.1964829,0.02018581,1.0605941,1.0,0.0,0.0,0.0,0.0,0.0,0.0,-2.9425416,0.0047870576,-0.30593473,-0.14734268,0.2749443,2.928534,-4.516411,0.8024812,-1.0490537,-0.3545642
16.095928,60.5996,18.321465,4.019559,-0.39516878,0.6524423,0.23520783,-0.7816478,0.7710077,0.11632175,0.39618775,0.6118314,0.65974057,-0.49860367,1.4952935,-0.8349498,-1.8420062,-0.88683265,2.1248004,1.3263106,-1.01446,1.5594584,-0.89843494,-1.8513839,-0.9186113,2.072105,1.2655207,-0.96828836,-1.4005356,1.3635683,0.22921076,0.7674548,0.8518458,0.51653135,-0.3695149,2.2541885,-0.40641212,0.8847909,-3.8346372,-0.16240539,2.8603356,0.3319168,-0.5480919,0.83612657,0.7485331,0.035149314,0.099332705,0.6546722,-1.1725498,0.07890081,1.0411489,1.0,0.0,0.0,0.0,0.0,0.0,0.0,-2.9041886,0.0064121187,-0.3347909,-0.20620823,0.7883549,1.4876246,-6.5990925,1.2840748,-0.72698593,-0.22693872
18.703934,59.71633,17.966398,2.255804,-0.59321356,0.49763304,0.28513375,-0.77984345,0.775134,0.12500955,0.34328273,0.61653936,0.65902215,-0.49179444,1.481474,-0.82092154,-1.8388829,-0.884283,2.1337588,1.3314229,-1.0174679,1.5454642,-0.884723,-1.8490398,-0.91155124,2.0807185,1.2706324,-0.97196954,-1.3996347,1.3737088,0.23718801,0.6848075,0.8641887,0.5100688,-0.36840817,2.215866,-0.40803528,0.91263634,-3.8308034,-0.16224301,2.75929,0.32043457,-0.5469513,0.8463773,0.7555441,0.026088454,0.09767975,0.6472489,-1.1391273,0.13955751,1.0162338,1.0,0.0,0.0,0.0,0.0,0.0,0.0,-2.8658662,0.008035272,-0.36263633,-0.064730644,0.9983778,1.1459202,-8.49222,1.2402415,-0.4630685,-0.12914538
22.572327,59.40687,18.271017,-0.10988808,-0.78137034,0.38258147,0.3949939,-0.7807173,0.7754858,0.16448821,0.2657873,0.6335183,0.6486115,-0.48893937,1.4673924,-0.80717444,-1.8325909,-0.8849725,2.1440704,1.3354936,-1.0208635,1.5314757,-0.87092525,-1.8464706,-0.9055269,2.0894809,1.275685,-0.9756374,-1.3991253,1.3818032,0.26462373,0.5742123,0.8800778,0.5044681,-0.36699992,2.1775894,-0.40965652,0.9394721,-3.8269734,-0.1620808,2.6583455,0.30934906,-0.54517365,0.8563485,0.7620204,0.017200567,0.09616191,0.640142,-1.095275,0.20435272,0.9871353,1.0,0.0,0.0,0.0,0.0,0.0,0.0,-2.8275895,0.009656519,-0.38947207,-0.101828575,0.8075714,3.0907483,-11.284757,1.6013622,-0.31780005,-0.09419322
27.720161,57.825893,18.095062,-3.8150206,-1.1170046,0.16073182,0.52478355,-0.7792621,0.77817786,0.18809283,0.15667479,0.6437051,0.6448074,-0.4835241,1.4535495,-0.79310745,-1.8276613,-0.8898594,2.1538515,1.3401657,-1.0239898,1.5174986,-0.8570588,-1.8435409,-0.90091586,2.0984035,1.2806917,-0.9792871,-1.3978169,1.3883996,0.30347714,0.42275536,0.8966675,0.5004281,-0.36507732,2.1393433,-0.41127586,0.9652991,-3.8231473,-0.16191874,2.557502,0.29883575,-0.54270744,0.86595637,0.76785386,0.008568066,0.09478634,0.6335161,-1.0350572,0.27339947,0.9482053,1.0,0.0,0.0,0.0,0.0,0.0,0.0,-2.7893434,0.011275858,-0.41529912,-0.01308918,0.6768942,4.212838,-15.368485,1.686728,-0.069606304,-0.028806925
39.206764,53.989212,17.479897,-12.966343,-1.9753709,-0.32746682,0.8067375,-0.77767736,0.7821413,0.21458106,-0.06530466,0.6579503,0.63987917,-0.47506177,1.4397309,-0.7788447,-1.8220828,-0.9074463,2.1641984,1.3446797,-1.0267932,1.5035406,-0.84312755,-1.8401573,-0.898587,2.1075053,1.2856699,-0.982912,-1.3955541,1.3947752,0.35077173,0.16881235,0.9148601,0.4987211,-0.36226922,2.101143,-0.4128933,0.9901185,-3.819325,-0.16175686,2.4567592,0.28918457,-0.5394592,0.8749797,0.77282363,0.00042308163,0.09364406,0.6276736,-0.9369994,0.35350615,0.88290167,1.0,0.0,0.0,0.0,0.0,0.0,0.0,-2.751143,0.012893289,-0.4401185,0.09856224,0.6855011,5.0334873,-25.617632,1.8546224,0.36270618,0.09021163
46.862953,53.579662,17.774912,-18.084452,-2.506085,-0.6440383,0.96508604,-0.7672394,0.79337484,0.2472811,-0.22821435,0.6616141,0.63221794,-0.46330673,1.4268167,-0.7637901,-1.8154292,-0.9214084,2.1736667,1.3488917,-1.0292426,1.4896532,-0.8290971,-1.8362491,-0.8991878,2.1167712,1.2906348,-0.9864997,-1.3865653,1.4060673,0.404747,-0.13686448,0.9305407,0.49793845,-0.35806328,2.062973,-0.41451073,1.0139313,-3.8155065,-0.16159514,2.3561172,0.28069305,-0.5353584,0.8832693,0.7767735,-0.00706158,0.09283156,0.6228606,-0.81381327,0.43887135,0.80656147,1.0,0.0,0.0,0.0,0.0,0.0,0.0,-2.712973,0.014510721,-0.46393126,0.83105564,1.2071848,5.5879593,-30.730476,1.6548514,0.55844784,0.28966665
40.89283,53.987774,17.462229,-13.009657,-2.0262809,-0.6025811,0.81336564,-0.7595968,0.797757,0.26673415,-0.25578758,0.66427326,0.63158214,-0.41879985,1.4136935,-0.7493214,-1.8095757,-0.92476654,2.1831985,1.3537929,-1.0283797,1.4758898,-0.8149484,-1.8318393,-0.90237117,2.1261668,1.29559,-0.9900121,-1.372864,1.4180832,0.45318028,-0.37926123,0.9432516,0.49668837,-0.34932968,2.024849,-0.41612434,1.0367384,-3.8116918,-0.16143358,2.255576,0.27331543,-0.5304966,0.89090526,0.7798099,-0.013950335,0.09233287,0.6190126,-0.70636356,0.5093273,0.74450064,1.0,0.0,0.0,0.0,0.0,0.0,0.0,-2.674849,0.016124338,-0.48673838,1.3621807,1.3052225,4.852903,-24.340088,1.4572382,0.429219,0.7993221
35.429615,53.92351,17.323639,-8.426987,-1.5443183,-0.5155533,0.6987782,-0.752596,0.79632133,0.31066555,-0.33184466,0.6716765,0.6333291,-0.3857649,1.4006302,-0.7353163,-1.8007728,-0.93555564,2.1933346,1.358923,-1.0285887,1.4622809,-0.8007119,-1.826884,-0.9075649,2.1356807,1.3005339,-0.9934167,-1.3569,1.4259481,0.50935113,-0.56632364,0.9551885,0.49518424,-0.33761647,1.9867554,-0.41773796,1.0585408,-3.8078809,-0.16127218,2.1551352,0.26688385,-0.52500725,0.89802074,0.78207844,-0.020376565,0.092055224,0.61600643,-0.61554474,0.56820595,0.6955086,1.0,0.0,0.0,0.0,0.0,0.0,0.0,-2.6367555,0.017737955,-0.5085408,1.6237974,0.91204643,5.4908934,-18.7747,1.4659643,0.34059286,1.1292398
30.309395,52.907166,16.777153,-4.52029,-1.1616757,-0.46734113,0.5813779,-0.7433042,0.7970067,0.33772022,-0.40078878,0.66727847,0.6349085,-0.35697263,1.3879504,-0.7210113,-1.793112,-0.94764376,2.2024086,1.3640248,-1.029114,1.4488417,-0.786423,-1.8213756,-0.914274,2.1452746,1.3054625,-0.9966907,-1.3392993,1.430258,0.5639792,-0.7059955,0.9622811,0.493477,-0.32401016,1.9487076,-0.41934967,1.0793395,-3.8040738,-0.16111094,2.0547945,0.261261,-0.5190048,0.90471864,0.7837098,-0.026448864,0.09193741,0.6137155,-0.53882384,0.61677366,0.6556895,1.0,0.0,0.0,0.0,0.0,0.0,0.0,-2.5987077,0.019349664,-0.5293395,1.804018,0.5721569,5.247605,-14.027452,1.0367632,0.269562,1.3358474
26.627743,53.964016,17.20599,-0.9037938,-0.82069784,-0.34602463,0.50298524,-0.73044884,0.8003037,0.3825006,-0.44425923,0.66996765,0.6293054,-0.30932465,1.3757968,-0.70639265,-1.7831255,-0.9586999,2.2122715,1.3683931,-1.0276232,1.435599,-0.7720979,-1.8152568,-0.92205596,2.1549258,1.3103682,-0.9998035,-1.318984,1.4337077,0.6267642,-0.80241233,0.96772826,0.49099874,-0.3071527,1.9106903,-0.42095947,1.0991356,-3.8002706,-0.16094986,1.9545544,0.25628662,-0.5125427,0.9111105,0.7847971,-0.032286063,0.091912694,0.6120483,-0.47506943,0.6604572,0.6278275,1.0,0.0,0.0,0.0,0.0,0.0,0.0,-2.5606904,0.020959467,-0.5491356,2.083969,0.50110817,5.989909,-9.696472,0.9316325,0.15440583,1.6691685
22.215826,52.17093,16.386534,1.8279228,-0.5471255,-0.3260169,0.41361907,-0.72861594,0.7999296,0.4068254,-0.48779717,0.6749409,0.6224381,-0.30076933,1.3627374,-0.69210494,-1.7745743,-0.9708357,2.22242,1.372612,-1.0298804,1.4225241,-0.7577546,-1.808543,-0.93060946,2.1646304,1.3152434,-1.0027561,-1.3035569,1.4351468,0.68519896,-0.8730958,0.9730418,0.48768297,-0.2912815,1.8727188,-0.42256737,1.11793,-3.796471,-0.16078894,1.8544143,0.25188446,-0.50569725,0.9172547,0.78543067,-0.03794765,0.09194441,0.6109048,-0.42217594,0.6964167,0.6040001,1.0,0.0,0.0,0.0,0.0,0.0,0.0,-2.522719,0.022567362,-0.56793004,1.585722,0.30591488,5.5361032,-7.133007,0.9307265,0.03362894,1.5767395
16.748953,52.27161,16.330196,6.3973846,-0.14290029,-0.15924475,0.3020171,-0.72136724,0.79864603,0.4471526,-0.46797913,0.6559337,0.6218071,-0.21753953,1.3503873,-0.67789,-1.7638277,-0.9774074,2.230224,1.3774241,-1.02451,1.4095846,-0.7434123,-1.8012168,-0.93949485,2.1743236,1.3200861,-1.0055046,-1.2906946,1.4346122,0.74722224,-0.89406914,0.96953577,0.48413095,-0.26949957,1.8347778,-0.42417336,1.1357238,-3.7926755,-0.16062818,1.7543744,0.24787903,-0.49853325,0.923256,0.78571194,-0.043554027,0.09199739,0.6101609,-0.38656124,0.7266047,0.5925467,1.0,0.0,0.0,0.0,0.0,0.0,0.0,-2.484778,0.02417335,-0.5857238,1.3072252,0.11816025,5.87008,-2.1850944,0.08769035,-0.039839745,2.1583617
17.346916,51.571465,16.337694,6.069496,-0.20167851,-0.21361245,0.3233074,-0.7073339,0.7990002,0.48090318,-0.51247716,0.65128714,0.61564064,-0.16409671,1.3388512,-0.6635123,-1.7531265,-0.99074256,2.2394524,1.3816502,-1.0219142,1.3967959,-0.7290767,-1.7932689,-0.94859576,2.1839557,1.3248907,-1.0080128,-1.2748097,1.4336816,0.80942047,-0.9157358,0.9626466,0.48042575,-0.24460422,1.7968826,-0.42577934,1.1525179,-3.7888837,-0.1604676,1.6544343,0.24423218,-0.49106026,0.9291365,0.78565145,-0.04913376,0.09208206,0.60980195,-0.34844017,0.7574267,0.5799683,1.0,0.0,0.0,0.0,0.0,0.0,0.0,-2.4468827,0.025779337,-0.6025179,1.6220331,0.08018017,5.879009,-2.2431016,-0.25337934,-0.05158782,2.47536
11.894952,48.0668,14.654855,8.903173,0.0739063,-0.21405306,0.23033664,-0.71506345,0.7962426,0.4876334,-0.49356413,0.64060307,0.618287,-0.054454003,1.3252895,-0.64945245,-1.7445055,-0.99795216,2.2480159,1.3867195,-1.0134581,1.3840929,-0.71476394,-1.784827,-0.9577396,2.1934886,1.329661,-1.010212,-1.2688715,1.431044,0.8547961,-0.91430175,0.9515653,0.47696817,-0.21170598,1.759018,-0.42738152,1.1683134,-3.7850957,-0.16030715,1.5545943,0.24089813,-0.48335266,0.93490064,0.78531235,-0.054690853,0.09222582,0.609744,-0.32226187,0.7786331,0.568606,1.0,0.0,0.0,0.0,0.0,0.0,0.0,-2.409018,0.02738151,-0.6183134,0.5896807,-0.092339516,4.2372823,0.03322363,-0.69630146,-0.07400513,3.2701702
6.122064,44.090137,12.655152,11.562751,0.34774715,-0.22668792,0.12037954,-0.7311382,0.79587615,0.4907614,-0.4818939,0.63936156,0.6202084,-0.0026327842,1.3109791,-0.6351763,-1.7357509,-1.005929,2.2574248,1.3916819,-1.0104753,1.3713309,-0.7004779,-1.7760761,-0.96675944,2.2029185,1.3344008,-1.0120678,-1.2787927,1.4283413,0.8810858,-0.8984134,0.94131535,0.4737197,-0.1770855,1.721199,-0.4289837,1.1831112,-3.7813115,-0.16014688,1.454854,0.2377243,-0.47550583,0.9405493,0.78480023,-0.060215704,0.09245934,0.6098474,-0.3080681,0.7896148,0.55681574,1.0,0.0,0.0,0.0,0.0,0.0,0.0,-2.3711991,0.028983682,-0.6331112,-1.0501623,-0.10590553,2.4012089,1.4403343,-0.6515503,-0.10483265,3.4365387
-0.38634777,39.976418,10.520613,15.356579,0.7179373,-0.2114093,-0.018289302,-0.7418849,0.79375535,0.47414416,-0.42787933,0.6239799,0.62442195,0.13149926,1.2971424,-0.62110233,-1.7286617,-1.0095474,2.2653165,1.396843,-0.9989179,1.3583952,-0.6862224,-1.767266,-0.9753587,2.2122188,1.3391119,-1.0135117,-1.2990285,1.4250786,0.88033664,-0.847802,0.92738205,0.47078645,-0.13353983,1.6834106,-0.43058395,1.1969124,-3.7775311,-0.15998676,1.3552135,0.23457336,-0.46763992,0.9461071,0.78424364,-0.065725,0.09281673,0.6099402,-0.30932245,0.7884218,0.5485614,1.0,0.0,0.0,0.0,0.0,0.0,0.0,-2.3334107,0.030583948,-0.6469124,-2.1410465,-0.16541481,-0.23901463,4.858911,-1.0510921,-0.13210177,4.314995
-8.042234,36.491955,8.76117,21.019753,1.2796829,-0.07363358,-0.19037159,-0.7565234,0.78689134,0.4587134,-0.32540157,0.60527277,0.6399028,0.28481054,1.2827429,-0.6075332,-1.7213947,-1.0078989,2.272746,1.4031022,-0.9850306,1.3451983,-0.672025,-1.7586162,-0.9830072,2.2213435,1.3438059,-1.0144424,-1.3270086,1.418455,0.8595802,-0.73813725,0.90886676,0.4691101,-0.079727665,1.645668,-0.4321823,1.209718,-3.7737546,-0.1598268,1.2556726,0.23123169,-0.459877,0.95166606,0.78379655,-0.07132293,0.09328956,0.609814,-0.33361417,0.7747393,0.55148035,1.0,0.0,0.0,0.0,0.0,0.0,0.0,-2.2956681,0.032182306,-0.659718,-2.9818773,-0.5019903,-2.194941,10.698927,-1.508522,-0.07823706,5.3161397
-22.35567,31.778353,6.084293,32.543236,2.3922653,0.28654522,-0.5827625,-0.7814363,0.7757873,0.40674633,-0.100940265,0.57444185,0.65602255,0.35814637,1.2670547,-0.5944463,-1.7179415,-0.99310124,2.2787876,1.4094082,-0.9786278,1.3316466,-0.65793735,-1.7504318,-0.9886224,2.2302203,1.3484904,-1.0148258,-1.365531,1.4060035,0.80456114,-0.50396645,0.8820212,0.46808755,-0.024707118,1.6079559,-0.43378067,1.2215289,-3.7699814,-0.15966702,1.1562312,0.22729492,-0.45241165,0.95745033,0.78376347,-0.07727587,0.09380303,0.60905194,-0.40450096,0.7400635,0.58068997,1.0,0.0,0.0,0.0,0.0,0.0,0.0,-2.257956,0.033780664,-0.6715289,-4.140687,-1.0802269,-5.5932045,23.043787,-2.305615,-0.14833212,5.3991046
-35.815334,28.530859,4.134254,44.861603,3.4928315,0.7302114,-0.9998244,-0.7985708,0.76404905,0.34190843,0.18068877,0.5129059,0.66547626,0.42966694,1.2517895,-0.5815324,-1.7162409,-0.9705536,2.2815108,1.415038,-0.9718591,1.3176962,-0.64401466,-1.7430618,-0.9908283,2.2386851,1.3531653,-1.014658,-1.4060678,1.3882492,0.7140707,-0.1275399,0.83622277,0.46662912,0.030218126,1.5702896,-0.4353752,1.232346,-3.766212,-0.15950738,1.0568892,0.2223053,-0.4454136,0.9637639,0.78450155,-0.083959654,0.09428747,0.60713905,-0.523333,0.6898474,0.6417881,1.0,0.0,0.0,0.0,0.0,0.0,0.0,-2.2202897,0.035375208,-0.68234605,-4.386878,-1.6106129,-9.196997,37.22207,-4.1278005,-0.35265684,5.3753557
-39.798622,19.296152,-0.24176264,45.56076,3.6150565,0.47146234,-1.1787584,-0.8151049,0.7509119,0.19755204,0.3152196,0.49271277,0.67089707,0.42627367,1.2361857,-0.5689235,-1.7233065,-0.9593063,2.2879565,1.420255,-0.9720306,1.3033587,-0.6303037,-1.7371547,-0.9891708,2.2466807,1.3578287,-1.013998,-1.4438183,1.3658314,0.5490044,0.26220834,0.78912574,0.4652405,0.07764992,1.5326538,-0.43696976,1.2421706,-3.7624464,-0.1593479,0.9576465,0.21607208,-0.43903923,0.970606,0.7862276,-0.091380075,0.09481988,0.60374236,-0.6467831,0.6245444,0.6922882,1.0,0.0,0.0,0.0,0.0,0.0,0.0,-2.182654,0.03696975,-0.69217056,-4.037261,-2.1058798,-16.720413,38.59626,-4.2765617,-0.4035592,4.6631393
-30.10632,15.439571,-1.3091621,35.464737,2.709104,-0.058473345,-0.9492834,-0.8229739,0.73761445,0.11641255,0.32991153,0.48688453,0.6713529,0.40359128,1.2210612,-0.5565422,-1.7255135,-0.9561796,2.2953691,1.4249641,-0.9736389,1.2887179,-0.6168378,-1.7330635,-0.9844377,2.2542758,1.3624827,-1.0129356,-1.4713807,1.3405119,0.36158517,0.54270005,0.750656,0.46495745,0.11557263,1.4950562,-0.4385624,1.2510034,-3.7586846,-0.1591886,0.858503,0.20893097,-0.43327332,0.9777017,0.7888277,-0.099216685,0.09553847,0.5989818,-0.7318358,0.5664284,0.709668,1.0,0.0,0.0,0.0,0.0,0.0,0.0,-2.1450562,0.038562387,-0.7010034,-2.902317,-2.4322033,-18.972748,27.761448,-3.4745455,-0.19801259,3.7437453
-11.478774,17.69904,1.0609868,19.039642,1.0803773,-0.63925076,-0.42091325,-0.8274508,0.71901876,0.10377673,0.2525584,0.42377174,0.6731172,0.42351,1.2059728,-0.54493594,-1.7226858,-0.95918185,2.296653,1.4297944,-0.97058463,1.2738844,-0.603658,-1.7305152,-0.97827315,2.2613864,1.367148,-1.0115318,-1.4875467,1.3107046,0.21883115,0.6402194,0.69880426,0.46727958,0.14855759,1.4574966,-0.44015312,1.2588456,-3.7549267,-0.15902944,0.75945866,0.20140076,-0.42791367,0.9846487,0.79189235,-0.10702766,0.09664103,0.5933902,-0.74999017,0.5337847,0.6847264,1.0,0.0,0.0,0.0,0.0,0.0,0.0,-2.1074967,0.040153116,-0.70884556,-1.6979218,-2.9080153,-14.372784,9.524608,-4.9430847,0.290519,3.2332869
4.638609,18.880564,2.5731938,3.916338,-0.31312048,-1.2776079,0.058955085,-0.83083826,0.7048938,0.05041979,0.14826433,0.41879448,0.67086923,0.44313186,1.1908005,-0.5331686,-1.7254733,-0.96344674,2.3032658,1.434235,-0.96721864,1.2589537,-0.59077865,-1.7291629,-0.97243,2.2680392,1.3718477,-1.0098248,-1.4949992,1.2806369,0.107753426,0.56505036,0.65485305,0.47181812,0.17772603,1.4199753,-0.44174194,1.265698,-3.7511725,-0.15887044,0.66051334,0.19416046,-0.42277908,0.99104285,0.7950023,-0.11432827,0.098280296,0.58757246,-0.70650566,0.5143962,0.619997,1.0,0.0,0.0,0.0,0.0,0.0,0.0,-2.0699754,0.041741937,-0.71569794,-0.80473423,-2.9347181,-11.059886,-7.7294827,-4.287851,0.7425666,2.8322458
24.675367,21.063126,4.959774,-14.783569,-1.9461033,-2.0643227,0.7020042,-0.82611006,0.6843292,0.060379706,-0.11527769,0.4298164,0.6735427,0.47865224,1.1763427,-0.5223457,-1.723125,-0.98395777,2.3110209,1.4392021,-0.96195954,1.2440249,-0.5782197,-1.728461,-0.9689462,2.274383,1.3766066,-1.0078354,-1.4922241,1.2479496,0.05823394,0.27552292,0.62729675,0.47911522,0.20560552,1.3824921,-0.44332886,1.2715616,-3.7474222,-0.15871161,0.56166697,0.1879425,-0.4177456,0.99643487,0.79767084,-0.12054902,0.10053552,0.5823071,-0.587097,0.5070183,0.50840664,1.0,0.0,0.0,0.0,0.0,0.0,0.0,-2.0324922,0.04332885,-0.7215616,0.27079582,-3.1742811,-4.7726674,-29.119879,-2.808082,1.281625,2.6992083
32.982124,26.546995,7.8817725,-20.446121,-2.4953933,-2.2582324,0.95923454,-0.81994313,0.67859447,0.074647345,-0.2417887,0.41533786,0.6739047,0.4924111,1.1620306,-0.51036024,-1.7209963,-0.9931251,2.3159168,1.443997,-0.95859426,1.2291819,-0.5659345,-1.7278755,-0.9688623,2.2805018,1.381436,-1.0055885,-1.4813333,1.2223673,0.05893915,-0.08084507,0.6064742,0.48611557,0.23084934,1.345047,-0.44491577,1.2764376,-3.7436757,-0.15855293,0.4629194,0.1831131,-0.4127102,1.0006605,0.7996262,-0.12545566,0.10339126,0.5780736,-0.4409572,0.50743103,0.3905089,1.0,0.0,0.0,0.0,0.0,0.0,0.0,-1.995047,0.044915766,-0.7264376,1.1673927,-2.44596,0.19450635,-35.707157,-2.1644592,1.262933,2.4702044
26.17162,27.210434,7.702937,-12.979885,-1.8276341,-2.024596,0.73631763,-0.8167645,0.6722994,0.025515592,-0.24093969,0.38677445,0.6724116,0.51999724,1.1475054,-0.49870455,-1.7253239,-0.9929563,2.3191793,1.4486772,-0.9535888,1.2144648,-0.5538505,-1.727351,-0.97171664,2.2863955,1.3863207,-1.0030975,-1.4681485,1.2041113,0.050317176,-0.35374668,0.5836204,0.49054343,0.25503117,1.3076401,-0.44649887,1.280327,-3.739933,-0.15839441,0.36427063,0.17954254,-0.4077072,1.0038841,0.8009697,-0.12920506,0.106773,0.5747635,-0.3227926,0.50091934,0.2962777,1.0,0.0,0.0,0.0,0.0,0.0,0.0,-1.95764,0.046498865,-0.73032695,1.4333487,-1.7085552,-0.8761488,-27.326426,-2.2933125,0.84192157,2.3917615
11.137237,21.677942,3.8274484,-0.43194103,-0.6360436,-1.7671006,0.22261491,-0.819095,0.6771239,-0.11496325,-0.2102508,0.390165,0.6792922,0.5135393,1.1325552,-0.48613808,-1.7388473,-0.9927417,2.325412,1.45425,-0.9517436,1.199843,-0.54185516,-1.7275417,-0.9762676,2.2921214,1.3912379,-1.0003986,-1.4600214,1.198306,-0.042247765,-0.48921433,0.5687754,0.49272087,0.27467874,1.2702637,-0.44808197,1.2832304,-3.7361937,-0.15823606,0.26572052,0.17676544,-0.40291977,1.0063809,0.8020951,-0.13206215,0.11063831,0.5718061,-0.25633544,0.47311366,0.23070952,1.0,0.0,0.0,0.0,0.0,0.0,0.0,-1.9202636,0.048081964,-0.7332304,0.8671999,-0.4777193,-9.29179,-13.658404,-1.457572,0.41840672,1.92132
-1.677876,19.285942,1.6038206,11.732275,0.4272133,-1.3718559,-0.22507924,-0.82152313,0.6828264,-0.2053799,-0.16458628,0.36086643,0.6799752,0.50657094,1.1176907,-0.47357252,-1.7480797,-0.9927262,2.328208,1.4592354,-0.94974154,1.1852537,-0.52984077,-1.7290618,-0.9811933,2.2976565,1.3961626,-0.99753666,-1.4589225,1.2028483,-0.18851475,-0.49430436,0.5487375,0.49264136,0.28968725,1.232933,-0.44966316,1.2851492,-3.732458,-0.15807785,0.1672689,0.17429352,-0.3984642,1.0084591,0.80339307,-0.13434914,0.11496929,0.56858766,-0.23827365,0.4358838,0.19686505,1.0,0.0,0.0,0.0,0.0,0.0,0.0,-1.882933,0.049663156,-0.7351492,0.053596497,0.5315542,-14.595677,-0.7213712,-1.9554734,0.035136938,1.4091253
-5.8643613,19.071152,1.5511103,16.445423,0.81246805,-1.1176263,-0.34528443,-0.829484,0.6724649,-0.2228083,-0.18995313,0.30181584,0.6856951,0.50980127,1.1023053,-0.46259427,-1.7513427,-1.0001886,2.3278382,1.4647322,-0.9465565,1.1706091,-0.51780635,-1.7319362,-0.9858444,2.3028483,1.4010855,-0.99454594,-1.4667019,1.2038323,-0.32016018,-0.45619828,0.50995415,0.49211815,0.3018144,1.1956329,-0.45124245,1.2860843,-3.7287264,-0.15791981,0.06891572,0.17186737,-0.3943596,1.0103025,0.80501163,-0.13629203,0.11974581,0.56483763,-0.23874775,0.40135342,0.17697321,1.0,0.0,0.0,0.0,0.0,0.0,0.0,-1.8456329,0.05124244,-0.7360843,-0.8907318,0.15759468,-13.087195,3.5653293,-3.8146138,-0.066804886,1.0893762
-3.8360848,21.736769,3.191976,16.147049,0.7352116,-1.0128636,-0.27081075,-0.828591,0.669825,-0.23996612,-0.22707029,0.26818153,0.6898057,0.49744922,1.08775,-0.45082384,-1.7559328,-1.0085514,2.3296664,1.4700661,-0.94480103,1.1558825,-0.5057805,-1.7358577,-0.9901893,2.3075938,1.4060065,-0.99145985,-1.4751294,1.2024807,-0.41590592,-0.42802355,0.4632082,0.49193466,0.31043464,1.1583786,-0.45282173,1.2860364,-3.7249985,-0.15776192,-0.029339133,0.16946411,-0.39053345,1.0119661,0.80690217,-0.13797809,0.12493127,0.5605916,-0.2361106,0.37582865,0.15995803,1.0,0.0,0.0,0.0,0.0,0.0,0.0,-1.8083786,0.052821726,-0.73603636,-0.9625912,-0.07727146,-9.489566,2.5874257,-4.598117,-0.03014803,0.7357776
0.72953725,21.745289,4.0314302,11.920219,0.19070286,-1.1289855,-0.11047998,-0.8248732,0.65204954,-0.25551245,-0.28395778,0.11672104,0.68844575,0.518365,1.0733951,-0.44057557,-1.7614089,-1.0185851,2.3192658,1.474851,-0.93962336,1.1411062,-0.49385574,-1.7404563,-0.99458957,2.3114924,1.4109274,-0.988286,-1.4787524,1.1894634,-0.4744063,-0.4445349,0.36552936,0.4922993,0.31937686,1.1211548,-0.4543972,1.2850066,-3.7212744,-0.15760419,-0.12749575,0.16723633,-0.38691902,1.013368,0.8089322,-0.13935407,0.13063923,0.5560059,-0.21291454,0.35648245,0.13091029,1.0,0.0,0.0,0.0,0.0,0.0,0.0,-1.7711548,0.054397196,-0.73500663,-0.42760372,-1.2289762,-5.8099213,-1.8327415,-9.689778,0.08966327,0.7681072
0.7414255,22.00612,4.4625993,12.947966,-0.103406996,-1.0142676,-0.14930934,-0.8203096,0.63482225,-0.2782011,-0.2327105,-0.15459383,0.69892746,0.52322555,1.0590752,-0.43037352,-1.7682765,-1.0178607,2.2960331,1.4808202,-0.93596345,1.1263357,-0.48213938,-1.7454727,-0.99899364,2.3136973,1.4158617,-0.9850302,-1.476631,1.165958,-0.5106125,-0.4396413,0.17207378,0.49401745,0.32711226,1.0839691,-0.45597267,1.2829962,-3.7175539,-0.15744661,-0.22555423,0.1652832,-0.38342285,1.0144968,0.8110564,-0.14049473,0.13715976,0.55103177,-0.18500744,0.34606087,0.10419256,1.0,0.0,0.0,0.0,0.0,0.0,0.0,-1.7339691,0.055972666,-0.73299617,0.14891624,-2.279663,-3.5988271,0.3168881,-19.245075,0.2517879,0.610888
-7.0880265,10.989924,-0.4810319,17.246206,0.21274686,-1.0749794,-0.4124704,-0.8135502,0.5924063,-0.39155942,-0.13224854,-0.4165385,0.6962956,0.529261,1.0449808,-0.42289874,-1.7846286,-1.0122185,2.2720435,1.4854913,-0.93210405,1.1116339,-0.47083166,-1.7512043,-1.0028656,2.313354,1.4208113,-0.9817047,-1.4682906,1.119152,-0.5940444,-0.3702517,-0.10264375,0.49537286,0.33354938,1.0468216,-0.45754623,1.2800059,-3.713837,-0.15728919,-0.32351464,0.16348267,-0.38015556,1.0153718,0.8134182,-0.14147845,0.14479545,0.54531544,-0.17528819,0.31893134,0.079355165,1.0,0.0,0.0,0.0,0.0,0.0,0.0,-1.6968216,0.05754623,-0.7300059,0.7966995,-4.642391,-8.329689,6.7439976,-27.395555,0.20475388,0.41270852
-17.805056,0.6441231,-5.2864175,25.393713,1.1848524,-0.959572,-0.7165442,-0.8107943,0.54797965,-0.49251178,0.024472706,-0.57023525,0.6910731,0.5701574,1.0305544,-0.4160337,-1.8004555,-1.0004183,2.2563305,1.4899186,-0.924689,1.0970255,-0.4601486,-1.7581317,-1.0053089,2.310161,1.4257666,-0.9782944,-1.4585286,1.0513312,-0.72570086,-0.2030735,-0.3915456,0.4957026,0.34251362,1.0097122,-0.4591179,1.2760367,-3.7101238,-0.15713194,-0.42137715,0.16147614,-0.37729263,1.016121,0.8162206,-0.1424488,0.15358353,0.53842765,-0.20541252,0.27378586,0.070932895,1.0,0.0,0.0,0.0,0.0,0.0,0.0,-1.6597122,0.059117883,-0.7260367,0.928998,-6.797886,-13.128435,16.494148,-28.833708,0.06989241,0.6195605
-23.920214,-8.82329,-8.761179,29.080305,2.0782363,-0.97001565,-0.78874516,-0.80655867,0.48074389,-0.54814005,0.11620041,-0.6280888,0.68549824,0.5939588,1.0163697,-0.4120742,-1.8129457,-0.9936888,2.2473521,1.4943165,-0.91889846,1.0825201,-0.45035294,-1.7664535,-1.0057876,2.304439,1.4307181,-0.97478294,-1.447843,0.9554535,-0.86767274,0.0032946866,-0.6321677,0.49530745,0.3531855,0.972641,-0.46068954,1.2710897,-3.7064145,-0.15697484,-0.51914185,0.15896606,-0.3750229,1.016836,0.8195365,-0.14346589,0.16324702,0.5302149,-0.26505303,0.210701,0.069508046,1.0,0.0,0.0,0.0,0.0,0.0,0.0,-1.622641,0.06068954,-0.72108966,1.089716,-9.637046,-14.220131,20.462954,-24.005817,0.0018775463,0.81164837
-21.559763,-21.603094,-11.230154,22.156021,2.4080117,-1.3391947,-0.42234737,-0.8008973,0.35160154,-0.4986246,0.062262878,-0.6222286,0.6846785,0.598238,1.0024304,-0.41519278,-1.816316,-0.9995613,2.242216,1.4991859,-0.91495913,1.068133,-0.4419563,-1.7756565,-1.0048225,2.296928,1.4356676,-0.97116566,-1.4351571,0.80103695,-0.9385161,0.12737083,-0.79030484,0.49522692,0.36393514,0.9356003,-0.4622574,1.2651657,-3.702709,-0.1568179,-0.61680883,0.15583038,-0.37356567,1.0173593,0.82317156,-0.1443147,0.17319007,0.52112085,-0.32508266,0.12341737,0.044912007,1.0,0.0,0.0,0.0,0.0,0.0,0.0,-1.5856003,0.06225738,-0.7151657,1.4635563,-15.459561,-7.2765827,12.377058,-15.727925,0.080913305,0.8927524
-15.883836,-33.573524,-12.225131,12.630834,2.5243173,-1.709132,0.08060227,-0.7812338,0.18844683,-0.3910417,0.004505323,-0.61416674,0.6767038,0.5755775,0.9900096,-0.42311162,-1.8147607,-1.004372,2.2355113,1.503338,-0.9136079,1.0539442,-0.4356325,-1.7847068,-1.0033977,2.2883906,1.4406115,-0.96746254,-1.4123259,0.5762614,-0.8948445,0.14802909,-0.8740665,0.494561,0.3720482,0.89860535,-0.46382523,1.2582657,-3.6990068,-0.15666111,-0.7143781,0.1521759,-0.37314224,1.0174284,0.8268073,-0.14471926,0.18268174,0.5119308,-0.3772143,0.015601422,-0.0067838975,1.0,0.0,0.0,0.0,0.0,0.0,0.0,-1.5486053,0.06382522,-0.7082657,2.624321,-22.440279,4.0222645,2.1799147,-8.259225,0.037062168,0.7272482
-23.595924,-78.63891,-26.67879,1.5299516,3.304043,-2.7954445,0.3552206,-0.776304,-0.11006718,-0.38896114,-0.07713193,-0.6010021,0.670881,0.5402926,0.9763138,-0.4466392,-1.8236029,-1.0111109,2.2282903,1.5076996,-0.91343325,1.039992,-0.43258646,-1.7930954,-1.0025165,2.2794375,1.4455439,-0.96371365,-1.3872169,0.21427509,-0.8225569,0.06917,-0.9015698,0.49279484,0.3757098,0.86164093,-0.46538925,1.2503909,-3.6953084,-0.15650448,-0.8118499,0.14781189,-0.3744278,1.0165621,0.83036095,-0.14415786,0.1909134,0.5032607,-0.45594737,-0.17629948,-0.113851376,1.0,0.0,0.0,0.0,0.0,0.0,0.0,-1.5116409,0.065389246,-0.7003909,3.1852484,-36.122627,6.53311,-7.568079,-2.541709,-0.12964606,0.33769608
-33.035835,-124.84512,-40.85322,-6.725627,4.397434,-3.6592507,0.5903213,-0.7468371,-0.47606003,-0.28903684,-0.137072,-0.5710915,0.6730432,0.49150464,0.96530825,-0.48019245,-1.8219991,-1.0162237,2.2223284,1.5128483,-0.9145632,1.0263907,-0.4343336,-1.8003452,-1.0028121,2.2705188,1.4504439,-0.9599676,-1.3482162,-0.30420107,-0.6954838,-0.06065695,-0.88822424,0.488346,0.37451097,0.82471466,-0.46695328,1.241542,-3.691614,-0.156348,-0.9092242,0.14234161,-0.3782215,1.0142912,0.8338541,-0.1422043,0.19697073,0.49564895,-0.5780222,-0.44553754,-0.26516682,1.0,0.0,0.0,0.0,0.0,0.0,0.0,-1.4747146,0.06695327,-0.69154197,4.815221,-51.801907,11.7825985,-12.407832,1.5639305,-0.70055723,-0.023782253
-21.695372,-131.40576,-41.97309,-26.377232,2.7652264,-4.452593,1.1337898,-0.71889436,-0.6627222,-0.25727612,-0.5279467,-0.51145303,0.6732335,0.41892835,0.9545012,-0.5006058,-1.8260728,-1.0556068,2.2193735,1.5177672,-0.9180748,1.0132357,-0.44128445,-1.8063304,-1.0060947,2.2619815,1.4552733,-0.95629406,-1.3024658,-0.8254657,-0.5681197,-0.41549927,-0.8420538,0.47828475,0.36530802,0.78782654,-0.4685154,1.2317201,-3.6879232,-0.15619169,-1.0065011,0.13608551,-0.38485718,1.0099833,0.8371394,-0.13815738,0.20057921,0.48977342,-0.6465412,-0.73399264,-0.48659948,1.0,0.0,0.0,0.0,0.0,0.0,0.0,-1.4378265,0.06851539,-0.6817201,5.2449703,-52.166985,12.177777,-34.885803,4.5887113,-1.8475652,-0.8300841
-3.4866765,-90.024635,-27.663145,-32.14204,0.5390862,-3.8741188,1.3726895,-0.6858943,-0.71270055,-0.22916839,-0.7440859,-0.61411613,0.6677057,0.45508206,0.94464624,-0.5125545,-1.8292472,-1.0805032,2.2005699,1.5220438,-0.91078585,1.0005785,-0.45242956,-1.8111866,-1.0136364,2.2535777,1.4599844,-0.9526882,-1.2526716,-1.2113818,-0.45859694,-0.8656161,-0.8405277,0.46477097,0.35913494,0.75096893,-0.4700756,1.2209262,-3.684236,-0.15603553,-1.1036807,0.12969208,-0.39383316,1.0034164,0.83998555,-0.1317658,0.20232335,0.48592934,-0.6400213,-0.9472792,-0.71544576,1.0,0.0,0.0,0.0,0.0,0.0,0.0,-1.4009689,0.0700756,-0.67092615,5.217433,-38.751125,10.844219,-44.55414,-0.1265049,-2.537328,-0.5768776
16.556686,-20.078438,-1.8651934,-21.554625,-0.66640383,-1.9951041,1.3741589,-0.6121498,-0.72806346,-0.07461268,-0.75657165,-0.674889,0.6938751,0.487731,0.93936354,-0.5252359,-1.8186479,-1.0892935,2.1860888,1.529372,-0.9039151,0.9886318,-0.4661372,-1.8145568,-1.024966,2.2449336,1.4646078,-0.9491091,-1.1756353,-1.4242369,-0.29671562,-1.2214965,-0.872479,0.45879593,0.35807043,0.7141571,-0.47163582,1.2091612,-3.6805525,-0.15587953,-1.2007633,0.123802185,-0.4039135,0.9951104,0.8421065,-0.12377467,0.20290662,0.48411277,-0.57912254,-1.0213683,-0.872659,1.0,0.0,0.0,0.0,0.0,0.0,0.0,-1.3641571,0.07163581,-0.65916115,7.61714,-21.392775,16.087013,-35.38365,-3.3147335,-1.3986647,0.03463626
18.278414,29.786911,14.18432,-2.6254394,-0.41810125,-0.28018665,0.9422386,-0.6470438,-0.73427707,-4.0401355e-05,-0.74480635,-0.66922915,0.6904685,0.4824785,0.9239274,-0.5395649,-1.8145609,-1.0994467,2.1780107,1.5336547,-0.9008612,0.9771686,-0.4808958,-1.8162735,-1.0386856,2.235969,1.4692141,-0.9455328,-1.136437,-1.4930943,-0.13162984,-1.4217998,-0.90385514,0.46064663,0.3584349,0.6773758,-0.47319221,1.196426,-3.6768727,-0.15572368,-1.2977488,0.11846924,-0.41399765,0.98587614,0.84348965,-0.11518034,0.20288378,0.48383558,-0.5231327,-0.99532324,-0.9449843,1.0,0.0,0.0,0.0,0.0,0.0,0.0,-1.3273758,0.07319221,-0.646426,3.9717674,-6.885743,16.023176,-19.912506,-3.0465722,0.030380487,0.29670596
18.083729,67.53775,27.05777,14.006068,0.11809242,1.1160061,0.5923168,-0.66180277,-0.720448,0.13717493,-0.73297566,-0.6689758,0.696374,0.49453592,0.91098833,-0.5529406,-1.8025559,-1.1119832,2.1690714,1.5388515,-0.8960792,0.96584946,-0.49559858,-1.8161056,-1.0533626,2.2267566,1.4738852,-0.9419346,-1.1298026,-1.4621466,0.063355625,-1.4828027,-0.92611617,0.47094795,0.36161774,0.64064026,-0.4747486,1.1827219,-3.6731968,-0.15556799,-1.3946373,0.11361694,-0.4232731,0.97650534,0.8442128,-0.1068982,0.20260446,0.48459157,-0.47914326,-0.8944374,-0.93890005,1.0,0.0,0.0,0.0,0.0,0.0,0.0,-1.2906402,0.074748605,-0.63272184,0.86767673,3.241396,18.630135,-6.050825,-1.9035101,1.5374899,0.7153034
10.696091,70.53819,26.03276,21.94786,0.7028696,1.2310524,0.213763,-0.63777673,-0.7274246,0.08458722,-0.73434335,-0.6504381,0.6799788,0.47098082,0.9020718,-0.568341,-1.8076469,-1.126797,2.1617126,1.5418831,-0.8948365,0.95458466,-0.509748,-1.8146656,-1.0680263,2.217441,1.4786555,-0.938324,-1.1246217,-1.3985765,0.16825023,-1.4605875,-0.9324487,0.4811399,0.36210787,0.60393524,-0.4763031,1.1680495,-3.6695242,-0.15541245,-1.491429,0.10900879,-0.43156242,0.9673884,0.8445004,-0.09926997,0.2022813,0.4858464,-0.458015,-0.79601634,-0.90608275,1.0,0.0,0.0,0.0,0.0,0.0,0.0,-1.2539352,0.076303095,-0.61804944,0.7679939,6.522894,9.68848,2.313447,-0.35498142,1.6573906,0.4162848
-5.8018117,42.164078,10.745895,22.710245,1.2416544,0.23836511,-0.24196245,-0.6200584,-0.74613005,-0.1708088,-0.74474514,-0.6487861,0.66531694,0.47628728,0.89257884,-0.58436096,-1.8317465,-1.1425009,2.1525624,1.5451871,-0.8906953,0.9434162,-0.52337027,-1.8138473,-1.0822589,2.2081027,1.4834906,-0.9347172,-1.113489,-1.349932,0.052069668,-1.4099053,-0.93453175,0.48520687,0.3606309,0.5672684,-0.47785568,1.1524099,-3.6658554,-0.15525708,-1.5881238,0.10433197,-0.43937683,0.9583713,0.8447766,-0.091870666,0.20212899,0.48688397,-0.4747558,-0.7664073,-0.9028114,1.0,0.0,0.0,0.0,0.0,0.0,0.0,-1.2172683,0.07785568,-0.6024099,1.3554335,4.9018145,-11.968114,5.306101,-0.26504993,0.67226887,0.003361702
-15.7729435,18.532738,-1.0645657,20.241652,1.4624809,-0.5911516,-0.4471963,-0.59367913,-0.75634176,-0.33692923,-0.745229,-0.660755,0.67219865,0.5058063,0.8840483,-0.59900445,-1.8475403,-1.1567818,2.1420271,1.5507104,-0.88413656,0.93246704,-0.5367055,-1.8152854,-1.0959861,2.1987185,1.4883448,-0.93111324,-1.0880144,-1.3282042,-0.20913492,-1.3590361,-0.94088066,0.48508996,0.36031497,0.53063965,-0.47940826,1.1358042,-3.6621904,-0.15510185,-1.6847221,0.0993042,-0.44730186,0.94912153,0.8453507,-0.08413521,0.20226815,0.48722783,-0.5138127,-0.7905352,-0.93475,1.0,0.0,0.0,0.0,0.0,0.0,0.0,-1.1806396,0.07940826,-0.58580416,2.7659416,2.0939589,-26.139227,5.420947,-0.9291291,-0.094008446,-0.045263767
-25.343374,0.90900993,-10.231604,18.909462,1.7432264,-1.0573153,-0.5845047,-0.6177289,-0.7607047,-0.49659032,-0.7440788,-0.6597989,0.67451155,0.4956151,0.87069416,-0.612776,-1.8649445,-1.1703941,2.1327386,1.5557959,-0.88155174,0.921639,-0.54998636,-1.8199165,-1.1093032,2.1892695,1.493178,-0.9275236,-1.0799015,-1.3287092,-0.5472301,-1.3211972,-0.9479266,0.48160398,0.35812134,0.49404144,-0.48095703,1.1182331,-3.6585288,-0.15494677,-1.7812237,0.09372711,-0.4557228,0.93934053,0.8464162,-0.07561202,0.20271726,0.4865882,-0.5774097,-0.8494952,-0.995682,1.0,0.0,0.0,0.0,0.0,0.0,0.0,-1.1440414,0.080957025,-0.5682331,1.1344433,-0.23429394,-33.717583,4.2523384,-1.172936,-0.70139766,-0.32978654
-25.144346,0.7235997,-9.777436,17.313805,1.7419037,-0.89788616,-0.4616179,-0.635007,-0.7646133,-0.5403806,-0.7581536,-0.656162,0.67966795,0.48069656,0.8581383,-0.6264477,-1.8739545,-1.1851186,2.1236534,1.5611448,-0.87945396,0.91075855,-0.5633683,-1.827544,-1.1224391,2.179771,1.497975,-0.92396545,-1.089518,-1.3420205,-0.83452547,-1.3093556,-0.9522912,0.4776737,0.35479674,0.457489,-0.4825058,1.0996978,-3.654871,-0.15479186,-1.8776288,0.08747864,-0.46468735,0.92889726,0.8479387,-0.06617617,0.20335379,0.485044,-0.6436133,-0.90211815,-1.0646162,1.0,0.0,0.0,0.0,0.0,0.0,0.0,-1.107489,0.08250579,-0.5496978,-0.56340694,-1.5455484,-28.721369,1.7019749,-0.91279745,-0.8178234,-0.41820407
-21.83104,13.275045,-2.9733865,18.723946,1.8462715,-0.19594729,-0.2766352,-0.68144584,-0.75869477,-0.5094458,-0.75459427,-0.63193846,0.6834276,0.48533082,0.842614,-0.6392378,-1.8784885,-1.1978986,2.1165771,1.5663178,-0.8754324,0.8995338,-0.5768695,-1.8370674,-1.1355503,2.1703181,1.5027453,-0.9204292,-1.1320928,-1.3533654,-0.99222666,-1.3099545,-0.944438,0.4755826,0.3532359,0.4209671,-0.48405266,1.0801991,-3.651217,-0.1546371,-1.9739375,0.08060455,-0.47392082,0.91790694,0.8497459,-0.05606825,0.20396316,0.48289463,-0.70759594,-0.9196632,-1.115469,1.0,0.0,0.0,0.0,0.0,0.0,0.0,-1.0709671,0.08405265,-0.5301991,-3.8284302,-1.3310909,-15.913784,0.42703152,0.3785491,-0.51986575,-0.13771057
-17.708473,25.786865,3.6995487,19.840704,1.8750998,0.3962463,-0.13437386,-0.7104367,-0.75406754,-0.51658756,-0.752555,-0.6053579,0.67853045,0.4629162,0.82849014,-0.6522762,-1.8887261,-1.2108058,2.1097822,1.5705984,-0.87413764,0.8877588,-0.5904336,-1.8474185,-1.148709,2.161037,1.5075003,-0.9169178,-1.1912972,-1.3579662,-1.0503346,-1.3162863,-0.9238156,0.47479913,0.35078335,0.38448334,-0.4855976,1.0597382,-3.6475663,-0.1544825,-2.0701497,0.073135376,-0.4831047,0.9065571,0.85167676,-0.045602728,0.20435768,0.48042157,-0.76449096,-0.9066024,-1.1470168,1.0,0.0,0.0,0.0,0.0,0.0,0.0,-1.0344833,0.085597605,-0.50973815,-5.5257797,-0.6247997,-6.0377836,-0.21276474,1.7299056,-0.26212335,-0.13971329
-15.714058,32.310818,7.0074377,20.303667,1.8772409,0.6879247,-0.08215397,-0.73291606,-0.75351197,-0.5615202,-0.7497287,-0.5874919,0.6756051,0.44151685,0.8144672,-0.6657848,-1.9035705,-1.2236819,2.1022878,1.5750608,-0.87276614,0.8753744,-0.60400915,-1.8580654,-1.1619251,2.1520076,1.5122496,-0.9134426,-1.2528895,-1.3578681,-1.0703266,-1.322112,-0.89691216,0.47469923,0.34689438,0.34803772,-0.48714256,1.0383157,-3.6439195,-0.15432805,-2.1662657,0.06513214,-0.4920578,0.89496756,0.85365075,-0.034970522,0.20443963,0.47776744,-0.8168898,-0.8790772,-1.1686187,1.0,0.0,0.0,0.0,0.0,0.0,0.0,-0.9980377,0.08714256,-0.48831564,-5.803275,-0.13678074,-2.2424936,-0.20141602,2.400124,-0.13471842,-0.24582148
-15.203322,36.13494,8.562073,20.93223,1.893612,0.8338583,-0.098043434,-0.75507575,-0.7476494,-0.60368943,-0.7365516,-0.5709784,0.67520887,0.4144147,0.7998668,-0.6787741,-1.9184343,-1.2355802,2.0949097,1.5797704,-0.8720012,0.86241394,-0.6175389,-1.8688915,-1.1751258,2.1432605,1.5170008,-0.9100237,-1.3094428,-1.3518246,-1.0874497,-1.3182815,-0.8680495,0.4750414,0.34071648,0.31162262,-0.4886837,1.0159328,-3.6402764,-0.15417375,-2.2622857,0.056625366,-0.50069237,0.883209,0.8556531,-0.02426508,0.20419219,0.47494677,-0.86752564,-0.8450795,-1.1838337,1.0,0.0,0.0,0.0,0.0,0.0,0.0,-0.9616226,0.088683695,-0.4659328,-5.3363085,0.46565533,-1.9305468,0.7392645,2.6130557,-0.06442666,-0.46880245
-16.017689,35.864384,7.861026,20.675102,1.8643153,0.7994062,-0.14802733,-0.7754623,-0.74391,-0.662567,-0.73205966,-0.5594326,0.6731008,0.35967022,0.7848677,-0.69192994,-1.9351482,-1.2483318,2.0873172,1.5843109,-0.8740567,0.8489509,-0.6309886,-1.8800857,-1.1882522,2.1347842,1.5217539,-0.9067049,-1.3576021,-1.3431215,-1.1305523,-1.3095707,-0.8417336,0.4748932,0.3293817,0.2752533,-0.49022484,0.9925905,-3.6366367,-0.15401961,-2.3582096,0.047607422,-0.5090065,0.87127584,0.85771203,-0.013465149,0.20364422,0.47188753,-0.91861206,-0.81354487,-1.2018048,1.0,0.0,0.0,0.0,0.0,0.0,0.0,-0.9252533,0.09022483,-0.44259048,-4.5161486,0.72386265,-4.481387,1.234293,2.3477554,-0.1499474,-1.0052323
-15.791146,34.7507,7.4109936,19.704718,1.8556066,0.76459885,-0.14511202,-0.791622,-0.75172585,-0.68729055,-0.73105085,-0.52761024,0.65638334,0.30970058,0.76978874,-0.7061612,-1.9488147,-1.2613573,2.0820231,1.5873922,-0.87573487,0.8350807,-0.64439917,-1.8917778,-1.2012908,2.1266093,1.5264899,-0.9035301,-1.3959435,-1.3409543,-1.182542,-1.300676,-0.81056,0.47269017,0.31390446,0.23891449,-0.49176407,0.9682896,-3.6330009,-0.15386562,-2.4540377,0.038093567,-0.5170307,0.8591338,0.85984063,-0.0025350917,0.20276213,0.4685671,-0.9695636,-0.78439033,-1.2236012,1.0,0.0,0.0,0.0,0.0,0.0,0.0,-0.88891447,0.09176406,-0.4182896,-3.5585165,0.065517426,-5.34153,1.2614727,2.8375745,-0.39174557,-1.4152169
-13.820915,35.162342,8.124814,18.425272,1.7439746,0.7884141,-0.11492171,-0.79852086,-0.75991887,-0.6998233,-0.72541845,-0.52230346,0.6540615,0.24574949,0.7552286,-0.72039104,-1.96176,-1.2738327,2.074379,1.591896,-0.8789552,0.82092434,-0.6578479,-1.9039524,-1.2142341,2.1187053,1.5312029,-0.900547,-1.4214008,-1.346634,-1.2293214,-1.2909781,-0.7845347,0.47019798,0.2935253,0.2026062,-0.4933014,0.9430312,-3.6293685,-0.15371178,-2.5497699,0.02809143,-0.5247574,0.8467582,0.86202025,0.008514261,0.20151258,0.4650174,-1.0149885,-0.75366354,-1.2472799,1.0,0.0,0.0,0.0,0.0,0.0,0.0,-0.8526062,0.093301386,-0.39303118,-2.309394,-0.71132183,-4.8048973,1.3304234,2.3549914,-0.42452216,-1.898694
-11.878505,41.35576,11.12749,19.369892,1.6544874,1.0269693,-0.1259791,-0.81254196,-0.74588263,-0.69709873,-0.6933387,-0.5453767,0.6619463,0.20244522,0.73967016,-0.7324361,-1.9736623,-1.283568,2.0641675,1.5973976,-0.8803025,0.8065515,-0.6712966,-1.9164474,-1.2269561,2.110931,1.5359026,-0.8977852,-1.4418708,-1.3447254,-1.2567343,-1.2648569,-0.77578366,0.469409,0.27075478,0.16634369,-0.4948387,0.9168162,-3.6257398,-0.1535581,-2.6454062,0.017684937,-0.53209305,0.8342316,0.8642231,0.019567274,0.19996622,0.46124724,-1.0526072,-0.7118037,-1.2595078,1.0,0.0,0.0,0.0,0.0,0.0,0.0,-0.81634367,0.09483871,-0.36681616,-1.8607378,0.06597042,-2.8444052,2.9171944,0.6680846,-0.18749833,-2.1475554
-10.0429125,43.591187,12.467632,18.834244,1.5457299,1.095784,-0.1338325,-0.8162798,-0.74885845,-0.7122062,-0.6828577,-0.54262054,0.6529678,0.07041045,0.72492355,-0.74618244,-1.987668,-1.295242,2.0566688,1.6011994,-0.89074415,0.7920309,-0.6847291,-1.9291599,-1.239394,2.1031947,1.540589,-0.8953304,-1.4550092,-1.3432248,-1.2765406,-1.235797,-0.77325666,0.4682388,0.23746009,0.1301117,-0.49637222,0.8896455,-3.622115,-0.15340458,-2.7409472,0.006965637,-0.53899384,0.8216024,0.86644,0.030551536,0.1981698,0.4572495,-1.0835391,-0.66680825,-1.2690303,1.0,0.0,0.0,0.0,0.0,0.0,0.0,-0.7801117,0.09637222,-0.3396455,-1.1620045,0.036859512,-2.0678997,3.1837702,0.072169304,-0.20624995,-3.2025604
-9.956823,42.140003,11.865588,17.83732,1.5354518,1.051474,-0.16607606,-0.8223149,-0.75927186,-0.7382548,-0.67656213,-0.51414347,0.6343179,-0.12328133,0.7097994,-0.7606563,-2.0029855,-1.3070501,2.0517805,1.6040207,-0.9076586,0.7774063,-0.6981969,-1.9421089,-1.2515686,2.0955424,1.5452505,-0.8933296,-1.4644071,-1.3482678,-1.3013276,-1.2104048,-0.7629336,0.46511316,0.18800972,0.09391785,-0.49790573,0.8615201,-3.6184936,-0.1532512,-2.8363926,-0.004081726,-0.5454674,0.8088458,0.8686976,0.04146865,0.1960863,0.45298445,-1.114307,-0.62483406,-1.2825038,1.0,0.0,0.0,0.0,0.0,0.0,0.0,-0.7439178,0.097905725,-0.3115201,-0.7941961,-0.62105656,-2.5574446,2.831173,0.85611343,-0.42960644,-4.808837
-11.024925,44.429165,12.627299,19.382328,1.730366,1.1792738,-0.24164096,-0.83124936,-0.7557443,-0.7435362,-0.62903273,-0.4822496,0.62514836,-0.25905633,0.69428134,-0.7737713,-2.0164626,-1.3144718,2.0473175,1.6077653,-0.9192352,0.7626844,-0.7117028,-1.9552715,-1.2633426,2.0880847,1.5498778,-0.8918934,-1.4743922,-1.3517071,-1.3214829,-1.1653755,-0.7408223,0.4614078,0.12938938,0.057762146,-0.49943733,0.83244103,-3.6148758,-0.15309799,-2.9317424,-0.015464783,-0.55150795,0.7960222,0.87104744,0.05224555,0.19367781,0.44836986,-1.1491687,-0.5804094,-1.2868587,1.0,0.0,0.0,0.0,0.0,0.0,0.0,-0.7077621,0.099437326,-0.28244102,-0.87041855,-0.46412945,-2.0620584,4.7827244,2.045858,-0.47280192,-5.7178917
-14.357346,47.547302,13.2433,23.331104,2.0958328,1.3709239,-0.38633135,-0.83985347,-0.75530225,-0.7520414,-0.5353174,-0.4884712,0.608638,-0.3497773,0.6786991,-0.78723305,-2.0304756,-1.3168744,2.0392375,1.6107416,-0.9268711,0.7478481,-0.7252326,-1.9686115,-1.2742965,2.08081,1.5544573,-0.8910637,-1.4863112,-1.3537625,-1.3380527,-1.0710876,-0.7234597,0.45669875,0.06797059,0.021636963,-0.500967,0.8024091,-3.6112616,-0.15294492,-3.0269969,-0.027267456,-0.55708885,0.78328276,0.87356865,0.06273658,0.19099611,0.44324073,-1.1941875,-0.53358734,-1.2739542,0.0,1.0,0.0,0.0,0.0,0.0,0.0,-0.67163694,0.10096702,-0.2524091,-1.0831356,-0.3385067,-1.6411304,9.698582,1.5812516,-0.54318905,-6.010005
-17.268934,51.549786,14.298153,27.523212,2.5760627,1.5543271,-0.5110848,-0.84376323,-0.7508188,-0.75805837,-0.43100828,-0.4257182,0.5791945,-0.39526406,0.66347176,-0.8003145,-2.0444174,-1.3173974,2.0382383,1.6123768,-0.9305901,0.7329677,-0.738723,-1.9826448,-1.2840105,2.0737343,1.560571,-0.89037335,-1.4779278,-1.3439156,-1.5040957,-0.9507431,-0.747676,0.8726311,0.10828376,-0.005935669,-0.5025406,0.7847514,-1.4321321,-0.09909555,0.6530087,-0.039711,-0.56202126,0.77066994,0.8762168,0.07228554,0.18830276,0.43767664,-1.272626,-0.44202152,-1.2859169,0.0,1.0,0.0,0.0,0.0,0.0,0.0,-0.6440643,0.10254058,-0.2347514,2.8814793,1.6281128,-31.90725,9.792781,-8.699012,83.83187,13.994556
59.69206,176.0,110.0,110.0,4.777666,11.3663435,-1.4801093,-0.79575276,0.3514256,0.70737606,0.73862904,-0.19267331,0.6290636,-0.47327706,0.6533924,-0.70358044,-1.9119072,-1.2101476,2.054467,1.6234773,-0.93770105,0.7223957,-0.75442785,-1.9909959,-1.2800298,2.0585551,1.5769117,-0.8887717,-0.9224566,-1.6453419,-0.60047114,0.8456538,-1.7659514,1.8835844,0.1770586,-0.019721985,-0.5034523,0.79182494,-1.4307004,-0.098996475,0.5541698,-0.051879883,-0.5642376,0.7624517,0.8784594,0.07130979,0.19029361,0.43244916,-1.1970642,-0.1338393,-0.6675573,0.0,1.0,0.0,0.0,0.0,0.0,0.0,-0.630278,0.103452295,-0.24182492,54.191113,-29.85313,91.95209,178.69768,-100.76709,104.60205,6.9364905
9.959725,172.9795,81.805244,84.3313,6.2000957,5.905655,-1.2537762,-0.7913891,-0.6303328,0.3733737,0.7609955,-0.54335856,0.66054815,-0.33777112,0.6432568,-0.81746113,-1.9536585,-1.2039303,2.0042193,1.6429665,-0.92254883,0.7133873,-0.77031225,-1.99153,-1.2654424,2.0406795,1.5956953,-0.8872773,-0.8922582,-1.5707015,0.1311457,1.6639225,-1.7994379,1.8828181,0.14314666,-0.03401947,-0.5044403,0.79662603,-1.42927,-0.098897494,0.45542973,-0.06386566,-0.564394,0.75921416,0.8810298,0.063184194,0.19434015,0.42664525,-1.1970154,0.03443088,-0.21537119,1.0,0.0,0.0,0.0,0.0,0.0,0.0,-0.6159805,0.1044403,-0.24662602,3.4197092,7.1056128,73.868385,82.0982,-4.797888,1.8147707,-2.4969668
0.5478072,132.9401,55.436623,51.127075,4.1035175,3.1957312,-0.5448271,-0.7202917,-0.6519222,0.28105077,0.66356885,-0.65344876,0.6488353,0.08743004,0.64135814,-0.8355045,-1.9634249,-1.1990855,1.9753345,1.6605787,-0.8785343,0.7038906,-0.7849693,-1.9867063,-1.2467198,2.0238528,1.613344,-0.8859164,-0.9670246,-1.4318144,0.5997099,1.9426934,-1.6476202,1.7293438,0.13545245,-0.048301697,-0.5054283,0.8004405,-1.4278411,-0.09879862,0.35678846,-0.07581329,-0.56324005,0.75900245,0.8838884,0.052209232,0.19848776,0.4202594,-1.1927636,0.14864688,0.034821313,1.0,0.0,0.0,0.0,0.0,0.0,0.0,-0.6016983,0.10542831,-0.25044048,-6.9369316,13.550925,46.92156,28.222965,13.9757395,-14.276123,-0.25125444
0.23392773,105.61957,40.95912,28.24207,2.5249884,1.8755018,0.019287713,-0.7110334,-0.65796894,0.5309509,0.71501726,-0.64904064,0.5970066,0.13215539,0.6327873,-0.8507662,-1.9336112,-1.1752181,1.9589487,1.6730446,-0.87270087,0.69326955,-0.7982139,-1.9780908,-1.2277646,2.0091395,1.6291463,-0.88460034,-1.0927823,-1.2894675,0.9484438,1.8804055,-1.4150382,1.5331881,0.13131118,-0.062568665,-0.5064163,0.8032692,-1.4264135,-0.09869984,0.2582458,-0.08755493,-0.56114006,0.7603598,0.8867718,0.04038755,0.20193103,0.4137974,-1.1704533,0.23724596,0.16045484,1.0,0.0,0.0,0.0,0.0,0.0,0.0,-0.5874313,0.106416315,-0.2532692,-12.24165,13.991189,34.700012,-6.0798645,22.403717,-18.869638,-0.14796853
-3.659174,70.73274,22.763998,13.410324,1.296428,0.5137259,0.21564601,-0.70459634,-0.6495376,0.4934779,0.714941,-0.6585661,0.58135563,0.13467783,0.6228099,-0.86316764,-1.928743,-1.1562705,1.943283,1.6872818,-0.87113255,0.68153745,-0.81031126,-1.9675756,-1.2105222,1.9965332,1.6430871,-0.8833186,-1.1996839,-1.1835681,1.0850244,1.6723135,-1.2104769,1.3495054,0.12737377,-0.07682037,-0.5074024,0.80511326,-1.4249874,-0.098601155,0.15980166,-0.099098206,-0.55849457,0.7621374,0.8895682,0.029016744,0.20446876,0.407454,-1.1512886,0.28043517,0.1754862,1.0,0.0,0.0,0.0,0.0,0.0,0.0,-0.5731796,0.107402414,-0.25511324,-10.582232,10.46989,13.366318,-20.76347,20.122194,-17.807983,-0.3201425
-1.8773327,49.49476,13.282958,6.6702,0.60584515,-0.32883108,0.25665516,-0.68158555,-0.6438098,0.49730727,0.7203343,-0.6581651,0.5728327,0.1049785,0.6133789,-0.87469226,-1.9178448,-1.1384888,1.9307166,1.7003704,-0.87282073,0.669133,-0.82169145,-1.9566674,-1.1953988,1.9855373,1.6553705,-0.8820979,-1.2541609,-1.1229917,1.0920845,1.4592047,-1.0631659,1.1894302,0.12039185,-0.091056824,-0.5083866,0.8059736,-1.4235628,-0.09850258,0.06145595,-0.11042023,-0.5556793,0.76365507,0.89225876,0.018737016,0.20622425,0.4012416,-1.1309041,0.2895041,0.13735238,1.0,0.0,0.0,0.0,0.0,0.0,0.0,-0.55894315,0.108386606,-0.25597358,-5.4712296,5.990815,0.4951954,-21.29054,14.577103,-15.590119,-0.6918758
-2.9246926,32.95899,6.0327597,4.8967733,0.44497216,-0.8762058,0.18575722,-0.674261,-0.6561253,0.4625829,0.70551485,-0.6416221,0.55991286,0.095891126,0.6017069,-0.887304,-1.9104091,-1.1248473,1.921375,1.7113618,-0.87250876,0.6565073,-0.83282274,-1.9463468,-1.1820245,1.9756248,1.6662328,-0.8809497,-1.265431,-1.1099187,1.0114915,1.2971144,-0.96726674,1.0528888,0.1129427,-0.105278015,-0.5093708,0.8058512,-1.4221395,-0.098404095,-0.03679144,-0.12164307,-0.5529671,0.7645669,0.8948911,0.009775009,0.20736298,0.39506316,-1.122304,0.27206516,0.070613965,1.0,0.0,0.0,0.0,0.0,0.0,0.0,-0.54472196,0.1093708,-0.2558512,-1.1765718,1.2755871,-8.216047,-16.1566,9.534943,-13.36534,-0.73860586
-4.193857,26.22621,3.4954557,6.5656757,0.605347,-1.0182106,0.069960654,-0.6692039,-0.6686917,0.4431668,0.69787395,-0.62877035,0.5682687,0.06158063,0.5895869,-0.89969194,-1.9020301,-1.1122371,1.9127477,1.7230597,-0.8747916,0.64397126,-0.8440694,-1.9370255,-1.1697469,1.9663742,1.6759069,-0.87989396,-1.2496814,-1.1296864,0.90541714,1.2050023,-0.9111178,0.93959415,0.10320047,-0.11949158,-0.510355,0.8047471,-1.4207177,-0.09830571,-0.13494061,-0.1328888,-0.5505047,0.7647911,0.8975342,0.0020579984,0.20802934,0.3887826,-1.1256064,0.24480008,0.0019938818,1.0,0.0,0.0,0.0,0.0,0.0,0.0,-0.5305084,0.11035499,-0.2547471,1.55797,-1.9966364,-10.724104,-9.101009,5.5818915,-11.125124,-0.93655586
0.10402441,26.048624,4.794447,7.0600414,0.5981051,-1.0469105,0.028653972,-0.6271543,-0.6858209,0.41882926,0.68878424,-0.6230863,0.5826785,0.0076139993,0.58125585,-0.91265154,-1.8951427,-1.1008685,1.9040655,1.7341747,-0.87913257,0.63184816,-0.8556604,-1.928719,-1.1579728,1.9574726,1.6846063,-0.87896794,-1.1999356,-1.1689826,0.8057727,1.1686652,-0.88364726,0.84707284,0.08919057,-0.13368988,-0.5113373,0.80266225,-1.4192973,-0.09820743,-0.23299164,-0.14411163,-0.548336,0.76437944,0.90020883,-0.004643235,0.20833807,0.38235795,-1.125657,0.21464072,-0.059407867,0.0,1.0,0.0,0.0,0.0,0.0,0.0,-0.5163101,0.111337274,-0.25266224,4.954624,-3.9602518,-9.973764,-3.5001755,2.6531935,-9.108437,-1.3506442
4.1435356,28.301607,6.874854,7.2747164,0.5661414,-0.9963583,0.031956285,-0.5881181,-0.7060524,0.39092323,0.6825449,-0.6242563,0.5916325,0.015365517,0.5730364,-0.9262656,-1.8896267,-1.0897183,1.895047,1.7437695,-0.8774314,0.62038213,-0.86771005,-1.9212728,-1.1463037,1.9486988,1.6925085,-0.87816685,-1.1290039,-1.2170403,0.72455674,1.1669328,-0.87573946,0.77177083,0.077326514,-0.14787292,-0.51231766,0.7995976,-1.4178784,-0.09810924,-0.33094466,-0.15532684,-0.5464535,0.7634175,0.9028984,-0.010562315,0.20837532,0.37582263,-1.1201701,0.18591477,-0.112065226,0.0,1.0,0.0,0.0,0.0,0.0,0.0,-0.50212705,0.11231765,-0.24959761,7.065797,-4.8517227,-8.04255,-0.028133392,0.6411195,-7.4212313,-1.1279106
2.795291,27.477728,5.993492,7.6729,0.55136293,-0.99417293,0.010050379,-0.56557906,-0.7227531,0.3080407,0.6726517,-0.6277447,0.5965859,0.046602786,0.56382424,-0.9399854,-1.8904687,-1.0790385,1.8859243,1.7521671,-0.87350655,0.6096218,-0.880227,-1.9147592,-1.1345639,1.9399211,1.699764,-0.87744683,-1.0583698,-1.2635154,0.6270037,1.1769086,-0.87872124,0.7104493,0.07041103,-0.16204071,-0.51329803,0.7955542,-1.4164609,-0.09801115,-0.42879972,-0.16649628,-0.54486275,0.7619142,0.9055996,-0.015758136,0.20823139,0.3691621,-1.1182393,0.1568784,-0.16694766,0.0,1.0,0.0,0.0,0.0,0.0,0.0,-0.48795927,0.11329803,-0.24555421,7.04298,-4.69625,-9.68157,1.1692286,-0.4196167,-6.0418487,-0.6315246
-0.35341263,25.594955,4.202269,7.8052397,0.5451038,-0.9919596,-0.013277091,-0.5474009,-0.74005723,0.22142647,0.6579615,-0.6167774,0.594526,0.0465353,0.55488175,-0.95423275,-1.8926165,-1.0687678,1.8782434,1.7592167,-0.8727933,0.5994814,-0.8931703,-1.9094052,-1.1227632,1.9311225,1.7064874,-0.8767831,-0.9992347,-1.3047508,0.50499153,1.1816499,-0.88037056,0.6599325,0.06523167,-0.17619324,-0.5142784,0.79053295,-1.4150448,-0.09791316,-0.52655697,-0.17770386,-0.5435581,0.7598135,0.9083305,-0.020163633,0.20796123,0.36232764,-1.1224194,0.12785782,-0.22835426,0.0,1.0,0.0,0.0,0.0,0.0,0.0,-0.47380674,0.114278406,-0.24053293,5.9069157,-4.172182,-12.171257,0.67322254,-0.23413897,-4.9789906,-0.4581973
1.9657183,25.83395,3.9068944,6.463278,0.28865406,-1.0859046,0.008769479,-0.4885197,-0.75062215,0.11617729,0.6647234,-0.62725556,0.6166381,0.05208303,0.55062944,-0.9682325,-1.8977875,-1.0562909,1.868397,1.7681513,-0.87157476,0.5900304,-0.9064515,-1.9055723,-1.1109214,1.9222358,1.7128121,-0.876211,-0.92624885,-1.335815,0.33645162,1.183293,-0.8957889,0.62668455,0.04910114,-0.19039154,-0.51459694,0.7862843,-1.419693,0.06569471,-0.18383992,-0.18889618,-0.54258156,0.7570377,0.9110838,-0.023675224,0.20768096,0.35529462,-1.1182154,0.09358616,-0.3006175,0.0,1.0,0.0,0.0,0.0,0.0,0.0,-0.45960844,0.11459693,-0.23628432,7.467139,-3.1129122,-18.163961,-0.122094154,-2.5799036,-2.6542306,-2.8173842
-28.449984,23.76351,-3.3909242,18.11952,1.2545115,-0.80491513,-0.41109872,-0.59981227,-0.71325797,-0.09976896,0.7296628,-0.6460617,0.59836185,0.0454919,0.53004915,-0.9777773,-1.9155492,-1.037955,1.8576297,1.7726482,-0.8716618,0.58062816,-0.91975623,-1.9041004,-1.098747,1.9131978,1.7188282,-0.8757498,-0.9442884,-1.3289369,0.08317688,1.2301952,-0.90578187,0.5935454,0.04538424,-0.20458221,-0.51389885,0.78382415,-1.4185845,0.07012828,-0.2698351,-0.20050049,-0.54182243,0.7535608,0.914022,-0.025972262,0.20769602,0.3474931,-1.1737982,0.075384036,-0.3676874,0.0,1.0,0.0,0.0,0.0,0.0,0.0,-0.44541776,0.11389884,-0.23382413,-1.6179442,0.64718723,-25.63564,5.0987244,-0.7754326,-3.2190561,-0.32467693
-38.077175,31.138247,-2.3151941,23.075321,1.5945531,-0.46690488,-0.5399728,-0.61697847,-0.6842953,-0.20037258,0.75890034,-0.6442148,0.62802637,0.02124093,0.5189303,-0.98818576,-1.9241377,-1.022857,1.8487762,1.7816309,-0.87362576,0.5707883,-0.932771,-1.905238,-1.0859755,1.9040805,1.7245792,-0.87533724,-0.99631786,-1.2925406,-0.18058336,1.2943474,-0.9128682,0.56918013,0.040008783,-0.21876526,-0.5131264,0.78060776,-1.4179951,0.078855835,-0.34116107,-0.21273041,-0.5411167,0.74952143,0.91721314,-0.026983865,0.20819174,0.33859727,-1.2413862,0.07607646,-0.42039385,0.0,1.0,0.0,0.0,0.0,0.0,0.0,-0.43123472,0.11312637,-0.23060775,-4.935944,3.5568953,-26.726318,6.8829536,-0.49158335,-2.363503,-0.5199485
-39.689243,29.008013,-3.614155,22.049253,1.4944403,-0.4445151,-0.49686012,-0.6201463,-0.68814665,-0.3676738,0.7593153,-0.6242977,0.6291239,0.023617152,0.5087737,-1.0015857,-1.9420054,-1.010044,1.8416507,1.7874916,-0.8729755,0.560401,-0.94543487,-1.9091754,-1.0726471,1.8949841,1.730115,-0.8749643,-1.0519363,-1.2580643,-0.4658147,1.3473021,-0.90779155,0.54829824,0.03637917,-0.23294067,-0.5122833,0.7766321,-1.4172026,0.084945366,-0.41952124,-0.22569275,-0.5403881,0.7448894,0.92063564,-0.026618436,0.20918013,0.3285804,-1.3105824,0.07906736,-0.48197645,0.0,1.0,0.0,0.0,0.0,0.0,0.0,-0.4170593,0.11228332,-0.22663206,-5.281639,3.3331156,-28.851128,5.774927,0.69874525,-2.1057844,-0.37417263
-29.589851,33.58531,0.4178568,18.157055,1.1669822,-0.33657902,-0.29510772,-0.6059574,-0.68817425,-0.43615043,0.7695644,-0.6137511,0.6352539,0.102108285,0.49980527,-1.0142523,-1.9527905,-0.99569064,1.833609,1.7936405,-0.8647535,0.5496352,-0.9578317,-1.9155957,-1.0589029,1.8859793,1.735474,-0.874567,-1.0840505,-1.2340878,-0.7010787,1.3847228,-0.8980003,0.53148204,0.04075923,-0.24710846,-0.51135826,0.77196276,-1.4166894,0.09450907,-0.48472172,-0.23917389,-0.5396004,0.73968166,0.92417586,-0.024990646,0.21055381,0.31771293,-1.3574725,0.08684876,-0.53820527,0.0,1.0,0.0,0.0,0.0,0.0,0.0,-0.40289152,0.111358255,-0.22196275,-3.0042171,2.2490978,-23.673355,4.134083,1.010561,-1.7733097,0.40103495
-20.23758,39.549107,5.5152283,15.23074,1.0669844,-0.098864436,-0.13019453,-0.6140473,-0.69776475,-0.4475903,0.7782759,-0.59725934,0.63409907,0.10479132,0.48823044,-1.0276082,-1.9603547,-0.9810753,1.8262534,1.7988839,-0.8640878,0.53865075,-0.97012645,-1.923681,-1.0448972,1.8771063,1.7406893,-0.87412274,-1.1027976,-1.2285986,-0.84405875,1.40695,-0.8841513,0.5177832,0.045665327,-0.26126862,-0.5103016,0.7667761,-1.4163418,0.108890615,-0.5313317,-0.25296783,-0.53868294,0.73400927,0.92771566,-0.02243426,0.21212578,0.30633786,-1.3851051,0.10376613,-0.5812439,0.0,1.0,0.0,0.0,0.0,0.0,0.0,-0.38873136,0.110301584,-0.21677607,-1.7480135,0.37837029,-14.246678,2.5223017,1.2369633,-1.505363,0.46556294
-8.668054,39.4401,8.078596,10.004547,0.74356616,-0.08884668,0.07562001,-0.59367794,-0.7243964,-0.4935171,0.76459044,-0.5746448,0.6235399,0.15877752,0.47928295,-1.0425661,-1.9730327,-0.96843815,1.8196418,1.8030432,-0.858245,0.52766925,-0.9825614,-1.932754,-1.0308475,1.8684164,1.7457782,-0.8735906,-1.0964607,-1.2489526,-0.92762655,1.4051428,-0.86463505,0.5054976,0.055716828,-0.27542877,-0.50910187,0.76113707,-1.4156455,0.12353011,-0.574942,-0.26688385,-0.5376167,0.7278922,0.9311572,-0.019213641,0.21366762,0.2948275,-1.3925086,0.11769152,-0.62600106,0.0,1.0,0.0,0.0,0.0,0.0,0.0,-0.3745712,0.10910186,-0.21113706,0.67002773,-2.1908998,-8.175445,0.029468536,1.7160654,-1.3837099,0.99873316
-4.964497,43.96975,10.584341,9.126309,0.6554607,0.031483173,0.17446843,-0.6013489,-0.71990925,-0.5266614,0.7720774,-0.5932443,0.6006249,0.30098185,0.46753436,-1.0545523,-1.9854202,-0.9536398,1.809092,1.8058407,-0.8434924,0.51677155,-0.9952052,-1.9423785,-1.0168532,1.8598334,1.750745,-0.8728591,-1.0876307,-1.2701706,-0.9730244,1.3982745,-0.8571758,0.49334633,0.07893744,-0.28957367,-0.5077381,0.75514823,-1.414567,0.1406409,-0.6070281,-0.28081512,-0.5363846,0.72138745,0.93443,-0.01548074,0.21512443,0.28341177,-1.3891987,0.1357791,-0.6628187,0.0,1.0,0.0,0.0,0.0,0.0,0.0,-0.3604263,0.10773811,-0.20514822,0.87914467,-2.2876024,-4.2628407,-0.52301884,0.42114258,-1.3743997,2.3077502
7.0754366,56.52441,17.788576,7.417768,0.6207458,0.22576231,0.27171123,-0.56356245,-0.7203244,-0.4437316,0.77875274,-0.56520826,0.6163129,0.30389416,0.4604153,-1.0672376,-1.9867517,-0.93897796,1.8033125,1.8123764,-0.8424697,0.5061333,-1.0080265,-1.9518046,-1.0029162,1.8513609,1.7556242,-0.87190926,-1.0562863,-1.2868444,-0.9308473,1.3922367,-0.84564763,0.48577875,0.10031122,-0.30371094,-0.50614166,0.74909025,-1.4127724,0.16596237,-0.60551435,-0.29451752,-0.5349293,0.71471465,0.9374745,-0.011617335,0.2164389,0.2723249,-1.3605257,0.1596126,-0.67298853,0.0,1.0,0.0,0.0,0.0,0.0,0.0,-0.34628904,0.10614166,-0.19909024,3.0183315,-1.8461704,4.7172427,-0.5820513,0.64543486,-0.90798736,2.1192715
-2.093255,54.974197,15.731472,10.179634,0.93010813,0.35259774,0.18626887,-0.612465,-0.733731,-0.47118703,0.7682207,-0.5741304,0.5948439,0.31245878,0.4448868,-1.0813996,-1.9989233,-0.9260942,1.7939479,1.8151085,-0.8406634,0.49556,-1.0210232,-1.9607943,-0.9890701,1.8429567,1.7604215,-0.8707575,-1.0578117,-1.3047078,-0.88689524,1.3824536,-0.8403019,0.47723794,0.1202249,-0.3178177,-0.50429726,0.743001,-1.409891,0.1905051,-0.61052245,-0.30806732,-0.53318024,0.7079301,0.9403165,-0.00770802,0.21760029,0.26152554,-1.3472303,0.19059509,-0.6844516,0.0,1.0,0.0,0.0,0.0,0.0,0.0,-0.3321823,0.10429725,-0.19300097,-0.20356178,-1.9760609,4.841161,-0.8751869,0.040757656,-1.02278,2.002877
-4.85657,61.007328,16.82143,12.320675,1.01719,0.44010925,0.1370459,-0.61129975,-0.7114909,-0.47278193,0.7785287,-0.593337,0.5912342,0.3561412,0.43443,-1.0921723,-2.0080726,-0.9112173,1.783623,1.8195449,-0.8351434,0.4849098,-1.0340503,-1.969406,-0.97525895,1.8345301,1.7651383,-0.86939555,-1.0675803,-1.3026547,-0.8510691,1.381092,-0.8440846,0.46959946,0.14195898,-0.33184814,-0.5021782,0.7369175,-1.3946276,0.21678679,-0.6099975,-0.32144928,-0.53107834,0.7011019,0.94296795,-0.003721875,0.21872532,0.2509117,-1.3333628,0.22694744,-0.68621296,0.0,1.0,0.0,0.0,0.0,0.0,0.0,-0.31815183,0.102178186,-0.18691748,-1.0226011,-0.0035762787,4.04073,-0.018954277,-0.5886793,-0.8525133,2.2949843
-9.050882,59.660927,15.306633,13.260878,1.156961,0.44140834,0.095354095,-0.6259527,-0.71978426,-0.47283033,0.7681566,-0.56351036,0.57216495,0.36627406,0.42231452,-1.1060288,-2.016689,-0.8984433,1.778179,1.8223548,-0.83276814,0.4740775,-1.0470489,-1.9777757,-0.9614813,1.8261722,1.7697754,-0.8678161,-1.0885384,-1.2996504,-0.83087164,1.3770297,-0.8348223,0.46123916,0.1632983,-0.3455658,-0.4998722,0.73073196,-1.3648093,0.23493584,-0.6220353,-0.33478546,-0.5285988,0.6942335,0.9454557,0.00038427406,0.21980877,0.24041115,-1.3278545,0.26509976,-0.6910563,0.0,1.0,0.0,0.0,0.0,0.0,0.0,-0.30443418,0.0998722,-0.18073195,-2.1131277,0.091934204,2.4508,-0.27251244,0.4208207,-1.010257,2.1292477
-7.1166134,55.057266,13.228434,11.202539,0.91859496,0.26165295,0.14119366,-0.6109594,-0.73075354,-0.5110763,0.75820553,-0.55569905,0.5543463,0.4282187,0.41298154,-1.1201243,-2.0288832,-0.8856607,1.7706023,1.82521,-0.8249942,0.46312544,-1.0600609,-1.9862211,-0.9477807,1.8179339,1.7743211,-0.86599886,-1.0975102,-1.3022504,-0.847911,1.3681284,-0.82150847,0.45185184,0.1877908,-0.35902405,-0.49742126,0.7243185,-1.3382754,0.24852495,-0.64633775,-0.34805298,-0.5258045,0.687213,0.94778574,0.0047554234,0.2208236,0.23003596,-1.3209621,0.294197,-0.70953614,0.0,1.0,0.0,0.0,0.0,0.0,0.0,-0.29097593,0.09742126,-0.17431849,-0.9162426,-0.44894218,-1.3260365,-0.75194836,0.89251995,-1.1207044,2.4351745
-0.7758672,60.8724,16.30643,10.246481,0.9386296,0.3212322,0.16693233,-0.5970724,-0.72613335,-0.44084653,0.76395875,-0.531814,0.56691974,0.43264288,0.40341818,-1.1326742,-2.0303056,-0.87138486,1.7647525,1.8310131,-0.8227346,0.45219404,-1.0730842,-1.9945699,-0.9341384,1.8098913,1.7787946,-0.8639551,-1.0919151,-1.3030014,-0.82889956,1.3632202,-0.8002789,0.4452851,0.20983057,-0.37215424,-0.494833,0.7177667,-1.3046483,0.2620802,-0.65909123,-0.3611679,-0.52272034,0.68010086,0.94995344,0.009258078,0.22172303,0.2198672,-1.3028157,0.32319096,-0.715449,0.0,1.0,0.0,0.0,0.0,0.0,0.0,-0.27784574,0.09483299,-0.16776669,0.4873991,-0.26812553,2.3935795,-0.42200089,1.590836,-0.8449495,2.1885157
0.6220195,58.814045,15.476628,9.100153,0.8549087,0.25227946,0.18024266,-0.5969455,-0.73512274,-0.4572903,0.75229216,-0.51623315,0.5468158,0.43970263,0.39249948,-1.1465966,-2.040299,-0.8589092,1.758268,1.8334762,-0.8199848,0.44135022,-1.0861534,-2.002783,-0.92057806,1.802081,1.7831959,-0.8617111,-1.082108,-1.308806,-0.8174642,1.3537664,-0.77610886,0.43776542,0.22924389,-0.384964,-0.49213028,0.71102697,-1.2724483,0.27297133,-0.6772047,-0.3740921,-0.51937866,0.6728893,0.95196706,0.013855317,0.22246493,0.20994301,-1.2836907,0.34776968,-0.72669333,0.0,1.0,0.0,0.0,0.0,0.0,0.0,-0.265036,0.09213027,-0.16102695,0.905776,-0.7630348,1.622963,-0.8775234,1.9058704,-0.9470999,1.9310147
1.168833,61.427982,16.07156,9.367369,0.84170103,0.2663209,0.17730539,-0.5946403,-0.7270753,-0.44903517,0.75368035,-0.52444357,0.5293964,0.47570482,0.38188618,-1.1588609,-2.0476866,-0.84521,1.7496367,1.8361355,-0.8141406,0.43060946,-1.0992397,-2.01087,-0.9070919,1.7944494,1.7875161,-0.8592703,-1.0716573,-1.3092196,-0.80414027,1.3470588,-0.7606008,0.42957324,0.24899839,-0.39743042,-0.48932457,0.70414186,-1.2378906,0.28315893,-0.6915843,-0.38679504,-0.51578903,0.66559345,0.9538263,0.018555101,0.22308166,0.20026353,-1.2614042,0.3719624,-0.73404366,0.0,1.0,0.0,0.0,0.0,0.0,0.0,-0.25256956,0.089324564,-0.15414184,0.961709,-0.2276659,1.8412948,-0.6173372,1.009047,-1.0124564,1.951623
2.8505683,58.631977,15.193376,7.841455,0.8274224,0.20134687,0.19938798,-0.5859479,-0.74023944,-0.4485592,0.7281437,-0.44898093,0.5080781,0.47791767,0.37201467,-1.1732637,-2.0557258,-0.8342776,1.7495513,1.838324,-0.8114785,0.41999072,-1.1123794,-2.0188537,-0.8937708,1.7871481,1.7917439,-0.8566506,-1.058903,-1.3161339,-0.79522586,1.3272933,-0.7215471,0.41986486,0.26627558,-0.40957642,-0.48643494,0.6970521,-1.2059295,0.29091862,-0.7126566,-0.39929962,-0.5119896,0.6581805,0.9555543,0.023338579,0.22347686,0.19086489,-1.2399068,0.39239192,-0.74717456,0.0,1.0,0.0,0.0,0.0,0.0,0.0,-0.24042356,0.08643493,-0.14705211,1.189208,-0.86455345,1.3798118,-1.9263029,3.387165,-1.1781275,1.7225981
6.562413,60.752216,15.977217,6.881772,0.654418,0.17222536,0.22772741,-0.5647909,-0.7346103,-0.44218576,0.7259286,-0.47386208,0.50617343,0.50379014,0.36351162,-1.1858405,-2.0630722,-0.82117796,1.739762,1.8423612,-0.80627155,0.40957037,-1.1255573,-2.0267534,-0.8806396,1.78013,1.7958828,-0.8538601,-1.0367471,-1.3189125,-0.7865873,1.3083942,-0.69703037,0.4113449,0.28326342,-0.42137146,-0.48348236,0.6897834,-1.170109,0.2966408,-0.7301825,-0.41150665,-0.5080128,0.6506489,0.9571452,0.028207328,0.22367416,0.18178889,-1.2101525,0.40808308,-0.75847685,0.0,1.0,0.0,0.0,0.0,0.0,0.0,-0.22862852,0.083482355,-0.13978338,2.1070719,-0.44913292,1.3899803,-1.8746138,1.9069076,-1.0498524,1.6688347
13.469804,61.89051,17.074596,4.6669884,0.48819208,0.096010506,0.2729065,-0.53117234,-0.73917437,-0.42373222,0.71022826,-0.43808466,0.4897178,0.50037354,0.35645312,-1.1994747,-2.0691266,-0.8096168,1.7363216,1.8448546,-0.80382276,0.3994957,-1.1387695,-2.034508,-0.86773056,1.7733988,1.7999371,-0.8509208,-0.99818474,-1.3225812,-0.7697895,1.2849584,-0.6670096,0.4027654,0.2974009,-0.4327774,-0.48049736,0.68235844,-1.1304708,0.29914364,-0.74485976,-0.42336273,-0.5039406,0.64301383,0.95859706,0.033103947,0.22366472,0.17311803,-1.1709747,0.41552073,-0.768311,0.0,1.0,0.0,0.0,0.0,0.0,0.0,-0.21722257,0.080497354,-0.13235843,3.713882,-0.5286455,2.2499323,-2.3792744,2.427721,-1.053369,1.3746619
6.682276,57.014675,13.932006,5.718855,0.516536,0.018581748,0.24317662,-0.54689944,-0.7433793,-0.48056987,0.6904489,-0.4153881,0.40840995,0.5361211,0.34480575,-1.2131075,-2.082565,-0.79868567,1.7318599,1.8407781,-0.7973087,0.38968283,-1.1520275,-2.0423849,-0.8550943,1.7669704,1.8038472,-0.84783196,-0.97596663,-1.3274938,-0.7919864,1.2565747,-0.63627243,0.38654378,0.3125725,-0.44384766,-0.47749138,0.67469794,-1.098447,0.30085123,-0.77203685,-0.43492126,-0.499794,0.6351917,0.95992684,0.03818371,0.22343516,0.16480014,-1.1436136,0.42326573,-0.789888,0.0,1.0,0.0,0.0,0.0,0.0,0.0,-0.20615232,0.07749137,-0.12469792,2.127862,-0.64725876,-1.7573237,-2.807188,2.58559,-1.8296659,1.4883995
9.133297,58.195312,14.200538,4.9301443,0.3923153,-0.04075253,0.26986963,-0.51945746,-0.7381742,-0.48338652,0.67190087,-0.40561622,0.33478552,0.55541074,0.33773708,-1.2258449,-2.0907235,-0.7879042,1.7264087,1.8373257,-0.79229087,0.38012937,-1.1653026,-2.0505326,-0.8427718,1.7608206,1.8075507,-0.84459347,-0.9488272,-1.3279191,-0.82099676,1.2241167,-0.6094094,0.3642032,0.32743832,-0.4545822,-0.4744873,0.666774,-1.0643935,0.30039534,-0.79761714,-0.44615173,-0.49559212,0.627155,0.9611346,0.043540847,0.22299644,0.15683436,-1.1116691,0.42621332,-0.81117314,0.0,1.0,0.0,0.0,0.0,0.0,0.0,-0.19541776,0.0744873,-0.11677396,2.6069045,-0.19493103,-2.4237394,-3.241706,2.1835208,-2.4449348,1.4390588
2.4633932,56.25544,12.639168,6.5291433,0.6548791,0.008028805,0.22383523,-0.53954077,-0.7419063,-0.4952255,0.64199483,-0.34010065,0.24010922,0.56954134,0.3261753,-1.2394933,-2.1000552,-0.7785723,1.7268106,1.8315616,-0.7876393,0.37068602,-1.1785873,-2.058993,-0.8308403,1.7550646,1.8109695,-0.8412119,-0.94310915,-1.3290808,-0.8532594,1.1829783,-0.5656664,0.3336352,0.34166616,-0.46502686,-0.4714756,0.65854955,-1.0360477,0.30119923,-0.8280527,-0.45716095,-0.49131775,0.6188947,0.96224964,0.049207084,0.22226901,0.14916675,-1.0911914,0.43611023,-0.8337589,0.0,1.0,0.0,0.0,0.0,0.0,0.0,-0.18497312,0.071475595,-0.108549535,0.49693584,-0.2683401,-2.7932167,-4.0673733,3.8952112,-3.2902956,1.4033794
1.9482956,60.734703,14.45927,7.4033465,1.1908962,0.08265269,0.18684828,-0.5447775,-0.738285,-0.44056252,0.5959582,-0.16420059,0.035309784,0.5773184,0.31620827,-1.2524158,-2.1030493,-0.77124447,1.7386446,1.8145005,-0.78348005,0.36120647,-1.1918625,-2.0674498,-0.819456,1.750213,1.8139473,-0.8376968,-0.94984525,-1.3273839,-0.8415681,1.1237072,-0.46018952,0.28512868,0.3549058,-0.47518158,-0.46844673,0.65009004,-1.0073718,0.30325603,-0.85055393,-0.46800232,-0.48688126,0.61051923,0.9633567,0.054961573,0.22095865,0.14177606,-1.0764377,0.45326424,-0.8413815,0.0,1.0,0.0,0.0,0.0,0.0,0.0,-0.1748184,0.068446726,-0.10009003,-0.7606864,0.017428398,1.6608834,-5.908537,9.998476,-5.1124277,1.35234
-2.1807313,59.056793,13.981152,7.4790363,1.883317,0.106579304,0.15059707,-0.5817313,-0.74227583,-0.42220226,0.4926927,0.16937028,-0.24869546,0.56460166,0.30303335,-1.26609,-2.10967,-0.7701867,1.76715,1.7890778,-0.78123665,0.35145846,-1.2051338,-2.075624,-0.8090446,1.7473214,1.8162525,-0.83407193,-0.98335755,-1.3276898,-0.8076334,1.0137591,-0.23368812,0.21124867,0.36540598,-0.48510742,-0.46537971,0.6413589,-0.98679084,0.30783263,-0.87902707,-0.4788437,-0.48220062,0.60209346,0.96460927,0.06049817,0.21848847,0.13465379,-1.0781388,0.4809134,-0.8454581,0.0,1.0,0.0,0.0,0.0,0.0,0.0,-0.16489255,0.06537971,-0.0913589,-3.4178853,-0.16663074,3.8294554,-10.960221,22.12376,-7.692236,1.170361
-15.133856,60.56927,12.526512,11.828487,2.4563112,0.2529888,0.022838468,-0.6406981,-0.7321513,-0.43717664,0.45068094,0.30508348,-0.3724566,0.56334174,0.28738865,-1.2783489,-2.1193416,-0.7639765,1.7778298,1.7790068,-0.77773774,0.34111103,-1.2183651,-2.0835276,-0.7997814,1.7469028,1.8177655,-0.8303575,-1.0519286,-1.3220978,-0.7835717,0.89756227,0.020556584,0.13015656,0.3739882,-0.49488068,-0.4622364,0.6323046,-0.9733235,0.3172601,-0.9121332,-0.48981476,-0.47710228,0.5936409,0.96609205,0.06571886,0.21460871,0.1276328,-1.0983826,0.52675086,-0.8475993,0.0,1.0,0.0,0.0,0.0,0.0,0.0,-0.1551193,0.0622364,-0.0823046,-6.869626,0.41396618,2.77735,-11.499941,24.941204,-8.441931,1.02005
4.0004997,74.62289,19.556314,8.9265995,2.2232056,0.37925956,0.08036098,-0.5858981,-0.71608335,-0.28340867,0.42369223,0.33185145,-0.37078694,0.5548699,0.28252122,-1.2899734,-2.1118684,-0.75741214,1.780088,1.7806867,-0.7748705,0.33040124,-1.2314667,-2.0905497,-0.7915607,1.7487173,1.8185507,-0.8265755,-1.0776873,-1.3063953,-0.6733088,0.7966295,0.23338567,0.06053613,0.379865,-0.504364,-0.4590416,0.62318254,-0.9386148,0.3200514,-0.91012347,-0.5007553,-0.47164917,0.5853858,0.9677805,0.07027173,0.20944898,0.120805405,-1.0860349,0.559713,-0.820338,0.0,1.0,0.0,0.0,0.0,0.0,0.0,-0.14563596,0.05904159,-0.07318252,-2.6832104,1.4456749,11.565769,-10.151982,20.730543,-7.214448,0.6640494
23.24538,83.544876,25.418772,4.209649,1.9582348,0.4935587,0.2089098,-0.57289565,-0.7154672,-0.095497325,0.3248283,0.4280007,-0.428472,0.5550557,0.27311167,-1.3030133,-2.1000993,-0.7590779,1.7915174,1.7757035,-0.77106994,0.31964952,-1.2444156,-2.095665,-0.7845187,1.7524511,1.8186917,-0.8227438,-1.0748495,-1.2913679,-0.45581198,0.6726775,0.4182991,-0.0017585235,0.3842818,-0.51335907,-0.4558735,0.6142934,-0.8863766,0.31533882,-0.88013345,-0.51135254,-0.46597672,0.57756317,0.9696586,0.07364928,0.20307073,0.11445561,-1.0438638,0.57739335,-0.77195126,0.0,1.0,0.0,0.0,0.0,0.0,0.0,-0.1366409,0.055873483,-0.064293385,0.116848946,1.4127016,22.355986,-12.588429,17.943722,-6.363771,0.4525423
29.187494,92.81876,29.036425,4.9769983,2.0332825,0.57950664,0.17833704,-0.57364964,-0.6968668,0.048238136,0.2988845,0.48536685,-0.48706767,0.5587047,0.26228455,-1.3141023,-2.090841,-0.75463027,1.8009877,1.769985,-0.7668733,0.3090194,-1.2571605,-2.0981748,-0.778565,1.7577513,1.8182511,-0.8188737,-1.0595578,-1.2691773,-0.18081981,0.5688848,0.5657185,-0.058355752,0.38779253,-0.52175903,-0.4527855,0.6058955,-0.82466096,0.30648535,-0.82573336,-0.52145386,-0.4601555,0.570381,0.97170967,0.07552565,0.19562201,0.10866478,-0.99280816,0.59055144,-0.70272934,0.0,1.0,0.0,0.0,0.0,0.0,0.0,-0.12824094,0.052785486,-0.055895507,1.3800383,2.1366358,28.0684,-10.576094,14.279694,-5.7003117,0.31692982
38.86959,88.4575,28.235498,1.7176037,1.3723512,0.29277033,0.2348459,-0.5156142,-0.7022464,0.09762841,0.27714732,0.50924635,-0.53210855,0.5677729,0.25745797,-1.3273852,-2.088412,-0.75085026,1.808676,1.7650403,-0.7620964,0.29882652,-1.2697471,-2.0982091,-0.77343893,1.7642041,1.8172843,-0.8149674,-1.0062207,-1.2555968,0.057207655,0.493403,0.67072886,-0.10933303,0.39138022,-0.5295334,-0.44984055,0.5980294,-0.76204985,0.29032475,-0.77349144,-0.5309677,-0.4543743,0.5637949,0.9738723,0.0759891,0.18732977,0.103469566,-0.9337164,0.58109707,-0.64654595,0.0,1.0,0.0,0.0,0.0,0.0,0.0,-0.12046659,0.04984054,-0.048029363,5.2170515,1.2839794,24.270147,-7.6911745,10.181534,-5.0655155,0.3040731
48.668945,83.91135,26.623013,-2.2036672,0.449733,-0.059052914,0.34082666,-0.44507363,-0.68017185,0.10077427,0.23792955,0.5343251,-0.53457624,0.5877628,0.25431916,-1.3377643,-2.0881317,-0.74964595,1.8176366,1.7638267,-0.75619113,0.28946632,-1.2821487,-2.0965362,-0.7689616,1.7714611,1.8158729,-0.8110134,-0.91293037,-1.23536,0.20545393,0.43213713,0.74326336,-0.1515036,0.39646927,-0.5366745,-0.44711685,0.59064776,-0.6992603,0.26644906,-0.72831637,-0.5398178,-0.44887733,0.55762595,0.9760468,0.07541991,0.17847411,0.09895146,-0.8636874,0.5447507,-0.6096701,0.0,1.0,0.0,0.0,0.0,0.0,0.0,-0.11332548,0.047116846,-0.040647745,9.227753,1.9486427,15.225482,-6.219989,7.030487,-4.1270165,0.44372678
47.65706,93.49044,28.818455,1.4846467,0.65826434,-0.028194755,0.22472024,-0.4017603,-0.6468586,0.2447285,0.27776533,0.55606544,-0.4996088,0.5893939,0.24929029,-1.3468345,-2.0720632,-0.74118507,1.8270676,1.765912,-0.752074,0.28112978,-1.2942356,-2.0933628,-0.7646914,1.7792695,1.8141235,-0.80701244,-0.8074772,-1.1999348,0.35620245,0.42523807,0.79256123,-0.18252414,0.40107107,-0.5431671,-0.44464302,0.5838684,-0.63410217,0.24118458,-0.6634795,-0.54798126,-0.44373703,0.5519709,0.9781791,0.07388574,0.16935249,0.09500615,-0.7974088,0.5092676,-0.55327433,0.0,1.0,0.0,0.0,0.0,0.0,0.0,-0.10683286,0.044643015,-0.033868372,10.4799385,3.4576893,15.474254,-0.72618127,4.742551,-2.9961824,0.39340258
45.88977,90.5732,27.483225,0.25450087,0.46585745,0.0073595345,0.30739465,-0.38309488,-0.63329273,0.33251193,0.17260535,0.6051564,-0.48471385,0.59426135,0.2428203,-1.3575648,-2.0601115,-0.74743086,1.8397851,1.7656522,-0.7475863,0.2737183,-1.3059524,-2.088721,-0.7608082,1.7875451,1.8121194,-0.80296576,-0.7192064,-1.1625841,0.501545,0.37606138,0.83858746,-0.2060508,0.40575266,-0.5490341,-0.44242096,0.5777084,-0.5726379,0.21636285,-0.60414535,-0.5554733,-0.43894768,0.5468138,0.98025006,0.07142082,0.16001488,0.091673814,-0.73106515,0.47338557,-0.50590247,0.0,1.0,0.0,0.0,0.0,0.0,0.0,-0.10096586,0.042420954,-0.027708411,8.793783,3.641963,14.860302,-4.888219,4.453206,-2.2207022,0.4346609
47.765335,88.46294,26.56523,-2.663243,0.048606347,0.024437457,0.45370394,-0.34776965,-0.5987784,0.38878134,0.05654514,0.64782274,-0.44305098,0.58311844,0.23894133,-1.3658303,-2.0498428,-0.7551537,1.8523273,1.7678143,-0.74465394,0.267087,-1.3172172,-2.0827596,-0.75790346,1.796296,1.809946,-0.79888374,-0.644455,-1.1146779,0.6284907,0.26218572,0.8870311,-0.22043593,0.40902248,-0.5542984,-0.44045258,0.5720976,-0.5121751,0.19055162,-0.54986817,-0.56224823,-0.43455887,0.5420533,0.9822359,0.06812155,0.15041958,0.089139685,-0.65671736,0.43143815,-0.46877167,0.0,1.0,0.0,0.0,0.0,0.0,0.0,-0.095701575,0.04045257,-0.022097588,7.4668765,4.6969414,12.901152,-11.309708,4.7937512,-1.2423992,0.32719374
50.453564,79.70077,24.364563,-8.242404,-0.5003608,0.06641041,0.69260544,-0.3405251,-0.5880505,0.48104215,-0.13831067,0.68815535,-0.4031888,0.5743271,0.2330345,-1.3760223,-2.0346553,-0.77173454,1.8651116,1.7696271,-0.741451,0.2609959,-1.3280491,-2.0754862,-0.75694525,1.8055594,1.8076845,-0.7947778,-0.59729,-1.0729893,0.760417,0.040751047,0.939555,-0.22717519,0.4113119,-0.5589752,-0.4387436,0.5669089,-0.4545053,0.1648149,-0.5122758,-0.56819916,-0.43063927,0.53749883,0.98412186,0.06404952,0.14037834,0.08772494,-0.57180357,0.3826767,-0.45369375,0.0,1.0,0.0,0.0,0.0,0.0,0.0,-0.09102476,0.038743585,-0.016908884,4.738772,4.077935,13.208473,-22.014471,5.3399205,-0.40266812,0.28253198
42.900475,72.301765,20.708796,-9.728683,-0.86091584,0.100239605,0.8175471,-0.36130324,-0.5537021,0.47416416,-0.3224048,0.7117126,-0.37035662,0.5751163,0.22486557,-1.3834193,-2.0280697,-0.78918576,1.8767307,1.7706488,-0.7372662,0.25507647,-1.3384212,-2.0672793,-0.75880307,1.8153226,1.8053945,-0.7906488,-0.58993745,-1.0254122,0.839802,-0.2604916,0.98951995,-0.22851597,0.41390342,-0.5631256,-0.4372673,0.5619386,-0.40356576,0.14237005,-0.4963697,-0.57328033,-0.42718124,0.5329227,0.98587126,0.059462726,0.12978232,0.08762732,-0.4869314,0.3362089,-0.46125463,0.0,1.0,0.0,0.0,0.0,0.0,0.0,-0.086874366,0.037267298,-0.011938572,0.8107066,4.6908855,7.6571345,-29.909641,5.318737,0.19252598,0.40292144
31.3923,70.35332,18.666494,-5.6023827,-0.5934152,0.12667924,0.67532295,-0.35261112,-0.54069126,0.4899879,-0.36288473,0.71607196,-0.28137702,0.59101933,0.21981536,-1.3924904,-2.0182805,-0.79509157,1.8869299,1.7772568,-0.7315469,0.24913187,-1.348368,-2.058556,-0.76334804,1.8254887,1.8031648,-0.78648317,-0.5955323,-0.9843951,0.881662,-0.5182026,1.0272106,-0.22021325,0.41811207,-0.5668411,-0.43597794,0.55704606,-0.36131224,0.12487032,-0.48924956,-0.57764435,-0.42409134,0.5282382,0.98745084,0.054559413,0.11873307,0.088693194,-0.4183043,0.301579,-0.4726086,0.0,1.0,0.0,0.0,0.0,0.0,0.0,-0.08315885,0.03597793,-0.007046044,-0.4287958,4.080498,3.7055373,-25.487501,4.27897,1.1453152,0.6240666
30.795883,81.52048,21.799782,-0.42006975,-0.22429089,0.1275993,0.44160652,-0.28478435,-0.50474966,0.5337738,-0.32442757,0.7155182,-0.12933898,0.6049787,0.22065344,-1.398843,-2.0051787,-0.7957908,1.8970405,1.790231,-0.7259853,0.2434066,-1.3578533,-2.0494657,-0.7695506,1.8359303,1.8011401,-0.78226894,-0.564282,-0.9363207,0.9163386,-0.653308,1.0520731,-0.19541496,0.42327914,-0.57014465,-0.43486023,0.5523882,-0.32014638,0.107730016,-0.459846,-0.5813904,-0.4213295,0.52363473,0.9888344,0.04929323,0.10756092,0.090594545,-0.3591539,0.26999855,-0.4574262,0.0,1.0,0.0,0.0,0.0,0.0,0.0,-0.07985532,0.034860224,-0.0023881793,3.295517,4.854417,2.883935,-13.224518,3.0887604,2.9999793,0.7263541
20.406837,92.80331,23.677588,7.0601554,0.31917772,0.19698913,0.18686783,-0.2793153,-0.44919553,0.524477,-0.32797018,0.71918535,-0.094481274,0.59520155,0.21547507,-1.4027729,-1.997018,-0.80234766,1.9078488,1.7916919,-0.72274876,0.23802763,-1.3667053,-2.0402155,-0.7764171,1.8465453,1.799385,-0.7780165,-0.5284506,-0.86775345,0.9256505,-0.69674677,1.0673484,-0.16756026,0.42667663,-0.5730667,-0.43388367,0.5481552,-0.28369159,0.09446621,-0.41185147,-0.584671,-0.41876984,0.51935977,0.9900099,0.043679424,0.09662094,0.09293451,-0.31700012,0.25244176,-0.4183771,0.0,1.0,0.0,0.0,0.0,0.0,0.0,-0.076933265,0.03388366,0.0018448234,3.7795663,6.967163,0.25656223,-4.054308,2.3176193,3.320828,0.57086945
45.269135,100.104324,27.971071,1.1279341,-0.6002773,-0.12741727,0.29294115,-0.1382967,-0.3983587,0.51102185,-0.34460798,0.72158366,0.04571194,0.588313,0.22419797,-1.4065411,-1.9891133,-0.81087786,1.9187037,1.8039562,-0.71918523,0.23361045,-1.3747543,-2.0310335,-0.7833608,1.8572763,1.7980022,-0.7737375,-0.4121535,-0.78346586,0.91375756,-0.6925478,1.0777915,-0.12684824,0.4289424,-0.57556915,-0.433115,0.54452807,-0.24016845,0.0710037,-0.34657672,-0.5873413,-0.41666794,0.515571,0.99094915,0.037735544,0.08619331,0.09574168,-0.25042504,0.19735526,-0.3662215,0.0,1.0,0.0,0.0,0.0,0.0,0.0,-0.07443082,0.033115,0.005471945,11.829323,8.544755,-1.7638326,0.7140279,1.6942263,4.3910265,0.38368702
54.615555,104.5025,30.16936,0.046252117,-0.9093869,-0.29668948,0.26473707,-0.04946434,-0.35557204,0.50854814,-0.28841498,0.7067297,0.17060548,0.57320374,0.22866401,-1.4103115,-1.9801787,-0.8122023,1.9279493,1.8150628,-0.71641713,0.23068148,-1.381926,-2.022023,-0.7898248,1.868032,1.7970946,-0.76945156,-0.25249168,-0.69456303,0.8952545,-0.63004005,1.0773745,-0.07703507,0.42913005,-0.57764435,-0.43260574,0.541621,-0.19703408,0.044428166,-0.27203915,-0.5893173,-0.41522408,0.51238275,0.9916414,0.031456932,0.07649995,0.0990229,-0.1792004,0.12754369,-0.3034113,0.0,1.0,0.0,0.0,0.0,0.0,0.0,-0.07235563,0.032605737,0.008378983,16.159153,9.009242,-2.347362,6.5510035,0.74899197,5.507904,0.22087097
52.33946,107.29766,30.631805,0.8511143,-0.9635381,-0.31089556,0.25521058,-0.003584262,-0.29068762,0.4896176,-0.2948093,0.70996636,0.19522601,0.56147736,0.23032305,-1.4109946,-1.9730612,-0.8193057,1.9390286,1.8166171,-0.7133038,0.22931151,-1.3881134,-2.0132678,-0.79567367,1.8787649,1.7966617,-0.7651753,-0.09785288,-0.5933076,0.8676963,-0.5687192,1.0743606,-0.030490521,0.42777202,-0.5793152,-0.43235016,0.5394678,-0.15704022,0.01959295,-0.19574323,-0.5905838,-0.41447258,0.5098626,0.99209297,0.024910677,0.06763311,0.10274571,-0.10961588,0.058728073,-0.23549125,0.0,1.0,0.0,0.0,0.0,0.0,0.0,-0.07068479,0.032350153,0.0105322,15.654795,10.233509,-3.2127142,6.446469,0.40249825,5.114391,0.059610605
31.141674,132.67717,34.75822,12.46213,-0.31315735,0.009560894,0.019995734,0.018126281,-0.11152965,0.39669028,-0.20978902,0.6917129,0.21525475,0.55296326,0.23112413,-1.3992664,-1.9735987,-0.8166526,1.9479362,1.8181872,-0.709879,0.22920017,-1.3926758,-2.0051918,-0.8006385,1.8894098,1.7966576,-0.760922,0.018468767,-0.41025046,0.78558517,-0.47129115,1.0640223,0.011282945,0.4251304,-0.5806122,-0.4322796,0.53836787,-0.120280266,0.0031688635,-0.08052583,-0.59127045,-0.4141903,0.50836563,0.9923213,0.018321933,0.059981424,0.10660637,-0.054130487,0.018226815,-0.12192486,0.0,1.0,0.0,0.0,0.0,0.0,0.0,-0.06938779,0.03227958,0.011632144,11.835531,18.464369,-8.78104,10.066038,-0.14238358,4.722955,-0.047153234
21.025496,121.26037,30.796053,13.983264,-0.06202384,-0.06733653,-0.068351574,0.07381418,-0.101486996,0.3671717,-0.15371907,0.6889208,0.17767309,0.53040016,0.2365816,-1.4028244,-1.9684746,-0.8160104,1.9583019,1.8144249,-0.707882,0.23010114,-1.3956226,-1.9979932,-0.8045304,1.8999289,1.796984,-0.75671345,0.11448973,-0.25572792,0.69637513,-0.36094207,1.0502061,0.040940322,0.41999906,-0.58161163,-0.432333,0.5382529,-0.09324113,-0.008083647,0.012413742,-0.5915222,-0.41423416,0.5078591,0.9923736,0.011853118,0.053557955,0.11038867,-0.016605636,-0.011443972,-0.02770619,0.0,0.0,1.0,0.0,0.0,0.0,0.0,-0.06838834,0.032332987,0.011747122,9.758293,15.57464,-9.350645,11.298573,-0.7189274,3.3172905,-0.332129
0.33024877,90.8035,19.431082,16.114113,0.22318307,-0.28214788,-0.24538003,0.08621615,-0.10670428,0.18105894,-0.06951859,0.6615417,0.17969503,0.50492924,0.23872276,-1.406293,-1.9798874,-0.81148225,1.966083,1.8149534,-0.7062205,0.23168471,-1.3974766,-1.9923512,-0.80716056,1.9102151,1.7975503,-0.75257456,0.17324094,-0.16178289,0.5193261,-0.22983488,1.0225397,0.06253297,0.41228482,-0.5824661,-0.43245125,0.53857994,-0.082626715,-0.012788086,0.040069334,-0.5916519,-0.4144497,0.5078391,0.9923155,0.0059444075,0.048179187,0.11381311,-0.0115244435,-0.02466177,0.005599672,0.0,0.0,1.0,0.0,0.0,0.0,0.0,-0.06753385,0.032451242,0.011420071,5.94846,9.477091,-17.941475,13.260359,-2.390933,2.338101,-0.61396956
-12.612856,75.27397,12.67014,17.797775,0.24302909,-0.44224286,-0.35270813,0.10678943,-0.04345725,-0.016932493,0.002712085,0.63097334,0.17408876,0.49068484,0.24236366,-1.4018223,-1.9940444,-0.80688936,1.9733125,1.8149592,-0.70350605,0.23368362,-1.3985199,-1.9891608,-0.808426,1.9201416,1.798288,-0.74852145,0.2088458,-0.085196644,0.25187975,-0.09184529,0.98345953,0.077670805,0.4034704,-0.58327484,-0.4325943,0.5389105,-0.08020639,-0.014692806,0.031162128,-0.59184265,-0.41474342,0.5078962,0.992206,0.0011221297,0.0437956,0.116653375,-0.022185521,-0.030953221,0.0048006796,0.0,0.0,1.0,0.0,0.0,0.0,0.0,-0.066725135,0.032594293,0.011089504,3.5846174,7.7095213,-26.87264,13.865823,-3.6721826,1.5797704,-0.7479906
-22.023571,74.24365,10.749492,19.234724,0.19146675,-0.35278827,-0.33733612,0.08614547,0.04578087,-0.17409869,-0.0012705115,0.592067,0.16517177,0.49938187,0.24229816,-1.3939418,-2.0065706,-0.8085531,1.9793483,1.8148052,-0.69858325,0.23576143,-1.3986706,-1.9889681,-0.80866444,1.9296055,1.799137,-0.7445446,0.20741749,0.008566189,-0.058372866,-0.0011838136,0.93444353,0.08747741,0.3959924,-0.5840683,-0.43273544,0.53910625,-0.07884242,-0.01377766,0.015903367,-0.59215546,-0.41503716,0.5078988,0.9920832,-0.0022602847,0.040434916,0.11887317,-0.033239577,-0.028947262,-0.0017963205,0.0,0.0,1.0,0.0,0.0,0.0,0.0,-0.06593168,0.032735437,0.010893762,-0.14150739,9.394106,-31.089699,9.064196,-4.7425747,0.9921968,-0.6642163
-30.280077,69.37157,9.094751,20.091465,0.40500963,-0.13651617,-0.31454158,0.048103932,0.06528481,-0.25705817,0.009208666,0.5238115,0.21199018,0.51137227,0.24057183,-1.392142,-2.014674,-0.80774355,1.9819866,1.820336,-0.6934074,0.2375367,-1.3980049,-1.9916155,-0.8083084,1.9384404,1.8000947,-0.7406286,0.16749491,0.085786715,-0.3333473,0.04766259,0.866556,0.09835039,0.39017993,-0.58486176,-0.43283653,0.5391058,-0.07922391,-0.008602124,-0.005323362,-0.59259033,-0.415205,0.5077828,0.9919744,-0.0041826703,0.03803259,0.12051061,-0.048200402,-0.012709738,-0.015270805,0.0,0.0,1.0,0.0,0.0,0.0,0.0,-0.06513822,0.032836527,0.010894239,-4.0085974,7.7055326,-27.466219,4.82886,-6.6474915,1.0602996,-0.544399
-30.812561,70.24665,10.241621,19.064825,0.5202208,0.08906114,-0.21468887,0.0111209825,0.10059942,-0.30912527,-0.022403846,0.48467436,0.22803761,0.5169793,0.2386488,-1.3879449,-2.0225282,-0.8105488,1.9869078,1.8228985,-0.6889307,0.23871803,-1.3966373,-1.9964659,-0.80788404,1.9465716,1.8011553,-0.7367615,0.101555854,0.15360598,-0.53510416,0.040366948,0.79512405,0.10840341,0.38540572,-0.58563995,-0.43286324,0.5389477,-0.07797461,-0.0009495194,-0.019251147,-0.5931549,-0.4151516,0.50756925,0.99188536,-0.0048786397,0.03642359,0.12170866,-0.05858997,0.011250943,-0.023505291,0.0,0.0,1.0,0.0,0.0,0.0,0.0,-0.06436002,0.03286323,0.0110523105,-6.6264124,6.7434416,-20.02973,-0.83048046,-7.225108,0.9493053,-0.51502585
-20.900227,74.022224,13.517097,17.141863,0.57268804,0.12101616,-0.15952466,0.031068588,0.11877521,-0.32383132,0.035215084,0.44687083,0.23433876,0.52582675,0.2418249,-1.3847598,-2.0288491,-0.80436254,1.9912586,1.8245893,-0.6841788,0.23941205,-1.3947206,-2.002661,-0.80742085,1.9540117,1.8023102,-0.7329306,0.05850988,0.20417163,-0.6468327,0.047858838,0.72655046,0.11748492,0.38203254,-0.58639526,-0.43282318,0.53877693,-0.07447418,0.005592091,-0.016330963,-0.5937805,-0.41489983,0.50738174,0.99181175,-0.004761942,0.035468798,0.122591764,-0.0638908,0.030120563,-0.017035354,0.0,0.0,1.0,0.0,0.0,0.0,0.0,-0.06360471,0.032823175,0.011223078,-4.3550463,5.0126286,-10.981798,0.6250188,-6.92811,0.76562166,-0.42033195
-11.365441,74.554184,15.020437,14.534922,0.42723826,0.00578068,-0.09898387,0.036709312,0.14212179,-0.39101142,0.050393015,0.42301866,0.17677134,0.5297279,0.24308299,-1.3805084,-2.041762,-0.8023816,1.9963136,1.8199874,-0.6799578,0.23985742,-1.3923726,-2.0097067,-0.8068315,1.9608457,1.8035026,-0.72912556,0.039662834,0.24480437,-0.7236096,0.062160015,0.6687831,0.11958547,0.37967342,-0.58709717,-0.43274117,0.53866976,-0.06915425,0.009140238,-0.008509189,-0.5944214,-0.41454124,0.5072886,0.99174595,-0.0040860567,0.035047054,0.123267666,-0.06359737,0.038077604,-0.006588944,0.0,0.0,1.0,0.0,0.0,0.0,0.0,-0.06290281,0.03274116,0.011330247,-1.9470162,4.023704,-7.4801683,1.2783326,-5.899179,0.06522983,-0.34528375
