Afshin1997/kuka_rl_ros2/src/catch_and_throw/input_files/idealpd/polynomial_regressor/optimizer_files/env_438_data.csv
torque0,torque1,torque2,torque3,torque4,torque5,torque6,action0,action1,action2,action3,action4,action5,action6,set_target_0,set_target_1,set_target_2,set_target_3,set_target_4,set_target_5,set_target_6,joint_pos_0,joint_pos_1,joint_pos_2,joint_pos_3,joint_pos_4,joint_pos_5,joint_pos_6,joint_vel_0,joint_vel_1,joint_vel_2,joint_vel_3,joint_vel_4,joint_vel_5,joint_vel_6,tennisball_pos_0,tennisball_pos_1,tennisball_pos_2,tennisball_lin_vel_0,tennisball_lin_vel_1,tennisball_lin_vel_2,end_effector_pos_0,end_effector_pos_1,end_effector_pos_2,end_effector_rot_0,end_effector_rot_1,end_effector_rot_2,end_effector_rot_3,end_effector_lin_vel_0,end_effector_lin_vel_1,end_effector_lin_vel_2,obs_task_0,obs_task_1,obs_task_2,obs_task_3,obs_task_4,obs_task_5,obs_task_6,to_final_target_0,to_final_target_1,to_final_target_2,joint_acc_0,joint_acc_1,joint_acc_2,joint_acc_3,joint_acc_4,joint_acc_5,joint_acc_6
0.0,0.0,0.0,0.0,0.0,0.0,0.0,0.0,0.0,0.0,0.0,0.0,0.0,0.0,1.7802359,-1.0646509,-1.8151424,-1.1170107,1.9373155,1.1170107,-0.91629785,1.7802359,-1.0646509,-1.8151424,-1.1170107,1.9373155,1.1170107,-0.91629785,0.0,0.0,0.0,0.0,0.0,0.0,0.0,3.0370827,-0.22480774,0.30875096,-3.4134896,-0.5098602,5.230799,0.5304184,-0.45448303,0.693097,0.5745483,0.17512383,0.15255436,0.7848268,0.0,0.0,0.0,1.0,0.0,0.0,0.0,0.0,0.0,0.0,-3.6870828,-0.17519227,0.24124905,0.0,0.0,0.0,0.0,0.0,0.0,0.0
0.0,0.0,0.0,0.0,0.0,0.0,0.0,0.0,0.0,0.0,0.0,0.0,0.0,0.0,1.7802359,-1.0646509,-1.8151424,-1.1170107,1.9373155,1.1170107,-0.91629785,1.7802359,-1.0646509,-1.8151424,-1.1170107,1.9373155,1.1170107,-0.91629785,0.0,0.0,0.0,0.0,0.0,0.0,0.0,3.0370827,-0.22480774,0.30875096,-3.4134896,-0.5098602,5.230799,0.5304184,-0.45448303,0.693097,0.5745483,0.17512383,0.15255436,0.7848268,0.0,0.0,0.0,1.0,0.0,0.0,0.0,0.0,0.0,0.0,-3.6870828,-0.17519227,0.24124905,0.0,0.0,0.0,0.0,0.0,0.0,0.0
0.0,0.0,0.0,0.0,0.0,0.0,0.0,0.0,0.0,0.0,0.0,0.0,0.0,0.0,1.7802359,-1.0646509,-1.8151424,-1.1170107,1.9373155,1.1170107,-0.91629785,1.7802359,-1.0646509,-1.8151424,-1.1170107,1.9373155,1.1170107,-0.91629785,0.0,0.0,0.0,0.0,0.0,0.0,0.0,3.0370827,-0.22480774,0.30875096,-3.4134896,-0.5098602,5.230799,0.5304184,-0.45448303,0.693097,0.5745483,0.17512383,0.15255436,0.7848268,0.0,0.0,0.0,1.0,0.0,0.0,0.0,0.0,0.0,0.0,-3.6870828,-0.17519227,0.24124905,0.0,0.0,0.0,0.0,0.0,0.0,0.0
-176.0,77.37236,-2.073162,110.0,9.877064,5.033823,-3.9757164,-0.78866494,0.3790661,-0.5263606,0.73600715,-0.06919688,0.6710015,-0.56654984,1.7013694,-1.0267442,-1.8677784,-1.04341,1.9303957,1.1841109,-0.97295284,1.7785116,-1.0621485,-1.820586,-1.1123682,1.9397893,1.1210715,-0.916666,-0.22956192,0.3328493,-0.7253029,0.6192923,0.3293188,0.54017216,-0.04894662,3.0029716,-0.22990417,0.36028326,-3.4100769,-0.5093505,5.127383,0.52837753,-0.45738983,0.69398344,0.5780911,0.1737272,0.15228881,0.7825839,-0.2721946,-0.38702676,0.11792751,1.0,0.0,0.0,0.0,0.0,0.0,0.0,-3.6529717,-0.17009583,0.18971676,-22.902029,33.085648,-72.35308,61.993034,32.741978,53.599888,-4.8747873
-176.0,-16.731148,-40.054203,110.0,12.03257,1.9581395,-3.6484425,-0.8159237,-0.07802484,-0.5803882,0.7207761,0.08781566,0.64243335,-0.59857297,1.6969193,-1.0699509,-1.8786248,-1.0402906,1.9485708,1.1853148,-0.9765233,1.7762152,-1.0585378,-1.8351467,-1.098826,1.9459043,1.1328379,-0.9162559,-0.22721149,0.3687521,-1.7017713,1.6023006,0.7065177,1.3847421,0.07322479,2.9688988,-0.23499298,0.4107822,-3.4066675,-0.5088412,5.0240707,0.5237465,-0.46517944,0.6950542,0.586263,0.17021145,0.15066493,0.7775756,-0.527351,-0.90765375,0.10395763,1.0,0.0,0.0,0.0,0.0,0.0,0.0,-3.6188989,-0.16500703,0.13921782,0.95146596,3.1194448,-98.2904,99.18516,37.96625,83.2069,12.902546
-153.04382,92.88472,22.847792,89.65596,8.367795,7.0583034,-2.071701,-0.75463706,0.25539455,-0.029802509,0.6541442,0.19307515,0.6484179,-0.52109843,1.7007515,-1.0329984,-1.8381269,-1.0334116,1.9652117,1.1976796,-0.9683657,1.7708594,-1.0543588,-1.8507869,-1.0809313,1.9529519,1.1466528,-0.9158792,-0.63832414,0.4312129,-1.5121616,1.8534592,0.6991159,1.374377,0.025193777,2.9348564,-0.24007416,0.46024877,-3.4032614,-0.50833243,4.9208612,0.51633453,-0.47589874,0.69745547,0.59741867,0.16520262,0.14803131,0.77063984,-0.81965935,-1.1201183,0.28988296,1.0,0.0,0.0,0.0,0.0,0.0,0.0,-3.5848565,-0.15992585,0.08975124,-41.089336,5.293429,20.715214,25.603222,-2.2742867,-2.8468847,-5.007142
-91.49162,116.086655,44.424515,56.988625,5.23265,8.087507,-0.4287892,-0.76702297,0.21076739,0.12774429,0.65015334,0.26723692,0.6260148,-0.553226,1.6941571,-1.033282,-1.8380125,-1.015916,1.9796757,1.2092543,-0.9712018,1.7614657,-1.0500463,-1.861367,-1.0628973,1.9593663,1.1595656,-0.91609854,-1.0411255,0.42887598,-0.89865613,1.7872119,0.6162618,1.2592868,-0.039050933,2.9008522,-0.24515533,0.50868404,-3.399859,-0.50782424,4.8177547,0.50642776,-0.48737335,0.70182604,0.60961014,0.1588609,0.1443155,0.7630935,-1.058335,-1.1443331,0.49143872,1.0,0.0,0.0,0.0,0.0,0.0,0.0,-3.5508523,-0.15484467,0.041315973,-40.65591,-0.99897385,63.738655,-6.478524,-10.1355915,-12.7777815,-6.8681536
-38.510094,131.97333,53.35632,31.809053,2.23787,7.335539,0.28895807,-0.78766024,0.33061245,0.067135826,0.6446958,0.35098305,0.6134648,-0.5509246,1.6826997,-1.016985,-1.8546534,-0.99842775,1.9944646,1.2209121,-0.971191,1.7487437,-1.0453333,-1.8658302,-1.0467077,1.9650292,1.1711317,-0.9169578,-1.3506083,0.4835329,-0.28872988,1.5624256,0.5448298,1.1198726,-0.10342225,2.8668785,-0.25022888,0.556089,-3.3964598,-0.5073165,4.714752,0.49474335,-0.4981842,0.7080482,0.6216682,0.15134688,0.13974698,0.75570726,-1.2166132,-1.0478956,0.66889113,1.0,0.0,0.0,0.0,0.0,0.0,0.0,-3.5168786,-0.14977112,-0.006088972,-31.411076,4.8970222,63.037415,-22.611618,-8.586979,-14.6479845,-6.972876
-1.4856553,134.47507,52.233536,16.01395,0.12820208,5.654761,0.3811603,-0.8053901,0.4535779,0.010745224,0.63004756,0.42530397,0.60379785,-0.5738954,1.6682047,-0.9999755,-1.8647556,-0.983703,2.0075595,1.2315115,-0.97434735,1.7339083,-1.0395254,-1.8658206,-1.0328737,1.9703641,1.1814104,-0.918415,-1.5293344,0.6119412,0.10237985,1.3228263,0.526846,0.9962658,-0.1615241,2.8329391,-0.2552948,0.6024647,-3.393064,-0.5068093,4.611852,0.48205948,-0.5076599,0.71574634,0.6331786,0.14302567,0.1349352,0.7486127,-1.2965406,-0.90178764,0.80414134,1.0,0.0,0.0,0.0,0.0,0.0,0.0,-3.4829392,-0.1447052,-0.052464664,-18.285036,12.427735,40.51413,-24.172234,-2.6416063,-12.652243,-6.3230486
23.715601,141.07147,52.88021,9.086605,-1.1079752,4.584078,0.25672317,-0.8043546,0.5754117,0.062220737,0.6323971,0.44560137,0.6110434,-0.5569274,1.6534728,-0.9819842,-1.8595985,-0.96963406,2.0149243,1.2425147,-0.97410774,1.718167,-1.0319628,-1.863282,-1.0209395,1.9757543,1.1906096,-0.9203729,-1.5904107,0.80320764,0.30789703,1.1496384,0.5413956,0.89411354,-0.20879318,2.799034,-0.26036072,0.6478121,-3.3896716,-0.5063026,4.5090547,0.46897507,-0.51553345,0.72472876,0.6441152,0.13407558,0.1304311,0.74170554,-1.3215629,-0.7327091,0.92872536,1.0,0.0,0.0,0.0,0.0,0.0,0.0,-3.4490342,-0.13963929,-0.097812116,-6.4694643,18.785906,21.590223,-17.49301,0.948894,-10.318745,-5.218199
32.789677,133.29848,48.172905,6.8547344,-1.4122049,3.5285094,0.10712457,-0.8059008,0.64186823,0.10162981,0.6300552,0.47248125,0.6148537,-0.5336895,1.6375768,-0.96777594,-1.853119,-0.95793396,2.0230024,1.252095,-0.9737418,1.7023646,-1.0224603,-1.8596904,-1.0101267,1.9814496,1.1989275,-0.9227199,-1.5777141,0.9984411,0.378755,1.0580282,0.57784265,0.81092507,-0.24464026,2.7651634,-0.265419,0.69213235,-3.3862827,-0.50579643,4.40636,0.45584488,-0.52178955,0.73479944,0.65459365,0.124634124,0.12650113,0.73482716,-1.3165934,-0.5767532,1.0315074,1.0,0.0,0.0,0.0,0.0,0.0,0.0,-3.4151635,-0.134581,-0.14213234,0.9848833,19.25763,7.8507843,-9.275937,3.3329725,-8.365738,-3.9993553
32.64937,117.63879,41.13954,6.434823,-1.2302557,2.6401653,0.017428916,-0.8005694,0.68493,0.12680675,0.624721,0.4979251,0.6278392,-0.5141327,1.6223077,-0.95396733,-1.8470098,-0.9476546,2.0312421,1.2617115,-0.97413313,1.6869551,-1.0112604,-1.8559463,-0.9997564,1.9875798,1.2065378,-0.9253549,-1.529261,1.1598315,0.3749005,1.0297235,0.6242087,0.74414575,-0.27094325,2.731327,-0.27046967,0.7354264,-3.3828971,-0.50529075,4.3037686,0.4428444,-0.52671814,0.74569386,0.6647347,0.11484957,0.12315998,0.7278522,-1.299595,-0.44791478,1.1065775,1.0,0.0,0.0,0.0,0.0,0.0,0.0,-3.3813272,-0.12953034,-0.18542641,4.631996,15.939617,0.18643737,-2.9304504,4.451728,-6.7242384,-2.984321
25.942125,97.58191,32.777496,7.143187,-0.76877344,1.9020027,-0.03833147,-0.7967593,0.7075689,0.13139482,0.62537026,0.51909006,0.63440764,-0.50530726,1.6072792,-0.9405035,-1.8428068,-0.9372194,2.0394888,1.2699786,-0.9758856,1.6720663,-0.99884737,-1.8525016,-0.9893728,1.9941773,1.2135779,-0.92820257,-1.4757293,1.2680529,0.33558813,1.0408872,0.6712513,0.69033605,-0.29036775,2.6975212,-0.27552032,0.77769536,-3.379515,-0.50478554,4.201279,0.43000412,-0.53061676,0.75710446,0.67463714,0.10488347,0.120277606,0.72069234,-1.2835319,-0.35320362,1.1500714,1.0,0.0,0.0,0.0,0.0,0.0,0.0,-3.3475213,-0.12447968,-0.22769535,5.19619,10.680485,-3.5077453,0.9975672,4.5930862,-5.428827,-2.2399485
17.590242,79.19081,25.344429,7.862669,-0.31305084,1.377219,-0.053392563,-0.79715055,0.72058934,0.12648822,0.61869377,0.5363296,0.640756,-0.5070287,1.5923513,-0.92678845,-1.8398528,-0.9275034,2.0478103,1.2776535,-0.97890544,1.6576105,-0.98573434,-1.8495185,-0.97879463,2.001209,1.2201601,-0.9312133,-1.4359109,1.3254427,0.28698176,1.0629698,0.7136048,0.6472203,-0.30561143,2.6637535,-0.28056335,0.81894016,-3.376136,-0.5042808,4.0988927,0.41726303,-0.5337677,0.7687366,0.68435955,0.09488602,0.11769325,0.7133,-1.2739015,-0.28738517,1.1648852,1.0,0.0,0.0,0.0,0.0,0.0,0.0,-3.3137536,-0.11943665,-0.26894015,3.8533926,5.642128,-4.526716,2.0503044,4.1820526,-4.343748,-1.7891765
11.883721,66.58695,20.375895,8.033109,-0.06300038,1.0590733,-0.04276256,-0.7915806,0.73098093,0.11442153,0.61421293,0.5377101,0.65013605,-0.50087386,1.5784525,-0.9126363,-1.8380764,-0.91737336,2.05498,1.2851738,-0.9813007,1.6434427,-0.9723152,-1.8470008,-0.9680219,2.0085714,1.2263781,-0.93434995,-1.410748,1.3471478,0.2409471,1.0814289,0.7437859,0.6132959,-0.3171357,2.6300163,-0.28559875,0.8591619,-3.3727605,-0.50377667,3.9966085,0.4045868,-0.53639984,0.78036755,0.6939172,0.0849584,0.1153006,0.7056676,-1.2688388,-0.23859037,1.159754,1.0,0.0,0.0,0.0,0.0,0.0,0.0,-3.2800164,-0.11440125,-0.3091619,2.3968697,2.101779,-4.307103,1.6523838,3.000176,-3.3976793,-1.4045477
8.591433,60.77865,18.195454,8.212752,0.09799701,0.9695972,-0.0013481639,-0.79074335,0.74018353,0.1130414,0.60571474,0.556665,0.6515236,-0.49963558,1.5643684,-0.89829683,-1.8356967,-0.90745044,2.0642378,1.2915305,-0.9843135,1.6294161,-0.95881975,-1.8448303,-0.9571567,2.0162046,1.2323061,-0.9375829,-1.4002726,1.350217,0.21031795,1.0875858,0.7694719,0.58604336,-0.3262236,2.5963135,-0.29063416,0.89836156,-3.3693883,-0.503273,3.8944268,0.39191437,-0.53860474,0.79188126,0.70329064,0.075139806,0.11301298,0.69782823,-1.2678288,-0.1966727,1.1460084,1.0,0.0,0.0,0.0,0.0,0.0,0.0,-3.2463136,-0.10936585,-0.34836155,0.92258453,0.24960041,-2.7559042,0.40414333,2.558291,-2.7183175,-1.1580229
6.009468,57.85895,17.009274,8.82638,0.20279974,0.9570363,0.008255463,-0.7926565,0.7411038,0.10710526,0.60738486,0.55506504,0.6647375,-0.497153,1.5501505,-0.88470936,-1.8341198,-0.8964182,2.071711,1.2987798,-0.9872982,1.6154104,-0.9453691,-1.8428695,-0.94627243,2.024017,1.238011,-0.9408912,-1.4011214,1.3431895,0.19240792,1.0879347,0.78529096,0.56523323,-0.33327913,2.562645,-0.29566193,0.9365402,-3.3660197,-0.5027698,3.7923474,0.3792305,-0.54039764,0.8032328,0.71246874,0.06541754,0.110790096,0.6898074,-1.2704946,-0.15827459,1.128866,1.0,0.0,0.0,0.0,0.0,0.0,0.0,-3.212645,-0.10433808,-0.38654017,-0.21464825,-0.7556915,-1.4703244,-0.18086433,1.5747428,-2.07237,-0.9523332
6.757268,59.31536,17.574825,8.936088,0.1488781,1.0151393,0.02665533,-0.7869808,0.74653065,0.1074945,0.60882884,0.5479611,0.6664452,-0.49772426,1.5367124,-0.87071604,-1.8321201,-0.88538957,2.0788133,1.3046556,-0.99066365,1.6013857,-0.93198335,-1.8409927,-0.93540245,2.0319097,1.2435385,-0.9442615,-1.403415,1.3368201,0.18724172,1.0860173,0.79053,0.5485843,-0.33911616,2.5290108,-0.30068207,0.9736988,-3.3626544,-0.5022671,3.69037,0.36651993,-0.5417938,0.8144371,0.7214348,0.05574273,0.10863395,0.6816328,-1.272284,-0.11562828,1.1148283,1.0,0.0,0.0,0.0,0.0,0.0,0.0,-3.1790109,-0.09931794,-0.42369878,-0.36427975,-0.6961584,-0.16117692,-0.40056705,0.50114393,-1.6634703,-0.83744526
8.690131,61.38995,18.42836,8.5582905,0.06758797,1.0565463,0.07214828,-0.7837157,0.74831975,0.11508349,0.60144436,0.5556272,0.6669681,-0.4930654,1.5230142,-0.8571514,-1.8294843,-0.875258,2.0874724,1.3102353,-0.993568,1.5873476,-0.91864145,-1.8390758,-0.9245916,2.0398366,1.248923,-0.94767946,-1.4044598,1.3330767,0.19455013,1.07888,0.79361546,0.53509074,-0.343532,2.495411,-0.3057022,1.0098383,-3.3592925,-0.50176495,3.5884945,0.353817,-0.5427017,0.8255244,0.7301505,0.046064835,0.10654155,0.67335504,-1.2712436,-0.06736905,1.1039286,1.0,0.0,0.0,0.0,0.0,0.0,0.0,-3.145411,-0.0942978,-0.45983833,-0.24514198,-0.43962002,1.1249185,-0.9162426,0.26563406,-1.3502121,-0.70469975
8.739218,61.640656,18.290142,8.651796,0.051279485,1.0266287,0.07914459,-0.7881551,0.7480388,0.11128474,0.5953633,0.56221235,0.6678122,-0.49604928,1.5085322,-0.84383756,-1.8279474,-0.86505526,2.096058,1.3157041,-0.9972844,1.5732828,-0.9053205,-1.8370807,-0.9138761,2.0478017,1.254191,-0.9511365,-1.4076416,1.3314278,0.20250784,1.068485,0.79706544,0.5241901,-0.3473616,2.4618416,-0.31072235,1.0449599,-3.355934,-0.5012633,3.486721,0.34111404,-0.5431366,0.83650434,0.73860055,0.036366247,0.104509994,0.6649995,-1.2690451,-0.018347263,1.0929238,1.0,0.0,0.0,0.0,0.0,0.0,0.0,-3.1118417,-0.089277655,-0.4949599,-0.46179295,-0.23014545,1.1983961,-1.23775,0.29929876,-1.0884047,-0.6432533
11.114104,63.246864,18.690226,7.7946477,-0.12638134,0.97805876,0.1036004,-0.7827488,0.7556996,0.108410485,0.5810608,0.5591187,0.6749728,-0.49925286,1.495008,-0.82975054,-1.8262397,-0.85577005,2.1037135,1.3216883,-1.0010618,1.5592161,-0.89197004,-1.8350284,-0.9033151,2.055782,1.2593714,-0.9546308,-1.4070162,1.3360827,0.20744003,1.0512406,0.7982378,0.516167,-0.35089394,2.4283104,-0.31572723,1.0790645,-3.3525786,-0.50076216,3.3850493,0.3284874,-0.54304504,0.8473765,0.74676377,0.026637172,0.102580115,0.6565909,-1.2607418,0.035790846,1.0821,1.0,0.0,0.0,0.0,0.0,0.0,0.0,-3.0783105,-0.08427277,-0.5290645,-0.0849247,0.3982544,0.913015,-1.9207001,0.06352663,-0.7847667,-0.6172776
10.512885,63.848427,18.484543,8.453735,-0.13591868,0.9428364,0.07233251,-0.78545517,0.7617538,0.10171799,0.58416885,0.5500132,0.6734601,-0.48972818,1.4806706,-0.81579465,-1.8248566,-0.8448982,2.1107833,1.3267174,-1.0036036,1.5451475,-0.8785385,-1.8329799,-0.89288765,2.0637395,1.2644831,-0.95814794,-1.4071383,1.3452519,0.2053878,1.0393696,0.794718,0.5095485,-0.35285655,2.3948097,-0.32073212,1.1121532,-3.3492267,-0.5002615,3.2834792,0.31594086,-0.54239655,0.85815144,0.7546547,0.016865404,0.100800164,0.64811355,-1.251869,0.0895295,1.072548,1.0,0.0,0.0,0.0,0.0,0.0,0.0,-3.0448098,-0.07926789,-0.56215316,-0.15866756,0.84934235,0.20795166,-1.3740301,-0.40421486,-0.6514907,-0.45166612
10.060713,61.58282,17.367016,8.390749,-0.14451522,0.7997773,0.057215355,-0.7846433,0.7596216,0.08865432,0.57822645,0.5487368,0.67786485,-0.48453185,1.4666831,-0.8025763,-1.8241144,-0.835065,2.1186132,1.3322695,-1.0066011,1.5310847,-0.86503255,-1.8310287,-0.8825651,2.071655,1.2695414,-0.96167654,-1.4066411,1.3521363,0.19293383,1.0291591,0.7904164,0.5047433,-0.35370874,2.3613396,-0.325737,1.1442269,-3.3458781,-0.4997613,3.1820107,0.3034935,-0.5412445,0.868804,0.7622909,0.007069513,0.09919853,0.6395485,-1.240972,0.13960354,1.0590981,1.0,0.0,0.0,0.0,0.0,0.0,0.0,-3.0113397,-0.07426301,-0.5942269,-0.09214878,0.62913895,-0.8559704,-1.2112379,-0.46737194,-0.45557022,-0.33225417
10.597603,60.003845,16.496323,7.694341,-0.24545789,0.65125555,0.062363613,-0.78421915,0.76548296,0.069690816,0.5598229,0.54694134,0.68728673,-0.47533178,1.4526627,-0.7884843,-1.8240596,-0.8265828,2.1263492,1.3382701,-1.0092098,1.5170294,-0.8514513,-1.8292911,-0.872397,2.0795248,1.2745672,-0.9652042,-1.4058287,1.359914,0.1686479,1.0120386,0.78611934,0.5020851,-0.3532733,2.3279076,-0.33072662,1.1752868,-3.3425329,-0.49926165,3.0806437,0.29117966,-0.5395889,0.87928885,0.76967466,-0.002709312,0.097816035,0.6308926,-1.225384,0.18826959,1.0411986,1.0,0.0,0.0,0.0,0.0,0.0,0.0,-2.9779077,-0.06927338,-0.62528676,-0.06225109,0.725317,-2.0508826,-1.9102335,-0.45933723,-0.21641254,-0.19751191
12.756731,61.31637,17.15437,6.808659,-0.30055743,0.64162815,0.14518788,-0.7856937,0.77007705,0.09404291,0.5323878,0.5639507,0.67959225,-0.47234964,1.43846,-0.77444357,-1.8198868,-0.8191582,2.1359198,1.3425264,-1.0124391,1.5029722,-0.83779085,-1.8276546,-0.8625007,2.0874135,1.2795664,-0.96872514,-1.4062246,1.367946,0.16342965,0.9814523,0.7895878,0.49947047,-0.35250282,2.294506,-0.33571625,1.2053336,-3.339191,-0.4987625,2.9793777,0.27906036,-0.53743744,0.88960457,0.7767564,-0.012466367,0.09660984,0.62222224,-1.2057173,0.24073157,1.024543,1.0,0.0,0.0,0.0,0.0,0.0,0.0,-2.9445062,-0.06428376,-0.6553336,-0.1916647,0.7495165,-0.1003474,-3.2558322,0.29519796,-0.2055049,-0.17495155
13.157786,61.553596,17.294847,6.993466,-0.26135588,0.6280251,0.17125873,-0.78528327,0.77045727,0.103735484,0.5270307,0.5597043,0.6818229,-0.4624585,1.424444,-0.7607451,-1.817281,-0.80979764,2.143384,1.3477488,-1.014971,1.4889113,-0.8240675,-1.8259666,-0.85289437,2.0953329,1.2845446,-0.97223085,-1.4065969,1.373594,0.17185381,0.9530338,0.79254824,0.49749652,-0.35077232,2.261139,-0.34070587,1.2343686,-3.3358524,-0.49826384,2.8782134,0.267128,-0.53476715,0.8997699,0.78350616,-0.022229582,0.09553047,0.61359423,-1.1855073,0.2932358,1.0097784,1.0,0.0,0.0,0.0,0.0,0.0,0.0,-2.911139,-0.059294134,-0.68436855,-0.18594265,0.5126953,1.2743294,-3.0282497,0.23492575,-0.14507174,-0.07824898
16.04571,64.16799,18.4989,5.956395,-0.33335215,0.66252244,0.28080863,-0.78716964,0.7774836,0.14358836,0.4868145,0.5814876,0.6778458,-0.4532278,1.4101943,-0.7463191,-1.8116077,-0.8042129,2.1534817,1.3523291,-1.0175537,1.4748389,-0.81027544,-1.8239791,-0.8436895,2.1033437,1.2895037,-0.9757137,-1.408141,1.3808383,0.20924266,0.9091262,0.8033938,0.49559426,-0.34833324,2.227806,-0.34568024,1.2623926,-3.3325171,-0.49776566,2.7771502,0.25543213,-0.53149414,0.9098092,0.7898544,-0.032028653,0.09450016,0.60512304,-1.1606065,0.3520149,0.9977448,1.0,0.0,0.0,0.0,0.0,0.0,0.0,-2.8778062,-0.05431977,-0.7123926,-0.30899048,0.6698847,4.2224703,-4.5639157,0.9938359,-0.12822151,-0.016987324
17.075493,63.246803,18.227114,5.337319,-0.3651834,0.56940955,0.31926054,-0.78598106,0.7758083,0.16248287,0.464055,0.58363765,0.67601734,-0.4515762,1.3962407,-0.7326946,-1.8077308,-0.797284,2.1617074,1.3571054,-1.0208713,1.4607569,-0.7964357,-1.8215454,-0.8349529,2.1114614,1.2944456,-0.97917265,-1.4087042,1.3849156,0.25649676,0.8612652,0.81429136,0.4940505,-0.3458988,2.1945038,-0.3506546,1.2894068,-3.3291852,-0.497268,2.676188,0.24400711,-0.5276489,0.9197166,0.79576457,-0.04186928,0.09347602,0.5968818,-1.1322179,0.40978453,0.98400724,1.0,0.0,0.0,0.0,0.0,0.0,0.0,-2.8445039,-0.049345404,-0.73940676,-0.20048618,0.3614664,5.1950426,-4.9470544,1.0040402,-0.067430735,-0.009411573
19.700703,62.835613,18.238293,3.5579662,-0.5074523,0.45514253,0.41403705,-0.7865305,0.77738076,0.2024143,0.41125888,0.6003525,0.6802099,-0.43699598,1.3821038,-0.71869767,-1.801304,-0.793827,2.1714966,1.3624666,-1.0228722,1.4466692,-0.7825655,-1.8185298,-0.82683617,2.1197202,1.29938,-0.9825992,-1.4091334,1.3876625,0.31820053,0.794577,0.8293124,0.4936614,-0.34230497,2.1612396,-0.35562897,1.3154122,-3.3258567,-0.49677083,2.5753264,0.23291016,-0.52321625,0.9294632,0.8011792,-0.051730577,0.0924242,0.5889767,-1.096185,0.4689758,0.96675444,1.0,0.0,0.0,0.0,0.0,0.0,0.0,-2.8112397,-0.04437104,-0.76541215,-0.17945766,0.23739338,6.637746,-6.818247,1.4169097,0.095039606,0.11277795
22.69741,61.764248,17.877787,1.1192856,-0.7392674,0.25689483,0.5089975,-0.787034,0.78166837,0.23400122,0.34333605,0.6204011,0.67441213,-0.42168018,1.3679658,-0.70439863,-1.7951298,-0.7925026,2.1817603,1.3668212,-1.0247672,1.4325777,-0.768659,-1.8148677,-0.81958157,2.128166,1.3043104,-0.98598,-1.4094328,1.3915433,0.38378662,0.7019441,0.8494579,0.4936105,-0.33740595,2.128006,-0.36058807,1.3404096,-3.3225315,-0.49627414,2.474566,0.22226334,-0.51818085,0.9389923,0.8060373,-0.061547905,0.091345735,0.58152527,-1.049139,0.52809286,0.9431545,1.0,0.0,0.0,0.0,0.0,0.0,0.0,-2.778006,-0.039411932,-0.7904096,-0.1554966,0.36296844,7.0026455,-9.401262,1.9396782,0.19671321,0.25921464
27.623997,62.494568,18.35749,-2.0906181,-1.0736649,0.08949852,0.6557767,-0.78317773,0.78622055,0.29619023,0.2572017,0.63077515,0.66645205,-0.39596254,1.35426,-0.69003695,-1.7852488,-0.7938614,2.1912434,1.3709557,-1.0255762,1.4185053,-0.75470006,-1.8104122,-0.81349236,2.1368139,1.309239,-0.9892959,-1.4069121,1.3972936,0.46772435,0.57745796,0.8698059,0.49361646,-0.33030936,2.0948029,-0.36554718,1.3644003,-3.3192096,-0.495778,2.3739061,0.2121849,-0.51251984,0.9482524,0.8102496,-0.07126057,0.09024802,0.5746935,-0.9871987,0.59098953,0.9149723,1.0,0.0,0.0,0.0,0.0,0.0,0.0,-2.744803,-0.034452826,-0.81440026,0.14727116,0.55909157,8.822865,-12.558699,1.9613147,0.27686357,0.49331784
30.317799,60.948685,17.821676,-4.656614,-1.3172381,-0.15007323,0.7550048,-0.78592366,0.7897179,0.33966747,0.16339481,0.65033656,0.65708077,-0.35924208,1.3399129,-0.67572826,-1.7764454,-0.7971529,2.2018476,1.3749471,-1.0252202,1.4044462,-0.74067533,-1.8050869,-0.80886036,2.1456907,1.3141657,-0.99251646,-1.4057051,1.4041283,0.5555275,0.42480284,0.893082,0.49348295,-0.3199319,2.0616379,-0.3705063,1.387385,-3.315891,-0.49528232,2.273347,0.20281982,-0.50624084,0.9571818,0.81375307,-0.08078455,0.08915136,0.5686226,-0.91349113,0.65151113,0.87989587,1.0,0.0,0.0,0.0,0.0,0.0,0.0,-2.711638,-0.02949372,-0.837385,0.042629242,0.6841183,9.1424465,-15.347708,2.2889495,0.33707023,0.8545935
30.403194,59.00479,17.011309,-5.03196,-1.3774855,-0.331469,0.76069087,-0.77843136,0.791078,0.37418705,0.105078265,0.6428841,0.66774106,-0.28133142,1.326603,-0.6615675,-1.7676681,-0.79835254,2.209979,1.3809398,-1.0206496,1.390433,-0.72658956,-1.7989357,-0.80572087,2.1547315,1.3191,-0.9955806,-1.4000787,1.4101603,0.636031,0.27681518,0.90826756,0.49472624,-0.3023888,2.0285034,-0.37545013,1.409365,-3.3125758,-0.49478713,2.1728883,0.19420242,-0.49938965,0.96574867,0.81654966,-0.090078145,0.08810988,0.5633553,-0.83607763,0.7064427,0.8430516,1.0,0.0,0.0,0.0,0.0,0.0,0.0,-2.6785035,-0.024549872,-0.85936505,0.5247116,0.62208176,8.303022,-14.8491745,1.5362859,0.5025923,1.6088903
22.66225,56.934536,15.820034,0.59359074,-0.786372,-0.27747613,0.5607675,-0.7788209,0.7913084,0.3961133,0.12727007,0.64674336,0.6674466,-0.19673258,1.3125509,-0.64745873,-1.7593243,-0.79299384,2.219406,1.3858447,-1.0152539,1.3764712,-0.712458,-1.7921093,-0.80357414,2.1638944,1.3240439,-0.99841493,-1.3950051,1.4142466,0.69845384,0.19379337,0.91946965,0.49516803,-0.2775202,1.9953995,-0.38039398,1.4303411,-3.309264,-0.49429244,2.07253,0.18619919,-0.4920578,0.97403175,0.8187677,-0.09922665,0.08711389,0.5587347,-0.7807008,0.7496919,0.81719285,1.0,0.0,0.0,0.0,0.0,0.0,0.0,-2.6453996,-0.019606024,-0.8803411,0.48484802,0.4487753,6.3614607,-8.344093,1.2270331,0.34196377,2.3712516
10.697511,54.714592,14.389866,9.554327,0.12172556,-0.06598346,0.23748171,-0.7825198,0.7911316,0.40007958,0.20146802,0.6380771,0.6633841,-0.097296625,1.2982192,-0.6333448,-1.7521013,-0.78342736,2.2277021,1.3903823,-1.0081446,1.3625304,-0.6983026,-1.7848613,-0.80151993,2.1731184,1.3289801,-1.0009431,-1.3940378,1.4162878,0.733385,0.20912421,0.9235571,0.49374261,-0.24487104,1.9623337,-0.38533783,1.4503144,-3.3059554,-0.49379826,1.9722719,0.17847443,-0.48441315,0.98218757,0.8206308,-0.10840865,0.08613161,0.5544312,-0.7615346,0.7804527,0.808675,1.0,0.0,0.0,0.0,0.0,0.0,0.0,-2.6123338,-0.014662176,-0.9003144,0.05481243,0.26438236,3.5064578,1.464805,0.6107211,0.019568205,3.159192
-4.383214,49.518616,11.961152,20.358547,1.2692629,0.1936246,-0.16885594,-0.79092544,0.7806866,0.37757897,0.33454502,0.62699074,0.6674117,0.012926422,1.2834378,-0.62023395,-1.7471035,-0.76806545,2.2358174,1.3957212,-0.9996504,1.3485419,-0.68418634,-1.7775524,-0.79843,2.182327,1.3338972,-1.0030869,-1.4005698,1.4103742,0.72979325,0.34178352,0.92067444,0.4908757,-0.20447831,1.9292984,-0.39026642,1.4692858,-3.3026502,-0.49330455,1.872114,0.17058945,-0.4765396,0.9903912,0.8224186,-0.117848925,0.08511806,0.54999465,-0.7885873,0.7951198,0.8176194,1.0,0.0,0.0,0.0,0.0,0.0,0.0,-2.5792985,-0.0097335875,-0.91928583,-0.7394314,-0.51357746,-0.4284978,13.138491,0.0021219254,-0.2952516,3.9306939
-12.688574,49.93913,11.722532,27.593773,1.8911979,0.5191785,-0.41234988,-0.79463774,0.7835396,0.37706938,0.45595878,0.59056044,0.67706835,0.123117626,1.2690781,-0.6058324,-1.7398454,-0.75283414,2.241383,1.401604,-0.99077517,1.3344656,-0.6701225,-1.7703922,-0.7934213,2.1913831,1.3387858,-1.0047768,-1.4103519,1.405348,0.71091545,0.55353826,0.9019088,0.48760828,-0.15739702,1.8962936,-0.395195,1.4872564,-3.2993484,-0.49281132,1.7720561,0.16222,-0.46853638,0.998802,0.82431203,-0.12777002,0.08406662,0.5450847,-0.84442484,0.8105325,0.8420767,1.0,0.0,0.0,0.0,0.0,0.0,0.0,-2.5462937,-0.0048049986,-0.9372564,-1.0837317,-0.43098927,-1.9788265,21.046036,-1.5468359,-0.48156977,4.593301
-13.127936,46.517113,10.5409355,26.986656,1.7723025,0.44109964,-0.432171,-0.8008185,0.77481747,0.3565857,0.50696874,0.56035185,0.6816619,0.18665808,1.2543838,-0.59264076,-1.7347336,-0.7427245,2.2474184,1.4069519,-0.98611104,1.3202769,-0.6561407,-1.7635314,-0.78632694,2.2001646,1.3436457,-1.0059861,-1.4222808,1.396069,0.67740047,0.7610082,0.87123543,0.4848625,-0.109259814,1.863327,-0.4001236,1.5042273,-3.2960496,-0.49231863,1.6720984,0.15330887,-0.46038055,1.0074074,0.8263484,-0.13819328,0.083045945,0.53958714,-0.89838386,0.82613766,0.8595699,1.0,0.0,0.0,0.0,0.0,0.0,0.0,-2.5133271,0.00012359023,-0.95422727,-1.2932062,-0.8732796,-3.4130812,20.626938,-2.7638793,-0.44810772,4.702285
-6.1450386,44.18251,9.996332,20.222794,1.0755987,0.11945951,-0.22466087,-0.8060878,0.7697601,0.3485671,0.49700576,0.55833226,0.67167646,0.2252795,1.2396681,-0.5791647,-1.7286748,-0.7366264,2.255998,1.4108133,-0.98345816,1.305966,-0.6422628,-1.7570007,-0.77770764,2.20866,1.3484789,-1.0067338,-1.4343295,1.3852104,0.6451354,0.8952624,0.8430465,0.48247692,-0.06359403,1.8303909,-0.40503693,1.5201993,-3.2927542,-0.49182642,1.5722406,0.14405441,-0.45205688,1.0160486,0.82842135,-0.14893897,0.082149886,0.533654,-0.92506367,0.84479666,0.85834956,1.0,0.0,0.0,0.0,0.0,0.0,0.0,-2.480391,0.0050369203,-0.9701993,-1.2944221,-1.0567427,-3.1834245,13.323355,-2.6149273,-0.3146708,4.4524236
1.8550701,42.280434,9.618725,12.799651,0.32814455,-0.25043982,0.0082927495,-0.8046262,0.76232696,0.33753505,0.49255797,0.5475553,0.6705845,0.26950878,1.2255034,-0.56603014,-1.7232472,-0.72845185,2.2634153,1.4155374,-0.9797829,1.2915732,-0.628507,-1.7507598,-0.768313,2.216892,1.3532969,-1.0070409,-1.4413799,1.3723978,0.6174777,0.9538287,0.8172707,0.48164216,-0.020307356,1.7974854,-0.40995026,1.5351734,-3.289462,-0.49133468,1.4724827,0.13476562,-0.44353485,1.0245445,0.83038133,-0.15978526,0.081463784,0.5275406,-0.9210177,0.8645055,0.83913285,1.0,0.0,0.0,0.0,0.0,0.0,0.0,-2.4474854,0.00995025,-0.9851734,-0.7796526,-1.2699604,-2.6213527,5.764389,-2.471459,-0.032669306,4.2050304
7.9025974,39.022137,8.628393,6.423279,-0.27710462,-0.65534973,0.18836251,-0.8059689,0.75287753,0.30967253,0.47304028,0.5426495,0.6724186,0.3183344,1.2109762,-0.55321926,-1.7197926,-0.72100896,2.271157,1.4205388,-0.97520745,1.2771345,-0.61489713,-1.7448375,-0.7588249,2.2249143,1.3581167,-1.0069283,-1.4448724,1.357275,0.5844722,0.9468023,0.796933,0.4826556,0.021409666,1.7646179,-0.4148636,1.5491507,-3.2861733,-0.49084345,1.3728245,0.12570953,-0.43483734,1.0327271,0.8321227,-0.17050564,0.081063114,0.5214676,-0.89089537,0.87933445,0.8038154,1.0,0.0,0.0,0.0,0.0,0.0,0.0,-2.414618,0.01486358,-0.9991507,-0.41117668,-1.5051842,-3.1050682,-0.7966876,-1.9897699,0.28156042,4.0498753
12.547176,36.583637,7.921305,1.7255282,-0.7251768,-0.98876274,0.3214148,-0.7989998,0.74105954,0.29110968,0.44690976,0.5211746,0.6729213,0.37432665,1.1972345,-0.54079115,-1.7157266,-0.7141339,2.2770317,1.4254088,-0.96949565,1.2627169,-0.6014608,-1.7392566,-0.74973255,2.2327192,1.3629538,-1.0064019,-1.4408549,1.3390564,0.5501574,0.89640015,0.7749442,0.48485062,0.06257859,1.731781,-0.4197693,1.5621322,-3.282888,-0.49035272,1.2732661,0.11710358,-0.42607117,1.0404814,0.83357626,-0.18093233,0.08101713,0.5156066,-0.8409348,0.8889026,0.7586366,1.0,0.0,0.0,0.0,0.0,0.0,0.0,-2.381781,0.019769281,-1.0121322,0.3681898,-1.8128395,-3.2220721,-5.124986,-2.1986842,0.49116015,4.000306
13.702536,33.119743,6.7346992,-0.52242327,-0.9144349,-1.2570927,0.3598099,-0.80231416,0.7281124,0.26142424,0.4132491,0.503241,0.6673009,0.42286235,1.1824855,-0.52864957,-1.7131141,-0.70840764,2.2830434,1.4296839,-0.9641157,1.2483374,-0.5882286,-1.7340744,-0.74132687,2.2402914,1.3678118,-1.0054711,-1.4371593,1.3179474,0.50815445,0.82169646,0.75166625,0.48698625,0.10283677,1.6989746,-0.42466736,1.5741189,-3.2796056,-0.48986247,1.173807,0.10907364,-0.4172287,1.0477389,0.8347367,-0.19094202,0.08137767,0.5100328,-0.78195375,0.89014864,0.7077727,1.0,0.0,0.0,0.0,0.0,0.0,0.0,-2.3489747,0.024667352,-1.0241189,0.3506422,-2.0922422,-4.019904,-7.5546145,-2.3273587,0.5373895,3.9251401
13.05159,31.73233,6.206292,-0.20770788,-0.9058227,-1.3595254,0.32266366,-0.7957761,0.7168339,0.23465039,0.4021556,0.46668765,0.66869795,0.4643925,1.1687598,-0.5165452,-1.7106093,-0.7011113,2.2869601,1.4346817,-0.9590319,1.2340208,-0.5752157,-1.7293518,-0.73361546,2.2475698,1.3726889,-1.0041512,-1.4299225,1.295943,0.46091354,0.7540045,0.7200096,0.4889405,0.14152224,1.6662064,-0.42956543,1.5851117,-3.2763267,-0.4893727,1.0744475,0.10161209,-0.40840912,1.0545025,0.8356429,-0.20050614,0.08217945,0.5047224,-0.72336435,0.88735455,0.6592574,1.0,0.0,0.0,0.0,0.0,0.0,0.0,-2.3162065,0.029565424,-1.0351117,0.7234335,-2.1737099,-4.5897126,-6.844485,-3.1504393,0.5100727,3.7801578
12.0220995,29.93941,5.572731,0.19854689,-0.88289535,-1.4546635,0.27982083,-0.793908,0.7026883,0.20825325,0.3706384,0.42631283,0.6663158,0.4915105,1.1546301,-0.5049469,-1.7085265,-0.6965516,2.2902012,1.4393204,-0.95500016,1.2197748,-0.5624336,-1.7251213,-0.72654873,2.254463,1.3775793,-1.0024651,-1.4227588,1.2723118,0.41076884,0.69067943,0.6788687,0.49029094,0.17730975,1.6334686,-0.43445587,1.5951116,-3.273051,-0.4888834,0.97518724,0.09473419,-0.39963531,1.060791,0.83634293,-0.20962124,0.08345559,0.4996244,-0.6659692,0.88047534,0.61247844,1.0,0.0,0.0,0.0,0.0,0.0,0.0,-2.2834687,0.034455866,-1.0451117,0.7253885,-2.3290396,-4.9165845,-6.404805,-4.084754,0.44140816,3.5004525
15.127388,29.186054,5.639064,-2.7665343,-1.0987723,-1.6473812,0.40689722,-0.7844786,0.6825379,0.22234456,0.28118572,0.40010843,0.6589384,0.5306984,1.141327,-0.49417982,-1.7028868,-0.6984302,2.294474,1.4434732,-0.9493953,1.20563,-0.5499252,-1.7212055,-0.7203508,2.2609212,1.3824793,-1.0004319,-1.4115285,1.2438066,0.38553083,0.5960315,0.6350755,0.4910063,0.21158114,1.6007614,-0.43933868,1.6041197,-3.2697787,-0.48839465,0.8760262,0.08852005,-0.39097595,1.066584,0.83680195,-0.21823218,0.085190885,0.49485314,-0.59710777,0.8700935,0.56241053,1.0,0.0,0.0,0.0,0.0,0.0,0.0,-2.2507615,0.039338678,-1.0541196,1.1694908,-2.8119326,-2.4256766,-9.508789,-4.3905377,0.41376352,3.3545642
14.86455,26.219082,4.6133337,-3.9442759,-1.12905,-1.8560665,0.4139847,-0.79288304,0.6702291,0.18525748,0.20867151,0.40397307,0.65765846,0.532948,1.1263416,-0.4829023,-1.7026798,-0.69948363,2.3013186,1.4482452,-0.9471371,1.1915404,-0.5376991,-1.7175891,-0.7152696,2.2670362,1.387385,-0.9980935,-1.4079974,1.2157633,0.35407463,0.4786515,0.6036824,0.49156034,0.24105595,1.5680885,-0.4442215,1.6121368,-3.2665095,-0.48790637,0.77696437,0.08301544,-0.38245392,1.07185,0.8370319,-0.2262433,0.08736555,0.490468,-0.52525604,0.85081685,0.509362,1.0,0.0,0.0,0.0,0.0,0.0,0.0,-2.2180886,0.04422149,-1.0621369,0.40166378,-2.757883,-3.0740798,-11.779946,-3.1446695,0.411582,2.891332
14.786209,25.763103,4.496917,-3.9506078,-1.1145566,-1.9396937,0.41078666,-0.7834364,0.6554568,0.17515315,0.15970258,0.36734992,0.6532406,0.5550274,1.1131967,-0.47215343,-1.7000738,-0.6992994,2.3037713,1.4527091,-0.9425907,1.1775042,-0.5257505,-1.7142532,-0.7113634,2.2728193,1.3922907,-0.9954804,-1.4018885,1.1881341,0.3269214,0.3612262,0.5698959,0.49137786,0.26791447,1.53545,-0.44909668,1.6191641,-3.2632437,-0.48741856,0.6780015,0.078235626,-0.3741455,1.0766022,0.83705586,-0.23362893,0.08996813,0.48647785,-0.4533226,0.8288523,0.45892245,1.0,0.0,0.0,0.0,0.0,0.0,0.0,-2.18545,0.049096674,-1.069164,0.68018436,-2.7095795,-2.6839137,-11.769801,-3.376627,0.32011867,2.6392221
11.170619,25.020172,4.280267,-0.24067879,-0.7929801,-1.8386176,0.27208638,-0.7748996,0.63766915,0.15473805,0.16718917,0.3013033,0.6494825,0.57505476,1.1000142,-0.4619836,-1.6987793,-0.69464445,2.3029497,1.4572389,-0.93797493,1.1635557,-0.5140871,-1.7112072,-0.70830303,2.2781408,1.3971888,-0.99261653,-1.3924563,1.1593326,0.29697818,0.2874306,0.5197705,0.49012348,0.29244417,1.502842,-0.45396423,1.6252027,-3.2599812,-0.48693123,0.5791376,0.07406235,-0.36603546,1.0809177,0.8369406,-0.2404863,0.09299555,0.4827511,-0.39607525,0.80774313,0.41787738,1.0,0.0,0.0,0.0,0.0,0.0,0.0,-2.152842,0.053964227,-1.0752027,1.0044575,-2.8201103,-3.0144513,-7.4210587,-4.9643636,0.1496315,2.4062872
7.382195,23.727718,3.8095345,3.4724126,-0.45358074,-1.7572833,0.11792062,-0.765724,0.6233997,0.112190396,0.17097853,0.26308858,0.6447621,0.5881729,1.0869833,-0.45174712,-1.6999881,-0.6912052,2.3044496,1.461665,-0.93379927,1.1497275,-0.502705,-1.7085884,-0.70565563,2.2829168,1.4020678,-0.9895266,-1.3793459,1.1313707,0.24987052,0.25687438,0.46410665,0.48787114,0.31435364,1.4702644,-0.4588318,1.6302532,-3.2567217,-0.48644438,0.48037264,0.07035446,-0.35813904,1.084883,0.8367774,-0.24692567,0.09644632,0.4790922,-0.35394996,0.78671545,0.38515332,1.0,0.0,0.0,0.0,0.0,0.0,0.0,-2.1202645,0.05883178,-1.0802531,1.35324,-2.7315378,-4.7698646,-3.122586,-5.4736433,-0.0041007996,2.1396995
4.300082,20.143358,2.8718772,5.668951,-0.15500551,-1.7480388,0.025670357,-0.76632804,0.59815866,0.0897857,0.15595208,0.22625765,0.6490143,0.59610116,1.0730946,-0.44288912,-1.6996098,-0.69006044,2.3055425,1.4669693,-0.9299165,1.1360041,-0.49164638,-1.7064712,-0.70316464,2.2871244,1.4069277,-0.98623836,-1.3698858,1.0976295,0.19880301,0.24629653,0.4068525,0.485903,0.33347568,1.4377213,-0.4636917,1.6343169,-3.2534657,-0.48595804,0.38170645,0.066986084,-0.3504715,1.088541,0.8366327,-0.25300512,0.10028925,0.47536945,-0.32362306,0.76185447,0.35542423,1.0,0.0,0.0,0.0,0.0,0.0,0.0,-2.0877213,0.063691705,-1.084317,0.9678602,-3.3076525,-5.176979,-1.1485398,-5.6121826,-0.0014603138,1.8562376
3.733601,15.123976,1.9128461,5.3299513,-0.031715214,-1.8409811,0.038722433,-0.7514044,0.5558822,0.09637733,0.13373591,0.14804026,0.64485866,0.6064548,1.0608636,-0.43605816,-1.6968335,-0.689791,2.3019285,1.4714136,-0.9255929,1.1224161,-0.48104915,-1.7047241,-0.7007747,2.2906415,1.4117647,-0.98277557,-1.3550011,1.047341,0.16650827,0.2363273,0.3335547,0.48386028,0.3504439,1.4052124,-0.468544,1.6373947,-3.250213,-0.4854722,0.28313887,0.06388855,-0.34310913,1.0918853,0.8365159,-0.25873098,0.10447094,0.47157723,-0.29635826,0.73004735,0.32381108,1.0,0.0,0.0,0.0,0.0,0.0,0.0,-2.0552125,0.068544,-1.0873947,1.540494,-4.9593925,-3.3304958,-1.0836005,-7.2210846,-0.002413988,1.6393244
0.66061497,11.585875,0.9273453,7.4881773,0.27294707,-1.8426073,-0.05426935,-0.75360334,0.53231156,0.05084855,0.15201329,0.12410388,0.6419894,0.6103004,1.0470558,-0.427818,-1.6996392,-0.6855734,2.303052,1.4759637,-0.92174554,1.1089369,-0.47098026,-1.7033813,-0.6983591,2.2934759,1.4165808,-0.9791602,-1.3454078,0.9936217,0.123320244,0.24304801,0.2667519,0.4815641,0.3649825,1.3727341,-0.4733963,1.6394875,-3.2469633,-0.48498684,0.18466985,0.060985565,-0.33609772,1.0949333,0.8364703,-0.2641223,0.10894672,0.46764022,-0.281143,0.69418734,0.29508683,1.0,0.0,0.0,0.0,0.0,0.0,0.0,-2.0227342,0.073396295,-1.0894876,0.98662376,-5.304599,-4.4197307,0.5646616,-6.5574465,-0.05212426,1.3935804
-1.0198641,6.495298,-0.1642338,8.136808,0.53459907,-1.9051113,-0.07621664,-0.74414474,0.48642403,0.038890876,0.15568945,0.08170243,0.6425746,0.62074846,1.0345224,-0.42233786,-1.6994922,-0.6827901,2.301646,1.4808383,-0.91708535,1.0955645,-0.4615427,-1.7024295,-0.69583184,2.2956579,1.4213778,-0.97541034,-1.3345245,0.9273713,0.085398525,0.25557467,0.20236924,0.47960824,0.37813058,1.3402863,-0.4782486,1.6405964,-3.243717,-0.48450196,0.08629928,0.058174133,-0.32948303,1.0976895,0.8365211,-0.2691881,0.11363811,0.46352625,-0.27431515,0.65136,0.26610392,1.0,0.0,0.0,0.0,0.0,0.0,0.0,-1.9902862,0.07824859,-1.0905964,1.1273623,-6.5575957,-3.9147348,1.1423498,-6.311974,-0.022882223,1.2550592
-2.5570097,2.3058481,-1.1129715,8.905905,0.62877554,-1.9355004,-0.12678546,-0.73127365,0.43757877,0.023802835,0.1761571,-0.037646476,0.6453337,0.616555,1.0224371,-0.4177848,-1.7000493,-0.6782161,2.2918932,1.4859111,-0.9137548,1.0823332,-0.45285806,-1.701823,-0.69309,2.2969778,1.4261595,-0.97154796,-1.3192081,0.8490702,0.05193945,0.28005043,0.10941056,0.47820076,0.38873187,1.3078766,-0.48308563,1.6407223,-3.240474,-0.48401755,-0.011972954,0.05538559,-0.32333374,1.1001548,0.8366963,-0.27394232,0.11855415,0.4591729,-0.2726092,0.60495836,0.23733494,1.0,0.0,0.0,0.0,0.0,0.0,0.0,-1.9578766,0.08308563,-1.0907223,1.5899181,-7.764077,-3.4948275,2.34313,-9.166341,0.028854609,1.0005176
-0.96929264,-14.803057,-5.7009177,1.1362958,0.15626624,-2.6248534,-0.011106528,-0.7225135,0.3455063,-0.018748665,0.05608585,-0.17043349,0.64294267,0.60472715,1.0100819,-0.41830742,-1.7036979,-0.68748146,2.2799344,1.4904537,-0.91107523,1.0692717,-0.4452215,-1.7016532,-0.69069344,2.2971075,1.4309317,-0.9676026,-1.3010157,0.7354493,0.0047354316,0.22592935,-0.018703725,0.47770447,0.39628848,1.2754974,-0.48792267,1.6398661,-3.237234,-0.48353362,-0.11014693,0.052776337,-0.3179016,1.1021461,0.8370437,-0.27807713,0.12379775,0.45464814,-0.2516947,0.5215197,0.18409275,1.0,0.0,0.0,0.0,0.0,0.0,0.0,-1.9254974,0.08792266,-1.0898662,1.9913435,-11.283207,-4.9531326,-5.481058,-12.71407,0.20732284,0.6967366
6.155634,-24.61443,-7.453019,-10.263732,-0.6590167,-3.221852,0.3950791,-0.71521634,0.24265742,0.09715761,-0.13749918,-0.36036962,0.6568058,0.5905875,0.99775004,-0.42095578,-1.6919374,-0.70444334,2.2610705,1.4966123,-0.9085439,1.0563971,-0.43900594,-1.7013195,-0.68979794,2.2955625,1.4357115,-0.96360576,-1.2821288,0.5838696,0.0423311,0.043998867,-0.19979084,0.47907573,0.40059134,1.2431488,-0.4927597,1.6380291,-3.2339976,-0.48305017,-0.20822275,0.050640106,-0.31352234,1.1034076,0.8374577,-0.28119734,0.12941056,0.4503836,-0.19532724,0.4102474,0.10506765,1.0,0.0,0.0,0.0,0.0,0.0,0.0,-1.8931488,0.0927597,-1.0880291,2.1677732,-15.082157,3.5540667,-18.193092,-18.127165,0.41855574,0.34517646
-0.15792227,-69.79714,-17.28593,-15.425943,0.49851188,-4.03316,0.49242306,-0.6942135,-0.01873741,0.19988665,-0.22064383,-0.5034114,0.6610292,0.56699336,0.9869757,-0.44087967,-1.6813308,-0.7118623,2.2452214,1.5018144,-0.9069064,1.0437704,-0.43525848,-1.7000129,-0.6910234,2.2920263,1.4405028,-0.95959747,-1.2549177,0.30520564,0.15932716,-0.17815284,-0.40534872,0.4796494,0.40039533,1.2108307,-0.49758148,1.635212,-3.2307642,-0.4825672,-0.3062005,0.048828125,-0.31082153,1.1036454,0.8379221,-0.28298926,0.13495605,0.4467554,-0.17281729,0.22321224,-0.0045248806,1.0,0.0,0.0,0.0,0.0,0.0,0.0,-1.8608307,0.097581476,-1.085212,3.1130314,-27.83035,11.486279,-22.25007,-20.63402,0.19974113,-0.19744039
-16.814829,-108.39174,-25.758816,-5.502674,3.0426364,-4.0861907,0.099116445,-0.6576763,-0.2611467,0.22102368,-0.10482544,-0.54548675,0.6644369,0.52386343,0.9780028,-0.46137315,-1.6779106,-0.70150596,2.2374775,1.5069464,-0.9072111,1.0315367,-0.43506488,-1.6974742,-0.6935373,2.2866552,1.4452883,-0.9556321,-1.2116703,-0.07608004,0.28482974,-0.27620593,-0.58115077,0.47747454,0.39438453,1.1785469,-0.50240326,1.6314158,-3.227534,-0.48208472,-0.4040803,0.04656601,-0.31033325,1.1028035,0.83859575,-0.283579,0.13971363,0.4436443,-0.24218969,-0.007719157,-0.111337356,1.0,0.0,0.0,0.0,0.0,0.0,0.0,-1.8285469,0.10240325,-1.0814159,4.6895742,-38.17818,12.444103,-9.924269,-17.689198,-0.37869215,-0.8517504
-24.499828,-121.08145,-28.172007,1.0644209,4.464921,-3.8881643,-0.068725705,-0.6188318,-0.4600524,0.28613397,-0.11126057,-0.563257,0.6617642,0.4932685,0.9696535,-0.48107013,-1.6688608,-0.70466334,2.2303295,1.5114647,-0.90630525,1.0198504,-0.43897113,-1.6936271,-0.6965042,2.2798917,1.4500338,-0.9517487,-1.1532278,-0.49585915,0.4179812,-0.30374667,-0.7087597,0.47207883,0.38558698,1.1462975,-0.50722504,1.6266415,-3.224307,-0.48160276,-0.5018623,0.043239594,-0.31220245,1.1009455,0.8395679,-0.28321737,0.14309876,0.44094947,-0.3623772,-0.24583794,-0.21080828,1.0,0.0,0.0,0.0,0.0,0.0,0.0,-1.7962974,0.10722503,-1.0766416,6.1674833,-42.084682,13.313598,-2.8442383,-12.9143,-0.9854734,-1.0880232
-22.09638,-101.61891,-23.084934,4.4053016,4.372403,-3.3038301,-0.036170904,-0.5861415,-0.59489936,0.38410333,-0.15567617,-0.634676,0.6808374,0.43410382,0.96123624,-0.49846107,-1.6552168,-0.7120718,2.2164242,1.5181175,-0.90833837,1.0087954,-0.44677505,-1.6883113,-0.6996122,2.272022,1.4547335,-0.94798744,-1.0888216,-0.87566024,0.56957835,-0.31309688,-0.8136665,0.46723163,0.37274426,1.1140785,-0.51203156,1.6208901,-3.2210834,-0.48112127,-0.59954655,0.03873825,-0.31615448,1.0981938,0.8407764,-0.28217813,0.14495507,0.43870103,-0.4809741,-0.44442248,-0.2967768,1.0,0.0,0.0,0.0,0.0,0.0,0.0,-1.7640785,0.11203155,-1.0708902,6.691408,-38.10091,15.1970625,-0.940603,-10.6521015,-1.0794699,-1.3691485
-7.5341883,-62.884583,-13.425094,-0.25560665,2.894628,-2.8559475,0.28125894,-0.4807471,-0.6856034,0.44606477,-0.2514993,-0.6608161,0.6804573,0.37147772,0.96072066,-0.5153354,-1.6437049,-0.72476214,2.2059405,1.5227792,-0.9108397,0.99872077,-0.4577261,-1.6815212,-0.7031446,2.263313,1.4593874,-0.9443892,-0.98039085,-1.1686736,0.7163203,-0.3668257,-0.8905058,0.46276376,0.35547045,1.0818901,-0.5168381,1.6141627,-3.217863,-0.48064026,-0.6971331,0.033485413,-0.3217163,1.0946616,0.8420042,-0.28063306,0.14542635,0.43717846,-0.54305965,-0.58934647,-0.3727496,1.0,0.0,0.0,0.0,0.0,0.0,0.0,-1.7318901,0.11683807,-1.0641627,10.824669,-29.425121,14.937889,-5.413657,-7.8886867,-1.060009,-1.7472208
5.899522,-19.158363,-3.1696796,-2.7687912,1.293631,-2.3371596,0.45340118,-0.38964474,-0.7259684,0.44794732,-0.29204714,-0.6687726,0.6734652,0.2910011,0.9597563,-0.5303229,-1.6367265,-0.73234934,2.1964357,1.526734,-0.9152891,0.9899794,-0.47077283,-1.6736324,-0.7073694,2.2540433,1.4640032,-0.94101036,-0.8396448,-1.3503771,0.8144287,-0.441447,-0.93959886,0.45980838,0.33216122,1.0497322,-0.5216446,1.6064601,-3.2146459,-0.48015973,-0.7946222,0.028045654,-0.32826996,1.0905056,0.84306103,-0.27873608,0.14486289,0.43654215,-0.5469215,-0.6736531,-0.43129772,1.0,0.0,0.0,0.0,0.0,0.0,0.0,-1.6997322,0.12164459,-1.0564601,13.803232,-18.28339,10.238445,-7.5528026,-5.115199,-0.7549703,-2.31933
13.621258,11.314017,3.2846978,-3.8562346,0.09061217,-2.0300992,0.4674443,-0.33424795,-0.7569235,0.41872123,-0.34434977,-0.65914935,0.66776997,0.19010766,0.9565546,-0.54646516,-1.6317602,-0.74180436,2.1881285,1.5307802,-0.9219996,0.98264277,-0.48495445,-1.6652877,-0.71247536,2.2444913,1.4685999,-0.93792236,-0.6995348,-1.4411193,0.84265,-0.53396857,-0.96113724,0.4586501,0.30105093,1.0176125,-0.5264435,1.5977833,-3.2114317,-0.47967967,-0.8920137,0.022872925,-0.33538055,1.0858626,0.8438883,-0.27655014,0.14367624,0.4367261,-0.50986105,-0.71816623,-0.47722155,1.0,0.0,0.0,0.0,0.0,0.0,0.0,-1.6676124,0.12644348,-1.0477834,13.645172,-9.172297,3.2513738,-9.35005,-2.3360252,-0.40483475,-3.094864
19.06986,31.364029,7.1360703,-5.7185965,-0.89916646,-1.9322448,0.4823617,-0.28182378,-0.7682847,0.38216677,-0.4310229,-0.6484363,0.6583852,0.121824756,0.9544604,-0.5617829,-1.627071,-0.7555776,2.1796477,1.5344385,-0.9257399,0.9766022,-0.49954566,-1.6571243,-0.71873146,2.2348745,1.4731871,-0.9351748,-0.5735016,-1.4654422,0.808837,-0.6564553,-0.9623236,0.45825377,0.26598158,0.9855232,-0.53123474,1.5881333,-3.208221,-0.4792001,-0.98930794,0.018321991,-0.34277344,1.0808066,0.8444923,-0.274015,0.14224793,0.43762314,-0.4399539,-0.74021834,-0.51729375,1.0,0.0,0.0,0.0,0.0,0.0,0.0,-1.6355232,0.13123474,-1.0381334,12.21987,-2.513814,-3.0237794,-12.34988,-0.26185513,-0.21346807,-3.5058558
20.588089,40.512245,8.69002,-5.5594153,-1.2903402,-1.88308,0.43575773,-0.22024126,-0.7772821,0.33209464,-0.48027837,-0.635568,0.6513713,0.09737886,0.95457804,-0.57727385,-1.6239148,-0.7667593,2.1713176,1.5383242,-0.9254369,0.9717442,-0.51412356,-1.6496589,-0.7262102,2.2253454,1.4777704,-0.93276584,-0.45771378,-1.4554098,0.72663426,-0.7786209,-0.94998115,0.45813248,0.2325365,0.9534645,-0.536026,1.5775113,-3.2050135,-0.478721,-1.0865047,0.014541626,-0.35030365,1.0753856,0.8449072,-0.27107748,0.14082676,0.43910867,-0.35848862,-0.7520854,-0.55272955,1.0,0.0,0.0,0.0,0.0,0.0,0.0,-1.6034645,0.136026,-1.0275114,11.238802,0.94738007,-7.97621,-12.2919445,1.1404991,-0.116211176,-3.3377767
19.409103,43.168503,9.069266,-3.4432638,-1.2234381,-1.8091428,0.3373358,-0.15120299,-0.7808898,0.26957968,-0.495022,-0.62703127,0.65103894,0.095886156,0.95662385,-0.59221256,-1.6227009,-0.7757124,2.1626422,1.5428743,-0.92317724,0.9680296,-0.5285088,-1.6432655,-0.73467594,2.2159803,1.4823557,-0.9306563,-0.34362662,-1.4330335,0.6108749,-0.8694155,-0.93205446,0.45860404,0.2038173,0.9214363,-0.54080963,1.565918,-3.2018092,-0.47824237,-1.1836045,0.011547089,-0.35792542,1.0696518,0.84518015,-0.26775947,0.13952732,0.44102994,-0.28152844,-0.7593718,-0.5826986,1.0,0.0,0.0,0.0,0.0,0.0,0.0,-1.5714363,0.14080963,-1.015918,11.120158,2.2081375,-11.415041,-9.122157,1.7354369,-0.008678436,-2.8484702
20.655167,36.19928,6.5665064,-5.6664953,-1.3495336,-2.1646967,0.2868007,-0.036374178,-0.7917489,0.11013895,-0.5405508,-0.59764016,0.6377864,0.09165579,0.9643922,-0.60768366,-1.6322516,-0.78873104,2.1562164,1.5461344,-0.9214907,0.96567976,-0.5427252,-1.6385849,-0.7439447,2.2068632,1.4869334,-0.92880523,-0.2001268,-1.4180005,0.42169318,-0.9462956,-0.9053211,0.45682487,0.17875904,0.88944244,-0.54558563,1.5533543,-3.198608,-0.47776422,-1.2806071,0.009338379,-0.3657608,1.0635579,0.8453841,-0.2639465,0.13840647,0.44328487,-0.20046373,-0.7862635,-0.6208224,1.0,0.0,0.0,0.0,0.0,0.0,0.0,-1.5394424,0.14558563,-1.0033543,13.965094,1.464963,-18.578703,-7.7731013,2.5675297,-0.33237338,-2.543178
20.688248,28.731071,3.9210212,-6.6329126,-1.380866,-2.4416833,0.20540524,0.068960994,-0.7948876,-0.06158244,-0.551237,-0.5897379,0.64668,0.123831436,0.97257584,-0.62221396,-1.6447431,-0.7990684,2.1478894,1.5516014,-0.91642207,0.964955,-0.5568577,-1.6363113,-0.7537742,2.1980016,1.4914938,-0.92715156,-0.03142234,-1.4117658,0.16415086,-0.9954992,-0.8804588,0.45503217,0.16055319,0.8574829,-0.55036163,1.5398214,-3.19541,-0.47728655,-1.3775127,0.007938385,-0.37400055,1.0570278,0.84560615,-0.25949654,0.13753472,0.44575325,-0.11976186,-0.8304864,-0.66663253,1.0,0.0,0.0,0.0,0.0,0.0,0.0,-1.5074829,0.15036163,-0.9898214,16.425007,0.5761862,-25.271719,-5.024755,2.337277,-0.42244792,-1.9092858
18.44685,18.333345,0.12120092,-7.3518248,-1.388128,-2.7273335,0.1285533,0.1380769,-0.80047685,-0.26271275,-0.5869955,-0.57647485,0.6509515,0.21619295,0.9787627,-0.6369054,-1.6625825,-0.8124738,2.1403542,1.556589,-0.90553224,0.96588385,-0.5709988,-1.6371028,-0.764051,2.1893728,1.4960333,-0.9255866,0.1329775,-1.4151282,-0.15835358,-1.0386571,-0.8578893,0.45250008,0.15460822,0.8255539,-0.55513,1.52532,-3.1922152,-0.47680935,-1.4743215,0.0073051453,-0.38282776,1.0499454,0.8459548,-0.2541985,0.13703433,0.44829145,-0.042540897,-0.89535254,-0.7257547,1.0,0.0,0.0,0.0,0.0,0.0,0.0,-1.4755539,0.15513,-0.97532004,16.021208,-0.40261745,-31.690676,-4.391122,2.042687,-0.62503815,-0.738889
14.073236,16.274073,-0.4871621,-4.8144665,-1.1373785,-2.527465,0.102611825,0.15397191,-0.80129385,-0.34993714,-0.6225824,-0.5873173,0.645601,0.28437728,0.98128104,-0.6511282,-1.6720966,-0.82630926,2.130641,1.5605934,-0.89714885,0.9681126,-0.585199,-1.6409042,-0.77477604,2.1808813,1.5005442,-0.9240092,0.2520495,-1.4219054,-0.4528147,-1.0836862,-0.84669024,0.4495296,0.15840384,0.7936554,-0.55989075,1.5098515,-3.1890235,-0.47633263,-1.5710335,0.0073547363,-0.39228058,1.0422536,0.84646565,-0.24797599,0.13697404,0.45082352,0.022026531,-0.9566369,-0.7881702,1.0,0.0,0.0,0.0,0.0,0.0,0.0,-1.4436554,0.15989074,-0.95985144,11.650231,-0.7400274,-29.058338,-4.503751,0.91764927,-0.68511367,0.25402904
12.0637455,24.9733,3.1124449,-1.1642873,-0.8014602,-1.9413981,0.18831414,0.17713982,-0.79814553,-0.3500284,-0.64261556,-0.60714924,0.65967923,0.3468445,0.98582655,-0.66501355,-1.675907,-0.8390376,2.1201663,1.5665121,-0.8893248,0.97121394,-0.5994488,-1.6468589,-0.78592545,2.1723974,1.5050455,-0.9223336,0.32905176,-1.4261152,-0.6428353,-1.1253111,-0.8488491,0.4493581,0.17045264,0.7617874,-0.5646515,1.4934164,-3.1858351,-0.4758564,-1.6676488,0.007949829,-0.4021454,1.0340185,0.8470269,-0.24101914,0.13728641,0.4534397,0.07461372,-0.991374,-0.84078926,1.0,0.0,0.0,0.0,0.0,0.0,0.0,-1.4117874,0.16465148,-0.9434164,7.5763283,-0.45261383,-18.895508,-4.1362047,-0.30989647,-0.29742122,1.1585146
6.7795715,35.875984,7.6397653,5.64693,-0.18188655,-1.1589962,0.17290378,0.16187905,-0.7914133,-0.32796413,-0.6323433,-0.6351049,0.6700238,0.35665306,0.98740184,-0.6785901,-1.6796553,-0.8491598,2.108887,1.572048,-0.88666826,0.9746796,-0.6136929,-1.6538341,-0.7973247,2.1637876,1.509564,-0.9205283,0.3524858,-1.4238088,-0.71626925,-1.1445276,-0.8653307,0.45244786,0.18410793,0.72994995,-0.56941223,1.4760159,-3.18265,-0.47538063,-1.7641674,0.00888443,-0.41209412,1.0254058,0.8475183,-0.23368132,0.13785334,0.456182,0.10421396,-0.991721,-0.874284,1.0,0.0,0.0,0.0,0.0,0.0,0.0,-1.3799499,0.16941223,-0.9260159,2.3660839,0.22337437,-7.4933887,-1.8653393,-1.6723156,0.20991564,1.4024556
1.8023858,41.074844,10.114517,10.650314,0.347529,-0.64774823,0.13848682,0.146918,-0.7951021,-0.3267548,-0.63365275,-0.6546688,0.6755587,0.37493727,0.9893714,-0.6932031,-1.6865096,-0.86069,2.0983207,1.57712,-0.8830346,0.97808516,-0.62791693,-1.660979,-0.80880886,2.1549528,1.5141245,-0.91857994,0.337008,-1.4220212,-0.7148959,-1.1493632,-0.8897589,0.45731986,0.19871415,0.69815063,-0.5741577,1.457651,-3.1794682,-0.47490534,-1.8605896,0.009979248,-0.42191315,1.0165544,0.8478758,-0.22624397,0.13857292,0.45903996,0.11414795,-0.9726447,-0.89524245,1.0,0.0,0.0,0.0,0.0,0.0,0.0,-1.3481506,0.17415771,-0.907651,-1.4269888,0.17683506,-0.14519691,-0.3926754,-2.458191,0.49718618,1.5500486
-4.325713,42.472454,10.820521,15.266274,0.85528374,-0.33901894,0.026341736,0.11411679,-0.7911523,-0.34455857,-0.6233163,-0.65018904,0.6761644,0.36691207,0.9894968,-0.70703214,-1.6954349,-0.8711405,2.0899339,1.581741,-0.88188875,0.98109114,-0.6421076,-1.6679275,-0.82022434,2.145908,1.5187365,-0.9165038,0.28913724,-1.4180466,-0.6892976,-1.1385083,-0.9093808,0.46264723,0.21089007,0.66638184,-0.5789032,1.4383227,-3.1762893,-0.47443053,-1.9569155,0.011016846,-0.43147278,1.0075558,0.8481229,-0.2188577,0.1393835,0.46191007,0.10422629,-0.9451044,-0.90777326,1.0,0.0,0.0,0.0,0.0,0.0,0.0,-1.3163818,0.17890319,-0.88832265,-4.580325,0.3873825,2.2408485,1.2248993,-2.0290017,0.6062865,1.3277888
-4.1982594,42.296043,11.021906,15.025461,0.9393786,-0.32601446,0.05057297,0.11426226,-0.79710114,-0.3432567,-0.636457,-0.6457575,0.6709916,0.3804826,0.99251735,-0.72181773,-1.7022532,-0.88387007,2.0813324,1.5858357,-0.8784555,0.9836346,-0.6562916,-1.6745689,-0.8315702,2.13673,1.5233923,-0.91431034,0.24338558,-1.4184949,-0.6569833,-1.132813,-0.9208404,0.4667942,0.22257581,0.63464355,-0.5836487,1.4180317,-3.1731138,-0.4739562,-2.053145,0.0119514465,-0.440773,0.99842894,0.8482598,-0.21155497,0.14021291,0.4648012,0.0928701,-0.9191972,-0.92044264,1.0,0.0,0.0,0.0,0.0,0.0,0.0,-1.2846435,0.18364868,-0.8680317,-4.3758335,-0.055265427,2.9085636,0.71733,-1.2044907,0.48094988,1.2946844
-10.837812,42.772728,11.291611,19.122295,1.39325,-0.04903519,-0.047559015,0.032882366,-0.79303217,-0.29706186,-0.6259244,-0.6568141,0.6820204,0.38990256,0.9869228,-0.7355948,-1.7042751,-0.89416265,2.0710485,1.5915943,-0.8753201,0.9854475,-0.6704699,-1.6807258,-0.8428255,2.127445,1.5280958,-0.9120053,0.16161127,-1.417651,-0.60307616,-1.1223892,-0.9313264,0.47176725,0.23358096,0.6029358,-0.5883789,1.3967792,-3.1699414,-0.47348234,-2.149278,0.012638092,-0.44976044,0.9892181,0.84832305,-0.20439123,0.1410293,0.4676355,0.06313114,-0.88710517,-0.92712706,1.0,0.0,0.0,0.0,0.0,0.0,0.0,-1.2529358,0.1883789,-0.84677917,-7.8926353,0.06561279,5.0276875,1.2450933,-1.1550426,0.6082058,1.2438774
-17.869862,38.715023,9.571642,21.660578,1.7167623,0.02197957,-0.14809516,-0.05197592,-0.79360265,-0.29686582,-0.6434588,-0.6524573,0.6693338,0.3961535,0.98024994,-0.7498301,-1.7104124,-0.90717137,2.0621994,1.5950292,-0.87239,0.98617136,-0.68464434,-1.6864212,-0.8540731,2.1180952,1.5328318,-0.90959823,0.043855708,-1.4176103,-0.5597248,-1.1245873,-0.93718946,0.47454184,0.24351567,0.57125854,-0.59310913,1.3745661,-3.1667721,-0.47300896,-2.2453148,0.012908936,-0.45848083,0.9799166,0.8483999,-0.197312,0.14184816,0.47028154,0.018063502,-0.859614,-0.9367637,1.0,0.0,0.0,0.0,0.0,0.0,0.0,-1.2212585,0.19310912,-0.82456607,-11.404138,-0.036025047,3.97923,0.060367584,-0.7789016,0.3571391,1.1307508
-15.343504,39.952507,10.318965,19.41504,1.6178138,0.017578483,-0.027689397,-0.08605423,-0.79862535,-0.24216889,-0.6857547,-0.62538385,0.66397375,0.4157467,0.97756594,-0.7645069,-1.710638,-0.92264855,2.0555568,1.5992292,-0.8680236,0.9857489,-0.6988436,-1.6915576,-0.8655649,2.108791,1.5375868,-0.9070872,-0.06980784,-1.4208078,-0.49967274,-1.1564025,-0.92875534,0.4758907,0.2542084,0.5396118,-0.59783936,1.3513933,-3.163606,-0.47253606,-2.3412557,0.01279068,-0.46691132,0.97049254,0.8484607,-0.1902715,0.14259003,0.4728418,-0.02073344,-0.8322364,-0.9494471,1.0,0.0,0.0,0.0,0.0,0.0,0.0,-1.1896118,0.19783935,-0.80139333,-11.01276,-0.34971237,5.596381,-2.902484,0.69803,0.19233823,1.2405962
-13.45464,45.53413,12.8123665,19.279692,1.6349698,0.20429194,0.042240746,-0.13644098,-0.7964853,-0.1617502,-0.6900838,-0.62711954,0.67081285,0.4257904,0.9721048,-0.77849215,-1.7077327,-0.9345733,2.0460792,1.6046681,-0.86450815,0.98423827,-0.7130648,-1.6958416,-0.8773971,2.0995824,1.542359,-0.9044703,-0.17706703,-1.4225693,-0.40635866,-1.1913762,-0.91836,0.47807363,0.2649391,0.5079994,-0.60256195,1.3272619,-3.1604428,-0.47206363,-2.4371006,0.012290955,-0.4750061,0.9609932,0.84843063,-0.18335909,0.1431546,0.47544876,-0.056967307,-0.79507554,-0.9549496,1.0,0.0,0.0,0.0,0.0,0.0,0.0,-1.1579994,0.20256194,-0.7772619,-10.394716,-0.18291473,8.838404,-3.2370567,0.9782672,0.33596158,1.2900174
-4.596795,44.147396,12.285389,13.73078,1.0859958,-0.20758843,0.13599342,-0.106554426,-0.80323726,-0.2169903,-0.707804,-0.605717,0.6500214,0.4162797,0.9735828,-0.7933885,-1.7175406,-0.9481775,2.0390108,1.6073611,-0.8628424,0.98208964,-0.7273289,-1.6995933,-0.8896013,2.090534,1.5471312,-0.9017657,-0.22670999,-1.427557,-0.36629346,-1.2293911,-0.90021163,0.4772563,0.27302983,0.47642136,-0.6072769,1.3021728,-3.157283,-0.47159168,-2.5328498,0.011623383,-0.48283386,0.951366,0.8482676,-0.1765003,0.14351547,0.47821853,-0.06950826,-0.771034,-0.9697162,1.0,0.0,0.0,0.0,0.0,0.0,0.0,-1.1264213,0.20727691,-0.75217277,-4.7516346,-0.49319267,3.5978377,-3.5925388,1.8015385,-0.02937913,1.0028005
14.452372,49.877316,14.732346,4.5900726,-0.0068847984,-0.6928731,0.37302706,-0.0024675392,-0.8003985,-0.23929727,-0.71409553,-0.6163854,0.6496998,0.4361466,0.9818429,-0.80736876,-1.723523,-0.9610108,2.0288954,1.6121012,-0.858151,0.98020804,-0.74162066,-1.7032707,-0.9021326,2.0816267,1.5518938,-0.89897716,-0.17528906,-1.4295421,-0.36933112,-1.2608407,-0.8875847,0.47601154,0.28132722,0.4448738,-0.6119919,1.2761269,-3.1541264,-0.4711202,-2.6285033,0.011188507,-0.49044037,0.94155204,0.84784096,-0.16962734,0.14369373,0.48139825,-0.034285422,-0.7527046,-0.98939157,1.0,0.0,0.0,0.0,0.0,0.0,0.0,-1.0948738,0.21199188,-0.72612685,5.147153,-0.14691353,-0.6441593,-3.0781507,1.3919592,-0.08778572,0.99518895
16.938902,47.37244,13.371591,3.1898654,-0.2886466,-0.9476445,0.3050701,0.0075458074,-0.79926723,-0.3065875,-0.6985392,-0.6385071,0.6564606,0.4304526,0.98096263,-0.8215474,-1.7339294,-0.9719865,2.017776,1.6175399,-0.8559319,0.97905314,-0.75591624,-1.7074268,-0.9148088,2.0727384,1.556647,-0.89612186,-0.09573357,-1.4293737,-0.43195596,-1.2696729,-0.88866,0.47496942,0.28723827,0.41335678,-0.6166992,1.2491251,-3.1509728,-0.47064918,-2.724061,0.011177063,-0.49798584,0.9314943,0.8471574,-0.1626376,0.1438253,0.48496127,0.010189886,-0.7444536,-1.015179,1.0,0.0,0.0,0.0,0.0,0.0,0.0,-1.0633568,0.21669921,-0.6991251,7.915342,0.06275177,-6.4931273,-0.8289099,-0.013756752,-0.11487603,0.7024944
11.7818365,37.273415,8.694462,3.607006,-0.2212683,-1.2161403,0.16469502,0.004898091,-0.80632085,-0.4223979,-0.71359825,-0.62166613,0.6418201,0.43744612,0.979543,-0.8365483,-1.7496666,-0.9861686,2.0105717,1.620829,-0.85237724,0.97861254,-0.77023757,-1.7127655,-0.92755467,2.0638578,1.5613714,-0.89321506,-0.026811153,-1.4330711,-0.5681664,-1.2757845,-0.8883354,0.47128606,0.29202375,0.38187027,-0.6213989,1.2211685,-3.1478226,-0.4701786,-2.8195233,0.011539459,-0.5055542,0.92105466,0.84634626,-0.15528494,0.14404564,0.48870772,0.046699986,-0.7552655,-1.0576088,1.0,0.0,0.0,0.0,0.0,0.0,0.0,-1.0318702,0.22139892,-0.6711685,6.8890243,-0.36623478,-13.712036,-0.48849583,-0.011539459,-0.51018596,0.52914023
-3.5315495,33.866123,6.722972,10.734694,0.52728677,-0.8283783,-0.06554444,-0.06444364,-0.80035245,-0.4445201,-0.70591414,-0.6382673,0.6462285,0.451745,0.9721682,-0.85027283,-1.7572174,-0.99814606,2.000031,1.6259943,-0.8480406,0.9783522,-0.7845694,-1.7194431,-0.9402824,2.0549161,1.5660635,-0.8902577,-0.025397345,-1.4333054,-0.70119274,-1.2710658,-0.89654636,0.46814677,0.2971087,0.35041428,-0.62609863,1.192258,-3.1446755,-0.4697085,-2.9148903,0.012004852,-0.51322174,0.91020715,0.8455621,-0.14748299,0.14446014,0.49234623,0.048229657,-0.7627504,-1.0980929,1.0,0.0,0.0,0.0,0.0,0.0,0.0,-1.0004143,0.22609863,-0.642258,0.26478505,-0.05967617,-13.369358,0.68998337,-1.0013103,-0.45967698,0.54213405
-17.655102,28.659714,4.0648117,16.06467,1.1821887,-0.5218777,-0.23754317,-0.12855963,-0.8039427,-0.50535244,-0.7256694,-0.637785,0.6296761,0.43516695,0.96549624,-0.86496365,-1.7699783,-1.0128493,1.9911376,1.6290312,-0.846741,0.9776236,-0.79891646,-1.7274234,-0.9530321,2.0458868,1.5707117,-0.88726795,-0.08786861,-1.4353955,-0.8304262,-1.2752036,-0.9063033,0.46323967,0.29968065,0.3189888,-0.63079834,1.1623945,-3.1415315,-0.46923888,-3.0101619,0.012256622,-0.5209732,0.89892775,0.84494483,-0.13916339,0.14510669,0.49562675,0.01836737,-0.77069944,-1.1424495,1.0,0.0,0.0,0.0,0.0,0.0,0.0,-0.9689888,0.23079833,-0.6123945,-6.004842,-0.29621124,-12.949026,-0.09009838,-1.3094306,-0.68882704,0.27700067
-34.896545,26.658646,2.6775866,23.4547,2.073387,0.023867846,-0.42073354,-0.2436277,-0.80255365,-0.53072983,-0.7338533,-0.6456895,0.62139606,0.44480598,0.95326084,-0.87917185,-1.7804964,-1.0264174,1.9813178,1.6328514,-0.8427873,0.97568953,-0.81327784,-1.7364624,-0.9658609,2.036739,1.5753084,-0.8842505,-0.22726065,-1.4368373,-0.9283733,-1.2839766,-0.91917545,0.45779464,0.30258924,0.28759384,-0.6354828,1.131579,-3.1383905,-0.46876973,-3.105338,0.011917114,-0.5287323,0.88723844,0.8446182,-0.1303266,0.14598346,0.49832103,-0.051413704,-0.77088886,-1.1826843,1.0,0.0,0.0,0.0,0.0,0.0,0.0,-0.9375938,0.23548278,-0.581579,-13.566438,-0.2895832,-9.793531,-0.44209957,-1.78864,-0.76046586,0.31601787
-42.136513,25.465187,1.7428943,25.660341,2.3953013,0.24725783,-0.46989775,-0.31708157,-0.8036711,-0.59097683,-0.75366336,-0.65132135,0.589826,0.43358934,0.94398135,-0.8936449,-1.79556,-1.0412272,1.971607,1.634291,-0.8408916,0.97214377,-0.82765734,-1.7464206,-0.9788614,2.027458,1.5798289,-0.881215,-0.39563522,-1.4388609,-1.0180364,-1.3036493,-0.9328231,0.4492306,0.30405048,0.25623703,-0.64016724,1.0998125,-3.1352527,-0.46830106,-3.2004192,0.010753632,-0.5364914,0.8751324,0.84464043,-0.12094435,0.14706367,0.50032705,-0.13682736,-0.7687426,-1.2249609,1.0,0.0,0.0,0.0,0.0,0.0,0.0,-0.906237,0.24016723,-0.5498125,-16.411097,-0.38907528,-8.932198,-1.4605045,-1.9659996,-1.131618,0.17886758
-39.42939,29.007723,3.3421426,24.360851,2.2913742,0.36428654,-0.38040268,-0.36015296,-0.8048427,-0.6249171,-0.76030993,-0.66887087,0.58665603,0.46602422,0.9361285,-0.9081416,-1.8089123,-1.0548924,1.9605708,1.6384945,-0.83461255,0.96702635,-0.8420588,-1.7571571,-0.9920688,2.0180166,1.5842673,-0.8781413,-0.5490595,-1.4411128,-1.0919837,-1.3248035,-0.9499097,0.44097537,0.3086409,0.22491074,-0.6448517,1.0670959,-3.1321182,-0.46783286,-3.2954051,0.008777618,-0.54418945,0.8626192,0.84495825,-0.111046255,0.1482944,0.5017201,-0.21707468,-0.760414,-1.2653625,1.0,0.0,0.0,0.0,0.0,0.0,0.0,-0.8749107,0.24485168,-0.51709586,-14.948386,-0.41110516,-7.374072,-1.6182423,-2.2848368,-1.1122227,0.5130887
-33.035404,35.79366,6.4903455,22.434101,2.074172,0.46956548,-0.27913564,-0.39946687,-0.7988532,-0.6490307,-0.75394654,-0.68054014,0.59807193,0.47132635,0.9270797,-0.9219441,-1.8220601,-1.0674635,1.9499626,1.6440744,-0.8310087,0.96061003,-0.8564478,-1.7685039,-1.0054164,2.0084035,1.5886408,-0.875018,-0.67133605,-1.4387089,-1.1491753,-1.3366001,-0.96698254,0.43538985,0.313762,0.19361496,-0.6495209,1.0334301,-3.1289866,-0.46736515,-3.3902962,0.006111145,-0.55174255,0.8497597,0.8454723,-0.10074304,0.14961451,0.50263596,-0.2850103,-0.7431827,-1.2983683,1.0,0.0,0.0,0.0,0.0,0.0,0.0,-0.84361494,0.24952087,-0.4834301,-11.902881,0.08261204,-5.734539,-0.74517727,-2.1908045,-0.8010626,0.5867064
-34.717323,35.275257,6.26217,22.625965,2.2603493,0.55929637,-0.2818293,-0.48723257,-0.8077972,-0.6877401,-0.764987,-0.65845805,0.56742394,0.4539281,0.91188675,-0.93722755,-1.8372779,-1.0819151,1.9425577,1.6453832,-0.8296252,0.952973,-0.8708502,-1.7804,-1.0188785,1.9987148,1.5929438,-0.87185943,-0.7934836,-1.441308,-1.2031244,-1.3477488,-0.97094005,0.4275466,0.31689984,0.1623497,-0.65419006,0.9988161,-3.1258583,-0.46689788,-3.4850924,0.0027198792,-0.55911255,0.8365623,0.846158,-0.09006767,0.15091728,0.5031187,-0.35892892,-0.7260314,-1.332354,1.0,0.0,0.0,0.0,0.0,0.0,0.0,-0.8123497,0.25419006,-0.44881606,-11.892593,-0.4354477,-5.391121,-0.64976215,-0.90076923,-1.0623336,0.41381717
-37.50882,35.88801,6.2891703,23.465118,2.4974627,0.71735716,-0.30971152,-0.56739134,-0.80762446,-0.7192225,-0.76993215,-0.63003266,0.5700952,0.4306851,0.89623386,-0.95161265,-1.8523223,-1.0958717,1.9357115,1.6499534,-0.8287909,0.94407904,-0.88528216,-1.7928207,-1.0324359,1.9891075,1.5971762,-0.8686904,-0.92023903,-1.4444315,-1.2551559,-1.3567758,-0.959005,0.4205817,0.3173148,0.13111496,-0.65885925,0.9632548,-3.122733,-0.46643105,-3.579794,-0.001461029,-0.56629944,0.8230331,0.8470294,-0.07904133,0.15208231,0.5031547,-0.44122657,-0.70649433,-1.3652427,1.0,0.0,0.0,0.0,0.0,0.0,0.0,-0.78111494,0.25885925,-0.4132548,-12.350523,-0.5075216,-5.1766872,-0.40681362,0.6593585,-1.0056555,0.16734004
-43.02967,37.73163,6.580284,26.063875,2.9172053,0.9821961,-0.40320855,-0.65429235,-0.80359405,-0.743748,-0.75451785,-0.59440255,0.5915165,0.39016664,0.87864983,-0.96564156,-1.8671955,-1.1078876,1.9296672,1.6563278,-0.8296737,0.93383086,-0.89972365,-1.8057315,-1.04598,1.9797405,1.6013609,-0.86554897,-1.0585089,-1.4448751,-1.3028568,-1.3518075,-0.9311588,0.41653556,0.31350243,0.099910736,-0.6635208,0.92674726,-3.119611,-0.4659647,-3.6744006,-0.006587982,-0.5732727,0.8092207,0.84813374,-0.06773101,0.15300861,0.50266284,-0.53868115,-0.68221337,-1.3919381,1.0,0.0,0.0,0.0,0.0,0.0,0.0,-0.7499107,0.2635208,-0.37674725,-13.494682,-0.26996136,-4.7008276,1.0280609,2.2042155,-0.7364571,-0.22775531
-44.578773,39.99248,7.115448,26.773266,3.058202,1.1241579,-0.47675997,-0.71928924,-0.79916984,-0.780178,-0.7431038,-0.5663836,0.5947387,0.26808733,0.86190194,-0.9796406,-1.8837494,-1.1202904,1.9231021,1.6608348,-0.8387402,0.92222464,-0.91414225,-1.8191516,-1.0593944,1.9707187,1.6055132,-0.8625382,-1.193553,-1.4416512,-1.3546565,-1.336278,-0.89443153,0.41356316,0.29752794,0.06873703,-0.66817474,0.8892944,-3.116492,-0.46549883,-3.7689128,-0.012714386,-0.5799866,0.79516804,0.8495208,-0.056190614,0.15363286,0.50155145,-0.6406287,-0.65436083,-1.4149939,1.0,0.0,0.0,0.0,0.0,0.0,0.0,-0.718737,0.26817474,-0.33929437,-13.186598,0.08375645,-5.079961,2.0932436,3.087747,-0.65411925,-1.4302552
-41.316784,42.844746,8.504045,25.535713,3.0164177,1.1823977,-0.4884752,-0.76496863,-0.8001101,-0.8014393,-0.73155004,-0.5162917,0.57948613,0.11354537,0.8457278,-0.99415326,-1.8992956,-1.1325494,1.9190896,1.6634618,-0.85118365,0.90940726,-0.9285294,-1.83306,-1.0726047,1.9621681,1.6096293,-0.8597983,-1.3101336,-1.4385717,-1.4026283,-1.3142298,-0.84385604,0.40975103,0.26679268,0.03759384,-0.6728287,0.8508971,-3.1133761,-0.46503344,-3.8633306,-0.019821167,-0.58638763,0.7809095,0.8512044,-0.044482403,0.15386143,0.499799,-0.7376463,-0.62326187,-1.4346873,1.0,0.0,0.0,0.0,0.0,0.0,0.0,-0.6875938,0.27282867,-0.30089706,-11.378789,0.08044243,-4.7016144,2.7215958,4.526937,-0.7376492,-2.8823018
-33.433132,48.841465,11.697468,23.22282,2.747024,1.2119709,-0.4607483,-0.78911424,-0.79680616,-0.8076805,-0.70878303,-0.48936373,0.56138504,-0.07637001,0.83049583,-1.00821,-1.9138281,-1.1434829,1.9132317,1.6657678,-0.86743534,0.89566386,-0.94287455,-1.8473461,-1.085525,1.9541382,1.6136996,-0.85749424,-1.3949652,-1.4338084,-1.4370196,-1.2833301,-0.79094756,0.40513113,0.21904692,0.0064811707,-0.677475,0.8115483,-3.1102633,-0.46456853,-3.958719,-0.027778625,-0.59243774,0.76650625,0.8531608,-0.032715145,0.15363169,0.49743715,-0.81856203,-0.58644956,-1.4472004,0.0,1.0,0.0,0.0,0.0,0.0,0.0,-0.65648115,0.27747497,-0.26154828,-8.273053,0.2908945,-3.3780336,3.5228968,4.883909,-0.7648468,-4.575029
-25.390789,53.929737,14.923533,21.09124,2.5853665,1.243884,-0.41356033,-0.8048714,-0.7975971,-0.80346954,-0.67527676,-0.42029127,0.5477246,-0.20312934,0.8151767,-1.0226343,-1.927693,-1.1530527,1.912109,1.668472,-0.87780714,0.8811616,-0.95708376,-1.8626357,-1.0985825,1.9480315,1.6161408,-0.85620564,-1.4662435,-1.4181237,-1.5525683,-1.3072991,-0.57178557,0.19001353,0.11404638,-0.012676239,-0.67694855,0.80326056,-1.7133017,0.23239131,-0.020833602,-0.036510468,-0.5985489,0.7518195,0.85563815,-0.019966234,0.15221508,0.49428254,-0.89258206,-0.59877163,-1.4799155,0.0,1.0,0.0,0.0,0.0,0.0,0.0,-0.63732374,0.27694854,-0.25326055,-4.855585,0.116848946,-1.3147116,5.203271,5.8749557,-1.7281026,-4.9921064
6.2708497,176.0,110.0,110.0,7.468223,11.235504,-2.149465,-0.7875992,0.5344239,0.70440817,0.6369143,-0.3501932,0.6475354,-0.38703388,0.80240166,-0.90364134,-1.792195,-1.0348911,1.9130123,1.6808944,-0.894909,0.86992633,-0.97384554,-1.8681022,-1.0974286,1.931697,1.6241536,-0.85368127,-1.0007082,-1.6762146,-0.3639085,0.5629617,-1.8437513,1.0814911,0.32579577,-0.0297966,-0.6746292,0.8023079,-1.7115887,0.23215897,-0.12006393,-0.046398163,-0.60230255,0.74141145,0.85798347,-0.016260978,0.1541081,0.4897455,-1.0237167,-0.2876742,-0.90044653,1.0,0.0,0.0,0.0,0.0,0.0,0.0,-0.6202034,0.2746292,-0.2523079,49.111866,0.00021457672,73.058205,179.07596,-84.13489,112.10233,29.329056
-67.76467,135.03098,49.91004,88.37972,9.795074,3.6178567,-2.684052,-0.7836203,-0.6866204,-0.3934052,0.6812214,-0.24206828,0.5569748,-0.40640166,0.7915643,-1.0425075,-1.9074427,-1.0293064,1.9074901,1.679851,-0.89432144,0.8600806,-0.99011046,-1.8695441,-1.0851376,1.9137813,1.6351781,-0.85081834,-0.97740996,-1.6109067,-0.06915718,1.45361,-1.7766097,1.112721,0.2757344,-0.04689789,-0.6723099,0.8003637,-1.7098775,0.23192687,-0.21919505,-0.05838394,-0.60476685,0.7347759,0.8614193,-0.018235391,0.15729637,0.48257855,-1.25553,-0.22190204,-0.58896154,1.0,0.0,0.0,0.0,0.0,0.0,0.0,-0.6031021,0.27230987,-0.2503637,2.8763413,6.2404633,30.025,89.85734,5.983758,4.088998,-4.1916013
-66.29651,141.07144,40.18072,66.426575,6.5906944,2.2309756,-1.9866195,-0.7815725,-0.4526193,-0.45230067,0.7073464,-0.4260094,0.51144266,-0.062983304,0.78192335,-1.0353724,-1.9147742,-1.014403,1.8711803,1.6863223,-0.85711664,0.8496188,-1.0039622,-1.8709155,-1.0675557,1.8981391,1.6458688,-0.8483607,-1.0673705,-1.3113716,-0.15963231,1.8619676,-1.4955145,1.0559481,0.23611382,-0.06398392,-0.66999054,0.79742897,-1.708168,0.23169498,-0.31822705,-0.07210541,-0.60650635,0.73050356,0.8660914,-0.021671042,0.16087306,0.4727959,-1.4094265,-0.15006417,-0.37994024,1.0,0.0,0.0,0.0,0.0,0.0,0.0,-0.58601606,0.26999053,-0.24742895,-8.467746,29.525494,-8.95534,41.51039,27.491688,-5.2467346,-3.8445234
-46.730606,98.67859,25.251049,37.38235,4.0008674,1.1943102,-0.95047075,-0.74601334,-0.5937992,-0.2284483,0.7794731,-0.51189715,0.6003043,-0.11835279,0.77501744,-1.0633421,-1.8937603,-0.98960835,1.8469495,1.7058992,-0.860196,0.83804595,-1.0156065,-1.8732024,-1.0484898,1.8853885,1.6557202,-0.846379,-1.1864372,-1.1166878,-0.2517782,1.9224238,-1.2032788,0.96152246,0.18548977,-0.08105469,-0.6676712,0.79350466,-1.7064602,0.23146333,-0.41716006,-0.08686066,-0.60767365,0.7273807,0.87147176,-0.025011053,0.16436307,0.46140656,-1.4975986,-0.09500721,-0.29661438,1.0,0.0,0.0,0.0,0.0,0.0,0.0,-0.5689453,0.2676712,-0.24350464,-11.647582,19.11869,-9.196213,6.4038515,28.72541,-9.447312,-5.0441236
-25.56821,69.47856,15.080093,15.768382,1.5955913,0.39373758,-0.2177407,-0.74634904,-0.5686814,-0.30362886,0.7556044,-0.47432834,0.623949,-0.17132646,0.76341105,-1.0724747,-1.9035653,-0.97292936,1.8379557,1.7181151,-0.8635116,0.82543075,-1.0258147,-1.8767825,-1.0303357,1.8752013,1.6646771,-0.8449065,-1.2864395,-0.98960185,-0.39342532,1.7798985,-0.9582625,0.8734429,0.13413464,-0.098106384,-0.66535187,0.78859174,-1.7047541,0.23123191,-0.51599413,-0.10203171,-0.6084213,0.7244023,0.87709534,-0.027424917,0.16747402,0.44933733,-1.5231639,-0.057403162,-0.3039415,1.0,0.0,0.0,0.0,0.0,0.0,0.0,-0.5518936,0.26535186,-0.23859173,-9.969997,12.476206,-14.151955,-14.181995,24.145758,-8.883667,-5.241105
-9.183451,59.980854,13.770977,6.039027,0.4296418,0.13610822,0.15664724,-0.7499567,-0.52566266,-0.30712387,0.76505303,-0.45143464,0.60968316,-0.15212032,0.75043505,-1.078381,-1.9074949,-0.95383036,1.8300579,1.7256454,-0.86011857,0.8120841,-1.0351282,-1.8815471,-1.0139592,1.8669235,1.672831,-0.84388417,-1.3508929,-0.9123766,-0.5036333,1.5900705,-0.7856744,0.7957247,0.09122131,-0.11513901,-0.6630478,0.78269124,-1.7030497,0.23100074,-0.6147294,-0.117183685,-0.6088562,0.7211479,0.8826704,-0.028731251,0.17018579,0.43715468,-1.5111195,-0.025996601,-0.33696884,1.0,0.0,0.0,0.0,0.0,0.0,0.0,-0.53486097,0.26304778,-0.23269123,-6.5235376,7.541871,-10.85161,-19.04018,16.842735,-7.8474402,-4.414254
0.006933689,48.600967,11.155418,1.9920208,-0.01818508,-0.17266262,0.2610181,-0.73719996,-0.5354646,-0.35782972,0.77274525,-0.44070202,0.6178057,-0.14495033,0.7383641,-1.0886747,-1.91733,-0.93668467,1.8228532,1.7346116,-0.8583792,0.7984265,-1.044089,-1.8873111,-0.9992057,1.8598682,1.6803079,-0.84322995,-1.3709716,-0.8910133,-0.5998994,1.4370959,-0.6799898,0.7313853,0.056465305,-0.13215637,-0.6607437,0.77580416,-1.701347,0.23076978,-0.713366,-0.13211823,-0.6090851,0.71742195,0.8880809,-0.029003466,0.17254096,0.42508897,-1.4873053,-0.009554522,-0.38775292,0.0,1.0,0.0,0.0,0.0,0.0,0.0,-0.5178436,0.2607437,-0.22580415,-2.0944595,2.009511,-9.421468,-15.342259,10.212445,-6.5089107,-3.5656765
5.815856,45.91369,11.774005,1.7488161,-0.028208017,-0.2358396,0.2618764,-0.72097707,-0.54486454,-0.36035806,0.7739721,-0.44502944,0.6262818,-0.11234411,0.7263288,-1.0985754,-1.9233469,-0.9218085,1.8153652,1.742936,-0.85446435,0.78483665,-1.0531145,-1.893735,-0.98550713,1.8534557,1.6872315,-0.8428504,-1.3552614,-0.9066786,-0.65560025,1.3474393,-0.6294422,0.6790881,0.031595096,-0.14915848,-0.65843964,0.76793146,-1.699646,0.23053905,-0.81190395,-0.14680862,-0.6091919,0.7132126,0.89328915,-0.028473346,0.17459835,0.4132059,-1.4603853,0.0012734643,-0.43472266,0.0,1.0,0.0,0.0,0.0,0.0,0.0,-0.5008415,0.25843963,-0.21793145,1.4890432,-1.6773701,-5.2969337,-8.978033,4.7057033,-5.3126454,-2.541522
6.5983615,44.89043,12.115091,3.242468,0.12122625,-0.21180022,0.22065943,-0.71099794,-0.5620923,-0.36892343,0.7713579,-0.47303352,0.62917984,-0.042022374,0.71373683,-1.1093237,-1.9306273,-0.9083713,1.8061523,1.7501495,-0.84705263,0.77153385,-1.0624682,-1.9004909,-0.9722892,1.8472091,1.6937051,-0.8426272,-1.3222474,-0.9454634,-0.6812943,1.3134633,-0.62425584,0.63647234,0.019142753,-0.16614532,-0.65613556,0.7590741,-1.6979467,0.23030856,-0.91034335,-0.16124725,-0.60920715,0.7085745,0.89828765,-0.0273616,0.17644809,0.40149295,-1.4375305,0.010066135,-0.4761068,0.0,1.0,0.0,0.0,0.0,0.0,0.0,-0.48385465,0.25613555,-0.20907408,3.2378912,-3.9893389,-2.25873,-3.359747,0.17802715,-4.355693,-1.2732267
2.4619951,39.25078,9.834913,5.065034,0.39790002,-0.2499553,0.14709102,-0.70453113,-0.6020543,-0.40555623,0.77298576,-0.47176257,0.6255624,0.009974574,0.70108074,-1.1226736,-1.9410465,-0.8949906,1.8000329,1.7562613,-0.84162974,0.7585753,-1.0723826,-1.9075042,-0.95912087,1.8408862,1.6998067,-0.8424584,-1.2871132,-1.006909,-0.7071882,1.3182975,-0.6359557,0.6009656,0.01613079,-0.18310928,-0.6538315,0.7492301,-1.6962491,0.23007831,-1.009078,-0.17556,-0.60915375,0.7034775,0.90310955,-0.025748322,0.17811872,0.3898768,-1.428725,0.01415875,-0.5232382,0.0,1.0,0.0,0.0,0.0,0.0,0.0,-0.4668907,0.25383148,-0.19923007,3.494668,-6.2508225,-2.3189545,0.6081581,-1.4497995,-3.6738396,-0.2868235
0.34226084,36.922737,8.707609,5.7002096,0.46390396,-0.2307393,0.1263375,-0.690825,-0.63349503,-0.4267071,0.7692859,-0.49074847,0.62411946,0.046550307,0.6894928,-1.135732,-1.9501749,-0.88219225,1.7918113,1.7622186,-0.8378034,0.74595493,-1.0829638,-1.914903,-0.9458599,1.8343432,1.7054203,-0.84217167,-1.253663,-1.0756016,-0.74827576,1.3302785,-0.6605268,0.5505422,0.031122593,-0.20061493,-0.6502075,0.7429614,-1.7551545,0.38629422,-0.5648324,-0.18981934,-0.60912323,0.6978463,0.9077576,-0.023490177,0.17963456,0.3783594,-1.4234061,0.012480503,-0.57837355,0.0,1.0,0.0,0.0,0.0,0.0,0.0,-0.44938505,0.2502075,-0.1929614,3.3826828,-7.066369,-2.6477575,2.0781755,-2.7032971,-3.2723427,0.40825307
-9.595198,65.73669,16.609547,14.214575,0.8817063,0.41365105,-0.031880915,-0.7323879,-0.5264995,-0.4348828,0.7917956,-0.558952,0.61301655,0.10144423,0.67271614,-1.1356138,-1.9583913,-0.8666803,1.778448,1.766722,-0.83202726,0.7333855,-1.0935954,-1.9225823,-0.9323094,1.8273661,1.710708,-0.84178114,-1.2580612,-1.0596348,-0.7727803,1.3637451,-0.71176565,0.52094424,0.041419096,-0.21823883,-0.6460953,0.737435,-1.764609,0.41880536,-0.5514095,-0.20404434,-0.6088486,0.6920695,0.9122368,-0.02078249,0.18139948,0.36672366,-1.4198939,0.04549016,-0.58001375,0.0,1.0,0.0,0.0,0.0,0.0,0.0,-0.43176115,0.24609527,-0.18743497,-0.45480728,1.3796806,-1.9927263,3.4619808,-5.6259274,-3.1269193,0.95230865
-16.658794,74.37016,17.764482,17.859299,1.0993255,0.6075123,-0.10284667,-0.7469261,-0.5075918,-0.5034655,0.795816,-0.56223077,0.59569675,0.15377422,0.6586929,-1.1443546,-1.9729288,-0.8527278,1.7711431,1.7702777,-0.82640374,0.7206158,-1.1038054,-1.930727,-0.9184315,1.8199152,1.7157302,-0.8412615,-1.2833004,-1.0089219,-0.82658195,1.3962524,-0.75831234,0.49526042,0.055067614,-0.23593903,-0.64159393,0.7321345,-1.7723624,0.46092734,-0.5253121,-0.21828079,-0.60814667,0.6863674,0.91654676,-0.017612163,0.1836852,0.35481185,-1.4219967,0.08757221,-0.5694972,0.0,1.0,0.0,0.0,0.0,0.0,0.0,-0.41406095,0.24159393,-0.18213451,-2.5333643,4.8123837,-4.876113,3.3586264,-5.2191973,-2.7908683,1.2457237
-17.377296,88.63505,21.295752,19.96984,1.0692163,0.77940774,-0.09148165,-0.7534673,-0.4348239,-0.55779886,0.80119944,-0.58616424,0.5770662,0.2345394,0.6452691,-1.1472878,-1.9865069,-0.83831155,1.7612988,1.7734368,-0.81780756,0.70754665,-1.1131552,-1.939591,-0.90428394,1.8120561,1.7205232,-0.8405719,-1.3149209,-0.9114445,-0.9041135,1.421039,-0.7977197,0.4732463,0.07290864,-0.25336075,-0.63671875,0.72720116,-1.7324826,0.49592116,-0.48583496,-0.23246384,-0.60697937,0.6809209,0.9206485,-0.01392872,0.18669485,0.34257433,-1.4156477,0.13915336,-0.5388013,0.0,1.0,0.0,0.0,0.0,0.0,0.0,-0.39663923,0.23671874,-0.17720115,-3.2217026,9.43824,-7.110274,2.492404,-4.6471,-2.4274886,1.5708
-18.934374,81.990036,18.42477,18.7932,1.0742103,0.673757,-0.037897877,-0.771397,-0.43397748,-0.61849344,0.7921979,-0.56994855,0.5630387,0.2863932,0.630407,-1.156553,-2.0014403,-0.8250642,1.7550611,1.7768271,-0.81193256,0.69413036,-1.1216372,-1.9493915,-0.89001447,1.8039492,1.7251176,-0.839679,-1.3506922,-0.82809454,-1.0031371,1.4289825,-0.8174422,0.45387056,0.09411036,-0.270401,-0.63153076,0.7225418,-1.6955259,0.52554905,-0.46229544,-0.24663544,-0.6053314,0.67566997,0.92451775,-0.0096323695,0.19036995,0.3300504,-1.4143317,0.18560205,-0.52241826,0.0,1.0,0.0,0.0,0.0,0.0,0.0,-0.37959898,0.23153076,-0.1725418,-3.6343575,8.039331,-9.288478,0.8111954,-2.6641726,-2.2161126,1.9186809
-20.706345,68.985886,13.780578,16.75604,1.0040087,0.5103247,0.015332393,-0.79175746,-0.44219244,-0.68284684,0.7892223,-0.5913062,0.55133903,0.31953475,0.6149546,-1.1658565,-2.017676,-0.81109226,1.7448186,1.7802515,-0.80772555,0.6803412,-1.1295489,-1.9602925,-0.87574524,1.7956617,1.7295381,-0.838566,-1.3884201,-0.7797031,-1.1172684,1.4264209,-0.83461434,0.4370495,0.116438895,-0.28713608,-0.62609863,0.71791613,-1.6667116,0.5485777,-0.464922,-0.260849,-0.60326385,0.67039406,0.92814493,-0.0045865094,0.19454566,0.31729785,-1.4208381,0.22400896,-0.5307649,0.0,1.0,0.0,0.0,0.0,0.0,0.0,-0.3628639,0.22609863,-0.16791612,-3.8030863,4.577327,-10.885191,-0.19204617,-2.3164868,-1.9814312,2.0566642
-16.480595,62.183228,12.293958,13.8591,0.87401354,0.43731368,0.11879533,-0.7935085,-0.44033587,-0.70484424,0.78559643,-0.60561943,0.5518978,0.38940185,0.60099036,-1.1735826,-2.030777,-0.7971856,1.7350998,1.7847278,-0.7996258,0.6662573,-1.1371936,-1.972189,-0.86155075,1.787211,1.7338144,-0.8371984,-1.4152086,-0.7602693,-1.212037,1.4173905,-0.85063314,0.4234419,0.14298597,-0.30359268,-0.62046814,0.7131725,-1.6391217,0.5675943,-0.4790811,-0.27510452,-0.6008835,0.6649443,0.9315006,0.0012125153,0.19903845,0.30444834,-1.4244541,0.2574905,-0.55093765,0.0,1.0,0.0,0.0,0.0,0.0,0.0,-0.3464073,0.22046813,-0.16317248,-2.7216673,1.7100573,-8.947206,-0.8473873,-2.183354,-1.668042,2.495706
-9.880798,69.75493,15.417879,12.666895,0.7819607,0.5724534,0.19679487,-0.79553753,-0.39453954,-0.71615034,0.77523977,-0.6265471,0.58374953,0.422009,0.58670354,-1.1766475,-2.043804,-0.78402674,1.7245562,1.7921894,-0.79499745,0.65199035,-1.1445807,-1.9847947,-0.84750056,1.7785798,1.7379966,-0.83556575,-1.4309005,-0.7322512,-1.2743309,1.4006947,-0.86975557,0.41530776,0.16938192,-0.31969833,-0.6146393,0.7084025,-1.6016114,0.587565,-0.47775835,-0.2892952,-0.59812164,0.6593855,0.9345341,0.0076240157,0.20379166,0.2916449,-1.4134755,0.29430965,-0.5583406,0.0,1.0,0.0,0.0,0.0,0.0,0.0,-0.33030164,0.21463928,-0.1584025,-1.6816378,2.5596023,-5.5416584,-1.7166376,-2.6318908,-1.1396825,2.4460316
-9.484587,53.105713,10.881581,9.760754,0.7955853,0.4039672,0.23859763,-0.80553055,-0.46541455,-0.7379588,0.77290136,-0.62323236,0.5625825,0.44503552,0.5714373,-1.1911222,-2.0585907,-0.77021044,1.7162566,1.7942548,-0.7910622,0.6375994,-1.1520861,-1.997864,-0.8336018,1.769797,1.7421012,-0.83367556,-1.4420446,-0.75734854,-1.3159317,1.3864499,-0.88323146,0.4078249,0.19516583,-0.33551407,-0.60865784,0.703431,-1.5753229,0.6010033,-0.50477064,-0.30344772,-0.595047,0.6535676,0.9372595,0.01458372,0.20856842,0.27898225,-1.4128749,0.32228097,-0.59040344,0.0,1.0,0.0,0.0,0.0,0.0,0.0,-0.3144859,0.20865783,-0.153431,-1.1791468,-2.6945114,-3.618455,-1.377058,-1.9067764,-1.0544598,2.465269
-7.3602695,41.704086,8.184734,7.058323,0.7907891,0.3170026,0.2808022,-0.80496085,-0.51655865,-0.73659885,0.76598835,-0.61461616,0.5852387,0.45652872,0.55710334,-1.203742,-2.071524,-0.75700295,1.7083354,1.8006251,-0.7880227,0.62314934,-1.1601485,-2.0111551,-0.8198346,1.7609385,1.7461622,-0.83154476,-1.4461454,-0.8230156,-1.332219,1.3738279,-0.88833845,0.40457612,0.21890394,-0.3511238,-0.60258484,0.69803905,-1.5570494,0.6090879,-0.55128163,-0.31764603,-0.5917511,0.64729977,0.93971205,0.02201105,0.21309243,0.26654875,-1.4171189,0.34528545,-0.63965625,0.0,1.0,0.0,0.0,0.0,0.0,0.0,-0.29887617,0.20258483,-0.14803904,-0.44679642,-6.7078114,-1.1872768,-1.1497259,-0.9578824,-0.59801936,2.324769
-4.4235644,50.779583,11.1692295,7.896041,0.89295435,0.4677347,0.28258604,-0.8019826,-0.49701235,-0.7262844,0.7719729,-0.6333324,0.5885637,0.5190977,0.5429511,-1.2098497,-2.0837836,-0.7426373,1.6976053,1.8050185,-0.779635,0.6087031,-1.1687449,-2.024438,-0.8061304,1.7520089,1.7501978,-0.8291564,-1.4444969,-0.87253344,-1.3250488,1.3694599,-0.8965069,0.40216857,0.24531856,-0.36648178,-0.596405,0.69230396,-1.5291599,0.6205521,-0.58187366,-0.33181,-0.5881882,0.6406656,0.94189256,0.029769443,0.21733987,0.25439236,-1.41288,0.3733448,-0.672173,0.0,1.0,0.0,0.0,0.0,0.0,0.0,-0.2835182,0.19640502,-0.14230394,0.08122921,-5.1144958,1.2962103,-0.385952,-1.3941884,-0.53122044,2.5761962
-1.392036,50.347015,11.379307,6.8344283,0.91491634,0.44803345,0.3042634,-0.79411155,-0.5434291,-0.7139956,0.7656824,-0.61751556,0.5833195,0.5349958,0.5292919,-1.2230878,-2.0958374,-0.72956216,1.6902573,1.8085297,-0.7756568,0.59432447,-1.1779097,-2.0375338,-0.79246515,1.7430595,1.7542125,-0.82651746,-1.4359579,-0.93146735,-1.3022785,1.3657353,-0.8963536,0.4002037,0.2700048,-0.3815689,-0.5901413,0.686234,-1.502222,0.62853,-0.6150524,-0.34592438,-0.5843506,0.63369405,0.9438166,0.037752505,0.22124296,0.24256244,-1.4059389,0.39946178,-0.7061937,0.0,1.0,0.0,0.0,0.0,0.0,0.0,-0.26843107,0.19014129,-0.13623399,0.7605791,-6.045687,2.8691053,-0.32510757,-0.5678654,-0.4929483,2.425772
-1.678009,45.70689,9.818874,5.92915,0.86697364,0.38554847,0.3104422,-0.79509073,-0.59103286,-0.71933717,0.7591102,-0.61444396,0.5442118,0.5464413,0.5148154,-1.237013,-2.1094675,-0.7165541,1.6816151,1.8086337,-0.77187335,0.58002603,-1.1877459,-2.0504277,-0.77884775,1.7341353,1.7581813,-0.82364875,-1.4279546,-1.0013326,-1.2834337,1.360642,-0.8929613,0.39450875,0.29259348,-0.39640808,-0.58380127,0.67975676,-1.4774342,0.6366796,-0.65942514,-0.35997772,-0.58026123,0.62632036,0.94551206,0.045961384,0.22472058,0.23107392,-1.4009961,0.42305148,-0.74878526,0.0,1.0,0.0,0.0,0.0,0.0,0.0,-0.2535919,0.18380126,-0.12975675,0.72779655,-7.124388,2.4151325,-0.4233122,-0.18730164,-0.8750677,2.2492409
-1.2744315,49.041832,10.603281,6.4417257,0.9345632,0.45311618,0.29613602,-0.7909356,-0.61149436,-0.6999212,0.76274526,-0.6170055,0.53840005,0.5757699,0.50093246,-1.2488954,-2.1204197,-0.70257324,1.6724347,1.8120214,-0.76607174,0.5658096,-1.1982268,-2.0630922,-0.765256,1.7252394,1.7620925,-0.82055974,-1.4198534,-1.0641799,-1.2586589,1.3589786,-0.8902896,0.3888434,0.31439558,-0.41099167,-0.5774002,0.6728701,-1.4520707,0.6414579,-0.6981184,-0.37397003,-0.575943,0.6185642,0.9469936,0.054371107,0.22777377,0.21992247,-1.3932637,0.4489188,-0.78566766,0.0,1.0,0.0,0.0,0.0,0.0,0.0,-0.23900831,0.1774002,-0.12287009,0.72476864,-6.4317703,3.0597448,-0.09286404,-0.31018257,-0.8874953,2.1713853
-0.1443224,56.72314,12.460124,7.510502,1.0275438,0.5464865,0.27451375,-0.7844213,-0.6164703,-0.68863964,0.76180786,-0.6069055,0.5176462,0.5915416,0.48736748,-1.2598739,-2.131956,-0.68907523,1.6645489,1.8138571,-0.7614056,0.5516819,-1.2091826,-2.075509,-0.75167567,1.716399,1.7659338,-0.81726426,-1.4107968,-1.1068187,-1.2332932,1.3577576,-0.8843173,0.3813401,0.33451453,-0.42526627,-0.5709381,0.66568077,-1.4199044,0.6474637,-0.7257485,-0.3878479,-0.5713196,0.61053467,0.9482657,0.062932126,0.2304612,0.20909141,-1.3794521,0.47724554,-0.8100395,0.0,1.0,0.0,0.0,0.0,0.0,0.0,-0.22473371,0.1709381,-0.115680754,0.78759193,-4.4288397,3.2232285,-0.103354454,-0.09826422,-1.0682642,1.9668996
3.6287475,63.208874,14.519424,7.6633625,1.1536374,0.6112559,0.26263684,-0.76804054,-0.6326842,-0.6521076,0.76277983,-0.57252014,0.49777266,0.59858847,0.47487783,-1.272451,-2.14072,-0.6753977,1.6591469,1.815711,-0.7574054,0.5376981,-1.2204741,-2.0875556,-0.7381001,1.7077177,1.7696911,-0.8137854,-1.3947674,-1.1370986,-1.1924324,1.3572727,-0.865501,0.372755,0.3521188,-0.43917847,-0.56443787,0.658289,-1.3827014,0.6509555,-0.74246,-0.4015274,-0.56643677,0.6023573,0.9493462,0.0715235,0.23278345,0.19858982,-1.3586608,0.50570184,-0.82168055,0.0,1.0,0.0,0.0,0.0,0.0,0.0,-0.21082151,0.16443786,-0.108289,1.4447212,-3.2002687,4.883504,-0.09548664,1.0691285,-1.1745751,1.6980648
8.319563,69.7133,16.16853,7.2040067,1.0354247,0.61330664,0.28853184,-0.74985343,-0.62682486,-0.6512916,0.74831975,-0.56750065,0.45073843,0.60710084,0.46271273,-1.2831566,-2.1526847,-0.66326815,1.6509676,1.814765,-0.7530753,0.52393466,-1.2319163,-2.0992515,-0.72459984,1.6992335,1.7733344,-0.81014717,-1.3708895,-1.1471423,-1.1592187,1.3472345,-0.8458071,0.36033243,0.36741713,-0.45264816,-0.55791473,0.6507998,-1.3359797,0.65286076,-0.75021154,-0.4149208,-0.5612869,0.5941305,0.95023066,0.08011323,0.23479664,0.18845151,-1.3264158,0.5298935,-0.82442844,0.0,1.0,0.0,0.0,0.0,0.0,0.0,-0.19735181,0.15791473,-0.1007998,2.1870375,-1.1810541,4.2144537,-1.1351824,1.0555863,-1.5513241,1.4188826
5.5018654,72.06094,15.718311,8.271065,1.0554318,0.577173,0.2873019,-0.75926274,-0.62181467,-0.6661506,0.7248944,-0.55424047,0.31960332,0.6292117,0.4480084,-1.2940978,-2.1658666,-0.6521104,1.6438094,1.8052948,-0.747226,0.5103286,-1.243349,-2.110783,-0.71130747,1.6909493,1.776764,-0.8063603,-1.3578892,-1.1423615,-1.148225,1.3226722,-0.8256388,0.3360386,0.3820769,-0.46566772,-0.5513916,0.64323056,-1.2901723,0.65268207,-0.757858,-0.4280014,-0.5558853,0.58588314,0.95091456,0.08881296,0.2365478,0.17865847,-1.2951831,0.55337036,-0.82611537,0.0,1.0,0.0,0.0,0.0,0.0,0.0,-0.18433225,0.1513916,-0.093230546,1.1039972,0.2960682,1.9970894,-2.5912285,1.0835409,-2.7615607,1.346606
6.470424,79.1858,17.519386,9.572878,1.4084622,0.6169919,0.2537834,-0.7494266,-0.6053947,-0.62481135,0.7111907,-0.4668268,0.21252133,0.6427173,0.43538594,-1.3038884,-2.1732643,-0.6401884,1.6442666,1.7980162,-0.74208856,0.49683887,-1.2546176,-2.1221008,-0.69830966,1.683086,1.7798823,-0.802434,-1.3467513,-1.1221308,-1.1229146,1.2915436,-0.77659655,0.30249846,0.39585796,-0.47820663,-0.5448837,0.63565266,-1.2415383,0.65005416,-0.7559951,-0.440773,-0.5502472,0.57773167,0.95143497,0.097551405,0.23797044,0.1691896,-1.2635405,0.5782856,-0.81261444,0.0,1.0,0.0,0.0,0.0,0.0,0.0,-0.17179334,0.14488372,-0.08565265,0.8878231,1.8327713,3.5395384,-3.3006668,3.8535595,-3.711933,1.262784
4.7368283,81.43324,17.409657,10.471914,1.5351173,0.5019918,0.24343151,-0.7556641,-0.5896072,-0.6217212,0.67699057,-0.43777105,-0.09755398,0.6481253,0.42127246,-1.3135782,-2.184273,-0.6306106,1.6393089,1.7701269,-0.7376215,0.4833898,-1.2656115,-2.1331897,-0.68572867,1.675755,1.7824554,-0.7983813,-1.345014,-1.0923476,-1.1012737,1.2462369,-0.7220226,0.240917,0.40806398,-0.4902649,-0.538414,0.6280894,-1.1935272,0.64566994,-0.7543378,-0.45323944,-0.54437256,0.56974375,0.9518261,0.106365465,0.23898044,0.16000523,-1.2346138,0.6005697,-0.7953721,0.0,1.0,0.0,0.0,0.0,0.0,0.0,-0.15973508,0.138414,-0.078089416,-0.051426888,2.7906418,3.1895876,-4.727483,4.367435,-6.516713,1.1032581
8.2691345,81.99112,18.083828,9.12002,1.9004279,0.39291728,0.27700523,-0.7520723,-0.57500654,-0.58654875,0.6030117,-0.19983411,-0.37660176,0.66466266,0.40818256,-1.3231121,-2.1918445,-0.6254275,1.6557716,1.7447953,-0.73191506,0.46994394,-1.2762812,-2.1439545,-0.6738725,1.669592,1.7842354,-0.7942082,-1.3452439,-1.058927,-1.0650984,1.1645824,-0.5846119,0.15569745,0.42027512,-0.5018692,-0.5319977,0.6205204,-1.1488758,0.63946146,-0.75582117,-0.4654503,-0.53829956,0.5619721,0.95219415,0.11512127,0.23922445,0.15114576,-1.2087991,0.62005246,-0.77206355,0.0,1.0,0.0,0.0,0.0,0.0,0.0,-0.14813077,0.13199767,-0.0705204,-0.26135445,3.1802177,4.634857,-8.408046,12.650967,-8.908587,1.1540949
19.648502,85.12701,21.100918,6.3426895,2.3610942,0.47059536,0.29465213,-0.7266917,-0.5705529,-0.4514828,0.5411094,0.023306075,-0.44148362,0.64893603,0.39727476,-1.3333365,-2.189103,-0.6197615,1.6719227,1.740087,-0.7293146,0.45660204,-1.2866648,-2.1537845,-0.6630185,1.665362,1.7851721,-0.789936,-1.3314363,-1.0319749,-0.9521368,1.0579003,-0.37258527,0.07176275,0.42956614,-0.5130081,-0.5256653,0.612989,-1.1008387,0.6303545,-0.74986994,-0.4773445,-0.5320587,0.55455804,0.95270616,0.123294845,0.23827456,0.14273967,-1.1761379,0.63634753,-0.73195034,0.0,1.0,0.0,0.0,0.0,0.0,0.0,-0.13699186,0.12566528,-0.062989,1.1023521,2.5699854,12.383234,-10.996771,20.085037,-8.780423,0.9142101
23.118793,80.673256,20.96312,4.164049,2.5878663,0.52060664,0.31206924,-0.73307246,-0.5771709,-0.36027107,0.45361453,0.20963463,-0.4995836,0.6382471,0.3832948,-1.3443819,-2.1898117,-0.61765707,1.6863254,1.7352138,-0.7261113,0.44336885,-1.296894,-2.1621459,-0.6534484,1.6635672,1.7853119,-0.7855903,-1.321431,-1.0201479,-0.7944438,0.92230135,-0.11817604,-0.0063553243,0.43636885,-0.5237007,-0.51943207,0.6054677,-1.057507,0.6205759,-0.75092196,-0.48891068,-0.5256424,0.54753435,0.9535116,0.13045093,0.23580429,0.1348871,-1.1448584,0.6523936,-0.69322705,0.0,1.0,0.0,0.0,0.0,0.0,0.0,-0.12629926,0.11943206,-0.055467665,0.7525444,1.0938644,16.737389,-13.858402,24.46733,-8.15419,0.7107079
35.428078,90.373695,25.211996,2.34585,2.6495235,0.7552281,0.3499464,-0.70981944,-0.5465951,-0.15302157,0.3637622,0.25825998,-0.5195646,0.6227957,0.3723869,-1.3515534,-2.177448,-0.61707217,1.6893932,1.7333555,-0.7233107,0.4303164,-1.3069361,-2.1682107,-0.6453975,1.6640754,1.7847495,-0.781199,-1.3007332,-0.9990178,-0.5404818,0.7647581,0.10409557,-0.07360154,0.43996987,-0.533844,-0.5133438,0.5981162,-0.9989625,0.603713,-0.7281574,-0.5000191,-0.5190964,0.54106647,0.9546823,0.13615067,0.23179306,0.12773673,-1.0925963,0.6619263,-0.6319635,0.0,1.0,0.0,0.0,0.0,0.0,0.0,-0.11615598,0.113343805,-0.048116207,1.8005371,2.045405,26.415562,-16.118885,21.257534,-6.953949,0.347054
44.433075,106.314156,31.712278,3.9130363,3.6344662,1.1505901,0.24442485,-0.7003892,-0.53327453,0.21367688,0.2947752,0.41752627,-0.53299594,0.62310624,0.36027747,-1.3602636,-2.146843,-0.61591995,1.705828,1.73145,-0.71888834,0.417488,-1.3167437,-2.1704118,-0.63891053,1.666793,1.7835921,-0.7767778,-1.2776792,-0.97496873,-0.10989452,0.6088557,0.3246783,-0.13023414,0.44284722,-0.543293,-0.5074692,0.59126353,-0.92655915,0.58251244,-0.6702672,-0.5105324,-0.5124359,0.535557,0.9563662,0.13957852,0.22616439,0.12137239,-1.0318705,0.6765363,-0.5249016,0.0,1.0,0.0,0.0,0.0,0.0,0.0,-0.10670698,0.10746917,-0.04126352,2.0614147,2.3378015,44.096184,-15.939236,21.139944,-5.7818785,0.27776957
47.071507,93.85976,28.620035,-0.6522734,3.027729,0.9843674,0.40512985,-0.6996875,-0.5453928,0.31003943,0.12807602,0.5814045,-0.60628384,0.6444629,0.34751925,-1.371283,-2.1394079,-0.6261029,1.7249334,1.7229637,-0.71233153,0.40485135,-1.3264178,-2.1684737,-0.63435495,1.6717348,1.7818949,-0.7723176,-1.2594068,-0.9649777,0.2971763,0.40377575,0.54890484,-0.18276048,0.44706824,-0.552063,-0.5018234,0.58485806,-0.8606028,0.5589294,-0.6300905,-0.5204201,-0.5056915,0.5309154,0.9586013,0.14058012,0.21881299,0.1159381,-0.9700031,0.68107986,-0.4451442,0.0,1.0,0.0,0.0,0.0,0.0,0.0,-0.09793699,0.10182342,-0.034858048,1.6945124,0.93711615,41.354187,-20.698393,21.879673,-5.228204,0.42455792
45.315426,104.69911,27.494267,0.052697062,1.8356081,0.8813006,0.5834961,-0.695979,-0.39693123,0.20911212,-0.06326063,0.63970584,-0.600492,0.63903314,0.33525345,-1.3661109,-2.1475625,-0.640681,1.7357054,1.7218457,-0.70841426,0.39236012,-1.3353575,-2.1639807,-0.63233125,1.6786689,1.7797512,-0.7678247,-1.2459227,-0.8703768,0.50059783,0.13506182,0.7410562,-0.22406875,0.44995025,-0.5600853,-0.49647522,0.57896227,-0.78346527,0.5262466,-0.57715195,-0.529541,-0.49900055,0.52699196,0.9611435,0.13987568,0.21022557,0.11154829,-0.8894852,0.6710012,-0.37624422,0.0,1.0,0.0,0.0,0.0,0.0,0.0,-0.08991468,0.096475214,-0.028962255,1.2888908,9.401072,20.529234,-26.936308,19.131828,-3.8799138,0.25866628
38.91719,118.64986,28.198399,4.8842773,1.5582004,0.91278976,0.52794003,-0.6941775,-0.30449936,0.28463098,-0.15318833,0.66321176,-0.5554498,0.6261426,0.32294238,-1.3658075,-2.1355176,-0.64765006,1.74499,1.7242062,-0.70521045,0.37996617,-1.3429488,-2.1582139,-0.63290364,1.687161,1.7772915,-0.7633147,-1.2371393,-0.72225523,0.6011788,-0.12115454,0.88634336,-0.25196153,0.45132235,-0.567276,-0.49150085,0.5737584,-0.69912785,0.488868,-0.50384,-0.5378418,-0.49240112,0.5238386,0.9637605,0.13806456,0.20102972,0.10812376,-0.8056527,0.6589306,-0.29670924,0.0,1.0,0.0,0.0,0.0,0.0,0.0,-0.082723975,0.09150085,-0.023758411,0.906682,14.795589,9.80947,-25.562328,14.920592,-2.3842545,0.13400912
28.943586,115.2395,25.912567,6.9876842,1.4130917,0.9037335,0.49621254,-0.72222686,-0.26741737,0.3760065,-0.29206216,0.7039145,-0.5370863,0.59964293,0.3077435,-1.3696905,-2.120613,-0.66210985,1.7575524,1.7235829,-0.7033504,0.36749402,-1.3490752,-2.151699,-0.63601875,1.6968162,1.7746137,-0.7588123,-1.250252,-0.57617575,0.6662776,-0.37449202,0.99425316,-0.2715347,0.45006573,-0.5736809,-0.48687744,0.5692335,-0.62235755,0.4544212,-0.4377257,-0.54535294,-0.48591614,0.52139515,0.9663455,0.13547273,0.1915209,0.10556155,-0.73144484,0.65171885,-0.22833961,0.0,1.0,0.0,0.0,0.0,0.0,0.0,-0.0763191,0.086877435,-0.019233465,-1.2102365,14.639306,5.908537,-25.180738,11.532486,-1.50823,-0.06443262
24.109083,116.84373,25.67794,8.836916,1.3664801,0.9399346,0.45125175,-0.7315743,-0.1878729,0.43142825,-0.41700554,0.7338709,-0.50110775,0.57427853,0.2943366,-1.3678625,-2.1085563,-0.6777193,1.7702034,1.7245029,-0.7013844,0.35482445,-1.3537215,-2.1446235,-0.6415685,1.7073255,1.7718021,-0.75434214,-1.2720286,-0.42707032,0.7184558,-0.6144404,1.0731684,-0.28275847,0.44640124,-0.57933426,-0.48259735,0.5654001,-0.5478637,0.42047977,-0.3677611,-0.55215454,-0.4794693,0.51963735,0.9688416,0.13225693,0.18188849,0.10378091,-0.6608493,0.6468186,-0.15918098,0.0,1.0,0.0,0.0,0.0,0.0,0.0,-0.07066572,0.082597345,-0.015400112,-2.018571,14.992226,4.325676,-23.781574,8.943963,-0.6176889,-0.25774837
32.201073,84.54385,20.112349,0.12853199,0.51660836,0.52654773,0.5677235,-0.6950326,-0.25955918,0.5245047,-0.50975513,0.75230277,-0.45946622,0.5788142,0.28532118,-1.3796774,-2.092173,-0.692544,1.7825557,1.7258555,-0.6964607,0.3421282,-1.3575972,-2.1367733,-0.6492824,1.7184105,1.7689316,-0.74990696,-1.2682619,-0.3740719,0.8044614,-0.8230632,1.1234592,-0.2867752,0.4429817,-0.58436966,-0.47863007,0.56194144,-0.49003637,0.38926852,-0.34098777,-0.5582886,-0.47318268,0.51818186,0.9712631,0.12842911,0.17197105,0.10285886,-0.596165,0.62499875,-0.14169021,0.0,1.0,0.0,0.0,0.0,0.0,0.0,-0.06563032,0.07863006,-0.011941433,0.5337,5.3773403,7.733977,-20.665276,6.01871,0.060349703,-0.21770597
35.360603,46.342358,12.368051,-7.5553236,-0.25565812,-0.0023782253,0.61053425,-0.6649928,-0.35216662,0.5563517,-0.55578965,0.76453334,-0.40910503,0.58663964,0.2756289,-1.3928139,-2.0811381,-0.70486134,1.7948638,1.7280211,-0.691243,0.32966033,-1.3617667,-2.1280308,-0.6586572,1.72981,1.7660723,-0.74549997,-1.2392168,-0.43123537,0.8954821,-0.9750904,1.1474553,-0.28471506,0.4403403,-0.5889969,-0.47492218,0.5583185,-0.45450962,0.36448783,-0.37172353,-0.5639076,-0.46722412,0.51642597,0.97363216,0.1240546,0.16148415,0.10282771,-0.54775965,0.5901056,-0.18742813,0.0,1.0,0.0,0.0,0.0,0.0,0.0,-0.06100309,0.074922174,-0.008318484,3.02217,-5.687237,8.496607,-15.046597,3.0382872,0.52767396,-0.13570786
27.605953,53.336487,13.432181,-1.4259262,0.31149644,0.040063143,0.3362917,-0.64783293,-0.31251916,0.5866481,-0.51928157,0.75674045,-0.29965714,0.59902537,0.26487702,-1.3930186,-2.069366,-0.71058536,1.805484,1.7361065,-0.6855974,0.31757203,-1.3665236,-2.1184447,-0.6688138,1.7413063,1.7633181,-0.74110633,-1.1982312,-0.49020633,0.9772779,-1.0285972,1.1526421,-0.27122766,0.4395155,-0.5932884,-0.4714508,0.5544732,-0.4218367,0.34246838,-0.39040703,-0.56915283,-0.46152496,0.5143303,0.9759292,0.119142525,0.15057579,0.103411965,-0.5149632,0.56591284,-0.21710882,0.0,1.0,0.0,0.0,0.0,0.0,0.0,-0.056711555,0.0714508,-0.0044732094,4.2438984,-5.830902,7.4970484,-5.1877737,1.2467861,1.6581655,0.05735755
27.400593,49.925976,12.895624,-0.68781894,0.3585276,-0.03125325,0.21928325,-0.6036917,-0.36228997,0.6255978,-0.5144823,0.7603753,-0.15778704,0.59272516,0.25720286,-1.4027526,-2.0558848,-0.72026205,1.8173438,1.7475394,-0.6818338,0.3060402,-1.3720244,-2.1080885,-0.6790468,1.7527893,1.7608023,-0.7367223,-1.1376913,-0.5699675,1.0531815,-1.0210624,1.1489698,-0.24397896,0.4384136,-0.5972862,-0.46818542,0.5504182,-0.39351267,0.32192367,-0.41198558,-0.574131,-0.45606995,0.5119091,0.9781349,0.11365986,0.1394058,0.104400456,-0.48968348,0.5418199,-0.25052667,0.0,1.0,0.0,0.0,0.0,0.0,0.0,-0.05271375,0.06818542,-0.0004181862,6.1954975,-7.907307,6.9905043,0.90408325,0.27794838,3.005269,0.034230947
36.953785,39.926376,11.341425,-5.7427464,-0.3207571,-0.1954337,0.31368914,-0.5356642,-0.43167827,0.6308287,-0.54485816,0.76328915,0.07411351,0.5981728,0.25247377,-1.4151922,-2.0450056,-0.7335326,1.8291181,1.7682136,-0.67690504,0.29533187,-1.378496,-2.0971568,-0.68914056,1.7642115,1.7587231,-0.73234487,-1.0481551,-0.6728483,1.1051242,-1.0049559,1.1415058,-0.19503394,0.43811774,-0.601017,-0.4651413,0.5460437,-0.36691716,0.29932615,-0.44727767,-0.57878494,-0.45095062,0.5089995,0.98021615,0.10762886,0.12802133,0.10584352,-0.45619568,0.502829,-0.304338,0.0,1.0,0.0,0.0,0.0,0.0,0.0,-0.048982978,0.06514129,0.003956318,9.07197,-10.251117,4.782057,1.7645359,-0.299716,5.148834,0.13794899
56.25073,50.263245,15.580264,-9.193566,-0.9283481,-0.28886655,0.3633912,-0.40928316,-0.44152007,0.65684384,-0.48894218,0.75087005,0.29039925,0.5994665,0.25440356,-1.4226481,-2.0314724,-0.7380348,1.8392985,1.7877631,-0.6723982,0.2859663,-1.385847,-2.0857933,-0.69879025,1.7755437,1.7572776,-0.72796845,-0.898891,-0.7556608,1.1455067,-0.9510631,1.132163,-0.12648511,0.43804342,-0.60440445,-0.4623947,0.541502,-0.3300251,0.26659954,-0.45763025,-0.5829506,-0.44641113,0.5056844,0.98212266,0.100995615,0.11663634,0.10784691,-0.40129924,0.43912318,-0.34034163,0.0,1.0,0.0,0.0,0.0,0.0,0.0,-0.045595527,0.06239471,0.008498013,15.0666,-8.227897,3.6376,5.576575,-0.42135715,7.231757,0.16636848
81.97035,51.149357,18.11837,-16.940905,-1.9688814,-0.68623674,0.5198075,-0.25005028,-0.49765548,0.676828,-0.44490448,0.7429728,0.3391399,0.593004,0.2609613,-1.4356126,-2.0181105,-0.7432807,1.849841,1.7911916,-0.66866803,0.27862343,-1.3940371,-2.0740783,-0.70773,1.7867762,1.7565144,-0.72359866,-0.6789663,-0.8398782,1.179672,-0.87410647,1.1216402,-0.058159783,0.43715096,-0.6073723,-0.46006012,0.5369122,-0.28642038,0.22248593,-0.4600684,-0.58639145,-0.44280243,0.50201553,0.98380804,0.09373836,0.105370484,0.11059811,-0.32302892,0.337173,-0.37529466,0.0,1.0,0.0,0.0,0.0,0.0,0.0,-0.042627692,0.060060114,0.013087809,22.130049,-8.399987,3.2010317,7.9248905,-0.674057,7.2605147,0.074630976
73.927155,76.70053,22.956444,-10.141535,-1.6163124,-0.44936955,0.40859455,-0.20373635,-0.42343095,0.64145976,-0.42867297,0.7419274,0.36746603,0.57550764,0.2582498,-1.4363803,-2.0099323,-0.7505973,1.860969,1.793261,-0.6660479,0.27334723,-1.4024867,-2.0623136,-0.71593636,1.7979361,1.7563906,-0.71924794,-0.47651127,-0.8465018,1.1738334,-0.8017075,1.116276,0.004536073,0.43507123,-0.60988617,-0.45816803,0.5325578,-0.23927216,0.17839795,-0.42685062,-0.58903503,-0.4401474,0.49831036,0.9852277,0.08598754,0.09449629,0.11402992,-0.24408032,0.24431227,-0.36896276,0.0,1.0,0.0,0.0,0.0,0.0,0.0,-0.040113807,0.058168024,0.017442226,20.441013,-0.6004572,-0.9697914,7.584131,0.06260872,6.793372,0.00846982
