Afshin1997/kuka_rl_ros2/src/catch_and_throw/input_files/idealpd/polynomial_regressor/optimizer_files/env_253_data.csv
torque0,torque1,torque2,torque3,torque4,torque5,torque6,action0,action1,action2,action3,action4,action5,action6,set_target_0,set_target_1,set_target_2,set_target_3,set_target_4,set_target_5,set_target_6,joint_pos_0,joint_pos_1,joint_pos_2,joint_pos_3,joint_pos_4,joint_pos_5,joint_pos_6,joint_vel_0,joint_vel_1,joint_vel_2,joint_vel_3,joint_vel_4,joint_vel_5,joint_vel_6,tennisball_pos_0,tennisball_pos_1,tennisball_pos_2,tennisball_lin_vel_0,tennisball_lin_vel_1,tennisball_lin_vel_2,end_effector_pos_0,end_effector_pos_1,end_effector_pos_2,end_effector_rot_0,end_effector_rot_1,end_effector_rot_2,end_effector_rot_3,end_effector_lin_vel_0,end_effector_lin_vel_1,end_effector_lin_vel_2,obs_task_0,obs_task_1,obs_task_2,obs_task_3,obs_task_4,obs_task_5,obs_task_6,to_final_target_0,to_final_target_1,to_final_target_2,joint_acc_0,joint_acc_1,joint_acc_2,joint_acc_3,joint_acc_4,joint_acc_5,joint_acc_6
0.0,0.0,0.0,0.0,0.0,0.0,0.0,0.0,0.0,0.0,0.0,0.0,0.0,0.0,1.7802359,-1.0646509,-1.8151424,-1.1170107,1.9373155,1.1170107,-0.91629785,1.7802359,-1.0646509,-1.8151424,-1.1170107,1.9373155,1.1170107,-0.91629785,0.0,0.0,0.0,0.0,0.0,0.0,0.0,3.2245886,-0.24955606,0.24439754,-3.2853177,-0.46422383,5.6436453,0.5304168,-0.4544952,0.693097,0.5745483,0.17512383,0.15255436,0.7848268,0.0,0.0,0.0,1.0,0.0,0.0,0.0,0.0,0.0,0.0,-3.8745885,-0.15044394,0.3056025,0.0,0.0,0.0,0.0,0.0,0.0,0.0
0.0,0.0,0.0,0.0,0.0,0.0,0.0,0.0,0.0,0.0,0.0,0.0,0.0,0.0,1.7802359,-1.0646509,-1.8151424,-1.1170107,1.9373155,1.1170107,-0.91629785,1.7802359,-1.0646509,-1.8151424,-1.1170107,1.9373155,1.1170107,-0.91629785,0.0,0.0,0.0,0.0,0.0,0.0,0.0,3.2245886,-0.24955606,0.24439754,-3.2853177,-0.46422383,5.6436453,0.5304168,-0.4544952,0.693097,0.5745483,0.17512383,0.15255436,0.7848268,0.0,0.0,0.0,1.0,0.0,0.0,0.0,0.0,0.0,0.0,-3.8745885,-0.15044394,0.3056025,0.0,0.0,0.0,0.0,0.0,0.0,0.0
0.0,0.0,0.0,0.0,0.0,0.0,0.0,0.0,0.0,0.0,0.0,0.0,0.0,0.0,1.7802359,-1.0646509,-1.8151424,-1.1170107,1.9373155,1.1170107,-0.91629785,1.7802359,-1.0646509,-1.8151424,-1.1170107,1.9373155,1.1170107,-0.91629785,0.0,0.0,0.0,0.0,0.0,0.0,0.0,3.2245886,-0.24955606,0.24439754,-3.2853177,-0.46422383,5.6436453,0.5304168,-0.4544952,0.693097,0.5745483,0.17512383,0.15255436,0.7848268,0.0,0.0,0.0,1.0,0.0,0.0,0.0,0.0,0.0,0.0,-3.8745885,-0.15044394,0.3056025,0.0,0.0,0.0,0.0,0.0,0.0,0.0
-176.0,72.29482,-3.889408,110.0,10.332233,4.9225984,-3.8784306,-0.7945274,0.35089642,-0.51581115,0.73866,0.065123275,0.6712208,-0.58214056,1.7007831,-1.0295613,-1.8667235,-1.0431447,1.9438277,1.1841328,-0.9745119,1.7787501,-1.062692,-1.8200767,-1.1123949,1.9403119,1.1212889,-0.9170131,-0.19801232,0.26067108,-0.6575514,0.61551356,0.39885348,0.5691968,-0.09511989,3.19176,-0.25419497,0.3000552,-3.282033,-0.4637597,5.5398164,0.52843106,-0.457412,0.69389236,0.577966,0.1737012,0.15175918,0.7827849,-0.264538,-0.38898438,0.1058192,1.0,0.0,0.0,0.0,0.0,0.0,0.0,-3.8417602,-0.14580503,0.2499448,-19.741758,25.908432,-65.63308,61.63129,39.7262,56.540764,-9.442534
-176.0,-33.571068,-48.38808,110.0,12.440692,1.3632896,-3.6635644,-0.80380523,-0.16521369,-0.5710466,0.7135416,0.14023864,0.6497077,-0.60186344,1.6983695,-1.0792134,-1.8771814,-1.0410408,1.9543358,1.1862596,-0.97719944,1.7771555,-1.0601228,-1.8343799,-1.0987631,1.947907,1.1340166,-0.9172296,-0.14405496,0.2542589,-1.6906626,1.6154526,0.8806552,1.5028276,0.0060404055,3.1589644,-0.25882912,0.35467538,-3.2787516,-0.46329603,5.4360914,0.52396554,-0.46531987,0.69459546,0.5859328,0.17014174,0.14901932,0.77815664,-0.50828993,-0.92389,0.058615293,1.0,0.0,0.0,0.0,0.0,0.0,0.0,-3.8089643,-0.14117089,0.19532463,6.121254,-1.0075212,-104.105545,100.928116,48.467266,92.080475,11.075639
-163.58418,100.95052,26.488852,95.224754,9.098644,7.662565,-1.9932369,-0.7508462,0.18207572,0.13152294,0.66913855,0.29724905,0.6697203,-0.52419823,1.702071,-1.0419153,-1.8212277,-1.0318493,1.9776319,1.2009887,-0.96964943,1.7725855,-1.0572847,-1.8492877,-1.0806586,1.9569001,1.1490065,-0.917489,-0.5609804,0.2906374,-1.4182527,1.8771,0.90060604,1.4917507,-0.037127893,3.1262014,-0.2634585,0.40825906,-3.2754736,-0.46283284,5.33247,0.5166636,-0.47623587,0.6966649,0.5967984,0.16497461,0.1447872,0.7717848,-0.8107943,-1.1408502,0.26009676,1.0,0.0,0.0,0.0,0.0,0.0,0.0,-3.7762012,-0.13654152,0.14174095,-41.654152,2.7564228,28.97501,26.670242,0.49840212,-2.8951168,-4.48633
-109.88344,93.61333,36.097187,59.99,6.26873,7.635875,-0.26240548,-0.7668304,-0.023002269,0.26071548,0.6693055,0.34368134,0.6414579,-0.581805,1.6959025,-1.059585,-1.8232162,-1.013728,1.9912683,1.2131523,-0.9756695,1.7637888,-1.0551904,-1.8583896,-1.0623118,1.9652562,1.163016,-0.9182758,-0.98635775,0.18043703,-0.73408437,1.8215988,0.80834204,1.3672775,-0.09332158,3.0934713,-0.26808333,0.46080732,-3.272199,-0.4623701,5.2289524,0.50677395,-0.48822045,0.7004519,0.6086155,0.15858339,0.13895369,0.76493806,-1.0590768,-1.2066108,0.42231968,1.0,0.0,0.0,0.0,0.0,0.0,0.0,-3.7434711,-0.13191667,0.08919269,-42.72623,-11.606669,70.462776,-5.212569,-10.92366,-13.459682,-5.84472
-55.91243,108.9609,45.4977,34.073967,3.354394,6.9562902,0.5277904,-0.7943822,0.060965903,0.27496502,0.66749173,0.44360644,0.6501649,-0.58837545,1.6843506,-1.0490938,-1.8308932,-0.9955626,2.0096169,1.2280325,-0.9771133,1.7513891,-1.0538667,-1.8604438,-1.0457178,1.972714,1.1755778,-0.91963094,-1.3251915,0.115007766,-0.023539526,1.60545,0.7207716,1.2177607,-0.1506694,3.0607738,-0.27270365,0.5123212,-3.2689273,-0.4619078,5.1255383,0.4949612,-0.49999523,0.7057065,0.6202004,0.1511838,0.13165562,0.7583942,-1.2339165,-1.1552267,0.56123024,1.0,0.0,0.0,0.0,0.0,0.0,0.0,-3.710774,-0.12729636,0.037678838,-34.110664,-6.961499,72.737625,-21.57464,-10.062838,-15.3882265,-6.078577
-13.972579,118.75057,46.24515,17.314928,0.7796493,5.3003592,0.50236654,-0.8059367,0.18165083,0.21441446,0.66201586,0.44472593,0.64097786,-0.6057236,1.6707954,-1.0357016,-1.8390024,-0.97951627,2.0171866,1.2396755,-0.98020333,1.7366587,-1.0524305,-1.85723,-1.0313822,1.979466,1.1867625,-0.9215202,-1.5230081,0.15205045,0.4396658,1.3761331,0.6574875,1.0851569,-0.20300256,3.028109,-0.2773192,0.56280166,-3.265659,-0.461446,5.022228,0.48200947,-0.5108001,0.71210253,0.6311785,0.14307274,0.12370421,0.7522241,-1.3273102,-1.0431564,0.66417825,1.0,0.0,0.0,0.0,0.0,0.0,0.0,-3.6781092,-0.12268081,-0.012801647,-19.9795,3.384426,47.3815,-23.019337,-7.030201,-13.286376,-5.638668
14.283445,150.92708,51.981457,11.7638035,-1.4897889,4.429736,-0.056181494,-0.8124106,0.43300286,0.089637466,0.6495193,0.3861548,0.6453336,-0.59572214,1.6554177,-1.0091302,-1.8482662,-0.96643025,2.0180814,1.2512958,-0.9810924,1.7208639,-1.0492433,-1.8518398,-1.0189368,1.9856172,1.1967856,-0.923871,-1.5992215,0.3731722,0.57460076,1.2005509,0.6000911,0.9754287,-0.24739875,2.995477,-0.2819302,0.6122498,-3.2623942,-0.46098465,4.91902,0.46858615,-0.5201082,0.7196106,0.64174086,0.13439265,0.116442956,0.7460216,-1.3582543,-0.8811755,0.7769463,1.0,0.0,0.0,0.0,0.0,0.0,0.0,-3.6454768,-0.1180698,-0.06224978,-7.865405,21.792645,14.196849,-17.627216,-6.0243845,-10.781956,-4.942772
25.733152,153.41335,49.160294,9.367794,-2.151599,3.3584938,-0.31911734,-0.82443017,0.5335139,0.056027256,0.62518525,0.46376878,0.63007796,-0.58186597,1.6384209,-0.9958919,-1.8462371,-0.9564182,2.031994,1.2597934,-0.9820576,1.7048613,-1.0434011,-1.846648,-1.0077654,1.9915833,1.2058455,-0.9265956,-1.6014876,0.65367615,0.50223994,1.0890863,0.5951598,0.883408,-0.28222573,2.9628775,-0.2865367,0.66066664,-3.2591324,-0.46052375,4.8159156,0.45511308,-0.52781963,0.7281427,0.6521218,0.1253511,0.110589,0.73945534,-1.3527491,-0.7216949,0.8757223,1.0,0.0,0.0,0.0,0.0,0.0,0.0,-3.6128774,-0.11346331,-0.11066663,-0.4826069,27.781153,-6.7229867,-11.186862,-0.61678886,-9.015739,-3.9136887
32.01222,149.33684,46.974846,8.814103,-2.1386423,2.7787492,-0.37515748,-0.8099738,0.6228532,0.06882306,0.6259927,0.4948667,0.61925524,-0.5658957,1.6238639,-0.9811158,-1.8397657,-0.9451661,2.04107,1.267771,-0.9831852,1.6891848,-1.0347933,-1.842694,-0.99721014,1.9977231,1.2140929,-0.9296054,-1.5573014,0.92906934,0.36128598,1.0441397,0.6197878,0.8053651,-0.3084805,2.9303105,-0.2911384,0.70805323,-3.255874,-0.4600633,4.712914,0.44180703,-0.5340295,0.7376203,0.6624327,0.116054066,0.106225975,0.732414,-1.3303913,-0.57378024,0.96919703,1.0,0.0,0.0,0.0,0.0,0.0,0.0,-3.5803103,-0.108861595,-0.15805322,4.17943,27.304565,-13.626396,-4.548931,2.3629785,-7.737875,-3.005433
28.955536,128.94676,39.876465,8.583393,-1.60924,2.1515524,-0.30931532,-0.8062161,0.6658813,0.058917236,0.61816794,0.5128614,0.633339,-0.55187166,1.6085632,-0.96820515,-1.8368024,-0.93539333,2.0490093,1.2774267,-0.9847926,1.6740233,-1.0239233,-1.8401477,-0.9868094,2.004202,1.2216669,-0.932825,-1.5031096,1.1389173,0.22054039,1.0383818,0.65703946,0.7412135,-0.32753918,2.8977764,-0.2957356,0.75441056,-3.2526188,-0.45960334,4.6100154,0.42872036,-0.5389874,0.7478369,0.6726946,0.106599696,0.10308168,0.72490865,-1.3067248,-0.45506564,1.0368805,1.0,0.0,0.0,0.0,0.0,0.0,0.0,-3.5477762,-0.10426441,-0.20441055,5.2183867,20.799875,-13.662293,-0.6808996,3.6442041,-6.4484596,-2.230835
22.064497,106.04637,32.421066,8.897887,-0.90489227,1.692308,-0.19698758,-0.8041643,0.693214,0.051845238,0.61471605,0.5316006,0.6394289,-0.5413592,1.5936068,-0.9546019,-1.8349632,-0.9253378,2.0573618,1.2856098,-0.98696095,1.659329,-1.0115503,-1.8387191,-0.97632277,2.011076,1.228686,-0.9361953,-1.4587051,1.2694985,0.118330345,1.0515301,0.6971617,0.6885711,-0.34122774,2.8652747,-0.30032825,0.79973966,-3.2493668,-0.45914385,4.50722,0.4158011,-0.5429976,0.758524,0.68287545,0.09708516,0.1007363,0.7170131,-1.2908103,-0.36729634,1.0772592,1.0,0.0,0.0,0.0,0.0,0.0,0.0,-3.5152745,-0.09967175,-0.24973965,4.274559,12.918854,-9.848014,1.1604309,3.9507508,-5.344677,-1.662159
15.077782,82.547066,24.452023,8.500405,-0.35875154,1.1719922,-0.112984985,-0.7956175,0.70254534,0.014178222,0.61413306,0.5424754,0.64859074,-0.54091907,1.5797673,-0.94129574,-1.8373013,-0.9149095,2.0653236,1.293545,-0.99028724,1.6449858,-0.9984201,-1.8381221,-0.9656693,2.0183125,1.2352587,-0.9396791,-1.426684,1.3272183,0.041263293,1.0692252,0.73255897,0.64658266,-0.3517137,2.8328054,-0.30491614,0.8440416,-3.246118,-0.45868477,4.404527,0.4029902,-0.5463512,0.7693735,0.69293714,0.08763092,0.098838665,0.70879453,-1.2808627,-0.30842137,1.0856957,1.0,0.0,0.0,0.0,0.0,0.0,0.0,-3.4828053,-0.09508386,-0.29404157,3.0663729,5.681324,-7.393514,1.5658855,3.5176516,-4.2479634,-1.3204575
9.881745,69.5818,20.37596,8.591977,0.010336161,1.0118308,-0.025188785,-0.7983824,0.71355194,0.014744079,0.6035676,0.54722613,0.6540406,-0.5473335,1.5651475,-0.9270649,-1.8366477,-0.90531254,2.073035,1.3006628,-0.9944124,1.6308275,-0.9850544,-1.8379982,-0.9549128,2.0258389,1.2414728,-0.9432563,-1.4126911,1.3394456,0.003762122,1.0770799,0.75885534,0.61313874,-0.36068127,2.8003685,-0.30949974,0.88731736,-3.2428725,-0.45822617,4.3019376,0.3902202,-0.54922676,0.78018826,0.70283014,0.07829289,0.09713264,0.70033216,-1.2782019,-0.26400715,1.0783209,1.0,0.0,0.0,0.0,0.0,0.0,0.0,-3.4503684,-0.090500265,-0.33731735,1.2693167,1.1557102,-3.4286845,0.55880547,2.6132822,-3.370893,-1.164037
7.541634,63.082954,18.244616,8.466937,0.16078073,0.91637385,0.029420216,-0.7950155,0.721517,-0.00069995807,0.59710103,0.55931586,0.66150707,-0.5473764,1.551326,-0.91290265,-1.8380681,-0.8952027,2.0817704,1.3076235,-0.99799395,1.6167322,-0.9717277,-1.838103,-0.9441515,2.0335865,1.2474085,-0.94691175,-1.4088789,1.3302728,-0.014180727,1.074946,0.7798662,0.58691555,-0.36804065,2.7679641,-0.31407857,0.929568,-3.2396302,-0.45776805,4.19945,0.37745202,-0.5517044,0.79086375,0.71251416,0.069081545,0.095486246,0.69168895,-1.2782696,-0.22578123,1.0622903,1.0,0.0,0.0,0.0,0.0,0.0,0.0,-3.417964,-0.08592144,-0.37956798,0.25110245,-0.9717226,-1.4629405,-0.45056343,2.0870566,-2.6266932,-1.0008097
8.278788,64.74669,19.12641,8.461562,0.14761895,1.0356067,0.08952678,-0.79356134,0.7311791,0.015234489,0.587079,0.5611685,0.66250885,-0.552194,1.5373762,-0.8986098,-1.8365796,-0.8854436,2.0897033,1.3136594,-1.0021311,1.6026331,-0.95850885,-1.8381851,-0.9334856,2.0414867,1.2531191,-0.9506349,-1.4107496,1.3188367,-0.0050508482,1.0629969,0.79325783,0.56576985,-0.37469113,2.7355921,-0.31865263,0.97079456,-3.2363913,-0.45731038,4.0970654,0.36467668,-0.55376005,0.8014082,0.7219407,0.05994421,0.093839884,0.68293655,-1.2788393,-0.18238139,1.0501028,1.0,0.0,0.0,0.0,0.0,0.0,0.0,-3.385592,-0.081347376,-0.42079455,-0.32877922,-1.2037516,1.2998581,-1.4267445,1.3009906,-2.1237493,-0.94121695
8.923077,66.96427,19.920528,9.033141,0.15146899,1.1173402,0.10370399,-0.7889709,0.73239017,0.021689486,0.593929,0.56137764,0.6723455,-0.5411346,1.523736,-0.8852698,-1.8360162,-0.8740927,2.0976245,1.3203536,-1.0047483,1.5885206,-0.94538915,-1.8380859,-0.9229075,2.0494747,1.2586542,-0.9544086,-1.4119612,1.3094709,0.016372237,1.0553056,0.800421,0.5493707,-0.37919304,2.7032526,-0.3232224,1.010998,-3.2331555,-0.45685315,3.9947832,0.35189104,-0.5553565,0.8118688,0.7310883,0.050803788,0.09217523,0.6741162,-1.2796197,-0.13566852,1.0429326,1.0,0.0,0.0,0.0,0.0,0.0,0.0,-3.3532524,-0.07677761,-0.460998,-0.2635002,-1.002264,2.5540218,-0.9866953,0.66666603,-1.6629457,-0.7304728
10.772974,71.51371,21.509481,9.2789345,0.07169688,1.2398393,0.13197175,-0.78763646,0.7396356,0.04455067,0.58728445,0.56016713,0.66989005,-0.53799075,1.509757,-0.87142557,-1.8336308,-0.864179,2.1054914,1.3256433,-1.0082077,1.5744025,-0.9323019,-1.8376682,-0.9124123,2.057497,1.2640463,-0.9582185,-1.4122744,1.3083029,0.051718663,1.0469518,0.80260026,0.5357263,-0.38253516,2.6709454,-0.3277874,1.0501795,-3.229923,-0.4563964,3.8926034,0.33910537,-0.5564275,0.8223139,0.7399334,0.04157842,0.09049596,0.66526705,-1.2787961,-0.081345975,1.0430377,1.0,0.0,0.0,0.0,0.0,0.0,0.0,-3.3209453,-0.07221261,-0.50017947,-0.18057823,-0.19278526,3.9899952,-1.0377407,0.14578104,-1.4025807,-0.6234884
10.497505,70.72855,20.637016,9.423987,0.028138936,1.1194862,0.10046524,-0.78591734,0.7410706,0.025358383,0.5864418,0.5691271,0.6733327,-0.5314584,1.4958107,-0.8581948,-1.8351324,-0.8537681,2.1144097,1.3313795,-1.0113643,1.5602919,-0.9191927,-1.8370368,-0.901981,2.0655499,1.269324,-0.9620504,-1.4109983,1.3115484,0.06846708,1.04118,0.8060442,0.5249909,-0.3844126,2.6386702,-0.3323481,1.0883398,-3.2266936,-0.4559401,3.7905257,0.32634103,-0.556967,0.83274084,0.7484889,0.032265507,0.08884767,0.6563759,-1.2756032,-0.02869888,1.0402629,1.0,0.0,0.0,0.0,0.0,0.0,0.0,-3.28867,-0.0676519,-0.5383398,-0.016903877,0.25298595,2.1043272,-0.7757664,0.28612614,-1.1006474,-0.46502948
10.615184,71.59397,20.455494,9.589195,-0.037686825,1.0704606,0.083503075,-0.78691345,0.7495308,0.027140377,0.5803147,0.570117,0.6738007,-0.52895576,1.4816005,-0.8442396,-1.8343228,-0.84394956,2.1225615,1.336704,-1.014946,1.5461909,-0.9060024,-1.836312,-0.89161456,2.0736332,1.27451,-0.9658956,-1.4101734,1.3212105,0.07517798,1.0345192,0.8089428,0.516321,-0.38549855,2.6064274,-0.33690405,1.1254802,-3.2234676,-0.45548424,3.68855,0.31362072,-0.55697036,0.84314203,0.7567692,0.022872044,0.08728264,0.64742494,-1.2702613,0.0251692,1.0374548,1.0,0.0,0.0,0.0,0.0,0.0,0.0,-3.2564273,-0.06309596,-0.57548016,-0.06480217,0.8940458,1.1003047,-0.8609772,0.23345947,-0.8923292,-0.38110614
9.571436,68.48317,18.777935,9.41482,-0.096776426,0.8867152,0.048183646,-0.7897063,0.75003916,0.0073939003,0.5724998,0.5632128,0.6757771,-0.52307856,1.4672202,-0.8309985,-1.8355727,-0.8343646,2.1299546,1.3420877,-1.0182035,1.5320841,-0.8927187,-1.8356712,-0.88133395,2.0817204,1.2796236,-0.9697446,-1.4113489,1.3305163,0.06175373,1.0251293,0.8084263,0.50970215,-0.38556555,2.574217,-0.34145546,1.1616015,-3.220245,-0.45502886,3.5866764,0.30097094,-0.5564642,0.85346645,0.76479954,0.013444577,0.08587054,0.63837856,-1.262143,0.075000905,1.0279516,1.0,0.0,0.0,0.0,0.0,0.0,0.0,-3.224217,-0.058544546,-0.61160153,-0.2635479,0.86779594,-0.945019,-1.1419773,-0.08829832,-0.6618738,-0.26548505
9.711841,67.75473,18.238056,9.2698,-0.14277023,0.80283535,0.04584585,-0.7903929,0.7559339,0.0041084047,0.5643405,0.5639787,0.68092746,-0.5228383,1.4530448,-0.81712526,-1.8352604,-0.8248999,2.1381183,1.3477163,-1.0220284,1.5179602,-0.87933576,-1.8352039,-0.8711697,2.089796,1.2846857,-0.9735927,-1.4133148,1.3407006,0.04300301,1.0128758,0.80738866,0.5049676,-0.3854038,2.5420387,-0.34600234,1.1967049,-3.2170253,-0.45457393,3.4849048,0.28841668,-0.55546284,0.86368304,0.77258873,0.0040074065,0.08464982,0.6292256,-1.2515968,0.12426307,1.0166168,1.0,0.0,0.0,0.0,0.0,0.0,0.0,-3.1920385,-0.053997666,-0.64670485,-0.3452778,0.958848,-1.4782951,-1.4316559,-0.13824701,-0.46458244,-0.23977757
13.211123,68.215576,18.734308,7.5518503,-0.28670448,0.74991834,0.1499497,-0.78757596,0.75676316,0.02986187,0.5334812,0.5701285,0.6815884,-0.5174669,1.4392025,-0.80365944,-1.8322177,-0.81782156,2.1468089,1.3528446,-1.0253394,1.5038306,-0.8658718,-1.8347785,-0.86124957,2.0978794,1.2897097,-0.97743505,-1.4133874,1.3481635,0.04369631,0.9842901,0.80849326,0.501604,-0.38478377,2.5098927,-0.3505447,1.2307913,-3.2138088,-0.45411944,3.3832347,0.27601674,-0.5539341,0.87377816,0.7800757,-0.0054366975,0.08358583,0.62005293,-1.2338777,0.1781649,1.0040706,1.0,0.0,0.0,0.0,0.0,0.0,0.0,-3.1598926,-0.049455315,-0.6807913,-0.16262531,0.6899595,0.5066477,-3.0697227,0.054335594,-0.29839277,-0.20610094
15.417778,68.92265,19.1195,6.7941976,-0.3431439,0.7068362,0.21223612,-0.78414816,0.76107603,0.040685125,0.5180369,0.5781186,0.6835839,-0.5093989,1.4254158,-0.78976417,-1.83071,-0.80944586,2.1556914,1.3580681,-1.0283749,1.48972,-0.85233915,-1.8342502,-0.8516575,2.106001,1.294707,-0.98126596,-1.4107037,1.354885,0.057392947,0.9501851,0.8130157,0.49929583,-0.38342384,2.4777787,-0.3550825,1.2638619,-3.2105956,-0.45366544,3.2816665,0.26382238,-0.55184937,0.8837531,0.7872063,-0.0148995975,0.08263074,0.610947,-1.211779,0.23410659,0.99217904,1.0,0.0,0.0,0.0,0.0,0.0,0.0,-3.1277785,-0.044917494,-0.7138619,0.11429787,0.6193161,1.8231392,-3.6156058,0.38585663,-0.17931461,-0.1352787
18.568369,72.24288,20.495636,5.699888,-0.45513168,0.75187606,0.32274002,-0.78818107,0.7714902,0.08316924,0.4756873,0.59015554,0.680818,-0.5047088,1.4109019,-0.7751901,-1.8259333,-0.8040888,2.1650164,1.3627888,-1.0317369,1.475619,-0.83871114,-1.8333728,-0.8425394,2.1141987,1.2996851,-0.9850816,-1.4104385,1.3652625,0.099638745,0.89827114,0.82186735,0.49738592,-0.38178983,2.4456968,-0.3596158,1.2959175,-3.2073858,-0.45321184,3.1801999,0.2518858,-0.5491469,0.8936349,0.7939079,-0.024412436,0.08172813,0.6020255,-1.1841751,0.29723436,0.98336035,1.0,0.0,0.0,0.0,0.0,0.0,0.0,-3.095697,-0.040384203,-0.7459175,-0.13737679,0.9833574,4.7307673,-5.3851604,0.7916212,-0.12527108,-0.11653304
22.550804,72.54627,20.74855,3.3922615,-0.67292595,0.620681,0.43242878,-0.7835708,0.7770373,0.10767876,0.4220572,0.6059401,0.6805078,-0.496917,1.3972619,-0.7610074,-1.822605,-0.80033374,2.1747928,1.3677359,-1.0347733,1.461537,-0.82497156,-1.8319843,-0.8341061,2.1225262,1.304648,-0.9888763,-1.4079181,1.3768084,0.15361688,0.82439536,0.8359517,0.49636889,-0.37953153,2.4136472,-0.36414456,1.3269593,-3.204179,-0.45275873,3.0788345,0.24029855,-0.5457866,0.90340334,0.8001025,-0.033955485,0.080843076,0.59342,-1.1460973,0.36351097,0.9708856,1.0,0.0,0.0,0.0,0.0,0.0,0.0,-3.0636473,-0.035855442,-0.77695924,0.09229183,1.1106491,5.906108,-7.5741053,1.3138533,0.019228458,-0.049591064
25.391191,73.57764,21.491686,2.0328054,-0.73678344,0.5874,0.5566525,-0.7867332,0.7783146,0.18076685,0.367772,0.62203264,0.66935974,-0.48440436,1.3828636,-0.7471401,-1.8139076,-0.7973289,2.1847293,1.371584,-1.0373167,1.4474646,-0.8111347,-1.8298042,-0.8265406,2.1310253,1.3095957,-0.99264044,-1.4076262,1.3858976,0.24111113,0.73342186,0.85430443,0.49486473,-0.376225,2.3816295,-0.3686688,1.356988,-3.2009754,-0.45230606,2.9775705,0.22912991,-0.54173565,0.9130508,0.80570936,-0.04353029,0.07990096,0.5852804,-1.1024295,0.43277258,0.9586426,1.0,0.0,0.0,0.0,0.0,0.0,0.0,-3.0316296,-0.03133121,-0.80698794,-0.12245178,0.8731842,9.263381,-9.260154,1.7381072,0.0066637993,0.061506033
33.03232,71.23577,21.15248,-3.768659,-1.260959,0.2458871,0.78443575,-0.78208166,0.780875,0.2335704,0.23912774,0.64517117,0.6668654,-0.4583599,1.3692564,-0.7330472,-1.8064471,-0.8026278,2.1955423,1.3762822,-1.0384765,1.4334112,-0.7972225,-1.826638,-0.8203074,2.1397495,1.3145357,-0.9963531,-1.4049128,1.3928959,0.34345275,0.5861205,0.87838364,0.49471265,-0.37048686,2.3496437,-0.3731885,1.3860048,-3.1977751,-0.45185384,2.8764076,0.21856475,-0.5369649,0.9224764,0.8105962,-0.05302991,0.07888375,0.5778399,-1.0357373,0.5046372,0.932593,1.0,0.0,0.0,0.0,0.0,0.0,0.0,-2.9996438,-0.02681151,-0.8360048,0.13771057,0.6853342,10.722584,-14.882624,2.322042,0.28073788,0.32322407
42.994705,69.08555,20.96222,-11.434008,-2.0044632,-0.18906751,1.0720876,-0.7786066,0.78616744,0.30705807,0.06715091,0.66295785,0.6591822,-0.43260652,1.3555505,-0.71860576,-1.7959322,-0.81359226,2.2060454,1.380454,-1.0396137,1.4194018,-0.7832407,-1.822314,-0.8161236,2.1487331,1.3194796,-0.99999136,-1.4000157,1.4000283,0.46347392,0.36201856,0.90498066,0.49572864,-0.3623279,2.31769,-0.37770367,1.4140108,-3.194578,-0.4514021,2.7753458,0.20889576,-0.53144145,0.93151563,0.8145884,-0.06226668,0.07783054,0.5714113,-0.93778527,0.5799255,0.88948464,1.0,0.0,0.0,0.0,0.0,0.0,0.0,-2.96769,-0.02229634,-0.86401075,0.39038658,0.7217407,12.43698,-22.532541,2.5961637,0.5695045,0.6017566
53.72438,66.714775,20.630228,-19.428143,-2.8453057,-0.70942867,1.3392462,-0.7602365,0.7913005,0.3732494,-0.11706676,0.65983564,0.65579146,-0.3779673,1.3433781,-0.7041106,-1.7849891,-0.82783026,2.2147167,1.3850588,-1.037788,1.4055258,-0.7691816,-1.8167446,-0.8146912,2.1579304,1.3244387,-1.0035105,-1.3835105,1.4079849,0.5889691,0.07010924,0.9245404,0.49814525,-0.3489025,2.285768,-0.3822143,1.441007,-3.191384,-0.45095077,2.674385,0.2004611,-0.5251436,0.9400001,0.81752485,-0.07103315,0.07684612,0.5663055,-0.8050402,0.6563298,0.8294332,1.0,0.0,0.0,0.0,0.0,0.0,0.0,-2.9357681,-0.017785698,-0.891007,1.630187,0.82929134,12.847567,-29.244762,1.945591,0.8718729,1.1933684
48.246124,63.951847,19.129795,-16.293633,-2.5290728,-0.84571326,1.2137195,-0.7609443,0.79586905,0.41079268,-0.17767794,0.66651237,0.64777344,-0.29118708,1.3294314,-0.6895947,-1.7756653,-0.832459,2.2245817,1.3892161,-1.0326291,1.3918043,-0.7550386,-1.8100593,-0.8159205,2.1672955,1.329415,-1.006835,-1.3683683,1.4166199,0.6952437,-0.18732557,0.94068444,0.4992965,-0.32723787,2.253878,-0.38672042,1.4669943,-3.1881933,-0.45049992,2.5735254,0.19327469,-0.51816845,0.94791573,0.8194639,-0.0792861,0.075989366,0.5625105,-0.68229663,0.7192427,0.7733233,1.0,0.0,0.0,0.0,0.0,0.0,0.0,-2.9038782,-0.013279587,-0.9169943,1.5546799,0.9230614,10.710562,-25.736444,1.7234921,0.7027924,2.0935774
34.746326,63.641827,18.232601,-5.697897,-1.4738903,-0.59528494,0.8558387,-0.74746275,0.7980274,0.44632283,-0.14045534,0.6598954,0.6347381,-0.16214612,1.3170581,-0.67523587,-1.765427,-0.829966,2.233285,1.3928888,-1.0230496,1.3782622,-0.7408174,-1.8024814,-0.8188282,2.1767635,1.3343836,-1.0098581,-1.3492634,1.4242069,0.77815956,-0.32511178,0.949564,0.4974701,-0.2941747,2.2220201,-0.391222,1.4919738,-3.185006,-0.45004952,2.4727666,0.18701717,-0.5106652,0.95544887,0.82064164,-0.08722014,0.075226784,0.55971503,-0.59883934,0.7671299,0.74070144,1.0,0.0,0.0,0.0,0.0,0.0,0.0,-2.8720202,-0.008778006,-0.94197375,1.9713879,0.84888935,8.178579,-13.764345,1.1349559,0.257504,3.2643795
8.557005,61.81452,16.162058,13.870705,0.48838687,0.046339784,0.17641026,-0.75395143,0.7970867,0.44076532,0.03150404,0.6452307,0.64145905,-0.008346886,1.302867,-0.66110873,-1.7584049,-0.8156778,2.2412865,1.3985295,-1.0106928,1.3648363,-0.7265457,-1.7944,-0.82161295,2.1862469,1.3393255,-1.0124578,-1.3404598,1.4285887,0.81751853,-0.2632643,0.9491883,0.49354684,-0.2488187,2.190194,-0.3957193,1.5159464,-3.1818216,-0.44959956,2.3721087,0.18101656,-0.5028424,0.9629463,0.82148224,-0.09524648,0.074459106,0.55727094,-0.59212255,0.7929763,0.74655,1.0,0.0,0.0,0.0,0.0,0.0,0.0,-2.8401937,-0.004280716,-0.9659464,0.85713863,0.56033134,3.7207484,6.0981154,0.34140348,-0.20574927,4.467869
-21.436611,57.87389,13.4389,36.06089,2.7594671,0.85675526,-0.5826355,-0.7746392,0.7880553,0.42135188,0.28822345,0.627275,0.6579992,0.16248964,1.2873725,-0.6477402,-1.7522647,-0.7927906,2.2489743,1.4051255,-0.9962089,1.3513495,-0.7122921,-1.7862499,-0.82214224,2.1956577,1.3442255,-1.0145102,-1.352092,1.4247916,0.813119,0.016492758,0.9398572,0.48833504,-0.1910989,2.1583996,-0.4002118,1.5389132,-3.1786404,-0.44915006,2.2715514,0.17440766,-0.49492455,0.97081023,0.8224816,-0.10387961,0.073536195,0.55436933,-0.6753435,0.79687065,0.7932326,1.0,0.0,0.0,0.0,0.0,0.0,0.0,-2.8083997,0.0002118051,-0.98891324,-1.3094187,-0.23739338,-0.6930828,27.760654,-0.44310093,-0.63886046,5.6565285
-37.92766,53.133904,11.161492,47.631016,3.8766801,1.3011999,-1.0249869,-0.79725516,0.778749,0.40372413,0.46886778,0.58530223,0.6739978,0.21990214,1.271624,-0.6344172,-1.7458775,-0.77525544,2.254188,1.4116253,-0.9925199,1.3376051,-0.6981338,-1.7783611,-0.81905997,2.2048473,1.3490759,-1.0159864,-1.38231,1.4132979,0.7798733,0.40468588,0.9137255,0.4828391,-0.13349849,2.126637,-0.40470004,1.5608753,-3.1754625,-0.448701,2.1710944,0.16660427,-0.4870367,0.979265,0.82397324,-0.11345029,0.07240937,0.55041254,-0.8066513,0.7926057,0.8562238,1.0,0.0,0.0,0.0,0.0,0.0,0.0,-2.776637,0.004700035,-1.0108752,-3.2052517,-1.0182858,-3.5985947,38.589607,-2.0826101,-0.89072585,5.644593
-31.676317,50.330074,10.455822,41.734035,3.2157693,1.055237,-0.8945577,-0.80452204,0.7788518,0.38728046,0.49423617,0.58639413,0.66571903,0.18400918,1.2571529,-0.6202487,-1.7396331,-0.76963633,2.2634869,1.4156479,-0.99758554,1.3235441,-0.68408716,-1.7708957,-0.81256545,2.213789,1.353871,-1.0169706,-1.4144678,1.4020765,0.73461425,0.73055077,0.8891979,0.47707778,-0.08678449,2.094906,-0.40918374,1.5818335,-3.1722877,-0.44825238,2.070738,0.15765381,-0.47914386,0.9882106,0.82594174,-0.123878315,0.07115945,0.54535365,-0.9158794,0.7961357,0.9003187,1.0,0.0,0.0,0.0,0.0,0.0,0.0,-2.744906,0.009183735,-1.0318334,-3.3518553,-1.0338068,-4.7341228,32.434525,-2.010274,-0.9166777,4.580654
-15.707838,49.582287,10.825203,28.496037,1.8150133,0.53093076,-0.49581832,-0.8073194,0.77853894,0.37965214,0.48486885,0.58736026,0.66026,0.14738986,1.2428122,-0.60623324,-1.7329305,-0.76407856,2.272525,1.419897,-1.0022316,1.309218,-0.67013204,-1.7638423,-0.8038012,2.2225285,1.3586165,-1.0175734,-1.4390204,1.3935272,0.6954256,0.9246403,0.86966765,0.4730122,-0.05176789,2.0632071,-0.4136629,1.6017889,-3.169116,-0.4478042,1.9704819,0.14800552,-0.4711361,0.99736685,0.8281511,-0.13484132,0.06992762,0.53953093,-0.97243184,0.81217927,0.9134099,1.0,0.0,0.0,0.0,0.0,0.0,0.0,-2.7132072,0.0136629045,-1.0517888,-2.556467,-0.8136749,-3.959,19.307137,-1.6706944,-0.58975816,3.403502
1.0882969,49.36408,11.380766,14.650753,0.424026,-0.05769536,-0.05948423,-0.80694443,0.77607566,0.3747379,0.45893136,0.60376537,0.66127867,0.1038641,1.2285236,-0.59252447,-1.7263685,-0.75790805,2.282905,1.4247444,-1.0071869,1.2947317,-0.6562456,-1.7570827,-0.7941128,2.231165,1.3633372,-1.017911,-1.4521266,1.3870041,0.6699445,0.98320127,0.86193407,0.47196215,-0.028219754,2.0315397,-0.41813755,1.6207424,-3.1659477,-0.4473565,1.8703258,0.1382069,-0.46291614,1.0064348,0.83032125,-0.1459728,0.06882808,0.53340524,-0.973494,0.83624923,0.8969943,1.0,0.0,0.0,0.0,0.0,0.0,0.0,-2.6815395,0.018137544,-1.0707424,-1.398325,-0.6449461,-2.393365,5.766511,-0.66331625,-0.07277727,2.2286084
12.078966,49.92648,11.931643,5.7857256,-0.4852727,-0.45528966,0.24521005,-0.8068975,0.77315325,0.37570387,0.45124394,0.593248,0.6687418,0.1390579,1.214042,-0.57893026,-1.7195123,-0.7489884,2.2904897,1.4302113,-1.0040052,1.2801863,-0.6424154,-1.7504604,-0.7844702,2.239729,1.3680655,-1.0180292,-1.4557849,1.381688,0.6607517,0.9576276,0.8545011,0.47383016,-0.00668379,1.9999038,-0.42260766,1.6386952,-3.1627824,-0.44690922,1.7702699,0.12867327,-0.45442867,1.0152156,0.8322418,-0.1570222,0.06794292,0.52735305,-0.93762386,0.8641113,0.8641442,1.0,0.0,0.0,0.0,0.0,0.0,0.0,-2.6499038,0.022607654,-1.0886953,-0.43940544,-0.541234,-0.6386757,-2.6355147,-0.7492304,0.36720037,2.008106
17.849205,49.415016,11.989073,1.081245,-0.9083639,-0.7354713,0.42199272,-0.80232525,0.76692575,0.37668875,0.43802828,0.59503573,0.6691215,0.19628774,1.1999538,-0.5657228,-1.7127916,-0.74066734,2.2992325,1.4349777,-0.99840045,1.2656676,-0.62865007,-1.7438438,-0.7753874,2.2482433,1.3728205,-1.0179167,-1.4507017,1.3748659,0.6628093,0.89163095,0.85011464,0.47687194,0.016810607,1.9682997,-0.42707348,1.6556482,-3.1596203,-0.44646242,1.670314,0.11963958,-0.44567227,1.0236114,0.8337917,-0.16785605,0.06729454,0.52161986,-0.88247675,0.89019555,0.823795,1.0,0.0,0.0,0.0,0.0,0.0,0.0,-2.6182997,0.027073473,-1.1056483,0.46231747,-0.69344044,0.5214691,-6.659889,-0.5002022,0.56321025,2.2021048
18.249392,48.714596,11.692729,0.68375254,-0.91713876,-0.8562666,0.44737566,-0.8005439,0.7642671,0.369892,0.4345597,0.59749174,0.66463816,0.26116294,1.1856132,-0.5522234,-1.7068546,-0.73193145,2.3079925,1.4392843,-0.99180037,1.2512251,-0.61495054,-1.7372043,-0.7669674,2.2567387,1.3776022,-1.0175428,-1.4422314,1.368415,0.66510636,0.8252404,0.8487941,0.4793954,0.04378732,1.9367272,-0.43153477,1.6716024,-3.1564612,-0.44601604,1.5704579,0.11116959,-0.43667555,1.03161,0.8349448,-0.178437,0.0668745,0.5162898,-0.82539225,0.9127244,0.78439766,1.0,0.0,0.0,0.0,0.0,0.0,0.0,-2.5867271,0.03153476,-1.1216023,0.821352,-0.6498575,0.5133629,-6.6824436,-0.18817186,0.5144894,2.5624275
14.702189,47.038258,10.814957,3.1066418,-0.7048167,-0.87417924,0.3439366,-0.8050455,0.7630434,0.34975505,0.44082782,0.5841508,0.6639303,0.31266162,1.1707206,-0.5386462,-1.7022288,-0.72288465,2.3151538,1.4439952,-0.9862767,1.2368399,-0.6013025,-1.7306392,-0.7590357,2.2651882,1.382403,-1.0168848,-1.4375314,1.3635764,0.65439004,0.7823632,0.8440162,0.48110846,0.07281392,1.9051863,-0.43599153,1.6865587,-3.1533053,-0.4455701,1.4707018,0.10320299,-0.42747688,1.0392482,0.83576316,-0.18879111,0.06670607,0.5112809,-0.7773713,0.93109345,0.74964195,1.0,0.0,0.0,0.0,0.0,0.0,0.0,-2.5551863,0.03599152,-1.1365588,0.44198036,-0.47781467,-0.8508682,-4.331255,-0.48480034,0.3962934,2.786337
12.919619,43.548973,9.7160425,4.0434704,-0.57001185,-0.9666933,0.29626936,-0.7933274,0.7496086,0.33960137,0.43226668,0.56278735,0.66612864,0.38714144,1.1575072,-0.5263417,-1.6966791,-0.71580905,2.321467,1.4490159,-0.97817063,1.2225367,-0.5877489,-1.7242382,-0.7513987,2.2735348,1.3872191,-1.0159082,-1.4279838,1.3527608,0.6359251,0.7573178,0.8315117,0.48256832,0.1057029,1.8736769,-0.440444,1.7005183,-3.1501527,-0.44512463,1.3710454,0.09567927,-0.41813326,1.0465467,0.8362985,-0.19894001,0.0667967,0.5065233,-0.73398405,0.94356924,0.71604574,1.0,0.0,0.0,0.0,0.0,0.0,0.0,-2.5236769,0.040443987,-1.1505182,0.9460211,-1.0637283,-1.6861677,-2.5499105,-1.2290597,0.36061406,3.184502
10.209899,39.154613,8.219255,5.3442717,-0.42876548,-1.0659624,0.20432469,-0.78721243,0.7381335,0.30934137,0.43497983,0.5328417,0.6620826,0.43514332,1.1438154,-0.51393557,-1.6933041,-0.7079007,2.326819,1.4534273,-0.97239393,1.2083441,-0.5743431,-1.718148,-0.7438723,2.2816792,1.3920447,-1.0145941,-1.4165432,1.3366896,0.6005296,0.7509357,0.80868644,0.48325455,0.13951372,1.842199,-0.44489193,1.7134819,-3.1470032,-0.4446796,1.2714885,0.08854413,-0.40871286,1.0535126,0.83661807,-0.20888862,0.067182705,0.50191855,-0.69661593,0.949075,0.6830695,1.0,0.0,0.0,0.0,0.0,0.0,0.0,-2.492199,0.044891924,-1.163482,1.1426926,-1.5778065,-3.441739,-0.6959677,-2.2238731,0.27264357,3.2908306
8.527607,33.926617,6.3982,5.0982456,-0.43424326,-1.2571461,0.13769273,-0.78665996,0.72610164,0.26631883,0.41395974,0.509434,0.65754765,0.45244342,1.1296781,-0.50173295,-1.6915162,-0.7024763,2.3326225,1.4577994,-0.96934974,1.194245,-0.561129,-1.7125709,-0.7364317,2.289545,1.3968722,-1.0129614,-1.4076415,1.3164909,0.54355854,0.741559,0.77963865,0.48348254,0.17072687,1.8107525,-0.44933534,1.7254509,-3.1438568,-0.444235,1.1720313,0.08178173,-0.39930034,1.0601203,0.8367993,-0.21857838,0.067928724,0.49736917,-0.6593368,0.94564724,0.6465016,1.0,0.0,0.0,0.0,0.0,0.0,0.0,-2.4607525,0.04933533,-1.1754508,0.88744164,-1.981616,-5.642712,-1.0125399,-2.8210878,0.24731755,3.0473561
8.267864,30.582207,5.3228555,4.1256256,-0.49447274,-1.4253178,0.1357215,-0.7859405,0.71295047,0.23947883,0.38592806,0.4897821,0.65380967,0.482168,1.1156509,-0.48983392,-1.6886231,-0.6978389,2.3385234,1.4622531,-0.96474457,1.1802088,-0.548139,-1.707608,-0.72918665,2.2971058,1.4016997,-1.0110312,-1.4021513,1.2932858,0.48057014,0.7184829,0.74841714,0.4834326,0.20025307,1.7793375,-0.45377445,1.7364259,-3.1407137,-0.44379085,1.0726734,0.075413674,-0.38996434,1.0663388,0.836883,-0.22793625,0.0690735,0.49284953,-0.6191667,0.9359643,0.6070422,1.0,0.0,0.0,0.0,0.0,0.0,0.0,-2.4293375,0.053774446,-1.1864259,0.54740906,-2.2781372,-6.2577605,-2.3876548,-3.0368686,0.24186969,2.8877945
9.732842,30.320112,5.337141,2.7232313,-0.64581716,-1.5395166,0.18976092,-0.77750415,0.70011735,0.22819261,0.35793287,0.44889942,0.6461252,0.52145237,1.1024584,-0.47812724,-1.6847887,-0.69339335,2.3419957,1.4663122,-0.9588859,1.1662432,-0.5353912,-1.7031944,-0.72228014,2.3042889,1.4065214,-1.0088091,-1.3944741,1.2687624,0.4285601,0.6810757,0.70839775,0.48273042,0.22924162,1.747954,-0.45820904,1.7464081,-3.1375735,-0.44334716,0.973415,0.069495514,-0.38073063,1.0721567,0.8368627,-0.23691788,0.07064234,0.48840582,-0.57266504,0.9250624,0.56717974,1.0,0.0,0.0,0.0,0.0,0.0,0.0,-2.397954,0.05820903,-1.196408,0.784564,-2.4104357,-5.15359,-3.8046598,-3.9417982,0.19012094,2.8358102
11.963608,27.113352,4.4782176,-0.6293316,-0.8922709,-1.8104681,0.27980655,-0.7761517,0.6792953,0.20572056,0.2863155,0.42124936,0.63974535,0.5364574,1.088628,-0.46746168,-1.6826223,-0.6936486,2.3464139,1.4704959,-0.95516336,1.1523482,-0.5229267,-1.6992443,-0.7160317,2.3110485,1.4113337,-1.0063181,-1.3878961,1.2391139,0.38396776,0.60588795,0.6655665,0.4819229,0.2556429,1.7166017,-0.4626391,1.7553985,-3.1344366,-0.4429039,0.8742558,0.06413375,-0.3716631,1.0775243,0.83672094,-0.2454131,0.072654374,0.4841401,-0.5143982,0.905826,0.5208296,1.0,0.0,0.0,0.0,0.0,0.0,0.0,-2.3666017,0.06263909,-1.2053986,0.7003546,-2.9182196,-4.416031,-7.5690985,-4.2536974,0.23190975,2.5879264
15.640698,28.174784,4.8530226,-4.241739,-1.210715,-2.0247984,0.4187885,-0.7720932,0.66975474,0.20473711,0.19886605,0.40674928,0.6358694,0.54710174,1.0751388,-0.4559512,-1.6787705,-0.69614506,2.3517234,1.4749206,-0.95160794,1.1385199,-0.51074064,-1.6955993,-0.7108542,2.3174152,1.4161383,-1.0035849,-1.3809186,1.2119801,0.35812905,0.4882623,0.6270256,0.481128,0.27906662,1.6852809,-0.46706486,1.763398,-3.1313028,-0.4424611,0.7751957,0.059465308,-0.36280608,1.0824,0.8364129,-0.2533084,0.07510272,0.48021638,-0.44141167,0.88347816,0.47115842,1.0,0.0,0.0,0.0,0.0,0.0,0.0,-2.335281,0.06706485,-1.213398,0.77331066,-2.6666641,-2.5271595,-11.7764,-3.8739324,0.26379824,2.2986174
14.146093,27.315956,4.681054,-2.972764,-1.0298756,-2.0378826,0.3844457,-0.77102804,0.6533516,0.19038472,0.17683959,0.3843226,0.63671595,0.56089914,1.0614171,-0.44540548,-1.6765609,-0.6931702,2.3558476,1.4798099,-0.9474949,1.1247488,-0.49882746,-1.6921604,-0.7067839,2.3234196,1.4209353,-1.0006342,-1.3757195,1.1845665,0.33921158,0.37993574,0.5915647,0.48021743,0.30010864,1.6539913,-0.4714861,1.7704077,-3.1281722,-0.44201872,0.67623466,0.055481914,-0.35418034,1.0868081,0.835944,-0.26060686,0.077945806,0.47666126,-0.37476587,0.8591258,0.425822,1.0,0.0,0.0,0.0,0.0,0.0,0.0,-2.3039913,0.071486086,-1.2204077,0.59759617,-2.6885748,-1.8684745,-10.84373,-3.5470128,0.2171278,2.0664632
10.835041,25.238941,4.079682,-0.05361414,-0.6990927,-2.001497,0.26965183,-0.76756114,0.63693184,0.15950358,0.16396056,0.36418065,0.6335149,0.5700088,1.0479927,-0.43513426,-1.67621,-0.69038785,2.3598375,1.4842868,-0.9436333,1.1110255,-0.48719215,-1.688977,-0.70357764,2.329092,1.4257189,-0.99749315,-1.3708227,1.1567019,0.31124762,0.30086645,0.5594639,0.47863406,0.318638,1.6227331,-0.47590303,1.7764286,-3.1250446,-0.4415768,0.57737255,0.052068457,-0.34580564,1.090807,0.83537394,-0.26737297,0.081136584,0.4733696,-0.3212973,0.8329376,0.38670385,1.0,0.0,0.0,0.0,0.0,0.0,0.0,-2.2727332,0.07590303,-1.2264285,0.5537033,-2.7270317,-2.8161108,-7.936364,-3.1697989,0.10224581,1.8171012
6.917058,22.768927,3.4014673,3.5166512,-0.29003027,-1.9259851,0.13586265,-0.7661616,0.6200837,0.12942812,0.15855332,0.353974,0.63306653,0.58259094,1.0344093,-0.42518377,-1.6760342,-0.6877223,2.3644893,1.4890256,-0.9392341,1.097344,-0.47584248,-1.6861618,-0.70089686,2.3344936,1.4304854,-0.99418104,-1.3673404,1.1278995,0.2714379,0.25687042,0.5338553,0.47664827,0.33530688,1.5915061,-0.48031545,1.7814615,-3.12192,-0.44113532,0.47860935,0.04907034,-0.3376932,1.0944631,0.83477134,-0.27369794,0.08461794,0.47019777,-0.28412077,0.8058184,0.35434178,1.0,0.0,0.0,0.0,0.0,0.0,0.0,-2.241506,0.08031544,-1.2314615,0.38321018,-2.8164864,-4.0269494,-4.4594884,-2.4782777,0.014168024,1.627326
4.345696,21.134298,3.0741034,6.2749376,-0.054512262,-1.8420446,0.034799706,-0.7557669,0.5986223,0.11257128,0.16308624,0.28842887,0.6313132,0.5938474,1.0217674,-0.41598025,-1.6749046,-0.68458825,2.3633366,1.4936167,-0.9347963,1.0837313,-0.46480894,-1.6837585,-0.6984087,2.33951,1.435229,-0.9907135,-1.3591279,1.0954261,0.22980867,0.24576731,0.4916068,0.4743549,0.35034716,1.5603104,-0.48472357,1.7855076,-3.118799,-0.44069427,0.3799449,0.046364676,-0.3298359,1.0978369,0.834191,-0.27967852,0.08838482,0.46700466,-0.25774416,0.780638,0.32781842,1.0,0.0,0.0,0.0,0.0,0.0,0.0,-2.2103105,0.08472356,-1.2355075,0.84621906,-3.1817436,-4.232487,-1.1885971,-4.114312,-0.049620867,1.4576256
2.3868814,15.06791,1.5291696,6.8501716,0.090522826,-1.9363545,-0.031221591,-0.74778086,0.5648788,0.07661262,0.1492701,0.2349535,0.6300291,0.602337,1.0089532,-0.40832105,-1.6760973,-0.6834817,2.3630054,1.4982319,-0.93047976,1.0702273,-0.45418262,-1.6818454,-0.6959597,2.3440037,1.4399515,-0.9871086,-1.3472526,1.0518875,0.1782532,0.24429457,0.4356646,0.47219974,0.36382174,1.5291458,-0.48912716,1.7885677,-3.1156807,-0.44025367,0.2813791,0.043881867,-0.32228398,1.100935,0.83368385,-0.28533036,0.092448644,0.4636929,-0.23713301,0.74787384,0.30016565,1.0,0.0,0.0,0.0,0.0,0.0,0.0,-2.1791458,0.08912715,-1.2385676,1.2263536,-4.285383,-5.2593203,-0.23825169,-5.4733515,-0.03399849,1.2999356
0.7325325,9.293552,0.19590503,7.157501,0.33149052,-2.0331223,-0.061374307,-0.74419284,0.5304017,0.04975187,0.13913004,0.22823368,0.62791497,0.60041046,0.995808,-0.40114245,-1.6768702,-0.6820467,2.366827,1.502743,-0.9270675,1.0568415,-0.44407082,-1.6804664,-0.69352305,2.3479977,1.4446532,-0.98338544,-1.3354458,0.9978749,0.124136955,0.24315184,0.38785008,0.47015032,0.37493548,1.4980124,-0.49352646,1.7906429,-3.1125658,-0.4398135,0.18291184,0.041554153,-0.3151219,1.1037453,0.8332827,-0.29062948,0.09675136,0.4602321,-0.22377679,0.706663,0.271328,1.0,0.0,0.0,0.0,0.0,0.0,0.0,-2.1480124,0.09352645,-1.2406428,1.2286425,-5.331743,-5.5354447,-0.21268427,-4.6589556,-0.02462864,1.0647297
-1.3601484,6.3025217,-0.39181638,8.947399,0.6230506,-2.0074468,-0.115681686,-0.7380253,0.4988936,0.022813067,0.16118756,0.20398375,0.6267359,0.6061295,0.98303896,-0.39418146,-1.6781851,-0.6774043,2.368396,1.5073267,-0.92277247,1.043574,-0.4345398,-1.6796253,-0.69098437,2.3515491,1.4493357,-0.9795612,-1.3236752,0.93839693,0.07028042,0.257072,0.3450791,0.46807536,0.3846859,1.4669101,-0.49792123,1.7917341,-3.1094537,-0.43937376,0.08454303,0.03928452,-0.30838227,1.106288,0.83300924,-0.2956079,0.10121755,0.45658147,-0.22095923,0.6638361,0.24559127,1.0,0.0,0.0,0.0,0.0,0.0,0.0,-2.11691,0.09792122,-1.241734,1.2162924,-5.8807015,-5.51621,1.2844086,-4.1445017,-0.048321486,0.926733
-0.8599224,-1.7944212,-2.303399,6.032123,0.53497225,-2.275517,-0.06743269,-0.7208433,0.44108716,-0.0058400873,0.11762955,0.12877822,0.63075787,0.60723394,0.97148967,-0.39043108,-1.6802093,-0.6792214,2.364427,1.5124115,-0.9188378,1.0304781,-0.4257393,-1.6793201,-0.68850577,2.3545551,1.454003,-0.97565114,-1.3046308,0.8608394,0.016674478,0.24444579,0.28601798,0.46702754,0.3929867,1.4358388,-0.5023117,1.7918425,-3.106345,-0.43893448,-0.013727447,0.03708268,-0.30218315,1.1085109,0.83287907,-0.30017486,0.10583409,0.45277652,-0.21334237,0.6059757,0.21188511,1.0,0.0,0.0,0.0,0.0,0.0,0.0,-2.0858388,0.1023117,-1.2418425,2.0109653,-7.6844096,-5.5451207,-1.345846,-5.794394,0.08663535,0.7901311
-1.0280652,-8.718235,-3.754061,4.2943764,0.48957565,-2.4371564,-0.03186925,-0.7098058,0.37741116,-0.004703854,0.09527315,0.012462329,0.63187426,0.6003847,0.9594976,-0.38799816,-1.6797905,-0.67897844,2.3558013,1.5171905,-0.9156127,1.017594,-0.4178605,-1.6794059,-0.6862837,2.3567104,1.4586645,-0.97167337,-1.2823684,0.76381356,-0.017682979,0.2144909,0.19262534,0.46649608,0.39920202,1.4047987,-0.5066979,1.7909689,-3.103239,-0.43849564,-0.111899674,0.034972426,-0.29663992,1.1103549,0.8329017,-0.30424133,0.1106307,0.448857,-0.20421661,0.53769207,0.17300871,1.0,0.0,0.0,0.0,0.0,0.0,0.0,-2.0547986,0.10669789,-1.240969,2.3783922,-9.631038,-3.6495035,-3.0572295,-9.247881,0.1506567,0.58243275
3.442578,-19.740189,-6.2881393,-5.211219,-0.23002201,-3.0173807,0.22686101,-0.7034259,0.2880156,0.030111888,-0.072170936,-0.16548951,0.6351617,0.59247345,0.9472514,-0.38905895,-1.6763947,-0.6935008,2.3401616,1.5221807,-0.912426,1.0049235,-0.41117907,-1.6795318,-0.68512785,2.3575115,1.4633261,-0.96764886,-1.2610556,0.6365063,-0.011701032,0.08259216,0.042439416,0.46702287,0.40337327,1.3737897,-0.51107955,1.7891142,-3.1001365,-0.43805724,-0.20997374,0.033173155,-0.29199338,1.1116453,0.8330546,-0.30749622,0.11570995,0.4450588,-0.16665268,0.4408225,0.11263141,1.0,0.0,0.0,0.0,0.0,0.0,0.0,-2.0237896,0.111079544,-1.2391143,2.3902893,-12.656903,0.36631078,-13.191175,-15.017094,0.3064096,0.37261844
8.606369,-38.35619,-9.664409,-16.819794,-0.68729603,-3.690014,0.6215296,-0.6807018,0.1349284,0.17800894,-0.27593565,-0.39977634,0.639156,0.5751016,0.9368533,-0.3976862,-1.6617309,-0.7127214,2.317534,1.5272417,-0.9101387,0.9925245,-0.40624762,-1.6788032,-0.68617594,2.3562794,1.4679953,-0.9636053,-1.2316695,0.4456019,0.10045845,-0.16715838,-0.1787881,0.46764636,0.40435928,1.3428116,-0.5154569,1.7862797,-3.0970368,-0.43761927,-0.30794978,0.031933308,-0.28862095,1.1121242,0.8332374,-0.3095509,0.12102727,0.44186643,-0.10564588,0.30258557,0.02510261,1.0,0.0,0.0,0.0,0.0,0.0,0.0,-1.9928116,0.11545691,-1.2362797,3.3248663,-19.034546,10.990428,-24.924883,-22.237434,0.2747953,0.006914139
-8.571936,-113.08749,-25.759487,-15.93759,2.1192286,-4.4481564,0.3820311,-0.6427602,-0.22923729,0.2696344,-0.27702168,-0.5235706,0.65289485,0.5347193,0.92824847,-0.42917135,-1.6518397,-0.7138781,2.3039224,1.5332848,-0.91013336,0.98054445,-0.40462255,-1.6765068,-0.68945277,2.3527431,1.4726683,-0.95959604,-1.1852887,0.06798003,0.27229455,-0.38156486,-0.41259623,0.46681637,0.39889675,1.3118645,-0.51982975,1.7824659,-3.0939405,-0.43718174,-0.40582785,0.030627556,-0.28738666,1.1115046,0.8335615,-0.31020322,0.12583902,0.439447,-0.1361891,0.06308936,-0.09175022,1.0,0.0,0.0,0.0,0.0,0.0,0.0,-1.9618645,0.119829744,-1.232466,5.098748,-37.80883,17.061922,-21.52145,-23.594934,-0.15794039,-0.80652833
-27.164577,-138.54366,-29.934761,4.5634503,5.393487,-3.6327868,-0.22424102,-0.5384163,-0.45207343,0.32828656,-0.0022135961,-0.5786784,0.65398747,0.48240763,0.9267028,-0.4498299,-1.6436781,-0.68967414,2.2948754,1.538067,-0.91135526,0.96943986,-0.40736246,-1.6724384,-0.6930109,2.3471317,1.4773184,-0.95568216,-1.0842562,-0.38831362,0.45163032,-0.34775525,-0.61073333,0.46317345,0.3881386,1.2809483,-0.5241983,1.7776742,-3.090847,-0.43674466,-0.50360805,0.02814875,-0.28851247,1.1099358,0.8341429,-0.3100673,0.12925385,0.4374439,-0.2843522,-0.17108496,-0.17878245,1.0,0.0,0.0,0.0,0.0,0.0,0.0,-1.9309483,0.12419829,-1.2276742,10.456371,-45.74186,17.89173,3.2307148,-19.94865,-0.72690845,-1.3131082
-34.381153,-131.0713,-27.45557,18.926544,6.7705564,-2.7724416,-0.6058304,-0.42848253,-0.6222366,0.34695283,0.15001787,-0.64570373,0.66780776,0.4355088,0.92659163,-0.46958613,-1.6377431,-0.67800915,2.2825613,1.5440992,-0.9121313,0.95975053,-0.4145918,-1.6669071,-0.694924,2.3398304,1.481938,-0.95189416,-0.9294018,-0.8347022,0.586332,-0.13907029,-0.7697226,0.46003914,0.37575272,1.250063,-0.52856255,1.7719054,-3.0877569,-0.436308,-0.6012905,0.02380776,-0.29169846,1.1077173,0.83501536,-0.30987963,0.130826,0.4354404,-0.48495534,-0.3662763,-0.23629728,1.0,0.0,0.0,0.0,0.0,0.0,0.0,-1.9000629,0.12856254,-1.2219055,15.815651,-44.699512,13.291323,20.890224,-15.887237,-0.76225996,-1.2234688
-24.662828,-85.41733,-16.332333,22.16603,5.870479,-2.0030577,-0.5246099,-0.29632935,-0.70708495,0.39778277,0.20994896,-0.6739743,0.6674317,0.34958974,0.9301176,-0.4853003,-1.6271288,-0.6739291,2.272433,1.5486811,-0.9169352,0.95199335,-0.4255333,-1.6602561,-0.6943852,2.331293,1.4865309,-0.9482702,-0.7238205,-1.1805761,0.6908272,0.11898448,-0.88156784,0.45791456,0.358869,1.2192086,-0.53292227,1.7651606,-3.0846696,-0.43587178,-0.69887537,0.01770761,-0.2963252,1.105116,0.8360371,-0.31013194,0.13058884,0.4333667,-0.6537575,-0.49188712,-0.2686957,1.0,0.0,0.0,0.0,0.0,0.0,0.0,-1.8692086,0.13292226,-1.2151606,20.766222,-34.572556,10.279882,26.034298,-11.135483,-0.5907953,-1.4080226
6.84074,-33.54816,-5.153665,-1.6870639,2.0747988,-2.5917232,0.2749898,-0.09407895,-0.7583292,0.38099837,-0.04121611,-0.67532474,0.65682906,0.19678822,0.94258547,-0.5013662,-1.6221563,-0.6985068,2.2637606,1.5522138,-0.9285914,0.9468254,-0.4389987,-1.6529701,-0.6928927,2.3219738,1.4910971,-0.94492567,-0.44990447,-1.4020587,0.74424785,0.15889373,-0.9497529,0.45452693,0.3265702,1.188385,-0.5372777,1.7574406,-3.0815856,-0.435436,-0.79636264,0.010999199,-0.30204177,1.1020634,0.83692646,-0.31049508,0.1289662,0.43187344,-0.6788664,-0.59480864,-0.3192119,1.0,0.0,0.0,0.0,0.0,0.0,0.0,-1.838385,0.1372777,-1.2074406,26.747162,-22.206093,6.2386155,3.8617969,-7.0783615,-0.7806599,-3.1485856
34.730953,17.113874,5.95225,-19.707073,-1.0474509,-2.908827,0.90576404,0.117620595,-0.77891684,0.37804738,-0.13889089,-0.655406,0.6653759,0.028569646,0.95858747,-0.5168904,-1.6151654,-0.70678174,2.2564332,1.5576347,-0.9420687,0.94484556,-0.45380592,-1.6454132,-0.69212306,2.3122768,1.4956366,-0.94202554,-0.1186207,-1.5075167,0.76541966,0.047914296,-0.977848,0.45247918,0.27738914,1.1575923,-0.54162884,1.7487464,-3.0785046,-0.43500066,-0.89375246,0.0049333773,-0.30854535,1.0984888,0.83738345,-0.3105911,0.12638758,0.43168068,-0.5844311,-0.66599596,-0.37298733,1.0,0.0,0.0,0.0,0.0,0.0,0.0,-1.8075923,0.14162883,-1.1987464,31.752813,-10.708165,3.8959384,-11.629677,-3.314352,-0.6371498,-5.0712643
46.66955,36.742916,7.871202,-30.187206,-3.0261223,-3.4437993,1.0289425,0.2504782,-0.7954671,0.20352204,-0.24347164,-0.617027,0.66357285,-0.07951595,0.9698934,-0.5333526,-1.6250609,-0.71647024,2.250574,1.5619938,-0.94997716,0.9461101,-0.4690857,-1.638623,-0.6932131,2.3025837,1.500157,-0.9396776,0.20280965,-1.5354999,0.65647453,-0.16355641,-0.9681229,0.45034954,0.21962604,1.1268303,-0.5459757,1.7390791,-3.0754268,-0.43456575,-0.9910449,0.0003096077,-0.31576657,1.0943178,0.8374098,-0.30997768,0.12336359,0.43294328,-0.42221284,-0.738725,-0.4350935,1.0,0.0,0.0,0.0,0.0,0.0,0.0,-1.7768303,0.14597568,-1.189079,30.541397,-3.0133486,-8.992947,-21.854548,0.5290985,-0.6747782,-6.0884356
45.86052,38.344406,5.4386954,-31.452394,-3.7415507,-3.7658887,0.82026315,0.34993315,-0.80067104,-0.01131219,-0.32361245,-0.56530195,0.6572807,-0.111258835,0.9811034,-0.5491528,-1.6397542,-0.7255744,2.2460535,1.5658851,-0.95080346,0.95022714,-0.48431635,-1.6340206,-0.69659865,2.29323,1.5046545,-0.93788564,0.4767359,-1.5195538,0.39994392,-0.3990266,-0.92521083,0.4476893,0.16454172,1.0960991,-0.550318,1.7284397,-3.072352,-0.4341313,-1.08824,-0.0025822634,-0.3237741,1.0894891,0.83723766,-0.30825076,0.120399795,0.43533713,-0.24323834,-0.8195564,-0.50225115,1.0,0.0,0.0,0.0,0.0,0.0,0.0,-1.7460991,0.150318,-1.1784396,25.983356,1.401186,-24.133593,-24.17692,4.043567,-0.75801015,-5.8451266
31.687468,25.745829,-0.29897654,-22.793491,-3.3408823,-3.7489471,0.25720006,0.38486606,-0.799189,-0.2857804,-0.34597436,-0.55775756,0.6493151,-0.1315933,0.98871374,-0.56423527,-1.6625986,-0.7311961,2.2374544,1.569586,-0.951045,0.9564203,-0.49925327,-1.6330936,-0.7019421,2.2843342,1.5091196,-0.93660104,0.6638373,-1.4855467,-0.0065591307,-0.58059776,-0.8784097,0.44457892,0.115338266,1.0653987,-0.554656,1.716829,-3.0692804,-0.43369725,-1.185338,-0.003934782,-0.33264995,1.0839806,0.8372786,-0.30514732,0.11800747,0.43809095,-0.09549551,-0.9082223,-0.5708818,1.0,0.0,0.0,0.0,0.0,0.0,0.0,-1.7153987,0.15465602,-1.1668289,17.790424,3.2672882,-39.65885,-18.5095,4.532492,-0.7981956,-5.2277565
20.825607,20.97218,-1.7204056,-13.524269,-2.5150185,-3.3096685,-0.021299243,0.43451515,-0.7999781,-0.40350634,-0.3768013,-0.54850656,0.65660137,-0.10195702,0.9998718,-0.57925105,-1.6734443,-0.73962224,2.2294836,1.5747797,-0.9467968,0.9639896,-0.51386446,-1.6362293,-0.708634,2.2758617,1.5135638,-0.93572557,0.78619325,-1.4532706,-0.4139234,-0.6991447,-0.8372932,0.44306782,0.07750205,1.0347289,-0.55898976,1.7042481,-3.0662117,-0.43326363,-1.282339,-0.0041070106,-0.34233046,1.0778325,0.8377457,-0.3007147,0.11639379,0.4406871,0.014251934,-0.9856364,-0.6339685,1.0,0.0,0.0,0.0,0.0,0.0,0.0,-1.6847289,0.15898976,-1.154248,11.721659,3.143406,-40.134872,-12.012852,3.976059,-0.58638453,-4.023939
10.1887,20.542332,-0.9223851,-3.312282,-1.4739964,-2.617891,-0.17142263,0.43622473,-0.79949635,-0.47085097,-0.39467168,-0.5634361,0.6553201,-0.038993295,1.0076121,-0.5938141,-1.6833143,-0.7481012,2.2195182,1.5790957,-0.9396249,0.97226274,-0.5282268,-1.6428039,-0.7160727,2.2676563,1.5180022,-0.9351238,0.8405042,-1.4307634,-0.7378288,-0.7587946,-0.8153094,0.44292066,0.053782508,1.0040897,-0.5633192,1.6906978,-3.063146,-0.43283045,-1.3792429,-0.0035109636,-0.35261774,1.0711377,0.8386561,-0.29522106,0.11553205,0.44289145,0.08125765,-1.0405895,-0.6867466,1.0,0.0,0.0,0.0,0.0,0.0,0.0,-1.6540897,0.1633192,-1.1406977,5.272162,2.1888256,-32.103394,-5.9694767,2.0273209,-0.3488481,-2.5387392
9.481695,24.779957,1.4209042,-1.3655763,-1.1240935,-2.2180827,-0.005423717,0.46370146,-0.7998131,-0.52048457,-0.48198274,-0.5620179,0.64149773,0.0072944546,1.0186329,-0.6082081,-1.6948524,-0.76427096,2.2114546,1.5821519,-0.93439436,0.9808525,-0.5424499,-1.6517951,-0.7241627,2.2595882,1.5224329,-0.9346794,0.8648897,-1.4196783,-0.95245826,-0.8257108,-0.8040601,0.44198066,0.041020654,0.97348124,-0.56764436,1.6761793,-3.0600836,-0.43239772,-1.47605,-0.0023276042,-0.36334085,1.0639397,0.83986366,-0.28887284,0.11526606,0.44485408,0.1375969,-1.080045,-0.73704726,1.0,0.0,0.0,0.0,0.0,0.0,0.0,-1.6234813,0.16764435,-1.1261792,2.3862362,1.0653496,-21.369923,-6.6855073,1.0076642,-0.40044785,-1.3832085
8.264727,30.49038,4.4286385,1.8817601,-0.67481005,-1.7135684,0.13701163,0.4680487,-0.8057292,-0.52755046,-0.50507855,-0.5931572,0.6465511,0.09488714,1.0276574,-0.6230228,-1.7045501,-0.77467054,2.2002726,1.587088,-0.9251907,0.98952425,-0.5566558,-1.6620681,-0.7328335,2.2514858,1.5268618,-0.93426454,0.86799955,-1.4208935,-1.0526134,-0.88082266,-0.8122432,0.44236523,0.041539595,0.94290334,-0.5719652,1.6606934,-3.057024,-0.4319654,-1.5727603,-0.0006873992,-0.37430692,1.056297,0.8411662,-0.2819219,0.115400515,0.44681323,0.17990291,-1.0989782,-0.78033847,1.0,0.0,0.0,0.0,0.0,0.0,0.0,-1.5929034,0.17196521,-1.1106935,0.32256842,-0.15323162,-10.07278,-5.4949403,-0.88665485,-0.19577742,0.014939904
10.427549,37.775993,7.596485,2.6201587,-0.47922075,-1.3895197,0.2847641,0.4853062,-0.805572,-0.53219914,-0.5393777,-0.58138525,0.6367035,0.09951544,1.0380548,-0.637213,-1.715288,-0.7867713,2.1933472,1.5905322,-0.924313,0.9982246,-0.57090753,-1.6727378,-0.74204695,2.2433147,1.5312907,-0.9338211,0.87065744,-1.4267066,-1.0721846,-0.93488973,-0.81868047,0.4424811,0.04536053,0.912356,-0.57628155,1.6442411,-3.0539677,-0.43153352,-1.6693739,0.001356401,-0.3853464,1.0482705,0.84237754,-0.27459094,0.1157231,0.4490078,0.21945058,-1.1021615,-0.81750584,1.0,0.0,0.0,0.0,0.0,0.0,0.0,-1.562356,0.17628154,-1.0942411,0.2616644,-0.59490204,-2.1250725,-5.422294,-0.62441826,-0.16288161,0.41111037
12.362537,46.232063,10.939104,4.3084984,-0.32419878,-1.0524714,0.3618096,0.50745434,-0.8044913,-0.5128315,-0.5337804,-0.6042916,0.64980376,0.12970102,1.0489701,-0.65135664,-1.724021,-0.795425,2.1828856,1.596271,-0.920851,1.0070312,-0.58521646,-1.6831787,-0.75162375,2.2350216,1.5357348,-0.9333118,0.8839336,-1.4322814,-1.0355595,-0.9655104,-0.8324854,0.44488403,0.05310473,0.8818393,-0.5805936,1.6268234,-3.0509143,-0.43110207,-1.7658908,0.0037753738,-0.39628887,1.0399501,0.8433489,-0.2671195,0.1160798,0.4515917,0.25635797,-1.0875916,-0.8445718,1.0,0.0,0.0,0.0,0.0,0.0,0.0,-1.5318393,0.18059358,-1.0768235,1.2879372,-0.5545616,3.4173012,-3.1160116,-1.2776971,0.16005039,0.85621846
7.119691,44.93126,10.575832,8.636198,0.11328399,-0.87351406,0.19320203,0.49003175,-0.80937266,-0.55439925,-0.50682855,-0.6057674,0.64125925,0.112101756,1.0560343,-0.6661537,-1.7386186,-0.8023066,2.174445,1.5998607,-0.9221016,1.0158851,-0.5995931,-1.693341,-0.76123583,2.226595,1.5401999,-0.9327415,0.885946,-1.4394752,-1.0106986,-0.9597202,-0.8457397,0.44689736,0.058637396,0.85135305,-0.58490133,1.6084414,-3.047864,-0.43067107,-1.8623114,0.0064319167,-0.40706873,1.0314006,0.8441082,-0.25963643,0.116440184,0.45443562,0.27576655,-1.0702686,-0.8660841,1.0,0.0,0.0,0.0,0.0,0.0,0.0,-1.501353,0.18490133,-1.0584414,0.22429228,-0.7335663,2.2745132,0.58214664,-1.3002634,0.16739368,0.634329
6.5710554,44.756546,10.404934,8.990704,0.13685703,-0.8717483,0.16798833,0.49693096,-0.81044775,-0.56925553,-0.52117306,-0.60445654,0.64239365,0.14901142,1.0655782,-0.6806379,-1.7502666,-0.8133531,2.1661494,1.6044393,-0.91784036,1.0247657,-0.61403173,-1.7033851,-0.77076113,2.2180653,1.5446821,-0.9320959,0.88865125,-1.4453735,-1.0029179,-0.95001376,-0.8553106,0.44872713,0.066844724,0.8208972,-0.5892048,1.5890957,-3.0448167,-0.43024048,-1.9586353,0.009274457,-0.41769123,1.0226322,0.84469527,-0.25214347,0.1168265,0.45745504,0.2939853,-1.0546286,-0.8879864,1.0,0.0,0.0,0.0,0.0,0.0,0.0,-1.4708972,0.18920478,-1.0390956,0.303483,-0.6076336,0.58836937,0.9901047,-0.957644,0.14077425,0.8946225
4.6668663,43.595943,9.827274,9.679795,0.22124112,-0.8617538,0.124378726,0.48253945,-0.81147116,-0.5794112,-0.5298283,-0.5916465,0.64074814,0.1581946,1.0730196,-0.69517887,-1.7613262,-0.82374394,2.1589005,1.608757,-0.91627645,1.0335948,-0.62851614,-1.7134712,-0.7802187,2.2095013,1.5491797,-0.93136823,0.88108164,-1.4496052,-1.0110905,-0.94416803,-0.8564581,0.4499227,0.075000875,0.7904719,-0.59350395,1.5687876,-3.0417724,-0.42981032,-2.0548627,0.012270672,-0.4281783,1.0136307,0.8451489,-0.24459314,0.11726268,0.46059394,0.3083399,-1.0415945,-0.9117029,1.0,0.0,0.0,0.0,0.0,0.0,0.0,-1.4404719,0.19350395,-1.0187876,-0.6862402,-0.4472971,-0.99294186,0.63539743,-0.15896559,0.059837103,0.88012815
6.7736654,44.2559,10.021543,7.7684727,0.021534562,-0.904377,0.20153528,0.48497725,-0.8135449,-0.57593316,-0.56048596,-0.5955978,0.63953584,0.19907893,1.0820925,-0.70987064,-1.7710645,-0.8362673,2.1499414,1.6131333,-0.91146034,1.0423515,-0.6430358,-1.7236545,-0.7897841,2.200941,1.5536848,-0.9305357,0.8740753,-1.452896,-1.0214437,-0.9605325,-0.85614705,0.45036316,0.08616292,0.760077,-0.5977988,1.5475179,-3.0387313,-0.4293806,-2.150994,0.015466836,-0.43855,1.0043582,0.8454557,-0.23691204,0.117762,0.46390653,0.330291,-1.0300616,-0.9398329,1.0,0.0,0.0,0.0,0.0,0.0,0.0,-1.410077,0.19779882,-0.9975179,-0.63244104,-0.34639835,-1.2327194,-1.5868425,0.0024318695,-0.055098534,1.1795774
7.767828,47.227493,11.162232,7.9978046,0.029699385,-0.80418336,0.22126827,0.49045843,-0.8141496,-0.5635272,-0.5483891,-0.60058355,0.64437973,0.21424238,1.0913973,-0.72445077,-1.7800072,-0.84462297,2.1408827,1.6181228,-0.90911144,1.0510757,-0.65757936,-1.7338741,-0.7994753,2.192377,1.5581976,-0.9295887,0.8721735,-1.4548995,-1.0227334,-0.971816,-0.8566565,0.45127368,0.097778015,0.7297125,-0.6020894,1.5252876,-3.0356932,-0.4289513,-2.2470293,0.018887695,-0.44877338,0.9948242,0.8455838,-0.22911996,0.11831177,0.46743378,0.35288787,-1.0137969,-0.96532214,1.0,0.0,0.0,0.0,0.0,0.0,0.0,-1.3797125,0.2020894,-0.9752876,-0.13433695,-0.21128654,-0.34251213,-1.089859,-0.058233738,0.01155138,1.2359962
5.715168,48.568302,11.453199,9.48524,0.12785095,-0.6908658,0.18152706,0.47131276,-0.81063384,-0.5728093,-0.54682314,-0.60796225,0.64427996,0.24231955,1.098207,-0.73864275,-1.791155,-0.8541576,2.1315808,1.6226256,-0.9053567,1.0597122,-0.6721172,-1.7441242,-0.80924284,2.1837826,1.562718,-0.9285158,0.86111647,-1.4534844,-1.0264264,-0.9781891,-0.8604718,0.45222482,0.11064127,0.6993783,-0.6063757,1.5020977,-3.032658,-0.42852244,-2.3429685,0.022500966,-0.4588139,0.9850508,0.845539,-0.22123988,0.118936114,0.47113773,0.37080687,-0.99450207,-0.98873127,1.0,0.0,0.0,0.0,0.0,0.0,0.0,-1.3493783,0.20637569,-0.9520977,-1.0224581,0.12927055,-0.58362484,-0.5829692,-0.41331053,0.031232834,1.354538
2.0827332,43.82801,9.73183,9.970457,0.27513278,-0.7018316,0.14411217,0.4392287,-0.8204919,-0.5943957,-0.57782716,-0.5957151,0.634995,0.26486617,1.1036351,-0.75416636,-1.8035637,-0.86702555,2.124211,1.6262175,-0.90202916,1.0680988,-0.6866817,-1.754502,-0.819183,2.1751842,1.5672385,-0.92731035,0.83166224,-1.4575359,-1.0421797,-0.99895024,-0.8598566,0.45165512,0.124043725,0.6690745,-0.6106577,1.4779491,-3.0296261,-0.428094,-2.4388118,0.026242135,-0.46871448,0.9749919,0.8453642,-0.21319346,0.11965003,0.4749648,0.38178337,-0.9819549,-1.0188597,1.0,0.0,0.0,0.0,0.0,0.0,0.0,-1.3190744,0.21065769,-0.92794913,-2.8100848,-0.4312992,-1.773572,-1.9634962,-0.027811527,-0.16946793,1.3995022
0.65787554,46.02035,10.511356,10.779348,0.33708322,-0.5329623,0.17293176,0.41177166,-0.8178117,-0.5642148,-0.5976175,-0.6133917,0.64242953,0.3161324,1.1092759,-0.76846284,-1.8109236,-0.87894475,2.113845,1.6314814,-0.8956971,1.0760868,-0.70127577,-1.7648895,-0.82940257,2.1665478,1.5717589,-0.9259447,0.78839636,-1.4600704,-1.0383881,-1.0292946,-0.8654798,0.45184273,0.14086744,0.638801,-0.6149354,1.4528428,-3.026597,-0.42766598,-2.5345592,0.030071856,-0.4784515,0.9646409,0.84504753,-0.20497222,0.12045645,0.4789271,0.38965118,-0.96381646,-1.0477955,1.0,0.0,0.0,0.0,0.0,0.0,0.0,-1.288801,0.21493539,-0.9028428,-4.16342,-0.27525425,0.1418829,-2.9104233,-0.6539583,-0.08209348,1.7492831
-4.987981,48.245483,11.164663,14.020717,0.6859093,-0.23228765,0.13290231,0.3476331,-0.81528187,-0.5257977,-0.613465,-0.61892,0.6527636,0.35111737,1.1108501,-0.78280395,-1.8174692,-0.8907491,2.1046557,1.6370353,-0.89083296,1.083411,-0.71587557,-1.775029,-0.83995306,2.157835,1.5762907,-0.9243988,0.71440744,-1.4601084,-1.0065155,-1.06318,-0.8735432,0.45350364,0.15943207,0.6085577,-0.6192088,1.4267797,-3.023571,-0.4272384,-2.6302109,0.033877384,-0.48795152,0.9540373,0.8445851,-0.19663839,0.12134012,0.48299682,0.3832426,-0.93802774,-1.0716984,1.0,0.0,0.0,0.0,0.0,0.0,0.0,-1.2585577,0.2192088,-0.87677974,-7.1739554,-0.027418137,2.9094696,-3.2324553,-0.93164444,0.10884404,1.9354641
-13.487691,52.15155,12.412556,19.51096,1.2953036,0.20836627,0.038279854,0.26314437,-0.812451,-0.45464692,-0.6140392,-0.6271591,0.6620508,0.36620873,1.1097255,-0.7971207,-1.8204936,-0.901357,2.095119,1.6424958,-0.8877779,1.0897071,-0.73045534,-1.7845142,-0.8507706,2.149023,1.5808512,-0.9226707,0.60224134,-1.4573652,-0.93035734,-1.0873175,-0.8841379,0.45703548,0.17750657,0.57834464,-0.62347794,1.3997608,-3.020548,-0.42681125,-2.7257671,0.037447717,-0.49711084,0.9432823,0.8439951,-0.18834138,0.12223999,0.4870904,0.3535007,-0.9010049,-1.0837793,1.0,0.0,0.0,0.0,0.0,0.0,0.0,-1.2283447,0.22347793,-0.84976083,-10.924185,0.24852753,7.286203,-2.2251844,-1.2153745,0.38992167,1.9124985
-19.041136,50.42062,11.531765,21.545097,1.591259,0.31820476,-0.022474602,0.19443054,-0.8143381,-0.44338897,-0.642382,-0.6240129,0.65889406,0.38957825,1.1091502,-0.8118892,-1.8288531,-0.9150088,2.0866218,1.6467406,-0.8837129,1.0947349,-0.7450151,-1.7932518,-0.86187327,2.1401272,1.5854441,-0.9207634,0.47076225,-1.4556978,-0.8559111,-1.117093,-0.89165986,0.4600957,0.19547893,0.5481618,-0.62774277,1.3717872,-3.017528,-0.42638454,-2.8212276,0.040635508,-0.505918,0.93240297,0.84332246,-0.180106,0.123128824,0.4911296,0.31170154,-0.86622614,-1.0958972,1.0,0.0,0.0,0.0,0.0,0.0,0.0,-1.1981618,0.22774276,-0.8217872,-12.815392,0.13122559,7.108438,-2.7397156,-0.94058514,0.3432989,1.9110322
-22.665937,49.789803,11.07456,22.891571,1.7914408,0.39502782,-0.06877042,0.12470785,-0.8127265,-0.4174164,-0.6584624,-0.62396574,0.66347265,0.40791214,1.1072057,-0.82628775,-1.8349934,-0.92771953,2.0777307,1.6517913,-0.87997216,1.0983913,-0.7595567,-1.8012931,-0.8732773,2.131178,1.5900675,-0.9186815,0.3318325,-1.4537792,-0.78816015,-1.1472617,-0.8964887,0.46323517,0.2128398,0.5180091,-0.6320033,1.3428596,-3.014511,-0.42595825,-2.9165926,0.043352526,-0.5143912,0.921403,0.8426069,-0.17191875,0.12399086,0.49505934,0.26212716,-0.83314294,-1.1074865,1.0,0.0,0.0,0.0,0.0,0.0,0.0,-1.168009,0.2320033,-0.7928596,-13.54627,0.15079975,6.436074,-2.7480125,-0.68193674,0.35337806,1.8599689
-23.435997,54.032562,12.925523,24.15734,1.9917684,0.5983404,-0.04956612,0.052837115,-0.81185085,-0.3267661,-0.66758823,-0.6269248,0.667328,0.43395567,1.103675,-0.8407418,-1.8339697,-0.9400361,2.0684855,1.6568003,-0.8752859,1.1006553,-0.77407926,-1.8084323,-0.88495123,2.1221943,1.5947253,-0.9164232,0.1922909,-1.4518825,-0.69058335,-1.1732044,-0.8995764,0.46687248,0.2307338,0.48788664,-0.6362598,1.3129791,-3.0114973,-0.42553237,-3.0118623,0.045543324,-0.522485,0.91034764,0.8418307,-0.16387321,0.1247462,0.49890372,0.20756307,-0.7935331,-1.1105976,1.0,0.0,0.0,0.0,0.0,0.0,0.0,-1.1378866,0.23625979,-0.7629791,-13.616186,0.16179085,9.352648,-2.3305416,-0.45067072,0.45970082,1.956144
-36.89025,52.751984,11.5977545,29.748148,2.6824884,0.92182094,-0.209213,-0.10786643,-0.80696684,-0.26929027,-0.69430935,-0.6206059,0.66078275,0.4420834,1.0898687,-0.85477597,-1.8353614,-0.9543822,2.0601337,1.6608036,-0.87221485,1.1011341,-0.7885656,-1.8145111,-0.8969265,2.113203,1.5994116,-0.91399705,0.0012122629,-1.447742,-0.5818272,-1.204446,-0.89919823,0.4696995,0.24722776,0.45779425,-0.640512,1.2821466,-3.0084863,-0.4251069,-3.1070368,0.04698095,-0.5301776,0.8992914,0.8410738,-0.15600869,0.1253603,0.5025345,0.12459819,-0.7532725,-1.1091133,1.0,0.0,0.0,0.0,0.0,0.0,0.0,-1.1077943,0.24051198,-0.73214656,-18.67962,0.36857128,10.433542,-2.7750492,-0.15976429,0.40598512,1.8382758
-30.6875,55.626076,13.393618,26.94492,2.498816,0.8643651,-0.09930698,-0.14049825,-0.80922204,-0.20666522,-0.7222397,-0.5888382,0.6518099,0.45462176,1.0870843,-0.86948776,-1.8351775,-0.9691505,2.0543191,1.6645926,-0.86853486,1.0999115,-0.8030252,-1.8194492,-0.90927565,2.1043262,1.604117,-0.9114126,-0.16202366,-1.4454572,-0.4661446,-1.2439109,-0.8841558,0.4712229,0.2630213,0.42773193,-0.6447599,1.2503631,-3.0054784,-0.4246819,-3.2021163,0.047678243,-0.5374627,0.8882592,0.8403093,-0.1483573,0.12572043,0.5060283,0.052831862,-0.7122532,-1.1057674,1.0,0.0,0.0,0.0,0.0,0.0,0.0,-1.0777318,0.24475989,-0.7003631,-15.945138,0.20496845,11.062926,-3.618741,1.406014,0.28310418,1.816827
-8.546827,59.554466,16.449255,17.234951,1.3966905,0.36916912,0.16338214,-0.0867648,-0.8100396,-0.20018364,-0.74039704,-0.583217,0.64739794,0.46508262,1.0912349,-0.88402915,-1.8394675,-0.98331535,2.0460045,1.6688569,-0.86490434,1.0977695,-0.8174724,-1.8234775,-0.9220301,2.095625,1.6088301,-0.90867937,-0.23072702,-1.4444802,-0.38353693,-1.2852482,-0.865118,0.47170296,0.27757448,0.3976997,-0.6490035,1.2176296,-3.0024736,-0.4242573,-3.2971005,0.048022717,-0.5443592,0.8772174,0.8393891,-0.14089537,0.12576927,0.5096632,0.028911633,-0.6740467,-1.1076083,1.0,0.0,0.0,0.0,0.0,0.0,0.0,-1.0476997,0.2490035,-0.66762954,-6.64559,0.121188164,7.755387,-3.9132833,1.9593954,0.15872121,1.6974568
12.345397,56.57748,15.996779,7.214584,0.10453875,-0.44715792,0.29965305,-0.011517186,-0.8062722,-0.3168326,-0.7325681,-0.59379524,0.6410156,0.468454,1.0966178,-0.8980996,-1.8551607,-0.9952869,2.0362453,1.6729317,-0.861834,1.0957325,-0.8318996,-1.8275173,-0.9350678,2.087061,1.6135374,-0.9058193,-0.19442733,-1.4418812,-0.41207495,-1.3095021,-0.85324985,0.47029766,0.28940856,0.36769748,-0.6532428,1.1839468,-2.9994717,-0.42383313,-3.39199,0.04850939,-0.5509994,0.8660195,0.83822733,-0.13341376,0.1256581,0.51360065,0.055609334,-0.6522828,-1.1271989,1.0,0.0,0.0,0.0,0.0,0.0,0.0,-1.0176975,0.25324282,-0.63394684,3.697151,0.30333996,-3.1902611,-2.2946596,1.2702942,-0.12762547,1.3432741
25.836535,47.56333,12.850031,-0.6623783,-0.88131386,-1.1975858,0.36103785,0.055646308,-0.81673855,-0.44224626,-0.735343,-0.61631036,0.63635266,0.4757546,1.1012971,-0.91357344,-1.8717419,-1.008602,2.02543,1.6771727,-0.8582438,1.094609,-0.8463525,-1.8326614,-0.94825613,2.0785084,1.6182181,-0.9028553,-0.08493988,-1.4463598,-0.5490168,-1.3215727,-0.85572505,0.4667536,0.29897046,0.33772525,-0.6574781,1.149316,-2.9964728,-0.42340937,-3.4867845,0.049528945,-0.5575807,0.8544334,0.83681005,-0.12558909,0.12562324,0.51787555,0.11782588,-0.6514178,-1.1723154,1.0,0.0,0.0,0.0,0.0,0.0,0.0,-0.98772526,0.2574781,-0.59931594,10.919374,-0.41456223,-13.848382,-1.1033058,-0.2056241,-0.49818754,1.0279477
4.1316147,35.815014,5.702059,6.1304445,-0.13812903,-1.1173166,0.015321612,-0.04361169,-0.8133189,-0.5577654,-0.7402906,-0.6234739,0.6168312,0.45302647,1.0902479,-0.9276844,-1.888438,-1.0222852,2.016161,1.6799011,-0.85755265,1.094094,-0.8608436,-1.8397052,-0.9615065,2.069868,1.6228415,-0.89982927,-0.04006397,-1.4501547,-0.75617725,-1.3253711,-0.8671726,0.46002603,0.3037536,0.307783,-0.6617091,1.1137298,-2.993477,-0.42298606,-3.5825496,0.05088484,-0.5642748,0.8422743,0.83534473,-0.11710707,0.1259019,0.5221433,0.14211695,-0.6663719,-1.2339112,1.0,0.0,0.0,0.0,0.0,0.0,0.0,-0.957783,0.26170906,-0.5637298,4.5681252,-0.42119026,-20.713211,-0.13103485,-1.3288379,-0.948447,0.48203468
-25.632818,27.324678,-0.11434507,16.465628,1.2136265,-0.55650735,-0.33051232,-0.16338623,-0.81842685,-0.61606896,-0.7597565,-0.60808843,0.5847745,0.42121154,1.0777555,-0.94268626,-1.9013121,-1.0374821,2.0090592,1.6813189,-0.8577081,1.0932357,-0.87539476,-1.8487995,-0.9748379,2.0611477,1.6273733,-0.8967918,-0.100472234,-1.4571615,-0.96008164,-1.3343517,-0.875229,0.4496652,0.30369934,0.27787068,-0.66593575,1.0771867,-2.9904842,-0.42256317,-3.6782188,0.052031644,-0.57115865,0.8294637,0.83409244,-0.10780743,0.12655215,0.5259771,0.10617893,-0.68633,-1.3007419,1.0,0.0,0.0,0.0,0.0,0.0,0.0,-0.92787063,0.26593575,-0.5271867,-5.8049307,-0.8338928,-20.285427,-0.47810078,-1.2352109,-1.3935387,-0.020945072
-53.999664,27.602293,-2.1555562,27.763458,2.649088,0.32215852,-0.59306777,-0.29945233,-0.8168235,-0.6310819,-0.768215,-0.61386937,0.57948333,0.4465885,1.0632905,-0.9570771,-1.9119077,-1.0516593,1.9997607,1.6853217,-0.852133,1.0909812,-0.8900022,-1.8595016,-0.9882761,2.0523357,1.6318022,-0.893741,-0.26588207,-1.4626979,-1.1062485,-1.345045,-0.885321,0.43946055,0.30551428,0.24798827,-0.67015815,1.0396876,-2.9874942,-0.4221407,-3.7737925,0.052365303,-0.57817745,0.8160715,0.83323926,-0.09775016,0.12750867,0.52905446,0.009337164,-0.69718707,-1.3565199,1.0,0.0,0.0,0.0,0.0,0.0,0.0,-0.89798826,0.27015814,-0.48968762,-16.171446,-0.77278614,-14.450932,-0.5088091,-1.658678,-1.3918281,0.18226504
-72.273026,32.094666,-1.7054543,35.508533,3.7197652,1.0629063,-0.74718785,-0.42600143,-0.81507367,-0.6458429,-0.7742985,-0.5942284,0.56132966,0.4176555,1.0483811,-0.9715096,-1.9240859,-1.065706,1.9929129,1.6879351,-0.85197544,1.0865715,-0.90464395,-1.8711936,-1.0018231,2.0434933,1.6361262,-0.8906921,-0.49766234,-1.4657001,-1.189565,-1.3557308,-0.8866835,0.4286684,0.30487216,0.21813574,-0.6743765,1.0012336,-2.9845073,-0.42171863,-3.8692706,0.05141934,-0.58522034,0.802241,0.8328896,-0.08710936,0.12860805,0.5311937,-0.1297105,-0.69641197,-1.3968337,1.0,0.0,0.0,0.0,0.0,0.0,0.0,-0.8681357,0.27437648,-0.45123357,-22.737896,-0.5850315,-8.136654,-0.41048527,-0.9248495,-1.4583111,-0.0109910965
-72.33525,36.16497,-0.1095593,35.44094,3.8500662,1.2720025,-0.70074666,-0.4980942,-0.8178757,-0.69804454,-0.78182393,-0.57681876,0.52332014,0.41926154,1.036762,-0.98643154,-1.9409981,-1.0800054,1.9858114,1.6884582,-0.84876597,1.0798728,-0.9193153,-1.8835418,-1.0154835,2.034708,1.6403204,-0.8876461,-0.7257665,-1.4686648,-1.2493184,-1.3670915,-0.8785126,0.41519895,0.30481666,0.18831305,-0.67859054,0.96182543,-2.9815235,-0.42129698,-3.9646533,0.049068164,-0.59221053,0.7880517,0.8330295,-0.07598613,0.12969083,0.53241724,-0.2720387,-0.68909276,-1.4313581,1.0,0.0,0.0,0.0,0.0,0.0,0.0,-0.83831304,0.27859053,-0.41182542,-22.383667,-0.5988598,-5.790353,-0.44879913,0.027310848,-1.7601073,0.09953976
-71.387314,38.82599,0.9087069,34.774746,3.9580386,1.393428,-0.6763041,-0.600944,-0.82068175,-0.74165404,-0.7840909,-0.5285505,0.48998,0.3899535,1.0197785,-1.0013834,-1.9577072,-1.0938926,1.981853,1.6893184,-0.84865075,1.0709751,-0.93402094,-1.8964317,-1.0292393,2.0261555,1.6443659,-0.8846191,-0.9429185,-1.4723283,-1.3016471,-1.3757906,-0.8501025,0.3994339,0.30246744,0.15852018,-0.6828003,0.9214642,-2.9785426,-0.42087576,-4.0599403,0.045288622,-0.59910655,0.7735381,0.8336325,-0.06443264,0.13058932,0.5327771,-0.41595528,-0.6782612,-1.4629768,1.0,0.0,0.0,0.0,0.0,0.0,0.0,-0.80852014,0.2828003,-0.3714642,-21.308887,-0.6831169,-5.045557,-0.15506744,2.0578623,-2.0347476,-0.07773638
-69.19694,44.171925,2.869069,34.55673,4.015516,1.5535059,-0.68990016,-0.6987508,-0.8120565,-0.77958167,-0.7648925,-0.48097023,0.5178031,0.33765844,1.0011,-1.0152266,-1.9743898,-1.1057285,1.9780585,1.6961462,-0.85085326,1.0600479,-0.9487161,-1.9098499,-1.0429608,2.0180187,1.6482855,-0.8816532,-1.1414711,-1.469577,-1.3545871,-1.3686416,-0.80395305,0.38814178,0.2953418,0.12875709,-0.687006,0.8801508,-2.9755645,-0.42045498,-4.1551323,0.040081814,-0.6058552,0.7587642,0.83469003,-0.05253576,0.13118123,0.5322818,-0.55922633,-0.661229,-1.4870654,1.0,0.0,0.0,0.0,0.0,0.0,0.0,-0.7787571,0.287006,-0.33015078,-19.487072,-0.042438507,-5.094409,1.41747,3.862393,-1.6021013,-0.52285194
-60.84118,50.80134,6.1217804,32.56444,3.7575912,1.6236231,-0.69910705,-0.7593807,-0.80683535,-0.8055738,-0.7330899,-0.4617694,0.55639297,0.15051234,0.9841098,-1.0293996,-1.9904072,-1.1162697,1.9718418,1.7039248,-0.86660194,1.047425,-0.9633483,-1.9237773,-1.05644,2.0103588,1.6521403,-0.87889516,-1.3016461,-1.4620435,-1.4049635,-1.3390288,-0.75550985,0.38312826,0.26995057,0.09902376,-0.6912074,0.8378862,-2.9725895,-0.42003462,-4.250229,0.033549506,-0.6123831,0.74381447,0.83618784,-0.040437363,0.13141519,0.5309281,-0.6888149,-0.63646215,-1.5023631,1.0,0.0,0.0,0.0,0.0,0.0,0.0,-0.74902374,0.2912074,-0.2878862,-15.719438,0.46768188,-4.8535824,3.5889149,4.2048216,-0.9423435,-2.3401856
-46.84156,56.357204,9.974128,28.071163,3.3022768,1.5340793,-0.6500126,-0.7926462,-0.80731463,-0.81870204,-0.71571445,-0.39481804,0.5207261,-0.129401,0.9681604,-1.0440798,-2.0056477,-1.1280115,1.970877,1.7042129,-0.8918353,1.033572,-0.9779071,-1.9381359,-1.0695568,2.0033054,1.655934,-0.876593,-1.4124079,-1.4545791,-1.4455999,-1.3009101,-0.69020647,0.37692082,0.21768287,0.06932016,-0.6954045,0.79467136,-2.9696176,-0.41961467,-4.34523,0.025905306,-0.61862993,0.7287546,0.8380906,-0.02826285,0.13118331,0.52876866,-0.79417026,-0.6062581,-1.5117538,1.0,0.0,0.0,0.0,0.0,0.0,0.0,-0.7193201,0.29540452,-0.24467134,-10.860682,0.52073,-3.9345264,4.3245077,6.063497,-1.001972,-5.0109205
-33.303688,62.60347,14.687962,24.339481,3.3792746,1.4766908,-0.53852564,-0.81623137,-0.80234414,-0.81120634,-0.69908726,-0.109207936,0.47362286,-0.23747875,0.9519488,-1.0581416,-2.0192566,-1.1394656,1.9923847,1.7032963,-0.90034086,1.0189426,-0.99238104,-1.9527347,-1.0822865,1.9976691,1.6596419,-0.8748678,-1.4793769,-1.4455543,-1.4643185,-1.2622619,-0.5222419,0.36765936,0.15846367,0.039646253,-0.6995976,0.7505072,-2.9666486,-0.41919515,-4.4401364,0.017310392,-0.62457204,0.71368974,0.84035134,-0.01618725,0.13004068,0.5259628,-0.8860254,-0.5748003,-1.5089787,0.0,1.0,0.0,0.0,0.0,0.0,0.0,-0.68964624,0.2995976,-0.20050716,-6.5627575,0.7425308,-1.8019915,4.239106,16.507769,-1.2334526,-5.620131
-24.745508,66.72694,18.102352,23.109335,3.9581864,1.4035183,-0.55566335,-0.8269416,-0.7996291,-0.8168123,-0.6513552,0.28414682,0.41078272,-0.39795828,0.9362484,-1.072344,-2.034416,-1.147422,2.0260837,1.7007202,-0.9146636,1.0037805,-1.0066286,-1.9686534,-1.0953406,1.9970785,1.6615226,-0.8743104,-1.5251166,-1.4211546,-1.6124191,-1.3034126,0.0464768,0.14309782,0.03993379,0.022683986,-0.69949245,0.7445529,-1.5598888,0.117378265,0.022850111,0.007648766,-0.63077164,0.69837797,0.8433479,-0.003102654,0.12630591,0.52230406,-0.9941688,-0.6107,-1.5374916,0.0,1.0,0.0,0.0,0.0,0.0,0.0,-0.67268395,0.29949245,-0.1945529,-2.70679,0.57168007,-0.4109621,6.376457,29.961216,-3.1396925,-5.7095776
16.408827,176.0,110.0,110.0,7.211626,11.614953,-2.1447299,-0.7840883,0.556772,0.6823547,0.6463417,-0.31994838,0.6942636,-0.355932,0.92537165,-0.95095146,-1.9004179,-1.0307064,1.9650837,1.7309489,-0.9099036,0.9915029,-1.0233904,-1.9751879,-1.0947684,1.9885145,1.6699932,-0.87312114,-1.1169397,-1.676215,-0.48544943,0.47446737,-1.0134507,1.1460851,0.17154199,0.007096797,-0.6983197,0.7440338,-1.5583292,0.11726091,-0.07681763,-0.0033254577,-0.63502264,0.6872983,0.84657526,0.00039359528,0.124839336,0.51742166,-1.1362737,-0.3455882,-0.9700919,1.0,0.0,0.0,0.0,0.0,0.0,0.0,-0.65709674,0.29831967,-0.1940338,44.308685,-4.7683716e-05,67.14105,166.89624,-62.8577,119.59979,21.033518
-33.30392,176.0,82.24766,91.516945,8.371649,5.5411,-2.1915598,-0.77972436,-0.68859345,0.20475085,0.71779764,-0.39717004,0.59132797,-0.40184733,0.91353047,-1.0922498,-1.9547129,-1.0229887,1.9487976,1.729126,-0.9133059,0.98058903,-1.0401522,-1.973948,-1.0830172,1.9764467,1.681443,-0.8718852,-1.0817147,-1.676215,0.32899976,1.4094111,-1.2728238,1.1493636,0.10979485,-0.00847481,-0.69714785,0.74251884,-1.5567713,0.11714367,-0.17638572,-0.015817989,-0.6377263,0.6809016,0.85069126,-0.003323399,0.12476001,0.5106352,-1.2862563,-0.23317766,-0.53292435,1.0,0.0,0.0,0.0,0.0,0.0,0.0,-0.64152515,0.29714784,-0.19251883,3.881979,-0.00011920929,81.98053,93.718544,-26.482655,1.7227888,-5.49864
-51.04674,158.41422,44.99538,62.65663,5.108532,2.6746774,-1.6922287,-0.772857,-0.5735835,-0.2571946,0.63973284,-0.46137807,0.6035313,-0.20155163,0.9033033,-1.0975106,-1.9996674,-1.0190439,1.9303089,1.7417961,-0.8920404,0.9693929,-1.0552164,-1.9701409,-1.0660456,1.9641081,1.6925304,-0.87105167,-1.1308001,-1.450871,0.39859545,1.7951481,-1.222468,1.0970863,0.07487459,-0.024030847,-0.69597745,0.74000895,-1.5552148,0.117026545,-0.27585426,-0.02950897,-0.63962007,0.67720926,0.855735,-0.009391836,0.12560493,0.5018493,-1.397003,-0.16547719,-0.3204773,1.0,0.0,0.0,0.0,0.0,0.0,0.0,-0.6259691,0.29597744,-0.19000894,-4.486108,22.246338,7.13017,39.17489,4.5327187,-4.6216726,-3.3906846
-33.953083,148.3814,42.97853,41.36,3.2966514,2.2530081,-0.831861,-0.77167666,-0.564279,0.23217775,0.7539487,-0.4887328,0.5888291,-0.2967012,0.8922252,-1.1116444,-1.9469231,-0.9906508,1.9152348,1.7514133,-0.9007218,0.95734227,-1.0679861,-1.965384,-1.0476302,1.9529177,1.7027595,-0.87064826,-1.2290326,-1.2200755,0.50216687,1.8582096,-1.086775,0.99957955,0.028870575,-0.039571337,-0.694808,0.7365051,-1.5536599,0.11690954,-0.37522337,-0.04385539,-0.64069486,0.67523164,0.86126024,-0.01615325,0.1269234,0.4917929,-1.4485978,-0.07859956,-0.16355306,1.0,0.0,0.0,0.0,0.0,0.0,0.0,-0.61042863,0.294808,-0.18650508,-9.615564,22.755146,10.549938,6.630206,12.878418,-9.3456745,-4.612099
-17.135597,108.90992,28.18581,18.854317,1.1757033,1.0552244,-0.1698828,-0.7612595,-0.54700303,0.15436451,0.7077218,-0.4367229,0.62661105,-0.29800618,0.8812163,-1.1226864,-1.9499476,-0.976858,1.9092454,1.7654206,-0.90044886,0.9444219,-1.0788065,-1.9606366,-1.0301818,1.9433123,1.712075,-0.87066734,-1.3130956,-1.0368758,0.46573508,1.7073168,-0.9198059,0.909843,-0.012676513,-0.055096284,-0.69363976,0.7320083,-1.5521065,0.11679266,-0.47449315,-0.058331393,-0.64107585,0.6740028,0.8668646,-0.022600692,0.12831286,0.48121798,-1.4490143,-0.014546089,-0.115681775,1.0,0.0,0.0,0.0,0.0,0.0,0.0,-0.5949037,0.29363975,-0.18200827,-8.420682,18.097544,-3.6016345,-14.999175,16.293217,-8.675766,-4.2819424
0.09111166,94.44706,25.331911,8.0574465,0.066636086,0.5420773,0.19599368,-0.7536489,-0.4915613,0.20278239,0.70513034,-0.43607348,0.60517716,-0.30899054,0.869057,-1.1279626,-1.9403584,-0.95966876,1.8997049,1.7725927,-0.9015664,0.930915,-1.0881373,-1.9562688,-1.0146407,1.9351355,1.7205665,-0.8710669,-1.3635337,-0.89898175,0.42758113,1.503037,-0.7850795,0.8295288,-0.049504608,-0.07060571,-0.6924727,0.7265195,-1.5505548,0.11667589,-0.5736636,-0.07254203,-0.64089394,0.6729961,0.8723005,-0.028357914,0.12962034,0.4706231,-1.4130008,0.039364234,-0.100851834,0.0,1.0,0.0,0.0,0.0,0.0,0.0,-0.5793943,0.2924727,-0.17651951,-5.1621914,13.602722,-3.6483586,-20.461512,13.03401,-7.7806234,-3.8326497
4.238779,71.09879,17.950417,3.6315475,-0.07336235,-0.011854589,0.25315177,-0.75576264,-0.49604508,0.16185649,0.69652206,-0.3716368,0.59548205,-0.28981143,0.85533875,-1.1377418,-1.9400831,-0.9449885,1.8979717,1.7801148,-0.9000481,0.91712296,-1.0966192,-1.9524732,-1.0009269,1.9281737,1.728339,-0.87177265,-1.384708,-0.8314727,0.3638327,1.327352,-0.6676711,0.7602173,-0.0779118,-0.086099625,-0.6913068,0.7200398,-1.5490044,0.116559245,-0.6727349,-0.08640837,-0.64036155,0.6718505,0.8775211,-0.033315297,0.13069187,0.4601808,-1.378473,0.067978054,-0.123150565,0.0,1.0,0.0,0.0,0.0,0.0,0.0,-0.56390035,0.29130682,-0.17003977,-2.2216082,6.629133,-6.243449,-17.589973,11.431992,-6.764519,-2.9292867
5.9811535,63.020435,16.185783,4.2034426,0.13865393,-0.18244022,0.18928762,-0.75028384,-0.48197502,0.16820222,0.6937331,-0.34953102,0.59818584,-0.28326517,0.8420946,-1.1448168,-1.935653,-0.93155354,1.8932205,1.7881576,-0.90009916,0.9033014,-1.1047436,-1.9492469,-0.98852384,1.9220877,1.7352766,-0.87260485,-1.3824182,-0.80460936,0.28401396,1.1992071,-0.53575283,0.65962446,-0.09203008,-0.1026334,-0.68913865,0.7148298,-1.4300523,0.34015924,0.23828791,-0.099953085,-0.6396644,0.67042345,0.88253933,-0.03742926,0.13148639,0.44992742,-1.3525733,0.073196344,-0.15891048,0.0,1.0,0.0,0.0,0.0,0.0,0.0,-0.54736656,0.28913864,-0.16482979,0.075888634,2.834785,-11.183291,-14.584374,17.451418,-14.204097,-0.6664917
6.6669407,128.05757,39.04363,18.242891,0.9509825,0.9140947,-0.030925244,-0.7770923,-0.21472332,0.30316964,0.71273047,-0.2683727,0.58903414,-0.3189123,0.82559216,-1.1262159,-1.9189299,-0.9172508,1.8952504,1.79418,-0.9044961,0.8894512,-1.1115795,-1.9459586,-0.9767889,1.9173613,1.741506,-0.8736863,-1.3861037,-0.64410245,0.34508863,1.164946,-0.45375365,0.61119545,-0.113839656,-0.1169232,-0.6857395,0.7164635,-1.4286226,0.33981916,0.13840477,-0.11322517,-0.6384995,0.6695931,0.887444,-0.041456282,0.1321244,0.4396222,-1.3186482,0.14030923,-0.060627807,0.0,1.0,0.0,0.0,0.0,0.0,0.0,-0.53307676,0.2857395,-0.1664635,-0.44178963,15.831364,6.5564814,-3.391242,7.6255856,-4.68992,-2.2739842
3.8215437,117.706535,36.310993,18.768024,1.5617815,0.8686533,-0.101013206,-0.7776727,-0.2660367,0.32921398,0.6810425,-0.13789086,0.57090056,-0.3285861,0.81168395,-1.1381832,-1.9130372,-0.9086846,1.9035722,1.798596,-0.9065449,0.8755714,-1.1171452,-1.941791,-0.9651998,1.9136648,1.7473215,-0.8749757,-1.388746,-0.5279414,0.44215629,1.1572796,-0.34347084,0.57179016,-0.13411374,-0.1311987,-0.68234396,0.71710753,-1.4271944,0.33947942,0.039744712,-0.12629984,-0.6367183,0.6696819,0.8922226,-0.04597473,0.1326742,0.42921177,-1.3034354,0.19982997,0.029896377,0.0,1.0,0.0,0.0,0.0,0.0,0.0,-0.5188013,0.28234395,-0.16710752,-0.30009747,11.421037,10.134935,-0.6795645,10.515011,-3.8713455,-2.0476594
-0.17349434,122.7892,36.742805,21.343792,1.5393717,0.9408055,-0.1565799,-0.7870242,-0.16982977,0.3062357,0.67786694,-0.14215648,0.574481,-0.29377967,0.79686904,-1.1341282,-1.9111675,-0.89741313,1.8994491,1.8047696,-0.9043536,0.86162966,-1.1214348,-1.9367766,-0.953524,1.9107752,1.7528204,-0.8764157,-1.3960259,-0.39680034,0.52250403,1.1715428,-0.272535,0.54267436,-0.14743727,-0.14545995,-0.67895174,0.7167657,-1.4257675,0.33914,-0.058816712,-0.13923012,-0.63430214,0.67072654,0.8968798,-0.051045317,0.13328442,0.4186121,-1.289064,0.26434326,0.12709135,0.0,1.0,0.0,0.0,0.0,0.0,0.0,-0.50454,0.27895173,-0.16676569,-0.7434368,12.913429,8.4450245,1.5666962,6.624275,-2.839315,-1.3559014
-2.5161624,100.490265,28.804304,18.58215,1.400129,0.6020787,-0.16280204,-0.7780725,-0.19067594,0.31236002,0.6921819,-0.15207767,0.58127457,-0.30391318,0.7838224,-1.1405025,-1.9055406,-0.88430583,1.8955674,1.8109478,-0.90680707,0.84766746,-1.124841,-1.9311999,-0.9416214,1.9083107,1.7579552,-0.87792045,-1.3962237,-0.3220409,0.56362045,1.1924423,-0.24484272,0.48181418,-0.14191252,-0.16031235,-0.6749239,0.71661377,-1.6063812,0.5442166,0.24031079,-0.15205917,-0.63139033,0.67244005,0.90141696,-0.05642197,0.13402154,0.4078017,-1.2771735,0.3048728,0.18179938,0.0,1.0,0.0,0.0,0.0,0.0,0.0,-0.48968762,0.2749239,-0.16661376,0.01013279,7.3859096,3.2941937,1.4889479,1.2559146,-9.833759,2.2220373
-16.298077,128.13008,30.740637,26.78077,0.8062027,0.5218767,-0.35764235,-0.8126977,0.10656216,0.0017179698,0.7191312,-0.18532687,0.54928094,-0.25675505,0.7663977,-1.1141847,-1.9310281,-0.8697083,1.889778,1.8128833,-0.9035959,0.83355325,-1.1264429,-1.9269139,-0.9294009,1.9060271,1.7626038,-0.8793917,-1.416495,-0.10689065,0.38417482,1.2325679,-0.2251,0.45801044,-0.14827177,-0.17576076,-0.669328,0.71957886,-1.536537,0.57238597,0.3176254,-0.1647231,-0.6279855,0.6748629,0.9058798,-0.061394542,0.13577437,0.39645636,-1.2613087,0.36111295,0.26037335,0.0,1.0,0.0,0.0,0.0,0.0,0.0,-0.47423923,0.26932797,-0.16957885,-2.0350456,21.308826,-17.744875,4.211688,1.2929171,-2.68175,-0.46289265
-26.744944,99.30028,17.799397,24.903765,0.70703423,-0.09013575,-0.4533771,-0.8233225,0.10554697,-0.22738686,0.7273414,-0.0498832,0.48881534,-0.2587512,0.751221,-1.1158882,-1.9496526,-0.8566668,1.9010388,1.8114853,-0.90526676,0.8191928,-1.1261282,-1.9256339,-0.91679895,1.9041904,1.7669829,-0.88090014,-1.4426037,0.07695427,0.04244411,1.2699231,-0.16981654,0.43125486,-0.15189816,-0.1909934,-0.6633911,0.7228723,-1.518685,0.60184205,0.33432746,-0.17736518,-0.624228,0.6776359,0.9103778,-0.06538237,0.13883947,0.38426673,-1.2631878,0.38973662,0.28133142,0.0,1.0,0.0,0.0,0.0,0.0,0.0,-0.45900658,0.2633911,-0.1728723,-2.6271582,18.22384,-34.20053,3.8760662,5.522859,-2.6527286,-0.43875575
-29.831398,74.67473,8.415855,21.472967,0.08220926,-0.47485244,-0.41482988,-0.82680655,0.1251618,-0.42065647,0.7556678,-0.21183898,0.44622204,-0.23483622,0.7365122,-1.113612,-1.9676995,-0.8412322,1.8830066,1.8116051,-0.9043838,0.8045959,-1.1243582,-1.9283288,-0.9037734,1.9023702,1.7711263,-0.8824347,-1.4653741,0.20997755,-0.37401006,1.3136612,-0.18587415,0.408552,-0.15441795,-0.20609364,-0.65724635,0.72599196,-1.5068402,0.61917007,0.30605447,-0.19003586,-0.620327,0.68026584,0.9149254,-0.067821145,0.14341106,0.37114006,-1.2654121,0.399666,0.256112,0.0,1.0,0.0,0.0,0.0,0.0,0.0,-0.44390634,0.25724635,-0.17599195,-2.2755384,13.159594,-41.744663,4.421544,-1.5427321,-2.268368,-0.38836002
-26.743052,41.31364,-0.1741345,14.94887,-0.1054793,-0.70767045,-0.27809742,-0.82612514,0.053358745,-0.50734574,0.7691451,-0.2892917,0.45194325,-0.224527,0.7219834,-1.1190223,-1.9790633,-0.82685894,1.8734411,1.8163205,-0.90488744,0.7898416,-1.1220942,-1.934796,-0.89034253,1.9000425,1.7750877,-0.8839854,-1.4785694,0.23146981,-0.73805094,1.352919,-0.24779011,0.39201567,-0.15584345,-0.22114605,-0.6510298,0.7284482,-1.5042313,0.6228794,0.22769918,-0.20279735,-0.61647177,0.6822686,0.9194736,-0.06853667,0.14926195,0.3572001,-1.2760888,0.39058882,0.18181545,0.0,1.0,0.0,0.0,0.0,0.0,0.0,-0.42885393,0.25102982,-0.1784482,-1.2661695,2.0608692,-36.549877,3.937769,-6.074467,-1.6411126,-0.30145645
-20.134947,23.765678,-3.1343212,9.442827,-0.29707974,-0.74913275,-0.061306953,-0.8247471,0.014341606,-0.5974362,0.7663558,-0.3740628,0.43271416,-0.113080725,0.7073669,-1.12066,-1.9945396,-0.81370693,1.8626362,1.8183591,-0.8952935,0.7750253,-1.1201792,-1.9442736,-0.87664014,1.8968344,1.7788986,-0.88546646,-1.4823787,0.17795962,-1.018249,1.3761054,-0.34491533,0.377645,-0.1460124,-0.23617709,-0.64480567,0.72997135,-1.5027275,0.62225664,0.12719232,-0.21565935,-0.6127708,0.6833457,0.9239193,-0.067600496,0.15601857,0.34272644,-1.2857661,0.3735194,0.0839639,0.0,1.0,0.0,0.0,0.0,0.0,0.0,-0.4138229,0.24480566,-0.17997134,-0.303483,-5.402103,-28.140879,2.342677,-9.598774,-1.3977945,0.8108169
-13.506897,15.703415,-3.022932,5.7124977,-0.30967006,-0.6786015,0.14334418,-0.82056797,-0.041183636,-0.65431225,0.7710316,-0.45597306,0.41625294,0.045097377,0.6929685,-1.1242975,-2.0097048,-0.799537,1.851237,1.8205239,-0.8809567,0.7602319,-1.1191874,-1.9558264,-0.862789,1.8925142,1.782574,-0.8867272,-1.4780596,0.072684884,-1.2012348,1.3883995,-0.4609663,0.36430869,-0.12001803,-0.2511931,-0.6385877,0.73049015,-1.5012251,0.6216345,0.026785944,-0.228604,-0.60925364,0.68338716,0.9281504,-0.06521805,0.16332561,0.32803652,-1.2938606,0.35495535,-0.021036563,0.0,1.0,0.0,0.0,0.0,0.0,0.0,-0.39880687,0.2385877,-0.18049014,0.510478,-10.554907,-18.350388,1.2913704,-11.532938,-1.2845576,2.438055
-7.1382904,15.053173,-1.1221149,3.13054,-0.20747812,-0.60800993,0.30521053,-0.8144791,-0.098921195,-0.69637364,0.759414,-0.47880882,0.3492676,0.16306888,0.678784,-1.1290795,-2.0254638,-0.7868476,1.8446333,1.8175008,-0.87042034,0.7455253,-1.1194277,-1.9686114,-0.84893876,1.887145,1.7860798,-0.88764656,-1.4680079,-0.056360055,-1.3041844,1.3840913,-0.56224775,0.34615356,-0.08297887,-0.2661941,-0.63237596,0.7300057,-1.4997241,0.621013,-0.07352004,-0.24160762,-0.60591197,0.6824026,0.9320921,-0.061629456,0.17081289,0.3134151,-1.2992226,0.3378943,-0.12261817,0.0,1.0,0.0,0.0,0.0,0.0,0.0,-0.38380587,0.23237595,-0.18000567,1.059556,-12.921627,-10.252762,-0.35243034,-10.134161,-1.792711,3.5663338
-7.8133774,6.5392246,-2.659186,1.8481021,0.039366603,-0.6218393,0.38258886,-0.8214988,-0.2049089,-0.7345729,0.75760895,-0.52373195,0.24208894,0.30574074,0.66337544,-1.1399186,-2.0420687,-0.77317786,1.8347719,1.8102887,-0.8570725,0.73088163,-1.121211,-1.982062,-0.8351744,1.8808641,1.7893375,-0.88810813,-1.4628621,-0.21915345,-1.3586938,1.3744073,-0.6500801,0.31902525,-0.03409551,-0.28118008,-0.6261704,0.7285189,-1.4982247,0.6203921,-0.17372575,-0.254743,-0.6027565,0.68033427,0.9357345,-0.05695664,0.17812873,0.29904357,-1.3153192,0.31868634,-0.23348266,0.0,1.0,0.0,0.0,0.0,0.0,0.0,-0.3688199,0.22617039,-0.17851889,0.59719086,-16.278023,-5.441594,-0.7940769,-8.762539,-2.7083635,4.820615
-8.39599,8.622648,-1.7497396,2.254862,0.19873774,-0.54694843,0.40290487,-0.8228336,-0.27249742,-0.7660624,0.7548776,-0.56977254,0.18232203,0.37133732,0.64859825,-1.1484607,-2.0586681,-0.7596866,1.8238869,1.8075697,-0.8509744,0.71626085,-1.1246176,-1.9958807,-0.8215168,1.8737841,1.7922939,-0.8880662,-1.4615993,-0.381219,-1.3893354,1.3635085,-0.7274814,0.287752,0.01685034,-0.2961511,-0.61997104,0.72603077,-1.4967269,0.61977184,-0.27383128,-0.26806086,-0.59976196,0.67719436,0.93908876,-0.0512783,0.18509744,0.2849943,-1.3344605,0.30399156,-0.33966893,0.0,1.0,0.0,0.0,0.0,0.0,0.0,-0.35384887,0.21997103,-0.17603076,0.20771027,-16.220797,-3.0130386,-0.86996555,-7.7723265,-3.1808674,5.059951
-9.977676,17.536232,0.5934309,4.0855703,0.37940973,-0.44783026,0.3906817,-0.83208495,-0.3234685,-0.783579,0.7450003,-0.60586804,0.027372098,0.41412145,0.63305235,-1.1569644,-2.0742385,-0.7470168,1.8131973,1.7950311,-0.84665406,0.70159143,-1.1294813,-2.0099084,-0.80799276,1.8660059,1.794844,-0.88753116,-1.4685383,-0.52150005,-1.4065428,1.3494825,-0.7951121,0.24371819,0.06568858,-0.31110716,-0.6137779,0.72254235,-1.4952304,0.6191522,-0.37383673,-0.28156766,-0.59685636,0.67310286,0.94216824,-0.04464307,0.19167112,0.2712711,-1.3533418,0.29715794,-0.43142685,0.0,1.0,0.0,0.0,0.0,0.0,0.0,-0.33889282,0.21377787,-0.17254233,-0.6342411,-14.078957,-1.5615225,-1.178813,-6.9269776,-4.534027,4.8566036
-7.9509735,28.124458,3.7325215,5.1379457,0.49508175,-0.2657637,0.37689573,-0.8262635,-0.37526673,-0.7857977,0.7394688,-0.6187599,0.07045325,0.4210281,0.6189651,-1.167008,-2.088488,-0.73404586,1.80413,1.8018893,-0.84542835,0.68687147,-1.1355658,-2.0240114,-0.7946089,1.8576746,1.7970146,-0.8865565,-1.4730548,-0.63763666,-1.4110209,1.335315,-0.84676117,0.20759957,0.10797561,-0.32604825,-0.6075909,0.71805465,-1.4937354,0.6185332,-0.4737422,-0.2952189,-0.59395313,0.66821873,0.9449736,-0.037192024,0.19784199,0.25787634,-1.3662125,0.29937163,-0.5071036,0.0,1.0,0.0,0.0,0.0,0.0,0.0,-0.32395172,0.20759091,-0.16805464,-0.4336357,-11.693823,-0.16553402,-1.2356043,-5.4525375,-3.8070977,4.1872234
-8.031289,36.617878,5.944309,6.578753,0.652784,-0.07926643,0.34426555,-0.83257085,-0.4248467,-0.78423667,0.7325983,-0.63851255,0.10153845,0.42321298,0.6036144,-1.1780504,-2.102435,-0.72134906,1.7938234,1.8071685,-0.8442352,0.67208856,-1.1426611,-2.0380952,-0.7813652,1.8489103,1.7988876,-0.8852099,-1.480095,-0.73401433,-1.4062005,1.3212599,-0.88780993,0.17978603,0.14343391,-0.34097442,-0.60141015,0.7125686,-1.4922421,0.6179148,-0.5735477,-0.30897757,-0.5909643,0.6626772,0.9475062,-0.029071495,0.2036242,0.24479361,-1.3760705,0.3102682,-0.5700103,0.0,1.0,0.0,0.0,0.0,0.0,0.0,-0.30902556,0.20141014,-0.16256857,-0.71451664,-9.743727,0.86534023,-1.2513399,-4.496634,-3.028521,3.4947248
-6.702619,42.178154,7.3509083,7.0483255,0.71402943,0.021403074,0.33526218,-0.83029824,-0.4706061,-0.7901584,0.72654814,-0.64414495,0.11043323,0.45079443,0.58905876,-1.1897217,-2.117111,-0.70871043,1.7844958,1.8099309,-0.84013045,0.6572577,-1.1506166,-2.0521402,-0.76825863,1.8398359,1.8005427,-0.88354266,-1.4841231,-0.8163035,-1.4054377,1.3066288,-0.908262,0.1576382,0.17512833,-0.35589254,-0.595294,0.70628476,-1.4562331,0.6295324,-0.5859424,-0.3228061,-0.58783364,0.6565633,0.94976926,-0.020387916,0.20902254,0.2320178,-1.3829459,0.3252725,-0.62597835,0.0,1.0,0.0,0.0,0.0,0.0,0.0,-0.29410744,0.195294,-0.15628475,-0.43113232,-8.338666,0.16067028,-1.4793158,-1.7003179,-2.518025,3.0860603
-7.2948456,49.38494,8.79398,8.335901,0.7997811,0.114455104,0.3132509,-0.840221,-0.49504834,-0.7951983,0.7118486,-0.65982103,0.034941964,0.4482037,0.5732356,-1.2001215,-2.13166,-0.69707376,1.7738538,1.8040369,-0.8387223,0.64235467,-1.1592436,-2.0662127,-0.7553373,1.8306112,1.8019613,-0.8816043,-1.4924462,-0.87868255,-1.4063468,1.2876441,-0.9285705,0.13450849,0.2003006,-0.3704219,-0.5890763,0.7001817,-1.4479165,0.623998,-0.62105465,-0.3366803,-0.58451533,0.6499627,0.9517737,-0.011173031,0.21403375,0.21952537,-1.3854667,0.34570682,-0.67211986,0.0,1.0,0.0,0.0,0.0,0.0,0.0,-0.2795781,0.18907627,-0.15018171,-0.8836508,-6.3785195,0.42757988,-1.7857313,-2.4296165,-2.8985233,2.578518
-3.75343,49.18257,9.02106,7.0515957,0.75684047,0.10229337,0.34831822,-0.8290116,-0.54640186,-0.78798735,0.7035228,-0.64929944,0.0037954713,0.50530714,0.5594535,-1.2138838,-2.1450114,-0.68498504,1.7656813,1.8023409,-0.8310736,0.62743443,-1.1685095,-2.08027,-0.7426077,1.8212943,1.8031174,-0.87939095,-1.4921423,-0.9429833,-1.4041361,1.2683339,-0.9344678,0.108359076,0.228174,-0.38473654,-0.5827689,0.6936409,-1.4261597,0.63256085,-0.66531813,-0.3505564,-0.58101153,0.6428992,0.9535238,-0.001465582,0.21861608,0.20735766,-1.384551,0.36398968,-0.71878064,0.0,1.0,0.0,0.0,0.0,0.0,0.0,-0.26526344,0.18276891,-0.14364088,-0.03809929,-6.5568686,0.74152946,-1.8587589,-1.1262059,-2.9080882,2.714315
-1.2765064,48.599434,9.130543,6.1940765,0.78471196,0.07736719,0.35913086,-0.8232091,-0.59087646,-0.77624136,0.6976074,-0.6318343,-0.08315698,0.5398599,0.5451135,-1.2275971,-2.1578941,-0.672847,1.7581109,1.7948017,-0.82540494,0.61256284,-1.1784506,-2.094247,-0.73004985,1.8120024,1.803974,-0.87690103,-1.4857479,-1.011505,-1.3936013,1.2518044,-0.9291599,0.07693049,0.25579572,-0.39883253,-0.57639074,0.68664825,-1.404285,0.6392626,-0.71097785,-0.36441487,-0.57733774,0.63536775,0.9550407,0.008679816,0.22266957,0.19555086,-1.3821969,0.38077644,-0.76559085,0.0,1.0,0.0,0.0,0.0,0.0,0.0,-0.25116745,0.17639074,-0.13664824,0.5649328,-6.9707036,1.5725136,-1.5843153,-0.0015497208,-3.4540563,2.7101815
-2.114115,57.696598,11.234723,8.510579,1.1184424,0.1936028,0.30405354,-0.828977,-0.5975476,-0.75440055,0.6975299,-0.6013938,-0.18117934,0.5726122,0.5296651,-1.2382053,-2.1696873,-0.66029686,1.751863,1.7858561,-0.8196398,0.5977313,-1.188941,-2.1080182,-0.7176111,1.8028764,1.804468,-0.8741384,-1.4826413,-1.062044,-1.3692845,1.2413459,-0.9093308,0.039032318,0.28289485,-0.4126764,-0.5699384,0.6792984,-1.3779541,0.64700943,-0.74320215,-0.37824902,-0.5734472,0.62749195,0.9563504,0.019151999,0.22614983,0.18407455,-1.379379,0.40397948,-0.79615337,0.0,1.0,0.0,0.0,0.0,0.0,0.0,-0.23732358,0.16993842,-0.12929839,0.20623207,-5.1937103,3.0714512,-1.0159731,1.324904,-4.1365395,2.654183
-0.44481277,64.07757,12.568973,8.959293,1.1456633,0.22711587,0.309341,-0.8268367,-0.606639,-0.75361174,0.6715969,-0.58391285,-0.31393883,0.5805832,0.5150476,-1.249605,-2.1833794,-0.65045136,1.744485,1.7730742,-0.8160801,0.58292735,-1.1998034,-2.1215606,-0.7053573,1.7939984,1.8045143,-0.8711288,-1.480188,-1.0946845,-1.3468705,1.2200061,-0.8831366,-0.007973399,0.30674124,-0.42621908,-0.5634141,0.6716862,-1.346637,0.65393066,-0.76742655,-0.39201164,-0.5693214,0.6193766,0.9574638,0.029912772,0.22905612,0.17292076,-1.370445,0.4277924,-0.81801933,0.0,1.0,0.0,0.0,0.0,0.0,0.0,-0.2237809,0.16341409,-0.12168616,0.11086464,-3.4085512,2.961588,-2.1622896,1.869142,-5.053332,2.301693
2.4776921,72.58257,14.630572,9.702417,1.2764363,0.29663622,0.3015909,-0.8191407,-0.6044043,-0.7373484,0.6542583,-0.5315659,-0.4011362,0.5953764,0.5010133,-1.2602438,-2.1952953,-0.6399315,1.7408417,1.7644007,-0.81159115,0.5681702,-1.2108374,-2.1348548,-0.6933725,1.7855089,1.8040639,-0.86789894,-1.4747318,-1.1067505,-1.3209649,1.1910344,-0.8404476,-0.058636595,0.32803795,-0.4394023,-0.5568292,0.663918,-1.3091204,0.6597335,-0.7799901,-0.40563765,-0.5649469,0.6111431,0.9583924,0.04088541,0.23138122,0.1620955,-1.3548487,0.45280737,-0.8265883,0.0,1.0,0.0,0.0,0.0,0.0,0.0,-0.21059766,0.15682921,-0.11391801,0.36933422,-1.3554335,3.4186363,-3.0059814,3.410232,-5.433165,2.0173311
4.280515,68.97696,13.997842,8.274299,1.3966985,0.2971496,0.30527592,-0.8165749,-0.6380869,-0.7148869,0.6221946,-0.42213732,-0.4367122,0.5903323,0.4865127,-1.274646,-2.2063434,-0.63115305,1.7432952,1.7603927,-0.8088657,0.553474,-1.2220507,-2.1478477,-0.6817769,1.7777196,1.8031279,-0.8644851,-1.4685559,-1.1266586,-1.289231,1.1487043,-0.7612104,-0.1065532,0.34554103,-0.4522378,-0.5502014,0.65596366,-1.2753626,0.6635626,-0.8007264,-0.41912463,-0.5603285,0.6027927,0.9591867,0.051945165,0.232964,0.15162586,-1.3414067,0.476883,-0.83934987,0.0,1.0,0.0,0.0,0.0,0.0,0.0,-0.19776216,0.15020141,-0.10596365,0.4500866,-2.1194458,3.9472818,-4.335475,7.1219087,-5.165732,1.6677558
6.6814938,75.13763,15.174255,8.725112,1.306148,0.3799128,0.31051454,-0.80960226,-0.6210503,-0.70760876,0.59977853,-0.43894756,-0.47636214,0.59141886,0.4725138,-1.2841557,-2.2186086,-0.62179905,1.7338248,1.7554916,-0.8053432,0.538858,-1.2333384,-2.1605506,-0.67064273,1.7705963,1.8017378,-0.8609205,-1.4599075,-1.1299087,-1.2614474,1.101102,-0.6989605,-0.15119769,0.35975817,-0.46469024,-0.5435524,0.6478673,-1.2355182,0.6650807,-0.8126332,-0.43241128,-0.5554743,0.5943703,0.9598464,0.06304901,0.23386015,0.14152412,-1.3189225,0.5000507,-0.844756,0.0,1.0,0.0,0.0,0.0,0.0,0.0,-0.18530974,0.1435524,-0.09786731,0.67152977,-0.45256615,3.6172628,-4.9200535,5.3635716,-4.8244267,1.2990654
7.70445,83.29163,17.051369,10.689927,1.6514778,0.5045524,0.24387565,-0.8013654,-0.60790336,-0.67194945,0.592599,-0.3467862,-0.4877244,0.60772157,0.45872146,-1.2941287,-2.2277455,-0.61138284,1.7359177,1.7529653,-0.8001483,0.5243507,-1.2445517,-2.1728873,-0.6599196,1.764228,1.7999426,-0.85722125,-1.4484961,-1.118725,-1.221543,1.0619941,-0.6193125,-0.19024439,0.37295625,-0.47671318,-0.5368974,0.6397344,-1.1916263,0.665583,-0.8133,-0.4454635,-0.55036116,0.5860096,0.96039003,0.07404968,0.23411058,0.13175668,-1.2949871,0.52663934,-0.8345412,0.0,1.0,0.0,0.0,0.0,0.0,0.0,-0.1732868,0.13689741,-0.089734375,0.92163086,0.9859562,4.916525,-4.120326,7.029569,-4.2767434,1.1825562
13.638809,81.160484,17.368116,8.298552,1.7270674,0.50390154,0.2807542,-0.7852533,-0.62041974,-0.63174456,0.53457433,-0.18628378,-0.51017314,0.6002313,0.44582537,-1.3065937,-2.2360618,-0.6064622,1.7455996,1.7489253,-0.7971981,0.5100103,-1.2556887,-2.184713,-0.64974004,1.7589978,1.7977904,-0.8534106,-1.4298882,-1.1124886,-1.1668818,1.0025501,-0.4938904,-0.22493388,0.38335752,-0.48830572,-0.53025746,0.631559,-1.1488008,0.6633391,-0.8185629,-0.45825425,-0.54500675,0.57774734,0.96088636,0.08472937,0.23354112,0.122379325,-1.2680078,0.5493904,-0.8249384,0.0,1.0,0.0,0.0,0.0,0.0,0.0,-0.16169426,0.13025746,-0.081559,1.6350508,0.51937103,6.355405,-6.1858654,11.655771,-3.8306923,0.9176791
15.346385,85.80844,18.745646,9.162133,2.0732844,0.6074363,0.23476203,-0.77945215,-0.6070762,-0.56823,0.50728965,-0.07413902,-0.53781646,0.599304,0.43206507,-1.3163962,-2.241536,-0.59901106,1.7515839,1.7440088,-0.7934802,0.49585515,-1.2667208,-2.1957946,-0.64017564,1.7552019,1.7953147,-0.84951127,-1.4115405,-1.100448,-1.0852959,0.940131,-0.34464616,-0.25657597,0.39181277,-0.49945992,-0.52365184,0.6233781,-1.1046735,0.6598168,-0.8175299,-0.47077248,-0.5394058,0.56966686,0.96140933,0.094848745,0.23202483,0.11340347,-1.2405546,0.5743464,-0.80361515,0.0,1.0,0.0,0.0,0.0,0.0,0.0,-0.15054005,0.12365183,-0.073378086,1.6005993,1.1074543,9.079361,-6.5074563,14.024001,-3.522551,0.7315934
20.761986,76.35784,17.154682,4.379139,1.8180704,0.53483844,0.37716517,-0.77183694,-0.61761963,-0.5521394,0.38973445,0.13665627,-0.56106,0.612538,0.41867146,-1.3284827,-2.2510085,-0.6012022,1.7688676,1.7392087,-0.7882575,0.48187667,-1.2776995,-2.2061207,-0.6316421,1.7532887,1.7925438,-0.8455294,-1.3940067,-1.0972692,-1.0125504,0.8236531,-0.14262722,-0.28496373,0.40009195,-0.5102165,-0.51709986,0.6150813,-1.0662111,0.6535235,-0.833012,-0.48299173,-0.53360605,0.5616778,0.9620401,0.10428288,0.22931616,0.10496589,-1.2098517,0.5921536,-0.798538,0.0,1.0,0.0,0.0,0.0,0.0,0.0,-0.1397835,0.11709985,-0.0650813,1.5474796,0.26140213,8.0302,-11.901892,19.46033,-3.15001,0.74029565
27.32651,73.59167,17.104742,0.78989565,1.4203349,0.56358206,0.51503956,-0.76368254,-0.6085216,-0.48845923,0.2796861,0.21186712,-0.58260757,0.5964117,0.4055084,-1.3385516,-2.2549667,-0.6036735,1.7744755,1.734283,-0.7858882,0.46806318,-1.2886305,-2.2156193,-0.62462693,1.7533288,1.7895117,-0.84148604,-1.3777375,-1.0917461,-0.92709845,0.65985507,0.05074956,-0.30999354,0.4054794,-0.5205717,-0.51063824,0.60661304,-1.0256753,0.64333177,-0.8511366,-0.49481288,-0.5276866,0.55368483,0.9628149,0.11298091,0.22531098,0.09725043,-1.1669691,0.60177076,-0.8007593,0.0,1.0,0.0,0.0,0.0,0.0,0.0,-0.12942827,0.11063823,-0.056613028,1.4333963,0.52969456,9.196032,-16.649544,18.708324,-2.7278006,0.44936538
24.82223,86.83899,19.648903,5.362935,1.8709002,0.78639144,0.38879097,-0.76385415,-0.5723391,-0.38774318,0.2558368,0.25553167,-0.58054173,0.5923199,0.39167777,-1.3458644,-2.2543936,-0.59904325,1.778882,1.7314575,-0.78225404,0.45436603,-1.2993498,-2.2240002,-0.6190937,1.7550498,1.7862657,-0.8374011,-1.3676786,-1.0655164,-0.80607,0.51692605,0.21066234,-0.3305642,0.4094537,-0.5304688,-0.5042937,0.5981212,-0.97692007,0.63325506,-0.8488294,-0.50619423,-0.5216222,0.5458524,0.96373886,0.120802335,0.22017314,0.09021006,-1.1228522,0.6171824,-0.77866465,0.0,1.0,0.0,0.0,0.0,0.0,0.0,-0.119531155,0.104293674,-0.048121214,0.818491,2.598238,12.749922,-14.568067,15.400783,-2.2714555,0.3138423
