Afshin1997/kuka_rl_ros2/src/catch_and_throw/input_files/idealpd/polynomial_regressor/optimizer_files/env_358_data.csv
torque0,torque1,torque2,torque3,torque4,torque5,torque6,action0,action1,action2,action3,action4,action5,action6,set_target_0,set_target_1,set_target_2,set_target_3,set_target_4,set_target_5,set_target_6,joint_pos_0,joint_pos_1,joint_pos_2,joint_pos_3,joint_pos_4,joint_pos_5,joint_pos_6,joint_vel_0,joint_vel_1,joint_vel_2,joint_vel_3,joint_vel_4,joint_vel_5,joint_vel_6,tennisball_pos_0,tennisball_pos_1,tennisball_pos_2,tennisball_lin_vel_0,tennisball_lin_vel_1,tennisball_lin_vel_2,end_effector_pos_0,end_effector_pos_1,end_effector_pos_2,end_effector_rot_0,end_effector_rot_1,end_effector_rot_2,end_effector_rot_3,end_effector_lin_vel_0,end_effector_lin_vel_1,end_effector_lin_vel_2,obs_task_0,obs_task_1,obs_task_2,obs_task_3,obs_task_4,obs_task_5,obs_task_6,to_final_target_0,to_final_target_1,to_final_target_2,joint_acc_0,joint_acc_1,joint_acc_2,joint_acc_3,joint_acc_4,joint_acc_5,joint_acc_6
0.0,0.0,0.0,0.0,0.0,0.0,0.0,0.0,0.0,0.0,0.0,0.0,0.0,0.0,1.7802359,-1.0646509,-1.8151424,-1.1170107,1.9373155,1.1170107,-0.91629785,1.7802359,-1.0646509,-1.8151424,-1.1170107,1.9373155,1.1170107,-0.91629785,0.0,0.0,0.0,0.0,0.0,0.0,0.0,2.933422,-0.5521965,0.16649215,-3.4095764,-0.17700252,5.529968,0.5304184,-0.45449638,0.693097,0.5745483,0.17512383,0.15255436,0.7848268,0.0,0.0,0.0,1.0,0.0,0.0,0.0,0.0,0.0,0.0,-3.5834222,0.1521965,0.38350785,0.0,0.0,0.0,0.0,0.0,0.0,0.0
0.0,0.0,0.0,0.0,0.0,0.0,0.0,0.0,0.0,0.0,0.0,0.0,0.0,0.0,1.7802359,-1.0646509,-1.8151424,-1.1170107,1.9373155,1.1170107,-0.91629785,1.7802359,-1.0646509,-1.8151424,-1.1170107,1.9373155,1.1170107,-0.91629785,0.0,0.0,0.0,0.0,0.0,0.0,0.0,2.933422,-0.5521965,0.16649215,-3.4095764,-0.17700252,5.529968,0.5304184,-0.45449638,0.693097,0.5745483,0.17512383,0.15255436,0.7848268,0.0,0.0,0.0,1.0,0.0,0.0,0.0,0.0,0.0,0.0,-3.5834222,0.1521965,0.38350785,0.0,0.0,0.0,0.0,0.0,0.0,0.0
0.0,0.0,0.0,0.0,0.0,0.0,0.0,0.0,0.0,0.0,0.0,0.0,0.0,0.0,1.7802359,-1.0646509,-1.8151424,-1.1170107,1.9373155,1.1170107,-0.91629785,1.7802359,-1.0646509,-1.8151424,-1.1170107,1.9373155,1.1170107,-0.91629785,0.0,0.0,0.0,0.0,0.0,0.0,0.0,2.933422,-0.5521965,0.16649215,-3.4095764,-0.17700252,5.529968,0.5304184,-0.45449638,0.693097,0.5745483,0.17512383,0.15255436,0.7848268,0.0,0.0,0.0,1.0,0.0,0.0,0.0,0.0,0.0,0.0,-3.5834222,0.1521965,0.38350785,0.0,0.0,0.0,0.0,0.0,0.0,0.0
-176.0,54.669605,-11.669821,110.0,10.161699,4.2447634,-3.9708474,-0.79088295,0.27014613,-0.5485807,0.75812566,-0.12789156,0.68448895,-0.5589318,1.7011476,-1.0376363,-1.8700005,-1.0411981,1.9245263,1.1854596,-0.97219104,1.7789904,-1.0628847,-1.8206699,-1.1120707,1.9405103,1.121821,-0.9175605,-0.16580327,0.23514216,-0.73679596,0.6590805,0.42552364,0.6401164,-0.16799,2.8993492,-0.5539665,0.22101389,-3.4061675,-0.17682555,5.426253,0.52846146,-0.45758247,0.6936894,0.57827336,0.17362516,0.15171237,0.78258395,-0.26069456,-0.4114682,0.07887849,1.0,0.0,0.0,0.0,0.0,0.0,0.0,-3.5493493,0.15396652,0.3289861,-16.493696,23.342983,-73.580185,66.02106,42.3861,63.6263,-16.694782
-176.0,-59.14888,-58.74427,110.0,11.538969,0.3618526,-3.5048656,-0.78339565,-0.29389766,-0.58162737,0.7273447,-0.21322432,0.67223525,-0.542613,1.7006508,-1.0922744,-1.8788326,-1.0393362,1.9191878,1.1890446,-0.97182184,1.7780119,-1.0613741,-1.8355148,-1.0971667,1.9461389,1.1348579,-0.9177169,-0.07715735,0.112937145,-1.7104224,1.7690308,0.5971156,1.4978173,0.029410869,2.8653145,-0.55573654,0.27449927,-3.402762,-0.17664875,5.3226414,0.5242157,-0.46578598,0.6938852,0.5865638,0.16990547,0.14949724,0.77764094,-0.48034948,-0.95551026,0.0026489329,1.0,0.0,0.0,0.0,0.0,0.0,0.0,-3.5153146,0.15573654,0.27550074,8.32665,-15.234466,-90.428734,111.43062,13.647914,77.64022,18.027195
-160.24095,80.70169,20.088573,91.19154,8.008237,6.940706,-1.9102883,-0.7310709,0.041342314,0.18178323,0.70466495,-0.19143547,0.7103335,-0.45371202,1.7049048,-1.0572399,-1.8173364,-1.0267001,1.9269953,1.2058913,-0.9630881,1.7741476,-1.0605558,-1.8502319,-1.0774351,1.950789,1.1497962,-0.9176292,-0.4890244,0.06855891,-1.3867244,2.0433462,0.41574758,1.4881688,0.0014904182,2.8313103,-0.55749893,0.3269493,-3.39936,-0.17647213,5.2191334,0.517292,-0.4769516,0.6951504,0.5976604,0.16449216,0.14638957,0.77091795,-0.76906556,-1.1628318,0.1711694,1.0,0.0,0.0,0.0,0.0,0.0,0.0,-3.4813104,0.15749893,0.22305071,-41.03724,-5.2737236,34.016132,28.118753,-19.66698,-2.2718906,-2.9120915
-107.379944,72.830666,29.318726,54.711285,5.502048,6.8378763,-0.15657061,-0.7427886,-0.2048591,0.31626877,0.70731163,-0.117686935,0.68867075,-0.5239634,1.6998688,-1.0810417,-1.8186051,-1.006704,1.9390203,1.2186633,-0.97002554,1.766028,-1.061252,-1.8586223,-1.0575777,1.9533162,1.1637905,-0.9179811,-0.91979337,-0.117508955,-0.64994824,1.9681687,0.1920352,1.3676784,-0.047275487,2.7973442,-0.5592613,0.37836504,-3.3959613,-0.17629568,5.1157293,0.50790405,-0.48913193,0.69777066,0.60956603,0.15785013,0.14201887,0.76376903,-1.0051384,-1.2252105,0.2954521,1.0,0.0,0.0,0.0,0.0,0.0,0.0,-3.4473443,0.15926132,0.17163497,-43.151047,-19.11985,75.61786,-7.0699215,-24.272419,-12.704134,-4.8569694
-48.96882,122.96192,51.15463,32.08022,2.1479015,7.2559266,0.35636592,-0.7628383,0.011818286,0.32767108,0.7161295,-0.19975102,0.7132881,-0.53252214,1.6897442,-1.0600702,-1.8258553,-0.9859648,1.9333411,1.2351192,-0.9712333,1.7542578,-1.0626119,-1.8596332,-1.0397192,1.9535756,1.1764152,-0.91886514,-1.2633319,-0.14371529,0.08763695,1.7251637,-0.03504332,1.2263707,-0.10290688,2.7634087,-0.5610237,0.4287475,-3.392566,-0.17611942,5.0124283,0.49668884,-0.50078964,0.7019075,0.6212048,0.14997649,0.13680069,0.7568997,-1.1720346,-1.1345904,0.4531166,1.0,0.0,0.0,0.0,0.0,0.0,0.0,-3.4134088,0.1610237,0.12125251,-34.55336,-3.1157196,75.52113,-24.290775,-24.40006,-14.451814,-5.8097496
-14.029787,126.3982,47.986683,17.204153,0.05619374,5.302762,0.25376606,-0.7833787,0.09378976,0.21018949,0.7148486,-0.18763328,0.7003339,-0.56314266,1.6759199,-1.0532329,-1.8386142,-0.96823436,1.9348123,1.2464486,-0.97517943,1.7400748,-1.0634454,-1.8555171,-1.0243326,1.9520802,1.1877315,-0.92028135,-1.4704701,-0.06447329,0.5230277,1.4763426,-0.19103673,1.1001165,-0.1553247,2.7295113,-0.5627861,0.47809774,-3.389174,-0.17594333,4.90923,0.48439026,-0.5112457,0.70728576,0.63232887,0.1412468,0.13161428,0.7502581,-1.2594908,-1.0042807,0.56361485,1.0,0.0,0.0,0.0,0.0,0.0,0.0,-3.3795114,0.1627861,0.071902275,-20.88411,7.548131,44.574444,-24.934124,-16.611856,-12.633014,-5.474615
-0.6993592,134.00804,40.669117,13.264035,-1.7843964,3.2650218,-0.5221158,-0.8095201,0.3271785,-0.12902325,0.7080832,-0.26756766,0.6845611,-0.5434219,1.6591227,-1.0307276,-1.8684195,-0.95352435,1.9253235,1.2561876,-0.97462356,1.7246538,-1.0622152,-1.8506038,-1.0109392,1.9492936,1.1979301,-0.9221553,-1.5665804,0.18464983,0.4820029,1.2936615,-0.30913314,0.9938671,-0.19913483,2.6956444,-0.56454086,0.5264168,-3.3857856,-0.17576742,4.806136,0.47169113,-0.5203514,0.71345174,0.6433345,0.13226372,0.12795015,0.743139,-1.2823635,-0.86857915,0.6309978,1.0,0.0,0.0,0.0,0.0,0.0,0.0,-3.3456445,0.16454086,0.023583233,-9.822702,24.613514,-3.6760092,-18.279934,-12.187615,-10.391987,-4.6923456
6.5472174,127.33081,33.321083,11.619499,-1.9936124,1.7020392,-0.79697263,-0.815156,0.44543386,-0.2833853,0.69498515,-0.07375416,0.6482142,-0.53268087,1.6431383,-1.0176718,-1.8789424,-0.9414407,1.9419183,1.2627516,-0.9754234,1.7088782,-1.0580744,-1.8481815,-0.9987875,1.9462876,1.2071731,-0.92440313,-1.5820222,0.4899227,0.16292545,1.1887381,-0.29828787,0.9017148,-0.23441997,2.6618118,-0.5662956,0.5737056,-3.3824005,-0.17559169,4.703145,0.45903397,-0.52830505,0.72004986,0.6545531,0.12360257,0.1264643,0.73504376,-1.2676201,-0.75989187,0.6666969,1.0,0.0,0.0,0.0,0.0,0.0,0.0,-3.311812,0.16629562,-0.023705602,-1.7816782,30.295866,-31.69623,-10.561132,0.92653036,-9.042382,-3.8424044
7.5997863,117.54514,28.814428,12.4386215,-1.4207844,0.99144274,-0.800203,-0.8250657,0.5353111,-0.37326258,0.68534106,0.07474552,0.6164243,-0.5225086,1.6263716,-1.0045433,-1.8855077,-0.9302534,1.9537622,1.2688155,-0.976654,1.6932265,-1.051,-1.8495815,-0.98721373,1.9441094,1.2155788,-0.92694753,-1.5601085,0.7794225,-0.24050197,1.1463839,-0.1915276,0.8199903,-0.2620706,2.6280136,-0.5680504,0.6199653,-3.3790188,-0.17541614,4.600257,0.4465828,-0.53541565,0.72690415,0.66609836,0.115580074,0.1269776,0.72583115,-1.2443048,-0.68239325,0.6900281,1.0,0.0,0.0,0.0,0.0,0.0,0.0,-3.2780137,0.16805038,-0.0699653,1.97649,28.748835,-40.16272,-4.4199467,10.545835,-8.205807,-3.0633986
10.941048,110.03514,28.85679,12.169102,-0.63408196,1.0580487,-0.50843924,-0.8234698,0.59985816,-0.38274896,0.65703696,0.21274717,0.6308632,-0.5269826,1.6108794,-0.9910142,-1.8878564,-0.92151004,1.9653841,1.2786651,-0.9796458,1.6778952,-1.04149,-1.8543994,-0.9758755,1.9434552,1.2232654,-0.9297313,-1.524755,1.0074352,-0.5613318,1.128626,-0.024144238,0.750886,-0.2847571,2.594246,-0.56980515,0.6651969,-3.3756404,-0.17524077,4.4974713,0.4343071,-0.5418625,0.73402613,0.67784286,0.10818649,0.12881549,0.71570337,-1.227084,-0.6193163,0.71904176,1.0,0.0,0.0,0.0,0.0,0.0,0.0,-3.244246,0.16980514,-0.11519688,3.3234835,22.606205,-31.77368,-2.0768642,16.530159,-7.1660757,-2.5553107
13.525397,104.88724,30.989925,12.307388,0.25929546,1.5202115,-0.13963611,-0.8206178,0.64418554,-0.34898746,0.6376774,0.36025688,0.637432,-0.5426078,1.5958334,-0.9770714,-1.8892982,-0.91210777,1.9794809,1.2870086,-0.9839921,1.6628977,-1.0302633,-1.8612545,-0.9646565,1.9447389,1.2303455,-0.93272203,-1.4922223,1.1604811,-0.7252628,1.1185167,0.17810115,0.69250757,-0.3047007,2.5605164,-0.5715561,0.7094014,-3.3722653,-0.17506558,4.3947883,0.4220848,-0.5477295,0.7415387,0.68955004,0.10120188,0.13109158,0.7050488,-1.2245276,-0.5619927,0.76276314,1.0,0.0,0.0,0.0,0.0,0.0,0.0,-3.2105165,0.17155609,-0.15940142,3.0152798,15.111065,-15.885949,-1.3595343,19.917376,-6.260431,-2.2698998
18.093576,100.825195,33.02369,10.894045,0.6427293,1.9504803,0.16919024,-0.80941004,0.67645484,-0.3045738,0.61361694,0.41763285,0.64915174,-0.54605377,1.5819567,-0.9626178,-1.8917118,-0.9032948,1.9865022,1.2952607,-0.9873274,1.6481901,-1.0179933,-1.8686359,-0.95359004,1.9478936,1.2369258,-0.9358911,-1.4642761,1.2485775,-0.7399815,1.101534,0.36010563,0.64505935,-0.321905,2.5268173,-0.5733032,0.7525799,-3.3688939,-0.17489053,4.292208,0.40983963,-0.5529785,0.7495517,0.70098263,0.09433357,0.13314456,0.69426,-1.2286125,-0.49730155,0.81564605,1.0,0.0,0.0,0.0,0.0,0.0,0.0,-3.1768174,0.17330322,-0.20257992,2.5192738,8.62999,-0.78436136,-2.054906,17.842228,-5.1988482,-2.024138
19.920929,96.0686,33.31717,10.175836,0.80459374,2.1960943,0.32795766,-0.8019061,0.6954682,-0.25640646,0.60447246,0.44123566,0.66432995,-0.5478121,1.5679995,-0.9484465,-1.8942765,-0.8931428,1.9920171,1.3033588,-0.9906723,1.6337115,-1.0052027,-1.8753974,-0.9427029,1.9525323,1.2431095,-0.93921274,-1.4434233,1.2886511,-0.6523464,1.0833054,0.4972502,0.60802644,-0.33670005,2.4931564,-0.57505035,0.79473335,-3.3655257,-0.17471567,4.1897306,0.3975258,-0.5575371,0.7581037,0.7119902,0.08732757,0.134628,0.6836075,-1.2362659,-0.42716482,0.87001365,1.0,0.0,0.0,0.0,0.0,0.0,0.0,-3.1431565,0.17505035,-0.24473333,1.8000364,3.8454294,9.5458145,-2.1501064,13.355053,-4.1165113,-1.8131316
17.92778,88.262344,30.57321,9.837292,0.7843251,2.0934253,0.34025294,-0.8018246,0.7084507,-0.24205269,0.59202653,0.4610592,0.67574334,-0.5448087,1.553529,-0.9343576,-1.8996028,-0.8835002,1.9986382,1.3106838,-0.9936936,1.6193663,-0.9922224,-1.8810794,-0.93201506,1.9582124,1.248986,-0.9426622,-1.4324474,1.3005592,-0.5375304,1.0629684,0.5903795,0.57997197,-0.3488136,2.459526,-0.5767975,0.83586276,-3.362161,-0.17454098,4.0873556,0.3851204,-0.5614166,0.7671095,0.72253805,0.080085196,0.1354929,0.6731766,-1.2442644,-0.35941485,0.9121069,1.0,0.0,0.0,0.0,0.0,0.0,0.0,-3.1095262,0.17679748,-0.28586274,0.8342266,1.0523081,12.243092,-2.3283958,9.001648,-3.1338334,-1.5537202
14.252436,81.15939,27.107328,10.206326,0.73621917,1.8586088,0.27120966,-0.8022675,0.7185198,-0.23138407,0.5859587,0.48849842,0.6761107,-0.5447093,1.5391395,-0.92037046,-1.9042178,-0.87341917,2.0070622,1.3165971,-0.99713314,1.6050707,-0.9792124,-1.8857296,-0.92151034,1.9645963,1.254628,-0.9462165,-1.4294567,1.3007412,-0.43850183,1.0453639,0.6535065,0.55823344,-0.35868794,2.42593,-0.5785446,0.87596923,-3.3587995,-0.17436647,3.9850829,0.37264252,-0.56467056,0.77643347,0.7326662,0.07261729,0.13584839,0.6629269,-1.2521957,-0.29852784,0.9400198,1.0,0.0,0.0,0.0,0.0,0.0,0.0,-3.07593,0.17854461,-0.32596922,0.06599426,-0.10011196,10.589451,-2.0305395,6.061578,-2.4289846,-1.3174474
12.131901,78.32361,25.329716,11.079449,0.68705904,1.7395027,0.1950308,-0.7970398,0.7238857,-0.19181727,0.5944782,0.49259177,0.68098557,-0.5348384,1.5253668,-0.9068238,-1.9049113,-0.8620625,2.0138555,1.3227265,-0.99970037,1.5907961,-0.9662243,-1.8894889,-0.9110886,1.9714055,1.2600906,-0.9498481,-1.4276474,1.2977217,-0.3530367,1.0402936,0.6894426,0.54162765,-0.36571115,2.3923683,-0.5802841,0.9150537,-3.3554413,-0.17419215,3.8829126,0.3600769,-0.56733704,0.7860006,0.74243057,0.06491795,0.13583189,0.65278804,-1.2598629,-0.24069089,0.96245086,1.0,0.0,0.0,0.0,0.0,0.0,0.0,-3.0423684,0.18028411,-0.3650537,-0.02977848,-0.4127264,9.183205,-0.7540703,3.377843,-1.8805265,-1.0223746
8.017831,74.40309,22.673956,12.215157,0.6567092,1.5494921,0.09216683,-0.80489326,0.7278596,-0.18547,0.5944012,0.4969487,0.68847585,-0.52657014,1.5103068,-0.89343834,-1.908036,-0.85164845,2.0211003,1.3289381,-1.0025052,1.5764891,-0.9532553,-1.892638,-0.90066874,1.9784417,1.2654197,-0.9535312,-1.4323026,1.2962298,-0.30038473,1.0417209,0.70781523,0.5293565,-0.3702504,2.3588371,-0.5820236,0.95311725,-3.3520865,-0.174018,3.780845,0.3474121,-0.56947327,0.79572743,0.75190425,0.05702246,0.13560529,0.64265037,-1.268759,-0.1892307,0.9758165,1.0,0.0,0.0,0.0,0.0,0.0,0.0,-3.0088372,0.18202361,-0.40311724,-0.6583214,-0.25155544,5.836195,-0.09076595,1.6630769,-1.4163494,-0.75328946
6.716675,74.48708,21.914322,13.003929,0.6074103,1.4896792,0.037640106,-0.80663157,0.7365797,-0.16316867,0.59733117,0.5025363,0.684562,-0.51722944,1.4958259,-0.8795973,-1.9089549,-0.84093565,2.0286953,1.3338759,-1.0052541,1.562121,-0.9402548,-1.8953922,-0.8901993,1.9855905,1.270642,-0.9572448,-1.4387436,1.3009542,-0.2651555,1.0479674,0.7166181,0.51926786,-0.3726975,2.325344,-0.5837631,0.9901609,-3.348735,-0.17384402,3.6788793,0.3346672,-0.57110214,0.8055783,0.7611331,0.048948467,0.13529481,0.6324363,-1.2771386,-0.13786054,0.9876021,1.0,0.0,0.0,0.0,0.0,0.0,0.0,-2.9753442,0.18376312,-0.44016087,-0.8332968,0.36973953,4.0757236,0.39954185,0.7172227,-1.1912346,-0.5355358
6.6564374,71.06692,20.054054,12.305929,0.45867544,1.2709818,0.008304579,-0.8048882,0.73566073,-0.17270261,0.59319603,0.50692743,0.694805,-0.5173502,1.4816322,-0.8666887,-1.9126624,-0.8308797,2.0362833,1.3401226,-1.0089798,1.5477072,-0.9272057,-1.8980014,-0.879686,1.9927926,1.2757862,-0.9609775,-1.4428775,1.3058982,-0.25771272,1.0516183,0.7211145,0.5124982,-0.37434176,2.2918816,-0.5855026,1.0261856,-3.345387,-0.1736702,3.5770154,0.32188034,-0.5722389,0.8154807,0.7701349,0.04074906,0.13500717,0.62209696,-1.2806106,-0.08909566,0.9901904,1.0,0.0,0.0,0.0,0.0,0.0,0.0,-2.9418817,0.18550262,-0.47618562,-0.59432983,0.4042387,1.2506425,0.13222694,0.31592846,-0.81636906,-0.44543147
8.921321,71.23033,19.96002,11.390158,0.30539185,1.1947207,0.031523336,-0.80100965,0.74104667,-0.15901795,0.5879559,0.5079404,0.6964676,-0.5112433,1.4676062,-0.853101,-1.9139032,-0.8208904,2.0435867,1.3454329,-1.0121018,1.5332876,-0.9140898,-1.9005744,-0.8691746,2.0000196,1.2808788,-0.96471876,-1.4424843,1.3131424,-0.25545132,1.0501919,0.7228397,0.5076255,-0.37499765,2.2584534,-0.5872383,1.0611925,-3.3420422,-0.17349656,3.4752533,0.30908585,-0.57286453,0.82539517,0.77889097,0.032446824,0.13479985,0.6116412,-1.2779081,-0.03715895,0.9906451,1.0,0.0,0.0,0.0,0.0,0.0,0.0,-2.9084535,0.1872383,-0.5111925,-0.14481544,0.6378174,0.74083805,-0.38206577,0.03604889,-0.60282946,-0.3512621
10.793955,69.85758,19.400105,10.391185,0.1805473,1.0715227,0.054073922,-0.7961956,0.7406606,-0.15808901,0.58400184,0.50605524,0.696445,-0.5128308,1.4536681,-0.84002376,-1.9163834,-0.81077445,2.050625,1.3505232,-1.0160018,1.5189062,-0.90091574,-1.9031589,-0.858708,2.0072484,1.2859313,-0.96846575,-1.4374591,1.3185259,-0.25773987,1.0446957,0.72237116,0.5041491,-0.37556723,2.2250595,-0.5889702,1.0951825,-3.3387008,-0.1733231,3.373593,0.29636765,-0.5729637,0.835285,0.78737825,0.024063202,0.13470136,0.6010923,-1.2692413,0.015264785,0.9870812,1.0,0.0,0.0,0.0,0.0,0.0,0.0,-2.8750596,0.18897018,-0.5451825,0.3205061,0.46002865,0.27991533,-0.7952452,-0.17802715,-0.43252707,-0.34413338
11.582196,69.94987,19.329279,9.650478,0.12447816,1.0472479,0.11579691,-0.8086979,0.74733675,-0.1407828,0.5513352,0.5225088,0.699232,-0.50619334,1.4380364,-0.82618207,-1.9172372,-0.8035745,2.0594993,1.3558545,-1.019085,1.5045172,-0.887674,-1.9056938,-0.84844935,2.0145154,1.2909572,-0.97221273,-1.4402162,1.3257811,-0.25010696,1.0187732,0.7276109,0.5018741,-0.37538496,2.1916962,-0.59070206,1.1281567,-3.3353627,-0.17314981,3.2720344,0.28375244,-0.5725136,0.84512305,0.7955552,0.01562128,0.13470012,0.59051144,-1.2574362,0.070162244,0.98117566,1.0,0.0,0.0,0.0,0.0,0.0,0.0,-2.8416963,0.19070205,-0.57815665,-0.4744768,0.6507635,1.309073,-2.845478,0.37457943,-0.2919078,-0.27114153
11.685665,69.484024,19.046251,9.8779335,0.14358431,0.999878,0.1198145,-0.8066492,0.7473057,-0.13289452,0.55325323,0.51494306,0.699511,-0.49999395,1.4238523,-0.8129434,-1.9189832,-0.793124,2.0660098,1.3609083,-1.0222121,1.4900976,-0.874375,-1.9081123,-0.8384291,2.021813,1.295964,-0.9759521,-1.4429982,1.3310275,-0.2371776,0.9956869,0.7298157,0.50025505,-0.3744829,2.1583672,-0.5924339,1.1601161,-3.332028,-0.1729767,3.1705773,0.2712593,-0.5715332,0.8549035,0.80341,0.0071168425,0.13478182,0.5799271,-1.2444414,0.12419671,0.97523236,1.0,0.0,0.0,0.0,0.0,0.0,0.0,-2.8083673,0.19243392,-0.61011606,-0.47399998,0.4545927,1.8350989,-2.5550365,0.075399876,-0.21936893,-0.19543767
12.249794,71.1817,19.534325,10.468303,0.17506921,1.0318522,0.12564555,-0.8054703,0.7532346,-0.11293315,0.55114704,0.5083995,0.7050389,-0.48863268,1.4095507,-0.7990515,-1.9194056,-0.7833144,2.0726528,1.366468,-1.0248153,1.4756609,-0.86101305,-1.9103191,-0.82859385,2.0291028,1.3009613,-0.97967523,-1.4447793,1.3375887,-0.21333717,0.9786945,0.7282082,0.49946487,-0.37245202,2.1250725,-0.594162,1.1910616,-3.3286965,-0.17280376,3.0692217,0.25889206,-0.56998825,0.8646561,0.81093884,-0.0014941135,0.1349329,0.56935835,-1.2308108,0.18035561,0.9731864,1.0,0.0,0.0,0.0,0.0,0.0,0.0,-2.7750726,0.19416198,-0.6410616,-0.37417412,0.5839348,2.9431283,-1.9322991,-0.3186226,-0.14599562,-0.08150339
14.136461,71.25921,19.687162,9.845871,0.12412536,0.9885826,0.16967931,-0.8029236,0.752916,-0.08714349,0.5334336,0.5069298,0.7017301,-0.47933325,1.3953686,-0.7857215,-1.9190334,-0.7752505,2.0797958,1.3711343,-1.0276085,1.4612242,-0.8476025,-1.9121978,-0.8189484,2.036366,1.3059528,-0.9833717,-1.4438711,1.341999,-0.17735423,0.9590543,0.7250901,0.49878666,-0.36961272,2.0918083,-0.59588623,1.2209945,-3.3253684,-0.17263098,2.9679673,0.24669647,-0.5678673,0.8743879,0.8181179,-0.010234811,0.13512783,0.55885494,-1.212933,0.2381989,0.9708754,1.0,0.0,0.0,0.0,0.0,0.0,0.0,-2.7418084,0.19588622,-0.67099446,-0.10223389,0.3739357,4.1670113,-2.1892548,-0.47670603,-0.116837025,-0.000333786
14.486379,71.32311,19.596596,9.743384,0.1333577,0.9519977,0.20024455,-0.809382,0.7574606,-0.061459996,0.51314825,0.5158664,0.69696915,-0.47076732,1.380286,-0.7718564,-1.9183438,-0.76763356,2.0879526,1.3756497,-1.0304484,1.4467703,-0.8341423,-1.9136512,-0.8095461,2.0436254,1.3109348,-0.9870338,-1.4464178,1.3470818,-0.1326448,0.93330437,0.72569406,0.4978775,-0.3660985,2.0585823,-0.5976105,1.2499155,-3.3220437,-0.17245838,2.8668141,0.23468399,-0.56515884,0.88409567,0.82492495,-0.019107277,0.13533686,0.54846835,-1.1934484,0.29633766,0.9680997,1.0,0.0,0.0,0.0,0.0,0.0,0.0,-2.7085824,0.19761047,-0.69991547,-0.4495859,0.44457912,5.0482216,-2.7909636,-0.11110306,-0.12831092,0.07400513
15.525917,70.34195,19.348234,9.267854,0.102228165,0.88403624,0.23676598,-0.8075348,0.7537986,-0.025329806,0.50090957,0.50231946,0.69990003,-0.44201964,1.3660169,-0.7587625,-1.9161842,-0.75945514,2.0938573,1.3809248,-1.0312357,1.4323012,-0.8206612,-1.9145744,-0.80040705,2.050858,1.315911,-0.9906425,-1.4477153,1.3482454,-0.07693188,0.90668255,0.7216421,0.4975665,-0.3600357,2.0253868,-0.5993347,1.2778256,-3.3187222,-0.17228596,2.7657623,0.22288513,-0.5618744,0.8937679,0.83133996,-0.02811798,0.13553602,0.53824997,-1.1708387,0.35411942,0.96383405,1.0,0.0,0.0,0.0,0.0,0.0,0.0,-2.675387,0.19933471,-0.7278256,-0.31523705,0.059747696,6.1392426,-2.8647661,-0.5749941,-0.04556179,0.33625364
17.765316,71.37858,19.85922,8.349987,0.055357635,0.8640821,0.3149304,-0.8100523,0.75843847,0.027844314,0.4673842,0.519798,0.6960415,-0.42672616,1.351296,-0.7448173,-1.9117899,-0.7536686,2.1028378,1.3855152,-1.0333151,1.417811,-0.80716,-1.9148014,-0.7916266,2.0581021,1.3208835,-0.9941825,-1.4499716,1.3506192,-0.002725198,0.86776876,0.7245899,0.49723554,-0.35290933,1.9922218,-0.60105896,1.304726,-3.3154042,-0.17211372,2.6648114,0.21133804,-0.557991,0.90340054,0.8373207,-0.03727533,0.13567491,0.52829623,-1.1436034,0.4146601,0.9596412,1.0,0.0,0.0,0.0,0.0,0.0,0.0,-2.642222,0.20105895,-0.754726,-0.40974617,0.1852274,8.00367,-4.0791273,0.11537075,-0.023847818,0.44713616
21.608868,72.92992,20.926023,6.620288,-0.002331555,0.8728641,0.4629753,-0.81310767,0.7577563,0.116855435,0.41860574,0.5457062,0.69374675,-0.38618493,1.3365003,-0.7313844,-1.9031159,-0.749766,2.1126728,1.3902582,-1.032801,1.4032904,-0.79364264,-1.9140079,-0.78339446,2.0654569,1.3258541,-0.9976272,-1.4535562,1.3518924,0.1088139,0.80781513,0.73845524,0.49711555,-0.34247956,1.959095,-0.6027756,1.3306177,-3.3120894,-0.17194164,2.5639613,0.2001152,-0.55345917,0.9129955,0.8427834,-0.046600353,0.13564101,0.51879287,-1.1097102,0.47996396,0.95564735,1.0,0.0,0.0,0.0,0.0,0.0,0.0,-2.609095,0.20277557,-0.78061765,-0.53794384,0.08099079,11.763561,-6.1599016,1.1882782,0.03375411,0.781095
25.73264,75.62776,22.166613,5.023394,-0.15074801,0.8789511,0.58210224,-0.81153196,0.7636451,0.20403238,0.37283635,0.5460199,0.6855961,-0.34448463,1.3221372,-0.7172781,-1.8936046,-0.7461108,2.1200588,1.3944137,-1.0320756,1.388745,-0.7800909,-1.9118717,-0.77588046,2.072949,1.3308189,-1.0009431,-1.4552449,1.3561823,0.25046003,0.7321933,0.7520719,0.4966368,-0.32879543,1.9259987,-0.6044922,1.3555017,-3.308778,-0.17176972,2.463212,0.1892891,-0.5482292,0.9225633,0.8476491,-0.056123283,0.13536274,0.5099196,-1.0670742,0.5511994,0.95281094,1.0,0.0,0.0,0.0,0.0,0.0,0.0,-2.5759988,0.20449218,-0.80550164,-0.33082962,0.38616657,14.77414,-7.688415,1.1592984,0.038695335,1.1166573
27.934742,72.21325,21.015629,2.4119997,-0.36580026,0.6144338,0.6613026,-0.8141085,0.76607877,0.24690071,0.30072778,0.58475375,0.6767499,-0.31726095,1.3073341,-0.70348305,-1.8871816,-0.74580765,2.1314244,1.3984939,-1.0326692,1.3741804,-0.7664877,-1.9083908,-0.76931536,2.0806699,1.335778,-1.0041112,-1.4572015,1.3616171,0.38230485,0.6309012,0.7785613,0.49617997,-0.31348708,1.8929329,-0.6062088,1.3793788,-3.30547,-0.17159799,2.3625636,0.1789589,-0.54231644,0.93203115,0.8518776,-0.065764256,0.13483724,0.5017951,-1.014776,0.6170927,0.9399073,1.0,0.0,0.0,0.0,0.0,0.0,0.0,-2.542933,0.2062088,-0.8293788,-0.33035278,0.5194187,13.707691,-10.235524,2.4956942,0.12950301,1.3097405
24.625418,70.30911,19.806149,4.2754908,-0.19964522,0.49651876,0.57179123,-0.8144324,0.7689777,0.29322344,0.2993094,0.59434104,0.68104553,-0.2797438,1.2927372,-0.68959,-1.8790684,-0.7393844,2.140104,1.4038825,-1.0320855,1.3596045,-0.7528254,-1.9037349,-0.763579,2.0886617,1.3407352,-1.0071095,-1.4581511,1.3677908,0.49487093,0.55418235,0.80574965,0.4962104,-0.29594672,1.8599052,-0.6079254,1.4022503,-3.3021653,-0.17142643,2.2620158,0.1690979,-0.5357933,0.9413833,0.8555213,-0.07550088,0.13408782,0.4943715,-0.968724,0.6756591,0.9282379,1.0,0.0,0.0,0.0,0.0,0.0,0.0,-2.5099053,0.20792541,-0.8522503,-0.19578934,0.6059885,11.6579,-7.746327,2.6382804,0.17632842,1.5693426
16.302774,67.07004,17.45645,9.225173,0.17236644,0.38060328,0.3115758,-0.81159645,0.7740266,0.2838635,0.34458247,0.5874314,0.6840189,-0.2398151,1.2784449,-0.6754227,-1.8753486,-0.7291208,2.147405,1.4091371,-1.031091,1.345038,-0.73909056,-1.8983562,-0.7581488,2.0968595,1.3456924,-1.0099171,-1.4564146,1.3754615,0.55304694,0.53908336,0.82466704,0.49603456,-0.2761939,1.8269081,-0.6096382,1.4241171,-3.298864,-0.17125504,2.1615684,0.1595726,-0.52876663,0.9506566,0.8587393,-0.08536182,0.13322024,0.48737288,-0.94004303,0.72246385,0.9212401,1.0,0.0,0.0,0.0,0.0,0.0,0.0,-2.4769082,0.20963821,-0.8741171,0.09725094,0.7698536,6.0724974,-1.5736461,1.9028544,0.097715855,1.8263936
10.129866,64.3055,15.796958,13.040264,0.4935258,0.32010126,0.1255011,-0.80882525,0.7731298,0.3001412,0.3765681,0.58642507,0.681481,-0.20461562,1.2641555,-0.66177756,-1.868342,-0.720492,2.1555018,1.4138405,-1.0303787,1.330506,-0.7252976,-1.8926322,-0.7525021,2.1051908,1.3506439,-1.0125188,-1.4524314,1.380574,0.5795181,0.57299197,0.83605075,0.4950423,-0.25518218,1.7939415,-0.6113472,1.4449801,-3.2955656,-0.17108381,2.0612216,0.15021896,-0.52132034,0.9598952,0.86167204,-0.09539076,0.13231096,0.48053685,-0.9257559,0.7618804,0.9184631,1.0,0.0,0.0,0.0,0.0,0.0,0.0,-2.4439416,0.21134719,-0.89498013,0.33330917,0.52108765,2.826941,3.3279777,1.1955261,-0.042283535,1.9677997
6.990546,61.567177,14.417942,14.412407,0.5407465,0.22620651,0.025896735,-0.8097716,0.77585673,0.30272266,0.38874722,0.57393897,0.6798661,-0.17735174,1.2495288,-0.6477119,-1.86236,-0.71362734,2.1625845,1.4186305,-1.0302539,1.3160063,-0.71145976,-1.8868225,-0.74637854,2.1135564,1.355582,-1.0149106,-1.4493905,1.3848715,0.5820519,0.62516755,0.8368356,0.49369112,-0.23405051,1.761013,-0.6130562,1.4648404,-3.2922707,-0.17091276,1.9609749,0.14096451,-0.5135193,0.9690974,0.8643988,-0.10558607,0.13144583,0.4736964,-0.9160988,0.797098,0.91431665,1.0,0.0,0.0,0.0,0.0,0.0,0.0,-2.4110131,0.21305618,-0.9148404,0.23748875,0.4412651,0.40835142,5.148804,0.15217066,-0.097197294,1.9879341
1.3653183,57.805756,12.584511,17.209522,0.7514738,0.16908461,-0.13558692,-0.81687427,0.77357584,0.28111637,0.44787538,0.55582523,0.68295175,-0.18057989,1.2343189,-0.63410217,-1.8587108,-0.701591,2.169139,1.4238771,-1.0329685,1.3014933,-0.6976048,-1.8811786,-0.73951495,2.1218495,1.3605068,-1.0171117,-1.4521158,1.385714,0.5587309,0.70655686,0.82686925,0.49225518,-0.21605061,1.7281151,-0.61476517,1.483699,-3.288979,-0.17074189,1.8608284,0.1317215,-0.5054016,0.9782615,0.8670098,-0.11595101,0.13070714,0.4666528,-0.91793096,0.8265161,0.9103469,1.0,0.0,0.0,0.0,0.0,0.0,0.0,-2.3781152,0.21476516,-0.93369895,-0.3515005,0.096440315,-2.204144,8.054029,-0.90008974,-0.15231967,1.6829193
2.4535456,57.06922,12.364517,16.311161,0.60099906,0.11075932,-0.11210837,-0.8121393,0.77599514,0.2811556,0.4661196,0.5404896,0.68431306,-0.13026069,1.2202793,-0.62000525,-1.8530631,-0.692903,2.1758986,1.428938,-1.0301378,1.2869669,-0.68374217,-1.8757885,-0.731876,2.1299863,1.365422,-1.0191182,-1.4530234,1.3864102,0.5327736,0.7827026,0.80953074,0.4911647,-0.19598366,1.6952477,-0.61647415,1.5015569,-3.2856908,-0.17057118,1.760782,0.12249756,-0.49698067,0.9873672,0.8695137,-0.12647325,0.13015346,0.4593587,-0.9150139,0.8573886,0.90368974,1.0,0.0,0.0,0.0,0.0,0.0,0.0,-2.3452477,0.21647415,-0.95155686,-0.17018318,0.0729084,-2.4340153,7.53448,-1.6658664,-0.11481643,1.8856406
5.3268275,55.819954,12.434214,14.159514,0.31872267,0.06577748,-0.0071636885,-0.80893064,0.76447636,0.31049404,0.4858097,0.4590957,0.69843686,-0.010257822,1.2060739,-0.60729456,-1.8447391,-0.6832951,2.175896,1.4352657,-1.020144,1.2724501,-0.669932,-1.8704765,-0.72357714,2.1377187,1.3703392,-1.0208558,-1.4513577,1.3792169,0.5315574,0.84536177,0.76116836,0.4919643,-0.1666773,1.6624184,-0.6181755,1.518415,-3.2824059,-0.17040063,1.6608355,0.11336899,-0.4882393,0.9963716,0.871844,-0.13714056,0.12985115,0.451906,-0.9021808,0.891165,0.8922943,1.0,0.0,0.0,0.0,0.0,0.0,0.0,-2.3124185,0.2181755,-0.96841496,0.09741783,-0.7249117,0.09909868,6.1971784,-4.8188686,0.10395646,2.7996273
6.991577,51.96055,11.386221,11.563993,0.09741706,-0.13428932,0.09681905,-0.8127267,0.75902814,0.28974056,0.48780793,0.4510629,0.6916793,0.1284259,1.1911774,-0.5940292,-1.8415024,-0.67479634,2.1828249,1.4395071,-1.0080132,1.2579371,-0.65622103,-1.8652046,-0.71484625,2.144978,1.3752639,-1.0222157,-1.4516094,1.368359,0.5264552,0.8820662,0.71379036,0.49275583,-0.12620488,1.6296196,-0.61987686,1.5342745,-3.279124,-0.17023027,1.560989,0.10443115,-0.479187,1.005196,0.87393934,-0.14786424,0.12984388,0.44441718,-0.88092136,0.9197636,0.8719278,1.0,0.0,0.0,0.0,0.0,0.0,0.0,-2.2796197,0.21987686,-0.98427445,-0.095295906,-1.0906458,-0.26923418,3.5954475,-4.7399282,0.15721321,3.918904
8.324156,49.272823,10.679047,9.783243,-0.08016282,-0.28530687,0.16084412,-0.81028926,0.7501734,0.2853521,0.5023309,0.40612727,0.69048184,0.23306027,1.1769081,-0.5812037,-1.8366693,-0.6646132,2.1855907,1.4443121,-0.9989097,1.2434298,-0.64264643,-1.8599842,-0.7058531,2.151711,1.3801963,-1.0231198,-1.4505953,1.3538078,0.52145314,0.90477014,0.65957886,0.49375162,-0.07901712,1.5968513,-0.6215782,1.5491362,-3.2758455,-0.17006008,1.4612424,0.09575653,-0.46987915,1.0137781,0.8757659,-0.158563,0.1301769,0.43697333,-0.85308695,0.9446062,0.8463509,1.0,0.0,0.0,0.0,0.0,0.0,0.0,-2.2468514,0.22157821,-0.99913615,0.03900528,-1.4594555,-0.24904013,2.1977782,-5.442786,0.21303296,4.5940847
9.406693,43.682613,9.06366,7.2938714,-0.30760002,-0.55883557,0.20533206,-0.8046151,0.7341077,0.25858626,0.49895436,0.36023068,0.6850253,0.32862064,1.1629683,-0.5692357,-1.8341255,-0.6559577,2.1877341,1.4486989,-0.99025774,1.2289587,-0.6292654,-1.8549297,-0.6967627,2.157864,1.3851364,-1.0235204,-1.4460132,1.3327829,0.50079495,0.9101526,0.6003348,0.49471745,-0.027487012,1.5641174,-0.6232796,1.5630012,-3.2725704,-0.16989005,1.3615955,0.0874176,-0.4603939,1.0220385,0.8773171,-0.16912362,0.13091047,0.4296212,-0.81747454,0.9596855,0.81191474,1.0,0.0,0.0,0.0,0.0,0.0,0.0,-2.2141175,0.22327957,-1.0130012,0.41139126,-2.0972013,-1.8479466,0.45682192,-5.9393287,0.27244687,5.038502
9.947011,37.561634,7.2478194,4.858945,-0.52783066,-0.8540508,0.22743124,-0.8044518,0.71654785,0.22883572,0.47948718,0.31320882,0.6760842,0.3816263,1.1485136,-0.55761063,-1.8320462,-0.64881396,2.189185,1.4527448,-0.9853577,1.2145334,-0.61614096,-1.8502109,-0.68778,2.1633916,1.390084,-1.0234135,-1.4414277,1.3056786,0.4629125,0.89405435,0.5372153,0.4953506,0.02304961,1.5314178,-0.6249771,1.5758704,-3.2692986,-0.16972019,1.2620482,0.0794754,-0.4508419,1.029887,0.878611,-0.17940515,0.13211606,0.42237628,-0.77484,0.9631842,0.76868176,1.0,0.0,0.0,0.0,0.0,0.0,0.0,-2.181418,0.2249771,-1.0258703,0.42197704,-2.6928425,-3.6141813,-1.7045736,-6.3090205,0.30582547,4.9514813
9.126168,31.79834,5.2792516,3.4627275,-0.72176236,-1.136424,0.19661163,-0.8039972,0.7010844,0.17098895,0.4658747,0.24950448,0.6703282,0.4532205,1.1341337,-0.54603255,-1.833112,-0.64119256,2.188342,1.4571168,-0.9780915,1.2001482,-0.6033093,-1.8461006,-0.6790482,2.1682248,1.3950336,-1.0228013,-1.4377624,1.2758139,0.39401653,0.86588377,0.46528748,0.49581185,0.07379946,1.4987488,-0.62667084,1.587745,-3.2660298,-0.16955051,1.1626004,0.07201004,-0.44133186,1.0372528,0.87969804,-0.18926387,0.13390426,0.41518673,-0.7277784,0.9549399,0.71901625,1.0,0.0,0.0,0.0,0.0,0.0,0.0,-2.1487489,0.22667083,-1.037745,0.33640862,-2.9558659,-6.7830744,-2.9277444,-7.147723,0.33911467,4.9870434
10.7468405,27.279678,4.1869764,0.81217384,-0.948097,-1.3925625,0.24457954,-0.79865044,0.6762704,0.15120348,0.4209672,0.18934695,0.66161585,0.48392928,1.1202831,-0.5356822,-1.8309802,-0.63695145,2.1871595,1.4611952,-0.9744083,1.1858126,-0.59082377,-1.8426864,-0.6707798,2.1722875,1.3999832,-1.0217103,-1.4321473,1.2395171,0.32425082,0.81342447,0.3868037,0.49581957,0.120516464,1.4661102,-0.62836456,1.5986258,-3.2627645,-0.169381,1.0632521,0.06506729,-0.43198204,1.0440754,0.8806007,-0.19857854,0.1363355,0.40807036,-0.6724106,0.93686277,0.6635202,1.0,0.0,0.0,0.0,0.0,0.0,0.0,-2.1161103,0.22836456,-1.0486257,0.55241585,-3.5891056,-6.8966866,-5.3559065,-7.8063846,0.3453076,4.5874195
12.140173,25.270496,3.8430274,-1.0459437,-1.0777801,-1.5522686,0.3088312,-0.80140287,0.65514183,0.1405552,0.36776346,0.13637972,0.65934604,0.5224234,1.1056724,-0.52530956,-1.8286309,-0.63400346,2.1859255,1.4659178,-0.96946794,1.1715113,-0.57872355,-1.8398578,-0.6632191,2.1755528,1.4049327,-1.0201768,-1.429546,1.200308,0.26917562,0.7365909,0.30639386,0.49579436,0.16397041,1.4335098,-0.6300583,1.6085138,-3.2595024,-0.16921164,0.964003,0.05872345,-0.42284393,1.0503229,0.8813158,-0.20727165,0.13940124,0.4011087,-0.61140764,0.9128816,0.6059159,1.0,0.0,0.0,0.0,0.0,0.0,0.0,-2.08351,0.23005828,-1.0585139,0.26171207,-3.875494,-5.4238853,-7.7834725,-8.018917,0.36284328,4.2618423
13.576393,26.623686,4.490438,-1.4798689,-1.1001145,-1.5872673,0.34885105,-0.7912884,0.6344719,0.14153779,0.33635008,0.063143216,0.6523481,0.55034685,1.0923824,-0.5152764,-1.8257041,-0.6295841,2.1818671,1.4701675,-0.9651421,1.157271,-0.56702197,-1.8373935,-0.65645087,2.177956,1.4098747,-1.0182389,-1.422131,1.1602877,0.23916408,0.65661603,0.2179506,0.4948528,0.2034692,1.40094,-0.631752,1.6174102,-3.2562435,-0.16904247,0.8648532,0.053016663,-0.41393852,1.0560215,0.8818314,-0.21535131,0.14306454,0.39437255,-0.54781467,0.8893318,0.5524153,1.0,0.0,0.0,0.0,0.0,0.0,0.0,-2.05094,0.23175201,-1.0674102,0.7657528,-3.957224,-2.9102445,-8.070874,-8.85559,0.24810433,3.8668692
10.249769,30.057575,5.0748186,2.5367403,-0.7769416,-1.4632862,0.2188651,-0.7898592,0.6247503,0.10723822,0.35614973,0.0015520144,0.64851797,0.55785835,1.0782851,-0.50454694,-1.8266697,-0.6208359,2.1781113,1.4747264,-0.96245307,1.1431013,-0.55566466,-1.8352363,-0.6502043,2.1794553,1.4148014,-1.0159463,-1.4151522,1.1276151,0.20810696,0.6138551,0.12730613,0.49271986,0.2375095,1.3684006,-0.6334381,1.6253158,-3.2529879,-0.16887346,0.7658025,0.047843933,-0.4052124,1.0612727,0.8821861,-0.2229262,0.14730398,0.3877538,-0.4966321,0.87201625,0.5110888,1.0,0.0,0.0,0.0,0.0,0.0,0.0,-2.0184007,0.2334381,-1.0753157,0.70910454,-3.2284498,-3.0257792,-4.34252,-9.06634,0.04669428,3.3249617
7.7831407,29.396503,4.815029,4.770761,-0.54072297,-1.4495214,0.13319428,-0.7840113,0.59931105,0.08725718,0.3512183,-0.069625996,0.65112925,0.5726494,1.0647002,-0.49573356,-1.8265105,-0.61508244,2.1724927,1.4799143,-0.95868134,1.1290137,-0.5446497,-1.83339,-0.64419997,2.1800199,1.4197071,-1.0133446,-1.4066514,1.0929996,0.17706287,0.59574354,0.03248585,0.49058557,0.2673572,1.3358955,-0.6351242,1.6322316,-3.2497356,-0.16870461,0.66685086,0.043121338,-0.3966503,1.0661501,0.8824245,-0.23007828,0.1520896,0.3811295,-0.4546103,0.85500455,0.4753472,1.0,0.0,0.0,0.0,0.0,0.0,0.0,-1.9858955,0.2351242,-1.0822315,0.86147785,-3.422141,-3.0501814,-1.8782973,-9.470309,0.008606911,2.9083014
8.031937,26.080755,4.0293646,3.6661725,-0.6569779,-1.5920761,0.13601157,-0.77491146,0.57015985,0.07281886,0.31177384,-0.17568545,0.64637214,0.5852278,1.0515225,-0.48763373,-1.8261081,-0.61302257,2.1624513,1.4843442,-0.9548219,1.1150366,-0.5340258,-1.8318412,-0.6384245,2.1795049,1.4245899,-1.0104741,-1.3947215,1.0522636,0.14748311,0.5713032,-0.079428375,0.4883588,0.2934838,1.3034248,-0.6368103,1.6381587,-3.2464864,-0.16853595,0.5679982,0.038845062,-0.38830185,1.0706487,0.88256675,-0.23678343,0.15744929,0.3744584,-0.40959397,0.83173186,0.4369757,1.0,0.0,0.0,0.0,0.0,0.0,0.0,-1.9534248,0.2368103,-1.0881586,1.2255192,-4.0291786,-2.9303908,-2.5045037,-11.180221,0.015467405,2.5374532
6.944743,16.351727,1.9507848,2.238648,-0.58157706,-1.8375492,0.1356848,-0.7631126,0.514617,0.06968947,0.29330918,-0.27261752,0.6451791,0.583957,1.0387254,-0.4825641,-1.8248723,-0.6090936,2.1522431,1.4891077,-0.9520784,1.101214,-0.5239798,-1.8305271,-0.6329161,2.1777768,1.4294536,-1.0073746,-1.3778843,0.9889485,0.12606332,0.5437585,-0.20361035,0.48661056,0.31512982,1.2709846,-0.6384964,1.643098,-3.2432406,-0.16836745,0.4692443,0.034980774,-0.3802986,1.074714,0.88263696,-0.24297255,0.16334344,0.36774337,-0.36898637,0.7928034,0.39233413,1.0,0.0,0.0,0.0,0.0,0.0,0.0,-1.9209846,0.2384964,-1.0930979,1.7565012,-6.2717557,-2.191639,-2.8190494,-12.375757,0.092726946,2.0891666
5.1242785,6.5194755,-0.38219333,0.84271765,-0.54200983,-2.1018121,0.13000184,-0.7644676,0.46493244,0.0494329,0.25790685,-0.36211017,0.6516141,0.5847591,1.0247673,-0.47748655,-1.8255838,-0.6071254,2.1415658,1.4946151,-0.94889873,1.087525,-0.51469576,-1.8294456,-0.6277901,2.1747708,1.4343078,-1.0040864,-1.3655734,0.9083764,0.10182556,0.50200105,-0.33298278,0.48609424,0.3329937,1.238575,-0.6401787,1.6470505,-3.239998,-0.1681991,0.3705892,0.03150177,-0.37280655,1.0782769,0.88267446,-0.24853775,0.16973324,0.36097848,-0.33312097,0.7371188,0.34058803,1.0,0.0,0.0,0.0,0.0,0.0,0.0,-1.888575,0.24017867,-1.0970504,1.3230085,-7.9863787,-2.5309637,-4.2500496,-12.859231,0.24136901,1.7036021
2.887197,-5.2448874,-2.6590805,-0.07908678,-0.18522745,-2.3435996,0.15540798,-0.759324,0.38773692,0.07290038,0.2316667,-0.41174555,0.651398,0.58335054,1.0115926,-0.47592208,-1.8221556,-0.60462344,2.1335962,1.4994476,-0.9457513,1.0739447,-0.5064274,-1.8284366,-0.62313426,2.1705785,1.4391601,-1.0006455,-1.3551656,0.79989165,0.09985329,0.4531046,-0.4478767,0.48583126,0.34741032,1.2061996,-0.64185715,1.6500171,-3.2367587,-0.16803095,0.27203277,0.02827835,-0.36599922,1.0812801,0.882706,-0.25341225,0.17643826,0.35423425,-0.31098008,0.66350067,0.28362253,1.0,0.0,0.0,0.0,0.0,0.0,0.0,-1.8561996,0.24185714,-1.1000171,1.1614084,-10.766899,-0.3660813,-4.9725056,-11.377007,0.26578307,1.3509154
0.3643484,-18.73621,-5.0323715,-0.82718945,0.2917993,-2.5638454,0.19171475,-0.7515647,0.28627977,0.12491448,0.20764169,-0.47739387,0.65961605,0.57914,0.99878824,-0.47779942,-1.8159451,-0.6023701,2.122839,1.5051217,-0.9427315,1.0604712,-0.49951908,-1.8271453,-0.618981,2.1653066,1.4440162,-0.99708354,-1.3442065,0.6547413,0.13792077,0.40252832,-0.55292517,0.48633865,0.3586922,1.1738586,-0.6435356,1.651999,-3.2335227,-0.16786295,0.17357485,0.025154114,-0.36006355,1.0836724,0.88274825,-0.25757816,0.18318082,0.3476404,-0.30697465,0.5717086,0.22175877,1.0,0.0,0.0,0.0,0.0,0.0,0.0,-1.8238586,0.24353561,-1.101999,1.2536526,-14.4259815,3.5767345,-5.1456747,-10.361731,0.3221929,1.0326147
-4.9906807,-50.00299,-11.310279,-3.6688337,0.9820224,-3.152397,0.20687845,-0.7360353,0.11012356,0.16241615,0.1749822,-0.51839453,0.6656038,0.5649429,0.98686767,-0.48850673,-1.8109037,-0.6014828,2.1134672,1.5105766,-0.94058925,1.047156,-0.49462053,-1.8252895,-0.6153637,2.1591191,1.4488819,-0.99343765,-1.3265469,0.43524274,0.20041998,0.347691,-0.64015675,0.48736212,0.3662204,1.1415482,-0.6452141,1.652997,-3.2302897,-0.16769512,0.07521537,0.021827698,-0.3553753,1.0853117,0.88287413,-0.26092863,0.18955563,0.3413476,-0.3347695,0.43490893,0.14258613,1.0,0.0,0.0,0.0,0.0,0.0,0.0,-1.7915481,0.24521407,-1.1029971,2.003169,-21.840937,5.866757,-5.60264,-8.481062,0.36035776,0.6396413
-17.657679,-112.94469,-24.205635,-7.0516367,2.4024217,-4.228557,0.09662705,-0.6905958,-0.21052839,0.2132176,0.20513424,-0.5740433,0.6731401,0.5358116,0.97809637,-0.5156734,-1.8039677,-0.5948503,2.1017148,1.5161959,-0.93985647,1.0342089,-0.49306127,-1.8226573,-0.6120249,2.1521268,1.453759,-0.9897517,-1.2827604,0.06332816,0.28178257,0.32872364,-0.71720755,0.48828655,0.36892676,1.1092682,-0.64689255,1.6530122,-3.22706,-0.16752747,-0.02304578,0.017723083,-0.3527012,1.0859098,0.88327813,-0.263264,0.19489521,0.33545148,-0.43196923,0.21253122,0.030928113,1.0,0.0,0.0,0.0,0.0,0.0,0.0,-1.7592682,0.24689254,-1.1030121,4.761791,-37.0439,7.454476,-2.0729482,-7.2411537,0.2670586,0.13791919
-21.513208,-132.47826,-27.29082,-6.015542,3.3163986,-4.4245467,0.038567796,-0.6024825,-0.4216942,0.2831407,0.26748648,-0.60926455,0.6686321,0.5027866,0.97396064,-0.5352307,-1.7943432,-0.58527625,2.0912004,1.5206221,-0.93947303,1.0220724,-0.4956834,-1.8190334,-0.6084391,2.1444516,1.4586265,-0.98606765,-1.1892333,-0.37023014,0.3867091,0.3681065,-0.7824951,0.4861289,0.36813945,1.0770187,-0.6485634,1.6520454,-3.2238336,-0.16735996,-0.12120869,0.012378693,-0.3523903,1.0853728,0.8840628,-0.26465502,0.19864212,0.3300484,-0.5663003,-0.028130895,-0.08253364,1.0,0.0,0.0,0.0,0.0,0.0,0.0,-1.7270187,0.24856338,-1.1020453,9.756041,-43.20975,9.776342,3.8232267,-6.0407043,-0.29613972,-0.113642216
-10.932182,-119.742805,-22.756044,-9.032369,3.0912743,-4.163952,0.2286371,-0.4357948,-0.60110116,0.37894902,0.2878253,-0.67106414,0.67914534,0.4612904,0.978493,-0.5557935,-1.7811385,-0.57965654,2.0773451,1.526541,-0.9399386,1.0115439,-0.5026063,-1.8140972,-0.60428965,2.1360974,1.4634674,-0.9824208,-1.00661,-0.79925615,0.52822006,0.43028873,-0.85201913,0.48227087,0.3637849,1.0448074,-0.6502342,1.6500977,-3.2206104,-0.16719264,-0.21927345,0.0058517456,-0.3543415,1.0837536,0.88512945,-0.26537395,0.20050703,0.32545263,-0.6823704,-0.24861631,-0.18882525,1.0,0.0,0.0,0.0,0.0,0.0,0.0,-1.6948074,0.25023422,-1.1000977,18.445015,-42.778957,13.826937,6.136388,-6.666255,-0.7307887,-0.35803914
1.6539838,-73.05737,-11.515462,-4.7888794,2.7876623,-3.174494,0.24089146,-0.2471534,-0.6982836,0.43259776,0.42396381,-0.68764746,0.6942825,0.37718612,0.9868285,-0.57243466,-1.7708374,-0.5618933,2.0673327,1.5328956,-0.9447022,1.0034987,-0.51317966,-1.8077228,-0.5989424,2.1271253,1.4682777,-0.9788741,-0.7378602,-1.1431501,0.6746794,0.56942827,-0.9125418,0.47915772,0.3523591,1.0126266,-0.65190506,1.6471702,-3.2173905,-0.16702548,-0.31724018,-0.0015830994,-0.35796738,1.0813421,0.8862822,-0.2659871,0.20047066,0.3218169,-0.76485974,-0.39669117,-0.2596602,1.0,0.0,0.0,0.0,0.0,0.0,0.0,-1.6626266,0.25190505,-1.0971701,26.717138,-34.314884,14.940834,13.883055,-6.1103225,-0.7513523,-0.9337485
19.795176,-19.421848,0.17289546,-5.7197585,1.5357473,-2.3906703,0.33503473,-0.035396274,-0.74438876,0.42008615,0.477926,-0.6831293,0.69331473,0.24409078,0.99995905,-0.5876185,-1.7657142,-0.5511498,2.0588124,1.5376092,-0.95446503,0.99868834,-0.5262841,-1.8002422,-0.59210074,2.1176763,1.4730594,-0.9755391,-0.39746398,-1.3663138,0.7765345,0.72203636,-0.95784205,0.47644928,0.3278929,0.9804764,-0.6535759,1.6432637,-3.2141738,-0.16685848,-0.41510895,-0.00932312,-0.3625698,1.0784494,0.8873157,-0.26693514,0.19881989,0.31919757,-0.78013754,-0.47910225,-0.3013549,1.0,0.0,0.0,0.0,0.0,0.0,0.0,-1.6304764,0.2535759,-1.0932636,33.439575,-22.341442,11.401022,15.176773,-5.14344,-0.70076585,-2.2625208
29.039276,17.480843,6.541404,-6.703045,0.2721908,-1.9886038,0.3356291,0.07432887,-0.77189,0.38251555,0.46971613,-0.6749619,0.69311565,0.11180139,1.0061213,-0.60347307,-1.7619907,-0.5451291,2.05018,1.542371,-0.9643589,0.99713576,-0.5407971,-1.7922752,-0.58408797,2.1079068,1.4778202,-0.97254264,-0.077073425,-1.4800094,0.8092587,0.82738924,-0.9863258,0.47471693,0.29053822,0.9483566,-0.6552429,1.6383792,-3.2109601,-0.16669166,-0.51287985,-0.016830444,-0.36771393,1.075255,0.888144,-0.26827782,0.19606672,0.31746632,-0.74278647,-0.523568,-0.32873744,1.0,0.0,0.0,0.0,0.0,0.0,0.0,-1.5983566,0.2552429,-1.0883791,31.273273,-11.507225,4.9619317,10.4316,-3.8331747,-0.54709315,-3.6552548
26.940804,39.0109,8.714704,-4.0747557,-0.46513912,-1.733706,0.22375953,0.097261235,-0.77568185,0.35055324,0.4463491,-0.67183685,0.6943898,0.03339465,1.0068619,-0.6183653,-1.7572199,-0.539453,2.040723,1.5472591,-0.9692032,0.99805605,-0.5558032,-1.7844322,-0.5755192,2.0979657,1.4825733,-0.9699601,0.14640598,-1.5081326,0.78088105,0.8667286,-1.0001733,0.47467217,0.24757467,0.9162712,-0.6569061,1.6325178,-3.2077498,-0.16652499,-0.6105531,-0.023803711,-0.37310982,1.07185,0.88880897,-0.26983172,0.19279447,0.31629047,-0.6831251,-0.54455173,-0.34867764,1.0,0.0,0.0,0.0,0.0,0.0,0.0,-1.5662712,0.25690612,-1.0825179,21.780792,-3.0153036,-1.3853669,3.9202213,-2.3632646,-0.26237965,-4.286161
20.86677,46.19576,8.137632,-1.4066615,-0.81798655,-1.6767191,0.12462666,0.11983438,-0.77889055,0.30491844,0.4158973,-0.6659329,0.69176525,0.014617541,1.0100394,-0.63369226,-1.7539403,-0.53392947,2.0313725,1.5517498,-0.96849835,1.0004733,-0.5707358,-1.7772377,-0.5670029,2.0879827,1.4873321,-0.96778667,0.27253568,-1.4890548,0.7021401,0.8469373,-1.0005069,0.47565487,0.20706943,0.8842201,-0.65856934,1.6256804,-3.2045429,-0.1663585,-0.7081287,-0.030158997,-0.37865448,1.0682518,0.8894069,-0.27132043,0.18948579,0.3153343,-0.61958593,-0.55835426,-0.36818743,1.0,0.0,0.0,0.0,0.0,0.0,0.0,-1.5342201,0.25856933,-1.0756805,12.302905,1.6950607,-6.9020867,-1.9034505,-0.7926583,-0.05992055,-4.078081
15.396394,42.211437,5.8444867,-0.5686052,-1.0207791,-1.8193419,0.060066823,0.15608533,-0.7881449,0.22745438,0.38200507,-0.6659794,0.6865127,-0.0009471612,1.0160818,-0.6495503,-1.7544922,-0.5288024,2.0213847,1.5559834,-0.9678814,1.0036795,-0.5853909,-1.7711818,-0.55898726,2.0780454,1.4920986,-0.965989,0.33625832,-1.4582785,0.5753635,0.7868468,-0.9934316,0.4766303,0.17051493,0.85219955,-0.66023254,1.617868,-3.201339,-0.16619217,-0.80560666,-0.035900116,-0.3843956,1.064411,0.8900454,-0.27245262,0.186458,0.31435975,-0.559034,-0.5803646,-0.3940477,1.0,0.0,0.0,0.0,0.0,0.0,0.0,-1.5021995,0.26023254,-1.067868,6.2112274,2.8875828,-12.102043,-5.8989406,0.210464,-0.019657612,-3.7097545
3.921981,32.288086,2.3451428,3.942307,-0.7799258,-1.932392,-0.16300915,0.12589021,-0.78774256,0.10273558,0.36612904,-0.65643865,0.68516076,-0.0980118,1.0162685,-0.6641652,-1.7609082,-0.52237433,2.0124016,1.5606146,-0.9757902,1.0070002,-0.59975326,-1.766835,-0.55162776,2.0682302,1.4968765,-0.96458614,0.33088842,-1.4293152,0.3880582,0.7197064,-0.9778635,0.4779504,0.13014218,0.8202095,-0.66189575,1.6090815,-3.1981382,-0.16602601,-0.90298724,-0.04121399,-0.39043427,1.0602628,0.89088607,-0.27296942,0.18395694,0.31300095,-0.5208716,-0.6122183,-0.42622873,1.0,0.0,0.0,0.0,0.0,0.0,0.0,-1.4702095,0.26189575,-1.0590816,-0.48072934,2.757287,-18.684404,-6.5003276,1.4093995,0.07022023,-4.073951
0.107756495,30.013777,1.8269506,5.468402,-0.55868703,-1.872453,-0.14757507,0.117198914,-0.78459847,0.07774328,0.31851554,-0.6518089,0.6824083,-0.09600289,1.0187201,-0.6782131,-1.7590606,-0.5197762,2.0030494,1.5651174,-0.9741864,1.0100234,-0.6138829,-1.7641857,-0.54503024,2.058579,1.5016639,-0.9635447,0.29331997,-1.4079223,0.22366843,0.6404914,-0.9612175,0.47889426,0.09535579,0.78824997,-0.66355515,1.599322,-3.1949408,-0.16586003,-1.0002704,-0.046218872,-0.39678383,1.05578,0.89197713,-0.27278826,0.18202594,0.31117496,-0.4929146,-0.6432079,-0.4599675,1.0,0.0,0.0,0.0,0.0,0.0,0.0,-1.43825,0.26355514,-1.0493219,-3.6156714,2.0187378,-16.5281,-7.6917887,1.5666604,0.032126904,-3.5038307
-6.703023,26.506582,1.141379,9.255987,-0.08050585,-1.7533551,-0.21451636,0.07079592,-0.78717023,0.020495534,0.2983938,-0.6519953,0.68362755,-0.11003837,1.017103,-0.6925999,-1.7621361,-0.51519084,1.9933795,1.5700266,-0.9745486,1.0124304,-0.62788665,-1.7630069,-0.5391432,2.049069,1.5064609,-0.962819,0.22391836,-1.3982006,0.081796326,0.5723356,-0.9475966,0.47990662,0.065098,0.75632477,-0.6652107,1.5885903,-3.1917465,-0.16569419,-1.0974562,-0.051109314,-0.4034214,1.0509603,0.8933393,-0.27192467,0.18063067,0.30882767,-0.48526198,-0.67129356,-0.4935276,1.0,0.0,0.0,0.0,0.0,0.0,0.0,-1.4063247,0.26521072,-1.0385902,-6.6817136,0.8706093,-14.431329,-6.518972,1.3097167,0.048482418,-3.0114458
1.1434144,29.299128,2.7498505,4.3599815,-0.22042519,-1.7044861,0.05992285,0.08850188,-0.79577976,0.052363638,0.20044552,-0.6401449,0.6780328,-0.10658538,1.0212806,-0.70746464,-1.7577705,-0.51909864,1.9850545,1.5742642,-0.97347754,1.0142977,-0.6418952,-1.7626407,-0.5342032,2.0396886,1.5112598,-0.96235454,0.1748309,-1.4020677,0.021523999,0.46849644,-0.9352965,0.47959942,0.040190063,0.7244339,-0.6668663,1.5768875,-3.1885552,-0.16552854,-1.194545,-0.05582428,-0.41034317,1.0457864,0.89486474,-0.27046183,0.1795659,0.30630627,-0.46469337,-0.6984195,-0.52944773,1.0,0.0,0.0,0.0,0.0,0.0,0.0,-1.3744339,0.2668663,-1.0268874,-4.7671766,-0.49390793,-6.0476747,-10.2009535,1.0294914,-0.14733672,-2.4839952
0.74824667,33.745193,4.169523,5.68175,0.082674414,-1.5077034,0.102334246,0.049224712,-0.79263276,0.0482924,0.17099541,-0.6302253,0.6719378,-0.112910055,1.0192202,-0.72115844,-1.7578114,-0.5171036,1.9766661,1.5784535,-0.97364557,1.015652,-0.6559609,-1.7625091,-0.53025305,2.0304303,1.516051,-0.96210945,0.12294508,-1.4083488,0.010349358,0.37119928,-0.92349124,0.47863537,0.019425591,0.69257355,-0.6685219,1.5642146,-3.1853673,-0.16536304,-1.2915367,-0.060382843,-0.4174595,1.0402924,0.89646935,-0.2685432,0.17865494,0.30382475,-0.45028776,-0.7151496,-0.56003,1.0,0.0,0.0,0.0,0.0,0.0,0.0,-1.3425735,0.26852188,-1.0142145,-5.028661,-0.73246956,-1.1222048,-9.5391865,0.92873573,-0.20568967,-2.0328732
2.84488,36.48476,5.0485134,5.3907247,0.17300609,-1.4430987,0.1214353,0.05493451,-0.79795057,0.01917086,0.14905733,-0.6147915,0.67008084,-0.13552248,1.0211453,-0.735756,-1.760592,-0.5153473,1.9689512,1.5830592,-0.9756617,1.0166552,-0.6701125,-1.7624099,-0.5271307,2.0213094,1.5208328,-0.9620608,0.09309287,-1.4177564,0.01001856,0.29316813,-0.9093522,0.4774228,0.00021452666,0.6607437,-0.67017746,1.5505724,-3.1821826,-0.16519772,-1.3884314,-0.06479263,-0.42471695,1.0345165,0.89810884,-0.2662913,0.17778479,0.3014665,-0.4358034,-0.7281942,-0.58744335,1.0,0.0,0.0,0.0,0.0,0.0,0.0,-1.3107437,0.27017745,-1.0005724,-2.868353,-1.0418653,0.022144057,-7.6299667,1.141417,-0.23523569,-1.8605124
-8.4370365,36.188507,4.7075977,13.2190695,0.89273024,-1.2512987,-0.13851477,-0.009316074,-0.8014482,-0.025799798,0.19307004,-0.6176591,0.6649038,-0.1327261,1.0157236,-0.7502573,-1.7649899,-0.5078237,1.9595435,1.5873232,-0.9753334,1.0171988,-0.68435943,-1.762471,-0.5243155,2.0122952,1.5256011,-0.9621762,0.042404518,-1.4272698,-0.01178986,0.2786758,-0.8992147,0.47640127,-0.015070994,0.6289444,-0.6718254,1.535962,-3.179001,-0.16503255,-1.4852293,-0.06928253,-0.43203545,1.0285224,0.89984,-0.26380366,0.17697431,0.29895756,-0.45100868,-0.73135036,-0.60736907,1.0,0.0,0.0,0.0,0.0,0.0,0.0,-1.2789444,0.2718254,-0.985962,-4.8159866,-1.0445356,-2.2841494,-1.1382163,0.79808235,-0.15680194,-1.4089156
-15.983895,34.864246,3.8519075,16.651793,1.0692657,-1.1887113,-0.23162785,-0.086716436,-0.7986343,-0.064167805,0.13956036,-0.6161346,0.66075283,-0.1350291,1.0085272,-0.76422286,-1.7688878,-0.51035947,1.9506818,1.5916765,-0.9756791,1.0169699,-0.6986655,-1.7629268,-0.5216757,2.0033612,1.5303581,-0.96242607,-0.04340631,-1.4320138,-0.05768865,0.2604412,-0.89192754,0.47524613,-0.027787814,0.5971756,-0.67347336,1.5203843,-3.1758227,-0.16486755,-1.5819303,-0.07400894,-0.4393711,1.022317,0.9017284,-0.2610275,0.17635061,0.29605898,-0.47826412,-0.7328048,-0.62888044,1.0,0.0,0.0,0.0,0.0,0.0,0.0,-1.2471756,0.27347335,-0.9703843,-8.231426,-0.5667925,-4.818394,-1.439625,0.5511522,-0.15593767,-1.1489675
-16.234583,38.259956,4.9185333,16.036547,1.1442431,-1.0139252,-0.07132801,-0.15651292,-0.80501485,0.03695842,0.04627498,-0.62842363,0.6605834,-0.08111459,1.0013186,-0.779167,-1.759231,-0.5170482,1.9405189,1.5964165,-0.97053754,1.0156786,-0.713024,-1.7633274,-0.51957476,1.9944401,1.5351036,-0.96274364,-0.15649796,-1.4374292,-0.035063088,0.19455096,-0.8928732,0.47425762,-0.03259577,0.56544113,-0.6751213,1.5038404,-3.1726477,-0.16470271,-1.6785347,-0.07900238,-0.44666672,1.0158926,0.903725,-0.25796348,0.17588381,0.29291776,-0.50466317,-0.7268456,-0.65100986,1.0,0.0,0.0,0.0,0.0,0.0,0.0,-1.2154411,0.2751213,-0.95384043,-10.934283,-0.6358385,2.0039215,-6.215224,-0.3058076,-0.1403451,-0.33882374
-12.922902,35.752987,3.944276,11.611235,0.56868196,-1.1486988,0.10530788,-0.21559417,-0.8061708,-0.017542081,-0.065842316,-0.63108534,0.6548286,-0.040680997,0.9941192,-0.7936411,-1.7650815,-0.526159,1.9313315,1.6005864,-0.9668117,1.01318,-0.72742546,-1.7636535,-0.5186144,1.985487,1.5398338,-0.9630679,-0.27982223,-1.4414746,-0.032744534,0.06423842,-0.8969885,0.47231475,-0.0319699,0.533741,-0.67676926,1.4863312,-3.1694756,-0.16453804,-1.7750425,-0.08412933,-0.45399094,1.009162,0.90579015,-0.25444144,0.17565215,0.2897413,-0.51441044,-0.7312457,-0.68453574,1.0,0.0,0.0,0.0,0.0,0.0,0.0,-1.183741,0.27676925,-0.9363312,-11.992285,-0.49641132,-0.0335522,-12.70686,-0.6096244,-0.2904892,0.15433878
3.2812982,33.126064,2.9968286,-1.2486197,-0.8111663,-1.492054,0.5688095,-0.24366665,-0.8055965,-0.060112685,-0.29170704,-0.6003055,0.64150506,0.06015374,0.98881334,-0.8079851,-1.7696648,-0.5477851,1.9254564,1.6039842,-0.9570525,1.0095885,-0.7418517,-1.7641666,-0.51988375,1.9765797,1.5445297,-0.96330726,-0.3850862,-1.4432311,-0.057887066,-0.19012655,-0.88932264,0.46790975,-0.021374458,0.5020714,-0.6784134,1.4678577,-3.1663067,-0.16437355,-1.8714539,-0.08899307,-0.4615345,1.0019388,0.9078338,-0.2501179,0.17576,0.28703177,-0.4760982,-0.758385,-0.73878956,1.0,0.0,0.0,0.0,0.0,0.0,0.0,-1.1520714,0.2784134,-0.9178577,-10.344606,-0.25782585,-2.6724367,-25.28746,0.5509496,-0.66698194,1.0465376
14.5955305,42.92702,5.620336,-7.248657,-1.2425829,-1.3335073,0.9171579,-0.28872916,-0.7944809,0.0500722,-0.45561144,-0.6038211,0.64276314,0.19562763,0.9807156,-0.8212998,-1.7591593,-0.5654449,1.9161975,1.608806,-0.9437445,1.0050471,-0.75623024,-1.7644374,-0.52416956,1.9677505,1.5491836,-0.9633378,-0.4769325,-1.4362453,-0.017628228,-0.50788075,-0.88133746,0.4637256,0.0030123405,0.47043228,-0.6800537,1.4484208,-3.163141,-0.1642092,-1.9677688,-0.09326935,-0.4692917,0.9941834,0.9096943,-0.24497324,0.1761122,0.2853572,-0.4116437,-0.7772455,-0.7917883,1.0,0.0,0.0,0.0,0.0,0.0,0.0,-1.1204323,0.2800537,-0.89842075,-9.071213,0.6461859,3.7801933,-31.714947,0.6665945,-0.65881014,2.4483166
16.42506,51.86077,8.282682,-6.2302694,-0.8734316,-1.0331484,0.9808634,-0.33389363,-0.7905385,0.13376313,-0.56244856,-0.5898607,0.6425326,0.27674875,0.9716577,-0.8352841,-1.7510611,-0.5804144,1.9087645,1.6134368,-0.9356629,0.99966264,-0.77051246,-1.7638786,-0.5315472,1.9590435,1.5538032,-0.9630698,-0.5585496,-1.4255283,0.078614496,-0.81410533,-0.8666466,0.46070945,0.035185844,0.4388237,-0.68169403,1.4280213,-3.1599784,-0.16404504,-2.0639873,-0.09692764,-0.47711563,0.9859758,0.9112589,-0.23923838,0.17649658,0.28499308,-0.34995258,-0.7790266,-0.8343541,1.0,0.0,0.0,0.0,0.0,0.0,0.0,-1.0888237,0.28169402,-0.8780213,-8.028698,1.0596037,9.091815,-30.537724,1.5791774,-0.4728973,3.325234
16.00104,59.31662,10.933204,-2.418873,-0.12920472,-0.7502148,0.84348184,-0.32736585,-0.7954251,0.2067232,-0.6021194,-0.5559741,0.6368305,0.28996658,0.96692604,-0.850055,-1.7432063,-0.59175915,1.9034461,1.6174862,-0.93407315,0.9937413,-0.7847203,-1.7620933,-0.5413796,1.9505863,1.5583999,-0.9624871,-0.60288155,-1.4190481,0.20898414,-1.0392799,-0.8373499,0.4592443,0.066720605,0.40724564,-0.68333435,1.4066604,-3.156819,-0.16388102,-2.1601093,-0.10006714,-0.48482704,0.9774644,0.9124816,-0.2332901,0.17661935,0.28593472,-0.30387992,-0.7633302,-0.8605569,1.0,0.0,0.0,0.0,0.0,0.0,0.0,-1.0572456,0.28333434,-0.8566604,-4.3050647,0.6846428,12.205929,-22.408127,3.3661842,-0.16590357,3.3702292
16.497742,58.40145,10.829989,-0.7216505,0.0035194755,-0.81646174,0.64084107,-0.29310492,-0.79933465,0.1447335,-0.6331907,-0.53823704,0.6326598,0.31969464,0.9644308,-0.86465377,-1.74762,-0.60469866,1.8967626,1.621666,-0.9305176,0.987756,-0.79890525,-1.7595127,-0.5527979,1.9424534,1.5629852,-0.96159923,-0.5967956,-1.4180819,0.2716128,-1.1757225,-0.80344856,0.45860276,0.096877776,0.3756981,-0.6849747,1.3843391,-3.153663,-0.16371718,-2.2561355,-0.10279465,-0.4924183,0.96872175,0.9134015,-0.22729163,0.17642584,0.28794128,-0.26328373,-0.7505056,-0.8823236,1.0,0.0,0.0,0.0,0.0,0.0,0.0,-1.0256981,0.28497466,-0.8343391,0.68591833,0.16314983,5.437991,-13.542819,3.9221883,-0.008285046,3.225869
18.746569,56.67282,10.1581335,-0.63150126,-0.2005854,-0.9880132,0.47611114,-0.24633358,-0.796185,0.070160754,-0.65478307,-0.5291494,0.6249592,0.35326698,0.96312267,-0.87852377,-1.7524966,-0.61827624,1.8895384,1.6254811,-0.9262725,0.98218846,-0.8130845,-1.7569702,-0.56504023,1.9346333,1.5675628,-0.9604205,-0.543387,-1.417546,0.24621987,-1.240107,-0.77330816,0.45784655,0.12533371,0.34418488,-0.68660736,1.3610582,-3.1505098,-0.16355349,-2.3520656,-0.105098724,-0.4999447,0.9597599,0.9140836,-0.22122315,0.1760492,0.29072005,-0.2193088,-0.746298,-0.9040229,1.0,0.0,0.0,0.0,0.0,0.0,0.0,-0.99418485,0.28660735,-0.8110582,5.3477883,0.14047623,-3.2119095,-6.374407,3.5086513,0.013381243,2.9986486
16.706264,50.150146,7.993324,0.32145107,-0.42475593,-1.2165632,0.28737405,-0.21516386,-0.79819286,-0.04915751,-0.65905625,-0.527652,0.6296563,0.35739046,0.9606721,-0.89290375,-1.7618859,-0.63094586,1.881868,1.6305285,-0.9246814,0.97731614,-0.8272742,-1.7554348,-0.5775305,1.9270401,1.5721347,-0.9589919,-0.46861175,-1.4191644,0.1211794,-1.2517217,-0.75367236,0.4571601,0.14903042,0.312706,-0.68824005,1.3368188,-3.14736,-0.16338998,-2.4478998,-0.106975555,-0.507534,0.950525,0.9146244,-0.21491888,0.17573361,0.29392126,-0.1771457,-0.75591165,-0.93310314,1.0,0.0,0.0,0.0,0.0,0.0,0.0,-0.96270597,0.28824005,-0.7868188,7.4494066,-0.08478165,-12.900305,-1.1047125,2.2575974,-0.035828352,2.439168
3.6663542,38.22007,4.212923,5.015407,-0.20101282,-1.3785119,0.063143715,-0.24851574,-0.8029781,-0.20502259,-0.6777612,-0.47558036,0.6259562,0.36942038,0.9524646,-0.90757203,-1.775937,-0.64530665,1.879482,1.6347303,-0.9220498,0.97292924,-0.8415059,-1.7558563,-0.5900036,1.9197159,1.5766914,-0.9573506,-0.4286263,-1.4244695,-0.096793525,-1.2453107,-0.72545314,0.45477888,0.16921526,0.28125763,-0.68987274,1.3116217,-3.1442132,-0.16322662,-2.5436382,-0.10860062,-0.51532364,0.9408948,0.9151667,-0.20808564,0.17571983,0.29714093,-0.15801907,-0.7788506,-0.97633237,1.0,0.0,0.0,0.0,0.0,0.0,0.0,-0.9312576,0.28987274,-0.76162165,4.038143,-0.5027294,-21.880238,0.78561306,2.7680397,-0.34875274,2.0279856
-8.137828,34.3315,2.9955697,9.940762,0.26475552,-1.242621,-0.050193302,-0.28108028,-0.8047244,-0.26701713,-0.69467896,-0.46583462,0.62683415,0.405656,0.94482124,-0.92197835,-1.782558,-0.6594715,1.8731325,1.6393749,-0.916785,0.968611,-0.8557986,-1.7584789,-0.60242236,1.9126492,1.5812232,-0.95550716,-0.43247628,-1.430845,-0.31747255,-1.2400016,-0.7012284,0.45195243,0.18949133,0.24983978,-0.69150543,1.285468,-3.1410697,-0.16306344,-2.6392808,-0.11021042,-0.52331924,0.93080086,0.9157929,-0.20057428,0.1761019,0.3001355,-0.16145256,-0.79873085,-1.0242615,1.0,0.0,0.0,0.0,0.0,0.0,0.0,-0.89983976,0.29150543,-0.735468,-0.26014447,-0.64382553,-22.074663,0.75502396,2.2146225,-0.4554987,2.0352244
-9.68067,34.456337,2.9225788,10.045837,0.23423159,-1.1609862,-0.019950144,-0.27327725,-0.8036819,-0.36458683,-0.7167181,-0.47708198,0.6169007,0.43463558,0.9412833,-0.93616676,-1.7949376,-0.67409414,1.864941,1.6429133,-0.9120436,0.964164,-0.87013996,-1.763253,-0.61489546,1.9057312,1.585717,-0.9534615,-0.44822592,-1.4352255,-0.5304371,-1.2489545,-0.6894658,0.44787812,0.2095433,0.21845245,-0.6931381,1.2583585,-3.1379292,-0.1629004,-2.734828,-0.11185837,-0.53149796,0.92020273,0.9165039,-0.19231316,0.1769229,0.30287677,-0.1652632,-0.81674623,-1.0761621,1.0,0.0,0.0,0.0,0.0,0.0,0.0,-0.8684524,0.29313812,-0.70835847,-1.428628,-0.45626163,-21.286058,-0.659585,0.92424154,-0.6283045,1.9983321
-12.354176,39.840355,4.7225394,12.0573845,0.5219745,-0.8535725,-0.008825503,-0.29010588,-0.8055729,-0.38893837,-0.71120906,-0.52767307,0.62906504,0.46581134,0.9351534,-0.95069724,-1.8021468,-0.6860164,1.8529639,1.6486235,-0.9068804,0.95946336,-0.88451755,-1.769696,-0.6274468,1.8987293,1.5901859,-0.95121276,-0.47675,-1.4386239,-0.682628,-1.2564105,-0.70431554,0.44581753,0.23005912,0.18709564,-0.6947632,1.2302942,-3.1347919,-0.16273753,-2.8302794,-0.11358261,-0.53974915,0.9091382,0.917253,-0.18340659,0.17814963,0.30540404,-0.17478567,-0.82082087,-1.1217003,1.0,0.0,0.0,0.0,0.0,0.0,0.0,-0.8370956,0.29476318,-0.6802942,-2.6912928,-0.35459995,-15.316224,-0.5139828,-1.6547322,-0.3832817,2.0627558
-19.325401,46.822025,6.880454,16.422792,1.0824437,-0.47054034,-0.059217162,-0.3391245,-0.7994514,-0.41083232,-0.7055781,-0.55534464,0.62775254,0.47889796,0.92555094,-0.9644627,-1.8107792,-0.6980046,1.8431948,1.6529611,-0.903323,0.954283,-0.8988875,-1.7772033,-0.64003146,1.8914661,1.5946395,-0.9487685,-0.53110415,-1.4365121,-0.77412176,-1.2583191,-0.73385656,0.44487268,0.24937521,0.15576935,-0.69638824,1.2012762,-3.1316578,-0.16257483,-2.9256353,-0.11550522,-0.5479164,0.8977084,0.9180058,-0.17403398,0.1797097,0.30770415,-0.19879813,-0.8067702,-1.1557548,1.0,0.0,0.0,0.0,0.0,0.0,0.0,-0.8057693,0.29638824,-0.6512762,-5.2441835,0.19509792,-9.340763,0.05352497,-3.07101,-0.20153522,1.9753456
-27.095264,49.538357,7.9468374,20.468119,1.6985285,-0.18322045,-0.124596775,-0.3934082,-0.80342555,-0.43338948,-0.7045535,-0.550632,0.63007915,0.47501215,0.9149422,-0.97923005,-1.8205422,-0.7104868,1.8364029,1.6576475,-0.9012673,0.9483731,-0.913247,-1.7852943,-0.65260756,1.8839397,1.5990894,-0.9461535,-0.61017936,-1.4358127,-0.8214638,-1.2564402,-0.7593905,0.4447542,0.26590016,0.12447357,-0.6980133,1.1713053,-3.1285267,-0.16241229,-3.020896,-0.11781311,-0.555851,0.8859929,0.91876006,-0.1643536,0.18147218,0.30973494,-0.24129546,-0.780971,-1.1827577,1.0,0.0,0.0,0.0,0.0,0.0,0.0,-0.77447355,0.2980133,-0.6213053,-7.68348,0.034427643,-4.9430847,0.47359467,-2.6947856,-0.09508133,1.7398536
-27.607801,54.52605,9.683705,21.472675,1.936062,0.017437696,-0.11993588,-0.41949978,-0.80034447,-0.43674606,-0.697821,-0.57492185,0.6370301,0.49384165,0.9064231,-0.9932814,-1.8289689,-0.72238964,1.8264476,1.6627924,-0.89676934,0.9416754,-0.92758644,-1.7935989,-0.6651255,1.8761444,1.6035469,-0.9433774,-0.6889185,-1.4333705,-0.8343445,-1.2493416,-0.7865531,0.44604787,0.28184748,0.09320831,-0.69963837,1.1403825,-3.1253989,-0.16224991,-3.1160614,-0.12055588,-0.5634575,0.8740674,0.9194962,-0.15450919,0.18332785,0.31151986,-0.28660417,-0.7463302,-1.2017527,1.0,0.0,0.0,0.0,0.0,0.0,0.0,-0.7432083,0.29963836,-0.5903825,-7.664418,0.2172947,-1.5666246,0.9801626,-2.7821302,0.09573698,1.7081678
-24.795713,50.2259,8.379902,18.978502,1.6698277,-0.13287747,-0.08100366,-0.44050986,-0.80674684,-0.52616,-0.71238667,-0.56782746,0.61454636,0.48973012,0.89762443,-1.0082611,-1.8462149,-0.7363641,1.8193617,1.6650015,-0.89440435,0.9342835,-0.94193447,-1.8022945,-0.6776415,1.8681507,1.6079986,-0.9404639,-0.755355,-1.4354138,-0.8818148,-1.2514964,-0.80420923,0.44433132,0.2948481,0.0619812,-0.7012596,1.1085088,-3.1222742,-0.1620877,-3.2111318,-0.123703,-0.57079697,0.86187816,0.9202132,-0.1444267,0.18525408,0.31309628,-0.32574183,-0.72144693,-1.2304878,1.0,0.0,0.0,0.0,0.0,0.0,0.0,-0.7119812,0.3012596,-0.5585088,-6.4442396,-0.24294853,-4.9389243,0.07004738,-1.9028902,-0.2872944,1.3972819
-26.75477,46.26122,6.9758897,18.659777,1.6081454,-0.17780739,-0.085033216,-0.48935527,-0.8100433,-0.5848884,-0.71969897,-0.5747661,0.6091816,0.50048167,0.88534796,-1.0229388,-1.8607833,-0.7496114,1.8106741,1.6689168,-0.8904157,0.9262059,-0.95632446,-1.8116786,-0.69022715,1.8600101,1.6124218,-0.93743026,-0.82460564,-1.4404773,-0.9574592,-1.2598231,-0.81826687,0.44114056,0.30656353,0.030784607,-0.70287704,1.0756851,-3.1191525,-0.16192564,-3.306107,-0.12726593,-0.57793427,0.84933597,0.92092663,-0.13396372,0.18726836,0.3144495,-0.3672203,-0.70159215,-1.2679769,1.0,0.0,0.0,0.0,0.0,0.0,0.0,-0.6807846,0.30287704,-0.52568513,-6.7112803,-0.5706072,-7.651365,-0.5035162,-1.6596675,-0.5186379,1.2573004
-41.363804,41.995155,4.8184657,23.68661,2.1214938,-0.06106007,-0.22692624,-0.5942816,-0.8053329,-0.66086674,-0.7279112,-0.5430787,0.588023,0.46948636,0.8667777,-1.0368577,-1.8777653,-0.76301825,1.8057023,1.671224,-0.89048165,0.9171288,-0.97074497,-1.8220603,-0.7029282,1.8518505,1.6167934,-0.93431556,-0.93438363,-1.4430146,-1.064824,-1.2720839,-0.81692755,0.43471074,0.31337565,-0.00038146973,-0.7044945,1.0419124,-3.116034,-0.16176374,-3.4009874,-0.13143158,-0.5848503,0.83637285,0.9217015,-0.12296985,0.18938373,0.31540215,-0.43465662,-0.6795753,-1.3117071,1.0,0.0,0.0,0.0,0.0,0.0,0.0,-0.6496185,0.30449447,-0.49191242,-10.688818,-0.38964748,-10.616112,-0.77028275,-0.40436983,-0.9640634,0.77775717
-49.791916,38.3265,3.2576756,25.893305,2.4946785,0.023387551,-0.28710636,-0.6692568,-0.8107346,-0.7236817,-0.7510331,-0.48605987,0.5403572,0.4188727,0.8502031,-1.0518184,-1.8944285,-0.77803147,1.8032445,1.670829,-0.8924283,0.90678525,-0.9852084,-1.8336246,-0.7158371,1.8438969,1.621062,-0.9311818,-1.0665607,-1.4480593,-1.1858339,-1.295338,-0.7906804,0.42270198,0.31381446,-0.03151703,-0.7061119,1.0071917,-3.1129186,-0.16160202,-3.4957728,-0.13639069,-0.5915489,0.82292354,0.922594,-0.11132969,0.19150387,0.31583565,-0.5195234,-0.65627795,-1.3620707,1.0,0.0,0.0,0.0,0.0,0.0,0.0,-0.61848295,0.3061119,-0.45719165,-12.882614,-0.7000685,-11.830401,-1.7673731,1.883924,-1.6449511,0.17439723
-50.99305,44.448563,5.277513,27.40062,3.0022793,0.27181154,-0.32043612,-0.71617377,-0.8033566,-0.7425507,-0.73681664,-0.3793114,0.5549002,0.38524267,0.8351679,-1.065544,-1.9078797,-0.7895188,1.8059658,1.676552,-0.8926575,0.89516187,-0.99967945,-1.8462245,-0.72888243,1.8365307,1.6252277,-0.9280747,-1.1933317,-1.4474845,-1.2838546,-1.3058552,-0.72080404,0.41308248,0.31036377,-0.06262207,-0.70772934,0.9715237,-3.1098063,-0.16144045,-3.5904634,-0.14226532,-0.59793854,0.80905515,0.92361814,-0.09917759,0.19338185,0.3157481,-0.6137182,-0.6218001,-1.4015486,1.0,0.0,0.0,0.0,0.0,0.0,0.0,-0.5873779,0.30772933,-0.4215237,-12.367272,-0.14367104,-9.545898,-0.5123615,6.285393,-1.3869166,-0.15769601
-47.284443,48.746445,7.2686377,26.764488,3.5151854,0.36227196,-0.34672186,-0.7543752,-0.8093116,-0.7725431,-0.73537207,-0.16313127,0.49506837,0.22696328,0.8197243,-1.0806106,-1.9234788,-0.80241966,1.8202176,1.6747345,-0.9053784,0.88242173,-1.014162,-1.859637,-0.7419745,1.8304749,1.6292636,-0.9251174,-1.3000833,-1.4490374,-1.3597277,-1.3085761,-0.56914806,0.39904746,0.29177848,-0.093696594,-0.70933914,0.93490154,-3.106697,-0.16127904,-3.6861248,-0.14914322,-0.6039543,0.7948604,0.9248081,-0.086744055,0.19456679,0.31519714,-0.7139035,-0.58279556,-1.4318775,1.0,0.0,0.0,0.0,0.0,0.0,0.0,-0.5563034,0.30933914,-0.38490152,-10.408521,-0.34689903,-7.3817015,0.22883415,14.571154,-1.8178821,-1.5797317
-42.91191,54.233788,10.28575,26.671488,4.5162134,0.48030764,-0.4029925,-0.78683597,-0.8134851,-0.7744362,-0.7212809,0.26510462,0.41508797,0.0543909,0.8037381,-1.0955105,-1.9370806,-0.81410253,1.8569853,1.6707724,-0.9196783,0.8687947,-1.028675,-1.8735511,-0.75499403,1.8271065,1.6331127,-0.92246425,-1.3829123,-1.4526985,-1.4013764,-1.2984252,-0.260899,0.37894148,0.25795308,-0.1247406,-0.71094894,0.8973235,-3.103591,-0.16111779,-3.7816906,-0.15711212,-0.60953903,0.7804979,0.9262554,-0.0744125,0.19428393,0.31427288,-0.8294098,-0.537584,-1.4441541,1.0,0.0,0.0,0.0,0.0,0.0,0.0,-0.5252594,0.31094894,-0.34732348,-8.074689,-0.53420067,-4.04377,1.4447927,30.407883,-2.3783505,-2.9446602
-37.903076,61.370598,13.073197,26.437536,4.850487,0.5736002,-0.5260024,-0.8097767,-0.8054586,-0.79486257,-0.6882356,0.49684042,0.33309865,-0.20862629,0.787817,-1.1092209,-1.9530374,-0.8238176,1.8767905,1.6664225,-0.9433269,0.854522,-1.0431842,-1.8877647,-0.76775134,1.8272476,1.6367137,-0.920329,-1.441602,-1.450606,-1.4278696,-1.2669717,0.10505352,0.3529653,0.20033471,-0.15575409,-0.71255875,0.8587905,-3.100488,-0.16095671,-3.877161,-0.16624069,-0.6146507,0.76612663,0.92805165,-0.062483367,0.19208612,0.31291983,-0.9437229,-0.48753354,-1.4408643,1.0,0.0,0.0,0.0,0.0,0.0,0.0,-0.4942459,0.31255874,-0.3087905,-5.7216883,0.074863434,-2.5795937,3.4755945,36.355026,-2.9156506,-5.289131
-27.931425,67.56825,15.019905,23.079304,3.852365,0.6628097,-0.4416176,-0.81449133,-0.7983665,-0.80987483,-0.6609947,0.3828546,0.35055646,-0.08413354,0.77307284,-1.1230208,-1.9687521,-0.8338508,1.8655331,1.6717694,-0.92874235,0.83986974,-1.0576266,-1.9021862,-0.7800909,1.8301525,1.6400936,-0.9186505,-1.4727887,-1.4424576,-1.4470751,-1.2221714,0.3520044,0.33214328,0.15808514,-0.18673706,-0.71416855,0.8193036,-3.0973883,-0.1607958,-3.9725356,-0.1762619,-0.6192398,0.75180423,0.93012506,-0.050978526,0.18833578,0.31112385,-1.02365,-0.435815,-1.4354073,0.0,1.0,0.0,0.0,0.0,0.0,0.0,-0.46326292,0.31416854,-0.26930356,-3.0306578,0.73587894,-1.9389391,4.695153,24.647427,-2.322346,-3.8944335
-9.558517,71.00609,16.074389,14.909993,1.4434986,0.6577228,-0.179331,-0.78959227,-0.7977141,-0.81595206,-0.65064734,-0.08718325,0.4079932,0.09714722,0.7609105,-1.137398,-1.9837813,-0.84515566,1.8214341,1.680893,-0.9089358,0.8250693,-1.0719208,-1.9175715,-0.79247916,1.8351363,1.6415901,-0.9176618,-1.482002,-1.425023,-1.5694726,-1.2442616,0.5403082,0.078282826,0.090726025,-0.20541382,-0.71092606,0.80773306,-1.5221496,0.5519057,-0.1783663,-0.18675232,-0.6237564,0.7373133,0.93251115,-0.038683612,0.18326025,0.3087754,-1.0597612,-0.44270122,-1.4606745,0.0,1.0,0.0,0.0,0.0,0.0,0.0,-0.44458616,0.31092605,-0.25773305,0.8940458,0.87127686,-1.169467,4.500842,-4.304409,-2.0298572,-1.3315246
-23.962784,176.0,91.61408,77.94948,9.386777,5.9727755,-1.7360039,-0.78836465,-0.3673459,0.50893056,0.20662941,0.026147125,0.6326138,-0.3969817,0.74623287,-1.1086553,-1.8666785,-0.7718162,1.837751,1.7048515,-0.95735997,0.8100308,-1.0886825,-1.9161315,-0.7984005,1.8292844,1.6394215,-0.9174148,-1.5050914,-1.6762156,0.5060645,-0.41707188,-0.7531495,-0.24821945,0.0072701736,-0.22062302,-0.70541,0.8052063,-1.5206277,0.5513539,-0.27743915,-0.1977272,-0.6262779,0.726365,0.93497694,-0.03081435,0.17801636,0.30525178,-1.1113939,-0.17248788,-0.9798203,1.0,0.0,0.0,0.0,0.0,0.0,0.0,-0.42937696,0.30541,-0.2552063,-0.4930973,-0.00011920929,144.88,70.00353,-67.1927,-12.57807,-6.976737
-55.497417,174.54512,51.153088,73.75881,8.236886,3.2418401,-2.2807088,-0.7398734,-0.7177729,-0.17651239,0.46950087,-0.072934575,0.68921185,-0.52872825,0.73604345,-1.1604599,-1.9337827,-0.7514504,1.821991,1.7083427,-0.9702876,0.7954186,-1.1050438,-1.907886,-0.79709876,1.8205144,1.6373482,-0.9178153,-1.4452571,-1.6221788,0.9288213,0.3140296,-0.9167015,-0.1906663,-0.05424217,-0.23581696,-0.6999016,0.8016895,-1.5191075,0.55080265,-0.37641293,-0.20991898,-0.6269493,0.7186641,0.9379105,-0.027084572,0.1731662,0.29933876,-1.2542298,-0.020354247,-0.70221865,1.0,0.0,0.0,0.0,0.0,0.0,0.0,-0.41418302,0.29990157,-0.2516895,6.402254,5.635023,41.744614,73.51274,-15.840303,6.6765995,-5.6673183
-56.99916,159.58827,34.66891,64.49684,4.687233,1.5433068,-2.2031882,-0.7095768,-0.5627948,-0.38372442,0.64326555,-0.54950994,0.6659251,-0.44051915,0.72446096,-1.1613233,-1.9462584,-0.73277223,1.7655635,1.7039406,-0.9618672,0.78160465,-1.1195015,-1.9007735,-0.7893492,1.8109243,1.6361923,-0.9186946,-1.3589528,-1.3871337,0.63907117,0.9311179,-0.9733312,-0.089160964,-0.09830359,-0.25099564,-0.694397,0.79718375,-1.5175886,0.55025196,-0.47528777,-0.22315598,-0.6265259,0.7129558,0.9413115,-0.024940552,0.17022187,0.29040506,-1.3467481,0.07244728,-0.5291456,1.0,0.0,0.0,0.0,0.0,0.0,0.0,-0.39900434,0.29439697,-0.24718374,8.970666,23.512077,-28.91134,62.488293,-5.7377577,10.5777445,-4.1286764
-49.781105,111.66848,17.575401,45.845604,2.4012449,0.42716065,-1.5904828,-0.7252957,-0.5895534,-0.3412845,0.7114044,-0.5976473,0.70903933,-0.36700094,0.7090751,-1.1784568,-1.934902,-0.7182088,1.7511595,1.7070962,-0.9553947,0.768463,-1.1318496,-1.898149,-0.7770115,1.8012407,1.6360531,-0.9198991,-1.2985892,-1.1845871,0.13712712,1.3368647,-0.9667241,0.010975078,-0.12763007,-0.26615906,-0.6888962,0.79169,-1.5160713,0.5497018,-0.5740637,-0.2370758,-0.62553024,0.7081152,0.9449818,-0.022657724,0.16957638,0.2788187,-1.4087666,0.11831625,-0.47223234,1.0,0.0,0.0,0.0,0.0,0.0,0.0,-0.38384092,0.28889617,-0.24168998,6.25844,20.087147,-50.186813,41.24708,0.6536007,10.012155,-2.8518558
-25.91343,107.792885,18.530602,28.970942,0.9068096,0.50595033,-0.7706186,-0.71692294,-0.49527463,-0.2807838,0.72093195,-0.5781734,0.71913344,-0.20764922,0.6967707,-1.181377,-1.9262275,-0.7049183,1.7434233,1.7079664,-0.94066405,0.7557448,-1.1422371,-1.8999457,-0.7622839,1.7918375,1.6368141,-0.9212371,-1.262801,-0.9911015,-0.2842549,1.5190054,-0.93253386,0.097425215,-0.13630925,-0.28130722,-0.683403,0.7852092,-1.5145556,0.54915226,-0.672741,-0.25118256,-0.6240921,0.70367104,0.94861895,-0.019730479,0.17086287,0.26559123,-1.4108597,0.16231595,-0.43871564,1.0,0.0,0.0,0.0,0.0,0.0,0.0,-0.36869276,0.283403,-0.23520917,3.6150694,19.046234,-41.826923,18.501234,3.085184,8.46089,-1.0060787
-7.171357,106.89054,21.446936,17.531494,0.39604613,0.78156185,-0.17402783,-0.70891,-0.4310998,-0.2791875,0.73388296,-0.52687436,0.72944766,-0.14838658,0.6848538,-1.1853471,-1.9278644,-0.68889564,1.73915,1.7097589,-0.93607575,0.74323833,-1.1509441,-1.9047503,-0.7468945,1.7829301,1.6383362,-0.9225875,-1.2471107,-0.8317346,-0.54341584,1.5454366,-0.87928605,0.16953708,-0.13544175,-0.29644012,-0.6779175,0.7777424,-1.5130413,0.5486032,-0.77131957,-0.26504898,-0.6221924,0.69953614,0.9519932,-0.016321262,0.17346478,0.2516992,-1.3774819,0.20985149,-0.40792823,1.0,0.0,0.0,0.0,0.0,0.0,0.0,-0.35355985,0.27791747,-0.22774237,1.4487267,15.596283,-25.195724,2.610588,4.576206,6.914997,-0.1537919
-0.37532568,86.86692,18.017956,9.950609,0.3892306,0.69539154,0.19099495,-0.71373785,-0.44502342,-0.33487356,0.7302822,-0.46279335,0.705655,-0.047137074,0.67186457,-1.1954465,-1.9382377,-0.6738663,1.7366508,1.7089016,-0.9273012,0.7307528,-1.1586326,-1.911243,-0.7318903,1.7746885,1.6404667,-0.9238378,-1.2495476,-0.74896336,-0.68224126,1.4851329,-0.8084656,0.22659767,-0.12220462,-0.31155777,-0.67243576,0.7692876,-1.5115286,0.5480547,-0.87019324,-0.27859497,-0.61987305,0.6954924,0.95502645,-0.012609792,0.17666544,0.23781231,-1.3445576,0.24817994,-0.40528,1.0,0.0,0.0,0.0,0.0,0.0,0.0,-0.3384422,0.27243575,-0.21928757,-0.39253235,8.010948,-13.12598,-6.145692,6.309068,5.404538,1.119101
5.2413926,70.903656,15.295309,5.24416,0.43259043,0.54659826,0.39407492,-0.69715077,-0.45366696,-0.36045885,0.7332967,-0.44621092,0.69511884,0.1025503,0.66103774,-1.2039993,-1.9472889,-0.65856063,1.7300674,1.7099786,-0.91358274,0.7182654,-1.165974,-1.9184566,-0.7176472,1.767103,1.6430817,-0.92483914,-1.2489537,-0.7297084,-0.7320602,1.4036161,-0.74441254,0.27224815,-0.093206726,-0.32666016,-0.66695786,0.7598448,-1.5100174,0.54750675,-0.9689681,-0.2918396,-0.61726,0.6913223,0.957717,-0.0087366905,0.1799327,0.22433472,-1.3151066,0.2767549,-0.42204884,1.0,0.0,0.0,0.0,0.0,0.0,0.0,-0.32333982,0.26695785,-0.20984477,-0.08187294,1.729703,-4.2550445,-8.260202,5.680275,4.29399,2.7599082
12.890912,60.388424,13.902422,1.7529787,0.39702287,0.35902935,0.4759091,-0.65858376,-0.47541836,-0.3461306,0.7467315,-0.46111512,0.68581325,0.19569607,0.65240705,-1.2135159,-1.9530696,-0.642974,1.7209915,1.711663,-0.9052695,0.7059592,-1.173489,-1.9256606,-0.7040535,1.7599752,1.6460838,-0.92548764,-1.2248957,-0.75922465,-0.71403706,1.3442538,-0.70450234,0.30876106,-0.055755116,-0.34174728,-0.6614876,0.7494149,-1.5085076,0.54695934,-1.0676444,-0.30478287,-0.6144333,0.68690616,0.9600929,-0.0048531494,0.1829655,0.21147496,-1.2850114,0.29457068,-0.4489675,0.0,1.0,0.0,0.0,0.0,0.0,0.0,-0.3082527,0.26148757,-0.19941491,2.2739172,-3.1000257,2.509153,-6.017804,3.3127189,3.4115672,3.6648064
-4.1742134,31.912338,4.6078014,3.96411,0.54002666,-0.068267524,0.34549353,-0.70372695,-0.54602665,-0.46743822,0.73750037,-0.47302005,0.64110273,0.24704596,0.6355865,-1.2280916,-1.9724045,-0.6303035,1.7126732,1.7101941,-0.90078306,0.6936902,-1.1817173,-1.9330859,-0.69088614,1.7530935,1.6493702,-0.9257461,-1.2275299,-0.84435713,-0.751154,1.3079875,-0.68347716,0.3344368,-0.015808513,-0.35681915,-0.6560211,0.7379991,-1.5069995,0.5464125,-1.166222,-0.31770706,-0.6115074,0.6818785,0.9622331,-0.00067110965,0.18566962,0.19908202,-1.2918013,0.30073315,-0.5216736,0.0,1.0,0.0,0.0,0.0,0.0,0.0,-0.29318082,0.2560211,-0.18799907,-0.24974346,-8.595395,-3.4601688,-3.4857035,1.8508077,2.3696065,4.0052447
-10.423359,16.168192,-0.42358774,3.8282144,0.33635253,-0.3361857,0.3057654,-0.7019152,-0.60407436,-0.5284942,0.7285794,-0.5090539,0.6147583,0.32074645,0.6234987,-1.2421247,-1.9859353,-0.6180282,1.7021881,1.7108461,-0.89367145,0.6813534,-1.1910198,-1.9412661,-0.67799306,1.74629,1.652734,-0.9255013,-1.2365354,-0.9583182,-0.857084,1.2766508,-0.6435577,0.32057935,0.038021084,-0.37190247,-0.64972687,0.7287977,-1.3091232,0.70410943,-0.28745288,-0.33080673,-0.6086159,0.67589545,0.9641762,0.00424792,0.18804201,0.1870465,-1.316649,0.29147565,-0.6276086,0.0,1.0,0.0,0.0,0.0,0.0,0.0,-0.2780975,0.24972686,-0.17879766,-1.0031223,-11.340607,-13.373733,-4.215622,8.353853,-4.7329006,6.5435777
-27.561064,49.74236,6.12941,15.914475,1.0693157,0.26780844,0.012032062,-0.7575942,-0.512307,-0.5666238,0.7654838,-0.60900444,0.59211016,0.31199545,0.605594,-1.2422504,-1.9979284,-0.60144466,1.6853895,1.711945,-0.8943018,0.66866,-1.2008522,-1.9505243,-0.66508317,1.739454,1.6560261,-0.92485374,-1.2799815,-0.9923373,-0.9473823,1.2966464,-0.6985425,0.33095586,0.07359609,-0.38498306,-0.64269257,0.7251779,-1.3078144,0.70340544,-0.38681042,-0.34418106,-0.60554504,0.6692717,0.9659303,0.009984936,0.19041769,0.1749855,-1.3405194,0.3222071,-0.67531145,0.0,1.0,0.0,0.0,0.0,0.0,0.0,-0.2650169,0.24269256,-0.17517787,-4.281211,-3.584218,-8.639789,2.251792,-5.9387565,0.73518157,3.5313048
-30.797548,52.260082,6.276459,17.423489,1.1878552,0.35066855,-0.014546201,-0.7676618,-0.56520283,-0.62013704,0.7652235,-0.6068349,0.591194,0.39300528,0.5918938,-1.2573724,-2.012538,-0.5885608,1.6787705,1.7151455,-0.88555324,0.6555031,-1.2109935,-1.9607344,-0.6519015,1.7320554,1.6594117,-0.92384285,-1.327347,-1.0220265,-1.0441096,1.3261878,-0.75543875,0.33977976,0.11008851,-0.3980484,-0.6356621,0.7205653,-1.3065068,0.70270216,-0.48606864,-0.35781097,-0.6021385,0.6621931,0.96744096,0.016459882,0.19314116,0.1627374,-1.3667684,0.35800973,-0.7199441,0.0,1.0,0.0,0.0,0.0,0.0,0.0,-0.25195158,0.23566207,-0.1705653,-4.673004,-3.1718016,-9.223986,3.2176733,-6.1914086,0.54088235,3.6096468
-28.423656,53.475426,6.5049114,16.129025,1.0273354,0.40969718,0.062269766,-0.7846158,-0.59285057,-0.67629,0.7479378,-0.6217032,0.5621836,0.48123917,0.5770415,-1.2702786,-2.0283635,-0.5771077,1.6698852,1.71563,-0.87571895,0.6418856,-1.2214229,-1.9718885,-0.6385119,1.7240446,1.6628697,-0.92244476,-1.3730531,-1.0504946,-1.1374881,1.3440076,-0.8180699,0.34657714,0.14947197,-0.4111061,-0.6286392,0.71496093,-1.3052006,0.7019996,-0.58522755,-0.3716545,-0.5983696,0.6546606,0.96867263,0.02371487,0.1962158,0.1503672,-1.3855125,0.39436835,-0.76546025,0.0,1.0,0.0,0.0,0.0,0.0,0.0,-0.23889387,0.22863922,-0.16496092,-4.5295477,-3.0540228,-8.819127,2.0130873,-6.837225,0.3237605,3.8694322
-17.289711,54.931446,7.86076,12.008803,0.81025684,0.4638921,0.18906078,-0.7754699,-0.62016326,-0.67927575,0.746199,-0.6293032,0.6039239,0.5223886,0.56433856,-1.2834393,-2.0398161,-0.563892,1.6611142,1.7232621,-0.8702059,0.6279734,-1.2321823,-1.9837351,-0.6250279,1.7154996,1.6664174,-0.9206614,-1.3974,-1.085081,-1.1982589,1.3503243,-0.8689005,0.35617536,0.1876847,-0.42414856,-0.621624,0.7083657,-1.3038956,0.70129776,-0.6842873,-0.3855667,-0.5942764,0.6466899,0.9696036,0.031638898,0.19951467,0.13806395,-1.3886193,0.4266548,-0.80877805,0.0,1.0,0.0,0.0,0.0,0.0,0.0,-0.22585142,0.22162399,-0.15836567,-2.4514914,-3.651929,-5.4433107,0.7729292,-5.751312,0.5958736,3.7335606
-10.711812,58.44723,9.221478,10.018448,0.76736873,0.53583276,0.25012136,-0.78299195,-0.62912613,-0.6999078,0.744291,-0.632584,0.58931494,0.5373917,0.54967415,-1.2950948,-2.053726,-0.5505988,1.6522412,1.7253488,-0.8669222,0.6139,-1.2432525,-1.9960337,-0.61154866,1.7065599,1.6700413,-0.9185261,-1.4108073,-1.1151518,-1.2377023,1.3473737,-0.90499353,0.36316124,0.22179572,-0.43717575,-0.6146164,0.700789,-1.302592,0.70059663,-0.7821248,-0.3994522,-0.589859,0.63833916,0.97023284,0.040102024,0.20290907,0.12596753,-1.381661,0.45773202,-0.8450544,0.0,1.0,0.0,0.0,0.0,0.0,0.0,-0.21282423,0.21461639,-0.15078896,-1.405549,-3.1966448,-3.1935215,-0.23331642,-4.3887496,0.31977892,3.3080072
2.3942041,66.43213,12.29714,6.7603693,0.7523597,0.6424129,0.34136212,-0.7592961,-0.63571197,-0.66946876,0.7374607,-0.6052472,0.60724753,0.5563949,0.5379704,-1.3068237,-2.0629807,-0.5378026,1.6460352,1.730766,-0.8628866,0.5998772,-1.2545669,-2.0083883,-0.5981629,1.6974428,1.6737378,-0.9160771,-1.3999571,-1.1377267,-1.2317202,1.3353968,-0.9171554,0.37056825,0.2522191,-0.4501915,-0.6076164,0.69223464,-1.3012897,0.6998962,-0.8798645,-0.41312408,-0.58517075,0.6297423,0.9705809,0.048852704,0.20623451,0.114251114,-1.3569564,0.48500982,-0.8658928,0.0,1.0,0.0,0.0,0.0,0.0,0.0,-0.19980848,0.20761642,-0.14223462,0.9335518,-2.440691,1.565361,-1.2810707,-2.1924734,0.34921765,2.9233575
6.4560347,73.19354,13.957827,6.5447855,0.8575109,0.6987868,0.35210356,-0.76011163,-0.6325142,-0.6709809,0.72721285,-0.6021099,0.556408,0.5643254,0.523866,-1.3178183,-2.0754864,-0.5254416,1.6372318,1.7293786,-0.85964453,0.5859993,-1.2660129,-2.0205648,-0.5849469,1.6882894,1.6774609,-0.91335624,-1.3843989,-1.1474831,-1.2093731,1.3164471,-0.91854644,0.37171468,0.2783493,-0.4631958,-0.6006241,0.6827036,-1.2999886,0.6991965,-0.9775065,-0.42650223,-0.5802078,0.62102485,0.9706737,0.05773818,0.20940809,0.102990635,-1.3252469,0.51118207,-0.87481546,0.0,1.0,0.0,0.0,0.0,0.0,0.0,-0.18680418,0.20062408,-0.1327036,1.3620615,-1.1651516,3.350854,-2.0518064,-1.2693763,-0.28808117,2.48276
7.699216,81.95365,15.522288,7.8632183,1.0232698,0.7415165,0.32849488,-0.75440675,-0.6185259,-0.67642975,0.72364396,-0.5992791,0.5237809,0.5907773,0.5105586,-1.3278655,-2.0882077,-0.5125825,1.6283615,1.729839,-0.8542785,0.57228833,-1.2774284,-2.0325239,-0.57191586,1.6791589,1.681165,-0.91038746,-1.3673699,-1.1401222,-1.1869549,1.2979777,-0.9154131,0.36840296,0.30246636,-0.47618484,-0.59363556,0.67218375,-1.2986889,0.6984974,-1.0768083,-0.43953705,-0.5749855,0.6123079,0.9705255,0.06669879,0.21244778,0.09218156,-1.2895085,0.5372491,-0.8715356,0.0,1.0,0.0,0.0,0.0,0.0,0.0,-0.17381513,0.19363555,-0.12218374,1.4765978,0.52952766,3.5096884,-2.0599127,-0.9738922,-0.7521093,2.2596478
10.958065,80.16829,15.159201,6.545476,1.0163791,0.6699295,0.35051262,-0.73875403,-0.6337816,-0.6563966,0.70377433,-0.56921345,0.47873354,0.5953088,0.49841294,-1.3408066,-2.0981636,-0.50153846,1.6222376,1.7290384,-0.8508566,0.55878335,-1.2888057,-2.0442083,-0.5591185,1.6701581,1.6847985,-0.90720314,-1.3456602,-1.1375171,-1.1583658,1.2729249,-0.89917773,0.36028486,0.32334268,-0.48916245,-0.58665466,0.6606716,-1.2973905,0.697799,-1.176011,-0.45220184,-0.56954193,0.60361075,0.9701683,0.075690284,0.21528016,0.08184651,-1.2523086,0.5581794,-0.87007636,0.0,1.0,0.0,0.0,0.0,0.0,0.0,-0.16083753,0.18665466,-0.11067158,1.9417763,0.071144104,4.115486,-2.7288914,0.34270287,-1.2255132,1.951158
8.213074,79.37923,14.390642,7.378046,1.1275221,0.61080915,0.33229768,-0.7434557,-0.6295016,-0.6582991,0.68131655,-0.5463029,0.38953736,0.60631025,0.48443776,-1.3517559,-2.1100383,-0.49098685,1.6155279,1.7237523,-0.8465721,0.54543,-1.3001449,-2.055679,-0.5466273,1.6613843,1.688287,-0.90382713,-1.3325722,-1.1332434,-1.1389065,1.2405267,-0.8742661,0.3435156,0.34194025,-0.5021286,-0.5796814,0.64816815,-1.2960933,0.69710135,-1.2751144,-0.46453094,-0.5638809,0.59491605,0.9696305,0.084742956,0.21784543,0.07196336,-1.219729,0.5786821,-0.8700936,0.0,1.0,0.0,0.0,0.0,0.0,0.0,-0.14787138,0.17968139,-0.098168135,1.0954618,0.24402142,3.1698465,-3.4421444,1.2264132,-2.0905316,1.7372489
9.838947,77.28645,13.52074,6.352188,0.958733,0.48505327,0.3627821,-0.7306208,-0.626957,-0.6694927,0.65206677,-0.5377727,0.25878912,0.62332,0.4723679,-1.3628407,-2.1226285,-0.4814206,1.6076071,1.7141659,-0.84149516,0.53221124,-1.3114364,-2.0671813,-0.53457224,1.652982,1.6914345,-0.9002378,-1.3192036,-1.1285644,-1.1528249,1.1923461,-0.82851255,0.30204666,0.36475658,-0.5142822,-0.5723953,0.6379188,-1.1603824,0.7384975,-0.85907996,-0.4765396,-0.5580826,0.5861625,0.9689285,0.09400611,0.22006269,0.062551595,-1.1882554,0.59011436,-0.8784911,0.0,1.0,0.0,0.0,0.0,0.0,0.0,-0.13571775,0.17239532,-0.08791876,1.1770964,0.29673576,1.0473967,-4.535413,2.1648288,-3.3351123,1.4805973
6.196598,89.899536,15.758101,10.601113,1.598249,0.563365,0.25357118,-0.73270243,-0.58885336,-0.6251293,0.6553499,-0.49054632,0.064149715,0.6420984,0.45894098,-1.3703218,-2.1296942,-0.46903723,1.6039274,1.6978495,-0.836028,0.51907724,-1.3225162,-2.0785873,-0.5228773,1.64505,1.6941018,-0.89646155,-1.3123031,-1.1016617,-1.1318665,1.1610152,-0.7861493,0.25348797,0.381486,-0.5255394,-0.56508255,0.6293809,-1.1141777,0.7289859,-0.85174686,-0.48825455,-0.55210114,0.5775226,0.96809506,0.10338929,0.22190031,0.05350399,-1.1600056,0.61085236,-0.85984015,0.0,1.0,0.0,0.0,0.0,0.0,0.0,-0.12446058,0.16508254,-0.07938087,0.4515171,2.4980545,3.4773827,-3.388238,2.796483,-5.2948895,1.5438199
6.0995884,96.16117,16.902817,12.115683,1.9983613,0.49309474,0.21813911,-0.730982,-0.5679336,-0.59677297,0.62174845,-0.40811017,-0.26628008,0.6582174,0.44597903,-1.3793095,-2.1382647,-0.46070242,1.604239,1.6674738,-0.83063984,0.5059842,-1.3332412,-2.0896385,-0.5115408,1.6377051,1.696072,-0.8925269,-1.309226,-1.0633733,-1.0911794,1.1235521,-0.72231644,0.17655888,0.39703003,-0.536335,-0.5578804,0.6209615,-1.0674891,0.71708846,-0.8378613,-0.49972534,-0.54590607,0.5691716,0.96717954,0.11277754,0.22325571,0.044740368,-1.1353941,0.63148314,-0.8273825,0.0,1.0,0.0,0.0,0.0,0.0,0.0,-0.113664985,0.1578804,-0.070961475,0.05133152,3.635645,5.5633545,-4.0359735,4.818523,-8.147883,1.4441729
15.2574005,98.49615,18.543558,9.555221,2.3638477,0.5407921,0.270407,-0.71139205,-0.55924714,-0.4988612,0.5585934,-0.23006636,-0.37930372,0.64310354,0.43484497,-1.3891659,-2.1395247,-0.45568144,1.6146984,1.6581416,-0.82821655,0.49298945,-1.3435962,-2.0998464,-0.50078326,1.6314335,1.6972374,-0.8884669,-1.2971493,-1.0267991,-0.9921459,1.0586157,-0.60078984,0.09513607,0.40881345,-0.5466461,-0.5508232,0.6127185,-1.0186403,0.70173115,-0.8190092,-0.51091385,-0.53951645,0.56123185,0.96630746,0.12183193,0.22379938,0.03634219,-1.1065227,0.6492575,-0.7833539,0.0,1.0,0.0,0.0,0.0,0.0,0.0,-0.10335386,0.1508232,-0.06271851,0.92430115,3.4921408,11.471772,-6.8418026,10.521889,-8.593188,1.1092424
25.842808,87.39372,18.267384,3.7007136,2.716007,0.52335906,0.3878392,-0.697172,-0.5902433,-0.35746711,0.46557948,0.069455035,-0.43042865,0.62295794,0.42327225,-1.4026206,-2.1355932,-0.4542253,1.638379,1.6541945,-0.8261711,0.48017302,-1.3538215,-2.1085017,-0.4910147,1.6271548,1.6976286,-0.8843164,-1.2773178,-1.0214354,-0.8185155,0.94855905,-0.3749742,0.019061014,0.41721368,-0.55652237,-0.5439186,0.60455555,-0.9767213,0.6863384,-0.8141296,-0.5218239,-0.5329819,0.5536872,0.9657117,0.12998474,0.22291653,0.028514123,-1.0797234,0.66427493,-0.7451638,0.0,1.0,0.0,0.0,0.0,0.0,0.0,-0.09347761,0.1439186,-0.054555535,1.7279863,0.4292965,18.747604,-11.323762,21.154457,-8.023541,0.86580515
31.408718,97.42378,21.682182,4.09334,3.5543866,0.8634623,0.36311296,-0.69551516,-0.5601297,-0.115491256,0.39975417,0.21234709,-0.42044318,0.63679785,0.4106215,-1.4098345,-2.120051,-0.45103928,1.6483896,1.6555843,-0.82063663,0.46753687,-1.3639494,-2.1145055,-0.4825036,1.625339,1.6973503,-0.8800819,-1.2598637,-1.01015,-0.52291983,0.8175561,-0.12188429,-0.044619467,0.42576444,-0.5659294,-0.53718185,0.5965881,-0.92818964,0.66880125,-0.78948313,-0.5324364,-0.5262184,0.54674184,0.96560895,0.13654006,0.22022597,0.021371355,-1.0489154,0.68784946,-0.67801785,0.0,1.0,0.0,0.0,0.0,0.0,0.0,-0.08407056,0.13718185,-0.046588063,1.4951229,1.0282516,31.038511,-13.411129,23.82486,-6.724411,0.9188473
36.605003,103.38289,23.383667,2.982792,3.702826,1.0717765,0.4139621,-0.69910824,-0.5337879,0.08847105,0.27387357,0.30214366,-0.47889277,0.6224461,0.39762604,-1.4173282,-2.1056585,-0.45511624,1.6555533,1.649461,-0.8178373,0.4550137,-1.3738734,-2.1170192,-0.4756305,1.6259202,1.6964785,-0.87578243,-1.2504337,-0.98688316,-0.1561399,0.64306533,0.11372174,-0.10224451,0.43156287,-0.5748024,-0.53067017,0.5889746,-0.8727502,0.6464123,-0.7513504,-0.5426636,-0.5192299,0.5405656,0.9661115,0.14107871,0.2156372,0.015027586,-1.0081279,0.7099426,-0.5981057,0.0,1.0,0.0,0.0,0.0,0.0,0.0,-0.07519758,0.13067016,-0.038974583,0.7404089,2.233708,38.019196,-17.697107,22.234634,-5.9833674,0.63863397
44.216747,126.354164,28.619171,5.820795,4.4711595,1.4007919,0.31240928,-0.66742355,-0.47284386,0.38666198,0.22177383,0.45335257,-0.49466154,0.6411903,0.38827133,-1.4211577,-2.078353,-0.45345312,1.6712555,1.6470124,-0.8116634,0.44268936,-1.3833071,-2.1151805,-0.47041366,1.6288195,1.6950898,-0.87141925,-1.2269382,-0.9291988,0.3015696,0.48070973,0.34472075,-0.15135714,0.43808877,-0.58299637,-0.5244446,0.582067,-0.8014475,0.6149454,-0.67048615,-0.5524063,-0.5119934,0.53553116,0.9673006,0.14309116,0.20919912,0.009489654,-0.9576949,0.73467255,-0.4727511,0.0,1.0,0.0,0.0,0.0,0.0,0.0,-0.06700361,0.124444574,-0.032067,2.2105932,5.65176,47.007545,-16.384924,21.910902,-5.081558,0.75226426
46.640003,112.08295,24.309948,0.49193597,3.0809453,1.1192484,0.51851505,-0.6701268,-0.45640483,0.38319632,0.033500407,0.5638517,-0.51785356,0.63800275,0.3756767,-1.4289476,-2.076861,-0.4670636,1.6852046,1.6433045,-0.807619,0.43056288,-1.39214,-2.1097224,-0.46726194,1.6338845,1.6932669,-0.8670036,-1.208038,-0.86830324,0.6292851,0.26012152,0.5583025,-0.19208857,0.44297266,-0.59049225,-0.51856995,0.57583225,-0.73372096,0.57892853,-0.6097876,-0.5615692,-0.5046654,0.5314444,0.9690695,0.14288938,0.20115404,0.00489448,-0.89822304,0.7382133,-0.38870904,0.0,1.0,0.0,0.0,0.0,0.0,0.0,-0.059507728,0.11856994,-0.025832236,1.8518686,5.9801936,33.390785,-22.02639,20.80521,-3.9645286,0.55209994
51.195415,143.17189,27.489738,3.4595325,2.283622,1.2952197,0.5809424,-0.65605015,-0.25967622,0.36754748,-0.13477828,0.6314597,-0.4763056,0.62172675,0.36495787,-1.4181076,-2.0729675,-0.48073977,1.6970305,1.6456363,-0.80483097,0.41864243,-1.3995692,-2.1022499,-0.4666632,1.6408594,1.691133,-0.86256015,-1.1865262,-0.7015508,0.7869619,-0.006167636,0.74401546,-0.2191478,0.4450352,-0.59713745,-0.5131874,0.57055706,-0.64292055,0.5255979,-0.502857,-0.5699005,-0.49744415,0.52840585,0.97115284,0.14107323,0.19224618,0.0013524947,-0.80871356,0.72290266,-0.2771019,0.0,1.0,0.0,0.0,0.0,0.0,0.0,-0.052862525,0.1131874,-0.020557046,2.1965742,16.576504,15.782749,-26.422947,18.684017,-2.2979112,0.26077032
53.48802,139.70168,25.655783,0.6422671,1.2338942,1.1813889,0.71701235,-0.6511787,-0.20602189,0.43151534,-0.30681017,0.67428744,-0.4015158,0.60131973,0.35352457,-1.4201714,-2.0590982,-0.49734423,1.7082881,1.6509814,-0.8024282,0.40691176,-1.4052359,-2.0938814,-0.4689851,1.6493988,1.6888398,-0.858117,-1.1681124,-0.52168405,0.8514649,-0.30643225,0.8931177,-0.2307731,0.44440585,-0.6028671,-0.5083809,0.5663333,-0.5514496,0.4672426,-0.39926034,-0.57725525,-0.4905014,0.5263411,0.97336096,0.13814382,0.18298537,-0.0010018199,-0.707902,0.6898149,-0.18422201,0.0,1.0,0.0,0.0,0.0,0.0,0.0,-0.04713285,0.108380884,-0.016333282,1.9642115,17.949593,5.81913,-29.709452,15.708351,-0.5765736,0.03452301
60.27524,109.49471,21.02778,-7.776685,0.24669614,0.85395086,0.87263256,-0.6213923,-0.24336317,0.5768634,-0.45237136,0.72764844,-0.3026768,0.57304436,0.34477252,-1.4295722,-2.036195,-0.51422226,1.7221637,1.6585721,-0.80081254,0.39545378,-1.4096438,-2.0847235,-0.47431862,1.6591923,1.6865444,-0.8537053,-1.1378475,-0.41377324,0.9340091,-0.60784006,1.0117323,-0.22706601,0.4405291,-0.6077843,-0.5041275,0.5628577,-0.4734473,0.41255996,-0.33374736,-0.5836067,-0.48400307,0.52483815,0.9756621,0.13428086,0.17334402,-0.0019998718,-0.60947114,0.64005065,-0.14004259,0.0,1.0,0.0,0.0,0.0,0.0,0.0,-0.042215705,0.1041275,-0.012857676,3.188157,10.802918,7.2638392,-29.814642,13.019896,0.99867284,-0.25339723
58.05619,72.26721,14.604067,-13.324984,-0.49853718,0.42174304,0.8838385,-0.5936083,-0.296113,0.62724626,-0.5340328,0.7520102,-0.1524704,0.5763722,0.33609295,-1.4392551,-2.021999,-0.5277219,1.7343934,1.6712974,-0.7960681,0.38437918,-1.4136816,-2.0747256,-0.4822805,1.6698898,1.6844172,-0.84933066,-1.0968177,-0.40040457,1.0187721,-0.85798275,1.0924344,-0.20616104,0.43703374,-0.61208344,-0.5003395,0.5596308,-0.41690847,0.36858425,-0.32224447,-0.5891113,-0.47804832,0.5233309,0.97804254,0.1296376,0.16316898,-0.0016348304,-0.5288093,0.5840759,-0.15493757,0.0,1.0,0.0,0.0,0.0,0.0,0.0,-0.03791654,0.1003395,-0.009630799,4.260826,1.355058,7.500386,-24.724281,9.153438,2.6210666,-0.18236637
63.93784,37.34615,9.138331,-19.8134,-1.2503473,-0.030710876,0.82458735,-0.50745434,-0.38565457,0.68040305,-0.5441644,0.7571914,0.089172244,0.5686217,0.33363375,-1.4522471,-2.0066853,-0.5366969,1.7456089,1.6933345,-0.7924685,0.37404516,-1.4183375,-2.063805,-0.4920019,1.6811079,1.6826811,-0.84499514,-1.0118419,-0.4873333,1.1143738,-1.0095012,1.1336262,-0.16154014,0.4329668,-0.6159477,-0.4969349,0.55615497,-0.37726706,0.33182672,-0.35852072,-0.5939102,-0.47273636,0.52127653,0.9804778,0.12429839,0.15235846,-9.8822275e-06,-0.46103,0.5157651,-0.22253937,0.0,1.0,0.0,0.0,0.0,0.0,0.0,-0.034052253,0.096934885,-0.0061549544,8.613205,-8.706051,8.942008,-14.944183,4.781866,4.8500657,-0.23536682
44.141045,62.879486,12.601077,-6.3662033,-0.11168571,0.26947597,0.386387,-0.4971699,-0.30136555,0.6867236,-0.5136523,0.7452379,0.2877548,0.56644785,0.32432818,-1.448474,-1.9951327,-0.54336715,1.7556317,1.7114565,-0.78835034,0.36451223,-1.4235598,-2.0521438,-0.502404,1.6925278,1.6815193,-0.8406939,-0.9331614,-0.53366786,1.1800398,-1.0494899,1.1486483,-0.09938315,0.42983717,-0.6194229,-0.49385834,0.5525492,-0.33763626,0.2965695,-0.36380062,-0.598156,-0.4678917,0.51886684,0.9828731,0.11828075,0.14129539,0.002410607,-0.41196316,0.47602654,-0.24707903,0.0,1.0,0.0,0.0,0.0,0.0,0.0,-0.030577064,0.09385833,-0.0025491714,8.055806,-4.5600057,5.5843115,-3.719473,2.5979757,6.679277,-0.10308027
57.487785,45.554775,10.123994,-12.380304,-0.92967355,-0.15216209,0.3629548,-0.36419964,-0.41585168,0.69798934,-0.48377463,0.7333802,0.3907365,0.5718817,0.32809228,-1.465145,-1.9823449,-0.5507814,1.7658658,1.720593,-0.78350574,0.35619333,-1.4296213,-2.0399902,-0.5126054,1.7039244,1.6810136,-0.83641756,-0.79769105,-0.63021487,1.2254761,-1.0095714,1.1388266,-0.032932002,0.42759183,-0.6225548,-0.49110985,0.5487317,-0.30519563,0.2666581,-0.3889137,-0.60190964,-0.4636116,0.5160009,0.9851681,0.11169594,0.13014676,0.0054347785,-0.3617877,0.41365653,-0.2993921,0.0,1.0,0.0,0.0,0.0,0.0,0.0,-0.027445197,0.09110984,0.0012683272,13.692272,-9.612095,3.992033,4.2217493,-0.33102036,7.0357895,-0.022256374
46.7529,62.05343,12.382076,-5.317115,-0.4179731,-0.048969343,0.16012202,-0.3336607,-0.38836592,0.68695724,-0.46100974,0.73595804,0.41912073,0.55949706,0.32282728,-1.4684579,-1.9712944,-0.5587064,1.7775202,1.7229257,-0.78046787,0.34916332,-1.4363695,-2.0276344,-0.5221196,1.7151964,1.6811349,-0.83216816,-0.6708429,-0.6893557,1.2364546,-0.9310662,1.1261072,0.028939374,0.42480764,-0.6253662,-0.48867607,0.5447937,-0.27413613,0.23182656,-0.39640647,-0.60523224,-0.45986557,0.5128041,0.9873082,0.10466442,0.11912051,0.008830877,-0.32058132,0.363841,-0.3261371,0.0,1.0,0.0,0.0,0.0,0.0,0.0,-0.024633765,0.088676065,0.005206287,12.865353,-5.832064,0.43549538,8.145655,-0.49154758,6.626819,-0.047141314
59.110313,65.50411,13.587203,-9.056789,-0.9454416,-0.20940323,0.22516993,-0.21719718,-0.41912135,0.69107366,-0.43967286,0.7383843,0.42683563,0.5563629,0.3274436,-1.4782816,-1.958527,-0.5660869,1.7890348,1.7238185,-0.7765319,0.34362915,-1.4436327,-2.0152783,-0.53079903,1.7263522,1.6818101,-0.8279462,-0.51364064,-0.73851204,1.2337788,-0.8457869,1.1145285,0.08203594,0.42208636,-0.62783813,-0.48659515,0.5408374,-0.23779075,0.19731495,-0.39600697,-0.6080475,-0.45674896,0.50937325,0.9892655,0.097271115,0.1083208,0.012590972,-0.2680569,0.2951906,-0.34857807,0.0,1.0,0.0,0.0,0.0,0.0,0.0,-0.022161841,0.08659515,0.009162605,15.906393,-4.8504353,-0.8035898,8.871508,-0.45900345,5.78698,-0.03812313
58.059795,74.57588,15.093175,-7.8491154,-0.97872,-0.20649622,0.22437572,-0.15298882,-0.41411257,0.67548406,-0.41968018,0.73480314,0.41352987,0.55660397,0.32833028,-1.485044,-1.94773,-0.572767,1.7998326,1.7231631,-0.7722858,0.3396304,-1.4511858,-2.0030751,-0.53870976,1.73741,1.682943,-0.8237485,-0.36127383,-0.7605123,1.2139248,-0.77157587,1.1055075,0.12544116,0.41982698,-0.6299591,-0.48487854,0.53695875,-0.20315833,0.15899998,-0.38557115,-0.6103134,-0.45433426,0.5058166,0.9910209,0.08960787,0.097816564,0.01672737,-0.21349354,0.22524406,-0.357977,0.0,1.0,0.0,0.0,0.0,0.0,0.0,-0.02004087,0.084878534,0.013041258,15.439379,-2.1363616,-2.5286436,7.822299,-0.17695427,4.81938,0.026416779
49.325302,86.920425,16.944468,-3.64304,-0.6856277,-0.09084955,0.16781268,-0.10589036,-0.3877989,0.65556294,-0.39477772,0.72989655,0.39318064,0.55101925,0.32904136,-1.4899657,-1.9375188,-0.5781875,1.8103997,1.7222611,-0.7686466,0.33698443,-1.4586989,-1.9911718,-0.5459796,1.7483908,1.6844332,-0.8195733,-0.23163877,-0.74789953,1.1803597,-0.7107245,1.0984042,0.15857002,0.41763726,-0.63174057,-0.48350906,0.53328794,-0.1706409,0.12789576,-0.36014432,-0.6120796,-0.45254517,0.50231105,0.99255925,0.081768,0.087703146,0.021172142,-0.16294678,0.16485251,-0.34829366,0.0,1.0,0.0,0.0,0.0,0.0,0.0,-0.018259406,0.08350906,0.01671207,13.185665,1.338768,-3.990984,6.5273166,0.09999275,3.8121998,0.046366453
54.86159,91.481674,18.308207,-4.839552,-0.84687227,-0.16200063,0.17277786,0.008057162,-0.39151156,0.658755,-0.32600906,0.72630036,0.40310588,0.5509649,0.33779013,-1.4978501,-1.9252963,-0.5785805,1.8210208,1.7247438,-0.7644768,0.3357661,-1.4660269,-1.9795461,-0.5525199,1.759313,1.6862152,-0.815419,-0.08450597,-0.72754693,1.1547207,-0.63364524,1.0927135,0.18647444,0.4155749,-0.63318634,-0.48248482,0.52992225,-0.13721852,0.09170426,-0.327544,-0.61330414,-0.4514103,0.49897304,0.9938824,0.07375308,0.0780193,0.025906697,-0.10905746,0.0975522,-0.32947156,0.0,1.0,0.0,0.0,0.0,0.0,0.0,-0.016813636,0.08248481,0.020077765,14.938922,2.1037579,-3.1149864,8.168077,0.15962124,3.274879,0.06068349
26.270552,106.77185,20.146715,7.8143888,0.3918123,0.14606792,-0.14129964,0.0071885893,-0.33692902,0.6303442,-0.22470723,0.7130241,0.4185577,0.54610205,0.33648497,-1.4997199,-1.9165117,-0.57499063,1.8306154,1.728071,-0.7608088,0.3356598,-1.4729048,-1.968239,-0.5579855,1.7701536,1.6882454,-0.8112847,0.01479906,-0.67402714,1.1202509,-0.5160457,1.0840714,0.21062934,0.41354302,-0.6343689,-0.4817238,0.52701604,-0.114876784,0.06577679,-0.27683565,-0.6141968,-0.45065498,0.49602702,0.9949944,0.065580785,0.06891388,0.030597523,-0.082997,0.06913596,-0.28366235,0.0,1.0,0.0,0.0,0.0,0.0,0.0,-0.01563108,0.08172378,0.022983968,10.163568,5.465138,-4.1222334,12.206877,0.008392334,2.948597,0.04427433
27.174858,116.0168,22.252747,8.384725,0.3698003,0.20981723,-0.13629268,0.08909531,-0.29217678,0.631903,-0.18614475,0.7019899,0.42352572,0.53428084,0.34456933,-1.5021225,-1.9050486,-0.57659996,1.8403527,1.730598,-0.7578566,0.33655626,-1.4790865,-1.9571971,-0.56228554,1.780888,1.6904845,-0.8071773,0.11535635,-0.59920144,1.0967319,-0.39974764,1.0725728,0.22985098,0.4105636,-0.6353035,-0.48119736,0.52474684,-0.08723138,0.047086302,-0.20915851,-0.6148071,-0.45018387,0.49366286,0.9959067,0.057232913,0.060492724,0.035140023,-0.054202523,0.040431257,-0.22163597,0.0,1.0,0.0,0.0,0.0,0.0,0.0,-0.014696479,0.08119735,0.025253177,10.292266,7.577026,-2.9526234,12.101353,-0.34210682,2.4279952,-0.060480833
16.622963,116.21343,21.89777,11.083164,0.61449045,0.296183,-0.16379464,0.103540875,-0.25864285,0.61823696,-0.15937205,0.6893357,0.4326187,0.51030475,0.34691036,-1.5049508,-1.8953733,-0.57822275,1.8498216,1.7337464,-0.75614685,0.3382333,-1.4844805,-1.9463669,-0.5655805,1.7914793,1.6928974,-0.8031156,0.18583654,-0.5193262,1.0765709,-0.30465016,1.0565193,0.24624273,0.4055744,-0.6360245,-0.48085594,0.52314097,-0.07052719,0.034983072,-0.14250611,-0.6151886,-0.4499035,0.4919239,0.9966352,0.04873194,0.05275736,0.039497323,-0.033386543,0.024552094,-0.15946047,0.0,1.0,0.0,0.0,0.0,0.0,0.0,-0.013975501,0.080855936,0.026859045,7.2677107,8.065271,-2.5546312,9.95673,-0.9438276,2.0120919,-0.25289655
