Afshin1997/kuka_rl_ros2/src/catch_and_throw/input_files/idealpd/polynomial_regressor/optimizer_files/env_487_data.csv
torque0,torque1,torque2,torque3,torque4,torque5,torque6,action0,action1,action2,action3,action4,action5,action6,set_target_0,set_target_1,set_target_2,set_target_3,set_target_4,set_target_5,set_target_6,joint_pos_0,joint_pos_1,joint_pos_2,joint_pos_3,joint_pos_4,joint_pos_5,joint_pos_6,joint_vel_0,joint_vel_1,joint_vel_2,joint_vel_3,joint_vel_4,joint_vel_5,joint_vel_6,tennisball_pos_0,tennisball_pos_1,tennisball_pos_2,tennisball_lin_vel_0,tennisball_lin_vel_1,tennisball_lin_vel_2,end_effector_pos_0,end_effector_pos_1,end_effector_pos_2,end_effector_rot_0,end_effector_rot_1,end_effector_rot_2,end_effector_rot_3,end_effector_lin_vel_0,end_effector_lin_vel_1,end_effector_lin_vel_2,obs_task_0,obs_task_1,obs_task_2,obs_task_3,obs_task_4,obs_task_5,obs_task_6,to_final_target_0,to_final_target_1,to_final_target_2,joint_acc_0,joint_acc_1,joint_acc_2,joint_acc_3,joint_acc_4,joint_acc_5,joint_acc_6
0.0,0.0,0.0,0.0,0.0,0.0,0.0,0.0,0.0,0.0,0.0,0.0,0.0,0.0,1.7802359,-1.0646509,-1.8151424,-1.1170107,1.9373155,1.1170107,-0.91629785,1.7802359,-1.0646509,-1.8151424,-1.1170107,1.9373155,1.1170107,-0.91629785,0.0,0.0,0.0,0.0,0.0,0.0,0.0,2.9375305,-0.22666168,0.29813018,-3.5757828,-0.24616939,4.8298407,0.5304184,-0.45449448,0.693097,0.5745483,0.17512383,0.15255436,0.7848268,0.0,0.0,0.0,1.0,0.0,0.0,0.0,0.0,0.0,0.0,-3.5875306,-0.17333832,0.25186983,0.0,0.0,0.0,0.0,0.0,0.0,0.0
0.0,0.0,0.0,0.0,0.0,0.0,0.0,0.0,0.0,0.0,0.0,0.0,0.0,0.0,1.7802359,-1.0646509,-1.8151424,-1.1170107,1.9373155,1.1170107,-0.91629785,1.7802359,-1.0646509,-1.8151424,-1.1170107,1.9373155,1.1170107,-0.91629785,0.0,0.0,0.0,0.0,0.0,0.0,0.0,2.9375305,-0.22666168,0.29813018,-3.5757828,-0.24616939,4.8298407,0.5304184,-0.45449448,0.693097,0.5745483,0.17512383,0.15255436,0.7848268,0.0,0.0,0.0,1.0,0.0,0.0,0.0,0.0,0.0,0.0,-3.5875306,-0.17333832,0.25186983,0.0,0.0,0.0,0.0,0.0,0.0,0.0
0.0,0.0,0.0,0.0,0.0,0.0,0.0,0.0,0.0,0.0,0.0,0.0,0.0,0.0,1.7802359,-1.0646509,-1.8151424,-1.1170107,1.9373155,1.1170107,-0.91629785,1.7802359,-1.0646509,-1.8151424,-1.1170107,1.9373155,1.1170107,-0.91629785,0.0,0.0,0.0,0.0,0.0,0.0,0.0,2.9375305,-0.22666168,0.29813018,-3.5757828,-0.24616939,4.8298407,0.5304184,-0.45449448,0.693097,0.5745483,0.17512383,0.15255436,0.7848268,0.0,0.0,0.0,1.0,0.0,0.0,0.0,0.0,0.0,0.0,-3.5875306,-0.17333832,0.25186983,0.0,0.0,0.0,0.0,0.0,0.0,0.0
-176.0,82.69165,-0.79143906,110.0,10.690898,5.2469854,-3.875494,-0.8230945,0.4270487,-0.5525002,0.7163551,0.26957852,0.6197896,-0.566367,1.6979264,-1.0219461,-1.8703924,-1.0453752,1.9642733,1.1789896,-0.97293454,1.7785708,-1.061746,-1.8211486,-1.1129977,1.943829,1.1222845,-0.91914266,-0.2218819,0.3864653,-0.7998256,0.5350934,0.8673261,0.7009389,-0.37873963,2.901802,-0.22911835,0.34565592,-3.5722077,-0.24592328,4.7268257,0.52817535,-0.45761108,0.69404155,0.5786691,0.17373781,0.15088068,0.7824272,-0.29906476,-0.41485983,0.12564108,1.0,0.0,0.0,0.0,0.0,0.0,0.0,-3.5518022,-0.17088166,0.2043441,-22.153502,38.41195,-79.69689,53.548576,86.39308,69.41025,-37.72617
-176.0,20.716692,-25.416264,110.0,11.277618,3.1779487,-3.2739208,-0.8161441,0.10650214,-0.546687,0.69013864,0.37178907,0.6171912,-0.61134785,1.6969564,-1.0510958,-1.8758173,-1.0439838,1.9810079,1.1840036,-0.9802774,1.7757784,-1.0566438,-1.8359249,-1.1015936,1.9570184,1.1351191,-0.92298025,-0.2967257,0.54923886,-1.7036244,1.3442185,1.4681759,1.4706253,-0.3828924,2.8661041,-0.23157501,0.39215228,-3.5686362,-0.24567741,4.623914,0.52310944,-0.4653511,0.695608,0.5876351,0.17041013,0.14704739,0.77718866,-0.57607734,-0.8927494,0.16754599,1.0,0.0,0.0,0.0,0.0,0.0,0.0,-3.5161042,-0.168425,0.15784773,-6.970012,15.64588,-90.41729,81.50953,59.71074,74.8682,0.37858486
-149.42256,116.27359,31.43354,90.83352,7.3419666,7.38654,-1.8396181,-0.776805,0.39478216,-0.0347953,0.5473662,0.4561708,0.63181674,-0.56579,1.698098,-1.0171657,-1.8394043,-1.046857,2.0026355,1.1983007,-0.97955924,1.7695967,-1.050115,-1.8514392,-1.0866286,1.9716306,1.1496283,-0.9269609,-0.7261222,0.6838032,-1.4935712,1.547954,1.4540771,1.4364814,-0.4052173,2.8304443,-0.23403168,0.4376203,-3.5650682,-0.24543178,4.521105,0.51517487,-0.47565842,0.6989093,0.5994917,0.1655242,0.14223544,0.77005225,-0.87296367,-1.0715255,0.38872305,1.0,0.0,0.0,0.0,0.0,0.0,0.0,-3.4804444,-0.16596833,0.1123797,-43.153633,12.4114275,23.146416,20.58711,-2.8098822,-5.735564,-2.8980136
-90.705154,128.50076,46.59574,59.437634,4.043531,7.6438437,-0.6186777,-0.78729314,0.3914821,-0.0015337373,0.5635165,0.46223068,0.607295,-0.57556874,1.6908674,-1.0109668,-1.8515927,-1.0302769,2.0178537,1.2103578,-0.98451775,1.7593542,-1.0428213,-1.8623817,-1.0715014,1.9847207,1.1630255,-0.9310779,-1.1255087,0.74185085,-0.9532408,1.5011208,1.2560279,1.3028134,-0.41699377,2.7948227,-0.23648453,0.482061,-3.561504,-0.24518639,4.4183984,0.50481415,-0.48649216,0.7043419,0.612407,0.1591696,0.13700014,0.7621374,-1.1036682,-1.0766331,0.6003249,1.0,0.0,0.0,0.0,0.0,0.0,0.0,-3.4448228,-0.16351548,0.06793901,-40.44162,5.0043225,56.428707,-4.666376,-21.151161,-14.807248,-2.1075845
-33.14119,136.31453,54.829636,32.3474,1.230083,6.7857113,0.17054032,-0.8007901,0.4767296,0.034814157,0.5523169,0.51482564,0.5991136,-0.56234926,1.6792753,-0.9951483,-1.8589003,-1.0162697,2.0362034,1.2229369,-0.9873128,1.7459399,-1.0349096,-1.8675754,-1.057839,1.995707,1.1749445,-0.9352855,-1.415237,0.80575967,-0.36809587,1.3207337,1.0429878,1.1526111,-0.42498386,2.7592316,-0.23893356,0.5254754,-3.557943,-0.24494126,4.3157945,0.49277496,-0.49650192,0.7116812,0.62517303,0.1514639,0.13159932,0.7542539,-1.2478122,-0.9620325,0.78208524,1.0,0.0,0.0,0.0,0.0,0.0,0.0,-3.4092317,-0.16106644,0.02452463,-29.52988,5.84054,60.54027,-18.213345,-22.271156,-15.686393,-1.6927481
5.0049806,127.71553,51.73266,15.085979,-0.4403547,5.018873,0.41750142,-0.811197,0.5422002,0.045835122,0.5602364,0.552494,0.5912366,-0.57386744,1.6648202,-0.9806896,-1.8629919,-1.0018154,2.0509565,1.2340682,-0.99267226,1.7306505,-1.0262426,-1.8680999,-1.0459887,2.005017,1.185496,-0.939557,-1.5681143,0.885775,0.057346765,1.1392379,0.8919589,1.0219533,-0.4302009,2.7236786,-0.2413826,0.56786454,-3.554386,-0.24469638,4.2132936,0.4798813,-0.505085,0.7204601,0.63726276,0.14277197,0.12631226,0.7466978,-1.3127971,-0.8089058,0.9109801,1.0,0.0,0.0,0.0,0.0,0.0,0.0,-3.3736787,-0.1586174,-0.017864525,-15.722632,7.645452,43.91709,-18.362808,-15.63983,-13.254452,-1.2121677
25.706476,119.61021,47.148613,7.2179117,-1.2431071,3.5873642,0.37121156,-0.8144817,0.60810375,0.0872455,0.57252705,0.5499912,0.5983754,-0.56866753,1.6492023,-0.9654322,-1.8593754,-0.988736,2.0600162,1.2453336,-0.9964238,1.7146555,-1.0166239,-1.8657081,-1.0355078,2.0132682,1.1949106,-0.94386095,-1.6108531,0.98641944,0.3029297,1.0169597,0.80147356,0.9146907,-0.43227598,2.6881638,-0.24382782,0.60922945,-3.5508323,-0.24445173,4.1108947,0.4667282,-0.5121269,0.73027533,0.64860904,0.13342577,0.12139424,0.7394371,-1.3255656,-0.65425825,1.004228,1.0,0.0,0.0,0.0,0.0,0.0,0.0,-3.3381639,-0.15617219,-0.059229434,-4.5918465,9.814239,25.480774,-12.4147415,-9.324085,-10.715747,-0.7566631
33.116802,109.9079,41.783203,4.6519055,-1.3860388,2.5719225,0.27129495,-0.8149638,0.6544874,0.14114076,0.56985736,0.5589263,0.60391545,-0.55182886,1.6331592,-0.9511751,-1.8515941,-0.97852206,2.069161,1.2553022,-0.9990438,1.6987292,-1.005977,-1.8618476,-1.025786,2.0209968,1.2034041,-0.94816107,-1.5873746,1.0902991,0.41596282,0.9568092,0.7627739,0.8277254,-0.43074775,2.6526794,-0.24626923,0.6495711,-3.5472822,-0.24420732,4.0085983,0.4536209,-0.5177574,0.7408359,0.6593118,0.123665355,0.116960526,0.73234904,-1.3116716,-0.5172521,1.0715127,1.0,0.0,0.0,0.0,0.0,0.0,0.0,-3.3026795,-0.15373078,-0.09957111,2.119255,10.20546,11.946165,-6.164396,-4.0207267,-8.625817,-0.28770566
34.241917,99.28842,36.386593,3.5761476,-1.2995638,1.847713,0.20514901,-0.8036974,0.6921426,0.17003809,0.55175614,0.57985085,0.61698097,-0.5448843,1.6183594,-0.93676275,-1.8448439,-0.97061044,2.0789819,1.2651021,-1.0026495,1.6832777,-0.9943613,-1.8574951,-1.0163904,2.0286262,1.2111555,-0.9524345,-1.5316209,1.1848499,0.44339046,0.93335336,0.762711,0.75813174,-0.42741853,2.6172333,-0.24871063,0.6888906,-3.5437355,-0.24396315,3.9064047,0.44073486,-0.522171,0.7519021,0.66947776,0.113679826,0.11300301,0.72533214,-1.2851137,-0.4005315,1.115778,1.0,0.0,0.0,0.0,0.0,0.0,0.0,-3.2672334,-0.15128937,-0.13889056,5.4001093,9.31735,3.226614,-2.487266,-0.097334385,-6.873262,-0.037294626
27.890285,86.10474,30.032799,4.5174546,-0.9305669,1.3354057,0.13688105,-0.8021379,0.7114488,0.17773418,0.5400538,0.59746945,0.623877,-0.5405229,1.603064,-0.9232164,-1.8397217,-0.96238506,2.0883732,1.2735432,-1.0064868,1.6683737,-0.9819778,-1.8532226,-1.0070864,2.0364196,1.2183138,-0.95666975,-1.4769495,1.2558761,0.4230545,0.9290536,0.7848668,0.70203847,-0.42315173,2.5818253,-0.25114822,0.7271889,-3.5401926,-0.24371925,3.8043132,0.42808533,-0.52562714,0.7632432,0.6792142,0.10363281,0.10943871,0.7182976,-1.2602133,-0.31082672,1.1372349,1.0,0.0,0.0,0.0,0.0,0.0,0.0,-3.2318254,-0.14885178,-0.17718887,5.3266764,7.0041656,-1.6670167,-0.58145523,2.1764517,-5.531633,0.11610985
20.160156,74.15354,24.433296,5.785693,-0.56865436,0.99196255,0.084527925,-0.7991821,0.7258279,0.16811295,0.5296271,0.60781085,0.6301492,-0.53038174,1.5884554,-0.90939504,-1.8364114,-0.9541237,2.0972006,1.2813287,-1.0097079,1.6539065,-0.9690689,-1.8493316,-0.9977895,2.0444877,1.2249933,-0.9608554,-1.4369063,1.3022826,0.37874216,0.92941904,0.81435895,0.6569062,-0.41784847,2.5464478,-0.253582,0.764467,-3.536653,-0.24347559,3.7023237,0.4156494,-0.52835464,0.77465415,0.68861085,0.0936564,0.10618247,0.7111742,-1.2414513,-0.24416275,1.1392897,1.0,0.0,0.0,0.0,0.0,0.0,0.0,-3.1964478,-0.146418,-0.21446699,3.8787127,4.573059,-4.139173,-0.13817549,2.9512167,-4.4409156,0.2623856
14.505357,67.34125,21.41825,6.930731,-0.3010495,0.8916695,0.073763296,-0.79769653,0.7392903,0.1730462,0.5162201,0.617693,0.6385085,-0.53303665,1.5741369,-0.8951399,-1.832027,-0.94616747,2.106257,1.2888442,-1.0141591,1.6397024,-0.9558338,-1.8458393,-0.9885274,2.0528457,1.2312895,-0.96499246,-1.4151073,1.3303738,0.3401945,0.9244484,0.8433712,0.62082136,-0.41317675,2.5111084,-0.25601578,0.800726,-3.533117,-0.24323216,3.6004362,0.4033432,-0.53050613,0.7860173,0.6977138,0.083802745,0.10314585,0.7039414,-1.2298414,-0.18994085,1.1321084,1.0,0.0,0.0,0.0,0.0,0.0,0.0,-3.1611085,-0.14398423,-0.25072598,2.05307,2.7558327,-3.5756528,-0.6878257,2.9184222,-3.5458446,0.21808743
12.639809,63.794872,20.108541,6.8889475,-0.2247358,0.85378623,0.1090861,-0.79245,0.74818844,0.17859459,0.49610993,0.62242544,0.6397434,-0.52499884,1.5604575,-0.88101494,-1.8279798,-0.93891644,2.1150882,1.2952639,-1.0174923,1.6256281,-0.94241464,-1.8426063,-0.97940934,2.0614555,1.2372767,-0.9690818,-1.4053955,1.3457016,0.31866252,0.90702224,0.8666039,0.59163857,-0.4084073,2.4758072,-0.25844574,0.8359669,-3.5295846,-0.24298897,3.4986508,0.39113617,-0.53214645,0.79726905,0.7065115,0.074078575,0.100260586,0.69663596,-1.2203368,-0.13878702,1.1197941,1.0,0.0,0.0,0.0,0.0,0.0,0.0,-3.1258073,-0.14155427,-0.28596687,0.8365154,1.486373,-1.85498,-1.9470096,2.341783,-2.8484583,0.22835732
12.195378,60.700253,19.019405,6.221442,-0.21808422,0.7751579,0.15534176,-0.79109955,0.75043064,0.17756483,0.46936896,0.63689834,0.6378109,-0.5229184,1.5465182,-0.86737156,-1.8248498,-0.93247247,2.1251454,1.3010578,-1.0213736,1.6115862,-0.92891634,-1.8394878,-0.9705821,2.070275,1.243014,-0.97312826,-1.4041245,1.3510983,0.31058645,0.8739702,0.8875273,0.56785977,-0.4041207,2.4405365,-0.2608719,0.8701907,-3.5260558,-0.24274603,3.396967,0.37900543,-0.5332756,0.8083558,0.71497303,0.06449079,0.09748319,0.68931234,-1.2098593,-0.08910059,1.101708,1.0,0.0,0.0,0.0,0.0,0.0,0.0,-3.0905366,-0.13912812,-0.32019067,-0.01475811,0.5016804,-0.49503446,-3.5227418,2.112472,-2.2854924,0.18109679
15.031082,60.045856,19.026987,4.3046,-0.40286452,0.6915921,0.23355135,-0.78708386,0.75613356,0.18410087,0.4239811,0.64684707,0.63783056,-0.5226341,1.5328778,-0.85330296,-1.8210777,-0.92818403,2.1349597,1.306797,-1.0253917,1.5975424,-0.9153856,-1.8363502,-0.96226037,2.0792854,1.2485472,-0.97713655,-1.4049772,1.353674,0.31593555,0.81748444,0.90532297,0.54883325,-0.40055606,2.4052963,-0.26329803,0.90339845,-3.5225306,-0.24250332,3.295385,0.3670349,-0.53386307,0.8192298,0.7230305,0.055055995,0.09479744,0.6820624,-1.1923058,-0.034113187,1.0793419,1.0,0.0,0.0,0.0,0.0,0.0,0.0,-3.0552964,-0.13670197,-0.35339844,-0.23646355,0.22537708,0.8733332,-5.876887,1.7939925,-1.768291,0.10315776
17.885506,60.272427,19.2525,2.8758035,-0.5823337,0.60472643,0.28732115,-0.7817101,0.76108444,0.18957491,0.38649192,0.6473367,0.6371163,-0.5073541,1.5193714,-0.83927715,-1.8173927,-0.92361116,2.1440191,1.3122588,-1.027872,1.5835081,-0.9018253,-1.833102,-0.9546033,2.0884292,1.2539183,-0.9811029,-1.4035945,1.356648,0.32871908,0.74776214,0.91749406,0.5336248,-0.39607927,2.370102,-0.26572418,0.9355911,-3.5190086,-0.24226087,3.1939044,0.35530853,-0.5338669,0.8298681,0.73062944,0.045771763,0.09222549,0.6749667,-1.1672846,0.025095586,1.055106,1.0,0.0,0.0,0.0,0.0,0.0,0.0,-3.020102,-0.13427582,-0.3855911,-0.0118255615,0.27267933,1.6174436,-7.1994305,1.2369633,-1.3478637,0.19642115
21.159107,59.95025,19.307465,0.92465353,-0.7801444,0.47473747,0.35656717,-0.7791718,0.76277995,0.2024311,0.32659328,0.6598806,0.63699514,-0.50913376,1.5055909,-0.82554734,-1.8128588,-0.92194396,2.1544173,1.3176178,-1.0320163,1.5695006,-0.8882364,-1.8296726,-0.9477912,2.0976913,1.2591597,-0.98502916,-1.4005393,1.3596437,0.34884942,0.6583026,0.92937946,0.5217394,-0.39230624,2.334938,-0.2681427,0.96676975,-3.5154903,-0.24201867,3.0925255,0.34387207,-0.53325653,0.84023494,0.7377141,0.036659896,0.089781865,0.6681116,-1.1331968,0.088065594,1.0270063,1.0,0.0,0.0,0.0,0.0,0.0,0.0,-2.9849381,-0.1318573,-0.41676974,0.15733242,0.28464794,2.3499787,-9.172583,1.2121558,-0.96827745,0.13124347
23.882513,62.857517,20.395466,0.15275574,-0.95300364,0.4536326,0.3977363,-0.7758317,0.77777624,0.22068512,0.27401054,0.66027033,0.63613945,-0.48867103,1.4919174,-0.8104588,-1.8076041,-0.9203902,2.1637182,1.3227736,-1.0338962,1.555535,-0.87455404,-1.8259857,-0.94194424,2.107045,1.2643,-0.9889068,-1.3956707,1.3710426,0.37638357,0.55944663,0.9378302,0.5122789,-0.3870276,2.2998047,-0.27056122,0.99693537,-3.5119755,-0.2417767,2.9912477,0.3328247,-0.53195953,0.85034615,0.7442476,0.02770375,0.087497994,0.66156775,-1.0925095,0.15670279,1.0019518,1.0,0.0,0.0,0.0,0.0,0.0,0.0,-2.9498048,-0.12943879,-0.44693536,0.3445387,1.1315346,3.0771375,-10.092282,0.883615,-0.70228577,0.29179454
30.086485,62.080086,20.477335,-4.1626697,-1.3712647,0.21005984,0.5374289,-0.7712289,0.78059226,0.2458935,0.15570763,0.67268026,0.63329923,-0.49118245,1.478412,-0.79649484,-1.8013964,-0.9263735,2.174313,1.3276299,-1.038025,1.5416323,-0.8607515,-1.8219535,-0.93741906,2.1165016,1.2693621,-0.99273676,-1.3887974,1.3833661,0.41322368,0.416254,0.94796616,0.50530094,-0.38246235,2.264717,-0.27297974,1.026089,-3.5084643,-0.24153498,2.8900714,0.32232666,-0.52991486,0.86013407,0.7501265,0.018972013,0.08540972,0.65548104,-1.0340834,0.23295853,0.96702445,1.0,0.0,0.0,0.0,0.0,0.0,0.0,-2.9147172,-0.12702027,-0.47608894,0.5511522,1.2406588,3.9970577,-14.52347,1.0552883,-0.35942793,0.23627877
35.161503,61.09333,20.422594,-7.9976993,-1.7444226,-0.026891261,0.6677741,-0.7717453,0.78614527,0.2808956,0.03255763,0.6734754,0.6277041,-0.4781366,1.4644578,-0.782137,-1.793864,-0.9341633,2.183849,1.3321325,-1.0405505,1.5277869,-0.84682405,-1.8174579,-0.93464863,2.1260383,1.2743651,-0.99651617,-1.3835534,1.3960733,0.46260408,0.23005702,0.95603126,0.5000393,-0.3770763,2.22966,-0.27539062,1.0542315,-3.5049567,-0.24129349,2.7889962,0.3125229,-0.5270653,0.8695041,0.7552382,0.010560338,0.083567336,0.65001553,-0.9593601,0.31453395,0.9227607,1.0,0.0,0.0,0.0,0.0,0.0,0.0,-2.8796601,-0.12460938,-0.5042315,0.40426254,1.2974977,5.2188993,-18.806038,0.86581707,-0.10251999,0.345999
38.683823,56.986656,19.033802,-11.861692,-2.0650795,-0.37700656,0.77341616,-0.77480257,0.78662175,0.30390972,-0.112009555,0.6783193,0.6248567,-0.46855688,1.4503067,-0.7681619,-1.7870669,-0.9458496,2.1938703,1.3368508,-1.0433719,1.5139643,-0.83279645,-1.8124549,-0.93406975,2.1356514,1.2793242,-1.0002376,-1.382128,1.4051032,0.51362073,1.727051e-06,0.9634154,0.49642992,-0.3710615,2.1946335,-0.2778015,1.0813642,-3.5014524,-0.24105224,2.6880221,0.3035736,-0.5233917,0.87832564,0.75949794,0.0026086234,0.082025,0.6453122,-0.86867267,0.3949236,0.86400807,1.0,0.0,0.0,0.0,0.0,0.0,0.0,-2.8446336,-0.12219849,-0.53136414,0.05156994,0.9529114,5.3163233,-23.169321,0.82440376,0.14584064,0.45248866
41.695065,57.602802,19.418291,-13.30722,-2.245944,-0.5395303,0.82206166,-0.7618511,0.7987042,0.33919716,-0.22461931,0.6751283,0.6221119,-0.4462797,1.4377792,-0.75292605,-1.7785352,-0.9565317,2.203164,1.3415353,-1.0448656,1.5002047,-0.8186544,-1.8069046,-0.93585503,2.1453178,1.2842547,-1.0038863,-1.3740741,1.4175545,0.56933635,-0.23843904,0.96779877,0.49371842,-0.36314136,2.159645,-0.2802124,1.1074878,-3.4979517,-0.24081123,2.587149,0.2956009,-0.5189018,0.8865562,0.7628704,-0.004828558,0.080820575,0.6414619,-0.7682665,0.47584778,0.8044763,1.0,0.0,0.0,0.0,0.0,0.0,0.0,-2.8096452,-0.1197876,-0.5574878,0.76777935,1.3193846,5.6732297,-23.950983,0.57646036,0.26846528,0.6928563
39.345497,54.52512,18.243917,-12.051825,-2.043313,-0.67665416,0.7873056,-0.7587261,0.7941732,0.368504,-0.32018572,0.6838469,0.6173344,-0.41727793,1.424332,-0.73923707,-1.7700541,-0.9678736,2.2137024,1.3459882,-1.0456141,1.4865366,-0.8044342,-1.8007972,-0.93989575,2.1550376,1.2891585,-1.0074397,-1.3644041,1.4238904,0.62443936,-0.45952842,0.97405446,0.4909887,-0.35283133,2.1246948,-0.28261566,1.1326034,-3.4944546,-0.24057046,2.4863765,0.28860474,-0.5136719,0.89419377,0.76539695,-0.01173975,0.07993068,0.6384674,-0.67075217,0.54555357,0.74495053,1.0,0.0,0.0,0.0,0.0,0.0,0.0,-2.774695,-0.117384344,-0.5826034,0.9754658,0.73006153,5.4950953,-22.179317,0.8159518,0.249511,0.9740412
41.355904,54.966427,18.743921,-12.399546,-2.0733588,-0.78697515,0.80971533,-0.734166,0.7999502,0.40751496,-0.43559447,0.6911291,0.61423486,-0.39845422,1.41312,-0.72443914,-1.7600458,-0.9834552,2.2241507,1.350582,-1.0472852,1.4730669,-0.79015195,-1.7941062,-0.94606507,2.1648338,1.2940375,-1.0108825,-1.340962,1.430069,0.68350154,-0.6694898,0.98231196,0.48848405,-0.34138498,2.089775,-0.28501892,1.156712,-3.4909608,-0.24032992,2.3857048,0.28260803,-0.5077629,0.90125793,0.76709175,-0.018135501,0.079321,0.6363564,-0.5687366,0.6136788,0.6879155,1.0,0.0,0.0,0.0,0.0,0.0,0.0,-2.7397752,-0.114981085,-0.60671204,2.414751,0.7381916,5.765128,-21.016205,1.074791,0.28378963,1.1262894
37.112724,54.755737,18.573807,-8.9591675,-1.7508653,-0.7246572,0.7146968,-0.72754455,0.80261505,0.4436758,-0.5021087,0.6857303,0.61146605,-0.3835794,1.4003124,-0.7098904,-1.7497387,-0.99627596,2.2334068,1.3551841,-1.0492405,1.4598395,-0.7758144,-1.7868068,-0.95405304,2.1746871,1.2988878,-1.0142089,-1.3163307,1.4353833,0.74465483,-0.84186167,0.98752713,0.48566258,-0.32963365,2.0548859,-0.28742218,1.1798147,-3.4874706,-0.24008964,2.2851338,0.27755737,-0.50120926,0.90781915,0.76803434,-0.024083953,0.0789521,0.63506675,-0.4777798,0.6736485,0.63948363,1.0,0.0,0.0,0.0,0.0,0.0,0.0,-2.704886,-0.112577826,-0.6298147,2.5589228,0.6725311,5.8731675,-17.23616,0.8322716,0.2090931,1.1837661
32.98979,55.258244,18.84416,-4.683402,-1.3441498,-0.60554314,0.6091595,-0.70138764,0.8027781,0.4789362,-0.5323001,0.6878615,0.6048596,-0.34257478,1.3897007,-0.6955366,-1.7389132,-1.0072831,2.2434733,1.3593738,-1.0484664,1.4469305,-0.7614387,-1.7788875,-0.96334755,2.1845863,1.3037077,-1.0173999,-1.2821013,1.4388561,0.8064484,-0.95858735,0.9921407,0.48213583,-0.31537464,2.0200424,-0.28982162,1.2019124,-3.483984,-0.23984961,2.1846635,0.27330017,-0.49412155,0.91399586,0.768331,-0.029712783,0.07874852,0.6344944,-0.40062937,0.7257137,0.6040164,1.0,0.0,0.0,0.0,0.0,0.0,0.0,-2.6700425,-0.11017838,-0.6519124,3.5376787,0.5110264,5.8407545,-11.670864,0.840652,0.09801984,1.4404833
25.956432,56.08568,18.996824,1.5120401,-0.7863819,-0.3637197,0.44982582,-0.68645066,0.80720156,0.5113857,-0.52911127,0.68653464,0.6053583,-0.2948379,1.3782854,-0.68071854,-1.727749,-1.0162587,2.2532396,1.3642435,-1.0468837,1.4343687,-0.7470211,-1.7703617,-0.9733182,2.1945198,1.3084913,-1.020423,-1.2472197,1.4433682,0.8666744,-1.0099221,0.99521595,0.47848633,-0.29809824,1.9852295,-0.29221725,1.2230062,-3.4805007,-0.23960982,2.0842936,0.26966095,-0.486557,0.9199458,0.7681232,-0.035190072,0.07862898,0.6344808,-0.34523362,0.7687691,0.58531404,1.0,0.0,0.0,0.0,0.0,0.0,0.0,-2.6352296,-0.10778275,-0.67300624,3.5821915,0.6359339,5.6293607,-5.157852,0.7466674,0.027537346,1.7382443
15.657793,51.381874,16.499527,7.2040377,-0.20315707,-0.2575334,0.24966821,-0.70025396,0.80592096,0.5163638,-0.537884,0.6869814,0.6031744,-0.27724555,1.3643433,-0.666429,-1.7187253,-1.0271066,2.263218,1.3688087,-1.0481476,1.4220034,-0.73257387,-1.7613685,-0.9835025,2.204476,1.3132368,-1.0232764,-1.2328355,1.4457316,0.90893865,-1.0216107,0.9969779,0.4742011,-0.28113642,1.9504471,-0.29461288,1.2430971,-3.477021,-0.23937027,1.9840239,0.26639557,-0.47869873,0.92574894,0.76759744,-0.04059641,0.07856545,0.63480186,-0.312652,0.7953256,0.5715577,1.0,0.0,0.0,0.0,0.0,0.0,0.0,-2.6004472,-0.10538712,-0.69309705,1.4601707,0.41966438,3.895998,-1.2534618,0.59456825,-0.12078285,1.695472
9.151466,48.726467,15.115561,11.228691,0.18110609,-0.1653719,0.1221928,-0.6998867,0.8085651,0.53107375,-0.5266831,0.6844634,0.6008826,-0.2211799,1.3520148,-0.65171736,-1.7082611,-1.0361708,2.2729225,1.3733251,-1.0453944,1.4096895,-0.71810186,-1.7520416,-0.99357617,2.2144325,1.3179384,-1.0259372,-1.2309103,1.4482929,0.93961674,-1.0030531,0.99668854,0.46964675,-0.2610511,1.9157028,-0.2970047,1.262186,-3.4735446,-0.23913096,1.8838543,0.2633438,-0.47065353,0.9314545,0.7668956,-0.04597936,0.07855496,0.63528425,-0.2953267,0.8121792,0.5630662,1.0,0.0,0.0,0.0,0.0,0.0,0.0,-2.565703,-0.102995306,-0.71218604,0.1603365,0.44078827,2.7825356,1.7291069,0.38112402,-0.20262003,1.9982219
5.0496936,43.607357,12.893629,12.601654,0.3784454,-0.24873494,0.055019222,-0.7058307,0.8034015,0.5318429,-0.53008103,0.6846537,0.5996035,-0.17118111,1.3391064,-0.6377617,-1.6988573,-1.0465842,2.282898,1.3778988,-1.0430553,1.3973147,-0.7036365,-1.7425239,-1.0034264,2.2243812,1.3225943,-1.0283767,-1.2399582,1.4464871,0.95508075,-0.9794801,0.9953912,0.4651313,-0.23844679,1.8809967,-0.2993927,1.2802739,-3.4700718,-0.23889188,1.7837847,0.26039886,-0.46250534,0.9370449,0.7660999,-0.05131546,0.078611664,0.63582855,-0.2841942,0.81906366,0.55044514,1.0,0.0,0.0,0.0,0.0,0.0,0.0,-2.5309968,-0.100607306,-0.7302739,-0.97515583,-0.00641346,1.3272882,2.196896,0.23576021,-0.23546219,2.2416651
0.88836956,39.924522,11.1710005,14.403089,0.5777205,-0.26598507,-0.023572203,-0.7251883,0.8037019,0.5318381,-0.5147821,0.68232065,0.60106945,-0.13876206,1.3247958,-0.62326634,-1.6893401,-1.0549047,2.2926133,1.3827013,-1.0422529,1.3847414,-0.68919504,-1.7329357,-1.0129994,2.234307,1.3272101,-1.0305892,-1.2633842,1.4439259,0.95950204,-0.95052505,0.99287117,0.4609781,-0.21535482,1.8463211,-0.3017807,1.2973619,-3.4666023,-0.23865305,1.6838154,0.25752258,-0.45433807,0.9425,0.7652907,-0.056579977,0.07876035,0.6363377,-0.2805537,0.8181498,0.5365379,1.0,0.0,0.0,0.0,0.0,0.0,0.0,-2.4963212,-0.098219305,-0.74736184,-2.4607182,-0.08945465,0.28721094,2.7044654,0.08419752,-0.23927689,2.285829
-0.9920912,37.600113,10.198827,15.64056,0.696826,-0.29447275,-0.06989945,-0.73080385,0.8029039,0.52302533,-0.48211133,0.6753034,0.6116,-0.06321886,1.311661,-0.60890466,-1.6806332,-1.0612105,2.3018374,1.38837,-1.0369111,1.371924,-0.6747812,-1.7233932,-1.022189,2.244187,1.3317953,-1.0325366,-1.2884016,1.4410613,0.95205843,-0.9091675,0.98759097,0.45828354,-0.18788162,1.811676,-0.3041649,1.3134508,-3.4631364,-0.23841445,1.5839459,0.2546692,-0.4462204,0.94782245,0.7645207,-0.06177684,0.07902116,0.6367474,-0.28063,0.81243587,0.52343994,1.0,0.0,0.0,0.0,0.0,0.0,0.0,-2.4616761,-0.09583512,-0.7634508,-2.6416302,-0.123500824,-0.867641,3.9250135,-0.20911694,-0.11720061,2.7164876
-4.2033167,34.536266,8.895323,17.718088,0.91868997,-0.28404918,-0.13496172,-0.75083256,0.7980713,0.5104342,-0.4380896,0.6649093,0.6200952,0.025978833,1.2968408,-0.59497404,-1.6723498,-1.065998,2.310678,1.3938049,-1.0299387,1.358811,-0.6604122,-1.7140014,-1.0308331,2.253991,1.3363634,-1.0341674,-1.3193415,1.4359579,0.9346622,-0.850296,0.9786812,0.45666775,-0.1547705,1.7770767,-0.30654526,1.328542,-3.4596741,-0.23817609,1.4841763,0.2517395,-0.4382019,0.9530301,0.7638502,-0.06693109,0.079400025,0.63698393,-0.28831542,0.79983884,0.5125481,1.0,0.0,0.0,0.0,0.0,0.0,0.0,-2.4270768,-0.09345475,-0.778542,-3.2686472,-0.35254955,-1.8246651,5.647111,-0.5840659,-0.042676926,3.2693653
-7.369622,31.255104,7.54818,20.008701,1.1832131,-0.26883292,-0.20376909,-0.7693632,0.7912013,0.48949066,-0.3807565,0.6590377,0.63116527,0.11923137,1.2818747,-0.58129203,-1.6650523,-1.0689088,2.3198946,1.39948,-1.0222442,1.3453661,-0.6461204,-1.704869,-1.0387219,2.2636955,1.3409239,-1.0354244,-1.353619,1.4274778,0.9060759,-0.7693119,0.9686291,0.45626673,-0.11615988,1.7425079,-0.30892563,1.3426361,-3.4562151,-0.23793797,1.3845065,0.24868011,-0.4303856,0.95815206,0.76334363,-0.07207941,0.079884656,0.636969,-0.30445442,0.77953935,0.5048981,1.0,0.0,0.0,0.0,0.0,0.0,0.0,-2.392508,-0.09107438,-0.7926361,-3.6324263,-0.69515705,-2.9145122,7.828462,-0.7067323,0.046736002,3.8065865
-7.273011,29.846672,7.2436204,20.490986,1.249396,-0.29804415,-0.20667231,-0.7780374,0.78476477,0.47512814,-0.33554706,0.65429217,0.6366789,0.19198374,1.2675624,-0.56764394,-1.6573563,-1.0722766,2.3291247,1.4045918,-1.0162259,1.331616,-0.63193166,-1.6960475,-1.0457314,2.273301,1.3454863,-1.0362731,-1.3829178,1.4164956,0.8738028,-0.67917675,0.95877504,0.45656264,-0.07474286,1.7079697,-0.311306,1.3557343,-3.4527595,-0.23770009,1.2849363,0.24543762,-0.42277145,0.9632116,0.76301724,-0.07725318,0.08045205,0.636682,-0.3214145,0.757505,0.49910524,1.0,0.0,0.0,0.0,0.0,0.0,0.0,-2.3579698,-0.088694006,-0.80573434,-3.1293154,-0.9499788,-3.2822013,8.742642,-0.6919503,0.10700226,4.081334
-9.48542,28.457594,6.9027085,23.237305,1.527474,-0.200699,-0.26525158,-0.792293,0.7762785,0.4544314,-0.2439103,0.6493751,0.6533872,0.28147483,1.2523867,-0.5543038,-1.6506044,-1.0701225,2.3382385,1.410825,-1.0081257,1.3175932,-0.6178726,-1.6875789,-1.0516099,2.2828147,1.3500639,-1.0366813,-1.4096447,1.4029034,0.8376403,-0.55835056,0.9499201,0.4583266,-0.029689042,1.6734619,-0.31367874,1.3678377,-3.4493074,-0.23746245,1.1854656,0.24195862,-0.4154129,0.96827185,0.76290816,-0.082532704,0.081051536,0.63607395,-0.34804356,0.73157376,0.5014723,1.0,0.0,0.0,0.0,0.0,0.0,0.0,-2.323462,-0.086321265,-0.81783766,-2.885437,-1.2117386,-3.6751747,11.797547,-0.5740762,0.22301674,4.434835
-12.675421,27.698996,6.6789126,27.268867,1.8712332,-0.042452544,-0.38873276,-0.804465,0.7715878,0.42138872,-0.12338357,0.6404045,0.65571105,0.30680656,1.2371467,-0.5407138,-1.6454401,-1.0639483,2.3468552,1.415635,-1.0060006,1.3033224,-0.6039432,-1.6795471,-1.0559472,2.292237,1.3546568,-1.0366622,-1.4334922,1.3899956,0.791594,-0.3931264,0.9405601,0.45984283,0.012137395,1.6389999,-0.31605148,1.378947,-3.445859,-0.23722504,1.0860944,0.2381134,-0.408329,0.9734466,0.7631064,-0.08805045,0.081627525,0.6350217,-0.38815767,0.702041,0.51614624,1.0,0.0,0.0,0.0,0.0,0.0,0.0,-2.289,-0.08394852,-0.828947,-2.6168585,-1.1420488,-4.6755075,16.222221,-0.5948067,0.15339255,4.1042438
-14.570883,28.675394,7.285709,31.138292,2.1449475,0.14652795,-0.49014544,-0.8053545,0.7699086,0.3868619,0.015744291,0.6322263,0.66141194,0.35362196,1.222787,-0.5269524,-1.6408609,-1.0543728,2.3554597,1.4207981,-1.0013,1.2888819,-0.5901178,-1.6720455,-1.058276,2.3015602,1.3592669,-1.036235,-1.4483202,1.3805761,0.73598766,-0.18046929,0.9308916,0.4612226,0.052482165,1.6045685,-0.31842422,1.3890634,-3.4424138,-0.23698787,0.9868224,0.2337799,-0.4015503,0.9788731,0.76369214,-0.09397394,0.08213051,0.63340175,-0.4401929,0.67339766,0.5451041,1.0,0.0,0.0,0.0,0.0,0.0,0.0,-2.2545686,-0.08157578,-0.83906335,-1.7117977,-0.7931709,-5.665469,20.972672,-0.58664083,0.091427565,3.9516046
-10.211398,25.381033,5.674702,25.107748,1.6125337,-0.27359658,-0.4008873,-0.8179027,0.7642884,0.32395577,-0.0031437746,0.62742597,0.664049,0.33420387,1.2070916,-0.513689,-1.6396499,-1.0585904,2.3643029,1.4256718,-1.0028145,1.2743021,-0.57638013,-1.6652782,-1.0589703,2.310788,1.3638941,-1.0354644,-1.461827,1.3719332,0.6567324,-0.033179898,0.9210899,0.46307456,0.08511728,1.5701675,-0.32078934,1.3981878,-3.438972,-0.23675095,0.88764983,0.22910309,-0.39504623,0.9844238,0.7646365,-0.10015253,0.08265878,0.6312432,-0.46994284,0.6459171,0.55235016,1.0,0.0,0.0,0.0,0.0,0.0,0.0,-2.2201676,-0.07921067,-0.84818774,-1.5307903,-0.74038506,-7.993388,14.47441,-0.67858696,0.18248558,3.195539
-5.1438007,26.325588,6.218459,20.578835,1.1386994,-0.5063673,-0.28104797,-0.8168315,0.7641562,0.2911721,0.034826193,0.6216673,0.66484624,0.35970983,1.192619,-0.4999645,-1.636161,-1.0554878,2.3729546,1.4303787,-0.9994934,1.2596384,-0.5627035,-1.6593177,-1.0585393,2.3199203,1.3685385,-1.0343887,-1.4683137,1.3666811,0.57577485,0.06791548,0.91135895,0.46516812,0.11466078,1.5357971,-0.32315445,1.406321,-3.4355338,-0.23651426,0.78857636,0.22423553,-0.38877106,0.98996013,0.7658425,-0.10642032,0.0833134,0.6286643,-0.48140875,0.62588465,0.5483779,1.0,0.0,0.0,0.0,0.0,0.0,0.0,-2.1857972,-0.07684556,-0.85632104,-0.7876396,-0.41751862,-8.141804,9.892668,-0.7128835,0.24760365,2.888575
-3.9206905,21.721256,4.211342,17.462841,0.97200894,-0.7981416,-0.24734353,-0.8207145,0.74955916,0.22170518,0.07260381,0.62104684,0.6667581,0.36310437,1.177567,-0.48774758,-1.6371472,-1.051279,2.382025,1.4352143,-0.9980782,1.244929,-0.5491241,-1.6542976,-1.0573491,2.3289688,1.3732077,-1.0330516,-1.472058,1.3552866,0.4771961,0.13543208,0.903639,0.46752036,0.13982758,1.5014725,-0.32551956,1.4134644,-3.4320989,-0.23627779,0.68960196,0.2193451,-0.3827362,0.9953562,0.7672739,-0.11262672,0.0841504,0.6257192,-0.48273432,0.59967387,0.5312226,1.0,0.0,0.0,0.0,0.0,0.0,0.0,-2.1514726,-0.074480444,-0.8634644,-0.48372746,-1.0404587,-9.895611,6.5373497,-0.5540371,0.3045678,2.456674
-3.6358252,19.286299,3.0569293,16.143711,0.87358516,-0.9515995,-0.2520511,-0.82482755,0.7451134,0.15464841,0.10832134,0.60799736,0.67131615,0.37060133,1.1624463,-0.47461277,-1.6388328,-1.0465169,2.3897686,1.4403393,-0.99599147,1.230187,-0.5356649,-1.6503665,-1.0556115,2.3379219,1.3779017,-1.0314895,-1.4753052,1.3431858,0.36501586,0.18590494,0.89317906,0.47018132,0.16152476,1.4671783,-0.32788086,1.4196188,-3.4286675,-0.23604155,0.5907265,0.21448517,-0.37699127,1.0005345,0.7689394,-0.1186683,0.08521948,0.6224048,-0.47927603,0.57043165,0.50830907,1.0,0.0,0.0,0.0,0.0,0.0,0.0,-2.1171784,-0.07211915,-0.86961883,-0.420928,-1.1171579,-11.249763,4.8351436,-0.84819794,0.34451485,2.1122396
-1.5115366,14.485738,0.5949571,11.162025,0.52481,-1.3866769,-0.19813544,-0.8221072,0.73698705,0.05273846,0.063940994,0.60190135,0.678247,0.38356936,1.1479764,-0.46196622,-1.6450927,-1.0492173,2.398112,1.4457264,-0.99313253,1.2154394,-0.5223383,-1.6477878,-1.0537766,2.3467681,1.3826262,-1.0297252,-1.4747798,1.3293753,0.22206658,0.18214774,0.88208055,0.4737697,0.18101554,1.4329147,-0.33023834,1.4247853,-3.4252396,-0.23580554,0.49194995,0.20980072,-0.37159348,1.0053369,0.77083194,-0.12433257,0.086629406,0.6187526,-0.45816213,0.5332361,0.46620393,1.0,0.0,0.0,0.0,0.0,0.0,0.0,-2.0829148,-0.06976166,-0.87478524,0.00333786,-1.291275,-14.326614,-0.5799055,-0.9682417,0.49489737,1.9043446
8.413778,13.745279,0.5542588,-1.4939551,-0.5352577,-2.0480192,0.15994501,-0.82752764,0.71956515,0.033130508,-0.13760598,0.5888937,0.6738811,0.39461777,1.1326866,-0.45038176,-1.6444747,-1.0675372,2.4056575,1.4500142,-0.9902634,1.2006842,-0.50920045,-1.6464431,-1.0530633,2.355477,1.3873888,-1.0277816,-1.475642,1.308886,0.10547287,0.03389061,0.86720276,0.478096,0.19867344,1.3986816,-0.33259583,1.4289646,-3.421815,-0.23556978,0.39327213,0.20565033,-0.36654282,1.0094367,0.7727466,-0.12920205,0.08852445,0.61508775,-0.39127785,0.4998429,0.38708985,1.0,0.0,0.0,0.0,0.0,0.0,0.0,-2.0486817,-0.06740418,-0.8789646,-0.048923492,-1.9582033,-11.643325,-14.967224,-1.4722347,0.7195115,1.740554
18.866331,19.763988,4.089129,-10.684044,-1.4552646,-2.3513808,0.5361806,-0.8193999,0.7069592,0.0672787,-0.2983624,0.55717766,0.676167,0.42057902,1.1187443,-0.43850452,-1.6397153,-1.0828996,2.4111948,1.4550055,-0.98572373,1.1859652,-0.49629086,-1.6457489,-1.0546063,2.363961,1.3921992,-1.0256625,-1.4702299,1.2852805,0.0574537,-0.21724334,0.841948,0.4831534,0.21625502,1.3644943,-0.3349495,1.4321579,-3.4183939,-0.23533425,0.294693,0.20245361,-0.36170197,1.0126023,0.7743758,-0.13299483,0.09097529,0.6118644,-0.28785682,0.4818229,0.28923628,1.0,0.0,0.0,0.0,0.0,0.0,0.0,-2.0144944,-0.06505051,-0.88215786,0.6773472,-2.2571087,-4.796651,-25.15536,-2.5791526,0.88261366,1.7519444
21.799671,24.202278,6.574642,-11.709144,-1.6488917,-2.3090572,0.65031886,-0.8160386,0.7006925,0.06825319,-0.386352,0.52852684,0.6780337,0.43852928,1.1043613,-0.4262216,-1.6389235,-1.0932416,2.4168136,1.4600025,-0.9818096,1.1713206,-0.48359698,-1.6452091,-1.0587758,2.3721359,1.3970553,-1.0233737,-1.4618737,1.2644995,0.052517388,-0.48345718,0.80926526,0.48760608,0.23323429,1.3303375,-0.33729935,1.4343662,-3.4149761,-0.23509896,0.19621243,0.20036316,-0.35695648,1.0148069,0.7755639,-0.13567697,0.09396651,0.6093133,-0.17800027,0.47213024,0.19388032,1.0,0.0,0.0,0.0,0.0,0.0,0.0,-1.9803375,-0.06270066,-0.8843662,1.0286808,-1.9611359,-0.5602293,-26.598341,-3.3038259,0.7926166,1.7112404
21.350552,27.66324,8.617704,-8.916959,-1.4808627,-2.0781443,0.6534431,-0.81396776,0.6927969,0.08984351,-0.47268075,0.5040131,0.6755895,0.44934118,1.0899237,-0.41431728,-1.6362247,-1.1060438,2.422537,1.4646143,-0.9784396,1.1567599,-0.47108763,-1.64445,-1.0654191,2.3799598,1.4019457,-1.0209247,-1.4533696,1.2468765,0.083116286,-0.72435004,0.7736992,0.49050823,0.24885999,1.2962112,-0.3396492,1.4355904,-3.411562,-0.2348639,0.0978303,0.19928741,-0.3522606,1.0161502,0.7762702,-0.13736998,0.09741858,0.60748965,-0.076640315,0.4690329,0.11076668,1.0,0.0,0.0,0.0,0.0,0.0,0.0,-1.9462112,-0.060350806,-0.8855904,1.0548592,-1.634717,2.9215171,-24.037148,-3.530562,0.56996346,1.5877813
14.558655,26.122078,7.4736376,-1.4741826,-0.8165715,-1.7969456,0.40070468,-0.81647336,0.6998347,0.037734378,-0.49948922,0.50296324,0.6721563,0.44108367,1.0751126,-0.40110415,-1.6406765,-1.115368,2.4302561,1.4691614,-0.9768163,1.1422507,-0.4586646,-1.6435897,-1.0739106,2.3874938,1.4068533,-1.018346,-1.4497736,1.2411704,0.08669033,-0.89060706,0.74679095,0.49130192,0.26106408,1.2621155,-0.34199905,1.4358315,-3.4081511,-0.2346291,-0.00045345761,0.19902802,-0.34762573,1.016812,0.77665156,-0.13826613,0.10125404,0.6061703,-0.002518724,0.45948657,0.04733963,1.0,0.0,0.0,0.0,0.0,0.0,0.0,-1.9121155,-0.058000952,-0.88583153,0.4894495,-0.4461527,0.23343116,-16.627861,-2.622497,0.24343729,1.233238
7.956088,22.738394,5.7883177,5.531326,-0.15713337,-1.5302843,0.17070097,-0.8128398,0.69415,0.010452237,-0.5196087,0.47223866,0.6744347,0.46093535,1.0609667,-0.3892496,-1.6425445,-1.1258714,2.4347177,1.4742968,-0.9722524,1.1277682,-0.4462778,-1.6428764,-1.0835122,2.3947418,1.4117628,-1.015647,-1.4477297,1.2382891,0.06601932,-0.9835938,0.71771383,0.49101973,0.2726239,1.2280655,-0.34434128,1.4350905,-3.4047437,-0.23439452,-0.09863896,0.19931793,-0.34313202,1.0169756,0.7769014,-0.13857263,0.10541373,0.6050699,0.045025904,0.44273078,0.0017689926,1.0,0.0,0.0,0.0,0.0,0.0,0.0,-1.8780655,-0.055658728,-0.88509053,0.24504662,-0.17168522,-2.14234,-9.375441,-2.8104782,0.050991774,1.1362314
2.3585436,17.993813,3.4691608,10.553242,0.41808078,-1.3919042,-0.021286558,-0.8112371,0.68949455,-0.030148521,-0.54090095,0.46743572,0.6739266,0.45048738,1.0466444,-0.37732834,-1.6458912,-1.1376023,2.4414854,1.4791555,-0.97059834,1.1132952,-0.43391913,-1.6425827,-1.0936612,2.4017456,1.4166628,-1.0128566,-1.4471986,1.2353722,0.017111467,-1.0258487,0.69475806,0.4897996,0.28098732,1.194046,-0.3466835,1.4333684,-3.4013395,-0.23416018,-0.19672628,0.1999588,-0.33888245,1.016769,0.7771914,-0.13842723,0.109831534,0.60394406,0.07160461,0.41579834,-0.032596216,1.0,0.0,0.0,0.0,0.0,0.0,0.0,-1.844046,-0.053316504,-0.88336843,0.022172928,-0.1897335,-4.898338,-4.3673754,-2.2068143,-0.10932088,0.78586936
-1.2333295,12.708577,0.9669,12.624344,0.71486527,-1.401516,-0.13235141,-0.80734277,0.6801828,-0.07876112,-0.56933343,0.42773017,0.6770391,0.46406853,1.032561,-0.36590084,-1.6504588,-1.1505945,2.4445186,1.4843668,-0.96644974,1.0988375,-0.42162484,-1.642966,-1.1040772,2.4084594,1.4215533,-1.009986,-1.4452893,1.2277461,-0.056697518,-1.0473264,0.66364795,0.48848194,0.2887395,1.1600571,-0.34902573,1.4306662,-3.397939,-0.23392607,-0.29471555,0.20074463,-0.3349762,1.0162326,0.77763844,-0.13787144,0.11449946,0.60262746,0.08801204,0.37895414,-0.065030545,1.0,0.0,0.0,0.0,0.0,0.0,0.0,-1.810057,-0.05097428,-0.8806662,0.14760494,-0.67617893,-7.354551,-2.3203611,-3.0515075,-0.15875101,0.6961942
-2.948578,9.212898,-0.5483444,13.100916,0.8630709,-1.428566,-0.16709067,-0.80927426,0.6709287,-0.11317672,-0.6006819,0.40336466,0.6761372,0.45527467,1.0179101,-0.35453197,-1.6542838,-1.1641455,2.4487958,1.489167,-0.9644586,1.0843874,-0.40944356,-1.644139,-1.1147107,2.4148376,1.4264284,-1.0070564,-1.4448338,1.215206,-0.13718635,-1.0692652,0.6293853,0.48696905,0.29421175,1.1260986,-0.35136032,1.4269848,-3.3945417,-0.23369218,-0.39260685,0.2016983,-0.3314743,1.0153601,0.77829605,-0.13688943,0.11941096,0.601047,0.09990124,0.33607677,-0.09890219,1.0,0.0,0.0,0.0,0.0,0.0,0.0,-1.7760986,-0.048639685,-0.8769848,0.010633469,-1.1787415,-8.008708,-2.3691893,-3.3922791,-0.20356178,0.45498013
-4.3429985,6.205515,-1.6850835,13.631674,0.9647519,-1.4126806,-0.1822887,-0.81033957,0.6551341,-0.1471624,-0.61465776,0.34730345,0.6811108,0.46241653,1.0033535,-0.34393016,-1.6588553,-1.1761764,2.449568,1.4945395,-0.9608147,1.0699354,-0.3974449,-1.646096,-1.1255597,2.4207656,1.4312922,-1.0040752,-1.4454875,1.1949356,-0.21516374,-1.0905783,0.58067995,0.48590672,0.29911444,1.0921783,-0.35369492,1.4223251,-3.3911479,-0.23345853,-0.49040028,0.20272064,-0.32842255,1.0141419,0.77917707,-0.13547878,0.124571614,0.59917486,0.107680805,0.28985047,-0.13356891,1.0,0.0,0.0,0.0,0.0,0.0,0.0,-1.7421783,-0.04630509,-0.8723251,-0.09148121,-1.9626856,-7.7527466,-2.3052216,-4.851544,-0.1780808,0.37994385
-5.0875626,6.622454,-1.5363647,14.992447,1.0077742,-1.3078489,-0.21241172,-0.81588066,0.654801,-0.18672436,-0.61540264,0.29904893,0.6833234,0.45460218,0.98834735,-0.3319648,-1.6647685,-1.1870999,2.4506705,1.4996245,-0.95861495,1.0554453,-0.38562125,-1.6488101,-1.136567,2.426133,1.4361483,-1.0010577,-1.4502097,1.1783504,-0.2898585,-1.1048176,0.52207804,0.48506653,0.30231106,1.0582962,-0.3560295,1.4166883,-3.3877573,-0.23322512,-0.58809596,0.2038269,-0.3258133,1.0126036,0.78029585,-0.1336783,0.13001171,0.59696347,0.111624196,0.24675144,-0.1645008,1.0,0.0,0.0,0.0,0.0,0.0,0.0,-1.7082962,-0.043970495,-0.8666883,-0.5324125,-1.6000271,-7.3878527,-1.6049623,-5.8420777,-0.17869473,0.19759536
-5.1094866,4.348795,-2.253051,14.188379,0.95107585,-1.3485644,-0.18081601,-0.80708,0.63013494,-0.22432695,-0.64267534,0.2145149,0.68496644,0.4625103,0.9747373,-0.32260776,-1.6712428,-1.2008345,2.4475844,1.5046449,-0.9548067,1.0409533,-0.37403125,-1.6522434,-1.1477879,2.4307563,1.4409968,-0.9980076,-1.4488317,1.1526909,-0.36105013,-1.1283324,0.4421909,0.48456842,0.3054723,1.0244446,-0.3583603,1.4100753,-3.3843703,-0.23299195,-0.685694,0.20496368,-0.32365036,1.0107217,0.781629,-0.13147546,0.13577408,0.5944204,0.117375344,0.20189697,-0.19980893,1.0,0.0,0.0,0.0,0.0,0.0,0.0,-1.6744446,-0.041639715,-0.8600753,0.13067722,-2.512169,-7.0813417,-2.5097847,-7.9799414,-0.1441598,0.18107295
-2.6231613,7.660068,0.08928251,14.05951,0.50977564,-1.17994,-0.09890371,-0.7981704,0.6070846,-0.20320582,-0.6497512,-0.01295868,0.68811196,0.47955438,0.9611362,-0.31332278,-1.6725639,-1.2127631,2.4294605,1.509808,-0.95005214,1.026528,-0.36275977,-1.6560924,-1.1592339,2.434018,1.4458452,-0.9949177,-1.4405055,1.118865,-0.3930431,-1.1504953,0.2875626,0.48488513,0.30964085,0.9906235,-0.36068726,1.402487,-3.3809867,-0.23275901,-0.7831944,0.20625305,-0.32180405,1.0084913,0.7830792,-0.12895331,0.1420594,0.5915886,0.13208303,0.17341408,-0.23436506,1.0,0.0,0.0,0.0,0.0,0.0,0.0,-1.6406235,-0.03931275,-0.852487,0.8296013,-3.3170462,-3.2123208,-2.3512602,-15.401411,-0.024920702,0.2607882
-5.621986,1.9500742,-2.5303187,14.845419,0.360429,-1.1731063,-0.18013223,-0.80344844,0.56675583,-0.2531903,-0.644395,-0.2965393,0.69374585,0.48731995,0.94618315,-0.3060842,-1.6814114,-1.2236735,2.4043639,1.5152198,-0.9461857,1.0121638,-0.35195512,-1.6603076,-1.1708211,2.4350402,1.4507033,-0.99178773,-1.4351965,1.0678011,-0.43111363,-1.161774,0.040094346,0.48585933,0.3134021,0.9568329,-0.36301422,1.3939245,-3.3776064,-0.2325263,-0.8805974,0.20765686,-0.32027054,1.0058789,0.7846466,-0.1261655,0.14919426,0.5883477,0.14545289,0.14229046,-0.27362853,1.0,0.0,0.0,0.0,0.0,0.0,0.0,-1.6068329,-0.036985785,-0.84392446,0.5491018,-5.0617933,-3.8206697,-1.2567043,-24.712233,0.038284063,0.1467824
-12.421221,-16.53104,-9.62331,15.172599,0.91584796,-1.3063052,-0.20057453,-0.78595704,0.43991512,-0.265781,-0.6375278,-0.56064224,0.69873774,0.49169433,0.93356806,-0.3079636,-1.6868857,-1.2345738,2.378976,1.5205771,-0.9426183,0.9979238,-0.3421747,-1.6648605,-1.1824273,2.4330757,1.4555746,-0.9886244,-1.419732,0.9481412,-0.4637955,-1.1605041,-0.27506897,0.4874038,0.31622028,0.9230881,-0.36533737,1.3843887,-3.3742294,-0.23229381,-0.977903,0.20909882,-0.3192482,1.0028021,0.7863434,-0.12309608,0.15725361,0.5846217,0.1406523,0.084122606,-0.32242668,1.0,0.0,0.0,0.0,0.0,0.0,0.0,-1.573088,-0.034662634,-0.8343887,1.7203808,-11.9681835,-3.411603,0.036382675,-31.505596,0.101071596,-0.031375885
-23.072426,-39.721172,-19.487133,17.020788,2.243641,-1.4900842,-0.2672256,-0.7860307,0.3062587,-0.31717965,-0.6204863,-0.6397902,0.7007938,0.5157004,0.9193207,-0.31154883,-1.6965785,-1.244476,2.3690968,1.525654,-0.93705434,0.98382944,-0.33409852,-1.6698883,-1.1939019,2.428189,1.4604613,-0.9854229,-1.4050324,0.76054746,-0.51650715,-1.14326,-0.55974513,0.48848757,0.32033843,0.8893738,-0.3676567,1.3738806,-3.3708558,-0.23206156,-1.0751113,0.21016693,-0.31913376,0.9992008,0.7882348,-0.119649395,0.16588771,0.5803888,0.09707995,-0.01805345,-0.37576532,1.0,0.0,0.0,0.0,0.0,0.0,0.0,-1.5393738,-0.0323433,-0.8238806,1.785326,-18.83546,-5.486721,1.672554,-28.517605,0.00013709068,0.04262328
-44.26782,-88.29917,-41.250103,16.252352,4.6081305,-2.2081015,-0.4249026,-0.79207826,0.039375044,-0.44294378,-0.64269245,-0.6801417,0.70634544,0.4906106,0.9046216,-0.330161,-1.7141826,-1.2581711,2.360175,1.5310957,-0.93636185,0.96984285,-0.32888716,-1.6759574,-1.2052945,2.4209564,1.4653517,-0.9822071,-1.3941574,0.44057655,-0.63852715,-1.1376321,-0.77809334,0.48845607,0.3204397,0.85569,-0.36997604,1.362401,-3.3674855,-0.23182955,-1.1722224,0.21031189,-0.32078552,0.9948734,0.790553,-0.11545314,0.17434317,0.5755875,-0.015310759,-0.21808629,-0.45433223,1.0,0.0,0.0,0.0,0.0,0.0,0.0,-1.50569,-0.030023962,-0.812401,1.8329382,-32.21581,-12.669241,0.6706238,-22.004974,-0.2617836,-0.4667163
-57.18739,-119.88278,-54.312267,15.065082,6.393364,-2.5306711,-0.3617989,-0.7932986,-0.22780392,-0.46051788,-0.6733299,-0.6658771,0.702596,0.45708278,0.890513,-0.35166755,-1.7220092,-1.2726275,2.3543687,1.5356113,-0.9364988,0.9559373,-0.327686,-1.6832168,-1.2167939,2.4121978,1.4702269,-0.9790161,-1.3856086,0.012185487,-0.75769836,-1.1528904,-0.9093858,0.4855928,0.3172346,0.82203674,-0.37229538,1.349951,-3.3641188,-0.23159778,-1.2692364,0.20894623,-0.32488632,0.9896431,0.7934196,-0.11018327,0.1817086,0.5703743,-0.18206322,-0.47671354,-0.54783535,1.0,0.0,0.0,0.0,0.0,0.0,0.0,-1.4720367,-0.027704626,-0.799951,1.9528389,-43.1663,-12.662279,-1.1312723,-13.346386,-0.77313185,-0.746119
-50.14418,-113.71678,-47.825233,11.815137,6.4551854,-2.1185942,0.14075229,-0.77629054,-0.45684415,-0.29541916,-0.74042827,-0.6362056,0.6835221,0.4842574,0.8783083,-0.37337044,-1.7127588,-1.2908367,2.3485773,1.5385791,-0.9305904,0.9421701,-0.33109063,-1.6906307,-1.2287701,2.4027069,1.4750506,-0.9758232,-1.3700032,-0.45910916,-0.7389257,-1.2104576,-0.9624938,0.47910592,0.31940487,0.788414,-0.3746071,1.3365316,-3.3607554,-0.23136623,-1.3661535,0.20590973,-0.3313942,0.9834673,0.7965506,-0.10382356,0.18722294,0.56539845,-0.34974346,-0.71006584,-0.64234054,1.0,0.0,0.0,0.0,0.0,0.0,0.0,-1.438414,-0.02539292,-0.7865316,2.6771784,-47.459705,0.96532106,-5.113077,-5.461335,-1.3068318,0.07004142
-17.94262,-54.56535,-14.655973,10.702813,4.3790383,-0.5317682,0.9805682,-0.7543085,-0.56676745,0.10101401,-0.78623474,-0.6107975,0.6773496,0.5168296,0.8667392,-0.38776737,-1.6805292,-1.3073936,2.3416271,1.5427855,-0.9241403,0.9286155,-0.3386628,-1.6956813,-1.241517,2.3930938,1.4798189,-0.97255975,-1.3485315,-0.8571618,-0.43006414,-1.2942688,-0.9604771,0.47457603,0.3296211,0.75483704,-0.3769188,1.3221438,-3.3573954,-0.2311349,-1.4629736,0.20172119,-0.33922577,0.9766189,0.7991979,-0.096963786,0.19054635,0.5617585,-0.44779253,-0.8043295,-0.70087934,1.0,0.0,0.0,0.0,0.0,0.0,0.0,-1.404837,-0.023081213,-0.7721438,2.759266,-39.978207,30.044329,-7.874012,0.28262138,-0.87976456,1.3175845
6.226515,-4.5011525,10.683083,11.881043,2.5135057,0.5621594,1.3265563,-0.7039139,-0.6533616,0.268992,-0.78988636,-0.5972481,0.66341037,0.5275396,0.8582241,-0.40399897,-1.6687821,-1.3205056,2.333369,1.54616,-0.91980577,0.9154615,-0.349405,-1.6968181,-1.2550038,2.3837059,1.4845549,-0.9691761,-1.30324,-1.1466506,-0.0108726295,-1.3662287,-0.9310314,0.472994,0.34296802,0.7212906,-0.3792305,1.3067887,-3.3540387,-0.23090382,-1.5596969,0.19704437,-0.34723663,0.9694559,0.8008363,-0.09026408,0.19181764,0.5601066,-0.48147523,-0.79340523,-0.7238624,1.0,0.0,0.0,0.0,0.0,0.0,0.0,-1.3712906,-0.020769507,-0.7567887,4.8568487,-28.9757,41.077007,-6.9456816,3.1857252,-0.2246499,1.849103
8.054334,9.28484,12.957152,13.357758,1.7986212,0.42289245,0.95981824,-0.63835794,-0.7311575,0.12525766,-0.7860341,-0.60579556,0.6303,0.50073916,0.8516257,-0.42252076,-1.6842923,-1.3336072,2.3231263,1.5475849,-0.9191022,0.9030084,-0.36231154,-1.6950481,-1.2689961,2.374604,1.4892584,-0.96569234,-1.2250537,-1.338642,0.23727524,-1.4095104,-0.90248615,0.4697481,0.35152367,0.68777466,-0.38153458,1.290467,-3.3506854,-0.23067297,-1.6563236,0.19217682,-0.3550644,0.9621063,0.8015863,-0.08386056,0.19155453,0.5601194,-0.49451035,-0.7720951,-0.74074364,1.0,0.0,0.0,0.0,0.0,0.0,0.0,-1.3377746,-0.01846543,-0.740467,8.082724,-19.202805,24.128786,-4.1489363,3.0154824,-0.3029406,1.2725949
3.7775447,11.437421,7.876992,13.644754,1.3896012,-0.19016296,0.43769988,-0.5380696,-0.76156944,-0.07614258,-0.7841745,-0.6073743,0.6266438,0.48762393,0.84920144,-0.4384685,-1.7026623,-1.3474135,2.3138666,1.5519228,-0.91692996,0.8916921,-0.3764493,-1.6927459,-1.2832173,2.3657272,1.4939295,-0.9621561,-1.1003715,-1.4388707,0.22690591,-1.4256539,-0.88264126,0.4662005,0.35509264,0.65428925,-0.38383865,1.2731798,-3.3473353,-0.23044235,-1.7528535,0.18721771,-0.36286545,0.9545101,0.80187064,-0.07751479,0.19041112,0.56101555,-0.4988232,-0.7727675,-0.7675322,1.0,0.0,0.0,0.0,0.0,0.0,0.0,-1.3042892,-0.016161352,-0.72317976,12.516141,-10.04622,-1.2849599,-1.4283419,1.9756913,-0.3711939,0.5856931
-4.5969214,5.2820783,-1.3918998,13.28013,1.3004167,-0.92254156,-0.07507378,-0.46484005,-0.77189016,-0.303997,-0.7893244,-0.6198186,0.6388532,0.49893004,0.8452081,-0.45363832,-1.7231456,-1.3621497,2.3037453,1.5578148,-0.9122631,0.8817739,-0.39107245,-1.6923606,-1.2974881,2.356942,1.498572,-0.958597,-0.95594007,-1.4703605,-0.023637237,-1.4266855,-0.87778753,0.46292323,0.35635513,0.62083435,-0.38614273,1.2549279,-3.3439887,-0.23021194,-1.849287,0.18218994,-0.3709526,0.94649404,0.8021621,-0.07080969,0.1889933,0.56196386,-0.50735676,-0.81054294,-0.8146998,1.0,0.0,0.0,0.0,0.0,0.0,0.0,-1.2708343,-0.013857275,-0.70492786,14.3432255,-3.2293081,-24.904327,0.14669895,0.27993917,-0.4844904,0.1567781
-5.573354,7.770286,-2.4000516,13.603415,1.1691148,-1.0676706,-0.23769066,-0.39392596,-0.7839145,-0.38616762,-0.7771056,-0.6051793,0.6335363,0.4852539,0.8423813,-0.4694639,-1.7309774,-1.3751986,2.296424,1.5619256,-0.9100716,0.8733329,-0.40574425,-1.6949985,-1.3116502,2.3482025,1.5031782,-0.9550436,-0.8072432,-1.4664297,-0.34307906,-1.4120011,-0.8738885,0.4593422,0.35487866,0.58742523,-0.388443,1.2357124,-3.3406453,-0.22998178,-1.9456241,0.1770935,-0.37945175,0.93798476,0.80267864,-0.063545115,0.18759942,0.56256133,-0.5139565,-0.8532125,-0.86570364,1.0,0.0,0.0,0.0,0.0,0.0,0.0,-1.2374252,-0.011557013,-0.6857124,14.743829,0.29747486,-31.687546,1.7252684,0.13411045,-0.5387008,-0.18142462
-8.8441,10.908068,-1.6403575,16.577797,1.3224268,-0.66184616,-0.32054996,-0.44638982,-0.78856784,-0.38743067,-0.7785734,-0.61139405,0.6347054,0.45939663,0.8286939,-0.48460105,-1.7337415,-1.3895075,2.2870631,1.5666487,-0.90910393,0.8657808,-0.42027205,-1.7003467,-1.3256596,2.339463,1.5077559,-0.95152646,-0.7373632,-1.448636,-0.5988622,-1.3960365,-0.8752956,0.45668226,0.3505224,0.55404663,-0.39073944,1.2155343,-3.3373053,-0.22975186,-2.0418649,0.17182922,-0.3882866,0.92902654,0.80348814,-0.05575064,0.18632008,0.5626574,-0.53352475,-0.883948,-0.909398,1.0,0.0,0.0,0.0,0.0,0.0,0.0,-1.2040466,-0.009260565,-0.6655343,7.153678,1.6625404,-25.58837,1.8998861,-0.42278767,-0.40775537,-0.46927333
-1.3987246,24.125515,7.6471314,17.05893,0.93922484,-0.037356675,-0.06459936,-0.4087211,-0.7945263,-0.33316526,-0.78156835,-0.6108224,0.6334565,0.4627706,0.8249087,-0.4997247,-1.7336632,-1.4038165,2.2783809,1.5711015,-0.9052494,0.85871786,-0.43463534,-1.7072132,-1.3395547,2.3307045,1.5123163,-0.9480465,-0.6953208,-1.4324847,-0.71637833,-1.3865535,-0.8768788,0.45575097,0.3474035,0.52069855,-0.3930359,1.1943945,-3.3339686,-0.22952214,-2.1380093,0.1664505,-0.39714432,0.91976166,0.804398,-0.04767564,0.18508394,0.5625076,-0.5396959,-0.8770705,-0.9365811,1.0,0.0,0.0,0.0,0.0,0.0,0.0,-1.1706985,-0.0069641173,-0.64439446,4.4027925,1.5368938,-11.909676,1.1715174,-0.3537178,-0.10175109,-0.26729107
2.6248555,33.19792,14.37167,18.547466,0.8092911,0.52826965,0.10261584,-0.4188611,-0.7963076,-0.29188633,-0.7765058,-0.6072956,0.6219262,0.46292588,0.81683177,-0.51426613,-1.7364018,-1.4172052,2.269975,1.5745089,-0.9017539,0.8517961,-0.4488818,-1.7143562,-1.3533734,2.321942,1.5168673,-0.9445904,-0.6901904,-1.4222143,-0.7145976,-1.3797277,-0.8764743,0.45525855,0.34550628,0.48738098,-0.39533234,1.172294,-3.3306353,-0.22929266,-2.2340574,0.16107178,-0.40572357,0.91035795,0.8052051,-0.039605793,0.1837757,0.56240785,-0.54080606,-0.84220284,-0.9462278,1.0,0.0,0.0,0.0,0.0,0.0,0.0,-1.137381,-0.0046676695,-0.622294,0.7655144,0.9763241,-0.11743307,0.8578539,-0.097477436,0.060802698,-0.07582307
3.7374568,36.401226,17.163162,19.185493,0.8157826,0.8086622,0.17807114,-0.42861906,-0.801194,-0.27687147,-0.77878493,-0.6017658,0.6138613,0.4475248,0.8089342,-0.52900124,-1.7420434,-1.4312519,2.2617655,1.5782534,-0.8998379,0.8447532,-0.46309108,-1.7210166,-1.3671635,2.3132064,1.5214125,-0.9411581,-0.70793164,-1.420619,-0.65110123,-1.3784392,-0.8730244,0.45470974,0.3429903,0.45409393,-0.39762115,1.1492337,-3.3273053,-0.22906342,-2.3300097,0.15566254,-0.41387558,0.9009216,0.8058108,-0.031714365,0.1822974,0.5625217,-0.5414902,-0.7961864,-0.9473126,1.0,0.0,0.0,0.0,0.0,0.0,0.0,-1.1040939,-0.0023788512,-0.5992337,-1.4862657,0.12242794,5.9732676,0.29349327,0.23748875,0.10648966,-0.09625554
-2.1624014,27.619051,11.144659,18.68583,1.129119,0.5206745,0.042831264,-0.42416647,-0.80915684,-0.39033845,-0.7812927,-0.60738796,0.6032042,0.43944827,0.8023366,-0.54400676,-1.7600505,-1.4452928,2.2524676,1.5817329,-0.8972133,0.8375196,-0.47735375,-1.7274997,-1.3809708,2.304486,1.5259386,-0.93775636,-0.7275568,-1.4284182,-0.6485322,-1.3806646,-0.8722461,0.45214945,0.3396224,0.42085266,-0.39990997,1.1252147,-3.3239787,-0.2288344,-2.425866,0.15015411,-0.42173004,0.891377,0.8063095,-0.02388037,0.18063623,0.5627301,-0.5554795,-0.7726835,-0.9608873,1.0,0.0,0.0,0.0,0.0,0.0,0.0,-1.0708526,-9.0032816e-05,-0.5752147,-1.6470671,-0.85015297,-0.08815527,0.01449585,-0.08175373,-0.20188689,-0.21702647
-13.8071575,13.66213,0.70013595,19.212097,1.7831038,0.14750946,-0.23890422,-0.46831137,-0.81676245,-0.5162026,-0.78452396,-0.59370315,0.57749104,0.386761,0.79068846,-0.55903,-1.77912,-1.4594232,2.2451158,1.5836878,-0.8990803,0.82991976,-0.49174374,-1.7346714,-1.3948144,2.2958,1.5304133,-0.93442804,-0.7694626,-1.4429662,-0.7413729,-1.3845378,-0.86788106,0.445422,0.33070746,0.3876419,-0.4021988,1.1002377,-3.3206553,-0.22860561,-2.5216262,0.14428711,-0.42961502,0.88154954,0.80695957,-0.015806839,0.17879607,0.56267077,-0.5991522,-0.7834931,-0.99397534,1.0,0.0,0.0,0.0,0.0,0.0,0.0,-1.0376419,0.0021987855,-0.5502377,-3.767836,-1.5944958,-9.614695,-0.013017654,0.16363859,-0.7862508,-0.8324802
-24.542856,4.5841517,-6.947644,20.760132,2.3994908,0.0661186,-0.48688227,-0.54606986,-0.81906426,-0.5906945,-0.7898743,-0.5656322,0.55396736,0.30459887,0.7753128,-0.5736502,-1.7937407,-1.4738019,2.2392368,1.58581,-0.90396816,0.8215932,-0.5062792,-1.7431705,-1.4087113,2.287236,1.5347983,-0.93124944,-0.8517619,-1.4577603,-0.8874198,-1.3898257,-0.8537771,0.43535736,0.31365678,0.35446167,-0.40447998,1.074304,-3.3173354,-0.22837706,-2.6172907,0.13775635,-0.43775558,0.87130183,0.8080179,-0.0072411355,0.17674689,0.56197435,-0.67300737,-0.81414497,-1.0391039,1.0,0.0,0.0,0.0,0.0,0.0,0.0,-1.0044616,0.0044799745,-0.524304,-7.6541305,-1.6865253,-14.980102,-0.021600723,1.0316133,-1.2464762,-1.6840339
-33.86947,2.419621,-10.559055,24.496716,2.9048688,0.38552877,-0.7229563,-0.65352154,-0.81022555,-0.6414591,-0.76980174,-0.5726034,0.575512,0.19948846,0.7562411,-0.58730173,-1.8073164,-1.4856915,2.2299757,1.5923494,-0.9113006,0.81204504,-0.5208904,-1.7531917,-1.422553,2.2787788,1.5391012,-0.9283131,-0.9866769,-1.4632035,-1.041791,-1.3802062,-0.844348,0.42761657,0.28688422,0.32131195,-0.40676117,1.0474142,-3.3140187,-0.22814873,-2.7128599,0.13027191,-0.44621658,0.8606265,0.8096875,0.001870358,0.1745131,0.5603104,-0.7749019,-0.8451391,-1.0813924,1.0,0.0,0.0,0.0,0.0,0.0,0.0,-0.9713119,0.0067611635,-0.49741417,-12.74333,-0.81386566,-15.883196,1.578474,0.47187805,-1.0715485,-2.6868463
-35.121353,7.48268,-8.3618555,25.78699,2.978266,0.7746968,-0.7473102,-0.7251716,-0.8023074,-0.6709811,-0.7671587,-0.53231364,0.579193,0.10508406,0.7395279,-0.6011212,-1.8202899,-1.4992688,2.2255473,1.5970205,-0.91780466,0.80100435,-0.5354826,-1.7645481,-1.4362706,2.2705123,1.5433394,-0.92569906,-1.1405612,-1.4588399,-1.1682777,-1.3668805,-0.8224601,0.42143688,0.25299713,0.28819275,-0.40904236,1.0195695,-3.3107054,-0.22792062,-2.8083332,0.12172699,-0.45488358,0.8495897,0.81201714,0.011450138,0.17205688,0.5575782,-0.88364816,-0.8616718,-1.1158575,1.0,0.0,0.0,0.0,0.0,0.0,0.0,-0.9381927,0.009042352,-0.4695695,-14.602637,0.14426708,-13.108897,1.9675732,1.6936779,-0.9241462,-3.3854067
-29.478674,19.363977,-0.5471895,26.622108,2.7144802,1.2980425,-0.6619497,-0.7766793,-0.7921824,-0.65197474,-0.74070877,-0.49791557,0.5733665,-0.079094656,0.7233364,-0.6147008,-1.8297455,-1.5103415,2.2207208,1.6006761,-0.93360853,0.7884988,-0.5499622,-1.7766769,-1.4497498,2.262551,1.5475241,-0.92353326,-1.2849337,-1.4452424,-1.2290273,-1.3398718,-0.7891532,0.41680226,0.20462272,0.25510406,-0.41131973,0.99077076,-3.3073955,-0.22769275,-2.903711,0.11218262,-0.46352005,0.838363,0.8149211,0.021248119,0.16931376,0.55388165,-0.9803943,-0.8500469,-1.1300087,1.0,0.0,0.0,0.0,0.0,0.0,0.0,-0.90510404,0.011319727,-0.44077075,-13.756943,1.0934114,-6.477833,3.2447577,2.9006839,-0.6739378,-4.790804
-21.439796,29.891737,7.0332074,25.846987,2.349098,1.5809675,-0.53676075,-0.8017106,-0.78387964,-0.6564016,-0.7148169,-0.44136646,0.5377293,-0.2590028,0.7083278,-0.6283502,-1.8423171,-1.5212315,2.2184143,1.601297,-0.94943357,0.7748155,-0.5642702,-1.7890785,-1.4628781,2.2550552,1.5516478,-0.9219492,-1.3944864,-1.4266522,-1.2447376,-1.3022562,-0.73762935,0.41048768,0.14330882,0.22206116,-0.4135933,0.961019,-3.3040888,-0.22746511,-2.9989936,0.10182953,-0.4718895,0.82711315,0.8182738,0.031015491,0.16620365,0.54940176,-1.0569092,-0.8180916,-1.1282508,1.0,0.0,0.0,0.0,0.0,0.0,0.0,-0.87206113,0.013593286,-0.41101897,-10.452342,1.6402006,-1.8671036,4.181838,4.816818,-0.74560046,-6.040573
-13.763319,40.223236,14.663136,26.60313,2.035069,1.8948662,-0.43819228,-0.8224009,-0.77312803,-0.63038135,-0.65004855,-0.42050245,0.5423058,-0.37138656,0.6925754,-0.641583,-1.8521166,-1.5278829,2.2130048,1.6058784,-0.95908785,0.7603149,-0.57836837,-1.8013046,-1.475396,2.248078,1.5557238,-0.92101365,-1.4675165,-1.4047334,-1.2159338,-1.2338973,-0.68513095,0.4067322,0.07734602,0.18904877,-0.41586685,0.9303151,-3.3007853,-0.22723769,-3.0941808,0.09085846,-0.479805,0.8160478,0.8219547,0.040453143,0.16271634,0.54431367,-1.1133153,-0.76776326,-1.1041201,1.0,0.0,0.0,0.0,0.0,0.0,0.0,-0.83904874,0.015866846,-0.38031507,-6.9815397,2.0279884,2.7053833,7.1169853,5.0329804,-0.35468936,-6.482205
-9.023855,46.44186,19.236298,27.844894,1.9468058,2.0313797,-0.39702678,-0.8340851,-0.7615638,-0.6204149,-0.5740068,-0.3734043,0.5274604,-0.42761937,0.67690635,-0.65452474,-1.8633461,-1.5327967,2.2107377,1.6084698,-0.9637756,0.7453317,-0.5922367,-1.8131206,-1.4869698,2.2416732,1.5597616,-0.920718,-1.5079252,-1.3812114,-1.1702981,-1.1312522,-0.6260194,0.40315697,0.014029505,0.1560669,-0.4181404,0.89866,-3.297485,-0.2270105,-3.189273,0.07942963,-0.48719025,0.8053542,0.8258999,0.049317885,0.15886363,0.53872,-1.1576188,-0.7115289,-1.0621667,1.0,0.0,0.0,0.0,0.0,0.0,0.0,-0.8060669,0.018140405,-0.34866,-3.8490772,2.226591,4.4943094,10.450172,5.7762027,-0.25487542,-6.2119956
-7.1784434,41.30839,16.625578,23.396322,1.7039652,1.6244558,-0.31432536,-0.83145124,-0.7752821,-0.67349184,-0.581642,-0.34429562,0.540338,-0.48082733,0.66218656,-0.6697649,-1.8804698,-1.5451341,2.2072437,1.6137954,-0.9688007,0.73016924,-0.6059877,-1.8247745,-1.497712,2.2358367,1.5637747,-0.92102796,-1.5185026,-1.3735098,-1.1638055,-1.0545163,-0.5696839,0.40076414,-0.045498572,0.12311554,-0.42040634,0.8660547,-3.2941883,-0.22678353,-3.2842703,0.067611694,-0.49409866,0.79491735,0.8300556,0.05771277,0.15463,0.5326974,-1.1940671,-0.66792846,-1.0416739,1.0,0.0,0.0,0.0,0.0,0.0,0.0,-0.7731155,0.020406336,-0.3160547,-0.9077549,0.6540537,0.5973339,7.881999,5.51095,-0.21234155,-5.8365602
-4.9522443,34.73174,13.233408,16.303349,1.2284145,1.1449754,-0.15777797,-0.82922214,-0.78945136,-0.70842224,-0.6255936,-0.32567692,0.5416819,-0.50516045,0.647247,-0.6849329,-1.8956168,-1.5602714,2.203269,1.6179429,-0.971544,0.71503824,-0.61978835,-1.8366363,-1.5081395,2.2305,1.5677649,-0.92188245,-1.5108993,-1.3826473,-1.1938642,-1.0378548,-0.5220758,0.39811555,-0.0983953,0.0901947,-0.42267227,0.8325002,-3.2908947,-0.2265568,-3.3791723,0.055488586,-0.50063705,0.7844256,0.8343164,0.065954044,0.14997874,0.5263767,-1.2192945,-0.6341749,-1.0556294,1.0,0.0,0.0,0.0,0.0,0.0,0.0,-0.7401947,0.022672266,-0.2825002,0.9003639,-1.0238886,-3.0943632,1.9186735,4.624748,-0.32936335,-5.16797
-3.1590738,34.208935,13.2132435,13.61064,0.910782,1.060859,-0.07837542,-0.82812756,-0.790119,-0.7078284,-0.6082155,-0.32935032,0.5608727,-0.5209845,0.6322255,-0.69880027,-1.9074192,-1.568961,2.1975648,1.6238521,-0.9739809,0.7000341,-0.6337139,-1.8488376,-1.5185364,2.2255065,1.5717436,-0.92321473,-1.4965125,-1.3962346,-1.2292831,-1.0394192,-0.49185118,0.39763007,-0.14442052,0.057304382,-0.4249382,0.79799736,-3.2876046,-0.22633028,-3.4739797,0.04320526,-0.50683975,0.77371913,0.83859164,0.07419214,0.14494762,0.5198555,-1.2358587,-0.59889346,-1.0796283,0.0,1.0,0.0,0.0,0.0,0.0,0.0,-0.70730436,0.024938196,-0.24799734,1.5613079,-1.461649,-3.6360025,0.09789467,2.8884947,-0.12342334,-4.4859514
-3.8805552,34.685184,12.933976,13.32605,0.6952115,1.0985413,-0.09378277,-0.8323136,-0.7898977,-0.7314054,-0.58477026,-0.39653754,0.5683648,-0.53627235,0.6168027,-0.71270365,-1.9219781,-1.5770135,2.1858528,1.6285801,-0.976842,0.6854087,-0.6476996,-1.8626533,-1.5292162,2.219618,1.5800092,-0.9242077,-1.452982,-1.4006513,-1.418923,-1.0723903,-0.6179748,0.90823966,-0.10397224,0.041122437,-0.42730713,0.8000589,-1.3378972,-0.2108136,1.0084558,0.030525208,-0.5121727,0.76242495,0.8425945,0.080968015,0.14035729,0.51359355,-1.2756151,-0.50176144,-1.1459666,0.0,1.0,0.0,0.0,0.0,0.0,0.0,-0.6911224,0.027307123,-0.2500589,1.5271902,-1.3198853,-4.8924923,0.95837116,-0.94218254,-0.32368898,-3.7442713
75.779236,176.0,110.0,101.955315,-1.0321778,10.47131,-0.8613797,-0.81046534,0.32701308,0.68447787,0.7521133,-0.06633833,0.5810182,-0.48419666,0.6043622,-0.6149983,-1.7942054,-1.4540049,2.2129843,1.638111,-0.97262734,0.6766883,-0.6602557,-1.8770595,-1.5287889,2.2077277,1.5981843,-0.9237366,-0.68420076,-1.2068359,-1.4391811,0.40956917,-1.3754182,2.129084,0.09375098,0.027755737,-0.42941284,0.8093994,-1.3365595,-0.21060282,0.90926147,0.01876831,-0.5152321,0.75492084,0.8462153,0.0790961,0.1407631,0.5077884,-1.1421121,-0.22390303,-0.6210318,1.0,0.0,0.0,0.0,0.0,0.0,0.0,-0.6777557,0.029412836,-0.2593994,75.1564,19.537903,0.5253315,146.77003,-74.59333,124.60232,18.691692
28.732014,165.69893,99.907455,92.40527,2.984714,6.898909,-0.73581034,-0.8010243,-0.56257504,0.47926918,0.7793389,-0.5184749,0.6091698,-0.34225142,0.59658587,-0.71651316,-1.8291326,-1.450855,2.1558802,1.6591014,-0.95796174,0.6699296,-0.6713126,-1.88553,-1.5182508,2.1935942,1.6191614,-0.9229412,-0.67317784,-1.0735073,-0.64641786,1.2678001,-1.4295866,2.0940597,0.07510583,0.014404297,-0.43151855,0.8177488,-1.3352233,-0.21039227,0.81016636,0.007797241,-0.5162277,0.7524855,0.84988534,0.07029227,0.14403956,0.50200254,-1.0799088,-0.04750752,-0.12320756,1.0,0.0,0.0,0.0,0.0,0.0,0.0,-0.6644043,0.03151855,-0.26774877,1.080811,12.877846,80.23491,85.562225,-6.597686,-1.5064716,-1.7629832
3.4881487,129.04034,69.16584,66.29591,2.8432178,4.589161,-0.44827488,-0.7671095,-0.47496337,0.22852194,0.6947878,-0.62751806,0.6176407,0.17754705,0.5932187,-0.7188089,-1.8626778,-1.4487721,2.1308424,1.6809255,-0.9051865,0.6619216,-0.6809981,-1.8871417,-1.5024198,2.1798537,1.6387155,-0.9220915,-0.841339,-0.93505144,0.00023646033,1.688889,-1.3593948,1.9134051,0.08895761,0.0010604858,-0.43362045,0.8251079,-1.3338883,-0.21018192,0.7111704,-0.0028839111,-0.5157509,0.7537195,0.85364294,0.05806484,0.1481982,0.4959429,-1.0621501,0.08579953,0.19795439,1.0,0.0,0.0,0.0,0.0,0.0,0.0,-0.65106046,0.033620447,-0.27510786,-16.207706,13.428855,64.62199,42.296146,5.825615,-16.826105,1.5748173
-10.231839,89.331085,43.490192,42.51825,2.4683409,2.8171756,-0.1493619,-0.7577101,-0.49928635,0.3404417,0.75749195,-0.6602597,0.5602791,0.16452381,0.5861506,-0.73092675,-1.8530976,-1.4266707,2.1138277,1.6947434,-0.9056391,0.6517612,-0.68979955,-1.8833404,-1.4847368,2.167208,1.6561048,-0.9211426,-1.072238,-0.8626144,0.50554055,1.7956328,-1.2356586,1.6834079,0.09759747,-0.012268066,-0.43571854,0.83147776,-1.3325547,-0.20997179,0.61227334,-0.013572693,-0.51423264,0.757011,0.8573542,0.044495158,0.15230028,0.4896617,-1.0707467,0.18050505,0.3650658,1.0,0.0,0.0,0.0,0.0,0.0,0.0,-0.6377319,0.03571853,-0.28147775,-22.47696,6.990969,50.135185,10.897851,11.562109,-22.190739,1.10825
-15.99581,58.71143,22.290232,24.308653,1.6885483,1.1852813,-0.046745114,-0.7613335,-0.45500714,0.3137221,0.7600588,-0.6628136,0.559919,0.16209897,0.5756278,-0.73530024,-1.8519682,-1.4087309,2.1009266,1.7120967,-0.9049327,0.6395904,-0.6980212,-1.8764129,-1.4673685,2.1557333,1.6713331,-0.9201212,-1.2641952,-0.80903405,0.75362194,1.7176967,-1.1192795,1.47118,0.10413495,-0.02558136,-0.43781662,0.8368594,-1.3312224,-0.20976186,0.5134752,-0.024368286,-0.5120888,0.761026,0.86097395,0.03110363,0.15599209,0.4831385,-1.0860705,0.23200078,0.40635902,1.0,0.0,0.0,0.0,0.0,0.0,0.0,-0.6244186,0.037816614,-0.2868594,-18.835472,5.250919,24.369694,-7.673168,11.294651,-20.624495,0.78446716
-13.98427,39.953213,10.327982,13.569395,1.016235,-0.002114594,-0.033683605,-0.75081605,-0.43037486,0.2909751,0.7616234,-0.65368426,0.56079906,0.026767112,0.5645088,-0.74105865,-1.8473153,-1.3912061,2.090365,1.7274129,-0.91744447,0.6261016,-0.7058203,-1.868526,-1.4512628,2.1452315,1.6846597,-0.91915035,-1.3766994,-0.7702914,0.79933316,1.5751072,-1.0276835,1.2880411,0.09480468,-0.038887024,-0.4399147,0.8412539,-1.3298914,-0.20955214,0.41477585,-0.03528595,-0.50971603,0.7649011,0.8645297,0.018808944,0.15927659,0.47630396,-1.0941368,0.24706367,0.37502804,1.0,0.0,0.0,0.0,0.0,0.0,0.0,-0.61111295,0.039914697,-0.29125386,-11.13646,3.8377762,4.2645574,-14.219832,9.04007,-17.849709,-0.8981824
-10.029961,26.789633,4.498133,8.661749,0.7841515,-0.64192176,0.010041043,-0.7511007,-0.46655962,0.31994924,0.75467515,-0.63965493,0.5591208,-0.0382773,0.55099154,-0.7524763,-1.836531,-1.3757954,2.081266,1.7405717,-0.9229781,0.61200917,-0.7135527,-1.8608584,-1.4365343,2.135443,1.6963747,-0.9183302,-1.4200786,-0.77417517,0.7551424,1.4389417,-0.9628942,1.1336699,0.077769,-0.05217743,-0.44200897,0.8446621,-1.3285619,-0.20934263,0.31617522,-0.04626465,-0.5073776,0.76821554,0.868048,0.007903806,0.16214414,0.46919024,-1.0993463,0.23699212,0.31169888,1.0,0.0,0.0,0.0,0.0,0.0,0.0,-0.59782255,0.042008966,-0.29466206,-4.330325,-0.3963232,-4.5849204,-13.602853,6.3977957,-15.110207,-1.6879082
-9.338814,14.985607,-0.35025537,7.3352294,0.9943154,-0.99533266,0.017688543,-0.7527974,-0.52493906,0.30207452,0.7333298,-0.6073274,0.53981936,-0.032509577,0.53672945,-0.76604664,-1.830651,-1.3632013,2.0747101,1.7503566,-0.92158115,0.5978204,-0.7217066,-1.8539672,-1.422933,2.1261961,1.7067258,-0.9176693,-1.4184902,-0.8291436,0.66687423,1.3338488,-0.9121477,1.0027999,0.06228945,-0.065452576,-0.44409943,0.847077,-1.3272336,-0.20913333,0.21660793,-0.057357788,-0.5052948,0.7707656,0.8715718,-0.0016191202,0.16448367,0.46184972,-1.115476,0.2070368,0.23177071,1.0,0.0,0.0,0.0,0.0,0.0,0.0,-0.5845474,0.04409942,-0.297077,0.15597343,-5.4855585,-8.925366,-10.4743,5.021,-12.884808,-1.5049554
-2.8759828,18.765028,4.096822,8.521828,0.91806066,-0.89831954,0.059326738,-0.72601944,-0.5463638,0.34031138,0.73463047,-0.60988,0.53966695,-0.073502466,0.5252185,-0.776343,-1.819936,-1.3494699,2.0652082,1.7606925,-0.92501956,0.58393204,-0.73053,-1.8477168,-1.4100145,2.1172926,1.7159345,-0.91717815,-1.3790382,-0.9000357,0.61107737,1.2779907,-0.88317746,0.8941493,0.044894908,-0.07871246,-0.44618988,0.848497,-1.3259066,-0.20892423,0.1171402,-0.06855011,-0.5034752,0.77264524,0.8750808,-0.010077765,0.16630611,0.45439446,-1.1213908,0.18107067,0.16955984,1.0,0.0,0.0,0.0,0.0,0.0,0.0,-0.5712875,0.046189874,-0.29849696,3.9419174,-7.097435,-5.588758,-5.529189,2.7668834,-10.701156,-1.6886785
-0.883759,18.95217,5.6578646,9.681927,1.0030258,-0.78590655,0.06906507,-0.7059951,-0.5999867,0.33714387,0.7248313,-0.6178612,0.55120754,-0.080101214,0.51333255,-0.7905287,-1.8140024,-1.3375313,2.0555065,1.7710552,-0.9251883,0.5705577,-0.74020314,-1.8418326,-1.3974031,2.1085417,1.7242067,-0.9168472,-1.3235561,-0.9897774,0.58088267,1.255749,-0.87281543,0.80545944,0.029288448,-0.09196472,-0.44828033,0.8489231,-1.3245809,-0.20871535,0.017771928,-0.07980347,-0.5018997,0.7739697,0.87855226,-0.017796814,0.16763741,0.44690812,-1.1280781,0.1575944,0.116548486,1.0,0.0,0.0,0.0,0.0,0.0,0.0,-0.55803525,0.04828033,-0.29892308,5.5591583,-8.991265,-2.9871464,-2.139306,0.882864,-8.737553,-1.4872246
-5.7440314,14.774799,2.134551,10.943907,1.2385824,-0.8077142,-0.024966128,-0.69853014,-0.6385715,0.2442177,0.7091973,-0.6105878,0.54116136,-0.043807145,0.5007047,-0.8040603,-1.8174108,-1.3264834,2.047483,1.7783228,-0.92122793,0.5576955,-0.75077844,-1.8365207,-1.3849062,2.099848,1.7317045,-0.9166279,-1.2736721,-1.0801363,0.51461804,1.2481686,-0.86845803,0.7315469,0.01984564,-0.10520172,-0.45036316,0.84835625,-1.3232566,-0.20850667,-0.081497,-0.09123993,-0.50058746,0.7747171,0.8820387,-0.024824113,0.16852283,0.43930805,-1.1498435,0.12994751,0.05732041,1.0,0.0,0.0,0.0,0.0,0.0,0.0,-0.54479825,0.050363153,-0.29835624,5.02429,-9.046555,-6.635809,-0.6201744,0.3538847,-7.2839856,-0.85418785
-2.9568706,19.81435,4.7454042,11.04915,1.0257055,-0.7435834,-0.009734191,-0.6542058,-0.6604926,0.22602753,0.70861864,-0.6300782,0.5439508,-0.045394246,0.49227494,-0.8168277,-1.8139179,-1.3140444,2.0368402,1.7860996,-0.9211673,0.54540455,-0.7621386,-1.8318591,-1.3724054,2.0911047,1.7385633,-0.9164877,-1.2142736,-1.1546282,0.45017672,1.2510589,-0.8764242,0.6711332,0.012335237,-0.11842346,-0.45244598,0.84679747,-1.3219336,-0.2082982,-0.18066667,-0.10281372,-0.4995041,0.7749266,0.8855346,-0.031226095,0.16908492,0.4315828,-1.1622106,0.10806534,0.0051838937,1.0,0.0,0.0,0.0,0.0,0.0,0.0,-0.5315765,0.052445978,-0.29679745,5.9559584,-7.4771643,-6.41582,0.43509007,-0.90272427,-5.926156,-0.67651796
-14.811949,6.3128414,-6.7234993,11.311329,1.3105725,-1.12112,-0.22126876,-0.64501244,-0.69260865,-0.03321751,0.7005791,-0.63096374,0.53585994,0.0125596505,0.4809033,-0.83139944,-1.8351809,-1.3023475,2.0280085,1.7921493,-0.9152317,0.53361714,-0.7741549,-1.8289123,-1.3598799,2.0822775,1.7448919,-0.91636753,-1.1667799,-1.2173193,0.2425014,1.25387,-0.88436526,0.6203084,0.0121772615,-0.13162994,-0.4545288,0.8442477,-1.320612,-0.20808995,-0.27973717,-0.114738464,-0.49880219,0.7743593,0.8891741,-0.036619257,0.1694531,0.423455,-1.2052205,0.06551689,-0.08125359,1.0,0.0,0.0,0.0,0.0,0.0,0.0,-0.51837003,0.054528803,-0.2942477,4.7928333,-6.2675,-20.862398,0.52096844,-0.70147514,-5.0139904,0.058099627
-26.353313,3.0794592,-12.775252,15.107834,1.618961,-1.168726,-0.48776618,-0.6518333,-0.6794235,-0.2337781,0.7442552,-0.6462357,0.54800886,-0.0045140116,0.4684338,-0.8420973,-1.85229,-1.2854543,2.017654,1.7996927,-0.9168189,0.5221273,-0.78653073,-1.8288188,-1.3471159,2.0733435,1.7507875,-0.91625404,-1.1425653,-1.2443346,-0.06917585,1.285079,-0.89562213,0.57948434,0.011239222,-0.1448288,-0.45660782,0.840708,-1.3192916,-0.2078819,-0.37870866,-0.12729645,-0.49853897,0.77286285,0.8931363,-0.040620014,0.16986762,0.41449055,-1.2722785,0.019400332,-0.17659403,1.0,0.0,0.0,0.0,0.0,0.0,0.0,-0.5051712,0.056607813,-0.290708,2.5627375,-2.7029753,-31.405354,3.483963,-0.89298487,-4.033911,-0.04093405
-33.757317,0.27503395,-16.559196,16.679707,1.7834802,-1.105144,-0.64929855,-0.65492254,-0.6908636,-0.41807115,0.75882465,-0.6362833,0.59799,-0.12908417,0.456635,-0.8556171,-1.870626,-1.2712334,2.009715,1.8105865,-0.92916244,0.51073754,-0.79905915,-1.8322597,-1.3339723,2.0643446,1.7563646,-0.9162426,-1.1369159,-1.2557842,-0.4369231,1.3255129,-0.89990324,0.5504674,-0.0020378986,-0.15801239,-0.458683,0.8361794,-1.3179725,-0.20767406,-0.4775812,-0.14063263,-0.49874496,0.77035165,0.8975372,-0.04301279,0.17047316,0.4043707,-1.3549128,-0.024391258,-0.2806197,1.0,0.0,0.0,0.0,0.0,0.0,0.0,-0.4919876,0.058683008,-0.28617936,0.8051634,-1.170373,-37.104702,4.5053005,-0.1329422,-2.9194713,-1.2978343
-27.576262,7.4085164,-10.689615,14.800291,1.5377079,-0.79660976,-0.49906787,-0.634031,-0.71914136,-0.46408007,0.7519023,-0.59339225,0.6237409,-0.18459408,0.44733444,-0.8709733,-1.8786677,-1.2587821,2.0050054,1.8187387,-0.934702,0.49942416,-0.811743,-1.8388419,-1.3205217,2.0554526,1.7617147,-0.9164038,-1.1287136,-1.2727932,-0.7326386,1.3529978,-0.8852424,0.52952915,-0.020789219,-0.17118073,-0.4607582,0.8306627,-1.3166549,-0.20746642,-0.5763549,-0.1546936,-0.49925995,0.76689357,0.90229887,-0.043964293,0.17117617,0.39322084,-1.4214013,-0.051148377,-0.3725788,1.0,0.0,0.0,0.0,0.0,0.0,0.0,-0.47881925,0.060758203,-0.28066272,1.0515213,-1.7721653,-29.812527,3.1828403,1.6379237,-2.1727085,-1.8560437
-13.993397,16.230188,-2.356363,9.994708,0.9825328,-0.58420616,-0.21069984,-0.58698785,-0.75149935,-0.507237,0.73230493,-0.5575905,0.6380538,-0.22119379,0.4407254,-0.886893,-1.8895656,-1.2472912,1.9996935,1.82552,-0.9385232,0.4883811,-0.82471013,-1.8476443,-1.3069929,2.04682,1.766897,-0.916769,-1.0957989,-1.3049203,-0.9298225,1.353807,-0.85597706,0.5142835,-0.041687217,-0.1843338,-0.4628334,0.824159,-1.3153385,-0.207259,-0.6750298,-0.16915894,-0.4999466,0.7626111,0.9072241,-0.04382265,0.17177773,0.3814661,-1.4554633,-0.06461464,-0.45234066,1.0,0.0,0.0,0.0,0.0,0.0,0.0,-0.46566617,0.0628334,-0.274159,3.4043312,-3.306532,-19.781351,0.4010439,2.94348,-1.6276598,-2.0692973
0.7461262,30.809446,8.426202,6.7891936,0.35343257,-0.33256352,0.06834236,-0.54101694,-0.755657,-0.51623785,0.73434365,-0.56549567,0.64887804,-0.19173917,0.43427938,-0.9002758,-1.8992682,-1.2335585,1.9902704,1.8317847,-0.93594295,0.47785538,-0.83797765,-1.8576255,-1.2935365,2.0384238,1.771961,-0.91730404,-1.0382973,-1.3344394,-1.0206151,1.3435259,-0.83454734,0.5036602,-0.05743213,-0.19747925,-0.4649048,0.81666934,-1.3140235,-0.20705178,-0.7736061,-0.1836853,-0.5006676,0.7577174,0.91208965,-0.043003306,0.172214,0.36957458,-1.4498918,-0.06309161,-0.5074437,1.0,0.0,0.0,0.0,0.0,0.0,0.0,-0.45252073,0.06490478,-0.26666933,5.715823,-3.0686378,-8.936763,-0.869751,1.9914031,-1.1324763,-1.5778244
11.295756,38.301105,14.480983,3.5156903,-0.08157337,-0.26528502,0.26997077,-0.4976733,-0.777861,-0.5378552,0.71023726,-0.5473325,0.6409995,-0.18767524,0.42808807,-0.91576374,-1.911411,-1.2225128,1.9836905,1.8360609,-0.9360716,0.4680311,-0.85157037,-1.8680282,-1.2803224,2.0302374,1.7769315,-0.91797256,-0.9642247,-1.3679271,-1.045999,1.3143488,-0.8140572,0.49483156,-0.06995723,-0.21060944,-0.46697235,0.80819166,-1.3127097,-0.20684478,-0.87247753,-0.1979599,-0.50133514,0.7523517,0.91674286,-0.04179741,0.17242673,0.35791665,-1.4183357,-0.05773379,-0.55216336,1.0,0.0,0.0,0.0,0.0,0.0,0.0,-0.43939054,0.066972345,-0.25819165,7.2672367,-3.4658194,-2.27499,-2.8687239,1.8036842,-0.9315133,-1.2591541
20.626654,44.58608,18.849375,1.0680468,-0.5625336,-0.3457601,0.43819556,-0.4303311,-0.78568274,-0.5635248,0.7053467,-0.58238345,0.63464546,-0.06812577,0.424998,-0.93013865,-1.9243807,-1.2097877,1.971999,1.840396,-0.92478514,0.4591238,-0.86545587,-1.8784919,-1.2674078,2.0220969,1.7818239,-0.91866016,-0.8669806,-1.3957708,-1.0453204,1.2837898,-0.81474954,0.4872591,-0.06846768,-0.22372437,-0.46903992,0.798726,-1.3113973,-0.20663798,-0.9712501,-0.21174622,-0.5019722,0.7465962,0.921072,-0.04033837,0.17247887,0.34677103,-1.3631434,-0.05530436,-0.5893107,1.0,0.0,0.0,0.0,0.0,0.0,0.0,-0.4262756,0.06903991,-0.24872601,9.503519,-2.8996706,0.4163742,-3.093505,-0.3674507,-0.78326464,0.11463463
32.739666,48.83827,22.380928,-2.688154,-1.0993676,-0.6176895,0.59012675,-0.32632694,-0.79721165,-0.58207,0.69142586,-0.58658665,0.63290983,-0.034455027,0.42649108,-0.945177,-1.9366989,-1.1982652,1.9634382,1.8451148,-0.92210567,0.45148772,-0.8795874,-1.8889213,-1.254804,2.0138953,1.7866495,-0.9192953,-0.73021597,-1.4192897,-1.0407596,1.2521081,-0.8231707,0.48087853,-0.06201435,-0.23683167,-0.47110748,0.7882734,-1.3100861,-0.20643139,-1.069924,-0.22480011,-0.5026665,0.74048537,0.9249973,-0.038685,0.1724273,0.33638078,-1.2830765,-0.06488873,-0.6243192,1.0,0.0,0.0,0.0,0.0,0.0,0.0,-0.4131683,0.07110748,-0.23827338,13.362492,-2.4524927,0.87680817,-3.2959938,-1.1567831,-0.6587565,0.5902782
43.1331,50.008125,23.660202,-6.8079634,-1.6298125,-0.9880369,0.71210873,-0.21867464,-0.80185694,-0.62542003,0.65953827,-0.5883261,0.618234,-0.0065971483,0.42962027,-0.9597731,-1.9514632,-1.1888502,1.9550626,1.8484728,-0.919955,0.44548005,-0.89389825,-1.8994918,-1.2425913,2.0055945,1.7914064,-0.9198446,-0.5588723,-1.435299,-1.0609881,1.2104168,-0.8334341,0.47390893,-0.052792456,-0.2499237,-0.47316742,0.7768348,-1.3087764,-0.206225,-1.1684992,-0.23690796,-0.5035782,0.7339785,0.9284775,-0.036769237,0.17230985,0.32693553,-1.1832943,-0.09129177,-0.6653828,0.0,1.0,0.0,0.0,0.0,0.0,0.0,-0.40007627,0.07316741,-0.22683477,16.759539,-1.6851664,-1.584959,-4.3533087,-1.3266206,-0.7393241,0.8475058
48.29591,51.07774,24.377167,-8.388248,-1.8169686,-1.1976998,0.77015156,-0.1272347,-0.80616075,-0.6418363,0.6392858,-0.5779847,0.59286976,0.07212272,0.43275657,-0.9745143,-1.9636754,-1.1786627,1.947796,1.8506933,-0.91263235,0.44128054,-0.9083245,-1.9103522,-1.2308096,1.9972365,1.7960813,-0.920249,-0.37493518,-1.4453663,-1.0927969,1.1668725,-0.83774847,0.46499094,-0.036536828,-0.2630005,-0.47522736,0.76441115,-1.3074678,-0.2060188,-1.266976,-0.24797058,-0.5048256,0.72705656,0.9315064,-0.034535214,0.17213401,0.31854802,-1.076108,-0.12788685,-0.7069058,0.0,1.0,0.0,0.0,0.0,0.0,0.0,-0.3869995,0.07522735,-0.21441114,18.012827,-1.0890007,-2.754736,-4.5465946,-0.7205486,-0.9688914,1.5511781
27.056725,42.956535,16.286987,-2.752533,-1.1191802,-0.9661354,0.5062265,-0.16755158,-0.80997795,-0.7125645,0.5999891,-0.61788785,0.5474398,0.0015970988,0.42452538,-0.9893223,-1.9816086,-1.1708107,1.9354477,1.8508253,-0.9200893,0.4383283,-0.9228216,-1.9219078,-1.2195699,1.9887344,1.8007169,-0.92061096,-0.26615703,-1.4509236,-1.1935917,1.1026894,-0.8369268,0.48718256,-0.03925339,-0.27615356,-0.47641754,0.75416815,-1.1995072,0.059045564,-0.26831585,-0.25826263,-0.5063515,0.71959734,0.9342161,-0.031750735,0.17198074,0.31089348,-1.0114868,-0.15425411,-0.77090114,0.0,1.0,0.0,0.0,0.0,0.0,0.0,-0.3738464,0.076417536,-0.20416814,11.2005,-0.57594776,-12.625432,-7.5871468,1.6259551,5.6110916,-1.4062219
-32.251415,52.96066,11.56602,25.648815,1.8954734,0.6913109,-0.2508412,-0.4050191,-0.76176083,-0.61799216,0.7458232,-0.6523979,0.5827816,0.31126964,0.39782637,-0.9989977,-1.983707,-1.1449876,1.9234946,1.8589951,-0.889484,0.43488172,-0.93712765,-1.9338821,-1.2081258,1.9801456,1.805531,-0.92072636,-0.37014678,-1.4247011,-1.1980783,1.1594496,-0.86733115,0.47920576,-0.0025136117,-0.28813934,-0.47583008,0.75073963,-1.198308,0.058986533,-0.36769253,-0.26869965,-0.50756454,0.71197623,0.93686974,-0.028669527,0.17211236,0.30303544,-1.0527866,-0.105293795,-0.7647671,0.0,1.0,0.0,0.0,0.0,0.0,0.0,-0.36186063,0.07583007,-0.20073962,-10.182577,2.3628473,-0.29006004,5.9778214,-3.3989072,-0.89181066,3.598538
-46.194035,57.658745,11.369633,32.354717,2.6981874,1.1287642,-0.42620584,-0.40467978,-0.7533932,-0.619135,0.75635946,-0.62817997,0.57932115,0.3638828,0.39441374,-1.0124669,-1.9957956,-1.1324899,1.9173275,1.8634632,-0.8843381,0.43007234,-0.95111614,-1.9457229,-1.1959188,1.9713527,1.810267,-0.92043835,-0.5169008,-1.3912439,-1.1787117,1.2424579,-0.8845717,0.47131956,0.039061483,-0.3001175,-0.4752426,0.7463181,-1.1971099,0.058927562,-0.46696982,-0.27978516,-0.50813293,0.7045487,0.9395722,-0.025436671,0.17266878,0.2945207,-1.1194069,-0.034714982,-0.7408689,0.0,1.0,0.0,0.0,0.0,0.0,0.0,-0.34988248,0.07524261,-0.19631809,-14.3912735,3.0388594,2.1186352,8.672285,-2.1409392,-0.8947849,4.094867
-47.17987,59.948944,12.585146,32.27377,2.8286557,1.3055768,-0.42133266,-0.44395676,-0.7561257,-0.5846627,0.7490383,-0.61173224,0.58083475,0.30760533,0.38567665,-1.0267287,-2.0041893,-1.121015,1.9101795,1.8683505,-0.8896778,0.42374042,-0.96483284,-1.9570946,-1.1829679,1.962453,1.8149056,-0.91980034,-0.671077,-1.3662374,-1.1227709,1.3137752,-0.8932438,0.46095127,0.07196562,-0.31208038,-0.47465515,0.7409045,-1.1959131,0.058868647,-0.5661478,-0.29149628,-0.50793076,0.697396,0.9423285,-0.022184378,0.17355444,0.28531295,-1.1851043,0.044025637,-0.7120944,0.0,1.0,0.0,0.0,0.0,0.0,0.0,-0.3379196,0.074655145,-0.1909045,-15.151143,2.1882534,5.812931,7.5078726,-1.3305306,-1.1567235,3.2620542
-34.234722,58.33218,14.270505,25.478111,2.2767823,1.1099608,-0.23719779,-0.45498577,-0.7644091,-0.5545888,0.73908114,-0.5836455,0.58085763,0.2833922,0.37824184,-1.0412737,-2.0125535,-1.1090598,1.9040885,1.8729914,-0.89146113,0.41616777,-0.97841984,-1.9678005,-1.1695554,1.9535934,1.819449,-0.91889244,-0.78542614,-1.3571177,-1.0523238,1.3514049,-0.88487476,0.45157707,0.09717124,-0.32402802,-0.4740677,0.7345083,-1.1947174,0.058809787,-0.66410345,-0.30368042,-0.50704193,0.69045436,0.94508487,-0.018985536,0.17456633,0.27564603,-1.2270035,0.11202331,-0.6931949,0.0,1.0,0.0,0.0,0.0,0.0,0.0,-0.32597196,0.07406768,-0.18450826,-11.266338,0.639987,7.3019743,4.0635824,0.38073063,-1.0679007,2.5226786
-4.3501077,59.580673,19.348072,13.45583,0.94277,0.5039693,0.1263209,-0.38171393,-0.7620985,-0.542395,0.7306294,-0.57714444,0.58294415,0.3122692,0.37799639,-1.0546297,-2.02204,-1.0964925,1.8958789,1.8777434,-0.8876655,0.40818456,-0.9919725,-1.9778618,-1.1560113,1.9448615,1.8239102,-0.91774803,-0.802687,-1.3554103,-0.98963535,1.3556426,-0.87089956,0.44394237,0.120078705,-0.33596802,-0.47348022,0.7271332,-1.1935229,0.058750987,-0.76196116,-0.3159027,-0.5057106,0.68360466,0.9477157,-0.01585482,0.17555334,0.2660162,-1.2151359,0.14786641,-0.687131,0.0,1.0,0.0,0.0,0.0,0.0,0.0,-0.31403196,0.07348022,-0.1771332,-1.7572045,-0.035762787,6.630659,0.5172491,0.942111,-0.8772254,2.2605464
26.792885,60.604015,24.50358,1.6721847,-0.39490056,-0.15807885,0.46783912,-0.2915628,-0.76602566,-0.52125186,0.71752745,-0.57117283,0.5851261,0.30513483,0.3790283,-1.068575,-2.0299869,-1.0842586,1.8877442,1.8824228,-0.88723457,0.40076736,-1.0055578,-1.987368,-1.142618,1.9362785,1.8283067,-0.91641,-0.72208256,-1.3600823,-0.9359429,1.3334486,-0.85581005,0.43806228,0.13801855,-0.34789276,-0.47289276,0.71878034,-1.1923296,0.058692247,-0.859721,-0.32759857,-0.50429916,0.67672926,0.9500955,-0.012799255,0.17642245,0.25696245,-1.1504656,0.14662616,-0.6923303,0.0,1.0,0.0,0.0,0.0,0.0,0.0,-0.30210721,0.072892755,-0.16878033,7.8388333,-0.61244965,5.840349,-2.3346663,1.0385156,-0.6814778,1.7180473
31.708483,54.38511,21.82313,-1.8978672,-0.7574738,-0.5050875,0.5351009,-0.28427947,-0.7788687,-0.5550105,0.70032555,-0.57268625,0.5600696,0.32860497,0.3723394,-1.0834446,-2.042869,-1.0725853,1.8790098,1.8843136,-0.8835495,0.39429858,-1.0192583,-1.9966682,-1.1295602,1.9278175,1.8326344,-0.9149013,-0.62256885,-1.373736,-0.9264974,1.2960764,-0.8441611,0.43066427,0.15494297,-0.35980988,-0.4723053,0.7094374,-1.1911376,0.058633566,-0.95914066,-0.33863068,-0.50302505,0.6696486,0.9522048,-0.0096568065,0.17712855,0.24867286,-1.0817806,0.1280912,-0.71778095,0.0,1.0,0.0,0.0,0.0,0.0,0.0,-0.2901901,0.07230529,-0.15943736,9.728611,-1.4861584,1.357913,-3.834796,0.7698536,-0.8487582,1.618424
16.71405,49.547337,16.41263,2.5149674,-0.25894904,-0.43551582,0.37452978,-0.3171991,-0.77491724,-0.59431875,0.70688117,-0.56541294,0.51243854,0.40125468,0.36257866,-1.09675,-2.0561001,-1.0588721,1.8712761,1.8838784,-0.8747758,0.38853446,-1.0330694,-2.0062494,-1.1168165,1.9195166,1.836897,-0.9131897,-0.5607163,-1.3838161,-0.9721237,1.2658036,-0.819823,0.4290108,0.17690957,-0.37145996,-0.47135925,0.70067316,-1.1206452,0.13669968,-0.68961877,-0.34918976,-0.501873,0.66223603,0.9541107,-0.0062027294,0.17768995,0.24095733,-1.0428003,0.11737098,-0.7547385,0.0,1.0,0.0,0.0,0.0,0.0,0.0,-0.27854002,0.07135925,-0.15067315,6.2349796,-1.1325121,-5.256915,-3.352332,3.4344554,0.6856322,2.1794975
-14.809843,51.512936,11.96316,14.494324,1.1668326,0.22697297,0.01710479,-0.424319,-0.7678047,-0.5551087,0.72430253,-0.54363453,0.4722598,0.42144245,0.34610257,-1.1098498,-2.0617602,-1.0443863,1.8651531,1.884123,-0.8710455,0.38264126,-1.0469186,-2.0161371,-1.1041863,1.9114733,1.8410976,-0.91125745,-0.5986965,-1.386042,-0.9932851,1.2628291,-0.80037105,0.4164545,0.1986326,-0.38253784,-0.4698906,0.69359964,-1.1037058,0.15004316,-0.7146048,-0.3597412,-0.50053406,0.65457493,0.9559365,-0.00242053,0.1781374,0.23333757,-1.0535476,0.14509448,-0.77417237,0.0,1.0,0.0,0.0,0.0,0.0,0.0,-0.26746213,0.06989059,-0.14359963,-3.7500978,-0.4114151,-1.8904448,-0.08568764,1.6268611,-1.4123499,2.161756
-25.027954,50.482883,9.599162,17.376719,1.5743542,0.4194883,-0.07791809,-0.4318832,-0.77431166,-0.58074987,0.7067461,-0.50943166,0.45678994,0.45429617,0.33945292,-1.1243498,-2.074212,-1.0335116,1.8605301,1.8867766,-0.8658278,0.37615007,-1.0607927,-2.0262804,-1.0915825,1.9036863,1.8451622,-0.9091051,-0.6656136,-1.3886106,-1.0207313,1.260547,-0.7725553,0.40236214,0.22078589,-0.39349365,-0.46826935,0.68624336,-1.0927066,0.16582534,-0.7439799,-0.37049866,-0.4988289,0.6467114,0.95774037,0.001718983,0.17847164,0.22556224,-1.0804701,0.18513712,-0.7946349,0.0,1.0,0.0,0.0,0.0,0.0,0.0,-0.25650632,0.06826934,-0.13624334,-6.596482,-0.45936108,-2.5470972,0.048732758,2.4750233,-1.5935898,2.2308588
-12.879375,58.55739,15.145572,14.722332,1.3081007,0.43816358,0.015972987,-0.39274418,-0.7709522,-0.52380896,0.698497,-0.47951093,0.47083443,0.42810753,0.33687565,-1.137888,-2.0786612,-1.0217328,1.8557352,1.8922457,-0.8662944,0.36920318,-1.0746667,-2.0363476,-1.0790169,1.8962214,1.8491089,-0.90677214,-0.7043378,-1.3877064,-1.0011896,1.2558525,-0.7391625,0.3913787,0.23754218,-0.40425873,-0.46650696,0.6787109,-1.0713735,0.18028635,-0.7575679,-0.38137054,-0.49676132,0.63875735,0.9594992,0.0060166223,0.17865036,0.21773642,-1.0847477,0.22077519,-0.7997356,0.0,1.0,0.0,0.0,0.0,0.0,0.0,-0.24574125,0.06650695,-0.12871087,-3.862667,-0.108385086,2.2723436,-0.3042698,2.9379487,-1.2803197,1.6750038
-9.961011,60.019115,16.105782,13.473037,1.2209907,0.4521237,0.049232867,-0.4194046,-0.7736077,-0.5185164,0.6809333,-0.45615506,0.4414217,0.4294353,0.32726273,-1.1520275,-2.0881994,-1.0109236,1.8506058,1.8932511,-0.8638286,0.3618999,-1.088537,-2.0461285,-1.0665735,1.8891085,1.8529388,-0.9042927,-0.73901093,-1.3875245,-0.9692346,1.2408354,-0.7034906,0.37939525,0.25146753,-0.41479492,-0.46460724,0.67104363,-1.0480399,0.19344854,-0.76993835,-0.39225006,-0.49434662,0.6307628,0.9611986,0.010358117,0.17863026,0.20995507,-1.0828332,0.25490373,-0.8033176,0.0,1.0,0.0,0.0,0.0,0.0,0.0,-0.23520505,0.06460723,-0.12104362,-3.4792423,-0.17340183,3.5364628,-1.3643265,3.1445146,-1.38188,1.3931215
-2.757305,68.839775,21.0175,13.322914,1.2423873,0.5494578,0.070457555,-0.42086372,-0.7648393,-0.43492192,0.695647,-0.42776573,0.46563038,0.43856916,0.31981355,-1.165021,-2.0896206,-0.9970088,1.846332,1.8995018,-0.8604358,0.35436064,-1.1023653,-2.0552187,-1.0542064,1.8823758,1.8566835,-0.9016844,-0.75910974,-1.3818861,-0.88723147,1.2354195,-0.6648826,0.37225035,0.264007,-0.4250412,-0.462574,0.6633923,-1.0163484,0.20639488,-0.7638655,-0.4030075,-0.4915924,0.62287986,0.9628272,0.014498446,0.17840473,0.20229982,-1.0680573,0.28873256,-0.78691167,0.0,1.0,0.0,0.0,0.0,0.0,0.0,-0.22495878,0.062574,-0.11339229,-2.0756602,0.3699541,8.6460705,-0.48396587,3.3523917,-0.88422894,1.2475669
2.595211,71.31798,23.26401,11.682818,1.2591639,0.58565617,0.10190512,-0.43380404,-0.7737187,-0.35200873,0.6645062,-0.36628145,0.4401787,0.40193224,0.31098023,-1.1797371,-2.0904195,-0.9877558,1.8457477,1.9007014,-0.8614912,0.34665206,-1.1161783,-2.0631723,-1.0420107,1.8761406,1.8603518,-0.89899075,-0.77506244,-1.38179,-0.76329696,1.2143899,-0.6113228,0.36448509,0.27116922,-0.43495178,-0.46042252,0.65583,-0.9814654,0.2178981,-0.7526671,-0.4135666,-0.48852158,0.61521304,0.9643966,0.018186025,0.17786771,0.19486278,-1.0458997,0.32049757,-0.7636229,0.0,1.0,0.0,0.0,0.0,0.0,0.0,-0.2150482,0.06042251,-0.105830014,-1.6866207,-0.17006397,12.8721,-2.086234,4.815829,-0.92650056,0.7294357
3.8183603,67.61411,21.298582,10.104828,1.026569,0.42237225,0.12612504,-0.43440634,-0.774037,-0.36432216,0.65073013,-0.36561882,0.39963537,0.42354885,0.30321142,-1.1935819,-2.0996046,-0.97693765,1.8395787,1.9003153,-0.85663587,0.33884338,-1.1300027,-2.0701268,-1.0300673,1.8703656,1.8639214,-0.89622444,-0.78304595,-1.3831859,-0.6716304,1.1877109,-0.56788445,0.35379672,0.27856827,-0.44451904,-0.45819092,0.64832914,-0.9485583,0.22617166,-0.7505621,-0.42388916,-0.48518372,0.6076921,0.96591187,0.021494817,0.17700827,0.18767081,-1.0224254,0.34447333,-0.75167143,0.0,1.0,0.0,0.0,0.0,0.0,0.0,-0.20548093,0.058190912,-0.09832913,-0.8764863,-0.30195713,9.58302,-2.631545,3.878069,-1.2034357,0.75407624
-7.410357,64.03596,17.075264,12.744804,1.210685,0.43210292,0.03427214,-0.48194298,-0.76495415,-0.37629926,0.643967,-0.35944635,0.3357387,0.4433188,0.2906491,-1.2064981,-2.1077566,-0.96567065,1.834421,1.8974953,-0.85189253,0.3307791,-1.1438024,-2.0765238,-1.0183716,1.8649329,1.8673372,-0.89337975,-0.81425583,-1.3794394,-0.62788785,1.1637383,-0.53635156,0.33703488,0.28653806,-0.45381165,-0.45585632,0.6407516,-0.9228585,0.23553553,-0.75931686,-0.4340973,-0.48155975,0.60021204,0.9673875,0.024683027,0.17590524,0.18058062,-1.0145218,0.37483898,-0.75010884,0.0,1.0,0.0,0.0,0.0,0.0,0.0,-0.19618833,0.055856317,-0.09075159,-3.1382442,0.21250248,4.689634,-2.2771358,2.7655363,-1.8133581,0.8174896
-11.179706,59.20812,13.448609,12.4840145,1.0348091,0.25256205,0.0267956,-0.48637852,-0.75847524,-0.42289194,0.6288417,-0.34586164,0.22766654,0.47282347,0.28214127,-1.2196499,-2.118813,-0.95548743,1.8303467,1.8901039,-0.8460974,0.32240915,-1.1575296,-2.082963,-1.006918,1.8597566,1.8705107,-0.8904425,-0.8445579,-1.371169,-0.64862096,1.1396817,-0.5124139,0.31032503,0.29611954,-0.462883,-0.45344543,0.63299227,-0.90216625,0.24291563,-0.781502,-0.44426727,-0.47765732,0.5926311,0.9688228,0.028086908,0.17462872,0.17348886,-1.0119263,0.4008769,-0.764154,0.0,1.0,0.0,0.0,0.0,0.0,0.0,-0.18711698,0.05344543,-0.082992256,-3.023684,0.6722212,-1.8348217,-2.2438765,2.0825982,-2.8191507,0.96479654
-11.862701,60.546192,13.98652,12.644093,1.3014936,0.2732519,0.0051796846,-0.51067996,-0.75815946,-0.36696562,0.5996083,-0.22457859,0.08541799,0.48606345,0.27134115,-1.2333455,-2.1196597,-0.9469571,1.8372988,1.8790525,-0.84183615,0.31368923,-1.1711786,-2.0894938,-0.9957789,1.8551084,1.8733246,-0.88740724,-0.8811435,-1.3635515,-0.6538056,1.1059366,-0.4500719,0.27114418,0.30604407,-0.47175598,-0.45096207,0.6250191,-0.88284737,0.25056067,-0.8024715,-0.4544449,-0.47348022,0.5849445,0.9702472,0.03171411,0.17302355,0.1663654,-1.01358,0.42993614,-0.7733561,0.0,1.0,0.0,0.0,0.0,0.0,0.0,-0.178244,0.05096206,-0.07501906,-3.6558628,0.60892105,-0.2672434,-3.221035,5.8986664,-4.0932417,1.0217845
-12.11239,53.91987,11.111198,10.242892,1.2314496,0.07168293,0.038287733,-0.5291826,-0.7630839,-0.42555627,0.54234576,-0.108579434,-0.16822204,0.5016495,0.26077098,-1.247487,-2.1320493,-0.94154435,1.8442504,1.8565024,-0.8372423,0.30459684,-1.1847951,-2.096341,-0.9851788,1.8513713,1.8755776,-0.88427174,-0.91857994,-1.3613842,-0.6942849,1.0451938,-0.34907213,0.20931469,0.31619185,-0.48049164,-0.44841385,0.616704,-0.8695896,0.2560905,-0.83987606,-0.46466064,-0.46904755,0.5770433,0.9716976,0.03567657,0.17082435,0.15921661,-1.0200839,0.45387995,-0.7985261,0.0,1.0,0.0,0.0,0.0,0.0,0.0,-0.16950834,0.048413843,-0.066703975,-3.7322521,0.08018017,-3.8615227,-5.90291,9.817118,-6.3907266,1.0629654
-4.1508512,57.80791,14.033629,8.469236,1.2950103,0.025191486,0.06463596,-0.5191194,-0.7551943,-0.39598143,0.519448,0.044876914,-0.26707414,0.52893084,0.2526849,-1.2603146,-2.1359391,-0.93323404,1.8558589,1.8488702,-0.83137864,0.29526702,-1.1983716,-2.1034284,-0.97521573,1.8489966,1.8771762,-0.8810239,-0.937838,-1.3569455,-0.7127965,0.9804566,-0.20123377,0.14274909,0.32778934,-0.48905945,-0.44582748,0.6080766,-0.8528428,0.25951698,-0.86915135,-0.47491455,-0.46442032,0.5689631,0.9732009,0.039833993,0.16780154,0.15210496,-1.0202044,0.47291186,-0.8140235,0.0,1.0,0.0,0.0,0.0,0.0,0.0,-0.16094053,0.04582748,-0.05807656,-1.952982,0.31535625,-1.6094565,-6.3687563,14.471656,-6.8760605,1.2067139
-8.398259,57.270996,13.020786,8.836925,1.4505736,0.14363235,0.04706548,-0.5684699,-0.7493928,-0.41621473,0.45401567,0.15190804,-0.3665612,0.5298862,0.23842002,-1.2733109,-2.1450498,-0.92981416,1.8641875,1.84052,-0.82803524,0.28561202,-1.2118852,-2.1107144,-0.96606326,1.848226,1.8780917,-0.87767,-0.97477376,-1.3499845,-0.73302066,0.89390564,-0.03659779,0.07348692,0.3381389,-0.4974823,-0.44319534,0.59913605,-0.8386061,0.26446173,-0.90170616,-0.48519897,-0.45955276,0.56070966,0.9747745,0.044107087,0.16381858,0.14502664,-1.0247533,0.49902508,-0.8318515,0.0,1.0,0.0,0.0,0.0,0.0,0.0,-0.15251768,0.043195337,-0.049136043,-3.7063122,0.5710125,-1.8068671,-8.53281,16.164055,-7.1661325,1.0976195
5.3145437,64.4762,18.126102,6.3950367,1.0746788,0.16289508,0.1340998,-0.532737,-0.7484732,-0.34381726,0.4405035,0.14742559,-0.3862979,0.5330225,0.23233831,-1.2867326,-2.145096,-0.9220129,1.8629686,1.8394619,-0.82436776,0.27581534,-1.2253339,-2.117802,-0.9576776,1.8488147,1.878374,-0.8742215,-0.98155856,-1.3436829,-0.69947237,0.8200806,0.08955048,0.012510733,0.34715772,-0.50567627,-0.44054794,0.59002,-0.8132315,0.2646355,-0.91418403,-0.49534607,-0.4545021,0.5523935,0.9763821,0.04829031,0.15897185,0.1381085,-1.0071641,0.5132733,-0.83411825,0.0,1.0,0.0,0.0,0.0,0.0,0.0,-0.1443237,0.040547937,-0.04001999,-0.74745417,0.5220413,3.653574,-7.3652864,12.285717,-6.2937713,0.9218812
17.991411,74.98622,24.24745,5.668352,0.89691603,0.212753,0.17409016,-0.50385916,-0.7396113,-0.24952754,0.44041792,0.16807435,-0.39889959,0.5470597,0.22542942,-1.2992951,-2.1427546,-0.9136358,1.8656222,1.838484,-0.8195155,0.2661694,-1.2386949,-2.1240616,-0.9498241,1.8504014,1.8781164,-0.8706834,-0.9593164,-1.333935,-0.60009086,0.7734153,0.18058215,-0.03893489,0.3558971,-0.51353455,-0.43793488,0.5809874,-0.7763779,0.2598525,-0.8989209,-0.5051956,-0.44939423,0.54423773,0.9779832,0.05205662,0.1534619,0.13148503,-0.97153187,0.5167341,-0.81196237,0.0,1.0,0.0,0.0,0.0,0.0,0.0,-0.13646543,0.03793487,-0.030987382,2.1058202,0.877738,10.326529,-4.7531962,8.751771,-5.286754,0.8425653
28.856844,80.17675,27.818354,4.1070647,0.5221784,0.16087282,0.23874588,-0.46939248,-0.73754776,-0.17940496,0.42969084,0.13671944,-0.42230618,0.55417275,0.21923015,-1.3124497,-2.142002,-0.906855,1.8640734,1.8358858,-0.8152661,0.25694403,-1.2519662,-2.1290512,-0.9422892,1.8525286,1.8774011,-0.8670623,-0.9107469,-1.3250544,-0.46410906,0.7463238,0.2222338,-0.0828043,0.36383787,-0.5209656,-0.43541336,0.57223564,-0.73183554,0.2492651,-0.8672184,-0.5145874,-0.44435883,0.5363876,0.97953725,0.055218928,0.14752074,0.1252805,-0.9204761,0.50586134,-0.77851224,0.0,1.0,0.0,0.0,0.0,0.0,0.0,-0.1290344,0.035413355,-0.022235632,4.716456,0.8019209,14.020252,-2.8481126,3.822157,-4.469707,0.7232845
48.059536,105.48522,40.61236,5.829365,0.53987336,0.35726878,0.26010376,-0.39794406,-0.7068612,0.108748,0.49260402,0.04235936,-0.37887996,0.5808092,0.21714962,-1.3226523,-2.1181765,-0.8930288,1.8567646,1.8395131,-0.80898136,0.24849868,-1.2650278,-2.1315536,-0.9345997,1.8545964,1.87635,-0.8633525,-0.82314306,-1.3002336,-0.17701027,0.77556515,0.20002908,-0.11268642,0.37282172,-0.5277939,-0.4330597,0.5642797,-0.6662674,0.23039271,-0.7716211,-0.52324677,-0.4395256,0.52932763,0.9810114,0.05720868,0.14152648,0.119641304,-0.8430553,0.48107216,-0.6843223,0.0,1.0,0.0,0.0,0.0,0.0,0.0,-0.12220609,0.033059686,-0.014279664,8.564997,2.378893,29.343033,2.6539326,-2.6949615,-2.9796867,0.7407367
39.93174,102.118,38.19419,7.8857145,1.0700891,0.3882109,0.15285127,-0.40774143,-0.7126136,0.1776491,0.46371707,0.2012125,-0.41756597,0.56530493,0.20772454,-1.3362892,-2.1137888,-0.888228,1.8747176,1.8345934,-0.806822,0.24077654,-1.2778928,-2.131199,-0.92666227,1.8567939,1.875013,-0.8595738,-0.75564945,-1.2823323,0.10833573,0.7993304,0.22460431,-0.14081204,0.37927043,-0.5340271,-0.4308815,0.55724317,-0.6096793,0.2139552,-0.6823541,-0.5312958,-0.43486786,0.5231805,0.9824553,0.05776715,0.1354205,0.11447968,-0.78608966,0.4657244,-0.5938799,0.0,1.0,0.0,0.0,0.0,0.0,0.0,-0.11597288,0.030881494,-0.0072431564,6.6312194,1.6670942,29.10741,2.2442818,1.9905567,-2.8251796,0.5503297
34.23679,102.33904,35.888477,9.976931,1.1918677,0.278469,0.0697201,-0.36156696,-0.6682115,0.19884048,0.48595545,0.27827546,-0.39032498,0.5718267,0.20461984,-1.3447139,-2.1113148,-0.8780667,1.8846214,1.8359805,-0.8023911,0.23374325,-1.290426,-2.1285448,-0.918418,1.8594744,1.8734477,-0.8557352,-0.68610364,-1.2441494,0.31932798,0.83266616,0.28113395,-0.16176857,0.38510615,-0.5397415,-0.42886353,0.5510694,-0.5590539,0.19801612,-0.5973933,-0.5388336,-0.43034363,0.5178965,0.9838888,0.057030596,0.12919556,0.10963007,-0.74127656,0.4524827,-0.50910544,0.0,1.0,0.0,0.0,0.0,0.0,0.0,-0.11025846,0.02886352,-0.0010693669,6.8888783,3.6810875,21.605608,3.3043146,5.243659,-2.101469,0.51430464
39.608746,100.60073,35.10168,7.2279353,0.9280591,0.097118914,0.12048646,-0.29191682,-0.6354543,0.27561876,0.46266702,0.40602398,-0.33223936,0.55218047,0.20455156,-1.3539715,-2.100983,-0.8721513,1.9000769,1.8402237,-0.80051714,0.2275423,-1.3024766,-2.1241736,-0.91001236,1.863075,1.8717468,-0.85186094,-0.5983059,-1.1924953,0.47829503,0.84333044,0.38500345,-0.17287788,0.3880426,-0.54496,-0.42702484,0.5457218,-0.5102823,0.17948996,-0.5172995,-0.5459213,-0.42602158,0.5133909,0.9853121,0.055114612,0.122790776,0.10509445,-0.69407666,0.4295768,-0.43352285,0.0,1.0,0.0,0.0,0.0,0.0,0.0,-0.105039954,0.027024835,0.004278183,8.720517,5.014181,16.395617,1.0852098,9.999925,-1.1039227,0.23204088
47.29658,106.80573,37.582394,5.4623933,0.7192712,0.07550287,0.18951899,-0.22593579,-0.5793146,0.3872641,0.4471234,0.51929134,-0.20104259,0.55968803,0.20494872,-1.3604081,-2.0854473,-0.8653,1.9150041,1.8516425,-0.7958921,0.22234799,-1.3138368,-2.1182957,-0.90165156,1.8679552,1.8700593,-0.84795743,-0.49332604,-1.1175902,0.62641436,0.83388066,0.52087986,-0.16733864,0.3908564,-0.54966736,-0.42539215,0.5412728,-0.458217,0.15810505,-0.42445666,-0.55244446,-0.42198944,0.50970364,0.9867149,0.051951315,0.11618568,0.100973256,-0.6378704,0.3985381,-0.34960124,0.0,1.0,0.0,0.0,0.0,0.0,0.0,-0.10033262,0.025392145,0.008727193,10.441714,7.316041,15.345728,-0.8927822,13.191443,0.590536,0.21058321
48.102856,100.92524,34.86319,1.0964736,0.19321021,0.052108094,0.36766744,-0.20760937,-0.53696644,0.42726627,0.32009184,0.5999194,-0.17260803,0.5509353,0.20158705,-1.3675334,-2.0755692,-0.8696424,1.9279472,1.8527985,-0.7928639,0.21807106,-1.3243749,-2.111201,-0.8940203,1.8742446,1.8684628,-0.84403497,-0.40599436,-1.0330726,0.7387532,0.7398684,0.6638098,-0.15693106,0.3925215,-0.5538635,-0.42397308,0.537643,-0.40807104,0.13683473,-0.3467497,-0.55833435,-0.418293,0.5067067,0.98807096,0.047669813,0.10928013,0.097474314,-0.5729052,0.36261556,-0.2857548,0.0,1.0,0.0,0.0,0.0,0.0,0.0,-0.09613645,0.023973078,0.012356997,8.68538,8.28011,11.660409,-9.316039,13.998032,1.1422217,0.12065768
39.44154,99.337234,31.762606,0.7532832,-0.11696625,0.13128453,0.4678192,-0.21391118,-0.46110857,0.43289432,0.19932176,0.6381873,-0.20017987,0.5407516,0.19667993,-1.3704858,-2.0679116,-0.87408817,1.9380633,1.8484448,-0.7899598,0.21437477,-1.3338926,-2.1033597,-0.8878807,1.8818148,1.8669468,-0.84010553,-0.35756412,-0.9249961,0.8000022,0.57237893,0.7875593,-0.1491986,0.3930223,-0.55757904,-0.42274475,0.5347106,-0.3609068,0.11859437,-0.28027645,-0.56357574,-0.41492844,0.50425035,0.9893388,0.042611226,0.10206779,0.094737336,-0.5054963,0.33158922,-0.23500824,0.0,1.0,0.0,0.0,0.0,0.0,0.0,-0.092420936,0.022744745,0.015289426,4.8261523,10.667157,6.3322544,-16.630947,12.284875,0.9685457,0.046503544
39.81379,103.93402,32.099342,0.27788824,-0.580924,0.10336113,0.56157964,-0.17083056,-0.3737459,0.44464326,0.11561441,0.6498109,-0.16681902,0.552827,0.1972917,-1.3712672,-2.0588953,-0.8763192,1.946796,1.8502649,-0.7848228,0.21112543,-1.3421323,-2.0951788,-0.88361424,1.8903692,1.8655262,-0.8361627,-0.31403318,-0.7908235,0.82440776,0.3785198,0.8782922,-0.13876954,0.3948362,-0.5608139,-0.42170715,0.5324698,-0.3122043,0.09960045,-0.2101908,-0.56804657,-0.41192245,0.5023161,0.9904671,0.037077002,0.09472895,0.09288,-0.42841008,0.2938916,-0.18225394,0.0,1.0,0.0,0.0,0.0,0.0,0.0,-0.08918607,0.021707147,0.017530203,4.3644485,13.302922,2.50597,-19.23107,9.149206,1.318571,0.21870732
37.65241,100.62638,29.401814,-1.9977847,-1.2160394,0.023223318,0.70172083,-0.16685985,-0.2895073,0.38741952,-0.059625648,0.65749425,-0.170349,0.5557035,0.19443944,-1.371083,-2.0564368,-0.8895768,1.9561186,1.8484913,-0.7805923,0.20817818,-1.3489034,-2.0872226,-0.88171476,1.8995922,1.8641989,-0.8321972,-0.28819436,-0.63932323,0.7856095,0.12767687,0.9374928,-0.12939656,0.39737847,-0.56357574,-0.42085266,0.5308089,-0.26749232,0.08091413,-0.1549707,-0.5716858,-0.40932846,0.50078994,0.9914106,0.031477347,0.08739904,0.0920628,-0.34217572,0.24923891,-0.14493608,0.0,1.0,0.0,0.0,0.0,0.0,0.0,-0.08642423,0.020852655,0.019191086,2.6150405,15.075088,-3.9888263,-24.907858,6.1378717,1.2928873,0.35280585
