Afshin1997/kuka_rl_ros2/src/catch_and_throw/input_files/idealpd/polynomial_regressor/optimizer_files/env_490_data.csv
torque0,torque1,torque2,torque3,torque4,torque5,torque6,action0,action1,action2,action3,action4,action5,action6,set_target_0,set_target_1,set_target_2,set_target_3,set_target_4,set_target_5,set_target_6,joint_pos_0,joint_pos_1,joint_pos_2,joint_pos_3,joint_pos_4,joint_pos_5,joint_pos_6,joint_vel_0,joint_vel_1,joint_vel_2,joint_vel_3,joint_vel_4,joint_vel_5,joint_vel_6,tennisball_pos_0,tennisball_pos_1,tennisball_pos_2,tennisball_lin_vel_0,tennisball_lin_vel_1,tennisball_lin_vel_2,end_effector_pos_0,end_effector_pos_1,end_effector_pos_2,end_effector_rot_0,end_effector_rot_1,end_effector_rot_2,end_effector_rot_3,end_effector_lin_vel_0,end_effector_lin_vel_1,end_effector_lin_vel_2,obs_task_0,obs_task_1,obs_task_2,obs_task_3,obs_task_4,obs_task_5,obs_task_6,to_final_target_0,to_final_target_1,to_final_target_2,joint_acc_0,joint_acc_1,joint_acc_2,joint_acc_3,joint_acc_4,joint_acc_5,joint_acc_6
0.0,0.0,0.0,0.0,0.0,0.0,0.0,0.0,0.0,0.0,0.0,0.0,0.0,0.0,1.7802359,-1.0646509,-1.8151424,-1.1170107,1.9373155,1.1170107,-0.91629785,1.7802359,-1.0646509,-1.8151424,-1.1170107,1.9373155,1.1170107,-0.91629785,0.0,0.0,0.0,0.0,0.0,0.0,0.0,2.9786224,-0.6358986,0.20494756,-3.3030193,0.14652836,5.253675,0.5304184,-0.45449638,0.693097,0.5745483,0.17512383,0.15255436,0.7848268,0.0,0.0,0.0,1.0,0.0,0.0,0.0,0.0,0.0,0.0,-3.6286225,0.23589858,0.34505245,0.0,0.0,0.0,0.0,0.0,0.0,0.0
0.0,0.0,0.0,0.0,0.0,0.0,0.0,0.0,0.0,0.0,0.0,0.0,0.0,0.0,1.7802359,-1.0646509,-1.8151424,-1.1170107,1.9373155,1.1170107,-0.91629785,1.7802359,-1.0646509,-1.8151424,-1.1170107,1.9373155,1.1170107,-0.91629785,0.0,0.0,0.0,0.0,0.0,0.0,0.0,2.9786224,-0.6358986,0.20494756,-3.3030193,0.14652836,5.253675,0.5304184,-0.45449638,0.693097,0.5745483,0.17512383,0.15255436,0.7848268,0.0,0.0,0.0,1.0,0.0,0.0,0.0,0.0,0.0,0.0,-3.6286225,0.23589858,0.34505245,0.0,0.0,0.0,0.0,0.0,0.0,0.0
0.0,0.0,0.0,0.0,0.0,0.0,0.0,0.0,0.0,0.0,0.0,0.0,0.0,0.0,1.7802359,-1.0646509,-1.8151424,-1.1170107,1.9373155,1.1170107,-0.91629785,1.7802359,-1.0646509,-1.8151424,-1.1170107,1.9373155,1.1170107,-0.91629785,0.0,0.0,0.0,0.0,0.0,0.0,0.0,2.9786224,-0.6358986,0.20494756,-3.3030193,0.14652836,5.253675,0.5304184,-0.45449638,0.693097,0.5745483,0.17512383,0.15255436,0.7848268,0.0,0.0,0.0,1.0,0.0,0.0,0.0,0.0,0.0,0.0,-3.6286225,0.23589858,0.34505245,0.0,0.0,0.0,0.0,0.0,0.0,0.0
-176.0,61.86515,-8.937841,110.0,11.300152,4.5961456,-3.7689576,-0.82100356,0.31745327,-0.54868627,0.7417106,0.35061973,0.651559,-0.5951186,1.6981355,-1.0329056,-1.870011,-1.0428396,1.9723774,1.1821666,-0.9758097,1.7789065,-1.0623735,-1.8213546,-1.1120459,1.9433026,1.1226622,-0.9180059,-0.1769298,0.30290726,-0.8279236,0.66219,0.79710233,0.75158966,-0.2270106,2.94561,-0.63443375,0.25670844,-3.299717,0.14638187,5.150236,0.52819824,-0.45793343,0.6938653,0.5784673,0.17366426,0.15069848,0.7826277,-0.29693884,-0.45862317,0.1020632,1.0,0.0,0.0,0.0,0.0,0.0,0.0,-3.5956101,0.23443374,0.29329157,-17.609558,30.077862,-82.61849,66.32525,79.42294,74.526764,-22.494373
-176.0,-29.49062,-43.70796,109.67268,11.811532,1.4361726,-3.0726838,-0.80216527,-0.16943783,-0.5319883,0.6968751,0.43290272,0.64064765,-0.5710093,1.6986899,-1.0793173,-1.8745534,-1.0423584,1.9865929,1.1867269,-0.97510684,1.7772185,-1.0596803,-1.836354,-1.097592,1.9538579,1.1359507,-0.9185619,-0.16632758,0.2512032,-1.7104234,1.7086966,1.1337744,1.5014127,-4.326441e-05,2.9126434,-0.6329689,0.30743572,-3.296418,0.14623551,5.0469007,0.52332306,-0.46665192,0.69472325,0.5868574,0.17026731,0.1466426,0.7778839,-0.55038726,-1.0077703,0.08234081,1.0,0.0,0.0,0.0,0.0,0.0,0.0,-3.5626435,0.2329689,0.24256429,1.0130197,-7.192886,-84.24785,105.289246,31.311882,69.05053,22.249422
-152.90263,114.62076,31.859535,91.11654,7.9816313,7.674394,-1.8844719,-0.77541375,0.3097048,0.06179349,0.6484259,0.4624156,0.686941,-0.5290274,1.6996771,-1.0287099,-1.8301747,-1.0327494,2.0000994,1.2046448,-0.97146463,1.7722689,-1.0563654,-1.8514354,-1.0787493,1.9652467,1.1507803,-0.91879743,-0.6047218,0.3547895,-1.4339588,1.9440334,1.1352485,1.4698126,-0.0329621,2.8797073,-0.6315079,0.35713044,-3.2931223,0.1460893,4.9436684,0.51553345,-0.47821045,0.69726497,0.59807336,0.16522677,0.14137219,0.7713769,-0.8645588,-1.1979133,0.31550732,1.0,0.0,0.0,0.0,0.0,0.0,0.0,-3.5297074,0.23150787,0.19286957,-43.865013,9.336024,29.671383,23.923992,-1.4226198,-5.2488327,-3.7820153
-97.05899,106.18372,39.481575,54.611435,4.9460707,7.32533,-0.317486,-0.78120285,0.10810147,0.15126324,0.6411954,0.49383944,0.660373,-0.5668786,1.6941487,-1.0455552,-1.8363091,-1.0146297,2.0146306,1.2168176,-0.9754853,1.7629877,-1.0530523,-1.8610141,-1.0600897,1.975779,1.164519,-0.9195127,-1.0370123,0.32117885,-0.791386,1.840501,1.0202688,1.3380874,-0.086293615,2.8468018,-0.63005066,0.4057936,-3.2898297,0.14594324,4.8405395,0.5051346,-0.49048615,0.7017282,0.6102178,0.15885022,0.13498268,0.764317,-1.1107739,-1.2254127,0.49458838,1.0,0.0,0.0,0.0,0.0,0.0,0.0,-3.4968019,0.23005065,0.1442064,-43.537746,-4.0486574,66.54775,-10.18517,-13.179231,-14.313388,-5.9010534
-41.502266,120.173355,48.54236,28.746609,2.1395612,6.574683,0.4272757,-0.7955737,0.20990838,0.17443985,0.64283156,0.56972456,0.66489893,-0.57041836,1.6834303,-1.0320615,-1.8435701,-0.9958066,2.0327516,1.2310089,-0.9765545,1.7501684,-1.0497507,-1.8640563,-1.0436236,1.9852357,1.1768156,-0.9208011,-1.364911,0.33137873,-0.13524821,1.5815151,0.9165496,1.1920241,-0.14514823,2.8139267,-0.62859344,0.45342624,-3.2865405,0.14579733,4.737514,0.4929123,-0.5021324,0.70781165,0.6220712,0.15136787,0.12766655,0.7575066,-1.2728958,-1.1308703,0.64837706,1.0,0.0,0.0,0.0,0.0,0.0,0.0,-3.4639268,0.22859344,0.09657377,-33.177544,0.52484274,67.530624,-26.017618,-11.626339,-15.06803,-6.529948
-3.9999604,117.90961,45.534184,12.836721,0.0748117,4.734891,0.46063,-0.8074741,0.3066332,0.11164804,0.64037675,0.57774216,0.65803367,-0.5807424,1.6694211,-1.0190873,-1.8528916,-0.9795859,2.04301,1.242619,-0.97887534,1.7351538,-1.0458864,-1.8623111,-1.0297152,1.9938893,1.1877848,-0.92263216,-1.5479591,0.40362918,0.28198525,1.3266842,0.84607494,1.0649896,-0.19760552,2.7810822,-0.62713623,0.5000294,-3.2832546,0.14565156,4.6345916,0.47968292,-0.5125084,0.71506935,0.6332455,0.14315386,0.12007813,0.7510581,-1.3503866,-0.9927789,0.7510352,1.0,0.0,0.0,0.0,0.0,0.0,0.0,-3.4310822,0.22713622,0.049970627,-18.625332,6.88116,42.93944,-25.675083,-7.6941967,-12.720847,-5.8163075
16.355991,120.45998,41.505863,6.4902935,-1.3656305,3.1722016,0.081450805,-0.81509566,0.45766634,-0.013649729,0.6239106,0.57044995,0.651414,-0.5788782,1.6536442,-1.0001198,-1.8636761,-0.96732414,2.0509343,1.2529262,-0.98052,1.7192026,-1.040584,-1.8587196,-1.0178572,2.0020633,1.1976382,-0.9249229,-1.6115913,0.57152474,0.3870448,1.1384674,0.80695826,0.95954007,-0.24119398,2.7482681,-0.625679,0.5456041,-3.279972,0.14550595,4.5317717,0.46614075,-0.52142334,0.723124,0.643893,0.13459904,0.11315341,0.744635,-1.3655361,-0.8439369,0.82164806,1.0,0.0,0.0,0.0,0.0,0.0,0.0,-3.3982682,0.22567901,0.004395902,-6.6498995,16.529697,11.216861,-19.001055,-4.143214,-10.356653,-4.858452
23.816639,117.11097,36.98206,5.2210827,-1.8243787,2.12951,-0.2023289,-0.8245585,0.5516169,-0.05809914,0.6022302,0.59087634,0.6388333,-0.5773886,1.6367468,-0.98542225,-1.8645295,-0.95763415,2.061151,1.2615215,-0.9826617,1.7031504,-1.0333074,-1.8555553,-1.0073076,2.0100856,1.2065665,-0.9275865,-1.6040062,0.77906114,0.29430568,1.0263474,0.800233,0.87145156,-0.27626607,2.7154999,-0.6242218,0.59015137,-3.2766929,0.14536047,4.4290543,0.45267487,-0.52894974,0.7317412,0.65428126,0.12598206,0.1074775,0.7378977,-1.3480127,-0.70831144,0.87274927,1.0,0.0,0.0,0.0,0.0,0.0,0.0,-3.3655,0.2242218,-0.040151358,0.5010843,20.55546,-8.808554,-11.379051,-0.7340789,-8.617687,-3.9268494
21.67216,105.87644,31.244095,6.706567,-1.6109684,1.4607502,-0.3742258,-0.82920563,0.604265,-0.09477706,0.59922004,0.5821298,0.6460404,-0.56770396,1.6202298,-0.97288096,-1.865033,-0.94738567,2.0682986,1.2711705,-0.9843569,1.6874014,-1.0240835,-1.8539836,-0.9973584,2.0181155,1.2147337,-0.9305429,-1.5660667,0.9696619,0.112596355,0.9839597,0.80420923,0.79883814,-0.30317792,2.6827621,-0.6227722,0.63367224,-3.2734168,0.14521514,4.32644,0.43943024,-0.53533936,0.740735,0.6646315,0.11746153,0.103197046,0.73062855,-1.3217933,-0.60107636,0.90640855,1.0,0.0,0.0,0.0,0.0,0.0,0.0,-3.3327622,0.22277221,-0.083672225,3.5847187,18.912172,-17.849957,-4.4205904,0.4079342,-7.1575165,-3.0347764
20.173779,96.69737,28.36333,7.592117,-1.2319653,1.244311,-0.34055313,-0.8201873,0.65063345,-0.09875328,0.5852591,0.5862984,0.65005344,-0.5662388,1.6053827,-0.95902014,-1.8638589,-0.93883246,2.0767453,1.279739,-0.98716676,1.6721007,-1.0132536,-1.8541362,-0.98755556,2.0262332,1.2222697,-0.93372625,-1.5186799,1.1203618,-0.056753278,0.9782887,0.81412,0.73865557,-0.32449037,2.650055,-0.62132263,0.6761677,-3.270144,0.14506996,4.223928,0.4264679,-0.5407944,0.7500135,0.67500603,0.109058574,0.10011757,0.72280675,-1.296904,-0.5118153,0.93356323,1.0,0.0,0.0,0.0,0.0,0.0,0.0,-3.300055,0.22132263,-0.12616771,4.5570374,14.944339,-16.627533,-0.7837534,0.9984374,-6.007266,-2.4533093
17.805164,87.10557,26.065496,8.008183,-0.793161,1.1972822,-0.21402727,-0.8139733,0.6781602,-0.09653409,0.5690978,0.58954805,0.65312546,-0.57014215,1.5907034,-0.94543755,-1.8637897,-0.93064576,2.085188,1.2875822,-0.9907405,1.6572253,-1.0012983,-1.8555515,-0.97772986,2.0344539,1.2292849,-0.9370946,-1.4778974,1.2202642,-0.16861826,0.9832743,0.82498777,0.68890226,-0.3420481,2.6173782,-0.61987305,0.71763885,-3.2668746,0.14492491,4.1215186,0.41365814,-0.54545593,0.7595127,0.6853455,0.10072962,0.097892955,0.7145432,-1.2784995,-0.43627992,0.9544298,1.0,0.0,0.0,0.0,0.0,0.0,0.0,-3.2673783,0.21987304,-0.16763884,3.9094687,9.881163,-10.845841,0.2571702,1.0770917,-5.0180554,-2.075106
15.607555,79.57401,24.624626,8.256412,-0.3854431,1.2494378,-0.060388513,-0.8092849,0.6955997,-0.082355686,0.5566634,0.60066736,0.65793276,-0.5715613,1.5762968,-0.9317383,-1.863787,-0.9220635,2.0945206,1.2950782,-0.9942508,1.6426607,-0.9886831,-1.8575618,-0.96787363,2.0428004,1.235869,-0.94061655,-1.4498727,1.2749573,-0.21063964,0.98554116,0.8376048,0.6481958,-0.35661954,2.584732,-0.61842346,0.7580867,-3.2636085,0.14478001,4.019212,0.40097046,-0.54943085,0.76918745,0.69554573,0.09241114,0.09614163,0.70599794,-1.26794,-0.3695264,0.9711163,1.0,0.0,0.0,0.0,0.0,0.0,0.0,-3.2347322,0.21842346,-0.20808667,2.6338816,5.3708315,-3.7997901,-0.021588802,1.2251735,-4.1409135,-1.7825067
14.620722,74.82792,23.89615,7.8594055,-0.13213933,1.3129421,0.09755169,-0.808861,0.7099623,-0.058063105,0.53032225,0.6216212,0.6590329,-0.56683636,1.5617746,-0.9176869,-1.8633682,-0.9148414,2.1049626,1.3017724,-0.9973002,1.628266,-0.9757484,-1.8595455,-0.9581252,2.051311,1.2421023,-0.94426054,-1.4365733,1.2993401,-0.19265088,0.97052205,0.85548204,0.6149604,-0.3681896,2.5521164,-0.6169739,0.7975122,-3.2603455,0.14463526,3.9170077,0.3883667,-0.5527687,0.7789998,0.7054807,0.08405072,0.09455259,0.6973465,-1.2623281,-0.3055743,0.98397213,1.0,0.0,0.0,0.0,0.0,0.0,0.0,-3.2021165,0.21697387,-0.24751216,1.1512518,2.350068,2.263853,-1.7521739,1.7261744,-3.3868074,-1.4884353
13.604864,71.74033,23.066175,7.746485,-0.021546483,1.3169944,0.17273742,-0.808233,0.7220066,-0.043865316,0.5141888,0.62295806,0.66546506,-0.56197536,1.5474427,-0.90354776,-1.863932,-0.9067063,2.113607,1.3086488,-1.0004581,1.6139246,-0.96268594,-1.8611248,-0.94861037,2.059978,1.2480551,-0.94800085,-1.4337957,1.308234,-0.14469406,0.94440997,0.8702806,0.58858293,-0.37711743,2.5195312,-0.6155319,0.8359164,-3.2570858,0.14449066,3.8149056,0.37577057,-0.5554733,0.7889117,0.7150726,0.075615264,0.092959486,0.68870324,-1.2588418,-0.24323839,0.9928039,1.0,0.0,0.0,0.0,0.0,0.0,0.0,-3.1695313,0.21553192,-0.2859164,0.095796585,0.80931187,5.287218,-2.8556585,1.4093757,-2.6829958,-1.2220442
14.744112,68.63827,21.963991,6.5638394,-0.09444153,1.1815343,0.22574383,-0.80051285,0.72689366,-0.03397871,0.48921308,0.6284987,0.67082936,-0.5632505,1.5338733,-0.8899966,-1.8645226,-0.8996891,2.1228278,1.315138,-1.0043259,1.5996042,-0.94959486,-1.8621852,-0.93944556,2.0687747,1.2537867,-0.9518184,-1.4320866,1.3091607,-0.091661714,0.90643984,0.8828245,0.5681581,-0.38439268,2.486992,-0.61408997,0.8733004,-3.2538292,0.14434619,3.7129056,0.36325836,-0.55755997,0.7988575,0.72427046,0.06711533,0.091317564,0.68013895,-1.2506651,-0.18110378,0.9940535,1.0,0.0,0.0,0.0,0.0,0.0,0.0,-3.136992,0.21408996,-0.32330036,-0.0062942505,0.02849102,5.7781773,-4.043579,1.1965156,-2.037394,-1.0474741
16.113106,68.70723,21.79777,5.6759577,-0.21672308,1.11156,0.2687735,-0.8023487,0.7395845,-0.009429293,0.4512231,0.63928646,0.6672227,-0.55847615,1.5193694,-0.8756364,-1.8631282,-0.8943232,2.1327033,1.320509,-1.007666,1.5852762,-0.9364685,-1.862706,-0.93077666,2.077701,1.2593428,-0.9556951,-1.4334241,1.3136348,-0.03748941,0.85291946,0.89539325,0.55169046,-0.38979062,2.454483,-0.612648,0.9096651,-3.250576,0.14420187,3.6110077,0.35086823,-0.5589943,0.80879563,0.73303384,0.05857011,0.08963773,0.6717112,-1.2374752,-0.1159191,0.9921723,1.0,0.0,0.0,0.0,0.0,0.0,0.0,-3.1044831,0.212648,-0.3596651,-0.31397343,0.39191246,5.887494,-5.5972576,1.2084007,-1.6024113,-0.85170865
18.682768,67.32192,20.944149,3.324469,-0.5052376,0.9077656,0.33034348,-0.8066596,0.751023,-0.0015936455,0.38020045,0.6522799,0.66997725,-0.54763985,1.5046103,-0.86136615,-1.8628653,-0.8927566,2.142929,1.3263406,-1.0104591,1.5709101,-0.9232496,-1.862788,-0.92288405,2.086761,1.2647635,-0.959609,-1.438257,1.3244293,0.0032196613,0.76712614,0.9097286,0.53936416,-0.39291796,2.4220047,-0.61120605,0.9450117,-3.2473261,0.1440577,3.5092118,0.3386612,-0.5597458,0.81864226,0.74130875,0.050055705,0.087999806,0.66348463,-1.2132591,-0.046979073,0.98025906,1.0,0.0,0.0,0.0,0.0,0.0,0.0,-3.0720048,0.21120605,-0.39501166,-0.6702423,1.0411263,4.5212874,-8.838201,1.4055848,-1.1114478,-0.6105602
22.695904,64.34033,19.813923,0.10766983,-0.8368876,0.61635435,0.4146973,-0.8038664,0.75357014,0.010947016,0.30054718,0.6642488,0.6736687,-0.5392382,1.4905235,-0.8478926,-1.8616933,-0.8928293,2.1531858,1.3321303,-1.0135328,1.5565096,-0.90991914,-1.8625476,-0.9160939,2.0959773,1.2700888,-0.963541,-1.4410352,1.3358378,0.03245417,0.64876807,0.9254985,0.53085065,-0.3942317,2.389557,-0.6097641,0.97934103,-3.2440796,0.14391367,3.4075174,0.32681274,-0.55979156,0.8282779,0.7490242,0.04168442,0.08647429,0.6555511,-1.1741978,0.0238792,0.95577157,1.0,0.0,0.0,0.0,0.0,0.0,0.0,-3.039557,0.2097641,-0.42934102,-0.46067238,1.1282444,3.3319921,-12.108887,1.5772104,-0.63171387,-0.41008592
28.593185,62.00144,19.209002,-3.799809,-1.2470169,0.30610782,0.5237754,-0.7946916,0.75839794,0.028215433,0.20285165,0.66846263,0.6707486,-0.5359329,1.4770404,-0.8340793,-1.8597261,-0.8958087,2.1628237,1.3371637,-1.0171343,1.5421358,-0.8964752,-1.8620517,-0.91074187,2.1053348,1.2753454,-0.96747965,-1.4366082,1.3473127,0.056622017,0.49645603,0.93952155,0.5250315,-0.39455977,2.3571396,-0.60832596,1.0126542,-3.2408361,0.14376979,3.305925,0.31549072,-0.5590973,0.83758414,0.7560951,0.033568993,0.08513326,0.6480321,-1.116426,0.09807441,0.9197874,1.0,0.0,0.0,0.0,0.0,0.0,0.0,-3.0071397,0.20832595,-0.46265417,0.27329922,1.163578,2.7748845,-15.511263,1.4332652,-0.25378466,-0.29224157
31.400843,60.613823,18.695972,-5.794482,-1.4685631,0.086416334,0.58056283,-0.79518384,0.7686138,0.041314337,0.10554338,0.67805797,0.6738358,-0.53074795,1.4626174,-0.8196138,-1.8579203,-0.90018755,2.1731405,1.342729,-1.0205544,1.5278136,-0.8828968,-1.8613403,-0.9070788,2.1148334,1.2805601,-0.9714145,-1.431098,1.3615099,0.07705824,0.3220456,0.9533549,0.5214822,-0.39386767,2.3247528,-0.60689163,1.0449523,-3.237596,0.14362605,3.204434,0.30482483,-0.55765915,0.84648466,0.7624747,0.02579211,0.08402802,0.6410197,-1.0472882,0.1715354,0.8773095,1.0,0.0,0.0,0.0,0.0,0.0,0.0,-2.974753,0.20689163,-0.49495226,0.40037632,1.4601946,2.3381279,-17.708385,1.4496326,0.03492832,-0.15800595
38.651432,57.691982,18.232792,-11.11907,-1.9742349,-0.27608216,0.7571925,-0.7887929,0.77164185,0.06939904,-0.06327279,0.6864543,0.6635071,-0.5253577,1.4489343,-0.8057326,-1.8544004,-0.9134061,2.1834788,1.3469108,-1.0239503,1.5135733,-0.8691896,-1.8603637,-0.90557295,2.1244655,1.2857443,-0.97533697,-1.422252,1.373972,0.10543508,0.092587605,0.9669302,0.5191145,-0.39224866,2.2923965,-0.6054573,1.0762361,-3.234359,0.14348245,3.1030445,0.2950287,-0.55545044,0.8548512,0.76804996,0.018492535,0.083209164,0.63469166,-0.954917,0.24910513,0.81991935,1.0,0.0,0.0,0.0,0.0,0.0,0.0,-2.9423966,0.2054573,-0.5262361,0.7612705,1.3212919,3.0654595,-23.201195,1.4575124,0.27735233,-0.027602911
38.748215,57.667892,18.400768,-10.720689,-1.9215112,-0.34604812,0.775992,-0.7874592,0.7771204,0.10945961,-0.15399957,0.68544024,0.65582484,-0.5094546,1.4348273,-0.79147756,-1.8494178,-0.9209729,2.1930094,1.3513268,-1.0262824,1.499415,-0.85536706,-1.8589752,-0.90634066,2.1342044,1.2909037,-0.97922987,-1.4139777,1.3853695,0.15026739,-0.13396357,0.97674364,0.5166139,-0.38875687,2.2600708,-0.604023,1.1065068,-3.2311254,0.143339,3.0017562,0.28614044,-0.552475,0.8626653,0.7727976,0.011696671,0.082659535,0.6291378,-0.86086285,0.32229665,0.76514834,1.0,0.0,0.0,0.0,0.0,0.0,0.0,-2.910071,0.20402297,-0.5565068,0.7436037,1.2367487,4.6072097,-22.86182,1.1412024,0.2673149,0.20394325
34.73605,59.396194,19.025518,-6.9666266,-1.5265847,-0.21264994,0.7105651,-0.7885658,0.7819551,0.16277403,-0.21684763,0.6874763,0.6551436,-0.48757833,1.4205585,-0.77717155,-1.8426977,-0.9280254,2.202952,1.356418,-1.0279877,1.485314,-0.84144056,-1.8569629,-0.9091006,2.1440234,1.2960383,-0.98307127,-1.4089607,1.3954296,0.2180297,-0.3237848,0.98436487,0.51394325,-0.38297138,2.2277908,-0.60258865,1.1357654,-3.227895,0.14319569,2.9005694,0.2781067,-0.5488205,0.87003285,0.7767883,0.005299806,0.08229343,0.6243393,-0.7790816,0.3882939,0.72335505,1.0,0.0,0.0,0.0,0.0,0.0,0.0,-2.877791,0.20258865,-0.5857654,0.4479885,1.1178493,6.789246,-19.139122,0.995481,0.19584894,0.4720986
31.498198,59.770424,19.246447,-3.8093252,-1.1848398,-0.1356718,0.6443458,-0.7807196,0.78194577,0.20926368,-0.28267953,0.68901235,0.6614423,-0.463289,1.4072421,-0.763246,-1.8360366,-0.9373686,2.2129247,1.3621825,-1.0294001,1.4712797,-0.8274435,-1.8541706,-0.9134684,2.1539035,1.3011519,-0.98683923,-1.4016311,1.4015819,0.2994063,-0.47485912,0.99031353,0.51189744,-0.37503085,2.1955414,-0.6011543,1.1640129,-3.2246678,0.14305252,2.7994838,0.270813,-0.5445366,0.8770597,0.7801064,-0.0008168378,0.08201907,0.62024677,-0.7076886,0.4472184,0.69152415,1.0,0.0,0.0,0.0,0.0,0.0,0.0,-2.8455415,0.20115432,-0.6140129,0.7068634,0.7408142,8.048964,-15.233612,0.8990526,0.22200346,0.7113755
29.517181,62.683098,20.655874,-0.681098,-0.87248045,0.047246322,0.6136131,-0.7736296,0.7845958,0.29085252,-0.3352647,0.6896918,0.65544933,-0.43785673,1.3939167,-0.7489839,-1.8250853,-0.9469949,2.2228727,1.3666968,-1.0306249,1.4573389,-0.8133987,-1.8503501,-0.91906935,2.1638331,1.3062407,-0.9905147,-1.39165,1.4058983,0.40894264,-0.5887402,0.99511975,0.5093791,-0.3651837,2.1633224,-0.59972763,1.1912503,-3.2214437,0.1429095,2.6984992,0.2641449,-0.5396805,0.88387835,0.7828027,-0.006803133,0.08172558,0.61684245,-0.6465392,0.505035,0.6739079,1.0,0.0,0.0,0.0,0.0,0.0,0.0,-2.8133225,0.19972762,-0.6412503,0.99408627,0.57177544,10.76532,-11.4819765,0.8682966,0.15186071,0.9191692
27.958273,65.26171,21.852074,2.089829,-0.6369546,0.192532,0.5739533,-0.7614207,0.78847224,0.36162925,-0.36653242,0.6864344,0.6522944,-0.40189794,1.3811969,-0.7345515,-1.8141872,-0.9557226,2.2324765,1.3714701,-1.0307045,1.4435374,-0.79931104,-1.8453128,-0.92553145,2.1737933,1.3113047,-0.9940719,-1.376155,1.4103018,0.534529,-0.6656242,0.9975936,0.5066933,-0.3527168,2.131134,-0.59830093,1.2174786,-3.2182229,0.14276662,2.5976155,0.25802612,-0.5342369,0.8906149,0.78491884,-0.012805494,0.08133228,0.6141037,-0.5936103,0.56254923,0.66851866,1.0,0.0,0.0,0.0,0.0,0.0,0.0,-2.7811341,0.19830093,-0.6674786,1.5671968,0.5937338,12.283194,-7.7566147,0.70393085,0.120174885,1.1944294
20.40968,64.8252,21.32975,7.821335,-0.07676935,0.37320986,0.40821904,-0.76103276,0.78593194,0.41458538,-0.33493015,0.6814676,0.6533427,-0.34647506,1.367434,-0.72071785,-1.8038543,-0.9590245,2.24194,1.376639,-1.0287194,1.4298693,-0.78520334,-1.8390415,-0.9322911,2.1837535,1.316342,-0.9974727,-1.3637708,1.4115022,0.6568144,-0.6796672,0.99702334,0.5037788,-0.336086,2.0989761,-0.59687424,1.2426989,-3.2150054,0.14262389,2.4968326,0.25227356,-0.5282898,0.89740086,0.7865775,-0.018978879,0.0807797,0.61189073,-0.5624082,0.60997766,0.67646545,1.0,0.0,0.0,0.0,0.0,0.0,0.0,-2.7489762,0.19687423,-0.6926989,1.2477636,0.27852058,11.9127865,-1.4798522,0.43355227,0.029325485,1.6099215
10.858532,62.077126,19.468285,13.456141,0.4654032,0.48956648,0.20297596,-0.775585,0.7878775,0.44755054,-0.30365476,0.6790677,0.6555542,-0.3012141,1.3523108,-0.7064156,-1.7942864,-0.96265656,2.2516603,1.3818974,-1.0275941,1.4162184,-0.77108514,-1.8317134,-0.93881994,2.1936946,1.3213488,-1.0006866,-1.3657359,1.4124023,0.7573398,-0.6442909,0.99449176,0.5006,-0.31664684,2.0668488,-0.59544754,1.2669121,-3.211791,0.1424813,2.3961506,0.24666595,-0.521965,0.90432334,0.7879539,-0.025419738,0.08006134,0.6099775,-0.5541026,0.6444264,0.6917283,1.0,0.0,0.0,0.0,0.0,0.0,0.0,-2.7168489,0.19544753,-0.7169121,-0.22535324,0.24673939,9.760702,3.434968,0.2235055,-0.0797987,1.8897057
4.3011713,56.928535,16.837309,16.615011,0.7769102,0.41369823,0.032389503,-0.776634,0.78556895,0.45495412,-0.26618317,0.6749288,0.65399593,-0.26393998,1.338555,-0.69252825,-1.786218,-0.96543825,2.2611876,1.3867484,-1.0270807,1.4025065,-0.7569746,-1.8236663,-0.9447432,2.2035937,1.3263232,-1.0036945,-1.3733011,1.4111153,0.8197034,-0.57541025,0.98986375,0.4970752,-0.29573816,2.034752,-0.59402084,1.2901192,-3.2085798,0.14233884,2.2955692,0.24103546,-0.51540375,0.9113906,0.789206,-0.03213889,0.079226814,0.60814804,-0.55864906,0.6654625,0.7057197,1.0,0.0,0.0,0.0,0.0,0.0,0.0,-2.684752,0.19402084,-0.74011916,-0.81255436,0.023460388,5.9857607,6.7525268,-0.029790401,-0.16998649,2.0323396
3.4304504,52.87664,15.135061,15.880751,0.69929487,0.22982953,-0.00038313493,-0.7801647,0.7859029,0.47421813,-0.26770213,0.67602193,0.6510967,-0.2550152,1.32449,-0.6783843,-1.7762445,-0.97151345,2.271196,1.3914328,-1.029196,1.3886973,-0.7428783,-1.8151805,-0.9500447,2.213451,1.3312632,-1.006506,-1.3837563,1.4095829,0.85757065,-0.5156254,0.9857042,0.49363613,-0.27651104,2.0026855,-0.5926018,1.3123212,-3.2053719,0.14219654,2.1950884,0.23538208,-0.5086632,0.91853535,0.79039484,-0.039060496,0.07834785,0.60630995,-0.5605991,0.68157077,0.7111845,1.0,0.0,0.0,0.0,0.0,0.0,0.0,-2.6526856,0.19260177,-0.7623212,-1.1096954,-0.009918213,3.581214,5.83632,-0.033175945,-0.16572475,1.8688083
-5.549984,50.579464,13.412466,22.615705,1.3320544,0.38527608,-0.260147,-0.7834935,0.78689116,0.45509294,-0.109531336,0.6685851,0.66290104,-0.18739125,1.3103479,-0.6641892,-1.7696712,-0.9609978,2.2803094,1.3975533,-1.0252451,1.3747813,-0.72879064,-1.8065937,-0.9541684,2.2232547,1.3361765,-1.009098,-1.3945233,1.4089824,0.8583619,-0.37860444,0.9797897,0.49086055,-0.2535442,1.9706497,-0.5911827,1.3335191,-3.2021673,0.14205436,2.094708,0.22950745,-0.5018654,0.925836,0.79169375,-0.046277028,0.07744227,0.60422033,-0.5882968,0.6841835,0.73002964,1.0,0.0,0.0,0.0,0.0,0.0,0.0,-2.6206498,0.1911827,-0.7835191,-1.1776209,0.087952614,-0.121843815,13.517636,-0.20442009,-0.19590855,2.2291481
-6.9974337,44.125412,10.9422455,21.658693,1.324553,0.1773873,-0.29923815,-0.79751045,0.7737871,0.44621807,-0.095316716,0.67088944,0.6685509,-0.22761384,1.2950302,-0.65141195,-1.7619718,-0.96370006,2.2903435,1.4030316,-1.0318594,1.3607184,-0.71476686,-1.7981536,-0.95701987,2.2330127,1.3410689,-1.011509,-1.4107494,1.4005364,0.83877134,-0.2546398,0.9754224,0.48900977,-0.23733072,1.938652,-0.58976364,1.353714,-3.1989658,0.14191234,1.9944278,0.22335815,-0.49510384,0.93324,0.7931831,-0.053743757,0.07653057,0.60176015,-0.61504585,0.6789605,0.7375568,1.0,0.0,0.0,0.0,0.0,0.0,0.0,-2.5886521,0.18976364,-0.803714,-1.7336607,-0.7122278,-2.1084309,12.19486,-0.10524988,-0.114387274,1.5525371
-7.6078463,43.995747,10.852424,22.520882,1.3525466,0.19105808,-0.34941894,-0.8020686,0.77833486,0.4368834,-0.01432307,0.6664404,0.6695015,-0.24173187,1.2805115,-0.6369334,-1.7544653,-0.95845217,2.2996566,1.4080191,-1.0356821,1.3464991,-0.70080507,-1.7899787,-0.95856005,2.242721,1.345946,-1.013792,-1.4261206,1.3951443,0.8099788,-0.121206716,0.970664,0.48735356,-0.22557725,1.9066925,-0.5883446,1.3729069,-3.1957674,0.14177045,1.8942478,0.21692657,-0.48838806,0.94073653,0.79490006,-0.06145852,0.07563431,0.5988624,-0.64416414,0.67460144,0.7474403,1.0,0.0,0.0,0.0,0.0,0.0,0.0,-2.5566926,0.18834457,-0.8229069,-1.6513824,-0.41565895,-3.0121326,13.149246,-0.15574694,-0.12156367,1.1051118
-2.3943005,44.17373,11.349615,18.656479,0.93742055,0.010607179,-0.23081475,-0.8034256,0.780446,0.42985258,-0.0085707465,0.67486537,0.6654515,-0.24978347,1.2661566,-0.6227605,-1.7469935,-0.9594171,2.3102076,1.4124911,-1.0387704,1.3321577,-0.68687093,-1.7820842,-0.9590722,2.252418,1.3508078,-1.0159817,-1.437037,1.3931592,0.78232396,-0.028452694,0.9701948,0.48597392,-0.21710986,1.8747635,-0.5869255,1.3910987,-3.1925724,0.14162871,1.794168,0.21031952,-0.48166847,0.94826263,0.7967736,-0.06934635,0.074786544,0.59560883,-0.65688616,0.6773426,0.7481394,1.0,0.0,0.0,0.0,0.0,0.0,0.0,-2.5247636,0.1869255,-0.8410987,-1.1894464,-0.08974075,-2.8598905,9.107205,0.236094,-0.054204464,0.7777631
6.2914114,42.697506,11.359941,10.752111,0.13190174,-0.39506894,-0.009302765,-0.8090984,0.7797386,0.42064732,-0.0751384,0.66686416,0.6640965,-0.28318638,1.2512479,-0.6088971,-1.7400194,-0.966586,2.3191044,1.4172175,-1.0443003,1.3177229,-0.6729444,-1.7744377,-0.95931154,2.262092,1.3556601,-1.0181255,-1.4458308,1.3927289,0.75889456,-0.022965211,0.9672099,0.48571166,-0.21367991,1.842865,-0.58551025,1.4082905,-3.1893804,0.14148712,1.6941881,0.20384216,-0.47486115,0.9556273,0.7986451,-0.077184334,0.07409167,0.5922153,-0.63722825,0.68784535,0.72641367,1.0,0.0,0.0,0.0,0.0,0.0,0.0,-2.492865,0.18551025,-0.8582905,-0.9576082,0.04863739,-2.3681045,0.40434337,-0.08653402,0.16203523,0.28049946
13.783834,42.067955,11.79243,4.362014,-0.4860009,-0.7185938,0.21277788,-0.8092654,0.7767331,0.42805365,-0.12696892,0.6647594,0.66602147,-0.25017607,1.2367964,-0.5952711,-1.7316324,-0.97200847,2.328568,1.4222622,-1.0431432,1.3032328,-0.6590303,-1.7669132,-0.9600077,2.2717319,1.3605181,-1.0202198,-1.4501749,1.39131,0.75027823,-0.085595794,0.9632484,0.48674092,-0.20821078,1.810997,-0.5840988,1.4244832,-3.1861916,0.14134566,1.5943083,0.1977539,-0.46790314,0.962654,0.80033857,-0.08476624,0.073621206,0.58894193,-0.59104264,0.70394737,0.6886985,1.0,0.0,0.0,0.0,0.0,0.0,0.0,-2.460997,0.18409881,-0.87448317,-0.4844904,-0.057911873,-0.8501768,-6.3815775,-0.23037195,0.37947297,0.48944056
16.40931,43.69075,12.835074,3.2360096,-0.61039555,-0.76652145,0.3108015,-0.8062838,0.77807575,0.44129914,-0.12677158,0.6657311,0.6639959,-0.1699574,1.2226044,-0.5812228,-1.7227832,-0.97268486,2.338305,1.4269177,-1.0372156,1.2887388,-0.64512193,-1.7593486,-0.9614001,2.281341,1.3653876,-1.0222034,-1.4491613,1.3910391,0.7584321,-0.15740356,0.9604193,0.48785254,-0.19535503,1.7791595,-0.5826874,1.4396778,-3.183006,0.14120434,1.4945283,0.19217682,-0.46076202,0.969313,0.80175203,-0.0920507,0.073372394,0.5859494,-0.53842705,0.7235376,0.65225077,1.0,0.0,0.0,0.0,0.0,0.0,0.0,-2.4291596,0.18268737,-0.8896778,0.073480606,0.061273575,0.8077979,-7.275042,-0.107359886,0.40197372,1.2320429
14.06868,43.69869,12.85449,5.8152037,-0.3615409,-0.6904237,0.26401773,-0.80664146,0.77738774,0.43773976,-0.104126506,0.6622492,0.66640925,-0.09770154,1.2080747,-0.56738317,-1.7155746,-0.9718127,2.347566,1.4320285,-1.0319736,1.2742678,-0.63121545,-1.7516887,-0.96328455,2.2909198,1.3702666,-1.0240097,-1.4464452,1.3908627,0.7682957,-0.19908331,0.95746726,0.48875663,-0.17600057,1.7473526,-0.58127594,1.4538754,-3.1798236,0.14106317,1.394848,0.18704224,-0.45342827,0.9756713,0.8028958,-0.09911039,0.07330862,0.58323354,-0.4951146,0.7406958,0.62425596,1.0,0.0,0.0,0.0,0.0,0.0,0.0,-2.3973527,0.18127593,-0.9038754,0.24254322,0.079894066,0.94491243,-4.2639284,-0.089001656,0.34347177,1.8832833
12.999458,43.031193,12.758587,6.7727246,-0.24741453,-0.67925274,0.28117612,-0.8107875,0.77458483,0.45254007,-0.12999852,0.65912306,0.6651912,0.009721554,1.193189,-0.55375695,-1.7064347,-0.9762844,2.356832,1.4367857,-1.0230376,1.2598063,-0.6173223,-1.7438724,-0.9655238,2.3004642,1.3751532,-1.0255547,-1.4462204,1.3891804,0.7858862,-0.23255754,0.9542769,0.48925167,-0.1474657,1.7155762,-0.5798645,1.4670769,-3.1766443,0.14092213,1.2952673,0.18231201,-0.4459343,0.9817714,0.8037698,-0.105993286,0.07340025,0.58080274,-0.4556036,0.7565861,0.59916747,1.0,0.0,0.0,0.0,0.0,0.0,0.0,-2.3655763,0.1798645,-0.9170769,-0.010037422,-0.06608963,1.7054558,-3.44269,-0.097334385,0.28930306,2.8039603
9.094734,40.201893,11.469865,9.408777,0.035619378,-0.65668565,0.19567302,-0.8166372,0.7716445,0.43897358,-0.11485153,0.65030277,0.66568756,0.102907196,1.1781425,-0.54015785,-1.699975,-0.97700894,2.3654945,1.4417219,-1.0152639,1.2453123,-0.60345876,-1.7359703,-0.9678994,2.3099551,1.3800417,-1.0267639,-1.4506887,1.3857747,0.79162145,-0.23957512,0.9485494,0.48928422,-0.112138875,1.6838303,-0.57845306,1.4792835,-3.1734684,0.14078124,1.1957864,0.17790222,-0.4383297,0.9876526,0.8044267,-0.11273879,0.07364317,0.57858807,-0.42726102,0.76590836,0.5783454,1.0,0.0,0.0,0.0,0.0,0.0,0.0,-2.3338304,0.17845306,-0.92928344,-0.50308704,-0.23360252,0.51608086,-0.82057416,-0.33761263,0.20471811,3.4830139
4.236911,39.73223,11.325843,14.888611,0.55614996,-0.42805874,0.073456176,-0.8079731,0.7670709,0.441122,-0.027730802,0.6389696,0.6681068,0.24624231,1.164515,-0.5267517,-1.691858,-0.9706725,2.373852,1.4468524,-1.0021397,1.2308108,-0.5896467,-1.7280433,-0.9698449,2.3193698,1.3849264,-1.0275402,-1.4502959,1.3800838,0.79287094,-0.1800009,0.93976516,0.4887961,-0.066308536,1.6521149,-0.57704926,1.4904959,-3.1702955,0.14064048,1.0964048,0.17362976,-0.43064117,0.99345016,0.8049446,-0.11951859,0.07398194,0.57646006,-0.42018667,0.7727914,0.5740455,1.0,0.0,0.0,0.0,0.0,0.0,0.0,-2.302115,0.17704925,-0.9404959,-0.039076805,-0.45144558,0.03194809,5.811012,-0.59206486,0.08674264,4.51929
-3.0679045,35.766335,9.460538,21.044554,1.1758599,-0.24887471,-0.15428115,-0.8115725,0.75976205,0.40290213,0.0764816,0.62650037,0.6679646,0.30120072,1.1496536,-0.5136705,-1.6877531,-0.9621967,2.3820198,1.4517229,-0.99742013,1.2163016,-0.5759176,-1.7203052,-0.9706717,2.32867,1.3898035,-1.027853,-1.4514574,1.3709172,0.76710993,-0.051010672,0.9278515,0.48744822,-0.01981335,1.62043,-0.57564545,1.5007153,-3.1671257,0.14049987,0.9971226,0.16919708,-0.42295074,0.99930423,0.805473,-0.12651788,0.07437619,0.5741728,-0.43899462,0.77125484,0.5829168,1.0,0.0,0.0,0.0,0.0,0.0,0.0,-2.27043,0.17564544,-0.95071524,-0.23839474,-0.7932186,-2.6812315,12.70383,-0.869143,-0.08072853,4.574056
-3.733943,31.660757,7.574901,19.8561,1.0921564,-0.43920413,-0.20824285,-0.8185177,0.7584686,0.35967615,0.07273903,0.62844735,0.66405976,0.27264178,1.1344498,-0.50007075,-1.6843376,-0.9633978,2.3915148,1.4562095,-1.0005889,1.2017504,-0.5622734,-1.7130325,-0.9703408,2.337871,1.3946635,-1.0277672,-1.4567589,1.3626361,0.71379566,0.060534246,0.91850525,0.48578072,0.017859602,1.5887756,-0.57424164,1.5099425,-3.1639593,0.1403594,0.8979396,0.16464233,-0.41531754,1.0051824,0.80610067,-0.13368595,0.07486899,0.571598,-0.45421678,0.7636643,0.583369,1.0,0.0,0.0,0.0,0.0,0.0,0.0,-2.2387757,0.17424163,-0.9599425,-0.6587982,-0.7154703,-5.4040313,10.954593,-0.64793825,-0.11000037,3.6997552
-3.7932396,30.357895,7.16592,19.818771,1.0910072,-0.47866967,-0.21739051,-0.8176876,0.7529408,0.33989108,0.13343519,0.6229364,0.6641634,0.31852642,1.1199816,-0.4869793,-1.6790434,-0.9569973,2.4001646,1.4610798,-0.9959145,1.1871516,-0.5487169,-1.7063339,-0.96890265,2.3469882,1.3995081,-1.027317,-1.4612514,1.3537246,0.65483457,0.17090397,0.91009027,0.48412704,0.053640738,1.557167,-0.5728378,1.5181787,-3.160796,0.14021906,0.79885584,0.15991211,-0.40776825,1.0110595,0.80684525,-0.14099114,0.07547947,0.5687048,-0.4693693,0.75568557,0.58315134,1.0,0.0,0.0,0.0,0.0,0.0,0.0,-2.2071671,0.17283782,-0.9681787,-0.57537556,-0.7862568,-5.9586287,10.841863,-0.5625725,-0.11834502,3.5091975
-3.5441465,27.125116,5.97739,18.728765,1.0378219,-0.6213112,-0.22635312,-0.8131871,0.7421232,0.28966257,0.18324564,0.61704826,0.66640764,0.33417037,1.1058328,-0.4745046,-1.6773676,-0.9505781,2.408693,1.4661489,-0.9939,1.1725413,-0.5352787,-1.700341,-0.9664307,2.3560214,1.4043394,-1.0265408,-1.4612797,1.3409557,0.5807649,0.27189705,0.901928,0.4830198,0.08544503,1.525589,-0.571434,1.5254248,-3.1576357,0.14007887,0.6998712,0.15505219,-0.4003334,1.016893,0.807721,-0.14838266,0.0762267,0.56547207,-0.48128468,0.74342066,0.5776256,1.0,0.0,0.0,0.0,0.0,0.0,0.0,-2.175589,0.17143402,-0.9754248,-0.11048317,-1.178503,-7.4709296,9.906024,-0.55521727,-0.054955482,3.1131268
-0.45262432,25.197443,5.1921496,14.424784,0.6370053,-0.9093098,-0.14833066,-0.81620157,0.7392215,0.24051568,0.16339198,0.61295825,0.6632127,0.32412574,1.0909212,-0.46135652,-1.6762894,-0.95009154,2.4173172,1.4706607,-0.99412817,1.1579291,-0.52195776,-1.6951663,-0.96333224,2.3649783,1.4091612,-1.0254898,-1.4613165,1.3293364,0.4963962,0.32188442,0.8939849,0.48233536,0.11125381,1.4940414,-0.570034,1.5316818,-3.1544788,0.13993883,0.60098547,0.15020752,-0.3930416,1.0225673,0.808703,-0.15569866,0.077178076,0.5619617,-0.47601637,0.728598,0.5583711,1.0,0.0,0.0,0.0,0.0,0.0,0.0,-2.1440415,0.17003402,-0.98168176,-0.09047985,-1.0740995,-8.469457,4.8214555,-0.58368444,0.040584803,2.5220542
4.176277,23.989141,4.8751817,8.665604,0.103286505,-1.2451327,0.0052169636,-0.8171411,0.7314011,0.20719488,0.11261522,0.59929824,0.66418433,0.34533745,1.0762149,-0.44881764,-1.6744468,-0.9520707,2.4249082,1.4755796,-0.99095607,1.1433188,-0.50875986,-1.6908042,-0.96024233,2.3738246,1.4139811,-1.0242004,-1.4612144,1.3168937,0.41626728,0.30419806,0.88233453,0.48272634,0.13470595,1.4625244,-0.56863785,1.5369507,-3.151325,0.13979892,0.5021986,0.14559174,-0.38591194,1.0279231,0.8097181,-0.16271757,0.078424044,0.55832726,-0.44740957,0.71167237,0.52270645,1.0,0.0,0.0,0.0,0.0,0.0,0.0,-2.1125245,0.16863784,-0.9869507,-0.043964386,-1.1636019,-8.010149,-1.9212842,-1.014781,0.22702217,2.293919
8.26071,21.847565,4.2336617,2.8800716,-0.3634671,-1.610209,0.1696205,-0.8216493,0.71976906,0.17416853,0.03496555,0.5950328,0.65735054,0.38732907,1.0611539,-0.43678296,-1.6733874,-0.9567458,2.433328,1.4797162,-0.98546755,1.1286913,-0.4957104,-1.6871803,-0.95785624,2.3825564,1.4188067,-1.0226727,-1.4634837,1.3012695,0.34439635,0.21630538,0.87049276,0.4833419,0.15862602,1.4310379,-0.56724167,1.5412325,-3.1481743,0.13965915,0.40351054,0.14144135,-0.37899208,1.0327942,0.81067884,-0.16919383,0.080026925,0.55476916,-0.39675248,0.6888246,0.47026253,1.0,0.0,0.0,0.0,0.0,0.0,0.0,-2.081038,0.16724166,-0.99123245,-0.24333,-1.4831543,-7.1592274,-8.91651,-1.0970831,0.32593012,2.352935
9.279391,17.806862,2.4212375,-0.6074991,-0.593668,-1.9476353,0.2052906,-0.82441664,0.7130718,0.09772195,-0.034688532,0.5943034,0.6607945,0.40826803,1.0462496,-0.42440322,-1.6774081,-0.9613251,2.4419868,1.4848862,-0.98184586,1.1140276,-0.48281577,-1.6844223,-0.9566727,2.391189,1.4236437,-1.0209141,-1.467154,1.2858152,0.2530455,0.08532067,0.86103684,0.4846676,0.18146639,1.3995819,-0.5658455,1.544528,-3.1450267,0.13951953,0.30492115,0.13787842,-0.37238693,1.0370461,0.811585,-0.17490405,0.082055524,0.55136657,-0.33413258,0.6542899,0.40557125,1.0,0.0,0.0,0.0,0.0,0.0,0.0,-2.049582,0.16584548,-0.994528,-0.3442049,-1.4608622,-9.121924,-13.211989,-0.9013176,0.42901635,2.264419
9.812285,15.05637,1.6251476,-2.1050987,-0.6550405,-2.1132107,0.25122115,-0.81891173,0.69372565,0.06605767,-0.10053117,0.5630932,0.65469486,0.46320504,1.0321364,-0.4134432,-1.6778165,-0.9667258,2.4474983,1.4891132,-0.9745936,1.0993601,-0.47012714,-1.682534,-0.95692164,2.3996577,1.4284884,-1.0189114,-1.4662325,1.2635272,0.16733642,-0.061952595,0.84208864,0.4853235,0.20649618,1.3681564,-0.5644493,1.5468384,-3.1418822,0.13938004,0.20643035,0.13497162,-0.36616707,1.0406191,0.8124336,-0.17973997,0.084530726,0.5481785,-0.26701158,0.6130131,0.33699596,1.0,0.0,0.0,0.0,0.0,0.0,0.0,-2.0181565,0.1644493,-0.9968384,0.1695633,-2.1376371,-8.5989685,-14.81848,-1.8726945,0.3615558,2.4903655
8.854222,13.539829,1.3495643,-1.2174172,-0.52004147,-2.107448,0.24146119,-0.8176777,0.6766661,0.037728414,-0.15617855,0.5375629,0.66251457,0.48344636,1.0175923,-0.40246052,-1.6787611,-0.9725395,2.453414,1.4947398,-0.97056675,1.0847193,-0.45770028,-1.6814106,-0.9585877,2.4078784,1.4333426,-1.0166664,-1.4630084,1.2360293,0.09390604,-0.20179191,0.81571835,0.48626304,0.23025642,1.3367615,-0.56305313,1.5481646,-3.138741,0.13924068,0.10803802,0.13271332,-0.36037254,1.0435292,0.8132297,-0.18371393,0.08742543,0.5452187,-0.20472012,0.56913596,0.2718212,1.0,0.0,0.0,0.0,0.0,0.0,0.0,-1.9867615,0.16305313,-0.9981646,0.42557716,-2.6548624,-7.4041977,-14.063424,-2.6145935,0.3533423,2.361381
7.3663626,12.402535,0.89998746,0.13605213,-0.4103306,-2.0917788,0.18604879,-0.81468964,0.6660813,-0.015403677,-0.21635276,0.5005841,0.66988146,0.49474776,1.0032504,-0.39109215,-1.682951,-0.980223,2.4579368,1.5003307,-0.96719164,1.0701262,-0.4455438,-1.6810424,-0.9615584,2.4157596,1.4382082,-1.0142021,-1.4576653,1.2091334,0.017505687,-0.3290851,0.7791685,0.48742118,0.2516324,1.305397,-0.5616646,1.5485078,-3.135603,0.13910148,0.009744057,0.13104248,-0.35502243,1.0458146,0.81401217,-0.18686575,0.09073893,0.54243124,-0.14775065,0.52349377,0.21055451,1.0,0.0,0.0,0.0,0.0,0.0,0.0,-1.955397,0.16166458,-0.9985078,0.6486654,-2.593565,-7.7220597,-12.807393,-3.6315799,0.33137798,2.1173
14.3582,18.142984,4.3729343,-4.969168,-0.89695317,-2.1686456,0.49607286,-0.80821174,0.6417772,0.076072864,-0.39946592,0.4754552,0.6718578,0.48869318,0.989305,-0.38136607,-1.6734351,-1.001505,2.463305,1.505394,-0.9653328,1.0556132,-0.43370107,-1.6808116,-0.96628386,2.4232516,1.4430891,-1.0115528,-1.4483197,1.1763519,0.02432078,-0.52027667,0.73950505,0.48906335,0.26927355,1.2740631,-0.56027603,1.5478687,-3.132468,0.1389624,-0.08845163,0.1301117,-0.35005188,1.0474284,0.81461257,-0.18914343,0.09438795,0.54011303,-0.06802318,0.487551,0.1416082,1.0,0.0,0.0,0.0,0.0,0.0,0.0,-1.9240631,0.16027603,-0.9978687,1.1372566,-3.1675816,0.52613056,-19.103104,-3.9445758,0.4191816,1.7732561
18.049208,26.724756,8.191909,-5.30692,-1.1085465,-2.01573,0.6329159,-0.80595034,0.646706,0.119051255,-0.49299985,0.46538842,0.6732308,0.48672727,0.97501814,-0.36903048,-1.6689066,-1.0155839,2.4697905,1.5104122,-0.9628801,1.0411936,-0.4220915,-1.6801155,-0.9730149,2.4303927,1.4479853,-1.0087509,-1.4390979,1.1562582,0.08381051,-0.7237562,0.7058776,0.49048558,0.28388253,1.2427597,-0.5588875,1.5462484,-3.129336,0.13882346,-0.18654914,0.13005066,-0.34531403,1.0483948,0.8148744,-0.19058496,0.09828384,0.53851384,0.019740323,0.467246,0.078313686,1.0,0.0,0.0,0.0,0.0,0.0,0.0,-1.8927597,0.15888748,-0.9962484,1.1372805,-1.8842936,5.73203,-20.281935,-3.2856822,0.3745258,1.5005469
14.200983,25.33828,7.2631426,-1.4922519,-0.75372523,-1.8939556,0.47717285,-0.8074207,0.64232284,0.07624861,-0.5295715,0.45439118,0.66964054,0.48680642,0.96045154,-0.35785922,-1.6724906,-1.025972,2.4758317,1.5149493,-0.96007025,1.026837,-0.41062072,-1.6789901,-0.98149306,2.4372478,1.4528872,-1.005825,-1.4340163,1.1443766,0.12143256,-0.8890005,0.6789515,0.49063045,0.29576257,1.2114868,-0.55749893,1.5436479,-3.1262074,0.13868468,-0.28454858,0.13074493,-0.34078217,1.048794,0.81485385,-0.19128007,0.10239768,0.53753126,0.09196049,0.44541648,0.023608394,1.0,0.0,0.0,0.0,0.0,0.0,0.0,-1.8614868,0.15749893,-0.9936479,0.6807327,-1.0661602,3.5542102,-16.491854,-2.5947928,0.17360449,1.2215853
8.835464,18.245129,4.053086,1.7744646,-0.35213047,-1.89706,0.27006814,-0.7965385,0.6237996,0.027657392,-0.57657593,0.40190196,0.66937137,0.4919473,0.94718313,-0.34824076,-1.6762244,-1.0391506,2.477438,1.5198243,-0.9566303,1.0125567,-0.39929536,-1.6778381,-0.9913197,2.443748,1.4577852,-1.0027943,-1.4255843,1.1289428,0.112687126,-1.0139366,0.64058614,0.48990828,0.3056036,1.1802444,-0.5561104,1.5400681,-3.123082,0.13854602,-0.38245004,0.13205719,-0.33655357,1.0486741,0.8147059,-0.19128045,0.106766656,0.5369048,0.14681616,0.4124754,-0.02760351,1.0,0.0,0.0,0.0,0.0,0.0,0.0,-1.8302444,0.15611038,-0.99006814,0.9971142,-1.4350176,-1.0525718,-12.512768,-3.765893,0.021845102,0.9825766
5.0486546,14.6041355,2.3202186,4.7392693,-0.040844887,-1.8263454,0.12260197,-0.79556376,0.6175194,0.012120799,-0.62561804,0.36784327,0.66416335,0.4786497,0.9330003,-0.33754343,-1.676626,-1.0538815,2.4805324,1.5242016,-0.9549293,0.9983467,-0.38811782,-1.676955,-1.0021691,2.449821,1.4626681,-0.9996891,-1.4192102,1.1143348,0.07977532,-1.1088116,0.5964392,0.4880882,0.31203678,1.1490326,-0.55472565,1.5355101,-3.1199594,0.1384075,-0.4802536,0.13378906,-0.33267403,1.0480818,0.81455475,-0.19063912,0.11142083,0.53641653,0.18772383,0.3753988,-0.073729314,1.0,0.0,0.0,0.0,0.0,0.0,0.0,-1.7990326,0.15472564,-0.98551005,0.7442951,-1.362896,-3.412424,-9.550834,-4.361725,-0.13990998,0.61154366
-0.78479195,4.9071026,-2.1199641,6.9318576,0.21735156,-1.8974869,-0.09049845,-0.7940028,0.5944899,-0.06826446,-0.6586605,0.2389171,0.6651477,0.4879377,0.9189464,-0.32866883,-1.6837814,-1.0680351,2.4737127,1.5291828,-0.9508953,0.98418653,-0.37715772,-1.6767795,-1.0137696,2.4551349,1.4675337,-0.9965277,-1.4146718,1.0901316,-0.0034959677,-1.177629,0.50987726,0.4858478,0.3172195,1.1178513,-0.5533447,1.5299747,-3.1168401,0.13826913,-0.5779594,0.13582611,-0.32927132,1.0470135,0.81456584,-0.18935333,0.11651306,0.53577274,0.21456824,0.3241482,-0.12189598,1.0,0.0,0.0,0.0,0.0,0.0,0.0,-1.7678512,0.15334472,-0.9799747,0.54614544,-2.351427,-8.366767,-6.994295,-8.682144,-0.24122596,0.41751862
-5.4241123,-5.3475757,-6.1189227,8.281988,0.23942906,-1.9298146,-0.23170644,-0.7798863,0.5424748,-0.11231326,-0.6760662,-0.04575661,0.6698584,0.49241757,0.9061979,-0.32291025,-1.6880108,-1.0813762,2.4505591,1.5345196,-0.9472859,0.97012174,-0.36664632,-1.6775749,-1.0258737,2.4588199,1.4723803,-0.9933233,-1.4033278,1.0382962,-0.10493192,-1.2217368,0.32104218,0.48405465,0.320835,1.0867004,-0.5519638,1.523463,-3.1137238,0.13813089,-0.67556757,0.13812256,-0.32645226,1.0454316,0.814864,-0.18743122,0.122343704,0.53469443,0.23349954,0.2634351,-0.17422743,1.0,0.0,0.0,0.0,0.0,0.0,0.0,-1.7367004,0.1519638,-0.973463,1.2706518,-5.1439524,-10.18853,-4.544306,-18.948627,-0.2224505,0.16298294
-15.168579,-27.837067,-15.48728,9.056557,0.602271,-2.2015004,-0.49230176,-0.7777784,0.4546108,-0.25039944,-0.6906448,-0.36283326,0.67663133,0.48017934,0.8923439,-0.32118523,-1.7026148,-1.0949382,2.4225366,1.5400434,-0.9453054,0.95617235,-0.35701182,-1.6798427,-1.0382905,2.4598155,1.4772116,-0.9901056,-1.3913224,0.93843126,-0.267503,-1.2487806,0.025286943,0.4826128,0.3207893,1.0555801,-0.5505829,1.515976,-3.1106107,0.13799278,-0.77307814,0.14042664,-0.3244896,1.0432179,0.81564796,-0.18477368,0.12925614,0.5327945,0.23199685,0.16908348,-0.24091782,1.0,0.0,0.0,0.0,0.0,0.0,0.0,-1.7055801,0.15058288,-0.96597594,1.445198,-10.019088,-16.262726,-2.8489351,-29.77982,-0.2461791,-0.37010312
-30.421425,-70.287476,-29.886702,11.110183,2.5267224,-2.4696522,-0.5928907,-0.75472885,0.2114856,-0.27939215,-0.66398567,-0.5379897,0.6744953,0.5001724,0.88069946,-0.33586326,-1.7077819,-1.1046891,2.4060166,1.5446612,-0.9400884,0.9424385,-0.3494039,-1.6836231,-1.0507169,2.4576716,1.4820276,-0.986887,-1.3657811,0.7010545,-0.41542426,-1.2410518,-0.2955142,0.48067817,0.32052568,1.0244904,-0.54920197,1.5075145,-3.1075008,0.13785483,-0.8704912,0.14226532,-0.32395554,1.040239,0.8170297,-0.18130076,0.13688746,0.5299567,0.16652882,0.009735777,-0.3204014,1.0,0.0,0.0,0.0,0.0,0.0,0.0,-1.6744903,0.14920196,-0.95751446,3.0451775,-23.896133,-14.9202585,0.6774664,-32.35052,-0.35288334,-0.55859685
-44.848396,-110.24492,-43.17376,12.612631,4.712229,-2.6748927,-0.5900706,-0.75467217,-0.053955827,-0.28914106,-0.6662498,-0.5973514,0.6798535,0.4711123,0.86697125,-0.35479948,-1.7125372,-1.1173419,2.3979366,1.550013,-0.93977576,0.92894304,-0.34519008,-1.6885517,-1.062985,2.452701,1.4868227,-0.983696,-1.3416408,0.32717738,-0.519462,-1.2220246,-0.5650395,0.4780667,0.31664574,0.9934387,-0.54782104,1.4980797,-3.104394,0.137717,-0.9678069,0.14292145,-0.32548523,1.0363791,0.8190386,-0.17693198,0.14436957,0.5263346,0.030916482,-0.21161012,-0.4106665,1.0,0.0,0.0,0.0,0.0,0.0,0.0,-1.6434387,0.14782104,-0.94807965,3.1646967,-37.675266,-10.688215,1.9840717,-27.25625,-0.5666435,-0.9800315
-49.299778,-130.63417,-46.769573,13.066271,6.3925066,-2.448797,-0.20076357,-0.74191153,-0.3658462,-0.10537243,-0.67835903,-0.61199147,0.67039514,0.48720926,0.8547519,-0.3817747,-1.6990889,-1.1308209,2.391502,1.5538622,-0.934975,0.91570127,-0.3456488,-1.6932743,-1.0751042,2.4456592,1.4915758,-0.98052216,-1.3153466,-0.17137147,-0.45849594,-1.2075068,-0.75124186,0.47274482,0.31628165,0.96242523,-0.54644775,1.4876724,-3.1012902,0.1375793,-1.0650252,0.14187622,-0.3293972,1.0316122,0.82143515,-0.17175962,0.15054879,0.5225685,-0.15335332,-0.45310444,-0.5006813,1.0,0.0,0.0,0.0,0.0,0.0,0.0,-1.6124252,0.14644775,-0.93767244,3.5516262,-50.209953,5.5343747,1.8055439,-18.79791,-1.0396361,-0.44533014
-35.211784,-108.26592,-33.439632,10.833384,6.19245,-1.7785571,0.4961303,-0.6850524,-0.5851324,0.15521441,-0.7233511,-0.5672,0.651606,0.50868493,0.84719604,-0.40416205,-1.6777529,-1.1474394,2.3889391,1.5567365,-0.92965364,0.9029192,-0.35122684,-1.6958759,-1.0873265,2.437492,1.4962584,-0.97731304,-1.2632834,-0.687593,-0.19627689,-1.2255456,-0.8383081,0.4645748,0.32233566,0.93144226,-0.54507446,1.4762937,-3.0981896,0.13744175,-1.1621464,0.13913727,-0.33535004,1.0260391,0.82369435,-0.16609152,0.15450194,0.5196828,-0.31850037,-0.6423809,-0.5777746,1.0,0.0,0.0,0.0,0.0,0.0,0.0,-1.5814422,0.14507446,-0.9262937,5.9852123,-51.919937,25.483618,-1.3403893,-8.672773,-1.4548898,0.5792916
-10.177072,-52.72328,-9.987368,8.217894,4.095632,-0.9928284,1.0127468,-0.5789269,-0.66108423,0.28779885,-0.7537818,-0.58605105,0.6245015,0.4932064,0.8450265,-0.41733527,-1.667096,-1.1627047,2.3788867,1.5587085,-0.9279924,0.8910669,-0.36108926,-1.6952827,-1.0999188,2.4288402,1.5008513,-0.9740391,-1.1579199,-1.086321,0.14235957,-1.2694736,-0.8733869,0.4557843,0.32997018,0.9004898,-0.5437012,1.4639446,-3.095092,0.13730434,-1.2591705,0.13536072,-0.3424797,1.0198647,0.8253075,-0.16031986,0.1561451,0.51844364,-0.4037992,-0.73297834,-0.6324832,1.0,0.0,0.0,0.0,0.0,0.0,0.0,-1.5504898,0.14370117,-0.91394454,10.899448,-40.03036,33.208252,-4.0967464,-3.3119798,-1.3697624,1.0285735
13.704949,-1.0837376,10.53978,5.637601,1.864844,-0.5756088,1.2536974,-0.36798504,-0.7311157,0.30318537,-0.73717356,-0.5924009,0.61901724,0.4118299,0.85426843,-0.43420082,-1.6649642,-1.1736362,2.3696,1.562753,-0.9328561,0.8811077,-0.37391666,-1.6917694,-1.1128583,2.4200587,1.5053717,-0.9707489,-0.9425818,-1.3482628,0.4200117,-1.3020318,-0.8785841,0.4502732,0.33003584,0.8695679,-0.5423279,1.4506258,-3.0919976,0.13716707,-1.3560976,0.13135529,-0.34994507,1.0133133,0.82595205,-0.15479314,0.15588266,0.5191751,-0.40340737,-0.7443982,-0.66473454,1.0,0.0,0.0,0.0,0.0,0.0,0.0,-1.5195678,0.14232787,-0.90062577,21.319126,-26.216198,27.479887,-3.2224178,-0.2227664,-0.75905323,0.38753748
35.482483,44.24077,28.353195,3.311431,-0.22296193,-0.36692983,1.392017,-0.12908633,-0.764081,0.33111328,-0.7150379,-0.5957975,0.6406767,0.35970724,0.86819905,-0.45032477,-1.658658,-1.184362,2.3604789,1.5694394,-0.93477815,0.87415063,-0.38838723,-1.6861656,-1.1259332,2.4113193,1.5098788,-0.96750355,-0.6158181,-1.4797398,0.6075619,-1.3100445,-0.8712324,0.45119026,0.3240017,0.83867645,-0.5409546,1.4363385,-3.0889063,0.13702993,-1.4529278,0.12793732,-0.35705376,1.0066075,0.8254102,-0.14980717,0.15427104,0.52197343,-0.32179263,-0.69249433,-0.67444927,1.0,0.0,0.0,0.0,0.0,0.0,0.0,-1.4886764,0.14095458,-0.88633853,31.928205,-13.060427,18.901276,-0.99265575,1.0752559,0.18502474,-0.20680428
37.41642,54.606094,28.545918,3.138812,-0.97331953,-0.77085996,1.0124977,0.030894743,-0.7827968,0.16985814,-0.69739866,-0.57303137,0.64272887,0.30873165,0.8772401,-0.4666669,-1.6691798,-1.195673,2.354016,1.5741516,-0.93663037,0.87070596,-0.40348294,-1.6801918,-1.1389165,2.40274,1.5144049,-0.9643669,-0.2570997,-1.5192646,0.5958443,-1.2949507,-0.8530179,0.45346582,0.311091,0.80781555,-0.5395851,1.4210837,-3.085818,0.13689293,-1.5496613,0.12553406,-0.36368942,0.9998126,0.82386464,-0.14528292,0.15191595,0.5263662,-0.21667871,-0.644794,-0.6826781,1.0,0.0,0.0,0.0,0.0,0.0,0.0,-1.4578155,0.13958511,-0.8710837,34.947456,-3.8794994,-0.6494403,1.3109684,1.9811988,0.33698678,-1.0331333
21.391106,34.607666,13.541441,4.705762,-0.44363302,-1.5482754,0.2795908,0.10464262,-0.7956444,-0.11562974,-0.7002458,-0.51513517,0.63346577,0.28643906,0.8811702,-0.4830474,-1.6917547,-1.2089411,2.3512266,1.5777515,-0.935723,0.8704113,-0.41860774,-1.6762092,-1.1517167,2.3944926,1.5189387,-0.9613819,0.043655273,-1.510287,0.33502916,-1.2753782,-0.81556785,0.45311886,0.29441944,0.77698517,-0.53821945,1.4048622,-3.082733,0.13675606,-1.6462979,0.123909,-0.37027168,0.9927686,0.82191366,-0.14070787,0.14934412,0.5313714,-0.14282121,-0.6551816,-0.71322894,1.0,0.0,0.0,0.0,0.0,0.0,0.0,-1.4269851,0.13821945,-0.85486215,29.25486,0.8718252,-25.308067,1.9108772,3.6342502,-0.11155009,-1.6124189
3.9525967,10.2510605,-2.4491267,5.437436,0.25866494,-2.2130585,-0.29930237,0.16021836,-0.7999204,-0.37889355,-0.7270282,-0.48261592,0.62641,0.34335187,0.8864331,-0.49859977,-1.7140986,-1.2244195,2.346231,1.5815797,-0.9270467,0.872475,-0.43350318,-1.6761634,-1.1644635,2.3866763,1.5234514,-0.958518,0.25860667,-1.4830298,-0.10301832,-1.2740918,-0.7714917,0.44972578,0.28337866,0.7461853,-0.5368538,1.387675,-3.0796509,0.13661933,-1.742838,0.12272644,-0.37739754,0.98519146,0.82017225,-0.13543478,0.14693864,0.53608197,-0.106901824,-0.7240174,-0.7748366,1.0,0.0,0.0,0.0,0.0,0.0,0.0,-1.3961853,0.13685378,-0.83767503,20.915356,2.6071072,-43.00693,0.24824142,4.1086555,-0.623399,-1.203376
5.4845614,11.139299,-2.2450156,3.1554615,-0.0014873445,-2.2652633,-0.2138205,0.29946423,-0.7997196,-0.45024464,-0.7534983,-0.48884115,0.6272288,0.38689417,0.9024215,-0.5134751,-1.721188,-1.2398133,2.3377922,1.5861744,-0.9198286,0.8765205,-0.44811776,-1.6803195,-1.1773705,2.3792148,1.5279261,-0.95571613,0.45171252,-1.4546312,-0.51776105,-1.2956918,-0.73878974,0.44562444,0.2789066,0.71541595,-0.5354881,1.3695233,-3.0765717,0.13648275,-1.8392816,0.12197113,-0.38519478,0.9769239,0.8187471,-0.12920228,0.14483304,0.5403547,-0.06338422,-0.7918042,-0.84752613,1.0,0.0,0.0,0.0,0.0,0.0,0.0,-1.3654159,0.13548812,-0.8195233,18.869156,2.722001,-40.859444,-2.0334482,3.011012,-0.76459646,-0.53994656
9.043991,21.827957,4.22112,5.0297804,-0.25971568,-1.6591623,-0.026694551,0.34714696,-0.7939475,-0.44159085,-0.7470987,-0.55361295,0.64248884,0.3988353,0.9112352,-0.5275125,-1.7244786,-1.2520804,2.3238535,1.592175,-0.9158326,0.8821119,-0.46247962,-1.6875656,-1.1904778,2.371799,1.5323797,-0.9529333,0.59421057,-1.4302807,-0.7926604,-1.3153927,-0.74311835,0.44425732,0.27795213,0.6846771,-0.53412247,1.3504078,-3.0734959,0.13634628,-1.9356287,0.121658325,-0.39340782,0.9680382,0.8174555,-0.12219845,0.14306352,0.5443959,-0.014768324,-0.8244365,-0.90709746,1.0,0.0,0.0,0.0,0.0,0.0,0.0,-1.3346771,0.13412246,-0.8004078,14.0226,2.355361,-27.213585,-1.8664837,-0.5985856,-0.4021585,-0.12680888
5.864532,22.449078,5.2740974,8.047182,0.056757808,-1.2068504,-0.005832061,0.3517011,-0.8004251,-0.5261394,-0.75462407,-0.5469247,0.62359244,0.40149358,0.91728204,-0.54252213,-1.7401795,-1.2659403,2.3171065,1.594739,-0.912784,0.88864076,-0.47670224,-1.6968639,-1.2037721,2.364284,1.5368124,-0.95014954,0.67225194,-1.4198266,-0.9755175,-1.3338047,-0.7546645,0.44195306,0.27839848,0.6539688,-0.5327568,1.3303297,-3.070423,0.13620996,-2.0318794,0.12173462,-0.4018402,0.9586249,0.8162031,-0.11460976,0.14156362,0.5483035,0.017643847,-0.8438922,-0.9586147,1.0,0.0,0.0,0.0,0.0,0.0,0.0,-1.3039688,0.1327568,-0.78032964,7.7831626,0.9646177,-18.229591,-1.6989708,-1.3175726,-0.45562983,0.040775537
2.1010592,26.734697,8.06711,12.881455,0.43110627,-0.52546424,0.005145088,0.3107713,-0.7969514,-0.5125602,-0.7537407,-0.5558098,0.6358745,0.40837497,0.9197179,-0.5563974,-1.74812,-1.2791462,2.308703,1.6003999,-0.909312,0.89536226,-0.49087003,-1.7071273,-1.2171941,2.3566165,1.5412356,-0.9473543,0.672699,-1.4160107,-1.0438726,-1.344405,-0.77112657,0.44220656,0.28007784,0.623291,-0.5313988,1.3092897,-3.0673532,0.13607378,-2.1280339,0.12195587,-0.41030502,0.9488286,0.8149338,-0.106680505,0.14023192,0.5521205,0.03034754,-0.84063655,-0.9929204,1.0,0.0,0.0,0.0,0.0,0.0,0.0,-1.273291,0.13139877,-0.7592897,0.23334026,0.30486584,-6.994033,-0.8927345,-1.818192,-0.09763241,0.19259453
-1.9788518,29.728516,9.796443,16.846872,0.78451717,0.007111788,-0.0099027455,0.2607377,-0.7935283,-0.49650222,-0.7599032,-0.55880696,0.63511074,0.4186696,0.921436,-0.57022285,-1.7567775,-1.2931844,2.3007357,1.6047466,-0.90548736,0.90161455,-0.50501984,-1.717469,-1.2307,2.3487964,1.5456682,-0.9445324,0.61058843,-1.4149231,-1.0317936,-1.3520651,-0.78624403,0.4434826,0.28296104,0.59264374,-0.53004074,1.2872889,-3.0642865,0.13593774,-2.224092,0.12219238,-0.41861916,0.9387947,0.8136189,-0.09863059,0.13897814,0.5558609,0.025045808,-0.8219432,-1.0133456,1.0,0.0,0.0,0.0,0.0,0.0,0.0,-1.2426437,0.13004074,-0.7372889,-5.8698654,0.03285408,0.905323,-0.573802,-1.7078042,0.08443594,0.33224225
-4.8437834,30.95587,10.337549,18.867298,1.0178437,0.28183076,-0.025334805,0.22165711,-0.79145795,-0.49757,-0.76868755,-0.55491364,0.6333898,0.44126403,0.92378026,-0.58416563,-1.767226,-1.3075688,2.293305,1.6090072,-0.900406,0.90701616,-0.5191638,-1.7274444,-1.2442899,2.3408694,1.5501162,-0.9416666,0.51797485,-1.4144694,-0.9872037,-1.3605467,-0.7956573,0.44510445,0.28806645,0.562027,-0.5286827,1.2643282,-3.0612228,0.13580182,-2.320054,0.122276306,-0.42671204,0.9286053,0.8122566,-0.09056938,0.1377342,0.5595227,0.008507816,-0.79751766,-1.0270392,1.0,0.0,0.0,0.0,0.0,0.0,0.0,-1.212027,0.1286827,-0.7143282,-8.853745,-0.0313282,4.096079,-0.636363,-1.1503696,0.15718341,0.5667746
-10.248546,30.394156,9.421627,22.017609,1.3604956,0.55305207,-0.13538346,0.14091437,-0.78880703,-0.48051932,-0.7571292,-0.5787031,0.6386885,0.4342892,0.9211076,-0.5980445,-1.7754964,-1.3200028,2.282999,1.6139851,-0.8982377,0.911239,-0.5332963,-1.7368743,-1.2578855,2.3328052,1.5545851,-0.9387579,0.39203793,-1.4130925,-0.9295725,-1.3585137,-0.8106286,0.44751936,0.29202697,0.53144073,-0.5273247,1.2404087,-3.0581622,0.13566604,-2.4159203,0.12207794,-0.43454552,0.91833156,0.8109115,-0.082572706,0.13649827,0.563003,-0.02485141,-0.77132434,-1.0334172,1.0,0.0,0.0,0.0,0.0,0.0,0.0,-1.1814407,0.12732467,-0.69040865,-12.11434,0.050592422,5.3649306,0.45034885,-1.737845,0.27604103,0.4446149
-17.266006,24.940613,5.4393463,23.561455,1.7566255,0.5746238,-0.27974305,0.052488293,-0.7899133,-0.5072154,-0.7665363,-0.57524043,0.6286829,0.4422973,0.9164879,-0.61228764,-1.7875959,-1.334539,2.2752812,1.6174533,-0.89452815,0.9140152,-0.54742306,-1.7459495,-1.271481,2.3246226,1.5590655,-0.9358082,0.24121502,-1.412886,-0.9014325,-1.358745,-0.821755,0.44839948,0.29598793,0.500885,-0.52596664,1.2155311,-3.0551045,0.13553041,-2.5116906,0.121421814,-0.44220924,0.90795493,0.80971223,-0.07457617,0.13527538,0.5661317,-0.07654753,-0.7571495,-1.0445032,1.0,0.0,0.0,0.0,0.0,0.0,0.0,-1.150885,0.12596664,-0.6655311,-14.542431,-0.09372234,2.4168015,0.29172897,-1.4069676,0.090527534,0.42419434
-26.100592,19.898922,1.3850033,26.14319,2.2784574,0.71145594,-0.44899175,-0.07732979,-0.7884835,-0.505393,-0.7691477,-0.5644053,0.62015235,0.44157067,0.9062822,-0.6262714,-1.7964888,-1.3483958,2.268182,1.6210806,-0.8916511,0.9149889,-0.561546,-1.7548778,-1.2850842,2.3163867,1.5635458,-0.9328251,0.051419076,-1.4125344,-0.89143693,-1.3596219,-0.8253366,0.44787142,0.2991426,0.4703598,-0.5246124,1.1896966,-3.05205,0.1353949,-2.6073651,0.12005615,-0.4498062,0.897448,0.808817,-0.066495635,0.13405046,0.5687036,-0.15253273,-0.7526947,-1.057878,1.0,0.0,0.0,0.0,0.0,0.0,0.0,-1.1203598,0.12461242,-0.63969654,-18.349194,-0.11384487,0.58282614,0.30584335,-0.7165432,-0.07685423,0.32653213
-30.059772,17.435986,-0.64750075,26.328691,2.4868398,0.747681,-0.5008034,-0.17487805,-0.79103553,-0.5085801,-0.78354406,-0.5543175,0.59998775,0.43284538,0.89750105,-0.64064956,-1.8057358,-1.3634386,2.2609549,1.6235446,-0.88954055,0.91398656,-0.57568043,-1.7638137,-1.2987618,2.3081698,1.5680033,-0.92982006,-0.14850007,-1.4142078,-0.8958471,-1.3689969,-0.8218704,0.44468838,0.30095938,0.4398651,-0.523262,1.1629059,-3.0489986,0.13525954,-2.702944,0.11785889,-0.45740318,0.88676715,0.80831325,-0.058244303,0.13277861,0.5706198,-0.23865937,-0.7539404,-1.0763632,1.0,0.0,0.0,0.0,0.0,0.0,0.0,-1.0898651,0.12326202,-0.6129059,-19.3409,-0.33905506,-0.8580208,-0.49402714,-0.042414665,-0.39103627,0.19755363
-23.747898,22.532804,2.9291477,23.739254,2.127847,0.72529227,-0.33716956,-0.20447527,-0.79400367,-0.49120128,-0.7875838,-0.5528588,0.59222084,0.4570585,0.893539,-0.6550808,-1.8129339,-1.3775202,2.252884,1.6272254,-0.8841142,0.91131437,-0.58984536,-1.7727497,-1.312552,2.3000064,1.5724226,-0.92677975,-0.30500042,-1.4176707,-0.8940992,-1.3810718,-0.8157834,0.44068375,0.30518967,0.40940094,-0.5219116,1.1351602,-3.0459502,0.13512431,-2.7984273,0.11495972,-0.46495438,0.8759033,0.8081079,-0.04982778,0.13139848,0.5720254,-0.30803844,-0.7473012,-1.0943283,1.0,0.0,0.0,0.0,0.0,0.0,0.0,-1.0594009,0.121911615,-0.5851602,-15.116143,-0.49772263,-0.19929409,-0.8081913,0.2732396,-0.47883987,0.47809482
-22.49024,23.97478,3.5925307,22.763794,2.0048347,0.71966356,-0.3082175,-0.28287992,-0.79397595,-0.5141787,-0.7885638,-0.5644517,0.58951545,0.46644813,0.88302636,-0.669243,-1.8241675,-1.3914083,2.2435613,1.6313741,-0.88013494,0.90722597,-0.60404176,-1.7817714,-1.3264489,2.2918658,1.5768,-0.9236927,-0.44186637,-1.420706,-0.9060702,-1.3911818,-0.81475216,0.43654352,0.3101588,0.3789673,-0.5205612,1.1064606,-3.0429049,0.13498922,-2.8938153,0.11139679,-0.472435,0.8648447,0.8081451,-0.041242935,0.12990357,0.5729969,-0.37277752,-0.7394491,-1.1140717,1.0,0.0,0.0,0.0,0.0,0.0,0.0,-1.0289673,0.12056121,-0.55646056,-13.205236,-0.45378208,-1.5341997,-0.614357,-0.22095442,-0.5118966,0.5580485
-29.75348,14.847222,-2.8565526,22.735172,2.4114504,0.5038289,-0.4843498,-0.37817553,-0.8080301,-0.6284327,-0.7929061,-0.54186314,0.5455518,0.42359388,0.8694084,-0.6848448,-1.8446147,-1.4057395,2.2376795,1.6313552,-0.8813333,0.9017614,-0.61832875,-1.7914455,-1.3404336,2.2837863,1.5811011,-0.9205923,-0.5795795,-1.431977,-0.98885244,-1.3990492,-0.8069098,0.42724964,0.3101067,0.34856415,-0.5192108,1.0768077,-3.0398624,0.13485426,-2.9891078,0.107048035,-0.48000336,0.8534607,0.8085513,-0.032300673,0.12827538,0.5733645,-0.45532835,-0.7531713,-1.1506661,1.0,0.0,0.0,0.0,0.0,0.0,0.0,-0.9985641,0.11921081,-0.5268077,-13.26344,-1.329112,-8.556008,-0.28824806,0.38717985,-1.1573493,0.027555227
-31.872625,14.44408,-3.6921864,22.663424,2.5747313,0.5721176,-0.5092591,-0.45745927,-0.8103018,-0.65231645,-0.7992375,-0.49722916,0.5202761,0.41819334,0.8560155,-0.69935894,-1.8566772,-1.4203573,2.2340634,1.6331286,-0.878773,0.8949207,-0.6327321,-1.802037,-1.3544965,2.2759128,1.5852915,-0.9175005,-0.7172257,-1.4438039,-1.083346,-1.4067317,-0.7821611,0.41547513,0.30904177,0.31819153,-0.5178604,1.0462027,-3.0368233,0.13471943,-3.084305,0.10181427,-0.48773003,0.8416861,0.8093901,-0.022900514,0.12642428,0.5730445,-0.5453834,-0.7681261,-1.19062,1.0,0.0,0.0,0.0,0.0,0.0,0.0,-0.9681915,0.11786041,-0.49620265,-13.251698,-1.4080763,-9.706926,-0.2294302,2.0469427,-1.4612854,-0.062066317
-38.86208,13.354353,-5.6397796,24.697401,2.990138,0.84632325,-0.62227905,-0.5851351,-0.8147106,-0.68537444,-0.8008758,-0.46018165,0.49563318,0.3800922,0.8364072,-0.7142032,-1.8705745,-1.434584,2.2298946,1.6348548,-0.87949127,0.88646924,-0.64725274,-1.8135574,-1.3686147,2.2683825,1.5893523,-0.9144478,-0.8858054,-1.4556814,-1.1757752,-1.4115255,-0.744981,0.4016941,0.3041482,0.28784943,-0.51651764,1.0146463,-3.033787,0.13458474,-3.1794071,0.09554291,-0.49559975,0.8295185,0.8107388,-0.01302744,0.12425005,0.57192206,-0.6562133,-0.7822795,-1.2299582,1.0,0.0,0.0,0.0,0.0,0.0,0.0,-0.9378494,0.11651763,-0.46464628,-16.2753,-1.4593124,-9.511995,0.14357567,3.2225132,-1.7249525,-0.4349649
-39.873272,18.796812,-3.3751917,25.76646,2.9597108,1.1971226,-0.65210384,-0.6729446,-0.8072509,-0.70712477,-0.79125404,-0.46513513,0.5180026,0.30152678,0.81917477,-0.7279778,-1.8842698,-1.4477401,2.221869,1.6411525,-0.8842951,0.8762821,-0.6618268,-1.8258636,-1.3827157,2.2611651,1.5933024,-0.9115019,-1.0611471,-1.4589651,-1.2495388,-1.4074899,-0.71565497,0.39169306,0.29167426,0.25753784,-0.51517487,0.9821396,-3.0307539,0.13445018,-3.274414,0.088150024,-0.50352097,0.8170226,0.8126177,-0.0027731177,0.12175118,0.56993103,-0.7703683,-0.7822202,-1.2606931,1.0,0.0,0.0,0.0,0.0,0.0,0.0,-0.9075378,0.11517486,-0.43213958,-16.956306,-0.6135464,-7.6315165,1.0343552,2.427268,-1.3497174,-1.1859536
-35.535328,27.370714,1.608803,25.549221,2.6224937,1.5004563,-0.5889082,-0.7322119,-0.8004915,-0.71521944,-0.7725583,-0.48242185,0.55122215,0.23086604,0.8030609,-0.74187595,-1.8973856,-1.4599715,2.212923,1.6484246,-0.8884153,0.86448133,-0.6763703,-1.8386981,-1.3966775,2.2541194,1.5971953,-0.90872765,-1.2179443,-1.4537104,-1.2954714,-1.3904488,-0.70232797,0.38740212,0.27286682,0.22725677,-0.5138321,0.9486835,-3.0277238,0.13431576,-3.369326,0.079689026,-0.5112953,0.8043153,0.81495744,0.007678264,0.11898614,0.56712216,-0.8729426,-0.7630902,-1.2786868,1.0,0.0,0.0,0.0,0.0,0.0,0.0,-0.87725675,0.11383209,-0.3986835,-15.181017,0.26147366,-4.811287,2.2733688,0.88067055,-0.7233083,-1.8098235
-28.4239,34.941452,6.790114,23.754936,2.2870054,1.6295791,-0.49119705,-0.77529526,-0.7967829,-0.72155625,-0.7654296,-0.42137673,0.5445256,0.07221219,0.7869518,-0.7560486,-1.9108537,-1.4732205,2.2119818,1.6516478,-0.9015064,0.85136163,-0.690828,-1.8518131,-1.4104447,2.2473292,1.6010538,-0.90624714,-1.3420182,-1.4438839,-1.31741,-1.3704505,-0.6725157,0.38456157,0.2401182,0.19700623,-0.5124893,0.9142791,-3.0246966,0.13418147,-3.4641433,0.07035065,-0.5187988,0.79149806,0.8176645,0.01816837,0.11590126,0.5636147,-0.9584702,-0.73070306,-1.2872343,1.0,0.0,0.0,0.0,0.0,0.0,0.0,-0.8470062,0.11248931,-0.3642791,-12.018633,0.75740814,-2.3674965,2.4794817,2.6120424,-0.52222013,-3.1692743
-20.401579,40.903954,11.541919,21.467003,2.0244865,1.6492233,-0.39718512,-0.8015503,-0.79553694,-0.7209076,-0.7540056,-0.3222719,0.53198296,-0.13727747,0.7712066,-0.7703817,-1.9239038,-1.4858453,2.215102,1.6542522,-0.91997486,0.8372959,-0.7051875,-1.8650024,-1.4240003,2.2411036,1.6048838,-0.9042301,-1.4271839,-1.433879,-1.3199892,-1.3491735,-0.60691786,0.38184404,0.18934461,0.1667862,-0.51114655,0.87892723,-3.0216725,0.13404731,-3.5588655,0.060279846,-0.5259285,0.7786499,0.8206604,0.028562685,0.11232914,0.559538,-1.0262927,-0.69067895,-1.2882597,1.0,0.0,0.0,0.0,0.0,0.0,0.0,-0.81678617,0.11114654,-0.32892722,-8.243704,0.8221388,-0.3856659,2.5085926,6.286609,-0.4528761,-4.9267473
-14.096381,44.952103,14.968345,19.971867,1.9063246,1.6274865,-0.33919522,-0.81772196,-0.7926409,-0.7249035,-0.7281216,-0.21126518,0.53141946,-0.29039448,0.7555237,-0.7844516,-1.9374927,-1.4968125,2.2199771,1.6580257,-0.93326956,0.8226446,-0.7194535,-1.8781612,-1.4372773,2.2358165,1.6086909,-0.9028034,-1.4772372,-1.4246699,-1.3147662,-1.3193645,-0.50320834,0.3800024,0.12777694,0.13659668,-0.5098038,0.84262884,-3.0186515,0.1339133,-3.6534932,0.04962921,-0.53264236,0.76583934,0.82389843,0.038743984,0.10808724,0.55498403,-1.0816423,-0.64843243,-1.2826297,1.0,0.0,0.0,0.0,0.0,0.0,0.0,-0.78659666,0.109803766,-0.29262882,-4.8267365,0.7824421,0.44326782,3.2781363,10.186386,-0.32024384,-5.9716196
-8.6896925,49.603416,18.425938,18.770489,1.5626856,1.6779375,-0.26698714,-0.8336215,-0.78275454,-0.7087702,-0.7050551,-0.19386466,0.55882466,-0.34779114,0.7392824,-0.79772896,-1.9490383,-1.5077828,2.21643,1.6645733,-0.93758255,0.80766237,-0.7336051,-1.8911712,-1.4502053,2.2315059,1.6125075,-0.9019861,-1.5048031,-1.4123588,-1.2965398,-1.2833298,-0.4076416,0.3819466,0.066917256,0.10643768,-0.5084686,0.8053849,-3.0156333,0.1337794,-3.7480264,0.03853607,-0.538887,0.75313646,0.82731396,0.04859613,0.10318209,0.5500395,-1.1211979,-0.599433,-1.2700368,1.0,0.0,0.0,0.0,0.0,0.0,0.0,-0.75643766,0.10846862,-0.25538486,-2.6465893,1.1286259,1.7755985,3.8224697,9.445828,0.12308359,-5.910283
-4.641385,51.74259,20.108652,17.571358,0.97335744,1.6405783,-0.23130459,-0.8312728,-0.77973294,-0.71488625,-0.66705596,-0.31724122,0.5895079,-0.3922473,0.7245351,-0.8115784,-1.9626598,-1.5169109,2.1997817,1.6714582,-0.94121087,0.7925676,-0.7476422,-1.9040344,-1.4626698,2.2275805,1.6163718,-0.9017515,-1.5108718,-1.4011613,-1.2829614,-1.2337544,-0.38723394,0.38785732,0.009273363,0.076309204,-0.5071335,0.7671963,-3.0126183,0.13364565,-3.8424647,0.027198792,-0.5445976,0.7405638,0.8308293,0.0580687,0.097937964,0.54475576,-1.1417029,-0.54547983,-1.2565811,0.0,1.0,0.0,0.0,0.0,0.0,0.0,-0.7263092,0.10713348,-0.21719629,-0.54330826,1.0439873,1.3354301,5.1302433,1.979667,0.5782485,-5.65336
-2.2097454,51.41204,20.197594,16.053976,0.42707717,1.5312634,-0.17979908,-0.826865,-0.7844977,-0.724959,-0.6396111,-0.45111927,0.608778,-0.38820484,0.7098811,-0.826092,-1.9765303,-1.526631,2.1824687,1.6772496,-0.940572,0.7776084,-0.76153755,-1.9178649,-1.4749346,2.2219293,1.6220765,-0.90158355,-1.4900905,-1.3862875,-1.4147636,-1.2218243,-0.6283221,0.6147739,0.009587734,0.057510376,-0.5069237,0.7646791,-1.6079797,0.034341477,0.88783604,0.01576233,-0.54956436,0.7277143,0.8342079,0.06688852,0.09353511,0.53932744,-1.1439323,-0.46396124,-1.2968498,0.0,1.0,0.0,0.0,0.0,0.0,0.0,-0.70751035,0.10692367,-0.21467906,1.1948109,0.2918005,-0.20179749,6.1489105,-6.2616706,0.4159093,-5.165002
65.456345,176.0,110.0,108.94493,-0.9974721,10.933207,-1.0937815,-0.8055531,0.55827093,0.6648556,0.73599446,-0.18964504,0.62526065,-0.45847008,0.6970531,-0.7057105,-1.8513794,-1.4013351,2.2029648,1.6846026,-0.94743055,0.7677369,-0.7754688,-1.929597,-1.4740877,2.206434,1.6374402,-0.9006518,-0.82407224,-1.3944947,-1.0857533,0.51557565,-1.8531716,1.8536422,0.117923915,0.04144287,-0.50658035,0.77280635,-1.606372,0.034307145,0.78769726,0.0049362183,-0.55228806,0.719214,0.83754534,0.06608043,0.09536546,0.5339068,-1.062064,-0.19251563,-0.7023772,1.0,0.0,0.0,0.0,0.0,0.0,0.0,-0.69144285,0.10658035,-0.22280633,65.21826,-0.54790974,34.984303,172.39264,-121.404144,126.86009,9.874399
-20.899307,137.95396,61.65562,91.99219,5.3131065,4.972624,-1.7460539,-0.8275959,-0.5344069,-0.2192988,0.7669709,-0.561502,0.4936778,-0.18218082,0.6849773,-0.8289095,-1.9515269,-1.3973906,2.1502838,1.686808,-0.9188699,0.75955915,-0.7882929,-1.9378196,-1.4621077,2.1873643,1.6558251,-0.89961135,-0.81454587,-1.2463642,-0.7322955,1.426361,-1.9278708,1.8385377,0.10007526,0.025390625,-0.50623703,0.779933,-1.6047659,0.034272842,0.68765855,-0.0063934326,-0.5538025,0.7152477,0.8417277,0.059005342,0.10058393,0.52715814,-1.1523322,-0.12741911,-0.2997478,1.0,0.0,0.0,0.0,0.0,0.0,0.0,-0.6753906,0.106237024,-0.22993296,1.2729883,14.392638,35.984337,91.29999,-8.328533,0.044441223,-1.575546
-35.57763,151.20514,51.872616,72.29229,4.0929604,3.8099008,-1.619533,-0.8094463,-0.13820258,-0.44160935,0.7460109,-0.6220159,0.5778934,0.21112877,0.6786145,-0.8021131,-1.9819806,-1.3875066,2.1251628,1.7136145,-0.8784985,0.7502389,-0.79777527,-1.9441348,-1.44456,2.1694353,1.673079,-0.8985547,-0.9693515,-0.85066384,-0.5983329,1.8648409,-1.7510237,1.6912134,0.10672312,0.009353638,-0.5058937,0.78606,-1.6031615,0.034238577,0.58771986,-0.018486023,-0.55447006,0.71456474,0.84688234,0.049911108,0.10740813,0.5184232,-1.2265058,-0.039108995,0.0010018154,1.0,0.0,0.0,0.0,0.0,0.0,0.0,-0.6593536,0.1058937,-0.23605996,-14.919972,39.017,13.325584,44.04354,16.830658,-13.705754,0.43385476
-47.440075,103.30194,24.221104,46.1345,3.51758,2.0404181,-1.2093785,-0.8161183,-0.21890296,-0.49875274,0.79753315,-0.64863783,0.5406392,0.053921804,0.6686271,-0.81966555,-1.9940101,-1.3648068,2.1045716,1.7271429,-0.8931625,0.73888636,-0.8039627,-1.9503127,-1.4253111,2.1539667,1.6884809,-0.89755905,-1.1892741,-0.54277563,-0.62531877,1.9456543,-1.480426,1.4912937,0.09651994,-0.006668091,-0.5055504,0.7911883,-1.6015587,0.034204345,0.48788106,-0.031410217,-0.554512,0.71558154,0.8527732,0.04105806,0.11489013,0.50783104,-1.3124186,0.015888523,0.12789308,1.0,0.0,0.0,0.0,0.0,0.0,0.0,-0.6433319,0.10555038,-0.24118829,-21.59798,30.374264,-3.0106068,8.258748,26.631403,-19.618439,-1.2351766
-39.85057,65.327576,8.49947,23.955435,2.148128,0.7464609,-0.631121,-0.8150793,-0.22014657,-0.5502852,0.7909878,-0.66165763,0.59041154,0.04959281,0.65737844,-0.8259774,-2.0053413,-1.3462123,2.087801,1.747522,-0.89259976,0.72562647,-0.80794525,-1.9574958,-1.4067526,2.1409318,1.7020249,-0.8966683,-1.3710445,-0.35104045,-0.7500666,1.8262312,-1.245108,1.3090104,0.08579247,-0.02267456,-0.50520706,0.795319,-1.5999575,0.034170147,0.3881421,-0.04498291,-0.5541954,0.7169241,0.85904944,0.03372295,0.12234714,0.49591112,-1.3720554,0.047137268,0.13076402,1.0,0.0,0.0,0.0,0.0,0.0,0.0,-0.6273254,0.105207056,-0.24531901,-18.031334,18.918388,-12.66824,-11.892414,23.288393,-18.175697,-1.2911723
-27.404785,40.2965,2.024772,11.218478,1.2520521,-0.019669354,-0.21367443,-0.8197336,-0.22280632,-0.5653132,0.79724807,-0.6383,0.5821913,-0.032754514,0.6436531,-0.8302259,-2.014027,-1.3270278,2.077102,1.760244,-0.89994377,0.7110543,-0.8108835,-1.9660274,-1.3898077,2.1298082,1.7139306,-0.89593685,-1.4857382,-0.27518067,-0.8875167,1.6507244,-1.0691497,1.1507525,0.06840416,-0.038658142,-0.50486374,0.7984531,-1.5983578,0.034135986,0.28850287,-0.05899048,-0.55373,0.71781665,0.8654249,0.0282968,0.12939215,0.48321483,-1.4076769,0.058222223,0.07174551,1.0,0.0,0.0,0.0,0.0,0.0,0.0,-0.61134183,0.10486373,-0.24845308,-11.438274,7.442963,-13.790679,-17.546059,17.371798,-15.887904,-1.8942401
-15.35751,26.117565,1.0046198,5.4356337,0.76943135,-0.38541394,0.06753243,-0.8166651,-0.25109288,-0.57422197,0.80009305,-0.6320054,0.59443516,-0.029011894,0.6293878,-0.8359928,-2.0234497,-1.3097984,2.0666077,1.7733741,-0.89883804,0.6958499,-0.81377125,-1.9757053,-1.3744211,2.1199472,1.7244573,-0.8953618,-1.5320675,-0.29346776,-0.9944375,1.5013325,-0.95872986,1.0197605,0.053593535,-0.054626465,-0.5045204,0.80059147,-1.5967598,0.034101855,0.18896326,-0.0732193,-0.5532646,0.7179491,0.87170386,0.02462962,0.13583535,0.47018567,-1.426041,0.055772085,-0.008705453,1.0,0.0,0.0,0.0,0.0,0.0,0.0,-0.5953735,0.10452041,-0.25059146,-4.633212,-1.9005597,-10.647416,-14.918399,10.828495,-13.165259,-1.5661523
-9.389685,19.239017,1.1340408,4.599689,0.6972995,-0.48568702,0.15594682,-0.8209937,-0.28527418,-0.6052048,0.7945726,-0.62491035,0.5891609,-0.039905075,0.6137505,-0.8422987,-2.0362258,-1.2949638,2.0574563,1.7833734,-0.8993523,0.6805062,-0.8172741,-1.9862415,-1.3601294,2.1108148,1.7338433,-0.89492404,-1.535042,-0.36939052,-1.0732323,1.4055251,-0.8986164,0.9113553,0.04042832,-0.07057953,-0.5041771,0.8017353,-1.5951633,0.03406776,0.08952318,-0.08760071,-0.5528755,0.7172594,0.8778049,0.02240425,0.14162715,0.45705393,-1.4406533,0.04600518,-0.09087703,1.0,0.0,0.0,0.0,0.0,0.0,0.0,-0.57942045,0.10417709,-0.25173527,-0.28486252,-7.6360106,-7.806158,-9.505057,5.8368444,-10.895252,-1.3504252
-7.7644243,20.08261,2.7417798,6.87008,0.8166932,-0.3523174,0.11457713,-0.82614046,-0.312144,-0.63181823,0.79609764,-0.6227484,0.590841,-0.08820881,0.59789217,-0.8484885,-2.0494232,-1.2805196,2.0485399,1.7929274,-0.90374494,0.6652751,-0.82167625,-1.9973899,-1.3463755,2.1020257,1.742291,-0.894637,-1.5189703,-0.46399382,-1.1282742,1.3657353,-0.872833,0.8224775,0.024812376,-0.086517334,-0.5038338,0.80188537,-1.5935684,0.0340337,-0.009817479,-0.10215759,-0.55257034,0.71584153,0.88372725,0.021288048,0.14685,0.44385576,-1.4569104,0.038126446,-0.16030566,1.0,0.0,0.0,0.0,0.0,0.0,0.0,-0.56348264,0.103833765,-0.25188535,1.6328812,-9.515751,-5.4045677,-3.8516998,2.4220705,-8.942366,-1.5746166
-3.093456,30.541454,8.805182,9.407861,0.7819114,-0.032630086,0.10968146,-0.81377053,-0.3246096,-0.60587674,0.79599077,-0.6090121,0.61924446,-0.14536002,0.58389807,-0.85413724,-2.0579777,-1.2667764,2.0411246,1.8042154,-0.909173,0.65029764,-0.8269224,-2.0087357,-1.3327341,2.0933778,1.7499928,-0.894534,-1.4907893,-0.5451554,-1.1361005,1.3639126,-0.8626167,0.7525888,0.0052718236,-0.10243988,-0.50349045,0.8010428,-1.5919752,0.033999674,-0.10905882,-0.11676788,-0.5522499,0.7139368,0.8894532,0.020887017,0.15164985,0.4306263,-1.4615902,0.04288254,-0.20219383,1.0,0.0,0.0,0.0,0.0,0.0,0.0,-0.5475601,0.10349044,-0.25104278,2.794075,-8.201302,-0.58670044,-0.08397102,0.80093145,-7.02945,-1.9789971
-0.1588955,45.37264,15.261549,12.504504,0.7131472,0.32544833,0.092257194,-0.8093617,-0.309118,-0.5920571,0.7965551,-0.6035957,0.6239442,-0.14621152,0.56936145,-0.8578342,-2.0679414,-1.2530786,2.0330184,1.8123872,-0.90915513,0.6355901,-0.832674,-2.0199318,-1.3189707,2.0847757,1.7570996,-0.89461505,-1.4643342,-0.58559626,-1.112871,1.3806511,-0.8607675,0.6964419,-0.012748866,-0.11834717,-0.5031471,0.79920566,-1.5903835,0.03396568,-0.20859468,-0.13132477,-0.55176544,0.71183795,0.8949549,0.02088938,0.15624315,0.4173815,-1.4526759,0.06322796,-0.21426147,1.0,0.0,0.0,0.0,0.0,0.0,0.0,-0.5316528,0.10314712,-0.24920565,2.5671244,-4.1731954,2.6181936,1.7100811,-0.12660027,-5.644381,-1.8762814
3.3350916,59.610218,21.227371,14.641696,0.5342121,0.61533636,0.11219338,-0.7970374,-0.28715852,-0.5682189,0.7992024,-0.62240654,0.6370485,-0.115805775,0.5558863,-0.8613899,-2.0767536,-1.2390504,2.022535,1.8208045,-0.90619564,0.62113523,-0.8385067,-2.0307236,-1.3050013,2.076101,1.7637334,-0.8948363,-1.4396378,-0.583119,-1.0669082,1.4021964,-0.8713468,0.65225756,-0.025778167,-0.1342392,-0.50281143,0.79637384,-1.5887934,0.03393172,-0.30803105,-0.14566803,-0.550972,0.70980966,0.90018004,0.021082299,0.16088529,0.40416238,-1.4264624,0.09699806,-0.20104893,1.0,0.0,0.0,0.0,0.0,0.0,0.0,-0.5157608,0.102811426,-0.24637383,2.3329735,0.083720684,4.984808,2.112031,-1.4643073,-4.428363,-1.4388111
0.28158045,50.0923,16.684095,13.26668,0.703168,0.46881446,0.10166999,-0.7880977,-0.36406216,-0.5808196,0.79619646,-0.612994,0.6491176,-0.15178777,0.5423255,-0.8749129,-2.0888054,-1.2253816,2.0148017,1.8286451,-0.9100151,0.6069007,-0.84454155,-2.0411568,-1.2908583,2.0673387,1.7699971,-0.895193,-1.4183551,-0.61077,-1.0347028,1.4182278,-0.87872255,0.61744654,-0.03938486,-0.15011597,-0.50247574,0.7925484,-1.5872049,0.0338978,-0.407368,-0.15984344,-0.5499115,0.70777625,0.90514165,0.021457858,0.16552429,0.3909727,-1.4129438,0.12247954,-0.20617618,1.0,0.0,0.0,0.0,0.0,0.0,0.0,-0.499884,0.10247573,-0.2425484,2.0360947,-2.9047012,3.544855,1.6245127,-1.0725379,-3.5079122,-1.4509366
-1.243721,45.117645,14.121777,12.103321,0.73182255,0.39147723,0.13051337,-0.7783274,-0.3900369,-0.57555586,0.79356146,-0.61741143,0.66171885,-0.10034601,0.52906793,-0.8835452,-2.0987124,-1.2115021,2.0055976,1.836169,-0.9052276,0.59285975,-0.8509531,-2.0513535,-1.2766218,2.0585077,1.7759709,-0.8956326,-1.3995945,-0.65167904,-1.0137368,1.4257135,-0.88543224,0.59045786,-0.045696873,-0.16597748,-0.50214005,0.7877304,-1.585618,0.033863906,-0.5066056,-0.17393494,-0.5486069,0.7056015,0.9098516,0.022070106,0.17006202,0.37783846,-1.4050131,0.14441365,-0.22315554,1.0,0.0,0.0,0.0,0.0,0.0,0.0,-0.4840225,0.10214004,-0.23773038,1.8055916,-4.216838,2.3837328,0.80103874,-0.9655595,-2.7324438,-0.70157945
1.004715,45.53008,14.469617,10.975853,0.59591466,0.34077814,0.22796005,-0.75434923,-0.39855635,-0.56163055,0.79333586,-0.62368417,0.65824544,0.06761276,0.5174248,-0.89080876,-2.1075165,-1.1972883,1.9961393,1.8417954,-0.8888714,0.5790601,-0.8577604,-2.061367,-1.2623587,2.0496118,1.7817101,-0.895995,-1.3737115,-0.69077003,-0.9965395,1.4268185,-0.89221156,0.56837183,-0.03338069,-0.18182373,-0.50180435,0.7819208,-1.5840327,0.03383005,-0.605744,-0.18789673,-0.54709625,0.7032389,0.9142741,0.022942323,0.17447814,0.36487508,-1.3915339,0.16482417,-0.24271902,1.0,0.0,0.0,0.0,0.0,0.0,0.0,-0.46817625,0.101804346,-0.23192078,2.5024652,-4.028547,2.0150423,0.14648438,-0.97402334,-2.2361636,1.1564754
-0.32809305,42.14471,12.463081,10.496058,0.66947615,0.24677849,0.22910173,-0.74143094,-0.43024704,-0.57627064,0.7988725,-0.60768414,0.65575635,0.12213801,0.50491697,-0.90078515,-2.118994,-1.1824714,1.9888434,1.8472857,-0.8837812,0.56552935,-0.8650074,-2.0713425,-1.2480803,2.040712,1.7872567,-0.89618385,-1.3463295,-0.73640984,-0.9971304,1.4283891,-0.8902719,0.54995304,-0.014318147,-0.19765472,-0.50146866,0.77512044,-1.582449,0.033796225,-0.70478326,-0.2017746,-0.54541016,0.70062375,0.9184159,0.024117524,0.17872703,0.35211813,-1.3840837,0.18121581,-0.2699967,1.0,0.0,0.0,0.0,0.0,0.0,0.0,-0.45234525,0.10146865,-0.22512043,2.6724339,-4.6762943,0.20045042,0.22058487,-0.062263012,-1.8845916,1.8473738
-5.399591,32.511776,7.192047,9.457386,0.7389736,0.097043335,0.21540362,-0.7393397,-0.4867831,-0.6174409,0.79564977,-0.63141924,0.66045016,0.19872293,0.4915954,-0.9136857,-2.1330864,-1.1685153,1.9775702,1.8533018,-0.87631154,0.5522227,-0.8728714,-2.0815697,-1.2338037,2.031778,1.7926469,-0.8961314,-1.3255111,-0.8034063,-1.0307298,1.4278291,-0.89513606,0.53511053,0.011593951,-0.21347046,-0.50113297,0.7673305,-1.5808668,0.033762436,-0.80372345,-0.21569061,-0.5436058,0.69758266,0.92230886,0.025738433,0.18275072,0.3395378,-1.3914844,0.19198649,-0.31778747,1.0,0.0,0.0,0.0,0.0,0.0,0.0,-0.43652952,0.10113296,-0.21733052,2.0734549,-6.799507,-3.1870604,0.08928776,-0.6547332,-1.5457749,2.5627158
8.953269,37.890797,13.344088,6.1439495,0.3124479,0.046829045,0.37890393,-0.6608033,-0.5218105,-0.53520423,0.7982174,-0.61972606,0.6889877,0.16415846,0.4861424,-0.92505246,-2.13509,-1.153982,1.9698055,1.8615457,-0.87971556,0.53941584,-0.88145256,-2.091751,-1.219531,2.0228288,1.7979302,-0.89586437,-1.2661234,-0.8766931,-1.012997,1.4272163,-0.8960669,0.5260973,0.031569608,-0.22927094,-0.5007973,0.7585519,-1.5792862,0.03372868,-0.90256476,-0.22945404,-0.54172134,0.6941386,0.92591053,0.027635293,0.18647686,0.32734105,-1.3693359,0.1987586,-0.3557348,1.0,0.0,0.0,0.0,0.0,0.0,0.0,-0.42072904,0.100797266,-0.20855188,5.82006,-7.4071527,2.073121,-0.028562546,-0.34605265,-0.93666315,1.967077
0.56623745,19.540577,4.535842,4.1338983,0.48649192,-0.21486151,0.35107026,-0.6732458,-0.63196343,-0.60492295,0.79036635,-0.63364,0.6636558,0.2582884,0.47209126,-0.9446489,-2.1522434,-1.1404945,1.9594648,1.8642958,-0.8700355,0.5270915,-0.89111996,-2.102024,-1.2052927,2.0138414,1.8031201,-0.8953494,-1.2213492,-0.996967,-1.0316068,1.4233181,-0.90007883,0.5163949,0.05837518,-0.24504852,-0.5004616,0.7487856,-1.5777073,0.03369496,-1.0013072,-0.24320984,-0.53983307,0.6900564,0.92926395,0.029910557,0.18973896,0.3155519,-1.3749886,0.19530682,-0.42840943,1.0,0.0,0.0,0.0,0.0,0.0,0.0,-0.40495145,0.10046157,-0.1987856,4.459405,-12.07987,-1.7186165,-0.20179749,-0.500679,-1.0408282,2.7348897
9.936587,26.01981,8.856023,2.4378574,0.06469858,-0.24968791,0.4555133,-0.6001958,-0.6450807,-0.58862686,0.7985376,-0.6582085,0.66541445,0.33920372,0.46707192,-0.95562804,-2.1608868,-1.1254389,1.9480206,1.8696616,-0.86142904,0.5154214,-0.90186405,-2.1124153,-1.1910582,2.0047395,1.8082261,-0.8945302,-1.1491915,-1.1003598,-1.0407498,1.423858,-0.91417414,0.5084856,0.08986716,-0.26081085,-0.5001259,0.7380411,-1.5761299,0.033661272,-1.0988278,-0.2568512,-0.53801346,0.6853174,0.9323451,0.03256618,0.19258063,0.30427754,-1.3573184,0.18921901,-0.49201322,1.0,0.0,0.0,0.0,0.0,0.0,0.0,-0.38918912,0.10012588,-0.18804109,7.119465,-10.394096,-0.6832123,0.16133785,-1.5757203,-0.8510947,3.168486
15.331035,24.920053,9.469355,-0.0669961,-0.1658116,-0.39595234,0.52036524,-0.54624397,-0.7080282,-0.6038926,0.7830397,-0.6277901,0.65334874,0.36645764,0.46079698,-0.97266686,-2.1728046,-1.1127542,1.9419606,1.873561,-0.8578844,0.50459814,-0.91365147,-2.1229439,-1.1768827,1.9955938,1.8132539,-0.893402,-1.0605615,-1.2049872,-1.0560657,1.4156882,-0.91508156,0.5004866,0.12062062,-0.27655792,-0.4997902,0.72632205,-1.5745541,0.033627618,-1.1962509,-0.27025604,-0.53629684,0.6799034,0.9351445,0.03558552,0.19497757,0.29363605,-1.3312916,0.17593107,-0.5612743,0.0,1.0,0.0,0.0,0.0,0.0,0.0,-0.37344205,0.099790186,-0.17632204,8.730912,-10.508871,-1.283741,-0.7324219,-0.26044846,-0.88039637,3.1019301
16.658981,26.9828,9.675375,-0.8919177,-0.3705259,-0.44183153,0.54912686,-0.5079521,-0.739304,-0.64620674,0.7613645,-0.63580483,0.63078356,0.43460515,0.45380294,-0.98758185,-2.1875646,-1.1007463,1.9320133,1.8763323,-0.8499415,0.49466753,-0.92634964,-2.1337929,-1.1628904,1.9864385,1.818192,-0.8919486,-0.9710114,-1.2915775,-1.0937107,1.3939953,-0.91610223,0.49123254,0.1535942,-0.29228973,-0.4994545,0.71362954,-1.5729799,0.033593997,-1.2935766,-0.2833557,-0.534729,0.673781,0.93766296,0.03905855,0.19696148,0.28367,-1.2992789,0.1606491,-0.6329716,0.0,1.0,0.0,0.0,0.0,0.0,0.0,-0.35771024,0.09945449,-0.16362953,8.811474,-8.715367,-3.5185099,-2.0960808,-0.2812147,-1.0244191,3.2979517
13.890977,31.982058,10.2539015,0.635911,-0.22422525,-0.32723504,0.49954513,-0.489224,-0.76682425,-0.65726775,0.74082625,-0.60949796,0.60718673,0.4318418,0.44574514,-1.0030321,-2.1995196,-1.0888078,1.9254887,1.8789107,-0.8487644,0.48554546,-0.93977386,-2.1452742,-1.1492839,1.9775361,1.823288,-0.89027655,-0.892963,-1.3595647,-1.1673361,1.3499316,-0.86814296,0.5254228,0.17795108,-0.3060913,-0.49736977,0.7092499,-1.2194725,0.20600714,-0.1422281,-0.29618073,-0.53325653,0.66690433,0.93994135,0.042979654,0.19853191,0.27431375,-1.2744998,0.15437587,-0.7096215,0.0,1.0,0.0,0.0,0.0,0.0,0.0,-0.34390867,0.09736976,-0.1592499,7.065916,-6.844878,-3.805995,-3.0820131,0.9788871,-1.3367534,2.8530061
-2.955623,77.31076,23.95029,18.813152,1.4585415,1.2193038,0.1440872,-0.6262984,-0.67491484,-0.3520674,0.7954944,-0.65359104,0.6123103,0.41278294,0.4229156,-1.0072653,-2.180481,-1.0697345,1.912177,1.884519,-0.84899825,0.47628194,-0.9532111,-2.1557226,-1.1357303,1.9687871,1.8284817,-0.8883368,-0.93787766,-1.339091,-1.0022724,1.3574097,-0.879321,0.51733106,0.199104,-0.31827545,-0.49531174,0.70707655,-1.2182533,0.20580117,-0.2423651,-0.3087616,-0.5313873,0.66016394,0.9420336,0.046599995,0.19999492,0.26533568,-1.2472898,0.2062053,-0.66635054,0.0,1.0,0.0,0.0,0.0,0.0,0.0,-0.33172452,0.09531173,-0.15707654,-4.5963526,1.833868,17.036892,0.7562876,-1.747489,-0.84451437,2.0550103
-10.913923,96.13386,29.099941,26.357868,2.304164,1.8142644,-0.026802607,-0.66182584,-0.6572216,-0.25110093,0.784263,-0.62122613,0.625518,0.3936081,0.41009936,-1.0189333,-2.1808326,-1.0573039,1.9066645,1.8910335,-0.84897596,0.46619207,-0.96617156,-2.1638784,-1.1220508,1.9599618,1.8335915,-0.8862225,-1.0329416,-1.2824823,-0.75146574,1.3712592,-0.8859859,0.50894904,0.21536966,-0.33045197,-0.49325562,0.70390254,-1.2170353,0.20559542,-0.34240198,-0.32109833,-0.52882767,0.65419686,0.9439925,0.049443744,0.20158216,0.2565113,-1.2245245,0.2820781,-0.5776781,0.0,1.0,0.0,0.0,0.0,0.0,0.0,-0.319548,0.09325561,-0.15390253,-9.576071,5.413437,25.663412,1.382494,-1.4314175,-0.8123517,1.5772223
-11.280526,94.91093,27.95014,26.03864,2.3741345,1.6676666,-0.08591888,-0.6595352,-0.6593795,-0.2219082,0.7752497,-0.58630687,0.5999798,0.32833776,0.40023854,-1.0321095,-2.1860693,-1.0445257,1.9013311,1.8935895,-0.8533887,0.45520097,-0.97857124,-2.1696653,-1.1082606,1.9511479,1.8385887,-0.8840214,-1.1213279,-1.2265394,-0.51943344,1.3816379,-0.88209856,0.49679404,0.22168201,-0.34261322,-0.4912014,0.69972897,-1.2158185,0.20538986,-0.44233885,-0.33322906,-0.5255356,0.6490828,0.9458656,0.05144861,0.20327468,0.24773112,-1.2048628,0.35322732,-0.4930337,0.0,1.0,0.0,0.0,0.0,0.0,0.0,-0.30738676,0.091201395,-0.14972895,-8.879137,5.3687334,23.701214,1.0667801,-0.28816462,-1.1724114,0.61343014
-4.678555,81.608604,23.998041,20.052248,1.8790356,1.1495996,-0.004844159,-0.64152277,-0.6748115,-0.19509496,0.75643003,-0.55353194,0.5932785,0.30242896,0.3910487,-1.0460523,-2.189175,-1.0326176,1.8957947,1.8979166,-0.8537785,0.4436267,-0.9906066,-2.1736135,-1.0944877,1.9424943,1.8434658,-0.8817936,-1.1695864,-1.1964376,-0.3519019,1.3760058,-0.86155194,0.4849827,0.22319895,-0.35475922,-0.4891491,0.6945567,-1.214603,0.2051845,-0.5421758,-0.34514618,-0.52168655,0.64456403,0.9476716,0.05281601,0.2049287,0.23902534,-1.1830649,0.40331218,-0.44157687,0.0,1.0,0.0,0.0,0.0,0.0,0.0,-0.29524076,0.08914909,-0.1445567,-4.8719883,2.8332949,17.151672,-0.51829815,1.519227,-1.1521578,0.15628338
5.3151855,73.89824,22.948229,14.795987,1.3038946,0.7358096,0.10755203,-0.6215766,-0.671703,-0.12555234,0.75405663,-0.5619847,0.6034084,0.3042989,0.38146904,-1.0577769,-2.1861687,-1.019082,1.8862958,1.9038067,-0.8513637,0.43189794,-1.0024723,-2.1761808,-1.080812,1.9340218,1.8482456,-0.87955916,-1.1742119,-1.183706,-0.22389115,1.3647465,-0.8442656,0.47577423,0.22356755,-0.36689758,-0.4870987,0.68838686,-1.2133886,0.20497936,-0.64191294,-0.35674286,-0.5174866,0.64040023,0.94939274,0.053713266,0.20646997,0.2305177,-1.1494168,0.43335366,-0.41126007,0.0,1.0,0.0,0.0,0.0,0.0,0.0,-0.2831024,0.08709869,-0.13838685,-0.54655075,1.1272192,13.193878,-1.1081457,1.2381434,-0.88918805,0.02925694
12.235984,65.46839,21.308487,10.399391,0.8814311,0.40291524,0.2043394,-0.6080909,-0.68675834,-0.060538173,0.74422044,-0.5622585,0.5973557,0.3265274,0.37108886,-1.0711482,-2.1822348,-1.00639,1.8777959,1.9079812,-0.8469064,0.42033845,-1.0143741,-2.1776495,-1.0672927,1.9256886,1.8529415,-0.8773066,-1.1501799,-1.1928985,-0.11970972,1.347882,-0.8312373,0.46758905,0.22581153,-0.3790207,-0.4850502,0.68122035,-1.2121754,0.20477442,-0.7415503,-0.36797333,-0.5131111,0.63638985,0.95101404,0.054258768,0.20783281,0.2223372,-1.1101466,0.44732982,-0.40070352,0.0,1.0,0.0,0.0,0.0,0.0,0.0,-0.2709793,0.085050195,-0.13122034,2.300787,-1.041913,10.801522,-1.6744614,0.8470297,-0.7912457,0.22098124
2.1770558,43.05017,9.910491,6.9871297,0.56465924,-0.09291154,0.17813884,-0.6175608,-0.7191808,-0.1967122,0.7142635,-0.53661656,0.538827,0.33605063,0.35858238,-1.0862923,-2.1973207,-0.99586636,1.8720269,1.9068242,-0.84370154,0.4090193,-1.026564,-2.1790876,-1.05405,1.9175385,1.8575191,-0.87502444,-1.1259552,-1.2279152,-0.15139595,1.3168589,-0.8103649,0.45444655,0.22912863,-0.39113617,-0.48300362,0.6730582,-1.2109635,0.2045697,-0.8410881,-0.3790207,-0.508667,0.63208073,0.9525619,0.054977335,0.20891292,0.21437962,-1.098994,0.45017466,-0.44398785,0.0,1.0,0.0,0.0,0.0,0.0,0.0,-0.2588638,0.08300361,-0.1230582,2.3903131,-3.586793,-3.0267863,-2.9745102,1.898706,-1.332897,0.35274327
3.8288493,42.795242,9.446333,6.77202,0.33504188,-0.22171307,0.19151986,-0.5817735,-0.7165417,-0.18947046,0.7392795,-0.5859872,0.5475498,0.39420545,0.35084194,-1.0982182,-2.1980348,-0.980122,1.8589398,1.9122741,-0.8356039,0.39808393,-1.0390842,-2.1812148,-1.0410024,1.9094923,1.8620117,-0.8726848,-1.0833746,-1.2603091,-0.22937505,1.302486,-0.8041299,0.44730556,0.23628807,-0.40237427,-0.4799347,0.6684098,-1.1119684,0.30614403,-0.46309066,-0.38993835,-0.5042534,0.6272689,0.954019,0.056177657,0.20979261,0.20658818,-1.0856407,0.44655615,-0.49541846,0.0,1.0,0.0,0.0,0.0,0.0,0.0,-0.24762571,0.07993469,-0.11840981,4.0382385,-3.3067465,-6.569499,-0.8730173,-0.15476942,-0.96662045,0.875625
-2.777576,53.78885,12.297999,11.643155,1.0099908,0.1501773,0.07599175,-0.62516,-0.7065923,-0.089374654,0.7339056,-0.5374271,0.5056968,0.38924056,0.33556792,-1.1097435,-2.1901522,-0.96761185,1.8557495,1.9125813,-0.83376074,0.38729262,-1.0518043,-2.1835573,-1.0280114,1.9015634,1.8663994,-0.8702624,-1.0777463,-1.2764156,-0.2351028,1.2984667,-0.79011923,0.4355916,0.24436817,-0.41329956,-0.47686005,0.6635706,-1.0872427,0.30865565,-0.49240974,-0.40075684,-0.49972725,0.6221894,0.9554097,0.057632852,0.21051309,0.19888408,-1.0777692,0.46148452,-0.51526016,0.0,1.0,0.0,0.0,0.0,0.0,0.0,-0.23670042,0.07686004,-0.11357057,0.55179596,-1.7239809,-0.3889352,-0.24969578,1.161778,-1.2006819,0.83223283
-8.997463,50.82677,9.979669,12.05187,1.2350411,0.18475804,0.04280294,-0.6380422,-0.73029256,-0.13668214,0.6959915,-0.4705508,0.42197883,0.4059057,0.3234884,-1.1248336,-2.1972256,-0.9584123,1.8545083,1.9085972,-0.8296718,0.37639785,-1.0647113,-2.1859949,-1.0151845,1.8939472,1.8706086,-0.8677516,-1.0933197,-1.2957339,-0.24661271,1.278032,-0.75273734,0.4157982,0.25344405,-0.42404175,-0.47373962,0.65835434,-1.0691642,0.3132233,-0.5310601,-0.41159058,-0.49500275,0.61686873,0.956781,0.059308033,0.21094382,0.191194,-1.0813797,0.48284894,-0.5408179,0.0,1.0,0.0,0.0,0.0,0.0,0.0,-0.22595823,0.07373962,-0.10835433,-1.5356064,-2.0413876,-1.0328054,-1.854372,3.5491228,-2.0320237,0.96304715
-9.9381,49.273643,8.298045,11.431436,1.0289935,0.0685952,0.056844138,-0.6182322,-0.72741723,-0.23133874,0.6904911,-0.4640321,0.38743576,0.44512963,0.31457463,-1.1374531,-2.2091289,-0.9461354,1.8475441,1.9093522,-0.8232386,0.36540195,-1.0777442,-2.1889358,-1.002573,1.8866992,1.8746027,-0.8651317,-1.1015927,-1.3062488,-0.30988827,1.2563211,-0.7158816,0.39372087,0.26500675,-0.4346161,-0.47058296,0.6526952,-1.0535277,0.3164368,-0.5769482,-0.42247772,-0.49008942,0.61122316,0.9581265,0.061393205,0.2110923,0.18347909,-1.0853772,0.501047,-0.57561326,0.0,1.0,0.0,0.0,0.0,0.0,0.0,-0.21538389,0.070582956,-0.10269517,-0.8059025,-1.1605501,-6.2429786,-1.9712687,3.5407186,-2.275616,1.1874199
-1.4582815,54.52142,11.91264,10.101715,0.9667392,0.07362455,0.110833876,-0.5936687,-0.7311021,-0.1936315,0.6833092,-0.39972195,0.3831362,0.47136614,0.30603507,-1.1508545,-2.208299,-0.93424207,1.846727,1.9129163,-0.8179951,0.3544634,-1.0908515,-2.192308,-0.99017155,1.8799516,1.878393,-0.86238414,-1.0913512,-1.3125737,-0.34561113,1.2351174,-0.66192275,0.3739627,0.27804536,-0.4449768,-0.46741104,0.64667606,-1.0303622,0.31741324,-0.6113,-0.43328857,-0.48503304,0.6053131,0.9594398,0.06378622,0.21093127,0.17582534,-1.0762408,0.5141075,-0.5990908,0.0,1.0,0.0,0.0,0.0,0.0,0.0,-0.20502317,0.067411035,-0.09667605,0.99568367,-0.74620247,-3.380239,-1.986599,5.157709,-2.0561814,1.3210297
2.3296,53.515846,11.819789,7.8562427,0.7238127,-0.061006725,0.18683213,-0.5847351,-0.729844,-0.2558644,0.6391778,-0.33754268,0.26019946,0.5127509,0.2959899,-1.163836,-2.2178943,-0.9262538,1.8461974,1.904413,-0.81110907,0.3436945,-1.1039836,-2.1961987,-0.9781342,1.8738538,1.8819159,-0.85948783,-1.0722256,-1.3136477,-0.40249273,1.193615,-0.59336215,0.34481224,0.29352665,-0.45510864,-0.46424866,0.6402759,-1.0069351,0.3157981,-0.64965653,-0.443985,-0.47990036,0.5991205,0.96071845,0.066513844,0.21038169,0.16833103,-1.0616182,0.5199215,-0.62871134,0.0,1.0,0.0,0.0,0.0,0.0,0.0,-0.19489133,0.06424865,-0.09027588,1.8624783,-0.2155304,-5.491,-4.04737,6.611252,-3.0107558,1.5481114
13.322199,53.819355,14.157059,4.358851,0.4578352,-0.22296154,0.28043693,-0.54113865,-0.7406478,-0.25797766,0.6100852,-0.25447157,0.1613482,0.51483893,0.28958064,-1.1780484,-2.2219965,-0.9171257,1.8484067,1.8980508,-0.80800396,0.33330372,-1.1171558,-2.2005472,-0.9665966,1.8685869,1.8850968,-0.85644776,-1.0283498,-1.3187729,-0.4450584,1.1405771,-0.505354,0.308874,0.3074351,-0.46497345,-0.46113586,0.63350296,-0.97864085,0.30965707,-0.6848712,-0.45442963,-0.47481346,0.59263766,0.96197087,0.069511846,0.20931764,0.16114016,-1.0339527,0.51256406,-0.6577328,0.0,1.0,0.0,0.0,0.0,0.0,0.0,-0.18502653,0.06113586,-0.08350295,4.2880297,-0.61109066,-3.9860249,-5.2713156,8.499074,-3.7009478,1.3791084
10.427591,49.019276,11.674496,3.4211383,0.5505019,-0.4084643,0.27234626,-0.54497194,-0.7444358,-0.3362934,0.5553494,-0.09571081,-0.13128965,0.54394567,0.27880654,-1.1915994,-2.2341766,-0.91106164,1.8590158,1.8719678,-0.8020532,0.32328966,-1.130389,-2.205556,-0.95574856,1.8645368,1.8877232,-0.8532635,-0.99263704,-1.3253216,-0.5186909,1.0664543,-0.37249535,0.24678129,0.3221365,-0.47460938,-0.458086,0.62629247,-0.9579523,0.30330804,-0.732711,-0.46468353,-0.46980667,0.58578515,0.9632468,0.072866,0.20749323,0.15424861,-1.0171319,0.50316733,-0.69717366,0.0,1.0,0.0,0.0,0.0,0.0,0.0,-0.1753906,0.058086008,-0.076292455,3.494382,-0.74613094,-7.162505,-7.3528767,13.041687,-6.3551245,1.4857292
3.6539607,51.12065,11.375622,5.7522335,1.2537938,-0.3023104,0.15260676,-0.5641626,-0.7393939,-0.3384243,0.5067531,0.15808164,-0.31447825,0.5609561,0.2668734,-1.2043284,-2.2393982,-0.9050732,1.8803449,1.8562754,-0.7971679,0.31344488,-1.1436565,-2.21119,-0.9457369,1.8623948,1.8896214,-0.84993404,-0.981868,-1.3273637,-0.5777847,0.97970027,-0.16225916,0.17028747,0.33677536,-0.48407745,-0.4550724,0.6186097,-0.94261503,0.30063275,-0.7797771,-0.47489166,-0.46479607,0.5786062,0.96464634,0.07644802,0.20456874,0.14752842,-1.0166863,0.5067552,-0.72730345,0.0,1.0,0.0,0.0,0.0,0.0,0.0,-0.16592252,0.055072397,-0.068609715,1.0290384,-0.2996683,-5.733049,-8.58959,20.790232,-7.843414,1.534313
2.85941,57.95979,14.113293,7.5816107,1.7100632,-0.057512224,0.09144319,-0.5701514,-0.73771435,-0.27498513,0.45956352,0.2894193,-0.40003705,0.56155765,0.25642973,-1.217428,-2.2386885,-0.8997805,1.8913367,1.8496177,-0.7937783,0.30358145,-1.1569202,-2.2169423,-0.93663484,1.8624929,1.8907467,-0.84647214,-0.9880179,-1.326244,-0.5739947,0.88724345,0.06626928,0.09282083,0.34966317,-0.49336243,-0.45207405,0.6105558,-0.9230644,0.29944056,-0.8120563,-0.48511505,-0.45967484,0.571267,0.96623135,0.079924345,0.20037465,0.14092192,-1.0162255,0.52031124,-0.7386898,0.0,1.0,0.0,0.0,0.0,0.0,0.0,-0.15663755,0.052074045,-0.060555816,-0.66651106,0.014972687,0.6115675,-9.184027,22.574106,-7.942708,1.3749123
19.846525,71.756615,22.681437,6.573362,1.6144607,0.12779897,0.16081387,-0.519715,-0.7359407,-0.120784916,0.4362389,0.31122288,-0.4088772,0.553307,0.25160995,-1.2305143,-2.2290208,-0.893011,1.8936152,1.849859,-0.79114145,0.29384586,-1.1701534,-2.2217753,-0.928356,1.8645563,1.8911762,-0.8429016,-0.96915734,-1.3226682,-0.45170406,0.8078277,0.2518281,0.026037866,0.3595755,-0.50229645,-0.44913864,0.60247487,-0.88299316,0.29152313,-0.8063338,-0.49508667,-0.45450592,0.56406224,0.96798766,0.082770385,0.19502158,0.13459377,-0.98669916,0.5231091,-0.71687734,0.0,1.0,0.0,0.0,0.0,0.0,0.0,-0.14770353,0.049138635,-0.052474856,1.7634869,0.27589798,12.621504,-8.020735,18.184746,-6.795177,1.0128558
33.671814,85.83446,30.592228,7.1766076,1.6939602,0.27919084,0.17385775,-0.48684913,-0.7322373,0.057436127,0.43113264,0.35628062,-0.45455417,0.55414873,0.24516095,-1.2433771,-2.2160318,-0.8852427,1.9001844,1.8457208,-0.78748673,0.2844569,-1.1833351,-2.2245255,-0.9206627,1.868155,1.8909931,-0.8392461,-0.9293235,-1.3168455,-0.21416289,0.7559035,0.39449775,-0.033122063,0.36741072,-0.5106964,-0.44633484,0.5947441,-0.825358,0.2766126,-0.7613933,-0.50460815,-0.44937134,0.5573404,0.96989435,0.084426306,0.18871228,0.1287038,-0.93649375,0.5161841,-0.6596462,0.0,1.0,0.0,0.0,0.0,0.0,0.0,-0.13930357,0.046334833,-0.044744074,3.8271666,0.5072117,24.25623,-5.361271,13.856721,-5.9470644,0.74082613
36.2825,93.57573,33.291634,9.845325,1.77542,0.3008623,0.10628028,-0.46038458,-0.7239506,0.15761675,0.45883852,0.37102824,-0.49226308,0.56818455,0.23841844,-1.2557302,-2.2087638,-0.87477887,1.9052578,1.8417668,-0.78242767,0.27555865,-1.1964271,-2.2246742,-0.913142,1.8728184,1.8902664,-0.83551425,-0.87706727,-1.3070353,0.053182278,0.75031245,0.48893356,-0.08572689,0.374846,-0.51847076,-0.44370842,0.58762324,-0.7619843,0.25797984,-0.6957906,-0.51361847,-0.44433594,0.5513243,0.9719133,0.08465961,0.181743,0.12323487,-0.8842342,0.5051068,-0.5849208,0.0,1.0,0.0,0.0,0.0,0.0,0.0,-0.13152921,0.043708414,-0.037623227,5.1000595,0.8928299,27.244625,-0.694716,9.065258,-5.243197,0.6664932
39.338963,100.38149,35.253372,11.525144,1.7901777,0.2603209,0.066246614,-0.4137988,-0.6978466,0.26381814,0.47036257,0.45198917,-0.48799106,0.5871311,0.23417877,-1.2662117,-2.1982925,-0.8661058,1.9180173,1.8414673,-0.7768011,0.26731223,-1.2093132,-2.2222028,-0.90546787,1.8783503,1.8890839,-0.8317033,-0.8074856,-1.2828796,0.3134874,0.77281827,0.57318836,-0.12900068,0.3827475,-0.52558136,-0.44129562,0.58129126,-0.69525975,0.23596625,-0.6141108,-0.52210236,-0.4394455,0.5461469,0.974006,0.08341013,0.17435507,0.118132144,-0.8309071,0.48901352,-0.49809366,0.0,1.0,0.0,0.0,0.0,0.0,0.0,-0.12441862,0.041295618,-0.031291246,6.863582,2.3092508,26.546032,2.1637797,8.060705,-4.280588,0.69111586
32.977345,96.866425,32.091133,11.481008,1.6847526,0.25435108,0.07986039,-0.4106809,-0.677316,0.33394536,0.4124479,0.5423676,-0.4836624,0.57897735,0.22624414,-1.2770448,-2.1888082,-0.86422306,1.932587,1.8407177,-0.77380556,0.25964996,-1.2218845,-2.2174883,-0.89778996,1.8847679,1.8875259,-0.8278276,-0.75266063,-1.249066,0.5257267,0.76616263,0.66351455,-0.16451314,0.38887003,-0.5320816,-0.43908882,0.57571024,-0.63562053,0.21601647,-0.5428483,-0.53009033,-0.43467903,0.5417339,0.97614574,0.080829926,0.16659988,0.11335955,-0.785366,0.47744837,-0.42520607,0.0,1.0,0.0,0.0,0.0,0.0,0.0,-0.11791837,0.039088815,-0.025710225,5.4391503,3.2699823,21.622444,-0.6638408,8.753193,-3.48261,0.5436063
23.188581,99.277916,29.864647,14.48515,1.7460141,0.35002112,0.02355529,-0.40070873,-0.6313287,0.3948083,0.41787365,0.5736573,-0.40609157,0.58781326,0.21957909,-1.2850174,-2.1780074,-0.85600257,1.9421337,1.8469168,-0.76904625,0.25241366,-1.2339561,-2.211061,-0.89018947,1.8919997,1.8857162,-0.82389265,-0.71393776,-1.1936443,0.68298846,0.758295,0.7423123,-0.18607512,0.39489996,-0.5380173,-0.4370575,0.5708409,-0.58078617,0.1992609,-0.47213358,-0.5376663,-0.4299507,0.53803056,0.97828597,0.07715164,0.15863003,0.108815044,-0.7486002,0.4760658,-0.35500816,0.0,1.0,0.0,0.0,0.0,0.0,0.0,-0.1119827,0.03705749,-0.020840883,3.878343,5.437088,15.990138,-0.71116686,7.72537,-2.053392,0.5668402
25.51705,96.16146,28.302969,11.374694,1.1714424,0.27237025,0.16474397,-0.3636942,-0.5937156,0.4442457,0.3464243,0.611929,-0.3653351,0.59391564,0.21604425,-1.2933277,-2.1666365,-0.855547,1.9531926,1.8491827,-0.7645011,0.24558438,-1.2453811,-2.2034206,-0.8830011,1.8999506,1.8837631,-0.8198984,-0.6725752,-1.1257129,0.79212755,0.7060117,0.81215304,-0.19805205,0.40085036,-0.54341125,-0.43520355,0.56662047,-0.5274001,0.18128337,-0.40954012,-0.54481506,-0.42529488,0.5349117,0.98037106,0.07262762,0.15052696,0.104591735,-0.7036678,0.4669852,-0.30040506,0.0,1.0,0.0,0.0,0.0,0.0,0.0,-0.10658872,0.035203546,-0.016620457,4.1407347,6.6884995,11.110806,-5.1271915,6.9040775,-1.0447323,0.5813658
35.705635,92.99865,28.9665,6.283628,0.5826405,0.1824826,0.33797997,-0.31626216,-0.5710117,0.5492958,0.27593705,0.66079944,-0.28765848,0.57094866,0.21395817,-1.3024822,-2.1484911,-0.85540736,1.9660306,1.8549973,-0.76280355,0.2392788,-1.2561519,-2.1946445,-0.8766443,1.9085786,1.8817756,-0.8158677,-0.61658895,-1.061168,0.90697205,0.6125726,0.8791563,-0.19836387,0.40381604,-0.5482559,-0.4335556,0.5630213,-0.47205925,0.15993309,-0.34889057,-0.5514221,-0.42084122,0.5322677,0.98237014,0.06729583,0.14224939,0.10092191,-0.6443729,0.44311458,-0.25539935,0.0,1.0,0.0,0.0,0.0,0.0,0.0,-0.101744056,0.033555597,-0.01302129,5.5934668,6.340003,11.68865,-9.232259,6.6319227,0.16593635,0.2926886
34.74861,82.48147,25.01369,1.0374404,-0.10234521,0.121389925,0.5499218,-0.33001947,-0.5356454,0.5564918,0.10535109,0.6825879,-0.2875532,0.5607739,0.20627685,-1.3097165,-2.1389952,-0.8661092,1.9768374,1.8530203,-0.7597903,0.23336154,-1.2662799,-2.185009,-0.87191087,1.9177922,1.8797996,-0.81181914,-0.58346415,-0.9970123,0.98301256,0.42734975,0.93537486,-0.19641425,0.40536252,-0.5525894,-0.43210983,0.5598413,-0.42202,0.13994166,-0.31354448,-0.5573654,-0.4166603,0.5298454,0.98425114,0.061392818,0.13365881,0.09806085,-0.5781683,0.4134973,-0.2407145,0.0,1.0,0.0,0.0,0.0,0.0,0.0,-0.09741056,0.032109827,-0.009841263,3.3125758,6.314385,7.650292,-18.393373,5.677235,0.4577458,0.20462275
