Afshin1997/kuka_rl_ros2/src/catch_and_throw/input_files/idealpd/polynomial_regressor/optimizer_files/env_13_data.csv
torque0,torque1,torque2,torque3,torque4,torque5,torque6,action0,action1,action2,action3,action4,action5,action6,set_target_0,set_target_1,set_target_2,set_target_3,set_target_4,set_target_5,set_target_6,joint_pos_0,joint_pos_1,joint_pos_2,joint_pos_3,joint_pos_4,joint_pos_5,joint_pos_6,joint_vel_0,joint_vel_1,joint_vel_2,joint_vel_3,joint_vel_4,joint_vel_5,joint_vel_6,tennisball_pos_0,tennisball_pos_1,tennisball_pos_2,tennisball_lin_vel_0,tennisball_lin_vel_1,tennisball_lin_vel_2,end_effector_pos_0,end_effector_pos_1,end_effector_pos_2,end_effector_rot_0,end_effector_rot_1,end_effector_rot_2,end_effector_rot_3,end_effector_lin_vel_0,end_effector_lin_vel_1,end_effector_lin_vel_2,obs_task_0,obs_task_1,obs_task_2,obs_task_3,obs_task_4,obs_task_5,obs_task_6,to_final_target_0,to_final_target_1,to_final_target_2,joint_acc_0,joint_acc_1,joint_acc_2,joint_acc_3,joint_acc_4,joint_acc_5,joint_acc_6
0.0,0.0,0.0,0.0,0.0,0.0,0.0,0.0,0.0,0.0,0.0,0.0,0.0,0.0,1.7802359,-1.0646509,-1.8151424,-1.1170107,1.9373155,1.1170107,-0.91629785,1.7802359,-1.0646509,-1.8151424,-1.1170107,1.9373155,1.1170107,-0.91629785,0.0,0.0,0.0,0.0,0.0,0.0,0.0,2.7675629,-0.6378555,0.37826693,-2.598252,-0.06971457,5.5033913,0.5304184,-0.45449638,0.693097,0.5745483,0.17512383,0.15255436,0.7848268,0.0,0.0,0.0,1.0,0.0,0.0,0.0,0.0,0.0,0.0,-3.417563,0.23785552,0.17173308,0.0,0.0,0.0,0.0,0.0,0.0,0.0
0.0,0.0,0.0,0.0,0.0,0.0,0.0,0.0,0.0,0.0,0.0,0.0,0.0,0.0,1.7802359,-1.0646509,-1.8151424,-1.1170107,1.9373155,1.1170107,-0.91629785,1.7802359,-1.0646509,-1.8151424,-1.1170107,1.9373155,1.1170107,-0.91629785,0.0,0.0,0.0,0.0,0.0,0.0,0.0,2.7675629,-0.6378555,0.37826693,-2.598252,-0.06971457,5.5033913,0.5304184,-0.45449638,0.693097,0.5745483,0.17512383,0.15255436,0.7848268,0.0,0.0,0.0,1.0,0.0,0.0,0.0,0.0,0.0,0.0,-3.417563,0.23785552,0.17173308,0.0,0.0,0.0,0.0,0.0,0.0,0.0
0.0,0.0,0.0,0.0,0.0,0.0,0.0,0.0,0.0,0.0,0.0,0.0,0.0,0.0,1.7802359,-1.0646509,-1.8151424,-1.1170107,1.9373155,1.1170107,-0.91629785,1.7802359,-1.0646509,-1.8151424,-1.1170107,1.9373155,1.1170107,-0.91629785,0.0,0.0,0.0,0.0,0.0,0.0,0.0,2.7675629,-0.6378555,0.37826693,-2.598252,-0.06971457,5.5033913,0.5304184,-0.45449638,0.693097,0.5745483,0.17512383,0.15255436,0.7848268,0.0,0.0,0.0,1.0,0.0,0.0,0.0,0.0,0.0,0.0,-3.417563,0.23785552,0.17173308,0.0,0.0,0.0,0.0,0.0,0.0,0.0
-176.0,56.20893,-10.359947,110.0,10.861564,4.3653126,-3.765688,-0.7901759,0.27317744,-0.52945894,0.75408065,0.18178302,0.700201,-0.57846874,1.7012182,-1.0373331,-1.8680882,-1.0416026,1.9554938,1.1870308,-0.9741447,1.7788893,-1.0625681,-1.8210227,-1.1122309,1.9424176,1.1221491,-0.91734785,-0.17927666,0.27688086,-0.78362775,0.637649,0.6794071,0.6834026,-0.13945104,2.7416,-0.6385536,0.43252313,-2.5956545,-0.06964487,5.399703,0.52832794,-0.45778275,0.69377273,0.5781277,0.1738162,0.15099159,0.78278846,-0.28014296,-0.43880892,0.08973176,1.0,0.0,0.0,0.0,0.0,0.0,0.0,-3.3916001,0.23855361,0.11747688,-17.845253,27.486097,-78.2022,63.871193,67.69062,67.80421,-13.7831955
-176.0,-33.077457,-46.15702,110.0,11.771418,1.270844,-3.3801892,-0.7768308,-0.17696582,-0.5512154,0.7169638,0.33169052,0.6766825,-0.5553098,1.7012062,-1.0802647,-1.8761443,-1.0405345,1.9755867,1.1898173,-0.9728788,1.777289,-1.0600542,-1.8358505,-1.0982634,1.9522195,1.1349875,-0.9174709,-0.15233691,0.23865849,-1.7104235,1.6526392,1.076757,1.4722842,0.031113012,2.7156677,-0.6392479,0.4857432,-2.5930593,-0.069575235,5.2961183,0.5236969,-0.4662361,0.69441426,0.58612525,0.17065209,0.14728549,0.77823,-0.5242195,-0.97947353,0.056814592,1.0,0.0,0.0,0.0,0.0,0.0,0.0,-3.3656678,0.23924789,0.06425682,3.0730991,-5.0403776,-91.115616,102.33412,38.6809,75.39249,17.353195
-154.11095,112.83986,33.706707,95.61535,8.418422,8.039106,-1.9558091,-0.7525134,0.23767753,0.17509902,0.7001055,0.40086737,0.71299946,-0.47860336,1.7020377,-1.0362865,-1.8183405,-1.0282528,1.9923062,1.2062874,-0.9653312,1.7725912,-1.0571531,-1.8504837,-1.0796877,1.9630322,1.1496016,-0.91742224,-0.5757684,0.30369386,-1.3739041,1.9275873,1.0773201,1.4512203,-0.0053248373,2.6897507,-0.63994217,0.5379282,-2.5904667,-0.06950568,5.192637,0.5161438,-0.4775772,0.6967757,0.5969622,0.16571665,0.14208867,0.77200055,-0.8396867,-1.1789225,0.29985884,1.0,0.0,0.0,0.0,0.0,0.0,0.0,-3.3397508,0.23994216,0.012071788,-42.363922,5.446535,35.763023,27.968098,-1.6206264,-4.1216373,-4.066113
-100.95604,97.385155,38.374977,58.455173,5.5923114,7.4673486,-0.28881112,-0.7637547,0.0027635873,0.25142327,0.6916321,0.43845063,0.6891356,-0.5487939,1.6962157,-1.0568768,-1.8253413,-1.0105245,2.0068774,1.2185152,-0.9723016,1.763661,-1.0547975,-1.8590381,-1.0608202,1.9729733,1.1632258,-0.9178857,-0.9993618,0.21064374,-0.67523474,1.8740118,0.96061015,1.3290681,-0.061397444,2.6638641,-0.64063644,0.5890792,-2.5878768,-0.069436185,5.089259,0.50592804,-0.48983955,0.70106554,0.60875744,0.15933163,0.1353673,0.76531273,-1.0912646,-1.2304214,0.47611645,1.0,0.0,0.0,0.0,0.0,0.0,0.0,-3.3138642,0.24063644,-0.03907919,-42.581795,-9.980792,72.10926,-5.049205,-13.417339,-13.31656,-6.0213513
-40.29184,129.18582,55.012367,32.51969,2.495405,7.3351707,0.50464076,-0.77115744,0.17175299,0.31959543,0.6895163,0.53267556,0.69182247,-0.55738664,1.6865453,-1.0376222,-1.8270786,-0.9918686,2.0262408,1.232408,-0.9736244,1.751269,-1.0526747,-1.8603504,-1.0437285,1.9818349,1.1754729,-0.9189443,-1.3202125,0.21088822,0.05682921,1.6542366,0.85684717,1.1881005,-0.12288028,2.638008,-0.6413307,0.6391972,-2.5852895,-0.06936676,4.985985,0.49383545,-0.50153923,0.70718485,0.62028474,0.15159194,0.12738302,0.75897306,-1.2642618,-1.1368726,0.6584615,1.0,0.0,0.0,0.0,0.0,0.0,0.0,-3.2880082,0.24133071,-0.08919716,-32.412865,-0.5308062,75.214264,-22.028755,-11.76219,-14.618778,-6.785801
-5.258542,119.24615,47.530952,14.5521965,0.2420556,5.017916,0.48716977,-0.78938615,0.23964864,0.21011482,0.67492396,0.547702,0.67973065,-0.6089773,1.6723304,-1.0287098,-1.8393389,-0.9762361,2.0366051,1.2434459,-0.979842,1.7366968,-1.0500787,-1.8564899,-1.0289809,1.989922,1.1864287,-0.9205989,-1.5035927,0.2744939,0.4995565,1.4143964,0.79025745,1.0646068,-0.18130329,2.612175,-0.642025,0.68828315,-2.5827048,-0.06929741,4.8828135,0.48062897,-0.5120182,0.71459275,0.6311675,0.14297555,0.11893706,0.75302035,-1.3497474,-1.0052662,0.76643336,1.0,0.0,0.0,0.0,0.0,0.0,0.0,-3.262175,0.24202499,-0.13828313,-18.593884,5.98664,45.4712,-24.109268,-7.366514,-12.387204,-6.3724546
17.761206,136.07379,48.949738,8.734474,-1.4569786,3.9244766,0.081164554,-0.8017616,0.4459263,0.14444049,0.6561121,0.5463451,0.6833542,-0.6043086,1.6565207,-1.0054861,-1.8420459,-0.96336967,2.0445566,1.2547641,-0.9810298,1.7211424,-1.0458158,-1.8504341,-1.0162531,1.9975858,1.1963068,-0.9227714,-1.5736572,0.47551596,0.64371073,1.2254097,0.7572169,0.9627195,-0.23093641,2.5863647,-0.64271736,0.7363382,-2.5801225,-0.06922813,4.779745,0.4670334,-0.5209484,0.7230365,0.6415393,0.1338063,0.111086816,0.7471164,-1.3762777,-0.84214866,0.8672944,1.0,0.0,0.0,0.0,0.0,0.0,0.0,-3.2363648,0.24271736,-0.18633819,-7.274294,19.76214,15.212488,-18.978643,-3.6251307,-10.029686,-5.489403
22.625364,130.10307,41.981255,7.738185,-2.0750885,2.6183767,-0.3487569,-0.8116436,0.5498561,0.04579977,0.6551549,0.5323116,0.6666537,-0.5921491,1.639978,-0.9908302,-1.845854,-0.9507376,2.050817,1.2629722,-0.9819863,1.7054125,-1.0391783,-1.8447711,-1.0048033,2.00505,1.2052904,-0.9253625,-1.5734209,0.7257338,0.5420437,1.1182379,0.74252784,0.87749934,-0.26986265,2.560585,-0.6434078,0.78336334,-2.577543,-0.06915891,4.6767797,0.4534073,-0.5283661,0.7322709,0.6517291,0.12439022,0.10461662,0.7408316,-1.3671587,-0.69540966,0.9390555,1.0,0.0,0.0,0.0,0.0,0.0,0.0,-3.210585,0.24340782,-0.23336333,-0.22702217,24.761368,-9.681845,-10.760498,-1.5657187,-8.336735,-4.3011694
19.867348,110.750305,31.770737,7.389081,-2.0804765,1.4110975,-0.60476696,-0.8103851,0.6135306,-0.07457591,0.64510804,0.5271142,0.6691373,-0.57469565,1.624374,-0.97782516,-1.8522288,-0.9402925,2.0577614,1.2722042,-0.9828321,1.6899515,-1.0301718,-1.8412769,-0.9939438,2.0124466,1.213534,-0.92827123,-1.5376999,0.95820075,0.28618407,1.0748234,0.7388372,0.807104,-0.29878753,2.5348282,-0.6440983,0.8293596,-2.574966,-0.06908977,4.5739174,0.4399948,-0.53458405,0.7419199,0.66201305,0.11507186,0.099880196,0.73384,-1.3391398,-0.58299077,0.9705828,1.0,0.0,0.0,0.0,0.0,0.0,0.0,-3.1848283,0.24409828,-0.27935958,3.353405,23.067057,-25.315125,-4.450226,-0.35007,-6.9055915,-3.200996
14.15456,91.29396,24.410881,8.204236,-1.4892374,0.8282885,-0.59356993,-0.8141146,0.64813745,-0.11703757,0.6359534,0.5541163,0.66711634,-0.56460327,1.60854,-0.965358,-1.8529806,-0.93034846,2.0678582,1.2802457,-0.98473155,1.6748797,-1.0193018,-1.8404396,-0.98323023,2.019931,1.2211615,-0.9314136,-1.4977316,1.1296864,0.016773073,1.0695868,0.75185496,0.7480813,-0.32032475,2.5090942,-0.64478874,0.874328,-2.5723915,-0.069020696,4.471158,0.4268341,-0.5399456,0.75169027,0.6724885,0.106058106,0.09670076,0.72605777,-1.3128159,-0.50513613,0.97711253,1.0,0.0,0.0,0.0,0.0,0.0,0.0,-3.1590943,0.24478874,-0.324328,3.8221598,17.020489,-26.750246,-0.71451664,1.3458848,-5.864203,-2.4136364
8.721212,75.50664,19.828857,9.261991,-0.7980422,0.65394974,-0.46766552,-0.8138256,0.6668202,-0.14550093,0.63561124,0.5570381,0.6704664,-0.56051725,1.5934972,-0.95261973,-1.8549896,-0.9196691,2.075635,1.2882081,-0.9874653,1.6601378,-1.0072492,-1.8418605,-0.9724175,2.027572,1.2282759,-0.9347343,-1.4666755,1.2302052,-0.19441688,1.0842927,0.7678992,0.6990508,-0.3368966,2.4833908,-0.6454792,0.9182696,-2.5698197,-0.06895169,4.3685017,0.41386414,-0.5447235,0.7614187,0.683126,0.09738852,0.094645694,0.71756285,-1.2968143,-0.4528873,0.97012264,1.0,0.0,0.0,0.0,0.0,0.0,0.0,-3.133391,0.2454792,-0.36826956,2.9631853,9.951878,-20.92069,1.2298822,1.6398191,-4.9366593,-1.9098163
4.7397404,64.742096,17.058718,9.884664,-0.28465962,0.6313413,-0.3306768,-0.8127706,0.685265,-0.19684805,0.6308602,0.5634812,0.68029374,-0.5557509,1.5788608,-0.9387227,-1.8615453,-0.90933144,2.08392,1.2963053,-0.99030936,1.6456114,-0.9945921,-1.8449333,-0.96144354,2.0353692,1.2349688,-0.93819326,-1.4484804,1.2771627,-0.34423748,1.1009033,0.78388757,0.659294,-0.34974673,2.457718,-0.64616966,0.9611854,-2.5672503,-0.068882756,4.265948,0.4009552,-0.54909515,0.77101004,0.69384235,0.08903625,0.093314655,0.7084827,-1.290653,-0.41582438,0.9547951,1.0,0.0,0.0,0.0,0.0,0.0,0.0,-3.107718,0.24616966,-0.41118538,1.6871691,4.6098948,-14.739513,1.3975859,1.6130328,-4.043889,-1.5436232
4.388745,61.079765,17.074518,9.78735,0.021258116,0.7801713,-0.15881512,-0.8105157,0.6975919,-0.21337815,0.6197094,0.5816881,0.68220335,-0.5622496,1.5645598,-0.9248329,-1.8662711,-0.8994726,2.093538,1.3031892,-0.9944182,1.63119,-0.9817184,-1.8489845,-0.9503819,2.0433495,1.2413203,-0.94176763,-1.4405645,1.29044,-0.42435825,1.1069828,0.8023451,0.6267061,-0.36095652,2.4320602,-0.6468563,1.0030764,-2.5646837,-0.06881388,4.1634965,0.3880844,-0.5531063,0.78045154,0.7045157,0.0809233,0.09236232,0.69898367,-1.290938,-0.3807785,0.94049025,1.0,0.0,0.0,0.0,0.0,0.0,0.0,-3.0820603,0.2468563,-0.45307642,0.64549446,1.242876,-7.672131,0.33576488,1.8142939,-3.3487082,-1.4028907
5.7129545,61.55988,18.28651,9.571135,0.14789653,0.97506666,-0.015376687,-0.8088023,0.70381826,-0.21326305,0.6111184,0.58388156,0.686272,-0.5581976,1.5503097,-0.9113366,-1.8703108,-0.88927007,2.1017377,1.3099475,-0.9975874,1.6167971,-0.96884286,-1.8533981,-0.93934214,2.0514863,1.2473933,-0.9454374,-1.4393371,1.2863917,-0.44554627,1.1020439,0.81683534,0.60029215,-0.37008163,2.406433,-0.64754295,1.0439438,-2.5621195,-0.068745084,4.0611477,0.37516785,-0.5567436,0.7897865,0.715024,0.0729398,0.09155453,0.68923014,-1.2941946,-0.34093508,0.9314311,1.0,0.0,0.0,0.0,0.0,0.0,0.0,-3.0564332,0.24754295,-0.49394375,-0.044822693,-0.49488544,-1.6749799,-0.7667303,1.3701797,-2.7455926,-1.2213528
7.4803815,63.613274,19.65179,9.538396,0.20387852,1.1307908,0.08216296,-0.8063382,0.7048682,-0.20353736,0.60747707,0.5915369,0.68495923,-0.5596177,1.5361633,-0.898356,-1.8737519,-0.87859446,2.11064,1.3158891,-1.0013992,1.6024004,-0.95605886,-1.8577182,-0.92839205,2.059745,1.2532336,-0.9491882,-1.4403975,1.2753714,-0.42565486,1.0918163,0.8288968,0.5784514,-0.3779173,2.3808365,-0.6482296,1.0837883,-2.559558,-0.06867635,3.9589014,0.36222076,-0.5599327,0.79907626,0.72527766,0.064980194,0.090745874,0.67934895,-1.298212,-0.29539022,0.9284401,1.0,0.0,0.0,0.0,0.0,0.0,0.0,-3.0308366,0.2482296,-0.53378826,-0.28920174,-1.1972189,2.508074,-1.289773,1.0907769,-2.2962809,-1.1107683
6.703356,66.27381,20.307455,10.692945,0.24583614,1.243659,0.07454015,-0.8130072,0.7145028,-0.21012911,0.60825163,0.59326404,0.6908466,-0.56096154,1.5210997,-0.88460857,-1.8787311,-0.8675669,2.1190715,1.3223182,-1.0052843,1.5879542,-0.94334066,-1.8617713,-0.9175335,2.0680993,1.2588888,-0.9530086,-1.4467219,1.2702124,-0.3968387,1.0829557,0.8370907,0.56088907,-0.3845946,2.3552551,-0.64891624,1.1226112,-2.556999,-0.06860769,3.8567574,0.3491974,-0.56264687,0.8083781,0.73526096,0.05696501,0.08990204,0.66937566,-1.3046491,-0.24687468,0.93071675,1.0,0.0,0.0,0.0,0.0,0.0,0.0,-3.0052552,0.24891624,-0.57261115,-0.8249998,-0.62053204,3.436625,-1.1416197,0.6864786,-1.889503,-0.99823475
7.4901648,67.96738,20.525118,10.922906,0.15597928,1.248635,0.06166161,-0.81032246,0.71975124,-0.21353622,0.6064683,0.58351654,0.7016045,-0.55136096,1.5069219,-0.87136555,-1.883125,-0.8568867,2.126451,1.3290493,-1.0081447,1.5734583,-0.9306263,-1.8655784,-0.9067484,2.0764802,1.264403,-0.95688146,-1.4512713,1.2715083,-0.37330928,1.0761485,0.83793056,0.54764915,-0.3892164,2.3297043,-0.6496029,1.1604134,-2.5544424,-0.0685391,3.7547154,0.3361435,-0.56484604,0.81771654,0.74497974,0.048851196,0.08907534,0.65930593,-1.3085455,-0.19468673,0.9346815,1.0,0.0,0.0,0.0,0.0,0.0,0.0,-2.9797044,0.24960288,-0.6104134,-0.65112114,0.021910667,2.9194534,-0.9332657,-0.052440166,-1.4583468,-0.7957578
10.214565,70.27339,21.139828,10.10846,-0.003918886,1.2246412,0.098584406,-0.80740297,0.72925305,-0.2034117,0.5878225,0.596354,0.69636625,-0.54865557,1.492718,-0.85770094,-1.8859196,-0.8479662,2.1361156,1.3340396,-1.011747,1.5589434,-0.9178375,-1.86917,-0.8960949,2.0848877,1.2698008,-0.9607915,-1.452361,1.28106,-0.35259578,1.0608194,0.84117264,0.5366559,-0.3926697,2.304184,-0.6502876,1.197196,-2.5518885,-0.068470575,3.6527755,0.32307434,-0.56648254,0.8271032,0.7544062,0.040626265,0.088307396,0.6491707,-1.3061376,-0.13637085,0.93947756,1.0,0.0,0.0,0.0,0.0,0.0,0.0,-2.954184,0.25028762,-0.647196,-0.31516552,0.848794,2.658105,-1.7926931,0.18148422,-1.2154341,-0.6857097
10.632366,70.845024,21.051329,10.240716,-0.03104347,1.1994383,0.102861255,-0.8108928,0.73327947,-0.19058473,0.5823376,0.5975159,0.6989831,-0.54816705,1.4778541,-0.84450954,-1.8882284,-0.8378612,2.1446393,1.339699,-1.0156082,1.5444132,-0.90493333,-1.8725593,-0.88560164,2.093322,1.2751051,-0.9647302,-1.4539307,1.293275,-0.33238354,1.044661,0.8440777,0.52792096,-0.39534417,2.278679,-0.65097046,1.2329599,-2.5493371,-0.06840212,3.5509377,0.31004333,-0.56752205,0.8365402,0.7635285,0.03228131,0.08761788,0.63898766,-1.3017011,-0.0768105,0.9444409,1.0,0.0,0.0,0.0,0.0,0.0,0.0,-2.928679,0.25097045,-0.68295985,-0.3666401,1.116395,2.6173055,-1.8727303,0.1422286,-0.9872675,-0.60684085
11.038526,69.24971,20.136103,10.012712,-0.08509445,1.0705651,0.088706456,-0.8065387,0.736255,-0.19721857,0.579314,0.59327555,0.6981951,-0.54339045,1.4637593,-0.8313078,-1.8922812,-0.8276702,2.1526496,1.3449247,-1.0190692,1.5298945,-0.89191186,-1.8758361,-0.87524855,2.1017716,1.2803351,-0.968687,-1.452033,1.3048451,-0.32416138,1.0312197,0.84475136,0.5209728,-0.39695597,2.2532043,-0.6516533,1.2677062,-2.5467882,-0.06833373,3.4492018,0.29708862,-0.5679779,0.84600157,0.77235365,0.023831455,0.08703521,0.62875,-1.2935452,-0.019153887,0.94571304,1.0,0.0,0.0,0.0,0.0,0.0,0.0,-2.9032044,0.25165328,-0.71770614,-0.011944771,1.0617971,1.3881803,-1.6010046,-0.05992651,-0.78458786,-0.49263835
11.308532,68.1478,19.50158,9.844359,-0.111239016,0.98359764,0.09362972,-0.8068234,0.74130654,-0.19219185,0.56815404,0.5950628,0.7028397,-0.53760093,1.4492121,-0.8177812,-1.8950553,-0.81843317,2.1612778,1.3506191,-1.0224471,1.5153967,-0.87877977,-1.8790615,-0.8650414,2.110225,1.2855097,-0.9726524,-1.4497674,1.3155999,-0.3199502,1.0164076,0.8454396,0.51595074,-0.3975432,2.2277603,-0.6523361,1.3014358,-2.544242,-0.06826541,3.3475676,0.2842331,-0.5678692,0.85545915,0.7808829,0.015292026,0.086580075,0.61845934,-1.2827636,0.037361268,0.9444419,1.0,0.0,0.0,0.0,0.0,0.0,0.0,-2.8777604,0.2523361,-0.7514358,0.026130676,0.986886,0.97919106,-1.7383575,-0.053989887,-0.576365,-0.38423538
14.443963,68.92634,20.09673,8.2855015,-0.21547323,0.9603751,0.20935155,-0.80926496,0.7454303,-0.14830393,0.5268713,0.6099987,0.7010009,-0.5309339,1.4344702,-0.80423677,-1.8938918,-0.81235427,2.1712248,1.3556098,-1.0257457,1.5009066,-0.8655523,-1.8820655,-0.8551394,2.118728,1.2906424,-0.97661775,-1.449573,1.3248947,-0.29176027,0.9806441,0.85144806,0.5121259,-0.39732465,2.2023315,-0.65301895,1.33415,-2.5416982,-0.06819716,3.2460349,0.27152252,-0.56715584,0.86489546,0.78904706,0.0066691916,0.08619833,0.6082187,-1.2654053,0.09889044,0.9418732,1.0,0.0,0.0,0.0,0.0,0.0,0.0,-2.8523316,0.25301895,-0.78414994,-0.19543171,0.8477211,3.4255624,-3.8391113,0.45491457,-0.4224062,-0.3136158
14.439058,65.6731,18.734856,7.647396,-0.24021149,0.7834898,0.21894717,-0.8088851,0.74547976,-0.1585937,0.51015365,0.61657774,0.70528764,-0.5191409,1.4200181,-0.7910043,-1.8979249,-0.804124,2.1803856,1.3611711,-1.0285318,1.4864146,-0.85225904,-1.8848522,-0.8456341,2.1273148,1.2957484,-0.9805698,-1.4497703,1.3305266,-0.27228042,0.9395451,0.86023176,0.5099133,-0.39563328,2.1769333,-0.6537018,1.3658495,-2.539157,-0.06812897,3.1446037,0.25901794,-0.56586075,0.8742595,0.7968246,-0.0019956348,0.08587695,0.5980733,-1.2444268,0.15549509,0.932736,1.0,0.0,0.0,0.0,0.0,0.0,0.0,-2.8269334,0.25370178,-0.8158495,-0.22408962,0.49917698,2.5069535,-4.3721914,0.75757504,-0.22000074,-0.14623404
18.60657,67.422844,19.561832,5.7120886,-0.43803155,0.72552854,0.3315549,-0.8056938,0.7573368,-0.12223705,0.45772606,0.63273525,0.70438135,-0.503694,1.4058452,-0.7765254,-1.8970759,-0.7998615,2.1905882,1.3661865,-1.0309392,1.471932,-0.838879,-1.8873298,-0.8367058,2.1360238,1.3008353,-0.9844951,-1.4483218,1.3403331,-0.23757388,0.8763354,0.874025,0.50866324,-0.3924677,2.1515656,-0.6543827,1.3965355,-2.5366182,-0.06806086,3.043274,0.24677277,-0.5639534,0.88352627,0.8041553,-0.010676197,0.0856025,0.5881261,-1.213439,0.21770598,0.9225849,1.0,0.0,0.0,0.0,0.0,0.0,0.0,-2.8015656,0.2543827,-0.8465355,-0.06766319,0.92680454,4.0543704,-6.5858603,1.252079,-0.07709265,-0.00295043
18.11057,66.645905,19.059439,5.887114,-0.4169762,0.6493662,0.3387649,-0.8132667,0.7617743,-0.104294226,0.4292925,0.63972926,0.69635445,-0.49354395,1.3906053,-0.7627016,-1.8977592,-0.7937766,2.1999967,1.3704706,-1.0338495,1.4574305,-0.82539594,-1.8894336,-0.8284384,2.1448739,1.3059107,-0.9883813,-1.4514956,1.3507164,-0.1995412,0.80935276,0.8884427,0.50717014,-0.38834137,2.126213,-0.6550617,1.426209,-2.5340822,-0.067992814,2.9420457,0.23484802,-0.5614414,0.89268565,0.8110232,-0.019361522,0.08536447,0.57842827,-1.181347,0.27730367,0.91119516,1.0,0.0,0.0,0.0,0.0,0.0,0.0,-2.7762132,0.25506172,-0.87620896,-0.52552223,0.9950876,4.3593197,-6.9521546,1.3324618,-0.082719326,0.11062026
22.233055,66.7554,19.401566,3.64015,-0.63393325,0.5294116,0.44028795,-0.8072162,0.766948,-0.06436233,0.3644486,0.64859825,0.703801,-0.492647,1.3767089,-0.74870116,-1.8958699,-0.79199356,2.2097337,1.3762908,-1.037646,1.4429232,-0.81180704,-1.891053,-0.82099307,2.1538727,1.3109804,-0.99222845,-1.4511433,1.3614811,-0.14755747,0.7221059,0.9031347,0.50734127,-0.38444182,2.100891,-0.65574074,1.4548709,-2.5315485,-0.067924835,2.8409185,0.22333527,-0.55830574,0.9017071,0.81738204,-0.02802405,0.085150495,0.5690788,-1.1380986,0.33960408,0.8963576,1.0,0.0,0.0,0.0,0.0,0.0,0.0,-2.7508912,0.25574073,-0.9048709,-0.16515255,1.051712,5.7354393,-8.971966,1.3746858,0.14896393,0.097996
26.685413,66.57025,19.99566,1.1650205,-0.7986562,0.42365742,0.587895,-0.8064526,0.7646281,0.012247752,0.28912464,0.658284,0.6943942,-0.4877459,1.362278,-0.73534423,-1.8898282,-0.7920806,2.219701,1.3804199,-1.041003,1.4284292,-0.79814756,-1.8918922,-0.8145987,2.1630166,1.3160483,-0.99603647,-1.4495014,1.3673835,-0.06095893,0.61111736,0.9178817,0.50743765,-0.38053638,2.0755997,-0.65641975,1.4825224,-2.5290174,-0.06785692,2.7398925,0.21232605,-0.55452347,0.91055924,0.8231455,-0.03664797,0.08489764,0.5602505,-1.0841063,0.40410557,0.8784272,1.0,0.0,0.0,0.0,0.0,0.0,0.0,-2.7255998,0.25641975,-0.93252236,-0.021886826,0.5846977,9.179056,-11.326181,1.3940811,0.21201372,0.11039376
28.573845,68.20861,20.768915,0.842793,-0.8306812,0.4067284,0.6541672,-0.80580586,0.7715364,0.08056767,0.23843907,0.6593791,0.6878102,-0.466553,1.3478487,-0.72099394,-1.8838354,-0.7907548,2.2289546,1.3848293,-1.0426918,1.4139582,-0.7844242,-1.8916748,-0.8093344,2.1722825,1.3211161,-0.99979395,-1.4470199,1.3740091,0.050868794,0.4976232,0.92920667,0.50722826,-0.3749015,2.0503235,-0.65709877,1.5091642,-2.526489,-0.06778908,2.6389675,0.20186615,-0.55007935,0.91925746,0.828267,-0.04526257,0.084550425,0.5520654,-1.0261568,0.47018185,0.86343074,1.0,0.0,0.0,0.0,0.0,0.0,0.0,-2.7003236,0.25709876,-0.9591642,0.08542538,0.66797733,11.65133,-11.537266,1.0833263,0.20855665,0.3062129
34.494423,70.0858,21.983261,-2.5215316,-1.1475071,0.29414383,0.83986145,-0.80610174,0.78176326,0.17723922,0.11728352,0.6760332,0.67930377,-0.44977003,1.333348,-0.70624787,-1.8739508,-0.79760605,2.2398858,1.3890464,-1.044771,1.3995062,-0.7706045,-1.8900936,-0.8054949,2.1816819,1.3261782,-1.0034846,-1.4449193,1.3847454,0.19525768,0.34562558,0.9434877,0.50709665,-0.3679083,2.0250778,-0.6577778,1.5347975,-2.523963,-0.06772131,2.5381432,0.19210815,-0.5449257,0.92778236,0.83265287,-0.053842284,0.084070586,0.5447222,-0.95238674,0.5417852,0.8448753,1.0,0.0,0.0,0.0,0.0,0.0,0.0,-2.675078,0.25777778,-0.98479754,0.0742197,1.097703,14.853112,-15.344727,1.4153957,0.30646324,0.47260523
37.007854,70.58895,22.52681,-3.4705334,-1.2136304,0.20539007,0.9282583,-0.7967587,0.78239506,0.27360934,0.051312447,0.6767404,0.6702331,-0.39162973,1.3198303,-0.692365,-1.8627326,-0.80036366,2.2493558,1.3932015,-1.0426476,1.3851153,-0.7566894,-1.8869007,-0.80318415,2.1912034,1.3312365,-1.0070666,-1.4372083,1.3938211,0.36155787,0.19257738,0.95537716,0.50653666,-0.35547602,1.9998627,-0.658453,1.5594236,-2.5214396,-0.0676536,2.43742,0.18314362,-0.53904915,0.9361318,0.8362425,-0.062394336,0.08341445,0.53837484,-0.8726854,0.612926,0.8271259,1.0,0.0,0.0,0.0,0.0,0.0,0.0,-2.6498628,0.25845298,-1.0094235,0.6921768,0.949502,16.912216,-15.387901,1.2521267,0.31125546,1.0597408
29.100586,71.953575,22.237432,3.39258,-0.5774698,0.38083777,0.7234921,-0.7870909,0.7853818,0.33939278,0.10679953,0.6703391,0.66139257,-0.2876208,1.3064061,-0.67815125,-1.8529614,-0.7925042,2.2582374,1.3973757,-1.0358287,1.3708464,-0.7426952,-1.8821037,-0.80176795,2.2008011,1.3362776,-1.0104522,-1.4236549,1.4014634,0.5196315,0.1245817,0.96197265,0.5041683,-0.33339632,1.9746628,-0.6591282,1.583043,-2.5189188,-0.06758596,2.3367972,0.17475128,-0.53250504,0.9444397,0.8391389,-0.07108307,0.08253192,0.532899,-0.8180705,0.67722017,0.82701904,1.0,0.0,0.0,0.0,0.0,0.0,0.0,-2.6246629,0.25912818,-1.0330429,1.3227701,0.8129358,15.930491,-6.83303,0.8248329,0.029826164,2.053666
14.235192,67.968346,19.254913,12.744015,0.28850156,0.50922275,0.3340459,-0.7961301,0.7863522,0.34762695,0.18089983,0.6646584,0.6667064,-0.20120469,1.2912334,-0.66406,-1.847341,-0.78367794,2.267267,1.4029483,-1.0305727,1.3566538,-0.7286447,-1.8761146,-0.800284,2.2104256,1.341292,-1.013563,-1.41795,1.4064608,0.62536615,0.1562652,0.9635601,0.5009638,-0.30406994,1.9494934,-0.6598034,1.605657,-2.5164003,-0.06751838,2.2362752,0.16664886,-0.52542305,0.9528465,0.84158885,-0.08007856,0.08144626,0.52790356,-0.8018913,0.7259108,0.8396385,1.0,0.0,0.0,0.0,0.0,0.0,0.0,-2.5994935,0.25980338,-1.0556569,0.5313873,0.5567074,10.590828,3.1204076,0.3937602,-0.19534826,2.7994096
4.418155,62.880154,16.453863,18.306387,0.7832231,0.51509833,0.05145884,-0.7956597,0.78411806,0.361317,0.23233147,0.651606,0.6703891,-0.15737338,1.2770878,-0.6502329,-1.8399829,-0.77705085,2.2755861,1.4083309,-1.0293003,1.3424879,-0.7145752,-1.8694274,-0.7980076,2.2200158,1.346274,-1.0163687,-1.41636,1.4073244,0.6831563,0.25115025,0.95795864,0.49744034,-0.27308282,1.9243546,-0.6604786,1.6272665,-2.5138843,-0.06745088,2.1358535,0.1585083,-0.51795006,0.96141124,0.84380656,-0.08946471,0.08022835,0.52302,-0.80939156,0.76306605,0.8560608,1.0,0.0,0.0,0.0,0.0,0.0,0.0,-2.5743546,0.2604786,-1.0772665,0.106310844,0.14636517,5.7617188,9.415346,-0.30754805,-0.31889677,2.9721498
0.39469337,59.56261,14.858248,20.142298,0.91450113,0.47254258,-0.06915585,-0.7974935,0.7850942,0.38643885,0.26824117,0.6414403,0.66881466,-0.12767488,1.2627386,-0.6360657,-1.8307836,-0.7711835,2.28416,1.4131554,-1.0291362,1.3283087,-0.70050657,-1.8623569,-0.79463255,2.2295105,1.3512198,-1.0188712,-1.418694,1.4067858,0.71501964,0.36602813,0.947382,0.49372268,-0.24292603,1.899231,-0.6611538,1.6478726,-2.511371,-0.067383446,2.0355325,0.15023041,-0.51013374,0.9701308,0.8458989,-0.09925303,0.07895429,0.5180444,-0.82503307,0.7959216,0.87081367,1.0,0.0,0.0,0.0,0.0,0.0,0.0,-2.549231,0.2611538,-1.0978725,-0.29668808,0.0016212463,3.1790376,11.40694,-0.82116127,-0.37799478,2.8942704
0.8603964,54.661873,13.142552,17.881453,0.6996637,0.24366102,-0.06281547,-0.8033325,0.78437114,0.3881599,0.27129,0.6451032,0.67056435,-0.12101056,1.2479755,-0.6220695,-1.8235409,-0.76750356,2.294021,1.4182762,-1.0309722,1.3140723,-0.68645227,-1.8551395,-0.7903029,2.2389176,1.356135,-1.0210971,-1.4257232,1.4050587,0.7239079,0.45496657,0.93887454,0.49093613,-0.2162927,1.8741379,-0.6618271,1.6674762,-2.50886,-0.06731608,1.9353113,0.1418457,-0.5020237,0.9789083,0.84788525,-0.10933632,0.07770137,0.5129313,-0.83334213,0.82398456,0.8732796,1.0,0.0,0.0,0.0,0.0,0.0,0.0,-2.524138,0.26182708,-1.1174762,-0.7771015,-0.12423992,0.91991425,8.80279,-0.6503105,-0.25331378,2.5494723
5.5787683,51.794456,12.496868,13.241775,0.2436471,-0.035176635,0.050436113,-0.8012408,0.7857231,0.39556882,0.25803897,0.64492506,0.6669542,-0.1176304,1.2339482,-0.60787994,-1.8155826,-0.76449895,2.30341,1.4228305,-1.0328602,1.2997786,-0.6724094,-1.8478992,-0.78543437,2.2482522,1.3610274,-1.0230864,-1.4309369,1.4041249,0.72449106,0.4972163,0.9324793,0.48903516,-0.19352335,1.8490677,-0.6624985,1.6860783,-2.5063517,-0.06724878,1.8351903,0.13352203,-0.49365044,0.9876108,0.8497195,-0.11955163,0.07654836,0.50776416,-0.8229705,0.85062605,0.86228615,1.0,0.0,0.0,0.0,0.0,0.0,0.0,-2.4990678,0.26249847,-1.1360784,-0.5912781,-0.05350113,0.13742447,4.138851,-0.48822165,-0.08984804,2.1670074
10.888834,49.191746,12.118517,8.24593,-0.19725454,-0.32132307,0.20633003,-0.80189973,0.7828239,0.41038483,0.23010941,0.6479727,0.6628635,-0.09464056,1.2195886,-0.594127,-1.8068607,-0.7624234,2.3130493,1.4273137,-1.0325505,1.2854449,-0.65838563,-1.8406188,-0.7805239,2.2575486,1.3659045,-1.0248603,-1.4344624,1.401827,0.72962517,0.4886743,0.92929524,0.488001,-0.17230548,1.8240204,-0.66316986,1.7036799,-2.503846,-0.06718154,1.7351694,0.12545013,-0.4850235,0.99610907,0.8513199,-0.12973544,0.07553356,0.5027103,-0.7929616,0.87491983,0.83863705,1.0,0.0,0.0,0.0,0.0,0.0,0.0,-2.4740205,0.26316985,-1.1536798,-0.4126072,-0.19512177,0.6353378,-0.9325087,-0.2140522,0.08214712,2.0150244
12.678764,49.147713,12.3250885,7.1205993,-0.28615397,-0.40309525,0.28365442,-0.7989282,0.7815671,0.4246501,0.24843736,0.64727783,0.6642594,0.0049261944,1.205552,-0.5802289,-1.7981539,-0.75568014,2.3222764,1.4323304,-1.0243677,1.2711054,-0.64438856,-1.8332279,-0.7757546,2.266826,1.3707758,-1.0263728,-1.4339733,1.3991314,0.74291,0.47289315,0.92775226,0.48755682,-0.14447165,1.7990036,-0.66384125,1.7202821,-2.5013425,-0.067114376,1.6352487,0.11771393,-0.47615623,1.0043656,0.8526299,-0.13984042,0.074654184,0.4978892,-0.75799286,0.8990709,0.81432235,1.0,0.0,0.0,0.0,0.0,0.0,0.0,-2.4490037,0.26384124,-1.1702821,0.00436306,-0.23608208,1.4538527,-1.6400039,-0.061309338,0.15408993,2.676663
12.080755,47.010708,11.620096,7.188364,-0.24376655,-0.5049471,0.29056972,-0.79562515,0.7763728,0.41522452,0.26203245,0.64666146,0.65790236,0.11479022,1.1915429,-0.5667513,-1.7917054,-0.7495513,2.331492,1.4365661,-1.0148938,1.2567984,-0.63043725,-1.8257587,-0.77109015,2.2760956,1.3756396,-1.0275458,-1.4298983,1.3939136,0.7486187,0.46414986,0.9271381,0.48668966,-0.1086414,1.7740097,-0.66451263,1.7358859,-2.4988418,-0.067047276,1.5354277,0.110321045,-0.46707344,1.012376,0.85363954,-0.14985694,0.07390738,0.49333572,-0.7240398,0.9189303,0.78950274,1.0,0.0,0.0,0.0,0.0,0.0,0.0,-2.4240098,0.26451263,-1.1858859,0.37488937,-0.48258305,0.66782236,-0.93536973,0.04220009,0.111585855,3.4829526
9.165798,46.65937,11.347787,9.98733,0.006538391,-0.43712142,0.2154609,-0.7876854,0.77153695,0.4136444,0.31448352,0.6319384,0.66203463,0.21679501,1.1780299,-0.5532836,-1.7843943,-0.7396418,2.3392894,1.441843,-1.0058663,1.2425696,-0.61655366,-1.8182704,-0.7662302,2.2853234,1.3804957,-1.0283126,-1.4205784,1.3866593,0.74909085,0.4931347,0.9214491,0.48577976,-0.06632623,1.7490387,-0.665184,1.7504922,-2.4963434,-0.06698024,1.4357066,0.10317993,-0.4577942,1.0201929,0.8543804,-0.15986311,0.073283985,0.48898584,-0.7011411,0.93852615,0.77198094,1.0,0.0,0.0,0.0,0.0,0.0,0.0,-2.3990388,0.26518402,-1.2004921,0.90756416,-0.68109035,0.10639429,2.8379679,-0.43737888,0.053584576,4.1297493
6.1411233,44.265503,10.326619,11.929074,0.1720258,-0.4496572,0.116713375,-0.78386164,0.7651789,0.3925493,0.34864247,0.6167865,0.6603136,0.26693493,1.1641834,-0.5400358,-1.7790155,-0.731366,2.347002,1.446527,-1.0016191,1.2284437,-0.6027597,-1.8108966,-0.7608925,2.2944481,1.3853403,-1.028654,-1.410047,1.3770654,0.733417,0.54702234,0.9100852,0.48445797,-0.023757057,1.7240982,-0.6658516,1.764102,-2.4938476,-0.06691328,1.3360852,0.096199036,-0.44832993,1.0278533,0.8549101,-0.16991551,0.07280691,0.48472303,-0.68663603,0.9551774,0.7568082,1.0,0.0,0.0,0.0,0.0,0.0,0.0,-2.3740983,0.2658516,-1.214102,1.0244846,-0.9117842,-1.530838,5.3165197,-0.98787546,-0.022011995,4.1575694
5.41127,41.497635,9.329985,11.621481,0.13272864,-0.5589048,0.081539534,-0.7796192,0.7591417,0.37160444,0.3567808,0.6055108,0.65846014,0.29631925,1.1504818,-0.5268456,-1.7737362,-0.7252144,2.3549993,1.4511863,-0.99902207,1.2144228,-0.5890726,-1.8037841,-0.7550293,2.3034356,1.3901716,-1.028591,-1.3996267,1.3660547,0.7040015,0.59908664,0.89531934,0.4830885,0.01609454,1.699173,-0.66651917,1.7767164,-2.4913542,-0.06684638,1.2365634,0.0893631,-0.43873596,1.03534,0.8552697,-0.17999198,0.07251681,0.4804769,-0.6714858,0.96812814,0.7387233,1.0,0.0,0.0,0.0,0.0,0.0,0.0,-2.349173,0.26651916,-1.2267163,1.0109901,-1.0547876,-2.9037118,5.127716,-1.3352871,-0.023305416,3.8909376
6.30476,38.841305,8.551463,10.059877,-0.00049322844,-0.71634924,0.100281306,-0.7691907,0.75032306,0.35209292,0.36291042,0.592833,0.6551215,0.3381885,1.1375037,-0.5140403,-1.7685748,-0.71873826,2.3627188,1.4556838,-0.9947722,1.2005278,-0.57551324,-1.7970264,-0.7487427,2.3122551,1.3949896,-1.0281428,-1.3861773,1.3526518,0.6664188,0.63828325,0.878212,0.48178867,0.054213475,1.6742783,-0.66718674,1.7883363,-2.4888635,-0.06677955,1.1371411,0.082725525,-0.4290371,1.0426103,0.8554699,-0.19003011,0.07245355,0.476246,-0.6507533,0.97682595,0.7159804,1.0,0.0,0.0,0.0,0.0,0.0,0.0,-2.3242784,0.26718673,-1.2383363,1.3256788,-1.2957096,-3.718865,3.8435936,-1.5854836,0.008249283,3.722789
7.633007,36.67448,7.923831,7.9301805,-0.19898826,-0.88660324,0.14743301,-0.76793903,0.7431734,0.33595592,0.3511346,0.5747448,0.6481239,0.37804407,1.1237339,-0.5011959,-1.7634308,-0.71362925,2.3697295,1.459802,-0.9903384,1.1867453,-0.5620941,-1.7906501,-0.74225676,2.3208802,1.3997923,-1.0273246,-1.3756045,1.3384806,0.6281167,0.6517642,0.85746026,0.48033357,0.09070177,1.6494141,-0.6678543,1.7989627,-2.486375,-0.06671278,1.0378182,0.07636261,-0.419281,1.0496113,0.85550565,-0.19994098,0.07265891,0.47207436,-0.62177753,0.98155147,0.68769366,1.0,0.0,0.0,0.0,0.0,0.0,0.0,-2.2994142,0.2678543,-1.2489626,1.0394573,-1.3763189,-3.76935,1.2758255,-1.9760609,0.028526783,3.566055
8.9126425,33.230778,7.009265,5.5655565,-0.3470348,-1.0978,0.19712022,-0.7621506,0.72922236,0.3152141,0.3339227,0.5654069,0.64099866,0.4081318,1.1105303,-0.48917186,-1.7591287,-0.7088645,2.377421,1.4638922,-0.98651135,1.1730639,-0.5488485,-1.784661,-0.73582804,2.329303,1.4045779,-1.0261592,-1.365704,1.3200719,0.58930093,0.6396843,0.83747876,0.47877494,0.12486284,1.6245651,-0.6685219,1.8085967,-2.483889,-0.066646084,0.9385946,0.07034302,-0.40952873,1.0562814,0.85537326,-0.2096201,0.0731548,0.46802163,-0.58534473,0.9790804,0.6532449,1.0,0.0,0.0,0.0,0.0,0.0,0.0,-2.2745652,0.26852188,-1.2585967,0.9838581,-1.7989874,-3.8181663,-1.2784958,-1.9193053,0.060117245,3.3416362
10.125057,29.61279,5.9631405,2.916308,-0.5546932,-1.3295624,0.24119708,-0.7632004,0.716328,0.2920722,0.29336843,0.5406238,0.64293283,0.42475152,1.0967438,-0.4772157,-1.7554538,-0.7064912,2.3833654,1.4688711,-0.983684,1.1594473,-0.5358108,-1.7790687,-0.7297627,2.3374894,1.4093539,-1.0246791,-1.3603188,1.2985417,0.5493562,0.595303,0.8128862,0.47813123,0.1556157,1.5997467,-0.66918945,1.8172392,-2.4814057,-0.066579446,0.83947015,0.06475067,-0.39985657,1.0625534,0.85508096,-0.21894465,0.07398177,0.46414042,-0.5398244,0.968577,0.6118851,1.0,0.0,0.0,0.0,0.0,0.0,0.0,-2.2497468,0.26918945,-1.2672391,0.5403042,-2.1079302,-3.93337,-4.5066237,-2.3955703,0.20179749,3.0149221
12.209635,27.630043,5.6427317,0.6239786,-0.73750025,-1.5170392,0.30949378,-0.7449567,0.6976664,0.28521225,0.2630762,0.4961418,0.63023156,0.46999398,1.0849516,-0.4660442,-1.7505475,-0.70345503,2.3871036,1.4723771,-0.97767967,1.1459452,-0.5230297,-1.7738082,-0.72426665,2.34534,1.4141184,-1.0228919,-1.3466079,1.2714586,0.5183938,0.5342202,0.77595615,0.47677964,0.18608865,1.5749512,-0.6698532,1.8248912,-2.4789248,-0.06651288,0.74044484,0.059692383,-0.39032364,1.0683876,0.8546176,-0.22783667,0.07516502,0.46050978,-0.48550567,0.9527081,0.567688,1.0,0.0,0.0,0.0,0.0,0.0,0.0,-2.2249513,0.2698532,-1.2748911,1.4188766,-2.6594162,-3.0639768,-6.1541557,-3.6506176,0.16213655,2.9961734
12.468426,25.77052,5.100135,-0.31112385,-0.79144704,-1.6610221,0.3149726,-0.7391032,0.68457794,0.2599851,0.22605376,0.4773986,0.6216215,0.48257703,1.0720348,-0.4545719,-1.7478098,-0.7016613,2.3930798,1.4762806,-0.9746342,1.1325918,-0.51052606,-1.7688739,-0.7194592,2.352813,1.4188639,-1.0208243,-1.3313148,1.2435144,0.48526853,0.46281463,0.7381374,0.47478074,0.21346961,1.5501785,-0.67051697,1.8315536,-2.4764464,-0.06644638,0.6415186,0.0552063,-0.38098907,1.073771,0.85399735,-0.23624024,0.076715976,0.4571583,-0.42839983,0.93154585,0.522745,1.0,0.0,0.0,0.0,0.0,0.0,0.0,-2.2001786,0.27051696,-1.2815535,1.5962839,-2.7411222,-3.3088803,-7.1768165,-3.7415981,0.104123354,2.6970358
11.000692,22.306732,3.9120936,-0.55929184,-0.73427796,-1.8099018,0.28299597,-0.74751514,0.6704486,0.22437893,0.17390785,0.47705016,0.6146243,0.50278187,1.0578403,-0.4434812,-1.746436,-0.7020684,2.400518,1.4803263,-0.9705461,1.1193224,-0.4983009,-1.7643497,-0.7154614,2.3599808,1.4235846,-1.0184993,-1.3254137,1.2157768,0.441339,0.37864482,0.7097164,0.4722564,0.23865245,1.5254364,-0.6711807,1.8372275,-2.4739704,-0.06637995,0.5426912,0.051254272,-0.37191772,1.0786915,0.8532665,-0.24408431,0.07863256,0.45406598,-0.37321877,0.90245384,0.4763259,1.0,0.0,0.0,0.0,0.0,0.0,0.0,-2.1754365,0.27118072,-1.2872274,0.6438732,-2.7144432,-4.4063807,-8.463633,-2.7888417,0.051516294,2.4897962
8.763881,16.225712,1.9192929,-0.7897768,-0.67510045,-2.0020218,0.20448259,-0.74971175,0.64784336,0.1686464,0.12405123,0.44958055,0.6198638,0.50779426,1.0443512,-0.43351656,-1.747485,-0.7030563,2.404939,1.4855709,-0.96771985,1.1060625,-0.48638523,-1.7604434,-0.7123591,2.3668625,1.4282881,-1.0159491,-1.3261273,1.1837171,0.37361985,0.28722143,0.6810717,0.47058126,0.26050517,1.5007095,-0.6718445,1.8419138,-2.4714968,-0.06631358,0.44396263,0.047843933,-0.3632183,1.0831207,0.8525096,-0.2512813,0.080951825,0.4511448,-0.32113627,0.8617554,0.42681855,1.0,0.0,0.0,0.0,0.0,0.0,0.0,-2.1507096,0.27184448,-1.2919137,-0.021362305,-3.1371355,-6.8232,-9.2086735,-2.7929664,0.14054775,2.1703541
6.087398,13.262084,1.0197241,1.2101278,-0.43390253,-2.0176795,0.11038883,-0.74087656,0.6256951,0.12851296,0.115910746,0.42326578,0.6155245,0.52929026,1.0319749,-0.42381573,-1.7475922,-0.700768,2.4091892,1.4898405,-0.9630201,1.0928122,-0.4748205,-1.7572963,-0.7099978,2.373443,1.4329706,-1.0131911,-1.3242805,1.1476159,0.29486752,0.21885844,0.6506648,0.46845967,0.28083318,1.4760132,-0.67250824,1.8456136,-2.4690259,-0.066247284,0.3453328,0.0448761,-0.35494423,1.087086,0.8517976,-0.2578423,0.08366936,0.44828293,-0.2795108,0.8176568,0.38192514,1.0,0.0,0.0,0.0,0.0,0.0,0.0,-2.1260133,0.27250823,-1.2956135,0.23181438,-3.535509,-7.9577208,-6.9221706,-2.9482603,0.057923794,2.0142317
4.755981,13.335575,1.6086311,3.733098,-0.08549833,-1.8780038,0.10399039,-0.7275711,0.5916834,0.15256386,0.116409525,0.38262016,0.6133535,0.5563759,1.020055,-0.41565216,-1.7420399,-0.6983568,2.411705,1.494306,-0.9575535,1.0796419,-0.46369493,-1.7546623,-0.7080828,2.379657,1.4376303,-1.0102347,-1.3143682,1.1010983,0.2526014,0.18212546,0.61215484,0.46592078,0.30054796,1.4513474,-0.6731701,1.8483279,-2.4665573,-0.06618105,0.24680158,0.042236328,-0.3470745,1.0906622,0.8511145,-0.26390746,0.086668074,0.4454722,-0.25029597,0.7782077,0.34543705,1.0,0.0,0.0,0.0,0.0,0.0,0.0,-2.1013474,0.27317008,-1.2983279,1.0463953,-4.5758724,-4.32778,-3.7619472,-3.7451744,-0.029683113,1.9379377
1.2929101,12.884857,1.632417,7.76043,0.36925364,-1.6978883,0.010029636,-0.7319864,0.5662443,0.1311064,0.13490768,0.3750489,0.61691016,0.56044,1.0064433,-0.4070705,-1.7415516,-0.694592,2.417162,1.4993213,-0.95419073,1.0665461,-0.45306194,-1.7523525,-0.70625556,2.3855278,1.4422671,-1.007099,-1.3080055,1.0509323,0.22369482,0.1826046,0.5792914,0.4634818,0.3175995,1.4266968,-0.67383003,1.8500576,-2.4640913,-0.06611488,0.1483689,0.039764404,-0.33955765,1.0939386,0.85046196,-0.26964265,0.08982228,0.4426503,-0.23949549,0.7440154,0.31807348,1.0,0.0,0.0,0.0,0.0,0.0,0.0,-2.0766969,0.27383003,-1.3000576,0.6456137,-4.943824,-2.9721766,-0.06943047,-3.1575441,-0.07606149,1.6574085
2.3380046,11.850038,1.6396409,6.5587144,0.30952668,-1.7671734,0.065812744,-0.72286475,0.53416115,0.12882349,0.088047035,0.33122241,0.62599534,0.57023984,0.9942596,-0.39964584,-1.7394701,-0.6974509,2.4186502,1.5048666,-0.95007503,1.053536,-0.44296587,-1.7502067,-0.70452464,2.3910134,1.4468886,-1.003807,-1.2984741,0.9960655,0.21123275,0.1696291,0.5389633,0.4623387,0.33289832,1.4020767,-0.67449,1.8508037,-2.4616277,-0.06604878,0.050034612,0.03742981,-0.33239365,1.0969285,0.8498233,-0.27507392,0.093085766,0.43985182,-0.22506724,0.70788157,0.28931597,1.0,0.0,0.0,0.0,0.0,0.0,0.0,-2.0520768,0.27448997,-1.3008037,0.9894848,-5.415821,-1.3366908,-1.3937175,-3.9233565,0.05927682,1.4868975
4.4352093,4.6334863,0.009442568,1.7569299,0.09489721,-2.123967,0.17396398,-0.7121732,0.4829314,0.119072825,0.005120822,0.2935124,0.620025,0.5738242,0.98231876,-0.39467272,-1.7382994,-0.7040126,2.4203646,1.5088911,-0.94642454,1.0406557,-0.43352926,-1.7481487,-0.7032877,2.3960564,1.4514986,-1.0003775,-1.2841045,0.9264404,0.20357709,0.1082287,0.49274564,0.46138617,0.3461971,1.3774796,-0.6751499,1.8505672,-2.4591665,-0.065982744,-0.04820136,0.035324097,-0.32572746,1.0995426,0.84918976,-0.2800383,0.09644182,0.43721184,-0.19910921,0.653625,0.24907827,1.0,0.0,0.0,0.0,0.0,0.0,0.0,-2.0274796,0.2751499,-1.3005672,1.5490055,-6.8896174,-0.9009123,-6.203061,-4.5545697,0.124031305,1.3029695
4.2476,-3.621157,-1.6779559,-0.377028,0.2778434,-2.3463144,0.22853567,-0.6989064,0.4186409,0.13650498,-0.03189641,0.28027877,0.62031764,0.571179,0.9707651,-0.39166516,-1.7344981,-0.70647734,2.4240842,1.5135304,-0.94325966,1.0279623,-0.42494953,-1.7460449,-0.7028128,2.400676,1.456103,-0.9968337,-1.2639354,0.835414,0.21217836,0.027167665,0.45177194,0.46071723,0.35705724,1.3529053,-0.67580986,1.8493491,-2.456708,-0.06591678,-0.14633912,0.033447266,-0.3197193,1.1017059,0.8485556,-0.28442043,0.09977518,0.43485996,-0.17657056,0.5832715,0.20289262,1.0,0.0,0.0,0.0,0.0,0.0,0.0,-2.0029054,0.27580985,-1.2993491,2.179718,-9.030962,0.68713427,-8.159189,-4.0554285,0.15466213,1.0628521
5.5060644,-12.126415,-3.5820508,-4.6368628,0.18532643,-2.6925814,0.320215,-0.6757158,0.35155773,0.13697876,-0.123503074,0.23482944,0.62157595,0.5814166,0.96039075,-0.38979375,-1.732347,-0.7151631,2.424159,1.5182606,-0.93869203,1.0155474,-0.4174217,-1.7438304,-0.70344603,2.4048378,1.4607016,-0.9931878,-1.2331092,0.72546846,0.22382426,-0.09362733,0.40450346,0.4603476,0.36702967,1.3283615,-0.6764698,1.8471504,-2.4542518,-0.06585087,-0.24437876,0.031852722,-0.31456566,1.1033285,0.84792507,-0.28806007,0.10301149,0.43293524,-0.14757238,0.4928621,0.14660293,1.0,0.0,0.0,0.0,0.0,0.0,0.0,-1.9783615,0.2764698,-1.2971504,3.3151865,-10.9303,0.96016526,-12.110153,-4.735172,0.18370152,0.97780824
2.6257694,-27.410484,-7.4020543,-6.1667576,0.47130692,-3.0098383,0.25536814,-0.6422479,0.24885471,0.11391186,-0.1693376,0.15842375,0.60507846,0.56292045,0.9513226,-0.39253622,-1.7324393,-0.72037977,2.4206803,1.5212095,-0.9368957,1.0035521,-0.41125047,-1.7416198,-0.70530283,2.4083855,1.4652811,-0.9894694,-1.1874957,0.5811475,0.21939361,-0.2165624,0.33800924,0.45795366,0.37328118,1.303833,-0.67712784,1.8439721,-2.451798,-0.065785035,-0.3423204,0.03048706,-0.31050873,1.1043236,0.8473697,-0.2908162,0.10609043,0.43143418,-0.12929092,0.37690377,0.08215588,1.0,0.0,0.0,0.0,0.0,0.0,0.0,-1.953833,0.27712783,-1.293972,4.8343897,-14.385616,-0.65217614,-12.341309,-6.709093,-0.06710887,0.58248043
-0.33839417,-56.888344,-14.498817,-12.20838,0.6284353,-3.6555777,0.2539393,-0.59175736,0.06804116,0.12996636,-0.28533638,-0.0772862,0.5951205,0.5492476,0.94437635,-0.40444636,-1.7286232,-0.7338365,2.400657,1.5247931,-0.9345446,0.99218047,-0.40709627,-1.7394054,-0.7086426,2.4106476,1.4698282,-0.9857129,-1.1192313,0.36018002,0.22158727,-0.37326077,0.18871245,0.45381066,0.37604493,1.279335,-0.67778397,1.839815,-2.4493468,-0.06571926,-0.4401641,0.029258728,-0.30797958,1.1044902,0.8470001,-0.29241765,0.109009534,0.43034807,-0.116945274,0.210706,-0.006248079,1.0,0.0,0.0,0.0,0.0,0.0,0.0,-1.929335,0.27778396,-1.289815,7.1828127,-22.095882,0.05761683,-15.723473,-15.122461,-0.32883883,0.16729832
-11.452808,-135.96716,-33.129593,-23.321846,2.1153421,-5.0589204,0.18776096,-0.47658387,-0.3443648,0.16385213,-0.40660733,-0.3870735,0.59654534,0.51768506,0.9445221,-0.44153273,-1.7230202,-0.74930334,2.3719404,1.5294828,-0.9339444,0.98192465,-0.40673625,-1.7369926,-0.7138001,2.4106019,1.47432,-0.98197067,-0.99295837,-0.072549954,0.24843676,-0.5635418,-0.07079612,0.44666475,0.37245312,1.2548599,-0.6784401,1.8346802,-2.446898,-0.065653555,-0.53791,0.027801514,-0.30807877,1.1033496,0.8470151,-0.2923449,0.111374386,0.42976236,-0.15406446,-0.08403971,-0.15040208,1.0,0.0,0.0,0.0,0.0,0.0,0.0,-1.9048599,0.2784401,-1.2846801,13.053858,-43.42147,2.8594732,-19.144022,-26.493444,-0.97522736,-0.68405867
-4.5484204,-141.0339,-29.682007,-21.911844,3.5583642,-4.6657043,0.524289,-0.099922925,-0.62675256,0.3932021,-0.23528506,-0.52668166,0.6443103,0.43418467,0.97193235,-0.46941152,-1.6976724,-0.7373286,2.3579338,1.5387511,-0.9385522,0.9745108,-0.4115013,-1.733216,-0.7196728,2.4078171,1.4787604,-0.97833145,-0.6576941,-0.6118982,0.42265108,-0.5958923,-0.34912044,0.44090626,0.35983354,1.2304077,-0.6790962,1.8285687,-2.4444516,-0.065587915,-0.6355582,0.025733948,-0.31107903,1.1008757,0.8470681,-0.29109326,0.112174466,0.43029898,-0.22375523,-0.3716261,-0.2798,1.0,0.0,0.0,0.0,0.0,0.0,0.0,-1.8804077,0.27909622,-1.2785687,33.49241,-54.156197,18.01489,-3.457296,-28.271553,-1.2285233,-1.6002357
-4.1995683,-98.80568,-17.462112,-1.3168623,4.738654,-2.9735649,0.2327383,0.12770063,-0.7444131,0.4310312,0.08669253,-0.5053823,0.66720724,0.16491225,0.98728085,-0.4859426,-1.690113,-0.71100354,2.3572788,1.5454811,-0.9618402,0.97119296,-0.42121255,-1.727555,-0.7238823,2.4028084,1.4831682,-0.97500503,-0.22524141,-1.0913409,0.61716557,-0.36344182,-0.5521812,0.4385838,0.3234005,1.205986,-0.67975235,1.8214813,-2.4420075,-0.065522335,-0.73310876,0.02268219,-0.3162098,1.0975919,0.8468178,-0.2899144,0.11071001,0.43196368,-0.33436096,-0.5581366,-0.34496653,1.0,0.0,0.0,0.0,0.0,0.0,0.0,-1.855986,0.27975234,-1.2714813,42.608757,-48.102985,20.412338,23.016632,-20.52846,-0.8535087,-3.6871433
8.480051,-47.69066,-6.481033,-1.7227789,2.802342,-2.5494618,0.21656628,0.27592027,-0.7754883,0.30727637,-0.011408508,-0.4979542,0.656775,-0.043628473,0.99878496,-0.4987614,-1.6968274,-0.72502315,2.353013,1.5488458,-0.97936785,0.9721247,-0.4345168,-1.7208622,-0.7260395,2.3963578,1.4875532,-0.9721831,0.19576573,-1.4105574,0.69161034,-0.16736396,-0.67713124,0.4367056,0.2686768,1.1815796,-0.6804085,1.8134193,-2.439566,-0.06545683,-0.8305618,0.01902771,-0.32273865,1.0938041,0.84620553,-0.28916195,0.10730139,0.43452042,-0.3768172,-0.6818761,-0.39144915,1.0,0.0,0.0,0.0,0.0,0.0,0.0,-1.8315796,0.28040847,-1.2634194,41.004143,-32.05571,8.914137,19.370703,-12.866402,-0.7336736,-5.4055634
24.046413,-0.8663484,2.6975029,-11.672253,-0.038741738,-2.6142907,0.5111531,0.30673656,-0.7830318,0.3281252,-0.2618113,-0.49626535,0.6569631,-0.10009055,1.0027983,-0.51281995,-1.6880497,-0.75222063,2.3467312,1.5532496,-0.98219216,0.97633135,-0.4497522,-1.7138202,-0.72785246,2.389125,1.4919268,-0.96992385,0.49175507,-1.5618654,0.7134863,-0.18717216,-0.7397962,0.43587154,0.21158919,1.1572037,-0.6810627,1.8043835,-2.4371269,-0.065391384,-0.9279174,0.015686035,-0.33018494,1.0895109,0.84524745,-0.28837094,0.1027703,0.43799224,-0.31874037,-0.76381433,-0.44453248,1.0,0.0,0.0,0.0,0.0,0.0,0.0,-1.8072037,0.2810627,-1.2543836,28.41221,-15.3162,3.698337,-2.3343801,-6.698942,-0.5725026,-5.7520537
31.42606,31.049686,8.267321,-15.60151,-1.8739542,-2.5609612,0.57798195,0.36801326,-0.78820586,0.2879198,-0.35472703,-0.4988436,0.6541375,-0.16737689,1.0131327,-0.5285728,-1.6850282,-0.76332515,2.3392408,1.5573405,-0.98666155,0.9826828,-0.46558273,-1.7070396,-0.7308384,2.3815682,1.4962965,-0.9682368,0.6798147,-1.5907269,0.66980004,-0.33685657,-0.76196015,0.43620953,0.153998,1.1328506,-0.681715,1.7943748,-2.4346902,-0.065326005,-1.0251757,0.01335144,-0.33818245,1.0847026,0.8440207,-0.28707656,0.09789527,0.4423037,-0.20147438,-0.8104301,-0.49637476,1.0,0.0,0.0,0.0,0.0,0.0,0.0,-1.7828506,0.281715,-1.2443748,17.870594,-3.0797958,-3.2866478,-15.319527,-2.529657,-0.34341812,-5.881262
28.681759,36.66163,6.8469086,-14.941884,-2.4942627,-2.6953363,0.3326092,0.44679204,-0.79613405,0.07165209,-0.39299676,-0.4423192,0.6495485,-0.18533887,1.027362,-0.5451961,-1.6998744,-0.7701381,2.3373363,1.5612514,-0.9867707,0.9904381,-0.48123014,-1.7018211,-0.73558486,2.3741295,1.500672,-0.96708286,0.805198,-1.5566106,0.47493246,-0.5212678,-0.73840123,0.43665096,0.102133766,1.1085205,-0.6823673,1.7833943,-2.432256,-0.06526069,-1.1223367,0.012275696,-0.34662437,1.0793614,0.84276706,-0.28491157,0.09326984,0.44706783,-0.0721501,-0.85382193,-0.5503134,1.0,0.0,0.0,0.0,0.0,0.0,0.0,-1.7585205,0.28236732,-1.2333944,11.873949,3.2519102,-18.783552,-18.668795,2.166009,-0.29500127,-5.336854
20.483204,26.053055,1.4314543,-12.325684,-2.4485743,-2.911402,-0.027615122,0.49908257,-0.798258,-0.20492274,-0.44108185,-0.3984245,0.65746,-0.14996941,1.0403464,-0.56105596,-1.7223134,-0.77969307,2.3342872,1.5664179,-0.9820798,0.9991404,-0.49638832,-1.699786,-0.74208605,2.3671257,1.5050551,-0.9663619,0.8903622,-1.5026472,0.11475667,-0.6932271,-0.68816584,0.4374682,0.061422523,1.0842209,-0.68301964,1.771443,-2.4298244,-0.06519544,-1.2194006,0.012367249,-0.3556347,1.0734178,0.84182966,-0.28154558,0.089347735,0.45174304,0.04451868,-0.91390866,-0.61289686,1.0,0.0,0.0,0.0,0.0,0.0,0.0,-1.7342209,0.28301963,-1.2214429,8.068621,5.27184,-35.475784,-17.279434,4.8377037,-0.3069818,-4.255741
20.477917,25.289846,0.9416616,-12.928156,-2.492423,-2.9058785,0.022965077,0.55114627,-0.7862161,-0.3048651,-0.5568826,-0.3683316,0.66178036,-0.0950256,1.054255,-0.57500994,-1.7302724,-0.7977743,2.3302927,1.5712332,-0.9758644,1.008576,-0.51099646,-1.7014205,-0.7503859,2.3606942,1.5094439,-0.96595085,0.9602119,-1.4471605,-0.25481516,-0.87577134,-0.62882215,0.43809655,0.033816326,1.0599365,-0.68367195,1.7585218,-2.427395,-0.06513026,-1.3163675,0.013648987,-0.36525345,1.0668076,0.8412944,-0.27682683,0.0862738,0.45623177,0.16194405,-0.9745369,-0.6814988,1.0,0.0,0.0,0.0,0.0,0.0,0.0,-1.7099365,0.28367195,-1.2085218,6.6648602,5.4659605,-36.580788,-18.321144,5.7852983,-0.38317442,-2.9287145
23.168581,32.750553,4.6095033,-11.368889,-2.2324896,-2.4863605,0.23736727,0.6097528,-0.78323203,-0.30113634,-0.6179605,-0.37277773,0.66259664,-0.05050325,1.0695513,-0.58931965,-1.7315341,-0.81218195,2.3234165,1.5757035,-0.97100115,1.0187384,-0.5251614,-1.7059085,-0.7603375,2.3547585,1.5138422,-0.9657315,1.0342717,-1.4063631,-0.51312864,-1.0353512,-0.5820164,0.43925276,0.017723802,1.0356827,-0.68432426,1.7446316,-2.4249682,-0.065065145,-1.4132373,0.016059875,-0.37532806,1.0595691,0.8409609,-0.2709519,0.08386244,0.46080035,0.27292997,-1.014022,-0.74324286,1.0,0.0,0.0,0.0,0.0,0.0,0.0,-1.6856827,0.28432426,-1.1946316,7.1581244,4.05519,-25.708754,-16.053188,4.671645,-0.27858615,-1.6748741
25.839006,42.563034,9.4908695,-8.424789,-1.7914755,-1.9392023,0.42742714,0.66199017,-0.78056145,-0.283025,-0.65965575,-0.34964174,0.64873713,-0.09155075,1.0849375,-0.60321754,-1.7342111,-0.82630306,2.3197944,1.5787159,-0.9748866,1.0296961,-0.53904784,-1.7119453,-0.7716099,2.3492463,1.5182482,-0.96566474,1.1155915,-1.3826251,-0.6343708,-1.1583998,-0.54000425,0.44021276,0.0031526592,1.0114517,-0.68497276,1.7297735,-2.4225438,-0.065000094,-1.5100104,0.019454956,-0.38559914,1.0518179,0.8405436,-0.2643034,0.08174481,0.4657766,0.37201017,-1.0266261,-0.7917608,1.0,0.0,0.0,0.0,0.0,0.0,0.0,-1.6614517,0.28497276,-1.1797736,7.911849,2.4024487,-12.273622,-12.436867,4.389107,-0.17403364,-1.3895365
24.979212,42.515953,10.658205,-5.7114058,-1.22714,-1.67527,0.43807074,0.71369857,-0.78671867,-0.36120299,-0.6930218,-0.26702094,0.6303876,-0.1245212,1.101066,-0.6177197,-1.7480656,-0.8409121,2.322544,1.5812869,-0.97811687,1.0415198,-0.5528418,-1.7188156,-0.783836,2.3443024,1.5226523,-0.96574485,1.2039428,-1.37817,-0.7054051,-1.2442877,-0.4782239,0.43979174,-0.011319103,0.98724365,-0.68562126,1.7139484,-2.4201217,-0.06493511,-1.6066866,0.023727417,-0.39595222,1.0436265,0.8398903,-0.25714478,0.079571664,0.47130576,0.45358634,-1.0328963,-0.83479863,1.0,0.0,0.0,0.0,0.0,0.0,0.0,-1.6372436,0.28562126,-1.1639483,8.6297035,0.48234463,-7.3339343,-8.701158,6.4273415,-0.2552092,-1.3023103
22.952759,47.214336,12.9204,-1.621079,-0.70500016,-1.2872888,0.42339143,0.7311527,-0.77678114,-0.3569489,-0.7226563,-0.1691535,0.61913234,-0.1608086,1.114635,-0.63051987,-1.7545104,-0.85610163,2.327387,1.5845655,-0.9818257,1.0541025,-0.56661665,-1.7259777,-0.79671156,2.3401864,1.5270506,-0.9659785,1.2760789,-1.3770788,-0.7208982,-1.3022814,-0.38862082,0.43928102,-0.026620183,0.9630661,-0.68626976,1.6971571,-2.417702,-0.064870186,-1.7032663,0.028671265,-0.4062729,1.0350846,0.83891165,-0.24970447,0.077053376,0.47742817,0.5167624,-1.0247175,-0.86750567,1.0,0.0,0.0,0.0,0.0,0.0,0.0,-1.6130661,0.28626975,-1.1471572,7.0795774,0.1632452,-1.9125104,-5.8937073,9.264719,-0.15125275,-1.3132867
19.792938,47.76909,13.187415,1.4362302,-0.2478872,-1.1221435,0.34612438,0.7544111,-0.7659134,-0.4122504,-0.7497146,-0.010298246,0.5975941,-0.13941066,1.1295437,-0.643208,-1.7672027,-0.871683,2.3391566,1.58681,-0.97991955,1.0672938,-0.58035433,-1.7333343,-0.81004107,2.3373215,1.531428,-0.96633136,1.3331411,-1.3724473,-0.74188936,-1.3434058,-0.25181922,0.43720356,-0.037476346,0.9389038,-0.68691826,1.6794008,-2.4152846,-0.06480533,-1.7997494,0.03412628,-0.4165001,1.0262522,0.8375975,-0.24207588,0.073981784,0.48410365,0.5634772,-1.0144719,-0.89554787,1.0,0.0,0.0,0.0,0.0,0.0,0.0,-1.5889038,0.28691825,-1.1294007,5.6419134,0.5158663,-2.4725795,-4.1671753,13.944644,-0.2525866,-0.8388437
14.9292965,42.136246,11.041489,3.599084,0.34553742,-1.1763986,0.18650341,0.77273184,-0.7612863,-0.5098218,-0.7760423,0.24654643,0.54946107,-0.16903429,1.1445669,-0.65648293,-1.7843165,-0.8876453,2.3619761,1.586374,-0.98323476,1.0809447,-0.59403,-1.7412765,-0.82373106,2.3364136,1.53575,-0.9667996,1.375732,-1.3658625,-0.8125377,-1.3775519,-0.03674424,0.43025333,-0.049078893,0.91477203,-0.68756676,1.6606803,-2.41287,-0.06474054,-1.896136,0.039886475,-0.4267273,1.0171161,0.8360371,-0.23418668,0.0701305,0.49120274,0.5909179,-1.0176014,-0.92668945,1.0,0.0,0.0,0.0,0.0,0.0,0.0,-1.564772,0.28756675,-1.1106803,4.25961,0.68404675,-7.3268056,-3.399682,21.647167,-0.75439215,-0.9029008
8.982325,37.553707,9.29677,6.5932417,0.8346137,-1.1067315,0.06515837,0.76561075,-0.7645842,-0.54457444,-0.78650254,0.4065097,0.49481142,-0.09709142,1.1575058,-0.6704884,-1.7957339,-0.9023813,2.3770647,1.5852312,-0.97650874,1.0948302,-0.60766566,-1.7500331,-0.83769,2.337867,1.5399634,-0.96731746,1.3932722,-1.3628871,-0.8973499,-1.4017285,0.20621389,0.41802883,-0.051886056,0.8906555,-0.68821526,1.6409967,-2.4104576,-0.06467581,-1.9924264,0.045791626,-0.43704796,1.0076573,0.8343179,-0.22595657,0.06537032,0.49858186,0.5996166,-1.028085,-0.9596116,1.0,0.0,0.0,0.0,0.0,0.0,0.0,-1.5406555,0.28821525,-1.0909967,1.824069,0.2986431,-8.668709,-2.3415089,24.333496,-1.2930453,-0.028252602
2.7007813,36.653046,8.1709385,10.101688,0.69772875,-0.8966301,-0.068796135,0.7407915,-0.7579413,-0.5873206,-0.77965504,0.33255348,0.4935512,0.038125787,1.1689093,-0.68345976,-1.8087652,-0.9156555,2.3711224,1.5893185,-0.9635049,1.1086584,-0.6212574,-1.7596824,-0.85176146,2.3411133,1.5440584,-0.96775424,1.3799039,-1.3580458,-0.98802865,-1.4086697,0.36401427,0.40626866,-0.040420685,0.8665695,-0.68885994,1.620351,-2.4080477,-0.064611144,-2.08862,0.051727295,-0.44742775,0.9978744,0.8325426,-0.21735847,0.060022555,0.5059894,0.60186565,-1.0324905,-0.99212897,1.0,0.0,0.0,0.0,0.0,0.0,0.0,-1.5165695,0.28885993,-1.0703509,-1.1975527,0.47388077,-9.220266,-0.58476925,15.744758,-1.2661636,1.3128847
-3.7342672,33.146736,5.959199,12.722321,0.13992149,-0.72488666,-0.21184093,0.7108125,-0.7677588,-0.64612186,-0.7628712,0.06833302,0.50115967,0.1844998,1.1797397,-0.69803333,-1.8242946,-0.9280486,2.3479466,1.5941744,-0.9493043,1.1221548,-0.6348587,-1.7702987,-0.86575186,2.3446457,1.5480486,-0.9679688,1.3400356,-1.3609682,-1.086408,-1.3953428,0.3491113,0.39605862,-0.015121181,0.8425064,-0.6895046,1.5987439,-2.4056401,-0.06454655,-2.1847177,0.057724,-0.457798,0.98774,0.8308546,-0.20836683,0.054835655,0.51308566,0.6068226,-1.0295602,-1.0283808,1.0,0.0,0.0,0.0,0.0,0.0,0.0,-1.4925064,0.28950462,-1.048744,-3.8027763,-0.3247261,-9.93681,1.4782429,-1.6128242,-1.1855006,2.5456786
-3.3689127,37.24488,7.1196175,13.132638,-0.87233406,-0.46047103,-0.20267293,0.70260143,-0.7772945,-0.63428634,-0.7418135,-0.32285082,0.5473794,0.23234065,1.192415,-0.7125882,-1.8337274,-0.9399332,2.3123608,1.6027865,-0.94473475,1.1352278,-0.6485449,-1.7816112,-0.87948287,2.3464806,1.5519835,-0.9679097,1.2968528,-1.3712411,-1.1468759,-1.365223,0.12819907,0.39211354,0.012537574,0.8184662,-0.6901493,1.5761766,-2.403235,-0.06448201,-2.280719,0.06390381,-0.4679718,0.97726345,0.82931125,-0.19907434,0.050679855,0.51965743,0.63078964,-1.0040246,-1.0621091,1.0,0.0,0.0,0.0,0.0,0.0,0.0,-1.4684662,0.2901493,-1.0261767,-4.1527033,-1.0448694,-6.2201023,3.126955,-22.14894,-0.5613208,2.6507099
2.8515725,49.266247,12.1240225,13.175854,-1.5240624,-0.1183272,-0.069318146,0.725552,-0.7759518,-0.58668756,-0.6937475,-0.54665345,0.62106067,0.19229396,1.207783,-0.7261401,-1.8402799,-0.9488576,2.2918153,1.6140895,-0.9486803,1.1480585,-0.6623236,-1.7930572,-0.89271224,2.3453858,1.5559527,-0.9676274,1.2787969,-1.3799111,-1.1448822,-1.308855,-0.18870264,0.39808825,0.03290763,0.7944565,-0.690794,1.5526501,-2.4008322,-0.06441754,-2.3766246,0.0704422,-0.4776802,0.9665629,0.8278172,-0.18976125,0.04798784,0.5257437,0.6705334,-0.9503114,-1.0807154,1.0,0.0,0.0,0.0,0.0,0.0,0.0,-1.4444565,0.290794,-1.00265,-1.7231703,-0.8412838,-0.08904934,5.656886,-31.599777,0.5383909,1.9033558
3.1270485,47.455406,12.204451,13.56761,-1.1422367,-0.08601642,-0.058891542,0.72533065,-0.79976875,-0.616226,-0.65382475,-0.55761325,0.6403112,0.13996533,1.2205915,-0.74230045,-1.8546798,-0.9580947,2.2896245,1.6199838,-0.95363086,1.1608187,-0.6762787,-1.8044364,-0.9052578,2.3414414,1.5600001,-0.9672078,1.2750642,-1.4006883,-1.1363323,-1.2364209,-0.46282345,0.40682873,0.044670507,0.77046204,-0.6914387,1.5281652,-2.3984318,-0.06435314,-2.4724343,0.07732391,-0.48689842,0.9556875,0.8263149,-0.1805781,0.04661798,0.5314337,0.7011009,-0.90219843,-1.0975629,1.0,0.0,0.0,0.0,0.0,0.0,0.0,-1.420462,0.29143867,-0.9781652,-0.3264904,-2.071166,0.63061714,7.283807,-27.365906,0.8221209,1.0889053
5.2474556,48.845825,13.481859,13.438395,-0.6578585,-0.072598636,-0.000600636,0.7354432,-0.8071085,-0.6127332,-0.6189808,-0.52208537,0.6482875,0.10205917,1.234363,-0.75698954,-1.8657098,-0.96715593,2.289233,1.6248288,-0.95700186,1.1736494,-0.6904522,-1.8156784,-0.91704905,2.335479,1.564139,-0.96671855,1.2858665,-1.422879,-1.1206393,-1.1597807,-0.6408212,0.4161349,0.05038695,0.7464981,-0.69208336,1.502723,-2.3960338,-0.064288795,-2.5681481,0.08443451,-0.49567604,0.94466895,0.8247381,-0.17160095,0.046120204,0.5368734,0.7230857,-0.8593241,-1.110658,1.0,0.0,0.0,0.0,0.0,0.0,0.0,-1.3964981,0.29208335,-0.95272297,1.1008978,-2.218914,1.3728142,7.7039003,-17.771875,0.9043157,0.57141036
3.9676924,50.654152,14.375694,15.294293,-0.07113719,0.029534668,-0.027462453,0.73041016,-0.8110554,-0.6048834,-0.56295526,-0.50331676,0.65638995,0.05807229,1.2466904,-0.77155775,-1.8761667,-0.97334456,2.2851474,1.629778,-0.96091133,1.1865832,-0.7048193,-1.826741,-0.9279896,2.3283875,1.5683714,-0.96621597,1.2960227,-1.4414731,-1.1019516,-1.0720156,-0.73198533,0.42562428,0.050378054,0.72255707,-0.6927242,1.4763243,-2.3936381,-0.06422452,-2.6637664,0.091659546,-0.50405884,0.93356997,0.8230593,-0.16290836,0.046057183,0.5421372,0.7297467,-0.82072824,-1.1168383,1.0,0.0,0.0,0.0,0.0,0.0,0.0,-1.372557,0.29272422,-0.9263243,1.0394812,-1.8704891,1.7144918,8.8211775,-9.1385,0.97034574,0.05904585
4.0784593,52.10939,14.831573,15.329412,0.12709498,0.026219547,-0.0354276,0.72972655,-0.81022656,-0.61279774,-0.53597087,-0.51444995,0.6607944,0.024040125,1.2595558,-0.785842,-1.8880208,-0.9815867,2.2769425,1.6344509,-0.96381193,1.1995989,-0.7193123,-1.8376892,-0.9381243,2.3207734,1.5726916,-0.9657458,1.3034488,-1.4519671,-1.0928127,-0.9936913,-0.7714113,0.4342572,0.04622147,0.6986389,-0.6933651,1.4489702,-2.391245,-0.06416031,-2.7592888,0.09892273,-0.51208115,0.92241734,0.82128406,-0.15449478,0.046183866,0.5472575,0.7326366,-0.785478,-1.1216141,1.0,0.0,0.0,0.0,0.0,0.0,0.0,-1.3486389,0.2933651,-0.8989702,0.78344345,-1.0667324,0.7799387,7.887292,-3.9976597,0.8843601,-0.33285245
3.4436479,51.576828,14.481571,15.16612,0.28438932,-0.009530187,-0.043016583,0.728945,-0.81475973,-0.6243639,-0.5045856,-0.50572515,0.6629257,0.03780153,1.2724934,-0.8007883,-1.9001255,-0.98858285,2.2702007,1.6389841,-0.9619657,1.2126585,-0.73388064,-1.8486469,-0.9475504,2.3130257,1.5770899,-0.96530807,1.3069443,-1.458621,-1.096919,-0.9253244,-0.77602816,0.44161746,0.043322466,0.67474365,-0.69400597,1.4206616,-2.388854,-0.06409616,-2.8547158,0.10620117,-0.51978874,0.91120195,0.8194291,-0.14630346,0.04637372,0.55225056,0.7323441,-0.7554477,-1.1281261,1.0,0.0,0.0,0.0,0.0,0.0,0.0,-1.3247436,0.29400596,-0.87066156,0.40688515,-0.6930351,-0.51887035,6.912017,-0.54724216,0.7404506,-0.20061433
2.9092479,49.77879,13.626406,14.161776,0.3024304,-0.0754118,-0.02848889,0.72109395,-0.8192968,-0.6376456,-0.4931348,-0.5029421,0.66346496,0.06686851,1.2847679,-0.8158103,-1.9124115,-0.9968639,2.2627316,1.6434364,-0.9586212,1.2256953,-0.74850523,-1.8597362,-0.95644915,2.3053505,1.5815512,-0.96487415,1.3028839,-1.463813,-1.1131898,-0.8777236,-0.76514995,0.4473543,0.043707322,0.6508713,-0.69464684,1.3913994,-2.3864655,-0.06403208,-2.9500475,0.113479614,-0.52723885,0.8998747,0.81750494,-0.13823172,0.04658284,0.5571425,0.73258305,-0.7303423,-1.1405902,1.0,0.0,0.0,0.0,0.0,0.0,0.0,-1.3008713,0.29464683,-0.8413994,-0.3263235,-0.55766106,-1.7213821,4.863894,0.9768486,0.5340874,0.1195997
-0.5952053,49.406105,13.0359745,15.973535,0.50515175,0.012692153,-0.09149429,0.710594,-0.8228177,-0.65027297,-0.4347978,-0.5125404,0.6776718,0.10136865,1.2967546,-0.830787,-1.9247634,-0.99992895,2.2540965,1.6493183,-0.9547373,1.2386309,-0.76317847,-1.871043,-0.9647833,2.2977822,1.5860716,-0.9644078,1.2908165,-1.4686984,-1.1366025,-0.81832176,-0.75470066,0.4535546,0.047815982,0.6270294,-0.6952877,1.3611846,-2.3840795,-0.06396806,-3.0452838,0.12068176,-0.53445053,0.8884378,0.81555283,-0.13026288,0.046827972,0.5618828,0.72405386,-0.70780635,-1.1509727,1.0,0.0,0.0,0.0,0.0,0.0,0.0,-1.2770294,0.2952877,-0.8111846,-1.117754,-0.5399227,-2.3943186,6.05824,0.9011626,0.59468746,0.47367588
0.91441727,49.428528,12.941072,14.000356,0.25221407,-0.049438834,-0.026789963,0.7022613,-0.8190777,-0.6666881,-0.450049,-0.531385,0.67148966,0.14458224,1.308857,-0.8450862,-1.9377117,-1.0097882,2.2446437,1.6532205,-0.94994956,1.251414,-0.7778679,-1.8826263,-0.97273314,2.2902443,1.5906397,-0.963869,1.2744994,-1.4692773,-1.1658254,-0.7867977,-0.75380886,0.45773298,0.056136828,0.6032028,-0.6959286,1.3300182,-2.3816957,-0.06390411,-3.1404247,0.12787628,-0.54143333,0.8768507,0.81356305,-0.1223157,0.047190282,0.5665043,0.723689,-0.68445975,-1.1673995,1.0,0.0,0.0,0.0,0.0,0.0,0.0,-1.2532028,0.29592857,-0.78001815,-1.5268803,-0.10919571,-2.9915571,3.2819033,-0.053811073,0.34081936,0.87759125
2.9832377,49.883034,13.297115,12.128237,-0.02223581,-0.06048718,0.052642606,0.69400126,-0.8218047,-0.6679189,-0.45401457,-0.57516134,0.6766513,0.1787914,1.320814,-0.8600484,-1.9494182,-1.0181346,2.2327282,1.6583048,-0.94598985,1.2640215,-0.7925631,-1.8944519,-0.9805342,2.2825615,1.595246,-0.9632243,1.25661,-1.4698255,-1.1884238,-0.77746415,-0.77330947,0.4611722,0.067311354,0.57940674,-0.6965656,1.297901,-2.3793144,-0.06384021,-3.2354708,0.13510895,-0.54815483,0.8650648,0.81148803,-0.11431523,0.047765173,0.5710846,0.7314778,-0.6574623,-1.1882905,1.0,0.0,0.0,0.0,0.0,0.0,0.0,-1.2294067,0.29656562,-0.747901,-1.6787767,-0.102710724,-2.3513317,1.067841,-2.0826936,0.2243042,1.1515081
7.335206,51.872463,14.718955,9.753206,-0.27566475,-0.06087804,0.16735443,0.69468176,-0.8228602,-0.65581965,-0.4683848,-0.57621914,0.67521733,0.18313013,1.3334897,-0.8748491,-1.9600338,-1.0273727,2.2249396,1.6627676,-0.9449113,1.2764937,-0.8072649,-1.9063747,-0.9884106,2.2746804,1.5998789,-0.96247184,1.244427,-1.4703511,-1.1941781,-0.7906493,-0.7938239,0.4634805,0.07806789,0.5556259,-0.6972027,1.2648342,-2.3769355,-0.06377639,-3.3304217,0.14250946,-0.5545654,0.8530544,0.809244,-0.10622607,0.048545707,0.5757461,0.74888754,-0.6247907,-1.2112108,1.0,0.0,0.0,0.0,0.0,0.0,0.0,-1.2056259,0.29720268,-0.71483415,-1.1140108,-0.08878708,-0.7073164,-1.1925101,-2.1585584,0.07916689,1.1269286
8.16951,52.79091,15.238452,9.26268,-0.30730152,-0.010447592,0.19036223,0.68657684,-0.82292044,-0.6628506,-0.4697378,-0.5799513,0.6772806,0.17826684,1.3451513,-0.88955694,-1.9726597,-1.0353844,2.2166853,1.667607,-0.94464517,1.2888514,-0.8219706,-1.9183261,-0.9964644,2.2666085,1.6045328,-0.96162593,1.2333307,-1.4706807,-1.195959,-0.8098616,-0.8116891,0.46539038,0.08690729,0.5318756,-0.69783974,1.2308184,-2.374559,-0.06371263,-3.4252777,0.15008545,-0.5606346,0.84081227,0.80679005,-0.098037295,0.049508467,0.58054054,0.76714784,-0.58991826,-1.2342925,1.0,0.0,0.0,0.0,0.0,0.0,0.0,-1.1818756,0.29783973,-0.6808184,-1.004219,-0.065732,-0.32138824,-1.792717,-1.8859744,0.0320673,0.9426981
6.683491,55.811882,16.264416,11.387356,-0.14331746,0.15354115,0.124237835,0.6838504,-0.8209871,-0.6598067,-0.43322304,-0.6002492,0.67924905,0.14170444,1.3572364,-0.9040693,-1.9843068,-1.0397867,2.2065835,1.6724577,-0.94745547,1.3011214,-0.8366686,-1.9302547,-1.0045199,2.2583382,1.6092058,-0.96073043,1.2251196,-1.4695609,-1.1922058,-0.8037744,-0.83221257,0.46757394,0.09055982,0.5081482,-0.6984768,1.1958549,-2.3721848,-0.063648924,-3.5200388,0.15781403,-0.5663433,0.8284049,0.8041476,-0.0898324,0.05063539,0.5854167,0.7784574,-0.5526477,-1.248388,1.0,0.0,0.0,0.0,0.0,0.0,0.0,-1.1581482,0.2984768,-0.6458549,-0.73075294,0.08003712,0.25451183,0.72124004,-2.161634,0.104278326,0.4244238
5.2403803,53.60547,15.097966,10.911476,-0.1176703,0.13054633,0.059210867,0.6704533,-0.82220304,-0.6855507,-0.4604229,-0.6056414,0.6724681,0.013533963,1.3681667,-0.9188889,-1.9988098,-1.0505623,2.1977742,1.6764526,-0.95937705,1.3132769,-0.8513609,-1.9422596,-1.0125957,2.2498887,1.6138922,-0.9599055,1.2126694,-1.4691547,-1.203401,-0.80822045,-0.84964406,0.46848655,0.07996523,0.48444366,-0.69911385,1.1599444,-2.369813,-0.06358529,-3.6147053,0.16563416,-0.57170486,0.8158113,0.8013701,-0.08157958,0.05193496,0.5902994,0.78851074,-0.51887906,-1.2682885,1.0,0.0,0.0,0.0,0.0,0.0,0.0,-1.1344436,0.29911384,-0.6099444,-1.1417389,4.7683716e-05,-1.2265205,-0.30620098,-1.8622398,-0.052535534,-1.0107265
4.219548,53.489178,14.871315,10.890198,-0.113755524,0.17914411,0.028842993,0.65761083,-0.8245177,-0.6841692,-0.4723121,-0.63603395,0.67802167,-0.078551374,1.379038,-0.9338127,-2.0106764,-1.0598269,2.1862853,1.6816944,-0.9677606,1.3252722,-0.8660618,-1.954375,-1.0207686,2.241214,1.61859,-0.9592608,1.1953541,-1.470491,-1.2145578,-0.8198704,-0.87374747,0.46952024,0.05941501,0.46076202,-0.6997509,1.12308,-2.3674436,-0.06352172,-3.7103426,0.17354584,-0.5767269,0.8029989,0.79849017,-0.073243365,0.053430803,0.595142,0.7971023,-0.48472473,-1.2908045,1.0,0.0,0.0,0.0,0.0,0.0,0.0,-1.110762,0.2997509,-0.57308,-1.6191006,-0.17700195,-1.2255669,-1.0101914,-2.5369287,-0.05725026,-2.0107052
-3.7697783,53.087852,13.7395315,14.312943,0.34805173,0.41596588,-0.11657134,0.6131961,-0.8282534,-0.6758388,-0.45441356,-0.64339226,0.67579675,-0.20868908,1.3865918,-0.94888717,-2.0219588,-1.06621,2.1768749,1.6861696,-0.9801297,1.3369147,-0.8807961,-1.966542,-1.0289683,2.2323105,1.6232973,-0.95891273,1.1544374,-1.4744941,-1.2175089,-0.8194672,-0.8961843,0.47055572,0.026730506,0.43710327,-0.70038414,1.08526,-2.3650765,-0.06345821,-3.8058841,0.181427,-0.5814419,0.7899903,0.79560024,-0.06485867,0.05509892,0.5998146,0.78656286,-0.45477885,-1.3091562,1.0,0.0,0.0,0.0,0.0,0.0,0.0,-1.0871032,0.30038413,-0.53526,-3.9639473,-0.45666695,-0.37255287,0.21129847,-2.4121046,-0.016140938,-3.2345283
-7.5015254,49.036453,11.667981,13.184509,0.47568554,0.42882067,-0.11127643,0.56785166,-0.83206844,-0.6872229,-0.5239519,-0.6137076,0.6556589,-0.28814656,1.3936999,-0.9640029,-2.0352643,-1.0813636,2.1709397,1.6888633,-0.9877274,1.3479811,-0.89558566,-1.9787624,-1.0374618,2.223323,1.6279951,-0.9589318,1.0911976,-1.4806986,-1.223879,-0.8586066,-0.9006457,0.4689171,-0.011314587,0.41347504,-0.7010174,1.0464852,-2.362712,-0.06339476,-3.9013302,0.18913269,-0.58589363,0.7767108,0.79273504,-0.056320168,0.056864757,0.60428923,0.77030444,-0.4294995,-1.3391732,1.0,0.0,0.0,0.0,0.0,0.0,0.0,-1.063475,0.30101737,-0.49648517,-6.1553,-0.6884575,-0.7323265,-3.6914825,-0.63530207,-0.33367276,-3.7659466
-21.707527,44.98443,8.097541,15.770805,1.0421394,0.7465866,-0.16070849,0.44642988,-0.83379567,-0.66992253,-0.597929,-0.6036204,0.655747,-0.25899634,1.3926241,-0.9789652,-2.0457547,-1.0972546,2.162961,1.6935698,-0.98483145,1.3579413,-0.9104382,-1.9909523,-1.0466819,2.2143624,1.6326739,-0.959278,0.96519375,-1.4870763,-1.2176964,-0.9422983,-0.8954464,0.4670391,-0.04242327,0.38986206,-0.7016506,1.0067567,-2.3603497,-0.06333138,-3.996681,0.19648743,-0.59013367,0.7630684,0.78993416,-0.047493167,0.058656868,0.60852915,0.72633994,-0.41041204,-1.3774163,1.0,0.0,0.0,0.0,0.0,0.0,0.0,-1.039862,0.3016506,-0.45675665,-12.354302,-0.7318258,0.5163431,-8.072031,0.25218725,-0.36976337,-3.0869339
-70.956276,35.895077,-2.854416,30.540012,3.3419886,1.7300806,-0.6092776,0.13141505,-0.8353205,-0.6433561,-0.67627645,-0.54121804,0.6255845,-0.18707287,1.3710828,-0.9939702,-2.0552878,-1.1143095,2.1602407,1.6952323,-0.97798526,1.3653246,-0.92535174,-2.0029342,-1.0570197,2.205642,1.6373144,-0.9598464,0.6640991,-1.4935375,-1.1918303,-1.0628549,-0.86589354,0.46286765,-0.061814968,0.3662796,-0.70228386,0.9660754,-2.3579898,-0.063268065,-4.091936,0.20265198,-0.5944271,0.7490141,0.78750294,-0.038253874,0.060332853,0.61215645,0.582509,-0.42225707,-1.4193512,1.0,0.0,0.0,0.0,0.0,0.0,0.0,-1.0162796,0.30228385,-0.4160754,-29.70022,-0.84667206,2.6054144,-11.576653,2.3917198,-0.54148436,-1.9790537
-146.45325,26.579065,-18.446188,55.058605,7.001584,3.25575,-1.3015163,-0.33353066,-0.8276662,-0.6046826,-0.750465,-0.42610127,0.59006304,0.108677074,1.3319715,-1.0081184,-2.0634024,-1.1320662,2.1630318,1.6963208,-0.94897866,1.3678194,-0.94028914,-2.0144737,-1.0687041,2.197532,1.6418883,-0.96035373,0.113240615,-1.4951683,-1.1404142,-1.2009777,-0.7961932,0.4552445,-0.047358822,0.3427124,-0.7029171,0.9244423,-2.3556323,-0.06320481,-4.1870956,0.20623016,-0.5992012,0.73458606,0.78599215,-0.02852002,0.06164722,0.6144936,0.2840634,-0.48443988,-1.4546022,1.0,0.0,0.0,0.0,0.0,0.0,0.0,-0.9927124,0.3029171,-0.37444228,-54.466213,-0.57902336,5.4047585,-12.997031,5.891633,-0.90548396,1.3667561
-151.72707,29.860655,-18.068645,57.547935,7.790079,3.437584,-1.2776433,-0.46976843,-0.8297743,-0.58067703,-0.7830001,-0.21709628,0.5354063,0.29419628,1.3208426,-1.0232666,-2.0725415,-1.1470041,2.1758223,1.6954288,-0.93093413,1.364842,-0.95524085,-2.025441,-1.0816188,2.1906922,1.64634,-0.96054256,-0.43257353,-1.496931,-1.081135,-1.3183494,-0.6504397,0.44048628,-0.009039979,0.31917572,-0.70355034,0.8818583,-2.3532772,-0.063141614,-4.28216,0.20670319,-0.6046791,0.71988523,0.7855517,-0.018309984,0.062157646,0.61539376,-0.035218105,-0.55774045,-1.4787757,1.0,0.0,0.0,0.0,0.0,0.0,0.0,-0.9691757,0.30355033,-0.33185828,-53.962208,-0.6870508,6.204605,-10.725832,13.415586,-1.8424451,3.9554787
-124.59831,38.149086,-10.348461,51.199142,7.4862356,2.986374,-1.0719734,-0.53612065,-0.8372495,-0.57943106,-0.7579393,0.13302599,0.4747839,0.3135445,1.31123,-1.0389658,-2.083384,-1.1574128,2.2039948,1.6938184,-0.92918813,1.3573729,-0.9702383,-2.0359275,-1.0952392,2.1862404,1.6505972,-0.960328,-0.8500304,-1.5021459,-1.037209,-1.3732733,-0.379628,0.4193822,0.032898102,0.29566193,-0.70417976,0.83832437,-2.3509245,-0.063078485,-4.3771296,0.20423889,-0.61086655,0.7050514,0.78606457,-0.007725929,0.061218344,0.615057,-0.31774715,-0.6278634,-1.4879233,1.0,0.0,0.0,0.0,0.0,0.0,0.0,-0.9456619,0.30417976,-0.28832436,-41.25434,-0.9936333,4.605055,-4.5161963,26.134228,-2.601844,4.553897
-88.596275,46.554688,-1.5757885,41.19344,6.205689,2.3653038,-0.80512464,-0.60141593,-0.83440995,-0.60879916,-0.739328,0.33059543,0.4684133,0.3606609,1.2972313,-1.0536793,-2.0968075,-1.1691719,2.2193,1.6974386,-0.92426187,1.3468539,-0.9852644,-2.0462654,-1.1090064,2.1848404,1.6546541,-0.9596871,-1.118247,-1.5039388,-1.0323344,-1.3753077,-0.062431995,0.39921546,0.07598861,0.27217102,-0.7048092,0.7938414,-2.3485742,-0.06301542,-4.472004,0.19945526,-0.61763,0.6901759,0.7873206,0.0031141404,0.05852114,0.61375225,-0.5363372,-0.6802529,-1.490178,1.0,0.0,0.0,0.0,0.0,0.0,0.0,-0.922171,0.30480918,-0.24384141,-26.478613,-0.5368233,0.63381195,0.5918741,31.071547,-2.5237799,4.744281
-54.22097,51.857437,5.0725317,29.581863,3.9561722,1.7178282,-0.56277233,-0.6477983,-0.82574177,-0.67034525,-0.7376399,0.22123228,0.45856673,0.30562717,1.282074,-1.0678385,-2.1132998,-1.1827704,2.2069638,1.7005109,-0.9291244,1.3346068,-1.0002495,-2.0569732,-1.1226115,2.185794,1.6585242,-0.9587029,-1.2594308,-1.4975029,-1.0832542,-1.3536341,0.14656192,0.38138294,0.10690888,0.248703,-0.7054386,0.74841046,-2.346226,-0.06295242,-4.5667834,0.19309998,-0.6246853,0.6752223,0.78907245,0.014177004,0.054538317,0.61171,-0.6754022,-0.70085734,-1.499722,1.0,0.0,0.0,0.0,0.0,0.0,0.0,-0.898703,0.3054386,-0.19841045,-13.894773,0.40683746,-4.995489,2.7572393,20.499746,-2.2322059,3.414111
-34.279373,50.523552,6.7769365,20.534004,2.0000458,1.23417,-0.42854136,-0.7089713,-0.8283303,-0.7412011,-0.7501155,0.034942385,0.3939716,0.19341974,1.2637097,-1.0830826,-2.1310933,-1.197623,2.1892884,1.6979213,-0.939361,1.3214594,-1.0151726,-2.0685623,-1.136024,2.1876442,1.6621901,-0.9575461,-1.3326156,-1.4911329,-1.1839159,-1.3354764,0.19650705,0.36019626,0.11924509,0.22525787,-0.70606804,0.70203245,-2.3438802,-0.06288948,-4.661468,0.18579102,-0.63176155,0.66003287,0.7911248,0.025555192,0.050113555,0.60906243,-0.75597435,-0.69595695,-1.528058,0.0,1.0,0.0,0.0,0.0,0.0,0.0,-0.87525785,0.30606803,-0.15203243,-7.146263,0.45542717,-9.994602,2.3194313,4.691428,-2.5384665,1.4086082
-22.418713,52.970448,9.631049,16.134087,1.2638967,1.1272562,-0.37179446,-0.7467119,-0.8238776,-0.76561356,-0.74504536,0.135055,0.38310322,0.0042710416,1.2467883,-1.0975604,-2.1451237,-1.2105285,2.2011497,1.7005004,-0.957119,1.3078091,-1.029961,-2.0815682,-1.149679,2.1906443,1.6651431,-0.9565888,-1.3827266,-1.465749,-1.4063416,-1.4428927,0.46994495,0.15120153,0.07685765,0.20544434,-0.7076454,0.67083806,-1.4190291,-0.2441982,0.20884879,0.17784882,-0.63884926,0.6443677,0.7934395,0.037783965,0.04526953,0.6057861,-0.8067354,-0.7282253,-1.6129794,0.0,1.0,0.0,0.0,0.0,0.0,0.0,-0.8554443,0.3076454,-0.120838046,-6.2208414,4.123664,-34.11727,-22.544788,51.976646,-40.2545,-7.1694093
43.896,176.0,110.0,110.0,0.28107974,11.978961,-1.1808814,-0.57969415,0.57210827,0.7291827,0.6857724,-0.53328973,0.6852916,-0.3206144,1.2498397,-0.9727502,-2.00865,-1.0811017,2.1373153,1.7336723,-0.98865026,1.2974894,-1.0467228,-2.088212,-1.1496618,2.183895,1.6753017,-0.95507294,-0.90241694,-1.6762143,-0.5326134,0.44689414,-0.94914526,1.3482382,0.20754036,0.19129944,-0.710083,0.6725168,-1.4176104,-0.24395406,0.10899507,0.16916656,-0.6444645,0.6328821,0.79638404,0.040298823,0.043225706,0.601897,-0.89401394,-0.4894199,-0.9956767,0.0,1.0,0.0,0.0,0.0,0.0,0.0,-0.8412994,0.310083,-0.12251681,51.783062,0.00011920929,52.49207,177.8299,-109.14788,132.2678,22.357996
-22.219564,176.0,86.54756,96.47088,4.7297506,6.4681554,-1.4681227,-0.7413299,-0.6829636,0.47761694,0.73628485,-0.58516824,0.65296257,-0.4135472,1.2233564,-1.1150191,-2.0404503,-1.0760334,2.1253784,1.740598,-0.99642766,1.2884333,-1.0634845,-2.0866861,-1.1378323,2.1709557,1.6887428,-0.95371115,-0.90542513,-1.6762154,0.38331854,1.4285897,-1.4117414,1.3483832,0.11397003,0.17713165,-0.7125206,0.67285854,-1.4161931,-0.24371016,0.009241201,0.15929413,-0.64894867,0.6266894,0.8004222,0.034594707,0.04280903,0.5969044,-1.0202948,-0.42361367,-0.49644744,1.0,0.0,0.0,0.0,0.0,0.0,0.0,-0.8271316,0.3125206,-0.122858524,0.023674965,-9.536743e-05,92.19525,98.22806,-47.086098,1.7330885,-8.873359
-58.201565,162.93611,44.34581,69.85681,4.140931,3.7942724,-1.584191,-0.755825,-0.5862861,-0.07371521,0.6182727,-0.5711999,0.6797846,-0.3682094,1.2128508,-1.1221131,-2.0940576,-1.076005,2.1138356,1.7567213,-0.9905321,1.2785723,-1.078606,-2.0814524,-1.1206223,2.156517,1.7017165,-0.9529921,-1.01129,-1.4584521,0.56954193,1.8204454,-1.456244,1.2835939,0.05858982,0.16297913,-0.7149563,0.6722035,-1.4147773,-0.2434665,-0.09041294,0.14805603,-0.65302277,0.6236876,0.805624,0.02579199,0.043287836,0.59028035,-1.1610619,-0.39476785,-0.24055699,1.0,0.0,0.0,0.0,0.0,0.0,0.0,-0.8129791,0.31495628,-0.12220347,-10.053802,21.523428,18.606388,39.796852,-4.9619675,-5.5101156,-5.3420715
-39.8629,171.66747,49.90474,51.608566,2.7665024,3.4830713,-0.79858035,-0.75668764,-0.4507411,0.43042004,0.7263176,-0.567697,0.6591127,-0.33412933,1.2029035,-1.1236801,-2.0384104,-1.0479906,2.0997474,1.7676278,-0.986405,1.2673056,-1.090918,-2.0741396,-1.1021019,2.142933,1.7136737,-0.9527918,-1.1641319,-1.1566122,0.7848482,1.8637246,-1.3279853,1.1690923,0.007274227,0.14884186,-0.71739006,0.6705526,-1.4133629,-0.24322307,-0.18996744,0.1357727,-0.65644646,0.62305474,0.8114743,0.015686233,0.044161182,0.5825059,-1.2530826,-0.31735706,-0.011212431,1.0,0.0,0.0,0.0,0.0,0.0,0.0,-0.79884183,0.31739005,-0.1205526,-14.972186,29.866959,21.509243,4.674387,12.111783,-10.643959,-5.106907
-33.80668,118.261795,28.655478,29.153883,1.6025324,1.8445684,-0.44400176,-0.7754124,-0.47059083,0.3053253,0.709396,-0.559654,0.6696742,-0.33548868,1.1897644,-1.137977,-2.043607,-1.0311623,2.0869675,1.7806411,-0.9863407,1.2546217,-1.1007293,-2.066247,-1.0846478,2.1310005,1.7245303,-0.9530417,-1.3026054,-0.92302614,0.78939205,1.7065417,-1.1489822,1.0596985,-0.0358388,0.13471985,-0.71982,0.66790694,-1.4119499,-0.24297988,-0.28942242,0.12286377,-0.65924644,0.6236311,0.81757945,0.0056383153,0.04514502,0.5740156,-1.3088125,-0.26032436,0.07398598,0.0,1.0,0.0,0.0,0.0,0.0,0.0,-0.7847198,0.31982002,-0.11790693,-13.745475,23.197687,0.15408993,-15.527868,17.739916,-10.379362,-4.363539
-12.172475,87.3269,21.428059,13.122174,0.44164163,0.7608568,-0.060018938,-0.7532153,-0.4479603,0.3420998,0.7002889,-0.5273276,0.66936076,-0.36014575,1.1793002,-1.1455253,-2.032037,-1.0146189,2.0782678,1.7914665,-0.9890562,1.2410185,-1.1088337,-2.0586748,-1.0691601,2.1207733,1.7343913,-0.95368826,-1.3795946,-0.77315044,0.74591357,1.4962661,-0.9810202,0.9627163,-0.07458939,0.1206131,-0.7222481,0.6642675,-1.4105383,-0.24273697,-0.388778,0.10974121,-0.66155815,0.62452465,0.8236521,-0.003627607,0.04605946,0.56521004,-1.315599,-0.21313131,0.08903348,0.0,1.0,0.0,0.0,0.0,0.0,0.0,-0.7706131,0.32224807,-0.11426747,-7.7560186,14.875042,-4.4725895,-20.991278,16.631294,-9.319126,-3.976559
2.4747043,57.03959,14.414811,2.9620743,-0.025983602,-0.055072904,0.14464642,-0.745509,-0.48304844,0.37847617,0.6817904,-0.49624133,0.6690285,-0.38031042,1.1664677,-1.1571385,-2.0208273,-1.0009811,2.071149,1.8012942,-0.9917193,1.2270547,-1.1162528,-2.0515678,-1.055632,2.1120174,1.7431366,-0.95460844,-1.4022279,-0.7304823,0.68102705,1.2904562,-0.8222143,0.77763814,-0.07799038,0.105659485,-0.7239208,0.66194767,-1.7305175,0.05359098,0.5349341,0.09679413,-0.6635971,0.625136,0.8295088,-0.0117430845,0.04662445,0.55642015,-1.2863686,-0.20454812,0.040202305,0.0,1.0,0.0,0.0,0.0,0.0,0.0,-0.75565946,0.32392082,-0.111947656,-2.326727,4.3789506,-8.998812,-22.67456,18.182886,-28.479147,2.6641726
1.804666,157.91583,46.10768,27.049929,-0.38918042,1.4902443,-0.13465759,-0.79496,0.08363712,0.3226329,0.72653246,-0.47853383,0.64202803,-0.3262482,1.1475587,-1.107889,-2.0193045,-0.98297876,2.064164,1.8073394,-0.9872333,1.2128717,-1.1210517,-2.045224,-1.0433811,2.1044872,1.7503788,-0.95556784,-1.4238669,-0.3969264,0.6194975,1.2037795,-0.7315004,0.7081717,-0.1026332,0.08836365,-0.72338676,0.6665456,-1.7287873,0.0535374,0.43475434,0.08413696,-0.6649971,0.62672216,0.83519745,-0.019190786,0.04783969,0.5475291,-1.2603924,-0.10991194,0.1949039,0.0,1.0,0.0,0.0,0.0,0.0,0.0,-0.7383636,0.32338676,-0.11654562,-2.255106,33.113956,-5.959332,-8.528376,8.633614,-6.487,-2.6764483
-4.2013516,148.61319,41.71625,29.301281,0.09536576,1.2876759,-0.3087601,-0.8026345,0.06947345,0.24317744,0.7209433,-0.38391358,0.63055176,-0.37609354,1.1326082,-1.1141043,-2.0209062,-0.9712868,2.0660958,1.813434,-0.9931772,1.1985341,-1.1227587,-2.0397422,-1.031506,2.097842,1.757026,-0.956779,-1.4375029,-0.09603659,0.5246445,1.1826804,-0.6434374,0.6513579,-0.12772216,0.0710907,-0.7228527,0.67015094,-1.7270589,0.053483874,0.335798,0.071640015,-0.6655655,0.62976336,0.84089434,-0.026778936,0.050159555,0.538204,-1.2477645,-0.031157492,0.33782342,0.0,1.0,0.0,0.0,0.0,0.0,0.0,-0.7210907,0.3228527,-0.120150924,-1.4366865,29.864967,-9.287667,-1.9215345,8.434224,-5.402732,-2.6518478
-15.803387,111.3805,26.60686,26.824184,0.4928093,0.7455205,-0.48341262,-0.8151468,0.057775635,0.07119661,0.72650087,-0.39687383,0.6314074,-0.36824203,1.1170194,-1.1169811,-2.0326226,-0.95885587,2.0581546,1.8201667,-0.9936032,1.1840593,-1.1221961,-2.0358245,-1.019482,2.0917919,1.7632573,-0.95822763,-1.4509372,0.1064641,0.34786376,1.2095643,-0.592882,0.6142195,-0.15094429,0.053833008,-0.72231865,0.6727674,-1.7253321,0.0534304,0.23694058,0.059127808,-0.6655941,0.63370746,0.846727,-0.034221105,0.053628568,0.5282104,-1.2547215,0.0147834625,0.41118443,0.0,1.0,0.0,0.0,0.0,0.0,0.0,-0.703833,0.32231864,-0.12276739,-1.3812542,20.08982,-17.5974,2.8582335,4.8790693,-3.5793781,-2.4158359
-14.078881,105.59619,25.37321,25.798502,0.46302772,0.6737381,-0.45683578,-0.8105016,0.17784928,0.052935492,0.74731904,-0.40970525,0.64319015,-0.39210483,1.1030091,-1.1044111,-2.030531,-0.94475013,2.0508213,1.8275763,-0.99743813,1.1695067,-1.1198494,-2.0336404,-1.0070698,2.0864022,1.7692257,-0.9599786,-1.4568232,0.27672848,0.17719193,1.2528433,-0.52776784,0.58784795,-0.18119007,0.03817749,-0.7216816,0.67804897,-1.5504917,0.07373492,0.5904632,0.04649353,-0.66521263,0.63829017,0.85273194,-0.041449707,0.058086034,0.5174516,-1.2641964,0.055461448,0.47274098,0.0,1.0,0.0,0.0,0.0,0.0,0.0,-0.68817747,0.3216816,-0.12804896,-0.5936146,16.766512,-15.990642,5.0038815,2.648139,-3.8323402,-2.0763338
-6.3903837,101.40581,27.51625,22.819435,0.66008306,0.7718885,-0.28627822,-0.8137557,0.20728396,0.16784431,0.75606495,-0.36515245,0.6543963,-0.42805344,1.0881311,-1.0991211,-2.016856,-0.93146336,2.049887,1.8346653,-1.0027839,1.1549174,-1.1162655,-2.032126,-0.99417907,2.0813668,1.7748843,-0.96194655,-1.4597365,0.3849906,0.1440126,1.3013322,-0.4967991,0.5582099,-0.20241517,0.022720337,-0.72070503,0.6844989,-1.5439018,0.10664767,0.66339266,0.033828735,-0.66438866,0.64350754,0.85875106,-0.04869201,0.063177675,0.5061464,-1.2666675,0.10089316,0.5368018,0.0,1.0,0.0,0.0,0.0,0.0,0.0,-0.6727203,0.32070503,-0.1344989,-0.37965775,10.630905,-2.929306,4.896307,2.6928902,-3.036797,-2.2516818
1.5877504,100.34401,29.75491,19.455929,0.6218871,0.83545667,-0.099048615,-0.8150925,0.2573288,0.21460922,0.7433636,-0.30783874,0.64666206,-0.42926827,1.0734081,-1.0905327,-2.010665,-0.9198427,2.050583,1.8395505,-1.0048734,1.1403128,-1.1118329,-2.0302644,-0.98096776,2.0766745,1.7802665,-0.96409714,-1.461124,0.46201363,0.20218913,1.3277754,-0.46171683,0.53103715,-0.21969783,0.0073623657,-0.7193699,0.6916895,-1.5336351,0.14369354,0.7380251,0.021202087,-0.6630688,0.64937145,0.8646284,-0.056193866,0.06845983,0.49454337,-1.2606466,0.1528344,0.6019057,0.0,1.0,0.0,0.0,0.0,0.0,0.0,-0.65736234,0.31936988,-0.14168948,-0.2628088,7.499516,6.364423,2.6452541,2.974385,-2.8293967,-1.8758446
2.498279,94.63298,27.595985,17.206175,0.4810614,0.7375406,-0.040440485,-0.8215442,0.30702758,0.16516544,0.7376095,-0.30107924,0.6430411,-0.43807876,1.0581584,-1.0811301,-2.013748,-0.90720683,2.0465665,1.8445706,-1.007905,1.1256739,-1.1067212,-2.0278726,-0.967643,2.072276,1.7854118,-0.9664053,-1.4653187,0.52694815,0.25310442,1.3339136,-0.4339456,0.50857204,-0.2349258,-0.007888794,-0.7176628,0.6995209,-1.5220654,0.18115674,0.7984927,0.008644104,-0.6612358,0.6557787,0.8702936,-0.06393981,0.07381643,0.48275447,-1.2500172,0.2041256,0.65247726,0.0,1.0,0.0,0.0,0.0,0.0,0.0,-0.6421112,0.3176628,-0.14952087,-0.5495548,6.309181,5.6251764,0.59263706,2.273798,-2.3328424,-1.6755581
3.753833,91.10534,25.97773,15.631674,0.27360392,0.6240158,0.0016798805,-0.81816953,0.347404,0.15461391,0.74168617,-0.31648013,0.6457344,-0.43327135,1.043857,-1.0719807,-2.012411,-0.8934744,2.0406282,1.8499852,-1.0097324,1.1110121,-1.1009934,-2.025114,-0.95432216,2.0680377,1.7903676,-0.96884304,-1.4669224,0.5875155,0.28531086,1.3313631,-0.42163846,0.49084073,-0.24725722,-0.023017883,-0.7155762,0.7078897,-1.5083939,0.21952984,0.850185,-0.003730774,-0.6588936,0.6626141,0.8757117,-0.0718374,0.07931831,0.4708259,-1.2326614,0.25479582,0.69266754,0.0,1.0,0.0,0.0,0.0,0.0,0.0,-0.6269821,0.31557617,-0.15788966,-0.29520988,5.884719,3.7400663,-0.29277802,0.75336695,-1.8247008,-1.3912827
-0.32674947,77.37203,20.071358,13.896553,0.29011482,0.37634096,-0.033575617,-0.8260349,0.3501328,0.09704376,0.736644,-0.28661263,0.6376227,-0.43255827,1.0284086,-1.0659801,-2.0154097,-0.88065773,2.0393765,1.8541299,-1.0120989,1.0963064,-1.0948231,-2.0224433,-0.9410775,2.0639436,1.7951756,-0.97138816,-1.4720582,0.62641865,0.26253077,1.3220028,-0.40641025,0.47724262,-0.25735387,-0.038009644,-0.7131462,0.7165468,-1.497356,0.25200176,0.87099624,-0.01599884,-0.6561413,0.6696363,0.88090754,-0.07966455,0.08501876,0.4587235,-1.2198471,0.29321262,0.7040883,0.0,1.0,0.0,0.0,0.0,0.0,0.0,-0.61199033,0.3131462,-0.16654676,-0.6305218,3.7638903,-1.890558,-1.0027647,1.1882722,-1.3571143,-1.1635542
-3.065152,64.41715,14.924058,12.272662,0.28116345,0.124868274,-0.061560124,-0.8247331,0.34426358,0.047385383,0.7412193,-0.2841208,0.6165695,-0.42583403,1.0138332,-1.0603968,-2.0177047,-0.8669555,2.0355315,1.8568325,-1.0139716,1.0815626,-1.0884507,-2.0203297,-0.9279011,2.0599675,1.7998618,-0.97401655,-1.4753817,0.64043504,0.19554646,1.3158697,-0.39554906,0.4657198,-0.2651007,-0.05291748,-0.7104397,0.7252097,-1.4884624,0.27822086,0.8648965,-0.028152466,-0.65309525,0.6765873,0.88591987,-0.08718755,0.09096007,0.44639733,-1.2103982,0.31907296,0.6906166,0.0,1.0,0.0,0.0,0.0,0.0,0.0,-0.5970825,0.31043968,-0.1752097,-0.42951107,1.3147116,-6.4224005,-0.70865154,0.8739054,-1.1167943,-0.9190738
-8.606654,51.459354,8.63228,11.463047,0.11853778,-0.17610765,-0.12195344,-0.8264,0.3522116,-0.10628503,0.7447542,-0.314121,0.6046768,-0.40630192,0.99892265,-1.0532296,-2.0309582,-0.8534257,2.0285554,1.8603295,-1.0146468,1.0667921,-1.0820153,-2.019582,-0.91474617,2.0559697,1.804451,-0.9766982,-1.4779482,0.6442432,0.034740236,1.3149786,-0.40137345,0.45692086,-0.26960683,-0.06775665,-0.70752525,0.73359954,-1.4819819,0.29677448,0.8302388,-0.040229797,-0.6498966,0.6831964,0.89080757,-0.094070435,0.09737932,0.43373948,-1.2039913,0.33056688,0.6495532,0.0,1.0,0.0,0.0,0.0,0.0,0.0,-0.5822433,0.30752525,-0.18359953,-0.32684803,0.330019,-15.976596,-0.20215511,-0.5920291,-0.83649755,-0.580889
-8.068244,46.8499,7.484962,10.712974,0.21171856,-0.2723136,-0.10321386,-0.82306993,0.33597383,-0.12886034,0.74748236,-0.28147718,0.58978,-0.37713507,0.98448515,-1.0484179,-2.032468,-0.83999795,2.027822,1.863429,-1.0144117,1.0520216,-1.0756714,-2.020402,-0.9015692,2.0519826,1.808956,-0.9793953,-1.4770285,0.6308411,-0.12034335,1.3181871,-0.39806667,0.44850975,-0.2702102,-0.08252716,-0.70443726,0.74158293,-1.4760767,0.31303397,0.7880142,-0.052268982,-0.6466255,0.68934894,0.89558214,-0.10020905,0.10425579,0.42073908,-1.2000214,0.3364377,0.6028263,0.0,1.0,0.0,0.0,0.0,0.0,0.0,-0.5674728,0.30443725,-0.19158292,0.027871132,-1.3870001,-15.391848,0.18923283,0.26167035,-0.7523358,-0.21970272
-7.310309,39.51161,5.993864,9.38607,0.38451108,-0.34308797,-0.07771891,-0.82163924,0.2901781,-0.16018721,0.7495445,-0.25854552,0.58736145,-0.36392885,0.9698577,-1.0466536,-2.0364206,-0.82661474,2.026128,1.8676922,-1.0157882,1.0372758,-1.0696938,-2.0225534,-0.88834256,2.0480947,1.8133886,-0.9820828,-1.4741362,0.5867189,-0.2467573,1.3236415,-0.38605723,0.4416436,-0.26881728,-0.09725952,-0.70121765,0.74904865,-1.4718974,0.3253991,0.7335832,-0.064323425,-0.6433449,0.6949663,0.9002336,-0.10563398,0.11137283,0.4074517,-1.2012295,0.3358726,0.54733527,0.0,1.0,0.0,0.0,0.0,0.0,0.0,-0.55274045,0.30121765,-0.19904864,0.23937225,-4.445827,-12.519473,0.40974617,1.1338234,-0.61247945,-0.020563602
-4.838525,40.32981,7.133001,9.092517,0.514496,-0.34190482,-0.03991099,-0.81547165,0.26941139,-0.19039178,0.75350994,-0.22928706,0.5656698,-0.3434637,0.95572865,-1.0427526,-2.0415926,-0.81299156,2.025166,1.8699555,-1.0164292,1.0225854,-1.0642294,-2.0257,-0.87504905,2.0444088,1.8177418,-0.9847396,-1.4674554,0.53272694,-0.33655804,1.3307678,-0.36294216,0.43329516,-0.26514688,-0.11193848,-0.69786835,0.75598806,-1.4669476,0.33866054,0.6820705,-0.0763855,-0.6400604,0.7000636,0.9047411,-0.110442705,0.11852732,0.39395064,-1.2031757,0.33565608,0.49684978,0.0,1.0,0.0,0.0,0.0,0.0,0.0,-0.5380615,0.29786834,-0.20598805,0.6125927,-5.4425836,-8.787071,0.58276653,2.1795094,-0.80255866,0.20644069
-8.970232,31.869339,4.0084963,8.918364,0.6656811,-0.43060303,-0.06905396,-0.825809,0.21842001,-0.2856246,0.754132,-0.21139668,0.540056,-0.33684716,0.94000447,-1.0423874,-2.0542626,-0.7996359,2.0232692,1.8717474,-1.0184243,1.0079083,-1.0594496,-2.0298388,-0.8616897,2.040978,1.8220057,-0.98735476,-1.467774,0.45981628,-0.43954706,1.3372124,-0.336563,0.42424527,-0.26076546,-0.12660217,-0.6944294,0.7622815,-1.466084,0.34619328,0.6135891,-0.088531494,-0.6368408,0.70455515,0.90912676,-0.11458724,0.12562513,0.38023224,-1.2148987,0.32809043,0.43326536,0.0,1.0,0.0,0.0,0.0,0.0,0.0,-0.5233978,0.2944294,-0.21228147,-0.056052208,-7.317692,-10.189474,0.5430937,2.5831878,-0.86535215,0.30121803
-5.7344737,36.884354,6.339452,9.109267,0.6334041,-0.3507313,-0.011186469,-0.81614333,0.18987046,-0.27403408,0.76362956,-0.24066526,0.5551392,-0.31350747,0.926294,-1.0404625,-2.0572422,-0.7853267,2.0169115,1.8775196,-1.0187055,0.993259,-1.0553983,-2.0346906,-0.8482414,2.0376842,1.8261938,-0.9899118,-1.4641908,0.3868282,-0.49968547,1.3470583,-0.32713234,0.41688108,-0.25444767,-0.14123535,-0.69088364,0.7679747,-1.4617277,0.3582097,0.5569751,-0.10076141,-0.633646,0.70849097,0.91336167,-0.11816329,0.13263212,0.36635578,-1.2217745,0.32652512,0.3806595,0.0,1.0,0.0,0.0,0.0,0.0,0.0,-0.5087646,0.29088363,-0.21797466,0.31592846,-7.347131,-5.7874084,0.8937359,0.78551173,-0.7347524,0.4897654
-11.191228,26.3691,2.0075998,8.712602,0.6117623,-0.50203186,-0.047788844,-0.82645434,0.12751096,-0.40212747,0.7646329,-0.24335423,0.5091724,-0.31325337,0.9106136,-1.0426472,-2.0749032,-0.7717781,2.0133488,1.8771111,-1.0212371,0.97859627,-1.0521883,-2.0404851,-0.8347005,2.0344114,1.8302934,-0.9924097,-1.4670213,0.2989993,-0.60598695,1.3562033,-0.32696593,0.40761945,-0.24860859,-0.15585327,-0.68727684,0.7729349,-1.4620113,0.36226246,0.47841302,-0.11313629,-0.63054085,0.7117585,0.91747254,-0.12103037,0.13962351,0.35227966,-1.236949,0.31521538,0.3091299,0.0,1.0,0.0,0.0,0.0,0.0,0.0,-0.4941467,0.28727683,-0.2229349,-0.27780533,-8.809775,-10.559368,0.8682966,-0.0055730343,-0.89096427,0.4680872
-9.793829,28.56493,3.0373447,8.745738,0.61824274,-0.4656201,-0.006545864,-0.8228242,0.08555106,-0.4067758,0.7682678,-0.24468201,0.5066154,-0.27825508,0.89631385,-1.0436332,-2.0811627,-0.7578738,2.0099432,1.880955,-1.0202352,0.9639137,-1.0498632,-2.0471761,-0.82107466,2.0311098,1.8343034,-0.994829,-1.4686296,0.21031564,-0.6897539,1.3645643,-0.33120444,0.39867774,-0.24003991,-0.17047119,-0.68362045,0.77714163,-1.4608848,0.367938,0.40443447,-0.12563324,-0.6275234,0.7143466,0.92145115,-0.12317955,0.14659335,0.33803096,-1.2508008,0.30687526,0.24267268,0.0,1.0,0.0,0.0,0.0,0.0,0.0,-0.47952878,0.28362045,-0.22714162,-0.16236305,-8.909035,-8.242965,0.8076668,-0.5069077,-0.8889437,0.74279904
-5.0615077,38.337284,6.4508204,9.177847,0.49116427,-0.37850642,0.06370212,-0.81110173,0.06567953,-0.41328713,0.7739623,-0.2760609,0.5202163,-0.24735284,0.8828035,-1.0432953,-2.0885048,-0.74367845,2.0035038,1.886325,-1.0195643,0.94927096,-1.0482973,-2.0544841,-0.80736744,2.0276775,1.8382347,-0.9971467,-1.4629033,0.13836607,-0.7435943,1.3725702,-0.34761283,0.39095584,-0.22939911,-0.18502808,-0.67985535,0.7807446,-1.4529576,0.38069665,0.34925202,-0.1381836,-0.6245289,0.71639156,0.9252439,-0.12474392,0.15356071,0.32370016,-1.2539673,0.3070177,0.19242217,0.0,1.0,0.0,0.0,0.0,0.0,0.0,-0.4649719,0.27985534,-0.2307446,0.52793026,-7.267782,-5.084479,0.75314045,-1.8700778,-0.8119881,0.9236306
-7.15856,31.95637,4.291632,8.419832,0.42788392,-0.4356165,0.09014794,-0.81970006,-0.0075245826,-0.47156256,0.7735826,-0.32169634,0.4965672,-0.20228226,0.867301,-1.0490497,-2.1016405,-0.7300092,1.995508,1.8878914,-1.017375,0.9346521,-1.047561,-2.062368,-0.7935995,2.023944,1.8420868,-0.99933267,-1.4615633,0.05174077,-0.80275625,1.3780643,-0.38218984,0.383011,-0.21535698,-0.19952393,-0.6759987,0.78370297,-1.4471529,0.38874552,0.28178707,-0.15080261,-0.62156487,0.7178519,0.9288387,-0.12568085,0.16056612,0.30932432,-1.2604424,0.30247253,0.13121794,0.0,1.0,0.0,0.0,0.0,0.0,0.0,-0.45047605,0.27599868,-0.23370296,0.11725426,-8.722866,-5.6847453,0.5411148,-3.633082,-0.8143008,1.2808532
-4.365416,40.63361,6.796335,9.185381,0.3610897,-0.38648295,0.15381306,-0.81095004,-0.017306438,-0.49140677,0.7734033,-0.3305416,0.48473132,-0.11419412,0.8535571,-1.0492917,-2.1115086,-0.7162592,1.9908898,1.8905599,-1.0107521,0.9200753,-1.0475401,-2.0707743,-0.7798029,2.0198739,1.8458513,-1.001324,-1.4565632,-0.014690791,-0.8519108,1.3799642,-0.41594955,0.37380955,-0.19413574,-0.21391296,-0.67202187,0.7860978,-1.4356432,0.40220365,0.22932462,-0.16343689,-0.61860275,0.7187984,0.93220544,-0.12601268,0.1676513,0.29496926,-1.2594364,0.30422512,0.08336574,0.0,1.0,0.0,0.0,0.0,0.0,0.0,-0.436087,0.27202186,-0.23609781,0.44460297,-6.73246,-4.5488715,0.15826225,-3.6768913,-0.9793103,1.9710541
-8.022179,26.65555,2.6699333,7.472652,0.45428464,-0.52111036,0.140053,-0.81648576,-0.11674337,-0.5433081,0.7760264,-0.32803226,0.44567475,-0.07908515,0.8384267,-1.0592144,-2.1251051,-0.7022003,1.9870707,1.8904188,-1.0092325,0.9055203,-1.0484308,-2.0797641,-0.765982,2.0155203,1.8495165,-1.0030893,-1.4551634,-0.11393277,-0.9143133,1.382852,-0.44193366,0.36370155,-0.17104435,-0.22825623,-0.66799164,0.7877637,-1.4326249,0.40472612,0.14967789,-0.1761322,-0.6157017,0.7191046,0.93537134,-0.12564698,0.17472623,0.28064924,-1.2709445,0.29500896,0.013810075,0.0,1.0,0.0,0.0,0.0,0.0,0.0,-0.42174375,0.26799163,-0.2377637,0.14982224,-9.978401,-6.0659885,0.33097267,-2.7510881,-1.0307252,2.2095532
-5.6650324,46.554775,7.822578,10.812032,0.51692665,-0.35325718,0.17139785,-0.8158977,-0.07896201,-0.54842055,0.7713233,-0.33657917,0.41894844,-0.019148584,0.82393056,-1.056327,-2.1346061,-0.6888496,1.9818624,1.8914113,-1.0050042,0.8909663,-1.049951,-2.089258,-0.7521718,2.0109658,1.8530488,-1.0046002,-1.455762,-0.16512462,-0.9598834,1.3802291,-0.4605302,0.34913418,-0.14478426,-0.24248505,-0.6638336,0.7888907,-1.4184815,0.42105702,0.10479978,-0.18888092,-0.6127758,0.71895,0.93831253,-0.124668345,0.18183172,0.26639193,-1.2718828,0.30181253,-0.024497371,0.0,1.0,0.0,0.0,0.0,0.0,0.0,-0.40751493,0.2638336,-0.23889071,-0.1333952,-5.239564,-4.085076,-0.28100014,-2.2755146,-1.5766621,2.468288
-8.524188,33.189396,4.3263955,8.939622,0.7021799,-0.46724886,0.14748928,-0.82228136,-0.18661058,-0.57322013,0.76921636,-0.30336633,0.35231778,0.002572145,0.8087382,-1.068612,-2.14658,-0.6752502,1.9806292,1.8882806,-1.0043429,0.8763741,-1.0522474,-2.0991747,-0.73839504,2.0063686,1.8564095,-1.0058539,-1.4604435,-0.25137457,-1.0013714,1.3769165,-0.45976838,0.33105654,-0.119161166,-0.2566452,-0.6595917,0.7893732,-1.4139184,0.4269713,0.033555124,-0.20172882,-0.6098461,0.7182673,0.9410635,-0.12305737,0.18880135,0.25221074,-1.2865505,0.2993845,-0.08206311,0.0,1.0,0.0,0.0,0.0,0.0,0.0,-0.39335477,0.25959167,-0.2393732,-0.4787445,-8.709255,-3.8578868,-0.2722025,-0.17986894,-1.9150078,2.4681642
-8.371085,28.87135,3.2550297,7.819338,0.6275285,-0.49465477,0.17824182,-0.8203158,-0.24143733,-0.5950172,0.76801056,-0.3407271,0.32905838,0.054783717,0.7943425,-1.0763911,-2.1586764,-0.661594,1.9722959,1.8893154,-1.0003755,0.86174476,-1.0554975,-2.1094754,-0.72465056,2.0017042,1.8595903,-1.00684,-1.4637198,-0.3497862,-1.0390227,1.3738227,-0.4687257,0.3130001,-0.0918414,-0.27077484,-0.6553173,0.78907585,-1.4105713,0.43001202,-0.04656605,-0.21474457,-0.6069622,0.7169551,0.9436446,-0.120766506,0.19555756,0.23813336,-1.3022339,0.29471087,-0.14688858,0.0,1.0,0.0,0.0,0.0,0.0,0.0,-0.37922513,0.2553173,-0.23907584,-0.31819344,-9.916676,-3.522849,-0.21178722,-1.0798395,-1.9414425,2.665934
-7.2445593,23.149286,2.034794,6.038202,0.51766115,-0.5523449,0.23378861,-0.81492484,-0.3102781,-0.6131781,0.7668499,-0.35650468,0.28363276,0.15824875,0.7802523,-1.0865253,-2.1707933,-0.64796555,1.9660537,1.8879535,-0.99101514,0.84712017,-1.0598501,-2.120126,-0.7109291,1.996911,1.8625753,-1.0074999,-1.4620287,-0.46393728,-1.0734494,1.3719853,-0.4834173,0.2933794,-0.057684753,-0.28486633,-0.65102005,0.78787833,-1.4089037,0.42964858,-0.14191817,-0.22790527,-0.6041622,0.71492517,0.9460618,-0.11774541,0.20205168,0.22422771,-1.318608,0.28572047,-0.22109976,0.0,1.0,0.0,0.0,0.0,0.0,0.0,-0.36513364,0.25102004,-0.23787832,0.20186901,-11.476207,-3.261876,-0.042796135,-1.6466916,-2.064681,3.373795
-6.8963294,25.118797,2.4175746,6.14532,0.47661293,-0.5861447,0.27281716,-0.8173281,-0.35548344,-0.630713,0.7623262,-0.37253323,0.13481843,0.24767502,0.76538736,-1.0953984,-2.1831973,-0.6346965,1.9596577,1.8760571,-0.9827324,0.8325099,-1.0653051,-2.1311047,-0.69723874,1.9919369,1.8652723,-1.0077803,-1.4606172,-0.57305306,-1.1052988,1.3683342,-0.5025002,0.26123103,-0.018446542,-0.29894257,-0.6467285,0.7857772,-1.4065001,0.42929497,-0.22822161,-0.24123383,-0.6014404,0.7121756,0.94832,-0.11393951,0.20827863,0.21053986,-1.3332762,0.27749243,-0.29255277,0.0,1.0,0.0,0.0,0.0,0.0,0.0,-0.3510574,0.24672851,-0.2357772,0.16827583,-10.983658,-2.9667854,-0.21119118,-2.134335,-3.3394694,3.8865633
-5.230768,37.29634,5.085212,8.155754,0.42451715,-0.5033743,0.3004694,-0.813685,-0.36841547,-0.65071875,0.763115,-0.41264918,0.07566748,0.31270307,0.75114137,-1.1021466,-2.1961765,-0.6209272,1.950672,1.872839,-0.97651,0.8179265,-1.0716242,-2.142398,-0.68358296,1.9866807,1.8676221,-1.0076592,-1.457718,-0.65199244,-1.1361043,1.3648647,-0.5341086,0.22553001,0.02189432,-0.3129654,-0.6424427,0.78297883,-1.4001564,0.42920616,-0.29223847,-0.2546234,-0.59874725,0.7088421,0.95039254,-0.10936718,0.21435164,0.19709419,-1.3379878,0.2773788,-0.34674808,0.0,1.0,0.0,0.0,0.0,0.0,0.0,-0.33703458,0.2424427,-0.23297882,0.25994778,-8.002901,-2.672124,-0.2524376,-3.5452008,-3.751597,3.9487817
-4.526905,41.262764,6.008498,8.582603,0.4755734,-0.47266495,0.31320354,-0.81745446,-0.41662335,-0.6471359,0.7497767,-0.4216464,-0.0215063,0.34399477,0.7361811,-1.1132865,-2.2071116,-0.60860527,1.9445161,1.8654715,-0.97325975,0.8033492,-1.0786699,-2.1538942,-0.6700176,1.9811236,1.8695649,-1.0071504,-1.4578799,-0.7225771,-1.1525341,1.353919,-0.5639958,0.1825603,0.060467295,-0.3268814,-0.6381264,0.77956516,-1.3871938,0.4358173,-0.35426003,-0.26805115,-0.5960312,0.70501167,0.9522753,-0.10406112,0.22026834,0.1839154,-1.340513,0.28017113,-0.39499402,0.0,1.0,0.0,0.0,0.0,0.0,0.0,-0.32311857,0.23812637,-0.22956514,-0.06787777,-7.1765184,-1.1445761,-1.018548,-3.4879804,-4.474324,3.7542157
-6.1542616,36.98568,4.447132,7.5032425,0.3921877,-0.6320483,0.362233,-0.8272605,-0.46695083,-0.70054746,0.71663743,-0.4127672,-0.31166846,0.44134825,0.72062314,-1.125365,-2.223949,-0.59835386,1.9398469,1.8383981,-0.96301556,0.7887189,-1.0864309,-2.1657212,-0.656704,1.9753457,1.8709012,-1.0062253,-1.464838,-0.7942992,-1.1917757,1.324097,-0.5833854,0.11633123,0.10296697,-0.34070587,-0.6337738,0.7754312,-1.3786066,0.43727988,-0.4284123,-0.28151703,-0.5933285,0.7006371,0.95400023,-0.097849205,0.225957,0.17103326,-1.3465276,0.2770867,-0.45172393,0.0,1.0,0.0,0.0,0.0,0.0,0.0,-0.3092941,0.2337738,-0.2254312,-0.7205725,-7.281673,-3.5163403,-2.8729677,-2.3729444,-6.890567,4.213454
-6.871197,34.651505,3.645742,6.820152,0.32940632,-0.64955163,0.38206574,-0.83265346,-0.5115126,-0.72210675,0.6969304,-0.4395826,-0.4133922,0.47075284,0.7054535,-1.1375822,-2.237932,-0.587011,1.9313874,1.829562,-0.9591501,0.7739932,-1.094927,-2.177992,-0.6437545,1.9693525,1.871544,-1.004895,-1.4752233,-0.8684027,-1.2375797,1.2855177,-0.605596,0.046163794,0.14281505,-0.35445404,-0.6294136,0.77052164,-1.3728218,0.43528098,-0.5076188,-0.29507446,-0.59067535,0.6956532,0.95558554,-0.09061353,0.2313779,0.15846018,-1.3538823,0.2729292,-0.51413614,0.0,1.0,0.0,0.0,0.0,0.0,0.0,-0.29554594,0.2294136,-0.22052163,-1.0502338,-7.514477,-4.213977,-3.729105,-2.641511,-7.209187,3.9016156
