Afshin1997/kuka_rl_ros2/src/catch_and_throw/input_files/idealpd/polynomial_regressor/optimizer_files/env_246_data.csv
torque0,torque1,torque2,torque3,torque4,torque5,torque6,action0,action1,action2,action3,action4,action5,action6,set_target_0,set_target_1,set_target_2,set_target_3,set_target_4,set_target_5,set_target_6,joint_pos_0,joint_pos_1,joint_pos_2,joint_pos_3,joint_pos_4,joint_pos_5,joint_pos_6,joint_vel_0,joint_vel_1,joint_vel_2,joint_vel_3,joint_vel_4,joint_vel_5,joint_vel_6,tennisball_pos_0,tennisball_pos_1,tennisball_pos_2,tennisball_lin_vel_0,tennisball_lin_vel_1,tennisball_lin_vel_2,end_effector_pos_0,end_effector_pos_1,end_effector_pos_2,end_effector_rot_0,end_effector_rot_1,end_effector_rot_2,end_effector_rot_3,end_effector_lin_vel_0,end_effector_lin_vel_1,end_effector_lin_vel_2,obs_task_0,obs_task_1,obs_task_2,obs_task_3,obs_task_4,obs_task_5,obs_task_6,to_final_target_0,to_final_target_1,to_final_target_2,joint_acc_0,joint_acc_1,joint_acc_2,joint_acc_3,joint_acc_4,joint_acc_5,joint_acc_6
0.0,0.0,0.0,0.0,0.0,0.0,0.0,0.0,0.0,0.0,0.0,0.0,0.0,0.0,1.7802359,-1.0646509,-1.8151424,-1.1170107,1.9373155,1.1170107,-0.91629785,1.7802359,-1.0646509,-1.8151424,-1.1170107,1.9373155,1.1170107,-0.91629785,0.0,0.0,0.0,0.0,0.0,0.0,0.0,2.877266,-0.5039902,0.431764,-3.2807257,0.14382112,4.7435856,0.5304168,-0.45449448,0.693097,0.5745483,0.17512383,0.15255436,0.7848268,0.0,0.0,0.0,1.0,0.0,0.0,0.0,0.0,0.0,0.0,-3.527266,0.10399017,0.118236005,0.0,0.0,0.0,0.0,0.0,0.0,0.0
0.0,0.0,0.0,0.0,0.0,0.0,0.0,0.0,0.0,0.0,0.0,0.0,0.0,0.0,1.7802359,-1.0646509,-1.8151424,-1.1170107,1.9373155,1.1170107,-0.91629785,1.7802359,-1.0646509,-1.8151424,-1.1170107,1.9373155,1.1170107,-0.91629785,0.0,0.0,0.0,0.0,0.0,0.0,0.0,2.877266,-0.5039902,0.431764,-3.2807257,0.14382112,4.7435856,0.5304168,-0.45449448,0.693097,0.5745483,0.17512383,0.15255436,0.7848268,0.0,0.0,0.0,1.0,0.0,0.0,0.0,0.0,0.0,0.0,-3.527266,0.10399017,0.118236005,0.0,0.0,0.0,0.0,0.0,0.0,0.0
0.0,0.0,0.0,0.0,0.0,0.0,0.0,0.0,0.0,0.0,0.0,0.0,0.0,0.0,1.7802359,-1.0646509,-1.8151424,-1.1170107,1.9373155,1.1170107,-0.91629785,1.7802359,-1.0646509,-1.8151424,-1.1170107,1.9373155,1.1170107,-0.91629785,0.0,0.0,0.0,0.0,0.0,0.0,0.0,2.877266,-0.5039902,0.431764,-3.2807257,0.14382112,4.7435856,0.5304168,-0.45449448,0.693097,0.5745483,0.17512383,0.15255436,0.7848268,0.0,0.0,0.0,1.0,0.0,0.0,0.0,0.0,0.0,0.0,-3.527266,0.10399017,0.118236005,0.0,0.0,0.0,0.0,0.0,0.0,0.0
-176.0,88.574005,1.8913879,110.0,11.192561,5.5375266,-3.7972147,-0.82737994,0.4525492,-0.5374023,0.7265054,0.46881184,0.62551993,-0.5839439,1.6974978,-1.019396,-1.8688827,-1.0443602,1.9841967,1.1795627,-0.9746922,1.7785097,-1.0619959,-1.8205211,-1.112578,1.9438424,1.1221472,-0.91883844,-0.23008324,0.35337812,-0.716537,0.59112966,0.8695456,0.6826424,-0.3382558,2.8444834,-0.50255585,0.47842783,-3.2774456,0.14367732,4.6406565,0.52805483,-0.4577675,0.6942299,0.578616,0.1736475,0.15053898,0.78255224,-0.31461,-0.43628064,0.15079567,1.0,0.0,0.0,0.0,0.0,0.0,0.0,-3.4944835,0.10255584,0.071572185,-22.971317,35.141872,-71.43253,59.164047,86.67808,67.60443,-33.666252
-176.0,34.482773,-19.707642,110.0,11.140563,3.4306672,-3.2756646,-0.8160635,0.16499089,-0.5542457,0.68913,0.5518294,0.61882824,-0.59992296,1.6969033,-1.0454968,-1.8759457,-1.043665,1.9990253,1.18403,-0.97883075,1.7753931,-1.057197,-1.8338878,-1.1003538,1.9562669,1.1340395,-0.9216661,-0.33707717,0.5203779,-1.5438821,1.4347632,1.3662075,1.3512435,-0.26183176,2.8117335,-0.5011215,0.52406317,-3.2741687,0.14353368,4.5378304,0.52278036,-0.46574783,0.6962587,0.58741933,0.17025706,0.14644875,0.7774984,-0.59988755,-0.9172171,0.22076389,1.0,0.0,0.0,0.0,0.0,0.0,0.0,-3.4617333,0.101121515,0.025936842,-10.23159,16.153002,-82.84573,84.94072,49.434566,64.76646,8.346659
-150.98633,116.64658,27.830425,87.35791,7.135243,6.883448,-2.0281565,-0.78095806,0.4364613,-0.14164981,0.5777687,0.54185253,0.6617296,-0.5719626,1.6972973,-1.0135509,-1.8480527,-1.042577,2.010452,1.2002125,-0.97886235,1.768809,-1.0506891,-1.8484924,-1.0844504,1.9701276,1.1473948,-0.9244651,-0.7658638,0.6912847,-1.4271116,1.6428206,1.3888785,1.3227748,-0.2876638,2.7790163,-0.4996872,0.568671,-3.2708952,0.14339018,4.435107,0.5146101,-0.4763794,0.7000077,0.59920216,0.16545987,0.14159442,0.7704095,-0.8968943,-1.1054153,0.4303215,1.0,0.0,0.0,0.0,0.0,0.0,0.0,-3.429016,0.09968719,-0.018670976,-42.985928,16.199791,13.365531,21.020817,1.1523724,-5.092311,-3.107977
-91.17339,125.502625,41.711906,55.355247,3.7972693,7.0323443,-0.7545982,-0.78775793,0.42562094,-0.08835709,0.5936808,0.53678626,0.63454205,-0.5816306,1.6900332,-1.008127,-1.857328,-1.0250822,2.023806,1.2108489,-0.98262817,1.7582537,-1.043075,-1.8595645,-1.0684496,1.9829583,1.1597773,-0.92751116,-1.1534015,0.7823138,-0.99370193,1.5859027,1.2440815,1.2054832,-0.31302348,2.746332,-0.49825287,0.6122523,-3.267625,0.14324681,4.332487,0.50402945,-0.48758316,0.7057244,0.61217695,0.15938677,0.1365015,0.76236635,-1.1235352,-1.114298,0.6242788,1.0,0.0,0.0,0.0,0.0,0.0,0.0,-3.3963318,0.09825286,-0.062252283,-39.17786,8.405113,45.40458,-5.6969643,-15.627098,-13.124657,-3.347373
-32.384228,131.22607,49.668133,27.945438,0.99472123,6.222987,0.1283248,-0.8020854,0.5018883,-0.04256488,0.56700224,0.5795921,0.6221004,-0.56938565,1.6780452,-0.9928861,-1.863821,-1.0117494,2.0409176,1.2219874,-0.98444974,1.74466,-1.034633,-1.8657749,-1.0541197,1.9941831,1.1708647,-0.9308061,-1.4296829,0.8634195,-0.4903861,1.3813357,1.0792272,1.0744212,-0.33776212,2.71368,-0.49681854,0.65480816,-3.264358,0.1431036,4.229969,0.49185923,-0.49796295,0.7131487,0.6250597,0.15214574,0.13136524,0.75425136,-1.2604804,-0.9978445,0.7862218,1.0,0.0,0.0,0.0,0.0,0.0,0.0,-3.36368,0.09681854,-0.10480815,-28.168154,7.634127,52.194244,-20.681454,-17.331718,-13.705373,-3.3167899
8.051042,125.21886,49.05581,11.093492,-0.60386294,4.790657,0.49625787,-0.8141341,0.55995,0.012833695,0.5613197,0.6122027,0.61930394,-0.57605934,1.6632466,-0.97863805,-1.8644915,-0.99798775,2.0554032,1.2327951,-0.988412,1.7292944,-1.0253881,-1.8676441,-1.0418898,2.004092,1.1807638,-0.9343204,-1.5737141,0.9438119,-0.081121884,1.1692587,0.9600309,0.9614902,-0.35839924,2.681061,-0.49539185,0.69633967,-3.2610943,0.14296052,4.127554,0.47889483,-0.50683594,0.7218953,0.63722074,0.14398988,0.12632921,0.74649686,-1.3191718,-0.83505154,0.90601206,1.0,0.0,0.0,0.0,0.0,0.0,0.0,-3.331061,0.09539184,-0.14633965,-14.864612,7.733381,42.288696,-21.488142,-12.390518,-11.412537,-2.7743757
28.377193,118.57318,45.819157,4.442257,-1.2445788,3.596731,0.5000994,-0.82281405,0.61819136,0.076505154,0.56707877,0.61480176,0.623137,-0.56928986,1.6470131,-0.963569,-1.8599936,-0.9851819,2.0655723,1.2430775,-0.9912494,1.7132517,-1.0152792,-1.8664196,-1.0313135,2.0131671,1.1896826,-0.93800443,-1.615588,1.0325946,0.19352494,1.0196823,0.88931674,0.8689523,-0.37363908,2.6484745,-0.49396515,0.7368478,-3.257834,0.14281759,4.025241,0.46568784,-0.51407623,0.731644,0.64854044,0.13515157,0.121519096,0.7391633,-1.329643,-0.6709269,0.9978352,1.0,0.0,0.0,0.0,0.0,0.0,0.0,-3.2984743,0.09396514,-0.1868478,-4.5256376,8.667684,28.405418,-15.196419,-7.29661,-9.185017,-2.1045089
35.864113,109.434845,40.909252,2.1381712,-1.3733511,2.6464424,0.41448882,-0.82465595,0.6629254,0.13394699,0.5440824,0.63160527,0.6258547,-0.5595672,1.6307861,-0.94898665,-1.8530248,-0.9769053,2.0763276,1.2522681,-0.99396116,1.697251,-1.0042795,-1.8633316,-1.0217863,2.0218685,1.197806,-0.9418048,-1.5956043,1.1218597,0.34925205,0.9297135,0.86353374,0.7939788,-0.38384712,2.6159205,-0.49253845,0.77633363,-3.254577,0.1426748,3.9230306,0.45255473,-0.5198021,0.74213535,0.65910006,0.12583719,0.11700607,0.73216236,-1.3141885,-0.5241862,1.0646837,1.0,0.0,0.0,0.0,0.0,0.0,0.0,-3.2659206,0.092538446,-0.22633362,1.7590284,8.778262,16.227346,-9.187984,-2.668357,-7.362354,-1.4952898
34.40079,96.58555,34.247612,1.9533315,-1.2376003,1.8362088,0.28817183,-0.8191825,0.69282615,0.1504927,0.5198346,0.6432079,0.6354455,-0.5502459,1.6153327,-0.9349969,-1.8482823,-0.96980286,2.0861893,1.2613505,-0.9968294,1.6816584,-0.9924714,-1.859431,-1.012837,2.0305278,1.2052923,-0.94567865,-1.5478109,1.2000675,0.40496784,0.8826829,0.8665378,0.73389,-0.3898998,2.5833993,-0.49111176,0.81479806,-3.251323,0.14253215,3.8209226,0.43964815,-0.5242615,0.7530913,0.6690447,0.11626491,0.11283193,0.72534865,-1.2875692,-0.404862,1.1034793,1.0,0.0,0.0,0.0,0.0,0.0,0.0,-3.2333994,0.09111175,-0.26479805,4.6088934,7.721901,6.020057,-4.8728943,0.28903484,-5.8533072,-0.9887397
31.079443,84.82906,28.60846,1.6768575,-1.0890095,1.2597723,0.22941738,-0.8079426,0.7164002,0.16313577,0.4822743,0.6589997,0.63513565,-0.5429199,1.6008642,-0.9208314,-1.8431175,-0.9646096,2.096428,1.2688059,-0.9999706,1.6665865,-0.98000306,-1.8554103,-1.0042597,2.0393436,1.2122618,-0.9495935,-1.4941318,1.2621897,0.40220967,0.8487894,0.8867709,0.68510413,-0.3930656,2.5509105,-0.48968506,0.8522422,-3.2480724,0.14238966,3.718917,0.42703393,-0.5276985,0.76425654,0.6784776,0.10662995,0.109003864,0.7186211,-1.2560836,-0.3072831,1.1180761,1.0,0.0,0.0,0.0,0.0,0.0,0.0,-3.2009106,0.08968505,-0.30224216,5.2304506,6.148958,0.057440996,-3.5696745,2.0551324,-4.702866,-0.64270496
22.768936,73.24616,23.082254,3.2838545,-0.7529357,0.89773786,0.14592516,-0.810409,0.7282651,0.15871531,0.46156704,0.6619492,0.64254326,-0.5351614,1.5855457,-0.90717655,-1.8395388,-0.958103,2.1055386,1.2765161,-1.0031096,1.6519343,-0.9670693,-1.8516567,-0.99596655,2.0483806,1.2188135,-0.9535236,-1.4561139,1.3037033,0.36744565,0.82204425,0.90969646,0.64589643,-0.39392775,2.518454,-0.48826218,0.888667,-3.244825,0.14224729,3.617013,0.41468337,-0.5303421,0.7754238,0.687504,0.097078495,0.10549819,0.7118877,-1.2305149,-0.23436691,1.1132406,1.0,0.0,0.0,0.0,0.0,0.0,0.0,-3.1684542,0.08826217,-0.33866698,3.6810398,4.1153193,-3.2239318,-2.8685808,2.3572445,-3.753233,-0.3583014
19.09396,67.06987,20.562208,3.6522799,-0.58688396,0.7535892,0.15842235,-0.80193585,0.7397781,0.17134571,0.4288525,0.67239434,0.6505476,-0.52625954,1.5717406,-0.8930915,-1.8345221,-0.9530813,2.1156201,1.2838683,-1.0061495,1.6375643,-0.953839,-1.8482234,-0.9879986,2.0576465,1.2250353,-0.9574508,-1.4310163,1.3294429,0.33623636,0.7877247,0.9325569,0.61476284,-0.39317936,2.48603,-0.4868431,0.9240735,-3.2415807,0.14210507,3.5152109,0.40255997,-0.53232956,0.7864727,0.69615805,0.087673575,0.102254584,0.7051392,-1.2079104,-0.17160757,1.0990573,1.0,0.0,0.0,0.0,0.0,0.0,0.0,-3.1360302,0.0868431,-0.3740735,2.390027,2.5520086,-2.8823674,-3.6406279,2.3635507,-2.9424787,-0.17975569
16.85088,63.014984,18.890467,3.4717808,-0.55473286,0.65288794,0.18215045,-0.7998886,0.75057566,0.16750777,0.38680288,0.67076063,0.65696484,-0.51510733,1.5575755,-0.87878144,-1.8314726,-0.9493183,2.1247225,1.2907318,-1.0089616,1.623345,-0.94042176,-1.8450477,-0.98049605,2.067088,1.2309939,-0.9613599,-1.419396,1.3457413,0.3119992,0.7369444,0.9486239,0.5903033,-0.39100087,2.4536386,-0.48542404,0.95846283,-3.23834,0.141963,3.4135106,0.3906537,-0.53372574,0.7973245,0.70443237,0.078448445,0.09924874,0.6984057,-1.1857114,-0.11317882,1.0773183,1.0,0.0,0.0,0.0,0.0,0.0,0.0,-3.1036386,0.085424036,-0.40846282,1.0352612,1.6180038,-2.183193,-5.299473,1.689291,-2.2571325,-0.023764372
18.106167,62.225716,18.88762,2.3246474,-0.6404353,0.6144661,0.26157424,-0.7958662,0.7599746,0.18191929,0.33249232,0.68198156,0.6531248,-0.5104383,1.5437584,-0.8644243,-1.8268558,-0.9472468,2.135286,1.2963064,-1.0124037,1.6091849,-0.9268748,-1.8419635,-0.97367156,2.076678,1.2367407,-0.96524423,-1.4152267,1.357595,0.3082096,0.6635491,0.9627666,0.57037586,-0.3884315,2.4212794,-0.48400497,0.9918359,-3.2351022,0.14182107,3.311912,0.3789929,-0.5345001,0.8079392,0.7122727,0.06941446,0.096450895,0.6917705,-1.1596199,-0.051503398,1.0528992,1.0,0.0,0.0,0.0,0.0,0.0,0.0,-3.0712795,0.08400497,-0.44183588,0.2817154,1.1798859,-0.11634827,-7.56644,1.4959812,-1.7748594,0.0148534775
21.06045,60.98253,18.708708,0.042260647,-0.8646075,0.48483455,0.3571562,-0.7936299,0.76560855,0.18937059,0.25776806,0.6829687,0.6528275,-0.50103974,1.5298219,-0.85031396,-1.8230264,-0.94789475,2.144975,1.3020234,-1.0153482,1.595038,-0.91323155,-1.8388145,-0.9678093,2.0863788,1.2423197,-0.96909803,-1.4149828,1.3665389,0.31817636,0.5596711,0.9724312,0.5547057,-0.3851709,2.3889527,-0.4825859,1.0241938,-3.2318678,0.14167927,3.2104151,0.36765733,-0.5346184,0.8182618,0.7195946,0.060601037,0.09386223,0.6853473,-1.1242036,0.0152943,1.0219945,1.0,0.0,0.0,0.0,0.0,0.0,0.0,-3.0389528,0.0825859,-0.47419375,-0.11577606,0.9001732,1.2676954,-10.6218815,1.0519981,-1.2895346,0.08857846
25.69793,59.75231,18.37072,-3.3774133,-1.2374188,0.24847808,0.4604771,-0.7903633,0.7765645,0.18406333,0.15656509,0.6874682,0.65499955,-0.49227968,1.5160017,-0.8355751,-1.8204081,-0.9521528,2.1551256,1.3078196,-1.018326,1.5808932,-0.8994815,-1.8355663,-0.9632822,2.096156,1.2477709,-0.97291464,-1.4147651,1.3779504,0.32793108,0.416218,0.9798057,0.5430611,-0.38128194,2.3566585,-0.48116684,1.0555375,-3.2286365,0.14153762,3.1090195,0.35678458,-0.53401184,0.82820016,0.7263039,0.052087504,0.09154789,0.6792558,-1.0734643,0.088576,0.98095477,1.0,0.0,0.0,0.0,0.0,0.0,0.0,-3.0066586,0.08116683,-0.50553745,-0.11832714,1.1630297,1.2364328,-14.585394,0.8304477,-0.8032918,0.16676188
27.923359,57.55161,17.748709,-5.2514634,-1.3909245,0.049098372,0.5300026,-0.7925255,0.7759399,0.20049201,0.066308886,0.6929187,0.646335,-0.48807567,1.5016406,-0.8218875,-1.8155171,-0.95665133,2.1654477,1.3124044,-1.0217222,1.5667368,-0.8856446,-1.8321617,-0.96036017,2.1060016,1.2531191,-0.97669214,-1.4162279,1.3857751,0.3453345,0.25013497,0.98641765,0.5334092,-0.37722805,2.3243961,-0.4797554,1.0858679,-3.2254086,0.14139612,3.0077255,0.34648216,-0.5326729,0.8376791,0.73234,0.043945592,0.08953012,0.6735957,-1.0133295,0.16131556,0.93311757,1.0,0.0,0.0,0.0,0.0,0.0,0.0,-2.9743962,0.079755396,-0.53586787,-0.27270317,0.8219719,1.9662261,-16.838867,0.76948404,-0.5540848,0.20733476
27.277233,58.362526,18.078249,-3.9586868,-1.2848876,0.04580322,0.5076578,-0.7906984,0.78242564,0.22320421,0.015215291,0.6888921,0.650248,-0.48010072,1.487667,-0.8074021,-1.8098413,-0.95883864,2.1748908,1.318144,-1.0247022,1.5525767,-0.87172574,-1.8285072,-0.9589859,2.1158855,1.2583853,-0.9804258,-1.4163787,1.3940464,0.37284917,0.09917666,0.98962903,0.52578783,-0.37272555,2.2921662,-0.47834396,1.1151861,-3.222184,0.14125475,2.9065325,0.33676705,-0.530632,0.84672654,0.73772633,0.036146507,0.08778965,0.66839075,-0.9542918,0.22984628,0.8912906,1.0,0.0,0.0,0.0,0.0,0.0,0.0,-2.9421663,0.07834396,-0.5651861,-0.11804104,0.8799553,2.9160738,-15.294316,0.46397448,-0.36723614,0.27720332
30.45045,55.17221,17.208466,-6.7097926,-1.499255,-0.22340533,0.59586376,-0.78950214,0.7791582,0.23898767,-0.12024422,0.6984057,0.6442206,-0.47946888,1.4736265,-0.7938099,-1.8046085,-0.9710103,2.1857262,1.3228073,-1.0283726,1.5384241,-0.85776204,-1.8245456,-0.959334,2.125819,1.2635847,-0.98411745,-1.4151517,1.3974112,0.40431178,-0.08013072,0.99484235,0.51960003,-0.36850053,2.2599685,-0.47693253,1.1434932,-3.2189624,0.14111352,2.8054407,0.3277269,-0.5278969,0.85528094,0.7424236,0.028753212,0.08632199,0.6637234,-0.8830866,0.29793307,0.83923745,1.0,0.0,0.0,0.0,0.0,0.0,0.0,-2.9099684,0.07693252,-0.59349316,0.042438507,0.4066944,3.2666743,-18.116241,0.6759405,-0.16547441,0.27757287
37.758392,56.927425,18.761503,-10.745058,-1.9161801,-0.35887206,0.77908045,-0.78169817,0.7847325,0.30381203,-0.27395496,0.69490916,0.64936596,-0.4635475,1.4602543,-0.77928877,-1.7941644,-0.9867295,2.1953099,1.3285214,-1.0304722,1.5243231,-0.84375924,-1.8200347,-0.96178687,2.1357868,1.2687384,-0.98775953,-1.4085481,1.4015679,0.4669937,-0.30088252,0.99792165,0.515851,-0.36310458,2.227803,-0.4755211,1.1707901,-3.215744,0.14097244,2.70445,0.31952587,-0.52438354,0.8632861,0.74629426,0.021818465,0.08513082,0.65978897,-0.7941667,0.37785453,0.7831007,1.0,0.0,0.0,0.0,0.0,0.0,0.0,-2.8778028,0.07552108,-0.62079006,0.6164551,0.5038738,6.333619,-22.216373,0.4959464,0.15466213,0.42259097
39.343254,58.411053,19.908968,-10.359392,-1.8593894,-0.3584887,0.8245125,-0.76915574,0.78266555,0.36215097,-0.35059097,0.69807243,0.63903344,-0.43314698,1.4474075,-0.7654927,-1.7838197,-0.99684596,2.205594,1.3326417,-1.0310743,1.510348,-0.82973546,-1.8147094,-0.9663521,2.145789,1.2738539,-0.9913272,-1.3938783,1.403054,0.5542664,-0.50871867,1.0015451,0.5120434,-0.3550488,2.1956697,-0.47410965,1.1970779,-3.212529,0.1408315,2.6035602,0.31222084,-0.5200653,0.87078315,0.74928087,0.015299755,0.084149264,0.6567061,-0.70370364,0.4572011,0.73365104,1.0,0.0,0.0,0.0,0.0,0.0,0.0,-2.8456697,0.07410964,-0.64707786,1.4721632,0.25587082,8.680892,-20.872742,0.61745644,0.15132427,0.72033405
38.5999,61.318485,21.25729,-8.394789,-1.7071106,-0.250298,0.8123361,-0.7614756,0.7897688,0.4240611,-0.43152994,0.7001229,0.6440343,-0.4078081,1.4342004,-0.7507586,-1.7723033,-1.0095052,2.2158012,1.3382573,-1.0321081,1.4965426,-0.8156726,-1.8083713,-0.9728199,2.1558254,1.2789408,-0.9948005,-1.3758326,1.4077946,0.65988576,-0.69296235,1.0057769,0.5092134,-0.3449244,2.1635685,-0.47270584,1.2223575,-3.2093172,0.1406907,2.5027714,0.30577958,-0.5149498,0.8778704,0.75140285,0.009099544,0.083310224,0.65449995,-0.6180814,0.5359631,0.6950804,1.0,0.0,0.0,0.0,0.0,0.0,0.0,-2.8135686,0.072705835,-0.6723575,1.8472433,0.59964657,10.404253,-18.463219,0.75387955,0.231421,0.96157193
34.50153,61.562366,21.240885,-4.5688453,-1.347547,-0.17495319,0.70273334,-0.7452472,0.790779,0.4648375,-0.46993202,0.7023442,0.6374602,-0.3687495,1.4220178,-0.7365947,-1.7618876,-1.0198132,2.22606,1.3426868,-1.0316755,1.4829623,-0.801562,-1.8010051,-0.9807545,2.1659114,1.2839953,-0.99815077,-1.3517959,1.4126099,0.76149935,-0.82707703,1.0105205,0.5058526,-0.33184516,2.1314993,-0.47130203,1.2466301,-3.2061086,0.14055003,2.4020834,0.30010185,-0.5091171,0.88465726,0.7527564,0.0031112886,0.08255145,0.65309525,-0.5442848,0.6051422,0.66747016,1.0,0.0,0.0,0.0,0.0,0.0,0.0,-2.7814994,0.07130203,-0.69663006,2.471447,0.6247759,9.906065,-13.431608,0.8642912,0.13664961,1.2772679
26.46961,61.278,20.449585,1.2832904,-0.8337753,-0.029321522,0.49932712,-0.74149406,0.8000203,0.49174517,-0.4776061,0.69832826,0.63219446,-0.32951894,1.4088129,-0.72156,-1.7518306,-1.0285151,2.2357442,1.3472147,-1.0311027,1.4695956,-0.78736943,-1.7927635,-0.9895674,2.1760242,1.2890116,-1.0013511,-1.3315006,1.4219786,0.84403557,-0.8995005,1.0130084,0.50164866,-0.3161413,2.0994623,-0.46989822,1.2698965,-3.202903,0.14040951,2.301496,0.29500914,-0.50268173,0.89126897,0.7535261,-0.0027822454,0.08185814,0.65229577,-0.49065349,0.6605195,0.6527992,1.0,0.0,0.0,0.0,0.0,0.0,0.0,-2.7494621,0.06989822,-0.7198965,2.0824432,1.0945559,7.954645,-7.273519,0.67067146,-0.02002716,1.5517175
20.130295,56.10646,17.9515,4.384849,-0.48265088,-0.11043481,0.34701252,-0.73550564,0.79600185,0.5038094,-0.5065875,0.7028714,0.63362116,-0.3164049,1.396045,-0.7077693,-1.7423825,-1.0402261,2.2463114,1.3523737,-1.0329916,1.4563986,-0.7731139,-1.7839096,-0.99885714,2.1861637,1.2939879,-1.0043991,-1.3155398,1.4271806,0.89828223,-0.9390199,1.0156406,0.49752513,-0.3009191,2.0674572,-0.46849442,1.2921578,-3.1997008,0.14026913,2.2010093,0.290363,-0.4958229,0.8977298,0.75388074,-0.008601917,0.081236325,0.65191287,-0.44872588,0.69983786,0.63721496,1.0,0.0,0.0,0.0,0.0,0.0,0.0,-2.7174573,0.06849441,-0.74215776,1.6289234,0.679183,5.1416516,-4.015422,0.6569624,-0.063842535,1.5034556
14.948402,53.83161,16.797663,7.7996893,-0.1542548,-0.068764865,0.22548166,-0.7282195,0.7988437,0.53026235,-0.49766698,0.6966156,0.6281453,-0.26540565,1.3835766,-0.69322956,-1.7308834,-1.0486238,2.2558253,1.3568023,-1.0309396,1.443339,-0.75881547,-1.7746189,-1.0082718,2.1963031,1.2989203,-1.0072715,-1.3027383,1.4313384,0.93849456,-0.942489,1.0149966,0.49293107,-0.2827986,2.0354843,-0.4670906,1.3134149,-3.1965017,0.14012888,2.100623,0.2860433,-0.48863602,0.9040757,0.75394887,-0.01438446,0.080685936,0.65180045,-0.41910112,0.7287882,0.62699604,1.0,0.0,0.0,0.0,0.0,0.0,0.0,-2.6854844,0.0670906,-0.7634149,1.2892962,0.5797148,3.7460208,-0.43729544,0.32684803,-0.15680194,1.7879665
8.453295,47.622555,13.77281,9.984201,0.13169551,-0.16695437,0.0972483,-0.7449125,0.7970225,0.52275646,-0.5102365,0.7008336,0.63062894,-0.2586741,1.3688477,-0.6791132,-1.7223432,-1.0592954,2.2663865,1.3619832,-1.033139,1.4302813,-0.7445008,-1.7651184,-1.017656,2.2064426,1.3038107,-1.0099742,-1.3067886,1.4320596,0.9533067,-0.9375367,1.0147512,0.4886069,-0.26618415,2.0035434,-0.4656906,1.333669,-3.1933057,0.13998878,2.0003371,0.28194132,-0.48126984,0.9102787,0.75386125,-0.020094238,0.08023166,0.6518069,-0.39961138,0.7429124,0.6110782,1.0,0.0,0.0,0.0,0.0,0.0,0.0,-2.6535435,0.06569061,-0.78366894,-0.44362545,0.22647381,1.2781739,0.36361217,0.3124714,-0.18379092,1.6361952
8.608475,45.818604,13.25402,9.671772,0.10489595,-0.25664836,0.10009353,-0.73521256,0.7968544,0.54111826,-0.52066344,0.6965287,0.6218654,-0.23084362,1.35676,-0.66481537,-1.7110065,-1.0697223,2.2760954,1.3659973,-1.0330586,1.417193,-0.73019093,-1.7554977,-1.0270058,2.2165668,1.3086573,-1.0125072,-1.309574,1.4311467,0.96444273,-0.9347505,1.0126294,0.48397326,-0.24927165,1.9716343,-0.46429443,1.3529209,-3.190113,0.13984883,1.9001513,0.27804843,-0.4737854,0.9163055,0.75365037,-0.025694773,0.07989529,0.6518953,-0.378069,0.7554192,0.59270155,1.0,0.0,0.0,0.0,0.0,0.0,0.0,-2.6216342,0.06429443,-0.8029209,-0.3162861,0.06043911,0.92396736,0.14483929,0.1090765,-0.21973252,1.6648978
5.8970623,44.744244,12.9180565,11.79229,0.30474508,-0.18413876,0.05305799,-0.7419769,0.7959927,0.5549116,-0.48826352,0.6882808,0.6292515,-0.16312523,1.3429954,-0.6505917,-1.7000065,-1.0758321,2.285395,1.3715824,-1.0288197,1.4040438,-0.7158982,-1.745755,-1.0361859,2.2266452,1.3134638,-1.0148399,-1.3168712,1.429151,0.9769585,-0.91293955,1.0072857,0.48039064,-0.22803688,1.9397571,-0.46289825,1.3711717,-3.1869237,0.13970901,1.8000655,0.27431124,-0.46619034,0.9221857,0.75335056,-0.03122335,0.07966648,0.6520285,-0.3644571,0.763974,0.5793115,1.0,0.0,0.0,0.0,0.0,0.0,0.0,-2.589757,0.06289825,-0.8211717,-0.789237,-0.045466423,1.0719895,2.0316243,-0.20587444,-0.14246106,2.0915956
3.4552894,40.061016,10.907741,11.984269,0.40038896,-0.31115243,0.006825626,-0.7576893,0.7894267,0.5395346,-0.49623632,0.6927812,0.63223374,-0.16735502,1.3282748,-0.63695556,-1.6918015,-1.0858095,2.2959232,1.3766872,-1.0315754,1.3907553,-0.70165604,-1.7359874,-1.0451962,2.2366855,1.3182417,-1.0169818,-1.333152,1.4231158,0.97616786,-0.89752,1.0037487,0.47749114,-0.20962235,1.9079118,-0.46150208,1.3884225,-3.1837375,0.13956933,1.7000798,0.27069503,-0.4585762,0.9278835,0.7530127,-0.03664307,0.079550736,0.6521509,-0.3527434,0.7644016,0.55941886,1.0,0.0,0.0,0.0,0.0,0.0,0.0,-2.5579119,0.06150207,-0.8384225,-1.7107248,-0.45962334,-0.20773411,1.3718963,-0.06773472,-0.0972569,1.8086582
3.2656465,39.275944,10.627736,12.130194,0.3993513,-0.35546085,-0.0008947477,-0.762678,0.7925187,0.5374224,-0.48778954,0.6919456,0.63279676,-0.124066606,1.3144875,-0.62240416,-1.6822451,-1.0939752,2.30588,1.3815213,-1.0293885,1.377297,-0.6874549,-1.7262695,-1.0540558,2.2466953,1.3229929,-1.0189273,-1.3504893,1.4195952,0.9699617,-0.88276434,1.0010568,0.47511747,-0.1896673,1.8760983,-0.4601059,1.404674,-3.1805544,0.1394298,1.6001941,0.26719898,-0.45095825,0.9333812,0.752658,-0.0419273,0.079567686,0.65224,-0.3405386,0.76391333,0.539304,1.0,0.0,0.0,0.0,0.0,0.0,0.0,-2.5260983,0.06010589,-0.85467404,-1.8238544,-0.20992756,-0.7319212,1.305449,0.0059604645,-0.054186583,1.9647896
1.4954014,37.943268,10.210749,13.533438,0.53966826,-0.3199352,-0.03896043,-0.7772257,0.7878845,0.5403708,-0.4604686,0.6854497,0.6401206,-0.09083733,1.2995745,-0.6086664,-1.6722324,-1.1001027,2.3152401,1.387005,-1.0280111,1.3636328,-0.6732976,-1.7166069,-1.0626866,2.2566707,1.3277289,-1.0206687,-1.3722384,1.4149398,0.9648847,-0.8569936,0.99685913,0.4736681,-0.16910692,1.8443166,-0.45870972,1.4199276,-3.1773746,0.13929039,1.5004082,0.2637845,-0.44337082,0.9387,0.7523168,-0.047102377,0.07970525,0.6522636,-0.3335236,0.76039404,0.5222439,1.0,0.0,0.0,0.0,0.0,0.0,0.0,-2.4943166,0.05870971,-0.8699276,-2.2844315,-0.3240347,-0.60391426,2.3950815,-0.1427412,0.016963482,2.0210533
4.365089,37.80011,10.533651,11.770097,0.36189198,-0.4417147,0.021073543,-0.7747862,0.78585875,0.54028773,-0.47489923,0.6883804,0.6362569,-0.07763432,1.2861542,-0.5947117,-1.6625781,-1.1101764,2.3255088,1.3913546,-1.0284321,1.3498064,-0.6591851,-1.7069824,-1.0711647,2.2666156,1.3324515,-1.0222156,-1.3862773,1.4104244,0.9614624,-0.84533125,0.99456763,0.47236896,-0.1499537,1.8125668,-0.45732117,1.4341841,-3.174198,0.13915113,1.4007221,0.26050144,-0.43579102,0.9438226,0.75195813,-0.0521492,0.07996753,0.6522612,-0.3181249,0.7602658,0.50172496,1.0,0.0,0.0,0.0,0.0,0.0,0.0,-2.4625669,0.05732116,-0.88418406,-1.4889717,-0.31278133,-0.4417181,1.0028005,0.035107136,0.04798174,1.882571
6.3627434,36.67012,10.325439,9.953245,0.19687265,-0.58394146,0.07279989,-0.78209496,0.78214586,0.53755814,-0.4932606,0.6866442,0.63487625,-0.06322235,1.2715969,-0.5809705,-1.6532266,-1.1204908,2.33528,1.3959391,-1.0285379,1.3358618,-0.64512414,-1.6973884,-1.0796715,2.2765415,1.3371607,-1.0235813,-1.3975012,1.4050672,0.95837003,-0.8530145,0.992338,0.47125733,-0.13219209,1.7808486,-0.45593262,1.4474444,-3.1710243,0.13901201,1.3011358,0.2574303,-0.42819977,0.9486965,0.75153273,-0.057008173,0.08037143,0.6522951,-0.29495257,0.76159567,0.47542304,1.0,0.0,0.0,0.0,0.0,0.0,0.0,-2.4308486,0.05593261,-0.8974444,-1.1902094,-0.4025221,-0.3989458,-0.91758966,0.020337105,0.07749796,1.7465711
7.4603753,36.168663,10.440137,9.223842,0.13745219,-0.64269125,0.1250462,-0.78859156,0.77835715,0.54435694,-0.4984471,0.6870105,0.63610893,0.010171909,1.2570026,-0.5672884,-1.6429527,-1.1295162,2.3452425,1.4007716,-1.022564,1.321818,-0.63112324,-1.687783,-1.0883175,2.2864482,1.3418623,-1.0247352,-1.4070089,1.3989007,0.96086156,-0.86917734,0.9910774,0.4704958,-0.1098108,1.7491622,-0.45454407,1.4597096,-3.167854,0.13887303,1.2016488,0.2546154,-0.42058182,0.9532965,0.7509956,-0.06165033,0.080921836,0.6524236,-0.2683702,0.7641363,0.44756997,1.0,0.0,0.0,0.0,0.0,0.0,0.0,-2.3991623,0.05454406,-0.90970963,-1.0084391,-0.48434734,0.15907288,-1.7553091,0.11355877,0.11588335,2.2103758
6.5550904,35.23628,10.355615,10.344128,0.25703043,-0.6033896,0.12435497,-0.79479235,0.7719684,0.55066717,-0.48168752,0.6826665,0.64786106,0.090264425,1.2423388,-0.5539264,-1.6327163,-1.1364863,2.3547149,1.4066484,-1.0157088,1.3076788,-0.6171996,-1.6781166,-1.0970417,2.296336,1.3465677,-1.025624,-1.4163197,1.3905694,0.96833545,-0.8739253,0.9887291,0.4709709,-0.0820215,1.7175074,-0.45315552,1.4709806,-3.164687,0.13873418,1.1022614,0.25203604,-0.4129448,0.9576439,0.7503325,-0.06610381,0.08159101,0.6526671,-0.24574447,0.7650588,0.42330873,1.0,0.0,0.0,0.0,0.0,0.0,0.0,-2.3675075,0.05315551,-0.92098063,-0.99561214,-0.6981611,0.6542444,-0.6200433,0.016009808,0.226295,2.7468696
5.202153,34.69849,10.480617,12.409031,0.46606457,-0.51475525,0.10493766,-0.7952783,0.76603824,0.5572687,-0.45051345,0.6861464,0.64983153,0.18088944,1.228151,-0.54059577,-1.6223897,-1.1420931,2.3649507,1.4115509,-1.0075351,1.293471,-0.6033713,-1.6683471,-1.1056305,2.306216,1.351277,-1.0261886,-1.4225708,1.3806905,0.97942895,-0.8544311,0.9885372,0.47158948,-0.04822464,1.6858842,-0.45176697,1.4812585,-3.1615229,0.13859548,1.0029734,0.24962957,-0.4053154,0.9618065,0.74955237,-0.070443794,0.08232422,0.6530173,-0.23025113,0.7637979,0.40662327,1.0,0.0,0.0,0.0,0.0,0.0,0.0,-2.335884,0.05176696,-0.9312585,-0.7004976,-0.8472681,1.0054946,1.7926335,0.25434494,0.22407174,3.3406324
5.6006174,33.432972,10.02499,11.778746,0.39892066,-0.60241425,0.11248534,-0.79944825,0.7625246,0.55288774,-0.4679775,0.67887664,0.6531216,0.21111202,1.2135261,-0.52711886,-1.6130583,-1.1524283,2.3741035,1.4165891,-1.0050774,1.2792059,-0.5896384,-1.6585033,-1.1140858,2.3160732,1.3559958,-1.0264232,-1.4280381,1.3712788,0.9857733,-0.84305286,0.9857881,0.47247225,-0.015107108,1.6542927,-0.45038223,1.4905442,-3.158362,0.13845691,0.90378463,0.24740282,-0.39769745,0.9657783,0.7486585,-0.074664585,0.08313367,0.6534711,-0.21139735,0.76204485,0.3868658,1.0,0.0,0.0,0.0,0.0,0.0,0.0,-2.3042927,0.050382227,-0.9405442,-0.61695576,-0.8044958,0.5430579,0.98724365,-0.019788742,0.24911165,3.2754714
6.5196223,33.835,10.2684355,11.276989,0.29176098,-0.65347856,0.12156427,-0.8006753,0.76411426,0.55598354,-0.47084093,0.6729394,0.650444,0.23654349,1.1991384,-0.513227,-1.6029049,-1.1611699,2.383367,1.4210402,-1.0027689,1.2648989,-0.57596654,-1.648608,-1.1224762,2.3258884,1.3607203,-1.0263393,-1.4318221,1.3661952,0.990507,-0.8380721,0.98081356,0.47303998,0.016047645,1.6227328,-0.4490013,1.4988388,-3.155204,0.13831848,0.804695,0.24539343,-0.39008713,0.96954626,0.74764216,-0.07874417,0.08405562,0.6540375,-0.18873219,0.7627703,0.36629677,1.0,0.0,0.0,0.0,0.0,0.0,0.0,-2.2727327,0.049001306,-0.9488388,-0.44403076,-0.37198067,0.38785934,0.36069155,-0.24904013,0.21784306,3.084453
8.148824,33.459755,10.208245,9.639502,0.11877829,-0.78038347,0.16345362,-0.7992257,0.7617581,0.55704933,-0.49254966,0.66896105,0.65301687,0.268796,1.1849763,-0.49979073,-1.592903,-1.1717312,2.3927846,1.4260219,-0.9994597,1.2505766,-0.56233186,-1.6386802,-1.1309525,2.3356464,1.3654524,-1.0259559,-1.4324923,1.3629357,0.99335307,-0.8511465,0.9746842,0.47380885,0.04584139,1.5912043,-0.4476204,1.5061432,-3.1520495,0.1381802,0.7057045,0.24366713,-0.3824463,0.9730683,0.7464777,-0.082632534,0.08513202,0.6547483,-0.15854768,0.7652972,0.34042948,1.0,0.0,0.0,0.0,0.0,0.0,0.0,-2.2412043,0.047620386,-0.9561432,-0.11227131,-0.19361973,0.20397902,-1.4262199,-0.38541555,0.24527907,2.9537623
9.161573,32.41733,10.011709,8.526188,0.03993094,-0.8771826,0.20206043,-0.79643446,0.75531316,0.56398326,-0.50877094,0.6683825,0.65334916,0.29959783,1.1709331,-0.48680055,-1.582282,-1.1818296,2.4024847,1.4307873,-0.9959961,1.2362734,-0.5487439,-1.6287048,-1.1396519,2.345351,1.3701922,-1.0252826,-1.4297329,1.3577584,0.9986838,-0.8765022,0.96936625,0.47457302,0.074249566,1.5597075,-0.44623947,1.5124586,-3.1488981,0.13804205,0.60681295,0.2422775,-0.37477875,0.9763031,0.7451306,-0.08627948,0.086372145,0.65564936,-0.12370642,0.7677872,0.310656,1.0,0.0,0.0,0.0,0.0,0.0,0.0,-2.2097075,0.046239465,-0.96245855,0.252223,-0.38785934,0.447762,-2.641797,-0.3178239,0.24838448,2.8172672
8.692186,30.587786,9.37732,8.436771,0.07788575,-0.92881566,0.20302108,-0.7991275,0.74985105,0.5661502,-0.5205172,0.6679526,0.6543729,0.3303746,1.1563606,-0.4737588,-1.5720898,-1.1917036,2.4121463,1.4356295,-0.99224514,1.2219874,-0.5352246,-1.618674,-1.1486374,2.3550098,1.3749396,-1.0243347,-1.4281007,1.3504469,1.0042968,-0.9061907,0.9653862,0.4752443,0.10151855,1.5282422,-0.44485855,1.5177857,-3.1457498,0.13790403,0.5080203,0.24123622,-0.36710358,0.97922605,0.743598,-0.0896527,0.087769136,0.6567503,-0.08883968,0.7676,0.2790024,1.0,0.0,0.0,0.0,0.0,0.0,0.0,-2.1782422,0.044858545,-0.96778566,0.14152527,-0.60346127,0.4822731,-3.0747771,-0.19361973,0.22945404,2.7040765
8.052462,28.720453,8.636597,8.651035,0.12578118,-0.98487574,0.18753937,-0.7946709,0.7454118,0.5594085,-0.5298717,0.65887094,0.6457966,0.37322956,1.1425203,-0.46068344,-1.5627332,-1.2016246,2.420897,1.4395192,-0.98701173,1.2077357,-0.5217864,-1.6086318,-1.1579033,2.3646114,1.379685,-1.023114,-1.4243072,1.3419868,1.0040395,-0.93394524,0.9591766,0.47484648,0.12897459,1.4968084,-0.44347763,1.5221256,-3.1426048,0.13776615,0.40932643,0.24054271,-0.35944748,0.9818269,0.7418948,-0.09273187,0.08932551,0.6580378,-0.05424476,0.7641322,0.24651949,1.0,0.0,0.0,0.0,0.0,0.0,0.0,-2.1468084,0.043477625,-0.9721256,0.36177635,-0.7192135,-0.10352135,-2.8845072,-0.42603016,0.111210346,2.7219937
6.370777,26.65985,7.67848,9.803406,0.26439863,-0.98706436,0.12508187,-0.79537886,0.7431476,0.54658014,-0.5303035,0.65775466,0.6565326,0.37740767,1.1281978,-0.44747162,-1.5539738,-1.2109337,2.4303868,1.4453382,-0.9853732,1.1935126,-0.5084254,-1.598664,-1.1673752,2.3741558,1.3844343,-1.0216434,-1.421735,1.3345122,0.9939936,-0.9520854,0.9537306,0.47521067,0.15296175,1.465406,-0.44210434,1.5254793,-3.1394627,0.1376284,0.31073126,0.24016444,-0.35186386,0.9841149,0.7400714,-0.09552202,0.09103832,0.65945566,-0.023905339,0.75601757,0.2156582,1.0,0.0,0.0,0.0,0.0,0.0,0.0,-2.115406,0.042104334,-0.9754793,0.22163391,-0.620842,-1.065886,-1.9361496,-0.3570199,0.16598701,2.373919
5.4134707,23.968351,6.4521213,9.630594,0.3255455,-1.0705943,0.09911352,-0.7970766,0.7358947,0.53547835,-0.55663455,0.65941864,0.6519736,0.3737834,1.1138049,-0.43483594,-1.5451162,-1.2230387,2.4400976,1.4496317,-0.9842651,1.179299,-0.49515277,-1.5888507,-1.1770798,2.3836658,1.3891817,-1.0199649,-1.4214281,1.3252817,0.97678393,-0.97690016,0.95031875,0.47500166,0.17275244,1.4340348,-0.44073105,1.5278479,-3.136324,0.13749081,0.21223466,0.2400907,-0.34439468,0.9860684,0.7381717,-0.09798296,0.09290195,0.66096216,0.0063903863,0.7427452,0.1814232,1.0,0.0,0.0,0.0,0.0,0.0,0.0,-2.084035,0.040731043,-0.9778479,-0.005340576,-0.8023262,-1.7647505,-2.606821,-0.17732382,0.093364716,1.9548297
5.352612,23.504072,6.733308,10.432003,0.39076018,-1.0170987,0.11086496,-0.78813106,0.7265886,0.54581916,-0.55424315,0.6461357,0.65587956,0.4174875,1.1004859,-0.4224939,-1.5342689,-1.2325041,2.4482794,1.4547697,-0.9782162,1.1651236,-0.48199493,-1.5791442,-1.1869656,2.3931148,1.3939291,-1.0180824,-1.4164642,1.3129764,0.96844846,-0.9930083,0.9433773,0.4750729,0.1933612,1.4026952,-0.43935776,1.5292323,-3.1331882,0.13735335,0.11383653,0.2403038,-0.33704758,0.98770785,0.73619145,-0.10014365,0.0948925,0.6625622,0.034394626,0.73051995,0.1508952,1.0,0.0,0.0,0.0,0.0,0.0,0.0,-2.0526953,0.03935775,-0.97923225,0.46684742,-1.1059046,-0.8966088,-1.7360806,-0.51249266,0.11459589,2.0329447
3.8977318,21.433458,5.7678347,11.217163,0.48946494,-1.0227935,0.059320055,-0.79337215,0.72240824,0.52616674,-0.56180674,0.6386518,0.6588008,0.41074988,1.0857863,-0.4097541,-1.5265275,-1.2431463,2.45698,1.4598092,-0.9770074,1.1509691,-0.46895725,-1.5695713,-1.1969887,2.402476,1.3986784,-1.0160205,-1.4153032,1.3011218,0.9534691,-1.0057906,0.9342992,0.47526968,0.21036363,1.3713868,-0.43798447,1.5296334,-3.1300557,0.13721602,0.015536765,0.2407761,-0.32984924,0.98904335,0.7341661,-0.10201463,0.09700974,0.6642155,0.059319753,0.7145936,0.12073758,1.0,0.0,0.0,0.0,0.0,0.0,0.0,-2.0213866,0.03798446,-0.9796334,0.06701946,-1.0635376,-1.5378833,-1.4127135,-0.73684454,0.10693669,1.6719431
3.130559,17.338774,3.882065,9.933357,0.5308636,-1.1811061,0.061656058,-0.79342926,0.70529836,0.50645036,-0.6035294,0.64164853,0.65681,0.40554842,1.0716262,-0.3984274,-1.5189263,-1.2573416,2.466641,1.4643594,-0.9754657,1.1368166,-0.45608836,-1.5602119,-1.2072865,2.4117649,1.4034296,-1.0138137,-1.4152316,1.2824689,0.9299704,-1.0382715,0.92773193,0.47514847,0.22395836,1.3401097,-0.43661118,1.5290523,-3.1269262,0.13707884,-0.08266471,0.24151728,-0.32286835,0.99001455,0.732121,-0.1035133,0.09924748,0.6659083,0.08674493,0.69077337,0.08223829,1.0,0.0,0.0,0.0,0.0,0.0,0.0,-1.9901097,0.03661117,-0.97905225,-0.014019012,-1.7555475,-2.3833275,-3.3790827,-0.5257845,0.062304735,1.329276
2.64727,16.991179,3.7903428,10.499238,0.5683705,-1.1549518,0.040524967,-0.79571027,0.7032439,0.49990124,-0.60977614,0.6360952,0.6627774,0.40289322,1.0572456,-0.38576397,-1.5102217,-1.268264,2.4753745,1.4697074,-0.9735244,1.1226488,-0.44338447,-1.5510833,-1.2179009,2.4209926,1.4081808,-1.0114906,-1.417445,1.2667378,0.90717727,-1.0698259,0.92140067,0.4754465,0.23479746,1.3088639,-0.4352417,1.5274898,-3.1237998,0.13694178,-0.18076801,0.24252246,-0.31612396,0.9906119,0.7300757,-0.104618154,0.10160146,0.66762376,0.11250326,0.667091,0.045317348,1.0,0.0,0.0,0.0,0.0,0.0,0.0,-1.9588639,0.035241693,-0.97748977,-0.25537014,-1.4632225,-2.3002267,-3.284192,-0.50239563,0.087839365,1.0568231
1.5285847,14.381698,2.3799026,10.431118,0.63654613,-1.2333708,0.00019869115,-0.7952333,0.6940337,0.4647524,-0.6320353,0.6299457,0.66602206,0.39620855,1.0431255,-0.3739811,-1.504608,-1.2811044,2.483987,1.4747831,-0.9718697,1.1084601,-0.43083698,-1.5422885,-1.2288662,2.430148,1.4129359,-1.0090797,-1.4193515,1.2510921,0.87001216,-1.1056987,0.91437405,0.47584474,0.24290925,1.2776493,-0.43387604,1.5249469,-3.1206768,0.13680486,-0.27877322,0.24378657,-0.30965042,0.9908153,0.7280728,-0.10529673,0.10408643,0.66931945,0.13791871,0.6376419,0.00534761,1.0,0.0,0.0,0.0,0.0,0.0,0.0,-1.9276493,0.03387603,-0.9749469,-0.21746159,-1.461196,-3.7255049,-3.718114,-0.59862137,0.076818466,0.78198016
2.409062,15.030282,3.091748,10.293829,0.60567725,-1.2118988,0.03796572,-0.78873277,0.68428797,0.46974248,-0.65636814,0.6305829,0.65818775,0.3911757,1.0295868,-0.36240816,-1.4953142,-1.294503,2.4932063,1.4787546,-0.9699621,1.0942885,-0.4184478,-1.5337837,-1.2402188,2.4392498,1.417689,-1.006604,-1.4164455,1.2351567,0.84380126,-1.1455412,0.9094216,0.47543186,0.24892496,1.2464659,-0.43251038,1.5214249,-3.1175566,0.13666809,-0.37668043,0.24531688,-0.30344772,0.990626,0.72609633,-0.105544224,0.10667804,0.67101735,0.16464312,0.6114566,-0.03363935,1.0,0.0,0.0,0.0,0.0,0.0,0.0,-1.8964659,0.03251037,-0.9714249,0.2849579,-1.4873028,-2.6543975,-4.0996075,-0.38061142,-0.008505583,0.5763173
2.3304648,13.587219,2.9843757,10.638987,0.65080845,-1.1779189,0.0675562,-0.7781282,0.66379064,0.46290094,-0.67093706,0.6019642,0.6590575,0.43091205,1.0164757,-0.35206872,-1.4874936,-1.3073125,2.4994462,1.4835947,-0.9635128,1.0802027,-0.4062732,-1.5254867,-1.251947,2.4482334,1.4224383,-1.00405,-1.4058928,1.2118882,0.8246315,-1.1821862,0.8951667,0.47500223,0.2576195,1.2153138,-0.4311447,1.5169244,-3.1144397,0.13653144,-0.47448978,0.24710721,-0.2974968,0.9900539,0.72410977,-0.10538426,0.109354876,0.672756,0.19002742,0.58547056,-0.07157822,1.0,0.0,0.0,0.0,0.0,0.0,0.0,-1.8653138,0.031144708,-0.96692437,1.077652,-2.22013,-1.9866705,-3.7780285,-1.299417,-0.016623735,0.83829165
1.8265147,12.940214,3.1820858,11.760619,0.7469068,-1.0801165,0.06557337,-0.77764064,0.6507652,0.46347013,-0.68127924,0.5956557,0.65317786,0.42238623,1.0024387,-0.34119666,-1.4791397,-1.3200749,2.507799,1.487756,-0.9618114,1.0662199,-0.39435083,-1.5173042,-1.2639881,2.4570682,1.4271799,-1.0014198,-1.3957821,1.1860405,0.81595004,-1.2117742,0.880058,0.47390246,0.264555,1.1841928,-0.42977905,1.5114466,-3.111326,0.13639495,-0.5722013,0.24912353,-0.29180145,0.9891318,0.7220984,-0.1048617,0.112084,0.674548,0.21122412,0.5608456,-0.10543931,1.0,0.0,0.0,0.0,0.0,0.0,0.0,-1.8341928,0.029779047,-0.9614466,1.0185242,-2.4759054,-0.93910694,-3.0756235,-1.3675094,-0.09587407,0.66362023
0.66960955,10.842945,2.5767775,12.770609,0.88876235,-1.0122302,0.056401566,-0.7759193,0.6311627,0.45813358,-0.69416213,0.58352846,0.654943,0.4458827,0.988628,-0.33123454,-1.4714909,-1.3334043,2.5154212,1.4926742,-0.9568315,1.052323,-0.38272268,-1.509177,-1.2762867,2.4657428,1.4319121,-0.99871135,-1.3877376,1.1554282,0.81126994,-1.2363423,0.8634574,0.4728839,0.27272296,1.1531029,-0.4284134,1.5049925,-3.1082153,0.13625857,-0.66981524,0.2513177,-0.2863617,0.9878869,0.7200657,-0.10400931,0.114827946,0.67638886,0.22751392,0.5341739,-0.1370857,1.0,0.0,0.0,0.0,0.0,0.0,0.0,-1.8031029,0.028413385,-0.9549925,0.7977724,-2.9546976,-0.53259134,-2.5817394,-1.5119791,-0.10381341,0.78558326
0.53854525,12.128824,3.2180476,14.000197,0.89652884,-0.9178542,0.023588024,-0.7748553,0.6317847,0.45175222,-0.6971818,0.5759493,0.6554806,0.43659076,0.9748374,-0.3195442,-1.4640018,-1.346005,2.5233378,1.4974601,-0.95505226,1.0384814,-0.37133104,-1.5010974,-1.2887646,2.474261,1.4366347,-0.99593616,-1.3830993,1.1340781,0.8069718,-1.251859,0.84809434,0.47190288,0.27896005,1.122044,-0.42705154,1.4975629,-3.1051078,0.13612235,-0.7673316,0.2536614,-0.28116226,0.9863612,0.718034,-0.10287098,0.11759391,0.678245,0.24155776,0.51152825,-0.16372149,1.0,0.0,0.0,0.0,0.0,0.0,0.0,-1.772044,0.027051538,-0.9475629,0.41017532,-2.023983,-0.4575491,-1.6776085,-1.3777971,-0.11346936,0.5999327
-0.50192475,10.034205,2.461294,14.802332,0.98931134,-0.8745569,0.0046933535,-0.7708519,0.6095892,0.44586372,-0.70366925,0.54552466,0.6562296,0.4605878,0.96139616,-0.3103721,-1.456511,-1.3591316,2.5288136,1.5022576,-0.9498774,1.0246817,-0.3601802,-1.4930713,-1.3013607,2.4825618,1.4413477,-0.99308944,-1.3790662,1.1091229,0.8010068,-1.2624896,0.8250266,0.47099784,0.2864561,1.0910162,-0.4256935,1.4891589,-3.1020033,0.13598625,-0.86475044,0.2561236,-0.27620316,0.98457736,0.71602035,-0.10147934,0.12039404,0.6800898,0.25224754,0.4868806,-0.18909192,1.0,0.0,0.0,0.0,0.0,0.0,0.0,-1.7410161,0.025693506,-0.93915886,0.33893585,-2.3875237,-0.6161928,-1.1962414,-2.150464,-0.120061636,0.72163343
-2.0967045,6.320802,0.6188724,14.698006,1.1631627,-0.9335263,-0.023354443,-0.77229476,0.5879663,0.42738417,-0.72675043,0.5558573,0.639508,0.4401349,0.9474522,-0.30138355,-1.4503329,-1.3740357,2.5381474,1.5052985,-0.94907594,1.0109011,-0.3493188,-1.4851806,-1.3141228,2.4906986,1.4460398,-0.99019027,-1.377738,1.0788231,0.7852202,-1.2812822,0.81018275,0.46835053,0.29097322,1.0600195,-0.42433548,1.4797814,-3.098902,0.1358503,-0.96207184,0.25867242,-0.2715454,0.9825144,0.71406204,-0.0997834,0.123188026,0.6818969,0.26004937,0.45380506,-0.21780959,1.0,0.0,0.0,0.0,0.0,0.0,0.0,-1.7100195,0.024335474,-0.9297814,0.0813961,-2.932787,-1.5920877,-2.013731,-1.3570309,-0.315547,0.42396784
-3.5771747,2.5697935,-1.0282731,15.007191,1.3002955,-0.9442854,-0.045367915,-0.76292604,0.5603605,0.40844092,-0.73335654,0.5183984,0.64101213,0.45228687,0.93460846,-0.29328275,-1.4443365,-1.3874584,2.5425384,1.510141,-0.9449616,0.9971701,-0.33882695,-1.4775226,-1.3270737,2.4986217,1.4507052,-0.98724437,-1.3717326,1.0396118,0.7592415,-1.3001124,0.786287,0.4658177,0.29561746,1.0290538,-0.42297745,1.4694314,-3.0958037,0.13571447,-1.059296,0.26127777,-0.26726913,0.9801516,0.71218634,-0.09775394,0.12596288,0.6836432,0.26444414,0.41459346,-0.24796703,1.0,0.0,0.0,0.0,0.0,0.0,0.0,-1.6790538,0.022977442,-0.9194314,0.5776882,-3.832531,-2.6331067,-2.022314,-2.2778988,-0.32218695,0.42770505
-5.8692703,-3.270196,-3.3974044,15.521613,1.5276036,-0.9309711,-0.058794305,-0.75587815,0.514234,0.3919226,-0.7430587,0.46820652,0.6352406,0.47797546,0.9215823,-0.28740355,-1.4383304,-1.4013796,2.5454423,1.5142292,-0.9394468,0.98352873,-0.32886773,-1.4701698,-1.3402134,2.5061862,1.4553419,-0.98423934,-1.361555,0.9815711,0.72725636,-1.3192862,0.7467442,0.46280324,0.3019617,0.99811906,-0.42161942,1.4581099,-3.0927086,0.13557878,-1.156423,0.2638822,-0.2634468,0.97747374,0.7104151,-0.095381506,0.12870364,0.6853087,0.26243177,0.36652988,-0.27973804,1.0,0.0,0.0,0.0,0.0,0.0,0.0,-1.648119,0.02161941,-0.90810984,1.0379076,-5.728531,-3.2755852,-2.0655632,-3.8589478,-0.3913641,0.5836129
-11.585708,-16.379591,-9.427586,16.271492,2.1664891,-0.9891269,-0.12853552,-0.7464331,0.4326018,0.33856472,-0.7580483,0.43500653,0.62261826,0.48142624,0.9088854,-0.28560755,-1.4363133,-1.4160182,2.549687,1.5176038,-0.9360967,0.97002566,-0.31977636,-1.4633262,-1.3535668,2.5132968,1.4599406,-0.98117423,-1.3462774,0.88511163,0.66931635,-1.3414372,0.6993528,0.45844856,0.30775502,0.9672152,-0.42026138,1.4458178,-3.0896165,0.13544324,-1.2534528,0.26635513,-0.26031876,0.97443825,0.7088195,-0.0925995,0.13130002,0.6868482,0.2450066,0.29194364,-0.31644362,1.0,0.0,0.0,0.0,0.0,0.0,0.0,-1.6172152,0.020261377,-0.8958178,1.6407013,-9.603703,-5.945766,-2.3851395,-4.698825,-0.57184696,0.50349236
-23.716642,-43.538776,-22.07733,17.854036,3.486466,-1.0946531,-0.2827303,-0.7321907,0.26925045,0.24213128,-0.7728214,0.3464299,0.6076849,0.4896145,0.8968066,-0.2928513,-1.4391131,-1.430849,2.5479398,1.520709,-0.93221277,0.9567276,-0.31227905,-1.457444,-1.3671643,2.5197399,1.464482,-0.9780538,-1.3232822,0.7045093,0.56012416,-1.3665509,0.625489,0.45204085,0.31301907,0.9363422,-0.41891098,1.4325563,-3.0865276,0.13530782,-1.3503855,0.26841128,-0.25833893,0.97095764,0.70757407,-0.0892699,0.13352184,0.6881436,0.19445482,0.16230126,-0.36284602,1.0,0.0,0.0,0.0,0.0,0.0,0.0,-1.5863421,0.018910974,-0.88255626,2.607298,-18.087101,-11.236691,-2.7153254,-7.453823,-0.87477565,0.3965199
-52.72461,-103.96866,-52.711266,21.150427,6.6104884,-1.5435495,-0.78631514,-0.7007408,-0.04162765,-0.06542215,-0.7818839,0.24268213,0.58697426,0.4797897,0.88665354,-0.3164418,-1.4639862,-1.4453527,2.544008,1.5231794,-0.9300748,0.943792,-0.3078254,-1.4539764,-1.3809983,2.5252101,1.4689356,-0.97489905,-1.2811095,0.3583507,0.27335152,-1.3898183,0.5198094,0.44124046,0.31542554,0.90550005,-0.41756058,1.418326,-3.0834417,0.13517255,-1.4472215,0.26940823,-0.25867844,0.96682477,0.7072048,-0.08503071,0.13487825,0.6887953,0.06895067,-0.10366614,-0.43328795,1.0,0.0,0.0,0.0,0.0,0.0,0.0,-1.5555,0.017560571,-0.868326,4.960537,-34.80612,-29.312431,-2.5275707,-10.936796,-1.6018629,0.002849102
-79.27012,-160.18178,-80.79135,23.541822,8.601163,-1.7999198,-1.2534068,-0.6376757,-0.4167096,-0.37428072,-0.7888428,-0.3824475,0.54169506,0.51773465,0.88002443,-0.34949633,-1.4914044,-1.4598825,2.4869654,1.5231051,-0.92312557,0.9315468,-0.3081811,-1.4545944,-1.3950192,2.5278766,1.4732348,-0.97170424,-1.2014829,-0.16805655,-0.17712411,-1.4056716,0.18022443,0.42307028,0.3194956,0.8746888,-0.41621017,1.4031283,-3.0803587,0.13503739,-1.5439607,0.26870286,-0.26247025,0.9617455,0.70825696,-0.079629555,0.1354357,0.6882502,-0.118371725,-0.47161517,-0.5343551,1.0,0.0,0.0,0.0,0.0,0.0,0.0,-1.5246887,0.016210169,-0.85312825,9.226513,-52.992664,-46.11349,-1.4646053,-34.578995,-2.7069986,0.021499395
-75.331,-152.98192,-75.37142,24.668472,8.23494,-1.2754058,-1.0794235,-0.5644696,-0.60216516,-0.4631686,-0.7784674,-0.53478247,0.5770864,0.51940006,0.87509984,-0.36839762,-1.5009112,-1.4728659,2.4743984,1.5309434,-0.9197642,0.92034495,-0.31387264,-1.4595001,-1.409063,2.5269,1.4773833,-0.96846557,-1.0889639,-0.70409787,-0.5985957,-1.4017864,-0.19248487,0.40885904,0.32424307,0.8439083,-0.41485977,1.3869637,-3.077279,0.13490239,-1.6406031,0.26610523,-0.26969528,0.955693,0.71067226,-0.07320352,0.13526635,0.686505,-0.31095243,-0.805932,-0.6295773,1.0,0.0,0.0,0.0,0.0,0.0,0.0,-1.4939083,0.014859766,-0.8369637,12.497067,-53.981556,-43.20864,1.0068417,-37.8338,-2.3972332,0.17032027
-43.749355,-93.06798,-40.91305,21.57473,5.292746,-0.27145416,-0.2677148,-0.4932667,-0.6799054,-0.3264009,-0.79417646,-0.55702984,0.6126078,0.5495937,0.8710183,-0.38186318,-1.4921402,-1.4884806,2.4711971,1.5386441,-0.9135062,0.91039336,-0.32402164,-1.4668872,-1.4230858,2.5227306,1.4814516,-0.96514964,-0.961453,-1.1194186,-0.7878046,-1.4000633,-0.49291134,0.40409178,0.3337405,0.8131586,-0.41350937,1.3698336,-3.0742023,0.1347675,-1.7371488,0.2620618,-0.2791481,0.94889295,0.71365446,-0.06623527,0.13442616,0.68428046,-0.441326,-0.98736453,-0.6984978,1.0,0.0,0.0,0.0,0.0,0.0,0.0,-1.4631586,0.013509363,-0.8198336,13.461554,-41.81206,-19.60349,0.90208054,-30.33756,-1.0844588,0.8586168
-5.9720078,-22.219479,-1.699374,16.131994,1.703837,0.4286428,0.57257843,-0.36962712,-0.7132191,-0.2273269,-0.80536693,-0.5672098,0.6025407,0.5539186,0.87343067,-0.39534354,-1.48962,-1.5036225,2.4660096,1.5417057,-0.9097578,0.9019877,-0.3370722,-1.474551,-1.4371563,2.5163028,1.4855067,-0.96172976,-0.80032474,-1.3673358,-0.75982237,-1.4078975,-0.6928273,0.40574056,0.34495616,0.7824396,-0.41216278,1.3517387,-3.0711288,0.13463277,-1.8335979,0.2574084,-0.28919983,0.9416394,0.71622163,-0.059251,0.13309412,0.6824968,-0.4792833,-1.0045224,-0.7376223,1.0,0.0,0.0,0.0,0.0,0.0,0.0,-1.4324396,0.012162775,-0.8017387,16.10987,-24.92559,2.636242,-0.38998127,-20.027424,0.08640289,1.2155175
26.883862,33.328682,28.096895,8.914477,-1.2968818,0.37195328,1.2134771,-0.086502984,-0.7417072,-0.2759437,-0.80099225,-0.59167886,0.6045369,0.51809037,0.89333737,-0.4112429,-1.5021453,-1.5172555,2.457135,1.5459603,-0.90992075,0.8961493,-0.35155755,-1.4814785,-1.4513127,2.5084827,1.4896075,-0.9582288,-0.5145534,-1.4755307,-0.6685847,-1.4182421,-0.8110114,0.41218942,0.3525486,0.75175136,-0.41082,1.33268,-3.0680583,0.13449816,-1.9299507,0.2530919,-0.29858017,0.9341416,0.71758944,-0.052593347,0.13150643,0.681913,-0.42023683,-0.9089733,-0.75823814,1.0,0.0,0.0,0.0,0.0,0.0,0.0,-1.4017513,0.010820001,-0.78268,27.72062,-10.803103,9.641922,-1.0920763,-11.640585,0.91454387,0.9639025
36.12063,52.25846,34.448975,5.991624,-2.1673381,-0.16180444,1.1583803,0.07635862,-0.7553567,-0.4304187,-0.78800136,-0.60092354,0.60419655,0.49947894,0.9037851,-0.42709324,-1.5245203,-1.5301127,2.4483902,1.5500271,-0.9082809,0.8935152,-0.36642486,-1.4881332,-1.4655071,2.4999263,1.4937712,-0.9546783,-0.18330286,-1.4903032,-0.6617452,-1.4204161,-0.8698425,0.41832486,0.35643864,0.7210938,-0.40947723,1.3126585,-3.064991,0.1343637,-2.026207,0.2496553,-0.30691147,0.92645735,0.71763057,-0.046253752,0.12989224,0.68263817,-0.32043716,-0.7995487,-0.7763938,1.0,0.0,0.0,0.0,0.0,0.0,0.0,-1.3710938,0.009477228,-0.76265854,32.05055,-1.4223576,1.4501929,-0.436759,-5.721402,0.8384824,0.57062507
28.266163,45.793056,26.146267,6.904806,-1.4463408,-0.62729037,0.7342615,0.12858105,-0.77009255,-0.5484118,-0.79217064,-0.55764514,0.58972883,0.4640045,0.9063733,-0.44343412,-1.5429744,-1.5447242,2.444162,1.552744,-0.90827787,0.89377844,-0.38113433,-1.4954727,-1.479715,2.4911983,1.4979712,-0.9511287,0.09365113,-1.4644744,-0.7561171,-1.4214308,-0.87368625,0.420591,0.3548613,0.6904668,-0.40813446,1.2916752,-3.0619266,0.13422936,-2.1223671,0.24710968,-0.3144493,0.9185354,0.7167323,-0.039973367,0.12831962,0.68427396,-0.23281357,-0.7321831,-0.80213624,1.0,0.0,0.0,0.0,0.0,0.0,0.0,-1.3404667,0.0081344545,-0.7416752,26.914974,2.5960684,-8.840168,-0.24454594,-0.3525257,0.2752483,-0.039213896
6.2782545,24.755306,9.250572,13.19443,0.27684423,-0.6019223,-0.01978828,0.0029520658,-0.7670376,-0.62016404,-0.7904012,-0.5529556,0.57849765,0.39768547,0.89407367,-0.4578381,-1.557489,-1.5587552,2.4359028,1.555821,-0.91136014,0.89541876,-0.3954757,-1.5041912,-1.4939018,2.4825885,1.5021712,-0.9476564,0.18734327,-1.4242827,-0.910143,-1.4177281,-0.8572008,0.41958788,0.3446925,0.6598705,-0.4067917,1.2697309,-3.0588653,0.13409516,-2.218431,0.24498382,-0.32180405,0.9103129,0.71564186,-0.033462547,0.12682353,0.68604136,-0.2046217,-0.72963107,-0.8337605,1.0,0.0,0.0,0.0,0.0,0.0,0.0,-1.3098705,0.006791681,-0.7197309,9.331125,3.9405346,-15.332079,0.45495033,1.4651418,-0.17733574,-1.0148644
-4.2751822,14.203051,2.1817787,16.078283,1.1688521,-0.39972192,-0.2671205,0.0022778874,-0.77680457,-0.6296437,-0.8064366,-0.5190011,0.561613,0.394062,0.8956466,-0.47315615,-1.5671555,-1.5745455,2.4306884,1.5583324,-0.9082502,0.8972498,-0.4095047,-1.5143268,-1.5081192,2.47428,1.5063425,-0.9442899,0.18270488,-1.396158,-1.0488275,-1.4224453,-0.8231942,0.41584477,0.3338732,0.62930477,-0.4054489,1.2468268,-3.055807,0.1339611,-2.3143988,0.24287961,-0.32933044,0.90175456,0.7147779,-0.026563277,0.125314,0.68751967,-0.21068332,-0.75312454,-0.86815786,1.0,0.0,0.0,0.0,0.0,0.0,0.0,-1.2793047,0.0054489076,-0.69682676,-0.15202165,2.6902676,-14.06889,-0.2735138,3.1303644,-0.50635934,-1.1098981
-8.730921,13.083004,2.2734046,19.257107,1.4214021,0.120198265,-0.3133319,-0.04861632,-0.7684656,-0.5869517,-0.80010074,-0.54029506,0.57696986,0.443043,0.89238816,-0.48635128,-1.573022,-1.5881293,2.4202507,1.5640395,-0.8999856,0.8984457,-0.42331058,-1.5252979,-1.5223576,2.4662197,1.5104891,-0.9409864,0.10040012,-1.3759135,-1.1144919,-1.423494,-0.80141044,0.41392487,0.32892257,0.5987696,-0.40411377,1.2229637,-3.0527518,0.13382716,-2.4102707,0.24055809,-0.33703613,0.89293283,0.7142353,-0.019358005,0.12375089,0.68860644,-0.23780271,-0.769888,-0.8920545,1.0,0.0,0.0,0.0,0.0,0.0,0.0,-1.2487695,0.0041137636,-0.6729637,-7.684559,1.8819332,-6.9606066,0.1376152,1.8686652,-0.29649734,-0.5374074
-13.51514,12.008656,2.3248973,22.341244,1.6543741,0.64851046,-0.37039456,-0.1571866,-0.76454467,-0.554588,-0.7987803,-0.56118476,0.5820125,0.45285654,0.8827271,-0.49976504,-1.5807567,-1.6022356,2.4101012,1.5686903,-0.89570075,0.8982693,-0.43697864,-1.5364101,-1.5365902,2.4582508,1.5146242,-0.9377153,-0.054520354,-1.3643668,-1.1119025,-1.4221874,-0.79681695,0.41321155,0.3263428,0.568265,-0.40277863,1.1981426,-3.0496998,0.13369337,-2.5060468,0.23781303,-0.34486008,0.8839519,0.7140543,-0.011999851,0.122133315,0.68925023,-0.28571057,-0.7797277,-0.90521544,1.0,0.0,0.0,0.0,0.0,0.0,0.0,-1.218265,0.0027786195,-0.64814264,-14.754769,0.99089146,-0.2933979,0.41925907,0.10993481,-0.14663339,-0.31356812
-14.273682,12.998692,3.4402246,22.847385,1.6545087,0.8767103,-0.335158,-0.20992568,-0.76324713,-0.5595136,-0.8026217,-0.5587333,0.5760818,0.4545591,0.8772767,-0.51330334,-1.5923615,-1.6168524,2.4023774,1.5722324,-0.89225936,0.89646304,-0.45058423,-1.547301,-1.550821,2.4502819,1.5187517,-0.9344604,-0.2202102,-1.3598596,-1.083243,-1.4224371,-0.7981628,0.41235337,0.32500887,0.5377909,-0.40144348,1.1723646,-3.0466506,0.1335597,-2.601727,0.2345538,-0.35274124,0.8748683,0.7142137,-0.0045773075,0.12044188,0.68947184,-0.3389374,-0.78324497,-0.91443473,1.0,0.0,0.0,0.0,0.0,0.0,0.0,-1.1877909,0.0014434755,-0.6223646,-15.835855,0.28328896,2.3039818,0.27475357,-0.48205853,-0.15171766,-0.17442703
-14.33596,13.425838,4.360847,22.91892,1.680181,1.0232517,-0.27816343,-0.27343753,-0.77342343,-0.54806596,-0.79975706,-0.5525097,0.5757825,0.46817374,0.8691193,-0.52792656,-1.6021076,-1.6307967,2.395031,1.57633,-0.88764304,0.8930603,-0.46422845,-1.5578125,-1.5650421,2.4422977,1.5228716,-0.93120456,-0.37810996,-1.3665437,-1.042189,-1.4210205,-0.7994476,0.4116877,0.325802,0.5073472,-0.40010834,1.1456305,-3.0436046,0.13342617,-2.6973114,0.2307474,-0.36063004,0.86570907,0.71465766,0.0028559593,0.11861196,0.6893383,-0.3949514,-0.7833095,-0.921047,1.0,0.0,0.0,0.0,0.0,0.0,0.0,-1.1573472,0.00010833144,-0.59563047,-15.111912,-0.83634853,3.5730839,0.4490137,-0.46272278,-0.12678504,0.06495714
-10.480368,15.839399,5.8052664,20.329266,1.4372923,0.80577415,-0.1760822,-0.27086592,-0.7735992,-0.5913135,-0.80601376,-0.5351208,0.54543626,0.454142,0.8659737,-0.54158837,-1.6169438,-1.6456435,2.3887856,1.5774152,-0.88579035,0.8885094,-0.47795612,-1.5681674,-1.5792824,2.4343555,1.526961,-0.9279468,-0.47910592,-1.3753356,-1.0346247,-1.4238544,-0.7933495,0.4078982,0.32573223,0.476934,-0.3987732,1.1179411,-3.0405617,0.13329278,-2.7928004,0.22648741,-0.36852264,0.85643005,0.7152959,0.010350134,0.116588905,0.68894964,-0.43741584,-0.78191745,-0.93438965,1.0,0.0,0.0,0.0,0.0,0.0,0.0,-1.1269339,-0.0012268126,-0.5679411,-9.596568,-1.0281324,0.35233498,-0.0033855438,0.31849146,-0.4591465,0.006145239
-11.016344,15.153944,4.4719067,19.549799,1.4516333,0.68091846,-0.22190975,-0.32146272,-0.77384806,-0.63886625,-0.79805964,-0.5571359,0.5497668,0.43984008,0.8563631,-0.55534095,-1.6320541,-1.6590884,2.3786418,1.5819377,-0.8839628,0.88312685,-0.49176246,-1.5787647,-1.5935131,2.4264133,1.531016,-0.9247005,-0.55649596,-1.3829448,-1.0694255,-1.4219158,-0.79565114,0.40428656,0.3241843,0.44655114,-0.39743805,1.0892975,-3.0375216,0.1331595,-2.888194,0.22181508,-0.37644196,0.846971,0.7161397,0.017974673,0.11439193,0.68828434,-0.47848818,-0.7868413,-0.95396733,1.0,0.0,0.0,0.0,0.0,0.0,0.0,-1.0965512,-0.0025619566,-0.5392975,-7.300794,-0.9111166,-3.8203478,0.48732758,-0.522995,-0.47804117,-0.14761686
-17.100794,9.892097,0.020706415,20.037024,1.928576,0.7033097,-0.36333027,-0.42940658,-0.7887943,-0.66990846,-0.80897367,-0.5246892,0.5158176,0.4012484,0.8401862,-0.5706419,-1.6457555,-1.6744105,2.3739443,1.5825977,-0.88457566,0.87676966,-0.50569516,-1.5898998,-1.6077667,2.4185321,1.53501,-0.92149997,-0.66033155,-1.3972807,-1.129655,-1.4253157,-0.78669244,0.39697078,0.31875244,0.4161987,-0.39611053,1.0597007,-3.0344849,0.13302638,-2.9834924,0.21660416,-0.38453674,0.8372551,0.7173243,0.02584893,0.11196033,0.68719894,-0.53683203,-0.80801105,-0.98153496,1.0,0.0,0.0,0.0,0.0,0.0,0.0,-1.0661987,-0.0038894713,-0.5097007,-9.862256,-1.614213,-6.4189672,0.034976006,0.54906607,-0.9227514,-0.53882
-19.627848,10.759502,0.022790194,20.887375,2.0853655,0.9341824,-0.41028303,-0.51201516,-0.78729373,-0.6668704,-0.8054931,-0.49330407,0.5239465,0.39285177,0.82556814,-0.58442456,-1.6565868,-1.6883161,2.3692017,1.5874046,-0.8822148,0.869208,-0.5197447,-1.6015613,-1.6220394,2.410834,1.5389372,-0.9183576,-0.78619754,-1.4081043,-1.1797945,-1.4265741,-0.76542264,0.39077204,0.31274015,0.38587663,-0.39478302,1.0291517,-3.031451,0.13289337,-3.0786953,0.2107346,-0.39283752,0.8272865,0.71892583,0.033985056,0.109216265,0.685611,-0.60567707,-0.8271494,-1.0060854,1.0,0.0,0.0,0.0,0.0,0.0,0.0,-1.0358766,-0.005216986,-0.47915167,-12.016117,-1.2806416,-5.439186,0.2791643,1.7565489,-0.82987547,-0.5919695
-21.054956,11.726502,0.64240575,21.108574,2.148493,1.146592,-0.4191835,-0.5877991,-0.8000583,-0.6692331,-0.8084578,-0.4703573,0.49665156,0.33811635,0.8104281,-0.5997505,-1.6684846,-1.7028853,2.3637984,1.5886024,-0.884546,0.8602892,-0.53392965,-1.6135948,-1.6363312,2.403403,1.54279,-0.9153106,-0.92513627,-1.4226096,-1.2127502,-1.4286354,-0.7367747,0.38258082,0.30210635,0.35558483,-0.3934555,0.99765134,-3.02842,0.13276051,-3.1738029,0.20412831,-0.40129852,0.8170912,0.7209613,0.042346753,0.106083475,0.68349683,-0.68148583,-0.8416729,-1.0281408,1.0,0.0,0.0,0.0,0.0,0.0,0.0,-1.0055848,-0.0065445006,-0.44765133,-13.3056755,-1.6611814,-3.7378073,0.22375584,2.4861097,-1.0419905,-1.0387063
-20.084312,15.64423,3.096519,21.007984,1.984256,1.3569498,-0.40942693,-0.65181404,-0.79920936,-0.6737452,-0.80325913,-0.45540175,0.5119068,0.24973972,0.79510784,-0.6138506,-1.6809692,-1.7166572,2.357863,1.5939808,-0.89033663,0.8499962,-0.5482243,-1.62584,-1.6506153,2.3962657,1.546578,-0.9124286,-1.0622238,-1.4324912,-1.2298478,-1.4268959,-0.7071279,0.37701643,0.28361443,0.3253233,-0.392128,0.96520066,-3.0253923,0.13262777,-3.2688155,0.19677332,-0.4098282,0.80671597,0.7234155,0.05085588,0.10253738,0.68085957,-0.75658137,-0.8447506,-1.0447031,1.0,0.0,0.0,0.0,0.0,0.0,0.0,-0.9753233,-0.007872015,-0.41520065,-13.150442,-1.1981726,-2.1270514,0.59218407,2.6016474,-0.7637024,-1.813978
-17.379929,20.23298,6.289222,20.392305,1.7369078,1.4929659,-0.38426274,-0.7006517,-0.80147547,-0.6724618,-0.79648876,-0.42499685,0.5042952,0.08311418,0.77993107,-0.62837183,-1.6930861,-1.7302642,2.353766,1.5970075,-0.9041172,0.83845484,-0.5625923,-1.63815,-1.6648461,2.3894641,1.5503145,-0.9098451,-1.1830598,-1.4389282,-1.2325639,-1.4206072,-0.67242134,0.37206656,0.2500133,0.29509208,-0.39080048,0.9318006,-3.0223675,0.13249518,-3.363733,0.18871747,-0.41831207,0.79621875,0.7262569,0.059415556,0.09856333,0.67772114,-0.825296,-0.83579624,-1.0554249,1.0,0.0,0.0,0.0,0.0,0.0,0.0,-0.9450921,-0.00919953,-0.3818006,-11.597729,-0.841403,-0.6329775,1.0120153,3.146565,-0.6695509,-3.3089936
-15.417405,23.684572,8.563995,20.01742,1.68628,1.5866337,-0.40875018,-0.7500674,-0.8024728,-0.6754049,-0.78726023,-0.33091995,0.50975955,-0.1816478,0.7634481,-0.6428396,-1.7056905,-1.7435721,2.356372,1.6012905,-0.92800987,0.825832,-0.5769995,-1.6504428,-1.6789757,2.383231,1.5540148,-0.90777755,-1.2873621,-1.4420424,-1.2291149,-1.409128,-0.60790837,0.36874413,0.19256957,0.26489106,-0.38947678,0.89745206,-3.0193458,0.13236271,-3.4585557,0.17999986,-0.426651,0.7856516,0.72949886,0.06794775,0.09406193,0.6740674,-0.8909734,-0.82129955,-1.0609084,1.0,0.0,0.0,0.0,0.0,0.0,0.0,-0.914891,-0.01052323,-0.34745204,-10.01246,-0.49824715,0.04284382,1.5000582,6.168771,-0.48992634,-5.666575
-12.572812,27.038193,10.887558,19.881224,1.8093626,1.6077565,-0.39835754,-0.7709847,-0.80025464,-0.68374264,-0.7640357,-0.14768693,0.5191926,-0.36961755,0.7487335,-0.657025,-1.7188171,-1.7553793,2.3684623,1.605934,-0.9447393,0.81238997,-0.5914076,-1.6627166,-1.6928974,2.378123,1.557696,-0.90639186,-1.3620048,-1.4410331,-1.2276509,-1.3854847,-0.4789164,0.3671667,0.12098146,0.23472025,-0.3881569,0.862156,-3.0163271,0.13223037,-3.5532837,0.17064676,-0.43487167,0.7750801,0.73315966,0.07638621,0.08878587,0.6698949,-0.95389366,-0.80699986,-1.0595944,1.0,0.0,0.0,0.0,0.0,0.0,0.0,-0.8847202,-0.011843115,-0.31215596,-7.1424723,-0.06918907,-0.060009956,2.66819,12.677479,-0.3075242,-7.03996
-10.308225,29.114174,11.996258,19.118319,1.9725294,1.5315778,-0.37611145,-0.7864802,-0.794494,-0.7061872,-0.75196224,0.060450893,0.5232941,-0.47854394,0.73374194,-0.670857,-1.7333354,-1.7680937,2.3841681,1.6100254,-0.9542463,0.7984091,-0.605768,-1.6750839,-1.706554,2.374812,1.5613657,-0.9057472,-1.4092535,-1.4349142,-1.2400097,-1.3581712,-0.28212315,0.36627325,0.046141848,0.20457959,-0.386837,0.82591337,-3.0133114,0.13209817,-3.647917,0.16067739,-0.44298172,0.7645243,0.737243,0.08472901,0.08244206,0.66520447,-1.015072,-0.7970795,-1.0577555,1.0,0.0,0.0,0.0,0.0,0.0,0.0,-0.85457957,-0.013163,-0.27591336,-4.4802904,0.4557848,-1.361537,3.0012846,19.507658,-0.26227832,-7.32979
-7.5068007,32.842804,14.298637,18.290777,1.7987814,1.5601287,-0.31926998,-0.80439,-0.78068596,-0.7022463,-0.7367704,0.18864997,0.56032646,-0.49916926,0.71797013,-0.68383664,-1.7453085,-1.7802311,2.393677,1.6173984,-0.9556641,0.78408396,-0.6200016,-1.6875579,-1.7199227,2.3736217,1.5650564,-0.90579486,-1.4396313,-1.4199735,-1.2499374,-1.3291112,-0.06503363,0.36948168,-0.021165341,0.17446907,-0.38551712,0.7887251,-3.0102985,0.1319661,-3.7424555,0.15014626,-0.45095444,0.75400794,0.7416957,0.09293829,0.07492278,0.6600277,-1.0695014,-0.78137004,-1.0532032,0.0,1.0,0.0,0.0,0.0,0.0,0.0,-0.82446903,-0.014482886,-0.23872507,-2.853918,1.3537645,-1.0545969,3.1284332,21.595346,0.16138554,-6.578061
-4.11156,36.87514,16.805727,16.497349,1.1515467,1.5558398,-0.2517111,-0.81353766,-0.7648775,-0.7014801,-0.7300483,0.17139807,0.5710913,-0.5045135,0.7027302,-0.69648933,-1.7577059,-1.7929275,2.3907616,1.6221656,-0.9562462,0.76967597,-0.6339337,-1.701123,-1.7334864,2.3721924,1.5716529,-0.9058004,-1.4402092,-1.3850279,-1.3893976,-1.3622408,-0.1639644,0.73052394,-0.0052506053,0.15651858,-0.38742447,0.7887705,-1.5192306,-0.23456089,1.1232697,0.13906927,-0.45827484,0.74319965,0.74622124,0.10001013,0.0673587,0.6546866,-1.1211871,-0.70229053,-1.0921597,0.0,1.0,0.0,0.0,0.0,0.0,0.0,-0.80651855,-0.012575537,-0.23877048,-1.3216019,2.2170067,-1.2726068,2.9598713,15.902561,0.21761656,-5.4762177
73.21015,176.0,110.0,91.369194,-6.5483303,9.036218,-0.7852371,-0.7994781,0.51194906,0.64170694,0.7387173,-0.18255594,0.6614089,-0.44783527,0.68972814,-0.5827388,-1.6369523,-1.6596147,2.3539367,1.6377938,-0.95058393,0.7598827,-0.6443688,-1.7149856,-1.7372973,2.3628693,1.5860839,-0.9047952,-0.8303459,-0.92922944,-1.3769141,-0.059479088,-1.1841004,1.687938,0.13069606,0.14133766,-0.3897667,0.7992583,-1.5177118,-0.23432638,1.0239607,0.12898917,-0.46303177,0.7363899,0.7509142,0.099138655,0.06546809,0.6496254,-0.9725946,-0.3850574,-0.54565847,1.0,0.0,0.0,0.0,0.0,0.0,0.0,-0.7913376,-0.010233313,-0.24925828,59.608448,45.72507,3.7564278,128.62701,-100.6663,97.97387,12.078659
14.502413,130.2095,85.15497,94.23677,0.4135747,6.7276196,-1.0085261,-0.825161,-0.42319193,0.22569484,0.7880021,-0.5672492,0.5334068,-0.31017345,0.6773666,-0.686688,-1.6924161,-1.6584971,2.3061442,1.6394246,-0.9358126,0.751498,-0.6520049,-1.7241008,-1.730654,2.3496017,1.6027522,-0.9037309,-0.84087104,-0.70947534,-0.7540058,0.9045686,-1.3766533,1.6650606,0.09729665,0.12617193,-0.39210892,0.8087538,-1.5161943,-0.2340921,0.9247509,0.11935151,-0.46590805,0.73479253,0.7562877,0.09156877,0.06740003,0.6442836,-0.96115416,-0.24525578,-0.034482174,1.0,0.0,0.0,0.0,0.0,0.0,0.0,-0.7761719,-0.007891089,-0.25875378,-0.9609461,21.639942,62.989616,96.0884,-19.832157,-0.6603718,-3.6476703
-17.358284,105.22968,47.651855,73.04142,2.0054882,4.0067945,-1.5927373,-0.8145459,-0.046566907,-0.41517478,0.73811346,-0.6246895,0.6101995,0.11800943,0.6700434,-0.65666157,-1.7656183,-1.6568427,2.2871327,1.6637721,-0.89193,0.7418716,-0.65659684,-1.729964,-1.7171423,2.3358955,1.6183867,-0.9027801,-1.0011601,-0.37681937,-0.5313461,1.5005051,-1.3705578,1.5321878,0.0937264,0.111021355,-0.39445114,0.81725794,-1.5146785,-0.23385806,0.8256403,0.10938132,-0.46797562,0.73681086,0.7628202,0.08097768,0.07151653,0.63752127,-1.0089502,-0.18692306,0.27576646,1.0,0.0,0.0,0.0,0.0,0.0,0.0,-0.7610213,-0.0055488646,-0.26725793,-15.4248,32.91967,21.954082,59.723377,0.08006096,-12.44185,-0.5641058
-36.179623,59.3164,14.4925165,48.776928,3.121264,1.967413,-1.5121909,-0.8071844,-0.0838604,-0.51814085,0.79914254,-0.6604719,0.60258764,-0.069005474,0.66115314,-0.66498286,-1.7817781,-1.6372281,2.2698483,1.6786455,-0.90968066,0.7303035,-0.6587655,-1.735337,-1.700125,2.3229866,1.6324229,-0.9020029,-1.206961,-0.16432883,-0.5409259,1.7695032,-1.264604,1.3619962,0.07205647,0.09588593,-0.39678574,0.8247717,-1.5131642,-0.23362426,0.72662884,0.09860829,-0.46993637,0.7405028,0.7705546,0.069898576,0.07678817,0.6288588,-1.1007037,-0.1909667,0.39536205,1.0,0.0,0.0,0.0,0.0,0.0,0.0,-0.7458859,-0.0032142699,-0.2747717,-20.05701,21.01477,-1.4440775,27.113892,10.428929,-16.690922,-2.253388
-39.1761,24.103428,-6.2030807,26.356203,2.9818466,0.4637505,-1.1179142,-0.81778866,-0.118902385,-0.58575714,0.7861729,-0.6629336,0.63937545,-0.17440788,0.64852464,-0.6706557,-1.7939128,-1.6215076,2.2566934,1.6963605,-0.91944367,0.7169435,-0.65976685,-1.7419689,-1.6822836,2.3112335,1.6448817,-0.90150887,-1.3778172,-0.079100944,-0.7050514,1.7893049,-1.1449118,1.2071631,0.041596357,0.080765635,-0.39912033,0.8312961,-1.5116513,-0.23339069,0.6277163,0.0868905,-0.47219086,0.7442951,0.77920276,0.05993663,0.08232965,0.6184435,-1.196207,-0.22677505,0.36956435,1.0,0.0,0.0,0.0,0.0,0.0,0.0,-0.7307656,-0.00087967515,-0.28129607,-16.751503,8.407889,-16.746796,2.125764,12.04257,-15.435648,-3.1375012
-32.70652,2.827467,-13.282014,12.678484,2.4934573,-0.24431735,-0.59525996,-0.8196041,-0.1869891,-0.58948624,0.7880436,-0.65762126,0.64397824,-0.22666845,0.63498306,-0.6784658,-1.8009175,-1.6034793,2.2454715,1.7092795,-0.92417574,0.70237136,-0.6608674,-1.7503803,-1.6651576,2.3005295,1.6559577,-0.90133625,-1.4829872,-0.120498836,-0.88683933,1.6874622,-1.0455629,1.0742337,0.0088824425,0.065660454,-0.40145493,0.83682406,-1.51014,-0.23315734,0.5278376,0.07432055,-0.47488022,0.7472898,0.78833866,0.051744483,0.08751098,0.60678375,-1.2782754,-0.27152625,0.27284333,1.0,0.0,0.0,0.0,0.0,0.0,0.0,-0.71566045,0.0014549196,-0.28682405,-10.297155,-4.17929,-18.332254,-10.049844,9.993291,-13.344312,-3.324366
-23.982819,-5.5417795,-12.426899,6.804371,2.0043375,-0.41779065,-0.19897205,-0.81733555,-0.25398558,-0.59765345,0.79506797,-0.6532815,0.6387057,-0.25732073,0.6206378,-0.68626595,-1.8101456,-1.5856508,2.2352014,1.7198282,-0.92706835,0.68722606,-0.66300076,-1.7603099,-1.6492312,2.2905846,1.6658664,-0.9014812,-1.524619,-0.24431604,-1.0285608,1.5615723,-0.9776658,0.9629493,-0.02229856,0.050570376,-0.4037819,0.841354,-1.5086302,-0.23292422,0.42805865,0.06105979,-0.47799683,0.7491815,0.7975995,0.045295924,0.091979176,0.5944098,-1.3435955,-0.3120777,0.1586764,1.0,0.0,0.0,0.0,0.0,0.0,0.0,-0.70057034,0.003781885,-0.291354,-4.0035963,-12.3897915,-14.215363,-12.414932,6.768012,-11.17785,-3.1164298
-13.723215,3.078915,-3.7372108,6.5756598,1.3326447,-0.16424423,0.04820449,-0.81727904,-0.26634467,-0.5817615,0.7991818,-0.6322137,0.6402866,-0.25684464,0.60549814,-0.6896352,-1.8184861,-1.569313,2.227363,1.729895,-0.9271657,0.6719787,-0.6664054,-1.7711112,-1.6343577,2.2811546,1.6748118,-0.9019037,-1.5246294,-0.3726112,-1.0971699,1.4631454,-0.9319095,0.87177515,-0.04877874,0.035495393,-0.40610886,0.8448869,-1.5071218,-0.23269135,0.3283795,0.047346927,-0.48134232,0.75011694,0.8067325,0.04019723,0.09572099,0.58172536,-1.3826346,-0.3297598,0.069363706,1.0,0.0,0.0,0.0,0.0,0.0,0.0,-0.6854954,0.0061088502,-0.2948869,0.074362755,-12.860006,-6.814623,-9.683681,4.438114,-9.113968,-2.6342623
-7.93027,12.881844,3.4924743,9.158337,0.9952227,0.1513198,0.110359296,-0.81729066,-0.29842532,-0.5822401,0.8076099,-0.6245082,0.62917686,-0.2960561,0.59024966,-0.69624794,-1.8293352,-1.5535967,2.2187037,1.7377295,-0.9315093,0.65687823,-0.6709735,-1.7821987,-1.6201155,2.2720413,1.682962,-0.9025865,-1.5050195,-0.48512146,-1.1124111,1.4117969,-0.9049878,0.7963014,-0.07479368,0.020435477,-0.40843582,0.8474238,-1.505615,-0.23245871,0.22880004,0.03336201,-0.48474503,0.7503908,0.8156289,0.035995405,0.09888731,0.5689244,-1.4063089,-0.32967234,0.01073892,1.0,0.0,0.0,0.0,0.0,0.0,0.0,-0.6704354,0.008435816,-0.29742378,1.9928455,-11.313105,-1.4245987,-4.9945116,2.4918675,-7.501745,-2.5935798
-5.38337,20.643225,8.103099,11.434267,0.8050966,0.40760192,0.11550243,-0.81702703,-0.3361041,-0.58294904,0.8009346,-0.6274339,0.63952565,-0.29305494,0.5751755,-0.7045839,-1.8404936,-1.540022,2.209298,1.7469145,-0.93189204,0.64200187,-0.67651147,-1.7932136,-1.6061404,2.2630806,1.6904674,-0.9034992,-1.4818469,-0.5769547,-1.097331,1.3929625,-0.89398044,0.73564243,-0.09679757,0.0053906166,-0.41075897,0.84896564,-1.5041097,-0.23222631,0.12932014,0.019202176,-0.48804474,0.7502427,0.8242587,0.0323531,0.10165452,0.556073,-1.4216516,-0.31663814,-0.026273077,1.0,0.0,0.0,0.0,0.0,0.0,0.0,-0.6553906,0.010758966,-0.29896563,2.331686,-9.272552,1.6339064,-1.7600536,0.87053776,-5.9939384,-2.2089272
-5.701435,25.377653,10.016088,13.322176,0.8255834,0.57689816,0.06465721,-0.8192803,-0.37140808,-0.58352077,0.797281,-0.60935444,0.635101,-0.30941084,0.56007385,-0.71365225,-1.8515657,-1.5264122,2.202145,1.7539774,-0.93444026,0.6273086,-0.6828286,-1.8040054,-1.5922072,2.2542152,1.6974463,-0.90461785,-1.4651077,-0.650334,-1.0726386,1.3939412,-0.8846912,0.6856688,-0.11691292,-0.009639202,-0.4130783,0.8495135,-1.5026059,-0.23199412,0.029939694,0.004888621,-0.49116898,0.7498198,0.83264315,0.02907739,0.10414357,0.5431518,-1.4370004,-0.2971114,-0.050790086,1.0,0.0,0.0,0.0,0.0,0.0,0.0,-0.6403608,0.013078302,-0.29951346,1.6998291,-7.447839,2.591443,0.22099018,0.69202185,-4.9281597,-2.0310493
-3.3228414,34.46254,13.938284,14.33987,0.5043514,0.7096232,0.05409737,-0.8052025,-0.364414,-0.5734681,0.8005965,-0.6329626,0.65254825,-0.29998606,0.54678833,-0.71927,-1.8613522,-1.5121475,2.190919,1.7627012,-0.93461645,0.61278796,-0.689594,-1.8145206,-1.5781806,2.2453384,1.7040076,-0.90590817,-1.447645,-0.68561524,-1.0440562,1.405857,-0.8893853,0.6467246,-0.13331014,-0.024653995,-0.41539764,0.84906816,-1.5011035,-0.23176217,-0.06934139,-0.009483293,-0.49401093,0.7492581,0.8407778,0.026046209,0.10657002,0.530148,-1.4394705,-0.26591358,-0.061348613,1.0,0.0,0.0,0.0,0.0,0.0,0.0,-0.625346,0.015397638,-0.29906815,1.7490387,-3.6603212,2.9954433,1.2664318,-0.7318139,-3.8007855,-1.7030015
-4.8788667,33.522026,12.767905,14.558224,0.61971635,0.7058592,0.028906034,-0.8008053,-0.4111613,-0.57488763,0.8015562,-0.6307485,0.6551841,-0.29976258,0.53270745,-0.7307101,-1.8720094,-1.498025,2.1822636,1.769526,-0.9358844,0.59841514,-0.6967265,-1.8248165,-1.5640166,2.2364044,1.710237,-0.9073406,-1.4336606,-0.722839,-1.0243158,1.4200585,-0.89566743,0.6152883,-0.14674276,-0.03965377,-0.41771317,0.8476308,-1.4996028,-0.23153046,-0.16852322,-0.023916887,-0.49654007,0.74857366,0.84867686,0.023226874,0.10899136,0.5170387,-1.4464331,-0.23656622,-0.074421614,1.0,0.0,0.0,0.0,0.0,0.0,0.0,-0.6103462,0.01771316,-0.2976308,1.419425,-3.854394,2.0972013,1.5166998,-0.8709192,-3.063476,-1.4003128
-7.866645,30.030859,9.884154,14.36017,0.78898567,0.6457096,-0.008006137,-0.800159,-0.44785482,-0.59404683,0.80267644,-0.64361584,0.6563969,-0.27840778,0.51839924,-0.741512,-1.8842212,-1.4837489,2.1720428,1.7758768,-0.9351814,0.58414245,-0.7042853,-1.835078,-1.5497286,2.2273712,1.7161975,-0.9088722,-1.4249954,-0.767264,-1.0265229,1.4321023,-0.90639406,0.5895926,-0.15553528,-0.05463855,-0.42002487,0.8452024,-1.4981035,-0.23129898,-0.2676059,-0.038487304,-0.49882507,0.7476897,0.85636955,0.02067255,0.11139133,0.5037813,-1.4621903,-0.2118302,-0.09674222,1.0,0.0,0.0,0.0,0.0,0.0,0.0,-0.5953614,0.020024866,-0.29520237,0.91941357,-4.5702934,-0.12652874,1.3422728,-1.277101,-2.5131583,-0.92606544
-8.461836,28.69502,8.794051,13.659392,0.8327622,0.59386826,-0.006049482,-0.78975767,-0.47522655,-0.59614795,0.80270016,-0.6369021,0.6498181,-0.28874516,0.50516665,-0.751808,-1.8946928,-1.4694586,2.163681,1.7811793,-0.9377467,0.5699661,-0.71232,-1.8454292,-1.5353549,2.2182655,1.7219272,-0.91048485,-1.4149805,-0.8159068,-1.0377686,1.439504,-0.91268754,0.56774485,-0.16327427,-0.06960835,-0.42233658,0.8417839,-1.4966056,-0.23106773,-0.36658952,-0.05323287,-0.50086975,0.74654055,0.863869,0.018428577,0.1137239,0.4903647,-1.4800718,-0.18877429,-0.124824606,1.0,0.0,0.0,0.0,0.0,0.0,0.0,-0.58039165,0.022336572,-0.29178387,1.056695,-4.9883604,-1.0350943,0.8929968,-0.8192301,-2.1435142,-0.8112967
-5.8496037,33.992214,11.256644,13.0798645,0.55717254,0.622133,0.04035956,-0.77571386,-0.46871758,-0.5894715,0.803263,-0.65539765,0.6626096,-0.2648897,0.4923947,-0.7591918,-1.9043764,-1.4550285,2.1527257,1.7881881,-0.9369738,0.555928,-0.720699,-1.8558681,-1.520941,2.2090607,1.7274795,-0.9121471,-1.4000328,-0.8456473,-1.0457916,1.4425228,-0.9238566,0.5511023,-0.16747957,-0.08456319,-0.42464828,0.8373763,-1.4951093,-0.2308367,-0.46547416,-0.068068795,-0.5026398,0.7451457,0.87113845,0.01648643,0.11605876,0.4768398,-1.4859992,-0.15973347,-0.14842193,1.0,0.0,0.0,0.0,0.0,0.0,0.0,-0.5654368,0.024648279,-0.28737628,1.5160084,-3.1068563,-0.68752766,0.41513443,-1.3320088,-1.6081095,-0.48227012
-4.829165,34.574886,11.558877,12.4188,0.475395,0.58700985,0.08948186,-0.76296425,-0.49846843,-0.5939718,0.80395037,-0.6723463,0.66515154,-0.21055406,0.47963157,-0.77054584,-1.9152653,-1.440546,2.1418262,1.7939947,-0.9332025,0.54207206,-0.72938985,-1.8663852,-1.5065138,2.199707,1.7328906,-0.9138027,-1.3806344,-0.87730575,-1.0533457,1.442932,-0.93979853,0.5379652,-0.16511528,-0.09950307,-0.42695236,0.8319776,-1.4936146,-0.23060592,-0.5646537,-0.082939126,-0.50411224,0.7435016,0.8781423,0.014843656,0.11842746,0.4632718,-1.488036,-0.13088804,-0.17393592,1.0,0.0,0.0,0.0,0.0,0.0,0.0,-0.55049694,0.026952356,-0.2819776,1.9464493,-3.2967448,-0.6261587,0.15072823,-1.8119216,-1.2565613,0.1752019
-6.859934,27.864708,8.190963,11.2672825,0.68931794,0.4703532,0.100307636,-0.75534165,-0.56095064,-0.6134552,0.79657054,-0.66334397,0.6662928,-0.19189294,0.4665379,-0.7854849,-1.9277308,-1.4268568,2.1333725,1.7995199,-0.932992,0.5284116,-0.7385985,-1.8770473,-1.4921267,2.1902428,1.7381892,-0.91541344,-1.3611141,-0.9358039,-1.0701913,1.4378638,-0.9489656,0.52713287,-0.15980372,-0.11442802,-0.42925644,0.8255879,-1.4921212,-0.23037536,-0.663734,-0.097907975,-0.5053673,0.74150103,0.8848836,0.013538653,0.120699435,0.44969913,-1.5003577,-0.10936676,-0.21294667,1.0,0.0,0.0,0.0,0.0,0.0,0.0,-0.53557193,0.029256433,-0.27558792,1.9784689,-5.964613,-1.5737772,-0.3433466,-1.094985,-1.0563016,0.50975084
-4.2600565,28.64351,9.138728,10.1443615,0.53722525,0.42369562,0.15491456,-0.727317,-0.5848363,-0.60774934,0.7967239,-0.68379563,0.6811701,-0.19017062,0.45567992,-0.7970822,-1.9378222,-1.4124544,2.1218631,1.8063062,-0.9344305,0.5150287,-0.7484223,-1.8878295,-1.477793,2.1806602,1.7434058,-0.91696984,-1.3307556,-0.99826705,-1.0804666,1.4323099,-0.9622337,0.51983416,-0.15436532,-0.12933804,-0.43156052,0.81820816,-1.4906293,-0.23014504,-0.7627153,-0.112948716,-0.50639343,0.73910254,0.8913441,0.0125551205,0.12282455,0.43619052,-1.5053989,-0.08788344,-0.25327986,1.0,0.0,0.0,0.0,0.0,0.0,0.0,-0.52066195,0.03156051,-0.26820815,3.032136,-6.3563824,-0.88994503,-0.40342808,-1.5132666,-0.6972194,0.52853227
-6.20559,23.221367,6.097549,9.053405,0.66209567,0.30990177,0.15276758,-0.71853054,-0.64186984,-0.63902426,0.7862333,-0.68843573,0.67775255,-0.15639147,0.44317567,-0.8126093,-1.9517319,-1.3991697,2.1118166,1.8111811,-0.93260896,0.50193954,-0.7590024,-1.8988254,-1.4635508,2.1709557,1.7485557,-0.9184509,-1.3015485,-1.078146,-1.1054654,1.4221181,-0.97388285,0.51348835,-0.14589424,-0.14423315,-0.43386078,0.8098393,-1.4891391,-0.22991493,-0.86159754,-0.1281036,-0.50725555,0.7362065,0.89753497,0.011944092,0.124726094,0.42276677,-1.5185306,-0.07217413,-0.30635893,1.0,0.0,0.0,0.0,0.0,0.0,0.0,-0.5057668,0.033860773,-0.2598393,2.936983,-8.087611,-2.3870707,-0.8156538,-1.3131618,-0.63112974,0.8621067
-6.4789643,23.151403,5.7681284,8.791962,0.6953459,0.29749966,0.13802755,-0.70346326,-0.676405,-0.65026367,0.78625953,-0.6786766,0.6829783,-0.16540885,0.4315932,-0.8266429,-1.9638518,-1.3849249,2.103088,1.8168535,-0.9349918,0.48914063,-0.7703816,-1.9100921,-1.4493964,2.16119,1.753654,-0.91985947,-1.2726096,-1.1581109,-1.1333206,1.4139882,-0.97827524,0.508638,-0.1389891,-0.15911338,-0.43615723,0.8004824,-1.4876503,-0.22968507,-0.960381,-0.14340167,-0.5079498,0.7327681,0.9034784,0.011719831,0.12635072,0.40942013,-1.5328699,-0.056502823,-0.3612823,1.0,0.0,0.0,0.0,0.0,0.0,0.0,-0.4908866,0.03615722,-0.25048238,2.9129744,-8.099484,-2.676177,-0.59199333,-0.5824685,-0.5005598,0.71730316
-3.3269005,26.402384,7.8264217,7.767912,0.5138501,0.305008,0.181546,-0.67637503,-0.7089292,-0.6420725,0.7749566,-0.6713254,0.6884289,-0.18801261,0.42150313,-0.84127456,-1.9742993,-1.3719007,2.0940576,1.8224969,-0.93866074,0.47667897,-0.7825143,-1.92154,-1.4353545,2.1514244,1.7587161,-0.9212232,-1.2373796,-1.2319587,-1.1482807,1.4017073,-0.97659135,0.5052981,-0.13542102,-0.17397872,-0.43845367,0.79013836,-1.4861629,-0.22945544,-1.0590658,-0.1587713,-0.5084877,0.72880536,0.90916383,0.011838644,0.12768306,0.3962044,-1.5373169,-0.0386747,-0.41330713,1.0,0.0,0.0,0.0,0.0,0.0,0.0,-0.47602126,0.03845367,-0.24013835,3.506279,-7.4903965,-1.3566494,-1.0365009,-0.0021576881,-0.3479004,0.38331747
5.0809207,27.225159,9.781469,3.7271814,0.09651327,0.053260744,0.3138239,-0.60672426,-0.75689363,-0.66237247,0.7403392,-0.6325233,0.6765211,-0.21537931,0.41600654,-0.85820365,-1.9877772,-1.3613205,2.088172,1.8263682,-0.9427612,0.46481574,-0.7953984,-1.9331596,-1.4215758,2.1418037,1.763742,-0.92257935,-1.169711,-1.3075749,-1.1659307,1.3701993,-0.9577731,0.50148493,-0.1355544,-0.1888292,-0.4407463,0.77880824,-1.484677,-0.22922602,-1.157652,-0.17404625,-0.50889206,0.7242677,0.9145473,0.012304213,0.12862957,0.38328338,-1.5227052,-0.028592931,-0.4730461,1.0,0.0,0.0,0.0,0.0,0.0,0.0,-0.4611708,0.0407463,-0.22880822,6.656766,-7.6435804,-1.5735149,-3.025651,1.7029047,-0.39680004,0.020709634
20.621212,37.361744,17.456768,0.34161758,-0.689924,-0.15208465,0.5500729,-0.5024186,-0.76769274,-0.63920236,0.7367599,-0.6389348,0.671653,-0.103198424,0.41457388,-0.8721677,-1.9970798,-1.3478998,2.0779102,1.8309072,-0.9328992,0.45402157,-0.808891,-1.9447944,-1.408108,2.132347,1.7687316,-0.9238592,-1.0502244,-1.3634429,-1.1614639,1.3387864,-0.9422291,0.498169,-0.12553796,-0.20366484,-0.44303513,0.76649296,-1.4831927,-0.22899684,-1.2561395,-0.1888746,-0.5092468,0.71922535,0.919513,0.013031045,0.12923852,0.37097636,-1.4675618,-0.024608899,-0.5206557,1.0,0.0,0.0,0.0,0.0,0.0,0.0,-0.44633514,0.04303512,-0.21649295,11.681652,-5.656147,0.76794624,-3.177166,1.3062716,-0.30071735,0.9961158
24.64734,41.855152,19.874277,0.049229622,-0.8621526,-0.21538174,0.5830928,-0.45864314,-0.788055,-0.6380286,0.726157,-0.629999,0.6605658,-0.078037456,0.40815726,-0.8876965,-2.0085974,-1.3354923,2.0693471,1.8347882,-0.9316629,0.4444691,-0.82284135,-1.956332,-1.3949378,2.1230392,1.7736831,-0.92502266,-0.92455554,-1.4058115,-1.1500219,1.3096,-0.92745835,0.4942253,-0.11335584,-0.21848564,-0.44532394,0.7531936,-1.4817098,-0.2287679,-1.3545287,-0.20307621,-0.5095787,0.71376187,0.9240285,0.013951562,0.12958501,0.35942224,-1.4019332,-0.024408981,-0.56106544,0.0,1.0,0.0,0.0,0.0,0.0,0.0,-0.43151432,0.045323938,-0.2031936,12.276804,-4.3141365,1.4893532,-2.9908657,1.2017369,-0.36667585,1.1962667
33.807037,46.70473,22.835142,-2.4693384,-1.4325832,-0.4851563,0.701762,-0.34721905,-0.78616655,-0.6725674,0.704061,-0.65622497,0.6532716,0.03352251,0.40974718,-0.901458,-2.0235887,-1.3245317,2.0574167,1.8390102,-0.92167044,0.4364361,-0.837048,-1.9679887,-1.3821199,2.1137564,1.7787215,-0.926077,-0.75745845,-1.4259626,-1.192624,1.2625012,-0.91462415,0.5648006,-0.112065054,-0.23343804,-0.4465065,0.7424219,-1.390177,0.101628676,-0.013900034,-0.21644446,-0.50997543,0.7078734,0.9280621,0.015095323,0.12983671,0.34873378,-1.314956,-0.028895525,-0.61307204,0.0,1.0,0.0,0.0,0.0,0.0,0.0,-0.41656193,0.046506494,-0.19242191,17.340326,-2.1184444,-7.2137356,-6.2808037,2.3242116,14.55906,-1.9823327
-6.8218374,72.17246,24.56755,20.092333,0.52547485,1.2617105,0.064993076,-0.61227393,-0.6602416,-0.5113756,0.800337,-0.7154733,0.64171606,0.22700293,0.3752087,-0.9030722,-2.0191262,-1.3020862,2.0422091,1.842893,-0.9033767,0.42850104,-0.8507523,-1.9792726,-1.3691995,2.104399,1.7843348,-0.9269067,-0.8053633,-1.3527571,-1.1060919,1.3018677,-0.94461256,0.5605399,-0.07380106,-0.2473294,-0.4454918,0.74154407,-1.3887872,0.101527065,-0.11240783,-0.22943398,-0.50990295,0.7021309,0.9318055,0.01598403,0.1305337,0.33829564,-1.289964,0.027989332,-0.56759894,0.0,1.0,0.0,0.0,0.0,0.0,0.0,-0.40267056,0.045491785,-0.19154406,-4.747927,7.0802927,8.879042,3.9532661,-3.4529686,-0.34520626,3.6498382
-21.731739,85.43718,25.26464,28.320213,1.1741991,1.7988579,-0.20575953,-0.62671244,-0.5792638,-0.53230315,0.8095004,-0.71340126,0.66772187,0.25962558,0.3658298,-0.90867865,-2.032503,-1.2882495,2.033059,1.851107,-0.9009442,0.41962567,-0.8632807,-1.9897592,-1.3557489,2.0947363,1.7899176,-0.9273435,-0.91443586,-1.2205695,-1.0289042,1.359605,-0.9748691,0.55769587,-0.034499243,-0.26120687,-0.44447708,0.73968184,-1.3873987,0.10142556,-0.21081713,-0.24232553,-0.5090828,0.6970685,0.9353848,0.016700624,0.13208018,0.3276143,-1.2852676,0.10851224,-0.49161956,0.0,1.0,0.0,0.0,0.0,0.0,0.0,-0.3887931,0.044477075,-0.18968183,-10.7608795,12.918448,7.90112,5.8218956,-3.5218954,-0.19915104,3.6846719
-31.324236,80.84929,19.442312,29.654974,1.521591,1.6529579,-0.34954906,-0.64587027,-0.5476918,-0.6200065,0.800501,-0.7149994,0.6517332,0.23947906,0.35503864,-0.9180499,-2.05176,-1.2756988,2.0232365,1.8550909,-0.9033956,0.4095458,-0.8744711,-1.9999845,-1.3417852,2.0847876,1.7953936,-0.9274255,-1.0385257,-1.0863019,-1.0201352,1.4090062,-1.0028918,0.54454476,-0.00027077776,-0.27507043,-0.44346237,0.7368231,-1.3860116,0.101324156,-0.31088558,-0.25532535,-0.5074768,0.69263506,0.9388748,0.017520318,0.13454081,0.31639495,-1.3014696,0.18671648,-0.43240982,0.0,1.0,0.0,0.0,0.0,0.0,0.0,-0.37492955,0.043462366,-0.18682307,-12.224054,13.119578,1.0036707,5.0768614,-3.224218,-1.2943864,3.1826813
-21.296936,72.33821,17.990149,23.389738,1.0986346,1.1835831,-0.16759154,-0.6120989,-0.54102516,-0.6172029,0.7962469,-0.70618737,0.66754466,0.25994912,0.34833592,-0.92857367,-2.0617049,-1.2621605,2.014169,1.862148,-0.9014306,0.3986248,-0.8845944,-2.0103147,-1.3274877,2.074652,1.8007532,-0.927189,-1.1096522,-0.9885641,-1.0369471,1.4368225,-1.0184197,0.5329762,0.030902136,-0.28892016,-0.44244766,0.7329644,-1.3846258,0.10122285,-0.41085395,-0.26838675,-0.50522995,0.68859595,0.94223565,0.018627359,0.13771215,0.30476257,-1.3042321,0.24581662,-0.3988861,0.0,1.0,0.0,0.0,0.0,0.0,0.0,-0.3610798,0.042447656,-0.18296438,-7.0331335,9.512913,-1.4981985,2.8825521,-1.9367695,-1.1786103,2.9115756
-23.997454,56.793304,10.58868,19.775333,1.1487935,0.8320716,-0.122726105,-0.6632937,-0.53690064,-0.68451804,0.7951244,-0.7172543,0.64074093,0.36194915,0.33229542,-0.93828446,-2.0787666,-1.2479752,2.0029266,1.8648273,-0.8909941,0.3870701,-0.89407104,-2.0212018,-1.3130491,2.0643942,1.8059851,-0.92659867,-1.1704526,-0.93472385,-1.1055228,1.4467546,-1.0292138,0.51963824,0.067807265,-0.30275604,-0.44143295,0.72810674,-1.3832414,0.10112165,-0.5107224,-0.28159225,-0.5024986,0.68461066,0.945453,0.020275926,0.14132765,0.29280367,-1.3223388,0.29256898,-0.40216,0.0,1.0,0.0,0.0,0.0,0.0,0.0,-0.34724393,0.041432947,-0.17810673,-5.983877,5.158925,-6.7299604,1.172185,-1.3516903,-1.4143109,3.5320072
-16.778942,52.04928,10.470532,15.797852,0.8825304,0.6024656,0.01614261,-0.65867513,-0.5192036,-0.6925802,0.79838485,-0.70289505,0.6508338,0.41672167,0.32120258,-0.9459914,-2.0904598,-1.2332106,1.9941047,1.8710685,-0.8849265,0.37514678,-0.90320534,-2.0327833,-1.2985857,2.0541098,1.8111025,-0.92563164,-1.1994872,-0.90687954,-1.175067,1.446705,-1.0289143,0.5087591,0.1059248,-0.31657806,-0.44042587,0.7222512,-1.3818585,0.10102055,-0.610491,-0.29490942,-0.49937057,0.68049073,0.94849104,0.022538211,0.14517225,0.28068084,-1.3309263,0.32908297,-0.41862568,0.0,1.0,0.0,0.0,0.0,0.0,0.0,-0.33342192,0.040425867,-0.17225116,-2.863288,2.5890827,-6.788087,0.1406908,-0.23322105,-1.1878729,3.6707804
-6.103362,45.199986,10.940496,10.452345,0.51255673,0.32380208,0.19922145,-0.6309294,-0.5491175,-0.6918077,0.7891773,-0.69538075,0.65699375,0.4343413,0.31205383,-0.95811707,-2.101964,-1.2196679,1.9845717,1.8768018,-0.8821975,0.36322585,-0.91236824,-2.0449102,-1.2842062,2.0438788,1.8161303,-0.9243041,-1.1896766,-0.91987145,-1.2242353,1.435535,-1.0220138,0.500335,0.14125085,-0.33038628,-0.4394188,0.71539867,-1.380477,0.10091955,-0.7101598,-0.30821314,-0.49599457,0.6760899,0.95130223,0.025346259,0.14900169,0.26866367,-1.325936,0.3510318,-0.450247,0.0,1.0,0.0,0.0,0.0,0.0,0.0,-0.3196137,0.039418787,-0.16539866,0.953722,-1.4452219,-4.7113657,-1.013732,0.4430771,-0.9389281,3.4317598
5.0652304,46.531292,14.100941,6.9624996,0.048246443,0.14050299,0.35897946,-0.59316504,-0.5440793,-0.7046757,0.7862341,-0.71340466,0.651499,0.49680656,0.30390933,-0.9667762,-2.1153777,-1.2055827,1.9725384,1.8812802,-0.8746235,0.35168952,-0.9217272,-2.0574691,-1.2699875,2.033809,1.8212109,-0.92257524,-1.141702,-0.94162303,-1.2667305,1.4169693,-0.9996417,0.51444906,0.18333417,-0.3433516,-0.43795776,0.7101544,-1.2520295,0.15528633,-0.41701072,-0.32132944,-0.49247742,0.6713478,0.9538366,0.028565539,0.15268938,0.2570321,-1.3026905,0.36347604,-0.4855846,0.0,1.0,0.0,0.0,0.0,0.0,0.0,-0.30664837,0.037957758,-0.1601544,4.499364,-2.2791982,-3.1666517,-1.5026093,0.22586584,-0.56732893,3.6857605
1.1937361,49.05916,14.293296,8.881754,0.2997505,0.28783542,0.30323702,-0.626506,-0.54016525,-0.7039401,0.7859387,-0.7030522,0.599403,0.5190534,0.28903893,-0.9757437,-2.1278632,-1.1913936,1.9635037,1.8811512,-0.8706699,0.34046376,-0.9312773,-2.070252,-1.255913,2.0238667,1.8263068,-0.92048854,-1.1164874,-0.95994484,-1.281175,1.4044447,-0.9936494,0.5077591,0.21686193,-0.3557288,-0.43637466,0.7057935,-1.232039,0.15968575,-0.44147635,-0.33424133,-0.4887848,0.66632766,0.9561098,0.032124024,0.15623735,0.24578826,-1.2825192,0.3803145,-0.5105381,0.0,1.0,0.0,0.0,0.0,0.0,0.0,-0.29427117,0.03637466,-0.15579349,2.4344683,-1.9694448,-1.1632681,-1.2076616,0.3153801,-0.7751703,3.2734485
2.4794464,55.266026,17.176472,10.188391,0.38789797,0.43391842,0.29204234,-0.61320615,-0.53849375,-0.673529,0.78777665,-0.69212157,0.61434865,0.5305547,0.27914315,-0.9851267,-2.137605,-1.1771353,1.9546545,1.8877417,-0.8674331,0.32945067,-0.9409523,-2.0829206,-1.2419167,2.013986,1.8313451,-0.9180969,-1.0965953,-0.9704874,-1.2612419,1.3982697,-0.9874518,0.50221545,0.24625054,-0.36785504,-0.43473816,0.70127547,-1.2056627,0.16498609,-0.45398566,-0.3469093,-0.48490524,0.6611705,0.9581349,0.035901755,0.15969045,0.23492017,-1.2565712,0.4009827,-0.52044815,0.0,1.0,0.0,0.0,0.0,0.0,0.0,-0.28214493,0.034738153,-0.15127546,1.8785477,-1.2033701,2.3348093,-0.605464,0.25166273,-0.6539345,2.837822
1.9150572,54.143528,16.583921,10.206881,0.45831537,0.41668966,0.27793905,-0.601289,-0.56175095,-0.6747539,0.78290594,-0.6928513,0.5991704,0.5485147,0.26932177,-0.9971274,-2.1503959,-1.1636261,1.944701,1.8912622,-0.8632454,0.31861067,-0.9507904,-2.0953407,-1.2279643,2.0041382,1.8363112,-0.91543543,-1.0800861,-0.988833,-1.2341859,1.3942976,-0.9852654,0.49450654,0.27248025,-0.3797251,-0.43305588,0.6966074,-1.1801862,0.16939314,-0.46953124,-0.35933754,-0.4808159,0.6559036,0.95993155,0.039840534,0.16303599,0.22441778,-1.2329488,0.42053708,-0.5317068,0.0,1.0,0.0,0.0,0.0,0.0,0.0,-0.27027488,0.03305587,-0.1466074,1.5472889,-1.979661,3.0453444,-0.3679037,-0.14646053,-0.8727133,2.5381207
7.880713,52.579296,17.166887,7.9706426,0.23806319,0.2384736,0.33972806,-0.5561114,-0.5837586,-0.66862285,0.7774322,-0.693541,0.5744374,0.56581736,0.26299953,-1.0091662,-2.162203,-1.1502211,1.9347842,1.893755,-0.8588537,0.30809015,-0.9608822,-2.1074867,-1.2140577,1.9942957,1.8411876,-0.9125306,-1.0430967,-1.0163404,-1.2071627,1.3893952,-0.984786,0.48513094,0.2962925,-0.39132914,-0.43135452,0.6917533,-1.1531737,0.170187,-0.48906967,-0.37147126,-0.4766121,0.6504871,0.96150357,0.043927446,0.16623397,0.2143537,-1.2015848,0.42984855,-0.5479646,0.0,1.0,0.0,0.0,0.0,0.0,0.0,-0.25867084,0.031354517,-0.14175332,3.5677433,-2.8744936,3.0506372,-0.48949718,-0.30856133,-1.0308623,2.300948
14.189337,54.973827,19.106241,6.672535,0.02937144,0.119835615,0.3881355,-0.5147212,-0.5864831,-0.6528567,0.7788197,-0.6958531,0.56444025,0.5854116,0.25661802,-1.0195305,-2.1727724,-1.1361758,1.9247104,1.8976316,-0.8539894,0.29808652,-0.9712181,-2.1193538,-1.2001854,1.9844493,1.8459724,-0.9093998,-0.986645,-1.0397489,-1.1788342,1.3863763,-0.98563987,0.47613078,0.31830627,-0.4026297,-0.42966843,0.6867335,-1.1216835,0.16773291,-0.5046057,-0.38321388,-0.47237778,0.6449271,0.9628465,0.048136383,0.16929393,0.20481434,-1.1598127,0.43021762,-0.5616568,0.0,1.0,0.0,0.0,0.0,0.0,0.0,-0.24737027,0.02966842,-0.13673347,5.47843,-2.455473,3.212309,-0.35004616,-0.46163797,-0.9857297,2.1060765
14.357017,50.797523,17.402607,5.613012,0.017166704,-0.0059095025,0.3903667,-0.4954098,-0.6195526,-0.6490216,0.7708821,-0.697098,0.5183514,0.5953102,0.24854554,-1.0331733,-2.1842558,-1.1230972,1.9147395,1.8978076,-0.8498688,0.28865415,-0.9818763,-2.1309922,-1.1863648,1.9745892,1.8506371,-0.9060678,-0.92923206,-1.0748405,-1.1577598,1.3803686,-0.98734516,0.46312916,0.33790833,-0.41363755,-0.4280243,0.6814897,-1.0931237,0.16341649,-0.5292469,-0.39456928,-0.46816635,0.6391636,0.96397966,0.052497152,0.17217098,0.19581686,-1.1219978,0.42541605,-0.584293,0.0,1.0,0.0,0.0,0.0,0.0,0.0,-0.23636243,0.028024286,-0.1314897,5.588019,-3.613925,2.459693,-0.6211519,-0.51801205,-1.3956487,1.8853068
20.885313,48.678448,17.864624,3.318286,-0.2180902,-0.21427357,0.44250068,-0.43034372,-0.6472248,-0.6419175,0.77266026,-0.7006181,0.49089155,0.5941141,0.24561977,-1.0465988,-2.195184,-1.1090988,1.9045274,1.8997263,-0.8466564,0.2799642,-0.9929494,-2.142459,-1.1725897,1.9647045,1.8551611,-0.902565,-0.849515,-1.1185127,-1.1419125,1.3765088,-0.9899934,0.44864097,0.35428503,-0.42434928,-0.42645264,0.6759723,-1.0632492,0.15510929,-0.55776596,-0.40549764,-0.46409607,0.6331298,0.9649132,0.057025973,0.17482363,0.18742265,-1.0777923,0.4084637,-0.6127683,0.0,1.0,0.0,0.0,0.0,0.0,0.0,-0.2256507,0.02645263,-0.12597227,7.794535,-4.455781,1.9428253,-0.427413,-0.60061216,-1.5470028,1.5666902
21.663816,54.062145,20.235296,4.6474094,-0.030936897,-0.058153987,0.41557977,-0.4128572,-0.65484387,-0.5710932,0.7742775,-0.6840067,0.532861,0.5923449,0.23867849,-1.0584338,-2.1995683,-1.0951619,1.8963039,1.9084471,-0.8433305,0.2720029,-1.0044116,-2.1534946,-1.1588335,1.9548465,1.8595859,-0.89891857,-0.77893114,-1.1557975,-1.0896108,1.3752062,-0.9856027,0.44008467,0.36786118,-0.43472993,-0.4249611,0.67025584,-1.0290654,0.14691335,-0.5748301,-0.41596407,-0.46016312,0.6269169,0.96566916,0.061557457,0.17725226,0.17965338,-1.03096,0.39493498,-0.62725616,0.0,1.0,0.0,0.0,0.0,0.0,0.0,-0.21527004,0.024961084,-0.12025583,6.869936,-3.8296938,5.6399345,-0.18649101,0.038933754,-0.96039176,1.2984872
20.530893,57.7461,21.558397,6.0584803,0.22747388,0.081638455,0.363276,-0.3951032,-0.67373455,-0.5063813,0.770809,-0.6639893,0.5308001,0.5592699,0.23249258,-1.071785,-2.2041328,-1.0817527,1.8884475,1.9126658,-0.8429916,0.26463625,-1.0162276,-2.1637485,-1.1450948,1.9450976,1.863936,-0.89517844,-0.7231543,-1.1904687,-1.0027989,1.3733097,-0.9727157,0.43312058,0.37595484,-0.44475156,-0.42354584,0.66442966,-0.9926627,0.13920718,-0.58398366,-0.42597315,-0.45632553,0.6206417,0.966288,0.06589401,0.17943682,0.17247593,-0.9856047,0.38593686,-0.63072103,0.0,1.0,0.0,0.0,0.0,0.0,0.0,-0.20524842,0.023545831,-0.11442965,5.394876,-3.5784245,9.120822,-0.2398014,0.8374691,-0.8043051,0.7740259
22.950508,61.37201,23.035774,6.3744884,0.24248934,0.07903957,0.34575656,-0.34834865,-0.6819433,-0.47004095,0.77355254,-0.6609994,0.5336168,0.5440597,0.22980139,-1.0844219,-2.2107525,-1.0677395,1.8789976,1.9172976,-0.84077245,0.25785547,-1.0283278,-2.1730826,-1.131358,1.9354842,1.8682308,-0.8913837,-0.6637094,-1.2167083,-0.90835315,1.3735782,-0.95911735,0.4279292,0.38053897,-0.45438078,-0.42222595,0.6585667,-0.952507,0.12968017,-0.5859253,-0.43550017,-0.4526062,0.6143824,0.96679175,0.06993623,0.18140914,0.16587158,-0.9363804,0.37398598,-0.6272395,0.0,1.0,0.0,0.0,0.0,0.0,0.0,-0.1956192,0.022225946,-0.1085667,5.7544827,-2.74086,9.909773,-0.037932396,0.8748293,-0.6215751,0.4174471
30.353937,73.92754,29.671507,7.492603,0.38560236,0.28561056,0.35810035,-0.3141735,-0.67600596,-0.3008453,0.7702375,-0.63542736,0.5595742,0.5181415,0.22643812,-1.0959284,-2.2031672,-1.0543343,1.8719414,1.9241883,-0.83956957,0.2516718,-1.0405673,-2.1808834,-1.1176347,1.9260675,1.8725067,-0.887569,-0.6040339,-1.226995,-0.73514557,1.3713712,-0.93785447,0.42726108,0.3816513,-0.46350884,-0.4210205,0.652902,-0.8991727,0.11752371,-0.55910724,-0.44441178,-0.44898987,0.6083882,0.9672017,0.07334393,0.1832151,0.15991741,-0.8710607,0.361137,-0.59336764,0.0,1.0,0.0,0.0,0.0,0.0,0.0,-0.18649113,0.021020502,-0.102901995,5.734575,-1.1592388,17.911016,-0.35853386,1.4809728,-0.14523268,0.07007122
12.716311,68.32114,23.538555,11.189564,1.0315973,0.4394789,0.17035393,-0.367528,-0.70438886,-0.27016994,0.76043814,-0.6172135,0.52011126,0.48648545,0.21491899,-1.1110061,-2.2079003,-1.0415908,1.8643461,1.9245179,-0.8389205,0.24568611,-1.0529689,-2.1870518,-1.1039723,1.9168787,1.8767412,-0.8837744,-0.5971485,-1.2451138,-0.575854,1.3646281,-0.914259,0.42196837,0.37881726,-0.47219673,-0.41988754,0.6473937,-0.85850257,0.11178164,-0.54782873,-0.45289108,-0.44535828,0.60266507,0.96758235,0.07609662,0.18480226,0.15440753,-0.8356895,0.36764064,-0.56844884,0.0,1.0,0.0,0.0,0.0,0.0,0.0,-0.17780325,0.019887537,-0.09739369,0.56995153,-1.9473791,16.378271,-0.67486763,1.8197536,-0.60122013,-0.26417375
23.497147,83.60954,32.861248,12.007052,1.2860681,0.75285625,0.21898666,-0.3387045,-0.7023415,0.043882858,0.7501563,-0.5919779,0.5206939,0.48448163,0.21181566,-1.123203,-2.1826634,-1.0289567,1.8576809,1.9288106,-0.83532625,0.23974685,-1.0655078,-2.1905613,-1.0904282,1.9079715,1.8809326,-0.88000584,-0.5933634,-1.2572129,-0.27357125,1.3507613,-0.8855328,0.41816553,0.37639824,-0.4803449,-0.4188347,0.6422878,-0.80023503,0.10265565,-0.497926,-0.46084753,-0.44166946,0.59750354,0.96798474,0.07770031,0.1861239,0.1494191,-0.7779397,0.37409404,-0.50165707,0.0,1.0,0.0,0.0,0.0,0.0,0.0,-0.16965508,0.01883468,-0.09228778,0.22552013,-1.3596296,30.828625,-1.4538288,2.2426605,-0.51704645,-0.06927848
7.1707573,87.12264,31.668602,17.784077,2.321169,1.1927485,-0.00054269657,-0.4356366,-0.7221876,0.2643723,0.73958135,-0.548948,0.47284174,0.42704287,0.19618319,-1.1377265,-2.164124,-1.0164701,1.8530767,1.9282167,-0.83730155,0.2333458,-1.0782164,-2.1904485,-1.077052,1.8994265,1.8850484,-0.8762995,-0.65577,-1.2760506,0.107959725,1.3332992,-0.84661716,0.40950537,0.3691653,-0.4879447,-0.41781616,0.63774174,-0.7467396,0.10150824,-0.44062126,-0.46839625,-0.43768692,0.59314907,0.96850103,0.07771932,0.1870782,0.14479993,-0.74361247,0.40916952,-0.4164783,0.0,1.0,0.0,0.0,0.0,0.0,0.0,-0.16205528,0.017816156,-0.08774173,-6.2646627,-2.033615,38.628586,-1.7294168,3.1809092,-0.8316994,-0.5888462
4.7361813,81.06328,28.707018,15.684139,2.3182473,1.0594466,-0.0042977175,-0.4468313,-0.7389416,0.38598195,0.67010146,-0.4775018,0.353658,0.374696,0.18866268,-1.1521106,-2.1518502,-1.0100418,1.8516762,1.9204142,-0.8388299,0.22625883,-1.0911559,-2.1866539,-1.0641412,1.8914243,1.888989,-0.872702,-0.72622997,-1.3003308,0.47113326,1.2770618,-0.7867917,0.38907513,0.35709974,-0.49505123,-0.41680145,0.6336699,-0.69918597,0.101255625,-0.39737964,-0.47564626,-0.43336105,0.5895279,0.96919173,0.07614735,0.1874618,0.1404532,-0.7160773,0.44429365,-0.34713128,0.0,1.0,0.0,0.0,0.0,0.0,0.0,-0.15494874,0.016801447,-0.0836699,-7.0062637,-2.5581598,36.62922,-5.5716753,5.402839,-1.9718647,-1.0501027
3.4314995,68.80832,22.791277,11.494692,2.1476815,0.6494379,0.003809262,-0.45045093,-0.7495111,0.42390049,0.5868523,-0.2686877,0.2267379,0.34297687,0.18121374,-1.1661069,-2.1442637,-1.005456,1.8645555,1.9116628,-0.8384043,0.21857135,-1.1043414,-2.180005,-1.0521363,1.8845667,1.8926324,-0.8692465,-0.7827157,-1.3249468,0.730129,1.1752996,-0.6535257,0.3563275,0.34223416,-0.5017766,-0.41578674,0.6298034,-0.66465044,0.10131464,-0.38546717,-0.48271438,-0.42873,0.5863384,0.97010756,0.07327586,0.1869234,0.1363144,-0.7019497,0.47221693,-0.31253088,0.0,1.0,0.0,0.0,0.0,0.0,0.0,-0.1482234,0.015786737,-0.07980341,-5.5883527,-2.5618792,26.018143,-10.09388,12.962162,-3.1966805,-1.3331115
-12.832621,59.34314,13.969943,14.344744,2.5720525,0.36936107,-0.21198925,-0.49441293,-0.74296856,0.37420103,0.59172374,-0.052511718,0.15918306,0.38456425,0.16913006,-1.1786382,-2.142585,-0.9929639,1.8793155,1.9085506,-0.83079004,0.21029474,-1.1176795,-2.1719687,-1.0409974,1.8795677,1.8959097,-0.86590147,-0.84227586,-1.3368827,0.8275607,1.0940892,-0.4489526,0.31847408,0.3324945,-0.508303,-0.41472626,0.6258343,-0.6500726,0.10751649,-0.4041924,-0.48991588,-0.42375565,0.5832833,0.9712889,0.06958704,0.18526182,0.13203539,-0.72513396,0.511084,-0.30611283,0.0,1.0,0.0,0.0,0.0,0.0,0.0,-0.14169699,0.014726251,-0.075834274,-5.843878,-1.2444019,9.600091,-7.9457045,20.426374,-3.69398,-0.80260634
2.2484546,57.872227,14.942298,10.166977,2.002941,-0.15600899,-0.13844804,-0.4134526,-0.73961,0.38714164,0.5781852,0.13056861,0.12396915,0.41535053,0.16894948,-1.1916405,-2.1332545,-0.98317885,1.8926246,1.9083066,-0.8243664,0.20195563,-1.1310557,-2.163643,-1.0304956,1.8769267,1.898817,-0.86261714,-0.83103377,-1.3381858,0.83430517,1.0361748,-0.20291269,0.28167152,0.32740527,-0.514665,-0.41366196,0.6216594,-0.63322765,0.10613494,-0.42583036,-0.49727485,-0.41859055,0.5802041,0.972713,0.065354116,0.18244348,0.12756379,-0.7384613,0.52329105,-0.31142262,0.0,1.0,0.0,0.0,0.0,0.0,0.0,-0.13533497,0.013661951,-0.071659386,1.1573315,-0.19085407,0.6492257,-5.617285,24.541265,-3.6097348,-0.38142204
20.955332,52.493805,14.917063,3.371488,0.936504,-0.8098786,0.06073059,-0.32477707,-0.740306,0.30386385,0.54587203,0.25509715,0.013401515,0.4888179,0.16947792,-1.2050864,-2.1332564,-0.97590846,1.9024364,1.9001571,-0.81373537,0.19429392,-1.1444091,-2.1559954,-1.0204961,1.8767327,1.9013169,-0.8593199,-0.7447839,-1.3347306,0.7421033,0.98834723,0.041036088,0.23948428,0.33070534,-0.52083945,-0.41269302,0.61718935,-0.6139361,0.09438313,-0.45833513,-0.50463825,-0.41358566,0.5768955,0.97430056,0.060925893,0.17853184,0.12309642,-0.7344512,0.49821386,-0.3402777,0.0,1.0,0.0,0.0,0.0,0.0,0.0,-0.12916052,0.012693018,-0.067189336,8.5597515,0.268507,-9.091103,-4.6261907,24.269775,-4.174876,0.40662885
31.00713,53.016983,15.73354,1.023064,0.3367095,-1.2011579,0.14378038,-0.2623654,-0.72939193,0.23966233,0.5532014,0.34665945,-0.15904593,0.52347434,0.16805738,-1.2173482,-2.132029,-0.965176,1.9113986,1.8854123,-0.8069725,0.18780163,-1.157669,-2.1496446,-1.0107745,1.8787603,1.9033066,-0.8559582,-0.6177351,-1.3232412,0.6004001,0.96737915,0.25602704,0.18554325,0.33807868,-0.5267956,-0.41188812,0.612404,-0.5913274,0.07623472,-0.48978904,-0.5118889,-0.40898514,0.57325566,0.97597104,0.05662225,0.1736981,0.11875694,-0.72060543,0.45067313,-0.37473834,0.0,1.0,0.0,0.0,0.0,0.0,0.0,-0.12320435,0.011888117,-0.062403977,12.601435,1.0586023,-13.951742,-1.9455314,21.348146,-5.367446,0.7874131
42.589035,59.692074,20.748283,-1.0729264,0.030452266,-1.2231053,0.25693706,-0.20319885,-0.7307143,0.3179598,0.5227757,0.42945787,-0.2863962,0.52662003,0.16748175,-1.2307404,-2.1178486,-0.9584969,1.9217061,1.8746669,-0.8032962,0.18267903,-1.1708277,-2.1441638,-1.0012761,1.8826809,1.9047045,-0.85252106,-0.47752154,-1.3136293,0.5318281,0.944417,0.43622681,0.12460018,0.3455457,-0.5324451,-0.41129684,0.607459,-0.55799276,0.05344977,-0.50066125,-0.5188629,-0.40496826,0.5693957,0.9776784,0.052333705,0.16805433,0.114733025,-0.6881693,0.39031592,-0.39278832,0.0,1.0,0.0,0.0,0.0,0.0,0.0,-0.1175549,0.0112968385,-0.057458997,13.902819,0.8448839,-6.521404,-2.1876812,17.776716,-6.073238,0.767076
