Afshin1997/kuka_rl_ros2/src/catch_and_throw/input_files/idealpd/polynomial_regressor/optimizer_files/env_375_data.csv
torque0,torque1,torque2,torque3,torque4,torque5,torque6,action0,action1,action2,action3,action4,action5,action6,set_target_0,set_target_1,set_target_2,set_target_3,set_target_4,set_target_5,set_target_6,joint_pos_0,joint_pos_1,joint_pos_2,joint_pos_3,joint_pos_4,joint_pos_5,joint_pos_6,joint_vel_0,joint_vel_1,joint_vel_2,joint_vel_3,joint_vel_4,joint_vel_5,joint_vel_6,tennisball_pos_0,tennisball_pos_1,tennisball_pos_2,tennisball_lin_vel_0,tennisball_lin_vel_1,tennisball_lin_vel_2,end_effector_pos_0,end_effector_pos_1,end_effector_pos_2,end_effector_rot_0,end_effector_rot_1,end_effector_rot_2,end_effector_rot_3,end_effector_lin_vel_0,end_effector_lin_vel_1,end_effector_lin_vel_2,obs_task_0,obs_task_1,obs_task_2,obs_task_3,obs_task_4,obs_task_5,obs_task_6,to_final_target_0,to_final_target_1,to_final_target_2,joint_acc_0,joint_acc_1,joint_acc_2,joint_acc_3,joint_acc_4,joint_acc_5,joint_acc_6
0.0,0.0,0.0,0.0,0.0,0.0,0.0,0.0,0.0,0.0,0.0,0.0,0.0,0.0,1.7802359,-1.0646509,-1.8151424,-1.1170107,1.9373155,1.1170107,-0.91629785,1.7802359,-1.0646509,-1.8151424,-1.1170107,1.9373155,1.1170107,-0.91629785,0.0,0.0,0.0,0.0,0.0,0.0,0.0,3.1067848,-0.67191315,0.1436377,-3.3904133,0.17064907,5.7298408,0.5304184,-0.45448303,0.693097,0.5745483,0.17512383,0.15255436,0.7848268,0.0,0.0,0.0,1.0,0.0,0.0,0.0,0.0,0.0,0.0,-3.756785,0.27191314,0.4063623,0.0,0.0,0.0,0.0,0.0,0.0,0.0
0.0,0.0,0.0,0.0,0.0,0.0,0.0,0.0,0.0,0.0,0.0,0.0,0.0,0.0,1.7802359,-1.0646509,-1.8151424,-1.1170107,1.9373155,1.1170107,-0.91629785,1.7802359,-1.0646509,-1.8151424,-1.1170107,1.9373155,1.1170107,-0.91629785,0.0,0.0,0.0,0.0,0.0,0.0,0.0,3.1067848,-0.67191315,0.1436377,-3.3904133,0.17064907,5.7298408,0.5304184,-0.45448303,0.693097,0.5745483,0.17512383,0.15255436,0.7848268,0.0,0.0,0.0,1.0,0.0,0.0,0.0,0.0,0.0,0.0,-3.756785,0.27191314,0.4063623,0.0,0.0,0.0,0.0,0.0,0.0,0.0
0.0,0.0,0.0,0.0,0.0,0.0,0.0,0.0,0.0,0.0,0.0,0.0,0.0,0.0,1.7802359,-1.0646509,-1.8151424,-1.1170107,1.9373155,1.1170107,-0.91629785,1.7802359,-1.0646509,-1.8151424,-1.1170107,1.9373155,1.1170107,-0.91629785,0.0,0.0,0.0,0.0,0.0,0.0,0.0,3.1067848,-0.67191315,0.1436377,-3.3904133,0.17064907,5.7298408,0.5304184,-0.45448303,0.693097,0.5745483,0.17512383,0.15255436,0.7848268,0.0,0.0,0.0,1.0,0.0,0.0,0.0,0.0,0.0,0.0,-3.756785,0.27191314,0.4063623,0.0,0.0,0.0,0.0,0.0,0.0,0.0
-176.0,57.09536,-10.708042,110.0,11.206502,4.4034605,-3.75939,-0.8131183,0.29116246,-0.5483885,0.7434382,0.3035534,0.65532225,-0.59410566,1.6989241,-1.0355346,-1.8699813,-1.0426669,1.9676708,1.1825429,-0.9757084,1.7789694,-1.0626367,-1.8211677,-1.1116492,1.9418893,1.1222674,-0.9169082,-0.16864996,0.2677824,-0.8028868,0.7151459,0.6090808,0.6992376,-0.08092554,3.0729065,-0.67020416,0.20015669,-3.3870234,0.17047846,5.625926,0.5282707,-0.45793152,0.6938196,0.57819915,0.1736738,0.15110858,0.78274477,-0.28600922,-0.45727363,0.09604124,1.0,0.0,0.0,0.0,0.0,0.0,0.0,-3.7229066,0.27020416,0.34984332,-16.769165,26.585678,-80.17685,71.636856,60.70218,69.39597,-7.930046
-176.0,-28.539478,-43.016117,109.341606,12.166896,1.4991204,-3.2307389,-0.8076288,-0.16507743,-0.5338904,0.6996386,0.43331826,0.63611907,-0.55812234,1.6982065,-1.0791445,-1.8745568,-1.0416853,1.9852211,1.1858792,-0.97272044,1.7773463,-1.0602564,-1.8360202,-1.0966402,1.9505715,1.1351496,-0.915945,-0.15846202,0.22512096,-1.710423,1.7658898,0.9529682,1.4751899,0.15722299,3.0390625,-0.6684952,0.2556373,-3.3836372,0.17030801,5.5221148,0.52350235,-0.4666443,0.694613,0.58623844,0.17026483,0.1476215,0.778166,-0.54217464,-1.0088204,0.07476881,1.0,0.0,0.0,0.0,0.0,0.0,0.0,-3.6890626,0.26849517,0.29436272,1.5469581,-5.1715555,-90.056755,106.01735,33.89666,74.7441,24.340435
-156.37567,108.07992,27.724993,90.16413,8.18536,7.4741926,-2.0413694,-0.77688456,0.2951161,-0.011382879,0.6597177,0.4525024,0.695255,-0.5101996,1.6996578,-1.0307448,-1.8371586,-1.0306685,1.9958218,1.2046751,-0.96696496,1.7724539,-1.0572008,-1.8515022,-1.0772749,1.9604211,1.1497675,-0.91470236,-0.59937996,0.32933274,-1.4881053,1.994691,0.9905623,1.4507567,0.112186156,3.005249,-0.6667862,0.31008056,-3.3802543,0.17013773,5.4184074,0.51579285,-0.4783249,0.69693655,0.5971714,0.16533957,0.14293978,0.77176243,-0.8552017,-1.2122928,0.2890091,1.0,0.0,0.0,0.0,0.0,0.0,0.0,-3.655249,0.2667862,0.23991945,-44.057472,9.451485,24.069786,23.30041,2.2360802,-4.451871,-4.852076
-100.03491,101.290764,36.73313,54.063293,5.1390524,7.299,-0.3726193,-0.7815969,0.08728263,0.11106957,0.6591028,0.47114214,0.6694265,-0.55081457,1.6942942,-1.0484725,-1.8403952,-1.0113647,2.0075352,1.2167102,-0.9697838,1.763209,-1.0541548,-1.8618515,-1.0581709,1.96983,1.163365,-0.9141082,-1.03394,0.29393187,-0.87651354,1.883057,0.91866285,1.3256514,0.04032566,2.9714737,-0.66509247,0.36348754,-3.3768747,0.16996764,5.314804,0.5054741,-0.49082184,0.7010505,0.6091108,0.15923107,0.13708371,0.76474667,-1.1027966,-1.2501827,0.45691493,1.0,0.0,0.0,0.0,0.0,0.0,0.0,-3.6214738,0.26509246,0.18651247,-43.739914,-4.200321,63.377106,-10.98125,-8.903706,-13.649678,-7.63646
-40.55937,122.03665,49.260674,28.217712,2.1718895,6.8542814,0.45699942,-0.78608143,0.20216322,0.15992536,0.66283524,0.54809016,0.6691029,-0.5524209,1.6846008,-1.0339384,-1.8458589,-0.9918874,2.0246391,1.2302753,-0.96935034,1.7504488,-1.0510954,-1.8657024,-1.0413233,1.9785256,1.1755606,-0.9142713,-1.3581036,0.30835673,-0.21483362,1.6180366,0.84858066,1.1826537,-0.037147745,2.937729,-0.66339874,0.41585928,-3.3734984,0.1697977,5.211304,0.49332428,-0.5026932,0.7067944,0.6207981,0.15204415,0.13018599,0.7579866,-1.2656468,-1.1537207,0.61597276,1.0,0.0,0.0,0.0,0.0,0.0,0.0,-3.587729,0.26339874,0.13414073,-32.823467,0.9461403,68.14355,-26.644945,-8.346617,-14.794731,-8.360952
-2.9071612,119.11201,45.669174,12.156964,0.02655828,4.9093413,0.48303962,-0.7993001,0.29770458,0.06719712,0.65298086,0.57155156,0.6688836,-0.574768,1.6705189,-1.0213249,-1.8589827,-0.9760252,2.0356808,1.2424489,-0.9717481,1.7355314,-1.0474333,-1.8647563,-1.0271078,1.9867158,1.1864573,-0.91515535,-1.5374721,0.38440648,0.20191735,1.355223,0.8067622,1.0585494,-0.10730473,2.9040184,-0.661705,0.4671968,-3.3701255,0.16962793,5.107908,0.48017883,-0.5132904,0.71374106,0.63183147,0.14412747,0.12291913,0.751603,-1.3423773,-1.0140823,0.72067255,1.0,0.0,0.0,0.0,0.0,0.0,0.0,-3.5540185,0.261705,0.08280322,-18.273281,7.264614,42.923355,-26.50335,-4.863298,-12.442136,-7.579887
16.24453,123.175606,41.511333,6.624407,-1.4673266,3.3182592,0.024783403,-0.81003636,0.46273658,-0.081154786,0.6393,0.56054187,0.65841484,-0.57289916,1.6545278,-1.0011595,-1.8728719,-0.96317786,2.04277,1.2522987,-0.97244525,1.7196928,-1.0422376,-1.8620689,-1.0149924,1.9946256,1.196263,-0.9166574,-1.6001415,0.5639429,0.2931965,1.1629778,0.7849838,0.9550396,-0.16622527,2.8703423,-0.6600113,0.5175011,-3.3667562,0.16945834,5.0046144,0.46671677,-0.52241516,0.72151065,0.6423973,0.13587286,0.1163035,0.7452099,-1.357739,-0.86449265,0.79414326,1.0,0.0,0.0,0.0,0.0,0.0,0.0,-3.5203424,0.2600113,0.032498896,-6.5664053,17.693256,9.848658,-19.432878,-2.4118662,-10.181451,-6.4065933
21.002974,117.286514,35.56465,6.352089,-1.8501942,2.1727302,-0.33453822,-0.8223755,0.5497692,-0.14165461,0.6307007,0.5676875,0.6495336,-0.5708492,1.6374552,-0.9872607,-1.8762343,-0.9519223,2.0513942,1.2612163,-0.9737423,1.7037398,-1.0349916,-1.860028,-1.0041472,2.0024552,1.2051607,-0.91866773,-1.5945936,0.77744055,0.17597441,1.0576767,0.7821174,0.8687057,-0.21391602,2.8367004,-0.65831757,0.56677324,-3.3633902,0.16928892,4.901425,0.45331573,-0.5301819,0.72983986,0.6528145,0.12757649,0.1109939,0.7384022,-1.342878,-0.73489875,0.8440033,1.0,0.0,0.0,0.0,0.0,0.0,0.0,-3.4867005,0.25831756,-0.016773224,0.29785633,21.155775,-11.280948,-10.719371,-0.3340602,-8.476472,-5.1884503
20.533817,105.78701,30.01435,7.1673346,-1.6836728,1.4566903,-0.4851595,-0.81892705,0.6030961,-0.18029475,0.62384194,0.56677717,0.65089464,-0.5596642,1.621847,-0.97468203,-1.8780575,-0.941763,2.059133,1.2702502,-0.9746342,1.6881033,-1.02576,-1.8598049,-0.993837,2.0103173,1.213307,-0.92107767,-1.5541817,0.97106296,-0.027663402,1.0213106,0.78748107,0.79693305,-0.25119326,2.803093,-0.65662384,0.61501426,-3.3600276,0.16911966,4.7983384,0.44013596,-0.53686523,0.7385294,0.66329116,0.11940487,0.10714311,0.73096347,-1.3169181,-0.631519,0.87571406,1.0,0.0,0.0,0.0,0.0,0.0,0.0,-3.453093,0.25662383,-0.06501424,3.830886,19.215942,-20.056087,-3.853321,0.5578518,-7.106018,-4.083869
14.308752,91.75858,25.010136,9.365765,-1.0841547,1.1446093,-0.5005028,-0.82542276,0.63541746,-0.20691371,0.6228985,0.5636703,0.65033305,-0.5579718,1.605561,-0.9622183,-1.8804963,-0.93154716,2.0666842,1.2783403,-0.9768748,1.6728712,-1.0149778,-1.8615749,-0.98356307,2.0182405,1.2208258,-0.92380327,-1.5134025,1.1133745,-0.22575004,1.0285859,0.7939724,0.7367382,-0.28071645,2.769516,-0.6549301,0.6622252,-3.3566682,0.16895057,4.695355,0.4271469,-0.54273224,0.7474337,0.67391986,0.11141699,0.10455242,0.7228326,-1.2981641,-0.5572561,0.8943143,1.0,0.0,0.0,0.0,0.0,0.0,0.0,-3.419516,0.2549301,-0.112225175,3.9100885,14.11109,-19.548018,0.48849583,0.67807436,-6.0566545,-3.264451
11.904571,83.24617,23.44722,10.231675,-0.5641007,1.1921213,-0.35127372,-0.8182238,0.6632754,-0.19950505,0.61611193,0.57308275,0.6529303,-0.561413,1.5910488,-0.94865024,-1.8815254,-0.9219519,2.0755486,1.2861189,-0.9799446,1.6579996,-1.0031656,-1.8648078,-0.9731089,2.0262513,1.22782,-0.92678446,-1.4791217,1.2036641,-0.3549428,1.0501586,0.8030588,0.6865897,-0.30501613,2.7359772,-0.6532364,0.7084071,-3.3533123,0.16878167,4.5924745,0.4142723,-0.547966,0.75650483,0.6846429,0.103554875,0.102828905,0.7141195,-1.2884605,-0.49569193,0.91112286,1.0,0.0,0.0,0.0,0.0,0.0,0.0,-3.3859773,0.25323638,-0.15840709,3.2689333,8.915877,-12.596905,1.9001961,0.9070754,-5.1261663,-2.748406
9.649614,76.03031,22.21391,10.544853,-0.16412398,1.2824184,-0.18990664,-0.81676817,0.67807144,-0.19746464,0.60909283,0.57081956,0.6620879,-0.56241494,1.5763228,-0.93535846,-1.8845543,-0.9121996,2.0833333,1.2940289,-0.98302597,1.6433703,-0.9907869,-1.868798,-0.962463,2.0343308,1.2343832,-0.9299764,-1.4581268,1.248998,-0.41234085,1.068583,0.8092025,0.6458933,-0.3250394,2.7024689,-0.65154266,0.75356096,-3.3499596,0.16861291,4.489697,0.40142822,-0.55262756,0.765716,0.69534737,0.095732614,0.101599306,0.7049856,-1.287162,-0.4413269,0.9247388,1.0,0.0,0.0,0.0,0.0,0.0,0.0,-3.352469,0.25154266,-0.20356095,1.9362688,4.4279337,-5.343384,1.5828371,0.57718754,-4.2063117,-2.3278236
10.340172,72.9257,22.383213,9.965912,0.040847063,1.4085007,-0.011297496,-0.8108036,0.68877625,-0.17415927,0.5985011,0.5801323,0.6624231,-0.5629328,1.56229,-0.9219093,-1.8862139,-0.9026129,2.092344,1.3006256,-0.9862697,1.628884,-0.97817457,-1.8728645,-0.9517294,2.042479,1.2405955,-0.9333429,-1.4461699,1.2650189,-0.40307754,1.0740838,0.8162162,0.6126083,-0.3416833,2.668995,-0.6498642,0.79768777,-3.3466103,0.16844434,4.387022,0.38856888,-0.55675507,0.7750638,0.7058921,0.08785981,0.10055315,0.69561917,-1.289335,-0.38560507,0.9384474,1.0,0.0,0.0,0.0,0.0,0.0,0.0,-3.318995,0.24986419,-0.24768776,1.0177374,1.5013695,1.4110923,0.29125214,0.62292814,-3.4619212,-2.0061255
9.960574,72.344986,22.416111,9.99653,0.1182369,1.4905837,0.06842203,-0.81290114,0.70696783,-0.16979904,0.58972335,0.5816381,0.6664527,-0.5620611,1.5475938,-0.9074778,-1.8898444,-0.89275706,2.100643,1.3072407,-0.989549,1.6144415,-0.96546495,-1.8766162,-0.94103205,2.0506845,1.2465235,-0.93685335,-1.4441297,1.2725935,-0.3640685,1.0674368,0.82167745,0.585811,-0.35533744,2.6355553,-0.64818573,0.84078866,-3.3432643,0.16827594,4.2844496,0.37565994,-0.5602951,0.78454816,0.7161898,0.07987666,0.099541165,0.6861366,-1.2935058,-0.32761934,0.95204043,1.0,0.0,0.0,0.0,0.0,0.0,0.0,-3.2855554,0.24818572,-0.29078865,0.013399124,0.6578207,4.437393,-0.9186983,0.44413805,-2.8081775,-1.7119229
9.041025,70.116936,21.366955,9.9495945,0.15720129,1.4265606,0.09639628,-0.8151222,0.71225923,-0.16890752,0.58205414,0.5890399,0.6712251,-0.5576817,1.5329293,-0.894239,-1.893507,-0.8828266,2.1095884,1.313646,-0.99262154,1.5999724,-0.9527153,-1.8799541,-0.9304596,2.0589547,1.2522246,-0.94047827,-1.4484861,1.275377,-0.32184005,1.0529655,0.82818264,0.56460977,-0.36601177,2.6021461,-0.64650726,0.8828646,-3.3399217,0.16810769,4.1819797,0.36270905,-0.56326294,0.7941336,0.72620434,0.0717798,0.09851264,0.6765871,-1.2976815,-0.27119634,0.9606153,1.0,0.0,0.0,0.0,0.0,0.0,0.0,-3.2521462,0.24650726,-0.33286458,-0.626421,0.1865387,4.7587576,-1.697135,0.5491972,-2.2279263,-1.4032602
10.64188,71.32892,21.765102,9.538969,0.09801352,1.4385357,0.14483577,-0.8135189,0.7212313,-0.13649899,0.56779486,0.5975724,0.67397976,-0.5608913,1.5186205,-0.88059217,-1.893604,-0.8736801,2.118712,1.3196225,-0.99656737,1.5854555,-0.93992174,-1.882798,-0.92008936,2.0673013,1.2577463,-0.9441976,-1.4534395,1.2803869,-0.2701625,1.0308769,0.83642644,0.54781103,-0.37503102,2.5687714,-0.6448288,0.9239166,-3.3365824,0.16793962,4.0796123,0.34973907,-0.5656433,0.8038127,0.7358971,0.06354975,0.09744666,0.66702384,-1.298871,-0.2103751,0.9699162,1.0,0.0,0.0,0.0,0.0,0.0,0.0,-3.2187715,0.24482879,-0.37391657,-0.6924629,0.4114151,5.7247696,-2.4563313,0.71605444,-1.7727137,-1.240623
9.370058,68.99287,20.09238,9.78463,0.053464293,1.2603366,0.08637002,-0.81467074,0.7290967,-0.16056868,0.5663496,0.5945441,0.6776465,-0.5505994,1.5039885,-0.8670121,-1.8988549,-0.8634544,2.1267557,1.325511,-0.99925756,1.570891,-0.92705095,-1.88535,-0.9099146,2.0757089,1.2631289,-0.94798654,-1.4580631,1.2890177,-0.2485861,1.0122746,0.84199065,0.5347935,-0.38123307,2.535431,-0.6431503,0.9639456,-3.3332465,0.16777171,3.9773476,0.3367691,-0.5674591,0.8135384,0.74529374,0.055219896,0.09641306,0.65741354,-1.297704,-0.15398705,0.9726054,1.0,0.0,0.0,0.0,0.0,0.0,0.0,-3.185431,0.24315032,-0.41394562,-0.64799786,0.7840395,2.6578336,-2.1060467,0.48314333,-1.3706684,-0.9385705
10.955791,69.671326,20.24547,9.350407,-0.0057547092,1.2216003,0.12258524,-0.81461054,0.73497206,-0.12857862,0.54744136,0.6091999,0.6719741,-0.5479942,1.48943,-0.8535538,-1.8982079,-0.8551705,2.1366289,1.3303263,-1.0027859,1.5562922,-0.9140781,-1.8876655,-0.8999611,2.0842004,1.2683951,-0.95182604,-1.4610139,1.2998215,-0.22421032,0.98893446,0.85124123,0.52386415,-0.3858752,2.502121,-0.64147186,1.0029528,-3.3299139,0.16760397,3.8751855,0.32382965,-0.56866455,0.8232917,0.7543822,0.046801087,0.09542646,0.64777386,-1.2926939,-0.095050916,0.97524184,1.0,0.0,0.0,0.0,0.0,0.0,0.0,-3.152121,0.24147186,-0.4529528,-0.48401356,1.004982,2.9473515,-2.5795102,0.8477092,-1.1471748,-0.7835865
14.349422,70.96013,20.939825,8.103788,-0.14436209,1.2007465,0.20557466,-0.8117339,0.74038273,-0.08887875,0.51842904,0.61654395,0.67760575,-0.5418358,1.4751188,-0.84003985,-1.8965534,-0.8481182,2.1458547,1.3361557,-1.0060096,1.5416895,-0.9009918,-1.8896263,-0.8903252,2.092791,1.2735735,-0.9557008,-1.4605529,1.3113674,-0.18500598,0.9542903,0.86166894,0.51576847,-0.38902238,2.4688492,-0.6397934,1.0409391,-3.3265846,0.1674364,3.7731254,0.310997,-0.56925964,0.833075,0.76310205,0.03827381,0.09446222,0.63819057,-1.2806638,-0.030207684,0.9780072,1.0,0.0,0.0,0.0,0.0,0.0,0.0,-3.1188493,0.23979339,-0.49093908,-0.1483202,1.0855198,4.453212,-3.7113786,0.96029043,-0.8314848,-0.64195395
15.279372,69.631615,20.11118,7.3792877,-0.26240867,1.0459476,0.20902932,-0.810856,0.7498613,-0.09744242,0.49650702,0.62084043,0.67713845,-0.5347968,1.460604,-0.8260057,-1.8993706,-0.84067446,2.154875,1.3412874,-1.0091805,1.5271059,-0.887771,-1.891299,-0.8810812,2.101481,1.2786852,-0.9595956,-1.4582844,1.3253808,-0.15975016,0.91368324,0.8716262,0.5096299,-0.39064896,2.435608,-0.6381149,1.0779057,-3.3232586,0.167269,3.6711674,0.29831314,-0.569191,0.84285045,0.7714334,0.02966733,0.093555,0.6286952,-1.2627863,0.03355048,0.9756546,1.0,0.0,0.0,0.0,0.0,0.0,0.0,-3.085608,0.23811492,-0.52790564,0.03812313,1.3437033,3.026733,-4.308355,0.92954636,-0.59798956,-0.47631264
16.05975,66.92316,18.967026,6.336128,-0.3617956,0.85946596,0.2328323,-0.81132156,0.75295943,-0.0913908,0.46211872,0.6286581,0.6782653,-0.5217329,1.4459738,-0.8124751,-1.9004381,-0.8348693,2.1643467,1.3465117,-1.0117689,1.5125433,-0.8744253,-1.8927867,-0.8723208,2.1102777,1.2837473,-0.9634933,-1.4561164,1.3375163,-0.1434632,0.8626489,0.88216686,0.5052893,-0.39037275,2.4023972,-0.63643646,1.1138533,-3.319936,0.16710177,3.5693114,0.28585052,-0.5685272,0.85255104,0.7793676,0.021042036,0.09273762,0.61930853,-1.2390517,0.094528295,0.9661853,1.0,0.0,0.0,0.0,0.0,0.0,0.0,-3.0523973,0.23643646,-0.5638533,0.033783913,1.1716843,2.0963697,-5.3561926,1.0112643,-0.3722787,-0.2729237
15.829862,65.66105,18.350777,6.304506,-0.3557862,0.76837015,0.24138618,-0.8145235,0.7587707,-0.07409012,0.4345957,0.63743126,0.681468,-0.5165318,1.431091,-0.7985482,-1.9001957,-0.8288612,2.1740208,1.3518941,-1.0151465,1.4979845,-0.86096513,-1.8941066,-0.86409724,2.119185,1.288777,-0.96738046,-1.4565753,1.3486805,-0.12667368,0.80818385,0.8935846,0.5024055,-0.38919416,2.3692245,-0.63477325,1.1487832,-3.3166168,0.16693471,3.467557,0.27363205,-0.5672455,0.86214226,0.78690064,0.012424817,0.09201592,0.6100541,-1.2135334,0.15284368,0.9544725,1.0,0.0,0.0,0.0,0.0,0.0,0.0,-3.0192246,0.23477325,-0.5987832,-0.22470951,1.0848761,2.1235228,-5.6942344,1.1134744,-0.2063632,-0.16927123
19.519716,65.21336,18.65601,4.508194,-0.5047716,0.6634108,0.3391454,-0.8057969,0.7590631,-0.03376512,0.38551933,0.6455041,0.6764044,-0.5140967,1.4174049,-0.7850588,-1.8974831,-0.8255453,2.1837354,1.3564174,-1.0187901,1.4834563,-0.84742486,-1.8951175,-0.8565203,2.1282105,1.29378,-0.9712543,-1.4522467,1.3557956,-0.09120209,0.74000543,0.90531105,0.50022405,-0.3877577,2.3360825,-0.63311005,1.1826963,-3.3133008,0.1667678,3.3659043,0.26173782,-0.56536865,0.8715998,0.7939822,0.0038273719,0.091349915,0.6010263,-1.1790379,0.21353066,0.94031036,1.0,0.0,0.0,0.0,0.0,0.0,0.0,-2.9860826,0.23311004,-0.63269633,0.26073456,0.6940365,3.9871037,-7.062125,1.1514306,-0.0846982,-0.14272332
21.358816,65.65347,19.10313,3.5649447,-0.56322235,0.6340812,0.42918348,-0.81380504,0.76325953,0.018883158,0.32665002,0.65725386,0.6750909,-0.51489365,1.4020758,-0.7710989,-1.8932292,-0.8238553,2.1939359,1.361289,-1.0227437,1.4689318,-0.8338226,-1.8955715,-0.8497597,2.137362,1.2987658,-0.97511476,-1.453065,1.3616173,-0.0286324,0.653965,0.9186445,0.49872085,-0.3865125,2.3029747,-0.63144684,1.2155937,-3.3099883,0.16660108,3.2643533,0.2502098,-0.5628662,0.8809143,0.80055046,-0.004753653,0.09068405,0.5923452,-1.1396931,0.2764674,0.92558295,1.0,0.0,0.0,0.0,0.0,0.0,0.0,-2.9529748,0.23144683,-0.6655937,-0.25482178,0.5736351,6.7038865,-8.834767,1.3129473,0.018668175,-0.15388131
26.308418,63.73919,18.976524,0.12547874,-0.8707974,0.41119412,0.5709189,-0.808712,0.76233506,0.0623922,0.2348268,0.6682231,0.6704401,-0.5161365,1.3880606,-0.7575891,-1.8893323,-0.826277,2.2041843,1.3658098,-1.0267284,1.4544169,-0.820187,-1.8952777,-0.84411967,2.1466584,1.303742,-0.9789657,-1.4516122,1.3642969,0.049913984,0.5332482,0.93327034,0.49814704,-0.38543382,2.2699013,-0.62978363,1.2474763,-3.306679,0.16643451,3.1629038,0.23918915,-0.5597229,0.8900164,0.8065167,-0.013256354,0.089986175,0.58417237,-1.0850387,0.3408783,0.9018535,1.0,0.0,0.0,0.0,0.0,0.0,0.0,-2.9199014,0.22978362,-0.6974763,-0.012207031,0.28328896,8.261853,-12.294638,1.4644623,0.21364093,-0.15068054
28.3873,60.969704,18.008106,-2.1286478,-1.104377,0.15261555,0.63200766,-0.8116112,0.76743805,0.085454315,0.14645822,0.6753027,0.6713411,-0.5051334,1.3732557,-0.7434432,-1.8867323,-0.82947385,2.2141886,1.3708762,-1.029479,1.439902,-0.80651605,-1.8942401,-0.8398863,2.156096,1.3087183,-0.98279756,-1.4519027,1.3682046,0.122659355,0.38601565,0.947557,0.4986753,-0.3831422,2.2368584,-0.6281204,1.2783452,-3.303373,0.16626811,3.0615559,0.22879791,-0.55594635,0.8988138,0.8118387,-0.021577317,0.089296915,0.57660925,-1.0192902,0.4015653,0.8688043,1.0,0.0,0.0,0.0,0.0,0.0,0.0,-2.8868585,0.22812042,-0.7283452,-0.16653538,0.42684078,7.6103373,-14.932651,1.4668941,0.4006803,0.007688999
32.76394,59.52426,17.6683,-5.4595637,-1.4876349,-0.12896559,0.7330004,-0.8073254,0.776394,0.1222514,0.027046839,0.68108636,0.66475266,-0.49200588,1.3591694,-0.72887665,-1.882015,-0.8371816,2.2242045,1.3751936,-1.0319982,1.4254023,-0.7927717,-1.8925045,-0.8373896,2.165667,1.3137022,-0.98659605,-1.449561,1.3767692,0.19143319,0.20360656,0.96047014,0.49957687,-0.3793477,2.2038498,-0.6264572,1.3082013,-3.3000703,0.16610187,2.960309,0.21918869,-0.55155945,0.9072139,0.81646955,-0.02959587,0.08868813,0.5697682,-0.9365711,0.4614377,0.8265651,1.0,0.0,0.0,0.0,0.0,0.0,0.0,-2.85385,0.22645721,-0.7582013,0.12516975,0.91524124,7.133746,-18.427578,1.3675928,0.52725077,0.19834042
30.00501,57.686653,16.674017,-3.8253303,-1.3269739,-0.24158013,0.6576071,-0.807299,0.77805567,0.14692202,-0.018884927,0.68222296,0.66978395,-0.46071827,1.3446724,-0.7149661,-1.8778123,-0.8392781,2.2338893,1.3806806,-1.0326679,1.4109293,-0.7789415,-1.890166,-0.8365618,2.175345,1.3186976,-0.9903335,-1.44687,1.385295,0.2484372,0.042034183,0.9704912,0.5008218,-0.3723636,2.1708755,-0.624794,1.3370458,-3.2967708,0.1659358,2.8591638,0.21035767,-0.54663086,0.9152091,0.8204601,-0.037288047,0.08819596,0.5636277,-0.85849637,0.51213336,0.7862548,1.0,0.0,0.0,0.0,0.0,0.0,0.0,-2.8208756,0.224794,-0.7870458,0.19299984,0.9271622,5.842027,-16.313808,1.1396646,0.54467916,0.55953264
23.942467,57.009296,15.946564,0.64335585,-0.86468124,-0.18270347,0.5027156,-0.8089521,0.77806914,0.17955971,-0.03423312,0.6794532,0.6701802,-0.43181145,1.3300341,-0.7011346,-1.87221,-0.83998513,2.2432902,1.3857156,-1.0335146,1.3964735,-0.76504457,-1.8872917,-0.83696425,2.1850915,1.3237005,-0.99398226,-1.4455674,1.3913407,0.30046865,-0.06813906,0.9762386,0.50127476,-0.36279154,2.1379318,-0.6231308,1.3648795,-3.2934747,0.1657699,2.7581196,0.20217514,-0.5412674,0.9228823,0.82393503,-0.044741664,0.08779898,0.5580505,-0.7975754,0.553531,0.75650954,1.0,0.0,0.0,0.0,0.0,0.0,0.0,-2.787932,0.22313079,-0.8148795,0.07176399,0.6873846,5.251372,-11.153846,0.7702112,0.39210916,0.843364
20.462883,56.626488,15.689083,3.1985254,-0.5811423,-0.13621213,0.43829203,-0.81539655,0.7787309,0.22890905,-0.08826519,0.6814632,0.66807115,-0.4121502,1.3149339,-0.68717146,-1.8644007,-0.84579074,2.2532377,1.3905077,-1.0351973,1.3819929,-0.7511066,-1.8838279,-0.8382832,2.19488,1.3287035,-0.99752706,-1.4491754,1.3948594,0.36173633,-0.15353167,0.9801591,0.5009864,-0.35201502,2.1050186,-0.6214676,1.3917035,-3.2901819,0.16560416,2.6571763,0.19452667,-0.53551483,0.9303075,0.82697636,-0.05203857,0.087453246,0.5529502,-0.7469135,0.5907212,0.7331677,1.0,0.0,0.0,0.0,0.0,0.0,0.0,-2.7550187,0.22146758,-0.8417035,-0.4143238,0.4410267,6.12424,-8.662629,0.6239176,0.28036833,0.979656
21.8762,56.9155,16.186619,2.8567066,-0.60723215,-0.17184933,0.48859957,-0.80899847,0.7789281,0.2865654,-0.1556991,0.68112284,0.6654704,-0.37980744,1.3010931,-0.67321384,-1.8551714,-0.8538531,2.2629924,1.3952506,-1.0355078,1.3675028,-0.73715055,-1.8796241,-0.840448,2.2046914,1.3337008,-1.0009489,-1.4491528,1.3962637,0.43971944,-0.23777103,0.9823725,0.5005251,-0.33915007,2.0721436,-0.61981964,1.4175189,-3.2868924,0.16543859,2.5563338,0.18740463,-0.52936554,0.93751323,0.8295768,-0.059216976,0.087117195,0.5483668,-0.6935028,0.6287202,0.7114841,1.0,0.0,0.0,0.0,0.0,0.0,0.0,-2.7221437,0.21981964,-0.86751884,-0.028204918,0.23949146,7.7402353,-8.523679,0.48872232,0.2820909,1.2037456
18.130424,57.70109,16.30616,6.32916,-0.2692729,-0.047985397,0.40058008,-0.81038064,0.7787029,0.3298968,-0.14165623,0.6733874,0.6737265,-0.3279012,1.2864647,-0.65928024,-1.8466344,-0.85461366,2.27203,1.4010735,-1.033739,1.3530127,-0.7231916,-1.8745944,-0.8431488,2.2144952,1.338698,-1.0042143,-1.4490824,1.3961518,0.52362496,-0.28106973,0.98075557,0.5004178,-0.32255915,2.039299,-0.6181717,1.4423265,-3.2836063,0.16527319,2.4555922,0.18070602,-0.5228424,0.94458157,0.83177906,-0.0663844,0.08674702,0.5442532,-0.65332234,0.66462904,0.70015454,1.0,0.0,0.0,0.0,0.0,0.0,0.0,-2.689299,0.21817169,-0.89232653,-0.019192696,0.0936985,8.280021,-4.421425,0.15015602,0.26996136,1.5816152
14.717285,56.985195,15.907519,9.029481,-0.003414452,0.0028075017,0.31365743,-0.81111693,0.77584046,0.3675975,-0.13610187,0.6665613,0.669409,-0.28962162,1.271901,-0.6456076,-1.8378347,-0.856759,2.2811513,1.4056389,-1.0331764,1.3385226,-0.70925176,-1.8687446,-0.8460337,2.224257,1.3436915,-1.0072985,-1.4491296,1.3936547,0.6048654,-0.29128522,0.9759869,0.4995927,-0.30388218,2.006485,-0.61652374,1.4661276,-3.2803233,0.16510795,2.3549514,0.17433548,-0.5160217,0.9515854,0.8336489,-0.073635325,0.08631869,0.5405149,-0.6238507,0.6973141,0.6950891,1.0,0.0,0.0,0.0,0.0,0.0,0.0,-2.656485,0.21652374,-0.9161276,-0.030303001,-0.14109612,7.9817653,-1.1129737,-0.14253855,0.16158819,1.7932057
11.023832,56.296238,15.261668,11.72776,0.21992242,0.036765654,0.19602337,-0.8124433,0.7793405,0.386568,-0.11669449,0.66330016,0.6712602,-0.26764897,1.2572782,-0.63131773,-1.8300878,-0.85770315,2.290587,1.4108175,-1.0340633,1.3240248,-0.6953205,-1.86221,-0.8487898,2.2339654,1.3486754,-1.0101957,-1.4500929,1.3932695,0.6689535,-0.2706656,0.97017103,0.49854457,-0.28520128,1.9737091,-0.6148758,1.4889231,-3.2770436,0.16494288,2.2544112,0.16818237,-0.50884247,0.958579,0.83526665,-0.081032395,0.08584633,0.537023,-0.60460025,0.7268115,0.6951613,1.0,0.0,0.0,0.0,0.0,0.0,0.0,-2.6237092,0.21487579,-0.93892306,-0.13067722,0.07238388,6.2569857,1.9650519,-0.24245977,0.098758936,1.797235
2.981964,56.43105,14.515178,18.286858,0.8178518,0.2586721,-0.049677946,-0.8150643,0.78060514,0.39610392,-0.0074484143,0.6512134,0.6687955,-0.22740534,1.2425184,-0.61726,-1.8225996,-0.84953463,2.2990868,1.4155549,-1.0329362,1.3095042,-0.68138254,-1.8552063,-0.8507811,2.2435899,1.3536421,-1.0128946,-1.4530046,1.3943602,0.71023583,-0.17558949,0.9609381,0.49625868,-0.26519716,1.9409637,-0.61322784,1.5107138,-3.2737672,0.16477796,2.1539714,0.16201401,-0.5014267,0.96569145,0.83677787,-0.088731766,0.08533425,0.5335237,-0.61161846,0.75257486,0.7107998,1.0,0.0,0.0,0.0,0.0,0.0,0.0,-2.5909638,0.21322784,-0.9607138,-0.35660267,0.22158623,3.9709687,9.384259,-0.55981874,-0.12899041,1.9156337
-3.7296343,54.723537,13.282368,23.396725,1.301948,0.3902109,-0.27749765,-0.8152258,0.77892184,0.387333,0.09769754,0.6471364,0.66818553,-0.23592521,1.2279816,-0.60349035,-1.816473,-0.84101135,2.3083036,1.4204607,-1.0364871,1.294953,-0.6674398,-1.8480117,-0.8513628,2.253119,1.3585821,-1.01542,-1.4559922,1.3946676,0.7221658,-0.019537723,0.9515433,0.49308825,-0.24877298,1.9082489,-0.6115799,1.5315009,-3.2704942,0.16461322,2.0536323,0.15561295,-0.49378204,0.9730346,0.83833736,-0.09687941,0.08478155,0.5297329,-0.6401709,0.77387935,0.73624545,1.0,0.0,0.0,0.0,0.0,0.0,0.0,-2.558249,0.21157989,-0.9815009,-0.38819313,0.13999939,1.0455132,15.458827,-0.57895184,-0.31208992,1.5459955
-9.429606,52.90558,12.066868,27.701563,1.6888173,0.50046104,-0.47684315,-0.81626403,0.77940106,0.3637665,0.22344972,0.63743055,0.6619465,-0.22752795,1.2133266,-0.5894997,-1.8116351,-0.8290179,2.316862,1.4247768,-1.0381727,1.2803732,-0.6534933,-1.8409297,-0.8499962,2.262545,1.3634821,-1.0177965,-1.4589978,1.3949455,0.70306295,0.18821517,0.94057864,0.48856485,-0.234342,1.8755684,-0.60993195,1.5512854,-3.2672243,0.16444863,1.9533931,0.14879608,-0.48594666,0.98069006,0.84007335,-0.10558709,0.08420131,0.52539337,-0.68690497,0.7924544,0.769146,1.0,0.0,0.0,0.0,0.0,0.0,0.0,-2.5255685,0.20993194,-1.0012853,-0.40667057,0.12738705,-2.0461202,20.617275,-0.7403016,-0.5427897,1.3377279
-9.637758,48.638428,10.395906,26.119394,1.5082417,0.31983107,-0.5058341,-0.82570845,0.7808827,0.32645732,0.26939487,0.6324077,0.66169864,-0.25306317,1.1978024,-0.575405,-1.808284,-0.8230567,2.3257859,1.429652,-1.0431029,1.2657267,-0.6395391,-1.8342617,-0.846707,2.2718644,1.3683382,-1.0200644,-1.4669182,1.3958033,0.65443695,0.37535587,0.92985475,0.48432925,-0.22476935,1.8429222,-0.608284,1.5700682,-3.2639577,0.16428423,1.8532542,0.14154816,-0.47795105,0.98859304,0.84202975,-0.114782795,0.08367343,0.5203935,-0.7285408,0.8078308,0.7909641,1.0,0.0,0.0,0.0,0.0,0.0,0.0,-2.4929223,0.20828399,-1.0200682,-0.9057522,0.16741753,-4.9520135,18.557638,-0.7592559,-0.51823854,0.85861087
-4.20759,45.791855,9.815144,20.52098,0.9281716,0.011842132,-0.35709235,-0.8267966,0.7823394,0.3066564,0.27831566,0.6271249,0.6566955,-0.26221973,1.183047,-0.56130517,-1.803596,-0.81887543,2.3345768,1.4340078,-1.0462863,1.2510039,-0.6255716,-1.8281391,-0.8420149,2.281077,1.3731562,-1.0222597,-1.4744272,1.3972478,0.5980486,0.5000196,0.9192519,0.48088464,-0.2180991,1.8103065,-0.60663605,1.5878505,-3.2606945,0.16411997,1.7532153,0.13404465,-0.4698105,0.9965821,0.8441368,-0.12427211,0.08329206,0.514832,-0.74703807,0.82333267,0.79500884,1.0,0.0,0.0,0.0,0.0,0.0,0.0,-2.4603066,0.20663604,-1.0378504,-0.8551359,0.20711422,-5.661845,12.324953,-0.81341267,-0.36452413,0.5720049
4.1353407,43.124023,9.574105,12.368103,0.11727381,-0.416379,-0.11298313,-0.82862717,0.78330994,0.28968185,0.23922254,0.62421626,0.6505025,-0.2918272,1.1681411,-0.5472406,-1.7991709,-0.81809264,2.3434985,1.4382064,-1.0514424,1.2362162,-0.6115879,-1.8225486,-0.836763,2.290194,1.3779455,-1.0244226,-1.4806155,1.3989164,0.54633754,0.5330692,0.9097052,0.47882783,-0.21584482,1.7777214,-0.6049957,1.604633,-3.2574346,0.1639559,1.6532764,0.12662506,-0.46151733,1.0044404,0.846259,-0.13377762,0.083146214,0.5089558,-0.73140866,0.83758867,0.77627206,1.0,0.0,0.0,0.0,0.0,0.0,0.0,-2.4277215,0.20499572,-1.0546329,-0.7098675,0.218153,-5.1152945,3.1752229,-0.7861614,-0.085514784,0.13313293
9.86603,41.60061,9.668103,7.112166,-0.35490143,-0.7015853,0.081563935,-0.8277977,0.78106475,0.2793682,0.22645082,0.6291625,0.65333045,-0.26785102,1.1534364,-0.5334814,-1.7946118,-0.81411797,2.3531103,1.4432786,-1.0512078,1.2213904,-0.59760225,-1.8173778,-0.83160937,2.2992501,1.3827254,-1.0265512,-1.4834323,1.3986932,0.5076975,0.5091572,0.9046577,0.47850546,-0.21219969,1.7451744,-0.60336304,1.6204169,-3.2541778,0.16379197,1.5534375,0.119514465,-0.45311737,1.0120156,0.84827226,-0.14310189,0.08326314,0.50301415,-0.69405246,0.84966284,0.74487627,1.0,0.0,0.0,0.0,0.0,0.0,0.0,-2.3951745,0.20336303,-1.0704169,-0.35431385,0.02708435,-3.7667394,-2.5086164,-0.38434267,0.17974973,0.27224123
15.210554,41.62691,10.241188,2.6443605,-0.76993895,-0.93175805,0.27993494,-0.8261945,0.78217113,0.28122228,0.17899545,0.6303554,0.6563938,-0.21060792,1.1387709,-0.51938516,-1.7892556,-0.8137098,2.3622856,1.4483647,-1.0476121,1.2065626,-0.5836166,-1.8124435,-0.82706225,2.3082795,1.3875109,-1.0286036,-1.4827149,1.3986099,0.4890761,0.43624538,0.90239465,0.47966856,-0.20325378,1.7126579,-0.60173035,1.6352032,-3.2509243,0.16362822,1.4536983,0.11292267,-0.4445877,1.0192121,0.8500614,-0.15211119,0.08364178,0.49725425,-0.6371773,0.86090857,0.70486987,1.0,0.0,0.0,0.0,0.0,0.0,0.0,-2.362658,0.20173034,-1.0852032,0.025320053,0.04286766,-1.7421722,-7.383418,-0.14287233,0.40568113,0.8069992
12.077985,41.053413,10.073811,5.7657175,-0.43204844,-0.8266075,0.23470235,-0.8291123,0.77424157,0.2756442,0.23330866,0.6066381,0.65742415,-0.09315865,1.1236514,-0.50619245,-1.7848791,-0.8037314,2.3689432,1.4532533,-1.0379194,1.1917387,-0.5696701,-1.8076122,-0.8229643,2.3172288,1.3923079,-1.0304823,-1.4824785,1.3935598,0.4812854,0.4007108,0.89271975,0.48048797,-0.18309909,1.680172,-0.60009766,1.6489928,-3.247674,0.16346462,1.354059,0.10680771,-0.43595886,1.0260781,0.8516133,-0.16087517,0.08424743,0.49170747,-0.593629,0.87161285,0.6743274,1.0,0.0,0.0,0.0,0.0,0.0,0.0,-2.330172,0.20009765,-1.0989928,-0.022149086,-0.4480362,-0.6965518,-3.6467195,-0.847733,0.31242967,1.9264311
8.909234,39.58609,9.334852,8.388657,-0.16383749,-0.795483,0.15262602,-0.8278008,0.77320045,0.2422258,0.2507639,0.60163325,0.6554213,-0.0064412793,1.1089586,-0.49235004,-1.7833896,-0.7978879,2.377392,1.45785,-1.0311264,1.1769243,-0.5557779,-1.8029563,-0.81898177,2.3260713,1.3971087,-1.0321016,-1.4814233,1.3878999,0.46056873,0.39720002,0.88210046,0.480546,-0.15536356,1.6477165,-0.59846497,1.6617867,-3.244427,0.1633012,1.2545191,0.10103607,-0.42721558,1.0326854,0.85297376,-0.16948117,0.08507066,0.48628682,-0.56138396,0.88006485,0.65007955,1.0,0.0,0.0,0.0,0.0,0.0,0.0,-2.2977166,0.19846496,-1.1117866,0.052905083,-0.50480366,-2.0212233,-0.45600533,-0.9115577,0.18768907,2.6857078
6.1470385,37.295216,8.465819,10.416286,0.07746112,-0.7843881,0.09266804,-0.82830876,0.76573354,0.22262608,0.26482096,0.59398764,0.6557831,0.088231005,1.0940934,-0.47920454,-1.7806938,-0.79249966,2.38547,1.462687,-1.0232785,1.1621157,-0.5419668,-1.7985733,-0.81485045,2.334803,1.4019076,-1.0333929,-1.4809128,1.3789582,0.4310433,0.41805336,0.8708601,0.48011845,-0.12063121,1.6152992,-0.5968323,1.673586,-3.2411833,0.16313793,1.1550789,0.09550476,-0.41841125,1.0390804,0.85418516,-0.17798705,0.0861021,0.4809103,-0.5390354,0.8857887,0.6298867,1.0,0.0,0.0,0.0,0.0,0.0,0.0,-2.2652993,0.19683227,-1.1235859,-0.0109910965,-0.83122253,-2.9189348,1.966083,-0.9547949,0.102710724,3.3838286
2.619923,31.409977,6.092996,11.364598,0.22008896,-0.9263146,-0.040480047,-0.8354553,0.7578139,0.15415344,0.273813,0.58431387,0.65656066,0.08766299,1.0785701,-0.4661854,-1.783158,-0.78746915,2.3932345,1.4675636,-1.0246266,1.1472746,-0.5282682,-1.7947605,-0.8104397,2.3434167,1.4067007,-1.0343637,-1.485383,1.3670093,0.36465198,0.4482366,0.8589191,0.479613,-0.08950572,1.5829124,-0.5951996,1.6843917,-3.2379427,0.16297482,1.055738,0.09015274,-0.40962982,1.0452504,0.8553384,-0.18635955,0.087389514,0.47542536,-0.52394605,0.88156205,0.6067391,1.0,0.0,0.0,0.0,0.0,0.0,0.0,-2.2329125,0.19519958,-1.1343918,-0.5270004,-1.1278152,-6.627393,2.866274,-1.0077119,0.084632635,3.0330687
2.8023243,28.65654,5.0730033,10.168015,0.11855888,-1.0976906,-0.042259775,-0.83167326,0.75477034,0.10334537,0.2624387,0.58489907,0.6589438,0.1520877,1.0641073,-0.45279118,-1.784426,-0.78419584,2.4019065,1.4725951,-1.019155,1.1324049,-0.5146831,-1.7917793,-0.80581915,2.351935,1.411492,-1.0350084,-1.4875922,1.3560028,0.2759422,0.46606183,0.8502677,0.47956893,-0.056454867,1.5505562,-0.5935669,1.6942047,-3.2347054,0.16281188,0.9564965,0.08498001,-0.40091705,1.0511556,0.85647875,-0.19451688,0.08899037,0.46977445,-0.50478214,0.87150425,0.5793567,1.0,0.0,0.0,0.0,0.0,0.0,0.0,-2.2005563,0.19356689,-1.1442046,-0.2910614,-1.0325909,-8.871407,1.6264379,-0.6838918,0.15019178,3.2334282
1.2582669,25.022594,3.7019258,10.410969,0.17963296,-1.2166842,-0.094274215,-0.8314265,0.74618685,0.02980051,0.28457746,0.58090365,0.6573452,0.23058479,1.0492623,-0.44006443,-1.7887993,-0.7773614,2.4100254,1.4772265,-1.0119499,1.1175238,-0.5012182,-1.7898815,-0.80099165,2.3603845,1.4162832,-1.0352964,-1.4884789,1.3435853,0.16098675,0.48778722,0.84345883,0.47941417,-0.019999387,1.5182304,-0.5919342,1.703026,-3.2314713,0.1626491,0.85735416,0.0799675,-0.39235687,1.0567758,0.8576478,-0.20240392,0.09094772,0.46389806,-0.48861736,0.85497314,0.5507855,1.0,0.0,0.0,0.0,0.0,0.0,0.0,-2.1682305,0.1919342,-1.1530261,-0.15542507,-1.1718988,-11.52148,2.000904,-0.48787594,0.13558269,3.5783212
-1.5255709,20.535799,2.084456,11.831852,0.33309227,-1.2750326,-0.19297425,-0.82902133,0.7303362,-0.05740799,0.32880184,0.5452951,0.6593159,0.30702245,1.0346217,-0.42818457,-1.7956222,-0.76811147,2.414914,1.4822148,-1.0045942,1.1026522,-0.48792166,-1.7893264,-0.7957951,2.3686776,1.4210726,-1.0351992,-1.4868095,1.3252336,0.020252198,0.52958614,0.82535434,0.4792711,0.019521508,1.4859428,-0.59030914,1.7108567,-3.2282405,0.16248648,0.758311,0.07507324,-0.38401794,1.0621186,0.85891116,-0.2100153,0.09332501,0.45766327,-0.48048225,0.8329881,0.5235897,1.0,0.0,0.0,0.0,0.0,0.0,0.0,-2.135943,0.19030914,-1.1608567,0.105428696,-1.7648935,-14.13929,3.9860845,-1.5908957,0.11501908,3.883462
-1.9390812,15.758614,0.66311526,10.720208,0.2361964,-1.4408629,-0.19154534,-0.8245925,0.7098926,-0.13979936,0.32691133,0.49096093,0.6555531,0.41355872,1.020193,-0.4169324,-1.8033063,-0.76310396,2.4177737,1.4866279,-0.9938433,1.0878245,-0.474873,-1.790282,-0.79024374,2.3766427,1.42586,-1.0346632,-1.4816295,1.2983309,-0.13446891,0.56296474,0.78748596,0.47906393,0.06477324,1.4536858,-0.5886917,1.7176976,-3.225013,0.16232403,0.65936685,0.07027054,-0.3759308,1.067152,0.8602975,-0.21729058,0.09621103,0.451017,-0.46965963,0.80371755,0.49178207,1.0,0.0,0.0,0.0,0.0,0.0,0.0,-2.1036859,0.1886917,-1.1676977,0.4909277,-2.6175022,-15.581211,3.1448245,-3.564322,0.13935566,4.462318
-1.5171885,8.554256,-1.0566373,8.053591,0.16335613,-1.6956477,-0.12957671,-0.8199504,0.67195266,-0.20777868,0.3046753,0.45210984,0.65316266,0.48011217,1.0058295,-0.40767774,-1.8110598,-0.75977623,2.4218538,1.4911764,-0.98665196,1.0730711,-0.46222633,-1.7927539,-0.7845589,2.3841462,1.4306456,-1.0336637,-1.4732486,1.2537136,-0.28528562,0.5697024,0.73838854,0.47927353,0.11143307,1.4214592,-0.5870743,1.7235498,-3.2217886,0.16216174,0.5605216,0.06561661,-0.368248,1.0717971,0.8618042,-0.2241073,0.09962854,0.44400856,-0.45467883,0.76122755,0.45114136,1.0,0.0,0.0,0.0,0.0,0.0,0.0,-2.0714593,0.18707427,-1.1735499,0.8745432,-4.3780565,-15.2538,0.4984498,-4.6961904,0.24321079,4.61667
0.07552767,7.404184,-0.80068326,6.2777286,0.124583304,-1.7864249,-0.029371306,-0.82135165,0.64673793,-0.24163763,0.27882636,0.4453505,0.65428245,0.48912188,0.990936,-0.39755255,-1.8169177,-0.75667626,2.4286814,1.4960738,-0.9847516,1.0583826,-0.4500789,-1.7964962,-0.77901995,2.3912034,1.4354368,-1.032237,-1.46705,1.2020291,-0.40421733,0.5481557,0.6954149,0.47986552,0.15287043,1.3892632,-0.58545685,1.7284144,-3.2185674,0.16199961,0.4617752,0.061145782,-0.36102295,1.0760136,0.86338776,-0.2303947,0.10349902,0.43676972,-0.4356858,0.71549416,0.40810066,1.0,0.0,0.0,0.0,0.0,0.0,0.0,-2.0392632,0.18545684,-1.1784143,0.67932606,-5.082798,-12.050116,-2.3010373,-4.121685,0.30466914,4.0958376
0.43675566,8.736999,-0.11988115,6.5797415,0.18014747,-1.7577606,0.0012504831,-0.82275456,0.6252215,-0.28865436,0.2751899,0.42707133,0.648665,0.4933261,0.9761072,-0.38755676,-1.8253616,-0.75150096,2.4339106,1.5003034,-0.98290443,1.0437304,-0.43844408,-1.8012455,-0.77374804,2.3978715,1.44023,-1.0304422,-1.4644527,1.1508899,-0.49899969,0.51980835,0.65775067,0.47971347,0.18816736,1.3571014,-0.5838394,1.7322923,-3.2153494,0.16183765,0.3631276,0.05684662,-0.35421753,1.0798218,0.86501414,-0.23616189,0.10773504,0.42938462,-0.41795784,0.6724479,0.36858684,1.0,0.0,0.0,0.0,0.0,0.0,0.0,-2.0071015,0.18383941,-1.1822922,0.3070593,-5.0355196,-9.590685,-2.9666662,-3.6224961,0.20795465,3.4751682
2.381202,14.009724,1.8497448,6.87991,0.11033517,-1.6457171,0.08147298,-0.81864095,0.60599846,-0.29638302,0.25843692,0.38657534,0.6472918,0.51309556,0.96186626,-0.37784424,-1.8308837,-0.74790436,2.436529,1.5049592,-0.97913265,1.0291048,-0.42728037,-1.8066432,-0.7687985,2.4041314,1.4450175,-1.0283251,-1.4617937,1.1051133,-0.5533867,0.48629177,0.6159983,0.47909462,0.21931136,1.3249741,-0.582222,1.7351843,-3.2121348,0.16167584,0.2645786,0.052768707,-0.3477707,1.0832763,0.8666259,-0.24147241,0.11227782,0.42195278,-0.39630035,0.6393625,0.3350067,1.0,0.0,0.0,0.0,0.0,0.0,0.0,-1.974974,0.18222198,-1.1851842,0.28924942,-4.508662,-5.4760575,-3.4642816,-4.0710807,0.13495684,3.0457706
3.8328476,18.334057,3.2827792,7.0145273,0.028640628,-1.5811255,0.13243724,-0.81974787,0.59038913,-0.3140489,0.23069528,0.3631929,0.65014404,0.51828897,0.94713,-0.36824146,-1.8380481,-0.74572897,2.4404507,1.5100318,-0.97649616,1.0144907,-0.41651338,-1.8123996,-0.7642437,2.4099832,1.4497992,-1.0259314,-1.4613853,1.0674536,-0.5829084,0.44487286,0.57547736,0.47855112,0.24573036,1.2928772,-0.58060455,1.7370917,-3.2089233,0.16151421,0.16612814,0.04894638,-0.3415985,1.0864215,0.8681746,-0.24637562,0.11709019,0.4145621,-0.37055337,0.6133471,0.30535254,1.0,0.0,0.0,0.0,0.0,0.0,0.0,-1.9428772,0.18060455,-1.1870916,0.03502369,-3.7036657,-2.9245734,-4.2456985,-3.9799213,0.122988224,2.5657415
3.6357718,18.176228,3.4345307,7.595231,0.10460818,-1.5644798,0.13424188,-0.8155562,0.55929065,-0.32573077,0.22248344,0.32039195,0.64908755,0.52992725,0.9329351,-0.36058432,-1.8449727,-0.7419954,2.4420223,1.5147079,-0.97293866,0.9998937,-0.40614504,-1.8183353,-0.76005614,2.4153924,1.4545752,-1.0232992,-1.4592884,1.0268176,-0.5969838,0.40969133,0.5291929,0.47784933,0.2687714,1.2608109,-0.5789871,1.7380153,-3.205715,0.16135272,0.06777611,0.04535675,-0.33567047,1.0892895,0.8696433,-0.25091526,0.1221328,0.40724152,-0.34734058,0.5885285,0.278424,1.0,0.0,0.0,0.0,0.0,0.0,0.0,-1.9108108,0.17898712,-1.1880152,0.20399094,-4.004097,-1.375401,-3.6134481,-4.564202,0.09278655,2.2271037
4.236404,22.668468,4.8193417,9.0079365,0.14139527,-1.4383185,0.1483208,-0.8135884,0.5490545,-0.31304458,0.21711124,0.29333952,0.6448132,0.53662753,0.9185349,-0.3512396,-1.8496398,-0.738345,2.4447265,1.5190566,-0.96963644,0.9853206,-0.39612764,-1.8242557,-0.75614226,2.42034,1.4593397,-1.0204611,-1.4567453,0.9935711,-0.58999366,0.38497388,0.4833584,0.47647694,0.2885011,1.228775,-0.5773697,1.7379562,-3.2025099,0.1611914,-0.030477606,0.04200363,-0.3299408,1.0919375,0.87100583,-0.2551745,0.12737358,0.4000135,-0.32453302,0.5733002,0.2582827,1.0,0.0,0.0,0.0,0.0,0.0,0.0,-1.878775,0.17736968,-1.1879561,0.21016598,-3.2749295,0.7894993,-2.5669992,-4.5357647,-0.0076174736,1.886946
3.5550816,17.661295,3.6059432,8.165511,0.17496651,-1.5631775,0.14528431,-0.80767447,0.50735086,-0.31776983,0.19187853,0.22707605,0.65101916,0.5521762,0.9045532,-0.34539255,-1.8560327,-0.7369544,2.4430478,1.5244416,-0.96524346,0.9707981,-0.3865332,-1.8300827,-0.7524973,2.4247231,1.4640967,-1.0174379,-1.4506412,0.9482772,-0.58029926,0.35751536,0.4234569,0.47599408,0.30653912,1.1967773,-0.57575226,1.7369152,-3.1993082,0.16103025,-0.12863308,0.03886032,-0.3243866,1.0943577,0.87226707,-0.2591446,0.13280104,0.39288414,-0.30359706,0.54994935,0.23472807,1.0,0.0,0.0,0.0,0.0,0.0,0.0,-1.8467773,0.17575225,-1.1869152,0.6124735,-4.473233,0.998199,-2.823466,-5.938208,0.099527836,1.7288983
3.0806432,17.894241,3.7892237,9.251709,0.36787087,-1.5286394,0.13555072,-0.8010531,0.48743924,-0.30615744,0.19472024,0.23067337,0.6478753,0.5520507,0.8906928,-0.33778927,-1.8606983,-0.7330253,2.4477904,1.5288842,-0.9622329,0.95636135,-0.3773932,-1.8357627,-0.7490412,2.4286141,1.468846,-1.0142584,-1.4413016,0.9027705,-0.5638356,0.34142953,0.37788802,0.4750925,0.32168686,1.1648102,-0.5741501,1.7348934,-3.1961095,0.16086924,-0.22669041,0.035900116,-0.31907654,1.096572,0.87342644,-0.2628629,0.13833815,0.3858651,-0.28857931,0.5286889,0.2152625,1.0,0.0,0.0,0.0,0.0,0.0,0.0,-1.8148102,0.17415008,-1.1848934,0.9291649,-4.4997096,1.67979,-1.6847074,-4.5086327,0.030314922,1.4423966
0.816972,9.330799,1.6449538,8.997118,0.59833014,-1.6678221,0.09644139,-0.79456437,0.42976192,-0.29923183,0.19113319,0.16046144,0.64665794,0.56818765,0.8769049,-0.334417,-1.8656859,-0.7299279,2.4446602,1.5335118,-0.9574396,0.9420381,-0.36886686,-1.841275,-0.74569094,2.4319596,1.4735876,-1.010932,-1.429104,0.83606005,-0.5471481,0.3326708,0.32018828,0.47428474,0.33596036,1.1328735,-0.5725479,1.7318918,-3.192914,0.16070841,-0.3246497,0.032993317,-0.3140335,1.0985667,0.8745099,-0.26632246,0.14392413,0.37893352,-0.28373912,0.49597928,0.19259037,1.0,0.0,0.0,0.0,0.0,0.0,0.0,-1.7828735,0.1725479,-1.1818917,1.271987,-6.6160917,1.6192198,-0.9365678,-5.7074547,0.049859285,1.366806
-0.24021125,6.841153,0.8636335,9.051417,0.6869963,-1.7344025,0.07007548,-0.79546165,0.40208519,-0.30161926,0.17547487,0.14165038,0.6416208,0.5662297,0.86249197,-0.32865834,-1.871437,-0.72814345,2.4461246,1.5377498,-0.954309,0.9278112,-0.3610186,-1.846669,-0.74245226,2.4347749,1.4783179,-1.0074816,-1.4204099,0.76792115,-0.53717256,0.3207798,0.2686617,0.4729902,0.34789425,1.1009674,-0.57094574,1.7279112,-3.1897218,0.16054773,-0.42251107,0.030117035,-0.3093567,1.1003305,0.87555075,-0.26949066,0.14953032,0.37205672,-0.28329894,0.45958933,0.169558,1.0,0.0,0.0,0.0,0.0,0.0,0.0,-1.7509674,0.17094573,-1.1779113,0.9275675,-6.762624,0.9405136,-1.245445,-5.0985994,-0.008678436,1.1384845
-0.68805194,-0.1082592,-0.9625038,6.4037037,0.5438701,-1.9858105,0.08201586,-0.7887818,0.35009882,-0.3093176,0.12845995,0.06044638,0.6429624,0.57055867,0.84893304,-0.3260087,-1.8776007,-0.7296063,2.4408195,1.5426141,-0.9504257,0.91367584,-0.35393375,-1.8520477,-0.73952353,2.4369454,1.4830385,-1.0039244,-1.4108233,0.6888539,-0.5386591,0.283447,0.19986938,0.4722266,0.358314,1.0690918,-0.56934357,1.7229528,-3.1865327,0.16038722,-0.5202746,0.027267456,-0.30516815,1.1017995,0.876594,-0.27223462,0.15519851,0.3652186,-0.28090265,0.40808263,0.13811392,1.0,0.0,0.0,0.0,0.0,0.0,0.0,-1.7190918,0.16934356,-1.1729529,1.0855436,-7.84719,-0.2829194,-3.7661016,-6.831339,0.07241368,0.99865794
3.558577,-5.761677,-2.083561,-2.4227781,-0.26615065,-2.539042,0.28342393,-0.78027517,0.31090617,-0.31525624,-0.041015875,-0.013861544,0.6365922,0.5590036,0.8356483,-0.32284313,-1.8835733,-0.7436251,2.4355593,1.5466977,-0.94802403,0.89965683,-0.34764427,-1.8575065,-0.7377306,2.438315,1.4877497,-1.0002832,-1.3981466,0.6093088,-0.5489476,0.14454108,0.11579247,0.47168362,0.36597294,1.0372505,-0.5677414,1.7170175,-3.1833467,0.16022687,-0.6179404,0.02463913,-0.30171204,1.1027908,0.8776772,-0.27417237,0.16102971,0.35858262,-0.25197217,0.32722592,0.08514761,1.0,0.0,0.0,0.0,0.0,0.0,0.0,-1.6872505,0.16774139,-1.1670175,1.5087128,-7.866502,-1.2579799,-13.879317,-8.401245,0.16274452,0.7365823
9.470285,-14.69233,-3.2717695,-14.330667,-1.2951766,-3.2119482,0.6136908,-0.7719261,0.24152458,-0.25160474,-0.2677902,-0.18502939,0.6458599,0.54432887,0.8224642,-0.3234918,-1.882667,-0.7645096,2.419812,1.5523357,-0.9458504,0.88578755,-0.34227318,-1.8627784,-0.7383057,2.4384637,1.4924666,-0.99658775,-1.3818281,0.5134391,-0.52127314,-0.12448964,-0.019204842,0.47259575,0.37063932,1.0054436,-0.5661392,1.7101063,-3.180164,0.16006666,-0.71550864,0.022556305,-0.29932404,1.1030315,0.8788046,-0.27479452,0.16713081,0.35250196,-0.18981704,0.2067991,0.0030532775,1.0,0.0,0.0,0.0,0.0,0.0,0.0,-1.6554435,0.16613922,-1.1601062,2.0349264,-9.466946,2.4101138,-26.816517,-13.544528,0.34493208,0.4381001
10.485295,-24.837845,-4.925255,-19.861244,-1.3219916,-3.5753534,0.7833304,-0.7743298,0.1593386,-0.18008584,-0.43266267,-0.22804666,0.6613701,0.49583423,0.80835456,-0.3263393,-1.880787,-0.781572,2.415659,1.5586035,-0.9470043,0.87204415,-0.3380379,-1.8674209,-0.7420422,2.4372964,1.4971987,-0.9928932,-1.370181,0.39387283,-0.44661537,-0.456289,-0.14937773,0.4738597,0.3689691,0.97366714,-0.56453705,1.7022201,-3.1769845,0.15990663,-0.8129793,0.021102905,-0.2983551,1.102339,0.8799792,-0.27380702,0.17335148,0.3472973,-0.12916106,0.059726734,-0.093899496,1.0,0.0,0.0,0.0,0.0,0.0,0.0,-1.6236671,0.16453704,-1.15222,1.6566515,-11.853343,7.0577564,-33.042603,-13.1029825,0.24242997,-0.21876693
5.3080916,-38.125328,-8.642786,-19.53238,-0.76657426,-3.7399414,0.6720022,-0.78615195,0.0712599,-0.18657528,-0.55977255,-0.2761735,0.6643048,0.43787602,0.79342896,-0.3309119,-1.8860785,-0.7980194,2.409679,1.5636292,-0.9491056,0.85832363,-0.33517355,-1.8713901,-0.74907076,2.434935,1.5019346,-0.9892683,-1.3709705,0.25068694,-0.38164267,-0.78451127,-0.2656126,0.47304046,0.3598815,0.94192123,-0.5629349,1.69336,-3.173808,0.15974675,-0.91035247,0.020057678,-0.29898834,1.1006359,0.8812815,-0.2711088,0.17948905,0.34296712,-0.09612522,-0.10410246,-0.1963102,1.0,0.0,0.0,0.0,0.0,0.0,0.0,-1.5919212,0.16293487,-1.1433599,0.43039322,-14.286703,6.1829624,-32.67269,-11.808428,-0.20090342,-1.0367095
-6.871826,-72.24494,-17.497608,-17.326437,0.72967964,-3.987167,0.42094353,-0.7780856,-0.1346729,-0.15805964,-0.6324947,-0.38626924,0.67055786,0.42298278,0.7805151,-0.34864083,-1.8871961,-0.81232023,2.3963082,1.5689905,-0.94697005,0.84460217,-0.33441585,-1.8747337,-0.7588898,2.4313493,1.5066496,-0.985754,-1.3705621,0.01708718,-0.31874833,-1.047224,-0.39093068,0.46960303,0.34762636,0.91020584,-0.5613327,1.6835269,-3.170635,0.15958704,-1.0076282,0.018852234,-0.30149078,1.0978537,0.8828514,-0.266727,0.1851885,0.3393157,-0.13072573,-0.2998953,-0.30640686,1.0,0.0,0.0,0.0,0.0,0.0,0.0,-1.5602058,0.1613327,-1.1335268,0.60448647,-23.474062,6.1905146,-26.09266,-12.906158,-0.77148676,-1.5143394
-18.359932,-105.87153,-25.066599,-13.459307,2.6837041,-3.9715257,0.30213407,-0.7533713,-0.40161183,0.0059054736,-0.6586452,-0.49462634,0.6771873,0.4673331,0.76926506,-0.37457705,-1.8741431,-0.8247543,2.3818867,1.5743684,-0.9390207,0.8309961,-0.33689445,-1.8768432,-0.77059233,2.4264283,1.5113188,-0.9823284,-1.355413,-0.33711445,-0.17488293,-1.2104704,-0.52735454,0.4635077,0.33956447,0.87852097,-0.55973816,1.6727217,-3.167465,0.1594275,-1.1048068,0.016727448,-0.3060913,1.093963,0.88473,-0.26093823,0.18982072,0.3363511,-0.2426813,-0.5136436,-0.41792876,1.0,0.0,0.0,0.0,0.0,0.0,0.0,-1.528521,0.15973815,-1.1227217,2.0861626,-35.709076,14.496287,-16.08908,-14.135492,-1.3701797,-1.2120306
-19.188362,-102.048836,-22.941078,-8.138898,3.620043,-3.393519,0.3919607,-0.71975845,-0.5648668,0.17981625,-0.70559984,-0.5010835,0.6675614,0.48968112,0.75902027,-0.39338112,-1.8588616,-0.8411523,2.37632,1.5780749,-0.9333603,0.8176933,-0.34313005,-1.8768661,-0.7834135,2.4203858,1.5159136,-0.97894955,-1.320425,-0.72023356,0.055885132,-1.3052659,-0.63105834,0.4551352,0.33624572,0.8468666,-0.55815125,1.6609455,-3.164298,0.1592681,-1.2018882,0.013320923,-0.31261444,1.08906,0.8867979,-0.2542149,0.192834,0.33433384,-0.37863958,-0.6965953,-0.5163688,1.0,0.0,0.0,0.0,0.0,0.0,0.0,-1.4968666,0.15815124,-1.1109455,3.947997,-38.663197,23.201694,-9.232402,-10.759163,-1.7647505,-0.63965917
-11.418191,-67.518166,-12.66118,-0.94590616,3.658527,-2.3409438,0.57582325,-0.6713321,-0.67090714,0.38797423,-0.7214122,-0.4823549,0.64077765,0.45343238,0.7505601,-0.41022077,-1.8380687,-0.85555476,2.3721504,1.5799913,-0.9336063,0.80492836,-0.35284084,-1.8739421,-0.7967659,2.4136605,1.5204188,-0.9756088,-1.2609519,-1.0556201,0.37090328,-1.3446923,-0.6866723,0.44629967,0.3332292,0.8152504,-0.55656433,1.6481992,-3.1611345,0.15910886,-1.2988726,0.008720398,-0.32048035,1.0833867,0.88880473,-0.24719588,0.19393134,0.33363286,-0.4922803,-0.809977,-0.5870379,1.0,0.0,0.0,0.0,0.0,0.0,0.0,-1.4652504,0.15656433,-1.0981991,6.2206745,-33.817398,31.367529,-3.7639856,-5.624175,-1.6586244,-0.33851266
-1.1753277,-18.922752,0.08064908,7.201538,2.8927085,-1.2390931,0.6026271,-0.6024472,-0.70795363,0.473002,-0.7016124,-0.46997693,0.63254374,0.3823645,0.7446836,-0.4236362,-1.8266419,-0.86692715,2.3666627,1.5836731,-0.9373724,0.79299504,-0.36508507,-1.8680332,-0.8101307,2.4066682,1.5248591,-0.9723339,-1.1702985,-1.2810949,0.66265357,-1.3333752,-0.70279706,0.44204912,0.3263284,0.7836647,-0.5549774,1.6344838,-3.157974,0.15894979,-1.39576,0.0033569336,-0.32887268,1.0772682,0.89052707,-0.24047178,0.19328074,0.3343313,-0.55545783,-0.84465003,-0.6234166,1.0,0.0,0.0,0.0,0.0,0.0,0.0,-1.4336647,0.15497741,-1.0844839,9.2118025,-22.670769,28.71033,1.2308121,-1.3552666,-0.76646805,-0.4658997
5.3516746,17.01453,8.323969,12.819658,1.8576998,-0.60641706,0.44610953,-0.52605706,-0.7367108,0.4591466,-0.6723385,-0.51681125,0.63799894,0.31011593,0.74038935,-0.43875614,-1.8221185,-0.8773646,2.3549871,1.5886589,-0.9413223,0.7821813,-0.37879986,-1.8600528,-0.8231064,2.3995233,1.5292898,-0.96917343,-1.0514671,-1.4016447,0.84130204,-1.2852997,-0.71741056,0.44348738,0.31368876,0.7521095,-0.5533905,1.6198002,-3.1548166,0.15879087,-1.4925505,-0.0023002625,-0.33729553,1.0709647,0.891886,-0.23434101,0.19143423,0.3361199,-0.5722439,-0.8305211,-0.63601965,1.0,0.0,0.0,0.0,0.0,0.0,0.0,-1.4021095,0.1533905,-1.0698001,11.955333,-12.053156,17.276155,4.89316,-1.0853529,0.19051433,-0.9396434
10.875872,39.184868,13.297596,14.311679,0.9186035,-0.42756897,0.32938936,-0.42299676,-0.7590588,0.4374647,-0.65313476,-0.5244527,0.63174313,0.24534802,0.73988163,-0.45470574,-1.8163064,-0.88841987,2.347078,1.5924642,-0.9446386,0.7728134,-0.39315695,-1.8511646,-0.835508,2.392264,1.5337473,-0.96618176,-0.8987591,-1.4467881,0.90309525,-1.2249056,-0.7278081,0.44734272,0.2954846,0.72058487,-0.5518036,1.6041495,-3.1516626,0.15863211,-1.5892442,-0.007862091,-0.34542084,1.0646224,0.89288735,-0.22884752,0.1889245,0.33865666,-0.5519861,-0.7968151,-0.6367001,1.0,0.0,0.0,0.0,0.0,0.0,0.0,-1.3705848,0.15180358,-1.0541494,15.20052,-4.4433117,5.7115436,6.1132193,-0.6798744,0.6464839,-1.4931083
10.922058,45.80581,13.6272335,14.545252,0.3999266,-0.5122233,0.18260263,-0.37993267,-0.7709354,0.40723023,-0.65068763,-0.52707154,0.6275654,0.22983195,0.7348201,-0.4702505,-1.8104416,-0.9005768,2.3395567,1.5965039,-0.94319856,0.7648807,-0.40763468,-1.8423393,-0.8473946,2.3849168,1.5382429,-0.96337414,-0.7582976,-1.4478225,0.8744962,-1.176277,-0.7361221,0.4512446,0.27674127,0.6890907,-0.5502167,1.5875325,-3.1485114,0.15847352,-1.6858413,-0.013118744,-0.35321808,1.0582763,0.89361376,-0.22383688,0.18616258,0.34160626,-0.518186,-0.7642067,-0.63666296,1.0,0.0,0.0,0.0,0.0,0.0,0.0,-1.3390907,0.15021667,-1.0375326,13.979363,-0.026988983,-3.2256007,4.969454,-0.58288574,0.685668,-1.602751
8.587937,41.57802,11.089838,13.20224,0.25472763,-0.79625636,0.053981792,-0.32999787,-0.7804033,0.33559665,-0.6576708,-0.47904277,0.6184386,0.20284407,0.7318809,-0.485675,-1.8087796,-0.91316164,2.3370125,1.6000868,-0.9430897,0.7582069,-0.42199987,-1.8343666,-0.8589779,2.3776498,1.5427614,-0.9607601,-0.637233,-1.4326131,0.7709972,-1.1518672,-0.72350466,0.4528893,0.25686294,0.6576271,-0.54862976,1.5699502,-3.1453636,0.15831508,-1.7823418,-0.018066406,-0.3608017,1.0518703,0.89419556,-0.2190469,0.18334563,0.34469864,-0.487265,-0.7478079,-0.64449245,1.0,0.0,0.0,0.0,0.0,0.0,0.0,-1.3076271,0.14862975,-1.0199502,12.040377,1.5650749,-10.550821,2.5720358,1.363039,0.36423802,-1.7940998
7.950738,33.596592,8.0604725,9.391419,0.0010396019,-1.1956782,0.03861569,-0.25327006,-0.788904,0.235529,-0.6843555,-0.4722223,0.6107823,0.23459809,0.7328799,-0.50089025,-1.8108137,-0.92741346,2.3304276,1.6038396,-0.9373003,0.7527233,-0.43622345,-1.8278682,-0.8705784,2.3705392,1.54728,-0.9583063,-0.5191992,-1.4189368,0.6094309,-1.1623204,-0.70707315,0.45158228,0.24180222,0.626194,-0.54704285,1.5514038,-3.1422188,0.1581568,-1.8787459,-0.022705078,-0.36839294,1.0452694,0.89473766,-0.2141548,0.1805765,0.34781346,-0.45562598,-0.75541884,-0.6678697,1.0,0.0,0.0,0.0,0.0,0.0,0.0,-1.276194,0.14704284,-1.0014038,11.663187,1.3674736,-16.13139,-0.92995167,1.6079903,-0.09545684,-1.4049292
10.8098135,28.719517,6.750387,4.735799,-0.3333651,-1.5510244,0.122132085,-0.14223611,-0.79234177,0.12207056,-0.70781696,-0.45350763,0.5991398,0.2688094,0.73849964,-0.51545763,-1.8156612,-0.9413601,2.3251884,1.607194,-0.9314254,0.74860245,-0.45035738,-1.823283,-0.8824755,2.3636308,1.551768,-0.9559603,-0.3772232,-1.4116385,0.40902403,-1.198576,-0.68615913,0.44738767,0.23222841,0.5947952,-0.54545593,1.5318938,-3.1390772,0.15799868,-1.9750535,-0.026966095,-0.37622833,1.038332,0.8952774,-0.20889638,0.17787108,0.35100234,-0.41543016,-0.7832779,-0.705203,1.0,0.0,0.0,0.0,0.0,0.0,0.0,-1.2447952,0.14545593,-0.98189384,13.918781,0.70085526,-19.794077,-3.5624266,1.9804478,-0.52475333,-0.9196907
5.287736,16.919945,1.6729612,3.9108114,-0.17902488,-1.8229702,-0.019956034,-0.11961376,-0.7941003,-0.06318798,-0.7299814,-0.42906108,0.59419227,0.31170118,0.73664105,-0.5297674,-1.8296018,-0.95547366,2.3207247,1.6111872,-0.92479014,0.74569947,-0.46446604,-1.8211792,-0.8948313,2.3569627,1.5562025,-0.9536648,-0.26200637,-1.410833,0.14528006,-1.2475024,-0.6611267,0.44121248,0.2284667,0.5634308,-0.5438843,1.5114217,-3.135939,0.15784071,-2.0712647,-0.030960083,-0.38445282,1.0309126,0.89592487,-0.20298362,0.1752945,0.35410178,-0.3919548,-0.83116424,-0.7575246,1.0,0.0,0.0,0.0,0.0,0.0,0.0,-1.2134308,0.14388427,-0.96142167,11.319399,0.008153915,-26.045067,-4.771352,2.264452,-0.87230206,-0.40823817
4.1013937,11.959035,-0.39381886,2.7182114,-0.22871965,-1.9540914,-0.04371915,-0.04620276,-0.7971489,-0.21818195,-0.74965173,-0.43827006,0.5830807,0.36180824,0.7410792,-0.5441809,-1.8429973,-0.9697965,2.3131356,1.6145107,-0.9174839,0.7439361,-0.4786052,-1.8219345,-0.9076897,2.35047,1.5605646,-0.9513607,-0.1484264,-1.4152775,-0.14786898,-1.2981522,-0.64595836,0.43344215,0.23083329,0.53209686,-0.5423126,1.4899882,-3.1328034,0.1576829,-2.1673796,-0.034751892,-0.3932495,1.0229003,0.89674276,-0.19621962,0.17291792,0.35700074,-0.37204602,-0.888893,-0.8199034,1.0,0.0,0.0,0.0,0.0,0.0,0.0,-1.1820968,0.14231262,-0.9399882,11.174211,-0.5368948,-28.937515,-4.9247026,1.2257218,-1.1246681,0.16622245
5.229354,15.841965,1.1645663,3.377087,-0.3309982,-1.7528976,0.019636836,0.009817183,-0.7973269,-0.29696384,-0.75634634,-0.49654165,0.58755434,0.42349458,0.74491787,-0.5583379,-1.8516308,-0.98332435,2.3008158,1.61932,-0.90901124,0.7432533,-0.49279588,-1.8253429,-0.9209658,2.3439088,1.56486,-0.9489813,-0.041996405,-1.4206028,-0.40445468,-1.3369884,-0.66029173,0.42710036,0.2401709,0.50079346,-0.54074097,1.4675941,-3.1296713,0.15752524,-2.2633984,-0.03829193,-0.40254974,1.0142808,0.8976827,-0.18861838,0.17081259,0.3597387,-0.34719014,-0.93682504,-0.88101596,1.0,0.0,0.0,0.0,0.0,0.0,0.0,-1.1507934,0.14074096,-0.91759413,10.505958,-0.6127596,-25.3892,-3.7491083,-1.6716719,-0.9605825,0.8733988
-0.30912173,19.465939,1.9250026,8.477198,0.104744285,-1.2663159,-0.053967096,-0.031172458,-0.794836,-0.34222668,-0.7598948,-0.5223204,0.5973118,0.42990634,0.740136,-0.57227945,-1.8595656,-0.9969553,2.2916768,1.6245911,-0.90599066,0.74315506,-0.50701994,-1.8307922,-0.9345118,2.337092,1.5691096,-0.9465027,0.0010899422,-1.4233184,-0.591556,-1.3598093,-0.6897312,0.42355862,0.250285,0.46952057,-0.5391693,1.4442407,-3.1265423,0.15736775,-2.359321,-0.04171753,-0.41216278,1.0051267,0.8987103,-0.18032908,0.16901572,0.3622634,-0.33773336,-0.9630717,-0.93275803,1.0,0.0,0.0,0.0,0.0,0.0,0.0,-1.1195205,0.1391693,-0.8942407,4.388352,-0.35271645,-18.672895,-2.0832539,-3.171754,-0.6015003,0.97796917
-7.3729506,22.40096,2.3436413,13.890463,0.629642,-0.75456035,-0.12642574,-0.09067573,-0.7949983,-0.36633185,-0.7726113,-0.55654633,0.59533834,0.45937183,0.73408747,-0.5865198,-1.8674253,-1.0117729,2.2814374,1.6286434,-0.9005655,0.7429357,-0.52125925,-1.8375385,-0.9482323,2.3298898,1.5733343,-0.94390774,-0.028619658,-1.4244403,-0.70296323,-1.3751912,-0.73111963,0.4215222,0.2625281,0.4382782,-0.53759766,1.4199288,-3.1234164,0.15721041,-2.455148,-0.04518509,-0.42186737,0.9955329,0.8998123,-0.17152114,0.16753255,0.36448744,-0.34763357,-0.96748734,-0.97478056,1.0,0.0,0.0,0.0,0.0,0.0,0.0,-1.0882782,0.13759765,-0.8699288,-2.6697237,-0.20356178,-11.315656,-1.2625694,-4.3864727,-0.37562847,1.2147784
-7.4396834,32.072247,6.529439,17.378353,0.9342021,-0.22150397,-0.036994986,-0.10476801,-0.7957853,-0.31654078,-0.77002496,-0.5649598,0.607355,0.46943572,0.7324589,-0.60083777,-1.8691926,-1.0252348,2.2733939,1.6340698,-0.8969642,0.7422014,-0.5355033,-1.8446395,-0.9620253,2.32231,1.5775591,-0.9411888,-0.08707572,-1.4246428,-0.71355814,-1.3797262,-0.76782,0.42266744,0.27518085,0.40706635,-0.536026,1.3946593,-3.1202936,0.15705323,-2.550879,-0.04878235,-0.431427,0.98564565,0.90089786,-0.16248645,0.16623989,0.3665316,-0.35992515,-0.94593865,-1.000186,1.0,0.0,0.0,0.0,0.0,0.0,0.0,-1.0570663,0.136026,-0.84465927,-5.4919424,-0.08690357,-1.4097452,-0.1992464,-3.8298607,0.07532239,1.333946
-6.3799195,39.245476,9.699459,19.113552,1.0733864,0.08503121,0.027115077,-0.12323932,-0.79315174,-0.29991227,-0.7689736,-0.5718333,0.6030931,0.4647277,0.7298775,-0.6148185,-1.8746308,-1.0389227,2.2651267,1.6378684,-0.894716,0.7408281,-0.54973215,-1.8514316,-0.97581446,2.314425,1.5817991,-0.9383564,-0.15288742,-1.422428,-0.66925025,-1.377785,-0.79577917,0.42462847,0.28631178,0.375885,-0.53445435,1.3684331,-3.117174,0.15689622,-2.6465144,-0.052474976,-0.44068146,0.97559303,0.9018842,-0.15346777,0.16501105,0.368543,-0.37038457,-0.90949416,-1.0136706,1.0,0.0,0.0,0.0,0.0,0.0,0.0,-1.025885,0.13445434,-0.8184331,-6.2324495,0.17867088,3.9915085,0.41954517,-2.8865814,0.24603605,1.2392819
-6.164351,38.022587,9.392311,18.416859,1.1397922,0.026197493,0.027195625,-0.13207573,-0.799634,-0.3447195,-0.77517295,-0.55772644,0.59272,0.4630653,0.72762054,-0.62969553,-1.8859036,-1.0533317,2.2586524,1.6410712,-0.89204985,0.7388893,-0.56396765,-1.8578956,-0.98959315,2.3063836,1.5860506,-0.9354267,-0.20656157,-1.4241155,-0.64013004,-1.3771454,-0.80752033,0.42530906,0.2956352,0.3447342,-0.5328827,1.3412514,-3.1140575,0.15673935,-2.7420542,-0.05628586,-0.44960022,0.9653905,0.90276515,-0.14450276,0.16374855,0.37056777,-0.38272074,-0.878054,-1.0289115,1.0,0.0,0.0,0.0,0.0,0.0,0.0,-0.99473417,0.13288268,-0.79125136,-5.0550313,-0.21340847,2.5128484,0.29308796,-1.2651443,0.09384155,1.068294
-7.7803707,36.48986,8.562349,18.60175,1.2415222,0.017553627,-0.011912279,-0.16650218,-0.8013646,-0.3555855,-0.7730252,-0.5641509,0.5958712,0.47709665,0.7222391,-0.6441041,-1.8934542,-1.0668957,2.2499685,1.6456378,-0.88771707,0.73641926,-0.5782327,-1.8641994,-1.0033551,2.298266,1.5903078,-0.9324055,-0.25941917,-1.4275125,-0.6282764,-1.3750877,-0.81353474,0.4258771,0.30471492,0.3136139,-0.53131104,1.313115,-3.110944,0.15658264,-2.8374984,-0.060260773,-0.4582138,0.95502,0.9035691,-0.13555655,0.16241866,0.37256864,-0.40008527,-0.84964633,-1.0459067,1.0,0.0,0.0,0.0,0.0,0.0,0.0,-0.96361387,0.13131103,-0.763115,-4.976371,-0.39377213,0.8202553,0.45592785,-0.71730614,0.06120205,1.0383844
-6.9964695,35.420574,8.09639,17.378067,1.1823201,-0.08493507,-0.01743728,-0.1717475,-0.8013736,-0.38464722,-0.7766231,-0.54953927,0.5914149,0.47609138,0.7192445,-0.6583701,-1.9026641,-1.0810175,2.2433121,1.6494493,-0.8847963,0.733543,-0.5925302,-1.8706043,-1.0171167,2.2901635,1.5945631,-0.9293051,-0.29617855,-1.4307232,-0.64543784,-1.3756511,-0.80946344,0.4254522,0.31224018,0.2825241,-0.5297394,1.2840248,-3.1078339,0.15642609,-2.9328473,-0.06439972,-0.4665985,0.944444,0.9043184,-0.12656417,0.1609966,0.3745261,-0.41615248,-0.8276212,-1.0673419,1.0,0.0,0.0,0.0,0.0,0.0,0.0,-0.9325241,0.12973937,-0.7340248,-3.408122,-0.37932396,-2.0183086,0.19335747,0.27740002,-0.07691383,0.8735359
-6.236511,33.508446,7.325386,15.953233,1.1009368,-0.20533305,-0.020581387,-0.17470577,-0.8062946,-0.4242437,-0.7788526,-0.543258,0.584564,0.48390228,0.7160724,-0.67315966,-1.9130286,-1.0950019,2.2358377,1.6530195,-0.88091487,0.73042256,-0.60687536,-1.877404,-1.0308992,2.2821374,1.598807,-0.9261341,-0.3165913,-1.4360509,-0.69228625,-1.3781594,-0.80091894,0.42378196,0.31910956,0.25147247,-0.528183,1.2539818,-3.1047266,0.1562697,-3.0281007,-0.068675995,-0.47483063,0.93360704,0.9050306,-0.11743975,0.15946667,0.37642774,-0.43090546,-0.8129435,-1.0949149,1.0,0.0,0.0,0.0,0.0,0.0,0.0,-0.90147245,0.12818298,-0.7039818,-1.8129885,-0.5985737,-4.920423,0.0021219254,0.70734024,-0.24974942,0.7921994
-4.957141,31.982891,6.7072835,14.396822,0.94790655,-0.32477617,-0.022053763,-0.16727649,-0.8106375,-0.47887528,-0.778448,-0.55201143,0.57781756,0.48209465,0.71369493,-0.6879391,-1.9252915,-1.1087439,2.2269363,1.6565888,-0.8779246,0.7272373,-0.62128633,-1.884898,-1.0447046,2.2741647,1.6030279,-0.92290497,-0.3185649,-1.4430244,-0.769065,-1.3804393,-0.79644984,0.4209786,0.32446948,0.22045135,-0.5266266,1.222987,-3.1016226,0.15611346,-3.1232588,-0.073093414,-0.4829712,0.92244434,0.9057171,-0.10808619,0.15785134,0.37825498,-0.44206053,-0.80505335,-1.1290772,1.0,0.0,0.0,0.0,0.0,0.0,0.0,-0.87045133,0.12662658,-0.67298704,-0.011277199,-0.76966286,-7.846284,0.024175644,0.285244,-0.4121065,0.61903
-13.003974,28.856956,4.021254,17.054176,1.3306522,-0.17860472,-0.16437401,-0.24184069,-0.81033367,-0.519046,-0.77862686,-0.5511839,0.5614395,0.48880005,0.70305324,-0.7023197,-1.9368025,-1.1225673,2.2190464,1.6591719,-0.874025,0.7237516,-0.6357545,-1.8932445,-1.0585233,2.2662187,1.607207,-0.91962624,-0.35769388,-1.4485112,-0.8570575,-1.3813065,-0.7946496,0.4163455,0.32926854,0.18946075,-0.5250702,1.1910415,-3.0985215,0.15595737,-3.218322,-0.077754974,-0.49100494,0.91092503,0.9064414,-0.09842065,0.156187,0.37984598,-0.47270843,-0.7947287,-1.1653969,1.0,0.0,0.0,0.0,0.0,0.0,0.0,-0.83946073,0.12507018,-0.64104146,-3.636402,-0.6580591,-8.960986,0.24454594,-0.06805658,-0.6310642,0.5385041
-22.035341,23.135265,-0.050915718,18.886889,1.7126203,-0.13877428,-0.33148667,-0.30305195,-0.8133965,-0.60498995,-0.7920264,-0.54233795,0.50332785,0.44443864,0.6934464,-0.7170942,-1.9537435,-1.137726,2.2119849,1.6575397,-0.8751824,0.71960884,-0.65027803,-1.9026878,-1.0724012,2.2583032,1.6112944,-0.9163399,-0.43187666,-1.4541514,-0.9740798,-1.3886908,-0.7919752,0.40534782,0.32848266,0.15850067,-0.5235138,1.158146,-3.0954237,0.15580145,-3.31329,-0.08288956,-0.49894714,0.8989806,0.90730566,-0.08828927,0.15449367,0.38096327,-0.5255668,-0.7869339,-1.2101274,1.0,0.0,0.0,0.0,0.0,0.0,0.0,-0.80850065,0.12351379,-0.608146,-7.0482435,-0.7272959,-11.82642,-0.30145645,-0.097978115,-1.355958,-0.055354834
-33.643005,18.97121,-3.4725356,22.620667,2.4028578,0.14752984,-0.48684764,-0.40496215,-0.8244645,-0.63669086,-0.7950852,-0.5120809,0.48277056,0.43397406,0.6791126,-0.7327245,-1.9663569,-1.1519097,2.2070951,1.6595714,-0.87294245,0.7143312,-0.66489786,-1.9132278,-1.0863591,2.2504945,1.6152579,-0.9130745,-0.55804634,-1.4653443,-1.081095,-1.3962672,-0.7790638,0.3922743,0.32602113,0.1275711,-0.5219574,1.1243014,-3.0923288,0.15564568,-3.4081633,-0.08878708,-0.50679016,0.88657844,0.90840214,-0.07763123,0.15270258,0.38139307,-0.6092353,-0.7719026,-1.2564319,1.0,0.0,0.0,0.0,0.0,0.0,0.0,-0.7775711,0.12195739,-0.5743014,-12.1275425,-1.3459444,-10.829186,-0.1953125,0.81294775,-1.625973,-0.22045374
-47.182076,18.47628,-6.278563,27.879978,3.1128123,0.5711504,-0.68790317,-0.5409397,-0.81889313,-0.6816126,-0.79542345,-0.50888944,0.46532628,0.39374435,0.66023725,-0.7467872,-1.981389,-1.1659015,2.1996055,1.6617905,-0.8737001,0.7073341,-0.679593,-1.9247615,-1.1003724,2.2428117,1.619084,-0.9098635,-0.7448645,-1.4718579,-1.1778055,-1.4006053,-0.76712316,0.37820163,0.31943002,0.09667206,-0.520401,1.0895009,-3.0892372,0.15549007,-3.504007,-0.095752716,-0.5143738,0.87373984,0.9098237,-0.06644467,0.15078573,0.38087985,-0.7242636,-0.7425318,-1.2993091,1.0,0.0,0.0,0.0,0.0,0.0,0.0,-0.74667203,0.120400995,-0.5395009,-18.058407,-0.9513855,-9.800673,0.26659966,0.5758524,-1.7815471,-0.63961744
-54.733017,20.836172,-6.909813,30.916428,3.5794725,0.93789995,-0.78944266,-0.6517041,-0.81497765,-0.7217121,-0.7953343,-0.46625954,0.44351602,0.33610597,0.6421637,-0.7610908,-1.9969327,-1.1799059,2.1961858,1.6634356,-0.8762529,0.6982494,-0.69431204,-1.9371612,-1.1144029,2.2353501,1.6227633,-0.9067583,-0.9606653,-1.4730829,-1.2610075,-1.4012585,-0.74191517,0.36317703,0.307675,0.06580353,-0.5188446,1.0537426,-3.0861485,0.1553346,-3.599755,-0.10399246,-0.5215683,0.86051625,0.9116233,-0.054781277,0.1486731,0.37926,-0.8572146,-0.6994451,-1.3366206,1.0,0.0,0.0,0.0,0.0,0.0,0.0,-0.7158035,0.1188446,-0.50374264,-20.904243,-0.47502518,-8.432794,0.71771145,1.8219948,-1.929611,-1.13433
-50.365032,29.888464,-2.7169642,30.563753,3.2786062,1.2644669,-0.70872134,-0.71248347,-0.81045294,-0.7281636,-0.7805191,-0.52284825,0.4995296,0.26814482,0.62700105,-0.7753573,-2.0099776,-1.1924548,2.1830654,1.6727163,-0.87994385,0.6871696,-0.7090015,-1.9501617,-1.128359,2.2279458,1.6263529,-0.9038143,-1.155086,-1.4686623,-1.3134427,-1.3912377,-0.7421845,0.3561244,0.29017192,0.034965515,-0.5172882,1.0170276,-3.0830631,0.1551793,-3.6954072,-0.11343765,-0.52822113,0.8469969,0.9137377,-0.042795904,0.14640205,0.3765878,-0.97372055,-0.64131945,-1.3636146,1.0,0.0,0.0,0.0,0.0,0.0,0.0,-0.6849655,0.1172882,-0.4670276,-18.847729,0.108098984,-5.3557158,1.7330647,-0.658226,-1.0898054,-1.6908526
-37.997757,39.37973,3.166592,27.006828,2.6498756,1.3281074,-0.5362382,-0.7338622,-0.80612415,-0.74771994,-0.77003187,-0.5202978,0.5055037,0.13912393,0.61378336,-0.7896139,-2.0249336,-1.2053622,2.175916,1.6769032,-0.88990194,0.6745849,-0.72361654,-1.9635513,-1.1421682,2.2205071,1.6298949,-0.90112877,-1.2914414,-1.4600344,-1.3476362,-1.3755015,-0.7461169,0.35249946,0.26161394,0.00415802,-0.5157318,0.9793568,-3.0799806,0.15502416,-3.7909636,-0.12379074,-0.5342865,0.83326465,0.91604954,-0.030652849,0.14397746,0.37307376,-1.057361,-0.5783941,-1.382964,1.0,0.0,0.0,0.0,0.0,0.0,0.0,-0.654158,0.115731806,-0.4293568,-13.205051,0.5959034,-3.5169363,2.160883,-0.874269,-0.67117214,-2.7692735
-26.853916,45.948166,7.9741907,23.495152,2.1260805,1.3363844,-0.38455403,-0.764808,-0.80816877,-0.7512652,-0.7601242,-0.5135288,0.5063251,-0.0019056814,0.5981041,-0.8044334,-2.0386777,-1.2181805,2.1691542,1.6805273,-0.9013193,0.6610094,-0.7381591,-1.9771411,-1.1557981,2.2130418,1.6334139,-0.89881516,-1.3786707,-1.4530563,-1.3630098,-1.3574561,-0.74751306,0.35096502,0.2215653,-0.026618958,-0.51418304,0.94073117,-3.0769014,0.15486917,-3.8864245,-0.13478088,-0.53970337,0.8193755,0.9184537,-0.0184956,0.14135085,0.36894536,-1.1129996,-0.5147059,-1.3972563,1.0,0.0,0.0,0.0,0.0,0.0,0.0,-0.623381,0.11418304,-0.39073116,-8.428478,0.497365,-1.6348362,2.2639751,-0.4779935,-0.3877282,-3.889999
-16.374847,50.979286,12.074928,20.016008,1.6884977,1.27243,-0.26950097,-0.77669144,-0.8058757,-0.7559003,-0.7534794,-0.47336122,0.4831486,-0.19670963,0.5833402,-0.8187467,-2.0527313,-1.231146,2.1657057,1.6817287,-0.9184861,0.646895,-0.7526378,-1.9908035,-1.169262,2.2056985,1.6369082,-0.89702034,-1.4217925,-1.4466174,-1.3676484,-1.341614,-0.73063403,0.34841186,0.16600408,-0.057365417,-0.5126419,0.9011516,-3.0738251,0.15471433,-3.98179,-0.14612961,-0.5445328,0.805367,0.920881,-0.006436878,0.13842155,0.36438474,-1.1442086,-0.45391566,-1.4081346,1.0,0.0,0.0,0.0,0.0,0.0,0.0,-0.59263456,0.1126419,-0.3511516,-4.131317,0.50661564,-0.5599499,1.9222021,1.474297,-0.42696595,-5.411667
-13.381931,52.19075,13.251799,19.235918,1.6098728,1.2852315,-0.25553876,-0.8018921,-0.8103889,-0.7666277,-0.7228289,-0.46612966,0.50126874,-0.28419676,0.56670576,-0.8336767,-2.0674663,-1.241545,2.1590855,1.6870351,-0.92544,0.6324888,-0.7670917,-2.0045097,-1.1824743,2.1985536,1.6403948,-0.8958063,-1.4464519,-1.4453422,-1.371813,-1.313258,-0.709605,0.3482186,0.10701726,-0.08808136,-0.51110077,0.86061907,-3.070752,0.15455964,-4.07706,-0.1577568,-0.54875946,0.7912675,0.92330843,0.0054425006,0.13514931,0.35945293,-1.169285,-0.3947898,-1.4162048,1.0,0.0,0.0,0.0,0.0,0.0,0.0,-0.5619186,0.11110076,-0.31061906,-2.3317099,0.009584427,-0.49552917,3.136921,1.9412875,-0.16844273,-5.7465715
-10.453541,54.940994,14.867248,18.63708,1.4305695,1.3418727,-0.22278841,-0.8113934,-0.804727,-0.76718193,-0.7003248,-0.47881812,0.5229143,-0.33161852,0.55134946,-0.8475644,-2.0812278,-1.2525067,2.1506717,1.6926862,-0.9289682,0.61793095,-0.78152174,-2.0182388,-1.1953431,2.1915574,1.6439005,-0.89516354,-1.4585739,-1.4425652,-1.373639,-1.277088,-0.6967278,0.35088223,0.050490018,-0.118766785,-0.50955963,0.8191346,-3.0676818,0.15440512,-4.172235,-0.16957474,-0.5523834,0.777117,0.92571247,0.017086623,0.13158305,0.35418957,-1.1850835,-0.33530116,-1.4200193,1.0,0.0,0.0,0.0,0.0,0.0,0.0,-0.5312332,0.109559625,-0.26913458,-1.1161804,0.17960072,-0.24659634,3.8740635,1.16148,0.15182495,-5.51055
-8.042301,55.74165,15.694565,17.600227,1.2439141,1.3477573,-0.17738894,-0.8123926,-0.8077695,-0.7679648,-0.6817633,-0.49309617,0.5363327,-0.36574456,0.53669167,-0.86229867,-2.0950353,-1.2635195,2.1422477,1.6975338,-0.931738,0.60332257,-0.79594415,-2.0319793,-1.2078286,2.184607,1.6474444,-0.895051,-1.4613454,-1.4424309,-1.3743436,-1.2383491,-0.69492745,0.35512072,-0.0013755598,-0.14942169,-0.5080185,0.7766991,-3.0646148,0.15425074,-4.2673144,-0.18149185,-0.5554428,0.7629292,0.92806476,0.028480098,0.12778756,0.34864736,-1.1931815,-0.27762502,-1.4234586,0.0,1.0,0.0,0.0,0.0,0.0,0.0,-0.5005783,0.10801849,-0.22669911,-0.2048254,-0.07209778,-0.12655258,4.1090965,0.07379055,0.32220483,-5.0533714
-5.5153337,57.18868,16.644865,16.384356,1.0000681,1.3463736,-0.10340832,-0.8095814,-0.80242497,-0.7726494,-0.66858983,-0.5120787,0.5342778,-0.32942206,0.52236444,-0.87618667,-2.1092443,-1.2746876,2.1333992,1.7008722,-0.9279932,0.58892024,-0.81031406,-2.0469666,-1.2202829,2.1776407,1.6540867,-0.89485294,-1.4367827,-1.4364703,-1.5106151,-1.238084,-0.70361716,0.68727046,0.011119627,-0.16297531,-0.50684357,0.77967703,-1.2425718,0.13675341,0.68651325,-0.19352722,-0.5576019,0.74830496,0.930195,0.038805086,0.12434314,0.3431767,-1.201682,-0.18619001,-1.4698873,0.0,1.0,0.0,0.0,0.0,0.0,0.0,-0.48702466,0.10684356,-0.22967702,0.7643223,0.09915829,-0.59211254,4.1279793,-1.1019826,-0.28750896,-3.958936
49.38613,176.0,110.0,110.0,3.184617,11.879847,-1.284232,-0.7981438,0.478052,0.67538303,0.719618,-0.4440716,0.64929336,-0.3889558,0.50910586,-0.76250887,-1.9794283,-1.1483212,2.1332335,1.7190161,-0.93374854,0.57757723,-0.82707584,-2.05352,-1.2193826,2.161657,1.6683136,-0.89520484,-1.0170686,-1.6762143,-0.5001583,0.49705654,-1.7854031,1.7180419,-0.009093556,-0.17539215,-0.5054703,0.7857926,-1.2413296,0.13661668,0.5865757,-0.20462418,-0.5572586,0.7382289,0.93195003,0.039655253,0.12633131,0.33754554,-1.0759779,0.12552105,-0.85824376,1.0,0.0,0.0,0.0,0.0,0.0,0.0,-0.47460783,0.10547027,-0.23579258,46.898056,0.00026226044,61.97963,162.84404,-74.788925,118.19134,10.423776
-8.045188,176.0,77.51713,92.80003,6.621287,5.613941,-1.4156384,-0.78604275,-0.6600676,0.25136787,0.74494064,-0.5535048,0.61448705,-0.24457285,0.49897295,-0.8930826,-2.0283833,-1.1448886,2.1063066,1.7297623,-0.9196621,0.56735766,-0.8438376,-2.0522535,-1.2073549,2.142618,1.6850392,-0.89577705,-1.021974,-1.6762143,0.33652574,1.4389876,-1.9472502,1.6645061,-0.06921763,-0.18779373,-0.50411224,0.79090655,-1.2400885,0.1364801,0.4863443,-0.21559906,-0.5548935,0.7332045,0.9338946,0.03342633,0.13125004,0.33090326,-1.0996193,0.2847068,-0.38838655,1.0,0.0,0.0,0.0,0.0,0.0,0.0,-0.46220624,0.10411224,-0.24090654,0.011372566,0.00023841858,83.877235,94.45747,-17.25557,-3.2502174,-4.809761
-22.853271,167.97903,54.532265,67.74591,5.0601687,3.4059746,-1.1284939,-0.761743,-0.5274052,0.10437971,0.68307525,-0.61829585,0.60227644,0.07173294,0.49118334,-0.89657813,-2.0418155,-1.1390474,2.0807884,1.7452668,-0.88860375,0.5565754,-0.8586854,-2.0466878,-1.1899751,2.124605,1.700708,-0.89634925,-1.0949957,-1.421858,0.629411,1.8394537,-1.7552372,1.5388734,-0.051759914,-0.20018768,-0.5027542,0.795019,-1.2388486,0.13634364,0.38621315,-0.22683716,-0.55114746,0.7316216,0.9361355,0.024239125,0.13699275,0.32294863,-1.1287264,0.41134107,-0.08859442,1.0,0.0,0.0,0.0,0.0,0.0,0.0,-0.4498123,0.102754205,-0.24501896,-6.696439,25.163006,29.120588,40.561485,18.354012,-11.205411,2.2007987
-8.416187,137.86403,44.79702,40.043697,3.0353448,2.0015838,-0.3596772,-0.7176647,-0.5668312,0.44829133,0.74118507,-0.63026524,0.6034518,-0.046071783,0.48480895,-0.9153685,-2.0018587,-1.1158566,2.0615785,1.7610532,-0.90095645,0.5449587,-0.8711728,-2.0386312,-1.1712507,2.109125,1.7148339,-0.8968242,-1.1828865,-1.191985,0.8638191,1.8842967,-1.4814044,1.3731203,-0.045435105,-0.21256638,-0.5013962,0.7981308,-1.23761,0.13620733,0.2861821,-0.23798752,-0.5464096,0.732122,0.9384499,0.013941143,0.14253403,0.31432673,-1.1115195,0.5027901,0.08834243,1.0,0.0,0.0,0.0,0.0,0.0,0.0,-0.4374336,0.10139617,-0.2481308,-8.492899,22.729755,23.302353,4.7533035,26.64032,-15.737247,0.8277886
-2.3241577,87.409065,25.140018,16.307888,1.2713512,0.3651268,0.14883977,-0.70213646,-0.59424126,0.39929453,0.7038389,-0.62599385,0.577458,0.08199501,0.47474506,-0.9305969,-1.9987017,-1.1008668,2.0465255,1.7725797,-0.88862467,0.53266966,-0.88198745,-2.0295904,-1.1536688,2.0962007,1.7273766,-0.8971494,-1.2442298,-1.0450424,0.9169822,1.7163454,-1.2303693,1.2163808,-0.028264357,-0.22493362,-0.50003815,0.8002431,-1.2363726,0.13607115,0.18625109,-0.24890518,-0.5411682,0.733311,0.94067466,0.0038924096,0.14726382,0.30566227,-1.0853589,0.538431,0.121958,1.0,0.0,0.0,0.0,0.0,0.0,0.0,-0.42506635,0.10003814,-0.25024307,-6.1233997,14.555621,5.16454,-16.73913,24.786068,-15.152979,1.7109375
2.9656754,64.843575,16.841263,7.060654,0.30908334,-0.4163761,0.29271376,-0.69066,-0.5401993,0.38537237,0.7168324,-0.62346256,0.5393634,0.036428068,0.46360368,-0.9360074,-1.9910531,-1.0819855,2.0338545,1.781313,-0.8935066,0.52003443,-0.89169586,-2.0207326,-1.1380628,2.0852678,1.7384793,-0.89735156,-1.2703037,-0.94643706,0.87490994,1.5087646,-1.047931,1.0762908,-0.017782558,-0.23728943,-0.4986801,0.8013568,-1.2351365,0.1359351,0.08641998,-0.25949097,-0.53580475,0.73440063,0.94276136,-0.0051767593,0.1511573,0.29719603,-1.0509647,0.54286474,0.09864684,1.0,0.0,0.0,0.0,0.0,0.0,0.0,-0.41271055,0.09868011,-0.25135678,-2.7076483,9.772003,-4.2934537,-20.771742,18.061352,-13.605738,0.9670768
6.30951,43.967052,10.232271,2.271396,-0.049390264,-0.9593362,0.34312487,-0.66864866,-0.55992997,0.37439755,0.70181865,-0.6113506,0.53526676,0.049076214,0.45316955,-0.9476889,-1.9832929,-1.067881,2.0241327,1.7920059,-0.89244395,0.5074173,-0.9009484,-2.0126035,-1.1243032,2.0756624,1.7483383,-0.89745456,-1.259239,-0.9183781,0.79230636,1.3317612,-0.93182576,0.95660114,-0.008026556,-0.24962997,-0.49732208,0.8014729,-1.2339016,0.1357992,-0.013311325,-0.26979828,-0.53058624,0.7349794,0.94471955,-0.01304476,0.15429722,0.2890104,-1.0233482,0.5224646,0.039532475,1.0,0.0,0.0,0.0,0.0,0.0,0.0,-0.40037,0.09732208,-0.2514729,0.9910345,2.7510166,-8.269477,-17.717766,11.469257,-11.705542,0.90925
1.265729,34.667217,5.9807854,4.4897895,0.19095024,-1.1022525,0.18345156,-0.66971415,-0.55248034,0.3084719,0.70121443,-0.6030824,0.5315808,0.058372464,0.4404459,-0.9561964,-1.9817563,-1.0541818,2.0153542,1.8014964,-0.8916173,0.49499953,-0.91017425,-2.0055616,-1.1117929,2.0668275,1.7571446,-0.8974641,-1.2361144,-0.92417824,0.67456526,1.224303,-0.8673594,0.85600036,0.0012977049,-0.26195908,-0.49596405,0.8005925,-1.2326679,0.13566342,-0.112942904,-0.2799759,-0.52560425,0.7349059,0.94660664,-0.019698247,0.1568755,0.280959,-1.015489,0.49592623,-0.026920406,1.0,0.0,0.0,0.0,0.0,0.0,0.0,-0.3880409,0.095964044,-0.25059247,2.2578,-0.6140351,-11.818123,-10.68809,6.3883543,-9.871662,0.90705156
-0.8653083,27.926378,3.882563,6.0754514,0.42835832,-1.1445066,0.101330355,-0.64919615,-0.5849616,0.27347252,0.6951364,-0.6040332,0.52760637,0.10571286,0.4300799,-0.9686704,-1.9782144,-1.0422792,2.0064242,1.8099052,-0.8868928,0.48290646,-0.919731,-1.9996679,-1.0998968,2.058359,1.7650696,-0.8973535,-1.2003542,-0.9661873,0.56063277,1.1782357,-0.84031636,0.7716827,0.014359059,-0.27427673,-0.49460602,0.7987165,-1.2314355,0.13552779,-0.21247488,-0.29018402,-0.5209274,0.7341509,0.9484663,-0.025260916,0.15902644,0.27291787,-1.0213938,0.4669536,-0.09511019,1.0,0.0,0.0,0.0,0.0,0.0,0.0,-0.37572324,0.09460601,-0.24871647,3.5659313,-4.22976,-11.419988,-4.4929266,2.6596189,-8.320629,1.3226471
-18.25404,15.273123,-5.233749,10.741144,0.9394746,-1.2666394,-0.22237524,-0.66801596,-0.5948344,0.027019946,0.71209395,-0.6181509,0.5227606,0.12697709,0.41610485,-0.97921443,-1.9969659,-1.0286874,1.9965438,1.8173456,-0.8846558,0.4710356,-0.92975986,-1.995794,-1.0880483,2.0499666,1.7722565,-0.89710456,-1.1824052,-1.015025,0.32871178,1.1878501,-0.83811253,0.7011323,0.02852274,-0.28657913,-0.493248,0.7958459,-1.2302043,0.1353923,-0.31190738,-0.30075455,-0.51651764,0.73255384,0.95040154,-0.029482326,0.1609959,0.26447684,-1.0676581,0.43798587,-0.18433233,1.0,0.0,0.0,0.0,0.0,0.0,0.0,-0.36342084,0.09324798,-0.24584591,1.8775463,-4.884696,-23.420399,1.2105703,0.41441917,-6.996453,1.4628679
-17.488968,15.895516,-5.1949205,11.172675,0.787356,-1.2572503,-0.24654192,-0.6250287,-0.60631037,-0.08126795,0.72995216,-0.6411374,0.5380107,0.1761051,0.40853274,-0.9903909,-2.0039208,-1.0150532,1.9858528,1.8260576,-0.8794941,0.45946085,-0.94024456,-1.9944456,-1.0758566,2.0414522,1.7788388,-0.89669067,-1.1488488,-1.0596422,0.06959152,1.230515,-0.85535026,0.6440742,0.04572681,-0.2988739,-0.49188995,0.7919902,-1.2289743,0.13525693,-0.41011724,-0.3117714,-0.51239777,0.73007715,0.9524325,-0.032247078,0.16300422,0.25546443,-1.111253,0.40946096,-0.2717958,1.0,0.0,0.0,0.0,0.0,0.0,0.0,-0.35112607,0.09188995,-0.24199021,3.4489632,-4.4808865,-26.113234,4.5549393,-1.5306354,-5.6886196,1.7451249
-26.847004,5.3521633,-11.737718,11.677488,0.84230757,-1.374081,-0.3442813,-0.62893444,-0.6383932,-0.34239438,0.74202394,-0.64190054,0.5446936,0.26184726,0.3965674,-1.0040839,-2.028685,-1.0016541,1.9772621,1.8333081,-0.8705059,0.44814837,-0.9512013,-1.9963892,-1.0631651,2.0327547,1.7849308,-0.8960555,-1.1248186,-1.1078191,-0.28342012,1.2834423,-0.8734346,0.59739196,0.06951951,-0.3111534,-0.49053192,0.7871532,-1.2277457,0.1351217,-0.5082289,-0.3233719,-0.5085678,0.72654235,0.9545852,-0.033257727,0.1651825,0.2457146,-1.1753162,0.37907258,-0.38390002,1.0,0.0,0.0,0.0,0.0,0.0,0.0,-0.33884656,0.090531915,-0.23715317,2.5657654,-4.8392057,-35.64307,5.6862354,-1.4583111,-4.717791,2.3959012
-20.316536,13.507432,-7.5594993,10.435485,0.54964966,-1.2128316,-0.21679297,-0.59185296,-0.641103,-0.4492218,0.7568872,-0.6262764,0.5558113,0.3241805,0.38896307,-1.0153116,-2.0413113,-0.98747635,1.970127,1.8405119,-0.86363745,0.43717158,-0.96253574,-2.0016963,-1.0499662,2.0239427,1.7906262,-0.8951543,-1.0881839,-1.1421535,-0.61380225,1.3333918,-0.88280344,0.5598942,0.09681971,-0.32342148,-0.48918152,0.7813358,-1.2265182,0.13498661,-0.6062425,-0.335495,-0.5050354,0.72197384,0.9568119,-0.032515436,0.16756734,0.23531856,-1.2211796,0.35390335,-0.48435596,1.0,0.0,0.0,0.0,0.0,0.0,0.0,-0.3265785,0.08918151,-0.23133576,3.8057804,-3.4958363,-33.28278,5.3637266,-0.6853223,-3.8434982,2.7006135
0.7769542,22.279158,0.00048702955,4.1108394,-0.20923373,-1.2024198,0.10890402,-0.49937984,-0.680922,-0.5117866,0.75514406,-0.6238386,0.5960154,0.34028536,0.3872336,-1.030628,-2.052875,-0.9744518,1.9615588,1.8502277,-0.86112577,0.4269191,-0.9742764,-2.0097263,-1.0364126,2.0150735,1.7960259,-0.8939937,-1.0042051,-1.184981,-0.8657757,1.3632652,-0.88783777,0.5330747,0.12221211,-0.3356781,-0.48783875,0.77452576,-1.2252918,0.13485165,-0.7059155,-0.3477745,-0.50180054,0.7164793,0.958994,-0.03032527,0.17004988,0.22470856,-1.2264478,0.3201327,-0.5744641,1.0,0.0,0.0,0.0,0.0,0.0,0.0,-0.31432188,0.08783874,-0.22452575,8.413267,-4.357052,-25.21633,3.2068253,-0.43178797,-2.800548,2.4649978
16.761097,27.074905,5.622547,-1.3044469,-0.6783868,-1.1384423,0.38517195,-0.44026458,-0.7272231,-0.5557516,0.7376941,-0.59971845,0.58031106,0.37165272,0.38289264,-1.0469987,-2.0653014,-0.9626432,1.9551017,1.854057,-0.8568284,0.4176904,-0.9865626,-2.019591,-1.0227827,2.0062463,1.8011872,-0.8925832,-0.8960887,-1.2434477,-1.0258118,1.3632323,-0.88138896,0.5100921,0.14703436,-0.34791946,-0.48649597,0.76671976,-1.2240669,0.13471682,-0.8054889,-0.35990524,-0.4989624,0.71014434,0.9610382,-0.02706156,0.17239982,0.21436287,-1.2034031,0.28031948,-0.65648437,1.0,0.0,0.0,0.0,0.0,0.0,0.0,-0.3020805,0.086495966,-0.21671975,10.721302,-5.9122086,-15.856159,0.09205341,0.57786703,-2.4348617,2.411416
38.20215,34.959,12.326243,-7.8616314,-1.5063381,-1.2326653,0.693995,-0.3290217,-0.7486348,-0.6060672,0.7156093,-0.6123881,0.55381846,0.41208163,0.38478822,-1.061426,-2.0801978,-0.95122176,1.9450076,1.856569,-0.85137504,0.40986693,-0.9994267,-2.030566,-1.0093588,1.9974496,1.806131,-0.8909238,-0.74524194,-1.3009068,-1.1201642,1.3351705,-0.8797926,0.488659,0.17183556,-0.3601532,-0.4851532,0.7579187,-1.222843,0.13458213,-0.9049627,-0.37150192,-0.49664307,0.70306313,0.9628583,-0.023018612,0.17449196,0.20475963,-1.1401771,0.224512,-0.72883904,1.0,0.0,0.0,0.0,0.0,0.0,0.0,-0.28984678,0.08515319,-0.2079187,14.85002,-5.7940483,-9.10573,-2.8919458,-0.045990944,-2.2764146,2.3714602
47.663574,45.10215,17.249485,-8.948831,-1.8540919,-1.1675003,0.80802226,-0.25078523,-0.7508822,-0.6479593,0.7157551,-0.6557399,0.55381584,0.45446494,0.3847884,-1.074515,-2.095362,-0.93778324,1.9318757,1.8615125,-0.8454773,0.4036461,-1.0127342,-2.0421894,-0.9962394,1.9885232,1.8108841,-0.88901454,-0.5819848,-1.3408108,-1.1752526,1.303583,-0.89788336,0.47049537,0.19687021,-0.37237167,-0.48381042,0.7481237,-1.2216204,0.13444757,-1.0043371,-0.38230133,-0.49490356,0.6953883,0.9643988,-0.018390505,0.17640452,0.19615814,-1.0548255,0.1643439,-0.78409183,1.0,0.0,0.0,0.0,0.0,0.0,0.0,-0.2776283,0.08381042,-0.1981237,16.025686,-4.051614,-5.0574064,-3.3396482,-2.1308541,-1.9579887,2.353713
43.163277,49.889015,18.56296,-6.2749634,-1.4367923,-0.9247774,0.7430297,-0.2228679,-0.77432936,-0.63547873,0.69192356,-0.63154477,0.5260688,0.42378542,0.3813593,-1.0901672,-2.1057372,-0.9270471,1.9253688,1.863491,-0.846636,0.39882147,-1.0263984,-2.054015,-0.9834926,1.9794786,1.8154579,-0.8869031,-0.45019504,-1.3753748,-1.1833411,1.2645854,-0.9079819,0.45226988,0.2155313,-0.3845787,-0.48246765,0.7373357,-1.220399,0.13431315,-1.1036122,-0.39229202,-0.49367523,0.68726116,0.96567893,-0.01337449,0.17812581,0.18856403,-0.9757866,0.115246385,-0.8260055,1.0,0.0,0.0,0.0,0.0,0.0,0.0,-0.26542127,0.082467645,-0.18733567,12.905913,-3.5408258,-0.32320023,-4.0535927,-1.4139175,-1.9982338,1.745382
19.741093,48.7249,14.543683,1.3351173,-0.35730925,-0.5151645,0.4782526,-0.26218727,-0.7931538,-0.65402454,0.66677904,-0.6090102,0.47793525,0.40846515,0.37260276,-1.1057138,-2.1194174,-0.9168147,1.9185776,1.8632514,-0.8460566,0.39471686,-1.0403831,-2.0658405,-0.97116446,1.9704282,1.8198315,-0.88464004,-0.39769396,-1.4065555,-1.1812931,1.2221992,-0.9053797,0.43163908,0.2296453,-0.3967743,-0.48112488,0.7255557,-1.2191789,0.13417886,-1.2027879,-0.4017868,-0.49271393,0.6787469,0.96678346,-0.008030168,0.17959678,0.18168713,-0.93428075,0.095452644,-0.86374795,0.0,1.0,0.0,0.0,0.0,0.0,0.0,-0.25322568,0.08112487,-0.1755557,5.1150026,-3.2393217,0.5935192,-4.2262793,-0.13712645,-2.2655427,1.3491601
2.5113237,52.52699,13.056285,8.12906,0.54250747,-0.1368747,0.2671802,-0.27208677,-0.7948473,-0.6453883,0.6599344,-0.5796388,0.46332416,0.44011202,0.36750817,-1.1198678,-2.1303792,-0.90517104,1.9124644,1.8661638,-0.84062886,0.3907286,-1.0545948,-2.0775554,-0.9591911,1.9615152,1.8240067,-0.88223296,-0.3994219,-1.4266329,-1.1670467,1.1894934,-0.8879974,0.41201353,0.24433069,-0.40895462,-0.4797821,0.7127847,-1.21796,0.1340447,-1.3018645,-0.4110527,-0.491745,0.6699468,0.96778256,-0.002425859,0.18080093,0.17521955,-0.9183247,0.101588875,-0.88917077,0.0,1.0,0.0,0.0,0.0,0.0,0.0,-0.24104536,0.0797821,-0.1627847,-0.22544265,-2.161646,1.7857313,-3.1666517,1.3139486,-2.170372,1.4365375
-11.343037,56.215343,11.819377,13.708071,1.2199893,0.15159345,0.084683426,-0.29380536,-0.7949241,-0.64564866,0.6582582,-0.5659995,0.45029926,0.4477262,0.36134806,-1.1340872,-2.1421204,-0.89336526,1.9049152,1.8690366,-0.83746034,0.38643467,-1.0689247,-2.0891292,-0.947438,1.9528177,1.8279969,-0.87968856,-0.43934152,-1.4358032,-1.1531327,1.1710715,-0.86515415,0.3938835,0.25776124,-0.42112732,-0.47843933,0.69902366,-1.2167423,0.13391069,-1.4008421,-0.42030334,-0.49056244,0.6609672,0.9687207,0.0033884398,0.18177757,0.16889499,-0.9216418,0.12800236,-0.90473235,0.0,1.0,0.0,0.0,0.0,0.0,0.0,-0.22887266,0.078439325,-0.14902365,-3.9863288,-1.0969162,1.7356396,-1.6707182,1.8454909,-2.0223558,1.3253152
-21.671492,57.18139,10.436624,16.913599,1.7401328,0.35802636,-0.023711912,-0.33837467,-0.80249864,-0.6302525,0.6302637,-0.51310164,0.39482734,0.45382553,0.3525972,-1.1491746,-2.1521544,-0.88441163,1.9015075,1.8674796,-0.834306,0.38151073,-1.0833222,-2.1005876,-0.9359349,1.9444408,1.8318136,-0.87706006,-0.50836885,-1.4415743,-1.1601152,1.1389275,-0.80329967,0.38925612,0.2676231,-0.43336487,-0.4763794,0.6872533,-0.9763796,0.25880143,-0.46778017,-0.4296875,-0.48901367,0.65183043,0.9696341,0.009406255,0.18249717,0.1625298,-0.9421674,0.16966869,-0.92497194,0.0,1.0,0.0,0.0,0.0,0.0,0.0,-0.21663511,0.07637939,-0.13725328,-6.615156,-0.7381201,-3.0187368,-3.9073706,7.91682,0.9541869,0.75324774
-40.160618,69.4577,11.076154,26.30957,2.6783257,0.8175372,-0.2776985,-0.42917708,-0.7664506,-0.6019004,0.6806907,-0.53684705,0.3543419,0.5062234,0.33859304,-1.1599672,-2.1607776,-0.8678658,1.8907561,1.8672478,-0.8264377,0.37554693,-1.0975796,-2.1119516,-0.92442596,1.9365978,1.8355443,-0.87426674,-0.6253949,-1.4215143,-1.1272134,1.1557745,-0.7796592,0.36683986,0.28317752,-0.44311905,-0.47379303,0.68182683,-0.97540337,0.2585427,-0.56759167,-0.43944168,-0.48680878,0.6427255,0.9705536,0.015510605,0.18303424,0.1558317,-0.9797669,0.24194604,-0.9092192,0.0,1.0,0.0,0.0,0.0,0.0,0.0,-0.20688093,0.073793024,-0.13182682,-11.609613,1.7612219,3.6798477,1.9678593,1.8284678,-2.4589121,1.5596449
-30.018665,77.457596,15.366448,24.883904,2.5704966,0.884002,-0.21349612,-0.42113662,-0.7631796,-0.5292248,0.67852324,-0.49775743,0.3962203,0.50737476,0.33343327,-1.1738975,-2.164874,-0.85657364,1.8868221,1.8751664,-0.82352924,0.3686123,-1.1116043,-2.122671,-0.9126977,1.9290371,1.8390996,-0.87132657,-0.7160806,-1.396965,-1.0517304,1.1790564,-0.7502316,0.35108984,0.29764163,-0.4528656,-0.4712143,0.67540306,-0.9744281,0.25828418,-0.6673034,-0.44943237,-0.4839325,0.63389707,0.9714527,0.021484733,0.1834989,0.14881541,-0.99998903,0.3098285,-0.8773219,0.0,1.0,0.0,0.0,0.0,0.0,0.0,-0.19713438,0.07121429,-0.12540305,-9.049296,2.2179365,8.057976,2.515602,2.319646,-1.7881095,1.4437914
-23.054115,77.692184,16.215258,22.391098,2.258103,0.7985815,-0.14420424,-0.44630256,-0.76086646,-0.5201437,0.673535,-0.48655063,0.39116406,0.5084234,0.32398203,-1.187691,-2.1746852,-0.8453442,1.8803821,1.878216,-0.8204842,0.36092424,-1.1254078,-2.1326158,-0.90076435,1.9216919,1.8425024,-0.8682586,-0.7864283,-1.3757018,-0.9736627,1.1986184,-0.73122585,0.33610225,0.30983624,-0.46260452,-0.46863556,0.6679828,-0.97345394,0.25802597,-0.7669154,-0.45954514,-0.48043823,0.62537146,0.9723118,0.02725086,0.18389744,0.14159384,-1.0087675,0.36822587,-0.8474074,0.0,1.0,0.0,0.0,0.0,0.0,0.0,-0.18739545,0.06863555,-0.117982805,-7.048452,1.9062042,8.3385105,2.1040678,1.2817264,-1.7053723,1.2071013
-10.03415,77.40912,17.97003,17.905811,1.7758576,0.6310245,-0.013958365,-0.44473198,-0.75771606,-0.47101432,0.6726717,-0.46474147,0.38267407,0.52210087,0.31645104,-1.2011794,-2.1797173,-0.83349717,1.8752178,1.8807697,-0.8160485,0.35279226,-1.1390454,-2.1417177,-0.88870037,1.9145432,1.8457677,-0.8650743,-0.8223576,-1.3603399,-0.88707745,1.2091856,-0.71147716,0.3228464,0.32122156,-0.472332,-0.46605682,0.6595673,-0.9724807,0.257768,-0.8664278,-0.46961594,-0.4764862,0.6171205,0.9731147,0.032756444,0.18419291,0.13434128,-0.9998367,0.40981966,-0.8203862,0.0,1.0,0.0,0.0,0.0,0.0,0.0,-0.17766798,0.06605682,-0.109567285,-3.6610246,1.3432026,9.228743,1.1269569,1.3483524,-1.519686,1.112014
-10.4121475,69.12251,14.536365,15.178965,1.4638877,0.41365787,0.0377444,-0.4846118,-0.7550376,-0.50862443,0.6428003,-0.43434078,0.2634541,0.52564687,0.3043311,-1.2145491,-2.1925802,-0.82442033,1.8711091,1.8721131,-0.8125096,0.34431314,-1.1525723,-2.150339,-0.8767232,1.9076424,1.848829,-0.86178696,-0.85660905,-1.3508388,-0.8522476,1.1942251,-0.68457884,0.29972893,0.33119416,-0.48204803,-0.4634781,0.65015733,-0.97150844,0.25751027,-0.96584076,-0.47961044,-0.47219086,0.6089767,0.9738644,0.03820744,0.18430468,0.12712215,-0.9935396,0.4428687,-0.81513125,0.0,1.0,0.0,0.0,0.0,0.0,0.0,-0.16795194,0.06347808,-0.10015732,-3.4700036,0.7777214,3.9396524,-1.3938904,2.1662474,-2.5130928,0.97272396
-12.864683,64.750626,12.209248,14.11303,1.3781325,0.27417633,0.062141974,-0.5202351,-0.74581295,-0.5147351,0.61500037,-0.38804236,0.06898569,0.551104,0.29228964,-1.2271535,-2.2018125,-0.81522316,1.8688381,1.8557276,-0.80667657,0.3354416,-1.1660038,-2.1588647,-0.8650588,1.9011135,1.851526,-0.8583919,-0.8973942,-1.3412654,-0.85151637,1.1575469,-0.64408827,0.25895935,0.34213594,-0.49175644,-0.46089935,0.639754,-0.9705371,0.2572528,-1.0651543,-0.48958206,-0.46757507,0.6007938,0.9745747,0.043845907,0.18411227,0.11993412,-0.9919569,0.47322154,-0.8220223,0.0,1.0,0.0,0.0,0.0,0.0,0.0,-0.15824354,0.060899347,-0.089753985,-4.1041374,0.7963419,0.4528761,-3.5427094,3.5834193,-4.2916417,1.0753691
-10.017357,63.085365,12.111037,12.30032,1.4366808,0.14896381,0.095659345,-0.5336288,-0.74345344,-0.4885627,0.57633126,-0.25503075,-0.14615856,0.5675348,0.2820787,-1.2403492,-2.207721,-0.8074257,1.8756105,1.8369101,-0.8016384,0.32619,-1.1793591,-2.1673868,-0.8539208,1.8953342,1.8536737,-0.8548862,-0.93450046,-1.3339429,-0.8513734,1.0995265,-0.5572752,0.19929826,0.3534841,-0.5014534,-0.45832825,0.6283583,-0.96956676,0.25699562,-1.1643686,-0.49954224,-0.46269226,0.5925179,0.97528565,0.04969522,0.18336381,0.11280952,-0.9916555,0.49953756,-0.831819,0.0,1.0,0.0,0.0,0.0,0.0,0.0,-0.14854658,0.05832824,-0.07835829,-3.7463427,0.5859852,0.38157701,-5.698371,8.222508,-6.2056093,1.137358
-8.450609,57.75792,10.90517,9.197607,1.4365482,0.070498645,0.17047666,-0.56940174,-0.7478443,-0.47986513,0.4756677,-0.095115885,-0.35971382,0.56004006,0.26924983,-1.2541435,-2.2153733,-0.80635405,1.8858227,1.8177023,-0.7988822,0.31650853,-1.1926838,-2.175964,-0.84377843,1.890801,1.8551071,-0.8513027,-0.9794277,-1.3324748,-0.8587763,0.9861524,-0.4196476,0.1238175,0.36019394,-0.5110283,-0.4552002,0.6187716,-0.9491814,0.33059886,-0.8814541,-0.50951767,-0.45758057,0.5840333,0.97605234,0.055747505,0.1816953,0.105834186,-0.99250394,0.522561,-0.85625684,0.0,1.0,0.0,0.0,0.0,0.0,0.0,-0.13897169,0.05520019,-0.0687716,-4.58256,0.021529198,0.30236244,-10.947156,13.58695,-7.87459,0.91332793
-7.36154,64.61678,12.8146925,10.864133,1.3905287,0.20636755,0.14540145,-0.5830767,-0.730912,-0.4494848,0.48553896,-0.17102453,-0.38367805,0.57386833,0.25820085,-1.265775,-2.2209127,-0.79522455,1.8736985,1.8167393,-0.79391587,0.3064086,-1.2059342,-2.1844172,-0.8345668,1.8872781,1.8558204,-0.8476386,-1.0203481,-1.3231125,-0.8396656,0.89977354,-0.33146596,0.053204153,0.3684341,-0.5204811,-0.45178986,0.6098155,-0.94367844,0.345472,-0.8983069,-0.5194359,-0.45220947,0.5754196,0.97685474,0.061936315,0.17920566,0.09901481,-0.98586804,0.5473094,-0.8654146,0.0,1.0,0.0,0.0,0.0,0.0,0.0,-0.12951887,0.05178985,-0.059815466,-4.138112,0.8110285,2.2750616,-8.5622425,8.354741,-7.3086953,0.83251
12.057923,77.23412,19.413412,9.102622,0.9736881,0.20933428,0.21907589,-0.52272445,-0.7149878,-0.36611435,0.49715865,-0.20154232,-0.36780968,0.5813993,0.25413617,-1.2774329,-2.2210286,-0.7848509,1.8671238,1.8190395,-0.7894987,0.2962915,-1.2190243,-2.192275,-0.82591295,1.8842762,1.8559177,-0.84390193,-1.0093187,-1.3046786,-0.7659045,0.8535516,-0.29158956,-0.0052832225,0.3752082,-0.52986145,-0.44818115,0.6009806,-0.93585896,0.36649835,-0.87572014,-0.52907944,-0.44674683,0.5669082,0.9776383,0.06801649,0.17619751,0.092474215,-0.95065504,0.5513679,-0.84842557,0.0,1.0,0.0,0.0,0.0,0.0,0.0,-0.120138526,0.048181146,-0.050980568,0.9684324,1.7370462,7.8956246,-4.70984,3.4492373,-6.0327687,0.6087184
24.154839,90.4708,25.2137,9.905096,0.96189845,0.30349445,0.21162729,-0.49689922,-0.69597125,-0.25190556,0.51141506,-0.22498803,-0.36432108,0.58818024,0.24660158,-1.2886214,-2.2174656,-0.77477145,1.8617773,1.8194855,-0.7850839,0.28651297,-1.2318588,-2.198893,-0.8174156,1.8814259,1.8555194,-0.840094,-0.9679834,-1.2769125,-0.6250575,0.84786403,-0.28462112,-0.051695805,0.38235322,-0.5388832,-0.44457245,0.59253705,-0.88844526,0.35742342,-0.832752,-0.5382538,-0.4413376,0.5587959,0.9783771,0.07363311,0.17293777,0.0863074,-0.89945966,0.544933,-0.8009186,0.0,1.0,0.0,0.0,0.0,0.0,0.0,-0.11111677,0.044572443,-0.042537034,3.9461017,2.6753902,14.73254,-0.7531285,0.15701056,-4.754474,0.6223917
37.11589,101.29758,31.114079,9.632452,1.2478093,0.41454452,0.21013409,-0.4603038,-0.686093,-0.061028056,0.5070887,-0.1431498,-0.34807935,0.59906006,0.24048258,-1.3004682,-2.2049959,-0.7667067,1.8671108,1.8207115,-0.78018796,0.27732283,-1.244413,-2.203364,-0.8088525,1.8787916,1.8547379,-0.8362116,-0.90344703,-1.2485703,-0.3855065,0.8582557,-0.25863162,-0.087184586,0.3898353,-0.54730225,-0.44114685,0.5847353,-0.8252964,0.33771187,-0.7613189,-0.5468292,-0.43603516,0.5513859,0.97911835,0.07822391,0.16944158,0.08060807,-0.8374267,0.53050643,-0.7229472,0.0,1.0,0.0,0.0,0.0,0.0,0.0,-0.10269773,0.041146845,-0.034735262,6.234634,2.7337313,24.734009,0.78954697,1.8801749,-3.641519,0.6377578
39.375458,117.835884,37.00088,13.912129,2.1077952,0.7276513,0.086929336,-0.45137385,-0.6504026,0.19310814,0.52797735,-0.08040165,-0.32841238,0.61278045,0.23218544,-1.3094532,-2.1840532,-0.75605476,1.8707514,1.8218967,-0.7749336,0.26873258,-1.2565838,-2.2045805,-0.8000473,1.8765726,1.8536701,-0.83225113,-0.8449004,-1.2071515,-0.030455634,0.887204,-0.2125607,-0.11354449,0.39780128,-0.5550194,-0.4379425,0.5779439,-0.7536531,0.31506383,-0.65028805,-0.55477524,-0.43080902,0.5450791,0.97994435,0.08111548,0.1656836,0.07535415,-0.7758025,0.52521706,-0.6017753,0.0,1.0,0.0,0.0,0.0,0.0,0.0,-0.0949806,0.0379425,-0.02794391,5.657828,4.0122747,36.407604,2.6736736,3.7512362,-2.6943936,0.70406795
41.547886,122.28749,38.57969,14.44227,2.7393773,0.71483064,0.0009814657,-0.4117284,-0.6142124,0.32956606,0.50241345,0.22325698,-0.3298981,0.60233897,0.22755973,-1.3180051,-2.171624,-0.7498059,1.8988984,1.8206803,-0.77201724,0.26076224,-1.2682472,-2.2021735,-0.7910856,1.8756783,1.8523769,-0.8282266,-0.78156585,-1.1531703,0.3341265,0.8988117,-0.051308587,-0.13488817,0.40381366,-0.562027,-0.43497467,0.5723505,-0.6835191,0.29185432,-0.52845633,-0.56217575,-0.42560577,0.540079,0.9809674,0.08180742,0.161383,0.07046909,-0.72453666,0.5240973,-0.4677476,0.0,1.0,0.0,0.0,0.0,0.0,0.0,-0.087973,0.034974664,-0.02235049,6.196499,5.242944,37.33516,1.0391474,15.280875,-2.1819353,0.5323887
34.211662,109.52674,31.818947,12.968087,2.3236754,0.34428325,-0.011881271,-0.37342498,-0.5795949,0.2546302,0.48527434,0.35222745,-0.35755873,0.5917715,0.22341974,-1.3262067,-2.1767104,-0.7425582,1.9109011,1.8166211,-0.76904947,0.25344995,-1.279308,-2.1973326,-0.78214216,1.8766971,1.8508762,-0.82415736,-0.71470416,-1.0909553,0.53668064,0.89296734,0.15089966,-0.15513143,0.40772706,-0.56843185,-0.43221283,0.5677228,-0.6268617,0.2708547,-0.44121403,-0.5691757,-0.42042542,0.53613406,0.98218215,0.08067388,0.15644899,0.06583094,-0.6886106,0.51927584,-0.37197772,0.0,1.0,0.0,0.0,0.0,0.0,0.0,-0.08156812,0.032212824,-0.017722785,6.6147447,6.0662746,20.906788,-0.557518,19.616682,-2.0631373,0.34185648
42.360123,112.91361,32.249012,10.636119,1.7135062,0.15555373,0.08612575,-0.29483634,-0.5054378,0.3395687,0.4685458,0.46148705,-0.31440407,0.586386,0.22396632,-1.3298517,-2.1633759,-0.7352876,1.9228457,1.8194358,-0.7655188,0.24701193,-1.2895333,-2.1910198,-0.7733741,1.879795,1.8492321,-0.82006043,-0.6204358,-1.0003113,0.6650937,0.8717172,0.3607634,-0.16735423,0.41006732,-0.57424927,-0.42970276,0.56401426,-0.5673518,0.24422362,-0.34936476,-0.5757179,-0.41542816,0.5331188,0.98352456,0.078066446,0.15101182,0.061485298,-0.64123,0.49760172,-0.28014606,0.0,1.0,0.0,0.0,0.0,0.0,0.0,-0.07575071,0.029702753,-0.014014244,9.354914,8.891726,13.482773,-2.0473957,20.446026,-1.2200177,0.16709566
55.46968,115.540764,33.687584,5.5155597,0.8619979,0.036864266,0.3256264,-0.22718969,-0.4342376,0.4385701,0.37529215,0.5686996,-0.2790025,0.5792881,0.22429296,-1.332957,-2.1471627,-0.73584485,1.9366649,1.8213319,-0.76213163,0.24165998,-1.2986771,-2.1836004,-0.76524895,1.8849187,1.8475193,-0.8159507,-0.50704855,-0.8864862,0.77004445,0.79313713,0.5610748,-0.17249192,0.41098803,-0.5794182,-0.42751312,0.56127614,-0.5012124,0.21071275,-0.2514858,-0.5816231,-0.41080475,0.5309911,0.9849359,0.0741478,0.14516911,0.057700906,-0.57235444,0.45353794,-0.19255167,0.0,1.0,0.0,0.0,0.0,0.0,0.0,-0.070581794,0.027513117,-0.011276126,11.254442,11.186838,11.158955,-7.7531457,19.515652,-0.4438311,0.010299683
53.877686,117.81924,33.385845,5.216197,0.5872148,0.09655042,0.41560167,-0.2029812,-0.36573103,0.51626974,0.31050286,0.62699854,-0.24314277,0.5732383,0.22136186,-1.3352501,-2.1319735,-0.7341987,1.9476185,1.823205,-0.7586269,0.23732793,-1.3065811,-2.1751595,-0.7581643,1.8917898,1.845797,-0.81183904,-0.4087601,-0.7590207,0.87062097,0.68081075,0.7278475,-0.17176805,0.41109964,-0.58392334,-0.42565918,0.5595406,-0.43472347,0.17752255,-0.1511138,-0.58680725,-0.40665436,0.5297316,0.9863654,0.06904888,0.13903129,0.054642234,-0.49860126,0.40797788,-0.106100366,0.0,1.0,0.0,0.0,0.0,0.0,0.0,-0.06607664,0.025659174,-0.0095406175,9.78272,12.556744,10.5945,-11.069775,16.310955,0.20482838,-0.04249215
