Afshin1997/kuka_rl_ros2/src/catch_and_throw/input_files/idealpd/polynomial_regressor/optimizer_files/env_101_data.csv
torque0,torque1,torque2,torque3,torque4,torque5,torque6,action0,action1,action2,action3,action4,action5,action6,set_target_0,set_target_1,set_target_2,set_target_3,set_target_4,set_target_5,set_target_6,joint_pos_0,joint_pos_1,joint_pos_2,joint_pos_3,joint_pos_4,joint_pos_5,joint_pos_6,joint_vel_0,joint_vel_1,joint_vel_2,joint_vel_3,joint_vel_4,joint_vel_5,joint_vel_6,tennisball_pos_0,tennisball_pos_1,tennisball_pos_2,tennisball_lin_vel_0,tennisball_lin_vel_1,tennisball_lin_vel_2,end_effector_pos_0,end_effector_pos_1,end_effector_pos_2,end_effector_rot_0,end_effector_rot_1,end_effector_rot_2,end_effector_rot_3,end_effector_lin_vel_0,end_effector_lin_vel_1,end_effector_lin_vel_2,obs_task_0,obs_task_1,obs_task_2,obs_task_3,obs_task_4,obs_task_5,obs_task_6,to_final_target_0,to_final_target_1,to_final_target_2,joint_acc_0,joint_acc_1,joint_acc_2,joint_acc_3,joint_acc_4,joint_acc_5,joint_acc_6
0.0,0.0,0.0,0.0,0.0,0.0,0.0,0.0,0.0,0.0,0.0,0.0,0.0,0.0,1.7802359,-1.0646509,-1.8151424,-1.1170107,1.9373155,1.1170107,-0.91629785,1.7802359,-1.0646509,-1.8151424,-1.1170107,1.9373155,1.1170107,-0.91629785,0.0,0.0,0.0,0.0,0.0,0.0,0.0,3.0531998,-0.5217724,0.25008014,-3.1234539,-0.12343141,5.19085,0.5304184,-0.45449638,0.693097,0.5745483,0.17512383,0.15255436,0.7848268,0.0,0.0,0.0,1.0,0.0,0.0,0.0,0.0,0.0,0.0,-3.7031999,0.12177238,0.29991987,0.0,0.0,0.0,0.0,0.0,0.0,0.0
0.0,0.0,0.0,0.0,0.0,0.0,0.0,0.0,0.0,0.0,0.0,0.0,0.0,0.0,1.7802359,-1.0646509,-1.8151424,-1.1170107,1.9373155,1.1170107,-0.91629785,1.7802359,-1.0646509,-1.8151424,-1.1170107,1.9373155,1.1170107,-0.91629785,0.0,0.0,0.0,0.0,0.0,0.0,0.0,3.0531998,-0.5217724,0.25008014,-3.1234539,-0.12343141,5.19085,0.5304184,-0.45449638,0.693097,0.5745483,0.17512383,0.15255436,0.7848268,0.0,0.0,0.0,1.0,0.0,0.0,0.0,0.0,0.0,0.0,-3.7031999,0.12177238,0.29991987,0.0,0.0,0.0,0.0,0.0,0.0,0.0
0.0,0.0,0.0,0.0,0.0,0.0,0.0,0.0,0.0,0.0,0.0,0.0,0.0,0.0,1.7802359,-1.0646509,-1.8151424,-1.1170107,1.9373155,1.1170107,-0.91629785,1.7802359,-1.0646509,-1.8151424,-1.1170107,1.9373155,1.1170107,-0.91629785,0.0,0.0,0.0,0.0,0.0,0.0,0.0,3.0531998,-0.5217724,0.25008014,-3.1234539,-0.12343141,5.19085,0.5304184,-0.45449638,0.693097,0.5745483,0.17512383,0.15255436,0.7848268,0.0,0.0,0.0,1.0,0.0,0.0,0.0,0.0,0.0,0.0,-3.7031999,0.12177238,0.29991987,0.0,0.0,0.0,0.0,0.0,0.0,0.0
-176.0,48.01384,-13.948372,110.0,11.039261,4.081744,-3.7252214,-0.8038982,0.2383652,-0.536708,0.7374784,0.21816723,0.67810744,-0.6101059,1.699846,-1.0408144,-1.8688132,-1.0432628,1.9591322,1.1848215,-0.97730845,1.7790571,-1.0626062,-1.8215034,-1.1118876,1.941277,1.1221911,-0.9170875,-0.15662536,0.2719684,-0.8476445,0.68348557,0.52758217,0.688976,-0.1048182,3.021988,-0.52300453,0.30121323,-3.120331,-0.123307995,5.0874734,0.5284157,-0.45776176,0.6936302,0.5782342,0.17373358,0.1515648,0.78261733,-0.26635587,-0.43568534,0.07088207,1.0,0.0,0.0,0.0,0.0,0.0,0.0,-3.671988,0.123004526,0.24878678,-15.559337,26.981085,-84.62637,68.477425,52.535965,68.40495,-10.354395
-176.0,-48.211445,-51.81422,110.0,13.101292,0.90052384,-3.0231867,-0.7947459,-0.24409127,-0.55428743,0.7012165,0.4007399,0.65521246,-0.5903867,1.6995826,-1.0870154,-1.8769321,-1.0417659,1.981351,1.1877123,-0.9761262,1.7778898,-1.0606092,-1.8368576,-1.0971056,1.9495797,1.1352564,-0.91683763,-0.11061841,0.15456271,-1.7104234,1.7418616,0.90190494,1.4571047,0.053378284,2.9908066,-0.5242367,0.35131335,-3.1172113,-0.12318472,4.984201,0.5239601,-0.46632957,0.69396985,0.5863477,0.17044066,0.1483822,0.77790034,-0.5050565,-0.9937671,0.027174285,1.0,0.0,0.0,0.0,0.0,0.0,0.0,-3.6408067,0.12423667,0.19868666,2.4130478,-18.057722,-70.01822,105.454704,28.64108,60.223602,11.355614
-150.20522,112.79605,35.52529,93.3902,9.104392,8.594441,-1.6150867,-0.7526196,0.22576134,0.20243852,0.6627176,0.42205536,0.69712734,-0.51548755,1.7026279,-1.0380331,-1.8166137,-1.0308338,1.9917853,1.2049692,-0.9683864,1.773564,-1.058597,-1.8512313,-1.0779024,1.958941,1.1497065,-0.9166202,-0.5400391,0.21329325,-1.3388798,1.9813067,0.94149697,1.4342448,0.010009292,2.9596558,-0.5254688,0.40038154,-3.1140947,-0.12306156,4.8810315,0.5166168,-0.4777527,0.69602793,0.59716326,0.16549349,0.1434624,0.7716389,-0.81911117,-1.185022,0.26933384,1.0,0.0,0.0,0.0,0.0,0.0,0.0,-3.6096559,0.12546882,0.14961848,-42.96749,4.796749,39.376686,24.406647,2.1392465,-4.26476,-4.7189937
-101.92361,88.40339,35.462543,56.215046,6.178824,7.6315193,-0.074798286,-0.76866204,-0.069504544,0.25928167,0.6636842,0.4519382,0.67279875,-0.57095575,1.6966978,-1.0655475,-1.8253032,-1.011534,2.004135,1.2169864,-0.9737158,1.7648569,-1.0573457,-1.8592632,-1.0588442,1.967875,1.1631266,-0.91697973,-0.98156387,0.093563594,-0.6170999,1.8817992,0.8713158,1.3077862,-0.0522481,2.9285355,-0.52669716,0.4484188,-3.1109812,-0.12293852,4.777965,0.5066185,-0.4901333,0.69986826,0.6087745,0.15929124,0.13673896,0.7650635,-1.0709378,-1.2441012,0.42598796,1.0,0.0,0.0,0.0,0.0,0.0,0.0,-3.5785356,0.12669715,0.101581216,-44.345917,-12.609262,74.39796,-9.637713,-8.852613,-13.698864,-6.5127044
-44.3375,122.351265,52.05393,32.02157,2.9647775,7.5683746,0.5680198,-0.78448015,0.10616893,0.3323343,0.66378766,0.56475806,0.66868067,-0.5722015,1.6864089,-1.0467288,-1.8260298,-0.99246544,2.024351,1.2299947,-0.9741999,1.7524859,-1.0564665,-1.860007,-1.0419585,1.9762444,1.17516,-0.9179725,-1.3233416,0.08414058,0.11294512,1.6239613,0.82094985,1.1670309,-0.116666265,2.8974457,-0.5279255,0.49542615,-3.1078708,-0.1228156,4.6750016,0.49467087,-0.50205994,0.7053736,0.620033,0.15195294,0.1284937,0.7589195,-1.248796,-1.1633687,0.59263486,1.0,0.0,0.0,0.0,0.0,0.0,0.0,-3.5474458,0.12792549,0.054573864,-34.46393,-1.476565,74.92308,-25.836802,-6.4328313,-14.57808,-6.9848003
-10.865998,100.1213,40.2165,13.483118,0.7370729,4.735131,0.5466263,-0.7936651,0.09404833,0.24142341,0.6655338,0.5584529,0.66570723,-0.6092252,1.6731193,-1.0470617,-1.8358647,-0.9754051,2.0320897,1.2417308,-0.978895,1.7378088,-1.055528,-1.8555877,-1.0276076,1.9842191,1.1859194,-0.91956896,-1.5165265,0.0960269,0.55521053,1.3717339,0.78733665,1.0455555,-0.17532505,2.8663902,-0.5291538,0.54140466,-3.1047635,-0.122692816,4.572141,0.48160934,-0.5130043,0.7118796,0.63059783,0.14398752,0.119482286,0.7532184,-1.336623,-1.0597273,0.66783446,1.0,0.0,0.0,0.0,0.0,0.0,0.0,-3.5163903,0.12915382,0.008595347,-19.506527,0.8771479,45.252304,-25.332499,-4.0222645,-12.133694,-6.2673597
17.376692,138.94095,50.302094,9.101263,-1.4586515,4.351403,0.08014862,-0.8077023,0.39798358,0.1802855,0.6276546,0.54055524,0.6742631,-0.5915377,1.6570386,-1.0157297,-1.8375592,-0.9648421,2.0382745,1.2533457,-0.97872275,1.7220923,-1.0529512,-1.8489578,-1.0153853,1.9919419,1.1956259,-0.9216804,-1.59081,0.31051034,0.7014196,1.1723171,0.76622057,0.94661045,-0.22480859,2.835369,-0.53037834,0.5863553,-3.1016595,-0.12257015,4.4693837,0.46811295,-0.52246666,0.7193887,0.64064413,0.13550727,0.110967174,0.7475956,-1.3667085,-0.8957947,0.77539957,1.0,0.0,0.0,0.0,0.0,0.0,0.0,-3.4853692,0.13037834,-0.036355317,-7.6737165,21.09766,15.374112,-20.007633,-2.3860335,-9.655118,-5.490461
25.229582,134.38483,44.37153,6.850258,-2.2148476,2.9886878,-0.27301675,-0.81659,0.48119488,0.09290928,0.60650074,0.55841887,0.6544995,-0.6024225,1.6404333,-1.0048317,-1.8396668,-0.9547352,2.0477839,1.2610759,-0.9819226,1.7061964,-1.047851,-1.8426445,-1.0045878,1.999598,1.2044646,-0.92422575,-1.5899465,0.57569736,0.6096854,1.0487449,0.7654105,0.86386114,-0.2659552,2.8043785,-0.53160286,0.6302792,-3.0985584,-0.1224476,4.3667293,0.45458603,-0.5303612,0.72777176,0.65047795,0.12673114,0.10380488,0.74164826,-1.3570533,-0.741979,0.8560374,1.0,0.0,0.0,0.0,0.0,0.0,0.0,-3.4543786,0.13160285,-0.08027917,-0.16000271,26.244753,-8.682001,-12.388778,-0.1484394,-8.001709,-4.5565486
26.3871,128.48128,40.300636,7.4408684,-2.2786503,2.2963653,-0.4505693,-0.8171112,0.57762206,0.05203257,0.5944761,0.5569157,0.65862674,-0.58524,1.6244853,-0.99008876,-1.8374412,-0.9451402,2.0552895,1.2703272,-0.98274976,1.690581,-1.0400747,-1.838023,-0.99452543,2.0072963,1.2125841,-0.9271125,-1.5528694,0.844263,0.41409338,0.9919459,0.771647,0.79520667,-0.29748622,2.7734184,-0.5328274,0.67317724,-3.0954607,-0.122325175,4.264177,0.4412613,-0.53685,0.7368714,0.66032124,0.117826365,0.09830355,0.73513883,-1.332026,-0.60490495,0.9250572,1.0,0.0,0.0,0.0,0.0,0.0,0.0,-3.4234185,0.13282737,-0.12317723,3.4772635,26.629246,-19.163692,-5.7323575,0.6104946,-6.697941,-3.5263479
22.463058,114.269745,34.89904,8.688484,-1.7631695,1.8154151,-0.45548618,-0.81234515,0.639346,0.021124627,0.5936833,0.57596743,0.65864325,-0.57421434,1.6093464,-0.9761401,-1.8359104,-0.9351571,2.064893,1.2784485,-0.98453397,1.675408,-1.0299829,-1.8354232,-0.98466253,2.0151317,1.220101,-0.9302587,-1.5062249,1.0634761,0.20988521,0.9839313,0.7874431,0.7372535,-0.32131878,2.7424889,-0.53405,0.7150506,-3.0923657,-0.12220288,4.1617274,0.42816162,-0.5421829,0.74653685,0.67026937,0.1088792,0.09430985,0.728004,-1.3076283,-0.49533996,0.9779794,1.0,0.0,0.0,0.0,0.0,0.0,0.0,-3.392489,0.13404998,-0.16505057,4.465723,21.734238,-20.066595,-0.91201067,1.5672207,-5.7726264,-2.706331
20.62884,98.829094,30.469395,7.909062,-1.2745236,1.5220134,-0.29190215,-0.80035573,0.6770419,0.015690824,0.5729652,0.5871645,0.66310275,-0.57312995,1.5953724,-0.9622787,-1.8338542,-0.927366,2.0738482,1.2864113,-0.9875717,1.6606833,-1.0182222,-1.8344448,-0.9747882,2.0231502,1.2271143,-0.93360513,-1.4617219,1.2129143,0.061704263,0.98799807,0.80640674,0.6891593,-0.3401671,2.7115898,-0.5352707,0.75590014,-3.0892742,-0.122080706,4.05938,0.4152794,-0.5465679,0.7565992,0.68025285,0.09992702,0.091424085,0.72035563,-1.2861758,-0.4047127,1.0135975,1.0,0.0,0.0,0.0,0.0,0.0,0.0,-3.36159,0.13527068,-0.20590013,4.2696953,14.790416,-14.4458,0.22679567,1.8657446,-4.8520565,-2.2010028
14.989349,81.61486,24.69535,8.220379,-0.72665304,1.1830082,-0.2099759,-0.7928402,0.7029429,-0.039217178,0.57803655,0.58863026,0.66875595,-0.57075703,1.5813992,-0.94792795,-1.8383665,-0.91698456,2.0820131,1.2939899,-0.9906808,1.6463248,-1.0054544,-1.8346775,-0.9647994,2.0313327,1.2337137,-0.9371099,-1.4277772,1.2978619,-0.050293874,1.0017933,0.8222686,0.64989555,-0.3549405,2.6807213,-0.5364914,0.7957271,-3.0861855,-0.12195865,3.9571357,0.40255356,-0.55023575,0.7668465,0.69021124,0.09102837,0.08927998,0.71228594,-1.2716097,-0.33849743,1.027088,1.0,0.0,0.0,0.0,0.0,0.0,0.0,-3.3307214,0.13649139,-0.24572706,3.2374144,8.378649,-10.85601,1.1580229,1.5672684,-3.9862156,-1.7744362
10.136272,67.916466,20.084295,7.959123,-0.34155264,0.9429929,-0.11743565,-0.7958298,0.71772134,-0.07515009,0.5591029,0.5976217,0.67776054,-0.5776903,1.5667418,-0.93368226,-1.8421924,-0.9088891,2.091095,1.3014898,-0.9948789,1.6321741,-0.99220234,-1.8357723,-0.9547658,2.039664,1.2399794,-0.94074625,-1.4113275,1.333936,-0.12805063,1.0030259,0.83669335,0.6188136,-0.36747608,2.6498833,-0.5377102,0.83453226,-3.0830998,-0.121836714,3.8549936,0.38991928,-0.5533657,0.7770814,0.70008415,0.08225243,0.08759697,0.70387745,-1.2630993,-0.28897926,1.0209817,1.0,0.0,0.0,0.0,0.0,0.0,0.0,-3.2998834,0.13771018,-0.28453225,1.4942169,3.5220385,-7.4379354,-0.1307249,1.4306426,-3.145063,-1.5391946
10.692289,62.237877,18.997154,6.549936,-0.19887412,0.91106313,0.04655113,-0.7912616,0.7236808,-0.058191095,0.52894884,0.61297834,0.6763236,-0.57560074,1.553048,-0.91983426,-1.8415914,-0.9018709,2.100962,1.3076117,-0.99830633,1.6181132,-0.9788261,-1.8372447,-0.9448924,2.048148,1.245978,-0.9444904,-1.4049457,1.338636,-0.15223745,0.9812106,0.8524548,0.5936938,-0.37771863,2.6190758,-0.5389271,0.87231684,-3.0800173,-0.1217149,3.7529535,0.3773651,-0.5560169,0.7871994,0.70974684,0.07360903,0.08612542,0.6952866,-1.2553021,-0.24128532,1.0076716,1.0,0.0,0.0,0.0,0.0,0.0,0.0,-3.2690759,0.13892707,-0.32231683,0.4769802,0.39989948,-2.0240426,-2.4549484,1.541841,-2.5181413,-1.3237476
12.336817,62.11716,19.472786,5.636572,-0.2176038,0.9666151,0.15435545,-0.78990436,0.7361093,-0.04967798,0.5007567,0.6183768,0.6806945,-0.5783265,1.5391227,-0.90521514,-1.8422126,-0.89481676,2.1099856,1.3140475,-1.002323,1.6040674,-0.9654718,-1.8386886,-0.9353814,2.0567768,1.2517649,-0.94832605,-1.4051336,1.3341944,-0.14037986,0.9401618,0.86601734,0.57389194,-0.38652763,2.5882988,-0.54014397,0.90908176,-3.076938,-0.12159321,3.6510155,0.36489105,-0.5581608,0.79718536,0.7190898,0.06505997,0.08472017,0.68665814,-1.2459325,-0.18926202,0.99443114,1.0,0.0,0.0,0.0,0.0,0.0,0.0,-3.238299,0.14014396,-0.35908175,-0.19404888,-0.5101204,1.6349822,-4.3827653,1.3024807,-1.9660711,-1.1930525
14.948748,65.272896,20.990286,5.1829104,-0.27585286,1.0710665,0.23905393,-0.78609616,0.74542063,-0.025200086,0.4760973,0.6285009,0.68216413,-0.56845415,1.5254579,-0.89092976,-1.8412086,-0.88777167,2.1196268,1.3199813,-1.0051714,1.5900141,-0.9521509,-1.8397987,-0.92635393,2.0655353,1.257384,-0.95223135,-1.4061725,1.3312136,-0.09956553,0.8893936,0.87921107,0.5580442,-0.3929783,2.5575523,-0.54135895,0.9448281,-3.0738616,-0.12147164,3.5491796,0.35252762,-0.559721,0.8070821,0.7280331,0.05653634,0.083307646,0.67810845,-1.2339029,-0.13029061,0.98683226,1.0,0.0,0.0,0.0,0.0,0.0,0.0,-3.2075524,0.14135894,-0.39482808,-0.288558,-0.36535263,4.57457,-5.3464055,1.2512684,-1.5641451,-0.9688139
15.794712,65.35864,20.793571,4.9729915,-0.33265448,0.9984102,0.25412706,-0.7843753,0.74840283,-0.025978558,0.45077145,0.6372494,0.6854335,-0.5591998,1.5115765,-0.8773106,-1.8423965,-0.8812768,2.1292603,1.3259273,-1.0081513,1.575955,-0.9388395,-1.840512,-0.9178567,2.0744236,1.2628714,-0.9561843,-1.4066206,1.3309486,-0.06044011,0.83556473,0.891987,0.5457187,-0.3971464,2.5268364,-0.542572,0.97955686,-3.0707884,-0.1213502,3.4474454,0.34030533,-0.5606899,0.8168981,0.73655194,0.048016313,0.08188079,0.66968733,-1.218435,-0.070848204,0.9782473,1.0,0.0,0.0,0.0,0.0,0.0,0.0,-3.1768365,0.14257202,-0.42955685,-0.22454262,-0.08544922,4.3858795,-5.6442976,1.2240291,-1.1889696,-0.7298529
18.725376,66.1293,20.878916,3.374258,-0.5749783,0.8819072,0.3069235,-0.7837968,0.7574443,-0.01298856,0.3934291,0.64512706,0.685182,-0.5471447,1.4975754,-0.86309505,-1.841811,-0.8785138,2.1389363,1.3313895,-1.0108988,1.561894,-0.9254785,-1.840863,-0.9100404,2.0834377,1.2682558,-0.9601621,-1.406466,1.3376182,-0.02499582,0.76280177,0.90440863,0.5362361,-0.39908698,2.496151,-0.5437851,1.0132691,-3.0677183,-0.121228874,3.3458128,0.32830048,-0.56102943,0.82660735,0.7446083,0.039524596,0.08048917,0.6614512,-1.1940938,-0.0065406747,0.96652025,1.0,0.0,0.0,0.0,0.0,0.0,0.0,-3.146151,0.14378509,-0.46326905,-0.16696453,0.619483,4.0062923,-7.539749,1.2016416,-0.8529663,-0.4989326
20.077988,65.42727,20.305798,2.7478557,-0.7026401,0.7196879,0.3055649,-0.7776275,0.762548,-0.010161668,0.36045098,0.647676,0.6848694,-0.5392315,1.4841313,-0.84922373,-1.8418791,-0.8739953,2.1482053,1.3367428,-1.0140853,1.5478655,-0.9120241,-1.8409526,-0.902967,2.0925586,1.2735602,-0.96414846,-1.4021394,1.3479575,-0.0021386642,0.6880474,0.9144967,0.528927,-0.39943835,2.465496,-0.54499626,1.0459657,-3.064651,-0.12110767,3.244282,0.31658554,-0.56072617,0.8361787,0.7521969,0.031091163,0.07919309,0.653423,-1.1633575,0.05673888,0.95179206,1.0,0.0,0.0,0.0,0.0,0.0,0.0,-3.1154962,0.14499626,-0.49596566,0.26175976,1.0010242,2.7009034,-7.733059,0.996387,-0.59957504,-0.32271743
27.669289,62.940804,19.57112,-3.035039,-1.3280576,0.3478474,0.4765826,-0.77658856,0.7692356,0.0038119715,0.22365202,0.66204447,0.6847882,-0.53159916,1.4702066,-0.83510053,-1.8405714,-0.88060176,2.1587632,1.342039,-1.0173084,1.5338846,-0.89844567,-1.840842,-0.89710474,2.1017978,1.2788092,-0.96813005,-1.3971515,1.3610482,0.016596355,0.5513744,0.9269612,0.52449924,-0.39857355,2.4348717,-0.5462055,1.0776477,-3.061587,-0.12098658,3.1428525,0.30534363,-0.5597248,0.8454821,0.75920373,0.022851003,0.07807873,0.6457485,-1.1090972,0.12820426,0.9206319,1.0,0.0,0.0,0.0,0.0,0.0,0.0,-3.0848718,0.14620551,-0.5276477,0.32241344,1.3069391,2.2714942,-13.950432,1.2494683,-0.16690493,-0.18613935
43.121445,63.270485,20.93076,-13.109105,-2.357262,-0.038095772,0.8583653,-0.7700319,0.77605444,0.08205781,0.010734907,0.6797234,0.67279834,-0.52694196,1.4568814,-0.82084024,-1.8326362,-0.89603126,2.1697702,1.346089,-1.0208242,1.5199763,-0.88472706,-1.8402469,-0.89341307,2.1111934,1.2840239,-0.9720983,-1.3891838,1.375541,0.07512367,0.30754998,0.9436108,0.52217376,-0.39706698,2.4042778,-0.5474148,1.1083162,-3.058526,-0.12086561,3.0415246,0.2949257,-0.55783653,0.8543399,0.76533526,0.014991278,0.07718603,0.638811,-1.0156742,0.22049746,0.8713482,1.0,0.0,0.0,0.0,0.0,0.0,0.0,-3.054278,0.14741477,-0.5583162,0.62191486,1.4884233,6.254103,-24.674147,1.6785383,0.26062727,-0.10950565
53.32159,64.00984,22.063654,-19.141369,-2.9795156,-0.33874473,1.0986571,-0.7570501,0.78471893,0.14408937,-0.15055227,0.6861493,0.66227967,-0.50958884,1.4442712,-0.80625516,-1.825838,-0.9084683,2.1798084,1.3502518,-1.0230572,1.5062014,-0.870853,-1.8388355,-0.89259386,2.120753,1.2892214,-0.97603697,-1.374211,1.391532,0.16417858,0.00591285,0.9602427,0.5209653,-0.39343435,2.3737144,-0.54862404,1.1379721,-3.0554683,-0.12074477,2.9402978,0.28564453,-0.5549507,0.86264163,0.77036434,0.007632367,0.07652199,0.6329493,-0.8955859,0.322287,0.8131791,1.0,0.0,0.0,0.0,0.0,0.0,0.0,-3.0237145,0.14862403,-0.5879721,1.3781071,1.6805172,9.184013,-30.39644,1.7497063,0.5104542,0.16077161
47.865784,62.60251,21.11561,-15.491543,-2.5764806,-0.40102416,0.98827004,-0.75844324,0.79211295,0.16764309,-0.21502937,0.69100124,0.6539027,-0.47573066,1.4303571,-0.7916417,-1.8220712,-0.9140968,2.1898532,1.3546116,-1.02361,1.4925524,-0.85682064,-1.8365581,-0.8945193,2.1304653,1.2943999,-0.9799127,-1.3619895,1.4074992,0.2490536,-0.25924808,0.9754798,0.51897734,-0.38596597,2.3431816,-0.5498295,1.1666167,-3.0524135,-0.12062406,2.8391724,0.27747726,-0.55113983,0.8704098,0.7743513,0.00076807063,0.07606542,0.62816674,-0.7854642,0.40927115,0.76086813,1.0,0.0,0.0,0.0,0.0,0.0,0.0,-2.9931817,0.14982948,-0.61661667,1.1680603,1.7043352,8.572412,-26.669804,1.7154813,0.3886342,0.62309504
41.56176,65.08067,22.002434,-9.225575,-1.9043715,-0.1824139,0.8463594,-0.7420902,0.7957764,0.24579322,-0.25738057,0.6914383,0.64780587,-0.4390694,1.4183434,-0.777243,-1.8119788,-0.9202574,2.199609,1.3591805,-1.0238197,1.4790713,-0.84265095,-1.8332889,-0.8985381,2.1402996,1.2995535,-0.9836883,-1.3437142,1.420543,0.3523736,-0.44973063,0.98755205,0.51586866,-0.37497088,2.3126793,-0.5510349,1.1942506,-3.0493617,-0.12050346,2.7381482,0.27026367,-0.54652977,0.87780976,0.7774494,-0.005775998,0.075705834,0.6243458,-0.6956926,0.48510697,0.72864985,1.0,0.0,0.0,0.0,0.0,0.0,0.0,-2.9626794,0.15103492,-0.6442506,1.8236399,1.4347792,10.234994,-19.142067,1.5251756,0.19990206,1.0167956
32.01514,67.57409,22.637548,-1.0399137,-1.0716816,0.15525432,0.63906586,-0.7360096,0.80116844,0.31700274,-0.27085158,0.6830751,0.6458867,-0.39476648,1.4054703,-0.7625341,-1.8015887,-0.9256233,2.208607,1.3641422,-1.023165,1.4657675,-0.82836586,-1.8288887,-0.90380335,2.1502063,1.3046728,-0.98732656,-1.3259041,1.4315668,0.46861354,-0.55232155,0.9930412,0.511872,-0.36037588,2.2822075,-0.5522404,1.220875,-3.046313,-0.12038299,2.6372247,0.26371002,-0.5412445,0.88506395,0.77985144,-0.012245041,0.07531534,0.6212964,-0.6346076,0.5492185,0.7193722,1.0,0.0,0.0,0.0,0.0,0.0,0.0,-2.9322076,0.15224037,-0.670875,1.790905,1.2477636,11.400146,-10.329092,0.97123384,0.013935566,1.393336
26.152517,71.32428,24.325289,5.5505667,-0.37250304,0.5166264,0.52846265,-0.7167304,0.80093825,0.41968414,-0.26245543,0.6871182,0.6286229,-0.3209961,1.3940945,-0.74827206,-1.7869202,-0.9300489,2.218918,1.3675351,-1.0194262,1.4526888,-0.81400734,-1.8231094,-0.9095044,2.1601589,1.3097368,-0.99077505,-1.3017702,1.4378,0.6132224,-0.57621896,0.9977102,0.5058889,-0.33991194,2.2517662,-0.553442,1.246491,-3.0432673,-0.12026263,2.5364022,0.25759888,-0.535347,0.8924027,0.78168494,-0.018903978,0.07472747,0.6188917,-0.59699607,0.6084139,0.733315,1.0,0.0,0.0,0.0,0.0,0.0,0.0,-2.9017663,0.153442,-0.69649094,2.437973,0.78451633,14.128733,-2.442348,0.98814964,-0.24551153,1.9780993
13.506312,69.40494,22.955706,14.4555435,0.5651761,0.78627795,0.25832343,-0.7159437,0.79957473,0.45627314,-0.18383147,0.68423593,0.63225746,-0.23773591,1.3810945,-0.73404986,-1.777482,-0.92788756,2.2285824,1.3729626,-1.0145487,1.4398066,-0.7996231,-1.8160121,-0.9147506,2.1701343,1.3147436,-0.99397177,-1.2836208,1.4391756,0.74091536,-0.5076448,0.9993904,0.4995946,-0.31325793,2.2213554,-0.55464363,1.2710996,-3.0402248,-0.12014239,2.4356806,0.2516098,-0.5289879,0.9000076,0.7831558,-0.025972573,0.07384329,0.61687887,-0.59330595,0.6503552,0.76379585,1.0,0.0,0.0,0.0,0.0,0.0,0.0,-2.8713555,0.15464363,-0.72109956,1.8126249,0.3016472,12.418962,6.775117,0.70974827,-0.3915131,2.5824547
-5.2044954,65.76957,20.314035,27.032097,1.8719003,1.1687202,-0.16863665,-0.7258572,0.7977848,0.47214675,-0.010629364,0.67729294,0.6363455,-0.17346145,1.3672209,-0.7198446,-1.7687975,-0.9158135,2.2378635,1.3783782,-1.011318,1.4269968,-0.7852531,-1.8079231,-0.9183879,2.1800983,1.3196856,-0.9968757,-1.2801737,1.4368869,0.8304553,-0.31617123,0.99700576,0.49264348,-0.28309345,2.1909752,-0.55584526,1.2947016,-3.0371852,-0.120022275,2.3350596,0.24528503,-0.5223999,0.9080764,0.7846043,-0.033686064,0.07260324,0.6148089,-0.63860583,0.66762197,0.81518453,1.0,0.0,0.0,0.0,0.0,0.0,0.0,-2.8409753,0.15584525,-0.74470156,0.27959347,-0.06270409,8.624065,19.00459,0.30360222,-0.63985586,2.9105365
-18.370995,57.614693,16.174595,33.824352,2.621991,1.2157371,-0.48798987,-0.7421853,0.7898203,0.46318275,0.110395335,0.6764901,0.649619,-0.1991754,1.3527783,-0.70627105,-1.7616048,-0.90734833,2.2477474,1.3846475,-1.0167933,1.4140917,-0.7709499,-1.7993228,-0.9196639,2.190028,1.3245665,-0.9995231,-1.2942537,1.428613,0.8688121,-0.0653854,0.9931184,0.4864814,-0.25901043,2.1606255,-0.5570431,1.3172982,-3.0341485,-0.119902276,2.2345393,0.23828125,-0.51579666,0.9166652,0.78632855,-0.042132318,0.07102362,0.61226463,-0.7131023,0.66411364,0.8670624,1.0,0.0,0.0,0.0,0.0,0.0,0.0,-2.8106256,0.15704307,-0.76729816,-1.5174389,-0.6722212,3.5613298,24.895876,0.09955168,-0.69282055,2.3011923
-24.171284,51.34271,13.115749,35.42427,2.766474,1.1250865,-0.6363486,-0.7653451,0.7893164,0.45350474,0.203462,0.67033195,0.6556368,-0.22205909,1.3375572,-0.6920183,-1.7539724,-0.8993177,2.2570612,1.3901302,-1.021729,1.4009176,-0.7567287,-1.7906425,-0.9184184,2.1999004,1.329394,-1.0019764,-1.3255718,1.4203328,0.86694074,0.1872292,0.9866154,0.48113847,-0.24107765,2.1303062,-0.5582409,1.3388903,-3.031115,-0.119782396,2.1341195,0.23047638,-0.5092926,0.9257056,0.78848565,-0.051257603,0.069197394,0.6089949,-0.7964764,0.6526798,0.90984106,1.0,0.0,0.0,0.0,0.0,0.0,0.0,-2.7803063,0.15824088,-0.7888903,-3.2634735,-0.69224834,-0.40792227,25.076956,-0.20942688,-0.67769885,1.7030299
-18.80534,47.678623,11.894687,30.016544,2.17481,0.8005532,-0.5312689,-0.7713068,0.78747165,0.44917583,0.24537186,0.6725281,0.6524013,-0.23368505,1.323787,-0.67798156,-1.7457249,-0.8938812,2.2671533,1.3946341,-1.0253448,1.387427,-0.7425838,-1.7821319,-0.9150691,2.2097156,1.3341757,-1.0042843,-1.3571514,1.4129353,0.8452062,0.38361892,0.9812335,0.476709,-0.2277356,2.1000175,-0.5594387,1.3594791,-3.0280845,-0.119662635,2.0338,0.22197723,-0.50286865,0.93503046,0.79102653,-0.06089139,0.06724731,0.60501826,-0.8601628,0.6472434,0.9334011,1.0,0.0,0.0,0.0,0.0,0.0,0.0,-2.7500176,0.1594387,-0.80947906,-3.276515,-0.63414574,-2.3213983,19.478268,-0.16986132,-0.54602027,1.2517393
-10.10986,44.37037,10.842686,21.817436,1.2756331,0.33877268,-0.35086715,-0.7845082,0.78814125,0.42290276,0.24972601,0.6709962,0.65803516,-0.26189274,1.3089762,-0.66376966,-1.7398416,-0.8900965,2.2768152,1.3999792,-1.0304736,1.3736311,-0.72848946,-1.773978,-0.91039705,2.2194812,1.3389269,-1.0065006,-1.3875813,1.4085319,0.8052526,0.49449942,0.97596693,0.47464997,-0.21984348,2.0697594,-0.5606346,1.3790653,-3.025057,-0.11954299,1.9335805,0.21307755,-0.4964428,0.94440335,0.79380554,-0.070773005,0.065334104,0.6004959,-0.89221054,0.65015036,0.9318214,1.0,0.0,0.0,0.0,0.0,0.0,0.0,-2.7197595,0.1606346,-0.82906526,-3.1624794,-0.36418438,-4.043472,10.930472,-0.24647713,-0.20154715,0.70864856
-1.6703634,44.12841,11.145012,15.372635,0.557601,0.018879801,-0.17024994,-0.7885494,0.7876368,0.41159984,0.2716279,0.6690215,0.6630026,-0.25997153,1.2947762,-0.6497258,-1.732818,-0.88323426,2.2863834,1.4052272,-1.0324978,1.359593,-0.71442276,-1.7662284,-0.905066,2.2291973,1.3436705,-1.0086521,-1.4093709,1.4062703,0.76497823,0.54550856,0.9708441,0.47461668,-0.21387385,2.0395317,-0.5618286,1.3976501,-3.0220327,-0.11942347,1.8334614,0.20405197,-0.4899273,0.9536506,0.7966672,-0.08071133,0.06356921,0.59562236,-0.8977404,0.6620337,0.91569847,1.0,0.0,0.0,0.0,0.0,0.0,0.0,-2.6895318,0.1618286,-0.8476501,-2.289772,-0.17118454,-3.996122,4.951215,-0.29996634,0.09049773,0.5041748
6.1678276,43.27014,11.184168,9.030082,-0.11375195,-0.33341286,0.008871488,-0.7945437,0.78500026,0.39595124,0.24889095,0.6659035,0.66092,-0.2675086,1.2801386,-0.63592273,-1.7266333,-0.8801769,2.2957876,1.4097625,-1.0354029,1.3453909,-0.700378,-1.7588565,-0.8996787,2.23886,1.3484198,-1.0107597,-1.4241554,1.4039905,0.7281269,0.53601855,0.9652161,0.4757842,-0.21001446,2.0093346,-0.5630226,1.4152346,-3.0190113,-0.11930407,1.7334423,0.19517899,-0.48324776,0.9626278,0.79946303,-0.0905364,0.062033046,0.5906047,-0.8770778,0.6797167,0.88505024,1.0,0.0,0.0,0.0,0.0,0.0,0.0,-2.6593347,0.16302261,-0.86523455,-1.5820742,-0.18672943,-3.5826325,-1.097691,-0.41599274,0.30896664,0.28392375
15.0453205,43.159973,11.661131,1.9788485,-0.82053065,-0.7048168,0.23667851,-0.7978652,0.7812364,0.401395,0.17390332,0.6674306,0.6564961,-0.2799842,1.2656044,-0.6222544,-1.718717,-0.8822884,2.305603,1.4140694,-1.0387582,1.3310896,-0.6863676,-1.7517192,-0.89491034,2.2484767,1.3531843,-1.0128444,-1.4323744,1.4002256,0.70954096,0.45671156,0.9608894,0.4777386,-0.20839356,1.9791679,-0.5642147,1.4318196,-3.0159929,-0.119184785,1.6335232,0.18672562,-0.47634506,0.97119033,0.80202705,-0.10006799,0.060775574,0.5857007,-0.8273563,0.7032319,0.840102,1.0,0.0,0.0,0.0,0.0,0.0,0.0,-2.629168,0.1642147,-0.88181955,-0.9092331,-0.34508705,-1.6857982,-8.06787,-0.35648346,0.49955845,0.052523613
22.539734,45.70099,12.951858,-3.2659068,-1.3899951,-0.9584436,0.43861794,-0.79801524,0.78696513,0.41531128,0.09161671,0.6720784,0.6560115,-0.2591572,1.251288,-0.6076711,-1.7101882,-0.8857487,2.3156846,1.4187855,-1.0387602,1.3167502,-0.6723619,-1.744601,-0.8913331,2.2580745,1.3579718,-1.0149025,-1.4346715,1.4007663,0.7132029,0.32437247,0.9594772,0.48032182,-0.20530364,1.9490318,-0.5654049,1.447406,-3.0129776,-0.11906562,1.533704,0.17893219,-0.46915436,0.979251,0.8042028,-0.10917808,0.05982268,0.5811706,-0.7541709,0.7334772,0.78833985,1.0,0.0,0.0,0.0,0.0,0.0,0.0,-2.599032,0.16540489,-0.89740604,-0.2897501,0.0813961,0.57184696,-13.334775,-0.10946989,0.6372571,0.20324886
22.190472,46.520214,13.315238,-2.0821562,-1.2591774,-0.9809128,0.44144705,-0.79293203,0.78638905,0.4118753,0.08750546,0.6738822,0.65344954,-0.19013357,1.2374569,-0.593723,-1.7034135,-0.88258255,2.3254628,1.4233167,-1.0339159,1.3024393,-0.65834385,-1.7374046,-0.88893557,2.267676,1.3627802,-1.0168804,-1.4300061,1.4022906,0.7222439,0.21140285,0.9603951,0.4821971,-0.19554174,1.9189262,-0.5665951,1.4619951,-3.0099652,-0.118946575,1.4339846,0.17185974,-0.461668,0.9868433,0.8059576,-0.11788448,0.059144184,0.577094,-0.6837557,0.7613043,0.7432528,1.0,0.0,0.0,0.0,0.0,0.0,0.0,-2.5689263,0.16659507,-0.9119951,0.437665,0.1941204,1.0411501,-11.370829,0.1560092,0.5413532,0.8859068
17.875881,45.788403,12.954023,1.858356,-0.8409528,-0.8883341,0.35127178,-0.7931943,0.7848031,0.40725726,0.09181007,0.6688203,0.6532031,-0.101416044,1.2231199,-0.57986355,-1.6966789,-0.87975454,2.3345582,1.4281006,-1.027022,1.2881838,-0.6443153,-1.7301395,-0.8873334,2.2772777,1.3676001,-1.0186981,-1.4241102,1.4031576,0.7283311,0.14283185,0.9603935,0.48312163,-0.17724037,1.8888512,-0.56778336,1.4755877,-3.0069559,-0.11882765,1.3343649,0.16536331,-0.45393562,0.9940639,0.8073526,-0.12629159,0.058692142,0.5733999,-0.62829584,0.78377765,0.7086549,1.0,0.0,0.0,0.0,0.0,0.0,0.0,-2.5388513,0.16778335,-0.9255877,0.5663872,0.1452446,0.67226887,-6.9296837,0.12112856,0.38459897,1.7504245
11.695471,46.880848,13.409682,8.410723,-0.18767321,-0.58202887,0.23562652,-0.7897187,0.7848236,0.4226831,0.1408254,0.663103,0.65238035,0.059274595,1.209212,-0.565833,-1.6878712,-0.87325084,2.343588,1.4328381,-1.0127707,1.273995,-0.63028103,-1.7227638,-0.8858781,2.286864,1.3724219,-1.0202202,-1.4171755,1.4037595,0.74065596,0.14609994,0.9587613,0.48269424,-0.14409357,1.8588066,-0.5689697,1.4881849,-3.0039496,-0.11870884,1.2348448,0.15924454,-0.4459839,1.0010793,0.8084599,-0.13460945,0.05837782,0.5699691,-0.59835696,0.80490106,0.69285,1.0,0.0,0.0,0.0,0.0,0.0,0.0,-2.5088067,0.16896972,-0.9381849,0.6568432,0.13444424,1.22931,0.24539232,0.034296513,0.15109181,3.229946
1.8698249,44.571507,12.593958,17.345594,0.73894715,-0.19753602,0.019528113,-0.7894568,0.7744721,0.41804165,0.2526426,0.63925487,0.6587084,0.22914441,1.1950494,-0.5528338,-1.6809596,-0.8606138,2.3507895,1.4382927,-0.9973057,1.2598616,-0.6162916,-1.715308,-0.88365984,2.2963665,1.3772379,-1.0213016,-1.4123856,1.3976797,0.7470603,0.24667335,0.9484735,0.48146576,-0.09638871,1.8287926,-0.5701561,1.4997877,-3.0009463,-0.118590154,1.1354243,0.1531372,-0.4378624,1.008087,0.80940545,-0.14311698,0.05810307,0.5665723,-0.60534376,0.820497,0.6970507,1.0,0.0,0.0,0.0,0.0,0.0,0.0,-2.4787927,0.17015609,-0.9497877,0.405097,-0.5182266,0.5755782,9.934068,-0.74296,-0.056385994,4.670705
-1.7638054,41.02023,11.401058,20.024212,1.0482781,-0.14051476,-0.06383892,-0.78554493,0.7634067,0.4108291,0.29470214,0.62154603,0.65745324,0.30560836,1.1813071,-0.5399509,-1.6742251,-0.85418963,2.358521,1.4429833,-0.9907408,1.2457758,-0.6024156,-1.7078502,-0.8801999,2.3057163,1.3820368,-1.0218796,-1.4075538,1.3844825,0.74497956,0.3785272,0.93166274,0.4796354,-0.04523178,1.798809,-0.57134247,1.510397,-2.9979458,-0.118471585,1.0361031,0.14686966,-0.4296074,1.0151614,0.81026566,-0.15193883,0.05783197,0.56306267,-0.6245912,0.83212465,0.70436895,1.0,0.0,0.0,0.0,0.0,0.0,0.0,-2.4488091,0.17134246,-0.96039695,0.40287971,-1.2300968,-0.28362274,13.047827,-1.3822317,-0.16063452,5.010981
-0.52004623,37.221813,9.863806,17.157276,0.7769087,-0.38723862,-0.039786555,-0.7911973,0.759047,0.38977686,0.28078657,0.6127985,0.6545036,0.31489798,1.1666561,-0.52651095,-1.6688725,-0.85212123,2.366996,1.4474871,-0.99038976,1.2316958,-0.5886808,-1.7005317,-0.8756881,2.3148868,1.3868185,-1.0219845,-1.4082063,1.370009,0.72737616,0.47499937,0.9132572,0.47795606,0.0007874505,1.7688484,-0.572525,1.5200138,-2.9949486,-0.118353136,0.93688124,0.14048386,-0.4212761,1.0222206,0.81105506,-0.16097537,0.057630837,0.559424,-0.63327426,0.8399266,0.69984967,1.0,0.0,0.0,0.0,0.0,0.0,0.0,-2.4188485,0.17252502,-0.9700138,-0.146842,-1.3697863,-1.7923594,9.512054,-1.5867352,-0.10780096,4.5068502
7.107442,33.49871,8.558655,8.141182,-0.06742793,-0.9492046,0.16913629,-0.787046,0.7454338,0.38653347,0.19618692,0.5934253,0.653376,0.3219931,1.1529912,-0.51413745,-1.6618783,-0.8560694,2.3742294,1.4521561,-0.98978513,1.2176195,-0.57512623,-1.693402,-0.87093306,2.3238437,1.3915907,-1.0216774,-1.4075681,1.3508105,0.70844924,0.4753606,0.8902884,0.47777817,0.04056912,1.7389183,-0.5737076,1.5286391,-2.9919543,-0.118234806,0.8377586,0.13428879,-0.4128933,1.0290475,0.81168556,-0.16993228,0.057624873,0.5558498,-0.6063399,0.8432696,0.67045915,1.0,0.0,0.0,0.0,0.0,0.0,0.0,-2.3889184,0.17370757,-0.97863907,0.01900196,-1.8611193,-1.8481374,-0.07631183,-2.152419,0.18039346,3.8932667
17.354582,33.897446,8.710793,-2.260673,-1.1061606,-1.5393639,0.47044432,-0.7797848,0.74160343,0.3979675,0.07724473,0.58120435,0.6412796,0.38129434,1.139641,-0.5009659,-1.6536053,-0.8632086,2.3819642,1.4557186,-0.9835479,1.2035853,-0.5617452,-1.6863658,-0.8670049,2.332564,1.396361,-1.0209755,-1.4020073,1.3339566,0.70231634,0.3650992,0.86621886,0.47810617,0.07973048,1.7090187,-0.57489014,1.536274,-2.988963,-0.118116595,0.738735,0.12868118,-0.4044857,1.0354095,0.8119929,-0.17846003,0.057953995,0.5526851,-0.5356551,0.84587616,0.6184133,1.0,0.0,0.0,0.0,0.0,0.0,0.0,-2.3590188,0.17489013,-0.98627394,0.5696535,-1.6467571,-0.4916072,-11.085314,-2.3863316,0.37810802,3.8412557
19.602114,31.19399,7.759413,-5.5692115,-1.3421018,-1.8417559,0.54931253,-0.776386,0.72518235,0.3911269,0.034748126,0.56526405,0.6425355,0.43016064,1.1259466,-0.489227,-1.6472532,-0.86353004,2.3890905,1.4606146,-0.9779594,1.1896235,-0.5485626,-1.6793754,-0.86444044,2.3410404,1.4011408,-1.0198883,-1.3940173,1.313185,0.6982343,0.22001602,0.84148246,0.47908443,0.11812811,1.6791496,-0.5760689,1.5429194,-2.9859746,-0.1179985,0.63981044,0.12387848,-0.3961029,1.0411897,0.8119164,-0.18636878,0.05867174,0.5501055,-0.45233256,0.8407435,0.55852675,1.0,0.0,0.0,0.0,0.0,0.0,0.0,-2.3291497,0.17606887,-0.9929194,0.85611343,-2.0347118,-0.31489134,-14.5430355,-2.4805903,0.48071742,3.7836194
21.75306,28.797104,7.2240667,-7.8738217,-1.4428456,-2.0834389,0.62618774,-0.7490052,0.70083785,0.39954334,-0.03188498,0.53799194,0.63901746,0.4931391,1.114723,-0.4784788,-1.6394211,-0.86762893,2.3948395,1.4650426,-0.9705744,1.1758639,-0.5356565,-1.6723659,-0.86342096,2.3492382,1.4059283,-1.018412,-1.3695536,1.2833465,0.7019034,0.06258715,0.8123092,0.479871,0.15734623,1.6493111,-0.5772476,1.5485764,-2.9829893,-0.11788053,0.54098475,0.119968414,-0.38781166,1.0463442,0.8114206,-0.19357757,0.059756324,0.5482274,-0.36074945,0.8286157,0.49533117,1.0,0.0,0.0,0.0,0.0,0.0,0.0,-2.2993112,0.17724761,-0.99857634,2.5859356,-2.9339075,0.38228035,-15.742232,-2.93957,0.4729092,3.8787274
14.137496,27.228483,6.807683,-0.12664223,-0.61725473,-1.7597815,0.4039667,-0.75070447,0.68806547,0.39583445,0.015034556,0.5348803,0.63821757,0.4936883,1.1007934,-0.46684995,-1.6327825,-0.8619175,2.4027262,1.46975,-0.96904314,1.1623179,-0.52305466,-1.6653278,-0.8634,2.357188,1.4107176,-1.0165848,-1.3491936,1.2526742,0.70417464,-0.018205158,0.7896788,0.4793456,0.19113961,1.619503,-0.57842636,1.5532458,-2.980007,-0.11776268,0.44225794,0.116737366,-0.3796482,1.0510073,0.81060576,-0.20026478,0.061092652,0.54688203,-0.30208054,0.8144674,0.45116654,1.0,0.0,0.0,0.0,0.0,0.0,0.0,-2.269503,0.17842636,-1.0032458,2.1245956,-2.9966116,0.17466545,-8.121347,-2.1902084,0.22966862,3.3366232
10.0545025,25.262842,6.036776,3.4657173,-0.2518872,-1.6660076,0.27062058,-0.7447062,0.67492807,0.3786255,-0.018175287,0.51704836,0.6347541,0.50414985,1.0878472,-0.45556185,-1.6274652,-0.8652175,2.4088929,1.474193,-0.9661698,1.1489493,-0.51074845,-1.6583545,-0.8639388,2.3649204,1.4154955,-1.0144523,-1.3325135,1.2235589,0.69482553,-0.06595982,0.7680994,0.4778909,0.22049685,1.5897255,-0.5796032,1.5569286,-2.9770274,-0.11764494,0.34362984,0.11397934,-0.37164116,1.0552846,0.80958384,-0.2065582,0.06262225,0.5458809,-0.25823236,0.79777765,0.41478357,1.0,0.0,0.0,0.0,0.0,0.0,0.0,-2.2397256,0.17960319,-1.0069287,1.7210245,-2.832079,-1.0068178,-4.845997,-2.0464659,0.08773208,2.8952956
10.61068,22.01389,4.766058,1.4203529,-0.40212885,-1.8933351,0.28125578,-0.7301647,0.6541765,0.36111346,-0.11086355,0.48728693,0.63579476,0.52192944,1.0759327,-0.4453308,-1.6222432,-0.87502515,2.413649,1.479075,-0.9622594,1.1357619,-0.49875122,-1.6515663,-0.86512613,2.372401,1.4202582,-1.0120491,-1.3139411,1.1920856,0.6734556,-0.13658819,0.7412497,0.47663638,0.24676071,1.5599785,-0.5807781,1.5596259,-2.974051,-0.11752733,0.24510033,0.11172104,-0.36384964,1.0591484,0.8084006,-0.21239159,0.06438374,0.54519075,-0.20678835,0.7740358,0.3719633,1.0,0.0,0.0,0.0,0.0,0.0,0.0,-2.2099786,0.18077812,-1.0096259,1.9380808,-3.0714273,-2.2162676,-7.1227536,-2.6045084,0.118893385,2.5941281
7.1633663,17.502373,3.0951254,3.3959055,-0.15941262,-1.9155797,0.17136663,-0.727161,0.63159984,0.33222318,-0.11627961,0.4505241,0.63501185,0.5361442,1.0630457,-0.43559122,-1.618344,-0.8767541,2.4174533,1.4837594,-0.95843464,1.1227251,-0.48709637,-1.645108,-0.86689997,2.379546,1.4250094,-1.0094055,-1.2999624,1.156874,0.6363132,-0.19131176,0.7058798,0.47517276,0.27010098,1.530262,-0.58195305,1.5613385,-2.9710777,-0.117409825,0.14666934,0.10990524,-0.35634613,1.0625957,0.8071385,-0.21774805,0.06641569,0.5447038,-0.16483472,0.7434171,0.33099976,1.0,0.0,0.0,0.0,0.0,0.0,0.0,-2.180262,0.18195304,-1.0113385,1.452136,-3.4427404,-3.792131,-5.562988,-3.4471035,0.06741285,2.2987068
3.7790587,12.840936,1.395516,5.236644,0.13658357,-1.9396548,0.07220407,-0.7288447,0.6094378,0.29716107,-0.13539901,0.44450077,0.6380713,0.5419637,1.0498407,-0.4261526,-1.6153919,-0.8804399,2.423996,1.4888165,-0.95520914,1.1097723,-0.4758163,-1.6391361,-0.86914206,2.3863704,1.4297472,-1.0065521,-1.2937218,1.1186177,0.5839397,-0.23559359,0.6751602,0.47394422,0.2901617,1.500576,-0.58312607,1.5620676,-2.9681072,-0.117292434,0.04833676,0.1084404,-0.3491974,1.0656412,0.80589014,-0.22262731,0.068709254,0.544295,-0.1331414,0.70519924,0.29136437,1.0,0.0,0.0,0.0,0.0,0.0,0.0,-2.150576,0.18312606,-1.0120676,0.6435871,-3.7478685,-5.294764,-4.549682,-2.98177,0.061023235,1.9665718
4.1843433,6.928668,-0.41657543,2.8093386,0.07931602,-2.179244,0.11487716,-0.71160036,0.5650623,0.2831346,-0.20819488,0.3850837,0.6387384,0.5605526,1.0386122,-0.4193101,-1.6108226,-0.88996154,2.4248788,1.4936211,-0.95049685,1.0969263,-0.46503788,-1.6336677,-0.8720145,2.392779,1.4344755,-1.0035118,-1.2814095,1.0645239,0.5341633,-0.30471805,0.62964803,0.47302562,0.30864504,1.4709206,-0.5842972,1.5618142,-2.9651396,-0.11717516,-0.049897518,0.10733414,-0.34251213,1.0682249,0.8046767,-0.22694154,0.071263164,0.5439801,-0.09549234,0.65596044,0.24341159,1.0,0.0,0.0,0.0,0.0,0.0,0.0,-2.1209207,0.18429717,-1.0118141,1.3072729,-5.340004,-5.054033,-7.021493,-4.504311,0.098866224,1.8031061
2.1036818,1.4810412,-1.9271042,3.5305119,0.3417226,-2.2150326,0.089915894,-0.70806426,0.52043027,0.27049723,-0.23102845,0.34364048,0.6450785,0.5644658,1.02612,-0.41299486,-1.6066179,-0.89511734,2.427143,1.4989834,-0.94706523,1.0841967,-0.4549113,-1.6286285,-0.8755622,2.3986766,1.4391981,-1.0003055,-1.2697521,0.995586,0.4934967,-0.37184474,0.5764209,0.47269127,0.32443976,1.441288,-0.5854683,1.5605792,-2.962175,-0.11705801,-0.14803357,0.10655975,-0.33638,1.0703217,0.8035153,-0.23066302,0.074033014,0.54376173,-0.06545678,0.5987918,0.1947682,1.0,0.0,0.0,0.0,0.0,0.0,0.0,-2.091288,0.18546829,-1.0105791,1.2485266,-6.8309903,-4.1447697,-6.8340836,-5.287528,0.13176203,1.5219688
0.07234049,-14.37806,-6.625766,0.9565611,0.66353524,-2.5700297,0.11710276,-0.6764306,0.41735512,0.25123176,-0.2979524,0.2516537,0.6452849,0.5771071,1.0165536,-0.4131758,-1.6035054,-0.9053574,2.423842,1.5037266,-0.9425948,1.0717112,-0.4458266,-1.6239555,-0.87992907,2.4038494,1.4439188,-0.99695337,-1.241054,0.8795598,0.45799813,-0.45879346,0.4973711,0.47241023,0.33855495,1.411686,-0.5866394,1.5583636,-2.9592135,-0.116940975,-0.24607152,0.10606003,-0.33101845,1.071823,0.8024192,-0.23367932,0.07692421,0.54369104,-0.03855887,0.51386714,0.13204576,1.0,0.0,0.0,0.0,0.0,0.0,0.0,-2.061686,0.1866394,-1.0083635,3.0529976,-11.56205,-3.6694407,-8.822399,-7.9374847,0.12509227,1.3228357
-6.3373175,-37.796402,-14.271933,0.08511782,1.4439833,-2.992211,0.014912247,-0.65662795,0.29574874,0.17676885,-0.35195524,0.21274117,0.64140147,0.5706613,1.0060484,-0.41625172,-1.6062787,-0.9151246,2.4251235,1.508059,-0.9398872,1.0595766,-0.43830305,-1.6198738,-0.8852439,2.4082172,1.4486319,-0.9934839,-1.2034672,0.70991457,0.39132643,-0.55620694,0.41600782,0.4711344,0.34918004,1.3821144,-0.5878067,1.5551683,-2.956255,-0.11682406,-0.34401143,0.105709076,-0.326828,1.0725759,0.80149466,-0.23579314,0.07977619,0.5437313,-0.029374361,0.38643786,0.053772792,1.0,0.0,0.0,0.0,0.0,0.0,0.0,-2.0321145,0.1878067,-1.0051682,3.9996862,-16.966988,-6.751704,-9.90386,-8.275455,-0.045609474,0.9231746
-24.308578,-117.27764,-39.273865,-5.8895764,3.8480368,-4.3667006,-0.15257218,-0.5786651,-0.10292407,0.09187633,-0.4605245,0.03559032,0.62854064,0.5607291,1.0017102,-0.44859546,-1.6106862,-0.93129635,2.4117763,1.5114859,-0.937411,1.0481325,-0.43407875,-1.6167552,-0.891829,2.4113758,1.4533106,-0.989941,-1.1232092,0.32604992,0.2852658,-0.69341385,0.28063416,0.4663317,0.35499546,1.3525734,-0.588974,1.5509943,-2.9532993,-0.116707265,-0.44185343,0.10507965,-0.3249607,1.0720886,0.8009815,-0.23645651,0.08206369,0.5438588,-0.070384674,0.11867108,-0.08468764,1.0,0.0,0.0,0.0,0.0,0.0,0.0,-2.0025735,0.188974,-1.0009942,8.515072,-38.540543,-10.604822,-13.944793,-14.021039,-0.6283939,0.26477575
-28.72373,-155.57288,-51.956596,-13.964182,3.9908414,-5.315579,-0.18480566,-0.44168022,-0.3747,-0.019889876,-0.58225113,-0.40237498,0.5919855,0.49913642,1.0039645,-0.47154877,-1.6187443,-0.9500541,2.3711383,1.5125091,-0.94002736,1.0380427,-0.43456513,-1.6150577,-0.9001012,2.4120204,1.457894,-0.98640573,-0.9689713,-0.17448604,0.13211317,-0.872096,-0.0097101955,0.4536394,0.35154828,1.3230629,-0.5901413,1.5458426,-2.9503465,-0.11659058,-0.53959763,0.10409546,-0.32626152,1.0698972,0.80106956,-0.23516975,0.08378916,0.54402393,-0.10602327,-0.2136503,-0.26460493,1.0,0.0,0.0,0.0,0.0,0.0,0.0,-1.9730629,0.19014129,-0.99584264,15.97687,-50.353386,-15.105665,-17.950844,-29.748804,-1.857394,-0.81092715
4.7481637,-121.832054,-34.533916,-27.157316,2.7144232,-5.1711564,0.94999105,0.09128276,-0.65218806,0.21733199,-0.5958466,-0.5712432,0.63563305,0.49381366,1.047171,-0.49978393,-1.5933245,-0.95968586,2.354896,1.5214573,-0.93702435,1.0317827,-0.44048983,-1.6135166,-0.90989065,2.409537,1.4623743,-0.98290956,-0.51205695,-0.73270625,0.16277228,-1.0149077,-0.32894695,0.44317168,0.34782732,1.2935829,-0.5913048,1.5397142,-2.9473965,-0.11647401,-0.6372441,0.10328674,-0.33047485,1.0659952,0.80088854,-0.23228377,0.0843198,0.5454465,-0.073793314,-0.49027324,-0.43247625,1.0,0.0,0.0,0.0,0.0,0.0,0.0,-1.9435829,0.19130477,-0.9897142,45.617508,-56.09532,3.4611435,-14.374137,-32.15865,-1.9047499,-0.7133126
22.723171,-76.28967,-19.103506,-26.572813,1.514347,-4.62187,1.1175959,0.38620007,-0.75306624,0.026914231,-0.53836924,-0.53336674,0.6647801,0.33837807,1.0704027,-0.5157964,-1.6108252,-0.9637276,2.3562005,1.5288523,-0.94907176,1.0310637,-0.45123154,-1.612149,-0.9204068,2.4045131,1.4667746,-0.97955835,0.07078927,-1.1888864,0.13196735,-1.0648485,-0.5602835,0.4356851,0.33030117,1.2641335,-0.59246826,1.5326102,-2.94445,-0.11635756,-0.734793,0.10310364,-0.33692932,1.060681,0.7999111,-0.22835162,0.08334367,0.54868156,-0.0015986959,-0.6948135,-0.5654554,1.0,0.0,0.0,0.0,0.0,0.0,0.0,-1.9141334,0.19246826,-0.98261017,57.11168,-45.87208,-1.8977582,-5.297971,-23.128044,-1.73949,-1.9210219
24.721186,-34.215267,-8.70509,-16.474049,0.5182452,-3.8082695,0.6165892,0.5111925,-0.7757386,-0.23816742,-0.46772033,-0.5309786,0.67346334,0.19329557,1.0821829,-0.5288054,-1.6359657,-0.9671788,2.3514152,1.5341209,-0.9602288,1.0357329,-0.46521193,-1.612273,-0.93069315,2.3978374,1.4711252,-0.97648275,0.593648,-1.4685123,-0.05540763,-1.0175344,-0.70343107,0.43232408,0.29981938,1.2347145,-0.59363174,1.5245312,-2.9415061,-0.116241224,-0.8322444,0.103702545,-0.3449154,1.0543532,0.79833883,-0.22376943,0.081305504,0.5531472,0.08040736,-0.8292025,-0.6575463,1.0,0.0,0.0,0.0,0.0,0.0,0.0,-1.8847145,0.19363174,-0.97453123,50.70824,-28.180504,-17.1862,4.426384,-14.338291,-1.1491716,-3.1039238
24.699371,-5.373184,-3.7249486,-13.301847,-0.7492691,-3.5512588,0.20171656,0.6062291,-0.793348,-0.4631348,-0.5470831,-0.5172076,0.6623211,0.10074288,1.0963558,-0.5445467,-1.6585865,-0.98540145,2.3461165,1.5373573,-0.9664085,1.0446326,-0.4808045,-1.6152923,-0.94068193,2.3903034,1.4754511,-0.9737667,0.98414576,-1.5900674,-0.37937444,-0.99336445,-0.7703944,0.43046185,0.2621063,1.2053185,-0.5947933,1.5154786,-2.9385653,-0.11612501,-0.92959833,0.10525513,-0.35394478,1.0471954,0.7965947,-0.21848398,0.07896594,0.55809146,0.18431571,-0.92257786,-0.73920524,1.0,0.0,0.0,0.0,0.0,0.0,0.0,-1.8553184,0.19479331,-0.9654786,37.69065,-12.326503,-31.049316,2.2144318,-6.7623496,-0.85211396,-3.8207114
25.527315,18.079575,1.7172654,-11.70833,-1.5722156,-3.1900072,0.0398584,0.68730474,-0.80391455,-0.5632356,-0.6261356,-0.43863508,0.63206404,-0.06300829,1.113363,-0.56119597,-1.6716158,-1.0032955,2.3464398,1.5386575,-0.9800675,1.0564276,-0.4968081,-1.6216552,-0.9508567,2.3826854,1.4797484,-0.9715198,1.2415205,-1.6041182,-0.7194019,-1.0259213,-0.759053,0.4277297,0.21209887,1.1759529,-0.595953,1.5054532,-2.9356272,-0.116008915,-1.0268549,0.107917786,-0.3636303,1.0392839,0.7949301,-0.21232934,0.07680207,0.56311965,0.30011111,-0.9782689,-0.81430113,1.0,0.0,0.0,0.0,0.0,0.0,0.0,-1.8259529,0.19595298,-0.9554532,24.858784,-1.5006781,-33.22661,-3.385353,1.1315346,-0.79491735,-5.024791
22.522766,32.39307,6.172262,-6.72353,-1.4881604,-2.5494127,-0.044971965,0.7380718,-0.81004685,-0.6268138,-0.6443772,-0.3332026,0.6166983,-0.19293776,1.1302347,-0.5778128,-1.6843367,-1.0152944,2.3493652,1.5414182,-0.9908136,1.0699469,-0.512555,-1.6309822,-0.9615178,2.3756778,1.484017,-0.9698299,1.3873618,-1.5649749,-1.0029734,-1.0796788,-0.6812789,0.42536715,0.15460905,1.1466179,-0.59711266,1.4944558,-2.932692,-0.115892924,-1.1240143,0.111595154,-0.3736515,1.0307287,0.79342777,-0.20532137,0.0748864,0.5680735,0.39938742,-1.0036715,-0.8764205,1.0,0.0,0.0,0.0,0.0,0.0,0.0,-1.7966179,0.19711265,-0.9444558,14.186311,3.8793325,-28.097641,-5.4439545,7.7973843,-0.604254,-5.72367
21.1377,44.93095,11.48189,-2.4136124,-1.280802,-1.8532645,0.025639437,0.7696119,-0.79680693,-0.6418286,-0.68224585,-0.23423249,0.5856821,-0.26785058,1.146908,-0.5922357,-1.695165,-1.0297424,2.3522546,1.5425853,-0.996615,1.0843264,-0.5277375,-1.6423557,-0.9728446,2.3697612,1.4882475,-0.9687189,1.4546989,-1.5026538,-1.1826034,-1.1505655,-0.5612398,0.42167696,0.09686725,1.1173134,-0.5982723,1.4824876,-2.9297597,-0.11577705,-1.2210765,0.116119385,-0.38370323,1.0216703,0.79200715,-0.19760914,0.07307352,0.5730057,0.48108083,-0.9991507,-0.9237749,1.0,0.0,0.0,0.0,0.0,0.0,0.0,-1.7673134,0.19827232,-0.93248755,6.6480875,6.249547,-18.075825,-7.154107,12.056791,-0.6015897,-5.6814046
17.81159,51.369484,14.942184,2.7223368,-1.1170325,-1.1556214,0.057091765,0.7799715,-0.7870753,-0.64998907,-0.6900152,-0.29754046,0.5995029,-0.25945735,1.1623235,-0.606445,-1.7073545,-1.0418462,2.340007,1.5481977,-0.9946646,1.0989844,-0.5423182,-1.6547954,-0.9847884,2.3647296,1.4924608,-0.96812,1.4698285,-1.4430132,-1.2653899,-1.2091843,-0.48359844,0.42087778,0.04788593,1.0880394,-0.5994282,1.4695494,-2.9268308,-0.1156613,-1.3180417,0.12132263,-0.3935299,1.0122473,0.7905679,-0.18944122,0.07135479,0.5779472,0.54352665,-0.96953714,-0.9569737,1.0,0.0,0.0,0.0,0.0,0.0,0.0,-1.7380394,0.19942817,-0.9195494,1.5939236,6.004405,-8.572888,-5.9176207,7.8196945,-0.20310283,-4.7920575
15.394084,53.294865,16.74055,5.865843,-1.1182379,-0.68540514,0.104055345,0.7844605,-0.7830108,-0.64279413,-0.7087869,-0.41086873,0.59898996,-0.22662014,1.1774304,-0.6206193,-1.7190748,-1.0556672,2.3236427,1.5523598,-0.990782,1.1135927,-0.5564307,-1.6674964,-0.99723005,2.3599079,1.4966742,-0.9679264,1.4581821,-1.4005064,-1.2728179,-1.2560748,-0.4817427,0.42106417,0.010168534,1.0587959,-0.60058403,1.4556423,-2.9239047,-0.11554567,-1.4149098,0.12707138,-0.40294266,1.002551,0.78902495,-0.18104221,0.069869176,0.58290786,0.59511524,-0.9237373,-0.9823601,1.0,0.0,0.0,0.0,0.0,0.0,0.0,-1.7087959,0.20058402,-0.90564233,-1.0311842,4.29945,-1.114893,-4.7288656,0.251019,-0.055080652,-3.6769226
8.698408,46.61204,15.080689,10.949123,-0.4767939,-0.33794552,0.017105274,0.7820277,-0.79852396,-0.65511495,-0.67057925,-0.44860405,0.622956,-0.20582587,1.1917955,-0.6362831,-1.7330079,-1.064288,2.3150475,1.5589697,-0.98850894,1.1280009,-0.5703505,-1.6800449,-1.0097976,2.3548,1.5009085,-0.9680418,1.4353043,-1.3891519,-1.249787,-1.2568715,-0.5204905,0.42425606,-0.01852713,1.0295753,-0.6017399,1.4407673,-2.9209814,-0.11543014,-1.5116812,0.1331482,-0.4119358,0.9926514,0.7873848,-0.17261513,0.06863893,0.58780754,0.6204898,-0.88241184,-1.0007508,1.0,0.0,0.0,0.0,0.0,0.0,0.0,-1.6795753,0.20173988,-0.8907673,-2.1508217,1.1449575,2.0146847,-0.057911873,-3.8828135,0.2819538,-2.7957509
4.210254,40.755154,13.1416,13.584456,-0.027396679,-0.22548571,-0.03355676,0.7748241,-0.8036183,-0.6702672,-0.6562627,-0.46920332,0.6218423,-0.14310151,1.2054833,-0.6507124,-1.7470716,-1.0754238,2.3078797,1.5630927,-0.9823519,1.1421572,-0.58430564,-1.6923625,-1.0221725,2.3491962,1.5051752,-0.96835554,1.4095993,-1.3976907,-1.2262831,-1.2307962,-0.5739566,0.42735353,-0.035427883,1.0003853,-0.6028919,1.4249254,-2.918061,-0.11531473,-1.6083558,0.13936234,-0.42058754,0.9825765,0.7856842,-0.16425957,0.06763463,0.5925746,0.6305057,-0.8503003,-1.0176574,1.0,0.0,0.0,0.0,0.0,0.0,0.0,-1.6503853,0.20289192,-0.87492543,-2.4396658,-0.8763075,2.1415472,2.679348,-5.415976,0.27434826,-1.6309947
0.20150185,37.190845,11.886199,16.21172,0.3819554,-0.084501624,-0.08659257,0.75605613,-0.8117654,-0.6638141,-0.62360966,-0.49749255,0.65105075,-0.09364057,1.2177628,-0.66548216,-1.758744,-1.0845335,2.299447,1.5702803,-0.9777196,1.1560217,-0.59843624,-1.7044513,-1.0340991,2.3430316,1.5094935,-0.9687685,1.3791934,-1.4183216,-1.2034422,-1.1795421,-0.6312904,0.43326247,-0.043143637,0.97122574,-0.60404396,1.4081175,-2.9151435,-0.11519944,-1.7049338,0.14557266,-0.42897415,0.9723537,0.783958,-0.15604977,0.06681622,0.5971547,0.62624466,-0.82484794,-1.0314655,1.0,0.0,0.0,0.0,0.0,0.0,0.0,-1.6212257,0.20404395,-0.8581175,-2.907753,-2.1113157,2.1395206,5.23386,-5.8600783,0.5741954,-0.7214613
-2.099925,39.048336,12.570768,19.584375,0.6314863,0.1027399,-0.16902784,0.7542439,-0.81057686,-0.6632581,-0.542599,-0.55333734,0.6631118,-0.08303577,1.2314461,-0.6794939,-1.7707771,-1.088359,2.2876978,1.5758047,-0.97707206,1.1696383,-0.6127595,-1.7163646,-1.0451846,2.3362262,1.5138804,-0.969231,1.3562263,-1.4371206,-1.1875854,-1.084458,-0.6974635,0.44055313,-0.047146175,0.9420967,-0.605196,1.3903445,-2.9122288,-0.11508427,-1.8014152,0.15166473,-0.43709373,0.96207756,0.78225946,-0.1481257,0.06619232,0.60145444,0.6114967,-0.79850906,-1.0337082,1.0,0.0,0.0,0.0,0.0,0.0,0.0,-1.5920967,0.205196,-0.8403445,-2.1878242,-1.94273,1.5155077,9.611154,-6.783724,0.77583194,-0.36360174
-4.5286255,36.859375,11.177938,20.420403,0.78444016,0.058820903,-0.21073715,0.7340084,-0.8188261,-0.6902007,-0.50468826,-0.5897274,0.6630859,0.010999918,1.2430391,-0.69464207,-1.7853847,-1.0956534,2.2772534,1.580189,-0.968131,1.1830088,-0.6272639,-1.7283027,-1.0552573,2.3287647,1.518334,-0.9696535,1.3309511,-1.4551212,-1.1960701,-0.9810526,-0.76293856,0.44697127,-0.04053916,0.9129982,-0.60634613,1.3716073,-2.909317,-0.1149692,-1.8978002,0.15758133,-0.44501305,0.95177025,0.7806446,-0.14049606,0.065811515,0.605412,0.59251004,-0.78026885,-1.0369245,1.0,0.0,0.0,0.0,0.0,0.0,0.0,-1.5629982,0.20634612,-0.8216073,-2.4059296,-1.881671,-0.8681059,10.475218,-6.7599773,0.67471266,0.6769426
-3.4277792,36.204544,10.64226,18.068192,0.6739347,-0.0792765,-0.135413,0.7119363,-0.82417935,-0.6945832,-0.5095961,-0.5863951,0.66615164,0.07993441,1.2542024,-0.70968187,-1.7977611,-1.1062169,2.2701252,1.5849493,-0.96166,1.1960894,-0.64192283,-1.7403953,-1.0645385,2.320792,1.522843,-0.96995294,1.3007902,-1.4697332,-1.2136791,-0.9099303,-0.80912846,0.45217413,-0.026263628,0.8839302,-0.60749435,1.3519071,-2.906408,-0.114854254,-1.9940889,0.1633606,-0.45278168,0.94136596,0.7790984,-0.13303496,0.06567455,0.60909295,0.57994556,-0.76628906,-1.0485791,1.0,0.0,0.0,0.0,0.0,0.0,0.0,-1.5339302,0.20749435,-0.8019071,-2.8711557,-1.5435457,-1.8054008,7.2698474,-4.8323393,0.49805045,1.4493071
-0.106612206,39.522255,12.17819,16.115147,0.45838565,-0.10900012,-0.047452763,0.70921916,-0.82600987,-0.6843711,-0.48231354,-0.6029769,0.6752687,0.08666208,1.2670113,-0.72452384,-1.8088324,-1.1127698,2.2604942,1.5903698,-0.9612867,1.2089201,-0.6566886,-1.75261,-1.0732474,2.3124492,1.5274016,-0.97010744,1.2774161,-1.4790564,-1.2242656,-0.85735506,-0.8433557,0.45714822,-0.011698657,0.8548851,-0.6086426,1.3312447,-2.9035025,-0.114739425,-2.090281,0.16907501,-0.46037483,0.9308344,0.7775527,-0.12567692,0.065747455,0.61261266,0.57574034,-0.74779314,-1.0615904,1.0,0.0,0.0,0.0,0.0,0.0,0.0,-1.5048851,0.20864257,-0.7812447,-2.205062,-1.005435,-1.1265993,5.400443,-3.6150217,0.45508146,1.494514
1.3129091,45.121304,14.477297,16.910696,0.42448145,0.016453713,-0.039120182,0.7031841,-0.8159705,-0.6857494,-0.42130646,-0.6122646,0.6814099,0.093467206,1.2792386,-0.7382856,-1.8211849,-1.115378,2.2512228,1.5955426,-0.9607607,1.2215639,-0.6714591,-1.7648952,-1.0813537,2.3038433,1.5320116,-0.97012365,1.2602688,-1.4766562,-1.2301757,-0.7946691,-0.8669955,0.46229652,0.0018622342,0.8258705,-0.6097889,1.3096211,-2.9005997,-0.11462471,-2.1863768,0.17474747,-0.46773148,0.9202377,0.77597713,-0.11847148,0.06600522,0.61600906,0.571705,-0.7224473,-1.0658795,1.0,0.0,0.0,0.0,0.0,0.0,0.0,-1.4758705,0.20978889,-0.7596211,-1.5971661,0.17108917,-0.6463766,6.380284,-2.5583386,0.5063176,1.3975427
1.6372666,47.26267,15.397125,17.441908,0.45824218,0.07778236,-0.04198867,0.69633204,-0.8184305,-0.6880076,-0.37663516,-0.63165104,0.6864083,0.106941625,1.2911972,-0.7533021,-1.833696,-1.1190171,2.240678,1.6006525,-0.9594295,1.2340685,-0.68618953,-1.7772167,-1.0887733,2.2950199,1.5366713,-0.97001016,1.2474374,-1.4720896,-1.2329994,-0.7241812,-0.8880964,0.46734998,0.014745984,0.79688644,-0.6109333,1.2870373,-2.8976998,-0.114510104,-2.2823768,0.18037033,-0.4748268,0.90963006,0.7743678,-0.11146908,0.066428155,0.6192869,0.5667594,-0.6959457,-1.0657673,1.0,0.0,0.0,0.0,0.0,0.0,0.0,-1.4468864,0.2109333,-0.73703724,-1.1801004,0.3843546,-0.31561852,7.151699,-2.311957,0.50745606,1.3300472
4.9500003,47.275578,15.476992,14.075207,0.15200603,-0.084018886,0.05116021,0.69105124,-0.81635374,-0.6978426,-0.4011546,-0.6364926,0.6766472,0.13110656,1.3031737,-0.7678249,-1.847001,-1.1288887,2.2313707,1.604336,-0.9568995,1.2464682,-0.70086277,-1.7895954,-1.0957618,2.2860286,1.5413653,-0.96976316,1.2378405,-1.4659891,-1.2397848,-0.69006443,-0.90355754,0.4700616,0.028136183,0.7679329,-0.6120777,1.2634941,-2.8948028,-0.11439562,-2.3782806,0.18604279,-0.4816513,0.89895225,0.77267474,-0.10457032,0.06702477,0.6225322,0.57386917,-0.6688718,-1.0749869,1.0,0.0,0.0,0.0,0.0,0.0,0.0,-1.4179329,0.2120777,-0.7134941,-0.8571863,0.5447626,-0.740695,3.519833,-1.7282248,0.20959973,1.3829492
9.066044,45.39608,15.029459,9.5041895,-0.21380526,-0.29195303,0.17751084,0.6897968,-0.8219937,-0.7016424,-0.43878204,-0.6400468,0.6741531,0.1447172,1.3154478,-0.78306216,-1.8597596,-1.13964,2.222024,1.6087806,-0.95529145,1.2588011,-0.7155112,-1.8020542,-1.1027656,2.2769191,1.5460764,-0.9693855,1.2323341,-1.4647048,-1.2481583,-0.7033334,-0.91398257,0.47097757,0.04118649,0.73900986,-0.6132221,1.2389927,-2.8919086,-0.11428125,-2.4740887,0.1918869,-0.48820496,0.88806975,0.770807,-0.09759687,0.06779391,0.62588763,0.59531873,-0.64151514,-1.0989529,1.0,0.0,0.0,0.0,0.0,0.0,0.0,-1.3890098,0.21322212,-0.6889927,-0.4478693,0.07433891,-0.9480953,-1.2022018,-1.188302,-0.05481839,1.3614215
8.575857,47.322903,15.876598,9.917242,-0.17868543,-0.14789498,0.18671694,0.67224324,-0.81575084,-0.68649495,-0.42155734,-0.6445395,0.68352437,0.15354954,1.3260255,-0.7970863,-1.8707037,-1.1449213,2.2124653,1.6144289,-0.9540306,1.2710253,-0.73013294,-1.8145092,-1.1099334,2.2677257,1.550799,-0.9688848,1.2196485,-1.4614867,-1.2451946,-0.7209305,-0.9215681,0.4724441,0.053264916,0.7101097,-0.6143627,1.2135339,-2.8890173,-0.11416699,-2.5698009,0.19793701,-0.49445534,0.87696564,0.7687266,-0.090521626,0.068710275,0.6293999,0.6134712,-0.61025774,-1.1204723,1.0,0.0,0.0,0.0,0.0,0.0,0.0,-1.3601097,0.21436271,-0.66353387,-1.1538506,0.2712965,0.17209053,-1.6357422,-0.9110689,0.009387732,1.2683846
7.887723,47.82142,15.986786,10.27762,-0.1345492,-0.08057213,0.15943646,0.6674052,-0.8138799,-0.6948057,-0.41870567,-0.6548914,0.67953134,0.12684156,1.3377658,-0.81152093,-1.8839897,-1.151804,2.2022367,1.6187521,-0.95620066,1.2831179,-0.74472034,-1.8269546,-1.1172614,2.2584522,1.555533,-0.96829736,1.2062901,-1.457973,-1.2445699,-0.7361538,-0.93000484,0.47329366,0.06079941,0.6812401,-0.6155033,1.1871186,-2.886129,-0.11405285,-2.6654172,0.20414352,-0.5003948,0.8656502,0.76644516,-0.08335567,0.06976771,0.63304514,0.6292304,-0.5787733,-1.1411508,1.0,0.0,0.0,0.0,0.0,0.0,0.0,-1.33124,0.2155033,-0.63711864,-1.2196541,0.30038357,-0.0569582,-1.3926864,-0.99858046,-0.050204992,0.8123852
7.9370146,45.224266,14.812935,8.882582,-0.16808301,-0.15724629,0.15466934,0.6638024,-0.81985813,-0.71490866,-0.44958654,-0.65277934,0.6739239,0.083962105,1.3494982,-0.8267062,-1.8984455,-1.1622201,2.1931744,1.6229254,-0.95990115,1.2950884,-0.75930774,-1.8394878,-1.1248412,2.2491176,1.560269,-0.9676794,1.1945335,-1.4591496,-1.2567035,-0.76467484,-0.93515646,0.47303817,0.062322315,0.652401,-0.6166439,1.1597481,-2.8832433,-0.11393882,-2.7609382,0.21052933,-0.5060501,0.85406655,0.76397526,-0.07603098,0.07096205,0.6368087,0.6469929,-0.55084854,-1.1699238,1.0,0.0,0.0,0.0,0.0,0.0,0.0,-1.302401,0.2166439,-0.60974807,-1.0546446,-0.17046928,-1.3390541,-2.6963592,-0.6613374,-0.19927025,0.2135165
9.46288,43.470516,13.975491,5.7280226,-0.4968209,-0.24345759,0.20009913,0.6464437,-0.81739485,-0.7269656,-0.52410483,-0.67988956,0.6604678,0.012909014,1.3597327,-0.8410472,-1.9121844,-1.1772517,2.1811287,1.6263158,-0.96638846,1.3068968,-0.7739037,-1.8522041,-1.1330123,2.2396648,1.5649878,-0.9671091,1.1768284,-1.4599229,-1.2771868,-0.8338688,-0.948736,0.4705665,0.055420056,0.6235924,-0.6177826,1.1314229,-2.8803606,-0.113824904,-2.8563635,0.21716309,-0.51140404,0.8420953,0.7612929,-0.06840104,0.072354116,0.64071774,0.67299575,-0.5197603,-1.2118896,1.0,0.0,0.0,0.0,0.0,0.0,0.0,-1.2735924,0.21778259,-0.58142287,-1.6200066,-0.12347698,-2.222395,-6.7345023,-1.4870167,-0.492388,-0.63714236
2.5695868,47.530075,15.082722,11.180569,-0.010107994,0.2331501,0.06106008,0.60731244,-0.81064546,-0.70050657,-0.47505823,-0.70960796,0.68782365,-0.022495471,1.3676281,-0.85496825,-1.9222548,-1.1805182,2.168704,1.6337701,-0.9693586,1.3183771,-0.7884759,-1.8649757,-1.1415782,2.2300022,1.5697066,-0.96663797,1.139039,-1.4565463,-1.2777026,-0.8637359,-0.97296524,0.47174805,0.04438717,0.5948105,-0.6189194,1.1021442,-2.8774807,-0.113711104,-2.9516933,0.22389221,-0.5164337,0.8298355,0.7584685,-0.060597006,0.07395665,0.64465797,0.67682135,-0.48639295,-1.236367,1.0,0.0,0.0,0.0,0.0,0.0,0.0,-1.2448105,0.21891937,-0.5521442,-3.6185265,0.28486252,-0.19001961,-2.8159976,-2.5995016,-0.03362894,-1.0634631
-1.346549,42.02842,11.872461,9.76174,0.05605179,0.16258475,0.017816603,0.56689394,-0.8154356,-0.7456484,-0.56575644,-0.6988228,0.6537892,-0.13660736,1.3750665,-0.87001944,-1.9395405,-1.1981539,2.1601198,1.6350855,-0.9802987,1.3293368,-0.8030356,-1.877917,-1.1507106,2.2201526,1.5744101,-0.96635854,1.0821283,-1.455995,-1.3001734,-0.92898995,-0.9897076,0.46910897,0.022445722,0.5660553,-0.62005615,1.071913,-2.8746037,-0.113597415,-3.0469282,0.23062515,-0.52119064,0.8172109,0.75556976,-0.052517515,0.075783394,0.64854693,0.6769823,-0.46083617,-1.2765936,1.0,0.0,0.0,0.0,0.0,0.0,0.0,-1.2160553,0.22005615,-0.521913,-5.4840565,-0.010681152,-2.4009466,-6.294322,-1.8652916,-0.48179626,-2.1698046
-15.811134,43.260063,10.798585,17.099705,0.98316175,0.796918,-0.17127022,0.46189886,-0.81278634,-0.7008453,-0.54801154,-0.7051648,0.6765107,-0.16944566,1.3755267,-0.88431424,-1.9480016,-1.2055117,2.149636,1.6420611,-0.9833031,1.3393217,-0.8175849,-1.8908584,-1.1603084,2.2101543,1.5791079,-0.9663137,0.9715189,-1.4548575,-1.2923205,-0.9691662,-1.0039879,0.46977082,-0.0015649839,0.5373306,-0.621191,1.0407301,-2.8717296,-0.11348384,-3.1420677,0.2370987,-0.5257473,0.80429685,0.7527374,-0.044244215,0.07776805,0.6522124,0.6391664,-0.4421406,-1.301545,1.0,0.0,0.0,0.0,0.0,0.0,0.0,-1.1873306,0.22119102,-0.4907301,-10.809922,0.024652481,0.6695032,-3.769946,-1.7073154,-0.049865246,-2.3936958
-48.58445,33.277096,1.6339657,27.275806,2.6573052,1.5230951,-0.53978914,0.22452806,-0.8165637,-0.70694965,-0.61046267,-0.69503695,0.6559887,-0.19095357,1.3617746,-0.89924127,-1.9615533,-1.2213546,2.1406505,1.6447067,-0.9854091,1.3472334,-0.83214843,-1.9037006,-1.170444,2.2000759,1.5838,-0.9665092,0.732316,-1.4573509,-1.2817036,-1.0270984,-1.0109257,0.4689557,-0.025744049,0.5086365,-0.622324,1.0085965,-2.8688583,-0.11337038,-3.237112,0.24267578,-0.53035736,0.79109603,0.75029474,-0.035736714,0.07984856,0.6552898,0.5336958,-0.4553666,-1.3312559,1.0,0.0,0.0,0.0,0.0,0.0,0.0,-1.1586365,0.22232398,-0.45859653,-23.515522,-0.421834,1.0092258,-5.4007053,-1.1679411,-0.16203523,-2.483044
-135.20203,10.2452755,-21.888031,54.48157,6.9939275,3.4191175,-1.4608457,-0.38171723,-0.8105078,-0.6955894,-0.7169191,-0.6458498,0.59785384,-0.037716206,1.3090616,-0.9131992,-1.9732596,-1.2421359,2.135491,1.6435853,-0.9702808,1.3501879,-0.8467244,-1.9163749,-1.1815124,2.1900737,1.5884424,-0.9668144,0.15249912,-1.4591184,-1.2621751,-1.1308379,-0.99989754,0.46221143,-0.032811586,0.47996902,-0.62345695,0.9755132,-2.86599,-0.11325703,-3.3320613,0.24589539,-0.5356941,0.77753043,0.7490433,-0.026741834,0.08195745,0.65688807,0.25140664,-0.5491332,-1.3695891,1.0,0.0,0.0,0.0,0.0,0.0,0.0,-1.129969,0.22345695,-0.4255132,-57.15958,-0.61819553,2.0810127,-9.537649,0.04028082,-0.77589154,-0.9292174
-154.03047,11.774537,-24.372808,60.26289,8.151581,4.084559,-1.4559678,-0.6037009,-0.79684186,-0.6485237,-0.7795668,-0.5319421,0.5869688,0.30471066,1.2898178,-0.9264086,-1.9812273,-1.259469,2.1368794,1.6471393,-0.9363433,1.346852,-0.86125743,-1.9286582,-1.1937575,2.1805294,1.5929972,-0.9668993,-0.49241474,-1.4534321,-1.2166021,-1.2519468,-0.943513,0.45187873,-0.0004903493,0.45132828,-0.6245899,0.9414811,-2.8631244,-0.113143794,-3.4269156,0.24594116,-0.54205704,0.76364183,0.74922687,-0.01715988,0.08381864,0.65676403,-0.07671732,-0.65524244,-1.399511,1.0,0.0,0.0,0.0,0.0,0.0,0.0,-1.1013283,0.22458991,-0.3914811,-63.56234,-0.03106594,4.6943665,-10.978723,4.3295503,-1.3960302,3.1670506
-113.739555,35.589447,-6.491209,50.388332,6.629184,3.951291,-0.8377967,-0.62176806,-0.7974162,-0.5029161,-0.76775366,-0.44746086,0.62040806,0.45439315,1.2846751,-0.94099903,-1.9789499,-1.2705328,2.1357832,1.655038,-0.92146,1.3382727,-0.87572753,-1.9398582,-1.206922,2.1718051,1.5974776,-0.9665197,-0.9774425,-1.446438,-1.0878884,-1.3345948,-0.85224915,0.44572738,0.051484816,0.42271805,-0.6257191,0.9065012,-2.8602617,-0.11303067,-3.521675,0.24323654,-0.54909325,0.7497325,0.7503782,-0.0073352423,0.08497862,0.6554826,-0.34041452,-0.7083417,-1.3916684,1.0,0.0,0.0,0.0,0.0,0.0,0.0,-1.072718,0.22571906,-0.35650116,-47.807076,0.22344589,12.808871,-7.289624,8.139658,-0.96714497,5.4265604
-71.694,38.554695,0.15524054,34.27706,4.2693577,2.5965295,-0.47541416,-0.64264846,-0.80468434,-0.6505407,-0.7720369,-0.51349336,0.59630245,0.43614933,1.2740078,-0.95619595,-2.0049124,-1.2841258,2.1204557,1.6571078,-0.9229048,1.3263842,-0.89016616,-1.950566,-1.2206321,2.1637104,1.6018854,-0.9656557,-1.2576776,-1.4441153,-1.0653397,-1.3805443,-0.7970763,0.4379741,0.09878691,0.39413834,-0.6268482,0.87057436,-2.8574018,-0.11291766,-3.61634,0.23861313,-0.5564499,0.73574805,0.7520619,0.0027112118,0.08554953,0.65351105,-0.50817484,-0.7340972,-1.403663,1.0,0.0,0.0,0.0,0.0,0.0,0.0,-1.0441383,0.22684821,-0.32057434,-27.560783,-0.106453896,2.1716595,-3.8014412,4.846692,-1.170963,4.9702125
-42.510178,40.70422,4.8484497,23.485638,2.7351406,1.6726549,-0.2507338,-0.7055617,-0.80328554,-0.71777946,-0.77059746,-0.47725123,0.5835015,0.4523929,1.255828,-0.97049475,-2.022344,-1.2976918,2.1159852,1.6602356,-0.9204164,1.3127676,-0.9045857,-1.9616458,-1.2345634,2.1561153,1.606217,-0.9643568,-1.3953964,-1.4420345,-1.1223943,-1.3952472,-0.7483563,0.4302679,0.14092045,0.36558533,-0.6279774,0.8337016,-2.8545449,-0.11280477,-3.71091,0.23280716,-0.5639534,0.7215375,0.7540079,0.01309052,0.085719876,0.65111655,-0.6116522,-0.7431341,-1.4293637,1.0,0.0,0.0,0.0,0.0,0.0,0.0,-1.0155853,0.22797737,-0.2837016,-13.477397,-0.021862984,-5.7546377,-0.86004734,4.40439,-1.1392057,4.4172435
-25.323572,42.892784,8.432188,17.55096,2.1978269,1.1988478,-0.16633141,-0.7597651,-0.8023311,-0.74289685,-0.7746188,-0.28771025,0.53749466,0.2914721,1.2367911,-0.9848188,-2.0359356,-1.3120252,2.1273444,1.6599665,-0.9352096,1.2983824,-0.91898525,-1.973542,-1.2485232,2.149451,1.6104456,-0.96280706,-1.4521948,-1.4397737,-1.2120992,-1.3947344,-0.6401015,0.41924986,0.16042121,0.33705902,-0.6291046,0.7958839,-2.8516908,-0.11269198,-3.8053856,0.2262001,-0.5715103,0.7070391,0.75610584,0.023879098,0.085340686,0.64842165,-0.68373024,-0.7467968,-1.4590414,1.0,0.0,0.0,0.0,0.0,0.0,0.0,-0.987059,0.22910461,-0.24588388,-5.4881096,0.064754486,-8.992839,0.5250454,10.493338,-1.4443338,2.174592
-18.811337,46.642292,11.858916,17.304924,2.9077349,1.1826782,-0.1858913,-0.79619974,-0.80147094,-0.7496262,-0.74957114,0.15213272,0.5240183,0.15214288,1.2187624,-0.99913234,-2.0485046,-1.3234804,2.1646643,1.6628474,-0.9475928,1.2837092,-0.9333619,-1.9862659,-1.2623076,2.145087,1.6145636,-0.96120584,-1.4719784,-1.4373205,-1.2925627,-1.3718482,-0.3689058,0.4080326,0.1611513,0.30856323,-0.63022995,0.75712216,-2.8488395,-0.112579316,-3.8997667,0.21884537,-0.5791893,0.6923388,0.7583968,0.035052538,0.08372362,0.64544237,-0.7594772,-0.7602881,-1.4760677,1.0,0.0,0.0,0.0,0.0,0.0,0.0,-0.9585632,0.23022994,-0.20712215,-1.8561363,0.11641979,-8.026147,2.659583,26.889818,-1.4575362,0.4200846
-13.311467,51.59031,15.525324,17.256298,3.0851278,1.2771959,-0.2844172,-0.8031924,-0.8032057,-0.7553702,-0.72161114,0.36398643,0.49084336,-0.20101713,1.2033899,-1.0136825,-2.0618029,-1.3344687,2.1814857,1.6636479,-0.98130757,1.2690035,-0.94772613,-1.9996059,-1.2757297,2.1438816,1.6185557,-0.9598869,-1.4697516,-1.4363343,-1.3478371,-1.3313698,-0.037905697,0.39533663,0.1235004,0.28009796,-0.6313553,0.7174093,-2.8459911,-0.11246676,-3.9951189,0.21076584,-0.58699226,0.67755866,0.7609887,0.046485394,0.08040169,0.6420832,-0.8325349,-0.7719063,-1.4810625,1.0,0.0,0.0,0.0,0.0,0.0,0.0,-0.93009794,0.23135528,-0.1674093,0.29277802,0.0016450882,-5.4864407,4.329753,32.9894,-1.5665531,-3.3766701
-12.123485,57.48262,18.389177,18.496277,2.626922,1.5783678,-0.36134607,-0.8191908,-0.7956024,-0.75992006,-0.6701692,0.3036139,0.50283015,-0.2713865,1.1870844,-1.0272864,-2.075598,-1.3427466,2.174243,1.6688387,-0.98702556,1.2542858,-0.96200514,-2.0135827,-1.2887704,2.1455035,1.6222385,-0.9590249,-1.4792963,-1.4152343,-1.4812323,-1.3449442,0.2598646,0.2656738,0.0744434,0.25530243,-0.6330986,0.68763655,-1.7472509,-0.19841127,0.018340077,0.20201111,-0.5948601,0.66270846,0.7639363,0.05820668,0.075595304,0.63819957,-0.88645995,-0.7942242,-1.5191965,0.0,1.0,0.0,0.0,0.0,0.0,0.0,-0.9053024,0.2330986,-0.13763654,-2.0696163,3.6292076,-23.722912,-9.082484,35.207226,-25.235008,-4.887088
51.382526,176.0,110.0,110.0,0.65657103,13.078884,-1.3272681,-0.7025438,0.56295633,0.7140115,0.6904197,-0.45299104,0.68833876,-0.3228092,1.1840315,-0.9057095,-1.9421816,-1.2197285,2.1002045,1.6910723,-0.9913058,1.243887,-0.9784312,-2.0227075,-1.2873456,2.1366,1.6354946,-0.9571252,-0.88720167,-1.6762147,-0.7834592,0.62022483,-1.2155056,1.7113998,0.24712285,0.23784256,-0.63508224,0.6870754,-1.745504,-0.19821289,-0.08092941,0.19249725,-0.6012325,0.6520394,0.76750594,0.05901456,0.074019015,0.63401335,-0.97991705,-0.5689165,-0.91786045,0.0,1.0,0.0,0.0,0.0,0.0,0.0,-0.88784254,0.23508224,-0.13707536,61.068703,-13.431549,51.65486,191.11722,-130.00418,154.3077,22.860083
-24.875572,176.0,83.801025,94.96956,5.278803,6.7349935,-1.6463529,-0.8125122,-0.60058224,0.18229713,0.75288403,-0.5378023,0.57204807,-0.2224826,1.1626357,-1.0384895,-2.0044777,-1.2120572,2.0828197,1.6926994,-0.97937346,1.234869,-0.995193,-2.024531,-1.2738683,2.1212611,1.6522506,-0.95536757,-0.90540826,-1.6762142,0.019492391,1.5908511,-1.6424494,1.670166,0.1538175,0.22039795,-0.6370621,0.68552226,-1.7437588,-0.19801472,-0.18009967,0.18181229,-0.6066475,0.6464366,0.7723407,0.051650446,0.07442327,0.6287156,-1.098289,-0.52006567,-0.4450921,0.0,1.0,0.0,0.0,0.0,0.0,0.0,-0.8703979,0.23706207,-0.13552225,-1.4026642,0.00021457672,80.73413,97.241905,-43.48433,-2.1668673,-8.811742
-62.332386,143.10327,40.75405,68.55135,4.6987696,3.885249,-1.6702881,-0.80934983,-0.50025046,-0.35807225,0.68588847,-0.5972888,0.6341798,-0.047942918,1.153934,-1.045218,-2.060338,-1.2052795,2.0615323,1.7156687,-0.96016186,1.224783,-1.0100061,-2.0236268,-1.2550886,2.1048923,1.6680893,-0.9540582,-1.041175,-1.4174132,0.11367461,1.9756167,-1.6365058,1.5585676,0.12342315,0.20297623,-0.6390419,0.68297815,-1.7420154,-0.19781674,-0.27917078,0.16978836,-0.61182785,0.6437842,0.77852464,0.041812517,0.07604988,0.6215847,-1.2401562,-0.50934243,-0.21280582,0.0,1.0,0.0,0.0,0.0,0.0,0.0,-0.8529762,0.2390419,-0.13297814,-12.96525,25.529457,9.283562,39.080383,0.13279915,-10.076666,-3.0200555
-59.611725,107.14555,22.799257,41.978954,3.4093933,2.2858996,-1.0517756,-0.8080511,-0.5344933,-0.18016867,0.7606217,-0.59284246,0.5661617,-0.092381075,1.1439779,-1.0634553,-2.0416436,-1.1790264,2.045608,1.7247055,-0.9632963,1.2129688,-1.0222989,-2.0228791,-1.2352865,2.0899615,1.6823677,-0.953074,-1.2268703,-1.167311,0.060492314,1.9827123,-1.4455965,1.3863468,0.08984671,0.18556976,-0.6410179,0.6794441,-1.7402737,-0.19761896,-0.37814283,0.15657043,-0.6168709,0.64242405,0.78561926,0.032152154,0.07838368,0.6128821,-1.350308,-0.4928795,-0.118648216,0.0,1.0,0.0,0.0,0.0,0.0,0.0,-0.83556974,0.24101791,-0.12944406,-18.198658,24.755096,-5.7540655,1.0618687,18.92252,-16.61768,-3.4348264
-46.9724,63.797184,5.284317,18.980637,1.844147,0.68681455,-0.5607736,-0.8091694,-0.55066353,-0.27706224,0.7510437,-0.572388,0.5823115,-0.15409003,1.132052,-1.0773653,-2.0505853,-1.1601821,2.0327227,1.7405988,-0.968483,1.1995621,-1.0326711,-2.0238328,-1.2168615,2.077232,1.6950153,-0.95242643,-1.3782499,-0.99418855,-0.14912039,1.7962555,-1.2151121,1.2250799,0.055820372,0.16817856,-0.6429939,0.67492104,-1.7385337,-0.19742139,-0.47701594,0.1425972,-0.6218147,0.6410426,0.7931744,0.024130492,0.081009194,0.6031,-1.4165176,-0.48512843,-0.1517665,0.0,1.0,0.0,0.0,0.0,0.0,0.0,-0.81817853,0.24299392,-0.124921024,-15.00411,17.191076,-21.43927,-18.49103,23.133802,-15.875888,-3.5501175
-28.464672,43.468468,1.8908279,7.1612587,0.9789802,-0.039170682,-0.2244383,-0.8116215,-0.54581934,-0.28044364,0.7600099,-0.47570467,0.56684464,-0.28622976,1.1184,-1.087253,-2.0518773,-1.1408606,2.0296614,1.7516998,-0.9810494,1.1850777,-1.0419484,-2.0268464,-1.2005308,2.066791,1.7061905,-0.95218134,-1.4718244,-0.9058338,-0.353252,1.5787284,-0.98745966,1.0819312,0.013692948,0.15080643,-0.6449661,0.66941,-1.7367955,-0.197224,-0.57579017,0.12822342,-0.6267185,0.6389942,0.8008976,0.01815866,0.083545774,0.5926662,-1.4478773,-0.48034677,-0.22793971,0.0,1.0,0.0,0.0,0.0,0.0,0.0,-0.8008064,0.24496612,-0.11940998,-9.338188,8.756709,-20.68127,-21.687984,22.727417,-14.288473,-4.311886
-15.05229,37.488045,4.0347414,3.7436593,0.86444837,-0.23787981,-0.0765168,-0.81975013,-0.53480726,-0.29409406,0.7565725,-0.31371927,0.54540986,-0.33881795,1.1031027,-1.0954292,-2.0562558,-1.1248735,2.0354192,1.7607315,-0.9860631,1.1700407,-1.0507884,-2.0315928,-1.1860783,2.0585601,1.7158806,-0.9523334,-1.514326,-0.8771069,-0.5145576,1.4014447,-0.7675053,0.93423444,-0.025435664,0.13231659,-0.64635277,0.6663281,-1.8669615,-0.12742801,-0.2596218,0.11368561,-0.63162994,0.6361377,0.80864084,0.014157351,0.0856519,0.5818619,-1.460001,-0.48228353,-0.30834332,0.0,1.0,0.0,0.0,0.0,0.0,0.0,-0.78231657,0.24635276,-0.11632806,-4.341936,2.736795,-15.239292,-17.115475,22.72154,-12.444485,-4.2340035
-0.5335479,70.146736,21.192175,9.556952,0.62423664,0.489972,-0.045819737,-0.8189313,-0.40125123,-0.22886321,0.7771437,-0.27508685,0.56050223,-0.40176845,1.0881476,-1.0909135,-2.0544791,-1.108364,2.0310514,1.7719308,-0.99251026,1.1548563,-1.059011,-2.0370288,-1.172722,2.0522356,1.7244382,-0.9529094,-1.5201063,-0.8045841,-0.55217725,1.3135524,-0.58854717,0.8300476,-0.06867623,0.1135788,-0.64746857,0.6637394,-1.8700507,-0.10711821,-0.2608526,0.09912491,-0.63630676,0.63310736,0.81634,0.011221835,0.08733132,0.5708207,-1.4576046,-0.45048976,-0.30409408,0.0,1.0,0.0,0.0,0.0,0.0,0.0,-0.7635788,0.24746856,-0.11373937,-0.6905079,7.0962787,-3.5163999,-8.85818,17.639196,-10.271204,-4.4351892
5.5057096,85.566124,29.428844,13.596508,0.8849392,0.8881588,-0.058515206,-0.8194809,-0.3592473,-0.21454363,0.76235974,-0.12083491,0.5694768,-0.41638952,1.0729083,-1.0949357,-2.0584831,-1.096486,2.040152,1.7813859,-0.9945484,1.1397558,-1.0664287,-2.0423205,-1.1598266,2.047719,1.7321396,-0.9538879,-1.5072231,-0.7213546,-0.5200194,1.2811494,-0.40768355,0.7498778,-0.107882455,0.09503555,-0.648365,0.661455,-1.849097,-0.08380713,-0.21842586,0.08459854,-0.64059067,0.63043255,0.8239767,0.008619845,0.08854151,0.5595967,-1.4539281,-0.40874797,-0.2573708,0.0,1.0,0.0,0.0,0.0,0.0,0.0,-0.7450355,0.24836501,-0.11145496,1.1397362,8.132005,3.6352873,-3.3652306,17.589766,-8.076978,-4.0398316
12.380356,123.137436,45.574104,21.168648,0.9536793,1.7341313,-0.06818466,-0.82301134,-0.1957665,-0.104727745,0.76066405,-0.014333602,0.5859242,-0.42900968,1.0574547,-1.0860053,-2.0527933,-1.0837603,2.0462856,1.790732,-0.99678886,1.1248041,-1.0724139,-2.0466006,-1.1469883,2.0449388,1.7391758,-0.95522594,-1.4920439,-0.55831593,-0.39499643,1.2839259,-0.2369224,0.688181,-0.14331669,0.07679367,-0.64891815,0.6602281,-1.8159465,-0.045835014,-0.091381215,0.07017517,-0.64421844,0.6288326,0.83151555,0.0056084273,0.08940478,0.5482308,-1.4410456,-0.33470902,-0.12913582,0.0,1.0,0.0,0.0,0.0,0.0,0.0,-0.72679365,0.24891815,-0.11022806,1.2815714,16.025711,13.184303,0.032925606,16.401312,-6.1932325,-3.7813246
14.876332,127.12185,48.407536,22.288456,1.2383865,1.9102924,-0.03200023,-0.8198165,-0.17367038,0.0016227739,0.75109714,0.13102333,0.6127741,-0.44580474,1.0428225,-1.0897809,-2.0464382,-1.0718786,2.058041,1.8004532,-0.9998064,1.1099974,-1.0768752,-2.0491679,-1.134045,2.043928,1.745712,-0.9568873,-1.4776878,-0.4096936,-0.20840842,1.2971152,-0.05796026,0.6418626,-0.17446302,0.05888748,-0.64907646,0.66036457,-1.7822284,-0.0056227027,0.04886986,0.05586624,-0.64707756,0.6286233,0.8389191,0.0017266519,0.08978845,0.53679585,-1.4297211,-0.25746292,0.013771791,0.0,1.0,0.0,0.0,0.0,0.0,0.0,-0.70888746,0.24907646,-0.11036456,1.2016535,14.5804825,19.3973,1.1084318,17.2368,-4.684043,-3.3342183
11.832972,137.41818,49.227245,24.861279,0.6855066,1.9890683,-0.08535667,-0.821684,-0.009630082,-0.039157204,0.7465059,0.029051935,0.61787087,-0.45976612,1.0278289,-1.0778382,-2.0530837,-1.0593944,2.046833,1.8074992,-1.0028639,1.0952879,-1.0794597,-2.050331,-1.120974,2.0440495,1.7518667,-0.9588339,-1.4695204,-0.20895004,-0.08340471,1.3098973,0.033343796,0.60666203,-0.20239273,0.041339874,-0.6487961,0.66196656,-1.7451699,0.039465606,0.19856624,0.041748047,-0.64907074,0.6299059,0.8461578,-0.0030654685,0.0902178,0.52523154,-1.407437,-0.16791034,0.16532572,0.0,1.0,0.0,0.0,0.0,0.0,0.0,-0.69133985,0.24879608,-0.11196655,0.59309006,19.767963,13.20339,1.1164904,8.538072,-3.5253525,-3.0814795
7.137254,136.96977,46.11122,25.85047,0.100958884,1.8988745,-0.11180631,-0.8257294,0.099465646,-0.04077073,0.76201826,-0.1363751,0.6321721,-0.45802027,1.012715,-1.0695131,-2.054408,-1.0447721,2.030412,1.8150839,-1.0046359,1.0806032,-1.0799251,-2.0507045,-1.1077254,2.044223,1.7577376,-0.9610235,-1.4687426,0.0065665133,-0.019770447,1.3295219,0.010301875,0.5807642,-0.2254556,0.024169922,-0.6480522,0.6650038,-1.7071693,0.086480126,0.34030282,0.027915955,-0.6501255,0.6326245,0.8531929,-0.008616018,0.091462776,0.51344144,-1.3759003,-0.07403223,0.30648792,0.0,1.0,0.0,0.0,0.0,0.0,0.0,-0.6741699,0.24805221,-0.115003765,-0.12741089,21.242418,7.0064754,1.8691301,-2.826498,-2.5684,-2.6020913
2.853812,112.51829,35.18709,21.41743,-0.27869385,1.3683436,-0.07224216,-0.82095325,0.109597996,-0.06717805,0.75956255,-0.23507085,0.64739984,-0.43363038,0.9985079,-1.0689653,-2.0574224,-1.0317692,2.020716,1.8224776,-1.0043865,1.0659243,-1.0786777,-2.0509257,-1.0943203,2.043631,1.7634021,-0.96339244,-1.4681083,0.16327699,-0.021666555,1.3440812,-0.0837061,0.561935,-0.24152577,0.0073394775,-0.64689255,0.6690667,-1.6748011,0.126127,0.43009874,0.014408112,-0.650383,0.6363453,0.85998213,-0.014554253,0.09388825,0.5014019,-1.3425817,0.002505501,0.39326093,0.0,1.0,0.0,0.0,0.0,0.0,0.0,-0.65733945,0.24689254,-0.119066715,-0.102591515,15.425508,0.31444913,1.3995886,-9.80715,-1.8370986,-1.845941
-4.3601933,87.44993,23.780262,18.152615,-0.27614722,0.85542023,-0.1068533,-0.8269462,0.13723843,-0.14084494,0.76576483,-0.28721306,0.6440649,-0.44096202,0.98322964,-1.0649538,-2.0650103,-1.0177438,2.0149097,1.8278086,-1.0074886,1.0512186,-1.0762877,-2.0517187,-1.0807817,2.0419261,1.7689041,-0.9659015,-1.4717407,0.26367074,-0.09728828,1.3569783,-0.20029262,0.5465079,-0.2546565,-0.009231567,-0.6454067,0.67364144,-1.6508138,0.15654238,0.46857435,0.001159668,-0.65003395,0.6405325,0.8665448,-0.020423058,0.09758128,0.48904088,-1.3190098,0.056398667,0.42681018,0.0,1.0,0.0,0.0,0.0,0.0,0.0,-0.6407684,0.24540672,-0.12364143,-0.481081,9.858611,-7.2163544,1.2473822,-11.9342985,-1.4804006,-1.5065223
-7.3218236,68.75072,16.423344,15.043934,-0.12741995,0.48805386,-0.09733991,-0.82738036,0.15211375,-0.17897569,0.7650675,-0.29965043,0.6347934,-0.4373655,0.9684806,-1.0610764,-2.0696163,-1.004275,2.011961,1.8323834,-1.0096381,1.0364747,-1.0732703,-2.0534844,-1.0671573,2.0391753,1.7742646,-0.9685204,-1.4756632,0.31384277,-0.20182578,1.3641648,-0.300895,0.5327275,-0.26492625,-0.025604248,-0.6436691,0.6783399,-1.6328014,0.17988059,0.47206652,-0.011928558,-0.64928246,0.64478046,0.87290066,-0.02590736,0.10237301,0.47633278,-1.3038784,0.09247638,0.42389697,0.0,1.0,0.0,0.0,0.0,0.0,0.0,-0.6243957,0.24366912,-0.12833989,-0.48201084,4.884094,-10.189983,0.66189766,-10.26628,-1.3178349,-1.2036324
-7.5506525,60.67122,13.852042,13.684584,0.11063504,0.33237386,-0.08462174,-0.8264593,0.16912073,-0.20181225,0.77193874,-0.30104908,0.62987167,-0.44459397,0.95382875,-1.0563582,-2.0736656,-0.9899634,2.0090704,1.8372518,-1.0129797,1.0217022,-1.0699706,-2.0562496,-1.0534625,2.0356426,1.7794982,-0.97123355,-1.4780222,0.3348066,-0.30029154,1.370953,-0.37123942,0.52043,-0.2740219,-0.041820526,-0.6417179,0.682984,-1.617466,0.20037727,0.46338728,-0.024909973,-0.64823914,0.64890015,0.8790575,-0.030905405,0.10798897,0.4632937,-1.2948835,0.119477764,0.40791807,0.0,1.0,0.0,0.0,0.0,0.0,0.0,-0.60817945,0.2417179,-0.13298398,-0.31692982,1.9804835,-9.588271,0.61028004,-7.2359324,-1.2004018,-1.083827
-4.257323,61.504303,15.225155,13.007038,0.2602162,0.32927933,-0.0323653,-0.82169306,0.18894142,-0.20578668,0.7712075,-0.29885933,0.63171417,-0.43551713,0.9395329,-1.0510764,-2.0768282,-0.9763417,2.0057566,1.8426696,-1.0147853,1.0069374,-1.0665355,-2.059759,-1.0397277,2.0316367,1.7846254,-0.97401917,-1.4762493,0.34613553,-0.36662376,1.3739606,-0.4115026,0.51019144,-0.28069443,-0.057868958,-0.63955307,0.68758047,-1.6006876,0.22216581,0.45967314,-0.037799835,-0.646925,0.6528895,0.88499165,-0.035490174,0.11415091,0.4499998,-1.284851,0.14630541,0.3961597,0.0,1.0,0.0,0.0,0.0,0.0,0.0,-0.592131,0.23955306,-0.13758045,0.07560253,1.0117531,-6.3034,0.20906925,-4.291141,-1.0380387,-0.85114837
-8.887774,55.84433,12.0371,13.402036,0.5204309,0.22952557,-0.082640305,-0.8340275,0.19576517,-0.31007013,0.7734078,-0.28299487,0.61720693,-0.4267409,0.92353463,-1.0469589,-2.090766,-0.9623869,2.0033371,1.8463461,-1.0166932,0.9921411,-1.063028,-2.064157,-1.0259699,2.0274363,1.7896492,-0.9768555,-1.481002,0.35190958,-0.4633427,1.376127,-0.423652,0.49983618,-0.28521422,-0.07378006,-0.63718796,0.69206077,-1.587722,0.24152356,0.4455805,-0.050670624,-0.64539146,0.6566858,0.89072794,-0.03959153,0.120725736,0.43641886,-1.2857229,0.1663188,0.37432656,0.0,1.0,0.0,0.0,0.0,0.0,0.0,-0.5762199,0.23718795,-0.14206076,-0.5552292,0.46406984,-9.398991,0.13997555,-1.4306962,-1.0737121,-0.6262481
-10.112894,43.068493,7.536664,11.114547,0.6293721,0.00036990643,-0.07016651,-0.8294104,0.14643292,-0.37399346,0.77058876,-0.26934355,0.60614467,-0.42032847,0.9092001,-1.0483847,-2.1015563,-0.948911,2.0005019,1.8502637,-1.0188884,0.9773181,-1.0597283,-2.0696235,-1.012212,2.023251,1.7945701,-0.9797261,-1.4828929,0.32243901,-0.5740557,1.3754506,-0.41746396,0.48958105,-0.2881435,-0.089595795,-0.6346741,0.6962228,-1.5792935,0.25501317,0.4077161,-0.06361008,-0.6437454,0.66009164,0.8962909,-0.043070808,0.12752895,0.42254445,-1.2937975,0.17463574,0.32971165,0.0,1.0,0.0,0.0,0.0,0.0,0.0,-0.5604042,0.23467407,-0.14622277,-0.23641586,-3.025484,-10.880017,-0.13723373,0.4815817,-1.0534346,-0.45189857
-7.393404,44.287575,8.54104,10.793756,0.5899423,-0.012914717,-0.028175589,-0.81898093,0.14376861,-0.40040252,0.78073615,-0.28993028,0.60802865,-0.39520904,0.89542,-1.0453514,-2.1096637,-0.9341384,1.994258,1.8553729,-1.0192469,0.96253324,-1.0567547,-2.076089,-0.9984199,2.019105,1.7994031,-0.98260146,-1.4772652,0.28868625,-0.6698072,1.3801776,-0.41389585,0.48102036,-0.287855,-0.10530853,-0.63201714,0.70003515,-1.5685326,0.26955476,0.3738941,-0.076602936,-0.64200974,0.6630767,0.90165883,-0.045943294,0.13448426,0.4084294,-1.2980986,0.18375948,0.28875056,0.0,1.0,0.0,0.0,0.0,0.0,0.0,-0.54469144,0.23201713,-0.15003514,0.5040169,-3.4616947,-9.335399,0.3964901,0.18056035,-0.905025,-0.13947487
-8.035091,37.69982,6.608243,9.794965,0.6933037,-0.08657253,-0.0012446716,-0.82317644,0.08531968,-0.43261802,0.78136194,-0.2951586,0.6071191,-0.38504234,0.8802156,-1.0482228,-2.1193507,-0.9202837,1.9895891,1.8601149,-1.0211056,0.94779223,-1.0543381,-2.0833821,-0.9845753,2.014973,1.8041595,-0.9854627,-1.4731735,0.22582477,-0.74813056,1.3856516,-0.4132068,0.47364324,-0.28602004,-0.12093353,-0.6292362,0.703411,-1.5602531,0.28121486,0.32717785,-0.089668274,-0.64021873,0.6655648,0.90682125,-0.048224304,0.14146747,0.39412755,-1.3074613,0.18792859,0.23645577,0.0,1.0,0.0,0.0,0.0,0.0,0.0,-0.52906644,0.22923622,-0.15341097,0.36928654,-6.3564897,-7.6107264,0.49536228,-0.08313656,-0.7849872,0.03400445
-7.822745,41.528637,7.863765,10.656499,0.689093,-0.0112707615,0.022914784,-0.82453996,0.07697277,-0.46577466,0.785904,-0.32388607,0.59901386,-0.35599545,0.8653382,-1.0466409,-2.1299596,-0.9059849,1.9825844,1.8640609,-1.0210623,0.9330751,-1.0525032,-2.0913467,-0.9706641,2.010757,1.8088437,-0.9882828,-1.4713871,0.16896406,-0.8118074,1.3927231,-0.42494464,0.4666745,-0.281154,-0.13645935,-0.6263199,0.7063774,-1.5494328,0.29534033,0.28823665,-0.102825165,-0.63835716,0.6675869,0.91175765,-0.049960162,0.1484803,0.379678,-1.3149292,0.19645594,0.19156766,0.0,1.0,0.0,0.0,0.0,0.0,0.0,-0.5135406,0.22631988,-0.15637738,0.12419224,-5.7758837,-6.081748,0.6627083,-1.3819993,-0.7682204,0.33057928
-5.707699,46.570515,9.888588,11.068351,0.6437248,0.07805157,0.070053026,-0.82157695,0.057260394,-0.47426048,0.78559583,-0.34925807,0.60585254,-0.3242531,0.8509174,-1.0467772,-2.1387727,-0.8921045,1.9758312,1.869429,-1.0207081,0.918377,-1.0511853,-2.099769,-0.95669925,2.0063465,1.8134744,-0.99103135,-1.4695306,0.11910203,-0.8512282,1.3975078,-0.44698614,0.46157262,-0.27325583,-0.15184784,-0.6232414,0.7090267,-1.5344778,0.31245974,0.2591286,-0.11600876,-0.6363716,0.669228,0.91643095,-0.051238034,0.15555218,0.36514696,-1.3168529,0.21037081,0.15597732,0.0,1.0,0.0,0.0,0.0,0.0,0.0,-0.49815214,0.22324142,-0.15902668,0.10306835,-5.0931034,-3.5654545,0.4228115,-2.492845,-0.602144,0.6205559
-9.055439,39.896263,6.986459,10.539393,0.70543474,-0.006659925,0.069594376,-0.83068687,0.0020887363,-0.53378284,0.782658,-0.35086164,0.58368003,-0.29223314,0.8353083,-1.0509764,-2.1531475,-0.87843347,1.9712603,1.8718424,-1.0202546,0.9036494,-1.05047,-2.108691,-0.94271517,2.0017257,1.818042,-0.99368095,-1.473925,0.055239517,-0.9046272,1.3986932,-0.467709,0.45500252,-0.2627178,-0.16711426,-0.6200199,0.7112801,-1.5232986,0.32605582,0.21642561,-0.1292572,-0.63427544,0.6704196,0.92084587,-0.051991135,0.16265796,0.35054547,-1.3260424,0.21944414,0.10788324,0.0,1.0,0.0,0.0,0.0,0.0,0.0,-0.48288572,0.2200199,-0.1612801,-0.48940182,-6.4804087,-5.034268,0.10371208,-2.3044229,-0.7407427,0.9059906
-8.703293,38.790733,6.4315643,10.031075,0.61795866,-0.0508942,0.10534313,-0.82621986,-0.029142465,-0.5700312,0.78226304,-0.37719533,0.57344836,-0.23927641,0.8210274,-1.0533842,-2.165694,-0.86448884,1.9640062,1.8753868,-1.0176086,0.888895,-1.0504051,-2.118193,-0.92873406,1.9968598,1.8225429,-0.996194,-1.4761727,-0.010052754,-0.96463686,1.3978761,-0.49346894,0.44817233,-0.24792005,-0.18226624,-0.6166687,0.71308565,-1.511454,0.33872414,0.17089295,-0.14260483,-0.63210297,0.6711062,0.9249949,-0.052151594,0.1698066,0.33590215,-1.3337303,0.22752109,0.05651899,0.0,1.0,0.0,0.0,0.0,0.0,0.0,-0.46773374,0.2166687,-0.16308564,-0.27132034,-6.623201,-5.700767,-0.086688995,-2.8085947,-0.76701045,1.3294369
-5.5645905,51.289215,10.650593,11.939624,0.65414953,0.11634582,0.13143128,-0.82403505,-0.018836152,-0.5591025,0.78523713,-0.39385,0.5822185,-0.20814282,0.8064915,-1.0522888,-2.1741033,-0.85021037,1.9574748,1.8807647,-1.0170083,0.874133,-1.0507885,-2.1281106,-0.9147567,1.9917374,1.8269905,-0.9985451,-1.4765455,-0.04819742,-0.999328,1.3974698,-0.51946807,0.44333917,-0.2314387,-0.1972351,-0.61314964,0.7146035,-1.4914023,0.356718,0.14799875,-0.15595627,-0.6297722,0.671444,0.9288453,-0.051831823,0.17704764,0.32126918,-1.3324585,0.2455917,0.027163502,0.0,1.0,0.0,0.0,0.0,0.0,0.0,-0.45276487,0.21314964,-0.16460347,-0.14379025,-3.9468222,-2.9955864,-0.089645386,-2.9920697,-0.60567856,1.4574617
-3.1727266,52.17765,11.399612,11.519249,0.66946125,0.121590614,0.15596914,-0.81899655,-0.062550046,-0.55941916,0.7869201,-0.40835178,0.5883532,-0.19772983,0.79223335,-1.0570436,-2.1840525,-0.8360647,1.9509022,1.8858258,-1.018318,0.8593968,-1.0515877,-2.1382227,-0.9007755,1.9863646,1.8314,-1.0007364,-1.4729791,-0.090888664,-1.0135072,1.3980842,-0.5443479,0.4399342,-0.21571688,-0.21198654,-0.60944366,0.7158975,-1.4691112,0.37557486,0.12618138,-0.16926956,-0.6272564,0.671507,0.9323826,-0.051135104,0.18433662,0.3067049,-1.3279806,0.26404357,0.0002593925,0.0,1.0,0.0,0.0,0.0,0.0,0.0,-0.43801343,0.20944366,-0.16589749,0.23460388,-4.399656,-0.8972883,0.0020503998,-2.9216766,-0.46070218,1.3782233
-5.7929773,43.04859,7.9765844,10.07934,0.5950399,-0.012305617,0.18677866,-0.82518804,-0.119703025,-0.6097029,0.7815811,-0.4460289,0.5619892,-0.1099964,0.776878,-1.063558,-2.199193,-0.8226174,1.9417617,1.887599,-1.011736,0.84467113,-1.0529629,-2.1486058,-0.8868085,1.9806789,1.8357598,-1.0027223,-1.47263,-0.15338565,-1.0451415,1.3962398,-0.5775619,0.43443802,-0.193492,-0.22655487,-0.6055851,0.7168414,-1.4517992,0.3897376,0.08659123,-0.18257523,-0.624609,0.6711712,0.9356131,-0.049955968,0.1916456,0.29224044,-1.329392,0.27554545,-0.04389571,0.0,1.0,0.0,0.0,0.0,0.0,0.0,-0.4234451,0.20558509,-0.16684139,-0.041770935,-6.3575478,-2.7569056,-0.19273758,-3.6593199,-0.6514549,2.059856
-6.8659663,31.316256,4.4752464,7.6144457,0.5396285,-0.16814065,0.2226002,-0.82217574,-0.19308703,-0.6282365,0.78004813,-0.4563591,0.5492889,-0.045569498,0.76245356,-1.0722716,-2.2114294,-0.8088037,1.935043,1.8906887,-1.0072792,0.82995784,-1.0551964,-2.159343,-0.8728618,1.9746742,1.8400583,-1.0044563,-1.4708633,-0.24686004,-1.0822356,1.3942152,-0.6085603,0.42805293,-0.16707538,-0.24100494,-0.6016388,0.71722573,-1.4414511,0.39692602,0.025285797,-0.19596481,-0.6219082,0.6702453,0.9385593,-0.048166364,0.19886987,0.27791595,-1.3377719,0.27866733,-0.10800615,0.0,1.0,0.0,0.0,0.0,0.0,0.0,-0.40899503,0.20163879,-0.16722572,0.15199184,-9.422332,-3.4409046,-0.14965534,-3.315723,-0.72698,2.5291114
-8.252452,23.440922,2.1840227,6.2151575,0.5698842,-0.24114615,0.2589152,-0.8230656,-0.2619979,-0.63792074,0.7836813,-0.46411008,0.54260796,0.07521221,0.7476513,-1.0813962,-2.223135,-0.7944937,1.9282632,1.8943192,-0.99693507,0.8152579,-1.0585362,-2.1704247,-0.8589101,1.9683955,1.8442913,-1.0058571,-1.4696597,-0.36307496,-1.1163573,1.3958323,-0.63451207,0.42137146,-0.13133268,-0.25539017,-0.59765434,0.7168857,-1.4369177,0.39984,-0.0507832,-0.2094841,-0.6192055,0.6685866,0.94124347,-0.045700993,0.20588085,0.26378995,-1.3533548,0.2776376,-0.18447188,0.0,1.0,0.0,0.0,0.0,0.0,0.0,-0.3946098,0.19765434,-0.16688567,0.13706684,-11.67993,-3.2395601,0.28002262,-2.7290702,-0.7586479,3.5083504
-5.4664593,25.369873,3.3901167,5.745915,0.6042115,-0.20301759,0.3008007,-0.8139151,-0.31032532,-0.6259503,0.78306556,-0.45602626,0.5458392,0.16478865,0.7338664,-1.0895687,-2.2330198,-0.7806035,1.9227928,1.8988752,-0.9893783,0.8006085,-1.0630394,-2.1816964,-0.8449403,1.9619483,1.8484658,-1.0068595,-1.4633341,-0.4794986,-1.1302087,1.3977362,-0.6484112,0.4157112,-0.09000799,-0.26972198,-0.5936394,0.7158008,-1.430811,0.40296465,-0.12448885,-0.2231369,-0.61650276,0.6661968,0.9436769,-0.042621687,0.21256658,0.24994555,-1.3659468,0.27886188,-0.25656483,0.0,1.0,0.0,0.0,0.0,0.0,0.0,-0.380278,0.19363937,-0.16580081,0.63245296,-11.705208,-1.164341,0.30884743,-1.5686035,-0.6854713,4.0826797
-3.953076,29.17225,4.9176607,6.2412543,0.7995335,-0.1245181,0.2859949,-0.8114516,-0.36515242,-0.60795695,0.78512895,-0.41887772,0.53838795,0.1829914,0.71946335,-1.0995547,-2.2424922,-0.7664274,1.9200605,1.9023046,-0.9885604,0.7860296,-1.0686737,-2.19293,-0.83094305,1.9555304,1.8525817,-1.0074687,-1.4561218,-0.5915891,-1.1202166,1.4006659,-0.6400205,0.40987775,-0.0512747,-0.28398514,-0.58958244,0.7140152,-1.4232355,0.40748554,-0.19329311,-0.23691177,-0.61375237,0.6631536,0.94588995,-0.039066266,0.21879376,0.2364219,-1.3781664,0.2844293,-0.32002082,0.0,1.0,0.0,0.0,0.0,0.0,0.0,-0.36601484,0.18958244,-0.16401517,0.70102215,-11.283577,1.2894154,0.41062832,0.59536695,-0.7457912,3.8479426
-5.6489906,31.270155,5.15352,7.0761333,1.0231688,-0.06356871,0.26231557,-0.81880647,-0.41853088,-0.6141666,0.7770211,-0.36022195,0.50587595,0.2435158,0.70414895,-1.1105268,-2.2543466,-0.75324094,1.9195082,1.9031694,-0.9831171,0.7714746,-1.0753742,-2.2040417,-0.8169591,1.9494063,1.8566209,-1.0076863,-1.4552554,-0.69643813,-1.107315,1.3980925,-0.60386753,0.4012083,-0.011881454,-0.298172,-0.5854778,0.7115521,-1.4166818,0.4122326,-0.26165998,-0.25084686,-0.61091614,0.65950966,0.9479287,-0.03511164,0.2244381,0.22321685,-1.3946949,0.29423568,-0.37913686,0.0,1.0,0.0,0.0,0.0,0.0,0.0,-0.35182798,0.18547782,-0.16155207,0.06837845,-10.571337,1.5934944,-0.11897087,3.350556,-1.0600388,3.9403741
-7.3304434,29.45007,4.252467,6.706722,1.0768956,-0.053773403,0.26105422,-0.8242647,-0.48195806,-0.621733,0.7618292,-0.31632793,0.4630105,0.29539,0.6890481,-1.1235701,-2.266215,-0.7407762,1.9177735,1.9029219,-0.97814727,0.75688595,-1.0831238,-2.2150717,-0.8030766,1.9437629,1.8605433,-1.007511,-1.460104,-0.80134004,-1.100692,1.3854959,-0.5515292,0.3885947,0.02739806,-0.31232452,-0.58132935,0.70834637,-1.413524,0.41658002,-0.33611274,-0.26496506,-0.6079731,0.65524685,0.94983613,-0.030743295,0.22940959,0.21032667,-1.414643,0.30562893,-0.44210362,0.0,1.0,0.0,0.0,0.0,0.0,0.0,-0.33767545,0.18132934,-0.15834635,-0.48520565,-10.576546,0.92213154,-1.087904,4.998243,-1.4665544,3.9585807
-7.412668,28.783985,4.356259,6.3030457,1.3808775,-0.020435274,0.23420224,-0.8285862,-0.54539764,-0.5932697,0.7432472,-0.15927893,0.40849277,0.33901444,0.6740273,-1.1376636,-2.2743986,-0.7287519,1.927835,1.9013926,-0.97360957,0.74222225,-1.0919396,-2.2259321,-0.78940153,1.9390506,1.8643022,-1.0069491,-1.468451,-0.90855074,-1.080451,1.362044,-0.44521514,0.3708913,0.066109955,-0.32645416,-0.5771408,0.70435095,-1.4126432,0.42040548,-0.4168828,-0.27933884,-0.60489464,0.6503681,0.9516897,-0.026045514,0.23345292,0.19775744,-1.4404669,0.32033283,-0.5034642,0.0,1.0,0.0,0.0,0.0,0.0,0.0,-0.3235458,0.1771408,-0.15435094,-0.829196,-10.805332,2.2728682,-2.1551847,10.393786,-2.0268142,3.9639347
-6.366955,29.85508,4.7374525,5.8093543,1.3875233,0.024618268,0.24059364,-0.83131754,-0.59685695,-0.58197945,0.72186446,-0.093929864,0.35652295,0.3850118,0.6590905,-1.1516253,-2.28413,-0.71721506,1.9296576,1.8999544,-0.96844786,0.7274708,-1.1017929,-2.2365587,-0.77603453,1.9354941,1.8678569,-1.0060049,-1.4773855,-1.0112153,-1.055875,1.3287864,-0.3264625,0.34948662,0.10409044,-0.34057236,-0.57291603,0.69954324,-1.4115007,0.42403054,-0.4981581,-0.29395294,-0.60165024,0.6448866,0.9535358,-0.02108136,0.23644009,0.18552901,-1.4636971,0.33791682,-0.5636574,0.0,1.0,0.0,0.0,0.0,0.0,0.0,-0.30942762,0.17291602,-0.14954323,-0.8936882,-10.351694,2.7197838,-3.136897,11.6171,-2.414304,3.9114504
-2.6485195,37.205254,6.6780777,6.006679,0.9944488,0.14204311,0.30339,-0.82872134,-0.6257258,-0.5614706,0.70555425,-0.1838308,0.34114924,0.43790242,0.64459866,-1.1643655,-2.2927058,-0.7054791,1.917111,1.9019718,-0.9622147,0.71266013,-1.1125294,-2.2468846,-0.7630269,1.9326614,1.8712075,-1.0046858,-1.4824673,-1.0947285,-1.0237281,1.2917671,-0.26960495,0.32952517,0.14134791,-0.35466385,-0.5686264,0.6940574,-1.4055468,0.4310435,-0.5623834,-0.3086624,-0.5982094,0.6388597,0.95532686,-0.015849873,0.2385968,0.17369758,-1.4687823,0.35848328,-0.6165241,0.0,1.0,0.0,0.0,0.0,0.0,0.0,-0.29533613,0.1686264,-0.1440574,-0.55253506,-8.4481,3.5954952,-3.5628557,5.3824606,-2.2350311,3.8075104
3.9029288,45.645565,9.373234,5.949236,0.6135124,0.2255044,0.36887035,-0.81356394,-0.6545375,-0.52603763,0.69395447,-0.24452287,0.33726537,0.48909837,0.6313037,-1.1779832,-2.2994883,-0.6936315,1.9082091,1.904934,-0.9557759,0.6978895,-1.123964,-2.2567825,-0.75036925,1.9299915,1.8743827,-1.0029943,-1.4755683,-1.1600108,-0.97679603,1.2572001,-0.26747856,0.3129062,0.1784041,-0.3685646,-0.56427,0.68803716,-1.3829029,0.43804553,-0.61154217,-0.32326508,-0.59456635,0.63238436,0.95699185,-0.010379561,0.2402114,0.16234897,-1.4532906,0.37895286,-0.6588978,0.0,1.0,0.0,0.0,0.0,0.0,0.0,-0.28143537,0.16427001,-0.13803715,0.58460236,-6.6310167,5.2342653,-3.4070253,-0.29522777,-1.8733084,3.6778688
2.4519548,52.263546,9.825823,8.061204,0.48650807,0.23727155,0.3493659,-0.81423587,-0.6666194,-0.5633498,0.69062513,-0.27042505,0.27826288,0.5333067,0.6164659,-1.1906259,-2.3131175,-0.6813067,1.902949,1.902209,-0.94966364,0.68320006,-1.135877,-2.2664673,-0.73798066,1.927122,1.8773727,-1.0009389,-1.4670994,-1.2021441,-0.963783,1.2328252,-0.29497182,0.29356292,0.2143086,-0.3821869,-0.55983925,0.68161404,-1.3538206,0.44563198,-0.6494684,-0.33768082,-0.5907154,0.625538,0.95847833,-0.004582341,0.24157943,0.15145126,-1.4323807,0.39980236,-0.69438064,0.0,1.0,0.0,0.0,0.0,0.0,0.0,-0.2678131,0.15983924,-0.13161403,0.7306814,-4.336071,1.8782258,-2.3997784,-3.296876,-2.147299,3.5160275
0.73405313,54.66389,9.845759,9.093158,0.85707915,0.21212733,0.27813557,-0.81479436,-0.6853776,-0.57723075,0.6574842,-0.08513995,0.20430171,0.54328054,0.60172063,-1.2044147,-2.3241904,-0.6722323,1.918608,1.897803,-0.9466108,0.6685821,-1.1481165,-2.2761981,-0.7258992,1.9244947,1.8801268,-0.9985571,-1.4603766,-1.2316185,-0.97449183,1.1999619,-0.25343683,0.26866472,0.24603008,-0.39554214,-0.5553322,0.6748063,-1.3277999,0.45315894,-0.6883417,-0.3519516,-0.5866394,0.6183775,0.9598344,0.0015384301,0.2426046,0.14092007,-1.4190062,0.42275912,-0.7246315,0.0,1.0,0.0,0.0,0.0,0.0,0.0,-0.25445783,0.15533218,-0.124806285,0.55754185,-3.075266,-0.50878525,-3.252411,3.6126494,-2.7493596,3.1220822
1.1297145,62.57473,11.709862,11.066618,1.349919,0.28010857,0.1986592,-0.81158894,-0.68088937,-0.558367,0.63216007,0.06341722,0.14290561,0.553171,0.5874232,-1.2162054,-2.3320348,-0.6626832,1.9308364,1.8944174,-0.94324,0.6540241,-1.1605047,-2.2860012,-0.7141982,1.9227699,1.8826058,-0.99588907,-1.4547794,-1.2416253,-0.9801983,1.160027,-0.147227,0.23982154,0.273733,-0.40862656,-0.5507393,0.6676737,-1.3000673,0.4621614,-0.7184737,-0.3661003,-0.58228874,0.6110373,0.9611363,0.007813844,0.24305843,0.13068438,-1.4083139,0.45135814,-0.7384654,0.0,1.0,0.0,0.0,0.0,0.0,0.0,-0.24137342,0.15073928,-0.117673695,0.4146576,-1.135993,0.085520744,-4.0109158,10.000813,-3.1886668,2.7310967
3.6411972,63.787514,12.18157,10.129936,1.4026731,0.21590668,0.2089903,-0.80841374,-0.68540365,-0.5617212,0.5731193,0.16798453,-0.03841501,0.5514288,0.57318276,-1.229045,-2.3421733,-0.6568862,1.9395684,1.8787643,-0.9407462,0.6395176,-1.1729273,-2.295865,-0.7030951,1.9223672,1.8846838,-0.99297994,-1.4498643,-1.2428936,-0.9861773,1.0934991,-0.006318229,0.19611682,0.29658943,-0.4214325,-0.5460701,0.66023564,-1.2723716,0.46948376,-0.7492284,-0.38013458,-0.57767105,0.60357255,0.962444,0.014180995,0.24273738,0.12074328,-1.3952894,0.47764,-0.75034654,0.0,1.0,0.0,0.0,0.0,0.0,0.0,-0.22856748,0.1460701,-0.11023563,0.33073425,-0.24836063,0.07907152,-6.716323,13.442874,-4.678899,2.2432923
7.293415,66.077095,13.245444,9.383476,1.4982705,0.17322755,0.21454449,-0.8034094,-0.6833132,-0.53883386,0.51884437,0.2997624,-0.21856074,0.5537263,0.5591767,-1.2412586,-2.3497484,-0.65121067,1.9523435,1.8628278,-0.9376073,0.6250665,-1.1853136,-2.3056602,-0.692815,1.9235799,1.8862194,-0.98987067,-1.4441127,-1.2374817,-0.975021,1.0058165,0.16189839,0.1383674,0.31560874,-0.43395233,-0.54133606,0.6525069,-1.2434593,0.475314,-0.7777528,-0.39401245,-0.5728054,0.59602714,0.96381235,0.02056152,0.24144293,0.11112222,-1.3788753,0.5017012,-0.7570738,0.0,1.0,0.0,0.0,0.0,0.0,0.0,-0.21604764,0.14133605,-0.102506876,0.39553642,0.43673515,1.8322587,-8.883977,16.138723,-6.076908,1.8551707
10.699898,62.169548,12.616755,6.927466,1.1243229,0.07999319,0.28167266,-0.7989956,-0.69434595,-0.5329869,0.45369384,0.31460384,-0.39117807,0.53979826,0.54516697,-1.2547482,-2.358959,-0.6474456,1.9550403,1.8471016,-0.93589085,0.61068034,-1.1976866,-2.3153028,-0.6835592,1.9262437,1.8870918,-0.9866071,-1.4373134,-1.2375202,-0.9585577,0.8983745,0.29940605,0.06942098,0.32971895,-0.44618225,-0.5365658,0.64445424,-1.2142265,0.47777572,-0.81115896,-0.40766907,-0.56775475,0.58834416,0.96524763,0.027010294,0.23913945,0.10188106,-1.3554815,0.5180995,-0.7732315,0.0,1.0,0.0,0.0,0.0,0.0,0.0,-0.20381773,0.13656577,-0.09445423,0.5106449,-0.083851814,2.3049593,-10.867071,13.117048,-7.1463704,1.347214
7.973246,69.21218,13.111783,10.1760845,1.0488997,0.15250784,0.23705085,-0.7989866,-0.6730787,-0.5337703,0.45625886,0.24045354,-0.47317025,0.5602844,0.5307817,-1.2649944,-2.36868,-0.6379333,1.950289,1.8397747,-0.93057865,0.59634846,-1.2099699,-2.3248045,-0.67515117,1.9297315,1.8872728,-0.9832088,-1.4324062,-1.2256639,-0.945256,0.8211882,0.36344248,0.00026941308,0.34287903,-0.45806122,-0.5317745,0.6361784,-1.1778865,0.47986332,-0.83016837,-0.42106628,-0.5625229,0.58057135,0.96667814,0.03361445,0.23613632,0.09296766,-1.3281507,0.53552586,-0.7799044,0.0,1.0,0.0,0.0,0.0,0.0,0.0,-0.19193876,0.13177451,-0.08617836,0.3232479,1.0944843,2.0164967,-7.834518,5.762112,-7.1483755,1.209557
3.5546699,75.18905,13.351394,14.032749,1.2754178,0.24062729,0.13445368,-0.7968,-0.6640195,-0.5307818,0.46727437,0.2558591,-0.5079402,0.58915335,0.51666844,-1.2763718,-2.3778827,-0.62842375,1.9553174,1.8364788,-0.92429346,0.5820595,-1.2220968,-2.3341997,-0.6671945,1.9336072,1.8868054,-0.9796739,-1.4283147,-1.208765,-0.93562835,0.7868024,0.393707,-0.06322957,0.35669312,-0.46955872,-0.52695847,0.62779874,-1.1388596,0.4823749,-0.8384206,-0.43421555,-0.55709076,0.57281464,0.9680448,0.040371325,0.2327269,0.084247455,-1.3049104,0.55723226,-0.77554065,0.0,1.0,0.0,0.0,0.0,0.0,0.0,-0.18044126,0.12695846,-0.077798724,0.24926662,1.5847206,1.6636968,-3.5309434,2.3958206,-6.6040425,1.2661517
7.0207443,78.77888,14.38146,13.798081,1.1073014,0.32418883,0.17922723,-0.79153574,-0.6455072,-0.49486423,0.40206653,0.2389227,-0.5382019,0.578625,0.5029059,-1.2866476,-2.383686,-0.6269878,1.9574995,1.8329852,-0.9218114,0.5678202,-1.233991,-2.3433695,-0.65966785,1.9375671,1.8857545,-0.9760237,-1.4230219,-1.1833092,-0.9083839,0.7407351,0.39477158,-0.11969695,0.3674279,-0.48062515,-0.5221386,0.61939055,-1.0948676,0.48241448,-0.8395785,-0.44706726,-0.55145836,0.56513286,0.969313,0.047241904,0.22904909,0.0757428,-1.2721657,0.57640946,-0.76685065,0.0,1.0,0.0,0.0,0.0,0.0,0.0,-0.16937482,0.12213859,-0.069390535,0.3499508,2.453947,3.4675002,-4.7484875,-0.5560458,-5.8799176,0.92965364
