Afshin1997/kuka_rl_ros2/src/catch_and_throw/input_files/idealpd/polynomial_regressor/optimizer_files/env_468_data.csv
torque0,torque1,torque2,torque3,torque4,torque5,torque6,action0,action1,action2,action3,action4,action5,action6,set_target_0,set_target_1,set_target_2,set_target_3,set_target_4,set_target_5,set_target_6,joint_pos_0,joint_pos_1,joint_pos_2,joint_pos_3,joint_pos_4,joint_pos_5,joint_pos_6,joint_vel_0,joint_vel_1,joint_vel_2,joint_vel_3,joint_vel_4,joint_vel_5,joint_vel_6,tennisball_pos_0,tennisball_pos_1,tennisball_pos_2,tennisball_lin_vel_0,tennisball_lin_vel_1,tennisball_lin_vel_2,end_effector_pos_0,end_effector_pos_1,end_effector_pos_2,end_effector_rot_0,end_effector_rot_1,end_effector_rot_2,end_effector_rot_3,end_effector_lin_vel_0,end_effector_lin_vel_1,end_effector_lin_vel_2,obs_task_0,obs_task_1,obs_task_2,obs_task_3,obs_task_4,obs_task_5,obs_task_6,to_final_target_0,to_final_target_1,to_final_target_2,joint_acc_0,joint_acc_1,joint_acc_2,joint_acc_3,joint_acc_4,joint_acc_5,joint_acc_6
0.0,0.0,0.0,0.0,0.0,0.0,0.0,0.0,0.0,0.0,0.0,0.0,0.0,0.0,1.7802359,-1.0646509,-1.8151424,-1.1170107,1.9373155,1.1170107,-0.91629785,1.7802359,-1.0646509,-1.8151424,-1.1170107,1.9373155,1.1170107,-0.91629785,0.0,0.0,0.0,0.0,0.0,0.0,0.0,3.0653763,-0.50037766,0.12440027,-3.188773,-0.14791085,5.3199987,0.5304184,-0.45449638,0.693097,0.5745483,0.17512383,0.15255436,0.7848268,0.0,0.0,0.0,1.0,0.0,0.0,0.0,0.0,0.0,0.0,-3.7153764,0.10037765,0.42559975,0.0,0.0,0.0,0.0,0.0,0.0,0.0
0.0,0.0,0.0,0.0,0.0,0.0,0.0,0.0,0.0,0.0,0.0,0.0,0.0,0.0,1.7802359,-1.0646509,-1.8151424,-1.1170107,1.9373155,1.1170107,-0.91629785,1.7802359,-1.0646509,-1.8151424,-1.1170107,1.9373155,1.1170107,-0.91629785,0.0,0.0,0.0,0.0,0.0,0.0,0.0,3.0653763,-0.50037766,0.12440027,-3.188773,-0.14791085,5.3199987,0.5304184,-0.45449638,0.693097,0.5745483,0.17512383,0.15255436,0.7848268,0.0,0.0,0.0,1.0,0.0,0.0,0.0,0.0,0.0,0.0,-3.7153764,0.10037765,0.42559975,0.0,0.0,0.0,0.0,0.0,0.0,0.0
0.0,0.0,0.0,0.0,0.0,0.0,0.0,0.0,0.0,0.0,0.0,0.0,0.0,0.0,1.7802359,-1.0646509,-1.8151424,-1.1170107,1.9373155,1.1170107,-0.91629785,1.7802359,-1.0646509,-1.8151424,-1.1170107,1.9373155,1.1170107,-0.91629785,0.0,0.0,0.0,0.0,0.0,0.0,0.0,3.0653763,-0.50037766,0.12440027,-3.188773,-0.14791085,5.3199987,0.5304184,-0.45449638,0.693097,0.5745483,0.17512383,0.15255436,0.7848268,0.0,0.0,0.0,1.0,0.0,0.0,0.0,0.0,0.0,0.0,-3.7153764,0.10037765,0.42559975,0.0,0.0,0.0,0.0,0.0,0.0,0.0
-176.0,47.347565,-14.52598,110.0,10.888335,4.012913,-3.7780879,-0.80168945,0.23985335,-0.55198026,0.74093014,0.15722303,0.678634,-0.6019,1.7000669,-1.0406655,-1.8703405,-1.0429177,1.9530377,1.184874,-0.9764879,1.7791067,-1.0629781,-1.8210399,-1.1114527,1.9403672,1.1219755,-0.91678804,-0.15018682,0.22245583,-0.7863306,0.74158573,0.40640193,0.66066796,-0.06486285,3.0335083,-0.50185776,0.17682391,-3.1855848,-0.14776297,5.2164936,0.52843475,-0.45781898,0.6936619,0.5782181,0.17362274,0.15167007,0.7826335,-0.2655111,-0.44320557,0.075047895,1.0,0.0,0.0,0.0,0.0,0.0,0.0,-3.6835084,0.10185775,0.3731761,-14.907911,22.069868,-78.57305,74.30352,40.493713,65.67027,-6.3540287
-176.0,-59.518887,-55.805424,108.28102,12.800705,0.38518092,-3.0499625,-0.7895924,-0.31086433,-0.5571128,0.7062351,0.29913065,0.65861243,-0.5917355,1.7001475,-1.0940646,-1.8767512,-1.0408292,1.9702803,1.1878368,-0.97596157,1.7780749,-1.0617765,-1.8359802,-1.095738,1.9466233,1.1348426,-0.91558355,-0.08855889,0.07759867,-1.7104226,1.8502997,0.6888608,1.470751,0.17806031,3.0016708,-0.50333405,0.22821325,-3.1823997,-0.14761524,5.113092,0.52402496,-0.46656227,0.6938627,0.58624667,0.1701715,0.14887169,0.7779419,-0.49998555,-1.0162282,0.004511244,1.0,0.0,0.0,0.0,0.0,0.0,0.0,-3.651671,0.10333404,0.32178676,5.837287,-17.089445,-86.54058,111.47983,25.320637,73.5728,23.051353
-153.97997,91.97055,25.608723,87.827995,8.948552,7.518605,-1.5222816,-0.75029004,0.1141403,0.1822374,0.65622747,0.39779505,0.6945418,-0.4994783,1.7030458,-1.0503625,-1.8177564,-1.0301154,1.9864029,1.2042968,-0.9655314,1.7739741,-1.0609487,-1.8505924,-1.0755888,1.9539819,1.1494663,-0.9141225,-0.51693034,0.081758454,-1.3723239,2.0716226,0.7460951,1.4540067,0.13522589,2.969864,-0.5048065,0.27856937,-3.179218,-0.14746766,5.0097938,0.51678467,-0.4783554,0.6953387,0.59688497,0.16527806,0.14433533,0.7717374,-0.80606914,-1.2265898,0.19885716,1.0,0.0,0.0,0.0,0.0,0.0,0.0,-3.619864,0.10480651,0.27143064,-42.729694,-0.44327676,35.57267,22.710848,4.0858507,-3.3172846,-4.3502927
-103.50925,73.94784,30.362019,51.723618,6.195735,7.0732036,0.10873581,-0.75881976,-0.1934021,0.32099944,0.6802468,0.40295985,0.68726206,-0.5621409,1.6980921,-1.0802889,-1.8184924,-1.0075642,1.9942778,1.2181925,-0.9703366,1.765515,-1.0613779,-1.8587883,-1.0557905,1.9612451,1.1631267,-0.91331095,-0.9561527,-0.08621832,-0.62875813,1.9504852,0.71354884,1.3338894,0.06305668,2.9381027,-0.506279,0.3278933,-3.1760395,-0.14732023,4.9065986,0.5069351,-0.4912262,0.6982858,0.6081927,0.15935326,0.13772176,0.76533705,-1.0545506,-1.2957475,0.3298105,1.0,0.0,0.0,0.0,0.0,0.0,0.0,-3.5881028,0.106278986,0.22210672,-44.02665,-17.29926,76.34631,-11.733389,-5.10087,-12.853503,-7.2428675
-46.957447,112.94374,48.26102,29.006475,3.0871625,7.2156734,0.7268543,-0.7785621,-0.020795628,0.37605754,0.67723316,0.52012104,0.687624,-0.55635947,1.6876588,-1.0634575,-1.8211825,-0.9880672,2.0132573,1.2318891,-0.9689469,1.7533709,-1.0625776,-1.859391,-1.0384032,1.9683213,1.1754253,-0.91325945,-1.3012702,-0.13260363,0.13510858,1.6681395,0.7009503,1.1941065,-0.015318043,2.906372,-0.50775146,0.376186,-3.172864,-0.14717294,4.8035064,0.49515533,-0.5037384,0.70271105,0.61904216,0.15243185,0.12924825,0.75950384,-1.2326287,-1.223828,0.48018134,1.0,0.0,0.0,0.0,0.0,0.0,0.0,-3.5563722,0.10775146,0.173814,-34.714222,-5.079758,78.1207,-28.26686,-2.7036905,-14.331341,-8.188144
-13.850606,94.75857,37.99963,12.082766,1.0461822,4.6058445,0.69623804,-0.7936801,-0.04888334,0.30802122,0.6696873,0.5520819,0.66243905,-0.6049097,1.6740029,-1.0674659,-1.8285888,-0.9714344,2.0235295,1.2416692,-0.9737504,1.7388521,-1.0640329,-1.8543994,-1.0237852,1.9754243,1.1864307,-0.91395754,-1.5024801,-0.15076172,0.6235896,1.3927476,0.71111804,1.0696497,-0.08881158,2.874672,-0.50922394,0.4234486,-3.1696918,-0.1470258,4.700517,0.48223877,-0.51535416,0.7080413,0.6291155,0.14497042,0.119624436,0.7542462,-1.3252448,-1.129771,0.5477525,1.0,0.0,0.0,0.0,0.0,0.0,0.0,-3.524672,0.10922393,0.12655142,-20.242977,-2.08039,49.760036,-27.634382,0.309968,-12.362647,-7.631538
12.456924,142.12938,49.147293,10.512651,-1.1239969,4.3716717,0.050370544,-0.80475867,0.2802045,0.20665652,0.65654415,0.5283164,0.66932255,-0.5913518,1.6583762,-1.0360124,-1.8337338,-0.95813084,2.028256,1.2533629,-0.97309273,1.7232329,-1.063928,-1.8470066,-1.0113455,1.9826207,1.1963527,-0.9153108,-1.5821972,0.0632404,0.7797892,1.1942234,0.72179866,0.9673151,-0.1524323,2.8430023,-0.5106964,0.46968204,-3.1665227,-0.1468788,4.597631,0.46878052,-0.525589,0.71438277,0.6387075,0.1370176,0.11026027,0.7490804,-1.363622,-0.9769053,0.6589534,1.0,0.0,0.0,0.0,0.0,0.0,0.0,-3.4930024,0.110696405,0.080317974,-8.150268,21.085339,16.21983,-19.878937,0.8435011,-9.914613,-6.850697
19.078968,135.19334,40.82382,8.299744,-2.1069639,2.7567582,-0.44170648,-0.8138503,0.3578814,0.059584886,0.6326351,0.49673194,0.665419,-0.5920242,1.6418478,-1.0281398,-1.8410481,-0.948082,2.0322938,1.2628946,-0.97451323,1.707398,-1.0612463,-1.840224,-1.0002753,1.9898381,1.2053859,-0.91721815,-1.5847207,0.33552858,0.645404,1.078031,0.72163117,0.8831094,-0.2047672,2.8113632,-0.51216125,0.5148874,-3.1633568,-0.14673194,4.494848,0.45526886,-0.5343857,0.7215483,0.64823216,0.12883583,0.10230422,0.7434583,-1.3577152,-0.8365903,0.7318056,1.0,0.0,0.0,0.0,0.0,0.0,0.0,-3.4613633,0.11216125,0.03511262,-0.45483112,26.99331,-13.124598,-11.611748,0.009441376,-8.059895,-5.6343794
22.754986,144.51924,42.333347,10.138292,-2.3287003,2.5881186,-0.6331718,-0.823346,0.5160761,0.04162821,0.6086962,0.53339684,0.66016436,-0.58651567,1.6250634,-1.0096387,-1.8360612,-0.9394056,2.0431778,1.2714024,-0.9758697,1.6917807,-1.0555109,-1.8354995,-0.98990786,1.9971452,1.2136791,-0.9195747,-1.554818,0.6521151,0.41579604,1.0229707,0.73385096,0.8120552,-0.24720696,2.7797546,-0.5136261,0.5590657,-3.1601942,-0.14658524,4.3921676,0.4418869,-0.5417862,0.7295496,0.6579363,0.120500416,0.096217185,0.73711723,-1.339439,-0.6957987,0.81983715,1.0,0.0,0.0,0.0,0.0,0.0,0.0,-3.4297547,0.11362609,-0.009065688,2.7722359,31.42767,-22.644567,-5.5123568,1.2757897,-6.893933,-4.629752
23.391472,130.13863,37.34665,8.802155,-2.106462,2.0182033,-0.5580455,-0.8141455,0.5826251,-0.0074744066,0.57752615,0.5624725,0.6497842,-0.5880673,1.6103661,-0.99724835,-1.836247,-0.93215525,2.0533924,1.2786574,-0.9783814,1.6765639,-1.0469717,-1.8331401,-0.9798819,2.0046563,1.2213409,-0.9222955,-1.511558,0.92046285,0.17695644,0.99538815,0.75689256,0.7510158,-0.28157607,2.7481766,-0.51509094,0.602218,-3.1570346,-0.14643869,4.2895904,0.42871857,-0.5479202,0.7382734,0.6678424,0.112096526,0.09189815,0.73005176,-1.3132651,-0.5730333,0.88754284,1.0,0.0,0.0,0.0,0.0,0.0,0.0,-3.3981767,0.11509094,-0.05221796,4.1146517,26.640915,-23.56186,-2.860999,2.3287773,-6.031108,-3.7797153
22.098942,114.09659,33.01111,8.096968,-1.6256647,1.7099968,-0.3966683,-0.8005348,0.640027,-0.03802313,0.5690374,0.57349014,0.6617114,-0.5828611,1.5965104,-0.982969,-1.8369424,-0.92297816,2.0620053,1.2875121,-0.98058164,1.6617857,-1.036281,-1.832772,-0.9699913,2.0124078,1.2284725,-0.92530817,-1.4672269,1.1181372,-0.00865531,0.9863221,0.7816227,0.70049316,-0.30893847,2.716629,-0.5165558,0.6443453,-3.1538782,-0.14629228,4.187115,0.4158249,-0.5529785,0.74754196,0.6778622,0.10367243,0.08896013,0.72238547,-1.288878,-0.4697261,0.9384793,1.0,0.0,0.0,0.0,0.0,0.0,0.0,-3.3666291,0.11655578,-0.09434527,4.239583,19.607782,-18.213629,-1.0863781,2.4707198,-5.0828576,-3.062737
17.956211,97.00132,28.315851,7.8544474,-1.0414228,1.4827223,-0.2269616,-0.7990236,0.6800294,-0.06341347,0.5534624,0.59073234,0.66566753,-0.5852386,1.5818833,-0.96827805,-1.8391134,-0.9146451,2.071481,1.2950392,-0.983832,1.6473528,-1.0241617,-1.8337562,-0.96017706,2.0204186,1.2351673,-0.92855734,-1.4358281,1.2429913,-0.12707205,0.97900635,0.80740726,0.6587803,-0.33130854,2.685112,-0.51802063,0.6854486,-3.1507251,-0.14614601,4.0847425,0.40309143,-0.55716705,0.75717145,0.6878787,0.09525147,0.086935684,0.7142773,-1.2719562,-0.3870399,0.9701467,1.0,0.0,0.0,0.0,0.0,0.0,0.0,-3.335112,0.118020624,-0.13544858,2.9609203,12.357855,-11.468349,-0.9572387,2.5589228,-4.244137,-2.5528789
15.386443,81.81533,24.143894,6.9939594,-0.6370533,1.2469668,-0.07728742,-0.7896218,0.7004409,-0.083237916,0.5400246,0.59198374,0.6694255,-0.5889386,1.5683906,-0.9541176,-1.84208,-0.9061746,2.079617,1.3021098,-0.9874512,1.633164,-1.0112585,-1.8354938,-0.95046484,2.0286393,1.2415035,-0.93200296,-1.4137723,1.3056356,-0.18811224,0.9677509,0.8270208,0.6251037,-0.34990895,2.6536255,-0.51947784,0.7255289,-3.147575,-0.1459999,3.9824727,0.39048004,-0.5606499,0.76697546,0.6977763,0.08685924,0.08544035,0.70587784,-1.2590771,-0.32014844,0.9829099,1.0,0.0,0.0,0.0,0.0,0.0,0.0,-3.3036256,0.11947784,-0.17552888,2.0402908,6.170988,-5.7252827,-1.3789296,1.9449949,-3.4167528,-2.171719
13.734488,71.907036,21.578419,6.150786,-0.3675807,1.1278512,0.06291538,-0.78907096,0.71301323,-0.07838901,0.51271003,0.60395974,0.67701155,-0.5888557,1.5542569,-0.93995714,-1.8433326,-0.8991938,2.0890353,1.3092046,-0.99088854,1.6191088,-0.9980444,-1.8374641,-0.9409739,2.0370355,1.2475555,-0.9356088,-1.4034287,1.3263681,-0.1985558,0.9419814,0.8440743,0.59866107,-0.36516428,2.6221695,-0.52093506,0.76458734,-3.144428,-0.14585392,3.8803053,0.3779831,-0.5635338,0.77681035,0.7074406,0.07850901,0.084179506,0.69733626,-1.2492636,-0.26195744,0.9829893,1.0,0.0,0.0,0.0,0.0,0.0,0.0,-3.2721696,0.12093505,-0.21458733,0.8719206,2.0032883,-0.64310133,-2.8414488,1.6789794,-2.6574612,-1.8347263
13.915729,68.49929,20.97432,5.862045,-0.23341724,1.1116345,0.15113336,-0.78126603,0.72578335,-0.06506826,0.49924442,0.61456215,0.6797261,-0.59201694,1.5409822,-0.92546606,-1.8439709,-0.89104944,2.0984917,1.3155282,-0.9948105,1.6051298,-0.9847692,-1.8392761,-0.9317776,2.0455956,1.2533844,-0.9393491,-1.3967254,1.3277574,-0.17412798,0.91141164,0.8594551,0.57771593,-0.37801242,2.590744,-0.5223923,0.8026249,-3.1412842,-0.1457081,3.77824,0.3655777,-0.5658455,0.78662604,0.7167903,0.07017011,0.08295921,0.68877107,-1.2403183,-0.20619085,0.98029315,1.0,0.0,0.0,0.0,0.0,0.0,0.0,-3.240744,0.12239227,-0.25262487,0.51050186,0.0803709,2.8613567,-3.31707,1.5075803,-2.0873308,-1.5955269
13.145539,66.67049,20.170723,6.009554,-0.19594115,1.0496013,0.16844329,-0.7811744,0.735968,-0.06958771,0.47996688,0.6190484,0.6793303,-0.59069103,1.5270123,-0.91117245,-1.8462348,-0.8837809,2.1075006,1.3213174,-0.9984182,1.5911814,-0.97151315,-1.8408058,-0.92291796,2.0542855,1.2590339,-0.9431991,-1.3946134,1.3247076,-0.1444587,0.8765974,0.87180173,0.5608793,-0.3884181,2.559349,-0.5238495,0.83964247,-3.1381435,-0.14556243,3.6762767,0.3532486,-0.5676193,0.79639345,0.7258014,0.061830804,0.08172999,0.68022746,-1.23113,-0.15255421,0.97449374,1.0,0.0,0.0,0.0,0.0,0.0,0.0,-3.2093492,0.12384948,-0.28964245,0.05390644,-0.3558874,3.3777654,-3.7356734,1.2129188,-1.6596794,-1.3426185
12.992363,68.28987,20.55934,6.7596188,-0.17112958,1.0887032,0.17122057,-0.7789317,0.74536526,-0.05156733,0.46958402,0.6220374,0.6834307,-0.5759776,1.5132883,-0.89697665,-1.8459625,-0.8759596,2.1164892,1.327377,-1.0007969,1.5772444,-0.95825994,-1.841996,-0.9143778,2.0630708,1.2645423,-0.94712824,-1.3937612,1.3253881,-0.109036334,0.8457457,0.88080233,0.54751,-0.3954689,2.5279846,-0.5253067,0.8756412,-3.1350062,-0.1454169,3.5744154,0.3409958,-0.56884384,0.806132,0.73447186,0.05345313,0.0804892,0.6717257,-1.2223766,-0.09777126,0.9724008,1.0,0.0,0.0,0.0,0.0,0.0,0.0,-3.1779847,0.1253067,-0.3256412,-0.07126331,0.016379356,3.9564028,-3.3257842,0.88385344,-1.319766,-1.004827
15.512972,69.50364,20.919512,5.451254,-0.3603168,1.0432262,0.23922773,-0.7804441,0.752195,-0.02616993,0.41912264,0.6308672,0.6845987,-0.5667081,1.4992,-0.8830404,-1.844613,-0.87246555,2.1261575,1.3330022,-1.0037991,1.5633017,-0.9449619,-1.8427856,-0.9062935,2.0719438,1.2699382,-0.9511098,-1.3950047,1.3310641,-0.067482315,0.7951258,0.8896521,0.5371483,-0.40005186,2.4966507,-0.5267601,0.9106221,-3.1318717,-0.14527151,3.472656,0.3289032,-0.5694771,0.8158404,0.74275327,0.045031674,0.0792538,0.6633314,-1.2069467,-0.03695659,0.9687031,1.0,0.0,0.0,0.0,0.0,0.0,0.0,-3.1466508,0.1267601,-0.3606221,-0.28908253,0.5218029,4.5835867,-5.3040147,0.86392164,-0.98091364,-0.75525045
20.572178,69.41602,20.971684,2.2999425,-0.71318257,0.86931175,0.3588167,-0.77822953,0.7577082,-0.0014912325,0.34503332,0.6476327,0.68324274,-0.55944127,1.4854788,-0.8691911,-1.8429347,-0.8717902,2.136707,1.3382626,-1.007054,1.5493532,-0.93157995,-1.8431327,-0.8989798,2.0809388,1.2752483,-0.95512384,-1.3953251,1.3404487,-0.02239186,0.7092707,0.9026314,0.5294709,-0.40279928,2.4653625,-0.5282097,0.9445862,-3.1287405,-0.14512627,3.3709984,0.31704712,-0.56944275,0.8254609,0.7505466,0.036621638,0.0780497,0.65516937,-1.177698,0.031132748,0.9578731,1.0,0.0,0.0,0.0,0.0,0.0,0.0,-3.1153626,0.12820968,-0.3945862,-0.20284653,0.9088993,4.936947,-8.838892,1.2865424,-0.62805414,-0.5684197
29.42112,70.084145,21.614794,-2.9446282,-1.2885239,0.6281305,0.5559427,-0.77060443,0.76825106,0.038223103,0.23343134,0.6686479,0.6799342,-0.5525097,1.4722928,-0.85475487,-1.8393104,-0.87563664,2.1478035,1.3432417,-1.0103748,1.5354391,-0.9180654,-1.8429477,-0.8929287,2.0901093,1.2804992,-0.959155,-1.3907083,1.3550876,0.033468813,0.5695099,0.9216933,0.52433246,-0.40411648,2.434105,-0.5296593,0.9775345,-3.1256125,-0.14498118,3.2694423,0.30564117,-0.5686302,0.8349057,0.7576925,0.028314218,0.07690877,0.64744514,-1.1258479,0.11122868,0.9376701,1.0,0.0,0.0,0.0,0.0,0.0,0.0,-3.084105,0.12965927,-0.42753446,0.28789043,1.4576674,6.0110106,-14.240826,1.9085407,-0.2448678,-0.42029023
33.53572,70.090294,21.597645,-5.1745796,-1.5843719,0.42551637,0.6259382,-0.7637374,0.78000504,0.061915897,0.15911339,0.66859126,0.6816188,-0.5363017,1.4590654,-0.84006494,-1.8367561,-0.8770174,2.1569686,1.3486611,-1.0127852,1.521607,-0.9043697,-1.8422134,-0.8884207,2.099444,1.285712,-0.9631824,-1.3813974,1.3743668,0.087982945,0.41045675,0.9377027,0.5212833,-0.40314117,2.4028778,-0.53110886,1.009468,-3.1224875,-0.14483622,3.1679878,0.29483032,-0.5669937,0.8441174,0.76411134,0.020171689,0.075885385,0.64028764,-1.0608714,0.19362022,0.91290575,1.0,0.0,0.0,0.0,0.0,0.0,0.0,-3.052878,0.13110885,-0.45946795,0.7773161,1.9447803,5.8100514,-16.15209,1.6426802,0.035572052,-0.161767
34.607895,66.97572,20.542408,-6.194581,-1.6471984,0.19367498,0.6564622,-0.75981486,0.7794714,0.09463245,0.076945506,0.6768708,0.6752105,-0.53095174,1.4456255,-0.8264226,-1.8327502,-0.88072616,2.167131,1.3532331,-1.0162776,1.507878,-0.8905176,-1.840924,-0.8855549,2.108931,1.2908962,-0.9671926,-1.3705297,1.3889242,0.14338908,0.24449319,0.952577,0.5189184,-0.4010831,2.3716812,-0.53255844,1.0403876,-3.1193657,-0.14469141,3.0666347,0.28474426,-0.56456375,0.8530401,0.76979005,0.012248609,0.07499005,0.6337583,-0.9893898,0.27045202,0.88222104,1.0,0.0,0.0,0.0,0.0,0.0,0.0,-3.0216813,0.13255844,-0.49038762,0.963521,1.497817,5.806525,-16.818768,1.5764713,0.1532197,-0.014209747
38.649323,65.07522,20.10532,-9.101095,-1.9536085,-0.066367894,0.7550075,-0.75282794,0.7878242,0.1362912,-0.056198806,0.6784334,0.66882074,-0.5171618,1.4325951,-0.81173515,-1.827295,-0.8911748,2.1767745,1.3577783,-1.0189087,1.494269,-0.8765272,-1.8390338,-0.8845669,2.1185365,1.2960613,-0.9711713,-1.3578626,1.4026085,0.2048178,0.04959566,0.96390235,0.5172439,-0.39740437,2.3405151,-0.5340042,1.0702945,-3.116247,-0.14454675,2.965383,0.27547455,-0.5613556,0.8615978,0.7746777,0.0046234266,0.07425403,0.6279644,-0.90389127,0.34793693,0.8433461,1.0,0.0,0.0,0.0,0.0,0.0,0.0,-2.9905152,0.1340042,-0.5202945,1.1735439,1.4353275,6.330362,-19.685526,1.2640119,0.30112267,0.18629432
43.087067,60.392143,18.725206,-13.523444,-2.3598309,-0.46433923,0.8925247,-0.752677,0.7902221,0.17198189,-0.2296876,0.6883792,0.6565533,-0.50061274,1.4190013,-0.79750496,-1.8218356,-0.9075357,2.1873744,1.3617166,-1.0212326,1.4807631,-0.862429,-1.8365123,-0.88590777,2.1282563,1.3012092,-0.9751014,-1.3483322,1.4125805,0.2682715,-0.19592611,0.9752526,0.51568747,-0.3918849,2.3093796,-0.53544617,1.0991896,-3.1131313,-0.14440224,2.8642325,0.2671814,-0.55737305,0.86964715,0.7786851,-0.0025434145,0.073723495,0.6230632,-0.8000214,0.42386582,0.7881947,1.0,0.0,0.0,0.0,0.0,0.0,0.0,-2.9593797,0.13544616,-0.5491896,0.89695454,1.090455,6.447747,-24.716099,1.2991309,0.4064083,0.42327046
43.698086,61.04224,19.121395,-12.885162,-2.30514,-0.5493349,0.890389,-0.73274255,0.7991266,0.21790384,-0.308566,0.6905598,0.64736086,-0.4674203,1.4074888,-0.78251636,-1.814722,-0.9167644,2.1973124,1.3659453,-1.0218434,1.4674155,-0.84822404,-1.8333061,-0.8895775,2.1380754,1.3063362,-0.9789533,-1.3300092,1.4235146,0.33798802,-0.4244604,0.98493993,0.51346576,-0.38313317,2.2782745,-0.5368881,1.127074,-3.1100187,-0.14425786,2.763183,0.25991058,-0.55265427,0.87718225,0.781811,-0.009232389,0.07339522,0.61911184,-0.69475603,0.4956378,0.7375533,1.0,0.0,0.0,0.0,0.0,0.0,0.0,-2.9282746,0.13688812,-0.577074,1.8297434,1.2104511,6.933564,-22.962158,1.2110829,0.33710003,0.7940233
39.945183,65.13106,20.93021,-7.974661,-1.7935545,-0.28451407,0.8142817,-0.7169835,0.80204517,0.30701396,-0.34345135,0.6871949,0.64495,-0.42681706,1.3957171,-0.76801956,-1.8026047,-0.92392266,2.2067947,1.3708311,-1.021635,1.4543024,-0.83392274,-1.8291576,-0.89508307,2.147963,1.3114383,-0.98269075,-1.3050598,1.4327116,0.43977907,-0.5927889,0.99124515,0.5106799,-0.3708572,2.2472,-0.5383301,1.1539487,-3.1069095,-0.14411363,2.6622348,0.25359344,-0.54722977,0.8843671,0.78412503,-0.015625224,0.07315163,0.61607844,-0.6060595,0.5635405,0.7072254,1.0,0.0,0.0,0.0,0.0,0.0,0.0,-2.8972,0.13833007,-0.60394865,2.530241,1.0578394,9.989315,-16.892838,0.9905219,0.22298098,1.173079
31.057884,69.38021,22.586092,0.39550495,-0.9019155,0.1688341,0.648407,-0.70909137,0.8026767,0.3984083,-0.32983753,0.6898555,0.638531,-0.3593699,1.3833933,-0.7536551,-1.7893168,-0.92806685,2.2169485,1.3752915,-1.0186278,1.4414335,-0.8195547,-1.8237503,-0.90159667,2.157908,1.3165042,-0.98626417,-1.2806708,1.4387212,0.57351375,-0.6709203,0.99702126,0.50662047,-0.35301062,2.216156,-0.53977203,1.1798146,-3.1038032,-0.14396955,2.5613873,0.24790955,-0.5411835,0.89145803,0.78576654,-0.022013279,0.07280237,0.6138291,-0.54909813,0.6240121,0.70440334,1.0,0.0,0.0,0.0,0.0,0.0,0.0,-2.866156,0.13977203,-0.62981457,2.4787426,0.75461864,13.063502,-7.8562617,1.0569215,0.0022768974,1.7330527
23.79491,70.99761,23.041727,6.7290516,-0.26636845,0.4301676,0.484984,-0.69356614,0.8069997,0.4563128,-0.31768355,0.69367725,0.62778825,-0.29992524,1.372077,-0.7388547,-1.778119,-0.93336505,2.2272756,1.3792831,-1.0162567,1.4288203,-0.80513036,-1.816983,-0.90835154,2.16791,1.3215206,-0.9896268,-1.2548065,1.4441634,0.7098353,-0.6771954,1.0029379,0.5011695,-0.33093753,2.1851425,-0.541214,1.2046728,-3.1007001,-0.1438256,2.4606407,0.24260712,-0.5345764,0.898656,0.7868805,-0.028625455,0.07222883,0.6121949,-0.5155131,0.677149,0.71912754,1.0,0.0,0.0,0.0,0.0,0.0,0.0,-2.8351426,0.14121398,-0.6546728,2.6243687,0.7078171,13.261044,-0.6705165,1.1255622,-0.20319223,2.152437
8.613802,67.03127,20.802275,16.3063,0.7553378,0.7099191,0.17547503,-0.7049723,0.7993405,0.4944949,-0.22603452,0.6753794,0.6278046,-0.19422856,1.358323,-0.7251963,-1.7675335,-0.930955,2.2354481,1.3843011,-1.0090497,1.4163443,-0.7907051,-1.8090026,-0.91447794,2.1779046,1.3264797,-0.99270815,-1.245163,1.4425018,0.8261218,-0.5914583,0.9999928,0.49494168,-0.30087137,2.1541595,-0.5426483,1.2285243,-3.0976,-0.14368181,2.3599946,0.23736572,-0.5275879,0.90611327,0.78770405,-0.035649348,0.07138026,0.61086506,-0.52107525,0.7105008,0.7484753,1.0,0.0,0.0,0.0,0.0,0.0,0.0,-2.8041596,0.14264831,-0.6785243,0.94759464,-0.001001358,11.275064,8.475531,0.24641752,-0.40875077,2.929771
-3.9562902,60.77157,17.443712,22.917723,1.4530823,0.7796573,-0.110772364,-0.7197671,0.7994937,0.49758938,-0.14888714,0.67391706,0.6346057,-0.15095294,1.3443676,-0.7107557,-1.7592437,-0.92936665,2.2452962,1.3899403,-1.0078034,1.4038264,-0.7763113,-1.8001983,-0.9193245,2.1878495,1.3313816,-0.9954795,-1.2543125,1.438915,0.8974169,-0.44959715,0.9943788,0.48902065,-0.2695282,2.123207,-0.54408264,1.2513701,-3.0945032,-0.14353816,2.2594495,0.23186493,-0.52041626,0.91388756,0.7884893,-0.043159377,0.07029105,0.6094925,-0.5544703,0.7251678,0.7806863,1.0,0.0,0.0,0.0,0.0,0.0,0.0,-2.7732072,0.14408264,-0.70137006,-0.99174976,-0.19900799,6.8442464,14.034385,-0.067937374,-0.4835546,3.049481
-14.822435,55.971203,14.69892,29.404411,2.1022863,0.87800604,-0.40377364,-0.7291812,0.8007687,0.48924634,-0.01245476,0.6695966,0.6402082,-0.12866716,1.3309083,-0.6962344,-1.7512736,-0.92057,2.2548091,1.3954024,-1.0083462,1.3911349,-0.761948,-1.7910373,-0.92227995,2.1977258,1.33623,-0.9979505,-1.2746291,1.4360598,0.921459,-0.24487543,0.9869725,0.48336375,-0.23992883,2.0922852,-0.54551697,1.2732111,-3.0914092,-0.14339465,2.1590047,0.22580719,-0.5132103,0.9220286,0.78948396,-0.051220573,0.06901196,0.60772437,-0.6140486,0.7241585,0.81876624,1.0,0.0,0.0,0.0,0.0,0.0,0.0,-2.7422853,0.14551696,-0.7232111,-2.1559477,-0.12927055,2.161312,20.279705,-0.27490854,-0.5654335,2.8701277
-25.183083,49.592884,11.53233,34.934616,2.7042246,0.9540251,-0.67461056,-0.7582989,0.79410976,0.46949217,0.13428731,0.6645861,0.6537287,-0.15016097,1.315305,-0.682537,-1.744088,-0.9088512,2.2641845,1.4016029,-1.0129666,1.3781115,-0.7476362,-1.781945,-0.92283785,2.207522,1.3410308,-1.0001736,-1.3120972,1.4300703,0.9045884,0.0064442623,0.97880274,0.478774,-0.21670699,2.0613937,-0.5469513,1.2940484,-3.0883186,-0.14325128,2.0586603,0.21897888,-0.50613403,0.9305629,0.7909203,-0.05988216,0.06758039,0.60522056,-0.6982473,0.7083554,0.8583948,1.0,0.0,0.0,0.0,0.0,0.0,0.0,-2.7113938,0.14695129,-0.7440484,-3.9129257,-0.45022964,-1.9028187,24.908218,-0.36667585,-0.5655587,2.2381842
-26.594086,49.361305,11.503871,36.6198,2.8133419,1.0534929,-0.7433611,-0.7671985,0.7940836,0.47515255,0.27315867,0.6563914,0.65596235,-0.14019124,1.3013916,-0.66822785,-1.7344297,-0.895522,2.273161,1.406627,-1.0141927,1.3647181,-0.73337686,-1.7730873,-0.9207274,2.2172265,1.3457916,-1.0021877,-1.3488889,1.4249537,0.87880933,0.27871385,0.9692256,0.47442666,-0.19658147,2.0305328,-0.5483856,1.3138832,-3.0852308,-0.14310805,1.9584162,0.21124268,-0.499197,0.9395216,0.79287905,-0.06921048,0.066003025,0.6018275,-0.78936464,0.69538677,0.90160924,1.0,0.0,0.0,0.0,0.0,0.0,0.0,-2.680533,0.14838561,-0.7638832,-3.8284302,-0.380826,-2.7905822,27.038929,-0.51362514,-0.6122649,1.9310206
-20.686943,45.40067,10.211894,30.597893,2.1836433,0.7059927,-0.631467,-0.7868744,0.7908394,0.44057497,0.3034175,0.66082805,0.66737175,-0.21008724,1.2860307,-0.65429294,-1.7290298,-0.8903856,2.2833092,1.4125288,-1.0231965,1.3509527,-0.71917284,-1.7646263,-0.9163805,2.2268624,1.3505237,-1.004076,-1.3862067,1.419311,0.8345032,0.48619667,0.9629782,0.472375,-0.18672238,1.9997025,-0.5498123,1.3327162,-3.0821462,-0.14296497,1.8582722,0.2027893,-0.49236298,0.9487516,0.7952889,-0.07905478,0.06436295,0.5975979,-0.8582655,0.68809223,0.92331755,1.0,0.0,0.0,0.0,0.0,0.0,0.0,-2.6497025,0.14981231,-0.7827162,-3.865075,-0.46350956,-4.575944,20.58304,-0.25066137,-0.3318429,0.91406703
-7.632947,41.811867,9.452316,19.115807,1.0130705,0.087080166,-0.3289433,-0.7929264,0.784913,0.41363388,0.2686214,0.66391397,0.66713136,-0.2495377,1.2716601,-0.6406815,-1.7232629,-0.8895184,2.293254,1.4172368,-1.0290297,1.3368841,-0.70504034,-1.7566688,-0.9108225,2.2364602,1.3552482,-1.0059204,-1.4141772,1.41149,0.7827381,0.5785766,0.95941556,0.47252172,-0.1837193,1.9689026,-0.551239,1.3505485,-3.0790646,-0.14282204,1.7582283,0.19396973,-0.48553658,0.95795673,0.7979383,-0.08908478,0.062802054,0.592802,-0.8816594,0.69037664,0.91275877,1.0,0.0,0.0,0.0,0.0,0.0,0.0,-2.6189027,0.15123901,-0.8005485,-2.9120445,-0.7123232,-5.2060246,9.077573,-0.09474754,0.05569458,0.22179782
4.8009677,42.823246,10.337588,9.408357,-0.048887312,-0.36532253,-0.022628874,-0.7995583,0.78843546,0.40767708,0.23495635,0.6634916,0.667121,-0.25009128,1.2569283,-0.6261968,-1.7159011,-0.8873269,2.3028095,1.4219604,-1.0309296,1.3226019,-0.6909555,-1.7491462,-0.90508425,2.2460313,1.3599842,-1.0077477,-1.4331796,1.4075634,0.7423255,0.57175356,0.9565829,0.4745739,-0.18263905,1.9381332,-0.5526657,1.3673811,-3.0759861,-0.14267924,1.6582844,0.18521881,-0.47859573,0.9668993,0.80057895,-0.09901567,0.061446413,0.58778703,-0.86386806,0.7050065,0.88119864,1.0,0.0,0.0,0.0,0.0,0.0,0.0,-2.5881333,0.1526657,-0.8173811,-2.0055532,-0.34692287,-3.9527178,-0.8311868,-0.12513399,0.39728284,0.015124679
16.74092,41.523758,10.378208,-0.59008837,-1.0309641,-0.93826944,0.2829364,-0.79800063,0.7820817,0.39292547,0.14461471,0.6742043,0.66262144,-0.26114282,1.2428019,-0.6127474,-1.7098536,-0.8906228,2.3134518,1.4262463,-1.0338619,1.3082186,-0.6769222,-1.7419612,-0.9001547,2.2556062,1.3647468,-1.0095768,-1.4403337,1.4020727,0.711135,0.46614867,0.9581866,0.47798255,-0.18332964,1.9073944,-0.5540924,1.3832151,-3.0729108,-0.1425366,1.5584404,0.17697144,-0.4714737,0.9753511,0.80298126,-0.10855637,0.060388494,0.5829148,-0.80416983,0.7241357,0.8265482,1.0,0.0,0.0,0.0,0.0,0.0,0.0,-2.5573945,0.1540924,-0.83321506,-0.7946968,-0.5127907,-2.949524,-10.702109,0.22610426,0.7025659,-0.16683936
21.718967,44.16754,11.652756,-3.4635277,-1.369496,-1.0890323,0.42419484,-0.79845345,0.78407145,0.40289348,0.11201152,0.66839594,0.66031355,-0.21994036,1.2283733,-0.59851503,-1.7016718,-0.88895357,2.3224459,1.4307781,-1.0315708,1.2938181,-0.66292226,-1.7349269,-0.8964802,2.2651887,1.3695419,-1.011383,-1.4399736,1.3995031,0.7014284,0.33423385,0.9579785,0.4813355,-0.1801385,1.8766861,-0.5555191,1.3980513,-3.0698385,-0.14239408,1.4586962,0.16941833,-0.46411705,0.9832514,0.80501306,-0.11760819,0.059646647,0.57841545,-0.72971505,0.74764144,0.7714449,1.0,0.0,0.0,0.0,0.0,0.0,0.0,-2.5266862,0.1555191,-0.84805125,-0.011444092,-0.21955967,-0.7983804,-13.2960205,0.020945072,0.72929263,0.22588074
22.768887,45.765953,12.34895,-3.4428058,-1.3873268,-1.1391501,0.46554965,-0.79734075,0.78494704,0.40490663,0.07144247,0.6679314,0.65320927,-0.17442253,1.214084,-0.58442754,-1.6944363,-0.88933593,2.331982,1.4348629,-1.0288253,1.2794558,-0.648929,-1.7278926,-0.8941008,2.2747636,1.3743618,-1.0131245,-1.435107,1.3993694,0.70439106,0.20558251,0.9576241,0.48348355,-0.1723053,1.8460083,-0.556942,1.4118909,-3.0667694,-0.14225172,1.359052,0.16262817,-0.45652008,0.99063486,0.8066333,-0.12618779,0.059206966,0.57438135,-0.65302753,0.7714671,0.7210159,1.0,0.0,0.0,0.0,0.0,0.0,0.0,-2.4960084,0.15694198,-0.86189085,0.46622753,0.032806396,0.42786598,-12.938926,0.020849705,0.59535503,0.7026285
21.663963,45.83525,12.343849,-2.171492,-1.2532672,-1.1643931,0.46317834,-0.79433554,0.7859796,0.39843333,0.02678982,0.6697454,0.655515,-0.07140787,1.2000222,-0.57033104,-1.6880493,-0.8914218,2.3417382,1.4399133,-1.0202652,1.2651621,-0.63492334,-1.720824,-0.89288676,2.2843423,1.3792007,-1.0147114,-1.4275758,1.4011747,0.70800596,0.09312403,0.9581059,0.48515037,-0.15440017,1.815361,-0.55836105,1.4247348,-3.063703,-0.1421095,1.2595072,0.15657043,-0.44869614,0.99755263,0.80784553,-0.13433217,0.05904802,0.570836,-0.58014494,0.79247534,0.67583656,1.0,0.0,0.0,0.0,0.0,0.0,0.0,-2.465361,0.15836105,-0.8747348,0.75097084,0.23944378,0.4353881,-11.302816,0.13689995,0.5201459,1.725617
14.501369,46.139984,12.432964,4.945357,-0.5469217,-0.8602924,0.32006696,-0.7927664,0.78578204,0.40014437,0.08060863,0.657265,0.6569221,0.12329857,1.1858854,-0.5563451,-1.6808096,-0.8848259,2.3500688,1.4448929,-1.0023816,1.250939,-0.62089765,-1.7137153,-0.89220583,2.2938905,1.3840492,-1.0159798,-1.4205805,1.4032643,0.7119382,0.05948272,0.95468295,0.4855367,-0.11803089,1.7847443,-0.5597801,1.4365841,-3.06064,-0.14196742,1.160062,0.15104675,-0.44067383,1.0041662,0.80872655,-0.14223856,0.05911005,0.56765795,-0.53556377,0.8104521,0.6503922,1.0,0.0,0.0,0.0,0.0,0.0,0.0,-2.4347444,0.15978011,-0.8865841,0.6790161,0.28541088,0.39190054,-3.436447,-0.16618967,0.2835214,3.568843
3.5208268,42.498432,11.213861,14.888016,0.52505636,-0.46603674,0.057211764,-0.78733367,0.7721178,0.3838303,0.19830102,0.63816416,0.6562779,0.30016908,1.1722057,-0.54368585,-1.6753323,-0.8723757,2.3577068,1.449677,-0.98596287,1.2367922,-0.60691774,-1.7066543,-0.89100707,2.3033547,1.3888919,-1.0167713,-1.4129945,1.396556,0.70371455,0.13962933,0.9445412,0.4842366,-0.06638739,1.754158,-0.5611992,1.4474397,-3.05758,-0.14182548,1.0607162,0.14563751,-0.43253326,1.010696,0.8094323,-0.15021107,0.059278496,0.5645724,-0.53343785,0.8202228,0.6475998,1.0,0.0,0.0,0.0,0.0,0.0,0.0,-2.404158,0.16119918,-0.89743966,0.6978035,-0.576663,-0.89964867,7.886301,-0.73531866,-0.02103448,5.0760403
-3.9634056,36.80771,9.152247,20.426281,1.1393929,-0.30860576,-0.1517945,-0.79104704,0.75846416,0.3557494,0.26416278,0.60967773,0.66139704,0.3463383,1.1576875,-0.5310713,-1.6710794,-0.86459076,2.3643224,1.4550316,-0.9821375,1.2226816,-0.59307325,-1.6998203,-0.88855994,2.3126397,1.3937213,-1.0170441,-1.4105388,1.3806471,0.6763213,0.2791642,0.92425203,0.4825263,-0.014677944,1.7236023,-0.56261826,1.4573025,-3.054523,-0.14168368,0.96146965,0.1400528,-0.42435074,1.0172584,0.8101213,-0.15843494,0.05951069,0.56130236,-0.55638736,0.8219941,0.6528643,1.0,0.0,0.0,0.0,0.0,0.0,0.0,-2.3736024,0.16261825,-0.90730244,0.15099049,-1.4933348,-2.8386235,13.7820635,-1.7112613,-0.1403451,5.0747056
0.70493317,33.7323,8.417859,15.013887,0.6457534,-0.6157006,0.009991847,-0.78827274,0.7420696,0.3728867,0.19564068,0.5798818,0.6581109,0.395911,1.1438544,-0.5188663,-1.6625316,-0.86899585,2.3706279,1.4595324,-0.977453,1.208592,-0.5794538,-1.6931636,-0.88517344,2.3216462,1.3985355,-1.0168133,-1.4086976,1.3559482,0.6618078,0.35799772,0.8936876,0.48129582,0.03538607,1.6930771,-0.5640373,1.4661734,-3.051469,-0.14154203,0.86232233,0.13440704,-0.41615677,1.0237544,0.8107489,-0.16680132,0.05985232,0.5579258,-0.5583937,0.8229518,0.642291,1.0,0.0,0.0,0.0,0.0,0.0,0.0,-2.3430772,0.16403732,-0.9161734,0.12202263,-2.3868322,-1.5012622,7.7375355,-2.8103352,-0.018519163,4.9159117
6.855459,33.048893,8.362623,8.655943,0.023229241,-0.9644526,0.19396028,-0.7844463,0.73168314,0.38014168,0.1503442,0.56354994,0.6545181,0.4074171,1.1301475,-0.5062855,-1.6551495,-0.870139,2.3780012,1.4639874,-0.9760716,1.1945311,-0.56609476,-1.6865566,-0.8815361,2.3303323,1.4033382,-1.0161266,-1.4053943,1.3293551,0.66035724,0.3651701,0.86076754,0.4807697,0.079404265,1.6625824,-0.56544876,1.4740537,-3.0484183,-0.14140052,0.7632742,0.12892914,-0.40795708,1.0300272,0.8112011,-0.17509893,0.060372923,0.5546605,-0.5340129,0.8240969,0.6161705,1.0,0.0,0.0,0.0,0.0,0.0,0.0,-2.3125825,0.16544876,-0.9240537,0.30226707,-2.5905132,-0.13689995,0.60596466,-3.1309485,0.1399517,4.3186216
16.273552,30.562023,7.4784923,-1.7225566,-0.94802934,-1.6293998,0.46375242,-0.764612,0.7143781,0.36527127,0.033053808,0.5360148,0.6474839,0.45016134,1.1180699,-0.49465695,-1.6500294,-0.87823075,2.3839338,1.4680866,-0.9711105,1.1805941,-0.5530256,-1.6799858,-0.8786217,2.338656,1.4081409,-1.0150204,-1.3896159,1.299713,0.6561434,0.2666309,0.8234925,0.48123568,0.120795965,1.6321182,-0.5668602,1.4809443,-3.0453706,-0.14125915,0.66432506,0.12402344,-0.39979362,1.0358427,0.8113434,-0.18298407,0.061199687,0.5518092,-0.4663855,0.8183439,0.56417507,1.0,0.0,0.0,0.0,0.0,0.0,0.0,-2.2821183,0.1668602,-0.93094426,1.6310692,-2.9064655,-0.3811121,-9.917891,-3.6808372,0.38700104,4.073857
21.426981,29.488308,7.077525,-8.030416,-1.4970942,-2.0398936,0.6433403,-0.76826507,0.7000232,0.3825446,-0.076646544,0.52628016,0.65071154,0.47205904,1.1037676,-0.4830233,-1.6417313,-0.8862864,2.391284,1.473212,-0.96781445,1.1667925,-0.5402521,-1.6733634,-0.87727034,2.346644,1.412955,-1.0135307,-1.3766484,1.2701482,0.6645948,0.091199964,0.79062104,0.48284835,0.1581378,1.6016846,-0.56827164,1.4868461,-3.0423257,-0.14111792,0.56547487,0.120010376,-0.39172554,1.0410244,0.8110752,-0.19017105,0.06240342,0.54963416,-0.3732817,0.8068676,0.49730912,1.0,0.0,0.0,0.0,0.0,0.0,0.0,-2.2516847,0.16827163,-0.9368461,1.3969898,-2.9050112,0.8988142,-17.562607,-3.3083081,0.56657195,3.6898315
20.366636,28.791485,6.9771852,-6.673439,-1.2968317,-2.065665,0.6076568,-0.74651486,0.6818241,0.38374996,-0.085925765,0.51079804,0.6446993,0.5035163,1.092141,-0.47206968,-1.6349884,-0.88586295,2.3977237,1.477425,-0.9631791,1.1531912,-0.5277828,-1.6666439,-0.8775259,2.3543344,1.4177787,-1.0116901,-1.3540463,1.2394507,0.67429507,-0.064549536,0.76195,0.48341092,0.19276279,1.5712814,-0.5696831,1.4917601,-3.039284,-0.14097683,0.4667235,0.11685181,-0.38379097,1.0455806,0.81040007,-0.19663951,0.06394262,0.54817516,-0.28594822,0.791652,0.4364614,1.0,0.0,0.0,0.0,0.0,0.0,0.0,-2.2212815,0.16968307,-0.9417601,2.3979187,-3.0086994,0.94674826,-15.57737,-2.8636813,0.41434765,3.4284413
13.150761,26.50746,6.090397,0.33827877,-0.58706427,-1.8133547,0.36712185,-0.74114436,0.66761935,0.35887885,-0.054771468,0.4897105,0.6427824,0.5175001,1.0790768,-0.46102086,-1.630756,-0.88300306,2.4033053,1.482057,-0.95994014,1.1398035,-0.5156082,-1.6599605,-0.8787848,2.3617501,1.4226005,-1.0095329,-1.3333095,1.2103795,0.66611093,-0.1465654,0.73502374,0.48268092,0.22332601,1.5409088,-0.5710945,1.4956874,-3.0362453,-0.14083588,0.36807093,0.11437225,-0.37602425,1.0496521,0.809451,-0.20256513,0.065745264,0.54720557,-0.22810031,0.77349466,0.3923356,1.0,0.0,0.0,0.0,0.0,0.0,0.0,-2.190909,0.1710945,-0.94568735,2.1627188,-2.8303623,-0.8949876,-8.249386,-2.6110291,0.18888116,3.0214877
8.22222,20.136568,3.642779,3.0082517,-0.19591492,-1.8543816,0.20517221,-0.7400138,0.64398247,0.3188687,-0.10810324,0.47301432,0.64527863,0.5172235,1.0658021,-0.45120993,-1.6280737,-0.8895951,2.4090517,1.4871284,-0.9578106,1.1265761,-0.503755,-1.6535728,-0.880695,2.3689065,1.4274147,-1.0071087,-1.3192253,1.1772132,0.62953424,-0.20609426,0.7098474,0.48169702,0.24887843,1.5105667,-0.57250214,1.4986289,-3.0332096,-0.14069507,0.269517,0.112350464,-0.3685131,1.0532923,0.8083794,-0.20800115,0.06779467,0.5464998,-0.1844381,0.7442739,0.349861,1.0,0.0,0.0,0.0,0.0,0.0,0.0,-2.1605668,0.17250213,-0.94862884,1.4621973,-3.2367945,-3.7322402,-6.043503,-2.4265766,0.12500882,2.5186749
8.96578,19.396967,3.2565255,1.3348241,-0.34843564,-1.9972339,0.2383283,-0.7380995,0.6321576,0.3177829,-0.2097249,0.45778674,0.6437489,0.5317901,1.0527661,-0.4405392,-1.6217945,-0.9016675,2.4146852,1.4917896,-0.95392966,1.1134402,-0.49221188,-1.6475456,-0.88341296,2.3758225,1.4322174,-1.0044498,-1.311338,1.146924,0.59369123,-0.29384476,0.68599373,0.48055738,0.27151242,1.4802551,-0.57390594,1.5005856,-3.030177,-0.1405544,0.1710616,0.110824585,-0.36131096,1.056473,0.8072237,-0.21287268,0.07011492,0.54603946,-0.13382879,0.7124258,0.30306736,1.0,0.0,0.0,0.0,0.0,0.0,0.0,-2.1302552,0.17390594,-0.95058554,0.8505583,-2.953577,-3.6448002,-8.848211,-2.3223996,0.105041265,2.2357702
6.4415655,18.390047,2.8031979,3.7245874,-0.17981905,-1.9271424,0.1407341,-0.73239017,0.61850584,0.2867181,-0.21026133,0.4120359,0.6473158,0.54515,1.0402012,-0.4303613,-1.6188737,-0.9044391,2.417026,1.496949,-0.94993484,1.1003672,-0.4809509,-1.6419437,-0.88684046,2.382422,1.4370105,-1.0015812,-1.3057429,1.1193833,0.54878336,-0.35931394,0.6512822,0.47954094,0.29165566,1.4499741,-0.57530975,1.5015584,-3.0271475,-0.14041388,0.07270463,0.10974121,-0.35442543,1.0592272,0.80604094,-0.21720788,0.07274417,0.5457353,-0.09174062,0.680546,0.26195273,1.0,0.0,0.0,0.0,0.0,0.0,0.0,-2.0999742,0.17530975,-0.9515584,0.5955696,-2.6753426,-4.5511723,-6.638628,-3.390634,0.08157492,1.9815147
2.2991302,7.6285086,-0.4195845,5.311737,0.26470083,-2.006375,0.044983916,-0.7194328,0.5588155,0.2570431,-0.22144322,0.3429153,0.65346915,0.56364787,1.0284239,-0.42506933,-1.6162394,-0.9089848,2.4167135,1.5023575,-0.9452164,1.0873877,-0.47016436,-1.6368358,-0.89076483,2.3885179,1.441798,-0.9985256,-1.2951198,1.0653348,0.4978016,-0.4039195,0.59554696,0.47909963,0.31008488,1.4197235,-0.57671356,1.5015484,-3.0241208,-0.1402735,-0.025554013,0.10899353,-0.34796906,1.0615517,0.80491304,-0.221032,0.075657554,0.5454684,-0.063415326,0.633007,0.2186442,1.0,0.0,0.0,0.0,0.0,0.0,0.0,-2.0697236,0.17671356,-0.9515484,1.1114597,-5.3315163,-5.1733255,-4.594511,-5.504322,0.11751056,1.7846048
-0.3453622,-2.7750635,-3.324624,5.5033393,0.5860961,-2.124155,0.014011158,-0.7027953,0.49409458,0.24437061,-0.2523529,0.25432116,0.6585339,0.5728926,1.0171082,-0.4207549,-1.6123987,-0.9160001,2.41395,1.5076513,-0.9412364,1.0745779,-0.4601484,-1.6321876,-0.89509547,2.3938508,1.4465854,-0.9953022,-1.2758834,0.9806028,0.45352298,-0.44319433,0.51303995,0.47917843,0.32623547,1.3895035,-0.5781174,1.5005566,-3.0210974,-0.14013325,-0.12371441,0.10845947,-0.34210014,1.0634053,0.8038845,-0.22433467,0.07880785,0.5451908,-0.04357149,0.57059246,0.1707088,1.0,0.0,0.0,0.0,0.0,0.0,0.0,-2.0395036,0.17811736,-0.9505566,2.014184,-8.410418,-4.5296965,-4.0800753,-8.202517,0.15593767,1.5311837
-3.9623861,-13.183639,-6.6940346,5.706908,0.99781597,-2.2788763,-0.040184952,-0.70853037,0.4343127,0.20282823,-0.29608342,0.23543112,0.65507954,0.56827116,1.0037249,-0.4167171,-1.6119047,-0.92470384,2.417394,1.5120934,-0.9384751,1.0619093,-0.45113617,-1.6280448,-0.8998934,2.3984056,1.451371,-0.9919405,-1.2634306,0.8749288,0.40085685,-0.49255303,0.43663168,0.4786662,0.33914247,1.359314,-0.57951736,1.4985839,-3.018077,-0.13999315,-0.22177666,0.108055115,-0.33699036,1.0647316,0.8030134,-0.22703895,0.08210357,0.5448685,-0.03435847,0.490032,0.116801135,1.0,0.0,0.0,0.0,0.0,0.0,0.0,-2.009314,0.17951736,-0.9485839,1.3427258,-10.523009,-5.3399506,-5.102873,-7.6381803,0.06251931,1.1908531
-10.10466,-40.663116,-15.316463,3.8054614,1.6239446,-2.75539,-0.123949185,-0.67033917,0.2757196,0.14338942,-0.33339638,0.047541164,0.6546185,0.58120716,0.99487543,-0.4235642,-1.6137059,-0.933233,2.4031596,1.5168328,-0.9338198,1.0495077,-0.44372326,-1.6245887,-0.905254,2.4017892,1.4561489,-0.98846054,-1.2318491,0.6967101,0.32681632,-0.5511953,0.30548698,0.47771153,0.35034853,1.329155,-0.58091354,1.4956313,-3.0150595,-0.13985318,-0.3197409,0.10764313,-0.33302307,1.0653595,0.80241126,-0.22895953,0.085483626,0.5444321,-0.038833622,0.36426157,0.04220971,1.0,0.0,0.0,0.0,0.0,0.0,0.0,-1.979155,0.18091354,-0.9456313,3.3752203,-17.816841,-7.508713,-6.049776,-13.206911,-0.02349019,0.9558737
-25.315731,-108.586205,-36.44454,-1.7431169,3.4367614,-3.8756819,-0.2542942,-0.6313991,-0.07343347,0.08478856,-0.43785587,-0.19441542,0.6501848,0.54811305,0.9863678,-0.4510666,-1.6161098,-0.9490396,2.3823476,1.5211674,-0.93364924,1.0375792,-0.43947178,-1.6220157,-0.9115683,2.4032884,1.4609058,-0.9849148,-1.1784794,0.33428556,0.23387118,-0.6588543,0.09709174,0.47461206,0.35488626,1.2990265,-0.5823097,1.4916998,-3.0120451,-0.13971335,-0.41760716,0.10688782,-0.33117676,1.0648237,0.80228895,-0.22960636,0.08862997,0.5438363,-0.08298624,0.12360516,-0.087249465,1.0,0.0,0.0,0.0,0.0,0.0,0.0,-1.9490265,0.18230972,-0.9416998,5.792618,-36.349167,-9.395918,-10.960245,-21.158884,-0.4137814,0.1450479
-30.389816,-154.6174,-50.629456,-10.091937,4.292814,-4.9273443,-0.20662706,-0.4808291,-0.38303772,-0.020964941,-0.54078865,-0.44825357,0.6067222,0.4887089,0.9894963,-0.47777554,-1.6241122,-0.96564716,2.358463,1.521578,-0.93604386,1.0268255,-0.43988186,-1.6206825,-0.9192864,2.402182,1.4655807,-0.98138714,-1.0389767,-0.16687226,0.09976493,-0.8097608,-0.1817199,0.4633773,0.35061994,1.2689285,-0.5837059,1.4867904,-3.0090337,-0.13957366,-0.51537555,0.105644226,-0.3323555,1.0626493,0.8027584,-0.22846326,0.0912163,0.5431971,-0.13655812,-0.19927731,-0.26156482,1.0,0.0,0.0,0.0,0.0,0.0,0.0,-1.9189285,0.1837059,-0.9367904,14.542365,-50.343597,-13.420677,-15.14647,-28.368277,-1.6221702,-0.8602917
-17.02145,-149.2851,-45.55927,-16.875463,4.121668,-4.9563193,0.3471912,-0.21489823,-0.6462512,0.053555593,-0.5905555,-0.56138587,0.6397622,0.48971,1.0053357,-0.504507,-1.6153269,-0.97834194,2.3460436,1.5295569,-0.93241614,1.0185724,-0.44571024,-1.6200969,-0.92849123,2.3983483,1.4701488,-0.9779053,-0.7534297,-0.7223908,0.0456239,-0.9571355,-0.45159018,0.4516554,0.34626073,1.2388611,-0.5851021,1.4809041,-3.006025,-0.13943411,-0.6130463,0.10404968,-0.33669853,1.0586977,0.80341536,-0.22555076,0.09268649,0.54319406,-0.16939786,-0.51249075,-0.4400247,1.0,0.0,0.0,0.0,0.0,0.0,0.0,-1.8888611,0.18510208,-0.9309041,28.785156,-55.83067,-5.173965,-14.668571,-27.330822,-2.0866692,-0.8008659
25.35961,-80.20557,-20.271067,-31.532875,1.0228088,-4.8825116,1.2768899,0.29002744,-0.7358726,-0.01839754,-0.6511355,-0.5842189,0.6442238,0.4174926,1.0475752,-0.5192975,-1.6219367,-0.9936048,2.3399265,1.5345712,-0.93615603,1.0151716,-0.45628506,-1.6200302,-0.93909895,2.3923173,1.4746082,-0.9745083,-0.20560104,-1.1698245,-0.0031925547,-1.095999,-0.6533459,0.44045973,0.33696744,1.2088242,-0.58649826,1.4740417,-3.0030198,-0.1392947,-0.7106194,0.103019714,-0.34345055,1.0531383,0.80343014,-0.22123381,0.092742495,0.5449352,-0.082193255,-0.72699404,-0.59565073,1.0,0.0,0.0,0.0,0.0,0.0,0.0,-1.8588241,0.18649825,-0.9240417,53.795494,-44.929386,-3.9469998,-14.094615,-20.086252,-2.1476686,-1.0886788
38.708374,-19.860605,-1.5748769,-24.455994,-0.5777979,-3.7784386,1.1856902,0.43085948,-0.7655897,-0.124700814,-0.57991,-0.6258174,0.6595721,0.2991516,1.0582576,-0.532844,-1.6325003,-0.99709,2.3297355,1.5405654,-0.94459313,1.017224,-0.4700485,-1.6207378,-0.950379,2.3847222,1.4789875,-0.9712801,0.3369266,-1.445598,-0.08936681,-1.139866,-0.79391474,0.43463635,0.31808552,1.1788177,-0.5878868,1.4662044,-3.0000174,-0.13915543,-0.8080949,0.10310364,-0.35157394,1.0464294,0.80251646,-0.21610174,0.0916805,0.54850894,0.03970351,-0.83674955,-0.6985318,1.0,0.0,0.0,0.0,0.0,0.0,0.0,-1.8288177,0.1878868,-0.9162044,52.68591,-27.70605,-7.3861403,-4.75173,-13.815462,-1.3811886,-1.8727541
38.17608,8.250053,3.185602,-19.180119,-1.47595,-3.4751494,0.7043116,0.55598104,-0.7939539,-0.40789196,-0.6161979,-0.5765941,0.66025174,0.19145581,1.0728221,-0.5494439,-1.661527,-1.0119988,2.3270628,1.5450126,-0.9521345,1.0240179,-0.48545557,-1.6235015,-0.9618975,2.376326,1.4833286,-0.9683142,0.7885173,-1.5728139,-0.3343858,-1.1569042,-0.85446966,0.43175557,0.28947154,1.1488419,-0.58927536,1.457393,-2.9970179,-0.13901632,-0.905473,0.104515076,-0.3605194,1.0388435,0.80098075,-0.21028703,0.090116866,0.5532523,0.17432958,-0.90851766,-0.78273654,1.0,0.0,0.0,0.0,0.0,0.0,0.0,-1.7988418,0.18927535,-0.90739304,43.662704,-12.835741,-23.267862,-2.0283937,-5.9288144,-0.95394254,-2.8469443
31.693958,26.336763,6.0358953,-11.061667,-1.6039252,-2.9265525,0.26401356,0.6467435,-0.8054845,-0.55030495,-0.6194636,-0.52065474,0.6495643,0.096145555,1.0886923,-0.56600404,-1.678532,-1.0238439,2.3242607,1.548285,-0.95869964,1.0343443,-0.50135046,-1.6291969,-0.9734179,2.3678155,1.4876525,-0.9656887,1.1106356,-1.5953025,-0.6450981,-1.1511688,-0.84973633,0.4309694,0.2536103,1.1188965,-0.5906639,1.4476086,-2.9940217,-0.13887733,-1.0027537,0.10710144,-0.3699627,1.0305692,0.7992121,-0.20380335,0.08853501,0.5584672,0.2936732,-0.94996744,-0.8479471,1.0,0.0,0.0,0.0,0.0,0.0,0.0,-1.7688965,0.1906639,-0.8976086,31.182564,-2.3302317,-30.215597,0.37722588,0.51453114,-0.54211617,-3.570354
26.281914,38.45269,8.783789,-5.2169514,-1.523948,-2.3723211,0.018406644,0.7177,-0.8050089,-0.62246966,-0.6480695,-0.45801878,0.6244987,-0.11865516,1.1061143,-0.58185136,-1.6914438,-1.0382248,2.3220136,1.5501025,-0.9775542,1.0470053,-0.5170346,-1.63782,-0.98494875,2.3597054,1.4919593,-0.96355534,1.315899,-1.5595886,-0.9333655,-1.1541257,-0.79780453,0.429676,0.20002016,1.0889816,-0.59205246,1.4368521,-2.9910283,-0.13873848,-1.0999372,0.11074066,-0.37963867,1.0217485,0.7974544,-0.19668794,0.08714183,0.56372565,0.3952226,-0.9667446,-0.90031797,1.0,0.0,0.0,0.0,0.0,0.0,0.0,-1.7389816,0.19205245,-0.8868521,19.973421,3.5280228,-28.414272,-0.40774345,5.2065253,-0.44768453,-5.3310184
20.276112,45.66909,11.639465,1.2294207,-1.0548128,-1.6715409,-0.07426432,0.7571939,-0.8034935,-0.6449029,-0.6471477,-0.39569557,0.6099375,-0.22856256,1.1227247,-0.5973839,-1.7023103,-1.0496635,2.3201358,1.5529531,-0.9864116,1.0609938,-0.53222567,-1.6486785,-0.99650156,2.3523278,1.4962509,-0.96200275,1.4257995,-1.5056238,-1.136357,-1.1559426,-0.7180223,0.42850816,0.1404975,1.0590973,-0.593441,1.4251245,-2.9880378,-0.13859977,-1.1970235,0.11518097,-0.38932228,1.0125262,0.7957806,-0.18909125,0.08589299,0.56885844,0.46842596,-0.96152896,-0.937304,1.0,0.0,0.0,0.0,0.0,0.0,0.0,-1.7090973,0.193441,-0.8751245,10.79638,5.3767204,-20.219685,-0.24392605,7.963407,-0.30213594,-5.893919
15.338772,46.69614,12.822392,5.048334,-0.57865375,-1.1791474,-0.044735223,0.7766113,-0.80320233,-0.6699849,-0.67000747,-0.33269432,0.5953573,-0.22222719,1.138655,-0.6125459,-1.715677,-1.0635023,2.3190584,1.5557866,-0.98422545,1.0755697,-0.5469304,-1.6609237,-1.0081745,2.3458467,1.5005252,-0.96098804,1.4681915,-1.4587957,-1.2544026,-1.1712437,-0.624494,0.4266404,0.0887698,1.0292435,-0.59482574,1.4124268,-2.9850502,-0.13846119,-1.2940128,0.120162964,-0.39888,1.0029867,0.7941539,-0.18113841,0.084648155,0.5738842,0.5185602,-0.94643146,-0.9677342,1.0,0.0,0.0,0.0,0.0,0.0,0.0,-1.6792434,0.19482574,-0.8624268,4.252386,4.6694756,-11.911988,-1.5488148,9.314405,-0.32106638,-5.08762
10.437693,46.38759,13.690842,8.811137,-0.160532,-0.6927583,-0.00016978383,0.7689674,-0.80039257,-0.66685843,-0.6742353,-0.31837884,0.61179054,-0.15267976,1.1524665,-0.62696964,-1.7276095,-1.0755981,2.3140087,1.5617043,-0.976256,1.0901915,-0.5612832,-1.6737545,-1.0200135,2.3401895,1.5047977,-0.96037674,1.4605304,-1.4274837,-1.2932332,-1.1880354,-0.54605335,0.42713746,0.052265644,0.99942017,-0.59620667,1.39876,-2.982066,-0.13832276,-1.390905,0.12549591,-0.4082241,0.9931927,0.79250246,-0.17296568,0.08330532,0.57886344,0.54731333,-0.92239994,-0.99152094,1.0,0.0,0.0,0.0,0.0,0.0,0.0,-1.6494201,0.19620666,-0.84875995,-0.6341219,3.1167507,-4.0895224,-1.6596079,7.776022,-0.034344196,-3.551838
6.8333144,45.59533,14.029041,11.592787,-0.09439844,-0.34168196,-0.000265792,0.76219285,-0.79925984,-0.6668495,-0.6610002,-0.42303646,0.6338371,-0.10374599,1.1664108,-0.6412091,-1.7404394,-1.0861135,2.297886,1.5681814,-0.97075135,1.1045519,-0.57544523,-1.68661,-1.0319248,2.3348145,1.509095,-0.96003914,1.4284381,-1.4125417,-1.2837511,-1.1920824,-0.5347257,0.43037716,0.027906653,0.9696274,-0.5975876,1.3841249,-2.9790845,-0.13818446,-1.4877005,0.13103485,-0.41726875,0.983197,0.7907879,-0.16472577,0.08197791,0.58378035,0.5651367,-0.89001,-1.0104871,1.0,0.0,0.0,0.0,0.0,0.0,0.0,-1.6196274,0.19758758,-0.83412486,-3.0408382,1.4745235,0.7186651,-0.35874844,1.0507941,0.26940107,-2.3651667
1.8016324,44.038273,13.749859,16.111885,0.1247915,-0.003643483,-0.09598529,0.7506129,-0.80256104,-0.6696356,-0.594975,-0.5426396,0.6610773,-0.04954107,1.1796132,-0.65570134,-1.7535735,-1.0914223,2.2805505,1.5752027,-0.96499324,1.1185251,-0.58956724,-1.6992271,-1.0435234,2.32902,1.5134475,-0.95986366,1.3874589,-1.4121776,-1.254923,-1.1488332,-0.594771,0.43693277,0.014158542,0.9398651,-0.5989685,1.3685225,-2.976106,-0.1380463,-1.5843991,0.1366272,-0.42596245,0.97308534,0.78904426,-0.15661941,0.08087363,0.58850574,0.567152,-0.85321707,-1.0192702,1.0,0.0,0.0,0.0,0.0,0.0,0.0,-1.5898651,0.1989685,-0.8185225,-3.9342642,-0.0029087067,2.7122498,4.393053,-6.1324835,0.6575525,-1.3497332
-4.5232286,39.48506,11.927788,20.51909,0.6456652,0.1902937,-0.2239492,0.7247351,-0.8140374,-0.67946434,-0.52658224,-0.5829101,0.67533386,0.002286016,1.1909987,-0.670971,-1.7671735,-1.0961816,2.270729,1.5809809,-0.9596351,1.1320349,-0.60379034,-1.7115924,-1.0543457,2.3224397,1.5178764,-0.9597597,1.339457,-1.4259757,-1.2304753,-1.0598695,-0.6795392,0.44499534,0.0091775535,0.91013336,-0.6003494,1.351954,-2.9731302,-0.13790828,-1.6810011,0.14209747,-0.43434525,0.96294,0.7873619,-0.14880605,0.08008007,0.5928786,0.54876846,-0.8242997,-1.0205534,1.0,0.0,0.0,0.0,0.0,0.0,0.0,-1.5601333,0.20034942,-0.801954,-4.63593,-1.4504671,2.3633957,9.007978,-8.677387,0.85169077,-0.4988216
-5.775111,36.255363,10.598577,20.522354,0.857828,0.10980752,-0.21706635,0.7126249,-0.8246108,-0.6873944,-0.5027661,-0.5814321,0.675736,0.061193563,1.2032974,-0.6862514,-1.7803319,-1.1046224,2.2642965,1.5854499,-0.95364034,1.1451098,-0.61821276,-1.723809,-1.0642487,2.315104,1.5223796,-0.9596424,1.297308,-1.4479295,-1.2189432,-0.96664894,-0.752164,0.45212746,0.012498474,0.8804245,-0.60173035,1.3344201,-2.9701579,-0.1377704,-1.7775065,0.14736938,-0.4425106,0.9527601,0.7857706,-0.14128621,0.07955484,0.59688675,0.52675074,-0.80550075,-1.024394,1.0,0.0,0.0,0.0,0.0,0.0,0.0,-1.5304245,0.20173034,-0.7844201,-4.063511,-2.280593,1.1099339,9.466219,-7.4847817,0.74000955,0.34276918
-4.207054,39.29813,11.667252,20.00503,0.77023286,0.094123855,-0.17903493,0.6994534,-0.81813836,-0.68260336,-0.46156853,-0.6127855,0.67996716,0.09358775,1.2150551,-0.7000266,-1.7920693,-1.1104056,2.2538254,1.5903764,-0.95028365,1.1578223,-0.63279825,-1.7359531,-1.0732323,2.3071122,1.5269477,-0.95946026,1.263033,-1.4622893,-1.2131425,-0.87493277,-0.8153007,0.45860487,0.02014726,0.8507385,-0.60310364,1.3159219,-2.9671884,-0.13763265,-1.8739153,0.1524353,-0.4504795,0.94255424,0.78425485,-0.13404194,0.079282545,0.60057586,0.50890315,-0.785215,-1.026277,1.0,0.0,0.0,0.0,0.0,0.0,0.0,-1.5007385,0.20310363,-0.7659219,-3.28753,-1.520133,0.5450249,9.307981,-6.5350294,0.6744087,0.7815927
0.22424698,41.52807,12.477396,16.502447,0.43407023,-0.09868266,-0.07842766,0.6950987,-0.81706923,-0.6919364,-0.46182257,-0.6208605,0.67214346,0.0844503,1.2273321,-0.7145052,-1.8051467,-1.1194146,2.245026,1.5941621,-0.95101523,1.1702849,-0.6474686,-1.7481239,-1.0815407,2.2986245,1.5315654,-0.95920944,1.2410831,-1.4689189,-1.2185675,-0.8156468,-0.8602757,0.46267694,0.026831323,0.82108307,-0.6044769,1.2964604,-2.9642217,-0.13749506,-1.9702278,0.15744781,-0.4582386,0.93227524,0.7827597,-0.12696837,0.07925406,0.6040571,0.5058969,-0.7644908,-1.035338,1.0,0.0,0.0,0.0,0.0,0.0,0.0,-1.471083,0.20447692,-0.7464604,-2.072239,-0.7384777,-0.59657097,6.055999,-4.6961904,0.37660003,0.6965898
4.1926785,43.039917,13.30145,13.705817,0.23657781,-0.23154014,0.014932618,0.6970298,-0.82255626,-0.69442046,-0.44685134,-0.60929364,0.6761873,0.07910586,1.2399879,-0.7297242,-1.8175659,-1.1262258,2.2376952,1.5991842,-0.95129883,1.1826311,-0.6621886,-1.7603805,-1.0894276,2.2898622,1.5362175,-0.9589014,1.2327657,-1.4732062,-1.2281706,-0.77927613,-0.88200927,0.46581882,0.032287426,0.79145813,-0.6058502,1.2760364,-2.961258,-0.1373576,-2.066444,0.1625061,-0.4657917,0.9218644,0.7812155,-0.119957946,0.07940163,0.60746,0.51335,-0.743591,-1.0496639,1.0,0.0,0.0,0.0,0.0,0.0,0.0,-1.4414581,0.20585021,-0.72603637,-0.7347584,-0.4977703,-1.0236979,3.7552238,-2.349031,0.24139285,0.5944632
6.67068,44.546944,13.907185,11.621025,0.020994663,-0.29465255,0.08937989,0.6880247,-0.8204962,-0.7007457,-0.44534734,-0.6255736,0.67666614,0.11872961,1.2514336,-0.7442382,-1.8304551,-1.1339623,2.2273047,1.6038841,-0.94702846,1.1949183,-0.67691904,-1.7727554,-1.0971199,2.2809396,1.5408943,-0.9585161,1.2275491,-1.4731767,-1.2409676,-0.76562995,-0.8962342,0.46794185,0.040756017,0.7618637,-0.6072235,1.2546511,-2.9582975,-0.13722026,-2.1625636,0.16770935,-0.473114,0.91127455,0.7795612,-0.11292562,0.0797083,0.6108834,0.52882016,-0.7204209,-1.0688243,1.0,0.0,0.0,0.0,0.0,0.0,0.0,-1.4118637,0.2072235,-0.70465106,-0.42619705,-0.06017685,-1.3609409,1.4796495,-1.5852332,0.10251403,0.89729875
4.462719,47.41268,15.056304,14.288319,0.25794643,-0.057463408,0.04008887,0.672363,-0.8198356,-0.6854463,-0.38384053,-0.642658,0.6904171,0.13466962,1.2621546,-0.7589026,-1.8413,-1.135504,2.2166739,1.609936,-0.94504917,1.2071081,-0.6916333,-1.7851627,-1.1044995,2.2718797,1.5456016,-0.95804024,1.2166438,-1.4710443,-1.2409763,-0.7283672,-0.9098269,0.47147843,0.05000724,0.7322998,-0.6085968,1.2323052,-2.95534,-0.13708307,-2.2585874,0.17298126,-0.48019028,0.9005691,0.777803,-0.10594666,0.08015135,0.6143074,0.53406703,-0.6940996,-1.0776438,1.0,0.0,0.0,0.0,0.0,0.0,0.0,-1.3822998,0.2085968,-0.68230516,-0.9922266,0.14567375,-0.06029606,3.8342237,-1.545012,0.29579997,0.97602457
5.3043137,49.048534,15.582607,13.671478,0.1672777,-0.05504188,0.05464758,0.67025244,-0.812616,-0.6980504,-0.38656345,-0.6477337,0.68197596,0.13892384,1.2741334,-0.77289486,-1.8549677,-1.1431558,2.2071064,1.6137992,-0.9441478,1.2191969,-0.70628935,-1.7975986,-1.11157,2.2627015,1.5503356,-0.95747757,1.2064955,-1.4640144,-1.2447344,-0.6996464,-0.9209632,0.47369936,0.058540177,0.7027664,-0.6099663,1.2089998,-2.9523852,-0.13694601,-2.354515,0.1783371,-0.48698616,0.8897706,0.77594024,-0.099031106,0.08073995,0.61773026,0.5421778,-0.6663053,-1.0869657,1.0,0.0,0.0,0.0,0.0,0.0,0.0,-1.3527664,0.20996627,-0.65899974,-0.91581345,0.63729286,-0.4366398,2.9770732,-1.2998104,0.15221238,0.8987181
8.609635,46.723835,14.815109,9.607767,-0.14901602,-0.25756088,0.14621496,0.67113096,-0.8189619,-0.71068686,-0.43812013,-0.6459939,0.6706659,0.1007492,1.28631,-0.78818554,-1.8686672,-1.155382,2.1981022,1.6174022,-0.94740266,1.2312132,-0.7209082,-1.8101261,-1.1186749,2.2534509,1.5550754,-0.9568672,1.2003123,-1.4614514,-1.255615,-0.71389914,-0.9272646,0.4735243,0.062045623,0.67326355,-0.61133194,1.1847358,-2.9494333,-0.1368091,-2.4503467,0.18386078,-0.49352455,0.8787687,0.77392423,-0.092028596,0.0814736,0.6212358,0.56284785,-0.6399326,-1.1108985,1.0,0.0,0.0,0.0,0.0,0.0,0.0,-1.3232635,0.21133193,-0.63473576,-0.5180359,0.19738674,-1.1851788,-1.3003945,-0.78748465,-0.17083287,0.4027687
6.7064524,44.577255,13.579409,8.842573,-0.15004325,-0.23563698,0.1266763,0.6419058,-0.8193923,-0.71740687,-0.45694715,-0.6587628,0.6699419,0.038235165,1.2954038,-0.80284745,-1.8818667,-1.1643696,2.1875746,1.6220696,-0.9530437,1.2430598,-0.73551947,-1.822787,-1.1260906,2.2441201,1.5598094,-0.9562788,1.1797236,-1.4612049,-1.2699345,-0.75043315,-0.9353914,0.47257346,0.057978246,0.6437912,-0.6126976,1.1595143,-2.9464843,-0.13667232,-2.5460827,0.18959808,-0.49980545,0.8674675,0.77175623,-0.084821075,0.08236782,0.6248306,0.581483,-0.6152057,-1.1426147,1.0,0.0,0.0,0.0,0.0,0.0,0.0,-1.2937912,0.2126976,-0.6095143,-1.9263744,-0.03528595,-1.5534639,-3.4986138,-0.9731889,-0.28163195,-0.36293045
4.472777,47.600853,14.7365055,11.331034,0.05099809,0.013525605,0.06988746,0.6312651,-0.81354773,-0.7053274,-0.42194054,-0.6743103,0.68454504,0.02502392,1.3061863,-0.81687427,-1.8933198,-1.1682847,2.1766891,1.628264,-0.9537764,1.2546679,-0.7501107,-1.8355091,-1.133701,2.2346787,1.5645454,-0.9557457,1.1549972,-1.458623,-1.2733082,-0.76398635,-0.9478974,0.4734907,0.051898908,0.61434937,-0.61406326,1.1333361,-2.9435384,-0.13653567,-2.641723,0.19543457,-0.5058174,0.85592294,0.7694677,-0.07748328,0.08341654,0.6284564,0.5905616,-0.586948,-1.164329,1.0,0.0,0.0,0.0,0.0,0.0,0.0,-1.2643493,0.21406326,-0.58333606,-2.3426056,0.19686222,-0.43997765,-1.2107253,-1.4303684,-0.046634674,-0.5645044
2.8427544,47.83531,14.645571,12.16078,0.16903722,0.10450262,0.027167305,0.61737365,-0.8144092,-0.71424186,-0.4297155,-0.6809335,0.67879766,-0.028318945,1.3164053,-0.8315516,-1.9069333,-1.1766725,2.1665854,1.6324252,-0.9585776,1.266009,-0.7646819,-1.8482711,-1.1414009,2.2251077,1.569289,-0.9553108,1.1275347,-1.4568756,-1.2774667,-0.77145195,-0.9608705,0.47399282,0.040765096,0.58493805,-0.6154289,1.1062022,-2.9405956,-0.13639916,-2.7372675,0.20131683,-0.51155853,0.8441732,0.7670928,-0.070066534,0.08461452,0.6320599,0.5948448,-0.55979735,-1.1843263,1.0,0.0,0.0,0.0,0.0,0.0,0.0,-1.234938,0.21542892,-0.55620223,-2.6157618,0.110673904,-0.50747395,-0.59547424,-1.483643,-0.080388784,-1.0715618
-2.0450697,43.140465,11.646719,11.565432,0.246176,0.086146,-0.046589643,0.56466293,-0.8159383,-0.74594843,-0.48934814,-0.6976147,0.65229666,-0.160734,1.3224753,-0.8462757,-1.922866,-1.1903358,2.1553462,1.6345186,-0.9713842,1.2768942,-0.7792483,-1.8612087,-1.1494004,2.2153802,1.5740135,-0.95508194,1.075974,-1.4568834,-1.299483,-0.8088512,-0.97758335,0.47131395,0.016912267,0.55555725,-0.6167946,1.0781136,-2.9376557,-0.13626279,-2.8327165,0.20722961,-0.5170822,0.8321241,0.7647048,-0.062442303,0.086006105,0.6355551,0.5935104,-0.5394297,-1.2174771,1.0,0.0,0.0,0.0,0.0,0.0,0.0,-1.2055572,0.21679458,-0.52811354,-4.975438,-0.074625015,-2.3113728,-3.5360694,-1.8745184,-0.44904947,-2.3681457
-11.05162,37.371937,7.8492947,11.539534,0.48061687,0.23823343,-0.08749366,0.46664545,-0.82044476,-0.7464373,-0.57707584,-0.70766073,0.6410243,-0.22032847,1.3235588,-0.8612928,-1.9358524,-1.2071079,2.1446142,1.6381159,-0.9771148,1.2868792,-0.7938433,-1.8743598,-1.1581589,2.205481,1.5786998,-0.9551277,0.97340924,-1.4605668,-1.3208559,-0.8971584,-0.9950957,0.4668552,-0.011757052,0.526207,-0.61815643,1.0490712,-2.9347186,-0.13612656,-2.92807,0.21302032,-0.5224533,0.81962365,0.7623642,-0.05441704,0.087617,0.63887614,0.5770536,-0.52514994,-1.2663294,1.0,0.0,0.0,0.0,0.0,0.0,0.0,-1.176207,0.21815643,-0.49907118,-9.984791,-0.45776367,-2.2928476,-8.548582,-1.9965291,-0.68241954,-2.873521
-42.563522,30.964428,0.8532357,22.09076,2.0695803,1.1257398,-0.4152853,0.22467841,-0.8175062,-0.71762514,-0.6207786,-0.7006633,0.647639,-0.1858769,1.309347,-0.87559396,-1.9461224,-1.2202368,2.1354146,1.6434637,-0.9737154,1.2948309,-0.80846506,-1.8875434,-1.1679188,2.1954522,1.58335,-0.9554157,0.737382,-1.4632056,-1.3179793,-1.00097,-1.007298,0.46401986,-0.034647033,0.4968872,-0.61951447,1.019076,-2.9317844,-0.13599046,-3.0233283,0.21810913,-0.5278206,0.806654,0.760319,-0.04592701,0.08940704,0.64172584,0.49046052,-0.5309407,-1.3125886,1.0,0.0,0.0,0.0,0.0,0.0,0.0,-1.1468872,0.21951446,-0.46907598,-23.150003,-0.4155159,0.14150143,-9.96641,-1.6529799,-0.4521191,-2.3516243
-131.11252,9.818079,-21.248075,51.754158,6.5578876,3.1750193,-1.426517,-0.39262867,-0.81096345,-0.6981825,-0.6943576,-0.6699066,0.6031962,-0.029999377,1.255568,-0.8895614,-1.9573617,-1.2373545,2.1284616,1.6436696,-0.9584157,1.2977892,-0.8230868,-1.9005458,-1.1788403,2.1854005,1.5879467,-0.9557934,0.15172091,-1.4631381,-1.2942866,-1.1197855,-1.0080801,0.45789275,-0.03946232,0.46759796,-0.6208725,0.9881289,-2.928853,-0.1358545,-3.1184912,0.22093964,-0.53380203,0.79324657,0.75938785,-0.03685148,0.09131255,0.6431438,0.21481754,-0.60888064,-1.3551865,1.0,0.0,0.0,0.0,0.0,0.0,0.0,-1.1175979,0.22087249,-0.4381289,-57.646362,-0.38297176,2.3411274,-11.025763,-1.0809422,-0.72141886,-0.6856829
-149.52423,14.127049,-22.123962,58.11369,7.6865387,3.9641254,-1.3936439,-0.6166214,-0.79397714,-0.6283262,-0.77687174,-0.5678895,0.59464854,0.34985906,1.2361271,-0.90248454,-1.9633784,-1.2565274,2.1286116,1.6474115,-0.9208075,1.2943808,-0.8376284,-1.912976,-1.1910607,2.1756616,1.592469,-0.9558983,-0.5017417,-1.4529372,-1.2259554,-1.2524915,-0.9667558,0.4493251,-0.0010373842,0.4383316,-0.6222305,0.95623094,-2.9259248,-0.13571867,-3.2135592,0.2206726,-0.5405884,0.7795254,0.75979805,-0.02719741,0.09305711,0.64289004,-0.108480185,-0.6916001,-1.3823518,1.0,0.0,0.0,0.0,0.0,0.0,0.0,-1.0883316,0.22223052,-0.40623093,-64.32434,0.48921108,6.788039,-12.151527,2.894485,-1.1782885,3.8047633
-105.10874,44.643467,-0.77751756,48.655846,5.970256,4.0016484,-0.7170849,-0.6117678,-0.7833297,-0.43785974,-0.7607896,-0.5221041,0.65065753,0.46606594,1.233204,-0.9159614,-1.956762,-1.2671397,2.1234512,1.6575347,-0.9092917,1.2857558,-0.8520108,-1.9238861,-1.2042404,2.1664948,1.5969589,-0.9555063,-0.98043716,-1.4346852,-1.0467244,-1.3369035,-0.9028821,0.44818875,0.053416144,0.40908813,-0.62358856,0.923383,-2.9229996,-0.13558298,-3.308532,0.21772003,-0.54772186,0.76591134,0.76102865,-0.017481618,0.09420605,0.6416034,-0.35886618,-0.7106252,-1.3584613,1.0,0.0,0.0,0.0,0.0,0.0,0.0,-1.0590881,0.22358856,-0.373383,-47.152245,1.4344215,17.697239,-7.563591,5.5081367,-0.3303945,5.7032833
-64.91017,45.850857,4.3365083,33.329227,3.8506477,2.5820868,-0.38133234,-0.6288533,-0.7888359,-0.61072534,-0.7657394,-0.5538172,0.62941456,0.4807654,1.2228705,-0.9308944,-1.9849586,-1.2808144,2.111113,1.6599003,-0.9074298,1.2739207,-0.866252,-1.9339626,-1.2179562,2.1578202,1.6014278,-0.954587,-1.2495992,-1.421466,-0.9951417,-1.3808056,-0.8574948,0.4453999,0.10558682,0.37987518,-0.6249466,0.88958603,-2.9200773,-0.13544743,-3.40341,0.2129898,-0.5549469,0.7523599,0.7626671,-0.0077247024,0.094830506,0.63975483,-0.5151943,-0.71533227,-1.3571471,1.0,0.0,0.0,0.0,0.0,0.0,0.0,-1.0298752,0.22494659,-0.33958602,-26.46203,1.0522366,4.975331,-3.698659,3.9568663,-0.55356026,5.4708614
-39.410397,43.049007,5.7622595,23.066,2.5444062,1.5183364,-0.23100427,-0.69214886,-0.7910395,-0.70383143,-0.7639608,-0.5245329,0.61486584,0.4664892,1.2047057,-0.94535595,-2.0043457,-1.2943523,2.105367,1.6629144,-0.90793806,1.2604586,-0.8804093,-1.9443538,-1.231857,2.1495767,1.6058586,-0.9532118,-1.3774216,-1.4144485,-1.0539606,-1.3914045,-0.8148918,0.44119158,0.1488266,0.35069275,-0.626297,0.854841,-2.917158,-0.135312,-3.498193,0.20716858,-0.5622139,0.73864037,0.76452327,0.0022904212,0.095113605,0.63753617,-0.61152893,-0.7182001,-1.3794422,1.0,0.0,0.0,0.0,0.0,0.0,0.0,-1.0006927,0.22629699,-0.30484098,-12.496519,0.5070448,-5.965185,-0.50718784,3.831923,-0.73839426,4.517457
-25.184065,40.58961,6.440627,17.078106,1.9947687,0.9445007,-0.16716969,-0.74663,-0.7961825,-0.7455517,-0.7680356,-0.41594598,0.5908669,0.3766714,1.1857955,-0.9600276,-2.018909,-1.3086605,2.1079822,1.6649452,-0.9155446,1.2463022,-0.8945561,-1.9557426,-1.2457463,2.1419854,1.6102283,-0.95152664,-1.4278278,-1.4151946,-1.1674389,-1.3865917,-0.7417815,0.43454465,0.1756009,0.32154083,-0.6276474,0.81914884,-2.9142413,-0.13517672,-3.5928812,0.20059204,-0.5695305,0.72458637,0.7665184,0.012730076,0.09501948,0.6350266,-0.67827475,-0.7228189,-1.4164392,1.0,0.0,0.0,0.0,0.0,0.0,0.0,-0.9715408,0.2276474,-0.26914883,-4.843521,-0.23005009,-11.372638,0.9538889,6.9687366,-1.0167122,2.857706
-17.7979,43.733997,9.395689,15.305111,2.0967283,0.9074851,-0.15077126,-0.7844085,-0.7939381,-0.7486298,-0.7613863,-0.19792774,0.56243604,0.23071516,1.1678613,-0.9739499,-2.0306056,-1.3218849,2.1221926,1.666472,-0.9284551,1.2318884,-0.9087201,-1.9681995,-1.2595116,2.1356912,1.614516,-0.94972897,-1.445474,-1.4171904,-1.2716337,-1.3719357,-0.59274113,0.42576733,0.18201412,0.29241943,-0.6289978,0.7825105,-2.9113276,-0.13504156,-3.687475,0.19342041,-0.57688904,0.7102079,0.7686467,0.023596162,0.0942099,0.6322577,-0.738714,-0.726302,-1.4473553,1.0,0.0,0.0,0.0,0.0,0.0,0.0,-0.9424194,0.2289978,-0.2325105,-1.6246796,-0.32627583,-10.425687,1.8592358,14.642739,-1.213336,0.88097155
-16.006062,47.668655,12.260904,16.691517,2.868706,1.0870497,-0.23147058,-0.80397373,-0.7963375,-0.75754106,-0.73020756,0.1754702,0.52817965,0.013390195,1.151491,-0.98835385,-2.0439537,-1.3325324,2.1532383,1.667334,-0.94838995,1.2173868,-0.9229174,-1.9814765,-1.2729908,2.1318727,1.6186988,-0.9480562,-1.4514816,-1.4209436,-1.3461487,-1.3388058,-0.31185707,0.4145208,0.1635252,0.26332855,-0.6303482,0.744927,-2.9084167,-0.13490656,-3.7819738,0.18553162,-0.58434296,0.6956413,0.771006,0.03477471,0.09203875,0.6291814,-0.81135416,-0.73688745,-1.4621739,1.0,0.0,0.0,0.0,0.0,0.0,0.0,-0.9133285,0.2303482,-0.19492698,-0.5040169,-0.49090385,-7.424426,3.6451101,27.905708,-1.4512062,-1.4946371
-16.018429,53.91639,15.394875,18.891546,3.2236655,1.3932643,-0.37084916,-0.81963,-0.79122156,-0.7652064,-0.69102913,0.37464324,0.5084216,-0.259467,1.1354239,-1.0020396,-2.0579972,-1.3420937,2.169337,1.669541,-0.9740029,1.2028166,-0.93712336,-1.9952514,-1.2859894,2.1311936,1.6227634,-0.94678307,-1.4585799,-1.4208341,-1.3876818,-1.2860572,0.013046219,0.4027178,0.116488345,0.23426819,-0.6316986,0.70639116,-2.9055088,-0.13477167,-3.8774438,0.17687225,-0.5918884,0.6810575,0.7737359,0.046073962,0.088137634,0.6256529,-0.89187014,-0.74500483,-1.4597324,0.0,1.0,0.0,0.0,0.0,0.0,0.0,-0.88426816,0.2316986,-0.15639114,-0.64480305,-0.09815693,-4.0872097,5.5534124,32.381268,-1.4804304,-4.322089
-17.010061,62.049835,18.568321,21.780647,2.6927948,1.8193429,-0.4833276,-0.8339502,-0.77747875,-0.7689996,-0.60775745,0.21785407,0.548414,-0.2761947,1.1194216,-1.0148712,-2.0721514,-1.3467652,2.1529791,1.6776048,-0.97440255,1.18806,-0.9511572,-2.0099602,-1.29865,2.1331067,1.6261319,-0.9460169,-1.4800609,-1.3988919,-1.494001,-1.2546111,0.24373992,0.30329826,0.06568284,0.21508789,-0.6336403,0.698575,-1.7410879,-0.16041178,0.07689278,0.1674881,-0.5995445,0.666332,0.77691233,0.057907395,0.082958795,0.62142724,-0.9593441,-0.7562754,-1.4785416,0.0,1.0,0.0,0.0,0.0,0.0,0.0,-0.86508787,0.23364028,-0.14857501,-1.0513544,0.7723808,-1.4112234,10.122442,18.776518,-1.5581608,-4.544097
46.27453,176.0,110.0,110.0,0.86857444,12.854035,-1.4548693,-0.7357379,0.56132644,0.70592093,0.70704305,-0.4143736,0.6901429,-0.33984765,1.1144862,-0.89502454,-1.9393681,-1.2279457,2.0916693,1.6951462,-0.9800017,1.1770413,-0.9674727,-2.018299,-1.2967083,2.1236997,1.6386632,-0.944553,-0.9718083,-1.6762154,-0.6595376,0.6623707,-1.2900072,1.597012,0.18670169,0.19769287,-0.63524246,0.6985989,-1.7393472,-0.1602514,-0.022435255,0.15731812,-0.60547256,0.65618366,0.7806767,0.058549352,0.081472605,0.616829,-1.0408576,-0.5217118,-0.8620435,1.0,0.0,0.0,0.0,0.0,0.0,0.0,-0.84769285,0.23524246,-0.14859891,51.98288,-17.873335,69.83763,187.23662,-139.68845,137.52495,16.129175
-21.169237,176.0,82.96226,91.33787,5.0342836,6.600182,-1.6344051,-0.81494844,-0.5998139,0.17667796,0.7512677,-0.5297606,0.5740422,-0.25382334,1.0955465,-1.027454,-2.0006313,-1.2215816,2.0707235,1.6960673,-0.96993536,1.167207,-0.98423445,-2.018837,-1.2829258,2.1076665,1.6543511,-0.94336283,-0.98571867,-1.6762149,0.14937413,1.6176082,-1.7104769,1.5653827,0.09838468,0.18031311,-0.63684464,0.6976303,-1.7376082,-0.16009118,-0.12166398,0.1461029,-0.610302,0.65112233,0.7856081,0.05115518,0.08222871,0.6110985,-1.1499578,-0.45856208,-0.39166218,1.0,0.0,0.0,0.0,0.0,0.0,0.0,-0.8303131,0.23684463,-0.14763027,-0.93785524,0.0,81.29562,95.71671,-42.93389,-1.3063908,-8.24942
-52.083523,150.58812,44.111633,64.52831,4.1891637,3.756785,-1.5972049,-0.8016097,-0.47012672,-0.29844153,0.6959272,-0.59217376,0.64351,-0.12384102,1.087046,-1.0312471,-2.048681,-1.2133331,2.048449,1.7187021,-0.95574695,1.1565125,-0.9989325,-2.0165596,-1.2639725,2.0907369,1.6692227,-0.942618,-1.0955939,-1.4021491,0.25337836,1.9897817,-1.6891748,1.4645383,0.06656005,0.16294861,-0.6384468,0.6956701,-1.735871,-0.15993112,-0.2207935,0.13370514,-0.6147156,0.64905304,0.791749,0.04126599,0.08425699,0.6035987,-1.2718699,-0.42758763,-0.15287907,1.0,0.0,0.0,0.0,0.0,0.0,0.0,-0.8129486,0.2384468,-0.14567012,-10.440707,27.086662,10.27202,37.74426,1.5883684,-9.034634,-3.1615212
-52.30306,113.02004,24.120655,38.629265,3.0088706,2.0670116,-1.0050665,-0.80949295,-0.49992236,-0.15890494,0.7567123,-0.5704187,0.57283735,-0.13916193,1.0755632,-1.0489247,-2.0324502,-1.1883013,2.033695,1.7265065,-0.9565342,1.1443589,-1.0109087,-2.0146523,-1.2441304,2.0754972,1.682679,-0.9421793,-1.2543242,-1.1301448,0.1682353,1.983116,-1.469459,1.3079417,0.03586568,0.145607,-0.64004517,0.6927194,-1.7341355,-0.15977122,-0.3198239,0.12030029,-0.6188545,0.64827466,0.7986988,0.03158999,0.08697215,0.59457386,-1.3655484,-0.4001613,-0.06118262,1.0,0.0,0.0,0.0,0.0,0.0,0.0,-0.795607,0.24004516,-0.14271939,-15.573001,26.97463,-8.974976,-0.3773451,21.841192,-15.055633,-3.187909
-44.132492,71.41504,6.5122194,18.527843,1.7213945,0.5888596,-0.5732216,-0.81625,-0.49914178,-0.26179448,0.7605259,-0.5391754,0.58127415,-0.19166051,1.0627339,-1.0608228,-2.0408318,-1.1680778,2.0215795,1.7408065,-0.9613454,1.1308014,-1.0206972,-2.01482,-1.2257035,2.0627484,1.6946458,-0.94204295,-1.3892419,-0.9287761,-0.08010989,1.7961504,-1.2094655,1.1603549,0.0055769496,0.12828064,-0.6416397,0.6887791,-1.7324017,-0.15961148,-0.41875532,0.10622406,-0.6228409,0.64748955,0.806082,0.023592964,0.089949146,0.58445203,-1.4251301,-0.38793606,-0.09127155,0.0,1.0,0.0,0.0,0.0,0.0,0.0,-0.7782806,0.2416397,-0.1387791,-13.39891,20.022785,-25.333017,-18.577362,26.135422,-14.483905,-3.2191906
-26.506115,54.09475,4.242923,8.011482,0.8351608,-0.023118794,-0.24004988,-0.81237,-0.46695608,-0.2725996,0.7639559,-0.45638496,0.57735515,-0.3164228,1.0495645,-1.0673928,-2.0420802,-1.1493078,2.0171099,1.7523813,-0.9736852,1.1162903,-1.0290343,-2.0174103,-1.209369,2.052487,1.7052697,-0.942268,-1.4717174,-0.802304,-0.31990412,1.5792379,-0.96522605,1.0301523,-0.03250718,0.11096954,-0.64323425,0.6838503,-1.7306696,-0.1594519,-0.51758784,0.091804504,-0.6267204,0.64612114,0.8136305,0.01763427,0.09287947,0.57364434,-1.4503924,-0.37732536,-0.1572835,0.0,1.0,0.0,0.0,0.0,0.0,0.0,-0.7609695,0.24323425,-0.13385028,-8.259988,12.559485,-24.24524,-21.670986,24.405193,-12.955761,-3.9668493
-10.308736,44.726814,7.0366454,3.6079302,0.688217,-0.18214864,-0.00535346,-0.8088567,-0.487637,-0.2284212,0.76050335,-0.31912488,0.57833016,-0.36305943,1.0354047,-1.077798,-2.0402524,-1.1333187,2.0205743,1.7631028,-0.978574,1.1013367,-1.0367781,-2.021637,-1.1948502,2.0445447,1.7147454,-0.9428717,-1.5032163,-0.76516783,-0.4571266,1.4094658,-0.7374552,0.9197199,-0.06983822,0.093673706,-0.6448288,0.6779338,-1.7289393,-0.15929247,-0.6163215,0.07725525,-0.6305275,0.64408594,0.8211648,0.013363002,0.0953026,0.56251854,-1.4586748,-0.37009296,-0.22242087,0.0,1.0,0.0,0.0,0.0,0.0,0.0,-0.7436737,0.24482879,-0.1279338,-3.19767,3.6431193,-13.757563,-16.981554,22.597778,-11.103559,-3.7762477
-1.0355101,49.231422,12.888557,5.1559525,0.8711376,0.011612713,0.039363444,-0.8080863,-0.46447963,-0.22200705,0.76105547,-0.19030714,0.57793814,-0.3818795,1.0205281,-1.0832261,-2.0438378,-1.1187446,2.025514,1.7725393,-0.9810597,1.0863253,-1.0444217,-2.0265942,-1.1814928,2.0387163,1.7231914,-0.94381857,-1.5001041,-0.7639422,-0.5146471,1.3076103,-0.53659636,0.8072281,-0.10225294,0.07596588,-0.6460953,0.6724497,-1.8553932,-0.0504613,-0.21704042,0.062675476,-0.6342583,0.64158815,0.828621,0.010237687,0.096935265,0.55125844,-1.458336,-0.36298367,-0.26432258,0.0,1.0,0.0,0.0,0.0,0.0,0.0,-0.72596586,0.24609527,-0.122449696,0.33843517,0.094497204,-6.6972375,-10.757327,19.030666,-13.396538,-3.1109347
10.978667,97.103836,34.658154,14.084665,0.6855402,1.0950277,0.03814111,-0.8094547,-0.28235283,-0.08989817,0.77325046,-0.15845726,0.5767805,-0.40839553,1.0053798,-1.072657,-2.035584,-1.1041677,2.0228705,1.7808695,-0.9846581,1.0714499,-1.0513587,-2.0310612,-1.168626,2.034528,1.7306774,-0.9450793,-1.484062,-0.67097133,-0.4224607,1.2791133,-0.3806362,0.729725,-0.1344619,0.057426453,-0.6463356,0.67083097,-1.846339,-0.016685134,-0.14551105,0.04824066,-0.6375694,0.6394865,0.8359295,0.0073720575,0.09805088,0.5399568,-1.4410502,-0.30836773,-0.19425897,0.0,1.0,0.0,0.0,0.0,0.0,0.0,-0.7074264,0.2463356,-0.12083095,1.431489,9.115911,9.663523,-3.0153275,15.247959,-7.5416684,-3.3483312
13.180267,118.641136,43.33195,19.32328,0.74116296,1.5978388,0.008587118,-0.81649584,-0.20956254,-0.040096752,0.7607167,-0.10084587,0.58501494,-0.39458036,0.9898003,-1.072315,-2.035071,-1.0925543,2.0244434,1.7891788,-0.98453736,1.0567156,-1.057054,-2.0341854,-1.1558027,2.0316553,1.7375268,-0.9466167,-1.4705305,-0.53638303,-0.27381098,1.2827853,-0.25822648,0.6702472,-0.16086207,0.039237976,-0.64621353,0.6702555,-1.8093389,0.021853939,-0.028627198,0.033988953,-0.64019775,0.63843745,0.843062,0.003995945,0.09889237,0.5286311,-1.419172,-0.23540394,-0.07680649,0.0,1.0,0.0,0.0,0.0,0.0,0.0,-0.68923795,0.24621353,-0.12025547,1.1622667,13.232756,15.433872,0.17323494,11.657518,-5.8965683,-2.827725
15.389863,134.6477,49.14598,22.527054,0.37107787,1.9294128,0.009693671,-0.8112252,-0.11456993,0.035276815,0.7656273,-0.2081362,0.6182388,-0.4148265,0.9755931,-1.068511,-2.0306578,-1.07924,2.0108416,1.7993506,-0.98809934,1.0421071,-1.0611434,-2.0356007,-1.1427927,2.029348,1.7439156,-0.94840205,-1.4584509,-0.36746025,-0.09541149,1.306593,-0.22342192,0.628827,-0.18524382,0.021476746,-0.64564514,0.67108774,-1.7648475,0.0684805,0.12066158,0.020095825,-0.6419487,0.6387905,0.8499597,-0.0002637437,0.09992288,0.5172851,-1.3836104,-0.14434023,0.071123816,0.0,1.0,0.0,0.0,0.0,0.0,0.0,-0.6714767,0.24564514,-0.12108773,1.0082006,16.63419,18.476892,2.2040606,2.8669298,-4.0388107,-2.685544
7.447134,131.79015,43.939793,23.925255,0.19219255,1.7271936,-0.08915295,-0.8187158,-0.00890741,-0.04691129,0.7612033,-0.23983954,0.6231265,-0.38964388,0.96023554,-1.0620341,-2.0402918,-1.0666723,2.005364,1.8062282,-0.98736644,1.0275483,-1.063375,-2.0359707,-1.1295481,2.0270247,1.7499652,-0.95038253,-1.455603,-0.17596678,-0.01611167,1.3302511,-0.23694131,0.5972166,-0.20306821,0.004135132,-0.6446228,0.67327076,-1.7239679,0.11343546,0.25197384,0.006515503,-0.6428299,0.64048624,0.85663265,-0.0052438993,0.1016716,0.5057825,-1.3505416,-0.05841554,0.20107493,0.0,1.0,0.0,0.0,0.0,0.0,0.0,-0.6541351,0.2446228,-0.12327075,0.12328625,18.895058,8.448325,2.277565,-1.8447548,-3.0686975,-2.023983
-3.3036375,104.08782,29.727571,20.99117,0.13653278,1.0956788,-0.16861294,-0.82336277,0.0048432243,-0.15154354,0.75959575,-0.29109913,0.6233219,-0.3851275,0.945212,-1.0628906,-2.051125,-1.0535885,1.9979148,1.8122973,-0.9888953,1.0129647,-1.0640464,-2.036489,-1.1161146,2.0242932,1.7557447,-0.9525093,-1.4595886,-0.031580027,-0.062361382,1.3476938,-0.28645703,0.57180136,-0.2165377,-0.012886047,-0.64323807,0.6762863,-1.6949971,0.1473023,0.31920147,-0.006843567,-0.6430435,0.6429973,0.86313623,-0.01037828,0.10444013,0.4939435,-1.3305523,0.0016159578,0.2667898,0.0,1.0,0.0,0.0,0.0,0.0,0.0,-0.6371139,0.24323806,-0.12628627,-0.5024195,14.244231,-4.3058863,1.7250061,-5.2558603,-2.472937,-1.5350997
-5.8498244,91.42089,23.69298,18.830513,-0.083256125,0.7846157,-0.15708606,-0.8177907,0.06672572,-0.17601831,0.7691324,-0.38238752,0.63683355,-0.384059,0.93118566,-1.0573738,-2.0540907,-1.0392014,1.9860544,1.8194281,-0.9909152,0.99835443,-1.0634723,-2.0378544,-1.1025226,2.0207949,1.7613174,-0.9547496,-1.4617785,0.08666744,-0.1603371,1.3630772,-0.37177807,0.5525788,-0.22714871,-0.029640198,-0.64154434,0.67977196,-1.6689074,0.17722581,0.35994357,-0.019989014,-0.64273834,0.6459389,0.8694687,-0.015294202,0.108406164,0.48170355,-1.3098409,0.05137119,0.30272186,0.0,1.0,0.0,0.0,0.0,0.0,0.0,-0.6203598,0.24154434,-0.12977195,-0.31337738,11.655099,-9.529964,1.5127659,-8.782852,-1.8568873,-1.2509316
-7.676076,66.11037,15.261738,14.404905,0.17733917,0.39860988,-0.11502835,-0.81923395,0.021234326,-0.17781685,0.7689309,-0.36214584,0.63854325,-0.4230698,0.91643107,-1.0613488,-2.0556362,-1.0256295,1.9845803,1.8251717,-0.99705654,0.98372316,-1.0623355,-2.040166,-1.0888239,2.0165832,1.7667229,-0.95710903,-1.4637462,0.12238516,-0.2536976,1.3721042,-0.4382396,0.53685796,-0.23941305,-0.046195984,-0.6396179,0.6833405,-1.6514848,0.1980002,0.35683227,-0.03302765,-0.642086,0.6489085,0.87563086,-0.01978263,0.11325815,0.46909678,-1.3013563,0.080056995,0.2947773,0.0,1.0,0.0,0.0,0.0,0.0,0.0,-0.603804,0.23961791,-0.13334048,-0.25646687,3.4583344,-9.127847,0.8740425,-6.8280754,-1.5291452,-1.3783753
-5.2684684,69.3999,17.38418,14.567006,0.34952083,0.46662802,-0.07273623,-0.81909204,0.08590405,-0.17012532,0.7764372,-0.35053033,0.63052493,-0.41303635,0.901814,-1.053745,-2.0571785,-1.0111802,1.9815302,1.8297755,-0.99841267,0.9690795,-1.0608649,-2.0431488,-1.0750432,2.011906,1.7719873,-0.9595715,-1.4648705,0.15480289,-0.3121069,1.3799438,-0.47861648,0.52311826,-0.2490406,-0.062568665,-0.63746643,0.68695843,-1.6320295,0.22125578,0.36422735,-0.04598236,-0.64113235,0.6518694,0.88160133,-0.023909539,0.118712656,0.45619595,-1.2925272,0.11111336,0.29630515,0.0,1.0,0.0,0.0,0.0,0.0,0.0,-0.5874313,0.23746642,-0.13695842,-0.19316673,3.1160474,-5.5574656,0.7356167,-4.2881308,-1.3768196,-1.1197567
-4.808633,66.255455,16.46181,13.801851,0.5177345,0.39419383,-0.051962573,-0.81895757,0.09834293,-0.21604726,0.7729915,-0.32422706,0.62379825,-0.40963548,0.8871837,-1.0510306,-2.0647535,-0.9977441,1.9794832,1.8343672,-1.000535,0.9544301,-1.0591598,-2.046681,-1.0612283,2.0070534,1.7771274,-0.9621148,-1.4652168,0.17535529,-0.36587453,1.3818015,-0.4885171,0.5108947,-0.2566217,-0.07875061,-0.6350899,0.6906136,-1.613497,0.24363178,0.36664715,-0.058891296,-0.63988876,0.65480655,0.88737,-0.027709961,0.12455119,0.44305038,-1.2868396,0.13847914,0.29279968,0.0,1.0,0.0,0.0,0.0,0.0,0.0,-0.57124937,0.23508987,-0.14061362,-0.11866093,1.9362628,-5.083692,0.12578964,-1.2456715,-1.2518406,-0.91108084
-9.757765,51.450645,10.069284,12.38805,0.6943749,0.12851548,-0.08456376,-0.8245473,0.065326445,-0.32143882,0.7758918,-0.31768048,0.61458045,-0.39722234,0.87197536,-1.0526271,-2.0788248,-0.9836391,1.9752853,1.8385854,-1.001837,0.9397559,-1.0574889,-2.0510676,-1.0473981,2.0022125,1.7821509,-0.9647145,-1.4682636,0.1638891,-0.46232083,1.3831275,-0.48302013,0.49934947,-0.2615593,-0.09480286,-0.63253784,0.6940683,-1.6023147,0.25916636,0.3392742,-0.07181549,-0.63848114,0.65749395,0.8929719,-0.03100213,0.1306256,0.4296243,-1.2942077,0.15177974,0.26066592,0.0,1.0,0.0,0.0,0.0,0.0,0.0,-0.5551971,0.23253784,-0.1440683,-0.34573078,-1.2330145,-9.462613,0.09636879,0.40189028,-1.1830807,-0.6285429
-9.860359,52.341915,10.074726,12.684992,0.6507374,0.12751508,-0.07594091,-0.82225466,0.08613153,-0.364087,0.78429323,-0.34691396,0.6114711,-0.37901625,0.8575305,-1.0488758,-2.0874763,-0.96896875,1.9675211,1.843298,-1.0026162,0.9250628,-1.0558982,-2.0564728,-1.033526,1.9973775,1.787068,-0.9673419,-1.4697082,0.15710089,-0.56604874,1.38845,-0.48409152,0.48918378,-0.26359907,-0.11073303,-0.6298256,0.69727373,-1.5897136,0.27572235,0.31531096,-0.08483124,-0.6369362,0.6598748,0.89840466,-0.03371448,0.13695495,0.4159033,-1.3004183,0.1662574,0.23070681,0.0,1.0,0.0,0.0,0.0,0.0,0.0,-0.53926694,0.22982559,-0.14727372,-0.18942356,-0.77596605,-10.170042,0.49450397,-0.27046204,-1.0646462,-0.35178065
-6.715265,51.79161,10.693311,11.634471,0.5698856,0.115994215,-0.0173564,-0.8137409,0.06719818,-0.37848648,0.78413355,-0.36088026,0.6216443,-0.37442127,0.84368867,-1.0491784,-2.0943215,-0.9551126,1.9612895,1.8492324,-1.004784,0.91040194,-1.0544562,-2.0627592,-1.019606,1.9924903,1.791905,-0.96997976,-1.4650936,0.13967986,-0.6484503,1.3929595,-0.49097666,0.48177773,-0.26438853,-0.12651825,-0.6269417,0.70024765,-1.5747012,0.29277366,0.29246935,-0.09786224,-0.63523483,0.66195446,0.9036312,-0.035893954,0.1435076,0.40195492,-1.3015928,0.18129829,0.2009438,0.0,1.0,0.0,0.0,0.0,0.0,0.0,-0.5234817,0.22694167,-0.15024763,0.40314198,-1.8387586,-7.9910874,0.39818287,-0.88781714,-0.79656243,-0.23513436
-5.621475,53.36302,11.466768,11.632538,0.5720599,0.14662904,0.01996666,-0.8150533,0.0610103,-0.41114497,0.7833489,-0.36710593,0.6130479,-0.34726197,0.82889664,-1.0483552,-2.1038737,-0.9412711,1.9557797,1.8532099,-1.0047059,0.895785,-1.0531974,-2.0697513,-1.0056556,1.9875153,1.7966732,-0.9726024,-1.4607596,0.12111488,-0.7152316,1.3953682,-0.50042075,0.47500628,-0.2620656,-0.14214325,-0.6238823,0.7030159,-1.5575683,0.3110119,0.27337494,-0.11088562,-0.63337326,0.66376233,0.90861946,-0.037597362,0.15024479,0.38784468,-1.3006123,0.19829111,0.1746611,0.0,1.0,0.0,0.0,0.0,0.0,0.0,-0.5078567,0.22388229,-0.15301591,0.36160946,-1.960659,-6.380284,0.18024445,-1.1832237,-0.7496238,0.0695467
-8.68531,49.653713,9.381491,11.840555,0.650573,0.074647784,0.0238213,-0.8223005,0.036623187,-0.48311505,0.7843007,-0.37752867,0.5931854,-0.296958,0.81355494,-1.049535,-2.1180627,-0.9272256,1.9497625,1.8559917,-1.0022982,0.8811699,-1.0521979,-2.0775177,-0.99168926,1.9824243,1.801367,-0.97516304,-1.4619287,0.092531964,-0.79620177,1.396998,-0.51272315,0.46720102,-0.25462332,-0.15760803,-0.62065125,0.7055255,-1.542676,0.3272656,0.24456832,-0.12395477,-0.6313667,0.6652364,0.913365,-0.03875775,0.15715791,0.3735819,-1.3056114,0.21161465,0.13901384,0.0,1.0,0.0,0.0,0.0,0.0,0.0,-0.49239194,0.22065124,-0.1555255,-0.17085075,-2.959898,-7.8266144,0.12559891,-1.446557,-0.8594334,0.584811
-7.673108,47.86795,8.961412,11.208203,0.6153182,0.041171193,0.055874728,-0.8144143,0.0127178375,-0.5145139,0.78761506,-0.39330316,0.6016374,-0.27443257,0.7997285,-1.0509262,-2.1289692,-0.91292775,1.9430939,1.8615308,-1.0026063,0.8665691,-1.0515494,-2.0860546,-0.9776987,1.9771818,1.805996,-0.97763413,-1.4597168,0.05543525,-0.8719207,1.3996792,-0.52885014,0.46120113,-0.24515736,-0.17292023,-0.6172638,0.7077208,-1.5271382,0.34270406,0.21284299,-0.13706207,-0.6292343,0.6663305,0.9178557,-0.039349288,0.1642217,0.35919875,-1.3095185,0.22384444,0.10038979,0.0,1.0,0.0,0.0,0.0,0.0,0.0,-0.47707975,0.21726379,-0.1577208,0.16686916,-3.8087747,-7.291043,0.23355484,-1.8351316,-0.6833494,0.78546107
-9.190879,46.412254,8.19278,11.354977,0.64577764,0.05150819,0.07016163,-0.8224701,-0.011380771,-0.5501067,0.7868936,-0.4234724,0.5895943,-0.24604578,0.7843221,-1.0526875,-2.1410651,-0.89900935,1.9348346,1.8649554,-1.0022388,0.8519521,-1.0513167,-2.0953088,-0.9636871,1.9717107,1.8105618,-0.97999555,-1.4625636,0.012313418,-0.9425925,1.4015503,-0.5539462,0.45488775,-0.2337144,-0.18807983,-0.61372757,0.7095754,-1.5119491,0.35765994,0.17831284,-0.15020752,-0.62698746,0.66702,0.9220804,-0.039357677,0.17142944,0.3447182,-1.3158201,0.23628293,0.05926279,0.0,1.0,0.0,0.0,0.0,0.0,0.0,-0.46192014,0.21372756,-0.1595754,-0.33388138,-4.4149494,-6.7754984,0.17135143,-2.7432203,-0.7251084,0.98561645
-10.368582,39.746082,6.058227,10.318593,0.6956024,-0.015098512,0.094117835,-0.82440114,-0.06454021,-0.58692414,0.7871435,-0.42819276,0.5836221,-0.20270957,0.76951194,-1.0577707,-2.1540012,-0.88497275,1.9288914,1.868924,-1.0002666,0.8372941,-1.0516696,-2.1052418,-0.94965935,1.966001,1.8150661,-0.98222035,-1.4669197,-0.051626284,-1.0093774,1.4032218,-0.57706475,0.44867027,-0.21912846,-0.20311737,-0.61006546,0.7109897,-1.5002847,0.36933333,0.131377,-0.16348267,-0.6246376,0.66721714,0.9260407,-0.038742825,0.17870058,0.3301721,-1.3275383,0.2448022,0.0073449854,0.0,1.0,0.0,0.0,0.0,0.0,0.0,-0.4468826,0.21006545,-0.1609897,-0.46172142,-6.483789,-6.4273357,0.18706322,-2.5075555,-0.7148862,1.3215601
-7.69631,46.1732,8.157438,10.686006,0.5782249,0.03857076,0.15313494,-0.81770384,-0.06224431,-0.6187103,0.78531116,-0.46355483,0.57357556,-0.117121235,0.75552374,-1.057894,-2.1671128,-0.8711282,1.9196455,1.8724236,-0.9939325,0.8226275,-1.0525432,-2.1158004,-0.93563145,1.9600071,1.8195091,-0.984246,-1.4668101,-0.09975169,-1.07044,1.4025838,-0.6075739,0.4425029,-0.19762185,-0.21799469,-0.60626984,0.71201766,-1.4827186,0.38337427,0.09541252,-0.17680359,-0.6221695,0.66696656,0.9297039,-0.037519462,0.18606532,0.31563038,-1.3308089,0.25763246,-0.03511035,0.0,1.0,0.0,0.0,0.0,0.0,0.0,-0.4320053,0.20626983,-0.16201764,-0.046682358,-4.91952,-5.77507,-0.07190704,-3.324473,-0.7273495,1.9830644
-7.5476933,34.74484,5.227908,8.137518,0.58158886,-0.0744465,0.20085117,-0.8190064,-0.15493497,-0.6293151,0.78159946,-0.4726853,0.5733755,-0.07890424,0.7407268,-1.0680367,-2.178732,-0.8574715,1.9127386,1.8768467,-0.9921364,0.8079676,-1.0541778,-2.1268432,-0.9216274,1.9537244,1.8238956,-0.98604256,-1.465789,-0.18500315,-1.1145945,1.3998221,-0.6356952,0.4369823,-0.17404598,-0.23274231,-0.60237503,0.7125293,-1.4713737,0.39175177,0.038888775,-0.19019318,-0.6196289,0.6661569,0.93307143,-0.035674475,0.19338354,0.3011771,-1.3399986,0.26349247,-0.09533962,0.0,1.0,0.0,0.0,0.0,0.0,0.0,-0.41725767,0.20237502,-0.16252929,0.07958412,-8.600593,-4.1627884,-0.2327919,-3.0103087,-0.64587,2.2354631
-4.8240156,35.643833,6.1810303,7.5511165,0.5894465,-0.05406314,0.2554542,-0.81100523,-0.19139841,-0.62877613,0.7844855,-0.4807827,0.57793725,0.02042897,0.7268671,-1.0733176,-2.1897209,-0.84317887,1.9056461,1.8816893,-0.98399967,0.7933572,-1.0566993,-2.1381571,-0.90763766,1.9471961,1.8282348,-0.9875494,-1.4595907,-0.27482036,-1.1361895,1.3988426,-0.6591472,0.43276152,-0.14320901,-0.24736023,-0.5984001,0.7124885,-1.458341,0.3999012,-0.016146502,-0.20367432,-0.61702347,0.66476876,0.9361421,-0.0332706,0.20053102,0.28691188,-1.346141,0.27038124,-0.15262042,0.0,1.0,0.0,0.0,0.0,0.0,0.0,-0.40263975,0.19840011,-0.16248846,0.5844593,-9.057069,-1.8691778,-0.05364418,-2.5772572,-0.5283177,2.9738426
-8.15195,23.041533,2.3258846,5.810372,0.7118521,-0.16601789,0.26060766,-0.81998616,-0.2903932,-0.64970934,0.78392464,-0.46739668,0.55198723,0.08072356,0.71135855,-1.0857385,-2.203128,-0.8292452,1.9004564,1.8834335,-0.97947705,0.77876693,-1.0603824,-2.1496584,-0.8936469,1.9405239,1.8325154,-0.9887264,-1.4587054,-0.39963147,-1.1545509,1.3996115,-0.67007554,0.426206,-0.109255604,-0.26192474,-0.59438705,0.7117185,-1.4555802,0.40232006,-0.094891265,-0.21730804,-0.6143913,0.66266346,0.93895733,-0.030278409,0.20732051,0.2728743,-1.3656323,0.27106678,-0.22925769,0.0,1.0,0.0,0.0,0.0,0.0,0.0,-0.38807523,0.19438705,-0.16171849,0.1131773,-12.532515,-1.6782522,0.21691322,-1.2070775,-0.7658243,3.3611073
-6.9937124,24.254128,2.9140472,5.6629515,0.68572736,-0.12201667,0.29350767,-0.81285214,-0.3400307,-0.6468636,0.7896223,-0.49441984,0.5600683,0.1751569,0.6974817,-1.0943854,-2.2143447,-0.8146847,1.8910819,1.8885221,-0.97121066,0.76420623,-1.0653145,-2.161259,-0.879617,1.9337125,1.8367412,-0.98952276,-1.4551338,-0.52449054,-1.1614807,1.4046053,-0.6849678,0.42101374,-0.069765426,-0.27645874,-0.5903473,0.71016735,-1.4516371,0.40502825,-0.17207143,-0.23111725,-0.6117401,0.6598099,0.94153124,-0.02671685,0.21369492,0.25911298,-1.3827107,0.27429092,-0.30362675,0.0,1.0,0.0,0.0,0.0,0.0,0.0,-0.37354124,0.19034728,-0.16016734,0.37727356,-12.543928,-0.5141735,0.6579399,-1.6184688,-0.63871145,3.929174
-7.9902725,27.306288,3.3833728,6.3152266,0.76526797,-0.06569332,0.2996882,-0.817895,-0.38694495,-0.66272724,0.78171885,-0.46917495,0.5264748,0.25577107,0.68241674,-1.104009,-2.2275317,-0.80144507,1.886795,1.8893887,-0.9639456,0.7496522,-1.0714104,-2.1729543,-0.8655739,1.9268587,1.8408952,-0.9898976,-1.4554505,-0.63816196,-1.1716359,1.404724,-0.6859012,0.41298,-0.026726495,-0.29094696,-0.586277,0.7078698,-1.4470332,0.40862188,-0.24657954,-0.2450943,-0.60902405,0.6562465,0.9438776,-0.02259922,0.21963419,0.24565247,-1.4003958,0.28139344,-0.3737974,0.0,1.0,0.0,0.0,0.0,0.0,0.0,-0.35905302,0.186277,-0.15786982,-0.015282631,-11.439812,-0.8160353,0.1837492,-0.26483536,-0.9644389,4.2977133
-2.9641495,51.253532,10.447902,10.303574,0.95829034,0.24243861,0.27689874,-0.8059935,-0.36532754,-0.6281479,0.7917432,-0.4589365,0.56383663,0.29382077,0.66905284,-1.1079432,-2.235769,-0.78639954,1.880965,1.8972788,-0.96051556,0.73513824,-1.0782158,-2.1845582,-0.851504,1.9200686,1.8450049,-0.9898524,-1.450339,-0.6951436,-1.1549703,1.4078956,-0.6779138,0.40975127,0.01470163,-0.3052597,-0.5821037,0.7051247,-1.4242733,0.42091656,-0.28105077,-0.25912476,-0.6061287,0.6522869,0.9459777,-0.01814848,0.2252459,0.23251025,-1.4002475,0.30398116,-0.4034994,0.0,1.0,0.0,0.0,0.0,0.0,0.0,-0.34474027,0.18210372,-0.15512466,0.41985512,-5.8234572,2.1585226,0.3610611,0.3558755,-0.526005,4.0623035
-7.042837,45.26412,7.778001,9.787177,0.9531881,0.18319172,0.27302453,-0.8207092,-0.44495288,-0.66360295,0.7808302,-0.45749608,0.51134515,0.35443434,0.6530673,-1.1227112,-2.2509184,-0.773421,1.874319,1.8961394,-0.954409,0.72060615,-1.0856583,-2.1961353,-0.83745223,1.9133658,1.8490492,-0.98939246,-1.4542857,-0.7610994,-1.1576912,1.4045715,-0.668696,0.40191913,0.056319043,-0.31938934,-0.57782745,0.7019321,-1.4075704,0.4303421,-0.32879525,-0.27321625,-0.6030235,0.64794207,0.94784844,-0.013332675,0.23054752,0.21966626,-1.4074494,0.3244896,-0.44523925,0.0,1.0,0.0,0.0,0.0,0.0,0.0,-0.33061063,0.17782745,-0.15193206,-0.44517517,-6.7150116,0.12612343,-0.227952,0.54985285,-0.9907782,4.110385
-7.0991235,47.214706,8.06578,10.001473,1.0433798,0.21226585,0.2674843,-0.8207725,-0.4740253,-0.6613938,0.77284753,-0.40720117,0.4842057,0.40434247,0.6385289,-1.1330608,-2.2622747,-0.7601675,1.8726457,1.8974698,-0.9489582,0.7060243,-1.0937111,-2.2077544,-0.82347876,1.9068924,1.852998,-0.9885225,-1.4597404,-0.82043,-1.1620802,1.3952583,-0.6413667,0.39176092,0.09709556,-0.3333435,-0.5734558,0.69827217,-1.3905683,0.4396646,-0.37617505,-0.2873764,-0.5996933,0.6432005,0.9495192,-0.008128991,0.23547958,0.20711486,-1.4144979,0.34726664,-0.48419827,0.0,1.0,0.0,0.0,0.0,0.0,0.0,-0.31665647,0.1734558,-0.14827216,-0.60184,-6.056583,-0.02193451,-0.8322954,2.3154259,-1.2826264,4.0527267
-6.967596,39.815853,6.062424,7.7964716,0.8833749,0.12979555,0.31088004,-0.8221341,-0.536886,-0.6666357,0.75788003,-0.40238237,0.43627772,0.46978927,0.6238109,-1.1473998,-2.2744179,-0.74769074,1.8666542,1.8966258,-0.9415436,0.69138634,-1.102483,-2.21945,-0.8096598,1.9006827,1.8568143,-0.98724,-1.4651744,-0.8965582,-1.1711404,1.3778179,-0.6149804,0.37753832,0.13868544,-0.3471756,-0.5690193,0.6940231,-1.378882,0.4456319,-0.4377752,-0.30161285,-0.5961685,0.637967,0.95101553,-0.0024769392,0.23995945,0.1948915,-1.4229321,0.3661661,-0.53703874,0.0,1.0,0.0,0.0,0.0,0.0,0.0,-0.30282438,0.16901931,-0.14402306,-0.5730629,-7.717037,-0.57713985,-1.6062021,2.3165464,-1.6438186,4.146524
-3.706349,43.09022,7.491865,7.651273,0.94266903,0.17108375,0.31149843,-0.8138811,-0.5660907,-0.6420669,0.7593334,-0.35996318,0.41350847,0.5179797,0.6099982,-1.1590921,-2.2836566,-0.73372644,1.8646864,1.8981651,-0.93544203,0.6767455,-1.111995,-2.231107,-0.79598963,1.894817,1.8604814,-0.9855474,-1.4639509,-0.9695907,-1.1628921,1.363691,-0.5780814,0.36232802,0.17945972,-0.36087036,-0.564518,0.6891956,-1.3642013,0.45170608,-0.4947857,-0.31589508,-0.59244156,0.63225573,0.9523622,0.0035517865,0.24390866,0.18303593,-1.4262099,0.38652447,-0.5830814,0.0,1.0,0.0,0.0,0.0,0.0,0.0,-0.2891296,0.16451797,-0.13919556,0.06761551,-7.4085355,1.2175083,-1.3021708,3.3136725,-1.7577231,4.0709167
-1.4526253,43.903233,8.172121,6.931404,0.9932661,0.190364,0.317118,-0.81629556,-0.6075308,-0.6145413,0.7373238,-0.3100414,0.33874455,0.5388579,0.5951159,-1.1727481,-2.292561,-0.72225726,1.8638128,1.8943559,-0.9316616,0.6621196,-1.1222413,-2.2425315,-0.7825243,1.8894118,1.8639535,-0.98347425,-1.4623997,-1.0433007,-1.1344371,1.3410846,-0.52893287,0.3413978,0.21671681,-0.37441254,-0.5599632,0.68379176,-1.3489317,0.45719603,-0.55193985,-0.3302002,-0.5885124,0.62610465,0.9535974,0.009858229,0.24721403,0.17158034,-1.4263229,0.40742582,-0.6266559,0.0,1.0,0.0,0.0,0.0,0.0,0.0,-0.27558744,0.15996322,-0.13379174,0.08790493,-7.470584,3.271699,-2.1637678,4.502845,-2.3342192,3.736335
1.9744382,44.92118,9.462912,6.0703197,1.3430972,0.20427006,0.28660437,-0.8130569,-0.65262175,-0.561127,0.70793253,-0.122411415,0.24854937,0.5562885,0.58081394,-1.1875035,-2.2986443,-0.711731,1.8771707,1.8888084,-0.9278454,0.64752364,-1.1332409,-2.2534292,-0.7693851,1.8849863,1.8671631,-0.98105705,-1.4588954,-1.1191812,-1.0735056,1.3050869,-0.4151254,0.31312418,0.2504116,-0.38780975,-0.5553589,0.67780715,-1.3358475,0.46247217,-0.61074156,-0.34452057,-0.5843582,0.61957,0.9548221,0.016229833,0.24954689,0.16055372,-1.4277955,0.42989764,-0.6633015,0.0,1.0,0.0,0.0,0.0,0.0,0.0,-0.26219022,0.15535888,-0.12780714,0.26681423,-7.676935,6.557274,-3.5285711,10.930628,-3.1197011,3.450212
3.0055616,54.048298,11.270156,7.60327,1.3155023,0.29220504,0.27619416,-0.81557405,-0.65038455,-0.55088603,0.6826147,-0.1337313,0.1592519,0.57172537,0.56596625,-1.1982794,-2.3085177,-0.70112365,1.8716131,1.8830882,-0.9238845,0.6329458,-1.1447976,-2.263732,-0.7566743,1.8815732,1.8700442,-0.9783308,-1.4577703,-1.1680876,-1.013859,1.2597138,-0.31823313,0.2790166,0.28013107,-0.40101624,-0.5506897,0.67134005,-1.314305,0.46874785,-0.65548736,-0.35876465,-0.57995605,0.6127627,0.9560538,0.022598304,0.25093064,0.14994717,-1.4197065,0.4554414,-0.6875488,0.0,1.0,0.0,0.0,0.0,0.0,0.0,-0.24898374,0.15068969,-0.12134004,-0.0022411346,-4.9911976,6.521201,-4.5190334,9.146011,-3.673154,2.9981613
4.0030694,54.207024,10.807625,6.6852784,1.3185252,0.14489287,0.2773057,-0.81037843,-0.66905826,-0.5822966,0.6223576,0.06378466,-0.06738573,0.58792466,0.55190796,-1.2117034,-2.3219616,-0.6944385,1.8879516,1.8633057,-0.9195383,0.61839557,-1.1567338,-2.2737217,-0.7446153,1.8795131,1.8724413,-0.9753331,-1.4544551,-1.2022179,-0.99267316,1.187923,-0.16988935,0.22580962,0.3064637,-0.41403198,-0.5459709,0.6643871,-1.2947551,0.47305837,-0.7042427,-0.37295532,-0.57533646,0.6056963,0.9573351,0.029039862,0.25127745,0.13973412,-1.4121138,0.47694054,-0.71415263,0.0,1.0,0.0,0.0,0.0,0.0,0.0,-0.235968,0.14597091,-0.114387095,0.21674633,-3.5061598,2.6254177,-7.1847916,14.322352,-5.595806,2.6593268
2.8542476,68.30705,13.34702,10.557204,1.648203,0.2546507,0.19534448,-0.8159649,-0.64047414,-0.5586704,0.5991854,0.15949757,-0.20631164,0.5988678,0.5367991,-1.2207812,-2.3295887,-0.6846968,1.8954629,1.8518101,-0.91544634,0.60384625,-1.168731,-2.2835474,-0.73327494,1.8790188,1.8742377,-0.9720967,-1.4555758,-1.199189,-0.97697777,1.1157204,-0.011002692,0.16345261,0.32933646,-0.4267807,-0.5411949,0.65711,-1.266176,0.47915033,-0.73229975,-0.38703918,-0.570446,0.5985385,0.9586825,0.035521854,0.25062314,0.1298231,-1.4009871,0.504718,-0.7174565,0.0,1.0,0.0,0.0,0.0,0.0,0.0,-0.22321928,0.14119491,-0.107109964,-0.26142597,0.19147396,2.1967053,-7.2892666,15.271929,-6.5160303,2.2652626
9.728304,68.568886,14.647492,8.466229,1.6522843,0.22540677,0.21850541,-0.79975957,-0.664378,-0.5000769,0.53253394,0.32849705,-0.31447276,0.5907736,0.5238703,-1.2351688,-2.333555,-0.6800215,1.9118685,1.8427904,-0.9130193,0.58935404,-1.1807072,-2.2930222,-0.72280127,1.8803372,1.8753816,-0.9686666,-1.447762,-1.1975689,-0.9353709,1.0241079,0.1776981,0.097282775,0.34758985,-0.43923187,-0.53637314,0.64955205,-1.2361342,0.4829755,-0.76006633,-0.40096283,-0.56531906,0.5913681,0.9601429,0.0418758,0.24882327,0.12024509,-1.382961,0.5281133,-0.7182186,0.0,1.0,0.0,0.0,0.0,0.0,0.0,-0.2107681,0.13637313,-0.099552035,0.6098509,0.0754118,4.817593,-9.288001,18.246668,-6.882529,1.8045306
6.840215,63.69267,12.207734,7.3321524,1.1666518,0.1569978,0.2741507,-0.81502396,-0.6662504,-0.54539424,0.46125108,0.29692733,-0.46697757,0.5746378,0.50785166,-1.2473322,-2.3475616,-0.67667615,1.91003,1.8286839,-0.91120285,0.5748687,-1.1926606,-2.3023372,-0.71338624,1.8831213,1.875814,-0.96509176,-1.4491549,-1.1948959,-0.92884433,0.91369325,0.3103557,0.024561279,0.36065608,-0.4513855,-0.5315323,0.6416641,-1.2076998,0.48445037,-0.7956429,-0.4146881,-0.5599823,0.5840673,0.96168005,0.048290525,0.2459969,0.11101762,-1.3625277,0.54670346,-0.7353788,0.0,1.0,0.0,0.0,0.0,0.0,0.0,-0.19861448,0.13153228,-0.091664076,-0.2727747,0.18911362,1.1891246,-11.1218815,12.732142,-7.498044,1.2669563
8.850385,72.63311,14.1580515,9.910621,1.1606115,0.25131518,0.22008823,-0.79692423,-0.64644796,-0.50421673,0.46853226,0.28469872,-0.49924788,0.5832123,0.49517626,-1.2573054,-2.352759,-0.666533,1.9115912,1.8258892,-0.9067705,0.5604395,-1.2045014,-2.3114882,-0.70481724,1.8868253,1.8755656,-0.9614012,-1.4414173,-1.1806142,-0.908796,0.8375264,0.38887313,-0.041795164,0.37162292,-0.46318817,-0.5266838,0.63355744,-1.1694987,0.48466182,-0.81313163,-0.42814636,-0.55446625,0.57670605,0.9632216,0.054786842,0.24244379,0.102095515,-1.3338497,0.5649788,-0.7375784,0.0,1.0,0.0,0.0,0.0,0.0,0.0,-0.1868118,0.1266838,-0.08355743,0.61922073,1.3483763,2.6091576,-7.736838,7.298106,-6.8391824,1.0061443
11.842415,78.72459,16.16198,11.46231,1.3381557,0.36903483,0.16934568,-0.7872125,-0.64439714,-0.42532986,0.448203,0.3255957,-0.5100114,0.5884972,0.48171827,-1.2689412,-2.354021,-0.6599969,1.9193848,1.8245645,-0.90255153,0.54612976,-1.2161952,-2.3201125,-0.69683,1.8911375,1.8747222,-0.9576116,-1.4279954,-1.1657939,-0.8448848,0.78521127,0.4435769,-0.099020995,0.38104,-0.4745636,-0.52184296,0.62537277,-1.1255962,0.48359534,-0.81777245,-0.4412613,-0.5487633,0.5694295,0.9647473,0.06115978,0.2383045,0.093450196,-1.3004967,0.58379495,-0.72554106,0.0,1.0,0.0,0.0,0.0,0.0,0.0,-0.17543638,0.12184295,-0.075372756,1.1716604,1.4092207,7.0521235,-5.3845406,4.9050627,-5.911623,0.83340406
15.104647,77.97391,16.224478,9.743113,1.0629482,0.3961091,0.24923252,-0.78683615,-0.63193774,-0.40181443,0.35572866,0.34252736,-0.5548192,0.5815206,0.46744615,-1.279389,-2.3602939,-0.6612571,1.9253902,1.8192403,-0.89945954,0.5319419,-1.2277118,-2.3280315,-0.68957806,1.8958567,1.8733476,-0.9537455,-1.4162697,-1.1469609,-0.77246255,0.70459133,0.47981542,-0.15078531,0.3881017,-0.4854889,-0.5170326,0.6171404,-1.0800385,0.47957072,-0.8229215,-0.45402527,-0.5429001,0.5622405,0.9662483,0.06735287,0.23361218,0.08516609,-1.2593286,0.59782356,-0.7179339,0.0,1.0,0.0,0.0,0.0,0.0,0.0,-0.16451108,0.11703262,-0.0671404,1.0062695,1.8270969,7.8636527,-8.2299595,3.0935585,-5.322422,0.5887151
25.61144,90.00085,20.900803,9.713371,1.2122425,0.59117043,0.30379727,-0.77246034,-0.59134626,-0.23653269,0.2788411,0.38185003,-0.5632066,0.57385564,0.45469585,-1.2868464,-2.3516848,-0.66169393,1.9340417,1.817027,-0.8963599,0.51790565,-1.238887,-2.3345923,-0.6833475,1.9009426,1.8715165,-0.94982445,-1.4000871,-1.1076376,-0.6152501,0.59490657,0.51653063,-0.19402473,0.39294285,-0.49585724,-0.51229095,0.60903037,-1.0222546,0.4717247,-0.8051606,-0.4662094,-0.536911,0.55531305,0.96776026,0.07304323,0.22828276,0.077405944,-1.2007622,0.6088937,-0.68557745,0.0,1.0,0.0,0.0,0.0,0.0,0.0,-0.15414274,0.11229095,-0.059030354,1.4141321,3.9044857,16.415108,-11.244035,3.1063914,-4.392666,0.32848716
31.67152,75.98555,18.533106,2.4047263,0.4778394,0.44727004,0.5438808,-0.77452713,-0.59557843,-0.21899611,0.09431657,0.4503019,-0.6031912,0.5808306,0.44045293,-1.2984447,-2.356492,-0.67391586,1.9459728,1.8111974,-0.8917414,0.50399244,-1.2497321,-2.339696,-0.6788804,1.906515,1.8692826,-0.94585705,-1.3889995,-1.0768486,-0.47355804,0.39649206,0.5695956,-0.23322852,0.39770228,-0.50569916,-0.5076599,0.6009257,-0.97153103,0.45980716,-0.8109937,-0.47776794,-0.5309105,0.548476,0.96932715,0.078240454,0.22208355,0.07044197,-1.1344136,0.60650414,-0.6845049,0.0,1.0,0.0,0.0,0.0,0.0,0.0,-0.14430082,0.107659906,-0.050925672,0.9543419,3.0807495,14.62112,-20.067167,4.918492,-3.9126487,0.36917925
