Afshin1997/kuka_rl_ros2/src/catch_and_throw/input_files/idealpd/polynomial_regressor/optimizer_files/env_281_data.csv
torque0,torque1,torque2,torque3,torque4,torque5,torque6,action0,action1,action2,action3,action4,action5,action6,set_target_0,set_target_1,set_target_2,set_target_3,set_target_4,set_target_5,set_target_6,joint_pos_0,joint_pos_1,joint_pos_2,joint_pos_3,joint_pos_4,joint_pos_5,joint_pos_6,joint_vel_0,joint_vel_1,joint_vel_2,joint_vel_3,joint_vel_4,joint_vel_5,joint_vel_6,tennisball_pos_0,tennisball_pos_1,tennisball_pos_2,tennisball_lin_vel_0,tennisball_lin_vel_1,tennisball_lin_vel_2,end_effector_pos_0,end_effector_pos_1,end_effector_pos_2,end_effector_rot_0,end_effector_rot_1,end_effector_rot_2,end_effector_rot_3,end_effector_lin_vel_0,end_effector_lin_vel_1,end_effector_lin_vel_2,obs_task_0,obs_task_1,obs_task_2,obs_task_3,obs_task_4,obs_task_5,obs_task_6,to_final_target_0,to_final_target_1,to_final_target_2,joint_acc_0,joint_acc_1,joint_acc_2,joint_acc_3,joint_acc_4,joint_acc_5,joint_acc_6
0.0,0.0,0.0,0.0,0.0,0.0,0.0,0.0,0.0,0.0,0.0,0.0,0.0,0.0,1.7802359,-1.0646509,-1.8151424,-1.1170107,1.9373155,1.1170107,-0.91629785,1.7802359,-1.0646509,-1.8151424,-1.1170107,1.9373155,1.1170107,-0.91629785,0.0,0.0,0.0,0.0,0.0,0.0,0.0,2.859651,-0.23360062,0.07026796,-3.1985574,-0.50026417,5.245354,0.530416,-0.45449448,0.693097,0.5745483,0.17512383,0.15255436,0.7848268,0.0,0.0,0.0,1.0,0.0,0.0,0.0,0.0,0.0,0.0,-3.5096512,-0.16639939,0.47973204,0.0,0.0,0.0,0.0,0.0,0.0,0.0
0.0,0.0,0.0,0.0,0.0,0.0,0.0,0.0,0.0,0.0,0.0,0.0,0.0,0.0,1.7802359,-1.0646509,-1.8151424,-1.1170107,1.9373155,1.1170107,-0.91629785,1.7802359,-1.0646509,-1.8151424,-1.1170107,1.9373155,1.1170107,-0.91629785,0.0,0.0,0.0,0.0,0.0,0.0,0.0,2.859651,-0.23360062,0.07026796,-3.1985574,-0.50026417,5.245354,0.530416,-0.45449448,0.693097,0.5745483,0.17512383,0.15255436,0.7848268,0.0,0.0,0.0,1.0,0.0,0.0,0.0,0.0,0.0,0.0,-3.5096512,-0.16639939,0.47973204,0.0,0.0,0.0,0.0,0.0,0.0,0.0
0.0,0.0,0.0,0.0,0.0,0.0,0.0,0.0,0.0,0.0,0.0,0.0,0.0,0.0,1.7802359,-1.0646509,-1.8151424,-1.1170107,1.9373155,1.1170107,-0.91629785,1.7802359,-1.0646509,-1.8151424,-1.1170107,1.9373155,1.1170107,-0.91629785,0.0,0.0,0.0,0.0,0.0,0.0,0.0,2.859651,-0.23360062,0.07026796,-3.1985574,-0.50026417,5.245354,0.530416,-0.45449448,0.693097,0.5745483,0.17512383,0.15255436,0.7848268,0.0,0.0,0.0,1.0,0.0,0.0,0.0,0.0,0.0,0.0,-3.5096512,-0.16639939,0.47973204,0.0,0.0,0.0,0.0,0.0,0.0,0.0
-176.0,75.62071,-2.8761044,110.0,10.003077,4.94133,-3.9358563,-0.78784555,0.37488726,-0.5367892,0.7334413,-0.009816809,0.6675631,-0.55238724,1.7014513,-1.0271622,-1.8688213,-1.0436666,1.9363338,1.1837671,-0.9715366,1.7786356,-1.0622514,-1.8205345,-1.1127745,1.9410119,1.1213824,-0.91717905,-0.21333732,0.3193871,-0.7183624,0.5648365,0.49220395,0.58154774,-0.11734574,2.8276892,-0.23859787,0.12194572,-3.1953595,-0.499764,5.1419234,0.5284052,-0.45736694,0.69390017,0.577994,0.17381532,0.1517609,0.78273857,-0.26792592,-0.3825835,0.106892064,1.0,0.0,0.0,0.0,0.0,0.0,0.0,-3.4776893,-0.16140214,0.4280543,-21.286705,31.74369,-71.64031,56.540565,49.000584,57.694286,-11.679933
-176.0,-45.33246,-52.879745,110.0,12.312466,0.9557302,-3.5872514,-0.7966122,-0.22531734,-0.55571395,0.70884484,0.14467074,0.6399588,-0.6079304,1.6989744,-1.0847832,-1.8761059,-1.04189,1.955479,1.1853782,-0.9779721,1.7770201,-1.0594114,-1.835305,-1.0994383,1.9492898,1.1340529,-0.91744417,-0.1458291,0.2632215,-1.7104225,1.5909792,0.9288702,1.4715261,-0.0002320298,2.7957597,-0.24359131,0.17258993,-3.192165,-0.49926433,5.0385966,0.523973,-0.4652748,0.6945308,0.58592623,0.17048264,0.14897755,0.7780949,-0.50241625,-0.9257989,0.0507532,1.0,0.0,0.0,0.0,0.0,0.0,0.0,-3.4457598,-0.1564087,0.37741008,6.3453016,-8.283162,-93.39004,102.9778,40.46937,81.8332,10.510377
-162.56372,70.07486,14.753309,91.346565,9.023932,6.4128294,-1.8312882,-0.74999744,0.08082905,0.07809979,0.6241281,0.36286354,0.66001517,-0.52667385,1.7020204,-1.0513285,-1.827495,-1.0370255,1.9855762,1.2000544,-0.97011155,1.772473,-1.057073,-1.8505447,-1.0816809,1.9588132,1.1487166,-0.9177417,-0.5575178,0.22123839,-1.4563411,1.83931,0.9552906,1.4592794,-0.03960313,2.7638617,-0.24858093,0.22220165,-3.1889734,-0.49876517,4.935373,0.51682234,-0.47639847,0.69611216,0.5966342,0.16588688,0.14452825,0.7717646,-0.7929664,-1.167875,0.19782625,1.0,0.0,0.0,0.0,0.0,0.0,0.0,-3.4138618,-0.15141907,0.32779837,-41.060387,-5.0457716,27.046394,25.490974,1.1300564,-2.9021502,-3.9351523
-107.76031,67.743286,27.952112,57.13039,6.569495,6.841389,0.0072364435,-0.76332396,-0.15797226,0.3160429,0.65502906,0.41437575,0.6289656,-0.5595598,1.6961405,-1.0728703,-1.8189404,-1.016178,2.0002508,1.2116132,-0.9736977,1.7637373,-1.0563749,-1.8596485,-1.0636965,1.9677835,1.1624018,-0.9185228,-0.97937304,0.017698,-0.7217181,1.78655,0.87162644,1.3352382,-0.091243684,2.731996,-0.25356293,0.2707819,-3.185785,-0.49826652,4.832252,0.5071411,-0.48883057,0.6990073,0.6081316,0.16031162,0.13805622,0.76512516,-1.0374422,-1.2587095,0.32415423,1.0,0.0,0.0,0.0,0.0,0.0,0.0,-3.3819962,-0.14643708,0.2792181,-42.314434,-20.89109,75.46079,-4.807806,-10.1156,-13.330221,-5.2240806
-60.165604,70.801155,32.222042,31.453287,3.8697586,5.7931857,0.72122455,-0.79791063,-0.15883885,0.31169158,0.66715914,0.45422122,0.636489,-0.56209195,1.6839463,-1.0722588,-1.8284793,-0.9969806,2.0132055,1.2260507,-0.974732,1.751393,-1.0575727,-1.8613307,-1.0473582,1.9757962,1.1746718,-0.9198217,-1.3198712,-0.16661137,0.021090603,1.583612,0.7736712,1.1898834,-0.14319454,2.700162,-0.2585411,0.31833172,-3.1826,-0.49776834,4.729234,0.49555683,-0.50144196,0.7028599,0.61928725,0.15399186,0.1296501,0.75892067,-1.2109404,-1.2502979,0.40644395,1.0,0.0,0.0,0.0,0.0,0.0,0.0,-3.350162,-0.1414589,0.2316683,-34.143066,-18.749105,75.73466,-20.128082,-11.073292,-14.877367,-5.31289
-22.694872,65.539795,28.337542,13.896898,1.6185215,3.8302422,0.74700224,-0.8085015,-0.1627963,0.30207023,0.6711855,0.44045115,0.6419035,-0.57436115,1.6705428,-1.0738523,-1.8311237,-0.9802396,2.0198414,1.2388622,-0.9772578,1.7366949,-1.0601953,-1.8572757,-1.0330969,1.9829335,1.1856142,-0.9215993,-1.5197845,-0.29470724,0.53644836,1.3735583,0.69142437,1.0624678,-0.1897882,2.6683598,-0.26351547,0.36485216,-3.179418,-0.49727067,4.6263194,0.4828291,-0.513649,0.70714265,0.6297331,0.14730786,0.1199917,0.7532189,-1.3056396,-1.1979636,0.43309626,1.0,0.0,0.0,0.0,0.0,0.0,0.0,-3.3183599,-0.13648453,0.18514785,-20.02523,-13.002727,52.3288,-21.009804,-8.92365,-12.714076,-4.792714
3.1238685,100.04663,35.85378,9.709734,-0.631426,3.2176614,0.118277244,-0.8185514,0.045296706,0.21223952,0.66816163,0.34668508,0.644959,-0.5705923,1.6548398,-1.0556656,-1.8360518,-0.96628076,2.017602,1.2501101,-0.97865856,1.7208964,-1.0626253,-1.8504512,-1.0205218,1.9891877,1.1954447,-0.9237966,-1.600238,-0.22672972,0.7327983,1.2189693,0.60252243,0.9574464,-0.23070373,2.6365895,-0.2684822,0.4103442,-3.1762393,-0.4967735,4.5235076,0.46958065,-0.5249138,0.71185017,0.6396883,0.14035006,0.11042035,0.74760157,-1.3435673,-1.0936787,0.4793003,1.0,0.0,0.0,0.0,0.0,0.0,0.0,-3.2865896,-0.1315178,0.1396558,-8.136463,6.5687895,20.12217,-15.490174,-9.181536,-10.248507,-4.414189
14.427631,130.15147,41.014675,10.978707,-2.1365755,2.8281078,-0.5584072,-0.83104384,0.24260752,0.067666925,0.65571874,0.28056067,0.645275,-0.5591071,1.637792,-1.0383645,-1.8436846,-0.95494986,2.0172439,1.2599722,-0.9797073,1.7048498,-1.0630792,-1.8438556,-1.0090014,1.9945512,1.2043692,-0.9263477,-1.606841,0.014212883,0.636369,1.1298193,0.51410437,0.8719518,-0.26462284,2.6048508,-0.27344513,0.45480892,-3.1730638,-0.49627683,4.420799,0.45622253,-0.53492737,0.71719956,0.6496004,0.13313423,0.10231427,0.74150276,-1.3446144,-0.961261,0.54967225,1.0,0.0,0.0,0.0,0.0,0.0,0.0,-3.2548509,-0.12655488,0.09519109,-0.8237362,23.842796,-9.3158245,-8.894849,-8.893835,-8.205509,-3.7977755
23.020008,159.27448,48.292698,13.145582,-2.9840333,2.9288156,-0.9272651,-0.82283306,0.46072492,-0.0546056,0.636829,0.3031562,0.6462296,-0.5566202,1.6225666,-1.0170068,-1.8493161,-0.94531846,2.0248668,1.2689922,-0.9820097,1.6890589,-1.0601553,-1.8395221,-0.9980185,1.9992852,1.2125517,-0.92919534,-1.5705546,0.38425004,0.36708823,1.0876755,0.45976046,0.8009732,-0.29294813,2.573144,-0.27840424,0.49824733,-3.1698914,-0.49578065,4.318193,0.44299793,-0.5434532,0.72352725,0.659798,0.12561798,0.09654368,0.7345515,-1.3244952,-0.8046747,0.6575082,1.0,0.0,0.0,0.0,0.0,0.0,0.0,-3.223144,-0.12159577,0.051752687,3.3892155,36.70457,-26.553053,-4.213643,-5.4633083,-6.868887,-3.2937288
25.375458,155.91632,47.095688,12.935761,-2.6366897,2.6416888,-0.81494963,-0.81202996,0.54769653,-0.09670153,0.6214802,0.4010421,0.62285805,-0.5497549,1.6078559,-1.0053856,-1.8491923,-0.93587047,2.0393894,1.2748375,-0.98417085,1.6737467,-1.0536398,-1.8380115,-0.9872582,2.003951,1.2200876,-0.93228143,-1.5190645,0.7394961,0.08041076,1.0718306,0.46871135,0.73779213,-0.3151896,2.541469,-0.28335953,0.54066044,-3.166722,-0.49528497,4.215689,0.43000555,-0.5505028,0.73092014,0.67031217,0.1178592,0.09303958,0.7267286,-1.2982484,-0.6599241,0.7644555,1.0,0.0,0.0,0.0,0.0,0.0,0.0,-3.1914692,-0.11664048,0.009339571,4.887438,35.228336,-28.206692,-1.6849756,0.77575445,-6.3435435,-2.6459575
25.38756,143.01244,44.109333,12.113064,-1.9922457,2.4651592,-0.55359536,-0.7988051,0.62708104,-0.11476711,0.6122507,0.44114214,0.62567073,-0.55224013,1.5938662,-0.9909317,-1.8494883,-0.92603314,2.0480652,1.2826548,-0.98750544,1.6589438,-1.0440878,-1.8388546,-0.97656274,2.008956,1.2270628,-0.93555826,-1.468299,1.0263038,-0.13737322,1.0680773,0.5106311,0.6832758,-0.33322126,2.5098257,-0.288311,0.5820493,-3.163556,-0.49478978,4.1132884,0.41723537,-0.55623627,0.73929626,0.6810063,0.10989373,0.09125675,0.7182102,-1.2753992,-0.53208834,0.86104375,1.0,0.0,0.0,0.0,0.0,0.0,0.0,-3.1598258,-0.111689,-0.0320493,4.8110247,28.403425,-21.220558,-0.5699396,3.9945304,-5.676794,-2.198857
22.78843,119.00807,37.266033,9.985458,-1.2834857,2.050558,-0.26205608,-0.78851175,0.6679232,-0.13951181,0.59344363,0.46907026,0.6379232,-0.5637184,1.5800925,-0.97729546,-1.8528057,-0.9172184,2.055863,1.2908552,-0.9919301,1.64457,-1.0324148,-1.8412502,-0.96593785,2.0144796,1.2335669,-0.93899816,-1.4276998,1.2134775,-0.2715927,1.0597131,0.5656272,0.63857985,-0.34877315,2.4782138,-0.29325485,0.6224149,-3.1603932,-0.4942951,4.0109897,0.40464735,-0.560894,0.74840444,0.6916914,0.10179083,0.09055147,0.7092264,-1.2573041,-0.4290284,0.9269942,1.0,0.0,0.0,0.0,0.0,0.0,0.0,-3.128214,-0.10674515,-0.072414875,3.810501,18.495655,-12.844625,-1.0948181,5.2959085,-4.739678,-1.9247711
17.046152,94.68527,29.751028,8.816273,-0.6033173,1.6448153,-0.056919474,-0.7897958,0.690202,-0.15697321,0.57784945,0.48471472,0.65037936,-0.5703856,1.5655904,-0.9633946,-1.8569475,-0.90815294,2.062951,1.2986048,-0.9960367,1.6304651,-1.0195612,-1.8444526,-0.9554541,2.0205336,1.2396952,-0.94257635,-1.4054662,1.3089054,-0.33460015,1.0436307,0.6177316,0.6034376,-0.36205104,2.4466333,-0.2981949,0.66175824,-3.1572335,-0.4938009,3.9087937,0.39217234,-0.5647316,0.75792336,0.7022167,0.093642585,0.09037173,0.69996834,-1.2473172,-0.35260615,0.96024394,1.0,0.0,0.0,0.0,0.0,0.0,0.0,-3.0966334,-0.10180512,-0.11175823,2.0003319,9.382558,-5.750865,-1.8903255,5.0379515,-3.7380695,-1.6713202
14.094833,80.33582,25.775303,7.9583397,-0.16145271,1.4830457,0.12200476,-0.78980327,0.71123135,-0.13493606,0.55654025,0.50440043,0.6506988,-0.5701585,1.5514848,-0.94843805,-1.8579463,-0.89980006,2.0709736,1.3047651,-0.9995922,1.6164709,-1.0062097,-1.8477733,-0.94521356,2.0270567,1.245524,-0.9462699,-1.3981522,1.3436284,-0.32938135,1.0166591,0.66331786,0.575464,-0.37297153,2.4150848,-0.3031311,0.7000804,-3.1540768,-0.4933072,3.8066998,0.37974834,-0.5678978,0.76764095,0.71246016,0.08547804,0.090311706,0.6906068,-1.2433876,-0.2899659,0.9757938,1.0,0.0,0.0,0.0,0.0,0.0,0.0,-3.065085,-0.0968689,-0.15008038,0.5190611,3.3510685,1.0818541,-2.9832125,4.398501,-2.9669404,-1.43013
12.57022,69.34771,22.173885,7.16416,0.04260683,1.2217313,0.18861863,-0.77964234,0.7184062,-0.14532551,0.5484239,0.521783,0.66360295,-0.57311577,1.5385067,-0.9343691,-1.8623059,-0.89037114,2.079235,1.3118844,-1.0035815,1.6025282,-0.99278486,-1.8508804,-0.9352429,2.0339766,1.2511259,-0.95005983,-1.3936695,1.34186,-0.30291706,0.9895805,0.7013963,0.5547372,-0.3821243,2.3835678,-0.3080597,0.73738235,-3.1509233,-0.49281397,3.7047079,0.3673544,-0.57052994,0.7773963,0.7223636,0.07732312,0.090158984,0.6812366,-1.2398396,-0.23873682,0.9753627,1.0,0.0,0.0,0.0,0.0,0.0,0.0,-3.033568,-0.09194031,-0.18738234,0.2590418,-0.26333332,3.1562567,-2.991438,3.6866426,-2.1727204,-1.2390792
12.220743,68.682274,22.301311,7.8431973,0.16814846,1.3035977,0.23182932,-0.7787847,0.72707146,-0.09926855,0.5422478,0.5237729,0.6677266,-0.5708062,1.5246497,-0.9200777,-1.8608072,-0.8810181,2.0863538,1.3178986,-1.0071404,1.5886065,-0.97946775,-1.8534763,-0.92550683,2.0411863,1.2565542,-0.95392793,-1.3924843,1.3281125,-0.24330953,0.9673526,0.7270628,0.53866017,-0.38946715,2.3520823,-0.31298447,0.7736652,-3.147773,-0.49232128,3.602818,0.3549738,-0.5726509,0.78716856,0.7318978,0.06911815,0.08980556,0.67192495,-1.2390238,-0.18766107,0.97753066,1.0,0.0,0.0,0.0,0.0,0.0,0.0,-3.0020823,-0.08701554,-0.22366518,-0.06685257,-1.4585018,6.492591,-2.4866343,2.4394274,-1.7034173,-1.0597706
13.777715,70.762314,23.075048,7.795115,0.10820657,1.3598752,0.26914018,-0.7755231,0.7349117,-0.064290054,0.52336586,0.5338982,0.67299646,-0.5639314,1.5110542,-0.9059766,-1.8599052,-0.87317026,2.0945761,1.3238539,-1.010321,1.5746962,-0.9662708,-1.8553665,-0.91601014,2.0485983,1.261851,-0.9578542,-1.391068,1.3166919,-0.16913788,0.9429084,0.7456009,0.5264057,-0.3948169,2.3206282,-0.31790543,0.8089299,-3.144626,-0.49182907,3.5010302,0.34260988,-0.57422256,0.79698986,0.7410357,0.06079021,0.08922866,0.66272837,-1.236094,-0.13163432,0.98291904,1.0,0.0,0.0,0.0,0.0,0.0,0.0,-2.9706283,-0.08209458,-0.2589299,-0.044226646,-1.2262583,7.9674335,-2.694571,1.7206907,-1.3092518,-0.8624196
15.012343,74.51683,24.311268,8.274059,0.07677621,1.4568105,0.29194382,-0.77447957,0.7409491,-0.01604975,0.51153505,0.5477755,0.6697154,-0.5579439,1.4972482,-0.8921759,-1.8569715,-0.86485666,2.103376,1.3288225,-1.0136486,1.5608011,-0.9531311,-1.8564212,-0.9067509,2.056178,1.2670408,-0.9618215,-1.389735,1.3127637,-0.08250689,0.9194959,0.7614583,0.5162109,-0.39849994,2.2892056,-0.32281876,0.84317756,-3.1414819,-0.49133733,3.3993442,0.33027983,-0.5751915,0.80691427,0.74975544,0.052271254,0.088425905,0.6536936,-1.2321308,-0.070159055,0.9944587,1.0,0.0,0.0,0.0,0.0,0.0,0.0,-2.9392056,-0.07718125,-0.29317755,-0.052690506,-0.4825592,9.23415,-2.5701165,1.4422178,-1.1072397,-0.69565773
17.221998,76.66991,24.945955,7.8534403,-0.029373467,1.4498572,0.3248927,-0.76865417,0.7436949,0.029308403,0.49414665,0.56130844,0.67384607,-0.5514186,1.4839357,-0.8787616,-1.8534904,-0.8573363,2.112309,1.3344254,-1.0169634,1.5469424,-0.9399866,-1.8565834,-0.89774346,2.0639143,1.2721468,-0.9658155,-1.385105,1.3147742,0.007762462,0.8937604,0.7770809,0.5084595,-0.40071607,2.2578144,-0.32772827,0.87640905,-3.1383412,-0.49084607,3.2977598,0.31801796,-0.57551193,0.81697065,0.7580357,0.043520167,0.08740863,0.64486235,-1.2237948,-0.003929807,1.0077444,1.0,0.0,0.0,0.0,0.0,0.0,0.0,-2.9078145,-0.072271734,-0.32640904,0.28262138,0.112748146,9.597649,-2.785933,1.4210701,-0.84358454,-0.545913
18.736813,79.783226,25.715536,7.946352,-0.12371874,1.4657794,0.33065414,-0.76402634,0.7567136,0.073132716,0.4817032,0.5742447,0.6789502,-0.5489708,1.4705397,-0.8643152,-1.8492701,-0.84957314,2.1213388,1.3400419,-1.0207126,1.5331503,-0.9267458,-1.8558567,-0.88898873,2.0718107,1.2771899,-0.96982473,-1.3780556,1.32691,0.096139245,0.8687889,0.7931872,0.502786,-0.40207937,2.2264547,-0.33263397,0.9086255,-3.1352034,-0.49035534,3.196277,0.30586052,-0.57513046,0.82718825,0.7658639,0.034502268,0.08620778,0.63626266,-1.2121941,0.06693118,1.0243303,1.0,0.0,0.0,0.0,0.0,0.0,0.0,-2.8764548,-0.067366034,-0.35862547,0.5306244,1.1236191,9.404927,-2.686751,1.471281,-0.62793493,-0.45374036
18.331696,76.97533,24.186632,7.373843,-0.2115171,1.2791501,0.31867012,-0.7662331,0.75759053,0.09890675,0.4563545,0.57970667,0.67824244,-0.54844534,1.456527,-0.8509867,-1.845966,-0.8433533,2.1297815,1.3450141,-1.0246693,1.5194079,-0.91338,-1.8543613,-0.88053536,2.079852,1.2821871,-0.9738435,-1.3735547,1.3395627,0.16892527,0.83685374,0.8073596,0.49865744,-0.40284666,2.195126,-0.33753204,0.93982786,-3.1320689,-0.4898651,3.0948956,0.2938404,-0.5740509,0.8375185,0.77325,0.025254864,0.084881194,0.62788683,-1.1967137,0.13510421,1.0331807,1.0,0.0,0.0,0.0,0.0,0.0,0.0,-2.8451262,-0.062467963,-0.38982785,0.28567314,1.188612,7.8008533,-3.3765554,1.3047457,-0.42850375,-0.3734827
16.066742,72.39124,21.708462,7.587567,-0.24379128,1.0177896,0.23878986,-0.76356083,0.76337653,0.09341983,0.45035687,0.57997805,0.6816562,-0.5326772,1.4430518,-0.8370424,-1.8450193,-0.8354997,2.1378498,1.3503528,-1.0271113,1.5057055,-0.8998846,-1.8524024,-0.8723633,2.088004,1.2871557,-0.9778556,-1.369568,1.3526324,0.20635843,0.8100362,0.81760305,0.49611738,-0.4015546,2.1638288,-0.3424263,0.9700172,-3.1289375,-0.48937532,2.9936154,0.2819867,-0.572361,0.8478717,0.78024614,0.01585947,0.08353247,0.6196665,-1.1793579,0.19517729,1.0328301,1.0,0.0,0.0,0.0,0.0,0.0,0.0,-2.813829,-0.057573706,-0.42001718,0.24943352,1.2473822,4.184702,-2.8628707,0.95740557,-0.23242831,-0.1369834
15.99943,68.10949,19.709724,6.2935696,-0.38610077,0.75257623,0.23440154,-0.76531833,0.7693058,0.10084614,0.41031322,0.5908235,0.6831301,-0.532189,1.4291736,-0.822954,-1.8423178,-0.831332,2.1470864,1.3554688,-1.0310745,1.4920222,-0.8862623,-1.8502376,-0.86456895,2.096263,1.2921053,-0.9818534,-1.3684007,1.3652027,0.22108819,0.76861674,0.8283997,0.49491805,-0.3999137,2.132563,-0.34731674,0.99919444,-3.1258092,-0.48888603,2.8924367,0.27034664,-0.57009506,0.8581443,0.78687483,0.0064217723,0.082250156,0.61157304,-1.1559033,0.25072286,1.0218117,1.0,0.0,0.0,0.0,0.0,0.0,0.0,-2.7825632,-0.052683264,-0.44919443,-0.030970573,1.2140989,1.8703789,-4.3354034,1.040256,-0.042676926,-0.08248091
19.927326,65.116615,18.577888,2.879847,-0.73345274,0.45372295,0.32627168,-0.7614745,0.7782938,0.10624597,0.34116113,0.60811317,0.68061215,-0.51883656,1.4158747,-0.80843294,-1.839613,-0.83045286,2.1570742,1.3601665,-1.0337371,1.4783579,-0.8725065,-1.8480232,-0.8574393,2.104659,1.2970492,-0.9858245,-1.3662611,1.3790263,0.22278911,0.69363725,0.84316236,0.49471188,-0.39696726,2.1013284,-0.35219955,1.0273607,-3.122684,-0.48839724,2.7913592,0.25904465,-0.5672722,0.86822045,0.79308903,-0.002933666,0.0811052,0.60367453,-1.1180296,0.3066452,0.999137,1.0,0.0,0.0,0.0,0.0,0.0,0.0,-2.7513285,-0.04780045,-0.47736067,0.0633955,1.3570547,0.54915845,-7.7102304,1.4515996,0.14121532,0.057578087
27.8876,63.74991,18.903645,-2.6357036,-1.2105365,0.22189903,0.5716417,-0.76226664,0.77737147,0.1674565,0.22702168,0.618136,0.6781434,-0.5088497,1.4021312,-0.79476935,-1.8312775,-0.8347371,2.1664727,1.3648635,-1.0367095,1.464707,-0.85864866,-1.8455589,-0.85149693,2.1132116,1.3019949,-0.98976034,-1.3653148,1.3880181,0.2557751,0.56044924,0.85887915,0.49567792,-0.39327854,2.070125,-0.35708237,1.0545169,-3.119562,-0.48790896,2.6903827,0.24827337,-0.56383514,0.8779905,0.7987412,-0.012095807,0.08009289,0.59619737,-1.0594485,0.36953744,0.9657293,1.0,0.0,0.0,0.0,0.0,0.0,0.0,-2.7201252,-0.04291764,-0.5045169,-0.0590086,0.89235306,3.7012994,-13.540327,1.540494,0.37340522,0.13053417
35.110226,63.042236,19.17322,-7.200285,-1.6610949,-0.041412145,0.75270283,-0.75223273,0.78376377,0.1953246,0.12558308,0.6212321,0.6755304,-0.482387,1.3894837,-0.7802723,-1.8260264,-0.83893865,2.175335,1.369548,-1.037999,1.4511095,-0.844705,-1.8426483,-0.8471854,2.1219015,1.3069559,-0.9936418,-1.3585263,1.3965609,0.30399337,0.38730624,0.87224126,0.49748236,-0.38718128,2.0389528,-0.36195755,1.0806642,-3.116443,-0.48742115,2.589507,0.23823214,-0.55973434,0.8873682,0.80369884,-0.020978067,0.07922299,0.5893656,-0.9809172,0.4360989,0.92430717,1.0,0.0,0.0,0.0,0.0,0.0,0.0,-2.688953,-0.038042456,-0.53066415,0.54888725,0.87041855,5.179739,-17.518526,1.3305783,0.55859685,0.39215684
42.72369,62.286423,19.372875,-12.290947,-2.1730042,-0.3534672,0.94085115,-0.7435816,0.7923226,0.22874275,-0.01686359,0.6309642,0.67084503,-0.46814567,1.3767514,-0.7654727,-1.819774,-0.8488717,2.184998,1.3740405,-1.0404564,1.437617,-0.8306612,-1.8391693,-0.8449595,2.130725,1.311936,-0.9974546,-1.3464136,1.4071417,0.36356676,0.1670484,0.8855083,0.4998679,-0.379859,2.0078115,-0.36682892,1.1058034,-3.113327,-0.48693383,2.4887323,0.22913694,-0.5549202,0.8962623,0.8078479,-0.02946757,0.078532726,0.58339167,-0.8801107,0.50572443,0.8733979,1.0,0.0,0.0,0.0,0.0,0.0,0.0,-2.6578116,-0.033171088,-0.55580336,1.1194468,1.1002779,6.236964,-22.19509,1.3607383,0.7234812,0.5535066
58.443604,61.74705,20.483488,-23.111897,-3.1758347,-0.8441936,1.3763624,-0.73046017,0.7987247,0.3131015,-0.27963367,0.66141427,0.6479962,-0.44464594,1.364571,-0.7507887,-1.8078591,-0.87292284,2.1968663,1.3767357,-1.0419192,1.4242979,-0.816502,-1.8348205,-0.84573674,2.1397467,1.3169314,-1.0011797,-1.327238,1.4190392,0.45920393,-0.15959261,0.9075535,0.501656,-0.37045097,1.9767017,-0.37169647,1.1299355,-3.1102145,-0.48644698,2.3880584,0.22136736,-0.54932404,0.90450317,0.8109397,-0.03735266,0.07803993,0.5786978,-0.7364925,0.5861085,0.80292207,1.0,0.0,0.0,0.0,0.0,0.0,0.0,-2.6267018,-0.028303534,-0.5799355,1.8984795,1.2639999,9.73984,-32.757465,2.2836804,0.85261464,0.8233726
61.28692,62.75587,21.249468,-23.994171,-3.2492688,-0.9857226,1.4551295,-0.70813996,0.8031392,0.3771631,-0.3913308,0.6601188,0.6375649,-0.37747985,1.3534839,-0.73618805,-1.7971042,-0.8848698,2.2057586,1.3806878,-1.0389277,1.4112536,-0.80222833,-1.8293769,-0.84975076,2.148963,1.3219362,-1.0047655,-1.296705,1.4305197,0.572524,-0.48190957,0.9266485,0.50236547,-0.35459152,1.9456229,-0.3765564,1.1530617,-3.1071048,-0.4859606,2.2874851,0.21507835,-0.54293823,0.9120627,0.8128849,-0.0445851,0.07772277,0.57549053,-0.5861693,0.6640631,0.7352715,1.0,0.0,0.0,0.0,0.0,0.0,0.0,-2.595623,-0.02344361,-0.60306174,3.14157,1.2552023,11.262941,-32.213165,2.120638,0.7658839,1.5549004
53.487778,65.15427,21.848269,-16.786919,-2.5361981,-0.782679,1.2693295,-0.6844678,0.8075163,0.43794698,-0.42226636,0.6603104,0.6215343,-0.2613984,1.3428068,-0.7214767,-1.7855822,-0.89197737,2.214994,1.3840897,-1.0309054,1.3985811,-0.7878479,-1.8227565,-0.85634065,2.1583357,1.3269297,-1.0081129,-1.2567569,1.4410342,0.6908751,-0.7178011,0.941883,0.5004365,-0.32797474,1.9145751,-0.3814125,1.1751829,-3.1039984,-0.48547477,2.1870124,0.21010399,-0.53582,0.9191046,0.8137943,-0.0513336,0.077499345,0.57367015,-0.46057904,0.73260546,0.6882756,1.0,0.0,0.0,0.0,0.0,0.0,0.0,-2.5645752,-0.0185875,-0.6251829,4.151964,1.1923075,11.515438,-23.507177,1.8978119,0.41784644,2.685976
35.445,63.990017,20.47937,-4.3591185,-1.2773461,-0.39744097,0.89694405,-0.6921775,0.806436,0.4871503,-0.4190466,0.654505,0.61160856,-0.09936704,1.3293633,-0.7072043,-1.7740415,-0.89824533,2.223786,1.3880905,-1.0180496,1.3861986,-0.7733959,-1.8150146,-0.8644278,2.1678076,1.3318888,-1.0110884,-1.2316072,1.4471081,0.80056816,-0.83879113,0.9504296,0.49595565,-0.2872149,1.8835583,-0.3862648,1.1963001,-3.100895,-0.4849894,2.0866401,0.20602179,-0.52814484,0.92585707,0.81391555,-0.057848494,0.07727529,0.57290787,-0.38332453,0.783451,0.66486454,1.0,0.0,0.0,0.0,0.0,0.0,0.0,-2.5335584,-0.013735205,-0.64630014,2.6350737,0.7721901,10.541892,-12.058091,1.338613,0.018751621,4.1046143
20.31273,59.87266,18.078941,5.3397593,-0.32154584,-0.19386937,0.57227963,-0.68821454,0.80482817,0.50392187,-0.41295823,0.63918537,0.6082186,0.1138142,1.3173772,-0.69291306,-1.7646224,-0.90572363,2.2317262,1.3927107,-0.9997069,1.3739859,-0.75891817,-1.8064048,-0.8730242,2.177287,1.3367964,-1.0135221,-1.2176546,1.4485748,0.8795728,-0.86663157,0.948716,0.49019974,-0.22881104,1.8525724,-0.39110947,1.2164145,-3.0977948,-0.48450452,1.9863681,0.2024293,-0.5200958,0.9324823,0.8134991,-0.064310156,0.07703517,0.57284284,-0.3436427,0.8167387,0.6553812,1.0,0.0,0.0,0.0,0.0,0.0,0.0,-2.5025725,-0.008890539,-0.66641444,1.4494181,0.3248453,7.4760675,-2.8249502,0.33823252,-0.21891594,5.846247
0.65818596,51.365067,13.514919,16.36956,0.78072405,-0.024581805,0.11116788,-0.71517825,0.8010836,0.47942162,-0.35197738,0.62415874,0.62390226,0.23634759,1.3024681,-0.6788098,-1.7584627,-0.90822196,2.239703,1.3991866,-0.9898874,1.3617026,-0.7444624,-1.7974098,-0.8812258,2.186679,1.3416544,-1.0153227,-1.2320477,1.4452014,0.90526754,-0.8053317,0.9377374,0.4850479,-0.16384727,1.8216181,-0.39595032,1.2355268,-3.0946975,-0.4840201,1.886196,0.19889593,-0.5118866,0.93908083,0.8128653,-0.07083263,0.07683227,0.5730005,-0.34871987,0.8251811,0.6548129,1.0,0.0,0.0,0.0,0.0,0.0,0.0,-2.4716182,-0.0040496886,-0.6855268,-1.5198231,-0.15892982,2.27139,5.951154,-0.63558817,-0.3030181,6.460738
-5.520732,45.636086,10.941311,19.179747,1.0482136,-0.10909422,-0.05790126,-0.7201757,0.79898643,0.4735283,-0.34371218,0.61168605,0.62014765,0.32352218,1.289685,-0.6645637,-1.750057,-0.915597,2.2478476,1.4036692,-0.9829705,1.3492056,-0.7300571,-1.788409,-0.8886454,2.195918,1.3464609,-1.0164652,-1.2560161,1.4395148,0.8977501,-0.721554,0.9209976,0.47971174,-0.09792088,1.7906942,-0.40078735,1.2536381,-3.0916035,-0.48353618,1.7861241,0.19522953,-0.5036812,0.94565916,0.8121973,-0.077420235,0.0767443,0.5731072,-0.3648759,0.8225669,0.65218955,1.0,0.0,0.0,0.0,0.0,0.0,0.0,-2.4406943,0.00078734756,-0.70363814,-2.5283575,-0.40040016,-0.9652972,8.148014,-1.2681246,-0.37412643,6.541711
-9.658907,40.400005,8.910808,21.224188,1.2835853,-0.17927444,-0.18468483,-0.7294021,0.7878988,0.4616569,-0.28755745,0.5939044,0.62888163,0.393601,1.2762654,-0.65126723,-1.7422433,-0.91740113,2.2553086,1.4093491,-0.9771051,1.3364416,-0.71575487,-1.7796371,-0.89506936,2.204955,1.3512255,-1.016963,-1.2835817,1.4275563,0.8698806,-0.61687994,0.89920014,0.4755466,-0.034014814,1.7598014,-0.40561676,1.2707494,-3.0885124,-0.48305273,1.6861523,0.19133282,-0.49557114,0.952202,0.81160265,-0.08406896,0.076808944,0.57300425,-0.38968524,0.81089693,0.64835864,1.0,0.0,0.0,0.0,0.0,0.0,0.0,-2.4098015,0.0056167543,-0.72074944,-2.918005,-1.0385036,-2.945745,10.199917,-1.8151402,-0.2964139,6.3234
-15.373587,38.16,7.99402,26.009647,1.7444546,-0.03969054,-0.37515032,-0.7409476,0.7781022,0.442909,-0.16079079,0.5663058,0.6446209,0.45584196,1.2623469,-0.63794464,-1.7353462,-0.9111484,2.2615857,1.4156876,-0.9713788,1.323403,-0.7016052,-1.7712333,-0.900059,2.2137213,1.3559614,-1.0168447,-1.3111765,1.4112207,0.83020484,-0.4606973,0.87072164,0.47307837,0.026734112,1.7289395,-0.41044617,1.2868618,-3.0854247,-0.48256975,1.5862806,0.18705273,-0.4876175,0.9587783,0.8112041,-0.09088526,0.07701382,0.57250035,-0.43250936,0.79333454,0.65419006,1.0,0.0,0.0,0.0,0.0,0.0,0.0,-2.3789396,0.010446161,-0.73686177,-2.9497862,-1.4784098,-4.115963,15.316319,-2.4758935,-0.18624663,5.9893317
-18.595533,37.433273,7.773319,29.247793,2.052561,0.07734898,-0.49413866,-0.7561464,0.77077943,0.4209876,-0.052444838,0.5548548,0.6411997,0.5018311,1.2477883,-0.6245273,-1.7291346,-0.9053035,2.2692068,1.4200814,-0.96666163,1.3100878,-0.6876272,-1.7632663,-0.90324044,2.2222128,1.3606707,-1.0161524,-1.3390183,1.3938322,0.7848815,-0.27166405,0.84339964,0.47036043,0.08304368,1.6981082,-0.41526794,1.3019763,-3.0823398,-0.48208725,1.4865086,0.18225288,-0.47985458,0.9654713,0.8110904,-0.09798231,0.07731699,0.5714489,-0.4873481,0.7743315,0.66794205,1.0,0.0,0.0,0.0,0.0,0.0,0.0,-2.3481083,0.015267938,-0.7519763,-2.983594,-1.5916586,-4.677415,18.600357,-2.354145,-0.25995374,5.540354
-25.62372,39.076893,8.517589,37.14158,2.7548428,0.5077897,-0.7347808,-0.7672846,0.75643206,0.4120604,0.16392857,0.51011086,0.65329313,0.53786916,1.2333593,-0.611984,-1.7220603,-0.8868476,2.2732239,1.426,-0.96236545,1.2965132,-0.6738504,-1.7556999,-0.9038937,2.2303572,1.365359,-1.0149355,-1.3642772,1.3727995,0.7464068,0.0024193123,0.8063517,0.46817255,0.13428585,1.6673079,-0.4200859,1.3160938,-3.0792582,-0.4816053,1.3868364,0.17668724,-0.47227478,0.9724677,0.81138533,-0.105622984,0.077630304,0.56962365,-0.5712568,0.7569834,0.7039425,1.0,0.0,0.0,0.0,0.0,0.0,0.0,-2.317308,0.020085901,-0.7660938,-2.7318478,-1.9577265,-4.039097,27.10812,-3.269422,-0.31385422,5.0236883
-25.746128,39.71673,9.314133,39.05396,2.8991795,0.6706794,-0.7863617,-0.76741034,0.7369766,0.40440542,0.31292066,0.47147122,0.65736276,0.5408169,1.2197722,-0.60015273,-1.7152593,-0.8726016,2.2775042,1.4310952,-0.9608538,1.2827612,-0.66033113,-1.7484405,-0.9015801,2.2380743,1.37003,-1.0132647,-1.3794026,1.3454465,0.7181177,0.30692026,0.7615338,0.46614888,0.17793551,1.6365385,-0.42490005,1.3292153,-3.0761795,-0.4811238,1.2872639,0.17023039,-0.46482468,0.9798765,0.8121251,-0.11399525,0.07788281,0.56691456,-0.6621265,0.74580806,0.74709946,1.0,0.0,0.0,0.0,0.0,0.0,0.0,-2.2865386,0.024900049,-0.7792153,-1.6648054,-2.606678,-3.0532002,30.209497,-4.0485263,-0.35703182,4.271045
-20.126892,41.371784,10.407405,35.158463,2.5222588,0.587764,-0.643104,-0.7774221,0.73145396,0.3949731,0.38640273,0.49359018,0.6563914,0.51764774,1.205019,-0.58718574,-1.7089432,-0.86293983,2.2874334,1.4356692,-0.96149987,1.2688814,-0.6470598,-1.7414024,-0.89653707,2.2454786,1.3746821,-1.0112276,-1.3912308,1.321373,0.6984512,0.56961656,0.73461545,0.46426505,0.21213417,1.6057997,-0.42970657,1.3413419,-3.073104,-0.4806428,1.1877909,0.16296864,-0.45742798,0.9876578,0.81321865,-0.12307337,0.07803274,0.5634175,-0.73902553,0.7446308,0.7824289,1.0,0.0,0.0,0.0,0.0,0.0,0.0,-2.2557998,0.029706568,-0.79134184,-1.2868881,-2.3099422,-2.1418214,26.10606,-2.3269773,-0.3461957,3.3376722
-7.896552,39.64602,10.146504,23.34087,1.3907149,0.032773435,-0.30224255,-0.78337145,0.7220897,0.371186,0.3545255,0.49939093,0.65863353,0.48472095,1.1905442,-0.5748508,-1.7042838,-0.8610845,2.2954178,1.4405454,-0.9627555,1.2549025,-0.6340078,-1.7345855,-0.8897927,2.252715,1.3793246,-1.0089197,-1.4003141,1.300117,0.6759872,0.7088951,0.7206924,0.46414796,0.23672508,1.5750914,-0.43450928,1.3524745,-3.0700314,-0.48016226,1.0884173,0.15527105,-0.45000076,0.99555963,0.81446654,-0.1325474,0.07816182,0.55943364,-0.7716138,0.7496639,0.7865887,1.0,0.0,0.0,0.0,0.0,0.0,0.0,-2.2250915,0.03450927,-0.80247444,-0.98633766,-2.0625114,-2.29007,13.800108,-1.157248,-0.036996603,2.3732991
4.8233094,41.161217,10.959676,11.970023,0.21671593,-0.47400448,0.058681637,-0.7833301,0.7211377,0.36821166,0.3186517,0.4943838,0.6511749,0.48997754,1.1765695,-0.56189406,-1.6977644,-0.8579275,2.3021536,1.444442,-0.95992196,1.2408663,-0.6211084,-1.7279403,-0.88254,2.2598562,1.383969,-1.0064001,-1.4048463,1.2866404,0.6609082,0.73041606,0.7122465,0.46501625,0.256579,1.544414,-0.43930817,1.362614,-3.066962,-0.4796822,0.98914313,0.14759207,-0.44246674,1.0033133,0.8156417,-0.14206393,0.07840863,0.55533636,-0.75837964,0.7625902,0.7654413,1.0,0.0,0.0,0.0,0.0,0.0,0.0,-2.1944141,0.03930816,-0.812614,-0.52571297,-1.3149261,-1.402092,2.0442963,-0.7380605,0.20902753,1.8826097
13.057121,37.392498,9.484369,2.6122313,-0.67184836,-1.0720389,0.28835285,-0.78466505,0.710534,0.33005533,0.2620899,0.48388648,0.65134263,0.49301553,1.1623998,-0.550055,-1.6949348,-0.856331,2.308245,1.4491032,-0.95709854,1.2268053,-0.6083368,-1.721564,-0.87578416,2.2669134,1.3886324,-1.0037088,-1.4066802,1.2741463,0.6304009,0.65694857,0.7035569,0.467525,0.27295598,1.5137677,-0.44409943,1.3717616,-3.0638957,-0.47920263,0.88996816,0.1403184,-0.4348488,1.0106665,0.8166061,-0.15127382,0.078931294,0.5513986,-0.7084942,0.7698725,0.71916574,1.0,0.0,0.0,0.0,0.0,0.0,0.0,-2.1637678,0.04409942,-0.82176155,-0.24969578,-1.2233496,-2.8777003,-7.463455,-0.83727837,0.5220711,1.5370548
19.602427,33.999268,8.417814,-4.5689898,-1.3291032,-1.555616,0.48444644,-0.7774114,0.69327295,0.322702,0.18199377,0.4498091,0.65299726,0.5103669,1.1490642,-0.5390095,-1.6892939,-0.8575848,2.3118944,1.4539322,-0.9526721,1.2127787,-0.59573114,-1.7154815,-0.87027097,2.273799,1.3933264,-1.0008631,-1.401609,1.2562253,0.60147905,0.5157407,0.68334675,0.4712432,0.28813505,1.4831519,-0.44888687,1.3799181,-3.0608323,-0.47872353,0.79089236,0.13375664,-0.42720032,1.0174266,0.81726646,-0.1599051,0.079852454,0.54784065,-0.6302578,0.770533,0.65581137,1.0,0.0,0.0,0.0,0.0,0.0,0.0,-2.133152,0.048886865,-0.8299181,0.47752857,-1.763773,-2.7023435,-14.226782,-2.0457745,0.7489681,1.4243901
23.09673,33.339657,8.181931,-8.3857765,-1.6695957,-1.8371263,0.6054417,-0.7809684,0.68834674,0.3210548,0.08418822,0.4459372,0.6542236,0.5187007,1.1346818,-0.5268965,-1.6833761,-0.86185217,2.3183928,1.4587488,-0.948993,1.1987921,-0.5832933,-1.709626,-0.8664963,2.280486,1.3980585,-0.9978767,-1.3975935,1.2397403,0.5808412,0.33108366,0.66367733,0.47518256,0.30184266,1.4525666,-0.4536705,1.3870846,-3.0577722,-0.4782449,0.69191563,0.12809229,-0.4195633,1.0234988,0.8175673,-0.16779439,0.08122608,0.544822,-0.5364767,0.76698303,0.5855275,1.0,0.0,0.0,0.0,0.0,0.0,0.0,-2.1025667,0.053670496,-0.8370846,0.4015684,-1.6157627,-1.8842101,-18.543434,-2.0182014,0.80572367,1.2935817
25.582027,36.591625,9.804218,-8.921105,-1.7297852,-1.8407612,0.7069966,-0.766041,0.6772223,0.36247435,0.012452139,0.41637585,0.6514795,0.5587352,1.122188,-0.5155711,-1.6733785,-0.8652511,2.3221238,1.4632065,-0.9420032,1.1849104,-0.5710281,-1.7037075,-0.8645766,2.2869253,1.402825,-0.99474007,-1.3848927,1.222187,0.5957937,0.14561754,0.63705057,0.47818083,0.31743306,1.4220119,-0.45845032,1.3932621,-3.054715,-0.47776675,0.5930379,0.123398304,-0.41191864,1.028911,0.81744283,-0.17495754,0.0830085,0.54248196,-0.43852785,0.76718503,0.52131647,1.0,0.0,0.0,0.0,0.0,0.0,0.0,-2.072012,0.05845031,-0.84326214,1.3252974,-1.7146587,1.6168952,-18.57188,-2.7082086,0.6852865,1.4940023
19.663654,35.36829,9.501952,-2.8401918,-1.0579083,-1.6461325,0.5317894,-0.7584391,0.6615053,0.35665515,0.019437648,0.40933278,0.6470971,0.57090217,1.1090665,-0.50487757,-1.668042,-0.8626328,2.3278587,1.4675347,-0.93764985,1.1711813,-0.55896795,-1.6976135,-0.86402154,2.2931242,1.4076086,-0.99145275,-1.3687798,1.200873,0.614018,0.02531833,0.61393374,0.47934586,0.33230382,1.3914876,-0.46322632,1.3984517,-3.0516608,-0.47728908,0.494259,0.11949825,-0.4043045,1.033798,0.8169541,-0.18156312,0.085080445,0.5407238,-0.36534792,0.7639128,0.47298488,1.0,0.0,0.0,0.0,0.0,0.0,0.0,-2.0414877,0.06322631,-0.8484517,1.6722918,-2.0719051,1.8408537,-12.060921,-2.2800326,0.41366816,1.4342487
13.531786,32.4609,8.4682045,2.8311834,-0.45116132,-1.4997679,0.33071896,-0.746578,0.6454448,0.34153974,0.01501138,0.38788015,0.6467953,0.58107907,1.0965235,-0.49442345,-1.6634595,-0.8625204,2.3319123,1.4722881,-0.93334484,1.157641,-0.54715,-1.691428,-0.8642056,2.299079,1.412398,-0.98802525,-1.3490627,1.1757098,0.6199009,-0.03311242,0.5897967,0.47936854,0.34605515,1.3609939,-0.4679947,1.4026542,-3.0486097,-0.4768119,0.39557892,0.11615753,-0.39674377,1.0382948,0.81621915,-0.1877882,0.08735449,0.5393432,-0.3154301,0.75599366,0.43719986,1.0,0.0,0.0,0.0,0.0,0.0,0.0,-2.010994,0.067994684,-0.85265416,2.018571,-2.4420977,0.5379915,-5.903374,-2.3201823,0.23468137,1.3256252
11.078833,28.98166,7.2079234,4.1622195,-0.25860983,-1.5547197,0.257067,-0.7374941,0.62859297,0.33354005,-0.040980287,0.36785546,0.64814925,0.587427,1.0838916,-0.48429072,-1.6580739,-0.86830366,2.3358645,1.4772129,-0.92928255,1.1442991,-0.53560865,-1.6852672,-0.8648789,2.3047857,1.4171835,-0.9844709,-1.3290447,1.1472272,0.6144552,-0.07891524,0.56447,0.47911426,0.3583125,1.3305306,-0.47275925,1.4058706,-3.0455618,-0.47633517,0.29699746,0.113266945,-0.3892975,1.0424417,0.81531453,-0.19367486,0.08980251,0.5382264,-0.2721627,0.74221957,0.402611,1.0,0.0,0.0,0.0,0.0,0.0,0.0,-1.9805306,0.07275924,-0.85587054,2.0448446,-2.7703762,-0.6134033,-4.655111,-2.430141,0.18872023,1.1784732
5.423766,21.764885,4.290075,7.114769,0.08419675,-1.6292253,0.06172972,-0.73505443,0.60754377,0.28022873,-0.03875455,0.3296355,0.6465446,0.5884515,1.0707937,-0.47485426,-1.6572443,-0.8687543,2.3377492,1.481838,-0.92562574,1.1311175,-0.52438676,-1.6794345,-0.8658068,2.310176,1.4219652,-0.9808088,-1.3144398,1.114099,0.5724736,-0.09790889,0.5308094,0.47834262,0.3686414,1.300098,-0.47752,1.4081018,-3.042517,-0.47585893,0.19851458,0.11070824,-0.38206863,1.0462481,0.8143737,-0.19921836,0.092468224,0.5371751,-0.24276042,0.71674263,0.36891943,1.0,0.0,0.0,0.0,0.0,0.0,0.0,-1.9500979,0.07751998,-0.8581018,1.4704227,-3.2316923,-4.268098,-2.0195394,-3.2518387,0.10828972,0.98210573
2.6136365,10.851662,0.09038198,5.6289234,0.042708993,-1.9776899,-0.031095654,-0.7285311,0.57129985,0.21375215,-0.09105869,0.25117776,0.64857155,0.59771985,1.0582644,-0.46725678,-1.6580594,-0.8749127,2.3352938,1.4868224,-0.92103684,1.1180617,-0.51359403,-1.6743286,-0.86704373,2.3150434,1.4267412,-0.97705036,-1.3025962,1.0679358,0.48992535,-0.1327311,0.47232914,0.47794113,0.37802392,1.2696958,-0.4822731,1.4093491,-3.039475,-0.47538316,0.10013016,0.10845995,-0.37524796,1.0496242,0.81352794,-0.20427252,0.095485516,0.5360293,-0.21146816,0.6724327,0.32309705,1.0,0.0,0.0,0.0,0.0,0.0,0.0,-1.9196957,0.082273096,-0.8593491,1.204586,-4.541278,-8.313781,-3.6286488,-5.772555,0.15565157,0.8788347
-0.6320615,1.0786297,-4.044654,4.2969093,0.02321142,-2.3297997,-0.14112467,-0.7381707,0.54734904,0.11424736,-0.14491867,0.21537709,0.64800906,0.58831125,1.0442446,-0.45885912,-1.6629038,-0.8815356,2.3365812,1.4915421,-0.9182192,1.1050364,-0.5032915,-1.6704261,-0.8688147,2.3192854,1.4315134,-0.9732166,-1.3024216,1.017887,0.35704646,-0.19248831,0.40790498,0.47748986,0.38485983,1.2393241,-0.4870224,1.4096131,-3.036436,-0.47490788,0.0018441057,0.10653496,-0.3690033,1.0524528,0.81291807,-0.20862179,0.09899897,0.53464025,-0.17918313,0.6089109,0.26576468,1.0,0.0,0.0,0.0,0.0,0.0,0.0,-1.8893241,0.087022394,-0.8596131,0.033783913,-4.9394608,-13.309998,-6.1407,-6.4173994,0.14432669,0.6147504
-0.26346445,-8.872517,-6.773907,1.019269,-0.04335159,-2.6082637,-0.048457634,-0.7206905,0.47142658,0.11006319,-0.2102814,0.07969655,0.6555671,0.60199416,1.0329673,-0.45614883,-1.6594198,-0.88984287,2.327255,1.4970702,-0.91301715,1.0920645,-0.49373347,-1.6676815,-0.87140775,2.3225813,1.4362875,-0.96931607,-1.294912,0.9353087,0.24669509,-0.2820554,0.30340707,0.4779199,0.39146465,1.2089825,-0.49176788,1.4088951,-3.0334003,-0.47443306,-0.09634369,0.10498047,-0.36350632,1.0546116,0.8125557,-0.21211502,0.10305387,0.5330482,-0.14130014,0.5300486,0.19608918,1.0,0.0,0.0,0.0,0.0,0.0,0.0,-1.8589824,0.09176788,-0.8588951,0.8485317,-8.201754,-11.087897,-9.099105,-10.470372,0.2346456,0.565815
-4.4213743,-22.401464,-10.553055,1.5539777,0.26610616,-2.7052577,-0.083518535,-0.7182337,0.37323153,0.09208124,-0.22979175,-0.12573783,0.6681454,0.60515386,1.0202411,-0.45641032,-1.6584734,-0.89438695,2.3100076,1.5031021,-0.90880066,1.0791765,-0.4853335,-1.6658103,-0.87484765,2.3243475,1.4410731,-0.96535736,-1.2864386,0.8083345,0.16703819,-0.36509243,0.13405505,0.47931623,0.39685568,1.1786709,-0.49650955,1.4071959,-3.0303674,-0.47395873,-0.1944333,0.10372591,-0.35891724,1.0560209,0.8124548,-0.21471933,0.10766592,0.5312445,-0.114769995,0.43483296,0.11981639,1.0,0.0,0.0,0.0,0.0,0.0,0.0,-1.8286709,0.096509546,-0.8571959,0.9940386,-12.659073,-8.03841,-8.443218,-16.97794,0.29388666,0.39715767
-10.317209,-58.643562,-20.837471,-3.0030735,1.0035795,-3.3066769,0.008135922,-0.6952426,0.15087526,0.11295365,-0.33002925,-0.3651003,0.6730077,0.5878051,1.0096523,-0.470246,-1.654515,-0.90785056,2.2878375,1.5083739,-0.9065769,1.0664736,-0.47905308,-1.664336,-0.8793709,2.3238974,1.4458739,-0.9613691,-1.2638723,0.5679515,0.14048223,-0.4817646,-0.10533012,0.48053232,0.3986786,1.1483898,-0.5012474,1.4045166,-3.0273378,-0.47348487,-0.29242486,0.10262394,-0.35569,1.056427,0.8126143,-0.21624838,0.11263825,0.52934605,-0.104221724,0.28431627,0.012171062,1.0,0.0,0.0,0.0,0.0,0.0,0.0,-1.7983898,0.1012474,-0.85451657,2.5621176,-24.04926,-2.7754545,-11.78289,-24.061966,0.20878315,-0.049817562
-29.850582,-143.60484,-46.668915,-9.35198,3.4745274,-4.697378,-0.032295123,-0.66896266,-0.2801131,0.096263625,-0.4531988,-0.531851,0.67777205,0.55336666,0.99957734,-0.5070644,-1.6547096,-0.9246908,2.2707124,1.513651,-0.90603244,1.0541083,-0.47690016,-1.6629722,-0.8854153,2.3208609,1.4506727,-0.9574047,-1.2255063,0.097160935,0.13494743,-0.6455574,-0.37082514,0.4787395,0.39424318,1.1181393,-0.50597763,1.400858,-3.024311,-0.4730115,-0.39031842,0.101172924,-0.355011,1.0552555,0.8131603,-0.2161689,0.11722182,0.52754164,-0.15613829,-0.004919093,-0.16143598,1.0,0.0,0.0,0.0,0.0,0.0,0.0,-1.7681392,0.105977625,-0.85085803,4.3724775,-47.247505,-0.5846411,-16.473507,-26.899576,-0.42904615,-0.8755863
-32.47108,-162.30122,-49.643257,-8.0037565,5.0828524,-4.6055636,0.19113277,-0.5610199,-0.55228,0.22798952,-0.4542816,-0.5492105,0.6632555,0.49443918,0.9980063,-0.53212816,-1.6401733,-0.9308435,2.2659397,1.5169983,-0.9079608,1.0425841,-0.48018032,-1.6609371,-0.892812,2.3155813,1.4554163,-0.9535299,-1.1266075,-0.4706775,0.22670658,-0.77095824,-0.5814578,0.47044474,0.38387647,1.0879192,-0.51070404,1.3962213,-3.0212872,-0.4725386,-0.48811412,0.09890461,-0.35739517,1.0523465,0.81395996,-0.2145038,0.12041842,0.5262667,-0.25012985,-0.31758237,-0.3345277,1.0,0.0,0.0,0.0,0.0,0.0,0.0,-1.7379192,0.110704035,-0.84622127,10.378885,-57.065857,9.255499,-12.520493,-21.437948,-1.5702784,-1.4330268
-14.109806,-129.79495,-37.399967,-12.730366,4.1702857,-4.2206464,0.64054185,-0.37006772,-0.7132925,0.26265302,-0.5342132,-0.5814933,0.650997,0.4113856,1.0055773,-0.55150956,-1.6346718,-0.94623333,2.257432,1.520516,-0.9123913,1.0328337,-0.48881108,-1.6577785,-0.901438,2.3086462,1.4600531,-0.94981056,-0.92428476,-0.99485624,0.34677255,-0.89305675,-0.73195046,0.45780084,0.36709115,1.0577288,-0.51542664,1.3906074,-3.0182667,-0.47206616,-0.5858121,0.09599638,-0.36255264,1.047824,0.81464833,-0.21154447,0.12174326,0.5260945,-0.30630723,-0.57956225,-0.491796,1.0,0.0,0.0,0.0,0.0,0.0,0.0,-1.7077287,0.11542663,-0.84060735,20.309723,-52.718437,12.368101,-12.189711,-15.355921,-2.327329,-1.9203663
24.015823,-46.66537,-8.657016,-19.824507,1.1641917,-3.298881,1.2798287,-0.077062875,-0.7520009,0.3184847,-0.579983,-0.64309365,0.6557222,0.31278467,1.0251274,-0.56401116,-1.6259301,-0.9594363,2.2443368,1.5256253,-0.9185321,1.0262228,-0.50143296,-1.6533172,-0.9111569,2.3005056,1.4645811,-0.9463144,-0.5758099,-1.3518864,0.48135978,-0.9989136,-0.8416598,0.4483852,0.34366065,1.0275688,-0.5201416,1.3840172,-3.015249,-0.4715942,-0.6834124,0.093315125,-0.36938858,1.0420797,0.81464565,-0.20784763,0.12135343,0.52766013,-0.25824535,-0.71386087,-0.60294867,1.0,0.0,0.0,0.0,0.0,0.0,0.0,-1.6775688,0.120141596,-0.8340172,34.170757,-35.88705,14.138508,-10.815441,-11.008894,-1.8123865,-2.3847103
43.546944,12.577184,9.174011,-18.7215,-0.8749682,-2.6929855,1.204577,0.14010847,-0.7795864,0.17500128,-0.5359814,-0.65616137,0.66288584,0.18486698,1.0402336,-0.5793916,-1.635817,-0.96475506,2.2348895,1.5308697,-0.9278277,1.0236269,-0.5163446,-1.6484668,-0.9214127,2.2915792,1.46905,-0.9431301,-0.1581163,-1.5379653,0.48934054,-1.035775,-0.9094132,0.4446091,0.31022328,0.9974389,-0.52485657,1.3764517,-3.0122342,-0.47112274,-0.78091514,0.091573715,-0.37694168,1.0355575,0.813756,-0.20387964,0.1198163,0.5309221,-0.14812118,-0.7631598,-0.67044705,1.0,0.0,0.0,0.0,0.0,0.0,0.0,-1.6474389,0.12485656,-0.8264517,40.650078,-18.701672,1.7224848,-4.0700912,-6.723368,-0.9087622,-3.3120632
42.74684,39.131996,14.423843,-11.877433,-1.5297621,-2.3813486,0.70835125,0.24742214,-0.79719466,-0.002178335,-0.5077625,-0.60693055,0.6604806,0.08807881,1.0483692,-0.5960641,-1.6486846,-0.97218895,2.2308862,1.5350981,-0.9343222,1.0248896,-0.53214985,-1.6447113,-0.9316132,2.2823706,1.4735037,-0.9403301,0.21752864,-1.5949502,0.34057903,-1.0159345,-0.92442334,0.4446786,0.27014977,0.96733904,-0.5295639,1.367912,-3.0092227,-0.47065172,-0.8783204,0.090984344,-0.3847351,1.028565,0.81223094,-0.19978295,0.11775986,0.5352571,-0.029243011,-0.77869546,-0.71127987,1.0,0.0,0.0,0.0,0.0,0.0,0.0,-1.617339,0.1295639,-0.81791204,36.522312,-5.752611,-13.989282,1.680851,-1.5138745,-0.26871562,-3.9709866
33.598164,35.95454,8.766832,-8.700836,-1.7129977,-2.732233,0.17570466,0.35548127,-0.81403905,-0.2724137,-0.5360577,-0.5753019,0.65835553,0.058239367,1.0604377,-0.61355376,-1.6719526,-0.985219,2.2248404,1.5393393,-0.9345062,1.0293719,-0.5480047,-1.6438129,-0.94160104,2.273265,1.4779612,-0.9379249,0.5222112,-1.5825197,0.009059413,-0.9935509,-0.9060684,0.4451999,0.23040324,0.9372697,-0.5342674,1.3583989,-3.0062141,-0.47018114,-0.97562826,0.0915308,-0.39281464,1.0211076,0.81053257,-0.19525251,0.11577991,0.539915,0.08479036,-0.81134397,-0.76027095,1.0,0.0,0.0,0.0,0.0,0.0,0.0,-1.5872697,0.13426742,-0.8083989,29.629671,1.1685848,-32.28874,2.078843,1.6964316,-0.23992062,-4.035515
26.375904,32.893032,5.2022324,-5.431313,-1.6949531,-2.8153753,-0.1358706,0.4779319,-0.81106645,-0.46257162,-0.5149351,-0.59679395,0.66091645,0.07104944,1.077165,-0.62911135,-1.69007,-0.99309456,2.2135854,1.5440528,-0.93082,1.0364729,-0.56348664,-1.6468418,-0.95127606,2.2643385,1.4824282,-0.93586975,0.7706049,-1.5369462,-0.40454692,-0.9589309,-0.888537,0.44616407,0.19680046,0.9072299,-0.53896713,1.3479135,-3.0032084,-0.46971104,-1.0728389,0.09313202,-0.401268,1.0131321,0.8090007,-0.1900229,0.11430982,0.54437333,0.18935144,-0.8516832,-0.81394804,1.0,0.0,0.0,0.0,0.0,0.0,0.0,-1.5572299,0.13896713,-0.7979135,24.224545,4.484272,-40.655224,3.3998847,1.6012311,-0.1992464,-3.4697742
17.721956,31.029678,4.236102,1.731595,-1.1024278,-2.4215047,-0.38699117,0.57455987,-0.8127364,-0.5893306,-0.42171928,-0.6382958,0.6700071,0.003109863,1.0939289,-0.64476025,-1.7057748,-0.993448,2.2005088,1.5494289,-0.9355588,1.0456759,-0.57850796,-1.6538608,-0.9602196,2.2554426,1.4869143,-0.93416077,0.96891314,-1.4906951,-0.79924893,-0.8727941,-0.8903416,0.4487024,0.16197024,0.87722063,-0.5436592,1.3364568,-3.000206,-0.4692414,-1.1699523,0.09554958,-0.41010284,1.0047016,0.80782413,-0.18415333,0.11350885,0.5482914,0.26516724,-0.88761896,-0.85781676,1.0,0.0,0.0,0.0,0.0,0.0,0.0,-1.5272206,0.1436592,-0.78645676,19.437397,4.551482,-38.955666,8.622098,-0.31918287,0.028634071,-3.5885215
7.459015,31.518269,5.3868046,10.926562,-0.1423325,-1.6844207,-0.53433657,0.60517985,-0.8132816,-0.6495992,-0.33136195,-0.65109587,0.66885287,-0.039123856,1.1061939,-0.6598361,-1.7188207,-0.9933558,2.1903331,1.5537995,-0.93807316,1.0563303,-0.5931669,-1.6640861,-0.9679568,2.2464514,1.491429,-0.93279225,1.0969855,-1.458024,-1.096012,-0.74050397,-0.9024925,0.45215604,0.12818357,0.8472409,-0.5483475,1.3240296,-2.9972064,-0.46877226,-1.2669686,0.09840965,-0.41918945,0.99597853,0.8070708,-0.1779273,0.113293655,0.5514918,0.2999153,-0.91033024,-0.8833234,1.0,0.0,0.0,0.0,0.0,0.0,0.0,-1.4972409,0.14834747,-0.77402955,12.642813,3.1756878,-29.350054,13.30098,-1.3771296,0.23567677,-3.4504235
0.39932346,32.813915,7.2139883,16.918701,0.6254917,-1.0413028,-0.5397402,0.6180676,-0.8190911,-0.6812919,-0.27521566,-0.64706796,0.66234475,-0.11126093,1.1181371,-0.675076,-1.7322153,-0.99547833,2.1817446,1.5576634,-0.94391835,1.067782,-0.6076494,-1.6763866,-0.9742987,2.2373457,1.4959761,-0.93177754,1.1610786,-1.4453409,-1.2741475,-0.598295,-0.9142772,0.45539218,0.0925131,0.81729126,-0.5530319,1.3106328,-2.9942098,-0.4683036,-1.3638879,0.101379395,-0.4284134,0.9871053,0.8067121,-0.17162561,0.11344642,0.55397666,0.30366862,-0.92065537,-0.89543664,1.0,0.0,0.0,0.0,0.0,0.0,0.0,-1.4672912,0.15303192,-0.7606328,6.3987017,1.1541843,-17.612362,14.33661,-1.3820052,0.28386116,-3.595683
-2.8011398,34.82129,8.879827,18.42323,0.8939148,-0.6271491,-0.40472698,0.60393035,-0.8204835,-0.6961506,-0.2669595,-0.6561471,0.6608143,-0.10565109,1.128175,-0.68969774,-1.7460016,-1.0009947,2.171731,1.5620575,-0.94234264,1.0794321,-0.6221071,-1.6897018,-0.97949433,2.2281141,1.5005518,-0.93107754,1.166646,-1.4462703,-1.3504497,-0.4928806,-0.92735237,0.45815325,0.062510505,0.78737164,-0.55771255,1.2962676,-2.9912162,-0.4678354,-1.4607103,0.10428715,-0.43766022,0.97813386,0.80664617,-0.16537787,0.1138023,0.55589664,0.2948204,-0.92029303,-0.90493935,1.0,0.0,0.0,0.0,0.0,0.0,0.0,-1.4373716,0.15771255,-0.7462676,0.6578684,-0.21243095,-7.5409174,10.684866,-1.5457749,0.24462938,-3.0007586
-1.731801,36.371353,9.897756,15.57429,0.71060354,-0.5029901,-0.20507243,0.5831346,-0.82131225,-0.7060857,-0.30123124,-0.6514211,0.66194415,-0.15737125,1.1377456,-0.7042383,-1.7603104,-1.0096174,2.162972,1.5667462,-0.94681466,1.0908343,-0.63662297,-1.7032878,-0.98416257,2.2187872,1.5051504,-0.930677,1.1319333,-1.45373,-1.3614246,-0.45765388,-0.93528795,0.46010262,0.032524787,0.75748205,-0.5623894,1.2809349,-2.9882257,-0.46736768,-1.5574359,0.107144356,-0.44685364,0.9690042,0.8067427,-0.15913345,0.11426876,0.5574813,0.2909859,-0.9135659,-0.92294186,1.0,0.0,0.0,0.0,0.0,0.0,0.0,-1.407482,0.16238937,-0.7309349,-3.3077955,-0.8489132,-1.1187077,3.6730886,-1.028502,0.11681914,-2.9801853
5.3507123,38.561058,11.187534,9.182123,0.09865987,-0.6376518,0.07057696,0.59626615,-0.8263487,-0.71549195,-0.34884107,-0.66395646,0.6588509,-0.18014243,1.1504608,-0.71925783,-1.774837,-1.0190467,2.1523914,1.5710355,-0.94869125,1.1018969,-0.65124184,-1.7167652,-0.9890044,2.2093725,1.5097586,-0.9305597,1.0981773,-1.4648798,-1.343568,-0.4925996,-0.94406587,0.46055004,0.004893569,0.7276225,-0.56705856,1.2646358,-2.985238,-0.4669004,-1.6540648,0.1101346,-0.45594406,0.9595907,0.8068317,-0.1527442,0.1148145,0.55902535,0.31000012,-0.9020227,-0.9548107,1.0,0.0,0.0,0.0,0.0,0.0,0.0,-1.3776225,0.16705856,-0.7146358,-3.2428741,-1.1852503,1.6834736,-3.3735752,-1.0485888,-0.112605095,-2.7246318
6.8458776,43.7628,13.449299,9.457563,0.041080236,-0.45257777,0.14798112,0.58422464,-0.820911,-0.70134753,-0.31796056,-0.6736961,0.67072463,-0.12852779,1.1603193,-0.73333293,-1.7868999,-1.0208005,2.1420028,1.5768311,-0.9434125,1.1126295,-0.6659313,-1.7299278,-0.99419045,2.1998625,1.5143782,-0.9306484,1.0654838,-1.4705123,-1.3075305,-0.5269348,-0.9540446,0.46211532,-0.013285065,0.69779253,-0.57172394,1.2473712,-2.9822533,-0.46643358,-1.750597,0.11332655,-0.46484375,0.94990027,0.8068086,-0.14622715,0.11542993,0.5606723,0.33006182,-0.8806839,-0.9810724,1.0,0.0,0.0,0.0,0.0,0.0,0.0,-1.3477925,0.17172393,-0.6973712,-3.1457663,-0.62520504,3.4876108,-3.3358693,-1.1662483,0.023669004,-1.7686486
6.49578,41.40227,12.130422,7.5456266,-0.10426116,-0.53872454,0.17090501,0.5471436,-0.82621247,-0.71688855,-0.38064343,-0.6753315,0.650925,-0.19779266,1.1673439,-0.74855256,-1.8016167,-1.0322548,2.1323292,1.5794706,-0.95042765,1.122954,-0.68067414,-1.7428348,-0.99996686,2.1902647,1.5189959,-0.93094116,1.0218459,-1.4757777,-1.2854763,-0.59406245,-0.9621167,0.46109205,-0.03451189,0.6679921,-0.5763855,1.229142,-2.9792717,-0.46596724,-1.8470328,0.11675072,-0.47356415,0.939869,0.80665857,-0.13948435,0.11614663,0.5624553,0.3540076,-0.8631258,-1.0176027,1.0,0.0,0.0,0.0,0.0,0.0,0.0,-1.3179921,0.17638549,-0.67914194,-4.2054415,-0.580883,2.0428896,-6.584418,-0.965178,-0.28297305,-2.0803883
8.498028,45.292835,13.719351,7.4007654,-0.2367571,-0.44514963,0.22554906,0.54913354,-0.8205495,-0.70604306,-0.38657057,-0.70216125,0.66883767,-0.11924329,1.1778674,-0.7627291,-1.8134391,-1.0386239,2.1200485,1.5858797,-0.9428655,1.1329352,-0.6954246,-1.7555511,-1.0063527,2.1805258,1.5236174,-0.9313665,0.990766,-1.4749458,-1.2676651,-0.65303344,-0.97810054,0.4618335,-0.04500706,0.63822174,-0.5810394,1.209949,-2.976293,-0.46550137,-1.9433721,0.12044525,-0.4820633,0.9294976,0.80634075,-0.13251325,0.11701561,0.564413,0.38167286,-0.8389338,-1.0507201,1.0,0.0,0.0,0.0,0.0,0.0,0.0,-1.2882217,0.18103942,-0.659949,-2.9733539,0.03774166,1.6178846,-5.7879686,-1.7414451,-0.093984604,-1.0058165
2.7520475,47.116222,14.245818,12.444149,0.277781,-0.13703221,0.097749576,0.5126337,-0.821946,-0.6849124,-0.3501642,-0.7102049,0.6766483,-0.08418875,1.1841985,-0.77761924,-1.8240423,-1.0413691,2.1095052,1.5912822,-0.93978536,1.1425444,-0.71015984,-1.7680557,-1.0130017,2.170619,1.528256,-0.93184906,0.9513231,-1.4732609,-1.2452066,-0.66844356,-0.9952818,0.46413147,-0.049144275,0.6084814,-0.58569336,1.1897933,-2.9733174,-0.46503597,-2.039615,0.1242733,-0.49031448,0.9188917,0.8058898,-0.12545168,0.11803135,0.5664556,0.38964918,-0.81274587,-1.0707908,1.0,0.0,0.0,0.0,0.0,0.0,0.0,-1.2584814,0.18569335,-0.63979334,-3.7933588,0.10881424,2.1211147,-1.4176369,-1.9051075,0.13595223,-0.3675863
-6.880245,48.68648,14.271502,20.436815,1.1537249,0.22519737,-0.16262211,0.47566268,-0.8181634,-0.68165004,-0.27022418,-0.6951011,0.6811408,-0.08982518,1.1901107,-0.79197615,-1.8362207,-1.040024,2.1011088,1.5963701,-0.9408316,1.1516768,-0.7248598,-1.7803657,-1.0192692,2.160613,1.5329252,-0.9323631,0.90094703,-1.4692434,-1.2264972,-0.61238545,-1.0031875,0.467956,-0.052034378,0.57877064,-0.59033966,1.1686761,-2.9703445,-0.46457106,-2.1357615,0.12794924,-0.49832153,0.9082344,0.8054477,-0.11851661,0.11913471,0.5683438,0.36646637,-0.7895037,-1.0708342,1.0,0.0,0.0,0.0,0.0,0.0,0.0,-1.2287706,0.19033965,-0.6186761,-4.8710227,0.31223297,1.8348932,5.746758,-1.0497689,0.4016161,-0.24609491
-6.97131,43.7329,11.902818,18.122719,1.050214,-0.007141292,-0.17219965,0.45822373,-0.8257737,-0.7125726,-0.3227559,-0.6942699,0.652786,-0.1877378,1.1974992,-0.8074371,-1.8516229,-1.0515448,2.091186,1.5982039,-0.9511369,1.160319,-0.7395597,-1.7926891,-1.0251515,2.1505651,1.5376059,-0.93297344,0.8527361,-1.4705781,-1.2344925,-0.5795727,-1.0059626,0.46800655,-0.06397695,0.54908943,-0.59498215,1.1465981,-2.9673748,-0.46410656,-2.231812,0.13143301,-0.506176,0.89747804,0.80508655,-0.111627765,0.12031982,0.5699983,0.3482143,-0.7769352,-1.0837157,1.0,0.0,0.0,0.0,0.0,0.0,0.0,-1.1990894,0.19498214,-0.5965981,-4.6497345,-0.22912025,-0.8326769,3.4599423,-0.5274534,-0.044983625,-1.1595964
-3.8427472,37.110855,8.821804,11.3151,0.44471484,-0.3709399,-0.017491698,0.41656968,-0.8285307,-0.74498624,-0.4337223,-0.7033016,0.61919284,-0.2412209,1.201976,-0.8224128,-1.8671877,-1.0685238,2.080235,1.5995252,-0.95709556,1.1684119,-0.75429493,-1.8053005,-1.0313237,2.1404867,1.5422522,-0.93374115,0.79553133,-1.4747839,-1.2702293,-0.6289845,-1.0092717,0.46281105,-0.08100164,0.5194378,-0.5996208,1.1235602,-2.9644082,-0.46364254,-2.3277664,0.13488102,-0.5139656,0.88637567,0.80476755,-0.104448065,0.12165895,0.57152337,0.3491852,-0.771519,-1.1254343,1.0,0.0,0.0,0.0,0.0,0.0,0.0,-1.1694378,0.19962081,-0.5735602,-5.514002,-0.5073786,-3.6746025,-4.7142267,-0.5512476,-0.71551204,-1.6873345
-14.459299,33.885616,6.268484,13.500936,0.74793345,-0.07230142,-0.04617876,0.2887956,-0.8242458,-0.72518194,-0.48165646,-0.7169388,0.635293,-0.18061636,1.1972914,-0.8367195,-1.8778187,-1.0794894,2.0687928,1.6057814,-0.9518028,1.175469,-0.76905304,-1.8181751,-1.0383122,2.1303396,1.5468565,-0.93462425,0.6768096,-1.4765096,-1.2935538,-0.72104377,-1.0176855,0.45877632,-0.090856075,0.4898157,-0.60425186,1.0995636,-2.9614444,-0.463179,-2.423625,0.13819599,-0.52169037,0.8747938,0.8044962,-0.09678929,0.123212755,0.57291895,0.33042675,-0.7659833,-1.1753927,1.0,0.0,0.0,0.0,0.0,0.0,0.0,-1.1398157,0.20425186,-0.5495636,-11.5472555,-0.27885437,-2.477312,-8.899582,-1.1446476,-0.62954426,-0.9942204
-71.21881,16.833351,-6.8230634,33.99942,3.3535745,1.1254659,-0.72079575,-0.13539058,-0.82231003,-0.70338464,-0.56120616,-0.715763,0.6253109,-0.13970864,1.16193,-0.851284,-1.8885136,-1.0944328,2.0587633,1.6093876,-0.9485951,1.1795164,-0.7838178,-1.8311031,-1.0465004,2.1200933,1.551417,-0.9355636,0.31659192,-1.477367,-1.2927836,-0.8491531,-1.0291793,0.45427707,-0.09532727,0.46022367,-0.6088791,1.074609,-2.9584835,-0.46271592,-2.5193877,0.14042902,-0.5295563,0.8626826,0.80469054,-0.08848616,0.1250431,0.57359177,0.19152334,-0.7845732,-1.2292565,1.0,0.0,0.0,0.0,0.0,0.0,0.0,-1.1102237,0.20887908,-0.524609,-35.257698,-0.34940243,-0.029444695,-12.152815,-1.8939734,-0.67246556,-0.5473286
-97.59507,17.526447,-9.045289,43.002827,4.614267,2.1447198,-0.7047282,-0.40489456,-0.81101495,-0.5899351,-0.7025977,-0.6859657,0.64397657,0.25845122,1.139027,-0.8649193,-1.8900965,-1.1167603,2.0514967,1.6158147,-0.9097185,1.1789824,-0.79853684,-1.8434246,-1.0564072,2.1098204,1.555947,-0.9362331,-0.1736794,-1.4714241,-1.2123322,-1.0348499,-1.029627,0.4515942,-0.057589617,0.4306612,-0.6135025,1.0486976,-2.9555254,-0.4622533,-2.6150546,0.14083052,-0.5375519,0.850088,0.8054687,-0.07951333,0.12703177,0.5733766,-0.0081404615,-0.7958321,-1.2756606,1.0,0.0,0.0,0.0,0.0,0.0,0.0,-1.0806612,0.2135025,-0.49869758,-48.04999,0.22518635,7.8937054,-17.690886,-1.0710001,-0.5576551,3.7424393
-71.63588,52.072227,10.272943,39.658596,4.151844,3.0230684,-0.1134115,-0.44482693,-0.7947701,-0.2936062,-0.7416033,-0.6227345,0.6612003,0.3865059,1.1344997,-0.87801385,-1.8727852,-1.1305676,2.0475469,1.622067,-0.89758253,1.1741358,-0.8131128,-1.8535507,-1.0680497,2.0997725,1.5604807,-0.9364076,-0.585929,-1.4537729,-0.94767845,-1.2052473,-0.998719,0.45389453,-0.0032165952,0.4011283,-0.6181221,1.0218302,-2.9525707,-0.46179113,-2.710626,0.13948393,-0.545208,0.83746403,0.80641544,-0.07048138,0.12866107,0.57286364,-0.17737198,-0.7471025,-1.2637386,1.0,0.0,0.0,0.0,0.0,0.0,0.0,-1.0511283,0.2181221,-0.4718302,-40.48501,1.5286446,26.02613,-16.392756,2.3915768,0.2019167,5.7012925
-34.33615,72.19513,23.755573,29.429024,2.8884828,2.7239735,0.36434734,-0.43171522,-0.7906583,-0.21787287,-0.75383437,-0.5779593,0.65744364,0.50858593,1.1309643,-0.89217865,-1.875338,-1.1434331,2.0419765,1.6262251,-0.885549,1.1664149,-0.82749516,-1.8608463,-1.0810158,2.0901976,1.5650507,-0.935967,-0.83263236,-1.4332473,-0.6591289,-1.3259479,-0.9441399,0.4587179,0.061187092,0.37162495,-0.6227379,0.99400777,-2.9496188,-0.46132943,-2.8061016,0.1369729,-0.5521698,0.825162,0.8070967,-0.06189857,0.12956008,0.5726932,-0.2778843,-0.67100084,-1.2236018,1.0,0.0,0.0,0.0,0.0,0.0,0.0,-1.0216249,0.22273788,-0.44400775,-24.2311,2.0064354,28.196358,-11.704469,5.261302,0.70059896,6.8621464
-11.943666,54.78186,16.647173,16.327774,1.4073529,0.9395976,0.33971238,-0.4022251,-0.798696,-0.49282342,-0.77244914,-0.58383894,0.6180621,0.49895096,1.1261923,-0.9073647,-1.9101286,-1.1582607,2.0318136,1.6268569,-0.8860719,1.1574866,-0.84174687,-1.86711,-1.094825,2.081111,1.5696284,-0.9349504,-0.91192573,-1.4224682,-0.61665124,-1.3981326,-0.8974359,0.45749515,0.11605759,0.3421507,-0.62734604,0.96523136,-2.9466698,-0.4608682,-2.9014819,0.13395548,-0.55869675,0.8128824,0.80747175,-0.053399973,0.12996843,0.5729276,-0.3126704,-0.63560575,-1.2325625,1.0,0.0,0.0,0.0,0.0,0.0,0.0,-0.99215066,0.22734603,-0.41523135,-7.6865196,1.0595083,3.8525224,-6.9133997,4.554677,-0.10851622,5.7482867
-4.375379,37.60823,8.125025,9.712257,0.5953256,-0.28004837,0.17346622,-0.41342637,-0.80110985,-0.64838946,-0.77561355,-0.6207746,0.6091694,0.49894422,1.116144,-0.92185783,-1.9319489,-1.1723864,2.0190334,1.6305453,-0.885056,1.1484629,-0.85595375,-1.8744056,-1.1090233,2.072276,1.5741736,-0.9334579,-0.89859295,-1.4202967,-0.7675217,-1.4258553,-0.8797061,0.45263904,0.16058215,0.312706,-0.6319504,0.9355019,-2.9437237,-0.46040744,-2.9967668,0.13082361,-0.5651245,0.8001809,0.807674,-0.0444295,0.1303275,0.57332665,-0.3165403,-0.63561064,-1.2852528,1.0,0.0,0.0,0.0,0.0,0.0,0.0,-0.96270597,0.23195037,-0.38550186,1.4783382,0.16634464,-15.186989,-2.4565458,1.563549,-0.6959021,4.5443773
-19.218424,26.941313,0.6423514,13.835064,1.069813,-0.37538922,-0.17363301,-0.51893884,-0.7987823,-0.7153942,-0.7732654,-0.64839476,0.6212206,0.44504207,1.0965691,-0.93583196,-1.945945,-1.1863499,2.0074368,1.6362957,-0.8889537,1.1393992,-0.8701673,-1.883786,-1.1232598,2.0634222,1.5786673,-0.9316259,-0.9084096,-1.4221468,-0.994641,-1.4213269,-0.88847774,0.44721147,0.19082686,0.28329086,-0.6365509,0.9048202,-2.9407804,-0.4599471,-3.0919564,0.12746477,-0.5717163,0.7868205,0.8079369,-0.034680635,0.13092622,0.5734922,-0.34592083,-0.6556911,-1.3556587,1.0,0.0,0.0,0.0,0.0,0.0,0.0,-0.93329084,0.2365509,-0.3548202,-0.78264475,-0.3257513,-22.638512,0.8961439,-1.2647629,-0.92173815,3.036499
-35.6823,28.163345,-0.6971657,21.192102,2.0149696,0.24468392,-0.4089225,-0.6142733,-0.7953174,-0.7229146,-0.75915337,-0.6238964,0.6403898,0.42835954,1.0779718,-0.94969904,-1.9560775,-1.1991751,2.0010326,1.6427063,-0.88878995,1.1298167,-0.884399,-1.8951995,-1.1372769,2.0544958,1.5831228,-0.9295526,-0.973833,-1.4241474,-1.1897621,-1.3934206,-0.8956564,0.4437671,0.21291564,0.2539053,-0.6411476,0.87318736,-2.9378402,-0.45948726,-3.1870508,0.12351036,-0.57849884,0.77284646,0.8084454,-0.024198424,0.131748,0.5731256,-0.41560435,-0.674435,-1.4144684,1.0,0.0,0.0,0.0,0.0,0.0,0.0,-0.9039053,0.24114761,-0.32318735,-6.2791586,-0.41484833,-19.382309,3.3280373,-1.2224078,-0.7646501,2.2369237
-43.487175,36.421585,2.547526,25.753042,2.6570833,0.9642993,-0.46724528,-0.68172705,-0.78810644,-0.72291684,-0.7569694,-0.5766043,0.6371543,0.38957608,1.061644,-0.9632096,-1.9674913,-1.2129738,1.9968354,1.6468383,-0.890595,1.1192766,-0.8986164,-1.9080169,-1.1509945,2.045642,1.5875498,-0.92732006,-1.079841,-1.4217153,-1.3120052,-1.3626298,-0.88369507,0.44103783,0.22703564,0.22454882,-0.6457405,0.8406043,-2.9349031,-0.4590279,-3.2820501,0.11867857,-0.5853691,0.7584526,0.8092581,-0.013209255,0.13258287,0.57214385,-0.5100462,-0.6788308,-1.4512936,1.0,0.0,0.0,0.0,0.0,0.0,0.0,-0.8745488,0.2457405,-0.2906043,-10.32033,-0.0017881393,-12.104797,3.6351442,0.6593108,-0.66369176,1.5016973
-44.735256,43.875572,6.3471794,27.471416,2.9709253,1.4682397,-0.45905548,-0.73275745,-0.79026383,-0.73630905,-0.73972636,-0.5410593,0.6318692,0.32608244,1.046001,-0.9776428,-1.9816478,-1.2249671,1.991536,1.6507367,-0.8947118,1.1075732,-0.9128147,-1.9215877,-1.1643822,2.0370321,1.591952,-0.92501503,-1.1997963,-1.4200089,-1.3716959,-1.3289098,-0.8551973,0.43876883,0.23212159,0.1952219,-0.6503258,0.807072,-2.931969,-0.45856893,-3.3769546,0.11283398,-0.592186,0.7438301,0.81037194,-0.0019533914,0.1331948,0.5705722,-0.614079,-0.66995627,-1.469637,1.0,0.0,0.0,0.0,0.0,0.0,0.0,-0.8452219,0.25032577,-0.25707197,-11.736178,-0.075125694,-5.87461,3.9111376,2.3414135,-0.57395697,0.6619066
-39.724133,51.32194,10.786289,26.671267,2.8973753,1.7615192,-0.3965369,-0.7690665,-0.78820497,-0.7439958,-0.71746707,-0.51713216,0.63742316,0.26292747,1.0306665,-0.9916352,-1.9959873,-1.2361289,1.9853189,1.6556942,-0.8987223,1.0947462,-0.9269882,-1.9354236,-1.1774094,2.0287657,1.5963427,-0.92272145,-1.3094213,-1.4171922,-1.3874409,-1.2924,-0.81831306,0.43813106,0.22914268,0.16592407,-0.6549072,0.7725913,-2.9290376,-0.45811045,-3.471764,0.10599661,-0.59882736,0.7291355,0.81174564,0.0093573155,0.13342439,0.5684887,-0.7118578,-0.6479049,-1.4731005,1.0,0.0,0.0,0.0,0.0,0.0,0.0,-0.81592405,0.25490722,-0.22259128,-10.751915,0.06849766,-1.5188456,4.1261673,3.2651663,-0.34443736,-0.10243654
-31.394053,54.25547,13.692829,23.544765,2.7539225,1.7427818,-0.34032494,-0.79130757,-0.7955918,-0.7559991,-0.7060266,-0.40654963,0.59715056,0.06419681,1.0156155,-1.0065473,-2.0110235,-1.2480121,1.9881107,1.6560577,-0.9163018,1.0809922,-0.9411407,-1.9495013,-1.1902478,2.0214422,1.6005093,-0.92071176,-1.4039654,-1.4077662,-1.4696988,-1.3158123,-0.65740204,0.32543772,0.18403313,0.14062119,-0.65882874,0.74611336,-1.7113903,-0.101809815,-0.043562293,0.09826326,-0.60528946,0.71436065,0.813405,0.020817649,0.1329489,0.5659182,-0.7951539,-0.65340453,-1.502861,0.0,1.0,0.0,0.0,0.0,0.0,0.0,-0.79062116,0.25882873,-0.19611335,-10.417914,1.918745,-16.708065,-7.4183226,24.33201,-22.388119,-6.445086
20.870724,176.0,110.0,110.0,6.114931,12.898597,-2.2063015,-0.7362402,0.51290715,0.73383915,0.6738828,-0.4115538,0.6617841,-0.3947344,1.0073682,-0.88985,-1.8761173,-1.1228595,1.9802868,1.6666877,-0.96018517,1.069901,-0.9577318,-1.9558527,-1.1906769,2.0067747,1.6118714,-0.9188864,-1.00074,-1.6762156,-0.46651745,0.3576502,-1.6374534,1.4614412,0.20846982,0.123520374,-0.65984344,0.7449416,-1.7096792,-0.101708025,-0.1417047,0.08916426,-0.6100235,0.70360184,0.8156135,0.022784878,0.13408472,0.5623848,-0.95292985,-0.39784878,-0.9373326,0.0,1.0,0.0,0.0,0.0,0.0,0.0,-0.77352035,0.25984344,-0.19494158,43.414116,-6.8208694,67.48435,160.26094,-68.200134,130.05797,10.39213
-56.574375,169.38948,67.37932,100.19127,9.498804,5.575794,-2.5845146,-0.80285174,-0.68479276,0.008988302,0.72173274,-0.43278718,0.5944378,-0.34564307,0.9896158,-1.026211,-1.9549539,-1.1185037,1.963496,1.6713152,-0.95345074,1.0597653,-0.9740005,-1.9567568,-1.1803219,1.9906061,1.6265675,-0.9172251,-1.0163875,-1.6111097,0.03679223,1.2630777,-1.6124704,1.4774767,0.15485878,0.10643673,-0.66085815,0.74278915,-1.7079699,-0.10160634,-0.23974895,0.07804775,-0.61380386,0.69727445,0.81926507,0.01800926,0.13571477,0.556832,-1.1645839,-0.35980305,-0.5347069,0.0,1.0,0.0,0.0,0.0,0.0,0.0,-0.7564367,0.26085815,-0.19278914,-1.0915756,6.284499,50.827724,91.04668,1.7835379,3.098917,-4.494682
-69.46256,144.83032,41.393578,75.77576,6.8497357,3.1165657,-2.1526766,-0.7937833,-0.52696097,-0.3019581,0.6951952,-0.5392263,0.60543716,-0.01913753,0.98038703,-1.0266966,-1.9869527,-1.1108024,1.9366834,1.6871111,-0.91913885,1.0488229,-0.98824173,-1.9561427,-1.164285,1.9759271,1.6406437,-0.9158642,-1.1182574,-1.3627689,0.06924405,1.7194794,-1.4208996,1.3870298,0.13059145,0.08937025,-0.66187286,0.739657,-1.7062624,-0.10150475,-0.33769518,0.06512356,-0.6172943,0.6937359,0.8243932,0.011148503,0.13762848,0.54891694,-1.3354036,-0.3373157,-0.2996831,0.0,1.0,0.0,0.0,0.0,0.0,0.0,-0.7393702,0.26187286,-0.18965697,-9.5823765,24.530268,3.1363018,46.336174,18.79406,-8.220935,-2.183646
-40.74549,125.02173,39.50965,46.15914,4.450908,2.3903518,-0.925876,-0.77240527,-0.6130007,0.18346849,0.757288,-0.52562803,0.57759136,-0.019999178,0.97158235,-1.0495418,-1.9377958,-1.0885562,1.9233643,1.6984029,-0.91786414,1.036696,-1.0004878,-1.9543498,-1.1462395,1.9635046,1.653421,-0.91473126,-1.2430828,-1.1796795,0.21612334,1.8339628,-1.1847562,1.2425462,0.108172946,0.072319984,-0.6628876,0.7355381,-1.7045565,-0.101403266,-0.43660873,0.051074505,-0.6203346,0.6919582,0.8302974,0.0036731178,0.13934173,0.5396078,-1.4294769,-0.28334925,-0.14416437,0.0,1.0,0.0,0.0,0.0,0.0,0.0,-0.72231996,0.26288757,-0.18553811,-12.164593,17.985844,14.747965,11.818576,22.958683,-14.07907,-2.0623372
-21.544884,81.70781,23.476646,19.154135,2.0084958,1.0494534,-0.18370719,-0.7822448,-0.63389593,0.12290218,0.69535685,-0.4909257,0.6031179,-0.22055411,0.9584715,-1.0638773,-1.9420595,-1.0767038,1.914412,1.7137328,-0.93678665,1.0234742,-1.0115256,-1.9517748,-1.1288464,1.9532468,1.6648289,-0.91394734,-1.3483373,-1.0792699,0.27139172,1.7083004,-0.9742481,1.1074167,0.068721205,0.055286884,-0.6639023,0.73043084,-1.7028522,-0.101301886,-0.53542334,0.03654194,-0.6229172,0.6907899,0.8364161,-0.0034177236,0.14047177,0.52977735,-1.4632982,-0.23978746,-0.114253044,0.0,1.0,0.0,0.0,0.0,0.0,0.0,-0.70528686,0.26390228,-0.18043083,-10.459375,9.851933,5.526024,-12.452531,20.615995,-13.331294,-3.8963482
1.0344648,72.62347,23.82551,6.1554327,0.47759992,0.63054365,0.27744365,-0.7716096,-0.5929567,0.23042572,0.70311695,-0.5098569,0.59239197,-0.24990931,0.94631326,-1.0708213,-1.9287323,-1.0585347,1.9022611,1.724068,-0.93893826,1.0095544,-1.0218866,-1.9484907,-1.1132411,1.9444934,1.674868,-0.91349936,-1.4072238,-1.0209235,0.33245462,1.502576,-0.8364803,0.94902855,0.041924655,0.03741932,-0.6643524,0.7267311,-1.7877153,0.095026635,0.3320703,0.022091389,-0.62503815,0.68967277,0.8423691,-0.009747657,0.14102131,0.52003103,-1.4395016,-0.19729397,-0.12202228,0.0,1.0,0.0,0.0,0.0,0.0,0.0,-0.6874193,0.2643524,-0.17673111,-5.996442,5.863762,4.090744,-21.92111,13.146186,-19.697369,-1.3936355
6.1304865,109.19443,36.58646,13.253115,0.21342108,1.0523123,0.071442425,-0.79736125,-0.34475133,0.21472754,0.75624216,-0.44559884,0.5913793,-0.3389413,0.9298183,-1.0563617,-1.9270179,-1.0376168,1.8999336,1.7340059,-0.9473935,0.9952092,-1.0308244,-1.9448229,-1.0992392,1.9369174,1.683617,-0.91341543,-1.4438964,-0.8523187,0.37931487,1.3660089,-0.73321843,0.8512453,-0.003246241,0.019555569,-0.6634064,0.72930485,-1.7859279,0.09493163,0.23248713,0.008000851,-0.62651443,0.68896526,0.84811777,-0.015480517,0.14151767,0.51032275,-1.4013286,-0.121163696,-0.058235694,0.0,1.0,0.0,0.0,0.0,0.0,0.0,-0.66955554,0.26340637,-0.17930484,-3.776431,16.631544,4.9689713,-13.694286,9.739065,-9.487593,-4.6627975
8.941235,118.431046,39.55346,16.175642,0.12530914,1.0028096,-0.028158147,-0.7922261,-0.27142274,0.20530407,0.7523148,-0.4422785,0.61468863,-0.3241339,0.9159866,-1.0579667,-1.9242924,-1.0240078,1.8926896,1.7450858,-0.9458288,0.98070574,-1.0379102,-1.9409128,-1.0861491,1.93007,1.6915516,-0.9137368,-1.4529167,-0.6615949,0.39587775,1.2899488,-0.6703858,0.7749571,-0.042417377,0.001709938,-0.6624603,0.73088354,-1.7841424,0.09483672,0.13300355,-0.0056524277,-0.6272278,0.6890246,0.85368955,-0.021073103,0.14243862,0.500481,-1.3550667,-0.04448105,0.0234834,0.0,1.0,0.0,0.0,0.0,0.0,0.0,-0.6517099,0.26246032,-0.18088353,-1.0102749,18.841684,1.9805014,-7.6049805,5.7323813,-7.3389053,-4.080406
5.943991,109.683044,35.222256,17.42697,0.21589696,0.725019,-0.114433125,-0.7912747,-0.2354238,0.16571292,0.7467711,-0.46635038,0.61862606,-0.28229183,0.90157825,-1.0614526,-1.9243416,-1.011472,1.883435,1.7534142,-0.941966,0.96622896,-1.0432928,-1.9371268,-1.0734214,1.9235355,1.6988567,-0.9143796,-1.4461634,-0.49789795,0.37395138,1.2670616,-0.64915055,0.7165198,-0.07203021,-0.01611805,-0.6615143,0.73146814,-1.7823585,0.0947419,0.033619415,-0.018895626,-0.62727356,0.68979615,0.8591158,-0.02654697,0.1440205,0.49038076,-1.3152249,0.017595984,0.09203933,0.0,1.0,0.0,0.0,0.0,0.0,0.0,-0.6338819,0.26151428,-0.18146813,0.5963564,16.167683,-1.900214,-2.2360563,1.670742,-5.614245,-3.0971863
0.6937113,98.57385,29.779217,18.463043,0.3980592,0.45096946,-0.20221326,-0.79226184,-0.17920576,0.11798593,0.75634056,-0.4772538,0.6099176,-0.27623746,0.88700277,-1.0612134,-1.9253281,-0.9977873,1.8758101,1.7598485,-0.94200337,0.95185924,-1.0472596,-1.9338595,-1.060641,1.9170756,1.7056319,-0.91527057,-1.4341159,-0.36303622,0.3041925,1.2788907,-0.63215506,0.6602583,-0.0951614,-0.03369236,-0.66028214,0.7313703,-1.671876,0.20662886,0.23933242,-0.03183365,-0.62683105,0.6911132,0.8644486,-0.03179871,0.14635117,0.47989446,-1.2886728,0.06093417,0.14055091,0.0,1.0,0.0,0.0,0.0,0.0,0.0,-0.6163076,0.26028213,-0.18137026,1.1630058,13.369531,-7.636696,0.9185314,3.2961369,-6.232095,-2.4302034
-4.1959486,93.97576,27.05092,19.7205,0.7148491,0.36479867,-0.2566774,-0.80106866,-0.09936379,0.075251535,0.75452095,-0.4075496,0.5939297,-0.2757056,0.8717524,-1.0571959,-1.9263343,-0.98518896,1.8763207,1.7650248,-0.9428411,0.93756175,-1.0499489,-1.9314772,-1.0476673,1.91093,1.7119086,-0.91635585,-1.4284943,-0.2381869,0.21708508,1.3039665,-0.60965556,0.6167192,-0.11328026,-0.050202847,-0.65802765,0.7340971,-1.6435153,0.23407052,0.28341213,-0.04460144,-0.625988,0.69285434,0.86974436,-0.0366993,0.14932731,0.46893397,-1.2728956,0.09986165,0.18326819,0.0,1.0,0.0,0.0,0.0,0.0,0.0,-0.5997971,0.25802764,-0.18409711,0.5244732,12.310285,-8.492383,2.6032686,1.9847989,-4.347396,-1.8959165
-11.75535,75.19084,18.765547,18.710922,1.0619006,0.08609128,-0.30190387,-0.8127358,-0.08739809,-0.02345463,0.7485705,-0.3169452,0.5935402,-0.30682048,0.8562882,-1.0586888,-1.9338226,-0.9728102,1.8792355,1.7712626,-0.9470379,0.9232385,-1.0517056,-1.9302889,-1.0344799,1.9052615,1.7177985,-0.91761667,-1.4336319,-0.15512188,0.0864998,1.3239441,-0.5532038,0.5797561,-0.13060002,-0.066506386,-0.6555023,0.73696446,-1.6259528,0.25892654,0.28785384,-0.0573678,-0.62490463,0.6947734,0.87505245,-0.04110736,0.15278237,0.45743945,-1.2774701,0.120935895,0.19307934,0.0,1.0,0.0,0.0,0.0,0.0,0.0,-0.5834936,0.2555023,-0.18696445,-0.52809715,8.170807,-12.936907,2.0825386,5.457628,-3.6719322,-1.8050954
-11.598651,76.94525,19.38194,18.767918,1.1455176,0.13895494,-0.27962995,-0.811899,-0.012607454,-0.069726564,0.7531656,-0.25338745,0.5874051,-0.3115261,0.84204865,-1.0529664,-1.9372616,-0.9591633,1.8799227,1.776539,-0.9487693,0.9088476,-1.0526154,-1.9303881,-1.0211227,1.9002845,1.7233635,-0.919034,-1.4409435,-0.07020308,-0.04158926,1.3396509,-0.4800294,0.54860884,-0.1456781,-0.082625866,-0.6527176,0.73990625,-1.6072003,0.2860086,0.29632512,-0.07019091,-0.6235771,0.6968128,0.88037235,-0.04500334,0.15659186,0.44541916,-1.2829899,0.14506525,0.20610918,0.0,1.0,0.0,0.0,0.0,0.0,0.0,-0.5673741,0.25271758,-0.18990624,-0.7633686,8.338668,-12.63056,1.6245127,7.0937276,-3.1504393,-1.590994
-7.025852,81.82824,22.633224,17.98631,1.2008018,0.32533446,-0.20578295,-0.8098132,0.026637457,-0.046896726,0.75590473,-0.21168397,0.6019799,-0.35462317,0.82786626,-1.0499517,-1.9350778,-0.9455322,1.8791162,1.7835615,-0.9544963,0.8943994,-1.0527375,-1.9313436,-1.0076568,1.8960654,1.7286665,-0.92061603,-1.4463981,0.006364771,-0.11262721,1.348953,-0.40348664,0.52363497,-0.16259804,-0.09852171,-0.6496239,0.7430353,-1.5835394,0.31836852,0.3188689,-0.0830307,-0.62195206,0.6990702,0.8856458,-0.048592277,0.16061212,0.4329826,-1.2829305,0.17812094,0.23119153,0.0,1.0,0.0,0.0,0.0,0.0,0.0,-0.55147827,0.24962386,-0.1930353,-0.61371326,7.478758,-6.783046,0.93865395,7.319343,-2.596128,-1.7795622
-7.908946,72.66111,18.83702,16.210821,1.1191635,0.16179979,-0.16638845,-0.8135618,0.03859122,-0.1530233,0.75134826,-0.16586179,0.596773,-0.34361696,0.81304324,-1.0488783,-1.9466459,-0.932522,1.8794792,1.7883439,-0.95497775,0.8798959,-1.0522606,-1.9331685,-0.99416316,1.8926026,1.7337521,-0.9223431,-1.4517969,0.060938057,-0.20474806,1.3494805,-0.32814068,0.5029765,-0.17630275,-0.114207745,-0.64624786,0.7462388,-1.563307,0.3462424,0.32182884,-0.09588957,-0.6200485,0.701436,0.8908483,-0.05184157,0.16475867,0.42018607,-1.2851268,0.2038124,0.23770252,0.0,1.0,0.0,0.0,0.0,0.0,0.0,-0.53579223,0.24624786,-0.19623882,-0.60505867,5.3008804,-8.924818,0.03979206,7.254463,-2.1773815,-1.4614195
-8.021507,76.04151,19.363487,16.76588,1.0061057,0.16549295,-0.15959734,-0.8167106,0.102352336,-0.22695778,0.76067024,-0.14293627,0.5800837,-0.3324481,0.79822487,-1.0420254,-1.9558643,-0.9180961,1.8783089,1.7917604,-0.95558786,0.8653381,-1.0511469,-1.9360349,-0.9806504,1.8898054,1.7386464,-0.9241826,-1.457325,0.12761948,-0.31286058,1.3516942,-0.26448244,0.48430014,-0.1868442,-0.12966871,-0.64258194,0.7495108,-1.5399013,0.37482616,0.330352,-0.10874367,-0.61787415,0.7038893,0.8959542,-0.05469547,0.169127,0.4070264,-1.283297,0.23229426,0.24751352,0.0,1.0,0.0,0.0,0.0,0.0,0.0,-0.52033126,0.24258193,-0.19951081,-0.63478947,6.4944835,-10.481715,0.18296242,6.0584307,-1.9996643,-1.1737317
-10.13993,58.763714,13.075643,14.4528675,0.9371105,-0.067169905,-0.14242028,-0.81646544,0.05742535,-0.29767126,0.7668876,-0.1403741,0.5804257,-0.3510501,0.7836915,-1.0454043,-1.9658021,-0.90396166,1.8757681,1.7966889,-0.9592876,0.850743,-1.0497316,-1.9400839,-0.96709085,1.8874868,1.7433789,-0.9261263,-1.4604368,0.14563493,-0.4347179,1.3572522,-0.22166568,0.46925822,-0.1971845,-0.14495373,-0.6386833,0.75262994,-1.5243033,0.3951675,0.30766317,-0.121638775,-0.6155205,0.7062209,0.90096277,-0.05703021,0.17368884,0.39350438,-1.289272,0.24725354,0.22833191,0.0,1.0,0.0,0.0,0.0,0.0,0.0,-0.50504625,0.23868331,-0.20262992,-0.35953522,1.6713947,-11.943346,0.52125454,4.069024,-1.6011894,-1.1490315
-11.538493,52.35109,10.323311,13.736142,0.73670113,-0.16479868,-0.117650464,-0.8188464,0.06658935,-0.3798716,0.7747301,-0.18377356,0.5662385,-0.32877997,0.7688584,-1.0430727,-1.978071,-0.88961786,1.8691095,1.8000027,-0.9590043,0.8361203,-1.048261,-1.945462,-0.9534426,1.8853239,1.7479736,-0.9281454,-1.4629918,0.1471489,-0.57144064,1.3672186,-0.21495895,0.4557877,-0.20387846,-0.16009521,-0.6346054,0.7554316,-1.5100638,0.41259795,0.27357262,-0.13459826,-0.61305237,0.7082634,0.90585554,-0.058714002,0.1785229,0.37961546,-1.2954233,0.2576474,0.19656393,0.0,1.0,0.0,0.0,0.0,0.0,0.0,-0.48990476,0.2346054,-0.20543158,-0.2891302,0.030076504,-13.4556055,0.9655237,0.48926175,-1.4350653,-0.7974267
-11.159291,42.7691,7.441644,11.883298,0.6162948,-0.24877429,-0.056114405,-0.8158411,0.027806764,-0.4236947,0.7800254,-0.22087577,0.5650539,-0.30176046,0.7545362,-1.0454804,-1.9878315,-0.87544,1.8632363,1.804479,-0.95832145,0.82149667,-1.0470346,-1.952099,-0.9396798,1.8830125,1.7524523,-0.9301999,-1.4621842,0.11406215,-0.69395554,1.379186,-0.23693809,0.44493628,-0.20646524,-0.1751175,-0.63038635,0.7577787,-1.4987977,0.42534593,0.22453953,-0.14763308,-0.6105194,0.70987445,0.91059965,-0.05968728,0.18363017,0.36541143,-1.3033371,0.26210237,0.14977637,0.0,1.0,0.0,0.0,0.0,0.0,0.0,-0.47488248,0.23038635,-0.20777869,0.06635189,-3.4081922,-12.057424,1.1805773,-2.3474872,-1.1587918,-0.38171113
-6.965484,53.367645,11.46433,12.221643,0.40991935,-0.08942467,0.03028849,-0.81062627,0.060561564,-0.45323405,0.7836995,-0.28582445,0.5691052,-0.2373032,0.74043405,-1.0409784,-1.9974223,-0.8613098,1.8544301,1.8093628,-0.95393026,0.8069111,-1.0460027,-1.959747,-0.9258074,1.8802605,1.7568376,-0.9322263,-1.4576213,0.09916054,-0.7875025,1.3896703,-0.2887525,0.43608806,-0.20189187,-0.18995571,-0.62599945,0.7597888,-1.4776267,0.4441857,0.19667791,-0.16064453,-0.6078758,0.7111386,0.91511667,-0.060025282,0.18912137,0.3509864,-1.297465,0.2761755,0.119385086,0.0,1.0,0.0,0.0,0.0,0.0,0.0,-0.46004426,0.22599944,-0.2097888,0.39339066,-1.6272976,-9.003115,0.9926319,-5.467367,-0.9882331,0.2919197
-6.245317,36.91797,6.9915442,9.027372,0.4894393,-0.23949581,0.08867538,-0.8042028,-0.04419839,-0.47532684,0.7843475,-0.28754327,0.57108974,-0.24485889,0.72649086,-1.0504225,-2.0072796,-0.84737265,1.8515061,1.8139466,-0.9567122,0.79240286,-1.0455433,-1.9681025,-0.9118529,1.8770068,1.761153,-0.9342075,-1.4486399,0.027814364,-0.8508566,1.397362,-0.33801028,0.42973015,-0.1973082,-0.20464563,-0.62148285,0.7613174,-1.4650233,0.4546429,0.141352,-0.17366695,-0.605175,0.71192247,0.9193929,-0.059765954,0.19479352,0.33645248,-1.3009002,0.27871248,0.06556437,0.0,1.0,0.0,0.0,0.0,0.0,0.0,-0.44535434,0.22148284,-0.21131736,0.87418556,-7.218896,-6.0724497,0.75917244,-5.121809,-0.6999552,0.33712983
-2.5818365,61.048454,14.829605,12.089712,0.5039135,0.06942016,0.13585867,-0.8056612,0.040531233,-0.4934695,0.78261054,-0.31822518,0.56463003,-0.15891562,0.71183676,-1.0414902,-2.0174494,-0.8335918,1.8451842,1.817616,-0.95009905,0.7779632,-1.0453527,-1.976908,-0.8978661,1.8732725,1.7654042,-0.93608266,-1.442794,0.0154811675,-0.8887174,1.3987554,-0.38650283,0.42286828,-0.18486872,-0.21908665,-0.6167717,0.7626111,-1.4358946,0.47764066,0.12850757,-0.18659782,-0.60230637,0.7124507,0.9233708,-0.05906014,0.20071256,0.32188922,-1.2874317,0.3002795,0.04949376,0.0,1.0,0.0,0.0,0.0,0.0,0.0,-0.43091333,0.21677169,-0.21261108,0.46799183,-1.397985,-3.2459855,0.0487566,-5.3048077,-0.84180236,1.0626048
-5.9333134,41.406673,8.446569,9.6629505,0.6347603,-0.16586173,0.1411865,-0.8055216,-0.07683855,-0.5366034,0.78379214,-0.32091698,0.5368838,-0.1589367,0.69741106,-1.0530366,-2.0305684,-0.81948686,1.8411808,1.8190926,-0.95197636,0.7635656,-1.0456827,-1.98611,-0.8838743,1.8691392,1.7695774,-0.9378369,-1.4388863,-0.049624052,-0.9295311,1.3992815,-0.42303228,0.41495895,-0.17270327,-0.23333788,-0.61190796,0.76350707,-1.4202126,0.49000055,0.08024547,-0.19952106,-0.5993271,0.7125962,0.9270762,-0.05786365,0.20670915,0.30733174,-1.2907666,0.30719098,0.003780805,0.0,1.0,0.0,0.0,0.0,0.0,0.0,-0.4166621,0.21190795,-0.21350706,0.34496784,-6.6153736,-3.726995,0.0426054,-3.9414048,-0.89856386,1.094982
-8.142785,36.436478,6.38169,9.279949,0.5690712,-0.20326293,0.18765989,-0.80873966,-0.10520678,-0.57594,0.78303903,-0.38091365,0.52913237,-0.03463299,0.68269163,-1.0562034,-2.043704,-0.80557036,1.8310478,1.8224906,-0.9413002,0.7491756,-1.046726,-1.9957854,-0.86988634,1.864558,1.7736726,-0.93938774,-1.4391615,-0.12298216,-0.9794044,1.3987026,-0.47037065,0.40745768,-0.14959233,-0.24745464,-0.60694885,0.7638611,-1.407535,0.4990255,0.023736829,-0.21250582,-0.59630203,0.7122232,0.9305163,-0.056068823,0.21273121,0.29281592,-1.2979585,0.3118338,-0.050188594,0.0,1.0,0.0,0.0,0.0,0.0,0.0,-0.40254533,0.20694885,-0.21386111,-0.049471855,-7.4324846,-4.6844363,-0.030398369,-4.9829187,-0.8500755,2.2015243
-11.729311,16.281395,0.1393907,6.6187468,0.6635736,-0.41837966,0.20878424,-0.8102194,-0.21945858,-0.6019806,0.7813577,-0.37082472,0.4991019,0.010003948,0.66815364,-1.0686718,-2.0559833,-0.79175055,1.8274755,1.8235828,-0.93838733,0.73476845,-1.0489004,-2.0059822,-0.85590357,1.8596103,1.77768,-0.9406838,-1.4410137,-0.24900545,-1.032739,1.3985692,-0.5029852,0.39850378,-0.12310657,-0.2615199,-0.60196304,0.76336056,-1.4064652,0.4987096,-0.07056006,-0.22570133,-0.59332657,0.7110842,0.93373823,-0.05355572,0.21856044,0.27838075,-1.3236189,0.3037828,-0.13428234,0.0,1.0,0.0,0.0,0.0,0.0,0.0,-0.38848007,0.20196304,-0.21336055,-0.12252331,-12.641796,-5.261636,0.12161732,-3.3052564,-0.9467125,2.6072145
-14.044589,4.016612,-3.6125531,4.8494654,0.67154634,-0.5274074,0.24922827,-0.8112841,-0.30958173,-0.63292354,0.7816842,-0.38387325,0.48046863,0.11055629,0.65364003,-1.0798585,-2.0692744,-0.7777351,1.821223,1.8257269,-0.92962813,0.72033936,-1.0525701,-2.0167396,-0.8419141,1.8543975,1.7815939,-0.9416575,-1.443193,-0.4061122,-1.0902402,1.3998611,-0.5270173,0.38877386,-0.08874459,-0.27557373,-0.59698105,0.7619165,-1.4050591,0.498211,-0.1690112,-0.23923826,-0.59046936,0.70896196,0.9367851,-0.050230123,0.22399287,0.2640792,-1.3607174,0.2897784,-0.23740205,0.0,1.0,0.0,0.0,0.0,0.0,0.0,-0.37442625,0.19698104,-0.2119165,-0.094771385,-15.722537,-5.8182,0.37269592,-2.3206353,-1.0273933,3.4642398
-11.410204,7.1706333,-2.2410417,4.340409,0.6015201,-0.47097707,0.30513492,-0.8019538,-0.37162796,-0.6379347,0.7846071,-0.4223006,0.48827025,0.19275947,0.640144,-1.0897329,-2.080533,-0.7634534,1.8121675,1.830421,-0.9223815,0.70593506,-1.0578039,-2.0279548,-0.8278951,1.8489044,1.7854239,-0.9422526,-1.4390516,-0.5625466,-1.1321312,1.403401,-0.5566376,0.38075495,-0.04960936,-0.28961372,-0.59200287,0.75947547,-1.4036542,0.49771288,-0.2691214,-0.25310802,-0.5877304,0.70583224,0.939652,-0.04611792,0.22898263,0.24998821,-1.3926204,0.27931595,-0.33791295,0.0,1.0,0.0,0.0,0.0,0.0,0.0,-0.36038625,0.19200286,-0.20947546,0.5260229,-15.668959,-4.208255,0.6211281,-2.9264212,-0.8892119,3.9567344
-12.27977,0.5379524,-4.225814,2.6658719,0.51283336,-0.50926673,0.3657017,-0.8070294,-0.47729632,-0.6753569,0.7704711,-0.4210353,0.44571412,0.29423103,0.6252321,-1.1055335,-2.0954905,-0.750848,1.8068008,1.8299953,-0.91282946,0.6915565,-1.0647027,-2.039624,-0.81390566,1.8431785,1.7891508,-0.94241184,-1.4369652,-0.73257065,-1.1787176,1.3986447,-0.57761693,0.369666,-0.004388189,-0.3036399,-0.5870285,0.75603414,-1.4022508,0.49721527,-0.36913157,-0.2673278,-0.58512115,0.7016087,0.94235057,-0.041172657,0.23344521,0.23618516,-1.4286691,0.26710394,-0.450645,0.0,1.0,0.0,0.0,0.0,0.0,0.0,-0.3463601,0.1870285,-0.20603412,0.35541058,-17.016495,-4.7709227,-0.13158321,-1.9902945,-1.2115717,4.614405
-9.536961,9.974071,-1.0770464,3.0841005,0.53801405,-0.32201314,0.41116685,-0.8044955,-0.5315837,-0.6679605,0.76209193,-0.42106846,0.442423,0.3862704,0.611107,-1.1178612,-2.10642,-0.73769647,1.8010716,1.8333931,-0.9037848,0.67720276,-1.0731485,-2.0515945,-0.8000116,1.8372943,1.792771,-0.94209045,-1.434599,-0.88209796,-1.2032895,1.3873721,-0.59214294,0.35890567,0.04465963,-0.31765175,-0.58206177,0.7515934,-1.4008487,0.49671817,-0.4690417,-0.28183985,-0.5825615,0.6963648,0.9448735,-0.03547538,0.23735161,0.2227548,-1.4554965,0.2645861,-0.5495097,0.0,1.0,0.0,0.0,0.0,0.0,0.0,-0.33234823,0.18206176,-0.2015934,0.33962727,-14.998341,-2.4326801,-0.8081198,-1.4820695,-1.2337089,4.994114
-10.532892,15.979006,0.28134632,4.03061,0.537627,-0.1967969,0.4261166,-0.81531936,-0.596873,-0.6875204,0.7492858,-0.4493124,0.3734366,0.45924875,0.5956708,-1.1328357,-2.1203465,-0.725083,1.792363,1.8301146,-0.89616555,0.6628137,-1.0829599,-2.0637825,-0.7862825,1.8312252,1.7962404,-0.9412703,-1.4400406,-1.0144194,-1.2234796,1.3691819,-0.61237466,0.3423358,0.09480619,-0.33164978,-0.57709885,0.74615437,-1.3994482,0.49622154,-0.56885195,-0.29659176,-0.5799751,0.6901895,0.94721276,-0.029050615,0.24074772,0.20972505,-1.4779872,0.26914924,-0.6411189,0.0,1.0,0.0,0.0,0.0,0.0,0.0,-0.3183502,0.17709884,-0.19615436,-0.45540333,-13.304663,-1.9227743,-1.4952183,-2.143526,-1.8527448,5.09958
-7.0937743,27.225662,3.8731747,4.786478,0.66883564,-0.005620837,0.4259863,-0.80995905,-0.64469445,-0.6697786,0.7354819,-0.41409558,0.3650945,0.48725048,0.5818178,-1.1474293,-2.1307602,-0.7127343,1.7898155,1.8327498,-0.8925452,0.6483856,-1.0939138,-2.076001,-0.77277845,1.8250835,1.7995478,-0.939979,-1.443589,-1.1227647,-1.220353,1.3450207,-0.61571467,0.3259849,0.14080262,-0.34563398,-0.57213974,0.73971796,-1.398049,0.49572542,-0.6685624,-0.31149483,-0.57727814,0.6832334,0.94936943,-0.022038974,0.24361965,0.1971326,-1.4904146,0.28291595,-0.71510774,0.0,1.0,0.0,0.0,0.0,0.0,0.0,-0.304366,0.17213973,-0.18971795,-0.32510757,-10.934639,0.5767822,-2.1609068,-0.61599016,-1.8778026,4.6679554
-2.9915721,38.417915,7.5204906,5.5386558,0.85225236,0.17964506,0.4069479,-0.80468124,-0.68580955,-0.6400809,0.7218433,-0.37397137,0.36610606,0.49763995,0.56791747,-1.1624948,-2.140009,-0.7005941,1.7876863,1.8361584,-0.89021504,0.6339527,-1.105787,-2.087983,-0.7595405,1.8190601,1.8027064,-0.93827385,-1.4432312,-1.209221,-1.1893213,1.3172835,-0.5994331,0.31151393,0.18064699,-0.35960388,-0.56718826,0.7322852,-1.3966513,0.4952298,-0.76817316,-0.32645226,-0.5743942,0.67568046,0.9513581,-0.014664348,0.24591352,0.18501161,-1.4927449,0.30473995,-0.77040195,0.0,1.0,0.0,0.0,0.0,0.0,0.0,-0.2903961,0.16718826,-0.18228519,0.0025987625,-8.767104,3.5408497,-2.6015759,1.1867642,-1.7250896,4.0374637
-1.2321684,45.30615,9.105881,5.788821,0.9092867,0.23406953,0.39848718,-0.80729455,-0.71109366,-0.66365796,0.68316966,-0.29974633,0.3040846,0.49996418,0.55322325,-1.1768965,-2.1543486,-0.6912235,1.7890855,1.8331149,-0.8882774,0.61951977,-1.1183431,-2.0997512,-0.74670595,1.8134315,1.8056895,-0.93621963,-1.4434669,-1.2715956,-1.1713041,1.2726398,-0.55220157,0.29289478,0.21386015,-0.37355995,-0.5622406,0.72385705,-1.395255,0.49473467,-0.8676843,-0.34138775,-0.5712509,0.6676429,0.95320374,-0.00701517,0.24758044,0.17337064,-1.4888128,0.3295101,-0.81695014,0.0,1.0,0.0,0.0,0.0,0.0,0.0,-0.27644002,0.1622406,-0.17385703,-0.089764595,-6.3694477,2.3051739,-4.354048,4.2067766,-2.1630704,3.3528805
3.4609547,54.069218,12.023149,5.798118,1.3134326,0.33046865,0.37087053,-0.79746175,-0.7257553,-0.64292216,0.63900816,-0.070589185,0.302749,0.51090395,0.5397736,-1.1909187,-2.1640434,-0.6828051,1.8063726,1.8359643,-0.8851292,0.6051298,-1.1313512,-2.1113021,-0.7344598,1.808934,1.808499,-0.9338679,-1.4379338,-1.3109872,-1.1475682,1.2087195,-0.417521,0.2758123,0.24243833,-0.3875022,-0.55729675,0.71443456,-1.3938601,0.49424002,-0.967096,-0.35625887,-0.5678406,0.6592641,0.95498,0.0006809715,0.24837378,0.16224357,-1.4810505,0.35956645,-0.84692544,0.0,1.0,0.0,0.0,0.0,0.0,0.0,-0.26249778,0.15729675,-0.16443455,0.43268204,-4.0742874,2.9809952,-6.38113,12.863869,-2.0521402,2.9011817
9.114217,61.02478,14.774948,5.5329494,1.695246,0.44972742,0.32677537,-0.7816353,-0.74450886,-0.59761316,0.6038894,0.13163988,0.3619158,0.50974333,0.5269663,-1.2058021,-2.1710634,-0.6740709,1.822098,1.8446906,-0.88289356,0.5908666,-1.1446626,-2.1224525,-0.72291464,1.8063037,1.8111998,-0.93126625,-1.4229797,-1.3381445,-1.1020448,1.1361244,-0.21358587,0.26692936,0.26617554,-0.40143013,-0.55236053,0.7040187,-1.3924664,0.4937459,-1.0664083,-0.37102222,-0.5640869,0.65070033,0.95677567,0.008069066,0.24801438,0.1516707,-1.4688711,0.39401674,-0.86156964,0.0,1.0,0.0,0.0,0.0,0.0,0.0,-0.24856985,0.15236053,-0.1540187,1.3275385,-2.8453588,5.254674,-7.3340178,19.735685,-1.2506306,2.4383068
18.462576,62.055973,15.783719,1.4764946,1.3171574,0.4174193,0.4445236,-0.7660497,-0.7506237,-0.5912462,0.49519816,0.26694772,0.32049346,0.4885758,0.51426166,-1.219725,-2.1815772,-0.6733948,1.8329985,1.8432491,-0.8824087,0.5768139,-1.1581526,-2.133199,-0.7124663,1.8058987,1.8138187,-0.92848814,-1.3999481,-1.3528962,-1.0673498,1.0121166,0.022433877,0.26119137,0.28135023,-0.41529942,-0.54735565,0.69339955,-1.3456753,0.51276207,-0.9241119,-0.38554,-0.56005096,0.6419644,0.9586328,0.015017245,0.24636155,0.14178649,-1.4405019,0.42100817,-0.8805973,0.0,1.0,0.0,0.0,0.0,0.0,0.0,-0.23470056,0.14735565,-0.14339954,2.1190166,-1.5642643,3.4528017,-12.884045,23.913713,-0.4508078,1.3587177
13.381684,73.64033,16.95742,6.1769695,1.0938691,0.5284639,0.35483068,-0.7749777,-0.72261125,-0.5860756,0.5004737,0.113294646,0.24660063,0.49125955,0.4993161,-1.2304137,-2.1918066,-0.66241896,1.8172281,1.8384788,-0.87936217,0.5629163,-1.1715803,-2.1436775,-0.7030458,1.8070401,1.8163236,-0.92556906,-1.386986,-1.3398551,-1.038804,0.91807353,0.14231092,0.24587798,0.29531932,-0.42837238,-0.5421829,0.684026,-1.2948791,0.5204928,-0.9394592,-0.39971352,-0.55571747,0.63314486,0.9604797,0.021667061,0.24383605,0.13248822,-1.4029573,0.45031813,-0.8845213,0.0,1.0,0.0,0.0,0.0,0.0,0.0,-0.2216276,0.14218292,-0.13402599,1.094079,1.1835575,3.6181211,-9.59096,11.205445,-1.7793059,1.3094723
18.493916,71.79586,16.586344,4.27248,0.68315494,0.34524822,0.39435056,-0.7417758,-0.7381005,-0.57979417,0.44625387,0.18314332,0.106763914,0.4931676,0.4887387,-1.2453904,-2.2016568,-0.6584204,1.8253545,1.827,-0.8762523,0.5492491,-1.1849031,-2.1539502,-0.69453317,1.809122,1.8185841,-0.9225318,-1.3606362,-1.3300053,-1.021087,0.8283175,0.22807288,0.21872796,0.30631143,-0.44097853,-0.536953,0.6745273,-1.2481511,0.52418077,-0.95204514,-0.4134488,-0.5511818,0.624245,0.9622658,0.028185833,0.24070436,0.12373954,-1.3570168,0.46731728,-0.89373314,0.0,1.0,0.0,0.0,0.0,0.0,0.0,-0.20902145,0.13695297,-0.124527276,2.434349,0.8877039,2.4713516,-9.1728325,7.9561443,-2.9485612,1.0184646
7.7429547,77.54994,15.916435,10.224963,0.88622385,0.29984128,0.22669479,-0.75591505,-0.71903914,-0.5886695,0.46509254,0.11429327,-0.1194377,0.51099974,0.4736576,-1.2568071,-2.2128172,-0.6480239,1.8205513,1.8066403,-0.8714318,0.5357403,-1.1980562,-2.1641579,-0.6865565,1.8115301,1.8204154,-0.91938776,-1.348159,-1.3107086,-1.018609,0.78696156,0.24300595,0.17046069,0.31677082,-0.45311546,-0.5316887,0.66497076,-1.201141,0.5282289,-0.95551383,-0.4267993,-0.54645157,0.6153233,0.9639438,0.03479288,0.23728094,0.1153232,-1.321222,0.48762482,-0.8935194,0.0,1.0,0.0,0.0,0.0,0.0,0.0,-0.19688451,0.13168868,-0.11497074,1.0855436,1.8042564,0.9413481,-4.258764,0.86976886,-5.0756903,0.93920827
2.453336,79.08781,15.400662,13.156823,1.14097,0.2523743,0.11997535,-0.75084215,-0.71741384,-0.5759869,0.46334022,0.13692684,-0.2776646,0.53044355,0.4606561,-1.2697976,-2.2217565,-0.6402225,1.8252228,1.7926489,-0.8663434,0.5223211,-1.2110357,-2.1743388,-0.678762,1.8139554,1.8216705,-0.9161378,-1.3403834,-1.2941836,-1.0154258,0.7767034,0.24027012,0.10957194,0.32746625,-0.46480036,-0.52638626,0.6553973,-1.1567665,0.5317539,-0.95680535,-0.43986273,-0.54149246,0.6064404,0.9654995,0.041592646,0.23371227,0.1070478,-1.2946547,0.5097277,-0.8883104,0.0,1.0,0.0,0.0,0.0,0.0,0.0,-0.18519962,0.12638626,-0.105397284,0.63450336,1.5160799,1.011157,-1.1059523,-0.8964181,-6.3626604,0.96879005
-3.870494,74.09396,12.918839,13.831389,1.09071,0.1902231,0.11018002,-0.7646654,-0.7167728,-0.6106775,0.4265807,0.12551576,-0.41881722,0.54621917,0.44585454,-1.282713,-2.2354066,-0.6361039,1.826507,1.7797889,-0.8615159,0.5088743,-1.2238913,-2.1846685,-0.6710963,1.8162432,1.8222541,-0.91278005,-1.3464209,-1.2832468,-1.0365198,0.7630719,0.22301935,0.04026328,0.3382782,-0.4760933,-0.5210571,0.6457316,-1.1192824,0.5342093,-0.96864563,-0.45272255,-0.5363083,0.59752905,0.96692187,0.048757203,0.23003976,0.098825745,-1.2765326,0.53199637,-0.8937659,0.0,1.0,0.0,0.0,0.0,0.0,0.0,-0.17390668,0.12105712,-0.095731616,-0.70843697,0.952816,-1.488328,-1.3716698,-2.3173423,-7.230675,0.9998441
1.646883,79.90526,15.226495,13.559087,1.3138766,0.28447902,0.117898345,-0.7469253,-0.6985294,-0.5510652,0.41057757,0.19314794,-0.47359276,0.5683016,0.43418175,-1.2937442,-2.2397752,-0.63003856,1.8355579,1.7748948,-0.8559499,0.49542558,-1.236598,-2.1949334,-0.66359943,1.8185586,1.8221647,-0.90930974,-1.3448981,-1.2668633,-1.0207686,0.7449288,0.23236841,-0.026353577,0.34970725,-0.48698092,-0.51571655,0.6360232,-1.0776457,0.5350167,-0.97034967,-0.46536303,-0.53089905,0.5886596,0.96823484,0.05613543,0.22615112,0.09069525,-1.2531984,0.5546022,-0.88619506,0.0,1.0,0.0,0.0,0.0,0.0,0.0,-0.16301906,0.11571655,-0.08602321,0.007224083,1.5105247,2.2838354,-1.9027472,0.28422177,-6.9632263,1.0470033
3.399205,77.26002,14.781205,11.934215,1.2500031,0.32431203,0.17465287,-0.7543235,-0.6980232,-0.5431204,0.3669488,0.20834692,-0.516206,0.5799581,0.41999322,-1.3064003,-2.2492454,-0.62690455,1.8393933,1.770544,-0.85131395,0.48196447,-1.2491693,-2.2049623,-0.6564544,1.8210396,1.8214477,-0.90572697,-1.3469914,-1.2543416,-0.9950437,0.7040837,0.25145504,-0.08777709,0.36084846,-0.49746704,-0.510376,0.6262627,-1.0381157,0.5340366,-0.9769037,-0.47775745,-0.52528,0.57983035,0.96946275,0.06361123,0.22192302,0.082738794,-1.2283401,0.57556784,-0.8835324,0.0,1.0,0.0,0.0,0.0,0.0,0.0,-0.15253294,0.11037597,-0.07626271,-0.3496647,1.1408806,3.245461,-4.175246,1.2798935,-6.430867,1.0258079
16.349169,80.416794,17.142933,7.7792697,0.890454,0.39574283,0.3351613,-0.7343965,-0.6764079,-0.47873625,0.28896922,0.2092519,-0.54316974,0.56443423,0.4085248,-1.3168101,-2.252836,-0.62755746,1.8419647,1.7671307,-0.8492836,0.4685744,-1.2615519,-2.2144532,-0.6500456,1.823718,1.8201721,-0.9020574,-1.3369846,-1.233123,-0.9315375,0.6192131,0.2713063,-0.141578,0.36860123,-0.5074973,-0.505085,0.6165004,-0.9905179,0.52761596,-0.9751993,-0.48975515,-0.51952744,0.5710568,0.97062135,0.0710277,0.21725258,0.075170495,-1.1836472,0.58593845,-0.8767975,0.0,1.0,0.0,0.0,0.0,0.0,0.0,-0.14250267,0.105084985,-0.066500366,0.8174181,2.0512104,7.0457697,-8.693754,1.3530076,-5.6139097,0.650084
18.280449,76.92854,16.565254,5.6984577,0.8158933,0.42535204,0.40807545,-0.7462022,-0.67121625,-0.45236987,0.21101265,0.26839167,-0.5655654,0.56135267,0.3939542,-1.3286735,-2.2596903,-0.62894434,1.8505571,1.7636155,-0.8459221,0.45523298,-1.2737322,-2.22325,-0.6447564,1.8267387,1.8184094,-0.8983237,-1.3336811,-1.2131705,-0.8607765,0.49822867,0.3105913,-0.18859431,0.37467957,-0.5170727,-0.49987411,0.60670847,-0.94564176,0.519502,-0.9796583,-0.501297,-0.5136795,0.56230175,0.9717446,0.078275725,0.21199805,0.06813227,-1.1378136,0.59372747,-0.8766569,0.0,1.0,0.0,0.0,0.0,0.0,0.0,-0.1329273,0.09987411,-0.056708455,0.17204285,1.9476414,7.655728,-12.285269,3.3887208,-4.9165936,0.5144775
17.609076,80.1058,16.923815,6.8824806,0.86721194,0.48599648,0.37916878,-0.74447244,-0.64827603,-0.42414036,0.17562011,0.25661963,-0.5813222,0.56168693,0.38078573,-1.3385597,-2.2656639,-0.62719434,1.8524007,1.7602773,-0.84215504,0.44191536,-1.2856531,-2.231356,-0.64064884,1.8300802,1.816224,-0.8945386,-1.3315879,-1.1853973,-0.79222035,0.3810098,0.34055644,-0.22910039,0.37957463,-0.52619123,-0.4947586,0.59691346,-0.89978373,0.5097864,-0.9791206,-0.5123749,-0.50775146,0.5535837,0.97283554,0.08531834,0.20618929,0.0616253,-1.0916097,0.60148185,-0.87184495,0.0,1.0,0.0,0.0,0.0,0.0,0.0,-0.12380874,0.0947586,-0.046913445,0.06985664,2.739644,7.3503733,-11.895519,2.5484204,-4.246169,0.40391684
34.519077,86.94282,21.62635,3.5632768,1.0115693,0.6396737,0.46494034,-0.7070817,-0.6394826,-0.21866862,0.08422316,0.34550864,-0.5427882,0.5615753,0.37120718,-1.3496014,-2.2532227,-0.6322265,1.864631,1.7619451,-0.83838105,0.42877993,-1.297307,-2.238005,-0.6378537,1.8339331,1.8137217,-0.8907106,-1.3080531,-1.1587092,-0.6210333,0.24470592,0.3991876,-0.2576049,0.3835881,-0.5347791,-0.48978424,0.587271,-0.84436786,0.49408183,-0.9593912,-0.52286625,-0.50180435,0.5450645,0.97397304,0.09168245,0.19963984,0.055809584,-1.0291357,0.60033834,-0.8469405,0.0,1.0,0.0,0.0,0.0,0.0,0.0,-0.115220904,0.089784235,-0.037270963,2.1891356,2.6823997,17.539299,-13.906229,5.54291,-2.952063,0.3106892
41.712135,84.37212,22.757519,-0.111295104,1.0698177,0.72222286,0.5939872,-0.718291,-0.6342728,-0.071884446,-0.0741884,0.45221126,-0.5554338,0.5641639,0.35695082,-1.3607343,-2.2451935,-0.6452725,1.8791542,1.7581782,-0.8342942,0.4158238,-1.3087358,-2.2424452,-0.63685143,1.8386357,1.8109753,-0.8868434,-1.2918881,-1.1375777,-0.38465086,0.051252075,0.49354503,-0.2805349,0.387662,-0.5428138,-0.48498535,0.5778295,-0.7891734,0.47583842,-0.9397668,-0.53269434,-0.4958992,0.5367957,0.9752664,0.096936844,0.19201042,0.050898284,-0.9618418,0.59499985,-0.82202023,0.0,1.0,0.0,0.0,0.0,0.0,0.0,-0.1071862,0.084985346,-0.027829468,1.4976978,2.154398,23.82539,-19.580177,9.321796,-2.2419155,0.34862757
36.411716,113.76596,29.859993,10.928877,2.7330925,1.1814508,0.25753096,-0.72183293,-0.5726994,0.208325,-0.03764452,0.53514963,-0.5596634,0.600995,0.3436405,-1.3660058,-2.2216127,-0.6406159,1.8921506,1.7550089,-0.8267439,0.40296778,-1.3197355,-2.2436163,-0.63727033,1.8444461,1.8080367,-0.882913,-1.2837223,-1.0872074,-0.027917916,-0.07369367,0.6107878,-0.2980781,0.3947586,-0.55022144,-0.48037338,0.5689748,-0.7243462,0.45715296,-0.8684732,-0.54193306,-0.48987198,0.5292673,0.9768134,0.10038938,0.1832372,0.04670746,-0.90615267,0.6115835,-0.7314059,0.0,1.0,0.0,0.0,0.0,0.0,0.0,-0.09977853,0.08037338,-0.018974781,0.7505894,5.0910234,35.643192,-12.711689,11.904848,-1.6030729,0.67527294
45.04857,112.40148,30.548906,7.857904,2.3747835,1.0791571,0.34958017,-0.68555564,-0.558381,0.31919202,-0.16261162,0.63157606,-0.5406341,0.6140056,0.33441222,-1.3755736,-2.211697,-0.6535315,1.9076036,1.7539732,-0.82151246,0.3903203,-1.3302221,-2.241297,-0.63904816,1.8515575,1.8049698,-0.87890375,-1.2583497,-1.035711,0.3176558,-0.2129069,0.74608755,-0.30871785,0.40295032,-0.5569639,-0.47598648,0.56086445,-0.65839815,0.43281025,-0.79333276,-0.55056095,-0.48378372,0.5226191,0.9786359,0.10179514,0.17331909,0.043241654,-0.84396106,0.6149512,-0.64425325,0.0,1.0,0.0,0.0,0.0,0.0,0.0,-0.093036056,0.075986475,-0.010864437,2.5511503,5.2085876,34.236965,-14.034611,14.009666,-0.78366995,0.8264184
45.56257,111.88225,28.994444,6.4539976,1.5843657,0.9049599,0.46241498,-0.6743376,-0.49047542,0.3278048,-0.29495844,0.68122846,-0.53462636,0.6124637,0.32288653,-1.3792697,-2.2085166,-0.668544,1.9196804,1.7515072,-0.81765735,0.3779569,-1.3399878,-2.2363539,-0.64245784,1.8599511,1.8018284,-0.87481815,-1.2286797,-0.956782,0.5513523,-0.3835961,0.872885,-0.31478363,0.41064963,-0.5630479,-0.47187805,0.5534966,-0.59293413,0.40398744,-0.72038424,-0.5585127,-0.47774887,0.516737,0.98063666,0.10151368,0.1624802,0.04058141,-0.77507615,0.6050739,-0.5712022,0.0,1.0,0.0,0.0,0.0,0.0,0.0,-0.08695209,0.071878046,-0.0034965873,3.0595064,7.952094,22.770082,-17.04266,13.426722,-0.21147728,0.8329928
31.55982,127.68394,29.561808,15.238478,1.8385831,1.016751,0.2392146,-0.6785528,-0.3952704,0.39056554,-0.29012018,0.6843446,-0.4718006,0.5913995,0.31010163,-1.3795148,-2.1972973,-0.67146987,1.9283856,1.7546483,-0.8156782,0.36582044,-1.3486509,-2.2297137,-0.647191,1.8693635,1.7986896,-0.8706781,-1.2080576,-0.83593524,0.6985336,-0.5027193,0.9675,-0.31190708,0.41547206,-0.56847763,-0.46805954,0.5470206,-0.5277328,0.3752531,-0.62631303,-0.5658431,-0.47174072,0.5117339,0.98267895,0.09992247,0.15124455,0.03850584,-0.71595234,0.6049365,-0.47814074,0.0,1.0,0.0,0.0,0.0,0.0,0.0,-0.081522346,0.068059534,0.0029793978,2.2400856,12.181223,13.824785,-11.776209,10.529507,0.76669455,0.5979061
28.820349,136.3016,30.798628,18.781277,1.7948248,1.071013,0.14701715,-0.650465,-0.32925767,0.49020398,-0.31552467,0.6975188,-0.3739976,0.5973991,0.30077392,-1.3815767,-2.1806934,-0.6787435,1.9391154,1.7612898,-0.81093824,0.35395014,-1.3559847,-2.2218375,-0.6528035,1.8795042,1.7956655,-0.866493,-1.1792531,-0.6987098,0.81373006,-0.58004755,1.033726,-0.297384,0.42009056,-0.57325363,-0.4645424,0.5416101,-0.46244204,0.34456512,-0.516139,-0.57258844,-0.46572495,0.50775456,0.9846738,0.097193085,0.14004873,0.03684204,-0.6579916,0.60430664,-0.37232953,0.0,1.0,0.0,0.0,0.0,0.0,0.0,-0.076746345,0.06454238,0.00838989,3.1131744,13.854241,10.4352,-7.5345874,7.920015,2.0034611,0.6141782
