Afshin1997/kuka_rl_ros2/src/catch_and_throw/input_files/idealpd/polynomial_regressor/optimizer_files/env_308_data.csv
torque0,torque1,torque2,torque3,torque4,torque5,torque6,action0,action1,action2,action3,action4,action5,action6,set_target_0,set_target_1,set_target_2,set_target_3,set_target_4,set_target_5,set_target_6,joint_pos_0,joint_pos_1,joint_pos_2,joint_pos_3,joint_pos_4,joint_pos_5,joint_pos_6,joint_vel_0,joint_vel_1,joint_vel_2,joint_vel_3,joint_vel_4,joint_vel_5,joint_vel_6,tennisball_pos_0,tennisball_pos_1,tennisball_pos_2,tennisball_lin_vel_0,tennisball_lin_vel_1,tennisball_lin_vel_2,end_effector_pos_0,end_effector_pos_1,end_effector_pos_2,end_effector_rot_0,end_effector_rot_1,end_effector_rot_2,end_effector_rot_3,end_effector_lin_vel_0,end_effector_lin_vel_1,end_effector_lin_vel_2,obs_task_0,obs_task_1,obs_task_2,obs_task_3,obs_task_4,obs_task_5,obs_task_6,to_final_target_0,to_final_target_1,to_final_target_2,joint_acc_0,joint_acc_1,joint_acc_2,joint_acc_3,joint_acc_4,joint_acc_5,joint_acc_6
0.0,0.0,0.0,0.0,0.0,0.0,0.0,0.0,0.0,0.0,0.0,0.0,0.0,0.0,1.7802359,-1.0646509,-1.8151424,-1.1170107,1.9373155,1.1170107,-0.91629785,1.7802359,-1.0646509,-1.8151424,-1.1170107,1.9373155,1.1170107,-0.91629785,0.0,0.0,0.0,0.0,0.0,0.0,0.0,3.1391945,-0.61932373,0.3785082,-4.0456877,0.09049604,5.0104895,0.5304146,-0.45448303,0.693097,0.5745483,0.17512383,0.15255436,0.7848268,0.0,0.0,0.0,1.0,0.0,0.0,0.0,0.0,0.0,0.0,-3.7891946,0.21932372,0.1714918,0.0,0.0,0.0,0.0,0.0,0.0,0.0
0.0,0.0,0.0,0.0,0.0,0.0,0.0,0.0,0.0,0.0,0.0,0.0,0.0,0.0,1.7802359,-1.0646509,-1.8151424,-1.1170107,1.9373155,1.1170107,-0.91629785,1.7802359,-1.0646509,-1.8151424,-1.1170107,1.9373155,1.1170107,-0.91629785,0.0,0.0,0.0,0.0,0.0,0.0,0.0,3.1391945,-0.61932373,0.3785082,-4.0456877,0.09049604,5.0104895,0.5304146,-0.45448303,0.693097,0.5745483,0.17512383,0.15255436,0.7848268,0.0,0.0,0.0,1.0,0.0,0.0,0.0,0.0,0.0,0.0,-3.7891946,0.21932372,0.1714918,0.0,0.0,0.0,0.0,0.0,0.0,0.0
0.0,0.0,0.0,0.0,0.0,0.0,0.0,0.0,0.0,0.0,0.0,0.0,0.0,0.0,1.7802359,-1.0646509,-1.8151424,-1.1170107,1.9373155,1.1170107,-0.91629785,1.7802359,-1.0646509,-1.8151424,-1.1170107,1.9373155,1.1170107,-0.91629785,0.0,0.0,0.0,0.0,0.0,0.0,0.0,3.1391945,-0.61932373,0.3785082,-4.0456877,0.09049604,5.0104895,0.5304146,-0.45448303,0.693097,0.5745483,0.17512383,0.15255436,0.7848268,0.0,0.0,0.0,1.0,0.0,0.0,0.0,0.0,0.0,0.0,-3.7891946,0.21932372,0.1714918,0.0,0.0,0.0,0.0,0.0,0.0,0.0
-176.0,73.492836,-3.884161,110.0,10.782422,4.9676304,-3.845843,-0.80537504,0.36766565,-0.53572786,0.74460775,0.2273806,0.6568994,-0.57342196,1.6996983,-1.0278844,-1.8687152,-1.04255,1.9600536,1.1827006,-0.97364,1.778649,-1.0619711,-1.821183,-1.1126658,1.942101,1.1218344,-0.9176015,-0.21135902,0.35659575,-0.8044505,0.57929444,0.6371873,0.64122164,-0.17357238,3.0987682,-0.61842346,0.42783907,-4.041643,0.09040557,4.907294,0.52830696,-0.45755005,0.6939065,0.5782517,0.17382497,0.15148954,0.78259873,-0.28059813,-0.4075331,0.10771625,1.0,0.0,0.0,0.0,0.0,0.0,0.0,-3.7487683,0.21842346,0.12216094,-21.083584,35.430664,-80.20514,57.986675,63.444412,63.537533,-17.273043
-176.0,11.864204,-28.125816,110.0,12.384639,3.1049225,-3.4461188,-0.8098235,0.067737855,-0.55755234,0.71226,0.42728278,0.63797724,-0.5549833,1.6976666,-1.0551972,-1.8769382,-1.0414398,1.9848293,1.1856321,-0.9730998,1.7760531,-1.0573553,-1.8360775,-1.1007658,1.9534459,1.1342608,-0.9195661,-0.27514812,0.4918588,-1.7104228,1.3951541,1.2952759,1.4299011,-0.20394619,3.058382,-0.6175232,0.47613874,-4.0376024,0.090315185,4.8042016,0.5234451,-0.46533966,0.6952033,0.58667576,0.17066056,0.1482205,0.7776355,-0.5561054,-0.8986405,0.13839395,1.0,0.0,0.0,0.0,0.0,0.0,0.0,-3.7083821,0.21752319,0.07386127,-6.2385616,12.101709,-88.370346,82.03851,64.24794,74.837875,-2.9893966
-158.25471,117.3663,30.520172,97.25004,8.395404,7.8442717,-2.302279,-0.7681995,0.42634425,-0.15023103,0.65800786,0.389722,0.6865556,-0.5024281,1.6992332,-1.0147209,-1.8511006,-1.034965,1.992418,1.2029164,-0.96980894,1.7701098,-1.0511984,-1.8521926,-1.0848566,1.9664865,1.1484438,-0.9218673,-0.70109093,0.6530765,-1.5714562,1.6571715,1.3018113,1.4060982,-0.2408039,3.018036,-0.6166229,0.5234083,-4.0335655,0.09022489,4.7012124,0.5156479,-0.47588348,0.6982584,0.5982807,0.16595252,0.14397837,0.7705778,-0.8618738,-1.1026272,0.36565748,1.0,0.0,0.0,0.0,0.0,0.0,0.0,-3.668036,0.21662292,0.026591718,-42.727066,14.981747,16.023588,26.490234,-0.8670807,-4.8464537,-4.2735815
-96.17882,127.68978,45.848995,62.838478,4.774735,8.15157,-0.8489352,-0.7750805,0.3757398,-0.06587433,0.6346141,0.4058845,0.647071,-0.540464,1.6926017,-1.0136244,-1.85878,-1.0213952,2.0070748,1.213151,-0.9759137,1.7601229,-1.0441622,-1.8641784,-1.0684325,1.9782605,1.1616026,-0.92450804,-1.0995208,0.7174162,-1.0659301,1.6377797,1.1307812,1.2804472,-0.27474323,2.9777317,-0.61572266,0.56964874,-4.0295324,0.09013469,4.598326,0.5053253,-0.48714447,0.7034728,0.61121166,0.15977621,0.13932993,0.7625476,-1.1008472,-1.1232582,0.57938415,1.0,0.0,0.0,0.0,0.0,0.0,0.0,-3.6277318,0.21572265,-0.01964873,-40.325855,5.544567,53.074455,-1.8855333,-18.661572,-14.174676,-4.266238
-41.890156,133.6156,51.77656,35.816376,1.6694926,7.087726,-0.10470718,-0.79854566,0.48235887,-0.117081866,0.63469,0.44506046,0.6379853,-0.54570043,1.6802683,-0.99592626,-1.8758866,-1.0049634,2.0227666,1.2254012,-0.97907805,1.7469164,-1.0363744,-1.8710487,-1.0532652,1.9881063,1.1733519,-0.9274549,-1.3962168,0.7970983,-0.5535415,1.4758271,0.9319048,1.1368364,-0.30420932,2.9374657,-0.6148224,0.614861,-4.025504,0.09004457,4.495543,0.49326134,-0.4977646,0.7105373,0.6242692,0.15232083,0.13464698,0.754292,-1.2536589,-1.0268233,0.75326556,1.0,0.0,0.0,0.0,0.0,0.0,0.0,-3.5874658,0.21482238,-0.064861,-30.22902,7.3419094,53.378582,-16.369772,-21.051765,-15.215135,-3.8032234
-3.305525,119.15808,45.90612,16.426464,-0.28591937,4.9221573,0.18853158,-0.8074684,0.5380094,-0.16134149,0.63650423,0.4830866,0.63061124,-0.5450682,1.6661695,-0.9825735,-1.8871828,-0.9896148,2.0364149,1.236413,-0.9819617,1.7317683,-1.0277494,-1.8741214,-1.0398489,1.996367,1.1837927,-0.93065065,-1.5560086,0.88318044,-0.22034386,1.2960348,0.78868264,1.0122151,-0.3269471,2.8972416,-0.6139221,0.6590463,-4.0214796,0.08995455,4.392862,0.48029327,-0.5071335,0.7188438,0.63690007,0.1440648,0.13031363,0.746071,-1.3218752,-0.892373,0.85873294,1.0,0.0,0.0,0.0,0.0,0.0,0.0,-3.5472417,0.21392211,-0.10904628,-16.443777,8.220029,34.763294,-18.248726,-14.990913,-12.776852,-2.941072
16.448643,106.99166,39.406174,7.7103405,-1.2053747,3.2448568,0.14602682,-0.8200931,0.59991354,-0.17225951,0.6433252,0.4737431,0.64049244,-0.53369,1.6497589,-0.96775806,-1.8913474,-0.9755164,2.0437412,1.247842,-0.98401964,1.7158133,-1.0181631,-1.8752792,-1.0278689,2.0035882,1.193154,-0.93402666,-1.6099732,0.98297817,-0.07798578,1.1642809,0.6989224,0.91072154,-0.34296444,2.8570557,-0.61302185,0.7022055,-4.017459,0.08986461,4.2902837,0.4670391,-0.51517487,0.7278826,0.6490087,0.13542996,0.12664169,0.73784024,-1.3358334,-0.75907177,0.91930735,1.0,0.0,0.0,0.0,0.0,0.0,0.0,-3.5070558,0.21302184,-0.15220547,-5.7584047,9.723722,15.184262,-13.466907,-9.327054,-10.223616,-2.1363616
26.078941,96.290726,34.14655,4.06549,-1.4331298,2.1321182,0.090463124,-0.81707823,0.6397061,-0.15391573,0.635852,0.4845374,0.6469158,-0.5256838,1.6341054,-0.95419246,-1.8906708,-0.96428365,2.052042,1.2578455,-0.98659503,1.699845,-1.0076078,-1.8759391,-1.0167834,2.0102868,1.2016474,-0.9375276,-1.593289,1.0791498,-0.059988834,1.0890745,0.6595587,0.82906336,-0.3539129,2.8169117,-0.6121216,0.7443397,-4.013442,0.089774765,4.187808,0.45386124,-0.5220032,0.7373312,0.6606505,0.12668617,0.12373083,0.72950816,-1.3193125,-0.64125735,0.9530165,1.0,0.0,0.0,0.0,0.0,0.0,0.0,-3.4669118,0.21212158,-0.1943397,1.386857,9.441996,2.457501,-7.818651,-4.12097,-8.153141,-1.5477359
26.418636,88.851524,30.76681,4.6790853,-1.1257784,1.6646129,0.056021098,-0.8200427,0.66752756,-0.11477235,0.62775093,0.49611506,0.64895934,-0.5185527,1.6178406,-0.9408551,-1.8874164,-0.9540083,2.0598984,1.2665434,-0.98938286,1.6842448,-0.99621075,-1.8767459,-1.0061079,2.016848,1.2094389,-0.94111055,-1.5496596,1.1594355,-0.08588319,1.0592496,0.65458184,0.7625094,-0.3610764,2.7768078,-0.6112213,0.7854499,-4.0094295,0.08968501,4.085435,0.44088173,-0.52780914,0.7470485,0.6719043,0.11793629,0.121463336,0.72102857,-1.2965361,-0.5434826,0.97721255,1.0,0.0,0.0,0.0,0.0,0.0,0.0,-3.4268079,0.21122131,-0.23544991,4.137397,7.890749,-2.0651832,-3.2627106,-0.6203532,-6.664765,-1.1115134
22.773094,83.678925,28.234789,6.6789546,-0.7447914,1.4892014,0.014767501,-0.8154607,0.6990799,-0.11121831,0.6235512,0.49857554,0.6604117,-0.5023718,1.6026987,-0.9263028,-1.8878678,-0.9437528,2.0667057,1.27548,-0.99134773,1.669108,-0.98411626,-1.8779285,-0.9955156,2.023478,1.216662,-0.9447383,-1.5023824,1.2256728,-0.12757696,1.0582936,0.6655148,0.7087695,-0.36452854,2.736744,-0.61032104,0.82553715,-4.005421,0.08959534,3.983164,0.42809105,-0.5327606,0.75697887,0.6828477,0.10919563,0.11969113,0.71236885,-1.2776207,-0.46237293,0.9974986,1.0,0.0,0.0,0.0,0.0,0.0,0.0,-3.386744,0.21032104,-0.27553713,4.5339584,6.5006256,-3.7055044,-0.35719872,0.99776983,-5.4318666,-0.7037878
18.15896,77.86591,25.822308,8.158446,-0.3340885,1.4088902,0.036514174,-0.812809,0.71368545,-0.101866424,0.6089,0.53169066,0.66002655,-0.509818,1.5878271,-0.91274774,-1.8881152,-0.93462557,2.076647,1.2826647,-0.99572015,1.6543585,-0.97151154,-1.8794467,-0.9848945,2.0303445,1.2234198,-0.9483966,-1.4662249,1.271677,-0.1583556,1.0626019,0.6936206,0.66446155,-0.36737823,2.6967201,-0.6094208,0.8646025,-4.0014167,0.08950576,3.880996,0.41542625,-0.53700256,0.7670707,0.6935124,0.100471504,0.11822044,0.703541,-1.2662072,-0.39494556,1.0123218,1.0,0.0,0.0,0.0,0.0,0.0,0.0,-3.3467202,0.20942077,-0.3146025,3.4328938,4.4876814,-2.6217997,0.17626286,2.7217388,-4.524505,-0.6223202
13.79137,71.93585,23.323057,9.066533,-0.074338675,1.3272636,0.0504002,-0.8101754,0.7220156,-0.103554845,0.59847105,0.5352381,0.6655409,-0.50833535,1.573341,-0.89931,-1.8898022,-0.9250474,2.0838683,1.2899739,-0.99923015,1.6398627,-0.95859116,-1.8811824,-0.9742563,2.0374894,1.229798,-0.95207685,-1.4446079,1.2985859,-0.17703374,1.0633215,0.7212365,0.6286052,-0.36929187,2.6567364,-0.6085205,0.9026469,-3.997416,0.08941627,3.7789302,0.4028244,-0.5406418,0.7772523,0.7039063,0.09177558,0.116913736,0.6945676,-1.2608614,-0.3373131,1.019376,1.0,0.0,0.0,0.0,0.0,0.0,0.0,-3.3067365,0.2085205,-0.3526469,1.9824982,2.589178,-1.4119029,-0.18033981,2.673483,-3.685248,-0.51154494
11.71661,69.69853,22.534101,9.581007,0.090735614,1.371699,0.0962448,-0.8089906,0.73170507,-0.08389577,0.5853202,0.5532104,0.67567635,-0.5137253,1.5589635,-0.8854207,-1.889572,-0.9157243,2.0928104,1.2973655,-1.0034494,1.625487,-0.94548863,-1.8829219,-0.963681,2.0449128,1.2358729,-0.9557771,-1.4358946,1.3137318,-0.17131774,1.0548228,0.7493578,0.6002275,-0.3713466,2.6167908,-0.60762024,0.9396714,-3.9934194,0.08932687,3.6769664,0.39024353,-0.5437317,0.787491,0.7140093,0.08308436,0.11566004,0.6855001,-1.2600107,-0.28203395,1.0245136,1.0,0.0,0.0,0.0,0.0,0.0,0.0,-3.2667909,0.20762023,-0.3896714,0.68302155,1.4168501,1.0628939,-1.1014462,2.7176857,-2.9426098,-0.52750707
11.140725,69.81255,22.504265,9.965679,0.11414814,1.4274949,0.11806267,-0.80660576,0.74415845,-0.06970565,0.5779325,0.55052006,0.67214435,-0.50700235,1.5448264,-0.87107277,-1.8898925,-0.9058877,2.0999649,1.3030874,-1.0064774,1.6111418,-0.9322602,-1.8844783,-0.9532287,2.0525498,1.2417017,-0.9594907,-1.4346576,1.3256081,-0.14879934,1.0411597,0.7684719,0.5768128,-0.3724511,2.5768871,-0.6067276,0.975677,-3.9894269,0.08923756,3.5751045,0.37765694,-0.54623413,0.79778767,0.7238015,0.07435171,0.114416204,0.6763816,-1.2603675,-0.22482812,1.0303859,1.0,0.0,0.0,0.0,0.0,0.0,0.0,-3.2268872,0.2067276,-0.425677,-0.0733614,1.0894299,2.7752995,-1.6125441,1.8037081,-2.4461508,-0.43401718
11.095278,68.740654,21.977741,9.837542,0.10108763,1.3928165,0.13706505,-0.80637956,0.74838215,-0.057682835,0.5655449,0.5577187,0.6768002,-0.5097888,1.5305039,-0.857422,-1.8902466,-0.8966742,2.1083217,1.3093817,-1.0104696,1.5967795,-0.91894025,-1.8857524,-0.9429548,2.0603433,1.2473322,-0.9632148,-1.4375107,1.3338064,-0.11854856,1.0219773,0.782686,0.5582772,-0.3735508,2.5370216,-0.6058426,1.0106648,-3.985438,0.08914834,3.4733443,0.36506653,-0.54816437,0.8081274,0.73326623,0.065554455,0.11317187,0.66724455,-1.259683,-0.16699909,1.0337832,1.0,0.0,0.0,0.0,0.0,0.0,0.0,-3.1870217,0.20584258,-0.4606648,-0.48496723,0.72734356,3.5570593,-2.162528,1.3156772,-1.9414306,-0.4316151
9.473544,66.84308,20.848827,10.583895,0.17372167,1.3115752,0.10745952,-0.80852205,0.7504481,-0.05544291,0.5692245,0.56198627,0.67488027,-0.49762398,1.5159273,-0.84389544,-1.8912967,-0.88603234,2.1165419,1.3148203,-1.0129772,1.5823694,-0.90556115,-1.8867633,-0.932822,2.0682473,1.2528044,-0.9669389,-1.4426869,1.338957,-0.09355947,1.0094904,0.7927905,0.5430588,-0.37314358,2.497198,-0.6049576,1.0446358,-3.9814537,0.08905921,3.371686,0.3524685,-0.54956055,0.81848437,0.742424,0.05668493,0.11193406,0.6580761,-1.2600808,-0.11324556,1.0347375,1.0,0.0,0.0,0.0,0.0,0.0,0.0,-3.1471982,0.20495757,-0.49463576,-0.7088661,0.42920113,3.0056834,-1.4840364,0.92134476,-1.6031623,-0.26870966
9.683565,63.695694,19.33989,9.860823,0.091235876,1.1152129,0.10027104,-0.8066147,0.75072825,-0.06302467,0.5537983,0.566905,0.6777651,-0.4955512,1.501708,-0.8304883,-1.8930658,-0.8774422,2.1249378,1.320581,-1.016494,1.5679213,-0.8921525,-1.887635,-0.92284083,2.0762353,1.2581488,-0.97065634,-1.4459902,1.3412207,-0.083556816,0.993546,0.80070263,0.5313069,-0.37227672,2.4574127,-0.6040726,1.0775908,-3.977473,0.08897017,3.2701292,0.33990097,-0.5504303,0.828797,0.75128573,0.04778065,0.11074067,0.64886296,-1.2561762,-0.062320862,1.0282093,1.0,0.0,0.0,0.0,0.0,0.0,0.0,-3.1074128,0.20407256,-0.5275908,-0.5135536,0.15470982,1.4702752,-1.8355846,0.7241368,-1.2163043,-0.21067858
9.48155,60.96596,17.96784,9.401808,0.041253924,0.93891495,0.090487316,-0.80894893,0.7515185,-0.07089665,0.5397765,0.5754171,0.6789302,-0.4916892,1.4870263,-0.8170006,-1.8947246,-0.86886317,2.133777,1.3260418,-1.0198252,1.5534426,-0.8787324,-1.8885162,-0.91304755,2.0843072,1.263394,-0.9743623,-1.4490347,1.3420227,-0.08798148,0.97372186,0.80910164,0.5221767,-0.37092444,2.4176693,-0.60318756,1.1095312,-3.9734962,0.08888122,3.168674,0.32738686,-0.55081177,0.8389997,0.75986105,0.038891017,0.109630994,0.6395934,-1.2489978,-0.0148633225,1.0155265,1.0,0.0,0.0,0.0,0.0,0.0,0.0,-3.0676694,0.20318756,-0.55953115,-0.48270226,0.019907951,-0.0020936131,-2.2292256,0.7907152,-0.9252429,-0.15069842
8.906671,62.42894,18.262543,10.442268,0.09734571,0.98180157,0.07301435,-0.81420344,0.7575424,-0.0541508,0.5414042,0.573122,0.6759545,-0.48998877,1.4720223,-0.80297816,-1.8939313,-0.8589071,2.1416194,1.3309895,-1.0233612,1.5389181,-0.8652846,-1.8893974,-0.90340495,2.0924363,1.2685572,-0.978054,-1.4540576,1.3455077,-0.08666017,0.96033657,0.81416523,0.514334,-0.36950573,2.377964,-0.60230255,1.1404577,-3.9695237,0.088792354,3.0673203,0.31493378,-0.55072784,0.84910834,0.76816475,0.029992428,0.108614445,0.63025874,-1.243222,0.033315398,1.0070724,1.0,0.0,0.0,0.0,0.0,0.0,0.0,-3.027964,0.20230255,-0.59045774,-0.6834984,0.2835989,0.58754385,-1.573956,0.45019388,-0.8169651,-0.14356375
9.263928,60.92341,17.490887,10.093765,0.025467336,0.864427,0.065915234,-0.8133399,0.756288,-0.06626833,0.52941835,0.566138,0.68279624,-0.48561585,1.4575841,-0.7896558,-1.8960242,-0.8504631,2.1490502,1.3368368,-1.0266156,1.5243555,-0.85181016,-1.8903205,-0.89390254,2.1005769,1.2736593,-0.9817285,-1.457435,1.347891,-0.09275506,0.94601256,0.81418633,0.50878614,-0.36775264,2.3382988,-0.60141754,1.1703715,-3.965555,0.08870358,2.9660678,0.3025589,-0.55016327,0.8591085,0.7762059,0.021085186,0.10772268,0.6208506,-1.2339944,0.080337055,0.9952351,1.0,0.0,0.0,0.0,0.0,0.0,0.0,-2.988299,0.20141754,-0.6203715,-0.5151272,0.18165112,-0.17191917,-1.6701221,-0.04425049,-0.5652547,-0.10314584
11.625008,63.011353,18.510744,9.603501,-0.02133429,0.9032378,0.13502857,-0.81450474,0.7589655,-0.033072434,0.5097518,0.5788167,0.6790447,-0.47941235,1.4429051,-0.7759136,-1.8936278,-0.84292734,2.1584585,1.3415638,-1.0296698,1.5097662,-0.8383071,-1.8911483,-0.8845966,2.1087441,1.2787119,-0.985383,-1.4600254,1.3509569,-0.07765915,0.9247224,0.8174616,0.5040434,-0.36570063,2.2986736,-0.60053253,1.1992735,-3.96159,0.088614896,2.8649166,0.29029655,-0.5490875,0.8690148,0.78394276,0.012145488,0.10691974,0.61143637,-1.2212594,0.13247031,0.98662037,1.0,0.0,0.0,0.0,0.0,0.0,0.0,-2.9486737,0.20053253,-0.64927346,-0.44510365,0.2477169,1.9911021,-2.3615599,0.25935173,-0.48152208,-0.084108114
15.303101,63.24603,19.002209,7.671922,-0.18019772,0.8256495,0.2411716,-0.8135161,0.75726765,-0.0053039966,0.47105473,0.59284055,0.670428,-0.47792152,1.4284146,-0.76258034,-1.8916787,-0.8374911,2.168028,1.3457547,-1.0331751,1.4951655,-0.8247878,-1.8916805,-0.87564826,2.1169877,1.2837187,-0.9890184,-1.460705,1.3521171,-0.04349444,0.8841348,0.82592833,0.49973235,-0.3638179,2.2590866,-0.5996475,1.2271647,-3.9576294,0.0885263,2.7638667,0.27822113,-0.54745483,0.87881863,0.7912985,0.0031738903,0.10614703,0.6021372,-1.2001357,0.18886133,0.9754377,1.0,0.0,0.0,0.0,0.0,0.0,0.0,-2.9090867,0.19964752,-0.67716473,-0.25818348,0.066137314,3.922388,-4.2931914,0.76862574,-0.39433837,-0.10685921
16.392933,65.64102,19.80036,8.099068,-0.19652551,0.8661497,0.25607863,-0.8120039,0.76500106,0.018193122,0.46735388,0.58634984,0.67874396,-0.46788323,1.4139651,-0.7482877,-1.8898612,-0.82891285,2.1756227,1.3515931,-1.0358067,1.4805723,-0.81122845,-1.8917873,-0.86706996,2.1252847,1.288695,-0.99262995,-1.4594698,1.3570976,0.002088,0.8483085,0.83100724,0.49689108,-0.3612197,2.2195396,-0.5987625,1.2540462,-3.9536726,0.088437796,2.6629176,0.26636505,-0.5452347,0.8885465,0.7982477,-0.005870746,0.105390236,0.5930085,-1.1772587,0.24844982,0.96890724,1.0,0.0,0.0,0.0,0.0,0.0,0.0,-2.8695397,0.1987625,-0.7040462,-0.06322861,0.4469633,5.0713353,-3.797412,0.4256606,-0.2528727,-0.03287196
14.803849,64.096,18.866714,8.799553,-0.12737727,0.7762938,0.2264732,-0.8176042,0.7653953,0.025272049,0.45564377,0.5898656,0.6776341,-0.45322433,1.3988119,-0.73468894,-1.88926,-0.8215056,2.1842713,1.3564584,-1.0379524,1.4659678,-0.7976205,-1.891484,-0.8588102,2.1336312,1.2936465,-0.9962053,-1.4612434,1.3618343,0.04136701,0.8178014,0.8355443,0.49464956,-0.35726345,2.1800327,-0.5978775,1.2799189,-3.9497197,0.08834938,2.5620694,0.2547264,-0.5424423,0.898202,0.804812,-0.014995077,0.104653075,0.5840381,-1.1556271,0.30378306,0.96097016,1.0,0.0,0.0,0.0,0.0,0.0,0.0,-2.8300328,0.1978775,-0.7299189,-0.35505295,0.43020248,4.4031634,-3.2535315,0.39049387,-0.18565655,0.12225509
14.823595,65.113655,19.266525,9.443134,-0.028297246,0.80924755,0.25261036,-0.82061446,0.76616603,0.077955246,0.4412084,0.60369426,0.6766843,-0.4449624,1.3839064,-0.7210039,-1.8836884,-0.81468934,2.1940007,1.3613149,-1.0407015,1.4513308,-0.78397244,-1.8906524,-0.850826,2.1420503,1.298577,-0.9997377,-1.4651322,1.3656535,0.098744854,0.7914208,0.8441069,0.4926359,-0.35281262,2.140564,-0.5969925,1.3047839,-3.9457707,0.08826105,2.461322,0.24328613,-0.53910065,0.907807,0.81098855,-0.024231933,0.10388722,0.57525456,-1.1355698,0.35998803,0.95665294,1.0,0.0,0.0,0.0,0.0,0.0,0.0,-2.790564,0.19699249,-0.7547839,-0.56328773,0.3386736,6.219117,-2.8212786,0.7921457,-0.17306805,0.17496943
15.125392,63.57365,18.622065,8.952953,-0.08824664,0.6963905,0.26225442,-0.8223665,0.766058,0.10187942,0.41780975,0.59679186,0.67528766,-0.4396211,1.3690941,-0.70736665,-1.8804644,-0.8090451,2.2017295,1.3661057,-1.0436997,1.4366499,-0.7702996,-1.8892429,-0.8431308,2.1505265,1.3034903,-1.003226,-1.4696165,1.3677928,0.15645021,0.7616668,0.84864074,0.4911325,-0.34822628,2.1011372,-0.5961075,1.3286422,-3.9418259,0.088172816,2.3606756,0.23206711,-0.53517914,0.9173465,0.8167726,-0.033578057,0.10308555,0.5666818,-1.1123222,0.4145372,0.9490041,1.0,0.0,0.0,0.0,0.0,0.0,0.0,-2.7511373,0.19610748,-0.77864224,-0.6129265,0.17952919,6.2250586,-3.14852,0.40175915,-0.09136796,0.20260811
16.483728,62.021294,17.94188,7.5174623,-0.2423554,0.52023864,0.29575628,-0.8243236,0.772067,0.11833385,0.37836826,0.6132195,0.6720075,-0.4300863,1.3542175,-0.69309294,-1.8774095,-0.805294,2.2118485,1.3706911,-1.0462347,1.4219252,-0.75658673,-1.8873203,-0.83584476,2.159083,1.3083922,-1.006665,-1.4741282,1.3723918,0.20568356,0.7169492,0.85782593,0.49004018,-0.3431618,2.0617485,-0.5952225,1.3514949,-3.9378848,0.08808467,2.2601297,0.22112846,-0.53074646,0.92676884,0.82215196,-0.042976793,0.10227962,0.55835295,-1.0821974,0.46737674,0.9356195,1.0,0.0,0.0,0.0,0.0,0.0,0.0,-2.7117486,0.19522247,-0.8014949,-0.60961246,0.4359722,5.351868,-4.6409726,0.87822676,-0.0054121017,0.2663672
16.729671,59.164116,16.794073,6.6532326,-0.3303942,0.32261315,0.29338294,-0.8240743,0.77064687,0.1327072,0.35559344,0.612801,0.6691748,-0.42171896,1.3395177,-0.67952204,-1.8740495,-0.8002854,2.220363,1.3753097,-1.048837,1.407168,-0.74284047,-1.8849933,-0.8290374,2.1677155,1.3132845,-1.0100505,-1.476791,1.3753744,0.24314491,0.6681604,0.8654846,0.48929298,-0.33771116,2.022398,-0.59433746,1.3733429,-3.9339476,0.087996595,2.1596842,0.21051788,-0.52578735,0.9360192,0.82713324,-0.052365955,0.10151033,0.5502763,-1.0475965,0.5152292,0.916886,1.0,0.0,0.0,0.0,0.0,0.0,0.0,-2.672398,0.19433746,-0.82334286,-0.40900707,0.2881527,4.1222544,-5.043435,0.7502794,0.06803274,0.32545924
13.471395,58.222652,15.837674,8.888411,-0.1779328,0.2784469,0.1825316,-0.8252253,0.7766175,0.12944397,0.3757143,0.59961367,0.6767611,-0.400087,1.3246455,-0.6651787,-1.872049,-0.791466,2.2276769,1.3809606,-1.0500592,1.3923899,-0.7290465,-1.8824432,-0.82251525,2.176375,1.318173,-1.0133693,-1.4785095,1.3807393,0.25998658,0.64639086,0.8659798,0.48916396,-0.3306236,1.9830894,-0.59345245,1.3941871,-3.9300146,0.08790861,2.0593393,0.20020294,-0.5204239,0.9451106,0.83178794,-0.061758615,0.10083061,0.5423539,-1.0192841,0.5578317,0.90161633,1.0,0.0,0.0,0.0,0.0,0.0,0.0,-2.6330895,0.19345245,-0.8441871,-0.30186176,0.5316019,1.9982606,-2.3293138,0.06964207,0.09979606,0.5096495
13.818589,55.72714,14.929712,7.9800987,-0.2570055,0.11185929,0.1911821,-0.8267535,0.77528673,0.14211772,0.33743185,0.6051005,0.6711063,-0.3992722,1.3097146,-0.65151787,-1.8682314,-0.78877205,2.236885,1.3852837,-1.0532966,1.3775965,-0.7152135,-1.8797729,-0.81626487,2.185038,1.3230597,-1.0166233,-1.4799774,1.3841981,0.27034238,0.61744606,0.86664057,0.48889387,-0.32410735,1.943819,-0.59256744,1.4140285,-3.9260855,0.087820716,1.9590944,0.19019699,-0.51464844,0.9540165,0.83614236,-0.07112308,0.10027527,0.53455806,-0.98705715,0.59662616,0.88179827,1.0,0.0,0.0,0.0,0.0,0.0,0.0,-2.5938191,0.19256744,-0.8640285,-0.2696991,0.35042763,1.3241053,-3.0474305,0.096690655,0.114917755,0.46468973
16.757027,53.669266,14.463967,5.245951,-0.5204383,-0.09907606,0.2764509,-0.82634526,0.77616054,0.1583527,0.27803436,0.60866624,0.67387587,-0.38690206,1.2949619,-0.63759744,-1.8639376,-0.78846145,2.2459047,1.3904473,-1.0553135,1.3627955,-0.7013537,-1.8769805,-0.81050754,2.1937165,1.3279482,-1.0198085,-1.4803704,1.3866403,0.282947,0.5613792,0.8679503,0.4895845,-0.31720635,1.9045868,-0.59169006,1.4328684,-3.9221601,0.08773291,1.8589498,0.18059349,-0.5084686,0.96266794,0.8401598,-0.08037746,0.09986484,0.5269706,-0.94342715,0.63370866,0.85436577,1.0,0.0,0.0,0.0,0.0,0.0,0.0,-2.554587,0.19169006,-0.88286835,-0.15366077,0.2594471,1.5401065,-5.757618,0.15848875,0.2740085,0.5142093
14.123771,52.419147,13.836954,7.1509514,-0.29312462,-0.11978191,0.22052258,-0.828666,0.773614,0.1645961,0.29739025,0.6078438,0.6713838,-0.35927737,1.2799289,-0.6239923,-1.860521,-0.7807685,2.2545009,1.3950866,-1.0557363,1.3479849,-0.6874911,-1.874068,-0.8051479,2.2024026,1.3328406,-1.0229099,-1.4815902,1.3861811,0.29481745,0.5270071,0.8690828,0.48974958,-0.30837244,1.8653946,-0.5908203,1.4507074,-3.9182386,0.087645195,1.7589053,0.17137527,-0.50198364,0.97107655,0.8438651,-0.08953585,0.09958423,0.5195749,-0.9072202,0.6659339,0.831036,1.0,0.0,0.0,0.0,0.0,0.0,0.0,-2.5153947,0.1908203,-0.9007074,-0.22749901,-0.024795532,1.4235497,-3.5799742,0.16651154,0.19087791,0.719291
10.930849,50.306667,12.72212,9.07564,-0.10448426,-0.17944881,0.12834197,-0.82984465,0.77312875,0.14630625,0.30613336,0.6021692,0.6676894,-0.34006864,1.2650005,-0.61017823,-1.8594373,-0.7745345,2.2626195,1.3996094,-1.0569167,1.3331591,-0.67364186,-1.8711555,-0.7999618,2.211081,1.337731,-1.025914,-1.4832364,1.3845352,0.29054227,0.5153432,0.8677928,0.48923677,-0.29849148,1.8262424,-0.58995056,1.4675468,-3.9143212,0.08755757,1.6589607,0.1624546,-0.49518585,0.9792712,0.84732574,-0.098625734,0.09943859,0.5122732,-0.8783309,0.6924211,0.81011945,1.0,0.0,0.0,0.0,0.0,0.0,0.0,-2.4762425,0.18995056,-0.9175468,-0.26586056,-0.13828278,-0.2354145,-1.3106823,-0.048327446,0.09480715,0.8359194
9.358545,50.286854,12.422184,10.53984,-0.010628283,-0.19035015,0.06709475,-0.8267093,0.7767199,0.1365737,0.31328756,0.59440243,0.6657935,-0.3205762,1.2504882,-0.59596986,-1.8574982,-0.76863307,2.2705212,1.4043103,-1.0579716,1.3183352,-0.6597926,-1.868365,-0.79475474,2.2197251,1.3426138,-1.028815,-1.4825653,1.3850315,0.27578685,0.5221087,0.86331177,0.4881965,-0.28781378,1.7871284,-0.5890808,1.4833875,-3.9104078,0.08747003,1.5591161,0.15379524,-0.48815918,0.9872857,0.85059476,-0.10767869,0.099451765,0.5049783,-0.85344416,0.7178366,0.7930888,1.0,0.0,0.0,0.0,0.0,0.0,0.0,-2.4371285,0.1890808,-0.93338746,-0.031661987,0.075769424,-1.3028324,0.5361557,-0.35477877,0.013524294,0.9198785
6.587527,48.177437,11.379018,12.089949,0.12278485,-0.23424482,-0.013311006,-0.8310856,0.7737689,0.11441802,0.33048213,0.58024794,0.66567737,-0.30141142,1.2352266,-0.5824157,-1.8569232,-0.76170653,2.27775,1.4091816,-1.0589561,1.3034998,-0.64594907,-1.8658264,-0.78935313,2.2282815,1.3474833,-1.0316055,-1.4841536,1.3841543,0.24702474,0.54561925,0.8535066,0.48690888,-0.2765428,1.7480526,-0.58821106,1.4982305,-3.9064982,0.087382585,1.4593713,0.14533615,-0.4808731,0.99514,0.85372674,-0.116713844,0.099659055,0.49759063,-0.8345578,0.7393631,0.7773428,1.0,0.0,0.0,0.0,0.0,0.0,0.0,-2.3980527,0.18821105,-0.94823045,-0.26340485,-0.06110668,-2.7199686,2.2030592,-0.8753419,-0.037378073,0.98439455
4.11535,46.37806,10.348728,13.4773855,0.21218729,-0.29191357,-0.093124606,-0.8318482,0.7762374,0.07035841,0.35686353,0.5697752,0.66112965,-0.25644603,1.220315,-0.56832534,-1.8587905,-0.75366676,2.285259,1.4135963,-1.0572501,1.2886454,-0.6321036,-1.8637512,-0.7835996,2.2367158,1.3523356,-1.0342586,-1.4863662,1.3847914,0.19489068,0.58477557,0.84058654,0.4849851,-0.26219475,1.7090168,-0.5873413,1.5120767,-3.9025924,0.08729523,1.3597263,0.13702393,-0.47341156,1.0028448,0.8567773,-0.12573215,0.100116245,0.49000078,-0.82043654,0.75749844,0.7627198,1.0,0.0,0.0,0.0,0.0,0.0,0.0,-2.359017,0.1873413,-0.9620767,-0.33376217,0.087594986,-5.068591,3.7569523,-1.1762261,-0.12968779,1.2947261
1.5969028,41.913128,8.511876,13.96243,0.2561422,-0.44128087,-0.15994024,-0.83530146,0.771765,0.007993325,0.37908873,0.55426186,0.66503215,-0.18657643,1.2051152,-0.5549271,-1.8629519,-0.74569076,2.292142,1.4188387,-1.0529163,1.2737547,-0.6182706,-1.8624237,-0.77740264,2.2449937,1.3571745,-1.0367286,-1.4903904,1.3828478,0.112355195,0.63079846,0.82410675,0.48360553,-0.24234568,1.670021,-0.58647156,1.5249274,-3.8986905,0.08720794,1.260181,0.12883759,-0.46583557,1.010376,0.8597999,-0.13469055,0.10089863,0.48210147,-0.8093206,0.76835686,0.74441206,1.0,0.0,0.0,0.0,0.0,0.0,0.0,-2.3200212,0.18647155,-0.97492737,-0.52011013,-0.16884804,-8.133297,4.422426,-1.5143394,-0.07840395,1.8506199
1.2199087,38.234962,7.3375793,13.086121,0.23157257,-0.5960387,-0.14834827,-0.84034455,0.7649588,-0.03400811,0.38207495,0.55664164,0.66076905,-0.14276078,1.1897203,-0.5417747,-1.8658245,-0.73919517,2.3006577,1.4232514,-1.0510046,1.2588049,-0.60449,-1.8619964,-0.7708242,2.253138,1.3619982,-1.0389812,-1.4969269,1.3765955,0.019803246,0.66623724,0.8119991,0.48221713,-0.22001423,1.6310635,-0.5856018,1.5367833,-3.8947926,0.08712075,1.160735,0.12076759,-0.45817566,1.0176864,0.86280805,-0.14351778,0.10203218,0.47387153,-0.79676366,0.7736095,0.72128165,1.0,0.0,0.0,0.0,0.0,0.0,0.0,-2.2810636,0.1856018,-0.9867833,-0.7739544,-0.59826374,-9.135231,3.350985,-1.0782838,-0.061553717,2.1000414
5.790041,38.015633,8.029941,9.965116,-0.05930358,-0.7046741,0.04119563,-0.8290084,0.7525852,-0.029886385,0.36767197,0.51509976,0.6640561,0.03258117,1.175904,-0.5292315,-1.8649851,-0.734057,2.304648,1.4284039,-1.0357231,1.2438532,-0.5908267,-1.8622787,-0.7640741,2.2610688,1.3668143,-1.0408981,-1.494851,1.3630589,-0.04370421,0.67733324,0.7873365,0.48188588,-0.18280835,1.592144,-0.58473206,1.5476456,-3.8908987,0.087033644,1.0613885,0.11292267,-0.45046234,1.0247332,0.86570394,-0.1521697,0.10351578,0.46549478,-0.77084196,0.7806294,0.69403243,1.0,0.0,0.0,0.0,0.0,0.0,0.0,-2.242144,0.18473205,-0.99764556,0.11343956,-1.3248444,-6.202457,0.93500614,-2.366829,0.09815693,3.5768895
8.734098,40.590042,9.60441,8.941662,-0.19185245,-0.6083354,0.23036247,-0.8365377,0.73741853,0.019214256,0.36850962,0.43407857,0.66902876,0.24878377,1.1601994,-0.51708484,-1.8603573,-0.7272231,2.3044767,1.4337171,-1.0160197,1.2289034,-0.57735604,-1.862725,-0.75730777,2.2685342,1.3716341,-1.0423057,-1.4954463,1.3418134,-0.044183742,0.675874,0.73353153,0.4823969,-0.12722178,1.5532627,-0.5838623,1.557515,-3.8870087,0.08694663,0.96214134,0.10538292,-0.4426117,1.0315242,0.86834985,-0.16069263,0.10533715,0.45722046,-0.7382477,0.7955811,0.66918296,1.0,0.0,0.0,0.0,0.0,0.0,0.0,-2.2032628,0.1838623,-1.007515,-0.15704632,-2.1021128,0.18220842,-0.29312372,-5.329561,0.19519925,5.396825
4.7217517,36.916084,8.032087,11.335993,0.049086213,-0.6593518,0.11585213,-0.83575207,0.72330064,-0.057267804,0.4272965,0.39660892,0.6616355,0.34454623,1.1453282,-0.505026,-1.8684518,-0.7145781,2.308195,1.4377977,-1.0078511,1.2139517,-0.56413335,-1.8633525,-0.7503259,2.2754006,1.3764521,-1.0431201,-1.4954314,1.3158442,-0.06815351,0.70508087,0.67101777,0.48194578,-0.066688865,1.5144234,-0.58299255,1.5663928,-3.8831224,0.0868597,0.8629934,0.098091125,-0.4346466,1.0380856,0.87077045,-0.16911988,0.10753017,0.44899282,-0.71632135,0.80454427,0.64694655,1.0,0.0,0.0,0.0,0.0,0.0,0.0,-2.1644235,0.18299255,-1.0163927,-0.09076595,-2.5750637,-2.219408,2.7668,-6.1718225,0.06581545,5.9021635
1.9345765,29.7197,5.267256,11.115248,-0.034387946,-0.932034,-0.0067421496,-0.83090657,0.70451516,-0.14789078,0.43931952,0.31794226,0.6536204,0.41685638,1.130861,-0.49368182,-1.8781416,-0.70639396,2.307195,1.4418142,-1.0014346,1.1990229,-0.55120724,-1.8646038,-0.7430017,2.2815042,1.3812605,-1.0433261,-1.4921993,1.2849807,-0.14398706,0.74108833,0.59053046,0.4809826,-0.0058511007,1.4756222,-0.5821228,1.5742798,-3.87924,0.08677287,0.76394457,0.09101677,-0.42668915,1.0443745,0.87306416,-0.17736436,0.110250965,0.4406195,-0.6949829,0.80100036,0.618096,1.0,0.0,0.0,0.0,0.0,0.0,0.0,-2.1256223,0.1821228,-1.0242798,0.25660992,-3.0540228,-7.503043,3.4324765,-7.924545,0.04878044,5.955361
0.9621391,23.17047,3.1482186,9.6698475,-0.2278912,-1.1887779,-0.05882688,-0.82867634,0.6757063,-0.1955717,0.43826014,0.20684208,0.6527564,0.4742508,1.1161553,-0.48363662,-1.8841609,-0.6991757,2.3021884,1.4465362,-0.99590105,1.184138,-0.5386588,-1.8667953,-0.735378,2.2865968,1.3860632,-1.0429428,-1.4871954,1.2448978,-0.24397045,0.7688744,0.4826259,0.48053253,0.052563153,1.4368591,-0.58125305,1.5811771,-3.8753614,0.086686105,0.6649948,0.08418083,-0.4188385,1.0503159,0.87530106,-0.18530163,0.11366804,0.43196163,-0.6693953,0.78666145,0.5815905,1.0,0.0,0.0,0.0,0.0,0.0,0.0,-2.0868592,0.18125305,-1.031177,0.46510696,-3.9649725,-9.988701,2.6091933,-10.643268,0.15699863,5.7283373
2.0335336,21.005482,2.531032,7.9730663,-0.5175009,-1.3539677,-0.06473788,-0.8220775,0.6545029,-0.23829333,0.43346962,0.08716091,0.645998,0.48756596,1.1019301,-0.4732085,-1.8906246,-0.6920311,2.295313,1.450663,-0.99418616,1.1693312,-0.5265328,-1.8700225,-0.7275884,2.2904115,1.3908583,-1.042031,-1.4786305,1.2019799,-0.3489908,0.7818113,0.34813246,0.47997865,0.10380238,1.3981342,-0.5803833,1.5870856,-3.8714867,0.08659943,0.56614393,0.07767105,-0.41117096,1.0558591,0.8775067,-0.19283421,0.11791734,0.42295668,-0.6350061,0.76801896,0.5409876,1.0,0.0,0.0,0.0,0.0,0.0,0.0,-2.0481343,0.1803833,-1.0370855,0.84519386,-4.2446375,-10.51079,1.1374474,-13.313085,0.18976927,5.0127254
5.9305143,19.677254,2.751598,4.2830276,-1.0449009,-1.5190282,0.04733525,-0.8122018,0.6178798,-0.23410463,0.39791703,-0.12049947,0.65085596,0.5290156,1.088111,-0.46474484,-1.893433,-0.6877967,2.2783616,1.455944,-0.9891295,1.1546446,-0.51490754,-1.8740337,-0.71991324,2.2924676,1.3956553,-1.0406368,-1.4650556,1.1494967,-0.4183224,0.76238316,0.15847921,0.48075417,0.15088461,1.3594475,-0.57951355,1.5920063,-3.8676162,0.08651285,0.46739194,0.07164192,-0.40368652,1.0609412,0.8796392,-0.19987006,0.12314855,0.4136679,-0.5821429,0.74675256,0.49350008,1.0,0.0,0.0,0.0,0.0,0.0,0.0,-2.0094476,0.17951354,-1.0420063,1.3836622,-5.1902533,-6.9280205,-2.0650387,-18.872768,0.39812326,4.5927258
7.8012815,24.29301,4.3873386,4.21004,-1.0313925,-1.4584773,0.12614208,-0.81628907,0.6059494,-0.23096596,0.3811068,-0.17552258,0.6358046,0.5190608,1.0730157,-0.4543126,-1.8971303,-0.6818026,2.2749152,1.4592358,-0.98873067,1.1400534,-0.50375336,-1.8784435,-0.7125528,2.292727,1.4004484,-1.0388343,-1.4570932,1.1042325,-0.4483583,0.72681123,-0.018170865,0.4797524,0.1894174,1.3207989,-0.5786438,1.5959402,-3.8637495,0.086426355,0.36873868,0.066171646,-0.39640045,1.0655835,0.8816382,-0.20640635,0.12930492,0.40421593,-0.5262973,0.7304828,0.45093852,1.0,0.0,0.0,0.0,0.0,0.0,0.0,-1.9707989,0.1786438,-1.0459402,0.79038143,-4.479289,-2.8915048,-3.6620498,-17.653679,0.18126369,3.7243037
7.9761147,28.536943,5.6235447,5.673458,-0.82506377,-1.3688204,0.1450421,-0.8124376,0.592764,-0.24685708,0.38100848,-0.23199724,0.6292386,0.535896,1.0588096,-0.44447696,-1.9031292,-0.67445195,2.2695272,1.4633723,-0.98524475,1.125527,-0.49298257,-1.8830192,-0.70551944,2.2914186,1.4052244,-1.0366867,-1.4512416,1.0681179,-0.46017078,0.6952511,-0.16868027,0.4774553,0.22279102,1.2821903,-0.57777405,1.5988884,-3.8598866,0.08633995,0.2701841,0.061229706,-0.3892212,1.0698553,0.8834688,-0.2124949,0.13624482,0.3946722,-0.47457823,0.7192626,0.41599196,1.0,0.0,0.0,0.0,0.0,0.0,0.0,-1.9321903,0.17777404,-1.0488884,0.5480051,-3.57759,-0.9982705,-3.2539368,-15.094352,-0.0106573105,3.2026262
6.896256,29.46358,5.8287477,7.122644,-0.58446056,-1.335044,0.1266584,-0.812705,0.5710865,-0.2552426,0.37607133,-0.31119484,0.6353796,0.54697376,1.0442566,-0.43587393,-1.9085435,-0.6679123,2.260299,1.4687624,-0.98198926,1.1110312,-0.48255175,-1.8876483,-0.6987417,2.2887444,1.4099795,-1.0342414,-1.4490829,1.0348701,-0.46299887,0.67165,-0.3007831,0.47542608,0.2515568,1.2436218,-0.5769043,1.6008518,-3.8560276,0.08625363,0.17172803,0.05675125,-0.38213348,1.0738118,0.8851235,-0.21818294,0.14384578,0.3850465,-0.42963186,0.7089451,0.3857163,1.0,0.0,0.0,0.0,0.0,0.0,0.0,-1.8936218,0.17690429,-1.0508518,0.15985966,-3.2982588,-0.07317662,-2.4549365,-13.279089,-0.024837255,2.7445765
5.5541387,29.011608,5.716558,8.511678,-0.29078245,-1.3291279,0.10568449,-0.8119871,0.5478563,-0.25202742,0.3755688,-0.37048152,0.6275916,0.5577667,1.0298325,-0.4277661,-1.9128511,-0.6611848,2.2516963,1.4727386,-0.9784648,1.096543,-0.4724614,-1.892247,-0.6921165,2.2848992,1.4147097,-1.0315349,-1.4488267,1.0004768,-0.4579713,0.65921736,-0.41279426,0.47254473,0.27662095,1.2050915,-0.5760498,1.6018313,-3.8521724,0.08616739,0.0733704,0.052663803,-0.37516022,1.0774953,0.88660187,-0.22351244,0.15197909,0.37534207,-0.39319086,0.69786066,0.35947925,1.0,0.0,0.0,0.0,0.0,0.0,0.0,-1.8550915,0.1760498,-1.0518312,-0.038599968,-3.4173012,0.71578026,-1.3346314,-11.282003,-0.14227629,2.3820221
4.82682,29.277813,5.7314386,9.494671,-0.05211121,-1.3401895,0.08890022,-0.8079862,0.53410244,-0.26204616,0.3723265,-0.39177668,0.62709147,0.55935645,1.0157443,-0.41905117,-1.9184515,-0.65488386,2.2457216,1.4774188,-0.9755993,1.0820681,-0.46269053,-1.8968284,-0.6855638,2.2801576,1.4194094,-1.028609,-1.4472015,0.9693433,-0.45732012,0.6537038,-0.49516875,0.46962357,0.29772088,1.1665993,-0.5751953,1.601828,-3.848321,0.08608124,-0.024888907,0.048891068,-0.36829376,1.0809426,0.8879087,-0.22851218,0.16050996,0.36556375,-0.3630981,0.6864035,0.33678687,1.0,0.0,0.0,0.0,0.0,0.0,0.0,-1.8165992,0.1751953,-1.0518279,0.09188652,-3.0957103,0.27946234,-0.6425977,-8.32892,-0.17538667,1.9917309
3.6283894,26.77448,4.9350157,9.827815,0.14312148,-1.441546,0.06000887,-0.80499125,0.51441157,-0.2872119,0.3688893,-0.40694997,0.6216851,0.5671067,1.0015689,-0.41124937,-1.9255496,-0.64867485,2.2394626,1.4815779,-0.9718984,1.0676218,-0.4532339,-1.90153,-0.6790416,2.2747903,1.4240786,-1.0254924,-1.443869,0.9378436,-0.47386202,0.6513551,-0.5506171,0.4664513,0.31597996,1.1281452,-0.5743408,1.6008428,-3.8444734,0.085995175,-0.123049974,0.045375824,-0.36157227,1.0841662,0.88906366,-0.23317158,0.16933505,0.35569993,-0.33934054,0.669693,0.31451482,1.0,0.0,0.0,0.0,0.0,0.0,0.0,-1.7781452,0.17434081,-1.0508428,0.27287006,-3.1299353,-1.4796913,-0.32880306,-5.617535,-0.20695925,1.7133594
3.312552,24.032705,4.3528366,9.397102,0.28514445,-1.5404258,0.07372168,-0.80059856,0.48921376,-0.28708902,0.3593182,-0.420996,0.6261837,0.5690532,0.98756194,-0.40431252,-1.930239,-0.6431098,2.2326906,1.486697,-0.9685871,1.0532271,-0.4441263,-1.9064033,-0.67256904,2.2690148,1.428723,-1.0222137,-1.4380707,0.9018244,-0.4912709,0.6456179,-0.5864656,0.46415144,0.33141202,1.0897293,-0.5734863,1.5988768,-3.8406296,0.0859092,-0.22111289,0.04207039,-0.3550415,1.0871603,0.890076,-0.23747048,0.1783461,0.3457817,-0.31974077,0.6477663,0.2915014,1.0,0.0,0.0,0.0,0.0,0.0,0.0,-1.7397293,0.17348632,-1.0488768,0.5382061,-3.5771608,-1.6010761,-0.6619096,-3.6468744,-0.1209259,1.4365673
3.2804573,21.879417,4.128523,9.199318,0.47209764,-1.5936406,0.10568611,-0.7919677,0.45920902,-0.27056885,0.36000964,-0.43030548,0.6244018,0.5776655,0.9740303,-0.3982054,-1.9334602,-0.63656807,2.2259843,1.4911631,-0.96444714,1.0389239,-0.43543643,-1.9113414,-0.6661422,2.2629838,1.4333464,-1.0187938,-1.4276643,0.8580833,-0.4944236,0.6415043,-0.6084874,0.462017,0.34513882,1.0513515,-0.57263184,1.5959309,-3.8367896,0.085823305,-0.3190778,0.038923264,-0.34877014,1.0899289,0.8909386,-0.24142602,0.18741022,0.33588585,-0.3050224,0.62301457,0.26928318,1.0,0.0,0.0,0.0,0.0,0.0,0.0,-1.7013515,0.17263183,-1.0459309,1.0204315,-4.3460727,-0.20318627,-0.48725605,-2.2616029,-0.11356473,1.2774348
2.2521744,17.743383,3.1269283,8.757263,0.58862144,-1.7090962,0.105870396,-0.7937411,0.42848384,-0.27905047,0.3490361,-0.4373512,0.6253257,0.5785175,0.9595497,-0.39258805,-1.9392464,-0.63123864,2.2192488,1.4958789,-0.9609421,1.0247065,-0.42723674,-1.9163101,-0.65979457,2.2568002,1.4379526,-1.0152538,-1.4199747,0.80740917,-0.49729678,0.63233393,-0.62168187,0.46040186,0.35673666,1.0130119,-0.57177734,1.5920061,-3.8329535,0.0857375,-0.4169447,0.035888672,-0.3427887,1.0924606,0.89166594,-0.24502029,0.19644248,0.32604793,-0.29557407,0.5918246,0.2452883,1.0,0.0,0.0,0.0,0.0,0.0,0.0,-1.6630119,0.17177734,-1.042006,0.768137,-5.034089,-0.21799803,-0.98639727,-1.3572931,-0.054460764,1.0712981
0.596715,12.43337,1.8489618,8.723171,0.7849014,-1.8326081,0.08768748,-0.7877739,0.3877091,-0.28727227,0.35317555,-0.4342938,0.6213976,0.5892913,0.9459291,-0.38846582,-1.9450372,-0.624477,2.2133708,1.5000924,-0.95632464,1.0105692,-0.4196245,-1.9213321,-0.65350604,2.250548,1.4425417,-1.011605,-1.4114393,0.74592644,-0.5037398,0.62743795,-0.6261263,0.45875365,0.36752447,0.97471046,-0.57092285,1.5871032,-3.829121,0.08565178,-0.5147138,0.032884598,-0.33716583,1.0947443,0.892288,-0.2482338,0.20536762,0.31626907,-0.2949116,0.5535622,0.22041047,1.0,0.0,0.0,0.0,0.0,0.0,0.0,-1.6247104,0.17092285,-1.0371032,0.8846283,-6.1094403,-0.6448984,-0.5506158,-0.44509172,-0.052154064,1.0002732
-0.9861598,4.3443637,0.13025594,7.7170343,0.9572065,-2.0092757,0.098225445,-0.78451675,0.32873788,-0.27145416,0.34417832,-0.44457677,0.6256909,0.5936078,0.9321175,-0.38675073,-1.9484775,-0.61908823,2.2060902,1.5051109,-0.9522442,0.99651444,-0.41277474,-1.9263408,-0.64728713,2.2442575,1.4471194,-1.0078552,-1.4033176,0.6648534,-0.5002164,0.6198958,-0.62994796,0.4579428,0.37719688,0.93644714,-0.57006836,1.5812236,-3.8252926,0.08556615,-0.6123852,0.029815674,-0.33200073,1.0967493,0.8928338,-0.2510353,0.21408685,0.30658725,-0.30359206,0.5041699,0.19180247,1.0,0.0,0.0,0.0,0.0,0.0,0.0,-1.5864471,0.17006835,-1.0312235,0.8985996,-8.057535,0.25314093,-0.7947445,-0.33608675,0.047278404,0.9030521
-3.3152068,-10.273103,-2.9224217,5.3300037,1.1939346,-2.3406851,0.12325093,-0.775355,0.23959886,-0.25826523,0.33004686,-0.43819568,0.6339586,0.59635466,0.9189789,-0.38881487,-1.9521674,-0.6142824,2.2004378,1.5105152,-0.9482197,0.98256695,-0.40699786,-1.9312484,-0.6411922,2.2379632,1.4516989,-1.0040176,-1.3911753,0.548867,-0.4885677,0.6059215,-0.62831736,0.45851907,0.38584852,0.89822197,-0.56921387,1.5743679,-3.8214679,0.08548059,-0.709959,0.026563644,-0.3274994,1.0984048,0.89335173,-0.25335374,0.2224458,0.2970729,-0.32723972,0.43320608,0.15502922,1.0,0.0,0.0,0.0,0.0,0.0,0.0,-1.548222,0.16921386,-1.0243678,1.4102459,-11.525261,0.86749196,-1.4051914,0.30755997,0.21666884,0.8244276
-5.9861503,-26.282898,-6.1290345,2.9031096,1.4834447,-2.6731515,0.15500969,-0.7673449,0.13188803,-0.22381827,0.31711057,-0.43790415,0.6405937,0.594029,0.90583247,-0.39380905,-1.9536302,-0.60948116,2.1941729,1.5157583,-0.9446147,0.9687625,-0.40268487,-1.9358909,-0.6352775,2.2316995,1.4562918,-1.0001037,-1.3757532,0.39245403,-0.45786542,0.58673793,-0.62458944,0.46003273,0.39317495,0.86003494,-0.5683594,1.5665371,-3.817647,0.08539513,-0.80743515,0.022935867,-0.32388306,1.0996283,0.89389926,-0.25511807,0.23024145,0.2878326,-0.369155,0.3402064,0.110132635,1.0,0.0,0.0,0.0,0.0,0.0,0.0,-1.5100349,0.16835937,-1.0165372,1.8538952,-15.547472,2.5729,-1.8826008,0.6096244,0.3199458,0.7250488
-11.611101,-64.3381,-14.109571,-4.421008,1.7691798,-3.5374825,0.21218714,-0.7576125,-0.070221975,-0.19241492,0.2649589,-0.4611379,0.64941126,0.5787874,0.89300126,-0.40970707,-1.9551324,-0.60878164,2.1855857,1.521233,-0.942225,0.95514214,-0.4005987,-1.9401271,-0.62976336,2.2254167,1.4609076,-0.9961345,-1.3555552,0.14778613,-0.41542625,0.54004973,-0.6279005,0.46266133,0.39818844,0.82188606,-0.5675049,1.5577323,-3.81383,0.08530975,-0.9048139,0.018650055,-0.32161713,1.1002064,0.89460766,-0.25608188,0.2371812,0.2790059,-0.44439754,0.1889261,0.039500117,1.0,0.0,0.0,0.0,0.0,0.0,0.0,-1.471886,0.16750488,-1.0077324,2.575779,-24.321953,3.3128917,-4.558563,0.12226105,0.4551053,0.5387306
-17.130598,-98.499565,-21.094828,-10.269063,2.161502,-4.268213,0.25327584,-0.73519325,-0.28188494,-0.15721805,0.23081225,-0.45353228,0.64644295,0.5620591,0.8816228,-0.4287872,-1.9558489,-0.6066821,2.1800635,1.5255519,-0.9399286,0.9418012,-0.40156668,-1.9438598,-0.62482333,2.2191224,1.4655386,-0.9921329,-1.3244777,-0.1777769,-0.36321837,0.4793117,-0.6278665,0.46367553,0.40106153,0.7837753,-0.5666504,1.5479546,-3.8100166,0.085224465,-1.0020952,0.01335144,-0.3212433,1.0999191,0.8956308,-0.2560014,0.2429166,0.27073994,-0.55623883,-0.011131144,-0.051960837,1.0,0.0,0.0,0.0,0.0,0.0,0.0,-1.4337753,0.16665038,-0.99795455,3.8501978,-32.396023,3.9971232,-5.8662653,0.5750179,0.17681122,0.38613677
-16.860106,-93.18114,-18.946356,-7.2636385,2.6891677,-3.9124322,0.27412748,-0.70161724,-0.41637313,-0.032211803,0.26051548,-0.4374199,0.65748924,0.5127658,0.8716395,-0.443204,-1.947081,-0.5987718,2.1753805,1.5312876,-0.94085634,0.92887795,-0.40583867,-1.9465816,-0.6202419,2.212874,1.4701773,-0.9881408,-1.2793283,-0.5099888,-0.24546015,0.45204386,-0.6223948,0.46332383,0.399155,0.74570274,-0.5657959,1.5372046,-3.8062072,0.08513925,-1.0992794,0.0068531036,-0.32270813,1.0987906,0.8969786,-0.25507364,0.24716444,0.26320404,-0.6806313,-0.18878838,-0.13348433,1.0,0.0,0.0,0.0,0.0,0.0,0.0,-1.3957027,0.16579589,-0.9872046,5.2090645,-33.114685,10.71924,-2.4318516,0.96815825,-0.17979145,0.0021636486
-11.679006,-101.178246,-19.027298,-14.750659,2.2388885,-4.0686884,0.54933494,-0.6524777,-0.6358945,0.12160134,0.13531446,-0.5126234,0.6659439,0.45486552,0.8636302,-0.46942812,-1.9344214,-0.60671043,2.1616116,1.5367717,-0.94265425,0.9165536,-0.41366166,-1.9475181,-0.61637187,2.2064462,1.4748045,-0.9842155,-1.2151957,-0.8728166,-0.045310896,0.3662006,-0.6490016,0.4611814,0.391086,0.7076683,-0.5649414,1.5254836,-3.8024015,0.08505413,-1.1963663,-0.0008049011,-0.3260727,1.0967145,0.89862305,-0.25332984,0.24972321,0.25678575,-0.7948055,-0.38170823,-0.2329776,1.0,0.0,0.0,0.0,0.0,0.0,0.0,-1.3576683,0.1649414,-0.9754836,6.9113255,-36.208057,19.350931,-8.332515,-2.4673104,-0.6056547,-0.6045878
0.05888939,-73.08376,-11.77061,-17.434166,1.2707175,-3.467531,0.8085934,-0.61987054,-0.7220574,0.29241052,-0.0015119561,-0.56970763,0.67580724,0.28935993,0.8545666,-0.4858674,-1.918277,-0.6165231,2.1494753,1.5423852,-0.9552795,0.9048902,-0.4246537,-1.9458759,-0.6139171,2.1995492,1.4794089,-0.9804981,-1.1499559,-1.1747663,0.23452173,0.20537853,-0.7042178,0.45816183,0.36564675,0.669672,-0.5640869,1.5127925,-3.7985997,0.084969096,-1.2933562,-0.0092048645,-0.33111572,1.093655,0.9004443,-0.25085542,0.25066444,0.2518705,-0.8582432,-0.5406895,-0.33174032,1.0,0.0,0.0,0.0,0.0,0.0,0.0,-1.319672,0.16408691,-0.96279246,6.5552235,-30.212212,28.156126,-16.033352,-5.772722,-0.8740902,-2.4323583
14.265903,-45.717056,-6.1206737,-25.715395,-0.7278731,-3.2872746,1.1488646,-0.60388094,-0.7599444,0.30995956,-0.30020195,-0.563731,0.65902495,0.21102495,0.8445021,-0.50064814,-1.9148799,-0.6439373,2.143176,1.5453113,-0.9593956,0.8937694,-0.43791646,-1.9417789,-0.6143005,2.1921334,1.4839636,-0.97710013,-1.101164,-1.3771868,0.4714046,-0.12046563,-0.7562635,0.45206785,0.33075735,0.63171387,-0.5632324,1.4991322,-3.7948017,0.084884144,-1.3902491,-0.01766777,-0.33770752,1.0895083,0.90234536,-0.24737516,0.25040627,0.24874665,-0.8455642,-0.6911437,-0.44473422,1.0,0.0,0.0,0.0,0.0,0.0,0.0,-1.2817138,0.16323242,-0.94913214,4.360819,-20.368052,24.725014,-32.86169,-5.875182,-1.3417304,-3.6245942
22.669006,-13.312819,0.10819462,-24.436268,-1.5978771,-2.7546983,1.1894125,-0.55549645,-0.7845698,0.325727,-0.44386357,-0.5145965,0.6409733,0.14096463,0.83821976,-0.51637346,-1.9092062,-0.6586869,2.1406739,1.5480609,-0.9630037,0.8831817,-0.45248955,-1.9359119,-0.61824775,2.184443,1.4884478,-0.97408557,-1.0470046,-1.4846021,0.6291429,-0.48729026,-0.77582836,0.44471237,0.2910482,0.59379387,-0.5623779,1.4845036,-3.7910075,0.084799275,-1.4870452,-0.02564621,-0.34553528,1.0843123,0.9042419,-0.24279295,0.24934633,0.24743593,-0.7858275,-0.80677015,-0.54778534,1.0,0.0,0.0,0.0,0.0,0.0,0.0,-1.2437938,0.16237792,-0.9345036,4.721594,-10.9202385,16.941845,-37.034927,-2.6540875,-1.4503777,-4.1657925
17.992414,13.889035,3.5508866,-12.651201,-1.4194598,-2.0405526,0.7971769,-0.5664788,-0.7804871,0.2599008,-0.49060836,-0.5102045,0.64484376,0.118903056,0.8265338,-0.53053826,-1.9099218,-0.66730857,2.1334226,1.5529321,-0.9621953,0.8729583,-0.46751946,-1.9294536,-0.62532496,2.1766953,1.4928786,-0.9714458,-1.0152544,-1.5095717,0.653001,-0.7816946,-0.7759046,0.44104022,0.2545363,0.555912,-0.56152344,1.4689078,-3.7872171,0.084714495,-1.5837445,-0.03299713,-0.3541565,1.0782783,0.90610945,-0.23724419,0.2479585,0.24738121,-0.721472,-0.8734716,-0.6257286,1.0,0.0,0.0,0.0,0.0,0.0,0.0,-1.205912,0.16152343,-0.9189078,2.8239489,-2.633977,2.875495,-29.565453,-0.3807783,-0.82585216,-3.738594
7.0412097,20.108019,1.5364538,-2.867783,-1.2527325,-1.867795,0.30696756,-0.57348156,-0.777153,0.03270661,-0.56178886,-0.5134619,0.6413494,0.18762867,0.8156102,-0.54523474,-1.926183,-0.68150383,2.125349,1.5570135,-0.9526829,0.86289513,-0.4824373,-1.9243038,-0.63473296,2.1689973,1.4972845,-0.9690807,-1.0033971,-1.4861736,0.4695468,-0.9935017,-0.76892984,0.43928248,0.23023732,0.5180683,-0.5606842,1.4523458,-3.7834306,0.0846298,-1.6803471,-0.03983307,-0.3633499,1.0715456,0.90803534,-0.23064962,0.24683143,0.24768288,-0.6741257,-0.9248368,-0.69326603,1.0,0.0,0.0,0.0,0.0,0.0,0.0,-1.1680683,0.1606842,-0.90234584,1.1481762,2.2450924,-18.191422,-21.072578,0.39292574,-0.50946474,-2.509746
-5.8358216,16.522549,-2.4180233,5.263655,-0.94993985,-1.8788298,-0.11635447,-0.5949853,-0.76461136,-0.21800551,-0.61890626,-0.52141666,0.64042926,0.32287985,0.8033966,-0.55889845,-1.9461043,-0.69662356,2.1168556,1.5613275,-0.93679273,0.8527671,-0.4969427,-1.9223182,-0.64569545,2.1613488,1.5016791,-0.96682143,-1.0152088,-1.4389608,0.1088691,-1.1295968,-0.7655494,0.4381816,0.22401342,0.48026276,-0.559845,1.4348185,-3.7796478,0.08454518,-1.7768531,-0.04641342,-0.373024,1.0641574,0.91014636,-0.2227753,0.24649362,0.24747853,-0.6554056,-0.97419596,-0.7587022,1.0,0.0,0.0,0.0,0.0,0.0,0.0,-1.1302627,0.15984496,-0.8848185,-0.9665251,4.6261787,-35.900394,-13.316059,-0.16820431,-0.44583678,-0.76685846
-9.517607,20.682446,-1.6233946,10.056116,-0.3787206,-1.5613186,-0.16670595,-0.59228855,-0.75729686,-0.25863174,-0.6699823,-0.5306143,0.6497525,0.4250223,0.7935383,-0.57267237,-1.9481814,-0.7126937,2.1082873,1.5666543,-0.9243192,0.84249604,-0.5109705,-1.9237888,-0.65764594,2.1536927,1.5060736,-0.96451735,-1.0300362,-1.3910439,-0.23200808,-1.2157493,-0.76734006,0.43891647,0.23204431,0.44249535,-0.55900574,1.4163269,-3.775869,0.08446065,-1.8732626,-0.052921295,-0.38308716,1.0561787,0.91243285,-0.21367955,0.24703497,0.24653815,-0.6523885,-1.0066503,-0.8164869,1.0,0.0,0.0,0.0,0.0,0.0,0.0,-1.0924953,0.15900573,-0.86632687,-1.1769056,4.703307,-33.987053,-8.293009,-0.69818497,-0.20880103,0.6787151
-15.203772,20.367788,-1.5668515,14.790073,0.46858126,-1.249099,-0.20190218,-0.6412014,-0.75810605,-0.31693515,-0.70616287,-0.52959096,0.6452258,0.4586894,0.7783759,-0.5867811,-1.9554822,-0.72826225,2.1007335,1.5705962,-0.9186484,0.83187115,-0.5246328,-1.9281147,-0.67021537,2.14601,1.5104738,-0.96209407,-1.071846,-1.3584118,-0.49947524,-1.2694097,-0.7703721,0.43943435,0.24541175,0.40476608,-0.5581665,1.3968718,-3.7720938,0.084376216,-1.9695758,-0.05957985,-0.3933487,1.047674,0.9148518,-0.20356119,0.24826844,0.24489135,-0.674559,-1.0237198,-0.86833066,1.0,0.0,0.0,0.0,0.0,0.0,0.0,-1.054766,0.1581665,-0.8468718,-3.742671,3.141737,-26.742035,-4.973793,-0.8512974,-0.22469759,1.2609124
-16.18229,29.555195,2.1412575,19.512657,1.4838637,-0.62606597,-0.1050387,-0.68223256,-0.7548443,-0.2479483,-0.71958387,-0.5176373,0.65713495,0.46533218,0.7636479,-0.60011727,-1.9529095,-0.74217373,2.0942461,1.5761874,-0.91556084,0.820675,-0.53807867,-1.9338996,-0.68312526,2.1383462,1.5148951,-0.95952964,-1.133871,-1.3403649,-0.6058093,-1.2968392,-0.7660693,0.44258693,0.26029944,0.36707497,-0.5573273,1.3764544,-3.7683225,0.08429185,-2.0657923,-0.066560745,-0.4035263,1.03878,0.9173034,-0.19285563,0.24979432,0.24282506,-0.7109463,-1.0083501,-0.90357965,1.0,0.0,0.0,0.0,0.0,0.0,0.0,-1.017075,0.15732726,-0.82645434,-5.721426,1.6934395,-10.927987,-2.346611,0.11354685,0.1815319,1.5600562
-15.120663,41.285202,6.513325,23.612246,2.2184389,-0.035732865,-0.037572585,-0.7053941,-0.7485175,-0.1924268,-0.7002685,-0.54019374,0.67174155,0.46589747,0.7501356,-0.6129304,-1.9531423,-0.75315213,2.0843267,1.5820693,-0.9129399,0.8088418,-0.5514082,-1.9397514,-0.69605803,2.1306787,1.5193678,-0.95682216,-1.1983341,-1.330763,-0.58035207,-1.2909359,-0.7670149,0.4490941,0.27489516,0.3294201,-0.55648804,1.3550755,-3.764555,0.08420758,-2.1619127,-0.0739212,-0.41333008,1.0296843,0.9196769,-0.18207349,0.25126827,0.24064067,-0.7499699,-0.9617977,-0.9190192,1.0,0.0,0.0,0.0,0.0,0.0,0.0,-0.97942007,0.15648803,-0.80507547,-5.9994936,0.888443,1.9647956,0.94668865,-0.10988712,0.71343184,1.6619921
-12.929787,43.791943,7.76806,23.195467,2.2429986,0.041602254,-0.0053749233,-0.7039412,-0.7463662,-0.24924622,-0.7009117,-0.5490585,0.67235816,0.46644568,0.7384477,-0.6260448,-1.964676,-0.7661492,2.0757728,1.5866036,-0.9101776,0.79651654,-0.56468713,-1.9452331,-0.70884776,2.122973,1.5239073,-0.9539821,-1.2426566,-1.327168,-0.53952533,-1.2739252,-0.7710692,0.45575336,0.28777385,0.29180145,-0.5556488,1.3327361,-3.7607913,0.08412339,-2.257937,-0.0816288,-0.42266083,1.0204624,0.92193085,-0.17142114,0.25256437,0.23847319,-0.783668,-0.91261894,-0.9304716,1.0,0.0,0.0,0.0,0.0,0.0,0.0,-0.9418014,0.1556488,-0.7827361,-4.061413,0.31027794,3.4833312,2.0168781,-0.32387972,0.76701045,1.5099764
-13.332667,41.258774,6.7489934,22.365149,2.0551462,-0.09574008,-0.056100115,-0.71357906,-0.7415631,-0.3344804,-0.6904454,-0.56220096,0.67323285,0.47491914,0.72515863,-0.6388434,-1.9786811,-0.7778923,2.066753,1.5912306,-0.9064902,0.7838689,-0.57793844,-1.9506824,-0.72141147,2.1151872,1.528504,-0.9510238,-1.2711036,-1.3247175,-0.54835707,-1.249582,-0.78099614,0.4613024,0.29903093,0.25422096,-0.5548096,1.3094373,-3.7570314,0.08403928,-2.3538654,-0.089668274,-0.4315567,1.0110941,0.9240856,-0.16083127,0.25374115,0.23625086,-0.81600606,-0.87196636,-0.9458761,1.0,0.0,0.0,0.0,0.0,0.0,0.0,-0.90422094,0.15480956,-0.75943726,-2.5134802,0.18820763,-1.3541579,2.7492285,-0.9833813,0.6084025,1.3007522
-14.456686,30.427044,3.0585473,18.625286,1.6186955,-0.53536105,-0.078968495,-0.71903306,-0.7467792,-0.46785516,-0.71694696,-0.53848666,0.65714306,0.48444927,0.7119656,-0.6526164,-1.9974679,-0.79310614,2.0613384,1.5942184,-0.9025789,0.7710391,-0.59120595,-1.956929,-0.7338922,2.1073709,1.5331293,-0.9479654,-1.2859281,-1.3277421,-0.6508076,-1.246436,-0.7826701,0.4623361,0.30846947,0.21667862,-0.55397034,1.2851797,-3.7532754,0.08395526,-2.4496977,-0.09805107,-0.44023895,1.0014272,0.9262026,-0.14998427,0.25489902,0.23383705,-0.8511137,-0.8567234,-0.9802769,1.0,0.0,0.0,0.0,0.0,0.0,0.0,-0.8666786,0.15397033,-0.7351797,-1.1701584,-0.40388107,-10.446835,0.667119,-0.38850307,-0.040346384,1.0264814
-15.093941,29.200216,2.470104,17.831398,1.5987226,-0.5639629,-0.05845499,-0.73973215,-0.74170953,-0.494668,-0.72550434,-0.50301814,0.65370417,0.4999664,0.6970659,-0.6653769,-2.0063958,-0.8064426,2.057069,1.5984998,-0.89796877,0.75804913,-0.6044878,-1.9643314,-0.74644065,2.0996575,1.5377527,-0.94481254,-1.302411,-1.3287516,-0.7704087,-1.2563977,-0.7686457,0.46157888,0.31769922,0.17917442,-0.5531311,1.2599647,-3.7495227,0.08387132,-2.5454342,-0.10680199,-0.44880676,0.9913755,0.928306,-0.13871084,0.25602418,0.23121163,-0.88852453,-0.8444621,-1.0202119,1.0,0.0,0.0,0.0,0.0,0.0,0.0,-0.8291744,0.1531311,-0.7099647,-1.3359785,-0.22068024,-12.088835,-0.6283045,1.1074066,-0.2849102,0.99433064
-16.488577,26.692245,1.6038107,17.25126,1.7287595,-0.581601,-0.041464143,-0.7560373,-0.7469915,-0.5545195,-0.73988247,-0.43581972,0.6469805,0.49879846,0.6824454,-0.67918694,-2.0197833,-0.8204289,2.0560756,1.6024508,-0.8949327,0.74486554,-0.617802,-1.9729965,-0.759176,2.0922875,1.5423552,-0.9415786,-1.3225831,-1.3327676,-0.8988387,-1.2779112,-0.7276752,0.45896044,0.32550767,0.14170837,-0.55229187,1.233793,-3.7457738,0.08378746,-2.6410751,-0.115982056,-0.45726013,0.98088634,0.9304133,-0.12695006,0.25699458,0.22840415,-0.93293726,-0.83427215,-1.0655388,1.0,0.0,0.0,0.0,0.0,0.0,0.0,-0.79170835,0.15229186,-0.683793,-1.6919851,-0.54826736,-12.9058,-1.7494917,3.722775,-0.5510211,0.8614063
-15.570135,27.585905,2.1805215,16.642788,1.8712051,-0.49701488,0.01067581,-0.7560891,-0.75244904,-0.5985881,-0.7521485,-0.36574632,0.63184834,0.50413686,0.6692566,-0.6930469,-2.0328553,-0.8343909,2.055713,1.60554,-0.89116496,0.7315208,-0.63117826,-1.9828498,-0.77216697,2.0855165,1.5469214,-0.9382713,-1.3374112,-1.3397355,-1.0142322,-1.3047569,-0.6614805,0.45461613,0.33287144,0.104278564,-0.55145264,1.2066656,-3.7420287,0.0837037,-2.7366204,-0.12561417,-0.46559143,0.9699401,0.93252563,-0.11473539,0.25763476,0.22551288,-0.9787231,-0.82107705,-1.111689,1.0,0.0,0.0,0.0,0.0,0.0,0.0,-0.75427854,0.15145263,-0.6566656,-1.1804104,-0.84724426,-11.591042,-2.2863626,6.2532425,-0.7489979,0.85085034
-15.295509,31.539288,3.531999,17.456749,2.0678022,-0.2877133,0.028005857,-0.76700777,-0.7531245,-0.62723505,-0.7558954,-0.31797487,0.61873853,0.50475276,0.65481997,-0.7064907,-2.0455732,-0.8477565,2.053719,1.6087952,-0.887796,0.7180263,-0.64461935,-1.9936607,-0.78539443,2.0794816,1.5514361,-0.93489623,-1.3524901,-1.3459637,-1.1035624,-1.3275173,-0.5853816,0.4494975,0.33951402,0.066884995,-0.5506134,1.1785835,-3.7382874,0.083620004,-2.83207,-0.13570023,-0.47374725,0.9585686,0.93463165,-0.10217383,0.25780922,0.22261731,-1.02411,-0.79858637,-1.153287,1.0,0.0,0.0,0.0,0.0,0.0,0.0,-0.716885,0.1506134,-0.6285835,-1.2254953,-0.7702589,-9.008384,-1.8895626,7.2854757,-0.8036494,0.81402063
-17.080692,34.628483,3.9933453,18.875965,2.1227527,-0.105875134,-0.027369544,-0.7867509,-0.7497829,-0.6841869,-0.7587327,-0.32086748,0.6074082,0.466593,0.6393512,-0.71959764,-2.0620794,-0.8612677,2.0473948,1.6121769,-0.88823694,0.7043315,-0.65809095,-2.0053167,-0.79879546,2.0740724,1.5558954,-0.9314916,-1.374256,-1.3480445,-1.1867292,-1.3430076,-0.5273459,0.44381592,0.34121332,0.029529572,-0.54977417,1.1495476,-3.73455,0.0835364,-2.9274242,-0.14624023,-0.48160553,0.9468022,0.9367202,-0.089314476,0.25753888,0.21966277,-1.0690608,-0.76852834,-1.1923394,1.0,0.0,0.0,0.0,0.0,0.0,0.0,-0.67952955,0.14977416,-0.59954756,-1.892829,-0.36633015,-8.37574,-1.1529684,5.467057,-0.8550167,0.30994415
-17.536592,38.046593,4.9452596,19.94125,2.2851648,0.066432,-0.056201287,-0.79344267,-0.7505376,-0.7194179,-0.7575032,-0.25670454,0.5862089,0.4283051,0.62498724,-0.7331447,-2.0772586,-0.8745458,2.0484018,1.6145164,-0.8886611,0.69042504,-0.6715692,-2.0177183,-0.81228423,2.069281,1.5602881,-0.9281051,-1.3951929,-1.3483424,-1.2583101,-1.3495724,-0.4640476,0.43689412,0.33827424,-0.0077877045,-0.54893494,1.1195588,-3.7308164,0.08345289,-3.0226831,-0.15722466,-0.4891281,0.93468267,0.93878853,-0.076231726,0.25679868,0.21660824,-1.1140807,-0.7309867,-1.2266085,1.0,0.0,0.0,0.0,0.0,0.0,0.0,-0.6422123,0.14893493,-0.5695588,-1.8325806,-0.18935204,-7.208395,-0.27263165,6.015497,-0.9644687,-0.14061928
-17.700245,37.333008,4.8743916,19.53634,2.3012106,0.13390303,-0.06900919,-0.8020183,-0.76649874,-0.7447015,-0.763847,-0.23594639,0.55357355,0.3550302,0.61022323,-0.74821913,-2.0921884,-0.88866895,2.0456865,1.6156454,-0.8926021,0.67632115,-0.6851181,-2.030734,-0.82582164,2.0650544,1.564593,-0.9248054,-1.4145947,-1.3576399,-1.3160417,-1.3538481,-0.40984553,0.4272555,0.32770547,-0.045066833,-0.5480957,1.0886182,-3.7270863,0.08336945,-3.117847,-0.16866684,-0.4962616,0.9222065,0.9408389,-0.0629706,0.2555397,0.21343943,-1.1591796,-0.69221616,-1.2626607,1.0,0.0,0.0,0.0,0.0,0.0,0.0,-0.60493314,0.1480957,-0.53861815,-1.6903162,-1.0983229,-5.8170557,-0.0259161,5.118847,-1.2600541,-0.89342
-16.278606,41.729786,6.3117895,19.879955,2.1838145,0.3174678,-0.08141968,-0.802898,-0.7642097,-0.76465935,-0.75078017,-0.26632568,0.5398112,0.32008344,0.59603137,-0.76153904,-2.1072,-0.90089965,2.0384219,1.618574,-0.89279705,0.66207325,-0.69874704,-2.0442266,-0.83931994,2.061152,1.5688006,-0.92163634,-1.427548,-1.3651204,-1.3602587,-1.3472592,-0.3844888,0.4176202,0.31370482,-0.08230972,-0.54725647,1.0567267,-3.7233598,0.0832861,-3.2129154,-0.18049431,-0.50297546,0.90939885,0.94284475,-0.049578127,0.25382942,0.2101341,-1.1952583,-0.6478815,-1.2948375,1.0,0.0,0.0,0.0,0.0,0.0,0.0,-0.56769025,0.14725646,-0.5067267,-1.0864496,-0.9012461,-4.476309,1.0230541,2.2966146,-1.2164593,-1.2569427
-15.298864,42.887,6.883981,19.35503,2.1101809,0.42286652,-0.081273265,-0.80998343,-0.77449465,-0.7779756,-0.75356525,-0.2568703,0.5258544,0.23442805,0.5810749,-0.7761965,-2.1220243,-0.9146765,2.035465,1.621386,-0.89819354,0.6477138,-0.71247995,-2.0580626,-0.85275245,2.0574136,1.572909,-0.9186628,-1.4382148,-1.3765135,-1.3913946,-1.3407617,-0.37084818,0.40785882,0.29238766,-0.11951637,-0.54641724,1.0238851,-3.7196372,0.08320283,-3.307889,-0.19264984,-0.5092392,0.89626795,0.9447881,-0.03609533,0.25170046,0.2066866,-1.2265846,-0.60171574,-1.3272568,1.0,0.0,0.0,0.0,0.0,0.0,0.0,-0.5304836,0.14641723,-0.47388512,-0.8769512,-1.2879133,-3.1773567,1.0085821,1.1567593,-1.2259364,-1.9865394
-13.172754,44.748146,7.8927746,18.645689,2.0471375,0.5106238,-0.07061671,-0.8057163,-0.78372467,-0.78605306,-0.7481844,-0.23870744,0.48640817,0.14752533,0.5671421,-0.7908524,-2.136668,-0.9275709,2.0335429,1.6215498,-0.9039103,0.6333028,-0.7263483,-2.0721235,-0.86610675,2.053801,1.5769011,-0.9159534,-1.4414884,-1.3907181,-1.4110606,-1.3325224,-0.35847783,0.39572883,0.2642987,-0.15668488,-0.54558563,0.9900946,-3.7159183,0.083119646,-3.4027674,-0.20508003,-0.5150223,0.88282263,0.9466614,-0.022573981,0.24913035,0.20311739,-1.2517554,-0.55437386,-1.358261,1.0,0.0,0.0,0.0,0.0,0.0,0.0,-0.4933151,0.14558563,-0.4400946,-0.16887188,-1.5537024,-2.0473003,1.1574268,1.0848463,-1.4422953,-2.6561737
-13.593196,49.090935,9.085275,19.971693,2.1377378,0.71194524,-0.10144239,-0.81572217,-0.7826492,-0.78863335,-0.726722,-0.24086502,0.48365477,0.114003845,0.5517306,-0.80461323,-2.150987,-0.93877894,2.0297146,1.6252666,-0.904553,0.6188413,-0.7403263,-2.0863028,-0.87929606,2.0502725,1.5807825,-0.9135301,-1.4473014,-1.4005623,-1.4202968,-1.3133824,-0.35134655,0.38508496,0.23558266,-0.19381523,-0.54476166,0.955356,-3.7122033,0.08303654,-3.4975512,-0.2177391,-0.5202942,0.8691196,0.94845474,-0.009093225,0.24614505,0.19940792,-1.2736547,-0.50013965,-1.3821572,1.0,0.0,0.0,0.0,0.0,0.0,0.0,-0.45618474,0.14476165,-0.405356,-0.44174194,-1.1126995,-1.0013819,2.226448,0.58356524,-1.2572467,-2.721384
-11.670403,49.657387,9.576372,18.821417,1.9842811,0.74130595,-0.09647777,-0.80970347,-0.79361695,-0.79812753,-0.7284054,-0.24420233,0.43980235,-0.006588471,0.53787094,-0.81968796,-2.1661155,-0.95213664,2.0258522,1.6247628,-0.914189,0.6043626,-0.7544178,-2.1005583,-0.89232326,2.046782,1.5845362,-0.91145587,-1.4477338,-1.4124193,-1.4276264,-1.2981682,-0.34882224,0.3716859,0.19849563,-0.23090935,-0.5439377,0.9196703,-3.7084918,0.08295352,-3.59224,-0.23057747,-0.52503204,0.8551663,0.95016235,0.004329853,0.24276038,0.19555075,-1.2894461,-0.44784912,-1.4074854,1.0,0.0,0.0,0.0,0.0,0.0,0.0,-0.41909063,0.14393768,-0.36967027,0.07812977,-1.3038874,-0.8140087,1.8202782,0.14898181,-1.533252,-3.5612016
-12.051562,52.387093,10.101199,19.473722,1.8609834,0.87600386,-0.14523692,-0.8143522,-0.7937873,-0.80758804,-0.70495045,-0.31045616,0.44394472,-0.097357936,0.5229274,-0.8337965,-2.181317,-0.9628183,2.0157363,1.6289307,-0.9211917,0.5898696,-0.76859987,-2.1149015,-0.90513206,2.043097,1.5881735,-0.90979266,-1.4494243,-1.4205394,-1.4365419,-1.274177,-0.37516302,0.36039326,0.15600881,-0.26796722,-0.5431137,0.8830384,-3.704784,0.08287059,-3.6868343,-0.24353981,-0.5292511,0.84097594,0.9517617,0.01770979,0.23910661,0.19147843,-1.299665,-0.39296934,-1.4303851,0.0,1.0,0.0,0.0,0.0,0.0,0.0,-0.38203275,0.1431137,-0.3330384,-0.059700012,-0.9297848,-0.95341206,2.6871443,-2.737993,-1.3088822,-4.1356506
-9.917728,54.388863,10.820731,18.714077,1.4630885,0.9466045,-0.15227309,-0.80398035,-0.7974312,-0.81765634,-0.6875781,-0.43367416,0.4348214,-0.19376193,0.5094716,-0.848343,-2.1966672,-0.9738899,1.9997296,1.6316557,-0.9291689,0.57537156,-0.7827614,-2.1305223,-0.91842514,2.041848,1.5918887,-0.9089576,-1.447846,-1.4176167,-1.5751407,-1.327506,-0.12306038,0.36575198,0.0722174,-0.28162003,-0.54216766,0.8818158,-1.1841918,0.1183618,0.19733584,-0.2570076,-0.5329819,0.82632565,0.95351225,0.03099189,0.23420838,0.18708378,-1.350285,-0.34547266,-1.4791912,0.0,1.0,0.0,0.0,0.0,0.0,0.0,-0.36837995,0.14216766,-0.33181578,0.9659052,-0.9054184,-1.1905909,3.608632,-8.31719,-2.3803592,-3.7038698
29.316324,176.0,110.0,110.0,11.813032,12.715389,-2.1553845,-0.8051238,0.29596162,0.7110048,0.6484681,-0.078015655,0.66152227,-0.3940138,0.4948592,-0.75316525,-2.0594218,-0.8535783,2.0340464,1.6580409,-0.94835895,0.56040174,-0.7995233,-2.1290383,-0.92285585,2.0342412,1.5981753,-0.9114391,-1.4940851,-1.6762148,0.5324071,-0.20632744,-0.7998492,0.7724081,-0.33253944,-0.29345322,-0.5409851,0.8830512,-1.1830078,0.11824346,0.09895261,-0.26924896,-0.5333252,0.8160767,0.95520395,0.035112616,0.23038419,0.18241614,-1.180657,0.08839545,-0.8814779,1.0,0.0,0.0,0.0,0.0,0.0,0.0,-0.35654676,0.1409851,-0.3330512,1.155138,0.0,153.69814,94.69439,-15.697468,57.498,-33.74652
-12.2101345,176.0,62.819523,93.83708,9.30987,5.4198575,-2.0105271,-0.6952017,-0.7720608,0.1758798,0.68299544,-0.47747287,0.7295282,-0.5484866,0.49088156,-0.87672937,-2.1114504,-0.8545563,1.986494,1.6711282,-0.9662878,0.5460232,-0.8162851,-2.1186013,-0.91813135,2.0248837,1.606108,-0.9152357,-1.4166714,-1.6762155,1.2125841,0.70084184,-0.9810354,0.8067432,-0.39226297,-0.30527496,-0.5398102,0.8833035,-1.181825,0.11812524,0.000667726,-0.28097725,-0.530838,0.8103405,0.9570623,0.032308456,0.22779326,0.17634663,-1.1677237,0.3128267,-0.4733157,1.0,0.0,0.0,0.0,0.0,0.0,0.0,-0.344725,0.13981017,-0.3333035,8.488321,-7.1525574e-05,67.56519,91.34923,-18.104958,5.3976417,-5.061907
-14.133133,146.4721,36.526352,62.968994,4.847932,2.1361012,-1.3785146,-0.65099365,-0.7064766,0.039669942,0.5736491,-0.6577814,0.6966979,-0.048574068,0.48092383,-0.88693273,-2.1146343,-0.8607664,1.9591056,1.6757778,-0.9200931,0.5327614,-0.8319568,-2.1067033,-0.9072318,2.0147023,1.6140921,-0.91890734,-1.294395,-1.5306274,1.1807064,1.2222798,-1.029618,0.79926914,-0.3574037,-0.31708527,-0.53863525,0.8825738,-1.1806434,0.11800713,-0.09751889,-0.2925949,-0.5269699,0.807185,0.95888984,0.026982358,0.22667533,0.16858357,-1.1592976,0.4227583,-0.26494467,1.0,0.0,0.0,0.0,0.0,0.0,0.0,-0.3329147,0.13863525,-0.33257377,12.743354,14.599681,-3.6449432,52.928864,-4.7068357,0.33721924,3.907597
24.649725,116.47329,33.83801,31.03149,1.506707,0.57225704,-0.2967214,-0.4864745,-0.7495145,0.44910422,0.6920157,-0.6822546,0.6998052,0.097303346,0.48411393,-0.9069083,-2.0617929,-0.8380302,1.9464768,1.6840726,-0.909177,0.5213097,-0.84638685,-2.0954995,-0.89298296,2.0042882,1.6217978,-0.92199916,-1.0956446,-1.4144205,1.1026087,1.4941095,-1.047216,0.76273733,-0.29283765,-0.32888222,-0.5374603,0.8808549,-1.179463,0.11788914,-0.19667254,-0.30361748,-0.52262115,0.80536264,0.9604907,0.020872368,0.22666192,0.16014421,-1.084136,0.4483075,-0.15801844,1.0,0.0,0.0,0.0,0.0,0.0,0.0,-0.32111776,0.13746032,-0.3308549,19.826626,11.413527,-7.143402,27.655865,-2.4384022,-3.1949162,6.5312443
41.67494,72.46842,22.428644,3.9819674,-1.013014,-0.8698821,0.4756832,-0.41752806,-0.76422346,0.40109703,0.6325321,-0.6423099,0.66363317,0.1511888,0.47955686,-0.9228092,-2.05539,-0.82972974,1.9400572,1.6881611,-0.90688026,0.5118578,-0.860012,-2.085669,-0.8779311,1.9939866,1.6290896,-0.9244291,-0.8962933,-1.346061,0.94671005,1.5091898,-1.0271933,0.71826744,-0.22700131,-0.34066772,-0.5362854,0.8781452,-1.1782838,0.117771275,-0.29572707,-0.31376076,-0.5185318,0.8037598,0.961805,0.015060492,0.22713289,0.15203576,-0.99258614,0.4033985,-0.1654379,1.0,0.0,0.0,0.0,0.0,0.0,0.0,-0.30933225,0.1362854,-0.3281452,19.547283,6.5784454,-14.590275,1.6382933,1.1775255,-4.3453336,6.4183354
47.87177,54.699585,18.493778,-6.421636,-1.7598743,-1.2452289,0.8468409,-0.36024863,-0.75603074,0.44163272,0.6429213,-0.65842295,0.65212333,0.24771714,0.47583294,-0.93561506,-2.0415058,-0.813639,1.9281443,1.694302,-0.8996574,0.50419027,-0.87324136,-2.0770211,-0.8635678,1.9838834,1.6359503,-0.9261915,-0.7249983,-1.3160411,0.8409569,1.4121046,-1.007641,0.6752206,-0.15998963,-0.3524418,-0.5351105,0.87444574,-1.1771058,0.11765353,-0.3946826,-0.322958,-0.5150528,0.8017943,0.9628549,0.009968184,0.2276496,0.14486744,-0.89721733,0.3366887,-0.211401,1.0,0.0,0.0,0.0,0.0,0.0,0.0,-0.2975582,0.13511047,-0.32444572,16.691982,2.74477,-9.526121,-9.721184,1.0751009,-4.335499,6.5074263
33.95839,37.605335,11.395485,-6.3511167,-1.3055357,-1.40012,0.7972253,-0.34954408,-0.77092636,0.39704874,0.63291407,-0.64344954,0.63354385,0.26258677,0.46923587,-0.950334,-2.0373163,-0.8002764,1.9195384,1.6993047,-0.89993286,0.49776822,-0.88644785,-2.0693002,-0.85043097,1.974011,1.6424086,-0.9273388,-0.6155396,-1.322809,0.7514694,1.2810062,-0.982166,0.6358874,-0.099996984,-0.3642044,-0.53393555,0.8697574,-1.175929,0.1175359,-0.49353915,-0.33147812,-0.51218414,0.79919547,0.9637293,0.0057216403,0.22793628,0.13870132,-0.83826464,0.2730962,-0.28021675,1.0,0.0,0.0,0.0,0.0,0.0,0.0,-0.28579557,0.13393554,-0.3197574,10.655475,-0.8642912,-8.293879,-13.088346,1.9760966,-3.9874673,5.8938117
25.505495,32.705467,8.933441,-3.8377962,-0.79593587,-1.34789,0.6730663,-0.30057213,-0.7800314,0.3704433,0.6142475,-0.6344784,0.62807894,0.24403651,0.467711,-0.96445096,-2.032256,-0.78900623,1.9105631,1.7052165,-0.90293515,0.49220783,-0.899867,-2.0622964,-0.8385081,1.9643884,1.648514,-0.92796725,-0.5368675,-1.3488047,0.68474174,1.1629542,-0.95728546,0.6019225,-0.050560817,-0.37595558,-0.5327606,0.8640813,-1.1747533,0.117418386,-0.5922969,-0.339571,-0.5098953,0.79590505,0.96450764,0.0022617718,0.22786766,0.13340208,-0.8002588,0.21837828,-0.34933364,0.0,1.0,0.0,0.0,0.0,0.0,0.0,-0.2740444,0.13276061,-0.3140813,7.682669,-2.7552366,-6.218767,-11.723089,2.0546675,-3.4646392,4.9140396
20.487637,30.688456,7.8329024,-1.7988211,-0.39854473,-1.2913694,0.55017114,-0.25654015,-0.7999531,0.3475396,0.57552457,-0.61172646,0.61408776,0.18896966,0.4665538,-0.97986233,-2.0275424,-0.7809557,1.9032158,1.7099228,-0.9090703,0.48731643,-0.91364473,-2.0558305,-0.8276229,1.9550347,1.6543124,-0.9282047,-0.47360516,-1.3878975,0.6350794,1.0641298,-0.92908794,0.57205695,-0.014770567,-0.3876934,-0.5315857,0.8574183,-1.1735787,0.117300995,-0.69095594,-0.3473873,-0.5081024,0.7919417,0.9652473,-0.0005387363,0.22738124,0.12882179,-0.7757883,0.17069541,-0.41562253,0.0,1.0,0.0,0.0,0.0,0.0,0.0,-0.26230657,0.13158569,-0.3074183,6.2079787,-4.0491343,-4.619205,-9.750628,2.45533,-3.0703306,3.6062531
17.958467,32.413525,7.773554,0.08627164,-0.19717942,-1.2508166,0.4236939,-0.21353756,-0.80967015,0.2966267,0.5438932,-0.59361917,0.59484965,0.12353364,0.46596268,-0.99461174,-2.0261679,-0.7732336,1.8956728,1.7137973,-0.91585135,0.4830354,-0.927803,-2.049914,-0.817554,1.9459672,1.6598341,-0.92818755,-0.41327453,-1.4255744,0.5781712,0.9884394,-0.9002664,0.54518974,0.0073884455,-0.39941978,-0.53041077,0.8497695,-1.1724054,0.11718372,-0.78951627,-0.35499573,-0.5067444,0.78735554,0.9659799,-0.002763548,0.22649762,0.12479544,-0.7567225,0.12741065,-0.47641823,0.0,1.0,0.0,0.0,0.0,0.0,0.0,-0.2505802,0.13041076,-0.29976946,5.9496937,-3.9028168,-5.396569,-7.39671,2.5568366,-2.7742505,2.2684429
14.705999,38.79408,9.190645,3.5577698,0.19518197,-1.0622747,0.29099348,-0.18839116,-0.8178902,0.289673,0.53323996,-0.57192546,0.5883191,0.09164638,0.46419626,-1.009592,-2.0209465,-0.76423,1.8887746,1.7186661,-0.9190229,0.4792996,-0.94227976,-2.0444932,-0.80804515,1.937242,1.665069,-0.9279813,-0.36107928,-1.4548134,0.5220709,0.9318343,-0.85020465,0.50441396,0.031762343,-0.41093445,-0.5288696,0.84238106,-1.0764359,0.2506718,-0.39564592,-0.3624611,-0.50574493,0.7822649,0.9667265,-0.004526259,0.22524482,0.1211781,-0.7447243,0.09085539,-0.52552295,0.0,1.0,0.0,0.0,0.0,0.0,0.0,-0.23906553,0.12886962,-0.29238105,5.092496,-2.9562712,-6.683433,-6.5460205,6.691396,-5.9223413,3.5837083
-27.629614,45.53617,5.3845797,23.001186,2.3875942,-0.40804446,-0.35965484,-0.33538562,-0.80691934,0.25351465,0.60487634,-0.55092657,0.57856655,-0.050646868,0.44576105,-1.0229716,-2.0191417,-0.7475575,1.8821493,1.7229257,-0.933046,0.4752522,-0.95689577,-2.0396655,-0.7985222,1.9290143,1.6699623,-0.9276826,-0.41846886,-1.4640336,0.46863288,0.9605675,-0.8132868,0.48469424,0.029870886,-0.42162323,-0.52627563,0.8380571,-1.0669677,0.262341,-0.4469767,-0.3702793,-0.5046463,0.7769034,0.967559,-0.0058841687,0.22371383,0.11724827,-0.79449165,0.11767643,-0.5431881,0.0,1.0,0.0,0.0,0.0,0.0,0.0,-0.22837675,0.12627563,-0.2880571,-5.492413,-0.97973347,-5.685359,3.2932878,3.828323,-1.8413842,0.015787408
-20.947119,57.93747,10.106732,23.23742,2.3424752,-0.16478187,-0.30990613,-0.27954656,-0.7992122,0.29116556,0.5908951,-0.547524,0.5666276,0.0064847954,0.44729754,-1.036817,-2.0105488,-0.7394327,1.874262,1.7266251,-0.9270341,0.47074747,-0.9714851,-2.0350616,-0.78863674,1.9210944,1.674673,-0.9273758,-0.4604709,-1.4575878,0.45718014,0.99924505,-0.7850029,0.46699652,0.031399634,-0.43219376,-0.5235138,0.83344126,-1.0532745,0.28016895,-0.4689137,-0.37846375,-0.5032501,0.7715129,0.9684495,-0.0071167676,0.22209308,0.11282591,-0.8251753,0.14993426,-0.54131514,0.0,1.0,0.0,0.0,0.0,0.0,0.0,-0.21780622,0.12351379,-0.28344125,-3.9905727,0.55122375,-1.2984633,4.2627096,2.7862787,-1.6472638,0.34325534
-30.984303,58.43155,8.510152,26.740858,2.5733924,-0.06926194,-0.42924398,-0.33283928,-0.791372,0.20587732,0.6068978,-0.5374819,0.5654241,0.021769429,0.43746355,-1.0506222,-2.014474,-0.727947,1.8673463,1.7312154,-0.92519885,0.46565676,-0.9859361,-2.0308235,-0.7782907,1.9133886,1.679244,-0.9270526,-0.5244159,-1.4412799,0.4119934,1.0479362,-0.76545715,0.45425633,0.033185348,-0.44263268,-0.5205765,0.82859045,-1.0403349,0.29721403,-0.4931073,-0.38703728,-0.5014725,0.76613563,0.9693751,-0.008176468,0.22051807,0.10778192,-0.8675269,0.19246627,-0.54020023,0.0,1.0,0.0,0.0,0.0,0.0,0.0,-0.2073673,0.12057647,-0.27859044,-6.1392426,1.5470505,-4.794282,5.3107023,2.0228267,-1.1366606,0.37284717
-26.617907,62.05425,10.054607,25.390924,2.3446734,-0.028625965,-0.3613878,-0.33823425,-0.78510576,0.20736045,0.62739193,-0.54734063,0.56241053,0.07071888,0.43183333,-1.0644467,-2.0100875,-0.7155515,1.8586545,1.7354851,-0.9199807,0.46001953,-1.0002036,-2.0269642,-0.76745933,1.9057829,1.6837007,-0.92667514,-0.576124,-1.4222152,0.37660417,1.0963082,-0.75895584,0.4431597,0.039742827,-0.45293427,-0.5174484,0.82356685,-1.026104,0.31647453,-0.5081756,-0.39595604,-0.49925995,0.7607898,0.97030544,-0.00904369,0.21907164,0.10214255,-0.8985216,0.23287646,-0.53647876,0.0,1.0,0.0,0.0,0.0,0.0,0.0,-0.19706571,0.11744842,-0.27356684,-4.9533606,1.7987967,-3.6824048,5.257225,0.60967207,-1.0054052,0.82697123
-19.335009,60.11687,10.153276,21.197824,1.8220887,-0.14250961,-0.22513443,-0.3412164,-0.7831834,0.17110914,0.6240843,-0.5463604,0.5614317,0.12063415,0.4258979,-1.078522,-2.0098534,-0.7050509,1.8511469,1.7398438,-0.9146117,0.45400184,-1.0143085,-2.0235274,-0.7562826,1.898196,1.688058,-0.92619854,-0.60977185,-1.4069641,0.33265778,1.1260957,-0.75896853,0.4335486,0.050647367,-0.46309662,-0.51413727,0.818369,-1.0127039,0.3346577,-0.5261829,-0.40508842,-0.49674988,0.7554133,0.97121185,-0.00965613,0.21777287,0.09606938,-0.91679186,0.2618087,-0.5418591,0.0,1.0,0.0,0.0,0.0,0.0,0.0,-0.18690336,0.11413726,-0.26836896,-3.2061815,1.4009476,-4.413968,3.3527374,-0.12999773,-0.9061456,1.2247645
-28.883581,51.174572,5.565252,21.90867,1.6236206,-0.30525866,-0.28232995,-0.39970377,-0.77434534,0.018267393,0.64429176,-0.5737066,0.5697804,0.15349887,0.41403148,-1.091743,-2.0217006,-0.69185346,1.8408253,1.745036,-0.9108487,0.44751877,-1.0282664,-2.0211513,-0.7448351,1.8905092,1.6923417,-0.9255981,-0.6604788,-1.392469,0.20518473,1.1524582,-0.7718425,0.4269843,0.06344146,-0.47315216,-0.5106888,0.8128221,-1.0030887,0.34717798,-0.5670347,-0.41450882,-0.49395752,0.7498248,0.97206897,-0.009669597,0.21675718,0.08946868,-0.94849473,0.28882802,-0.5682962,0.0,1.0,0.0,0.0,0.0,0.0,0.0,-0.17684782,0.110688776,-0.2628221,-4.8795223,1.3444185,-12.955493,3.0513287,-1.222372,-0.6136894,1.3899386
-24.94748,45.476246,3.6917686,18.369114,1.0013459,-0.5148151,-0.19453941,-0.39179614,-0.7702196,-0.102258086,0.6555393,-0.59247816,0.59261394,0.21810763,0.40833914,-1.1052884,-2.031377,-0.6792812,1.8312614,1.7516031,-0.9037873,0.44066375,-1.0421042,-2.0205028,-0.7331606,1.8826298,1.6965896,-0.92483646,-0.6932983,-1.3812095,0.017866455,1.1737754,-0.7932503,0.42400888,0.080480546,-0.4831276,-0.5071411,0.80677706,-0.99557453,0.35630807,-0.61966336,-0.42419434,-0.49100494,0.74384415,0.9728407,-0.008757845,0.21615759,0.08234174,-0.973394,0.30208203,-0.61171526,0.0,1.0,0.0,0.0,0.0,0.0,0.0,-0.16687238,0.10714111,-0.25677705,-3.129816,1.0115147,-18.90373,2.5214434,-2.0720959,-0.3061056,1.7546759
-30.07228,34.27658,-0.9726176,16.892708,0.56810594,-0.78149575,-0.17149328,-0.42504755,-0.76983106,-0.32003567,0.65734243,-0.591264,0.57081234,0.29433355,0.398159,-1.1190873,-2.0525064,-0.66742635,1.8235034,1.7536708,-0.8954031,0.43344873,-1.0558658,-2.0224712,-0.7213295,1.8745583,1.7008023,-0.9238665,-0.73033094,-1.374842,-0.2691576,1.1876591,-0.8111003,0.4201961,0.10243081,-0.49305725,-0.50354767,0.7999877,-0.9921738,0.3592002,-0.70036346,-0.43420792,-0.4879837,0.73723024,0.973496,-0.006479402,0.21608129,0.07464764,-1.0074668,0.30629465,-0.6815824,0.0,1.0,0.0,0.0,0.0,0.0,0.0,-0.15694273,0.10354766,-0.24998766,-3.5284162,0.5286217,-29.028774,1.8070459,-1.5520215,-0.4409969,2.1938577
-33.20862,29.575512,-2.964026,16.446722,0.40648466,-0.8715404,-0.122280054,-0.4518869,-0.77031606,-0.48854238,0.66963965,-0.5892305,0.50735605,0.42230117,0.38826004,-1.1328974,-2.0713255,-0.65436554,1.8156353,1.7515379,-0.8816364,0.4258365,-1.0695987,-2.027644,-0.7093582,1.8663514,1.7049316,-0.9226018,-0.7708666,-1.373205,-0.6008389,1.201829,-0.8232135,0.4102124,0.1343237,-0.502964,-0.4999466,0.79229265,-0.99055696,0.35958606,-0.79434055,-0.44460297,-0.48493958,0.72983,0.9740066,-0.0025227864,0.2165599,0.06638125,-1.0463487,0.3090105,-0.76307184,0.0,1.0,0.0,0.0,0.0,0.0,0.0,-0.14703596,0.09994659,-0.24229264,-3.8556933,0.036740303,-33.51686,1.8610716,-0.96400976,-1.1255741,3.147316
-25.353586,34.227684,0.19967961,14.1380205,0.57687867,-0.6511652,0.026209533,-0.45784196,-0.78595173,-0.5030442,0.65770876,-0.53291523,0.49368933,0.49554268,0.3800523,-1.1481938,-2.0779483,-0.64358735,1.8130598,1.7543006,-0.87304753,0.41788238,-1.0834098,-2.0355022,-0.69734675,1.8582224,1.7089503,-0.9209843,-0.8030702,-1.3842988,-0.84759516,1.2021412,-0.8095086,0.39835095,0.17079115,-0.5128479,-0.4963379,0.7837263,-0.9876763,0.36114442,-0.87804943,-0.45531273,-0.4818344,0.72169226,0.9743763,0.0028826047,0.21735643,0.057779565,-1.0747054,0.31646734,-0.83399063,0.0,1.0,0.0,0.0,0.0,0.0,0.0,-0.13715208,0.096337885,-0.23372626,-3.0745983,-1.2659788,-24.758291,0.40650368,1.3540506,-1.4000475,3.6080778
-19.891335,42.3289,3.4775507,13.343592,0.69123495,-0.39578497,0.1169806,-0.47595373,-0.78085816,-0.5775169,0.64577323,-0.53198904,0.46622425,0.52344376,0.370287,-1.1614956,-2.0932539,-0.6327694,1.8050234,1.7555727,-0.86863995,0.4096226,-1.0973163,-2.0453248,-0.68543243,1.8502554,1.7128336,-0.9190121,-0.8333365,-1.3934432,-1.0266465,1.1888789,-0.79332346,0.38414004,0.20582876,-0.522686,-0.49269867,0.774446,-0.982606,0.36428243,-0.94466174,-0.46621704,-0.47863007,0.71295035,0.974604,0.009427528,0.2182898,0.04906882,-1.0903875,0.32951626,-0.89086455,0.0,1.0,0.0,0.0,0.0,0.0,0.0,-0.12731397,0.09269866,-0.224446,-2.94168,-1.0963917,-17.729319,-1.0356665,1.3473153,-1.690191,3.4490883
-3.6462626,54.74724,9.41666,9.808809,0.7622088,-0.110630155,0.27740645,-0.45527515,-0.78439975,-0.54076666,0.6192354,-0.48152035,0.45084697,0.5261522,0.3640951,-1.1757562,-2.0994015,-0.6235089,1.8021033,1.7579184,-0.8663969,0.40123937,-1.1113105,-2.0560477,-0.6737994,1.8425797,1.7165703,-0.91672343,-0.84015936,-1.4020662,-1.0856847,1.155064,-0.76117337,0.3691412,0.2362584,-0.532444,-0.48901367,0.7647217,-0.9735006,0.36959177,-0.9807049,-0.47709274,-0.4752884,0.7038194,0.9747137,0.016600609,0.21911487,0.040574178,-1.0804557,0.3411986,-0.92357296,0.0,1.0,0.0,0.0,0.0,0.0,0.0,-0.117555976,0.089013666,-0.21472168,-0.73587894,-1.0487318,-5.330777,-3.2844782,2.5908232,-1.8101513,2.9784262
-11.18899,59.726467,10.166257,13.389058,1.3251233,0.13185918,0.20909564,-0.5165488,-0.7787589,-0.5888897,0.6038668,-0.4583206,0.37843004,0.5479986,0.3495845,-1.1891863,-2.1149366,-0.61341274,1.7967477,1.7544132,-0.8619236,0.3925819,-1.1253392,-2.067068,-0.6625507,1.8352551,1.720116,-0.9141495,-0.8744422,-1.4039748,-1.1055124,1.115142,-0.7251182,0.34847972,0.26430005,-0.5421028,-0.48527527,0.7546887,-0.9630571,0.37550023,-1.009737,-0.48792076,-0.47172546,0.694454,0.97473174,0.024138357,0.2197038,0.03233599,-1.0771974,0.36906418,-0.9438763,0.0,1.0,0.0,0.0,0.0,0.0,0.0,-0.10789716,0.08527526,-0.20468867,-3.4673333,-0.39248466,-1.335454,-3.875804,2.8748274,-2.395779,2.7743638
-9.657305,69.75533,12.987468,15.113229,1.7006841,0.3338353,0.18154636,-0.52322894,-0.76363295,-0.56973106,0.59450155,-0.41193536,0.334678,0.5700574,0.34025902,-1.2017025,-2.1240413,-0.60310054,1.7940617,1.7535838,-0.85714376,0.38358018,-1.1392952,-2.0779552,-0.6516777,1.8283666,1.7234312,-0.9113094,-0.90907633,-1.3934591,-1.080672,1.0781807,-0.67960167,0.32464296,0.290524,-0.5516281,-0.48145294,0.74450606,-0.94836056,0.38502777,-1.0200347,-0.4986763,-0.4678192,0.68503106,0.9746804,0.031804536,0.21998565,0.024349043,-1.0681036,0.40444407,-0.9444636,0.0,1.0,0.0,0.0,0.0,0.0,0.0,-0.09837186,0.081452936,-0.19450605,-3.5497189,0.8379221,3.3133984,-3.6479235,3.6494017,-2.7332902,2.596569
-27.477604,69.71489,10.887382,20.89273,2.413881,0.44581264,0.03602355,-0.61777085,-0.75295514,-0.60682154,0.549551,-0.34484354,0.17921467,0.5605954,0.3218031,-1.2145908,-2.1386373,-0.5967226,1.7938823,1.7413527,-0.8552499,0.37386513,-1.1530873,-2.0886934,-0.64127564,1.8220565,1.7264072,-0.9082398,-0.99232596,-1.3752682,-1.069239,1.0281485,-0.61745346,0.2873761,0.31256163,-0.5609989,-0.4775238,0.734109,-0.9329825,0.39597192,-1.0443811,-0.5094986,-0.4634018,0.6756099,0.9745832,0.039609436,0.219883,0.016435226,-1.0806246,0.4616881,-0.9439517,0.0,1.0,0.0,0.0,0.0,0.0,0.0,-0.08900106,0.0775238,-0.18410897,-8.327723,1.5880346,1.8703461,-4.8298597,5.3485513,-4.09323,2.2316813
-15.733734,77.636314,13.845279,18.260273,2.234937,0.4792442,0.12255229,-0.59699756,-0.73632497,-0.5500642,0.5139597,-0.30617785,0.108409226,0.57544094,0.31416538,-1.2267197,-2.1437,-0.5898797,1.7914387,1.7372481,-0.85069567,0.3635014,-1.1666371,-2.0990841,-0.63145065,1.816387,1.7289746,-0.90496284,-1.0513741,-1.3490359,-1.0260578,0.96741456,-0.55270886,0.24539419,0.33254403,-0.5702076,-0.47342682,0.7235983,-0.9132072,0.41111982,-1.0527862,-0.5203209,-0.45848846,0.66627413,0.9744585,0.047441345,0.219328,0.008659155,-1.0751544,0.50902617,-0.9325557,0.0,1.0,0.0,0.0,0.0,0.0,0.0,-0.07979238,0.07342681,-0.17359829,-5.9895515,2.409172,5.1919937,-6.020868,5.645609,-4.5153646,1.9118965
-13.069149,75.85052,13.622306,16.629295,2.316209,0.346895,0.15311474,-0.6327184,-0.731834,-0.5371057,0.4562453,-0.16644605,-0.14071578,0.576414,0.30022955,-1.2398205,-2.1527946,-0.5858261,1.7997425,1.714903,-0.84732145,0.3525666,-1.1799465,-2.109021,-0.62237805,1.8116752,1.7309759,-0.90151554,-1.1077787,-1.3255042,-0.98042893,0.887229,-0.4469805,0.18366632,0.3489068,-0.5791588,-0.46927643,0.7129077,-0.8882722,0.41662073,-1.0722332,-0.5310974,-0.45313263,0.6570384,0.9743632,0.055200987,0.218101,0.0010897003,-1.0721403,0.5523593,-0.92281246,0.0,1.0,0.0,0.0,0.0,0.0,0.0,-0.07084119,0.06927642,-0.16290766,-5.726385,2.1648645,5.3856134,-7.991445,9.645552,-6.5160093,1.6525984
4.7057633,68.65195,13.418389,8.039937,1.3852286,0.10677421,0.3718495,-0.61663467,-0.7386559,-0.51566404,0.35716516,-0.13392743,-0.2912024,0.5533645,0.29090312,-1.2538121,-2.1605873,-0.5866615,1.7982825,1.7018557,-0.84617907,0.3413118,-1.193113,-2.1184995,-0.61442316,1.8079927,1.7322962,-0.89795077,-1.131828,-1.3140954,-0.9342971,0.7645714,-0.3445048,0.1137029,0.35890958,-0.5878391,-0.46513367,0.70195055,-0.860374,0.41263315,-1.1011416,-0.5417099,-0.44756317,0.6477703,0.9743381,0.06291069,0.21603443,-0.006042067,-1.0504684,0.5666554,-0.9301324,0.0,1.0,0.0,0.0,0.0,0.0,0.0,-0.06216085,0.06513366,-0.15195054,-2.5318384,1.01583,5.347669,-12.337292,9.433174,-7.3020024,0.98636746
28.304432,74.820274,17.73444,1.8656313,1.06844,0.11619127,0.51078105,-0.5651808,-0.73177797,-0.37185943,0.31581703,-0.03580063,-0.34128603,0.5667923,0.28479373,-1.2662908,-2.1556854,-0.58284146,1.8044126,1.6981677,-0.8412715,0.33020294,-1.2061936,-2.1269636,-0.60770327,1.8054507,1.7329395,-0.8942991,-1.1046618,-1.3062601,-0.81450045,0.64038414,-0.2267328,0.046932627,0.36708933,-0.5961304,-0.46111298,0.6908661,-0.8177638,0.3980589,-1.1085857,-0.551918,-0.4420166,0.63853866,0.974453,0.07020957,0.21297194,-0.012441886,-1.0042648,0.5584274,-0.9227903,0.0,1.0,0.0,0.0,0.0,0.0,0.0,-0.053869605,0.06111297,-0.1408661,2.5004625,0.7105589,12.787045,-12.66371,10.973814,-6.919109,0.7726371
31.668236,82.51747,20.724777,3.497662,1.8804171,0.29940185,0.41686052,-0.5720902,-0.7245055,-0.22624359,0.27897856,0.17878868,-0.3643719,0.5516559,0.27299392,-1.2786441,-2.1495879,-0.57980543,1.8233296,1.6965023,-0.8391335,0.3194174,-1.2191998,-2.133677,-0.602106,1.8045208,1.7329646,-0.8905845,-1.070574,-1.2987661,-0.6207369,0.53202856,-0.050752446,-0.012967242,0.37288114,-0.60396194,-0.45724487,0.6798562,-0.77069414,0.3834897,-1.0966175,-0.56168747,-0.43647766,0.62955666,0.9748198,0.07650462,0.20867947,-0.018064056,-0.9610504,0.55909294,-0.8918265,0.0,1.0,0.0,0.0,0.0,0.0,0.0,-0.04603803,0.057244867,-0.12985617,3.1986237,0.687027,20.15537,-11.081923,16.869143,-6.1987286,0.5851209
41.836185,100.79633,27.414206,5.9618564,2.9803903,0.6735889,0.30054593,-0.5281842,-0.71311206,0.07372686,0.27349126,0.3612715,-0.34430876,0.56145984,0.26659897,-1.290511,-2.1263044,-0.57475686,1.8406479,1.6985338,-0.83443856,0.30913916,-1.2320992,-2.13732,-0.59730035,1.8056768,1.732469,-0.8868108,-1.0143284,-1.2870785,-0.27608696,0.4624734,0.16870664,-0.06203928,0.378973,-0.61120033,-0.45354462,0.6693183,-0.70812,0.36543068,-1.0386869,-0.5709686,-0.43083954,0.6212434,0.97557867,0.08087967,0.20292763,-0.022911439,-0.9108293,0.5693471,-0.81298125,0.0,1.0,0.0,0.0,0.0,0.0,0.0,-0.038799644,0.05354461,-0.11931831,5.4025173,1.1101246,35.31701,-7.2375417,21.230759,-5.022622,0.6347656
76.000015,101.77639,31.353888,-4.6430445,2.1074698,0.4777347,0.51666844,-0.3873452,-0.7273282,0.26605228,0.20290276,0.52158695,-0.35750082,0.5439523,0.27040464,-1.304832,-2.110715,-0.5770101,1.8578355,1.6967189,-0.8324156,0.2999982,-1.2449661,-2.1370838,-0.5932282,1.809195,1.7315438,-0.88300467,-0.88149863,-1.2868643,0.12672292,0.38781002,0.41063645,-0.10256769,0.3810867,-0.61769295,-0.45015717,0.6595331,-0.6299114,0.32969132,-0.95877093,-0.5795269,-0.42544556,0.6137551,0.97682977,0.082733616,0.19556521,-0.02670044,-0.8320492,0.53703904,-0.7294911,0.0,1.0,0.0,0.0,0.0,0.0,0.0,-0.03230703,0.05015716,-0.10953307,13.052261,-0.037765503,41.18172,-7.7588615,23.53152,-4.028763,0.19071102
92.69205,94.97418,30.03028,-12.802312,0.6086032,0.15644324,0.7522164,-0.30863008,-0.7088331,0.3221318,0.08837974,0.57168794,-0.34313414,0.5502097,0.26913518,-1.3158494,-2.1048706,-0.5843902,1.8663639,1.6972303,-0.8279837,0.2924241,-1.257774,-2.1333666,-0.5902226,1.8148582,1.730288,-0.87918615,-0.71658105,-1.2792542,0.45597553,0.27108634,0.6162037,-0.132681,0.3819705,-0.6233635,-0.44722748,0.6505291,-0.54747015,0.28133988,-0.88360995,-0.5871506,-0.42066193,0.60691804,0.97852314,0.082260415,0.18675244,-0.02913826,-0.7349124,0.46553606,-0.67083025,0.0,1.0,0.0,0.0,0.0,0.0,0.0,-0.026636481,0.047227472,-0.100529075,16.325294,0.65968037,33.729298,-11.80799,20.00159,-2.871035,0.054329634
97.97945,92.62994,28.69085,-15.811684,-0.32732752,-0.005644232,0.85320747,-0.22886209,-0.6875807,0.43435085,0.01708027,0.62338305,-0.26003397,0.5549869,0.2695379,-1.3265321,-2.0899315,-0.58851457,1.8771966,1.7042847,-0.82368743,0.286579,-1.2704178,-2.1268597,-0.5885149,1.8222468,1.7288454,-0.87536013,-0.5407583,-1.2598865,0.717814,0.13757475,0.7781001,-0.14734459,0.38281414,-0.62820435,-0.44482422,0.6422647,-0.46450534,0.2271867,-0.8109693,-0.5937309,-0.41671753,0.6005582,0.9805393,0.07986145,0.17680185,-0.03009581,-0.62962437,0.37361097,-0.6268099,0.0,1.0,0.0,0.0,0.0,0.0,0.0,-0.02179563,0.044824213,-0.09226471,17.500484,1.7969131,26.81998,-13.294354,15.801323,-1.2373298,0.0926733
96.11736,87.19122,26.16995,-18.481739,-1.1571728,-0.022060394,1.0138443,-0.18153103,-0.66514325,0.54928297,-0.15472896,0.6593388,-0.10349758,0.5375416,0.2684259,-1.3369322,-2.0719314,-0.6039878,1.8881806,1.7184956,-0.821606,0.28230774,-1.2827793,-2.1181219,-0.5886564,1.8309186,1.7274148,-0.87153864,-0.3892399,-1.2287887,0.9268565,-0.06385759,0.8962556,-0.14055769,0.38229847,-0.6322441,-0.44297028,0.63462186,-0.38562706,0.17246933,-0.75299716,-0.5992069,-0.41376495,0.59447896,0.98276323,0.07594066,0.1659623,-0.029427351,-0.51829726,0.27166802,-0.60428274,0.0,1.0,0.0,0.0,0.0,0.0,0.0,-0.017755866,0.04297027,-0.08462185,15.162622,2.9491425,21.213686,-19.905857,11.698437,0.9884119,0.04876256
80.48359,78.77945,22.073801,-16.90458,-1.371064,0.019486874,1.036014,-0.16754675,-0.6543266,0.6194735,-0.3112851,0.70331955,0.04884058,0.52348536,0.26555306,-1.348212,-2.0561745,-0.61978495,1.9012505,1.7322989,-0.8191901,0.27916825,-1.2948223,-2.1077125,-0.5911947,1.840543,1.7261909,-0.8677269,-0.2884535,-1.1965173,1.0785915,-0.31583646,0.9851287,-0.11502446,0.38150632,-0.6355896,-0.4416046,0.6273608,-0.31921625,0.12563117,-0.7210259,-0.6036396,-0.41175842,0.58845043,0.98508936,0.07090517,0.15438847,-0.027119031,-0.41736564,0.18039605,-0.60481656,0.0,1.0,0.0,0.0,0.0,0.0,0.0,-0.014410377,0.04160461,-0.07736081,10.189539,3.0835152,15.017033,-24.809853,9.184217,2.8433414,0.13089776
54.45473,71.21755,17.487692,-10.044505,-0.945565,0.047865734,0.81991845,-0.16085534,-0.65275925,0.6277077,-0.381946,0.7397017,0.15814185,0.5115411,0.2630827,-1.3600982,-2.0449417,-0.6293893,1.9145132,1.7420051,-0.8165728,0.27665868,-1.3066059,-2.0963416,-0.5960929,1.850886,1.7253062,-0.86392426,-0.23780414,-1.172602,1.1548419,-0.5462023,1.0525303,-0.078405514,0.3809118,-0.63840485,-0.44060516,0.62021196,-0.27010098,0.092108235,-0.7153656,-0.60726166,-0.4104538,0.58229035,0.98740333,0.06516419,0.1422598,-0.023460863,-0.3427666,0.11617067,-0.6219468,0.0,1.0,0.0,0.0,0.0,0.0,0.0,-0.01159513,0.040605158,-0.07021195,5.247998,2.3040056,7.090926,-22.583849,7.241273,3.8514347,0.2954781
43.91221,63.868443,14.6106615,-7.800592,-0.945651,-0.058762833,0.68347526,-0.11415989,-0.66203356,0.6372285,-0.45869955,0.75782084,0.21025355,0.49625656,0.2652427,-1.3728093,-2.0326188,-0.6419628,1.926668,1.7463315,-0.8142986,0.2745792,-1.318277,-2.0846038,-0.60302216,1.8617493,1.7248086,-0.86013466,-0.19730727,-1.1652786,1.1781318,-0.74015206,1.0997127,-0.039242133,0.37950775,-0.6408138,-0.43989563,0.6129647,-0.23173201,0.06464629,-0.7291718,-0.6102371,-0.40972137,0.5758459,0.98961395,0.059042178,0.12972139,-0.018725818,-0.28158164,0.05933005,-0.65334964,0.0,1.0,0.0,0.0,0.0,0.0,0.0,-0.009186149,0.039895624,-0.06296468,4.2546806,0.6823063,1.6608715,-18.918621,5.384302,4.1978283,0.22332072
19.150368,65.489136,12.83874,1.9347371,-0.038468197,0.07689567,0.34253648,-0.13268717,-0.6536566,0.6329876,-0.47389063,0.7630092,0.25045335,0.4996961,0.2613105,-1.3836427,-2.021305,-0.65041125,1.9380503,1.7498538,-0.81016505,0.2726538,-1.3298987,-2.072908,-0.61134386,1.8729389,1.7246959,-0.85635144,-0.19020188,-1.1610646,1.1639658,-0.8612855,1.1280562,-0.0010295464,0.37921667,-0.6429291,-0.4393692,0.6055368,-0.20491986,0.049228903,-0.74704194,-0.6128063,-0.40932465,0.56912535,0.9916436,0.052748416,0.116970085,-0.013356574,-0.24706082,0.035254657,-0.6793513,0.0,1.0,0.0,0.0,0.0,0.0,0.0,-0.007070899,0.039369196,-0.055536807,0.9390205,0.44374466,-2.2432566,-11.66358,3.6227465,3.9705098,0.37196875
10.393094,69.06424,12.902604,6.595098,0.29098326,0.097434714,0.13760804,-0.1068855,-0.64650846,0.61376876,-0.48443115,0.7596124,0.25484324,0.49772388,0.26196525,-1.3945496,-2.011531,-0.659787,1.9489001,1.7501802,-0.80657905,0.2708079,-1.3414725,-2.0615435,-0.6203941,1.8842912,1.7249291,-0.8525701,-0.18197079,-1.1558126,1.1244743,-0.9182557,1.1404693,0.032307934,0.37897375,-0.6448097,-0.4389572,0.59796435,-0.18261093,0.038145173,-0.7595041,-0.6151142,-0.40907288,0.5622039,0.99344224,0.046414316,0.10420497,-0.0077085565,-0.2234409,0.022095645,-0.69708735,0.0,1.0,0.0,0.0,0.0,0.0,0.0,-0.0051902533,0.03895721,-0.047964334,1.056248,0.59797764,-4.8190117,-5.271566,2.1175861,3.5343633,0.35232306
4.0869374,78.2749,14.770273,11.811599,0.75366604,0.22015625,-0.0703746,-0.08532653,-0.6301166,0.6131363,-0.44533303,0.75556934,0.30309552,0.5044361,0.26227525,-1.4044842,-2.0002298,-0.6649274,1.9598482,1.7552387,-0.8021265,0.2691051,-1.3529261,-2.050572,-0.6294695,1.8956922,1.7254909,-0.84878594,-0.1655755,-1.1414636,1.0848382,-0.9026538,1.1432853,0.0653032,0.3794278,-0.64648056,-0.43862915,0.59040934,-0.16206591,0.030791296,-0.752575,-0.61724854,-0.40886688,0.55525637,0.99498624,0.04002111,0.09163089,-0.0020732123,-0.2082658,0.021100419,-0.6945258,0.0,1.0,0.0,0.0,0.0,0.0,0.0,-0.0035194159,0.038629144,-0.040409327,1.8833697,1.5630007,-4.89738,1.9566774,1.2898445,3.5184562,0.39597154
10.906376,86.83771,17.47305,11.657194,0.57206345,0.21535586,-0.10014947,-0.036373354,-0.60677606,0.6036707,-0.4241761,0.7470866,0.33194286,0.5086304,0.26546776,-1.4136038,-1.9902048,-0.6718871,1.9704009,1.7586852,-0.7979229,0.2677752,-1.3641375,-2.0399592,-0.63810015,1.907073,1.7263706,-0.844996,-0.12131867,-1.1139592,1.0502051,-0.8486031,1.1397485,0.09681298,0.37999204,-0.64793015,-0.43839264,0.5830725,-0.13926783,0.021332938,-0.7258918,-0.6191864,-0.40873718,0.54846245,0.9962725,0.0335072,0.07941266,0.0034501432,-0.1870589,0.0123198405,-0.6749333,0.0,1.0,0.0,0.0,0.0,0.0,0.0,-0.002069831,0.038392633,-0.03307247,4.6731443,2.903223,-4.3895006,5.7837605,0.60260296,3.6173701,0.39486885
-3.2938275,93.315475,17.784288,17.580221,1.0298785,0.3491556,-0.24676389,-0.071120135,-0.56683815,0.54314125,-0.39953077,0.73860055,0.29992327,0.51961946,0.26066318,-1.4208213,-1.985645,-0.6780532,1.9809331,1.7563629,-0.793034,0.26668707,-1.3749179,-2.0298765,-0.64607084,1.9183795,1.7275038,-0.8411914,-0.10385511,-1.0654287,0.9911489,-0.7787207,1.1311681,0.12026736,0.38162026,-0.649189,-0.4382019,0.5760767,-0.121595986,0.018212765,-0.68955636,-0.6210003,-0.40853882,0.54195106,0.99730355,0.026965588,0.06769873,0.00868493,-0.17813566,0.021481689,-0.64378977,0.0,1.0,0.0,0.0,0.0,0.0,0.0,-0.0008109808,0.0382019,-0.026076674,1.9910961,5.029416,-6.84675,7.349193,0.1597166,2.5990918,0.49057603
-0.84662867,114.32197,22.543417,20.448378,0.8599332,0.47245252,-0.27436998,-0.030307427,-0.46429023,0.4850218,-0.34434095,0.72101545,0.29227397,0.5328142,0.26365632,-1.4213469,-1.9813743,-0.6805049,1.9904811,1.7567312,-0.78791,0.26586738,-1.3847941,-2.020576,-0.65320414,1.929573,1.7288333,-0.8373633,-0.073785886,-0.9608774,0.9061415,-0.6903553,1.119426,0.1389473,0.38406414,-0.65023994,-0.43804932,0.56974316,-0.099828355,0.014074674,-0.61369115,-0.62265396,-0.4083023,0.53602403,0.9980848,0.020485153,0.056776453,0.0135462545,-0.15959877,0.02704554,-0.576265,0.0,1.0,0.0,0.0,0.0,0.0,0.0,0.0002399683,0.03804931,-0.019743145,3.2671378,10.669756,-9.522259,9.197319,0.009346008,2.4137826,0.5123019
18.265497,121.29429,25.970991,14.63293,0.0661611,0.33256567,-0.09681998,0.047437713,-0.41862914,0.50154376,-0.32023025,0.70644766,0.29764983,0.5186979,0.27061117,-1.4266571,-1.9704217,-0.68522716,2.000218,1.7585983,-0.7854935,0.26564896,-1.393524,-2.0119088,-0.65951544,1.9406316,1.7303286,-0.8335267,-0.0036789794,-0.84315646,0.8504556,-0.6101579,1.105054,0.15484565,0.38426748,-0.65104103,-0.4379959,0.56429833,-0.07369389,0.0035734773,-0.5208832,-0.62397957,-0.40818787,0.5308801,0.9986426,0.013992602,0.04674618,0.018217437,-0.121730454,0.006908241,-0.49469894,0.0,1.0,0.0,0.0,0.0,0.0,0.0,0.0010410547,0.037995905,-0.01429832,7.2629747,11.957205,-6.4802885,8.382643,-0.3182888,2.1793783,0.26333928
21.383064,127.851715,28.020123,14.234291,-0.11974195,0.35974503,-0.048739415,0.07087834,-0.34339446,0.48103955,-0.27853286,0.68997073,0.32493496,0.5231469,0.2727368,-1.4278635,-1.9638048,-0.68736875,2.0096288,1.762822,-0.781212,0.26617062,-1.4009627,-2.0036917,-0.6650506,1.9515241,1.7319803,-0.8296891,0.07159433,-0.7101773,0.809517,-0.5334486,1.0874192,0.17044114,0.38431638,-0.65158653,-0.43803406,0.55988,-0.04831295,-0.0063381656,-0.41531396,-0.62487984,-0.40829468,0.52665114,0.99900275,0.007418779,0.037655413,0.02281152,-0.07939165,-0.016652854,-0.3998201,0.0,1.0,0.0,0.0,0.0,0.0,0.0,0.0015865564,0.03803405,-0.009880006,7.7725315,13.469135,-4.9464107,8.028591,-0.68166256,2.0905793,0.22822022
7.5578594,152.6852,32.182552,23.114592,0.17753936,0.6163282,-0.2118558,0.07103139,-0.1595157,0.34514302,-0.19296199,0.67385286,0.29184166,0.5193467,0.27327377,-1.4169142,-1.9691774,-0.6843468,2.0189095,1.7611645,-0.7777544,0.26728785,-1.4065093,-1.9963654,-0.66963863,1.9622316,1.7337391,-0.82585627,0.12588583,-0.50203496,0.7039413,-0.4327487,1.0690944,0.1797481,0.38364962,-0.6518936,-0.43811798,0.5568275,-0.025188422,-0.009551683,-0.26793227,-0.6253948,-0.4085083,0.52369124,0.99918437,0.0009330086,0.029867254,0.027158847,-0.04138969,-0.023577634,-0.26226875,0.0,1.0,0.0,0.0,0.0,0.0,0.0,0.0018936396,0.038117975,-0.0068274736,5.6736126,21.017551,-11.461056,10.412055,-0.65567493,1.5232444,0.12292266
-14.553172,176.0,36.13096,36.44473,1.047208,0.92608625,-0.55819625,0.08204017,0.013794394,0.23449092,-0.0060301283,0.649116,0.25353792,0.51089716,0.27549186,-1.4051298,-1.9729164,-0.67024165,2.0271432,1.7590929,-0.77476656,0.26879847,-1.4095973,-1.9902333,-0.67248535,1.9724437,1.7354728,-0.8220426,0.16013362,-0.24386968,0.58033717,-0.23435245,1.0091205,0.17294227,0.3809721,-0.6520252,-0.43815613,0.5556093,-0.009408173,-0.0008955511,-0.07285339,-0.6256733,-0.40857697,0.5224628,0.99922496,-0.0053020264,0.023908405,0.030815296,-0.023680532,0.0006629229,-0.07743855,0.0,0.0,1.0,0.0,0.0,0.0,0.0,0.0020252466,0.038156122,-0.005609274,3.6346674,26.019785,-13.166773,20.115057,-4.876709,-0.16661286,-0.15932322
-19.049925,111.632744,17.944628,26.318205,0.020763397,-0.12774,-0.5534553,0.11357613,-0.06185707,-0.12774362,0.020551376,0.59929323,0.23246677,0.49504447,0.28015608,-1.4157829,-2.0030077,-0.67043024,2.032373,1.7587194,-0.7725381,0.27064097,-1.4108638,-1.987008,-0.6735374,1.9821465,1.737178,-0.8182614,0.19248056,-0.087494515,0.23591866,-0.061755206,0.9587462,0.17023553,0.3773879,-0.65208817,-0.4381485,0.55533284,-0.0055269636,0.001908747,-0.012725314,-0.6259079,-0.40856934,0.5221381,0.9991866,-0.010377415,0.01968445,0.033629045,-0.02358339,0.000100894125,-0.018447177,0.0,0.0,1.0,0.0,0.0,0.0,0.0,0.0020881891,0.038148493,-0.0053328276,3.29459,15.7102,-34.694878,17.38306,-4.60912,-0.13783276,-0.2647817
-23.021463,92.05009,12.756117,22.93825,-0.18084916,-0.2344993,-0.45990095,0.09027755,0.02047988,-0.22224604,0.02461329,0.5450166,0.27821717,0.5052787,0.27966872,-1.4088157,-2.0092325,-0.67107606,2.0366483,1.7649996,-0.7677335,0.2725917,-1.4108313,-1.9873348,-0.673305,1.9912652,1.7388927,-0.8145103,0.19593829,0.03359808,-0.12244948,0.05157918,0.8967909,0.17186768,0.37446147,-0.6521301,-0.43811035,0.5553698,-0.0038852433,0.004858776,0.008769593,-0.62615204,-0.4085617,0.52213115,0.99912274,-0.013854063,0.016968047,0.035692528,-0.025128454,-0.0005410394,0.0045677745,0.0,0.0,1.0,0.0,0.0,0.0,0.0,0.0021301508,0.038110346,-0.0053697824,0.34750104,12.117397,-35.895206,11.322679,-6.041634,0.14394224,-0.2599597
-27.939957,78.11339,9.859655,21.819864,0.13563152,-0.18846829,-0.41867423,0.06843863,0.052676316,-0.2937482,0.07726835,0.48754764,0.26838142,0.5236019,0.27943558,-1.4055637,-2.0167096,-0.6655781,2.04002,1.7657309,-0.7621501,0.27438605,-1.4099177,-1.9908043,-0.67216533,1.9996809,1.740617,-0.81077343,0.1738379,0.11062344,-0.42145848,0.1344252,0.82322794,0.17245483,0.37330842,-0.6521797,-0.4380188,0.55545676,-0.005402301,0.010480567,0.008405749,-0.6264801,-0.40851593,0.5221939,0.9990669,-0.015802255,0.015491922,0.037089236,-0.03496579,0.008600448,0.006566961,0.0,0.0,1.0,0.0,0.0,0.0,0.0,0.0021797419,0.038018793,-0.0054567456,-2.241084,7.670955,-29.818487,8.1924305,-7.2954416,0.08973479,-0.17359257
-22.178547,69.75593,9.264375,17.564241,0.09964457,-0.15227117,-0.255657,0.061301164,0.06972443,-0.3529415,0.070846155,0.43027756,0.27234232,0.5280889,0.28051618,-1.4029453,-2.0260985,-0.6650807,2.0427086,1.7678512,-0.75796455,0.27589667,-1.4084948,-1.9966007,-0.670566,2.0073028,1.7423495,-0.8070439,0.14331494,0.15265206,-0.6316399,0.16806956,0.74179935,0.17321149,0.3725635,-0.65223694,-0.43788147,0.5554511,-0.0057239374,0.015003134,-0.0037043921,-0.6268711,-0.40837097,0.52218586,0.9990291,-0.016493022,0.014935675,0.038022373,-0.040445965,0.015318456,-0.0031807793,0.0,0.0,1.0,0.0,0.0,0.0,0.0,0.0022369623,0.037881464,-0.005451083,-3.0999513,4.1538687,-20.826494,3.2355905,-8.229673,-0.0058829784,-0.16856194
