Afshin1997/kuka_rl_ros2/src/catch_and_throw/input_files/idealpd/polynomial_regressor/optimizer_files/env_350_data.csv
torque0,torque1,torque2,torque3,torque4,torque5,torque6,action0,action1,action2,action3,action4,action5,action6,set_target_0,set_target_1,set_target_2,set_target_3,set_target_4,set_target_5,set_target_6,joint_pos_0,joint_pos_1,joint_pos_2,joint_pos_3,joint_pos_4,joint_pos_5,joint_pos_6,joint_vel_0,joint_vel_1,joint_vel_2,joint_vel_3,joint_vel_4,joint_vel_5,joint_vel_6,tennisball_pos_0,tennisball_pos_1,tennisball_pos_2,tennisball_lin_vel_0,tennisball_lin_vel_1,tennisball_lin_vel_2,end_effector_pos_0,end_effector_pos_1,end_effector_pos_2,end_effector_rot_0,end_effector_rot_1,end_effector_rot_2,end_effector_rot_3,end_effector_lin_vel_0,end_effector_lin_vel_1,end_effector_lin_vel_2,obs_task_0,obs_task_1,obs_task_2,obs_task_3,obs_task_4,obs_task_5,obs_task_6,to_final_target_0,to_final_target_1,to_final_target_2,joint_acc_0,joint_acc_1,joint_acc_2,joint_acc_3,joint_acc_4,joint_acc_5,joint_acc_6
0.0,0.0,0.0,0.0,0.0,0.0,0.0,0.0,0.0,0.0,0.0,0.0,0.0,0.0,1.7802359,-1.0646509,-1.8151424,-1.1170107,1.9373155,1.1170107,-0.91629785,1.7802359,-1.0646509,-1.8151424,-1.1170107,1.9373155,1.1170107,-0.91629785,0.0,0.0,0.0,0.0,0.0,0.0,0.0,3.1422176,-0.31448364,0.2141731,-3.3902106,-0.44155315,5.2662015,0.5304146,-0.45448303,0.693097,0.5745483,0.17512383,0.15255436,0.7848268,0.0,0.0,0.0,1.0,0.0,0.0,0.0,0.0,0.0,0.0,-3.7922177,-0.08551636,0.33582693,0.0,0.0,0.0,0.0,0.0,0.0,0.0
0.0,0.0,0.0,0.0,0.0,0.0,0.0,0.0,0.0,0.0,0.0,0.0,0.0,0.0,1.7802359,-1.0646509,-1.8151424,-1.1170107,1.9373155,1.1170107,-0.91629785,1.7802359,-1.0646509,-1.8151424,-1.1170107,1.9373155,1.1170107,-0.91629785,0.0,0.0,0.0,0.0,0.0,0.0,0.0,3.1422176,-0.31448364,0.2141731,-3.3902106,-0.44155315,5.2662015,0.5304146,-0.45448303,0.693097,0.5745483,0.17512383,0.15255436,0.7848268,0.0,0.0,0.0,1.0,0.0,0.0,0.0,0.0,0.0,0.0,-3.7922177,-0.08551636,0.33582693,0.0,0.0,0.0,0.0,0.0,0.0,0.0
0.0,0.0,0.0,0.0,0.0,0.0,0.0,0.0,0.0,0.0,0.0,0.0,0.0,0.0,1.7802359,-1.0646509,-1.8151424,-1.1170107,1.9373155,1.1170107,-0.91629785,1.7802359,-1.0646509,-1.8151424,-1.1170107,1.9373155,1.1170107,-0.91629785,0.0,0.0,0.0,0.0,0.0,0.0,0.0,3.1422176,-0.31448364,0.2141731,-3.3902106,-0.44155315,5.2662015,0.5304146,-0.45448303,0.693097,0.5745483,0.17512383,0.15255436,0.7848268,0.0,0.0,0.0,1.0,0.0,0.0,0.0,0.0,0.0,0.0,-3.7922177,-0.08551636,0.33582693,0.0,0.0,0.0,0.0,0.0,0.0,0.0
-176.0,62.59317,-7.92202,110.0,10.099537,4.4877405,-3.8810678,-0.78345287,0.30644152,-0.53419596,0.73416436,-0.031196576,0.6780743,-0.5758252,1.7018906,-1.0340067,-1.868562,-1.0435942,1.9341958,1.1848181,-0.97388035,1.7788473,-1.0626177,-1.8207023,-1.1119334,1.9398026,1.121472,-0.91642946,-0.18490522,0.2704276,-0.74081475,0.677368,0.33109975,0.593479,-0.017308218,3.1083412,-0.31889343,0.26605916,-3.386821,-0.44111168,5.1627502,0.52843285,-0.45754242,0.6938163,0.57801104,0.17366454,0.152046,0.7827042,-0.26402628,-0.40619442,0.09570941,1.0,0.0,0.0,0.0,0.0,0.0,0.0,-3.7583413,-0.08110657,0.28394085,-18.409159,26.854336,-73.957405,67.839355,32.94888,58.963074,-1.6725451
-176.0,-52.155476,-54.44276,110.0,12.19929,0.60880965,-3.4547873,-0.7932749,-0.2635208,-0.57525766,0.71468985,0.10226727,0.6553727,-0.60621375,1.6995199,-1.0889697,-1.8782281,-1.0404644,1.9500294,1.1870092,-0.97705084,1.7775923,-1.060615,-1.8355911,-1.0967566,1.945025,1.1339899,-0.91477674,-0.10831997,0.16517468,-1.710423,1.7986917,0.571908,1.4395943,0.21885517,3.0744991,-0.32330322,0.3169115,-3.383435,-0.44067067,5.0594025,0.5240669,-0.46580505,0.69429815,0.5858768,0.1700682,0.15003698,0.77801925,-0.49486896,-0.9641869,0.035580624,1.0,0.0,0.0,0.0,0.0,0.0,0.0,-3.7244992,-0.07669678,0.23308852,6.858629,-14.029696,-88.620995,112.3992,19.82115,75.14117,21.421787
-156.59581,76.188805,18.177094,88.035995,8.805531,6.7541633,-1.7626002,-0.7449052,0.07433456,0.12875627,0.6650297,0.20956558,0.67159927,-0.5002635,1.7031018,-1.0531815,-1.8227154,-1.0302536,1.9659815,1.2011498,-0.9648031,1.7733866,-1.0591902,-1.8505485,-1.0769526,1.9507699,1.1483427,-0.9129428,-0.52399254,0.13198645,-1.4185361,2.043157,0.5700301,1.4287932,0.17175435,3.0406895,-0.327713,0.3667311,-3.3800523,-0.44023007,4.9561577,0.5169678,-0.4771881,0.695846,0.5964737,0.16507585,0.14657764,0.7716761,-0.7890036,-1.1898063,0.1982884,1.0,0.0,0.0,0.0,0.0,0.0,0.0,-3.6906896,-0.07228699,0.1832689,-41.434128,-4.1627765,30.853271,25.107647,-1.7922044,-2.6036024,-4.691854
-106.38254,67.22638,26.661232,53.314632,6.3154135,6.748512,-0.015016548,-0.76890206,-0.17628948,0.28553572,0.68265134,0.25563416,0.66313976,-0.56942433,1.6964964,-1.0768191,-1.8219949,-1.0086875,1.9763333,1.2146567,-0.96988523,1.7648665,-1.0592474,-1.8593853,-1.057284,1.9560456,1.1617686,-0.9118137,-0.9617487,-0.053449564,-0.69891924,1.9427881,0.50703186,1.310936,0.093393035,3.0069141,-0.33210754,0.41551906,-3.376673,-0.43978995,4.853016,0.5073128,-0.48976898,0.6986933,0.6078598,0.15913135,0.14120889,0.7650122,-1.0344929,-1.2711009,0.3171113,1.0,0.0,0.0,0.0,0.0,0.0,0.0,-3.6569142,-0.06789246,0.13448095,-43.884026,-19.056368,73.95195,-9.611654,-8.197939,-12.649131,-7.780449
-52.427734,92.04593,40.089012,29.347332,3.6220722,6.504064,0.75526774,-0.7884499,-0.090168305,0.34212667,0.69007874,0.39410773,0.66758484,-0.5754114,1.6860214,-1.0682642,-1.8251725,-0.9882761,1.9954565,1.2285271,-0.9693548,1.752648,-1.0605978,-1.8607605,-1.0398184,1.9610143,1.1738478,-0.9115009,-1.309137,-0.16362473,0.05529112,1.6812506,0.488323,1.1721874,0.010110725,2.9731731,-0.33650208,0.46327636,-3.373297,-0.43935025,4.749978,0.49573135,-0.50226593,0.7027367,0.618869,0.15238173,0.13389708,0.7588495,-1.2110971,-1.2296926,0.43383375,1.0,0.0,0.0,0.0,0.0,0.0,0.0,-3.6231732,-0.06349793,0.086723655,-34.917236,-11.412069,77.10051,-26.115274,-3.4092247,-14.303637,-8.458115
-11.550703,116.98069,46.702778,15.9688225,1.1825976,5.4589653,0.6436332,-0.80034703,0.06930715,0.28888205,0.68117046,0.4588446,0.6608826,-0.59539014,1.6726133,-1.0536671,-1.8318722,-0.9717014,2.0068986,1.2399361,-0.9710399,1.738032,-1.061912,-1.8564785,-1.0249811,1.9661202,1.184651,-0.91197103,-1.5128695,-0.12186346,0.5561336,1.4175683,0.51510274,1.0493836,-0.06721732,2.9394665,-0.3408966,0.51000404,-3.3699243,-0.438911,4.647043,0.48295212,-0.51382446,0.7079313,0.6291921,0.1449605,0.125451,0.75323683,-1.3125806,-1.1182948,0.54558295,1.0,0.0,0.0,0.0,0.0,0.0,0.0,-3.5894666,-0.0591034,0.03999597,-20.544243,3.8185134,51.184578,-26.46308,1.7919302,-12.346053,-8.050962
12.627319,149.88727,52.048363,11.815613,-1.1257157,4.5909677,-0.031499874,-0.81740165,0.32746977,0.121442854,0.6482219,0.41064978,0.65483874,-0.59008414,1.6562918,-1.0291649,-1.8443341,-0.96015894,2.0071852,1.250135,-0.97097945,1.7222677,-1.0612577,-1.8499534,-1.0123545,1.9714398,1.1943766,-0.91313356,-1.5983531,0.12652452,0.68694633,1.2109677,0.5364554,0.94767284,-0.13412757,2.9057922,-0.3452835,0.55570316,-3.366555,-0.43847218,4.544211,0.46961975,-0.5238724,0.71433055,0.639108,0.13698114,0.11739835,0.74765944,-1.3519163,-0.95769435,0.66782445,1.0,0.0,0.0,0.0,0.0,0.0,0.0,-3.5557923,-0.054716498,-0.005703151,-8.773589,24.48124,13.763523,-20.699238,1.777792,-9.952259,-7.1584597
27.654716,164.93544,53.69512,9.668102,-2.3026807,3.8377113,-0.40022406,-0.81898254,0.4916196,0.07424446,0.6108777,0.44733107,0.64773065,-0.5785953,1.6403695,-1.0120958,-1.8425289,-0.9512667,2.016173,1.2591497,-0.9709931,1.7062689,-1.0573591,-1.8438327,-1.0012766,1.9770646,1.2032152,-0.914875,-1.6013991,0.47648653,0.58896095,1.0734857,0.5706692,0.86341304,-0.18899345,2.8721523,-0.34966278,0.6003747,-3.363189,-0.4380338,4.441481,0.45619774,-0.5322113,0.7219859,0.6489101,0.12854539,0.110807195,0.7416964,-1.3485347,-0.77875173,0.7948826,1.0,0.0,0.0,0.0,0.0,0.0,0.0,-3.5221524,-0.050337225,-0.050374687,-0.57878494,34.663815,-9.245706,-13.7408495,3.2640338,-8.177031,-5.959499
33.257393,163.3626,52.338627,9.826569,-2.35144,3.3404157,-0.49291217,-0.8101619,0.60026675,0.09080686,0.6097872,0.49171296,0.6425031,-0.56478596,1.6252527,-0.99733245,-1.8347521,-0.9402979,2.0262358,1.2674656,-0.9713536,1.6905829,-1.0499662,-1.8392036,-0.9909981,1.9831204,1.2113119,-0.91707796,-1.5586572,0.8258137,0.42269254,1.0126485,0.61696714,0.7920315,-0.2322015,2.8385448,-0.35404205,0.6440197,-3.3598266,-0.43759584,4.3388543,0.4429264,-0.53881073,0.73090607,0.65874535,0.119684875,0.10592532,0.7351937,-1.3280723,-0.609059,0.9216821,1.0,0.0,0.0,0.0,0.0,0.0,0.0,-3.488545,-0.045957953,-0.09401971,4.0089607,34.636925,-16.089308,-6.0804844,4.4975996,-7.056892,-4.7364473
31.195518,143.74673,45.74782,9.733276,-1.8330286,2.720978,-0.4178558,-0.7999942,0.66321236,0.0889709,0.6096393,0.5153719,0.6339961,-0.545905,1.6105834,-0.98364496,-1.8303065,-0.93003416,2.0346577,1.2747116,-0.9716685,1.6754347,-1.039636,-1.8361404,-0.9809254,1.9896474,1.2187735,-0.9196357,-1.5009797,1.1014047,0.26919895,1.0054113,0.6641252,0.73055893,-0.2647424,2.8049717,-0.3584137,0.68663925,-3.3564675,-0.43715835,4.23633,0.42986107,-0.5439453,0.7409108,0.6686343,0.11046647,0.102485105,0.7281635,-1.3051842,-0.46828943,1.0245578,1.0,0.0,0.0,0.0,0.0,0.0,0.0,-3.4549718,-0.04158631,-0.13663924,5.539918,27.312243,-14.837992,-0.7711649,4.5713425,-6.230402,-3.6043167
24.97887,115.79425,36.38725,9.038147,-1.1649072,2.0366216,-0.28771034,-0.79076004,0.7007045,0.06356232,0.60531014,0.53401315,0.64996314,-0.5364862,1.5963587,-0.9695656,-1.8297842,-0.92039436,2.0430486,1.2837698,-0.97328436,1.6608263,-1.0272878,-1.8343437,-0.97073823,1.996613,1.2257067,-0.92246145,-1.4480768,1.2787187,0.15146402,1.0227089,0.7070142,0.680497,-0.28948843,2.7714329,-0.3627777,0.7282343,-3.3531117,-0.43672127,4.1339083,0.41697884,-0.54795074,0.75165236,0.67852896,0.10102394,0.10004508,0.7206827,-1.28665,-0.36320627,1.0886804,1.0,0.0,0.0,0.0,0.0,0.0,0.0,-3.421433,-0.037222296,-0.17823428,5.1030874,17.544579,-11.321375,1.6093731,4.17403,-5.145514,-2.787733
16.85072,88.03172,26.95251,8.502306,-0.54035044,1.4192337,-0.18028307,-0.78618944,0.71563673,0.036626887,0.60569465,0.5322814,0.6582624,-0.5349813,1.5822074,-0.9557242,-1.830681,-0.91016877,2.0498412,1.291533,-0.9759596,1.6466299,-1.0138658,-1.8334415,-0.960326,2.0039048,1.2322146,-0.92549413,-1.4107935,1.3631722,0.07098875,1.0467861,0.7365521,0.64048165,-0.30886763,2.7379265,-0.36714172,0.7688059,-3.3497593,-0.43628463,4.031589,0.40421677,-0.551178,0.76273346,0.6883698,0.09151563,0.09819521,0.71283203,-1.2753932,-0.29251534,1.1127968,1.0,0.0,0.0,0.0,0.0,0.0,0.0,-3.3879266,-0.032858282,-0.21880591,3.5763264,8.320546,-7.6687174,2.221465,2.8891087,-4.107654,-2.2275686
11.207537,68.928955,20.543224,7.781726,-0.122265995,1.0188999,-0.07296875,-0.78170556,0.7277707,0.016257817,0.59779495,0.54890984,0.66722316,-0.5332102,1.5684594,-0.94108874,-1.8318157,-0.90054655,2.0587957,1.2989368,-0.97881514,1.6326853,-1.0000681,-1.8331096,-0.94974214,2.011454,1.2383868,-0.92869085,-1.3894386,1.3850193,0.021741452,1.0614609,0.7607757,0.6093262,-0.3241855,2.7044544,-0.37150574,0.80835515,-3.3464103,-0.43584844,3.9293725,0.39152336,-0.5538635,0.77384406,0.69809324,0.08206807,0.09662405,0.7046946,-1.269653,-0.24414611,1.1086972,1.0,0.0,0.0,0.0,0.0,0.0,0.0,-3.3544545,-0.028494269,-0.25835514,1.9999027,2.1042109,-4.583999,1.2356281,2.387917,-3.164816,-1.8092632
7.21178,59.13482,17.425224,7.7149878,0.17738456,0.88806236,0.020634698,-0.7865807,0.73146,0.021573529,0.585201,0.56870097,0.66085094,-0.54016435,1.5540272,-0.9269221,-1.8309523,-0.89122206,2.068324,1.3044719,-0.98270726,1.6188246,-0.9863161,-1.8330104,-0.9391306,2.0192323,1.2442881,-0.93202394,-1.3855562,1.3717954,0.007251578,1.0602024,0.7838206,0.5838085,-0.3372615,2.6710148,-0.3758545,0.846883,-3.3430645,-0.43541268,3.827258,0.3788414,-0.55616,0.78481305,0.70763093,0.07274022,0.09510717,0.6963633,-1.2698764,-0.20702584,1.0913007,1.0,0.0,0.0,0.0,0.0,0.0,0.0,-3.321015,-0.024145514,-0.296883,0.252223,-1.3819218,-1.0963653,-0.37600994,2.2732973,-2.569294,-1.5814781
8.703224,57.39126,17.098259,6.5645623,0.10042083,0.85444283,0.10389389,-0.7777817,0.7377272,0.02215037,0.5683951,0.5678344,0.6699364,-0.5445173,1.5410464,-0.91254336,-1.8307954,-0.8822911,2.0760157,1.3112817,-0.98647565,1.6049753,-0.9727644,-1.8329017,-0.9286564,2.0271897,1.2499796,-0.93547434,-1.3850577,1.3493968,0.013411837,1.0423516,0.7992251,0.56422675,-0.34857062,2.6376095,-0.38020325,0.8843904,-3.3397222,-0.43497735,3.7252457,0.3661728,-0.55805206,0.7955826,0.71691024,0.063525945,0.093558796,0.6879324,-1.267034,-0.16689333,1.0703412,1.0,0.0,0.0,0.0,0.0,0.0,0.0,-3.2876096,-0.019796759,-0.3343904,-0.09326935,-2.2934198,1.0013613,-2.0433426,1.5011072,-1.9434214,-1.4139593
9.031914,59.705345,17.818005,7.198783,0.07548797,0.92855847,0.10363345,-0.77368253,0.74182206,0.023244247,0.5746126,0.5570218,0.67988807,-0.5392858,1.5276071,-0.89858216,-1.8305773,-0.87119514,2.082892,1.3179684,-0.9894029,1.591128,-0.95940626,-1.8326633,-0.91833764,2.0352197,1.2555109,-0.93901914,-1.3849423,1.3310962,0.02861856,1.0275818,0.80377614,0.5493221,-0.35746145,2.6042366,-0.384552,0.92087847,-3.336383,-0.43454248,3.6233354,0.35353088,-0.5595093,0.80618083,0.7259114,0.05436398,0.091991626,0.6794371,-1.2640946,-0.12353761,1.054426,1.0,0.0,0.0,0.0,0.0,0.0,0.0,-3.2542367,-0.015448004,-0.37087846,-0.13237,-1.8900394,1.9278281,-1.7190456,0.40422678,-1.4871597,-1.172322
9.767923,64.27572,19.29505,7.848343,0.053825617,1.0621402,0.12377861,-0.77740395,0.7478648,0.04136516,0.562122,0.5700082,0.67992324,-0.5369264,1.5133876,-0.8846198,-1.8285267,-0.86212546,2.0922205,1.3235033,-0.9927118,1.5772616,-0.9461502,-1.8321884,-0.90818864,2.0432916,1.2609125,-0.9426393,-1.3876497,1.323465,0.05524733,1.0099783,0.80828804,0.5371168,-0.3645382,2.570898,-0.38889313,0.9563482,-3.3330474,-0.43410802,3.521527,0.34091568,-0.5605011,0.8166801,0.73461974,0.04518267,0.09041792,0.67090756,-1.2613997,-0.07401522,1.0463551,1.0,0.0,0.0,0.0,0.0,0.0,0.0,-3.2208982,-0.0111068785,-0.40634817,-0.42426586,-0.8347988,3.1131155,-1.9858599,0.379169,-1.2416124,-0.99603534
11.4552145,69.29466,20.98182,8.296797,-0.008492231,1.189523,0.14552847,-0.7751482,0.75396353,0.06738695,0.5556555,0.5681457,0.6803296,-0.53056437,1.4997468,-0.8707538,-1.8254497,-0.8526231,2.1001062,1.3289455,-0.9956957,1.5633799,-0.9328922,-1.8313587,-0.8982037,2.0513864,1.2662073,-0.9463157,-1.3890655,1.3263109,0.09399387,0.99397457,0.80978745,0.52699435,-0.36972886,2.537592,-0.39322662,0.99080056,-3.329715,-0.433674,3.4198205,0.328331,-0.5609207,0.82716334,0.74301463,0.035901308,0.08884417,0.66237974,-1.2573076,-0.016984807,1.0467463,1.0,0.0,0.0,0.0,0.0,0.0,0.0,-3.187592,-0.0067733824,-0.44080055,-0.30031204,0.20177364,4.3644457,-1.8058777,0.054252148,-1.0534286,-0.81306696
15.430506,70.84343,21.375315,6.5362287,-0.25937128,1.0858719,0.2055946,-0.7655362,0.75999016,0.07092679,0.52560866,0.5802798,0.68335724,-0.52463573,1.4868263,-0.8568932,-1.824266,-0.8456428,2.1094143,1.3345431,-0.9987793,1.5495325,-0.9195503,-1.8301857,-0.88847524,2.059523,1.2714201,-0.9500322,-1.3838321,1.336519,0.12678565,0.96511686,0.814932,0.5193376,-0.37333253,2.5043201,-0.39756012,1.0242367,-3.326386,-0.4332404,3.3182156,0.31585693,-0.5607376,0.83764,0.75104874,0.026511006,0.08730491,0.65391195,-1.2435266,0.04630932,1.0452951,1.0,0.0,0.0,0.0,0.0,0.0,0.0,-3.1543202,-0.0024398863,-0.47423667,0.36206245,0.9403229,3.7802129,-3.0929446,0.4155159,-0.7718682,-0.6585777
12.926231,68.73643,19.955032,7.407037,-0.20449191,0.9620008,0.15170227,-0.7751617,0.7631212,0.063123696,0.5212933,0.5809958,0.68237513,-0.5189738,1.4720163,-0.8432382,-1.8238733,-0.8363459,2.1176226,1.3396577,-1.0019295,1.5356966,-0.90609205,-1.8288162,-0.8790119,2.0677133,1.2765661,-0.95377344,-1.3840371,1.3487116,0.14184959,0.9393577,0.8199768,0.5131767,-0.37538585,2.4710808,-0.40189362,1.0566576,-3.3230603,-0.43280727,3.2167122,0.30350685,-0.5599594,0.84807533,0.75874627,0.017048737,0.085847095,0.6454793,-1.2307376,0.10394525,1.0399939,1.0,0.0,0.0,0.0,0.0,0.0,0.0,-3.1210809,0.0018936098,-0.50665754,-0.17738342,1.1481285,1.9642144,-2.7777314,0.4310608,-0.6121397,-0.48120022
13.189991,67.28579,18.99089,7.036413,-0.30894122,0.8066058,0.13369843,-0.77066594,0.77147186,0.05544669,0.50545347,0.5740641,0.6856927,-0.50356275,1.4586301,-0.82894486,-1.8232715,-0.8284666,2.1251197,1.3451355,-1.0041298,1.5218722,-0.8924936,-1.8274238,-0.86981374,2.0759225,1.2816645,-0.9575195,-1.3825954,1.3632778,0.13979474,0.912653,0.82128584,0.50874114,-0.37524894,2.4378757,-0.40621948,1.0880642,-3.319738,-0.43237454,3.1153104,0.2913189,-0.558609,0.8584291,0.7661333,0.007551914,0.0845441,0.6370518,-1.2134738,0.159805,1.0306087,1.0,0.0,0.0,0.0,0.0,0.0,0.0,-3.0878758,0.0062194765,-0.5380642,-0.008869171,1.394701,0.221771,-2.8747916,0.07853508,-0.41486025,-0.25116205
14.278551,64.60591,17.85553,5.730687,-0.4273673,0.6095277,0.1661672,-0.7710807,0.774763,0.053222362,0.46860465,0.5860454,0.6814366,-0.50093234,1.4447641,-0.8150173,-1.8221016,-0.8229533,2.134527,1.3498081,-1.0076127,1.5080572,-0.8787645,-1.8261154,-0.86098653,2.0841737,1.2867228,-0.9612598,-1.381824,1.3759501,0.12930945,0.8720789,0.8260099,0.505252,-0.37444597,2.4047031,-0.41053772,1.1184576,-3.316419,-0.43194225,3.01401,0.27934074,-0.55672455,0.8686376,0.7731975,-0.001912211,0.083427556,0.62865084,-1.1897942,0.2134231,1.014203,1.0,0.0,0.0,0.0,0.0,0.0,0.0,-3.0547032,0.010537714,-0.56845754,-0.07691383,1.2175083,-0.6379783,-4.2735934,0.43141842,-0.27633905,-0.17685294
19.234726,63.03476,17.769173,2.371932,-0.6789784,0.432466,0.32699585,-0.7690421,0.7732794,0.086415514,0.3976228,0.60656184,0.68082154,-0.4949347,1.431153,-0.80143654,-1.8174738,-0.8212243,2.1448298,1.354805,-1.0107533,1.4942557,-0.8649515,-1.8247612,-0.85282785,2.0925279,1.2917563,-0.9649877,-1.3802246,1.3829368,0.13899006,0.7962859,0.83833784,0.5031246,-0.37306577,2.3715649,-0.41485596,1.1478386,-3.3131032,-0.4315104,2.9128108,0.26769447,-0.5542755,0.8786283,0.7798407,-0.011279327,0.08245751,0.6204207,-1.1533855,0.27050248,0.9904754,1.0,0.0,0.0,0.0,0.0,0.0,0.0,-3.021565,0.014855951,-0.5978386,0.0013589859,0.6639004,1.4003009,-7.809007,1.1845708,-0.06467104,-0.12549758
21.555962,64.81584,18.828535,1.8415294,-0.6650308,0.46378577,0.42275095,-0.7684374,0.77560365,0.13770197,0.36496836,0.61820227,0.68265337,-0.4923955,1.4174119,-0.7873911,-1.8109909,-0.816331,2.1543481,1.3600216,-1.0142273,1.4804693,-0.85109174,-1.8230464,-0.8454817,2.1010308,1.2967745,-0.96870035,-1.3785132,1.3868607,0.18379314,0.713286,0.85407764,0.5018496,-0.37155375,2.338459,-0.4191742,1.1762084,-3.3097908,-0.43107897,2.8117127,0.25642586,-0.5512314,0.88841325,0.785982,-0.020577231,0.08153194,0.61250407,-1.1142786,0.33057153,0.9707519,1.0,0.0,0.0,0.0,0.0,0.0,0.0,-2.988459,0.019174188,-0.62620836,0.019288063,0.36342144,4.925549,-8.508289,1.5188813,0.031161308,-0.11213422
30.882935,67.13893,20.265865,-3.5810943,-1.2118589,0.30193093,0.6798924,-0.7615466,0.7852693,0.19319645,0.23651451,0.63727087,0.6777244,-0.47585666,1.4043146,-0.7725648,-1.8037268,-0.8218303,2.164758,1.3645469,-1.016286,1.4667307,-0.83716905,-1.8206336,-0.8393925,2.1097245,1.3017851,-0.97238725,-1.3729148,1.3940191,0.26193908,0.5735311,0.87445635,0.5015608,-0.36861613,2.3053856,-0.42347717,1.203568,-3.3064818,-0.43064797,2.7107158,0.24571419,-0.5474701,0.8979569,0.7914543,-0.029770637,0.08060511,0.6051583,-1.0522598,0.4027417,0.944873,1.0,0.0,0.0,0.0,0.0,0.0,0.0,-2.9553857,0.023477167,-0.65356797,0.41265488,0.69994926,8.286243,-14.171219,1.9729495,0.24286509,0.030243397
38.21056,64.81223,19.74127,-9.145908,-1.7646356,-0.066655844,0.8779044,-0.7563874,0.7875143,0.22490285,0.10158384,0.6517817,0.6756386,-0.45448938,1.391092,-0.7584176,-1.7981434,-0.8292341,2.1749027,1.369349,-1.0178362,1.4530684,-0.8231758,-1.8173892,-0.83511907,2.1186357,1.3067995,-0.97602934,-1.3643422,1.4012107,0.34662694,0.37808836,0.8968115,0.50266695,-0.3635092,2.2723465,-0.42778015,1.2299184,-3.303176,-0.43021742,2.60982,0.2358017,-0.5429764,0.90713894,0.7961096,-0.038724493,0.079711385,0.5986284,-0.96613884,0.47714308,0.90497863,1.0,0.0,0.0,0.0,0.0,0.0,0.0,-2.9223466,0.027780145,-0.67991835,0.73821545,0.7297039,8.875465,-19.720299,2.2054791,0.52096844,0.28014183
49.654285,63.84898,20.006863,-17.779087,-2.638781,-0.4965503,1.2135752,-0.7580571,0.7949759,0.30848128,-0.12547667,0.6685813,0.65907174,-0.4414875,1.3772627,-0.7436782,-1.7865411,-0.84766674,2.1854937,1.3727067,-1.0201781,1.4394747,-0.809091,-1.813092,-0.8335312,2.1277833,1.3118216,-0.97961134,-1.3580418,1.4111333,0.458384,0.0852584,0.92088586,0.50406533,-0.35703436,2.2393398,-0.43208313,1.2552605,-3.2998734,-0.42978728,2.5090249,0.22701263,-0.53767395,0.9157859,0.7997377,-0.047227826,0.07891447,0.59326357,-0.84391564,0.56008804,0.8466242,1.0,0.0,0.0,0.0,0.0,0.0,0.0,-2.88934,0.032083124,-0.70526046,0.554657,1.0298252,11.509782,-29.406912,2.4127603,0.73361397,0.47060847
55.571552,65.19816,20.877878,-20.878643,-2.9770446,-0.71774375,1.3646111,-0.73646694,0.8014809,0.38949284,-0.2592581,0.6670689,0.64325297,-0.36951354,1.365828,-0.7289429,-1.7741427,-0.859457,2.1944902,1.3761469,-1.0165627,1.4260279,-0.79489267,-1.8075264,-0.835017,2.1371255,1.3168494,-0.98307604,-1.3399254,1.422948,0.58956784,-0.2265507,0.9393368,0.50451404,-0.34335348,2.2063656,-0.43637848,1.2795955,-3.296574,-0.4293576,2.4083307,0.21956253,-0.5314789,0.9238415,0.8022156,-0.0551985,0.07824602,0.5893053,-0.70520806,0.64476395,0.7867663,1.0,0.0,0.0,0.0,0.0,0.0,0.0,-2.8563657,0.036378473,-0.7295955,1.8348932,1.2486458,13.243794,-31.198359,1.9589663,0.7056594,1.2698829
51.67833,66.30297,21.14324,-16.798422,-2.5670931,-0.6962863,1.2621022,-0.71296775,0.80681896,0.44834256,-0.31258312,0.67022514,0.62723666,-0.24300814,1.3547311,-0.71421075,-1.7626921,-0.8662753,2.204148,1.379573,-1.0073769,1.4128596,-0.78057325,-1.8006637,-0.8391617,2.1466203,1.3218657,-0.98631376,-1.308647,1.4352207,0.7180921,-0.47684023,0.9539017,0.5027917,-0.317343,2.1734257,-0.4406662,1.3029244,-3.2932782,-0.42892832,2.307737,0.21339989,-0.5245209,0.93139946,0.80359936,-0.06272186,0.07767589,0.58673716,-0.5792497,0.7208537,0.7399491,1.0,0.0,0.0,0.0,0.0,0.0,0.0,-2.8234258,0.040666193,-0.7529244,3.2383442,1.327014,12.720144,-24.962849,1.7195344,0.44070482,2.571839
34.13054,64.026855,19.526295,-4.349843,-1.2741053,-0.38313466,0.8617143,-0.7127568,0.8049358,0.48295754,-0.26995617,0.6572942,0.6221731,-0.045730576,1.3415838,-0.7000797,-1.752368,-0.8661573,2.2123497,1.384083,-0.9908868,1.3999659,-0.766168,-1.7926948,-0.84480363,2.1561875,1.3268534,-0.98915666,-1.2824984,1.4426554,0.82219666,-0.59318763,0.959159,0.49891594,-0.27324146,2.1405182,-0.44495392,1.325248,-3.2899857,-0.42849946,2.2072442,0.20812416,-0.5169449,0.93867415,0.80415565,-0.07003409,0.07713804,0.5852167,-0.502427,0.7751068,0.7172783,1.0,0.0,0.0,0.0,0.0,0.0,0.0,-2.7905183,0.044953912,-0.775248,2.7127743,0.8742094,10.113632,-11.597979,0.9215832,0.06740689,4.3972135
10.797891,57.19757,15.860743,10.699156,0.2816397,-0.04163929,0.30822515,-0.7250246,0.7992601,0.47290713,-0.17737272,0.63516635,0.63521194,0.14542007,1.3274634,-0.686242,-1.7454041,-0.8625409,2.2197042,1.3903745,-0.9746147,1.3871981,-0.75174654,-1.7840717,-0.85048276,2.1657128,1.3318049,-0.9914407,-1.2748052,1.4425128,0.8745217,-0.55988634,0.9517842,0.49459845,-0.21363494,2.1076431,-0.44924164,1.3465675,-3.2866964,-0.42807105,2.1068516,0.20315552,-0.50904083,0.94588864,0.80429024,-0.07739636,0.076600306,0.584174,-0.4869936,0.7999749,0.71649843,1.0,0.0,0.0,0.0,0.0,0.0,0.0,-2.7576432,0.049241632,-0.7965675,0.76282024,0.13718605,4.9265146,3.2385945,-0.29147863,-0.1677692,5.91529
-13.20241,51.2327,12.50217,26.99787,1.9368024,0.42481005,-0.30182058,-0.74116725,0.7951069,0.45080325,-0.0036331974,0.61071646,0.6472439,0.2919838,1.3130814,-0.67223585,-1.7389914,-0.85084605,2.2267845,1.3965293,-0.9622423,1.374354,-0.73736703,-1.7753189,-0.85462934,2.175078,1.3367144,-0.9930629,-1.2881397,1.4369348,0.8746578,-0.36704248,0.93301517,0.48980108,-0.14540939,2.0748005,-0.4535141,1.3668838,-3.2834103,-0.42764306,2.0065594,0.19784355,-0.50107574,0.9532945,0.804461,-0.08511271,0.07603316,0.58293843,-0.5379875,0.7982074,0.74200827,1.0,0.0,0.0,0.0,0.0,0.0,0.0,-2.7248006,0.053514093,-0.81688374,-1.472497,-0.3900051,-0.25746822,19.04804,-1.3894439,-0.42372942,6.7303987
-39.71481,44.74174,9.048211,45.900707,3.8463778,1.0622019,-1.0244429,-0.7682623,0.78124344,0.40546852,0.29697776,0.56280464,0.6700948,0.37733206,1.2975278,-0.6592427,-1.734772,-0.82493156,2.2313583,1.4037238,-0.9553297,1.3612105,-0.7231134,-1.7669494,-0.85543424,2.1841264,1.3415838,-0.99399847,-1.3239229,1.4222119,0.82341427,0.013863367,0.8969827,0.48510423,-0.07674808,2.0419903,-0.45778656,1.3861978,-3.2801275,-0.42721552,1.9063673,0.19143486,-0.49337006,0.96119744,0.80518323,-0.09358722,0.07536705,0.5807248,-0.66680473,0.7706192,0.7997854,1.0,0.0,0.0,0.0,0.0,0.0,0.0,-2.6919904,0.057786554,-0.8361978,-3.8278103,-1.2958527,-5.410683,37.743084,-3.0441284,-0.681448,6.7432327
-47.78238,41.210243,7.6171055,51.8949,4.4191256,1.2860651,-1.2827449,-0.782511,0.77150863,0.37082118,0.4820011,0.53585964,0.67301655,0.419291,1.2829593,-0.64596254,-1.7298673,-0.8072341,2.2377124,1.4088855,-0.95206934,1.3476645,-0.70904195,-1.7592914,-0.8519619,2.1927629,1.3464018,-0.99428266,-1.365581,1.4026421,0.745361,0.45738173,0.8548628,0.47964168,-0.012675017,2.0092144,-0.46205902,1.4045107,-3.276848,-0.4267884,1.8062754,0.18354416,-0.4859314,0.96973777,0.80671346,-0.1030341,0.07458104,0.57709175,-0.8214113,0.73934764,0.86545837,1.0,0.0,0.0,0.0,0.0,0.0,0.0,-2.6592145,0.062059015,-0.8545107,-4.3785334,-1.8036842,-8.154392,44.067593,-3.6347032,-0.91982484,6.320441
-35.86582,39.14071,7.6945257,41.95654,3.441413,0.9288182,-0.97432387,-0.79698867,0.7580153,0.3676495,0.4974472,0.54453903,0.6604564,0.36765623,1.2679656,-0.6332404,-1.7225264,-0.8022172,2.2472167,1.4124475,-0.957517,1.333716,-0.6951994,-1.7523258,-0.8448542,2.2010674,1.3511626,-0.99403566,-1.4049778,1.3784977,0.6795462,0.7946773,0.82396454,0.47394705,0.037028387,1.976471,-0.46632385,1.4218235,-3.273572,-0.42636168,1.7062835,0.17438698,-0.47872925,0.9787371,0.80890167,-0.11328198,0.07370508,0.5722,-0.9393109,0.7224062,0.90474313,1.0,0.0,0.0,0.0,0.0,0.0,0.0,-2.626471,0.06632385,-0.8718235,-4.0685654,-2.3158789,-6.851852,33.555912,-2.6266932,-0.893569,4.9088078
-14.81785,42.119995,9.596283,25.840622,1.7503841,0.37552586,-0.4305968,-0.79712623,0.7582192,0.36334977,0.47252673,0.560384,0.659326,0.32863453,1.2540034,-0.61937743,-1.7159908,-0.7976015,2.2571058,1.4170952,-0.9611722,1.3194796,-0.6815523,-1.7458389,-0.8356102,2.2091851,1.3558813,-0.99339,-1.4299989,1.360267,0.6382728,0.9672526,0.8089392,0.4707386,0.0735086,1.9437599,-0.47058105,1.438137,-3.2702992,-0.42593542,1.6063915,0.16454124,-0.47153473,0.98787826,0.8113711,-0.123967454,0.07283803,0.56657165,-0.9917035,0.72850966,0.91030097,1.0,0.0,0.0,0.0,0.0,0.0,0.0,-2.59376,0.07058105,-0.88813704,-2.5927067,-1.7833948,-4.1662216,17.141521,-1.2414575,-0.45480132,3.5546787
5.729062,45.858356,11.688952,10.206504,0.13336766,-0.18814349,0.13755095,-0.7929581,0.7534588,0.37764668,0.4249429,0.56854963,0.6653719,0.3552636,1.2401838,-0.6062064,-1.7080742,-0.7931159,2.26604,1.4224185,-0.9578637,1.3051211,-0.6680521,-1.7395027,-0.8258169,2.217238,1.3605887,-0.9924173,-1.4382678,1.3466315,0.6328572,0.98295665,0.80434036,0.47123477,0.10470251,1.9110813,-0.47483826,1.4534525,-3.2670295,-0.42550957,1.5065994,0.15465736,-0.46414948,0.9968525,0.81370544,-0.13471904,0.072076716,0.5608378,-0.9789582,0.7528909,0.886166,1.0,0.0,0.0,0.0,0.0,0.0,0.0,-2.5610814,0.07483825,-0.90345246,-0.9109974,-1.3678551,-0.3124118,1.4661074,-0.41320324,0.14671683,2.9699206
17.121944,46.20562,11.973308,0.74441814,-0.8529257,-0.6599654,0.43697315,-0.793461,0.74701893,0.36529633,0.3942367,0.56120217,0.66757756,0.35860592,1.225775,-0.5933502,-1.702973,-0.7863933,2.273358,1.4273465,-0.9565567,1.290753,-0.65466726,-1.7331455,-0.816572,2.2252564,1.365317,-0.99117273,-1.4366902,1.3356793,0.63767433,0.9047178,0.8009223,0.47419316,0.1304657,1.8784351,-0.47909546,1.4677707,-3.2637632,-0.42508414,1.4069072,0.14521217,-0.45648956,1.0054423,0.81565946,-0.14525715,0.071525484,0.5554133,-0.9253449,0.78092486,0.84293324,1.0,0.0,0.0,0.0,0.0,0.0,0.0,-2.5284352,0.07909545,-0.9177707,0.08177757,-1.1129379,0.8301258,-7.9264283,-0.4067421,0.558424,2.4105356
21.144775,44.911057,11.3195095,-3.3154955,-1.2609668,-0.98827493,0.5383065,-0.79758996,0.7437705,0.3471782,0.35641438,0.5678385,0.6625121,0.37116304,1.210994,-0.5802902,-1.6984277,-0.7809306,2.2820404,1.4315681,-0.95405644,1.2764136,-0.64136827,-1.7267883,-0.80842954,2.233275,1.3700758,-0.9896955,-1.4332832,1.32789,0.63641256,0.7837128,0.8017655,0.47760624,0.15301791,1.8458233,-0.4833374,1.4810928,-3.2605,-0.42465916,1.3073146,0.13643456,-0.4485855,1.0135348,0.8171605,-0.15540186,0.071259536,0.5504735,-0.85346377,0.8044956,0.7911584,1.0,0.0,0.0,0.0,0.0,0.0,0.0,-2.4958234,0.0833374,-0.9310928,0.27837753,-0.7912636,0.21928549,-12.193596,-0.0014781952,0.68331957,2.106601
21.938595,45.94032,11.622405,-3.4405637,-1.3280437,-1.0605601,0.5561755,-0.7920255,0.7392794,0.36629868,0.33025923,0.53662735,0.6579571,0.4200718,1.197211,-0.56744033,-1.6901584,-0.7754036,2.2869377,1.4358715,-0.9476883,1.262137,-0.62813795,-1.7203605,-0.8014744,2.2412133,1.3748633,-0.98798364,-1.4257612,1.3214073,0.64595854,0.6658804,0.79114836,0.48021048,0.17674279,1.813242,-0.48757935,1.4934198,-3.25724,-0.4242346,1.2078216,0.12839317,-0.44042206,1.0211368,0.8182002,-0.16513509,0.07131381,0.54607064,-0.77851015,0.8276938,0.743287,1.0,0.0,0.0,0.0,0.0,0.0,0.0,-2.463242,0.08757934,-0.94341975,0.7199049,-0.65300465,1.2591243,-11.844325,-1.1410594,0.59532523,2.2397428
17.69753,42.77937,10.36052,-0.3232584,-1.0078055,-1.0965372,0.41002613,-0.7848566,0.728985,0.3415103,0.33313814,0.51281345,0.65821993,0.45270178,1.1836514,-0.55523944,-1.6862094,-0.7681606,2.2924948,1.4406853,-0.94271344,1.2479635,-0.61499727,-1.7139575,-0.7953947,2.2489762,1.3796698,-0.98603433,-1.4145437,1.311697,0.63889074,0.58847606,0.771647,0.48197138,0.20066072,1.780695,-0.4918213,1.5047525,-3.2539835,-0.42381045,1.108428,0.121011734,-0.43210602,1.0283053,0.81886923,-0.17451417,0.07169963,0.5420859,-0.71591634,0.84272736,0.7016105,1.0,0.0,0.0,0.0,0.0,0.0,0.0,-2.430695,0.09182128,-0.9547525,1.1107922,-0.9554386,-0.5143404,-7.797849,-1.965332,0.46566725,2.2852511
15.935099,38.53469,8.830012,0.17680693,-0.9473637,-1.2590307,0.34099227,-0.77475536,0.7161897,0.3215207,0.28664252,0.47299674,0.65071,0.48718822,1.170488,-0.5433783,-1.6818055,-0.7667305,2.2962759,1.4447408,-0.9373155,1.233935,-0.6019939,-1.7077434,-0.789995,2.2564454,1.3844858,-0.98384374,-1.3990109,1.2965372,0.6161472,0.5235298,0.73876595,0.48260698,0.2248648,1.7481785,-0.4960556,1.515092,-3.2507303,-0.42338672,1.0091338,0.11423874,-0.42368317,1.0350505,0.81925356,-0.18353413,0.07246016,0.53841287,-0.6552369,0.8492851,0.6592394,1.0,0.0,0.0,0.0,0.0,0.0,0.0,-2.3981786,0.0960556,-0.965092,1.5627146,-1.4858246,-2.1533132,-6.5563083,-3.2731056,0.35491586,2.3317218
13.113026,34.397713,7.2606153,1.0704904,-0.7948005,-1.3875885,0.26783574,-0.7819705,0.7081754,0.2973227,0.24013163,0.47014436,0.64710283,0.4993533,1.155738,-0.5311764,-1.6780112,-0.76598185,2.30346,1.4491961,-0.9339084,1.2199999,-0.5891565,-1.701865,-0.7852343,2.263617,1.3893038,-0.98142713,-1.391716,1.2796079,0.5787794,0.46000007,0.7099475,0.4825589,0.24706952,1.7156963,-0.5002823,1.5244393,-3.2474802,-0.4229634,0.90993893,0.108034134,-0.4152527,1.0413631,0.819432,-0.19215097,0.0736153,0.5349672,-0.5996563,0.8469624,0.6159663,1.0,0.0,0.0,0.0,0.0,0.0,0.0,-2.3656964,0.10028228,-0.9744393,0.7263422,-1.6524315,-3.6529422,-6.43056,-2.8385282,0.28001666,2.1475406
13.577681,31.797606,6.437661,0.0029296875,-0.8608564,-1.5576166,0.28085074,-0.7678877,0.69456464,0.2813966,0.18849823,0.43854225,0.65004045,0.5251484,1.1432111,-0.51970005,-1.6737252,-0.7663844,2.3074713,1.4543078,-0.9289123,1.2061659,-0.57651556,-1.6963851,-0.7811716,2.2704644,1.3941237,-0.97879404,-1.3804786,1.2590442,0.5377735,0.38805193,0.6766968,0.48280516,0.2685218,1.6832447,-0.504509,1.5327954,-3.2442334,-0.42254055,0.81084317,0.10241699,-0.4068756,1.0472248,0.8194346,-0.200313,0.07518062,0.53174204,-0.5400658,0.83889294,0.57053006,1.0,0.0,0.0,0.0,0.0,0.0,0.0,-2.3332448,0.104508966,-0.9827954,1.141882,-2.0091057,-4.046726,-7.267368,-3.2841086,0.32178164,2.0809233
15.084852,30.545895,6.226245,-1.9323721,-0.950314,-1.7072697,0.36840674,-0.7691209,0.68003446,0.29219535,0.10711546,0.43277702,0.64856356,0.536946,1.1292539,-0.50851214,-1.6671656,-0.77046007,2.3137422,1.4589801,-0.92509943,1.1924139,-0.5641054,-1.6911762,-0.77804166,2.2770257,1.3989455,-0.9759616,-1.3731414,1.2352327,0.51528215,0.28775924,0.6492857,0.48304585,0.2880164,1.6508274,-0.50873566,1.5401614,-3.2409897,-0.4221181,0.7118465,0.09743881,-0.39862823,1.0526054,0.8192326,-0.20795403,0.077119246,0.52883416,-0.47415507,0.82698935,0.5219606,1.0,0.0,0.0,0.0,0.0,0.0,0.0,-2.3008275,0.10873565,-0.99016136,0.7657528,-2.33109,-2.1942258,-10.086573,-2.7194858,0.33686757,1.8920422
16.181305,31.569304,6.908614,-2.1785674,-0.9231349,-1.7241771,0.42640585,-0.75466204,0.664246,0.3129067,0.066324875,0.40244707,0.641015,0.55546874,1.1169478,-0.49768078,-1.6598855,-0.77140915,2.3172705,1.4630469,-0.92041475,1.1787802,-0.5519546,-1.685992,-0.7759207,2.2832894,1.4037615,-0.97294325,-1.3600048,1.2084724,0.51939476,0.18666197,0.61881614,0.48236036,0.30632284,1.6184406,-0.5129547,1.546538,-3.2377493,-0.42169607,0.6129487,0.09313202,-0.3904724,1.0575256,0.8187807,-0.21508925,0.079363674,0.52634215,-0.4074471,0.81612146,0.47696722,1.0,0.0,0.0,0.0,0.0,0.0,0.0,-2.2684407,0.112954706,-0.996538,1.3754368,-2.6215315,0.43655634,-10.141953,-3.0262828,0.22831559,1.7773867
14.688547,31.5201,6.94164,-0.7640934,-0.73569375,-1.7082744,0.39506423,-0.75386935,0.6545613,0.306431,0.029382177,0.40284094,0.64103585,0.5619449,1.1033933,-0.4864985,-1.6553489,-0.7729825,2.3235736,1.4678651,-0.91674876,1.165259,-0.5400566,-1.6807277,-0.7747391,2.289309,1.4085718,-0.969757,-1.3492777,1.183787,0.5286598,0.095153645,0.59673274,0.48134762,0.322502,1.5860882,-0.51716614,1.5519264,-3.2345123,-0.42127445,0.5141499,0.08944702,-0.38240814,1.062028,0.81808436,-0.22176246,0.08184827,0.524271,-0.34725344,0.8043423,0.43658608,1.0,0.0,0.0,0.0,0.0,0.0,0.0,-2.2360883,0.11716613,-1.0019264,1.1306763,-2.4089575,0.92395544,-9.180265,-2.166009,0.16388297,1.571852
11.848431,26.71002,5.4161716,0.70648384,-0.51242936,-1.7943864,0.3016296,-0.7439399,0.6305058,0.27957717,0.0020296145,0.37118265,0.63456917,0.57727957,1.090865,-0.47700602,-1.65277,-0.77453613,2.3264272,1.4720287,-0.9120291,1.1518618,-0.5284494,-1.675494,-0.77433664,2.2950807,1.413365,-0.96641725,-1.3364594,1.1532183,0.5215795,0.021672921,0.57054406,0.47960216,0.3376021,1.5537663,-0.52137756,1.5563276,-3.2312784,-0.42085326,0.41544992,0.086299896,-0.37454224,1.0661322,0.81721026,-0.22798151,0.08455276,0.5225347,-0.29518092,0.7842697,0.39712545,1.0,0.0,0.0,0.0,0.0,0.0,0.0,-2.2037663,0.12137756,-1.0063276,1.3419151,-2.9899836,-0.7532954,-7.3972464,-2.553761,0.072681904,1.4682114
8.449503,19.801498,3.175457,1.9364123,-0.27538025,-1.9292481,0.1889824,-0.73924726,0.60339165,0.24456215,-0.03029318,0.3479986,0.63399386,0.57594466,1.077937,-0.46811026,-1.6510377,-0.777366,2.3298805,1.4767644,-0.9088228,1.1385828,-0.51720846,-1.6705177,-0.774576,2.30057,1.418141,-0.9629459,-1.3247143,1.1145846,0.48960268,-0.039434146,0.54200494,0.47774526,0.35016447,1.5214787,-0.525589,1.5597426,-3.2280478,-0.42043248,0.3168486,0.08361435,-0.36694336,1.0698284,0.8162591,-0.2337164,0.087487616,0.5210024,-0.25168848,0.7523191,0.356184,1.0,0.0,0.0,0.0,0.0,0.0,0.0,-2.1714787,0.12558898,-1.0097425,1.2275457,-3.7928343,-3.2637954,-6.1905913,-2.7802348,0.046813488,1.213026
5.031309,14.417947,1.4678571,3.9962435,-0.061740696,-1.9764819,0.06053534,-0.72637707,0.5750402,0.2097084,-0.032291103,0.28074652,0.635871,0.5902616,1.0659451,-0.45970443,-1.6495469,-0.7778051,2.3286448,1.4817281,-0.9039197,1.1254507,-0.50641,-1.6660163,-0.7752331,2.3056245,1.4228998,-0.9593553,-1.3093216,1.0684354,0.43670171,-0.0748066,0.49365136,0.47609368,0.361891,1.4892216,-0.52978516,1.5621722,-3.2248204,-0.42001215,0.21834588,0.081293106,-0.35971832,1.0731266,0.81533456,-0.23897402,0.09069748,0.51951414,-0.21788535,0.7132681,0.31707337,1.0,0.0,0.0,0.0,0.0,0.0,0.0,-2.1392217,0.12978515,-1.0121722,1.5862465,-4.541874,-5.3772984,-3.6462412,-4.7477665,0.04364252,1.1203408
-0.28374624,9.590247,-0.25168055,7.880747,0.37395918,-1.9465102,-0.1293273,-0.72854567,0.5546133,0.14021209,-0.012107123,0.2772944,0.63741034,0.59064144,1.0525962,-0.4509487,-1.6519952,-0.7764438,2.333354,1.4866409,-0.90029114,1.1124274,-0.49607313,-1.6623027,-0.7759827,2.310244,1.4276453,-0.95566076,-1.299892,1.0223292,0.3495103,-0.07554451,0.4520308,0.47445118,0.37170142,1.4569988,-0.5339813,1.5636176,-3.2215962,-0.41959223,0.11994164,0.07918167,-0.3529129,1.0760707,0.81456846,-0.2437955,0.09419666,0.51785016,-0.20221107,0.6679163,0.2832659,1.0,0.0,0.0,0.0,0.0,0.0,0.0,-2.106999,0.13398132,-1.0136175,0.9428263,-4.5381784,-8.793646,-0.2273798,-4.0544033,0.0046789646,0.9187937
-6.656279,-4.1680593,-4.2758675,11.078819,0.91594076,-2.0560586,-0.34400895,-0.7085885,0.48668933,0.058704745,0.03444245,0.18106659,0.64066654,0.59694207,1.0415685,-0.4474042,-1.6564323,-0.7725384,2.3283508,1.491712,-0.89596653,1.0995547,-0.4864,-1.6597183,-0.77641374,2.3142533,1.4323756,-0.95187753,-1.2830276,0.9492317,0.22763966,-0.033043295,0.38423556,0.4732065,0.38026568,1.4248066,-0.5381775,1.5640796,-3.2183754,-0.41917273,0.021635776,0.077070236,-0.3467331,1.0786663,0.81412053,-0.24820258,0.09799029,0.515753,-0.20743537,0.6038665,0.248418,1.0,0.0,0.0,0.0,0.0,0.0,0.0,-2.0748067,0.13817748,-1.0140796,1.6963482,-7.2396994,-12.298695,4.0491743,-6.6591024,0.026506186,0.77242255
-4.972163,-18.92159,-8.372219,4.507811,0.62820596,-2.5923629,-0.19839354,-0.69943464,0.39971617,0.031780902,-0.08588469,0.06656305,0.6427317,0.60035557,1.0296112,-0.4464284,-1.6565402,-0.78500223,2.3209097,1.4966487,-0.891842,1.0868708,-0.47774446,-1.6582725,-0.77695733,2.317328,1.4371,-0.9480161,-1.2631611,0.83786166,0.11615764,-0.062047333,0.28210592,0.47287104,0.38772428,1.3926468,-0.542366,1.5635593,-3.2151577,-0.41875365,-0.07657181,0.07503128,-0.34136963,1.0807408,0.81401664,-0.25195897,0.102115884,0.51328915,-0.1967265,0.5120445,0.19107446,1.0,0.0,0.0,0.0,0.0,0.0,0.0,-2.042647,0.14236602,-1.0135593,2.1051645,-11.073661,-11.296768,-3.0548632,-10.165429,0.16784668,0.6590128
0.033167362,-33.578743,-11.601556,-5.034583,0.13864586,-3.1487746,0.13309245,-0.6753514,0.2709635,0.09043297,-0.22851315,-0.14245626,0.64745086,0.5926793,1.0193356,-0.4506481,-1.6492292,-0.7998086,2.3030825,1.5018451,-0.88874817,1.0744654,-0.4706329,-1.6573741,-0.7785395,2.3188806,1.4418265,-0.94409746,-1.2320755,0.66913795,0.08052077,-0.19052319,0.11253454,0.47347188,0.39299768,1.3605194,-0.54654694,1.5620576,-3.2119431,-0.418335,-0.17468119,0.07329559,-0.33715057,1.0820333,0.81413275,-0.25474057,0.10657056,0.51082075,-0.16061227,0.39269218,0.10661905,1.0,0.0,0.0,0.0,0.0,0.0,0.0,-2.0105195,0.14654693,-1.0120575,3.370905,-16.820276,-3.7466974,-12.920195,-17.003891,0.28433204,0.4210353
-8.084187,-97.97609,-27.833572,-13.93739,1.4150233,-4.295264,0.2913879,-0.63600546,-0.086770415,0.17038418,-0.35557002,-0.41135883,0.65948063,0.5809665,1.0108649,-0.47930995,-1.6403357,-0.81409645,2.2777448,1.5077745,-0.8860008,1.0625159,-0.46662176,-1.6561592,-0.7819727,2.3181138,1.4465624,-0.94014925,-1.1809961,0.31170723,0.13478126,-0.39442697,-0.14002436,0.4739138,0.3947044,1.3284245,-0.55072784,1.5595756,-3.208732,-0.41791674,-0.27269247,0.071725845,-0.33491516,1.0820631,0.8144312,-0.25608885,0.11091968,0.5087408,-0.1519432,0.16755283,-0.032833915,1.0,0.0,0.0,0.0,0.0,0.0,0.0,-1.9784244,0.15072784,-1.0095756,5.570674,-35.764885,5.250797,-20.459248,-25.464027,0.1206398,-0.06381869
-18.64601,-159.95859,-42.861458,-17.063318,3.5876253,-5.1402774,0.31561804,-0.51823235,-0.47176322,0.23724851,-0.39633343,-0.54861593,0.6511533,0.50176144,1.0106926,-0.51379806,-1.6324344,-0.82160604,2.2632523,1.5116777,-0.8899731,1.0515581,-0.4675926,-1.6539276,-0.7873648,2.3147225,1.4512717,-0.9362573,-1.0659384,-0.23391604,0.25276208,-0.5878342,-0.40678176,0.46830866,0.38597992,1.2963619,-0.55490875,1.5561143,-3.2055237,-0.41749892,-0.37060577,0.069826126,-0.33567047,1.0804169,0.8149198,-0.2557318,0.11425467,0.50739795,-0.20146193,-0.15576439,-0.20905857,1.0,0.0,0.0,0.0,0.0,0.0,0.0,-1.9463619,0.15490875,-1.0061142,11.978912,-54.74608,11.902923,-19.44859,-27.075762,-1.0089338,-1.2753069
-19.530466,-143.70674,-35.67428,-4.701409,5.0074186,-4.052504,0.24718852,-0.3432703,-0.64981157,0.3516755,-0.21310936,-0.5990284,0.6739721,0.45365205,1.0172311,-0.53257376,-1.61876,-0.8086757,2.2548196,1.5186689,-0.8908921,1.0424334,-0.4740423,-1.6500537,-0.7933453,2.3090043,1.4559218,-0.93248457,-0.8607885,-0.7827818,0.43338442,-0.60183483,-0.6276339,0.46136367,0.37337816,1.2643299,-0.5590744,1.5516746,-3.202319,-0.4170815,-0.4684212,0.067071915,-0.33930206,1.0773355,0.81543237,-0.25431666,0.11579204,0.50693715,-0.30100015,-0.43276832,-0.34129214,1.0,0.0,0.0,0.0,0.0,0.0,0.0,-1.9143299,0.1590744,-1.0016747,20.656288,-55.119335,18.39304,-1.4994502,-22.36979,-1.4994144,-1.5270591
-3.6708646,-91.89169,-21.282404,-3.9743562,3.6657856,-3.331608,0.3669181,-0.14253983,-0.7312604,0.29936793,-0.23165548,-0.62994415,0.6726274,0.33848104,1.0281794,-0.5471683,-1.620117,-0.8165108,2.2460098,1.5231845,-0.89863646,1.0360152,-0.48505247,-1.6448677,-0.7990406,2.301539,1.4605032,-0.92891115,-0.5700763,-1.2077291,0.5494164,-0.55931234,-0.78675926,0.4545038,0.35178092,1.2323322,-0.56324005,1.5462574,-3.1991172,-0.4166645,-0.5661388,0.06365967,-0.34513855,1.0731966,0.81575215,-0.25242186,0.11549248,0.5074377,-0.35639936,-0.6297243,-0.43860742,1.0,0.0,0.0,0.0,0.0,0.0,0.0,-1.8823322,0.16324005,-0.99625736,28.694153,-42.684113,12.309027,4.1072845,-16.131676,-1.5114903,-2.2539377
15.705579,-20.48537,-1.758015,-3.2774227,1.58411,-2.3409724,0.5212261,0.008869716,-0.74830943,0.3346252,-0.23076881,-0.63921404,0.6715125,0.18600622,1.0369021,-0.5598834,-1.6114051,-0.8221175,2.2376175,1.5276544,-0.9103105,1.0327173,-0.4989499,-1.6387794,-0.8041552,2.2929444,1.4650389,-0.9256467,-0.25228587,-1.4508466,0.6313681,-0.49613217,-0.8838693,0.4516345,0.3180781,1.2003651,-0.5674057,1.5398638,-3.1959188,-0.41624793,-0.6637588,0.06018257,-0.35211182,1.0684298,0.81564415,-0.2505227,0.113772385,0.5089388,-0.3466953,-0.71725327,-0.49072695,1.0,0.0,0.0,0.0,0.0,0.0,0.0,-1.850365,0.1674057,-0.9898638,31.062466,-24.43037,9.042799,6.123394,-9.868277,-0.78819394,-3.3159316
29.227222,20.21974,7.2698517,-8.930025,-0.5194012,-2.2941222,0.57492346,0.12485602,-0.7841616,0.2450486,-0.32864788,-0.6327359,0.6608885,0.020931164,1.045203,-0.57736605,-1.6142745,-0.83702,2.2296708,1.5311277,-0.9235536,1.0324217,-0.5142497,-1.632632,-0.8091753,2.2837663,1.4695536,-0.92282575,0.041824713,-1.5567384,0.6123036,-0.5047984,-0.9299238,0.45016494,0.2701237,1.1684284,-0.57157135,1.5324948,-3.1927235,-0.41583177,-0.7612812,0.057300568,-0.35960388,1.0632187,0.81507105,-0.24859446,0.11125103,0.51135427,-0.26953992,-0.7566237,-0.5334432,1.0,0.0,0.0,0.0,0.0,0.0,0.0,-1.8184284,0.17157134,-0.9824948,28.551006,-10.707617,-0.9646177,-1.130563,-4.8039436,-0.4990816,-4.790461
34.71359,39.712727,9.776939,-12.370517,-1.8806614,-2.5333323,0.44420698,0.2510683,-0.79159707,0.06365009,-0.3662393,-0.60418457,0.65963143,-0.06520832,1.0575285,-0.5934094,-1.626267,-0.84579927,2.223348,1.5355167,-0.92934656,1.0348402,-0.5298852,-1.6277645,-0.8146103,2.274447,1.4740587,-0.9205207,0.30573988,-1.5662038,0.44782656,-0.55725133,-0.93292093,0.44991058,0.2170073,1.1365261,-0.57572174,1.5241512,-3.1895313,-0.41541603,-0.85870606,0.055480957,-0.3673935,1.057588,0.8141957,-0.2463374,0.10855711,0.5144108,-0.15162392,-0.7801702,-0.5757595,1.0,0.0,0.0,0.0,0.0,0.0,0.0,-1.7865261,0.17572173,-0.9741512,25.545952,-1.063776,-15.549934,-5.5058837,-0.4932046,-0.30825734,-5.387962
34.18181,32.37347,3.9414773,-16.259035,-2.6080759,-3.3123388,0.15480645,0.41602865,-0.8040233,-0.2851534,-0.386394,-0.56380683,0.65493685,-0.09927784,1.0764431,-0.6102875,-1.6562798,-0.8532497,2.2180662,1.5395525,-0.93044853,1.0398813,-0.5453061,-1.626189,-0.82068807,2.265345,1.4785563,-0.9187326,0.56737846,-1.5344216,0.06411376,-0.62536913,-0.90336686,0.4482808,0.16542044,1.1046543,-0.57987213,1.5148342,-3.1863425,-0.4150007,-0.9560335,0.054998398,-0.3756256,1.0513942,0.8133675,-0.24323659,0.10624635,0.51766866,-0.011563205,-0.8338613,-0.63711375,1.0,0.0,0.0,0.0,0.0,0.0,0.0,-1.7546543,0.17987213,-0.96483415,25.288742,3.0540466,-37.390255,-7.0489407,2.769208,-0.56670904,-5.3563805
21.099043,22.934172,-0.26854324,-7.235436,-1.7488673,-3.1463854,-0.299526,0.4767578,-0.8089757,-0.4806223,-0.2878349,-0.5383225,0.6572235,-0.1205053,1.0875571,-0.62620366,-1.6742512,-0.84947157,2.2115128,1.5442786,-0.9307831,1.0471274,-0.5603436,-1.6290424,-0.8268679,2.2566438,1.4830424,-0.9174213,0.77498966,-1.4937447,-0.39936545,-0.61563975,-0.8595203,0.44758862,0.11907819,1.072815,-0.5840225,1.5045445,-3.1831567,-0.4145858,-1.0532637,0.05560112,-0.38445282,1.0446274,0.8129511,-0.2391449,0.104576446,0.52056116,0.08862788,-0.89747727,-0.6938495,1.0,0.0,0.0,0.0,0.0,0.0,0.0,-1.7228149,0.18402252,-0.9545445,20.1877,3.9684296,-45.609547,0.9085655,4.2128205,-0.41742325,-4.813904
12.314279,23.251669,0.2891556,0.65677834,-1.0301931,-2.5868952,-0.4429246,0.52323556,-0.8030901,-0.5660865,-0.24674937,-0.57205296,0.66422,-0.08705089,1.099451,-0.64065266,-1.6856511,-0.85154283,2.1994386,1.5494643,-0.92612636,1.0559927,-0.5750016,-1.6360805,-0.83258325,2.2482362,1.4875323,-0.9164924,0.92263293,-1.4567622,-0.8038757,-0.5567918,-0.83491594,0.44864744,0.083770625,1.041008,-0.5881653,1.4932833,-3.179974,-0.4141713,-1.1503966,0.056936264,-0.39383698,1.0373852,0.81307095,-0.23423578,0.10359786,0.52279705,0.15488197,-0.94777226,-0.7393964,1.0,0.0,0.0,0.0,0.0,0.0,0.0,-1.691008,0.18816528,-0.94328326,14.468765,3.6139727,-40.00137,5.915177,2.3208022,-0.14961958,-3.666842
8.409595,25.319588,1.93928,3.5937557,-0.71344054,-2.1050599,-0.32504824,0.5412996,-0.8045112,-0.6247643,-0.28418726,-0.60872865,0.6591822,-0.0416942,1.1101227,-0.6554527,-1.6985569,-0.86100197,2.1873634,1.5534505,-0.9206618,1.0658499,-0.58939636,-1.6462886,-0.837858,2.239882,1.4920317,-0.9158296,1.0063056,-1.4340215,-1.0924137,-0.5174096,-0.83589995,0.44961497,0.06006252,1.0092316,-0.5923004,1.4810514,-3.1767948,-0.41375723,-1.2474325,0.058811188,-0.40361023,1.0297137,0.81363654,-0.22866353,0.10326936,0.5244462,0.20500723,-0.98298967,-0.78235376,1.0,0.0,0.0,0.0,0.0,0.0,0.0,-1.6592315,0.19230041,-0.93105143,8.263218,2.1973848,-28.645182,4.0054083,-0.2105236,-0.13467073,-2.471754
9.5133,30.20227,4.938304,3.443602,-0.5827881,-1.701838,-0.08583969,0.5694808,-0.8104091,-0.6493744,-0.32066616,-0.6071511,0.6517229,-0.07422166,1.122798,-0.6704373,-1.7112261,-0.86992466,2.1791668,1.557204,-0.92325175,1.0762545,-0.60369,-1.658406,-0.84303266,2.231463,1.496535,-0.9153852,1.0515671,-1.4281055,-1.2513759,-0.5172456,-0.84409934,0.44986138,0.03904014,0.97748756,-0.59643555,1.46785,-3.1736186,-0.41334355,-1.3443713,0.061143875,-0.4135971,1.0216284,0.8144347,-0.22256516,0.103409946,0.5258015,0.25061718,-1.0017399,-0.8239193,1.0,0.0,0.0,0.0,0.0,0.0,0.0,-1.6274875,0.19643554,-0.91784996,4.48761,0.5304098,-15.841842,0.06777048,-0.8963704,-0.2000153,-2.1473088
7.280969,36.63283,8.271035,7.080164,-0.15455794,-1.1527216,0.007164061,0.57326883,-0.8080865,-0.66236365,-0.28479144,-0.61333746,0.66342664,-0.05404147,1.1335814,-0.68449867,-1.7246424,-0.8715118,2.1701293,1.5628777,-0.92078936,1.0868708,-0.6179837,-1.6713455,-0.848152,2.2229295,1.5010535,-0.91510576,1.0650643,-1.4299632,-1.3081322,-0.51010376,-0.8565638,0.4518903,0.024237867,0.945776,-0.6005707,1.4536799,-3.1704454,-0.41293028,-1.4412133,0.06380463,-0.4236374,1.0132196,0.8152905,-0.21618067,0.10381971,0.5270566,0.278993,-1.0007691,-0.8536239,1.0,0.0,0.0,0.0,0.0,0.0,0.0,-1.595776,0.20057067,-0.9036799,1.3694048,-0.2477169,-5.68583,0.76334476,-1.3536453,0.051862,-1.4777988
0.58173275,40.969368,10.67168,14.347688,0.65305066,-0.5590935,-0.09079029,0.561166,-0.8135122,-0.6546876,-0.19570623,-0.62497705,0.6738351,-0.06591677,1.1429874,-0.6993349,-1.7368143,-0.86772263,2.1604319,1.568437,-0.92169744,1.0974241,-0.63234985,-1.6843154,-0.8528078,2.2142472,1.5056063,-0.9149589,1.0524726,-1.4390097,-1.2930641,-0.4504612,-0.87276256,0.45609567,0.011681663,0.9140949,-0.60469055,1.4385421,-3.1672757,-0.41251743,-1.5379584,0.06650925,-0.43357086,1.0046582,0.81615233,-0.20984484,0.10431072,0.5281853,0.27553728,-0.984546,-0.8641223,1.0,0.0,0.0,0.0,0.0,0.0,0.0,-1.5640949,0.20469055,-0.8885421,-1.175952,-0.99232197,1.5160561,6.046176,-1.8170953,0.38803816,-1.215123
0.5798092,44.444878,11.9169445,14.826326,0.68784803,-0.43947178,-0.051375195,0.5592491,-0.80851954,-0.66768855,-0.20252237,-0.6250296,0.6645274,-0.057135455,1.153349,-0.7132018,-1.7510843,-0.87306005,2.1517444,1.572059,-0.9206724,1.1077887,-0.64678276,-1.6969783,-0.85691434,2.2054276,1.5101916,-0.91491216,1.0313926,-1.444928,-1.2574412,-0.39706028,-0.8859365,0.45929438,0.00239805,0.8824444,-0.6088104,1.4224377,-3.164109,-0.412105,-1.6346067,0.06917,-0.44327545,0.9960206,0.81698674,-0.20367758,0.10481732,0.52920836,0.27089334,-0.9632523,-0.87075263,1.0,0.0,0.0,0.0,0.0,0.0,0.0,-1.5324444,0.20881042,-0.87243766,-2.0126343,-0.67875385,3.5622597,5.4176865,-1.5308499,0.30164123,-0.88058674
5.4907265,44.37525,11.645928,9.581457,0.15088952,-0.65546256,0.13383147,0.55076444,-0.8103402,-0.67336875,-0.2791227,-0.6297566,0.6630395,-0.024380745,1.1628652,-0.72781676,-1.7643152,-0.8848266,2.142452,1.5764955,-0.91735023,1.1179186,-0.6612624,-1.7093074,-0.8609684,2.1964936,1.5148016,-0.9149217,1.0071118,-1.4492133,-1.2249206,-0.40791297,-0.8963429,0.46102569,-0.001827718,0.8508282,-0.6129303,1.4053674,-3.1609454,-0.41169298,-1.7311585,0.07193947,-0.45281982,0.9872163,0.8177179,-0.19752245,0.105382,0.5302989,0.28711405,-0.9453772,-0.890607,1.0,0.0,0.0,0.0,0.0,0.0,0.0,-1.5008281,0.21293029,-0.85536736,-2.3427248,-0.4920721,3.1900883,-1.0231376,-1.2050033,0.071674585,-0.38292286
7.092017,43.124916,11.060814,7.737804,0.016351223,-0.76854444,0.16015518,0.5503324,-0.8152993,-0.6851299,-0.27431044,-0.6177822,0.6615607,-0.064921655,1.1729518,-0.7427923,-1.7778205,-0.8883995,2.1347153,1.5809577,-0.92141384,1.1278521,-0.67579067,-1.7214477,-0.86525136,2.1875215,1.5194212,-0.9149932,0.9890736,-1.4541978,-1.2106205,-0.43491256,-0.8978988,0.4617819,-0.008715544,0.8192425,-0.6170502,1.3873323,-3.1577852,-0.41128138,-1.8276137,0.074920654,-0.46220398,0.97816634,0.8183238,-0.19124675,0.106014945,0.53153706,0.3094526,-0.93196744,-0.91672105,1.0,0.0,0.0,0.0,0.0,0.0,0.0,-1.4692425,0.21705016,-0.8373323,-1.7281175,-0.5556345,1.355958,-2.630788,-0.29838085,-0.06323457,-0.6484316
6.5756426,44.378128,11.32674,8.433044,0.05194086,-0.71572876,0.16070074,0.5427675,-0.8123566,-0.6862991,-0.25491288,-0.62737113,0.6658986,0.031473782,1.1821288,-0.7570263,-1.7900776,-0.89074266,2.1247842,1.586011,-0.91184586,1.137633,-0.6903428,-1.7335365,-0.8697279,2.1785302,1.5240484,-0.91505617,0.9745192,-1.4557173,-1.2086415,-0.45158452,-0.90013546,0.4627155,-0.005246909,0.7876873,-0.6211548,1.3683335,-3.154628,-0.4108702,-1.9239725,0.07811737,-0.4714508,0.9688664,0.8187999,-0.18483174,0.10674413,0.5329255,0.32996488,-0.9173936,-0.9412062,1.0,0.0,0.0,0.0,0.0,0.0,0.0,-1.4376873,0.22115478,-0.81833345,-1.3797283,-0.21004677,0.1329422,-1.5942752,-0.3712535,-0.036770105,0.38219392
1.3138485,46.766792,12.047918,13.247034,0.5307723,-0.44770426,0.014665693,0.5218872,-0.8112338,-0.6710146,-0.19467795,-0.6343489,0.66893613,0.025347346,1.1898217,-0.77146614,-1.800638,-0.8891957,2.1150954,1.590942,-0.9125214,1.1472212,-0.70489204,-1.7455814,-0.874028,2.1695008,1.5286909,-0.9150819,0.95399755,-1.4550048,-1.2032613,-0.4224193,-0.90460104,0.46453583,-0.001534352,0.75616455,-0.6252594,1.3483716,-3.151474,-0.4104594,-2.0202348,0.08137512,-0.48054504,0.9594113,0.81920296,-0.17840557,0.107569,0.53432834,0.33164477,-0.89878595,-0.95367384,1.0,0.0,0.0,0.0,0.0,0.0,0.0,-1.4061645,0.2252594,-0.7983716,-1.955831,-0.0039577484,0.5186558,3.0072153,-0.6448388,0.12329221,0.40762845
7.5789022,46.25428,11.899861,8.216837,0.021613598,-0.684152,0.15780449,0.5374735,-0.8134021,-0.6886176,-0.2729733,-0.6273624,0.6506739,0.0056853467,1.2009685,-0.78623223,-1.8144431,-0.90132535,2.1067646,1.5937583,-0.9145134,1.156716,-0.7194375,-1.7576721,-0.87835294,2.1604562,1.5333315,-0.9150867,0.94819444,-1.4546388,-1.2109854,-0.43560463,-0.90519136,0.46363533,6.265318e-05,0.7246742,-0.629364,1.327448,-3.1483233,-0.41004902,-2.1164007,0.084804535,-0.48944092,0.949745,0.81949556,-0.17187805,0.108502135,0.5358286,0.3539886,-0.8836129,-0.9776354,1.0,0.0,0.0,0.0,0.0,0.0,0.0,-1.3746742,0.22936401,-0.777448,-0.5202055,-0.021147728,-0.8220911,-1.2469113,-0.20289421,-0.22734404,0.19342296
6.163925,44.98996,11.126499,8.072326,-0.016734123,-0.67675996,0.1327723,0.5111858,-0.8119023,-0.70491225,-0.2827917,-0.6405037,0.6550924,-0.02311638,1.2078346,-0.8006277,-1.8281633,-0.9066321,2.0964057,1.5988407,-0.91739833,1.166083,-0.7339734,-1.7699268,-0.882901,2.1513696,1.5379645,-0.915101,0.9329602,-1.4534398,-1.230539,-0.4608827,-0.91004986,0.46271524,-0.0019021498,0.6932144,-0.633461,1.3055633,-3.1451755,-0.40963906,-2.2124705,0.08846092,-0.4982376,0.939802,0.8196804,-0.1651498,0.10959725,0.5374365,0.3759497,-0.8700827,-1.0064362,1.0,0.0,0.0,0.0,0.0,0.0,0.0,-1.3432144,0.233461,-0.7555633,-1.4377475,0.06186962,-2.016306,-2.4344087,-0.637722,-0.25433302,-0.17669897
10.149784,42.70864,10.479946,4.1522784,-0.38453406,-0.81873333,0.24660134,0.51341647,-0.82026595,-0.7146852,-0.34658536,-0.6462886,0.64623404,-0.05094628,1.2174246,-0.816,-1.8413953,-0.91755956,2.0867407,1.6025878,-0.92019564,1.1753317,-0.74853694,-1.7824142,-0.88799363,2.1422257,1.5425783,-0.9151582,0.92232764,-1.4574621,-1.255032,-0.52508074,-0.91640824,0.46020588,-0.0069237803,0.6617851,-0.63755035,1.2827188,-3.142031,-0.40922952,-2.3084443,0.09244156,-0.506897,0.9294775,0.8197177,-0.15808931,0.11087552,0.5392377,0.41160136,-0.8591417,-1.0477461,1.0,0.0,0.0,0.0,0.0,0.0,0.0,-1.3117851,0.23755035,-0.73271877,-0.9839535,-0.446105,-2.5541306,-6.3182473,-0.74931383,-0.48672557,-0.47849092
4.543356,45.615833,11.1188345,7.991429,-0.049154818,-0.5175347,0.1601544,0.4744498,-0.8097101,-0.7114344,-0.3287209,-0.66533524,0.6594581,-0.008631783,1.2227767,-0.82950795,-1.8535576,-0.9208657,2.0756922,1.6085242,-0.9160214,1.1843268,-0.7630938,-1.7950885,-0.893585,2.1329637,1.5471808,-0.91523355,0.892204,-1.4553001,-1.271652,-0.57016176,-0.92968017,0.4596136,-0.007711849,0.63038826,-0.6416397,1.2589152,-3.1388896,-0.40882036,-2.4043221,0.09666443,-0.5153961,0.9187987,0.8196208,-0.15073311,0.112372994,0.5411778,0.43172365,-0.84191036,-1.0812063,1.0,0.0,0.0,0.0,0.0,0.0,0.0,-1.2803882,0.2416397,-0.7089152,-2.8940916,0.1645565,-1.757288,-4.3928266,-1.4877319,-0.24715662,-0.0649237
-7.341178,42.74988,9.224731,13.296563,0.5553435,-0.23465642,-0.02947095,0.39684176,-0.812857,-0.723766,-0.3448589,-0.6843255,0.6568831,-0.0662517,1.224011,-0.84437954,-1.8674651,-0.9280709,2.064531,1.612869,-0.9218587,1.1926924,-0.7776383,-1.8079231,-0.89955693,2.1235223,1.5517794,-0.9153566,0.8185758,-1.4543991,-1.2875692,-0.60554034,-0.94989085,0.45929968,-0.013873423,0.5990238,-0.64572906,1.2341535,-3.1357512,-0.40841162,-2.500104,0.10088539,-0.5237808,0.90779716,0.81950366,-0.14311543,0.114126116,0.54305327,0.42459196,-0.82782614,-1.1131285,1.0,0.0,0.0,0.0,0.0,0.0,0.0,-1.2490238,0.24572906,-0.6841535,-7.15847,0.012493134,-1.660943,-3.3498526,-2.2765636,-0.19302964,-0.62123257
-14.343093,39.588486,7.503396,14.550857,0.789338,-0.08234969,-0.04246582,0.31853876,-0.81504166,-0.7200369,-0.4292241,-0.6882496,0.6434919,-0.07571617,1.2245463,-0.8591425,-1.8799268,-0.9424794,2.0546973,1.6161286,-0.9229282,1.2000242,-0.7921866,-1.8208511,-0.90614396,2.1138902,1.5563627,-0.9155473,0.7056348,-1.4552314,-1.2948047,-0.6755266,-0.96898556,0.45746386,-0.020765139,0.5676899,-0.6498108,1.2084348,-3.1326163,-0.4080033,-2.5957901,0.10493851,-0.5320282,0.89642024,0.8194198,-0.1351583,0.116142094,0.5447883,0.4047945,-0.8161714,-1.1524694,1.0,0.0,0.0,0.0,0.0,0.0,0.0,-1.2176899,0.24981079,-0.6584348,-11.015081,-0.17404556,-0.8125782,-6.744349,-2.2285461,-0.38020015,-0.6981753
-19.937675,37.34287,6.5243936,15.397455,1.0588847,0.12017843,0.014080152,0.23079018,-0.8239037,-0.6876447,-0.5037506,-0.6871998,0.64253265,-0.0125466185,1.2231033,-0.874577,-1.8896155,-0.956519,2.0451703,1.620616,-0.916802,1.2059828,-0.8067883,-1.8336589,-0.91367704,2.1041017,1.560927,-0.91575235,0.5604304,-1.4621485,-1.2765056,-0.7781486,-0.9830979,0.4553079,-0.02042347,0.5363865,-0.6538849,1.1817598,-3.1294842,-0.4075954,-2.6913807,0.108716965,-0.54016113,0.88461035,0.81934124,-0.12680037,0.11834979,0.5464383,0.3724992,-0.8044531,-1.1971202,1.0,0.0,0.0,0.0,0.0,0.0,0.0,-1.1863865,0.25388488,-0.6317598,-14.186632,-0.7934332,1.7083168,-9.945642,-1.7771721,-0.4410863,0.0496462
-58.79092,29.815157,0.42404532,29.901833,2.873867,0.9958425,-0.3263249,-0.09157832,-0.815367,-0.6456662,-0.59441507,-0.6871961,0.6471285,0.14940804,1.196825,-0.88832504,-1.8982255,-0.97311854,2.035382,1.6256399,-0.90081155,1.2092654,-0.8214234,-1.8460586,-0.9224871,2.094195,1.5654761,-0.91582674,0.25273708,-1.4646596,-1.2280407,-0.9133531,-0.99545413,0.45387474,-0.003136981,0.5051136,-0.657959,1.1541297,-3.1263554,-0.40718788,-2.7868755,0.1115551,-0.54823303,0.872359,0.81946164,-0.117969476,0.12073234,0.5477128,0.25747022,-0.8001741,-1.2410473,1.0,0.0,0.0,0.0,0.0,0.0,0.0,-1.1551136,0.25795898,-0.60412973,-30.15496,-0.45888424,4.79033,-12.949001,-1.9607663,-0.36529303,1.7244239
-82.55297,33.299385,0.013907433,39.893566,4.2231345,1.8859029,-0.4288962,-0.33283785,-0.8075787,-0.5153136,-0.6882306,-0.6685296,0.6597306,0.3071778,1.1759815,-0.90218127,-1.8975899,-0.9913101,2.0273418,1.6314491,-0.88510895,1.2087084,-0.8360375,-1.8573978,-0.93283254,2.0842462,1.5700232,-0.9156036,-0.15620612,-1.461142,-1.1026826,-1.0724242,-0.9978697,0.45417717,0.03105776,0.47387505,-0.6620331,1.1255455,-3.1232297,-0.40678078,-2.8822749,0.11282349,-0.55620575,0.8597804,0.81988996,-0.10876215,0.12313488,0.5484422,0.08503645,-0.7872509,-1.2696464,1.0,0.0,0.0,0.0,0.0,0.0,0.0,-1.123875,0.26203308,-0.5755455,-40.13324,0.073456764,12.441945,-15.170467,-1.1586547,-0.17300844,3.5040169
-67.370155,54.369278,9.776793,37.700783,3.989297,2.304182,-0.12328161,-0.38711625,-0.78547317,-0.35630333,-0.7312342,-0.64109063,0.670863,0.4689955,1.1699967,-0.9145848,-1.8930281,-1.0059559,2.020137,1.6371095,-0.868704,1.2045008,-0.85049903,-1.8668582,-0.94464093,2.0743966,1.5745894,-0.9149217,-0.5068276,-1.441764,-0.894796,-1.215035,-0.9829989,0.45750841,0.08141164,0.442667,-0.6660919,1.0960078,-3.1201072,-0.40637407,-2.9775789,0.11253166,-0.5638046,0.84716845,0.82041574,-0.099552326,0.12525523,0.5489248,-0.06816035,-0.7425966,-1.2641438,1.0,0.0,0.0,0.0,0.0,0.0,0.0,-1.092667,0.2660919,-0.5460078,-34.44321,1.7472267,20.438217,-13.660574,0.8688092,0.29803514,5.2946277
-31.324003,77.02628,22.370575,28.294064,2.7634437,2.2038894,0.28216827,-0.362765,-0.7725209,-0.21152699,-0.7362057,-0.6522472,0.689482,0.52714837,1.1682243,-0.9277511,-1.888011,-1.0182616,2.009172,1.6435375,-0.8622069,1.1978976,-0.8647021,-1.8738544,-0.95751077,2.0646958,1.5792204,-0.91371816,-0.71044385,-1.413153,-0.6368026,-1.3099481,-0.9658681,0.46561536,0.13473114,0.4114895,-0.67015076,1.0655179,-3.1169877,-0.40596777,-3.0727875,0.11120796,-0.5707321,0.8348541,0.82068443,-0.0908244,0.126837,0.5496728,-0.15620205,-0.6663958,-1.225431,1.0,0.0,0.0,0.0,0.0,0.0,0.0,-1.0614895,0.27015075,-0.5155179,-20.003044,2.8574944,25.124168,-9.184766,1.64994,1.0635734,5.720447
-2.9823287,65.37671,19.453152,14.38605,1.0946169,0.7841351,0.39380178,-0.30917704,-0.7816985,-0.4107807,-0.75208557,-0.63311476,0.6708541,0.539831,1.1669798,-0.9428719,-1.9149325,-1.0327194,2.0013843,1.6463058,-0.8597351,1.190457,-0.8786992,-1.879689,-0.97102624,2.0552125,1.5839087,-0.91202635,-0.754682,-1.3950688,-0.56740934,-1.3647218,-0.94258,0.47033173,0.18162769,0.38034248,-0.6742096,1.0340767,-3.1138713,-0.4055619,-3.1679013,0.109544754,-0.57710266,0.82265687,0.82058465,-0.08236563,0.1280302,0.5508765,-0.17244536,-0.6189278,-1.2215751,1.0,0.0,0.0,0.0,0.0,0.0,0.0,-1.0303425,0.2742096,-0.48407668,-4.254329,1.8592119,6.4355373,-5.28512,2.3957253,0.599432,4.9540014
14.567522,47.596283,12.914053,3.4334986,-0.27501035,-0.5447669,0.39620164,-0.26207265,-0.78946686,-0.58402336,-0.7664942,-0.65479136,0.6440009,0.5440662,1.1642498,-0.9576459,-1.9380913,-1.0476756,1.9897333,1.6483088,-0.8576197,1.1834189,-0.8926209,-1.886275,-0.98488027,2.0458589,1.5886065,-0.9099254,-0.6868052,-1.3909973,-0.6896346,-1.3916975,-0.9328665,0.4691438,0.21987009,0.349226,-0.67826843,1.0016849,-3.110758,-0.4051564,-3.2629197,0.10810661,-0.5832672,0.8101407,0.820148,-0.07362194,0.12920947,0.55248696,-0.13682881,-0.6056753,-1.264557,1.0,0.0,0.0,0.0,0.0,0.0,0.0,-0.999226,0.27826843,-0.4516849,6.8398,0.446558,-12.434626,-2.5403976,0.96582174,-0.22176504,3.9159985
-3.2795138,35.08442,5.496521,8.485801,0.3289087,-0.6263424,0.067058325,-0.36947483,-0.7866686,-0.64722544,-0.76248425,-0.6676216,0.64537436,0.5409061,1.1464714,-0.9712878,-1.9509976,-1.0611287,1.9790967,1.6531439,-0.8558348,1.1767775,-0.9065474,-1.8946731,-0.9988087,2.0365052,1.5932776,-0.90749925,-0.6560893,-1.3933276,-0.8898801,-1.3921714,-0.93667126,0.46553633,0.25016427,0.31814003,-0.682312,0.96834373,-3.107648,-0.40475133,-3.3578432,0.10679245,-0.5894623,0.7970512,0.8195894,-0.0642364,0.13063468,0.5541493,-0.1326327,-0.61462027,-1.3267772,1.0,0.0,0.0,0.0,0.0,0.0,0.0,-0.96814,0.282312,-0.41834372,3.1898499,-0.2874136,-20.023954,0.24957657,-0.6154299,-0.64010024,3.0471354
-21.652414,30.467127,1.7449511,14.844568,1.1886163,-0.26741982,-0.17065316,-0.44082788,-0.78969294,-0.6856975,-0.7672106,-0.6672802,0.6308435,0.51302445,1.1326947,-0.9855167,-1.9632429,-1.0755297,1.9697772,1.6563619,-0.8561968,1.1700083,-0.92053497,-1.905051,-1.0126677,2.027083,1.5978953,-0.90483564,-0.68330413,-1.4010255,-1.0867994,-1.3824959,-0.94566226,0.4593962,0.2718606,0.2870884,-0.6863556,0.934054,-3.1045408,-0.40434664,-3.4526718,0.10522652,-0.5958023,0.7833236,0.8191071,-0.0541055,0.13234498,0.55553645,-0.16763996,-0.6297845,-1.3916814,1.0,0.0,0.0,0.0,0.0,0.0,0.0,-0.9370884,0.28635558,-0.384054,-2.5279403,-0.90765953,-19.586277,1.3899565,-1.3041735,-0.98963976,2.1806836
-43.46567,29.67777,-0.48305106,22.938173,2.4195943,0.3933497,-0.38836357,-0.5460838,-0.79790676,-0.7092174,-0.7740688,-0.62536764,0.599957,0.47350785,1.1154,-1.0003257,-1.9759728,-1.0900745,1.9645462,1.6578909,-0.8574849,1.1623732,-0.9346417,-1.9170291,-1.0264349,2.0176835,1.602429,-0.9020156,-0.7893539,-1.4146558,-1.2342001,-1.3730378,-0.93971205,0.4498732,0.28559375,0.25606728,-0.69039917,0.8988167,-3.1014369,-0.40394238,-3.5474055,0.10292816,-0.6022873,0.7690105,0.81886697,-0.043280795,0.13417001,0.5564009,-0.25369903,-0.6445053,-1.448467,1.0,0.0,0.0,0.0,0.0,0.0,0.0,-0.90606725,0.29039916,-0.3488167,-10.327709,-1.5968323,-14.556432,1.5149832,0.006246567,-1.3967633,1.4368415
-53.636013,36.48194,1.4379528,27.731499,3.1393578,1.044206,-0.4618226,-0.6210932,-0.7941409,-0.7217181,-0.770608,-0.59605396,0.615138,0.4600562,1.1002638,-1.0140558,-1.989201,-1.1034957,1.9580781,1.6639428,-0.85601,1.153361,-0.9488534,-1.9300182,-1.0401087,2.0084443,1.6068865,-0.8990888,-0.93758905,-1.4241927,-1.3200564,-1.3633463,-0.92072845,0.44273788,0.29536235,0.22507668,-0.6944351,0.8626328,-3.0983362,-0.40353853,-3.6420445,0.0995636,-0.6088333,0.7542659,0.8189381,-0.031948958,0.13588718,0.5566455,-0.3675556,-0.6470098,-1.4873139,1.0,0.0,0.0,0.0,0.0,0.0,0.0,-0.87507665,0.2944351,-0.3126328,-14.523876,-1.2266636,-8.3970785,1.588583,1.247263,-1.148057,1.1060596
-56.011963,43.91478,4.072888,29.571861,3.3915095,1.4497424,-0.48686367,-0.6852312,-0.78720254,-0.7576098,-0.7570353,-0.58025664,0.6177939,0.43092066,1.0848378,-1.0275736,-2.0057793,-1.1158122,1.9504186,1.6686659,-0.8559967,1.1427923,-0.9630965,-1.9436157,-1.0536451,1.9994414,1.611283,-0.89610094,-1.0957615,-1.4252983,-1.3723564,-1.3484181,-0.8960668,0.43723965,0.30047095,0.19411659,-0.69846344,0.82550323,-3.0952384,-0.40313506,-3.7365892,0.09500122,-0.6153259,0.73924685,0.8193357,-0.020288661,0.13736643,0.5562443,-0.49001443,-0.63787484,-1.5111437,1.0,0.0,0.0,0.0,0.0,0.0,0.0,-0.84411657,0.29846343,-0.27550322,-15.533519,-0.39110184,-5.044222,2.1088123,1.814878,-0.9665787,0.67830086
-51.421734,47.831543,6.397572,28.179005,3.404237,1.5780059,-0.4591727,-0.73425704,-0.797002,-0.7803093,-0.7442449,-0.511396,0.6018789,0.32816625,1.0693667,-1.0427967,-2.0216465,-1.1280696,1.9483018,1.6714709,-0.8632843,1.1307722,-0.97736824,-1.9575794,-1.0669985,1.9908583,1.6156222,-0.89314646,-1.2367526,-1.428674,-1.4038031,-1.32905,-0.8475829,0.43139866,0.29440647,0.16318703,-0.70249176,0.7874289,-3.092144,-0.402732,-3.831039,0.089258194,-0.6216965,0.7240426,0.8200476,-0.008426721,0.13843054,0.5552368,-0.6080683,-0.62266886,-1.527624,1.0,0.0,0.0,0.0,0.0,0.0,0.0,-0.813187,0.30249175,-0.2374289,-13.853097,-0.59957504,-2.993536,2.524662,4.273677,-0.9842932,-0.3857553
-43.900307,53.596195,9.668583,26.328075,3.3030574,1.6365385,-0.43585163,-0.77685654,-0.7953849,-0.79326737,-0.72281027,-0.42946953,0.57585925,0.19112256,1.0530865,-1.0569067,-2.036906,-1.1392795,1.9479114,1.6732081,-0.8740342,1.1175467,-0.9916562,-1.9717605,-1.0800982,1.9829619,1.6198908,-0.8903598,-1.3503915,-1.4295548,-1.4224542,-1.3017888,-0.7718707,0.42425346,0.27420446,0.13228798,-0.7065201,0.74840283,-3.0890524,-0.40232936,-3.9264598,0.08241081,-0.627861,0.70873874,0.82106334,0.003520716,0.13889827,0.5536693,-0.7152045,-0.6012149,-1.5351508,0.0,1.0,0.0,0.0,0.0,0.0,0.0,-0.78228796,0.30652007,-0.19840282,-11.167574,-0.31182766,-1.7541409,3.244257,7.1049213,-1.0716617,-1.7637312
-33.07708,60.002445,13.693632,23.632593,2.9936862,1.6503083,-0.4116454,-0.79750973,-0.78832996,-0.797486,-0.6924882,-0.36068666,0.57019913,0.008690713,1.0377957,-1.0704892,-2.0515091,-1.149347,1.9468932,1.6769108,-0.8894907,1.1033353,-1.0057826,-1.9869897,-1.0934478,1.9772979,1.6224083,-0.88835526,-1.4434073,-1.4079164,-1.5551875,-1.3438274,-0.5110899,0.17733197,0.18864569,0.1120224,-0.7074814,0.7368044,-1.7786481,0.044374652,-0.22148648,0.07463074,-0.63420105,0.69313407,0.8226264,0.016657496,0.1381412,0.55129415,-0.8022922,-0.63034385,-1.5738995,0.0,1.0,0.0,0.0,0.0,0.0,0.0,-0.7620224,0.30748138,-0.18680441,-7.1851254,0.18594265,-0.5898237,4.8734665,8.132088,-2.0829945,-3.0696125
1.2345395,176.0,110.0,110.0,8.89732,12.329921,-2.454329,-0.7689312,0.50091505,0.71039224,0.6617551,-0.42306143,0.66159403,-0.37118155,1.0264422,-0.9556911,-1.9159505,-1.0272723,1.9349917,1.6885676,-0.9254734,1.0907735,-1.0225444,-1.9913671,-1.0944911,1.9641541,1.6302589,-0.8867855,-1.1788512,-1.676215,-0.22815129,0.27138272,-1.4329171,1.0571988,0.17476,0.094249725,-0.7070389,0.7338468,-1.7768698,0.044330288,-0.32051623,0.06520462,-0.63874817,0.68200815,0.8249148,0.020505289,0.13841319,0.54766494,-0.9947806,-0.3787591,-0.964078,1.0,0.0,0.0,0.0,0.0,0.0,0.0,-0.7442497,0.30703887,-0.18384677,30.939556,-7.1525574e-05,83.84884,150.26724,-47.36662,108.79506,7.1169405
-55.65243,176.0,65.6007,94.07767,10.061434,5.2437816,-2.5957181,-0.7886364,-0.7064621,0.004118936,0.6985387,-0.35673124,0.62908626,-0.45118445,1.0119098,-1.0931906,-1.9909552,-1.0246372,1.928481,1.6931676,-0.93190396,1.0790051,-1.039104,-1.9892652,-1.0848991,1.9496087,1.6409801,-0.88559246,-1.1745558,-1.6496278,0.35777113,1.1900591,-1.4636403,1.0815347,0.10381943,0.07649422,-0.7065964,0.7298996,-1.7750933,0.044285968,-0.41944695,0.053627014,-0.6422806,0.6754104,0.8287503,0.01764663,0.13891499,0.5418154,-1.2123733,-0.33326522,-0.56098145,1.0,0.0,0.0,0.0,0.0,0.0,0.0,-0.7264942,0.30659637,-0.17989957,0.89342594,2.5384426,59.02463,92.3617,-3.650999,3.7373066,-6.1916056
-65.42276,148.55367,38.60973,69.86438,6.7427807,2.719858,-2.1159995,-0.79180086,-0.545749,-0.3113164,0.66878915,-0.45720243,0.61241823,-0.20744373,0.99982506,-1.0936788,-2.020397,-1.0180202,1.9038885,1.702222,-0.90633684,1.0668725,-1.0537677,-1.9860017,-1.0695544,1.9363507,1.6514629,-0.8848562,-1.2246777,-1.4062098,0.31545097,1.6518615,-1.2805481,1.039437,0.06439793,0.058755875,-0.70615387,0.72496384,-1.7733185,0.044241693,-0.5182787,0.04027939,-0.64546967,0.6714834,0.83405775,0.012636154,0.13980544,0.53351873,-1.3773144,-0.30839345,-0.34163013,1.0,0.0,0.0,0.0,0.0,0.0,0.0,-0.70875585,0.30615386,-0.17496383,-4.504609,24.121618,-4.320139,46.916676,18.086792,-3.5466194,-3.690961
-37.43191,124.81029,34.85195,42.241547,4.298425,2.0409136,-1.0120968,-0.77720565,-0.6246567,0.18656945,0.74498355,-0.4554849,0.607465,-0.2798203,0.9891519,-1.1162333,-1.9673448,-0.9950561,1.8908023,1.7122095,-0.9128383,1.0540837,-1.0664229,-1.9825208,-1.0520431,1.9252099,1.6611999,-0.8845329,-1.2960908,-1.2197328,0.35936654,1.7857354,-1.0601834,0.9525477,0.02210608,0.041036606,-0.70571136,0.71904045,-1.7715456,0.044197462,-0.6170117,0.025867462,-0.64826965,0.6691532,0.84017646,0.0069691283,0.140708,0.5236946,-1.4651735,-0.25912324,-0.20281592,0.0,1.0,0.0,0.0,0.0,0.0,0.0,-0.6910366,0.30571136,-0.16904044,-6.8972826,18.37299,4.485607,13.795328,21.544338,-8.433115,-4.0963125
-15.659088,92.32795,24.520245,18.185648,1.702534,1.112912,-0.20926595,-0.78254795,-0.60076237,0.15249658,0.68584496,-0.4313861,0.64378196,-0.32292435,0.9758289,-1.1264992,-1.9672712,-0.9834586,1.8820713,1.7255781,-0.91682535,1.0406388,-1.0775981,-1.9790647,-1.0349933,1.9160794,1.6701149,-0.8846245,-1.3605291,-1.0839758,0.3413416,1.6783078,-0.8653627,0.8716472,-0.01963626,0.023334503,-0.70526886,0.7121305,-1.7697744,0.044153277,-0.71564597,0.011083603,-0.6505661,0.66745573,0.84650064,0.00151038,0.1413207,0.51328635,-1.4850782,-0.2077835,-0.16439486,0.0,1.0,0.0,0.0,0.0,0.0,0.0,-0.6733345,0.30526885,-0.16213048,-6.4433336,13.371277,-1.7070711,-10.634065,19.076967,-7.931721,-4.2084885
3.1660318,71.78195,19.752026,4.593441,0.13014907,0.4931515,0.23806743,-0.76234704,-0.5882907,0.16371584,0.6916152,-0.47036636,0.6302881,-0.32344186,0.9644041,-1.1364272,-1.9626931,-0.96583176,1.8690428,1.7331437,-0.91696864,1.026811,-1.0878756,-1.9758466,-1.019608,1.9083046,1.6781316,-0.88500935,-1.3912433,-1.0073252,0.29130206,1.475635,-0.751968,0.7222621,-0.01810886,0.005056381,-0.7043686,0.70634425,-2.009561,0.27691624,0.3097065,-0.0035247803,-0.6524048,0.665736,0.85263896,-0.003210165,0.14164785,0.50292385,-1.4472848,-0.17651975,-0.1889456,0.0,1.0,0.0,0.0,0.0,0.0,0.0,-0.65505636,0.3043686,-0.15634423,-3.2576323,7.800412,-8.050543,-22.460579,10.280788,-22.539543,3.8695939
1.0077066,136.89182,38.178604,18.399967,-0.10827994,1.3120837,-0.08084363,-0.8013058,-0.15619971,-0.0041259215,0.7521121,-0.46646446,0.6246288,-0.3295728,0.9466804,-1.1034956,-1.9762592,-0.9443968,1.8616581,1.7405945,-0.9179666,1.0126623,-1.0957625,-1.973842,-1.0058064,1.901276,1.6849008,-0.8854347,-1.423094,-0.71665543,0.17120956,1.3482845,-0.6885145,0.6627543,-0.051766742,-0.015024185,-0.70160675,0.7086945,-2.007552,0.27663937,0.2101457,-0.017606735,-0.6535721,0.6645794,0.8585028,-0.006954985,0.14279528,0.49247733,-1.3968837,-0.08750782,-0.09511403,0.0,1.0,0.0,0.0,0.0,0.0,0.0,-0.6349758,0.30160674,-0.1586945,-3.3466816,28.779411,-11.658398,-12.793851,5.766952,-5.662656,-3.6814518
-6.0293417,146.95224,38.403606,24.814459,0.012806714,1.1704109,-0.3205908,-0.80614316,-0.0340942,-0.1810712,0.77744114,-0.4618964,0.6039893,-0.30516332,0.93204796,-1.0991719,-1.9919492,-0.9280623,1.8550863,1.7452997,-0.915951,0.99827325,-1.1004069,-1.9738039,-0.99272096,1.8946117,1.6911473,-0.886149,-1.4445524,-0.3813346,-0.050753392,1.2952914,-0.6609317,0.6125232,-0.07920273,-0.03508377,-0.6988449,0.71005,-2.005545,0.2763628,0.11068445,-0.03122139,-0.6538925,0.66446626,0.8642407,-0.010151738,0.14558087,0.48144698,-1.350711,-0.0044494793,0.01392441,0.0,1.0,0.0,0.0,0.0,0.0,0.0,-0.6149162,0.2988449,-0.16004997,-2.30577,33.220745,-21.808764,-5.330944,2.2019029,-4.858637,-3.0925303
-12.103892,146.04863,36.029385,28.433268,0.1518212,1.0351027,-0.46682012,-0.81456816,0.101685874,-0.34939083,0.77964866,-0.4926834,0.6145597,-0.26451376,0.9168164,-1.0902383,-2.008743,-0.9147561,1.8453434,1.7526033,-0.91260034,0.98371446,-1.1016905,-1.9764513,-0.97973955,1.8879722,1.69702,-0.8871046,-1.4601724,-0.045153674,-0.33449334,1.2988155,-0.6669284,0.57879746,-0.10216514,-0.055124283,-0.69608307,0.71041155,-2.0035398,0.2760865,0.011322627,-0.044441223,-0.65345,0.66541857,0.8699012,-0.012688708,0.15042342,0.4695569,-1.3125143,0.070607334,0.12069598,0.0,1.0,0.0,0.0,0.0,0.0,0.0,-0.5948757,0.29608306,-0.16041154,-1.7342806,33.275043,-27.894583,0.29261112,-1.1997223,-3.4097672,-2.664733
-16.336435,102.67496,21.881353,23.332726,0.39327896,0.3596079,-0.42544925,-0.8135684,0.055296715,-0.45491767,0.78793126,-0.4954893,0.619588,-0.27799997,0.90235764,-1.0961609,-2.021943,-0.90094644,1.8384233,1.7589788,-0.9149046,0.96906984,-1.100672,-1.9820044,-0.966525,1.8814926,1.7025999,-0.8883115,-1.4663521,0.15039386,-0.63323265,1.3268564,-0.6239591,0.5498895,-0.13091283,-0.07361984,-0.69286346,0.7116119,-1.7001561,0.3671418,0.27439106,-0.057510376,-0.6525574,0.666893,0.87553763,-0.014343761,0.15686849,0.45674962,-1.3063272,0.10357372,0.15492065,0.0,1.0,0.0,0.0,0.0,0.0,0.0,-0.57638013,0.29286346,-0.16161191,-0.70369244,19.212255,-28.435379,3.0915976,-0.13953447,-3.148365,-2.4502232
-15.599473,80.34407,16.606922,19.644732,0.8316034,0.23810422,-0.32757336,-0.8239637,0.087870225,-0.4783882,0.7807156,-0.43191245,0.6242794,-0.3335184,0.88667345,-1.091885,-2.0298433,-0.8884535,1.8383014,1.7650278,-0.92166334,0.9543613,-1.098429,-1.989895,-0.95302474,1.8753911,1.7079154,-0.88976777,-1.472718,0.24821483,-0.8395418,1.357434,-0.6067739,0.52462524,-0.15135413,-0.09043884,-0.689003,0.7144417,-1.6757387,0.3920941,0.2860421,-0.07060814,-0.65143585,0.66849595,0.88113743,-0.015152646,0.16422111,0.4431688,-1.309349,0.12677139,0.16244258,0.0,1.0,0.0,0.0,0.0,0.0,0.0,-0.55956113,0.28900298,-0.1644417,-0.7294893,9.553677,-20.234215,2.970624,1.3172984,-2.7765393,-2.2934346
-12.522987,72.86577,15.707153,17.435884,0.93982494,0.2786606,-0.22478558,-0.8256929,0.14325163,-0.5414526,0.7865081,-0.4332176,0.63302225,-0.34966195,0.871792,-1.0841038,-2.0440402,-0.8743739,1.8320694,1.7712177,-0.92473394,0.9396032,-1.0955508,-1.9993726,-0.9392527,1.869421,1.7130177,-0.89141315,-1.477329,0.30017173,-0.982471,1.3833228,-0.59518427,0.5044623,-0.16975646,-0.10701561,-0.6848984,0.717328,-1.6513903,0.41586292,0.2900807,-0.08375168,-0.65006256,0.6701148,0.88660806,-0.0152874505,0.17218363,0.42900482,-1.3139368,0.14907755,0.16246486,0.0,1.0,0.0,0.0,0.0,0.0,0.0,-0.54298437,0.28489837,-0.167328,-0.5723238,4.980767,-13.811981,2.474308,0.71218014,-2.299273,-2.079883
-6.970979,69.78164,16.683952,15.0791855,1.0530891,0.38578212,-0.10923395,-0.8228185,0.1555638,-0.5506057,0.7845621,-0.39365157,0.64553386,-0.38768914,0.8573214,-1.0799944,-2.054433,-0.86079645,1.8300558,1.7775711,-0.93018204,0.924827,-1.092417,-2.0097063,-0.92530787,1.8636051,1.7179573,-0.89324415,-1.4782578,0.3171201,-1.0482599,1.3976537,-0.57852274,0.48931685,-0.18825252,-0.12333107,-0.6805649,0.7202478,-1.6243318,0.4401453,0.29383555,-0.0969162,-0.64847565,0.67173296,0.89188313,-0.014981279,0.1804174,0.41445097,-1.3153676,0.17410007,0.16300808,0.0,1.0,0.0,0.0,0.0,0.0,0.0,-0.5266689,0.28056487,-0.1702478,-0.24051666,1.4968395,-5.988121,1.2853146,1.1487126,-1.8167019,-2.0710468
-5.7927384,66.75229,15.993017,13.888631,0.9779585,0.41880774,-0.029955156,-0.83090997,0.16496034,-0.5997787,0.7819922,-0.42919374,0.6506418,-0.3634008,0.84173596,-1.0759209,-2.069684,-0.84710866,1.8206857,1.7830215,-0.9295842,0.91001546,-1.0892355,-2.020509,-0.911303,1.857823,1.7227733,-0.89522123,-1.4826192,0.3178127,-1.0886953,1.4008611,-0.57987,0.4781314,-0.20168167,-0.13936424,-0.67598724,0.7231669,-1.5957603,0.4637953,0.29275927,-0.11008072,-0.6466141,0.6733143,0.896904,-0.014327068,0.18879806,0.3996414,-1.314076,0.20011018,0.15816937,0.0,1.0,0.0,0.0,0.0,0.0,0.0,-0.51063573,0.27598724,-0.17316687,-0.59604645,-0.116461515,-3.410983,0.16467571,-0.6758809,-1.4047444,-1.5667915
-4.5764074,56.688293,13.124966,11.433965,0.84071654,0.2938822,0.054586533,-0.8296628,0.12601888,-0.62326646,0.78013104,-0.45722023,0.64252514,-0.34029034,0.8270492,-1.0766337,-2.0828357,-0.83328986,1.812101,1.7870258,-0.92925024,0.8951716,-1.0862945,-2.0315979,-0.89731705,1.8519043,1.7274978,-0.89729714,-1.4853493,0.28557128,-1.1138229,1.3973862,-0.59716856,0.46956518,-0.21012928,-0.1551323,-0.6712189,0.725937,-1.5699836,0.48296234,0.27364767,-0.12322998,-0.6445465,0.67471796,0.90163076,-0.013307793,0.19723254,0.38468698,-1.3127238,0.21995121,0.13607283,0.0,1.0,0.0,0.0,0.0,0.0,0.0,-0.49486768,0.27121887,-0.175937,-0.41131973,-3.370291,-1.9411087,-0.48265457,-2.2016406,-1.0863066,-1.047957
-6.6386356,42.345814,8.44714,9.364578,0.76806825,0.10030222,0.10830038,-0.83468294,0.06534244,-0.652191,0.78249645,-0.48045534,0.64038634,-0.29319763,0.81170326,-1.0797603,-2.096817,-0.8190674,1.8038588,1.7915365,-0.9266169,0.8802895,-1.0839733,-2.042953,-0.88336354,1.8457261,1.7321572,-0.8994074,-1.4894311,0.21413064,-1.1410255,1.3943931,-0.6257099,0.4640684,-0.21186487,-0.1707077,-0.6663132,0.72831523,-1.5526094,0.49365422,0.22834474,-0.13642502,-0.6423569,0.67571694,0.90605557,-0.011823904,0.20560688,0.36966085,-1.319267,0.22995041,0.089690804,0.0,1.0,0.0,0.0,0.0,0.0,0.0,-0.47929227,0.26631317,-0.17831522,-0.49028397,-7.245117,-2.2928715,-0.3709793,-3.1889439,-0.6909847,-0.35034418
-3.5273798,44.516766,9.695731,8.98599,0.8313567,0.12927294,0.1509839,-0.8257681,0.049611293,-0.6326453,0.78435993,-0.4683594,0.63955766,-0.27058372,0.7977127,-1.0790122,-2.1062176,-0.8049275,1.7988902,1.796113,-0.92646575,0.865416,-1.0823768,-2.0544116,-0.8694272,1.8393294,1.7367666,-0.90150565,-1.4869704,0.14125964,-1.145694,1.3930714,-0.6453647,0.4594335,-0.20968018,-0.18608475,-0.6612778,0.73027414,-1.5322335,0.506664,0.18740462,-0.14966393,-0.64004517,0.67629486,0.9101696,-0.009930902,0.21382108,0.35464504,-1.3225812,0.24158381,0.04890718,0.0,1.0,0.0,0.0,0.0,0.0,0.0,-0.46391523,0.26127777,-0.18027413,0.14615059,-7.389638,0.013065338,-0.21226406,-2.3532987,-0.60798526,0.0467062
-6.2883134,33.07086,5.883383,7.674468,0.84255004,-0.035485625,0.16953553,-0.83240646,-0.031166628,-0.658762,0.7840509,-0.4740875,0.6231147,-0.24697442,0.78217536,-1.0854934,-2.120288,-0.7910221,1.7919207,1.799078,-0.9262031,0.85054916,-1.0817245,-2.065969,-0.8554899,1.8327625,1.7413309,-0.9035601,-1.4867778,0.03986064,-1.1578895,1.3938233,-0.6609747,0.45494676,-0.20448814,-0.20132446,-0.65615845,0.73165524,-1.5200876,0.5134235,0.12444743,-0.16300964,-0.6376953,0.676326,0.9139946,-0.0075851986,0.22175524,0.3396777,-1.3356875,0.24545513,-0.010503211,0.0,1.0,0.0,0.0,0.0,0.0,0.0,-0.4486755,0.25615844,-0.18165523,-0.024652481,-10.211705,-0.881052,0.06868839,-1.8176317,-0.56186914,0.3924787
-4.561531,35.816505,6.9802694,7.7030144,0.88496614,0.03446102,0.19803572,-0.82717407,-0.06280793,-0.6418443,0.784116,-0.47644797,0.63633615,-0.20599084,0.76783174,-1.0880053,-2.1301534,-0.77707833,1.7851176,1.8049644,-0.92415917,0.8357052,-1.082043,-2.077542,-0.8415421,1.8260812,1.7458646,-0.9055324,-1.4837543,-0.056022648,-1.1556205,1.3951159,-0.6713557,0.45224896,-0.19516666,-0.21642303,-0.65097046,0.73245966,-1.5057218,0.52150464,0.06778986,-0.17646599,-0.6352539,0.67581475,0.9175358,-0.0048274323,0.2293545,0.3248094,-1.346,0.25288317,-0.06322816,0.0,1.0,0.0,0.0,0.0,0.0,0.0,-0.43357694,0.25097045,-0.18245965,0.24383068,-9.668362,0.61428547,0.12304783,-1.3406038,-0.4073441,0.81938803
-2.6374812,40.992672,8.5959835,8.09608,0.9322913,0.09895283,0.24100956,-0.8228018,-0.096370466,-0.6317733,0.78091717,-0.47285292,0.62224543,-0.11545743,0.75342506,-1.09168,-2.1407194,-0.7634504,1.7787958,1.8080891,-0.91707814,0.82090986,-1.0832313,-2.0890157,-0.8275981,1.8193462,1.7503642,-0.90734833,-1.4784667,-0.13996235,-1.143232,1.3940574,-0.67520475,0.44866386,-0.17740116,-0.23134422,-0.6456909,0.7327545,-1.4864304,0.5303924,0.01926159,-0.189991,-0.63272095,0.67484355,0.92078424,-0.001728472,0.23660643,0.31011423,-1.3517935,0.26414898,-0.10719535,0.0,1.0,0.0,0.0,0.0,0.0,0.0,-0.41865575,0.24569091,-0.18275452,0.44579506,-8.4876585,1.7008543,-0.12850761,-0.76527596,-0.52125454,1.6669691
-3.658081,24.120785,4.1799974,5.121127,0.9517655,-0.118291736,0.2552809,-0.8177131,-0.22814918,-0.6156871,0.7877303,-0.4325631,0.61203355,-0.14013681,0.73913854,-1.1060462,-2.1505845,-0.7488251,1.7760899,1.8115675,-0.92136204,0.8061882,-1.0856193,-2.1002874,-0.81362647,1.8127022,1.7548274,-0.90901154,-1.4700891,-0.27183205,-1.1210212,1.3984426,-0.66126806,0.4451576,-0.16272978,-0.24617767,-0.64037323,0.7323475,-1.4814562,0.53290176,-0.058974177,-0.20366478,-0.6301575,0.6732518,0.9237987,0.0017086079,0.24328427,0.29564452,-1.3699718,0.26515037,-0.17546248,0.0,1.0,0.0,0.0,0.0,0.0,0.0,-0.4038223,0.24037322,-0.18234748,0.8286476,-13.230806,2.477336,0.5152464,1.206696,-0.4776895,1.4395922
1.1698885,36.218185,8.157467,6.1004124,1.0442405,0.051775992,0.29174754,-0.803475,-0.24003515,-0.5685234,0.7863226,-0.4308553,0.63833845,-0.059624627,0.72584075,-1.1096228,-2.1571398,-0.73499423,1.7696166,1.8186612,-0.91497403,0.7916018,-1.0891556,-2.1111395,-0.79962236,1.8062245,1.7592791,-0.9104841,-1.4550892,-0.3809571,-1.0719032,1.4011632,-0.6443031,0.4443695,-0.14214647,-0.26087952,-0.63500214,0.73129594,-1.4653438,0.53879064,-0.11819983,-0.21743584,-0.6275253,0.6711202,0.92658967,0.005345519,0.24933791,0.28148448,-1.3765123,0.27452987,-0.22489205,0.0,1.0,0.0,0.0,0.0,0.0,0.0,-0.38912046,0.23500213,-0.18129593,1.431489,-10.986358,5.352831,0.29699802,1.3308048,-0.27501583,2.0308228
-1.8809781,19.80269,3.6387546,3.4071383,1.1210971,-0.13357651,0.32077625,-0.80862993,-0.37205958,-0.5549376,0.7751154,-0.32810733,0.6149297,-0.010792845,0.7107388,-1.1263615,-2.1666334,-0.7221108,1.7734138,1.820772,-0.91156334,0.777125,-1.0940841,-2.1214926,-0.7856401,1.8001899,1.7637099,-0.9117267,-1.4451349,-0.5302298,-1.0222231,1.3976388,-0.59031314,0.44211227,-0.118089594,-0.27551842,-0.6296158,0.72941,-1.463244,0.5384718,-0.20969008,-0.2313919,-0.6248398,0.6683156,0.92923236,0.009166365,0.25451717,0.26770166,-1.3988765,0.27623478,-0.29836354,0.0,1.0,0.0,0.0,0.0,0.0,0.0,-0.37448156,0.22961578,-0.17940998,1.0054827,-14.959216,5.1866293,-0.21781921,5.2320123,-0.3959298,2.4823084
-0.84516764,25.807104,5.842731,4.297088,1.6810083,0.0013907552,0.31190032,-0.8050952,-0.41550857,-0.49317577,0.75801593,-0.10958732,0.59897894,0.08665898,0.69661546,-1.135635,-2.1708102,-0.7098385,1.7892311,1.8236078,-0.9030608,0.76272833,-1.1004089,-2.1311655,-0.77178293,1.7953117,1.7681025,-0.91267246,-1.4379234,-0.6666328,-0.94797117,1.3821073,-0.4543347,0.43764928,-0.08627733,-0.29013824,-0.6242218,0.7266489,-1.4610796,0.53968775,-0.29561225,-0.24561119,-0.6220703,0.66489726,0.9318388,0.012973548,0.2584594,0.2543755,-1.4261013,0.28650534,-0.35609528,0.0,1.0,0.0,0.0,0.0,0.0,0.0,-0.35986173,0.2242218,-0.17664891,0.7082224,-13.689173,7.728231,-1.4265537,13.346166,-0.6791711,3.3254414
-5.371981,22.201735,4.613549,4.823139,2.35676,-0.013463497,0.24871789,-0.81661296,-0.4982451,-0.47803283,0.7320009,0.21914035,0.5334248,0.14951389,0.68106705,-1.1502334,-2.178969,-0.6985828,1.8172257,1.821445,-0.89772105,0.7483221,-1.1081203,-2.1401567,-0.7581931,1.7926872,1.7723998,-0.9132704,-1.4413593,-0.8060124,-0.8822615,1.3520216,-0.1991303,0.42612508,-0.05011567,-0.3047371,-0.6188278,0.7229429,-1.4596189,0.5391482,-0.39559588,-0.2602539,-0.6191864,0.6609077,0.9345836,0.016575418,0.2606703,0.24151544,-1.4736395,0.3013772,-0.41334903,0.0,1.0,0.0,0.0,0.0,0.0,0.0,-0.34526289,0.21882781,-0.17294288,-0.3169775,-13.985443,6.773436,-2.8181791,25.344927,-1.4527082,3.8812153
-2.2662954,28.546436,7.054024,4.8109517,2.6140578,0.16385674,0.22486277,-0.8154965,-0.5572904,-0.3811343,0.6973388,0.38286862,0.48870295,0.13870025,0.6667725,-1.1638494,-2.17827,-0.6884592,1.830974,1.8212701,-0.8994004,0.7338644,-1.1171345,-2.1482096,-0.7450343,1.7928569,1.7765521,-0.9135451,-1.4472121,-0.9335299,-0.7785734,1.3043449,0.08794662,0.41046673,-0.018868295,-0.31932068,-0.61344147,0.71823776,-1.4581597,0.53860915,-0.4954796,-0.2753334,-0.6160965,0.6564479,0.9375718,0.019728938,0.26088506,0.22914807,-1.5156146,0.3256325,-0.45742473,0.0,1.0,0.0,0.0,0.0,0.0,0.0,-0.3306793,0.21344146,-0.16823775,-0.590086,-12.809634,10.694754,-4.609132,28.416878,-1.8875003,3.4257586
4.925008,30.822323,8.786591,2.0449135,2.118814,0.33136058,0.3101672,-0.8156053,-0.6360365,-0.24816039,0.6422399,0.35175607,0.467548,0.11976525,0.6523039,-1.1807381,-2.1730256,-0.6808103,1.8280325,1.8233069,-0.90156853,0.71934855,-1.1274284,-2.1547747,-0.7325421,1.7953231,1.7805461,-0.9135594,-1.4531401,-1.0616605,-0.61441267,1.2311139,0.29820544,0.39478412,0.005273179,-0.33389282,-0.6080551,0.71253455,-1.4567019,0.5380707,-0.5952634,-0.2906704,-0.6127243,0.6515481,0.94077885,0.022281606,0.25919443,0.21738666,-1.5349934,0.35268602,-0.5018986,0.0,1.0,0.0,0.0,0.0,0.0,0.0,-0.31610715,0.20805511,-0.16253453,-0.6320715,-12.864267,16.865885,-7.213688,20.617502,-1.8157244,2.6842215
6.7677813,39.565956,9.113312,2.1509056,0.90422225,0.35472155,0.41205442,-0.8136395,-0.64025944,-0.29406455,0.606092,0.14012249,0.4223385,0.217195,0.6379846,-1.1914544,-2.1841812,-0.6719329,1.8093354,1.8227799,-0.89183986,0.7047955,-1.1386837,-2.1601732,-0.72084945,1.7986839,1.7843715,-0.9133032,-1.4562199,-1.147008,-0.5137501,1.1488026,0.34760404,0.37796348,0.03277669,-0.3484211,-0.6026077,0.70623374,-1.4506667,0.54793787,-0.6365572,-0.3059578,-0.60913086,0.6461611,0.9439961,0.024599524,0.2563781,0.20624356,-1.5227715,0.3755121,-0.5524944,0.0,1.0,0.0,0.0,0.0,0.0,0.0,-0.30157888,0.20260772,-0.15623373,-0.37207603,-8.609104,10.570181,-8.140492,4.448366,-1.8191516,2.8755703
2.2231355,48.841507,8.668395,5.687385,0.08986001,0.34577847,0.38037807,-0.8121645,-0.6506538,-0.34219602,0.6279122,-0.07735518,0.41832468,0.30618346,0.623579,-1.2037491,-2.1943927,-0.6580582,1.7909484,1.826204,-0.8826848,0.6902347,-1.1505073,-2.1651893,-0.7097035,1.8014113,1.7880433,-0.91273767,-1.456242,-1.194368,-0.4961002,1.1034911,0.24656688,0.36327714,0.064474314,-0.36287308,-0.59703064,0.699636,-1.4426597,0.56158054,-0.6664534,-0.32100868,-0.6053238,0.6402721,0.9469888,0.027221382,0.25343874,0.19555005,-1.494284,0.39520988,-0.6028959,0.0,1.0,0.0,0.0,0.0,0.0,0.0,-0.2871269,0.19703063,-0.14963597,-0.0569582,-4.8407555,2.180338,-4.4430256,-10.49628,-1.5592039,3.158623
-2.3040466,52.632362,7.7089343,8.311495,-0.13096201,0.24654925,0.3342786,-0.8066958,-0.67328405,-0.39063978,0.6343062,-0.10820756,0.37457904,0.42164922,0.60956514,-1.2178358,-2.2042532,-0.6462729,1.7905905,1.8255012,-0.87057275,0.67571026,-1.1626589,-2.170568,-0.6987667,1.802889,1.7915549,-0.91179544,-1.4513845,-1.2224203,-0.5505504,1.0907431,0.11362685,0.3467053,0.104002796,-0.37703323,-0.5913849,0.6926809,-1.406525,0.56621504,-0.70484567,-0.33577728,-0.60134125,0.6338843,0.9496477,0.030519107,0.25091997,0.18514003,-1.4666412,0.41197792,-0.6526744,0.0,1.0,0.0,0.0,0.0,0.0,0.0,-0.27296674,0.19138488,-0.14268088,0.44605732,-2.927661,-5.0824285,-1.1527538,-13.64519,-1.7859578,3.8979113
-8.181662,64.99784,9.312164,13.567131,0.39404407,0.3430308,0.20362008,-0.8129633,-0.6543765,-0.42348292,0.6485743,-0.07566844,0.35290527,0.4993277,0.59441394,-1.2280966,-2.2129164,-0.6339093,1.7953222,1.8268454,-0.86186266,0.6612058,-1.1748545,-2.176744,-0.6877498,1.8032719,1.7948983,-0.9104328,-1.4502614,-1.2190987,-0.6387341,1.1056817,0.011847038,0.32946375,0.14681172,-0.3908043,-0.5856781,0.68546593,-1.3667568,0.5734469,-0.7265257,-0.35033035,-0.5971298,0.62716067,0.9519657,0.034561984,0.24898982,0.1748448,-1.4465669,0.43709454,-0.6808821,0.0,1.0,0.0,0.0,0.0,0.0,0.0,-0.2591957,0.1856781,-0.13546592,0.0623703,0.17607212,-8.37282,1.6101837,-10.59975,-1.9298255,4.2075424
-6.518591,58.030693,7.8821,10.873754,0.57079804,0.19671232,0.24132106,-0.80577624,-0.68601555,-0.4904505,0.5908442,0.106803015,0.2939312,0.5138063,0.5806282,-1.2434561,-2.225789,-0.6286654,1.8139522,1.8242913,-0.8590522,0.6467367,-1.1870768,-2.1840184,-0.67679864,1.8034316,1.7980384,-0.90867054,-1.4459441,-1.2239397,-0.7558429,1.0920339,0.016177705,0.30803394,0.18589157,-0.4042549,-0.5799179,0.67790896,-1.3373598,0.5781326,-0.76474065,-0.364748,-0.5926895,0.62008,0.95403075,0.039314903,0.2473076,0.1646768,-1.4347923,0.45840138,-0.7190359,0.0,1.0,0.0,0.0,0.0,0.0,0.0,-0.24574506,0.1799179,-0.12790895,0.38149357,-0.62549114,-11.322891,-1.2616873,0.046254694,-2.3975909,3.8691938
-4.9961295,62.459843,9.283592,11.054444,0.93320525,0.25733948,0.23601775,-0.81023836,-0.6729993,-0.51140684,0.562514,0.18292302,0.20336357,0.5319687,0.56571287,-1.2543768,-2.2351592,-0.62054724,1.8217239,1.8183748,-0.8554737,0.6322837,-1.1992762,-2.1923494,-0.66614026,1.8040891,1.8009125,-0.90654844,-1.445412,-1.219127,-0.85731643,1.0572252,0.08077973,0.2794756,0.22095169,-0.4174118,-0.5741043,0.6700011,-1.3078235,0.5831071,-0.7987182,-0.37905884,-0.5880203,0.61269283,0.9559278,0.044629697,0.2455259,0.15468453,-1.4241332,0.48361206,-0.746839,0.0,1.0,0.0,0.0,0.0,0.0,0.0,-0.23258817,0.1741043,-0.12000108,-0.0269413,0.33881664,-9.66301,-3.4363747,5.984351,-3.146857,3.4694343
3.4451761,65.391426,11.3811035,8.657915,0.9210001,0.32732403,0.3072086,-0.7972834,-0.67456305,-0.49411982,0.5180828,0.20384283,0.1447759,0.52764744,0.5525553,-1.2667325,-2.2417614,-0.61433196,1.8244734,1.8153901,-0.8537837,0.61788416,-1.2114279,-2.2013211,-0.656027,1.8055035,1.80348,-0.9041212,-1.4385191,-1.214174,-0.90856725,0.9958648,0.16000502,0.2481628,0.2498824,-0.4302349,-0.5682602,0.6617961,-1.2730209,0.58619624,-0.8264367,-0.39317513,-0.5830841,0.6050808,0.9577053,0.050281785,0.24340846,0.14499833,-1.401465,0.5066256,-0.76734394,0.0,1.0,0.0,0.0,0.0,0.0,0.0,-0.21976507,0.16826019,-0.11179608,0.5587101,0.3720045,-4.5081496,-6.19117,7.3332253,-3.4214497,2.8440146
9.565613,62.36433,11.460207,5.3143926,0.62161213,0.25061256,0.41428956,-0.7953901,-0.68275195,-0.51134866,0.44554943,0.21720965,-0.038839433,0.5223388,0.53834516,-1.2797031,-2.252456,-0.6114721,1.8272245,1.7995961,-0.85188735,0.60355806,-1.2235739,-2.2106092,-0.64679146,1.8076475,1.8056273,-0.9014464,-1.43115,-1.2148567,-0.9335034,0.89904654,0.23062855,0.20276529,0.27306104,-0.44270515,-0.5624008,0.65328497,-1.2371435,0.58573544,-0.8577449,-0.40699196,-0.5779953,0.5972159,0.9593886,0.056215268,0.24079047,0.13576873,-1.3692752,0.52165943,-0.7939389,0.0,1.0,0.0,0.0,0.0,0.0,0.0,-0.20729482,0.16240081,-0.103284955,0.5923271,-0.16188622,-1.8755674,-9.784401,6.460467,-4.76841,2.240944
14.033655,65.85867,13.157559,5.2861733,0.8619023,0.22844613,0.38225383,-0.7810362,-0.6849472,-0.47445938,0.42745745,0.29251966,-0.2166413,0.53560656,0.52545446,-1.2920686,-2.2580552,-0.6040457,1.8368994,1.7839632,-0.8478857,0.58935785,-1.2357466,-2.2198024,-0.6384686,1.8105683,1.8072219,-0.89856267,-1.4168398,-1.2184398,-0.91280264,0.80951536,0.31056723,0.14412391,0.2933158,-0.45479584,-0.5565567,0.6445205,-1.198754,0.5837228,-0.88153857,-0.42048073,-0.5727768,0.58917046,0.9610279,0.062267233,0.23750964,0.12703206,-1.3352402,0.53431755,-0.8093642,0.0,1.0,0.0,0.0,0.0,0.0,0.0,-0.19520414,0.1565567,-0.09452051,1.2699842,-0.4370451,2.7369142,-9.093833,7.3682127,-6.0899587,1.9578159
9.817964,70.77873,13.636555,8.39032,1.1601853,0.26951444,0.27588266,-0.7897018,-0.6779462,-0.46047336,0.41428223,0.27706343,-0.36689514,0.54215574,0.51038766,-1.3035412,-2.2658498,-0.5970404,1.8382747,1.7705324,-0.8443471,0.57524157,-1.247925,-2.2286444,-0.6308723,1.8140917,1.8081605,-0.89549774,-1.4103706,-1.2179223,-0.87253016,0.7426259,0.36413795,0.0762632,0.31075516,-0.4664955,-0.5507431,0.63557863,-1.1595325,0.581919,-0.8972773,-0.43366623,-0.5673981,0.58104897,0.9626408,0.06835696,0.23359041,0.118682474,-1.3067676,0.5506481,-0.81430095,0.0,1.0,0.0,0.0,0.0,0.0,0.0,-0.18350446,0.1507431,-0.08557862,0.49989223,-0.033783913,4.700017,-6.802094,4.7334013,-7.032694,1.6862333
13.231995,76.22884,15.1216955,8.925855,1.1545237,0.3361848,0.26321828,-0.7740983,-0.66808665,-0.41396657,0.37401807,0.26203787,-0.43269396,0.5443377,0.49783173,-1.3147337,-2.270041,-0.5934705,1.8402954,1.7648911,-0.841064,0.5612292,-1.2600462,-2.2368917,-0.623897,1.8179498,1.8084316,-0.8922798,-1.3986919,-1.2102274,-0.80675334,0.6819794,0.39114073,0.010024408,0.32528955,-0.4777584,-0.54496,0.6265652,-1.1145138,0.5778087,-0.9018838,-0.44651413,-0.56186676,0.57295036,0.96421677,0.074398614,0.22912538,0.1106903,-1.2711719,0.56491935,-0.809495,0.0,1.0,0.0,0.0,0.0,0.0,0.0,-0.17224157,0.14496002,-0.076565206,1.0059834,0.69315434,7.2816133,-6.2161446,2.0692527,-6.847529,1.370424
13.753371,72.60539,13.915773,7.3492084,0.8641793,0.2894699,0.32761124,-0.77534133,-0.6660268,-0.4279106,0.29491326,0.28980836,-0.5050346,0.55402005,0.4836951,-1.326649,-2.2796829,-0.5944057,1.8469306,1.7579281,-0.8368778,0.5473075,-1.2720777,-2.2446465,-0.6177057,1.8220361,1.8080571,-0.8889279,-1.3905079,-1.2009188,-0.76278865,0.5976872,0.41260713,-0.05397744,0.3382165,-0.48858643,-0.539238,0.6174561,-1.071701,0.5713198,-0.9131041,-0.45898628,-0.55622864,0.56482315,0.965739,0.08046028,0.2241525,0.10310072,-1.2332596,0.5742133,-0.8149856,0.0,1.0,0.0,0.0,0.0,0.0,0.0,-0.16141355,0.13923797,-0.06745607,0.6788492,0.86774826,4.9945116,-8.559012,1.5947163,-6.584255,1.2045383
17.743101,69.87645,13.082741,4.2690287,0.25954953,0.2581023,0.48072854,-0.77342105,-0.64547217,-0.4396984,0.18219551,0.26125368,-0.5596237,0.55118275,0.4699654,-1.3366249,-2.2886164,-0.5994862,1.8481615,1.7520947,-0.8338096,0.5334487,-1.2839338,-2.252173,-0.6127227,1.8261863,1.807075,-0.8854653,-1.3846511,-1.1805481,-0.74802476,0.4646767,0.41434804,-0.11342259,0.34858665,-0.49897385,-0.53359985,0.6082049,-1.0272124,0.560811,-0.9288881,-0.47099113,-0.55055237,0.55654794,0.96716475,0.08672116,0.2187337,0.09605925,-1.183485,0.574307,-0.8330515,0.0,1.0,0.0,0.0,0.0,0.0,0.0,-0.15102613,0.13359985,-0.05820489,0.45764446,1.996398,1.9651532,-13.443023,-0.2966225,-6.082915,0.9360075
15.36681,77.61513,15.045083,8.294787,1.0515703,0.42078328,0.30054286,-0.76563823,-0.64299154,-0.3331169,0.21061829,0.33637038,-0.5515812,0.5592834,0.45688486,-1.3482329,-2.2854846,-0.59166086,1.8598233,1.7519169,-0.829537,0.5196633,-1.2955972,-2.2591882,-0.60873246,1.830535,1.8055722,-0.8819071,-1.3770097,-1.1617465,-0.68446106,0.3767527,0.44032094,-0.16333674,0.35808578,-0.50891685,-0.5280609,0.59889257,-0.98295,0.5517006,-0.9319392,-0.48257637,-0.54481506,0.54825896,0.9685367,0.09292782,0.21282402,0.08948135,-1.1441053,0.58379704,-0.8288904,0.0,1.0,0.0,0.0,0.0,0.0,0.0,-0.14108312,0.1280609,-0.048892558,0.644207,1.8425941,6.829822,-8.927214,2.18606,-5.1651,0.8853793
20.717836,79.11689,16.12265,6.586235,1.0160242,0.4866524,0.3771331,-0.7609247,-0.6230908,-0.28046525,0.09224173,0.3840909,-0.58338207,0.57061565,0.4435708,-1.3579062,-2.2872348,-0.5995083,1.8689442,1.747234,-0.82484555,0.5059599,-1.3070241,-2.2653873,-0.60586,1.835281,1.8036122,-0.87825626,-1.3685554,-1.1364167,-0.59706366,0.25690657,0.48488167,-0.20733488,0.36725444,-0.5184021,-0.5226364,0.58958024,-0.93679786,0.5398544,-0.9316306,-0.49370956,-0.53900146,0.54003525,0.96990293,0.09885081,0.20629425,0.083422445,-1.0979927,0.5896617,-0.82158226,0.0,1.0,0.0,0.0,0.0,0.0,0.0,-0.13159788,0.12263641,-0.039580226,0.7321358,2.51894,9.12546,-12.140905,4.1306853,-4.538667,0.86553097
25.275509,97.154686,20.927298,10.506081,1.6400793,0.7724027,0.28377053,-0.7480509,-0.5738509,-0.12473992,0.0678565,0.383893,-0.5748912,0.57828254,0.43115485,-1.3644092,-2.2778614,-0.59907436,1.8736703,1.7461231,-0.820428,0.4923811,-1.3180162,-2.270129,-0.60404617,1.8404542,1.8012799,-0.87451875,-1.3546904,-1.0868627,-0.4320536,0.15542772,0.5273268,-0.24217552,0.37576765,-0.52734566,-0.5173645,0.5805157,-0.87974834,0.52454317,-0.8986976,-0.5043392,-0.53310394,0.5321726,0.9713091,0.10408592,0.19914204,0.07789088,-1.0456338,0.59972256,-0.77598673,0.0,1.0,0.0,0.0,0.0,0.0,0.0,-0.12265432,0.117364496,-0.03051567,1.2619495,4.9637794,16.84777,-10.375529,4.0144205,-3.4815133,0.7419944
34.574123,89.73112,21.148172,4.886075,1.3726498,0.771296,0.4726323,-0.7468375,-0.5804386,0.0072618164,-0.099171884,0.47761172,-0.58174866,0.5821044,0.41769734,-1.37606,-2.2694027,-0.61396337,1.8882154,1.743105,-0.8163083,0.4789276,-1.3286058,-2.2728262,-0.6037334,1.8462571,1.7986467,-0.8707002,-1.3425069,-1.0494576,-0.2151988,-0.010665338,0.59775585,-0.2703267,0.38382086,-0.5357342,-0.51226807,0.57171965,-0.8248378,0.50600207,-0.87430865,-0.5143757,-0.52713776,0.52468616,0.97283185,0.10832557,0.19110624,0.073089354,-0.98496735,0.60054,-0.7409266,0.0,1.0,0.0,0.0,0.0,0.0,0.0,-0.1142658,0.11226806,-0.021719635,1.1388779,3.7721872,21.795235,-16.786266,7.03218,-2.8160214,0.79545975
38.73541,115.021355,28.141815,10.868752,2.5850208,1.1995463,0.3321064,-0.74382126,-0.5051564,0.3035029,-0.13637656,0.5832547,-0.5656603,0.5949843,0.4045455,-1.3791214,-2.242476,-0.6173711,1.9045825,1.7420807,-0.81120175,0.46558046,-1.3385812,-2.272377,-0.60498285,1.8530308,1.7957927,-0.86679924,-1.3322288,-0.9799621,0.13090664,-0.16359466,0.70488864,-0.28982985,0.3921732,-0.54348373,-0.5073776,0.56351566,-0.75839055,0.48406827,-0.803992,-0.523798,-0.5211029,0.5179808,0.9745872,0.11087739,0.18198638,0.06904175,-0.9232567,0.6123812,-0.6485369,0.0,1.0,0.0,0.0,0.0,0.0,0.0,-0.10651624,0.10737762,-0.013515651,0.9987831,7.0106983,34.424225,-15.474876,11.066711,-1.7116606,0.8010745
30.344282,128.92891,29.211103,17.384731,2.9711826,1.29001,0.16390428,-0.7444312,-0.4250487,0.32470918,-0.1701685,0.6446234,-0.53544736,0.5993008,0.39113733,-1.3810861,-2.239906,-0.6219997,1.9174931,1.7422479,-0.80686915,0.45230532,-1.3475896,-2.268929,-0.60752076,1.8609499,1.7928025,-0.8628176,-1.3257058,-0.87440485,0.41438794,-0.28401458,0.8230853,-0.30099168,0.4001538,-0.55055046,-0.5027237,0.5561766,-0.6905423,0.4604639,-0.7124548,-0.53266335,-0.5148926,0.51235414,0.9765554,0.111600004,0.17201194,0.06554987,-0.87076354,0.63086396,-0.5356521,0.0,1.0,0.0,0.0,0.0,0.0,0.0,-0.099449515,0.10272369,-0.006176591,0.7217407,10.625148,27.816069,-12.090978,12.533522,-0.7811725,0.8171499
22.757763,144.3394,29.456495,23.236631,2.6803122,1.2805839,0.06851154,-0.7345265,-0.29619506,0.26778913,-0.22829957,0.6583694,-0.5005544,0.58839804,0.37885267,-1.3772091,-2.24215,-0.6303507,1.9267868,1.7427471,-0.8039778,0.4391179,-1.3550988,-2.2637608,-0.6111211,1.8699114,1.7897568,-0.8587716,-1.3159553,-0.709582,0.5485089,-0.3851404,0.92369205,-0.30436605,0.40631774,-0.55690384,-0.4983368,0.5499222,-0.6183446,0.4321149,-0.59879035,-0.5409889,-0.50849915,0.5079467,0.9785825,0.1109386,0.16178204,0.062413465,-0.8169871,0.64711237,-0.41044524,0.0,1.0,0.0,0.0,0.0,0.0,0.0,-0.09309614,0.098336786,7.778406e-05,1.1173964,16.574753,12.61428,-10.044611,11.066473,0.091695786,0.67860484
18.84714,145.22961,28.801226,24.707464,2.4787595,1.2582743,0.028820492,-0.7316581,-0.23424661,0.3734305,-0.27131575,0.672856,-0.44328502,0.57411045,0.3659521,-1.3785235,-2.2264178,-0.6382527,1.937197,1.7454283,-0.8013606,0.4260246,-1.3609239,-2.2575545,-0.6155923,1.8796868,1.7867357,-0.85468125,-1.306488,-0.539711,0.641997,-0.4672744,0.999076,-0.29995686,0.41023305,-0.5625572,-0.4942398,0.54483837,-0.5490862,0.4025923,-0.4812647,-0.5488014,-0.50193787,0.5047741,0.98057616,0.10918766,0.15167221,0.059530523,-0.7659689,0.6619473,-0.2871991,0.0,1.0,0.0,0.0,0.0,0.0,0.0,-0.087442756,0.0942398,0.005161643,1.1325836,17.096138,8.394611,-8.070964,8.714331,0.88840127,0.49937963
