Afshin1997/kuka_rl_ros2/src/catch_and_throw/input_files/idealpd/polynomial_regressor/optimizer_files/env_467_data.csv
torque0,torque1,torque2,torque3,torque4,torque5,torque6,action0,action1,action2,action3,action4,action5,action6,set_target_0,set_target_1,set_target_2,set_target_3,set_target_4,set_target_5,set_target_6,joint_pos_0,joint_pos_1,joint_pos_2,joint_pos_3,joint_pos_4,joint_pos_5,joint_pos_6,joint_vel_0,joint_vel_1,joint_vel_2,joint_vel_3,joint_vel_4,joint_vel_5,joint_vel_6,tennisball_pos_0,tennisball_pos_1,tennisball_pos_2,tennisball_lin_vel_0,tennisball_lin_vel_1,tennisball_lin_vel_2,end_effector_pos_0,end_effector_pos_1,end_effector_pos_2,end_effector_rot_0,end_effector_rot_1,end_effector_rot_2,end_effector_rot_3,end_effector_lin_vel_0,end_effector_lin_vel_1,end_effector_lin_vel_2,obs_task_0,obs_task_1,obs_task_2,obs_task_3,obs_task_4,obs_task_5,obs_task_6,to_final_target_0,to_final_target_1,to_final_target_2,joint_acc_0,joint_acc_1,joint_acc_2,joint_acc_3,joint_acc_4,joint_acc_5,joint_acc_6
0.0,0.0,0.0,0.0,0.0,0.0,0.0,0.0,0.0,0.0,0.0,0.0,0.0,0.0,1.7802359,-1.0646509,-1.8151424,-1.1170107,1.9373155,1.1170107,-0.91629785,1.7802359,-1.0646509,-1.8151424,-1.1170107,1.9373155,1.1170107,-0.91629785,0.0,0.0,0.0,0.0,0.0,0.0,0.0,3.11557,-0.54314804,0.17425987,-3.0504138,0.050951574,5.4942155,0.5304184,-0.45449448,0.693097,0.5745483,0.17512383,0.15255436,0.7848268,0.0,0.0,0.0,1.0,0.0,0.0,0.0,0.0,0.0,0.0,-3.7655702,0.14314803,0.37574014,0.0,0.0,0.0,0.0,0.0,0.0,0.0
0.0,0.0,0.0,0.0,0.0,0.0,0.0,0.0,0.0,0.0,0.0,0.0,0.0,0.0,1.7802359,-1.0646509,-1.8151424,-1.1170107,1.9373155,1.1170107,-0.91629785,1.7802359,-1.0646509,-1.8151424,-1.1170107,1.9373155,1.1170107,-0.91629785,0.0,0.0,0.0,0.0,0.0,0.0,0.0,3.11557,-0.54314804,0.17425987,-3.0504138,0.050951574,5.4942155,0.5304184,-0.45449448,0.693097,0.5745483,0.17512383,0.15255436,0.7848268,0.0,0.0,0.0,1.0,0.0,0.0,0.0,0.0,0.0,0.0,-3.7655702,0.14314803,0.37574014,0.0,0.0,0.0,0.0,0.0,0.0,0.0
0.0,0.0,0.0,0.0,0.0,0.0,0.0,0.0,0.0,0.0,0.0,0.0,0.0,0.0,1.7802359,-1.0646509,-1.8151424,-1.1170107,1.9373155,1.1170107,-0.91629785,1.7802359,-1.0646509,-1.8151424,-1.1170107,1.9373155,1.1170107,-0.91629785,0.0,0.0,0.0,0.0,0.0,0.0,0.0,3.11557,-0.54314804,0.17425987,-3.0504138,0.050951574,5.4942155,0.5304184,-0.45449448,0.693097,0.5745483,0.17512383,0.15255436,0.7848268,0.0,0.0,0.0,1.0,0.0,0.0,0.0,0.0,0.0,0.0,-3.7655702,0.14314803,0.37574014,0.0,0.0,0.0,0.0,0.0,0.0,0.0
-176.0,52.479202,-12.269388,110.0,11.3752165,4.254795,-3.6724107,-0.81257457,0.2656077,-0.5401538,0.73418874,0.3707191,0.65915847,-0.6062746,1.6989784,-1.0380901,-1.8691578,-1.0435919,1.9743874,1.1829265,-0.9769253,1.7790743,-1.0627092,-1.8212078,-1.11188,1.9417214,1.1221815,-0.91718477,-0.15435867,0.2583248,-0.80830365,0.6844405,0.58653283,0.68765354,-0.1177594,3.0850906,-0.5426369,0.22842437,-3.0473642,0.05090063,5.3905363,0.52838135,-0.457798,0.6936962,0.57818604,0.17373954,0.15125597,0.7827113,-0.27015093,-0.44039527,0.07964183,1.0,0.0,0.0,0.0,0.0,0.0,0.0,-3.7350907,0.14263687,0.32157564,-15.341212,25.63605,-80.70662,68.56656,58.43947,68.26031,-11.621624
-176.0,-32.871513,-45.616055,110.0,13.1236,1.482474,-3.0747,-0.7965711,-0.17601733,-0.53330934,0.6968943,0.49557793,0.64222324,-0.5957296,1.6994172,-1.080311,-1.8745387,-1.0421906,1.9912792,1.1864039,-0.9767577,1.7777754,-1.060409,-1.8362739,-1.0974451,1.9512677,1.1353747,-0.9172248,-0.12474633,0.20882641,-1.7104236,1.6969589,1.0619671,1.4961507,0.027099706,3.0546417,-0.5421257,0.28155285,-3.0443175,0.05084974,5.2869606,0.5238342,-0.46632385,0.69426596,0.5862457,0.17042229,0.1475674,0.7781362,-0.5203257,-0.9869118,0.05285084,1.0,0.0,0.0,0.0,0.0,0.0,0.0,-3.7046418,0.1421257,0.26844716,2.0529344,-8.533749,-81.52182,101.39234,42.926968,70.75543,12.445097
-161.34264,106.39271,28.380196,94.06835,9.072173,7.9475803,-1.8308126,-0.77680683,0.2480759,0.053835724,0.6381943,0.5256684,0.6810017,-0.5652184,1.7000947,-1.0356014,-1.8308903,-1.0336257,2.0038345,1.2034749,-0.97374666,1.773192,-1.0577158,-1.8514335,-1.0788084,1.96246,1.1501986,-0.91729444,-0.5695354,0.28593916,-1.4446347,1.9206002,1.1327767,1.4707853,-0.019431598,3.0242233,-0.54161453,0.33364636,-3.0412736,0.0507989,5.1834884,0.516304,-0.47782898,0.69636136,0.59714055,0.16565444,0.14227024,0.77184254,-0.8351385,-1.1988682,0.26555675,1.0,0.0,0.0,0.0,0.0,0.0,0.0,-3.6742234,0.14161453,0.21635365,-44.46926,6.718123,28.547478,22.8055,5.485177,-4.616165,-4.9889116
-105.40722,94.11708,35.315422,56.83555,5.8439837,7.6058044,-0.21609417,-0.77862024,0.0053778123,0.18361843,0.6343553,0.5348686,0.65861255,-0.5930033,1.69533,-1.057178,-1.8330717,-1.0153729,2.0159469,1.2160598,-0.97659475,1.764176,-1.055467,-1.8609531,-1.0604063,1.9733014,1.1639563,-0.91794103,-1.0132377,0.20238769,-0.7803516,1.8142513,1.0623426,1.3403628,-0.08111132,2.9938354,-0.54110336,0.38470593,-3.038233,0.050748114,5.0801196,0.50616455,-0.49031448,0.7001683,0.60894656,0.15974985,0.1354421,0.7650618,-1.0863603,-1.2534944,0.42332008,1.0,0.0,0.0,0.0,0.0,0.0,0.0,-3.6438355,0.14110336,0.16529408,-44.619476,-8.9919,68.63405,-10.387564,-8.73661,-14.17017,-6.582755
-44.807037,119.81904,50.00247,30.911215,2.6106281,7.33928,0.5508325,-0.79052293,0.12531015,0.26937053,0.63603073,0.60779935,0.65725625,-0.5849587,1.6851237,-1.042936,-1.8340161,-0.9968033,2.0340815,1.229682,-0.9764369,1.7515227,-1.0535864,-1.8634174,-1.0441786,1.9833341,1.1762701,-0.9192056,-1.350362,0.18153356,-0.062040046,1.5585161,0.9792172,1.1935639,-0.14365143,2.963478,-0.5405998,0.4347326,-3.0351954,0.050697375,4.9768543,0.49410248,-0.5023155,0.7055718,0.620423,0.152748,0.12728526,0.7586446,-1.25762,-1.1703417,0.5808489,1.0,0.0,0.0,0.0,0.0,0.0,0.0,-3.6134782,0.14059982,0.115267426,-34.05652,-2.575204,73.75916,-25.663471,-9.579086,-15.148902,-6.884591
-3.9044042,119.112526,48.06096,13.815262,0.29278955,5.414291,0.61058354,-0.7981636,0.1964035,0.23744251,0.6343858,0.6240988,0.64472,-0.59562427,1.6717063,-1.033946,-1.8396732,-0.98074,2.045744,1.2407421,-0.97876805,1.736632,-1.0514578,-1.8603637,-1.030459,1.9926877,1.187245,-0.9210405,-1.5363053,0.22213596,0.43174225,1.3092575,0.9186078,1.0652747,-0.19869934,2.9331512,-0.5400963,0.48372737,-3.0321608,0.05064669,4.8736925,0.48097992,-0.5131302,0.71221834,0.6311449,0.14491293,0.11846649,0.75274295,-1.3430848,-1.0382332,0.6913597,1.0,0.0,0.0,0.0,0.0,0.0,0.0,-3.5831513,0.14009628,0.066272646,-18.85829,3.7153125,50.595314,-25.087666,-6.7071795,-12.813997,-6.084114
20.849766,139.85365,50.941277,8.329102,-1.5308177,4.3691607,0.19945495,-0.81099594,0.40695086,0.16436853,0.6091077,0.6146844,0.65819,-0.58646894,1.6555324,-1.0107627,-1.8439269,-0.9695483,2.054156,1.253064,-0.9796874,1.7207762,-1.0478395,-1.8545902,-1.0187765,2.0015988,1.1971079,-0.92335504,-1.6028725,0.40752965,0.6286978,1.1208081,0.8810381,0.9607953,-0.24434607,2.902855,-0.53959274,0.5316913,-3.0291293,0.05059605,4.7706337,0.4674301,-0.5223541,0.7199762,0.6412537,0.1364412,0.11004159,0.7470397,-1.3693398,-0.871546,0.80126506,1.0,0.0,0.0,0.0,0.0,0.0,0.0,-3.552855,0.13959274,0.0183087,-6.912327,18.224651,20.495033,-18.957233,-3.9860368,-10.208273,-5.1545234
29.203432,140.47527,46.977512,6.7633443,-2.264082,3.2190518,-0.1556637,-0.82089865,0.5194009,0.11547557,0.5834813,0.62142795,0.633146,-0.5955815,1.6386863,-0.99589944,-1.8430426,-0.9604284,2.0637417,1.2604225,-0.9829132,1.7047964,-1.041902,-1.8485363,-1.0084368,2.0103078,1.2060496,-0.92606825,-1.5971786,0.65513754,0.59927994,1.004741,0.86716217,0.87286484,-0.2819275,2.872589,-0.5390892,0.5786254,-3.0261006,0.050545465,4.667678,0.45388794,-0.52996445,0.72870046,0.65104216,0.1275566,0.102791905,0.7411526,-1.3594508,-0.7107422,0.8931285,1.0,0.0,0.0,0.0,0.0,0.0,0.0,-3.5225892,0.1390892,-0.02862537,0.32799244,24.50713,-2.4099827,-11.657977,-1.4213562,-8.5221405,-4.24484
30.747055,130.615,41.629246,5.9432316,-2.3180535,2.4057353,-0.26747155,-0.82393277,0.5904641,0.11420828,0.54670006,0.6314753,0.6420033,-0.58673316,1.6224031,-0.98285556,-1.8371154,-0.9537668,2.0734553,1.2702498,-0.98474157,1.6891142,-1.033542,-1.8435028,-0.99889624,2.0190053,1.2142321,-0.92909616,-1.5594056,0.89556235,0.47271702,0.9368444,0.87025964,0.80074185,-0.31099516,2.8423538,-0.53858566,0.6245307,-3.0230753,0.05049493,4.564825,0.44054413,-0.5360985,0.7381862,0.6606843,0.118457556,0.09696397,0.7348891,-1.3331082,-0.5677353,0.9640703,1.0,0.0,0.0,0.0,0.0,0.0,0.0,-3.492354,0.13858566,-0.07453066,3.5556555,23.843515,-12.241596,-6.854379,0.32727718,-7.005656,-3.301102
27.00709,114.524704,35.34622,6.231993,-1.9134808,1.8138192,-0.27308264,-0.82001287,0.644925,0.09765011,0.529585,0.6375234,0.644314,-0.58038974,1.6071129,-0.9690495,-1.8337377,-0.94593775,2.0827577,1.2786635,-0.9871351,1.6738611,-1.0231279,-1.8398902,-0.9897648,2.0277944,1.2217871,-0.9323644,-1.5145516,1.0893064,0.32537574,0.9047629,0.88163763,0.74080503,-0.33322495,2.812149,-0.5380821,0.66940826,-3.020053,0.050444447,4.462075,0.42746735,-0.541008,0.74821,0.6702536,0.10928403,0.092435755,0.7281983,-1.3046234,-0.45143652,1.0124085,1.0,0.0,0.0,0.0,0.0,0.0,0.0,-3.4621491,0.13808212,-0.11940825,4.2932034,19.222128,-14.3833275,-3.3208966,1.1699796,-5.8810234,-2.5551498
22.681547,97.80572,29.911652,6.477992,-1.364564,1.438137,-0.18944699,-0.8092335,0.6801914,0.0894372,0.519706,0.64577085,0.6505276,-0.58001906,1.5929378,-0.95510876,-1.8309466,-0.9377942,2.0923715,1.2868398,-0.99036634,1.6590296,-1.011247,-1.8375232,-0.9807936,2.0367208,1.2288252,-0.9358205,-1.4730949,1.2206877,0.2083467,0.8939764,0.8966564,0.6915235,-0.35069993,2.7819748,-0.5375786,0.7132591,-3.0170333,0.050394014,4.3594275,0.41461945,-0.5449524,0.7585678,0.67974204,0.100111164,0.08888569,0.72112954,-1.280425,-0.3599022,1.0412117,1.0,0.0,0.0,0.0,0.0,0.0,0.0,-3.431975,0.13757858,-0.16325909,3.9816856,13.024545,-11.381424,-1.2410998,1.5318394,-4.874754,-2.0491183
16.929087,82.35793,24.891321,7.17717,-0.80858684,1.1692767,-0.115438595,-0.80397666,0.7030417,0.06875218,0.5151587,0.6480015,0.65234315,-0.57285374,1.5786319,-0.9409429,-1.830648,-0.9292777,2.101521,1.2940595,-0.9931059,1.6445261,-0.99848306,-1.8360507,-0.9718462,2.0457883,1.2354342,-0.9394197,-1.4431655,1.2947518,0.12793575,0.89431417,0.91008157,0.65093595,-0.3639121,2.751831,-0.53707504,0.7560842,-3.014017,0.05034363,4.2568827,0.4019699,-0.5481491,0.7690775,0.68911934,0.090987094,0.085975386,0.7137536,-1.2640609,-0.29125237,1.0520921,1.0,0.0,0.0,0.0,0.0,0.0,0.0,-3.4018312,0.13707504,-0.20608419,2.850008,7.3233128,-7.740217,-0.16357899,1.3771296,-4.0326953,-1.6050696
12.167624,69.92254,20.769337,7.412714,-0.39610195,0.9502632,-0.04473037,-0.80210143,0.7159319,0.04461445,0.5020191,0.66127384,0.6556429,-0.57181215,1.564316,-0.9268899,-1.8315893,-0.92164433,2.1119156,1.3009984,-0.9966009,1.630221,-0.9853014,-1.8351696,-0.962917,2.054997,1.241696,-0.9431295,-1.4267217,1.3257701,0.07593868,0.8917784,0.92502385,0.61796206,-0.37425795,2.7217178,-0.5365715,0.79788464,-3.0110037,0.050293297,4.1544404,0.38942719,-0.5507889,0.77957517,0.69834787,0.081960484,0.083440825,0.7061376,-1.2539734,-0.23965025,1.0469321,1.0,0.0,0.0,0.0,0.0,0.0,0.0,-3.371718,0.1365715,-0.24788463,1.5111446,3.0426264,-4.9092875,-0.4775405,1.5324354,-3.2667756,-1.3053894
11.914204,64.01695,19.147285,6.279528,-0.31077006,0.8471571,0.062465318,-0.79747415,0.72774976,0.041034117,0.47123444,0.6692948,0.6627967,-0.5691517,1.5504736,-0.91252637,-1.8310661,-0.91579354,2.1219265,1.3079756,-1.0000447,1.6160151,-0.9719852,-1.8345878,-0.95415175,2.0643544,1.2476794,-0.94692606,-1.4189211,1.3333966,0.053276207,0.8706316,0.93915886,0.5920177,-0.38238832,2.6916351,-0.53606796,0.83866143,-3.0079932,0.050243013,4.0521007,0.37696075,-0.55294037,0.78995436,0.7073493,0.07305813,0.08110473,0.69838494,-1.2436224,-0.19131364,1.0328588,1.0,0.0,0.0,0.0,0.0,0.0,0.0,-3.3416352,0.13606796,-0.28866142,0.6416321,0.71668625,-1.9503243,-2.3590565,1.4443874,-2.5335908,-1.0890126
13.681125,63.841602,19.707304,5.3516097,-0.32894072,0.9000541,0.17510614,-0.79522395,0.7355751,0.06654679,0.44188684,0.6757451,0.6647902,-0.5706123,1.5364927,-0.8984277,-1.8279332,-0.9099631,2.131929,1.3141583,-1.0039873,1.6018454,-0.95866525,-1.8339546,-0.9457308,2.0738378,1.2534434,-0.95079416,-1.4167576,1.3313195,0.06773996,0.8317557,0.95174146,0.5713177,-0.38924614,2.661583,-0.5355644,0.87841564,-3.0049858,0.05019278,3.9498632,0.36463165,-0.55457306,0.8001975,0.7160263,0.064245075,0.07884911,0.6906241,-1.2317128,-0.13868704,1.019328,1.0,0.0,0.0,0.0,0.0,0.0,0.0,-3.311583,0.13556442,-0.32841563,0.06787777,-0.2509594,1.810547,-4.1341186,1.2708664,-1.991117,-0.9735346
18.969341,65.50374,20.808756,2.3609934,-0.6537056,0.86776865,0.33464986,-0.7946883,0.74458957,0.09323211,0.37016073,0.6853793,0.66057557,-0.5611119,1.5223765,-0.8842063,-1.8246313,-0.9087147,2.1423757,1.3195009,-1.0069053,1.5876738,-0.9453596,-1.8329723,-0.9379927,2.0834432,1.2590281,-0.95471567,-1.4179025,1.3302412,0.10982614,0.75368685,0.963934,0.55479705,-0.39409152,2.6315613,-0.5350609,0.91714823,-3.0019815,0.050142597,3.8477283,0.3524704,-0.55558395,0.81028664,0.72424066,0.05551663,0.0766272,0.68302387,-1.2091417,-0.074145816,1.0033067,1.0,0.0,0.0,0.0,0.0,0.0,0.0,-3.2815614,0.13506088,-0.36714822,-0.280118,-0.14395714,4.619059,-8.064138,1.2242079,-1.5033007,-0.7851362
20.432873,65.67682,20.540478,1.768559,-0.79488844,0.7383166,0.34070835,-0.7886584,0.75374556,0.081050545,0.34330097,0.6858865,0.6630532,-0.5483999,1.5088079,-0.86998504,-1.8248672,-0.9036626,2.152032,1.3253334,-1.0095557,1.5735098,-0.9320215,-1.831641,-0.93106997,2.0931478,1.2644755,-0.9586677,-1.416462,1.3348633,0.14212438,0.670978,0.9730199,0.54193056,-0.39652374,2.6015701,-0.53455734,0.9548602,-2.99898,0.050092466,3.7456954,0.3406067,-0.55594635,0.82020384,0.7319557,0.046881814,0.07448079,0.67564446,-1.1803372,-0.009040079,0.98534554,1.0,0.0,0.0,0.0,0.0,0.0,0.0,-3.2515702,0.13455734,-0.4048602,-0.013136864,0.4371643,3.603384,-8.51872,0.9354472,-1.1047006,-0.5253136
20.250729,62.47399,18.60456,1.0742412,-0.93703204,0.449135,0.29668373,-0.78706664,0.76067585,0.046029158,0.29579225,0.6877899,0.6722514,-0.53909624,1.4948032,-0.85595393,-1.827038,-0.90149075,2.1619267,1.3317006,-1.0125773,1.5593687,-0.91860044,-1.8302467,-0.92501795,2.1029248,1.2698218,-0.9626302,-1.4138511,1.3445034,0.13964552,0.58245283,0.9797332,0.532918,-0.39698073,2.5716095,-0.5340538,0.9915526,-2.9959817,0.050042383,3.6437645,0.32906342,-0.55569077,0.82987654,0.7392082,0.03841516,0.07252544,0.6684576,-1.1445372,0.05076284,0.9584175,1.0,0.0,0.0,0.0,0.0,0.0,0.0,-3.2216096,0.1340538,-0.44155258,0.11458397,0.9575844,0.058597326,-9.103012,0.72683096,-0.6772995,-0.29340982
26.008966,62.23073,18.754633,-2.6854167,-1.3612201,0.23013437,0.42981428,-0.785584,0.76643455,0.077896655,0.18397035,0.6927694,0.6680694,-0.5336314,1.4808103,-0.841957,-1.8224571,-0.9066209,2.1722019,1.3366287,-1.0159934,1.5452582,-0.905064,-1.8288181,-0.92016184,2.1127667,1.2750937,-0.96658987,-1.4106045,1.3567859,0.14484169,0.4525016,0.9857305,0.5262972,-0.39641678,2.5416794,-0.53355026,1.0272266,-2.9929864,0.04999235,3.5419357,0.31798553,-0.55477905,0.8392234,0.7459222,0.030203115,0.070827745,0.6615672,-1.0925605,0.11823906,0.9238285,1.0,0.0,0.0,0.0,0.0,0.0,0.0,-3.1916795,0.13355026,-0.47722656,0.17578602,1.2397289,0.8232951,-13.253582,0.66189766,-0.3499508,-0.1821816
30.532429,62.637352,19.118027,-5.3569374,-1.6729884,0.057097346,0.5329412,-0.7831807,0.77566946,0.09864314,0.08740998,0.6947646,0.6656905,-0.52998483,1.46694,-0.82749707,-1.8189538,-0.9114208,2.182243,1.3416628,-1.0195884,1.5311857,-0.8913816,-1.8272579,-0.91682875,2.1226583,1.2803103,-0.97053903,-1.4065584,1.3721308,0.16051485,0.29279017,0.990673,0.5215107,-0.39519066,2.5117645,-0.53305435,1.061883,-2.989994,0.049942367,3.4402087,0.30752563,-0.5531311,0.84819454,0.75200903,0.02230565,0.06942402,0.6551069,-1.0275441,0.19052194,0.88502145,1.0,0.0,0.0,0.0,0.0,0.0,0.0,-3.1617646,0.13305435,-0.51188296,0.2654314,1.5655756,1.8421054,-16.218645,0.5739808,-0.1016736,-0.09470582
35.6536,63.127018,19.910223,-8.147124,-1.9442351,-0.08383733,0.6733863,-0.7791142,0.7782643,0.14664261,-0.026156941,0.69411415,0.6583086,-0.52086633,1.4532744,-0.8135552,-1.8125936,-0.91944444,2.1920698,1.3461411,-1.0226257,1.5171667,-0.8775629,-1.8253295,-0.91530955,2.132588,1.2854849,-0.9744691,-1.4008162,1.3852882,0.20450296,0.10422846,0.9938686,0.5177004,-0.3929222,2.4818802,-0.53255844,1.0955228,-2.9870045,0.049892437,3.3385835,0.29781342,-0.55073166,0.8567588,0.7573679,0.01475563,0.06829297,0.64923966,-0.9498571,0.26789916,0.843498,1.0,0.0,0.0,0.0,0.0,0.0,0.0,-3.1318803,0.13255844,-0.54552275,0.45704842,1.369977,4.625148,-19.07713,0.4320383,0.062286854,0.034165382
43.20929,62.1648,20.378036,-13.196723,-2.419701,-0.35494572,0.8810483,-0.775135,0.77973527,0.20306356,-0.19619282,0.6957669,0.65527207,-0.518445,1.4396533,-0.79958934,-1.8050232,-0.93492883,2.2021646,1.3510121,-1.0263137,1.5032145,-0.86364305,-1.8227336,-0.91607153,2.1425443,1.2906309,-0.9783744,-1.393541,1.3945427,0.27840605,-0.13688695,0.9967115,0.51543194,-0.39023492,2.4520264,-0.53206253,1.1281471,-2.9840183,0.049842555,3.2370598,0.28901672,-0.54748535,0.8648359,0.7618458,0.0076332395,0.067413904,0.6441957,-0.8517322,0.3525959,0.79199964,1.0,0.0,0.0,0.0,0.0,0.0,0.0,-3.1020265,0.13206252,-0.5781471,0.6481886,1.0082245,7.542735,-24.292084,0.43445826,0.32247305,0.11765361
46.888786,64.951096,21.95849,-14.019342,-2.5190585,-0.39892188,0.9703521,-0.7594232,0.7902199,0.26736155,-0.30002066,0.69952524,0.6492835,-0.48478407,1.4272722,-0.78462106,-1.7959975,-0.9460736,2.2124968,1.3555593,-1.0268528,1.4893976,-0.84961545,-1.8192031,-0.9192511,2.1525388,1.295756,-0.9822282,-1.3777258,1.4058423,0.37820414,-0.3786925,1.0008376,0.5134566,-0.38405845,2.422203,-0.5315666,1.159757,-2.981035,0.049792722,3.1356375,0.28123474,-0.5433655,0.8724395,0.7653598,0.0009310293,0.06673609,0.64013255,-0.7467857,0.44012782,0.74563676,1.0,0.0,0.0,0.0,0.0,0.0,0.0,-3.0722032,0.13156661,-0.609757,1.5607357,1.2392998,9.9921465,-24.290688,0.6481409,0.38075447,0.5174577
42.434513,67.134705,22.920065,-9.314277,-2.0123305,-0.21336073,0.88107437,-0.7496094,0.79265803,0.33852655,-0.34063366,0.7032381,0.65220773,-0.45799002,1.4144367,-0.7703496,-1.7853504,-0.9533144,2.2228625,1.3609767,-1.0280272,1.4757696,-0.8354887,-1.8145225,-0.9244381,2.1625829,1.3008639,-0.98600096,-1.3576502,1.4153547,0.49748772,-0.5654614,1.0067729,0.511669,-0.3752698,2.3924103,-0.5310707,1.1903534,-2.9780545,0.04974294,3.0343168,0.27441406,-0.5384178,0.87970376,0.76797426,-0.00549518,0.06614457,0.63703233,-0.6571003,0.51949596,0.71521944,1.0,0.0,0.0,0.0,0.0,0.0,0.0,-3.0424104,0.1310707,-0.6403534,2.0327091,1.0832548,11.778879,-18.730455,0.93705654,0.34765005,0.81955194
38.47794,70.19767,24.36247,-4.354523,-1.5160108,0.024946526,0.79116106,-0.72845614,0.79493564,0.42613608,-0.37472838,0.7004139,0.64003056,-0.41711718,1.4029241,-0.7559951,-1.7719089,-0.96191096,2.2326243,1.364867,-1.0277127,1.4624087,-0.8212837,-1.8084915,-0.9310156,2.1726766,1.305945,-0.9896602,-1.328718,1.4227252,0.63739914,-0.68853635,1.0115906,0.5085574,-0.3630531,2.362648,-0.5305748,1.2199373,-2.975077,0.04969321,2.9330971,0.2683258,-0.532711,0.8868062,0.76978606,-0.011843165,0.06550491,0.63482136,-0.58350945,0.59359,0.70326346,1.0,0.0,0.0,0.0,0.0,0.0,0.0,-3.012648,0.1305748,-0.6699373,2.9555798,0.8895397,13.701117,-12.323213,0.9343147,0.17441511,1.1800647
31.594498,70.59726,24.243597,0.9339094,-1.0130947,0.19984412,0.64050186,-0.7217835,0.80197245,0.48589078,-0.39970148,0.6975364,0.6319416,-0.37638575,1.3902303,-0.7410865,-1.7599024,-0.9709858,2.2424302,1.3691392,-1.0272988,1.4493185,-0.80699766,-1.8010871,-0.93841326,2.1828008,1.3109881,-0.9931764,-1.3021628,1.431168,0.77360255,-0.7568368,1.0143933,0.5043541,-0.34782395,2.3329163,-0.5300789,1.2485099,-2.9721026,0.049643524,2.831979,0.26285553,-0.5263214,0.8938834,0.7709255,-0.018262712,0.06475654,0.6333616,-0.52838534,0.6588487,0.7034928,1.0,0.0,0.0,0.0,0.0,0.0,0.0,-2.9829164,0.13007888,-0.6985099,2.723813,1.0110617,13.251818,-6.8344355,0.78639984,0.012695789,1.4988422
22.943516,67.670586,22.622026,6.7148514,-0.4203358,0.28379604,0.4266189,-0.7072393,0.8033556,0.51859814,-0.37363157,0.6978913,0.630935,-0.32996833,1.3785946,-0.7266621,-1.7492273,-0.97577643,2.25259,1.3740816,-1.0261732,1.4364916,-0.79264104,-1.7925231,-0.9460083,2.192944,1.3159872,-0.9965171,-1.2760109,1.4378196,0.8827722,-0.76043195,1.0159988,0.49971604,-0.3296548,2.303215,-0.529583,1.276072,-2.9691312,0.049593892,2.730962,0.25779724,-0.5193939,0.90102875,0.7715734,-0.024859197,0.06388244,0.6324362,-0.49406636,0.7088979,0.7120534,1.0,0.0,0.0,0.0,0.0,0.0,0.0,-2.9532151,0.12958297,-0.726072,2.6685715,0.83978176,10.528601,-0.3898263,0.6725788,-0.10141134,1.789707
10.00276,59.838924,18.63861,13.043546,0.2946561,0.3003495,0.15152162,-0.72266644,0.8000561,0.5268363,-0.33729237,0.69047534,0.6339894,-0.28288504,1.3642249,-0.71263546,-1.7398396,-0.9797376,2.2619915,1.3793862,-1.0248057,1.423781,-0.77825487,-1.7831848,-0.9532572,2.203072,1.3209406,-0.9996576,-1.2696378,1.439535,0.9496855,-0.7132816,1.013315,0.49493167,-0.30893376,2.2735443,-0.52908707,1.3026247,-2.9661627,0.04954431,2.630046,0.2528534,-0.51213837,0.9082638,0.77196795,-0.031662837,0.06291662,0.6317471,-0.48566094,0.7361968,0.72083014,1.0,0.0,0.0,0.0,0.0,0.0,0.0,-2.9235444,0.12908706,-0.7526247,0.62499046,0.3422022,6.3700795,4.617369,0.19750595,-0.21409392,2.0349562
0.8275671,52.96774,15.238537,17.164602,0.78049994,0.25355965,-0.049327385,-0.73329836,0.7999379,0.5295014,-0.30002788,0.693081,0.63370526,-0.24376215,1.3504512,-0.6982611,-1.7302346,-0.98326,2.27238,1.3843112,-1.0240338,1.4110094,-0.76386964,-1.7734668,-0.9598099,2.2131772,1.3258482,-1.0025798,-1.2797123,1.4386472,0.97839373,-0.63650066,1.0106788,0.4900257,-0.28685158,2.243904,-0.52859116,1.328169,-2.963197,0.049494773,2.5292306,0.2478714,-0.5047455,0.91556996,0.77231216,-0.038653158,0.061907027,0.6310367,-0.49446127,0.7461716,0.72709644,1.0,0.0,0.0,0.0,0.0,0.0,0.0,-2.8939042,0.12859115,-0.778169,-1.0787964,0.075769424,2.6218057,7.523656,0.15628338,-0.2963841,2.1636426
-5.260723,46.85336,12.397782,19.526411,1.0782126,0.17151272,-0.18816786,-0.74723154,0.79688704,0.5245705,-0.25743604,0.6899048,0.64189076,-0.21761157,1.3362863,-0.6841809,-1.7210097,-0.9855535,2.2821677,1.3900373,-1.024341,1.3980395,-0.74951684,-1.763684,-0.96548903,2.223248,1.3307158,-1.0052844,-1.3030187,1.4347277,0.97755235,-0.54563093,1.006758,0.48607552,-0.26498857,2.2142944,-0.52809525,1.3527058,-2.9602344,0.04944529,2.4285161,0.24272156,-0.49734116,0.92290574,0.77274776,-0.045788728,0.060903113,0.630123,-0.51361364,0.74361163,0.7289994,1.0,0.0,0.0,0.0,0.0,0.0,0.0,-2.8642945,0.12809524,-0.8027058,-2.447033,-0.23646355,-0.2696395,8.891392,-0.016641617,-0.2505958,2.138257
-7.29014,41.78787,10.241389,19.237684,1.1078407,0.0018610805,-0.23840469,-0.7663044,0.7932961,0.5130679,-0.23743929,0.6947213,0.6422171,-0.22480889,1.321409,-0.67018723,-1.7123772,-0.98923296,2.29272,1.3949375,-1.0277653,1.3847624,-0.7352203,-1.7540615,-0.97034895,2.233292,1.3355471,-1.0077964,-1.3363674,1.4284576,0.95684,-0.46683365,1.0049531,0.48260844,-0.24686742,2.1847153,-0.52759933,1.3762363,-2.957275,0.049395856,2.3279023,0.23738098,-0.49000168,0.93019795,0.7733447,-0.052987486,0.05995617,0.628916,-0.53285944,0.7342678,0.7225503,1.0,0.0,0.0,0.0,0.0,0.0,0.0,-2.8347154,0.12759933,-0.8262363,-3.476882,-0.4853964,-2.1968722,7.664168,0.14915466,-0.22084713,1.7652452
-6.3304405,40.40773,9.841434,18.680279,1.0335057,-0.09686136,-0.23644763,-0.77205116,0.7916585,0.5028769,-0.19129422,0.6890922,0.6430875,-0.18741263,1.3075573,-0.65605444,-1.7037737,-0.98947835,2.3022013,1.3998559,-1.0265377,1.3711764,-0.7209858,-1.7447097,-0.97443354,2.2433095,1.3403498,-1.0101234,-1.3663322,1.4222188,0.9276731,-0.38974944,1.0016881,0.47973868,-0.2280573,2.1551666,-0.5271034,1.3987614,-2.9543183,0.04934647,2.227389,0.23188019,-0.48277664,0.93741196,0.7741158,-0.060213692,0.059094504,0.62739694,-0.54886794,0.7246809,0.71425086,1.0,0.0,0.0,0.0,0.0,0.0,0.0,-2.8051667,0.12710342,-0.8487614,-3.1351805,-0.49016476,-3.0244708,7.4953375,-0.014638901,-0.16595721,1.8310517
-7.3855095,39.856556,9.877934,20.344105,1.1920376,-0.03996089,-0.27919748,-0.7833152,0.7851199,0.49452153,-0.110095784,0.68276596,0.6485509,-0.1603251,1.2928449,-0.64247376,-1.6952575,-0.9854431,2.3115861,1.4052049,-1.0261558,1.3573195,-0.7068294,-1.735646,-0.9775826,2.253281,1.3451296,-1.0122615,-1.3925924,1.4138432,0.89884686,-0.29061925,0.99676514,0.47766256,-0.20930919,2.1256485,-0.5266075,1.4202821,-2.9513645,0.049297135,2.1269765,0.22615814,-0.47564697,0.9445834,0.7750823,-0.0675213,0.05829707,0.62553144,-0.5705546,0.7138664,0.71148306,1.0,0.0,0.0,0.0,0.0,0.0,0.0,-2.7756486,0.12660751,-0.8702821,-2.764964,-0.7055998,-2.9956222,9.697228,-0.1688242,-0.11241436,1.8148571
-5.4123964,38.330128,9.594068,18.999731,1.0736132,-0.15815385,-0.2551464,-0.79218274,0.7771604,0.47585288,-0.081640944,0.6851455,0.65743643,-0.18721017,1.2781012,-0.6291134,-1.6880608,-0.9857467,2.3217957,1.4108733,-1.0309825,1.3432413,-0.69277894,-1.7268875,-0.97981036,2.2632146,1.349898,-1.0142509,-1.4134381,1.4025658,0.8679811,-0.20076191,0.9933148,0.4769336,-0.19584785,2.096161,-0.5261116,1.4407995,-2.9484136,0.049247846,2.026664,0.22026062,-0.46862411,0.9516995,0.7762347,-0.07491027,0.057549767,0.6233266,-0.58687115,0.7038968,0.70518446,1.0,0.0,0.0,0.0,0.0,0.0,0.0,-2.746161,0.1261116,-0.89079946,-2.2091389,-1.0052681,-3.1853557,8.778387,-0.045073032,0.028514862,1.2821585
1.6225338,40.728584,10.851742,14.168573,0.48055148,-0.3761138,-0.095274344,-0.79662174,0.7833529,0.4704474,-0.10623224,0.6827727,0.6499933,-0.17383763,1.2635791,-0.61444366,-1.6798427,-0.9904336,2.331492,1.4148973,-1.0316347,1.3290049,-0.67879236,-1.7183845,-0.98149836,2.2731137,1.3546587,-1.0161163,-1.4272949,1.3977582,0.84414154,-0.1586103,0.9898038,0.47630906,-0.18360278,2.0667038,-0.5256195,1.4603144,-2.9454658,0.04919861,1.9264517,0.21437836,-0.4616127,0.9586908,0.77746403,-0.08229397,0.05690677,0.62091786,-0.58218354,0.7052926,0.6907532,1.0,0.0,0.0,0.0,0.0,0.0,0.0,-2.716704,0.1256195,-0.9103144,-1.4817238,-0.37190914,-2.4510264,4.04903,-0.09120703,0.0921309,1.1665881
2.9833732,44.87162,12.866091,15.377306,0.48579752,-0.23035322,-0.06788618,-0.7971548,0.7859379,0.47936466,-0.02627004,0.68070203,0.6507205,-0.124989554,1.2492894,-0.60019857,-1.6704481,-0.9841254,2.341184,1.4197308,-1.0286152,1.3146864,-0.6648134,-1.7099979,-0.9826294,2.2829823,1.3594137,-1.0178386,-1.4336507,1.398275,0.8364396,-0.09849368,0.9867817,0.4757285,-0.16863847,2.0372772,-0.5251312,1.478828,-2.942521,0.04914942,1.8263397,0.20850372,-0.45453262,0.9656152,0.77870566,-0.089739405,0.05635073,0.618376,-0.57957935,0.71438855,0.6865993,1.0,0.0,0.0,0.0,0.0,0.0,0.0,-2.6872773,0.12513122,-0.92882794,-0.722599,0.16105175,-0.8494973,5.8689623,-0.018000603,0.07765889,1.4294475
7.2616262,43.64773,12.764222,11.539741,0.13062155,-0.461379,0.050318174,-0.80034554,0.7765665,0.47772685,-0.057513334,0.6808642,0.65529096,-0.14192759,1.2346518,-0.5871568,-1.6622252,-0.98838073,2.3510687,1.4249429,-1.0320313,1.3003317,-0.6508573,-1.7016284,-0.9834477,2.2928243,1.3641688,-1.019437,-1.43624,1.3950733,0.836941,-0.076626495,0.98437786,0.4761527,-0.1570922,2.0078812,-0.52464294,1.4963411,-2.9395792,0.04910028,1.7263277,0.20276642,-0.44734192,0.9724212,0.7798771,-0.09719398,0.055884585,0.61581,-0.5622158,0.72669655,0.67233104,1.0,0.0,0.0,0.0,0.0,0.0,0.0,-2.6578813,0.12464294,-0.9463411,-0.32379627,-0.22044182,-0.0013828278,2.0612419,0.002503395,0.22257566,1.0882467
13.6755495,44.459812,13.35186,6.1723366,-0.4383831,-0.7601282,0.23108128,-0.7958391,0.779282,0.48551568,-0.11278127,0.6798734,0.6492679,-0.10866966,1.2207478,-0.57292914,-1.6530769,-0.9947258,2.3608117,1.4290955,-1.030304,1.2859961,-0.6369194,-1.6931846,-0.98445094,2.3026433,1.3689295,-1.0209094,-1.4328114,1.3937314,0.8466892,-0.10845548,0.98195314,0.4767051,-0.1441724,1.9785004,-0.52415466,1.512855,-2.9366403,0.04905119,1.6264157,0.1973877,-0.4399681,0.97899544,0.780845,-0.10451733,0.055560507,0.61340874,-0.5224665,0.74561423,0.6461774,1.0,0.0,0.0,0.0,0.0,0.0,0.0,-2.6285005,0.12415466,-0.96285504,0.31101704,-0.044846535,0.9537101,-3.2743528,-0.04785061,0.30047297,1.2316316
15.704474,45.845642,14.138804,5.027717,-0.5891254,-0.81758857,0.33481362,-0.7951076,0.78159285,0.50476927,-0.1144974,0.67631334,0.6485008,0.029560605,1.2064853,-0.5587601,-1.6427077,-0.9959007,2.3702745,1.4337796,-1.0179534,1.2717081,-0.6229776,-1.68455,-0.98586047,2.3124356,1.3736941,-1.0221606,-1.4275128,1.3946478,0.86901486,-0.15208013,0.9788789,0.47730643,-0.11915354,1.9491501,-0.5236664,1.5283705,-2.9337041,0.04900215,1.5266036,0.19242859,-0.43236923,0.9853072,0.781508,-0.111661516,0.05540081,0.61131626,-0.47685382,0.76822394,0.61982375,1.0,0.0,0.0,0.0,0.0,0.0,0.0,-2.5991502,0.123666376,-0.9783705,0.51238537,0.18236637,2.2057533,-4.431611,-0.11020899,0.31744242,2.4460957
13.791107,42.939434,13.05534,5.9084272,-0.43945274,-0.8666347,0.33096522,-0.7984988,0.7745586,0.5038336,-0.112305604,0.668201,0.65593386,0.15428272,1.1918583,-0.54552174,-1.6341667,-0.99709105,2.3792558,1.4392874,-1.0067323,1.2574507,-0.6090549,-1.6757152,-0.98764765,2.3221784,1.3784701,-1.0230838,-1.4250494,1.391849,0.88804334,-0.18795538,0.97328657,0.47844782,-0.083434045,1.9198303,-0.5231781,1.5428886,-2.9307709,0.048953157,1.4268913,0.18791199,-0.42459488,0.991354,0.78185236,-0.11862461,0.05540907,0.60956126,-0.43523818,0.7853051,0.59320945,1.0,0.0,0.0,0.0,0.0,0.0,0.0,-2.5698304,0.123178095,-0.9928886,0.22387505,-0.18444061,1.8652439,-3.6665142,-0.35351515,0.35862923,3.5200164
12.906564,39.154263,11.525768,5.485485,-0.40182897,-1.0286665,0.32927406,-0.79554516,0.7685947,0.49588552,-0.14077792,0.66130036,0.653498,0.24384706,1.1778961,-0.53219545,-1.6261266,-1.0017254,2.3883083,1.4438199,-0.9986991,1.24322,-0.59518945,-1.6667793,-0.98982203,2.3318486,1.3832537,-1.0236064,-1.4223605,1.3851908,0.89542186,-0.2274921,0.96555084,0.4792996,-0.041865773,1.8905411,-0.5226898,1.5564104,-2.9278407,0.048904214,1.3272787,0.18379211,-0.41669083,0.99710107,0.78189206,-0.1253566,0.055609517,0.60814315,-0.39241886,0.7954929,0.5621404,1.0,0.0,0.0,0.0,0.0,0.0,0.0,-2.5405412,0.12268981,-1.0064104,0.25119781,-0.5702019,0.69965124,-4.04146,-0.5810261,0.32986403,4.1086674
12.764914,37.74314,10.97289,5.1198463,-0.42323452,-1.1241109,0.33482134,-0.79542214,0.7676918,0.50343937,-0.1712139,0.6555175,0.6537388,0.30039203,1.1636778,-0.5184203,-1.6164353,-1.0069435,2.3974004,1.4486276,-0.9935672,1.2290102,-0.58138883,-1.6577861,-0.99243414,2.341435,1.388045,-1.0237037,-1.4206221,1.3786509,0.9004747,-0.27278844,0.956805,0.48001093,0.00079690886,1.8612823,-0.52220154,1.5689368,-2.9249136,0.04885532,1.2277658,0.18014526,-0.40869904,1.0025253,0.78163445,-0.13181868,0.05602452,0.6070689,-0.34776396,0.8032838,0.5293264,1.0,0.0,0.0,0.0,0.0,0.0,0.0,-2.5112824,0.12220153,-1.0189369,0.15997887,-0.5567789,0.4633069,-4.61314,-0.69081783,0.31468868,4.2262173
10.870973,35.57541,10.314209,6.8040905,-0.19339585,-1.1167445,0.2877831,-0.7892652,0.7585844,0.5063825,-0.16135354,0.65440583,0.6495432,0.3548892,1.1500837,-0.5055304,-1.6071479,-1.0085695,2.4068756,1.4529992,-0.9882148,1.2148386,-0.5676807,-1.6487567,-0.9953524,2.350945,1.3928381,-1.0233775,-1.4159796,1.3684852,0.9036152,-0.29848304,0.94979113,0.48000175,0.04323978,1.8320541,-0.52171326,1.5804689,-2.9219894,0.048806474,1.1283523,0.17687988,-0.4006691,1.0076503,0.7811132,-0.13803469,0.05662255,0.60630214,-0.3099914,0.8063612,0.5004345,1.0,0.0,0.0,0.0,0.0,0.0,0.0,-2.4820542,0.12171325,-1.030469,0.4493475,-0.91290474,0.2507329,-2.6645303,-0.50319433,0.22240877,4.202973
9.240837,33.393578,9.543304,7.8632336,-0.03339058,-1.1350608,0.2428847,-0.79045516,0.75195515,0.5049961,-0.17241573,0.6555589,0.64963686,0.38196883,1.1357931,-0.4924852,-1.5982572,-1.012594,2.4165008,1.4578018,-0.9851807,1.2007014,-0.554088,-1.6397178,-0.9984652,2.3604054,1.3976313,-1.0226508,-1.41291,1.3564702,0.90387493,-0.315871,0.94563293,0.4797412,0.082403526,1.8028564,-0.521225,1.5910075,-2.919068,0.048757676,1.0290382,0.17395782,-0.3926239,1.0124972,0.7803688,-0.14402527,0.05736865,0.60579705,-0.27692187,0.8053309,0.47308362,1.0,0.0,0.0,0.0,0.0,0.0,0.0,-2.4528565,0.12122497,-1.0410075,0.2824068,-1.0953665,-0.03851652,-1.8440604,-0.21322966,0.18121004,3.8760588
9.6340475,32.651787,9.263865,7.2780895,-0.09127921,-1.2257352,0.24261117,-0.78622454,0.7488923,0.50305134,-0.20132871,0.6514536,0.6476576,0.39904654,1.1220789,-0.47919875,-1.5894127,-1.0185981,2.4255507,1.4623971,-0.9827462,1.186606,-0.5406059,-1.6306942,-1.0018069,2.3698277,1.4024187,-1.0215636,-1.4084445,1.3457655,0.90166175,-0.34052452,0.9418295,0.4792521,0.11736679,1.7736893,-0.5207367,1.6005538,-2.9161496,0.04870893,0.9298234,0.17139435,-0.3846016,1.0170588,0.7794177,-0.14976749,0.058265205,0.60554343,-0.24080482,0.803332,0.44421744,1.0,0.0,0.0,0.0,0.0,0.0,0.0,-2.4236894,0.12073669,-1.0505538,0.43051243,-0.96559525,-0.28477907,-2.5617182,-0.1917839,0.15732646,3.461586
10.317445,31.308058,8.758264,5.929606,-0.17872822,-1.3602272,0.26695108,-0.78635347,0.74180025,0.50436217,-0.24124086,0.65543777,0.6458001,0.4170856,1.1079707,-0.46642587,-1.5802579,-1.0259309,2.4353716,1.4669987,-0.97985506,1.172547,-0.52723444,-1.6216896,-1.00553,2.3792348,1.4072024,-1.020156,-1.4051304,1.3346313,0.89999676,-0.38319224,0.94080406,0.47863415,0.14855653,1.7445526,-0.5202484,1.6091084,-2.913234,0.04866023,0.8307078,0.1692276,-0.37660217,1.021298,0.7782579,-0.15520105,0.059319794,0.6055645,-0.19958992,0.7991235,0.41094995,1.0,0.0,0.0,0.0,0.0,0.0,0.0,-2.3945527,0.12024841,-1.0591085,0.32827854,-1.0120153,-0.22375584,-4.3512106,0.065398216,0.14939308,3.0908318
10.315986,31.351173,8.940366,6.3798966,-0.15343696,-1.36833,0.2634505,-0.7773837,0.7371786,0.5077887,-0.24465005,0.6504573,0.6421563,0.45399332,1.0948086,-0.45351657,-1.5709107,-1.029995,2.4442806,1.471418,-0.9747567,1.1585509,-0.5139669,-1.6126812,-1.0096365,2.3886266,1.4119765,-1.0184451,-1.3975888,1.3245158,0.90084153,-0.41991386,0.9389188,0.477642,0.17837366,1.7154465,-0.51976013,1.6166728,-2.9103212,0.04861158,0.73169124,0.16747284,-0.36864853,1.0252233,0.7768894,-0.16032527,0.0605252,0.60586745,-0.15901509,0.7953648,0.38023302,1.0,0.0,0.0,0.0,0.0,0.0,0.0,-2.3654466,0.119760126,-1.0666728,0.75981617,-0.90653896,0.010693073,-3.7502766,-0.014185905,0.10198951,2.9558003
9.41687,29.00699,8.059234,6.617764,-0.08055025,-1.4332876,0.22842292,-0.7732563,0.7276839,0.49755803,-0.26339328,0.64638865,0.6419417,0.45411354,1.0812253,-0.44119853,-1.5629253,-1.0359758,2.4532654,1.4761707,-0.9730338,1.1446425,-0.50081575,-1.6037071,-1.0140978,2.3979878,1.4167391,-1.016471,-1.3886914,1.3123434,0.89591235,-0.4550449,0.93577194,0.47660217,0.20369154,1.6863708,-0.51927185,1.6232476,-2.9074113,0.048562977,0.6327737,0.16609955,-0.3607521,1.0288355,0.77534044,-0.16513562,0.061877366,0.60642284,-0.11967351,0.78757304,0.34880164,1.0,0.0,0.0,0.0,0.0,0.0,0.0,-2.336371,0.119271845,-1.0732477,0.899601,-1.1116505,-0.5713701,-3.5960913,-0.14642477,0.088363886,2.507153
9.718374,27.941898,7.5069103,5.381748,-0.18256813,-1.5571024,0.23405842,-0.7770779,0.7254189,0.49429402,-0.3162908,0.64896274,0.63933283,0.44734785,1.0669347,-0.42827386,-1.5542777,-1.0457269,2.4628842,1.4806724,-0.97173625,1.1307875,-0.48776993,-1.5947998,-1.0190569,2.4073262,1.4214903,-1.0142795,-1.3843241,1.3023478,0.88895684,-0.50968575,0.933837,0.4754067,0.22414516,1.6573257,-0.51878357,1.6288342,-2.9045043,0.048514426,0.53395504,0.16516876,-0.35295105,1.0320988,0.77363163,-0.16956908,0.06339842,0.6072239,-0.0753971,0.77782124,0.31287628,1.0,0.0,0.0,0.0,0.0,0.0,0.0,-2.3073258,0.11878356,-1.0788343,0.45249462,-0.8984804,-0.7592201,-5.5339932,-0.0497818,0.0690341,2.029851
8.906189,27.049519,7.1777363,5.922119,-0.15053967,-1.5638127,0.20756368,-0.77653587,0.72110397,0.492225,-0.33310276,0.6349245,0.6401276,0.46800783,1.053134,-0.41565955,-1.5455773,-1.0523672,2.4708188,1.4855031,-0.9674787,1.1169554,-0.4748133,-1.5859611,-1.0245463,2.4166112,1.426232,-1.0118972,-1.3827819,1.2937429,0.8819508,-0.56243026,0.9271521,0.4743026,0.24297164,1.6282959,-0.5182953,1.6334333,-2.9016006,0.04846592,0.43523526,0.16467285,-0.34524918,1.0350105,0.77178633,-0.17361298,0.06510908,0.6082475,-0.03257051,0.7673342,0.27790138,1.0,0.0,0.0,0.0,0.0,0.0,0.0,-2.278296,0.11829528,-1.0834334,0.16036034,-0.75776577,-0.7601142,-5.3459764,-0.52376986,0.06211996,1.8697411
8.214693,24.889526,6.4209766,6.1560736,-0.0759964,-1.6149383,0.18158627,-0.76730883,0.7109613,0.48107627,-0.3559062,0.6273351,0.64184123,0.46771246,1.0402246,-0.4037172,-1.5378535,-1.0601369,2.4793446,1.490416,-0.965126,1.1031691,-0.46196303,-1.5772274,-1.0305392,2.4258084,1.4309641,-1.009349,-1.3772109,1.2824913,0.87018913,-0.61203164,0.9180047,0.47343394,0.2586824,1.5992966,-0.51781464,1.637046,-2.8986998,0.048417464,0.33661416,0.16459656,-0.33766556,1.0375695,0.7698312,-0.17726383,0.06701069,0.6094646,0.009077217,0.7533211,0.242629,1.0,0.0,0.0,0.0,0.0,0.0,0.0,-2.2492967,0.11781463,-1.0870459,0.5760193,-1.0217905,-1.2480855,-5.0347805,-0.7769108,0.074863434,1.557064
8.826263,23.677713,5.9092307,4.6084375,-0.17657593,-1.7438806,0.21170944,-0.7675132,0.7051479,0.47856852,-0.41873884,0.6248579,0.64502555,0.47089332,1.0264177,-0.39144823,-1.5293705,-1.0724131,2.4882941,1.4954667,-0.96225965,1.0894343,-0.4492291,-1.5686061,-1.0371844,2.4349217,1.4356905,-1.0066615,-1.3722765,1.2706827,0.85921556,-0.68214893,0.90911174,0.4729962,0.27206913,1.5703278,-0.517334,1.6396731,-2.8958018,0.048369054,0.23809169,0.1649704,-0.3302536,1.0397358,0.7677657,-0.18045776,0.069108754,0.61089677,0.056334097,0.7369252,0.20210904,1.0,0.0,0.0,0.0,0.0,0.0,0.0,-2.2203279,0.11733398,-1.089673,0.5412817,-1.0819912,-1.173985,-7.0670366,-0.77673197,0.11460781,1.3302028
8.57064,22.77674,5.7991567,4.8969364,-0.13550273,-1.7451441,0.21550485,-0.7599833,0.69534105,0.48209572,-0.4437067,0.6070371,0.6427308,0.48403162,1.013436,-0.379695,-1.5203966,-1.081555,2.4956255,1.4999636,-0.9582584,1.0757719,-0.43663153,-1.5600517,-1.0445162,2.4439092,1.4404112,-1.0038463,-1.3640844,1.2564884,0.8539081,-0.7502108,0.895606,0.4723475,0.28440976,1.5413895,-0.51685333,1.6413158,-2.8929067,0.048320696,0.1396677,0.16584015,-0.3229828,1.0415024,0.7655841,-0.18318635,0.07140036,0.6125566,0.10263291,0.72013783,0.162393,1.0,0.0,0.0,0.0,0.0,0.0,0.0,-2.1913896,0.11685333,-1.0913157,0.88198185,-1.3182402,-0.62829256,-6.8582535,-1.2323737,0.080513954,1.2250423
6.495207,18.252611,4.208952,5.9170814,0.10655847,-1.7588046,0.1629921,-0.75263685,0.67523164,0.46621013,-0.46541932,0.593747,0.6492729,0.47544953,1.0005082,-0.36910838,-1.5134307,-1.0910581,2.503284,1.5053385,-0.95630133,1.0622126,-0.4242395,-1.5515945,-1.0524584,2.4527364,1.44513,-1.0009319,-1.3530602,1.2337666,0.84255296,-0.8092249,0.8790735,0.472238,0.2938044,1.5124817,-0.5163727,1.641975,-2.8900144,0.048272382,0.04134212,0.16709137,-0.31595612,1.0428728,0.76332104,-0.1854606,0.07385029,0.61440325,0.14247581,0.69620454,0.12277282,1.0,0.0,0.0,0.0,0.0,0.0,0.0,-2.1624818,0.116372675,-1.091975,1.1690855,-2.1740675,-1.2386084,-5.9751153,-1.5413046,0.11346936,0.9197116
5.5389185,15.742704,3.4138818,6.1733932,0.209081,-1.772863,0.15873566,-0.74884814,0.65929854,0.4668055,-0.5071832,0.5760654,0.64959514,0.49118435,0.98732775,-0.35830963,-1.5049139,-1.1031767,2.5103428,1.5100895,-0.9518134,1.048762,-0.41211352,-1.5432308,-1.0610071,2.4613729,1.4498488,-0.99792546,-1.3421078,1.2058258,0.8338424,-0.8703405,0.8589306,0.47208774,0.3029265,1.4836044,-0.515892,1.6416517,-2.887125,0.04822412,-0.056885164,0.16874695,-0.30917358,1.0438402,0.7609922,-0.18727311,0.07643361,0.616423,0.17993212,0.6690605,0.08234655,1.0,0.0,0.0,0.0,0.0,0.0,0.0,-2.1336045,0.11589202,-1.0916517,1.1712074,-2.6993036,-0.98034143,-6.1887503,-1.9086957,0.0926137,0.8891165
3.1733725,12.775946,2.4032965,8.259765,0.4489576,-1.6883428,0.08955461,-0.74682057,0.6429554,0.45443845,-0.5140713,0.5493776,0.65254515,0.49975067,0.9740799,-0.34781796,-1.4977869,-1.1124142,2.5163107,1.5151033,-0.94795036,1.035401,-0.40028986,-1.5349872,-1.0700403,2.4697614,1.4545656,-0.99483174,-1.333869,1.1748546,0.82103145,-0.91468424,0.8326871,0.47200075,0.31139827,1.4547577,-0.5154114,1.6403469,-2.8842385,0.048175905,-0.15501425,0.17071533,-0.30268478,1.044432,0.7586404,-0.18866228,0.07914025,0.6185532,0.20844781,0.6390296,0.04590642,1.0,0.0,0.0,0.0,0.0,0.0,0.0,-2.1047578,0.11541137,-1.0903468,0.8617878,-3.0032396,-1.3676524,-4.5404315,-2.5101185,0.07157326,0.81450343
1.7739968,9.379515,1.0596626,8.630453,0.6042348,-1.7299039,0.057544537,-0.7378601,0.62141603,0.43361744,-0.5481839,0.53798085,0.6480552,0.5028222,0.96161497,-0.33814827,-1.4916254,-1.1248587,2.5235596,1.5193712,-0.9445495,1.0221373,-0.38880762,-1.5269439,-1.0795199,2.4778943,1.4592787,-0.9916617,-1.3237492,1.1396627,0.79852444,-0.95920587,0.8070459,0.47127825,0.31880268,1.4259415,-0.5149307,1.6380615,-2.8813548,0.04812774,-0.2530452,0.17293549,-0.2965393,1.0446502,0.75630474,-0.18962267,0.08195104,0.6207499,0.23373432,0.60312134,0.008409967,1.0,0.0,0.0,0.0,0.0,0.0,0.0,-2.0759416,0.11493072,-1.0880616,1.0580301,-3.4323692,-2.3324132,-4.567051,-2.4681568,-0.011962652,0.700444
-0.787971,4.6118956,-0.8763788,9.943997,0.86007875,-1.7250322,-0.013544198,-0.7346341,0.5953952,0.4040787,-0.5618662,0.5094643,0.65069616,0.51515025,0.94867384,-0.3292681,-1.486536,-1.1357065,2.5288408,1.5243483,-0.9401467,1.0089651,-0.3777202,-1.5192306,-1.0893809,2.4857335,1.463986,-0.9884173,-1.3149211,1.0986948,0.7620306,-0.9955712,0.7767616,0.470587,0.32606417,1.3971558,-0.5144501,1.6347965,-2.878474,0.04807962,-0.35097814,0.175354,-0.29080582,1.044497,0.7540453,-0.19015026,0.084859766,0.6229424,0.2514576,0.5598405,-0.028461503,1.0,0.0,0.0,0.0,0.0,0.0,0.0,-2.0471559,0.11445007,-1.0847964,0.91137886,-4.019308,-3.70394,-3.7765026,-2.9506207,-0.036215782,0.6717384
-0.67704964,2.1515741,-1.5401285,8.982987,0.87638927,-1.7889735,0.035176776,-0.7164208,0.5591718,0.40360278,-0.60892516,0.4715957,0.6407136,0.5221599,0.93732303,-0.32180303,-1.4788703,-1.1502733,2.5328932,1.5280573,-0.93620133,0.9959456,-0.36712298,-1.5118358,-1.0997092,2.4932141,1.4686781,-0.98510426,-1.29745,1.0469526,0.7317301,-1.0455598,0.73834985,0.4688606,0.33289865,1.368393,-0.5139694,1.6305529,-2.875596,0.048031554,-0.44881317,0.17797852,-0.28552628,1.0439451,0.7518522,-0.190208,0.08784331,0.62515813,0.27106372,0.51330584,-0.06908227,1.0,0.0,0.0,0.0,0.0,0.0,0.0,-2.018393,0.113969415,-1.0805528,1.8416643,-5.1050663,-3.1363606,-5.122304,-3.7774563,-0.1502335,0.62304735
-3.9509106,-5.6135106,-4.2881036,10.666496,1.2691879,-1.7561188,-0.025090475,-0.69727933,0.5042554,0.36924505,-0.606854,0.40646163,0.636985,0.53794533,0.9262176,-0.31669745,-1.4749113,-1.1603945,2.5338602,1.5323766,-0.9313097,0.98316634,-0.3571976,-1.5048187,-1.1104285,2.5001721,1.4733492,-0.9817206,-1.2710229,0.9745562,0.6913356,-1.0812294,0.6819964,0.46659055,0.33998007,1.339653,-0.51348877,1.6253316,-2.872721,0.04798353,-0.54655045,0.18070984,-0.28079605,1.0429919,0.74975383,-0.18980864,0.09087325,0.62736267,0.279263,0.456168,-0.10878072,1.0,0.0,0.0,0.0,0.0,0.0,0.0,-1.989653,0.11348876,-1.0753317,2.7564526,-7.185507,-4.1623235,-3.7233353,-5.5830836,-0.23131967,0.6192744
-10.863426,-25.998419,-12.050164,11.12335,2.2169187,-1.9312595,-0.10140344,-0.66303223,0.38580775,0.31168655,-0.6385612,0.3623646,0.61359125,0.54022604,0.9168631,-0.31861684,-1.47365,-1.1742846,2.5364087,1.5347084,-0.927698,0.9707781,-0.34842572,-1.4983947,-1.121533,2.5065084,1.4779783,-0.97827405,-1.227326,0.8447768,0.6255413,-1.1207952,0.61725897,0.461694,0.34576684,1.3109436,-0.5130081,1.6191338,-2.8698487,0.047935557,-0.64419,0.18340302,-0.27690887,1.0415705,0.74782884,-0.18886489,0.093770474,0.629515,0.26710078,0.3624065,-0.15754895,1.0,0.0,0.0,0.0,0.0,0.0,0.0,-1.9609436,0.11300811,-1.0691338,4.6035767,-12.974834,-6.759393,-4.1565657,-6.500435,-0.54563284,0.43334365
-19.977324,-49.724323,-21.933012,11.780178,3.2637515,-2.1574461,-0.2690735,-0.6318864,0.25658938,0.2067747,-0.67124873,0.28567842,0.5981865,0.52391326,0.90758944,-0.32276678,-1.4777173,-1.1886579,2.5350761,1.537797,-0.9258827,0.95891535,-0.34138426,-1.4930217,-1.1330839,2.5120702,1.4825464,-0.9747922,-1.171481,0.6570756,0.5072437,-1.167363,0.53527033,0.45461917,0.34828457,1.2822647,-0.51252747,1.6119604,-2.8669794,0.04788763,-0.74173194,0.18577576,-0.2742958,1.0395708,0.74624497,-0.18721874,0.096370645,0.6314904,0.23109315,0.22489122,-0.2176978,1.0,0.0,0.0,0.0,0.0,0.0,0.0,-1.9322647,0.11252746,-1.0619605,5.9272766,-18.834723,-12.02426,-4.882765,-8.346176,-0.85867643,0.03979206
-49.96007,-135.31776,-56.253384,12.7709675,6.631216,-2.9004066,-0.7270563,-0.49067536,-0.20367959,-0.04857025,-0.6869785,-0.15474863,0.57338065,0.50781256,0.9098478,-0.3617522,-1.4978788,-1.2017817,2.4965954,1.5398846,-0.92401093,0.9481932,-0.33808503,-1.4898822,-1.1450754,2.5156064,1.4870154,-0.971317,-1.0364658,0.21988285,0.24818173,-1.2107223,0.29137024,0.4427203,0.3456018,1.2536163,-0.5120468,1.6038121,-2.8641129,0.047839753,-0.83917636,0.18721771,-0.27417374,1.036636,0.7454389,-0.18451463,0.09838193,0.6329266,0.11744387,-0.061150827,-0.3212838,1.0,0.0,0.0,0.0,0.0,0.0,0.0,-1.9036163,0.11204681,-1.053812,14.303708,-44.00351,-26.293785,-4.606676,-24.85193,-1.6368449,-0.75520873
-47.304054,-145.76994,-56.96845,12.371964,6.925953,-2.835692,-0.41683382,-0.15594785,-0.46463558,-0.13657546,-0.63031054,-0.48506114,0.5267119,0.50484604,0.9325984,-0.38454857,-1.5035398,-1.2081065,2.4671004,1.5396866,-0.9208324,0.9402491,-0.339928,-1.489474,-1.1571051,2.5158849,1.4913298,-0.9678723,-0.71132827,-0.32008475,-0.029693827,-1.2004762,-0.061403338,0.425641,0.34262854,1.2249985,-0.51156616,1.5946901,-2.8612492,0.047791924,-0.9365234,0.18752289,-0.27694702,1.0326742,0.74526304,-0.18084273,0.09955753,0.63400877,0.0002993678,-0.35055435,-0.42241317,1.0,0.0,0.0,0.0,0.0,0.0,0.0,-1.8749985,0.111566156,-1.0446901,33.24616,-54.30578,-28.233719,1.0102749,-35.5818,-2.296269,-0.7450104
-25.101841,-112.508675,-38.97674,6.764733,5.41245,-2.556368,0.3634003,0.21716902,-0.67013687,-0.1578946,-0.6320517,-0.58684593,0.5964643,0.48434395,0.961966,-0.40694168,-1.5052636,-1.2203102,2.4572003,1.5509763,-0.91943794,0.936957,-0.34714827,-1.4913261,-1.1689173,2.5127683,1.4955355,-0.9644572,-0.20252852,-0.85678756,-0.23639782,-1.1742833,-0.39503703,0.4167698,0.34057522,1.1964111,-0.5110855,1.5845953,-2.8583884,0.04774414,-1.0337731,0.1870346,-0.28212357,1.0277702,0.74498224,-0.17654763,0.09957918,0.6355442,-0.06663349,-0.57258046,-0.5138177,1.0,0.0,0.0,0.0,0.0,0.0,0.0,-1.8464111,0.111085504,-1.0345953,50.65168,-53.908028,-20.48283,2.7664423,-33.352886,-1.494807,-0.37272573
-4.6404614,-62.96345,-19.93651,2.3667722,3.0878515,-2.4755716,0.60201544,0.42786413,-0.7258383,-0.34150428,-0.62682545,-0.60739607,0.637507,0.38774368,0.9797434,-0.4197321,-1.5254766,-1.2315998,2.4520288,1.5592862,-0.92568284,0.9389597,-0.35864338,-1.4953449,-1.1804358,2.5069432,1.4997011,-0.9611222,0.3302678,-1.2477349,-0.45339632,-1.1440046,-0.6447581,0.41448575,0.33126104,1.1678543,-0.51060486,1.5735289,-2.8555305,0.047696408,-1.1309255,0.18636322,-0.28894424,1.0220435,0.74418867,-0.17183721,0.09857447,0.63791716,-0.067662165,-0.7163167,-0.59395665,1.0,0.0,0.0,0.0,0.0,0.0,0.0,-1.8178543,0.11060485,-1.0235288,52.00779,-39.275406,-20.623106,3.1235456,-24.866152,-0.80626607,-0.89957714
8.231161,-22.01078,-6.6155286,-0.6656785,1.1927443,-2.4992952,0.5264186,0.5456337,-0.76487327,-0.4928594,-0.6496435,-0.5853188,0.6333058,0.26512462,0.99352306,-0.43513072,-1.5446308,-1.2454001,2.4484115,1.5630317,-0.9346098,0.9456078,-0.37281784,-1.5016372,-1.1918188,2.4993978,1.5038553,-0.95796555,0.7711106,-1.4744538,-0.6836383,-1.1364543,-0.79079497,0.41401964,0.31081262,1.1393204,-0.51013184,1.5614917,-2.8526754,0.04764872,-1.2279809,0.18606567,-0.29678345,1.0155741,0.74288964,-0.16669779,0.096937746,0.6410381,-0.019232195,-0.80271065,-0.6682057,1.0,0.0,0.0,0.0,0.0,0.0,0.0,-1.7893203,0.11013183,-1.0114918,42.54093,-22.812319,-21.720993,0.7652283,-14.514959,-0.55406094,-1.9357681
12.727547,5.0303082,1.1689746,-0.24002934,0.22922927,-2.3288326,0.29757136,0.59009725,-0.7902373,-0.5821591,-0.676739,-0.49579114,0.6326638,0.13722527,1.0046175,-0.4518416,-1.5598531,-1.2594928,2.4498186,1.5671217,-0.944243,0.95550406,-0.3882545,-1.510104,-1.2033316,2.4912267,1.5080134,-0.95510167,1.0588309,-1.5670426,-0.89792013,-1.1563556,-0.8258573,0.4151712,0.278675,1.1108093,-0.5096588,1.5484847,-2.8498232,0.04760108,-1.3249391,0.18631744,-0.3052101,1.0084332,0.74129343,-0.16103496,0.09497253,0.6446177,0.04631526,-0.8520369,-0.7348829,1.0,0.0,0.0,0.0,0.0,0.0,0.0,-1.7608093,0.10965881,-0.9984847,27.67092,-9.364009,-20.530487,-2.0034075,-3.4821987,-0.28137565,-3.1008482
14.98732,24.175468,7.9590583,2.4248896,-0.11929041,-1.9219639,0.16600674,0.6428144,-0.80553705,-0.60855544,-0.68808365,-0.36345464,0.61629397,-0.0036451088,1.0197855,-0.4688082,-1.5709594,-1.2721399,2.4548812,1.5696428,-0.95546615,0.96733344,-0.40398344,-1.5202663,-1.2151343,2.48346,1.512179,-0.95264596,1.2225151,-1.5750573,-1.054299,-1.1881562,-0.7603113,0.4162695,0.23504679,1.0823288,-0.5091858,1.5345087,-2.846974,0.04755349,-1.4218004,0.18721008,-0.3139038,1.0007463,0.73954535,-0.15484807,0.09272537,0.6484572,0.109987676,-0.87032163,-0.7868647,1.0,0.0,0.0,0.0,0.0,0.0,0.0,-1.7323288,0.109185785,-0.9845087,15.828395,-0.8709669,-15.257645,-3.200364,6.5305233,-0.14566183,-4.2362304
18.301117,39.922325,15.231266,5.179147,-0.38196492,-1.4359232,0.17348644,0.7100099,-0.8027025,-0.60347795,-0.69313645,-0.25452554,0.6120599,-0.13505869,1.0383344,-0.4842537,-1.5806141,-1.2844479,2.4580073,1.573385,-0.96615183,0.98027956,-0.41944584,-1.5314147,-1.227244,2.476807,1.516358,-0.9506919,1.3179911,-1.5367802,-1.1348084,-1.2189113,-0.63375103,0.4182473,0.18264805,1.0538788,-0.50871277,1.519565,-2.8441274,0.047505945,-1.5185648,0.18869781,-0.32254028,0.99268067,0.73763865,-0.14826462,0.0901078,0.6525238,0.17019318,-0.85716236,-0.82096195,1.0,0.0,0.0,0.0,0.0,0.0,0.0,-1.7038788,0.10871276,-0.969565,9.356165,3.7926197,-8.011675,-3.1296492,12.626564,0.07674694,-5.083999
19.11311,47.15281,19.399113,7.6853223,0.00953418,-1.0778337,0.2640397,0.73751813,-0.79099894,-0.5889586,-0.72022694,0.03632406,0.5516908,-0.09849592,1.0540314,-0.49854574,-1.5903106,-1.2992667,2.4804394,1.5715271,-0.9605415,0.99381316,-0.43439326,-1.5428646,-1.2397143,2.4722066,1.520518,-0.9491889,1.3652793,-1.4807858,-1.1489881,-1.2564815,-0.40215996,0.41500032,0.14016834,1.0254593,-0.50823975,1.5036542,-2.8412838,0.04745845,-1.6152326,0.19068146,-0.3309822,0.9843826,0.735474,-0.14134997,0.08675858,0.65694064,0.2166351,-0.83382946,-0.84066594,1.0,0.0,0.0,0.0,0.0,0.0,0.0,-1.6754593,0.10823974,-0.9536542,4.765296,5.581689,-1.587987,-3.8146257,23.133665,-0.35446286,-4.0352554
18.38472,51.562645,22.906418,11.016406,0.13671315,-0.5772082,0.36803642,0.7215959,-0.7799262,-0.51120937,-0.73325944,0.13503258,0.53251576,0.048825976,1.0659728,-0.51238585,-1.5939856,-1.3130403,2.48571,1.5737696,-0.9443063,1.0074602,-0.44879803,-1.5538394,-1.2525393,2.4699826,1.5246321,-0.9479472,1.365242,-1.42706,-1.0816464,-1.2912986,-0.16214082,0.41059956,0.11950145,0.9970703,-0.5077667,1.4867775,-2.838443,0.047411002,-1.7118037,0.19303131,-0.33906555,0.9759918,0.73291296,-0.13423353,0.082488835,0.6618274,0.249426,-0.79466873,-0.84631217,1.0,0.0,0.0,0.0,0.0,0.0,0.0,-1.6470703,0.10776672,-0.93677753,0.2039671,5.3688765,6.406069,-3.5248518,23.994709,-0.37517548,-1.8454418
10.788508,43.055374,18.370384,13.92675,-0.25119424,-0.34514362,0.15565756,0.6881797,-0.7857424,-0.54311687,-0.726257,-0.21370266,0.56353664,0.14672528,1.0762782,-0.52737224,-1.6081511,-1.325165,2.4486125,1.5809858,-0.9332747,1.0208021,-0.4628285,-1.5642135,-1.2655817,2.4686818,1.5287272,-0.946799,1.3247333,-1.3951687,-1.0239794,-1.3082924,-0.119583935,0.40916666,0.11351307,0.96871185,-0.5072937,1.4689358,-2.8356051,0.047363598,-1.8082782,0.19565582,-0.34675217,0.96750957,0.73007137,-0.12705517,0.077932544,0.6669177,0.27457827,-0.7532304,-0.85612166,1.0,0.0,0.0,0.0,0.0,0.0,0.0,-1.6187118,0.107293695,-0.91893584,-3.745675,3.16782,5.411458,-1.6602039,4.2034745,-0.11847615,-0.5162969
4.5326767,35.038002,13.735117,16.236315,-0.5106843,-0.26903567,-0.05477508,0.68196607,-0.78213763,-0.58538866,-0.6994003,-0.45064682,0.5816818,0.20459141,1.0889988,-0.54104227,-1.6227524,-1.3355217,2.4236171,1.5868953,-0.92633986,1.0336787,-0.47666726,-1.5743301,-1.2785708,2.4665952,1.5328242,-0.945646,1.2762712,-1.380269,-1.0086207,-1.2955347,-0.23894107,0.40962481,0.11579923,0.9403839,-0.5068207,1.4501302,-2.83277,0.047316246,-1.9046563,0.19848633,-0.3540535,0.9588979,0.7271627,-0.11992718,0.073861584,0.6718603,0.29469657,-0.71534544,-0.8696347,1.0,0.0,0.0,0.0,0.0,0.0,0.0,-1.5903839,0.10682067,-0.9001302,-4.5509577,1.4434338,1.2542963,1.3695717,-12.046456,0.014191866,0.19619912
-0.49748516,25.224157,8.577944,17.714333,-0.11560303,-0.35777158,-0.19764894,0.6984493,-0.7965406,-0.6429185,-0.66438717,-0.49387264,0.6029407,0.2288085,1.1035236,-0.5563213,-1.6386219,-1.3450094,2.417208,1.5931182,-0.92276514,1.0462233,-0.4905251,-1.5847137,-1.2912089,2.4629865,1.5369402,-0.9444434,1.2479093,-1.38784,-1.0487972,-1.2527922,-0.40200445,0.41196862,0.121441655,0.9120712,-0.50634766,1.4303615,-2.829938,0.04726894,-2.000938,0.20144653,-0.36111832,0.95011336,0.72435635,-0.11287774,0.07056256,0.6764521,0.30486533,-0.69750667,-0.88767743,1.0,0.0,0.0,0.0,0.0,0.0,0.0,-1.5620712,0.10634765,-0.8803615,-2.6293755,-0.8402109,-4.1548967,4.4174433,-16.477007,0.15205145,0.49450248
-1.9734459,20.107883,5.6589456,16.477064,0.15749592,-0.5391662,-0.22620603,0.69432324,-0.80245364,-0.6828001,-0.671731,-0.49968934,0.6011002,0.20581283,1.1156557,-0.57077044,-1.6529937,-1.358382,2.4130175,1.5970502,-0.9238621,1.0585848,-0.5045366,-1.5957515,-1.3034655,2.4578938,1.5410753,-0.9432027,1.2328209,-1.4059923,-1.1223391,-1.2161604,-0.5455844,0.41361785,0.12482576,0.88378906,-0.50587463,1.4096307,-2.8271086,0.04722168,-2.0971231,0.20451355,-0.36812592,0.94107574,0.72172964,-0.10580963,0.06798892,0.68065274,0.31351534,-0.6952907,-0.91530484,1.0,0.0,0.0,0.0,0.0,0.0,0.0,-1.533789,0.10587463,-0.85963064,-1.3457298,-1.9157648,-7.4351788,3.84171,-14.552039,0.034201145,0.27783662
1.5129633,23.316914,7.591197,14.133589,0.0016981363,-0.5909119,-0.11102987,0.6962833,-0.8035661,-0.67772335,-0.68234026,-0.53061247,0.6066057,0.16290545,1.1282132,-0.5848932,-1.6635239,-1.3716996,2.4048326,1.601736,-0.9269121,1.070891,-0.5187292,-1.6074302,-1.315499,2.4515958,1.5452296,-0.9419629,1.230265,-1.4240745,-1.1834958,-1.1985435,-0.65865046,0.41539907,0.12361479,0.8555374,-0.5054016,1.3879387,-2.8242822,0.04717447,-2.1932123,0.20772552,-0.37508774,0.9317329,0.7192107,-0.09864528,0.06599878,0.68457955,0.32970393,-0.6887972,-0.94694054,1.0,0.0,0.0,0.0,0.0,0.0,0.0,-1.5055374,0.105401605,-0.8379387,-0.12331009,-1.898694,-6.2110186,1.9305229,-11.477685,0.031864643,-0.14477521
4.8461223,28.994215,11.110749,13.237066,-0.14182562,-0.45029354,0.01859527,0.68540317,-0.80565834,-0.65732694,-0.6795856,-0.55145884,0.62325734,0.15824841,1.1394314,-0.599295,-1.6731629,-1.3834575,2.3964498,1.6075553,-0.92613804,1.0831667,-0.5330725,-1.619456,-1.3274447,2.4444127,1.5494124,-0.9407403,1.227332,-1.4379388,-1.2093982,-1.1927892,-0.73833877,0.41875216,0.12180057,0.8273163,-0.5049286,1.3652866,-2.8214586,0.047127303,-2.2892053,0.2111206,-0.38189697,0.92210233,0.7166691,-0.09139481,0.06442758,0.68839043,0.3487366,-0.6711391,-0.9747565,1.0,0.0,0.0,0.0,0.0,0.0,0.0,-1.4773163,0.10492858,-0.8152866,-0.15966892,-1.4620543,-2.7255297,0.72119236,-8.12583,0.20594001,-0.16620606
6.457488,31.503395,12.796253,12.373074,-0.06574386,-0.37477955,0.10832718,0.67808276,-0.81425345,-0.6616274,-0.6904821,-0.51778656,0.6348366,0.1683536,1.150975,-0.61449784,-1.6856188,-1.3964928,2.3926342,1.6128961,-0.92390496,1.0953947,-0.5475464,-1.6315944,-1.3394419,2.436791,1.5536352,-0.9395272,1.2218448,-1.4507642,-1.215857,-1.2016994,-0.7707081,0.42302126,0.12139878,0.7991257,-0.50445557,1.3416753,-2.8186378,0.047080185,-2.3851023,0.21468353,-0.38851547,0.9121978,0.713999,-0.08404502,0.06305087,0.69221854,0.3668597,-0.65110457,-1.0020807,1.0,0.0,0.0,0.0,0.0,0.0,0.0,-1.4491256,0.10445556,-0.79167527,-0.4065752,-1.3505936,-0.81157684,-0.749588,-3.3859134,0.29973984,0.01462549
8.117176,36.618492,15.724622,12.661938,-0.18015325,-0.18378027,0.17365819,0.66632295,-0.8095821,-0.641628,-0.6887579,-0.53985757,0.64727163,0.19687839,1.162027,-0.6285046,-1.6957573,-1.4083177,2.382805,1.6183624,-0.9198394,1.1075236,-0.56208706,-1.6436126,-1.351544,2.4289632,1.5579077,-0.9382941,1.2102668,-1.4552711,-1.197992,-1.2127931,-0.7871067,0.42842203,0.12424786,0.7709656,-0.50398254,1.3171057,-2.81582,0.047033116,-2.4809034,0.21845245,-0.39486313,0.90207124,0.7111175,-0.07663865,0.061764006,0.696149,0.38441518,-0.62076825,-1.022536,1.0,0.0,0.0,0.0,0.0,0.0,0.0,-1.4209656,0.10398254,-0.76710564,-0.996542,-0.50623417,1.5881777,-0.98700523,-1.7873406,0.4414618,0.3572166
8.637096,40.05007,17.689272,13.521121,-0.20341855,-0.0069928616,0.19191304,0.6582702,-0.8082407,-0.625747,-0.68219334,-0.5511513,0.6649594,0.20901743,1.1733506,-0.64291114,-1.7061874,-1.4197633,2.373848,1.6244036,-0.9173924,1.1195112,-0.57663155,-1.6553485,-1.3637148,2.4210324,1.562245,-0.9370219,1.1953998,-1.4543061,-1.1663204,-1.218098,-0.7957534,0.43531406,0.12848684,0.74282837,-0.5035095,1.2915788,-2.8130047,0.046986092,-2.576609,0.2223587,-0.40085983,0.89179283,0.70798457,-0.0692508,0.06052167,0.7002137,0.39919838,-0.5842386,-1.0357232,1.0,0.0,0.0,0.0,0.0,0.0,0.0,-1.3928283,0.103509516,-0.74157876,-1.3180017,0.047039986,2.9630423,-0.41987896,-1.0136127,0.6188512,0.50293803
8.1108885,41.546185,18.569315,14.648056,-0.17811757,0.13391528,0.17296605,0.65049356,-0.8108167,-0.61076266,-0.6702088,-0.582307,0.67349,0.21095537,1.1845607,-0.65771323,-1.7164248,-1.4307357,2.3628018,1.629594,-0.9159264,1.1313387,-0.5911608,-1.6667297,-1.3758551,2.4129643,1.5666529,-0.9357087,1.1791189,-1.4525989,-1.1293906,-1.2122561,-0.81115365,0.4426022,0.13258931,0.71471405,-0.5030365,1.2650956,-2.810192,0.046939112,-2.6722186,0.22638702,-0.4064827,0.8814245,0.70460206,-0.061956715,0.059329707,0.7043986,0.4103428,-0.5453853,-1.0429039,1.0,0.0,0.0,0.0,0.0,0.0,0.0,-1.364714,0.10303649,-0.7150956,-1.4618635,0.12280941,3.4987926,0.69327354,-1.6948938,0.68238974,0.4869759
5.655876,40.182484,17.480978,15.732303,0.076560795,0.19409046,0.10551379,0.6339501,-0.8110697,-0.6141781,-0.66327494,-0.56091815,0.6751765,0.21163435,1.1947337,-0.67226774,-1.7281475,-1.4421825,2.3568726,1.6341705,-0.91454524,1.1429621,-0.60567284,-1.6778305,-1.3878847,2.4048238,1.5711294,-0.93435735,1.1575058,-1.450981,-1.1043003,-1.1995094,-0.8152744,0.44924316,0.13615716,0.68663025,-0.5025711,1.237657,-2.8073823,0.046892185,-2.7677326,0.23049164,-0.41176224,0.8709915,0.7010265,-0.05476816,0.058157414,0.7086466,0.41452578,-0.5135035,-1.0488147,1.0,0.0,0.0,0.0,0.0,0.0,0.0,-1.3366302,0.1025711,-0.68765694,-1.9882917,0.1073122,2.332425,1.4004707,-0.58306456,0.62728524,0.4304111
5.35555,39.920494,17.02153,15.275228,0.09510535,0.1597116,0.08611916,0.6301339,-0.8074551,-0.6161841,-0.6673959,-0.5618909,0.6774627,0.21293679,1.2059755,-0.68641835,-1.7394489,-1.4546243,2.3486347,1.6388757,-0.91306365,1.1543947,-0.6201563,-1.6887844,-1.3998133,2.3966718,1.575667,-0.9329745,1.1390594,-1.4476556,-1.0927691,-1.1903085,-0.81592464,0.45501563,0.13923533,0.65857697,-0.5021057,1.2092639,-2.8045754,0.046845302,-2.863151,0.23462677,-0.4167595,0.860478,0.6972937,-0.047644027,0.05699389,0.71292573,0.41913906,-0.48454556,-1.0572171,1.0,0.0,0.0,0.0,0.0,0.0,0.0,-1.308577,0.10210571,-0.6592639,-1.6771793,0.27635098,0.9876251,1.0556936,-0.23454428,0.5299151,0.37836432
3.5370312,38.5068,15.747427,15.360173,0.18450707,0.15691188,0.03454315,0.6136559,-0.8060246,-0.62658674,-0.6623376,-0.57786953,0.6807318,0.21898398,1.2157604,-0.70075876,-1.751443,-1.466047,2.3388848,1.6437402,-0.9110761,1.1656176,-0.63460445,-1.699744,-1.411656,2.3884778,1.5802561,-0.9315612,1.1174924,-1.4440892,-1.0974349,-1.1816438,-0.8210126,0.46005002,0.14224775,0.6305542,-0.5016403,1.1799175,-2.8017714,0.046798464,-2.9584742,0.23880005,-0.42148972,0.84985536,0.6934528,-0.040535606,0.05587384,0.7171877,0.42106393,-0.46055034,-1.0686303,1.0,0.0,0.0,0.0,0.0,0.0,0.0,-1.2805542,0.101640314,-0.62991744,-1.985693,0.29520988,-0.620389,1.0194778,-0.68587065,0.44599175,0.35942197
0.38495684,34.68734,12.731139,14.7073765,0.33601236,0.06389965,-0.01772885,0.5898515,-0.805771,-0.6667196,-0.6753785,-0.5858122,0.659882,0.2921569,1.2246027,-0.7151815,-1.766416,-1.4791939,2.3298967,1.6462443,-0.9023455,1.1765658,-0.649024,-1.7109764,-1.4234987,2.3802114,1.58487,-0.93006676,1.087889,-1.4414874,-1.1322592,-1.1843032,-0.829087,0.46175617,0.15192054,0.60256195,-0.5011749,1.1496184,-2.7989702,0.046751678,-3.0537019,0.24298096,-0.42606354,0.83903843,0.6895642,-0.033317994,0.054848652,0.72137547,0.41993085,-0.44660145,-1.0904403,1.0,0.0,0.0,0.0,0.0,0.0,0.0,-1.2525619,0.10117492,-0.5996184,-2.7727365,0.1866579,-3.630042,-0.07638931,-0.997746,0.0743866,1.0044754
-7.15577,29.950548,8.7572155,15.544235,0.6658117,0.19547115,-0.15272553,0.5130633,-0.8055461,-0.6885291,-0.69874656,-0.61175555,0.6363456,0.2703642,1.2278721,-0.7295786,-1.7798293,-1.4933734,2.3190358,1.6485045,-0.90303034,1.186917,-0.66342735,-1.722657,-1.435496,2.3717923,1.5894781,-0.928497,1.0183532,-1.4401561,-1.1807938,-1.2040491,-0.8467084,0.46017408,0.15860917,0.5746002,-0.50070953,1.1183678,-2.796172,0.046704937,-3.1488347,0.24703217,-0.43058014,0.8279347,0.68575656,-0.025862241,0.053985145,0.7253652,0.40459317,-0.44341707,-1.1214185,1.0,0.0,0.0,0.0,0.0,0.0,0.0,-1.2246002,0.10070953,-0.5683678,-6.694317,0.042247772,-5.0295353,-1.7328501,-1.9872785,-0.27620196,0.66837966
-14.779699,28.527077,6.892576,17.573391,0.98756176,0.5557647,-0.2496123,0.420011,-0.80035675,-0.68169504,-0.71739525,-0.63039047,0.6386049,0.28408062,1.2289181,-0.74346304,-1.7908264,-1.5072355,2.3087533,1.6533387,-0.90008897,1.1962115,-0.67780113,-1.7347229,-1.4477774,2.3631558,1.594071,-0.9268605,0.9010507,-1.4367185,-1.215891,-1.2351048,-0.87021,0.45857826,0.16526693,0.54665375,-0.50024414,1.0861666,-2.7933764,0.04665824,-3.2438722,0.2508011,-0.43509293,0.81652236,0.6821439,-0.018131915,0.053316403,0.72904605,0.370544,-0.44413346,-1.1521115,1.0,0.0,0.0,0.0,0.0,0.0,0.0,-1.1966537,0.100244135,-0.5361666,-11.3933325,0.23965836,-3.724599,-2.8292656,-2.6216626,-0.26774406,0.6368995
-58.30995,10.211065,-9.593606,31.287155,3.4810057,1.8837259,-1.0032935,0.020881297,-0.80171376,-0.702499,-0.7455366,-0.6486066,0.60223204,0.22996585,1.1982996,-0.7579725,-1.8049728,-1.522331,2.2982953,1.6542943,-0.9038639,1.2026373,-0.6921568,-1.7471244,-1.4604479,2.3542485,1.5986239,-0.92521256,0.5587056,-1.4358019,-1.2492275,-1.2762014,-0.8991608,0.45396087,0.1640387,0.5187378,-0.49977875,1.0530158,-2.7905838,0.04661159,-3.3388147,0.25347137,-0.44003296,0.8047785,0.6793639,-0.010050984,0.052856322,0.7318264,0.23702058,-0.5004807,-1.185926,1.0,0.0,0.0,0.0,0.0,0.0,0.0,-1.1687378,0.09977874,-0.5030158,-33.54592,-0.12266636,-3.6417723,-3.6194086,-3.4111857,-0.5173862,-0.29664338
-100.406494,-4.8978934,-24.245714,44.475822,5.9756203,3.2586231,-1.6730595,-0.37695706,-0.8017737,-0.7011088,-0.7801667,-0.6130408,0.5590021,0.17953435,1.1649415,-0.77233416,-1.8172354,-1.5384645,2.2929444,1.6545241,-0.9072591,1.2040678,-0.7065191,-1.7597568,-1.4736029,2.3451886,1.6030947,-0.9236247,0.008114643,-1.4375783,-1.2691799,-1.3261365,-0.9107471,0.444543,0.15625258,0.49085236,-0.49931335,1.0189162,-2.7877936,0.04656499,-3.4336624,0.2541046,-0.44593048,0.79269975,0.6781728,-0.0015352534,0.052490875,0.7330238,0.004905924,-0.6093911,-1.2191621,1.0,0.0,0.0,0.0,0.0,0.0,0.0,-1.1408523,0.09931335,-0.46891624,-54.02906,-0.55332184,-2.401781,-4.217267,-1.9715309,-1.0683954,-1.0235637
-100.93962,3.4416351,-19.3666,45.67753,6.008224,3.7806504,-1.488861,-0.53975725,-0.79052055,-0.63891965,-0.7929139,-0.5695846,0.56655395,0.42203456,1.1500921,-0.78557116,-1.8236488,-1.5528942,2.2882302,1.6597501,-0.8814212,1.1999842,-0.7208538,-1.7722118,-1.4872118,2.3361974,1.6074759,-0.9219262,-0.5437224,-1.4336092,-1.2388605,-1.369422,-0.89811814,0.4351278,0.173955,0.46299744,-0.49884796,0.9838689,-2.7850063,0.046518434,-3.5284152,0.25231934,-0.45280838,0.7804234,0.67860436,0.007298142,0.05200217,0.7326244,-0.23857747,-0.70395887,-1.2339916,1.0,0.0,0.0,0.0,0.0,0.0,0.0,-1.1129974,0.098847955,-0.43386889,-54.14447,-0.043201447,2.5890589,-3.452301,0.37314892,-1.2020528,1.6428053
-74.64584,17.14225,-7.615196,37.195816,4.5136104,3.2340434,-0.9785097,-0.57087,-0.79651725,-0.6459181,-0.7907591,-0.56906384,0.5829672,0.4778919,1.1428972,-0.8005055,-1.8368036,-1.5662878,2.279291,1.6657726,-0.874137,1.1915346,-0.7351732,-1.7843311,-1.5011202,2.327374,1.6117808,-0.91999406,-0.94277966,-1.4325668,-1.204115,-1.3953828,-0.8793899,0.42792928,0.19973835,0.43517303,-0.49838257,0.9478748,-2.7822218,0.046471924,-3.6230733,0.24854279,-0.46033096,0.7680515,0.6801919,0.016301999,0.051234595,0.7310597,-0.42746487,-0.7588297,-1.2414293,1.0,0.0,0.0,0.0,0.0,0.0,0.0,-1.085173,0.09838256,-0.39787477,-39.12853,-0.27635098,3.102541,-1.8174171,1.1442661,-1.0395706,2.596292
-51.171753,24.644617,-0.5227685,28.307896,3.2546003,2.3826098,-0.625863,-0.6391169,-0.8018846,-0.71336263,-0.7962132,-0.54521173,0.5419421,0.46090668,1.127623,-0.8153617,-1.8556674,-1.5807415,2.272853,1.665975,-0.8739034,1.1802088,-0.7495098,-1.7964599,-1.5152003,2.3188024,1.6159922,-0.9178235,-1.1938832,-1.4350538,-1.2167413,-1.410033,-0.85140496,0.41764644,0.22310688,0.40737152,-0.49791718,0.9109268,-2.7794402,0.046425458,-3.718702,0.24330139,-0.46824265,0.7555335,0.68250763,0.025510084,0.050119355,0.72871155,-0.5614043,-0.7903879,-1.2580469,1.0,0.0,0.0,0.0,0.0,0.0,0.0,-1.0573715,0.09791717,-0.3609268,-24.57242,-0.54962635,-1.5362263,-0.8031368,2.2339463,-1.3729513,2.4247437
-32.319897,31.00954,5.764624,21.606394,2.331028,1.7895914,-0.36810106,-0.7027553,-0.805879,-0.7345176,-0.79311407,-0.47399977,0.5105162,0.39340472,1.1099333,-0.83009773,-1.8699117,-1.5945116,2.2714024,1.6670438,-0.878483,1.1672102,-0.76389027,-1.8088977,-1.5293413,2.3107,1.6200854,-0.91549176,-1.3338528,-1.4397738,-1.2534448,-1.4136358,-0.79813737,0.4056201,0.23697415,0.3795929,-0.49745178,0.8730233,-2.7766614,0.046379045,-3.8142354,0.2370224,-0.47634125,0.7428215,0.6852467,0.034971647,0.048542038,0.7258495,-0.6539074,-0.8034416,-1.2780675,1.0,0.0,0.0,0.0,0.0,0.0,0.0,-1.0295929,0.097451776,-0.32302326,-13.649225,-0.69286823,-3.8550138,0.1645565,4.9129486,-1.5153468,1.5181154
-19.810701,35.530907,10.364004,17.427673,1.7362275,1.4612525,-0.22980314,-0.7496269,-0.8130385,-0.7469804,-0.7845703,-0.41191855,0.48283666,0.26395518,1.0922475,-0.8451941,-1.8835958,-1.6077983,2.2695081,1.668369,-0.88909626,1.1533419,-0.7783432,-1.8217552,-1.5434366,2.303269,1.6240507,-0.9131419,-1.4037052,-1.447761,-1.2970071,-1.4069659,-0.72591823,0.39260182,0.23487791,0.3518448,-0.4969864,0.8341651,-2.7738855,0.046332676,-3.909673,0.2300415,-0.48448563,0.72991055,0.68822813,0.044676173,0.046387084,0.7226301,-0.719851,-0.8037826,-1.2979312,1.0,0.0,0.0,0.0,0.0,0.0,0.0,-1.0018448,0.09698638,-0.28416508,-6.7634583,-0.95882416,-4.481411,1.0842562,6.9268227,-1.5687644,-0.051394105
-11.333705,41.558342,15.096788,15.3115225,1.2859192,1.3931451,-0.19516683,-0.779941,-0.8051016,-0.7485651,-0.7736114,-0.3368485,0.46833643,0.019143714,1.0753478,-0.85885334,-1.8966117,-1.6207978,2.2695842,1.6708844,-0.9112275,1.1390692,-0.7928257,-1.8349731,-1.5574042,2.2966886,1.6278902,-0.91101235,-1.4347985,-1.4488003,-1.3302658,-1.3923274,-0.63592,0.38043135,0.20619617,0.3241272,-0.496521,0.79435325,-2.771112,0.046286352,-4.005015,0.22252655,-0.49253082,0.7168578,0.6913835,0.054551437,0.04357937,0.71910626,-0.7689918,-0.7909503,-1.3099995,1.0,0.0,0.0,0.0,0.0,0.0,0.0,-0.9741272,0.09652099,-0.24435323,-2.9716253,-0.21879673,-3.403139,1.7792225,8.796179,-1.420474,-2.6980786
-8.08914,44.452393,17.36169,15.126366,1.2641424,1.4251976,-0.27117032,-0.7992954,-0.8073967,-0.7593891,-0.74851227,-0.22174704,0.458383,-0.29657552,1.0591396,-0.8735654,-1.910912,-1.6322554,2.274514,1.6737286,-0.9406699,1.1246191,-0.8073101,-1.8484619,-1.5711218,2.2912183,1.6316153,-0.9094073,-1.4479955,-1.4485549,-1.3551847,-1.364121,-0.5180655,0.36935642,0.1458541,0.29644012,-0.4960556,0.7535887,-2.7683413,0.046240073,-4.100261,0.21455383,-0.5004463,0.70373696,0.6947692,0.064507194,0.04000677,0.7152161,-0.8136591,-0.77595437,-1.3149589,1.0,0.0,0.0,0.0,0.0,0.0,0.0,-0.9464401,0.0960556,-0.20358866,-1.2267828,-0.07212162,-2.5271416,3.0842066,11.6462345,-1.2811005,-5.850607
-8.404167,48.416286,19.455528,17.274141,1.3815125,1.6721044,-0.35167146,-0.81931514,-0.7960521,-0.7616332,-0.69562227,-0.13240407,0.5098529,-0.3909317,1.0426877,-0.8869153,-1.9246252,-1.640684,2.277978,1.6826006,-0.9485005,1.1100489,-0.8217306,-1.8621128,-1.5843455,2.2870183,1.6352831,-0.90845364,-1.4598194,-1.4401631,-1.3682936,-1.3077518,-0.38789928,0.36543024,0.07908083,0.26878357,-0.4955902,0.71187234,-2.7655735,0.04619384,-4.195412,0.20610046,-0.5082016,0.69067514,0.69846755,0.074378975,0.0356249,0.71087384,-0.86250955,-0.7601484,-1.3053352,0.0,1.0,0.0,0.0,0.0,0.0,0.0,-0.91878355,0.095590204,-0.16187233,-1.1161327,0.7445574,-1.2863398,5.8581114,12.920427,-0.542289,-6.505944
-6.8836823,49.72043,20.45089,16.460743,1.0797184,1.7168052,-0.32898453,-0.8233021,-0.7981288,-0.7660976,-0.6783454,-0.13227277,0.510682,-0.44302928,1.0277187,-0.9015435,-1.9387225,-1.65218,2.273791,1.6863513,-0.9527566,1.0953522,-0.8359464,-1.8768716,-1.5975692,2.282435,1.6390781,-0.90767884,-1.4711533,-1.4177701,-1.498351,-1.317126,-0.46529704,0.36731642,0.06418497,0.25180054,-0.4993515,0.7091946,-1.5707524,-0.41911784,0.50488263,0.19731903,-0.5156517,0.67728597,0.70228875,0.08446008,0.03136902,0.70616776,-0.8890086,-0.72648615,-1.3464649,0.0,1.0,0.0,0.0,0.0,0.0,0.0,-0.9018005,0.099351496,-0.15919459,-0.43406487,0.5399227,-1.0179281,6.6444874,9.298062,-0.8326471,-6.6832347
63.320957,176.0,110.0,103.46903,-4.767081,10.931637,-0.73549527,-0.7383446,0.5029462,0.7132177,0.7525393,-0.27463818,0.62083954,-0.3883875,1.0215178,-0.78565174,-1.8055499,-1.5223153,2.254971,1.7011621,-0.9465176,1.0854111,-0.8488801,-1.8909421,-1.5986564,2.267756,1.6524067,-0.9055512,-0.8388108,-1.251129,-1.3697788,0.28923392,-1.7980045,1.6628665,0.25818604,0.23610687,-0.50354004,0.7134952,-1.5691819,-0.41869882,0.40512666,0.1884079,-0.5212784,0.6681602,0.706649,0.08463929,0.032258134,0.70174265,-0.8945538,-0.4927035,-0.7683136,1.0,0.0,0.0,0.0,0.0,0.0,0.0,-0.88610685,0.10354003,-0.16349518,62.127186,16.882874,14.9271965,159.15439,-132.1164,131.97372,18.194263
7.3038087,171.82033,102.20425,94.77416,1.8977978,7.281129,-0.84772074,-0.80268824,-0.5435943,0.38896692,0.7836694,-0.5977808,0.5071506,-0.31285504,1.0051422,-0.90323955,-1.8520454,-1.5202894,2.207978,1.7031218,-0.9368367,1.0771198,-0.8602279,-1.8988957,-1.5886333,2.248877,1.6691036,-0.90327,-0.8259148,-1.0972935,-0.6007231,1.2390968,-1.9222814,1.6778241,0.21878053,0.22042847,-0.50772476,0.716799,-1.567613,-0.4182802,0.30547044,0.17906189,-0.52570343,0.6645459,0.7119073,0.07684502,0.035727143,0.6971416,-0.9500162,-0.41413084,-0.22957356,1.0,0.0,0.0,0.0,0.0,0.0,0.0,-0.87042844,0.107724756,-0.16679901,1.3088822,14.987493,77.83667,94.7144,-13.799858,3.2447815,-3.7258
-30.5777,129.3985,58.625843,70.57498,3.5707374,4.7003856,-1.3229883,-0.7922896,-0.3655074,-0.1786808,0.73230076,-0.6292408,0.61161315,-0.2505074,0.9978909,-0.89677864,-1.9167638,-1.5154033,2.185953,1.7302649,-0.92832077,1.0677834,-0.86953956,-1.9020505,-1.5725105,2.2307992,1.684988,-0.90147805,-0.9678188,-0.8771053,-0.22031747,1.7375065,-1.7732186,1.5616088,0.16666679,0.20476532,-0.51190567,0.719107,-1.5660458,-0.41786203,0.20591386,0.16876984,-0.5297775,0.66465145,0.7183574,0.06560009,0.03982322,0.6914285,-1.0544039,-0.397832,0.08426536,1.0,0.0,0.0,0.0,0.0,0.0,0.0,-0.8547653,0.111905664,-0.16910696,-13.655877,21.612476,37.997517,50.116684,13.850713,-10.668802,-5.0114098
-38.604824,107.30376,39.204853,46.351704,2.9577188,3.233303,-1.047972,-0.8074188,-0.24045904,-0.11577337,0.77648586,-0.6158786,0.5533136,-0.104805924,0.9870415,-0.89358544,-1.9136279,-1.4948618,2.1692114,1.7403194,-0.91195863,1.0565186,-0.8764747,-1.9027257,-1.554116,2.2151513,1.6992912,-0.90012,-1.1780735,-0.6333798,-0.017750379,1.8740513,-1.4973749,1.3885231,0.12566504,0.18911743,-0.51607895,0.7204201,-1.5644801,-0.41744426,0.10645684,0.15753174,-0.5336189,0.66684395,0.7257868,0.053448338,0.04401937,0.6844261,-1.1499405,-0.3720787,0.25730062,1.0,0.0,0.0,0.0,0.0,0.0,0.0,-0.8391174,0.11607894,-0.17042011,-20.605873,24.054695,19.90858,13.870382,26.90966,-16.737152,-4.050863
-48.75196,49.229954,2.4909894,24.11554,3.1000369,0.9949206,-0.9916161,-0.8180398,-0.3157866,-0.36577362,0.7815936,-0.6139657,0.5666778,-0.15355177,0.9747146,-0.90805334,-1.939303,-1.4759567,2.1537547,1.755959,-0.9154752,1.0433655,-0.8818496,-1.9038091,-1.5359371,2.2021356,1.7119408,-0.8991587,-1.3601834,-0.5058984,-0.13995875,1.7999144,-1.2362189,1.2246697,0.08622126,0.1734848,-0.5202522,0.72073644,-1.5629159,-0.4170269,0.006705502,0.14533997,-0.5376015,0.66929835,0.734035,0.04242595,0.047996227,0.6760835,-1.2446386,-0.39824548,0.2356545,1.0,0.0,0.0,0.0,0.0,0.0,0.0,-0.8234848,0.12025222,-0.17073643,-17.971611,12.640405,-12.625082,-7.2354555,26.139164,-16.161633,-3.9518833
-40.178898,21.888874,-9.972657,10.393093,2.3039527,-0.16555017,-0.69786227,-0.8206913,-0.32410553,-0.4089726,0.78299904,-0.5941985,0.5790304,-0.209786,0.9612963,-0.91426015,-1.9447063,-1.4576372,2.1427157,1.7698438,-0.9201373,1.0288792,-0.8866084,-1.9069619,-1.5190895,2.1912827,1.7231178,-0.8985894,-1.4776282,-0.46603087,-0.37472165,1.646622,-1.0341873,1.0823168,0.047103718,0.15786743,-0.5244179,0.72005606,-1.5613533,-0.41660997,-0.092946105,0.13241577,-0.5419426,0.6708939,0.7428738,0.033516392,0.051634762,0.66659504,-1.311526,-0.4351719,0.12961116,1.0,0.0,0.0,0.0,0.0,0.0,0.0,-0.8078674,0.12441787,-0.17005605,-11.622334,3.956449,-23.758888,-15.204,20.329857,-14.204478,-3.945379
-25.329144,17.314392,-7.369758,4.851733,1.4371214,-0.5018145,-0.3934784,-0.8202619,-0.3182595,-0.39956132,0.7861902,-0.5492635,0.58504784,-0.2725976,0.946853,-0.9184344,-1.946918,-1.4404705,2.1363564,1.7816226,-0.92584914,1.0137138,-0.89135104,-1.9123044,-1.5037067,2.182032,1.7330475,-0.8984158,-1.5292988,-0.47708115,-0.5878633,1.5026542,-0.88908404,0.9630386,0.0073312474,0.14226532,-0.5285835,0.7183799,-1.5597923,-0.41619346,-0.19249807,0.11906433,-0.54657364,0.6713604,0.7520204,0.026728384,0.054904554,0.656305,-1.3482689,-0.46205193,0.015684286,1.0,0.0,0.0,0.0,0.0,0.0,0.0,-0.7922653,0.12858352,-0.1683799,-5.103612,-1.1307538,-21.45313,-14.293766,14.51956,-11.972464,-4.01301
-11.671171,24.94062,1.8811882,4.6813316,0.82556826,-0.32433963,-0.15038483,-0.8203043,-0.3226217,-0.37480456,0.78871053,-0.49976134,0.5826868,-0.31123242,0.9316834,-0.9236132,-1.9497849,-1.4248357,2.132056,1.7913162,-0.929539,0.9983804,-0.8963874,-1.9191117,-1.4894035,2.1739182,1.7419395,-0.89862657,-1.5348399,-0.512652,-0.7116736,1.4065622,-0.7861458,0.8642298,-0.030734044,0.12667847,-0.53274155,0.715709,-1.5582328,-0.41577736,-0.2919505,0.10549164,-0.55134964,0.670916,0.76123124,0.021558281,0.057798687,0.6455397,-1.3628341,-0.47053364,-0.067065015,1.0,0.0,0.0,0.0,0.0,0.0,0.0,-0.77667844,0.13274154,-0.16570896,-0.5416155,-3.6052585,-12.378561,-9.536672,10.165274,-9.923304,-3.839228
-1.5122123,33.84255,11.475992,6.364399,0.6161648,0.040135562,0.038779262,-0.81773996,-0.36034137,-0.31321168,0.7849743,-0.4156772,0.5771047,-0.3484683,0.9166064,-0.93242157,-1.9504329,-1.4109061,2.1323504,1.79965,-0.9334734,0.9831779,-0.9019616,-1.9262872,-1.4756954,2.1667428,1.7499714,-0.89920354,-1.5155215,-0.5725595,-0.7190802,1.3590552,-0.6954998,0.78262407,-0.06670616,0.11110687,-0.53689575,0.71204424,-1.5566748,-0.41536167,-0.3913035,0.09186554,-0.5560875,0.6699293,0.7703203,0.01734432,0.06017863,0.63457406,-1.3659896,-0.46325746,-0.11146589,0.0,1.0,0.0,0.0,0.0,0.0,0.0,-0.76110685,0.13689575,-0.16204423,1.8933058,-6.0580015,-0.61165094,-4.713869,8.831989,-8.178115,-3.6044269
5.42333,43.896774,20.221972,8.60384,0.6077646,0.44452178,0.15941808,-0.81351024,-0.39087892,-0.2254436,0.77914214,-0.30348504,0.56419045,-0.3868745,0.90182686,-0.9410495,-1.9488316,-1.3977811,2.1363943,1.8063904,-0.937891,0.96823,-0.9082015,-1.9327359,-1.4622066,2.1605668,1.7572861,-0.90012765,-1.4880852,-0.6414755,-0.6194107,1.3452863,-0.5926593,0.71458226,-0.10095436,0.09555054,-0.54104614,0.70738673,-1.5551186,-0.4149464,-0.4905572,0.0782547,-0.5606537,0.66877747,0.7791651,0.013461634,0.06183288,0.62361616,-1.3637197,-0.44191736,-0.11868521,0.0,1.0,0.0,0.0,0.0,0.0,0.0,-0.7455505,0.14104614,-0.15738672,2.664113,-6.97937,10.191631,-1.380825,9.969151,-6.791675,-3.4133732
12.492214,57.907303,29.496426,10.267517,0.17369759,0.83124644,0.28438488,-0.8007834,-0.39142844,-0.11082198,0.7754444,-0.3141751,0.5729223,-0.3937747,0.88815165,-0.94734436,-1.9438181,-1.3846622,2.1291492,1.8145783,-0.9395051,0.9535806,-0.9149936,-1.9375501,-1.4487216,2.155188,1.7640228,-0.9013636,-1.457652,-0.6921753,-0.43445164,1.3494116,-0.52124923,0.6602865,-0.13117753,0.08000946,-0.5451927,0.7017374,-1.5535637,-0.41453156,-0.58971155,0.06476593,-0.5648346,0.66782826,0.7876432,0.009374087,0.06280666,0.6128504,-1.3467709,-0.39847022,-0.08933648,0.0,1.0,0.0,0.0,0.0,0.0,0.0,-0.73000944,0.14519271,-0.15173739,2.9260397,-5.1849008,18.798637,0.34575462,6.74206,-5.335057,-3.0502648
16.718033,67.31238,34.864223,10.938473,-0.35961658,1.0387187,0.38092574,-0.7876813,-0.39963102,-0.0027691575,0.77250737,-0.4055954,0.59103876,-0.37412763,0.8748125,-0.9549567,-1.937827,-1.3714709,2.1146286,1.8231267,-0.9387764,0.9392431,-0.92215484,-1.9402578,-1.4351754,2.1499536,1.770192,-0.9029158,-1.4234554,-0.7234948,-0.23422004,1.3491141,-0.5324916,0.61654717,-0.16563869,0.063591,-0.54849625,0.6975328,-1.6381083,-0.23012426,0.34004688,0.051597595,-0.5684738,0.6672977,0.79565763,0.0048272056,0.06343587,0.60239637,-1.3105593,-0.34015253,-0.050572693,0.0,1.0,0.0,0.0,0.0,0.0,0.0,-0.713591,0.14849624,-0.14753276,3.7508726,-3.1267643,17.645231,-1.1232615,-3.3300996,-4.408312,-4.5768647
30.207258,132.26697,63.21296,18.77849,-2.2683785,1.9647399,0.42739168,-0.77957845,-0.044013046,0.1597924,0.7896694,-0.5352642,0.61686456,-0.3453685,0.8612852,-0.92655617,-1.9242785,-1.3562084,2.0964272,1.8318784,-0.9374526,0.92518973,-0.92782634,-1.9405668,-1.421536,2.144121,1.7761315,-0.90470773,-1.4000671,-0.51593924,0.03825019,1.3679024,-0.60270387,0.58791363,-0.18482614,0.047225952,-0.5507927,0.7001833,-1.6364704,-0.22989419,0.24006198,0.03916931,-0.5709419,0.6680666,0.8030778,-0.00073595747,0.06492211,0.5923263,-1.2213453,-0.2059002,0.11678945,0.0,1.0,0.0,0.0,0.0,0.0,0.0,-0.6972259,0.15079269,-0.15018326,2.1274328,20.488739,27.65576,1.6078234,-7.7040434,-2.453351,-2.2419631
9.605463,98.52376,40.66525,18.16981,-1.1147921,1.2665613,0.10598205,-0.79925436,-0.16088106,-0.0047861408,0.78069985,-0.5574293,0.61895466,-0.32521117,0.8452643,-0.9439145,-1.9410454,-1.343466,2.088378,1.838027,-0.93722886,0.9112022,-0.9318699,-1.9394853,-1.4077573,2.1375024,1.7818402,-0.906637,-1.3986464,-0.36768854,0.13199425,1.3810946,-0.68289334,0.5661477,-0.1962695,0.03087616,-0.55308914,0.7018431,-1.6348343,-0.22966436,0.14130029,0.02733612,-0.5724411,0.66991454,0.8100941,-0.006924053,0.06752589,0.58235705,-1.1745706,-0.12222047,0.20529552,0.0,1.0,0.0,0.0,0.0,0.0,0.0,-0.68087614,0.15308914,-0.15184307,0.05528927,14.639491,9.570263,1.2646198,-8.413744,-1.8911481,-1.3320684
-3.933125,77.90038,25.323692,17.680462,-0.44161898,0.6751632,-0.14183404,-0.7939445,-0.10556213,-0.12776978,0.7787136,-0.5850803,0.61640006,-0.29066193,0.83180773,-0.94242615,-1.9522623,-1.329886,2.0789945,1.8434802,-0.9357032,0.8971813,-0.9345593,-1.9386785,-1.3938756,2.1301363,1.7873505,-0.9086283,-1.4033724,-0.23646533,0.06356219,1.3905174,-0.7553342,0.5467408,-0.20056017,0.014541626,-0.5553856,0.7025161,-1.6331998,-0.22943473,0.042637337,0.01574707,-0.5733566,0.672228,0.8169588,-0.013011686,0.071280144,0.5721259,-1.1537751,-0.07278069,0.23806255,0.0,1.0,0.0,0.0,0.0,0.0,0.0,-0.6645416,0.15538558,-0.15251607,-0.51107407,12.9908085,-6.783076,0.9619236,-7.4377894,-1.7137289,-0.5816072
-9.070486,57.67601,15.194566,15.502185,0.13927731,0.26031107,-0.19598036,-0.78158796,-0.113801256,-0.1346635,0.7867597,-0.5865925,0.6333928,-0.28795788,0.8190225,-0.9459394,-1.9521449,-1.3151996,2.071477,1.8506898,-0.93742406,0.88317,-0.93639797,-1.9390378,-1.3799227,2.1222987,1.7926826,-0.91062033,-1.4007185,-0.16661035,-0.067418106,1.3974665,-0.7959635,0.5310412,-0.1998546,-0.0015411377,-0.55646515,0.704968,-1.6030934,-0.10168564,0.2627513,0.004234314,-0.5739937,0.6745305,0.82378495,-0.018556295,0.07590875,0.5614907,-1.1514813,-0.05191176,0.22659928,0.0,1.0,0.0,0.0,0.0,0.0,0.0,-0.64845884,0.15646514,-0.15496796,0.13234615,6.8741503,-12.413411,0.908947,-4.9269915,-1.1417747,-0.27735233
-15.837776,53.568123,10.750933,16.54678,0.5490551,0.15434104,-0.30985552,-0.8039791,-0.03198712,-0.23691753,0.7833268,-0.5637104,0.60772353,-0.2886283,0.8027721,-0.93959665,-1.9627296,-1.3015901,2.0659277,1.853455,-0.93948317,0.86907774,-0.93751186,-1.9410521,-1.3659248,2.114204,1.7978903,-0.91262394,-1.4119406,-0.09331149,-0.2460184,1.400672,-0.81437963,0.5175693,-0.20098296,-0.017539978,-0.55737305,0.7074837,-1.5986018,-0.086850934,0.246481,-0.007369995,-0.5744858,0.6766323,0.8306632,-0.023346568,0.08130549,0.5503117,-1.163676,-0.038884226,0.20331796,0.0,1.0,0.0,0.0,0.0,0.0,0.0,-0.63246,0.15737304,-0.1574837,-1.1076212,7.236886,-17.871492,0.36740303,-1.8816233,-1.247549,-0.25066733
-20.89291,37.470764,3.810429,15.274308,1.1333413,0.027979314,-0.34236678,-0.8159001,-0.08519951,-0.30189052,0.7832013,-0.53520435,0.5998232,-0.33847445,0.78748775,-0.9460318,-1.9712411,-1.2876047,2.0606835,1.8578726,-0.9464714,0.85481656,-0.9383654,-1.9448458,-1.3519115,2.106102,1.8029662,-0.9146771,-1.4306309,-0.08288666,-0.42374706,1.4018556,-0.80861443,0.50422907,-0.20712875,-0.03353882,-0.55817413,0.70964324,-1.6014168,-0.078008056,0.2042573,-0.019248962,-0.57496643,0.6783021,0.8376483,-0.027248207,0.08713982,0.53852534,-1.1959211,-0.041690454,0.15393627,0.0,1.0,0.0,0.0,0.0,0.0,0.0,-0.61646116,0.15817413,-0.15964323,-1.8110275,0.9698197,-17.795616,0.19803047,0.58146715,-1.3139606,-0.7225275
-19.824997,30.411907,2.271101,13.963463,1.3135254,-0.008907974,-0.27661628,-0.8102966,-0.11264087,-0.3482693,0.79310054,-0.5312227,0.60705185,-0.32664788,0.7737869,-0.9496295,-1.9796727,-1.2726015,2.0529797,1.8636714,-0.94734186,0.84041613,-0.9394335,-1.9501946,-1.3378494,2.098125,1.8079238,-0.9167809,-1.4428917,-0.11495562,-0.5719738,1.407916,-0.79428786,0.49270505,-0.21176925,-0.049583435,-0.55890274,0.71131575,-1.6060077,-0.070902996,0.15337744,-0.03148651,-0.5754967,0.6794161,0.84471124,-0.030299881,0.093098,0.5261915,-1.2331659,-0.04893175,0.09648077,0.0,1.0,0.0,0.0,0.0,0.0,0.0,-0.60041654,0.15890273,-0.16131574,-1.1551142,-3.275092,-14.815503,0.7056713,1.4284492,-1.1806786,-0.55113435
-14.38888,33.752964,6.165317,12.92495,1.1791695,0.11377674,-0.14623779,-0.80755883,-0.121461295,-0.3508403,0.7917934,-0.5225957,0.6099709,-0.32263166,0.75966024,-0.95157963,-1.9852786,-1.2586701,2.0458653,1.8689209,-0.94904405,0.82594895,-0.94093174,-1.9565709,-1.3237407,2.09032,1.8127841,-0.9189206,-1.4478002,-0.16177543,-0.65901315,1.4123377,-0.7761989,0.48357284,-0.21494661,-0.06565094,-0.55953217,0.71256,-1.6069593,-0.06018034,0.11343572,-0.044044495,-0.576046,0.6800376,0.8517507,-0.03269786,0.09899041,0.51347107,-1.2621788,-0.047695275,0.0501599,0.0,1.0,0.0,0.0,0.0,0.0,0.0,-0.58434904,0.15953216,-0.16255999,-0.4528284,-4.7630935,-8.613825,0.526309,1.728642,-0.9661734,-0.3970027
-11.942293,32.06906,6.874645,11.8807125,1.1911714,0.14184076,-0.06921967,-0.8075991,-0.16887523,-0.3817834,0.79483104,-0.50621855,0.60288644,-0.3068998,0.7451891,-0.9578193,-1.9947492,-1.2442576,2.0396984,1.8730727,-0.94961053,0.8114693,-0.943065,-1.9635518,-1.3095844,2.0827181,1.8175603,-0.9210729,-1.4479576,-0.23069622,-0.71058553,1.4170326,-0.7550374,0.47534493,-0.21553825,-0.081718445,-0.56005096,0.7133933,-1.6071812,-0.049190823,0.072282895,-0.056869507,-0.57658386,0.68019664,0.85869205,-0.03459669,0.10465216,0.5004988,-1.2896904,-0.0450358,0.004016697,0.0,1.0,0.0,0.0,0.0,0.0,0.0,-0.56828153,0.16005096,-0.16339326,0.012731552,-6.970209,-5.032778,0.56209564,2.012539,-0.8876622,-0.11573434
-5.1653066,46.083508,14.212483,12.312549,0.8369631,0.3165785,0.03949318,-0.7972963,-0.14070126,-0.37168533,0.79786414,-0.49771678,0.60155815,-0.26225102,0.7317397,-0.95713514,-2.0007203,-1.229798,2.0329463,1.8777162,-0.947298,0.79705167,-0.94564277,-1.9707329,-1.2953842,2.075326,1.8222717,-0.9231918,-1.4398293,-0.26726356,-0.7196845,1.4210647,-0.7344,0.46950594,-0.21088113,-0.097732544,-0.5604019,0.71401936,-1.5988487,-0.030552719,0.058607914,-0.06982422,-0.5769768,0.68009293,0.8654417,-0.036200657,0.11011976,0.48741537,-1.299008,-0.026698226,-0.01572343,0.0,1.0,0.0,0.0,0.0,0.0,0.0,-0.55226743,0.16040191,-0.16401935,0.77836514,-3.767538,-0.6869316,0.4336357,1.8544316,-0.6460428,0.37955344
-4.935135,47.490818,14.593045,12.310921,0.79455525,0.33254912,0.0588452,-0.79954547,-0.17043735,-0.40177026,0.797555,-0.49510363,0.59714127,-0.23731588,0.7170971,-0.9626865,-2.01091,-1.2156286,2.0258155,1.8819858,-0.9469234,0.78270763,-0.94856006,-1.9779849,-1.2811574,2.0681124,1.8269315,-0.9252431,-1.4327141,-0.3002374,-0.726352,1.4231833,-0.7180582,0.4645124,-0.20346697,-0.11364746,-0.5605583,0.71451926,-1.589106,-0.011024354,0.046282534,-0.082862854,-0.5771637,0.67980415,0.87196285,-0.037578817,0.11543923,0.47428086,-1.3062068,-0.006449654,-0.03396549,0.0,1.0,0.0,0.0,0.0,0.0,0.0,-0.5363525,0.16055831,-0.16451925,0.6717205,-3.412509,-0.43221712,0.24073124,1.4122725,-0.5620599,0.65277815
-1.5840538,57.524277,18.799578,12.914459,0.54846835,0.41720167,0.10294903,-0.79110044,-0.14593954,-0.3968595,0.7955445,-0.49643597,0.59345585,-0.2158654,0.7035976,-0.963154,-2.0176709,-1.2016029,2.0184689,1.8862771,-0.9468296,0.768457,-0.95157653,-1.9852291,-1.2669362,2.0610209,1.831551,-0.9272057,-1.4227893,-0.3025741,-0.72286856,1.4218105,-0.7071406,0.46086717,-0.19428457,-0.12941742,-0.560482,0.71502477,-1.5728416,0.013545367,0.051824592,-0.09590149,-0.5770912,0.6794531,0.8782159,-0.038791537,0.12073622,0.46114498,-1.3007712,0.023086054,-0.036201455,0.0,1.0,0.0,0.0,0.0,0.0,0.0,-0.52058256,0.16048202,-0.16502476,0.9135723,-0.37266612,0.64178705,-0.15568733,0.80531836,-0.4214406,0.79472065
-4.731213,48.6067,14.622593,12.23481,0.8068113,0.31588522,0.065985315,-0.7934724,-0.21107234,-0.41509062,0.7966053,-0.46521607,0.59323573,-0.22679028,0.68910974,-0.9726838,-2.0267382,-1.1872756,2.0144992,1.8908745,-0.9498847,0.7542761,-0.9548314,-1.9925038,-1.2527246,2.0540898,1.8361326,-0.92909217,-1.4166857,-0.33354303,-0.72822064,1.420809,-0.68914163,0.45709956,-0.18709561,-0.14505768,-0.5601959,0.7154496,-1.5612811,0.033591397,0.0391527,-0.108947754,-0.5767822,0.67896307,0.88422793,-0.039807394,0.12592775,0.44799384,-1.3062929,0.044285156,-0.054047786,0.0,1.0,0.0,0.0,0.0,0.0,0.0,-0.5049423,0.16019592,-0.16544956,0.56459904,-3.2149315,-0.2859354,-0.072813034,1.567316,-0.44728518,0.6314099
-5.256913,56.728832,16.77072,13.800501,0.66942644,0.39178926,0.065746106,-0.79468215,-0.16439393,-0.43531898,0.79881454,-0.49171737,0.58196723,-0.15984583,0.6748079,-0.9712708,-2.0360358,-1.1728432,2.004918,1.8943293,-0.94507676,0.7401255,-0.9581521,-1.999931,-1.2385149,2.0472424,1.8406762,-0.930866,-1.4146873,-0.33213463,-0.74657476,1.4209952,-0.6842861,0.45319816,-0.17448999,-0.16055298,-0.5596771,0.7158501,-1.5452901,0.057653036,0.040034205,-0.12200165,-0.5761986,0.67837983,0.88999903,-0.040589016,0.13114724,0.43480408,-1.305905,0.07242191,-0.060502633,0.0,1.0,0.0,0.0,0.0,0.0,0.0,-0.489447,0.15967712,-0.1658501,0.13933182,-0.0041902065,-1.5568733,0.025963783,0.21309853,-0.46120286,1.1363953
-3.4872236,67.00193,20.38589,15.112867,0.510853,0.47445086,0.08976098,-0.79049027,-0.12355195,-0.4373076,0.79741234,-0.49476573,0.5743545,-0.110002905,0.6610764,-0.9705073,-2.0436618,-1.1587737,1.9977658,1.8981116,-0.9418663,0.7259952,-0.96120673,-2.0075448,-1.2243127,2.0404124,1.8451831,-0.93248254,-1.4127676,-0.29712978,-0.76503193,1.4199241,-0.6839629,0.44965994,-0.15794176,-0.17583466,-0.55888367,0.7163914,-1.5226845,0.08660026,0.05933698,-0.13500214,-0.5752907,0.67785126,0.89549655,-0.04115578,0.13658561,0.4215881,-1.2952827,0.10832702,-0.05093908,0.0,1.0,0.0,0.0,0.0,0.0,0.0,-0.47416532,0.15888366,-0.16639137,0.096678734,3.327763,-1.5067339,-0.14522076,-0.3038168,-0.43127537,1.4883459
-6.438417,62.541286,17.541338,14.996305,0.6045319,0.40567097,0.057648018,-0.7968329,-0.14214651,-0.47757706,0.7933434,-0.4985904,0.57257485,-0.118742004,0.6463119,-0.97542137,-2.0553024,-1.1449783,1.9905534,1.9024407,-0.94435674,0.7118465,-0.963981,-2.0154908,-1.2101372,2.0335536,1.8496541,-0.9339531,-1.4157398,-0.27137986,-0.8032971,1.4166921,-0.6876555,0.44588757,-0.14392842,-0.19091034,-0.55781937,0.71705204,-1.5021696,0.1131968,0.06842766,-0.14793396,-0.5740509,0.67734224,0.9007335,-0.041431837,0.1422836,0.40831098,-1.2905401,0.13993338,-0.051406816,0.0,1.0,0.0,0.0,0.0,0.0,0.0,-0.45908964,0.15781936,-0.16705203,-0.3736019,2.4096727,-3.5143256,-0.3379345,-0.6799817,-0.4675746,1.2390435
-8.49387,52.196465,12.898194,13.522795,0.66709787,0.23076689,0.061293945,-0.79042,-0.17527717,-0.52447313,0.7959964,-0.51408017,0.5745989,-0.06630682,0.63280445,-0.9815087,-2.067938,-1.1305376,1.9821455,1.907114,-0.94058377,0.69769394,-0.96672183,-2.0239894,-1.1959752,2.0265992,1.8540866,-0.93526256,-1.4152018,-0.27541432,-0.86429346,1.4160166,-0.69866407,0.4420779,-0.12703484,-0.20581055,-0.5565338,0.71763974,-1.4864025,0.13401927,0.056232005,-0.16087341,-0.57255554,0.67667675,0.9057306,-0.04127671,0.14818047,0.39495674,-1.2935549,0.16208939,-0.07193909,0.0,1.0,0.0,0.0,0.0,0.0,0.0,-0.44418943,0.15653381,-0.16763973,0.0101566315,-0.5440533,-5.8424234,-0.04298687,-1.3447046,-0.4720986,1.5470654
-7.4718485,56.46139,14.440838,14.036003,0.63609546,0.26587254,0.09094973,-0.79005396,-0.14327557,-0.5344222,0.79599214,-0.51736957,0.5647114,0.00019651983,0.6186885,-0.9810494,-2.0774317,-1.1163759,1.9748622,1.9105577,-0.9352429,0.6835528,-0.96942645,-2.0330532,-1.181815,2.019538,1.8584787,-0.93636703,-1.4139624,-0.26940572,-0.9196356,1.4159428,-0.7097004,0.4377986,-0.10551232,-0.22053528,-0.555027,0.7181591,-1.4671637,0.15653613,0.051190816,-0.1738205,-0.57081985,0.675859,0.91047156,-0.0406763,0.15428154,0.381555,-1.2923445,0.18730824,-0.085548855,0.0,1.0,0.0,0.0,0.0,0.0,0.0,-0.4294647,0.155027,-0.16815907,0.060367584,0.44603348,-5.231917,-0.0031471252,-1.3932705,-0.5351782,1.991184
-10.523495,49.63874,10.980494,13.385996,0.73646635,0.17983842,0.09262723,-0.79714537,-0.16932546,-0.59297615,0.79052305,-0.52034944,0.5418045,0.07105977,0.60383826,-0.986359,-2.0923507,-1.1027627,1.967503,1.9126592,-0.929261,0.6693926,-0.97220165,-2.0428028,-1.1676757,2.0123699,1.8628082,-0.9372225,-1.4168254,-0.28074184,-0.9922076,1.413454,-0.7199263,0.43105605,-0.07929889,-0.23509979,-0.55332565,0.71851563,-1.4521018,0.17520729,0.031087779,-0.18680573,-0.568882,0.6748016,0.9149641,-0.039534293,0.1605419,0.36810866,-1.2994062,0.20751242,-0.1126117,0.0,1.0,0.0,0.0,0.0,0.0,0.0,-0.41490018,0.15332565,-0.16851562,-0.32215118,-1.2771428,-6.9958806,-0.2084732,-1.2713552,-0.79258084,2.4747
-9.758596,50.145603,11.378293,13.334555,0.79702616,0.20050365,0.093036056,-0.79372776,-0.17480706,-0.6069217,0.79374146,-0.5129685,0.5512621,0.06099199,0.5900198,-0.9896824,-2.103495,-1.0883015,1.961073,1.9179344,-0.93112326,0.65521616,-0.9751256,-2.0531936,-1.153546,2.0051444,1.8670803,-0.93784344,-1.41806,-0.29681668,-1.0534093,1.4129884,-0.7242171,0.42551848,-0.05689484,-0.24950409,-0.55143356,0.71866524,-1.436127,0.19372399,0.010706807,-0.19986725,-0.5667267,0.6734857,0.919213,-0.037863337,0.16689141,0.3546279,-1.306108,0.22872736,-0.1380115,0.0,1.0,0.0,0.0,0.0,0.0,0.0,-0.4004959,0.15143356,-0.16866523,-0.16930103,-1.7550528,-5.828452,-0.009131432,-0.7003784,-0.6917,2.0954921
-7.349721,54.084366,13.471316,13.500795,0.7950021,0.2769181,0.11879359,-0.79113823,-0.17653081,-0.6040245,0.7956481,-0.5234096,0.5669223,0.07349043,0.5761023,-0.9927787,-2.113596,-1.0739812,1.9528034,1.9237726,-0.9304944,0.6410426,-0.9782012,-2.0640001,-1.1394083,1.9978712,1.871314,-0.9382567,-1.4172784,-0.31158346,-1.0883534,1.4140732,-0.7292907,0.42239,-0.036563437,-0.26371765,-0.54935074,0.71865064,-1.4162003,0.21366578,-0.0028134766,-0.21295166,-0.56433105,0.6719762,0.92320174,-0.035774067,0.17329302,0.34115702,-1.3071948,0.25365165,-0.1552461,0.0,1.0,0.0,0.0,0.0,0.0,0.0,-0.38628232,0.14935073,-0.16865063,0.0030517578,-1.6325772,-3.1376123,0.121665,-0.83259344,-0.46402216,1.8823885
-8.949151,45.699097,10.263893,12.047436,0.8772143,0.19941664,0.13275522,-0.7962383,-0.22909036,-0.638965,0.7884097,-0.51917887,0.54931974,0.117461,0.5614188,-1.0011102,-2.1278965,-1.0605674,1.9459532,1.926246,-0.9265106,0.62685853,-0.9816306,-2.0751462,-1.1252861,1.9905623,1.8755059,-0.9384586,-1.4189303,-0.35378528,-1.1226461,1.4116619,-0.7321025,0.41771144,-0.015134905,-0.27777863,-0.54710007,0.71836746,-1.4016953,0.22900175,-0.034433465,-0.22610474,-0.561718,0.6701862,0.9269411,-0.033259474,0.179626,0.32773212,-1.3156734,0.2737124,-0.18706983,0.0,1.0,0.0,0.0,0.0,0.0,0.0,-0.37222135,0.14710006,-0.16836745,-0.21243095,-4.354888,-3.1189442,-0.18312931,-0.557971,-0.6175101,2.026547
-8.7037325,43.053375,9.388537,11.244909,0.84401536,0.18441749,0.17099267,-0.79547644,-0.25636604,-0.65106577,0.7877516,-0.5400775,0.5450433,0.1873629,0.5473109,-1.0072672,-2.1402528,-1.0465109,1.9365546,1.9300102,-0.9197223,0.61266106,-0.9855693,-2.0865822,-1.1111925,1.98317,1.8796517,-0.9384162,-1.4201921,-0.4076501,-1.1498303,1.4088237,-0.74227786,0.41294387,0.010405691,-0.29170227,-0.54471207,0.71772027,-1.3881516,0.24241859,-0.072708875,-0.23934937,-0.5589218,0.6680405,0.93043125,-0.03029883,0.18582346,0.31440306,-1.3242617,0.29287407,-0.22391964,0.0,1.0,0.0,0.0,0.0,0.0,0.0,-0.3582977,0.14471206,-0.16772026,-0.16820431,-5.5132923,-2.414012,-0.20837784,-1.2861371,-0.62116385,2.450562
-7.2403145,46.817867,10.765607,11.563421,0.8406743,0.21638,0.18908313,-0.7910914,-0.26266527,-0.6605835,0.7902169,-0.5321437,0.5426652,0.24125016,0.53355193,-1.0118358,-2.1526406,-1.0321708,1.9299557,1.9339182,-0.91429114,0.59847313,-0.98998386,-2.0982468,-1.0971138,1.9757099,1.883752,-0.93810004,-1.4185189,-0.45315513,-1.1708643,1.4078041,-0.74802494,0.40850806,0.038351502,-0.3054657,-0.54219437,0.7167211,-1.3715914,0.2559062,-0.10601866,-0.25265503,-0.5559082,0.66557205,0.9336646,-0.026924621,0.19188102,0.30120948,-1.3285735,0.31423786,-0.2546895,0.0,1.0,0.0,0.0,0.0,0.0,0.0,-0.34453428,0.14219436,-0.1667211,0.10666847,-4.6861053,-1.7613173,-0.04322529,-0.8837342,-0.5931258,2.6757572
-4.92518,46.52593,11.026632,10.611056,0.7778526,0.17948931,0.21910883,-0.7822638,-0.29769507,-0.6671566,0.78547895,-0.53028864,0.5303683,0.26750743,0.52024674,-1.0197533,-2.1649625,-1.0185659,1.9226811,1.9367888,-0.9113493,0.5843455,-0.9948829,-2.1100755,-1.0830597,1.968215,1.887801,-0.9375094,-1.4109945,-0.5026649,-1.1856757,1.4047616,-0.75077474,0.40332872,0.06557265,-0.31906128,-0.53954697,0.71536344,-1.3540103,0.26820108,-0.14218318,-0.26596832,-0.55270004,0.6627879,0.9366403,-0.023166297,0.19776118,0.28819892,-1.3290923,0.3340645,-0.28666815,0.0,1.0,0.0,0.0,0.0,0.0,0.0,-0.3309387,0.13954696,-0.16536343,0.680089,-5.0800743,-1.1260271,-0.2556324,-0.59330463,-0.6605685,2.6001356
-6.723275,41.674866,8.891152,9.94784,0.7817588,0.14131153,0.23107298,-0.78737706,-0.3466754,-0.6856845,0.7847883,-0.5525925,0.50795406,0.3325526,0.50560784,-1.0295504,-2.178644,-1.0045809,1.9129558,1.9385965,-0.90425414,0.5702682,-1.0003817,-2.1220758,-1.0690327,1.9606334,1.8917851,-0.9366278,-1.4067993,-0.5660384,-1.2041718,1.4024137,-0.76125324,0.39627177,0.09542658,-0.3325119,-0.53679657,0.7135636,-1.3402942,0.27776027,-0.18938102,-0.27931213,-0.5493126,0.65961665,0.93937016,-0.018983481,0.20342276,0.27539524,-1.3341202,0.35193068,-0.3277735,0.0,1.0,0.0,0.0,0.0,0.0,0.0,-0.31748807,0.13679656,-0.16356361,0.3724575,-6.457007,-1.5372992,-0.14286041,-1.327014,-0.84061027,2.8844848
-8.194263,44.75916,9.081453,10.852933,0.7619899,0.1793586,0.24627271,-0.7906933,-0.3542908,-0.7090479,0.7848586,-0.57764596,0.47364867,0.43450436,0.4911989,-1.0358108,-2.1929805,-0.9905468,1.9028687,1.93915,-0.8931774,0.5562014,-1.0064223,-2.1343281,-1.055021,1.9528794,1.8956758,-0.93540007,-1.4068046,-0.6173761,-1.231426,1.4009557,-0.7807379,0.38618782,0.13164179,-0.34580994,-0.5339432,0.7113129,-1.3247089,0.28850588,-0.23339868,-0.29270935,-0.54572296,0.65605944,0.9418488,-0.014307918,0.20892918,0.26280168,-1.3377465,0.37243462,-0.36572474,0.0,1.0,0.0,0.0,0.0,0.0,0.0,-0.30419004,0.13394317,-0.16131288,-0.049996376,-5.269563,-2.3916721,-0.048565865,-2.26084,-1.1600435,3.5082474
-5.878502,57.166546,13.124253,12.800504,0.8244344,0.32353103,0.24200496,-0.7857386,-0.33359396,-0.7041811,0.7818221,-0.55716866,0.49051324,0.46564248,0.47762755,-1.0397817,-2.2047462,-0.9768388,1.8971626,1.9447271,-0.88883585,0.5421422,-1.0127242,-2.146786,-1.0410377,1.945021,1.8994846,-0.9338159,-1.4059647,-0.6350755,-1.2490655,1.3974686,-0.7885846,0.37854388,0.16692828,-0.3588791,-0.5309601,0.70876706,-1.2994242,0.30217367,-0.25731617,-0.3060608,-0.54187393,0.6522754,0.9440596,-0.0092088375,0.21436481,0.2504281,-1.330884,0.39977053,-0.38335726,0.0,1.0,0.0,0.0,0.0,0.0,0.0,-0.2911209,0.13096008,-0.15876704,-0.021362305,-1.9353628,-1.309228,-0.3244877,-1.2202263,-0.95629096,3.3768356
-6.7742443,48.770065,10.476684,11.1196165,0.88908845,0.2685545,0.23106408,-0.78846705,-0.40977347,-0.7039922,0.7780294,-0.5541203,0.48682556,0.4476715,0.46329552,-1.0537015,-2.2171853,-0.9632347,1.889609,1.9481672,-0.88904876,0.5280764,-1.019417,-2.1593533,-1.0270981,1.9371185,1.9032226,-0.9319296,-1.4069716,-0.68119645,-1.2578394,1.3929652,-0.79161,0.3714514,0.19567217,-0.3717575,-0.52786636,0.70584685,-1.28139,0.3124568,-0.29891163,-0.3194046,-0.53777695,0.64821523,0.94603235,-0.0037278596,0.21961896,0.23827763,-1.3309726,0.4238128,-0.41422325,0.0,1.0,0.0,0.0,0.0,0.0,0.0,-0.27824247,0.12786636,-0.15584683,-0.17585754,-4.7543883,-0.48305988,-0.37341118,-0.6718755,-0.9069383,2.776593
-2.8933134,51.25074,12.170116,10.614092,0.9405034,0.27335393,0.24459809,-0.7752743,-0.425743,-0.68223834,0.7794619,-0.52097785,0.47600633,0.4912556,0.45054898,-1.0619913,-2.2275772,-0.9491519,1.8850207,1.9508232,-0.88280404,0.51405996,-1.0265772,-2.1718457,-1.0131911,1.9293078,1.9068885,-0.92976004,-1.4002796,-0.72808784,-1.2454958,1.3899591,-0.7783906,0.36436987,0.22386582,-0.38442993,-0.5246811,0.7025358,-1.2608298,0.32140216,-0.33758783,-0.3327179,-0.5334549,0.6438919,0.94779205,0.0020208533,0.22456905,0.22639503,-1.3257811,0.44730267,-0.4392741,0.0,1.0,0.0,0.0,0.0,0.0,0.0,-0.26557004,0.124681085,-0.1525358,0.5661249,-4.8254013,1.6734123,-0.25691986,0.9174466,-0.9151578,2.731976
-4.9911447,41.839928,8.9003105,8.9899,0.92974293,0.17718375,0.24675956,-0.7825548,-0.49264306,-0.6858852,0.77813846,-0.5393749,0.4009262,0.52229685,0.4358045,-1.0758415,-2.2404342,-0.93537724,1.8753704,1.9469811,-0.87753034,0.5000791,-1.0344164,-2.1842074,-0.9993036,1.9215713,1.9104339,-0.9273179,-1.3975282,-0.8029059,-1.2318894,1.3887271,-0.77257764,0.35062087,0.25100005,-0.39696503,-0.52142715,0.6986894,-1.2487979,0.32734752,-0.39509797,-0.34601593,-0.5289116,0.63919973,0.9493748,0.008058337,0.22910306,0.21478914,-1.3284917,0.4669906,-0.47997594,0.0,1.0,0.0,0.0,0.0,0.0,0.0,-0.25303495,0.12142715,-0.14868939,0.21708012,-7.59778,1.7118454,-0.00538826,0.2567172,-1.5692413,2.6775122
