Afshin1997/kuka_rl_ros2/src/catch_and_throw/input_files/idealpd/polynomial_regressor/optimizer_files/env_289_data.csv
torque0,torque1,torque2,torque3,torque4,torque5,torque6,action0,action1,action2,action3,action4,action5,action6,set_target_0,set_target_1,set_target_2,set_target_3,set_target_4,set_target_5,set_target_6,joint_pos_0,joint_pos_1,joint_pos_2,joint_pos_3,joint_pos_4,joint_pos_5,joint_pos_6,joint_vel_0,joint_vel_1,joint_vel_2,joint_vel_3,joint_vel_4,joint_vel_5,joint_vel_6,tennisball_pos_0,tennisball_pos_1,tennisball_pos_2,tennisball_lin_vel_0,tennisball_lin_vel_1,tennisball_lin_vel_2,end_effector_pos_0,end_effector_pos_1,end_effector_pos_2,end_effector_rot_0,end_effector_rot_1,end_effector_rot_2,end_effector_rot_3,end_effector_lin_vel_0,end_effector_lin_vel_1,end_effector_lin_vel_2,obs_task_0,obs_task_1,obs_task_2,obs_task_3,obs_task_4,obs_task_5,obs_task_6,to_final_target_0,to_final_target_1,to_final_target_2,joint_acc_0,joint_acc_1,joint_acc_2,joint_acc_3,joint_acc_4,joint_acc_5,joint_acc_6
0.0,0.0,0.0,0.0,0.0,0.0,0.0,0.0,0.0,0.0,0.0,0.0,0.0,0.0,1.7802359,-1.0646509,-1.8151424,-1.1170107,1.9373155,1.1170107,-0.91629785,1.7802359,-1.0646509,-1.8151424,-1.1170107,1.9373155,1.1170107,-0.91629785,0.0,0.0,0.0,0.0,0.0,0.0,0.0,3.1925287,-0.46053314,0.099251896,-3.4816558,0.067636736,5.5978093,0.5304165,-0.45449448,0.693097,0.5745483,0.17512383,0.15255436,0.7848268,0.0,0.0,0.0,1.0,0.0,0.0,0.0,0.0,0.0,0.0,-3.8425288,0.060533136,0.45074812,0.0,0.0,0.0,0.0,0.0,0.0,0.0
0.0,0.0,0.0,0.0,0.0,0.0,0.0,0.0,0.0,0.0,0.0,0.0,0.0,0.0,1.7802359,-1.0646509,-1.8151424,-1.1170107,1.9373155,1.1170107,-0.91629785,1.7802359,-1.0646509,-1.8151424,-1.1170107,1.9373155,1.1170107,-0.91629785,0.0,0.0,0.0,0.0,0.0,0.0,0.0,3.1925287,-0.46053314,0.099251896,-3.4816558,0.067636736,5.5978093,0.5304165,-0.45449448,0.693097,0.5745483,0.17512383,0.15255436,0.7848268,0.0,0.0,0.0,1.0,0.0,0.0,0.0,0.0,0.0,0.0,-3.8425288,0.060533136,0.45074812,0.0,0.0,0.0,0.0,0.0,0.0,0.0
0.0,0.0,0.0,0.0,0.0,0.0,0.0,0.0,0.0,0.0,0.0,0.0,0.0,0.0,1.7802359,-1.0646509,-1.8151424,-1.1170107,1.9373155,1.1170107,-0.91629785,1.7802359,-1.0646509,-1.8151424,-1.1170107,1.9373155,1.1170107,-0.91629785,0.0,0.0,0.0,0.0,0.0,0.0,0.0,3.1925287,-0.46053314,0.099251896,-3.4816558,0.067636736,5.5978093,0.5304165,-0.45449448,0.693097,0.5745483,0.17512383,0.15255436,0.7848268,0.0,0.0,0.0,1.0,0.0,0.0,0.0,0.0,0.0,0.0,-3.8425288,0.060533136,0.45074812,0.0,0.0,0.0,0.0,0.0,0.0,0.0
-176.0,60.977028,-9.761932,110.0,11.245102,4.4898973,-3.796685,-0.82163316,0.3229382,-0.5729253,0.7387468,0.34352097,0.6321552,-0.58674204,1.6980726,-1.0323571,-1.872435,-1.043136,1.9716675,1.1802262,-0.97497207,1.7789465,-1.0624746,-1.8213031,-1.1117617,1.941956,1.1222197,-0.916645,-0.17157178,0.28948322,-0.82093257,0.7002459,0.6181683,0.69271815,-0.04574486,3.1577377,-0.45985413,0.15445155,-3.478175,0.067569114,5.4940267,0.5282812,-0.4578781,0.69383043,0.57809204,0.17373258,0.15116802,0.7827993,-0.28431505,-0.4510571,0.09755657,1.0,0.0,0.0,0.0,0.0,0.0,0.0,-3.8077378,0.05985412,0.39554846,-17.067114,28.747139,-81.963066,70.13565,61.600758,68.72557,-4.425622
-176.0,-33.255493,-45.783043,110.0,12.525209,1.3154607,-3.3732297,-0.8184824,-0.17734607,-0.5591475,0.69487417,0.47074997,0.61057067,-0.5856162,1.6970983,-1.0802093,-1.8772179,-1.0422742,1.9890311,1.1832768,-0.9752066,1.7774206,-1.0600065,-1.8363998,-1.0967146,1.950829,1.1350714,-0.91538423,-0.14913441,0.22079282,-1.7104232,1.773392,0.96190923,1.4487618,0.17622712,3.122982,-0.45917892,0.20861414,-3.4746974,0.06750156,5.3903475,0.52355576,-0.46660614,0.6945991,0.5860234,0.17041798,0.14766891,0.7782853,-0.53595215,-1.0109718,0.073434666,1.0,0.0,0.0,0.0,0.0,0.0,0.0,-3.7729821,0.05917892,0.34138587,1.3841718,-10.402605,-80.3026,107.50601,29.909145,65.453766,20.056894
-155.66061,99.070404,23.810629,87.41043,8.144197,7.127678,-2.0307941,-0.7798976,0.2731258,-0.04728803,0.6033488,0.5074428,0.66723025,-0.55990505,1.699431,-1.0326939,-1.8411286,-1.0363797,2.0015733,1.2017944,-0.97137475,1.7726141,-1.0571359,-1.852021,-1.0775095,1.9609208,1.1494128,-0.91401285,-0.5909952,0.30607113,-1.5066215,1.970961,1.0199022,1.4229194,0.12317491,3.0882616,-0.45850754,0.26174074,-3.4712234,0.06743407,5.286772,0.5159664,-0.4783249,0.69672036,0.5967981,0.16579908,0.14291061,0.771958,-0.8413619,-1.2176462,0.2625688,1.0,0.0,0.0,0.0,0.0,0.0,0.0,-3.7382617,0.058507532,0.28825927,-44.137882,7.60659,22.136688,20.182991,4.305923,-4.520583,-5.588688
-100.16089,94.76253,33.73591,52.35114,5.071203,7.078669,-0.3612473,-0.7803997,0.07194981,0.07241387,0.62827104,0.4973547,0.65049237,-0.58294976,1.6945741,-1.049941,-1.8447796,-1.0146824,2.0106564,1.214462,-0.9723078,1.7634321,-1.054418,-1.8626754,-1.0587965,1.9706635,1.1627241,-0.91336244,-1.0280963,0.2583422,-0.91134685,1.8387282,0.95346844,1.2969158,0.04421575,3.0535755,-0.45783615,0.31383234,-3.467753,0.06736665,5.1833,0.50582504,-0.49090576,0.7004337,0.60854214,0.16016108,0.13697265,0.765025,-1.0837781,-1.2594805,0.41242716,1.0,0.0,0.0,0.0,0.0,0.0,0.0,-3.7035756,0.057836145,0.23616767,-43.982624,-5.400544,61.675392,-13.040996,-8.323717,-13.683867,-8.316595
-43.199444,112.723495,45.195145,26.900524,2.1765804,6.6105227,0.50796354,-0.7985604,0.15865189,0.13268924,0.6178836,0.573917,0.6538665,-0.5715194,1.6835761,-1.0385528,-1.8494065,-0.99700814,2.0280552,1.2281108,-0.97051436,1.7506491,-1.0518678,-1.8669727,-1.0425612,1.9797368,1.1746546,-0.9135122,-1.3628758,0.25246066,-0.26280606,1.5512557,0.88754445,1.1568826,-0.036563244,3.0189238,-0.45716476,0.36489,-3.4642859,0.0672993,5.0799313,0.49387646,-0.50294495,0.7055707,0.62001413,0.15360057,0.12997581,0.7583505,-1.2449577,-1.172805,0.55001867,1.0,0.0,0.0,0.0,0.0,0.0,0.0,-3.6689239,0.05716476,0.18511,-33.866524,-1.0431945,66.7308,-28.887272,-7.868266,-14.4382,-8.648896
-3.1789532,123.74249,47.914127,13.276201,0.047851652,5.2920327,0.5179302,-0.80722064,0.28472143,0.101390384,0.629584,0.57633775,0.64454144,-0.5803236,1.669927,-1.0233957,-1.8568337,-0.97960275,2.0373707,1.2391088,-0.9715445,1.7356287,-1.0487398,-1.866265,-1.0290209,1.9882607,1.1853052,-0.914401,-1.5493969,0.33180127,0.18619534,1.2875307,0.83834285,1.0343529,-0.108344845,2.9843063,-0.45649338,0.41491476,-3.4608223,0.06723201,4.9766665,0.48090363,-0.5137024,0.7119559,0.63082975,0.14625853,0.12255902,0.75209135,-1.3265234,-1.0300275,0.6678893,1.0,0.0,0.0,0.0,0.0,0.0,0.0,-3.6343064,0.05649337,0.13508525,-18.988728,7.586068,46.16844,-26.592731,-5.5950046,-12.286401,-7.768296
18.168816,130.65424,45.562996,7.271865,-1.4440422,3.8281765,0.13121983,-0.8213287,0.44035497,-0.013882178,0.59301335,0.5981256,0.6282178,-0.5740317,1.6534959,-1.0047042,-1.8676533,-0.9697196,2.0480733,1.248127,-0.97180414,1.7196261,-1.0440401,-1.863301,-1.0176378,1.9965196,1.1948744,-0.91591734,-1.6183274,0.5150577,0.33568737,1.0878832,0.82091427,0.93156964,-0.16787313,2.9497232,-0.455822,0.46390763,-3.4573622,0.06716479,4.8735046,0.46756172,-0.5229187,0.7193486,0.64112455,0.13842127,0.11564783,0.7459386,-1.3472769,-0.8714533,0.76148915,1.0,0.0,0.0,0.0,0.0,0.0,0.0,-3.5997233,0.055821985,0.08609238,-7.1934223,18.053644,15.725035,-20.164251,-1.9860625,-10.107124,-6.495896
28.79989,129.15976,42.42906,5.34016,-1.9903779,2.8303237,-0.11865753,-0.82235706,0.52693135,-0.0067121107,0.5691656,0.60706604,0.61901337,-0.57592046,1.6373904,-0.99134696,-1.8639723,-0.9607213,2.0572262,1.2567757,-0.9735094,1.7035166,-1.0372518,-1.8601348,-1.0076548,2.0047538,1.2035433,-0.91794866,-1.6092526,0.7328107,0.3122031,0.96795917,0.82422,0.84602755,-0.21655771,2.9151764,-0.4551506,0.51186967,-3.4539056,0.06709764,4.770446,0.45425797,-0.53058624,0.72756904,0.6511121,0.13030073,0.10979837,0.73960733,-1.3330997,-0.719765,0.84044355,1.0,0.0,0.0,0.0,0.0,0.0,0.0,-3.5651765,0.0551506,0.038130343,0.64110756,21.564842,-1.8007159,-12.162209,0.26216507,-8.358633,-5.340037
29.646183,123.1465,38.973812,6.357839,-1.8831825,2.289488,-0.2579646,-0.8249379,0.6048163,0.001786697,0.55163115,0.6148085,0.6277793,-0.57644033,1.6210228,-0.9767702,-1.8599561,-0.95249164,2.0662346,1.2663212,-0.9755927,1.6877466,-1.0283312,-1.8577602,-0.9983854,2.0131042,1.2114722,-0.92039865,-1.5670269,0.94463646,0.21394214,0.912705,0.83869314,0.77566344,-0.25582102,2.8806639,-0.45447922,0.5588019,-3.4504523,0.06703056,4.66749,0.4411621,-0.53689575,0.7365103,0.6609603,0.12198489,0.105145164,0.73293626,-1.308373,-0.58662033,0.9101909,1.0,0.0,0.0,0.0,0.0,0.0,0.0,-3.530664,0.05447921,-0.0088018775,3.9947033,21.013046,-9.391153,-5.6824446,1.4393449,-6.9246173,-4.327965
26.810501,110.23346,34.312767,6.979966,-1.4962903,1.8796575,-0.24453099,-0.81926894,0.650468,0.008188963,0.5326168,0.61837155,0.633923,-0.57683307,1.6058197,-0.9632844,-1.8569413,-0.94512373,2.0749414,1.2748644,-0.97808194,1.6724554,-1.0176233,-1.8563945,-0.9893913,2.0216148,1.2187945,-0.9231853,-1.5171704,1.1122429,0.11206231,0.894395,0.85549045,0.71774966,-0.28741527,2.8461857,-0.45380783,0.60470533,-3.4470026,0.06696354,4.564637,0.4283018,-0.54203415,0.74602914,0.6707308,0.11352666,0.10153721,0.72589386,-1.2835125,-0.4759158,0.96406436,1.0,0.0,0.0,0.0,0.0,0.0,0.0,-3.4961858,0.053807825,-0.05470532,4.793,16.626667,-9.80938,-2.0047784,1.6884089,-5.7560444,-3.5115182
23.792582,98.63914,31.188246,7.4718456,-1.0058696,1.7378553,-0.11791341,-0.8091527,0.68274343,0.045122057,0.5209581,0.62699914,0.63949597,-0.57442963,1.5915401,-0.949349,-1.8518823,-0.9372955,2.0843148,1.282744,-0.98062825,1.657622,-1.0056471,-1.8556659,-0.9804487,2.030297,1.2256151,-0.92624086,-1.4726508,1.2256031,0.061051983,0.893646,0.8724519,0.6702087,-0.31274173,2.8117418,-0.45313644,0.649581,-3.4435563,0.06689659,4.4618874,0.4156351,-0.546196,0.7560103,0.6803811,0.10491936,0.09863695,0.71857095,-1.2647803,-0.3821159,1.0078626,1.0,0.0,0.0,0.0,0.0,0.0,0.0,-3.461742,0.053136438,-0.099581,4.281926,11.224365,-4.716093,-0.2614498,1.6976595,-4.772949,-2.8687775
19.794582,84.32663,26.809368,6.9845066,-0.58674395,1.4855411,0.022832176,-0.8048735,0.6949841,0.05842473,0.49788043,0.6412716,0.63884425,-0.574604,1.5771346,-0.93614864,-1.8498235,-0.93066067,2.0944242,1.2894995,-0.9837012,1.64313,-0.99294794,-1.8551204,-0.97155,2.0391548,1.2320257,-0.9295139,-1.4420544,1.2843366,0.053636663,0.8879317,0.89064205,0.63119406,-0.33319882,2.7773323,-0.45246506,0.69343,-3.4401135,0.066829704,4.3592405,0.4031086,-0.5495529,0.7662841,0.68982536,0.09619486,0.09610598,0.71109146,-1.2513753,-0.30554694,1.0322925,1.0,0.0,0.0,0.0,0.0,0.0,0.0,-3.4273324,0.05246505,-0.14343,2.9056072,5.7894945,-0.36104992,-0.775218,1.818955,-3.909886,-2.3644507
14.086995,75.04662,23.428425,8.1634445,-0.21309698,1.3518236,0.04426968,-0.80413103,0.7163322,0.052290477,0.5008641,0.6439915,0.6525487,-0.57031024,1.5627168,-0.9213147,-1.8498914,-0.9214636,2.103554,1.2972806,-0.9865449,1.6288248,-0.97989404,-1.854512,-0.9626808,2.0481727,1.2381083,-0.93295854,-1.4268935,1.3121836,0.06449501,0.88589287,0.9052301,0.60052305,-0.3492589,2.742957,-0.45179367,0.73625326,-3.436674,0.06676289,4.2566957,0.39064884,-0.552269,0.77671474,0.6990443,0.08738423,0.09373487,0.7035019,-1.2462679,-0.24429543,1.0449351,1.0,0.0,0.0,0.0,0.0,0.0,0.0,-3.3929572,0.051793665,-0.18625325,1.3743877,2.7174711,1.4469773,-0.4066944,1.4695048,-3.0802608,-1.9035399
11.550709,67.274506,20.525892,7.5377493,-0.10796666,1.1421444,0.09708033,-0.8039292,0.7237085,0.05230898,0.4745122,0.6513045,0.6506312,-0.5666964,1.5484319,-0.9075232,-1.8492811,-0.9152296,2.1133032,1.3031714,-0.9896282,1.6145846,-0.9667162,-1.8537471,-0.95394516,2.0573204,1.2439257,-0.93653864,-1.4235402,1.3195149,0.081639916,0.8687803,0.9178999,0.57580495,-0.3617605,2.7086163,-0.4511299,0.77805185,-3.433238,0.06669614,4.154254,0.37823105,-0.5544281,0.787165,0.7080072,0.078548394,0.09143361,0.6958417,-1.2419255,-0.19095919,1.0431929,1.0,0.0,0.0,0.0,0.0,0.0,0.0,-3.3586164,0.051129907,-0.22805184,0.19528866,0.6834507,2.0620778,-1.9279599,1.2843966,-2.4444818,-1.5315533
11.771116,63.849068,19.27038,6.5768185,-0.14591199,1.0035195,0.15270981,-0.80038816,0.7304061,0.062547415,0.45038754,0.6600082,0.6499436,-0.56411225,1.5345458,-0.89367557,-1.8474923,-0.9089064,2.123321,1.30892,-0.99294984,1.6003462,-0.9535259,-1.8527801,-0.94548607,2.0665863,1.2495352,-0.9402227,-1.424525,1.3187308,0.10293319,0.83754057,0.9296238,0.556002,-0.37154257,2.6743097,-0.45046616,0.8188268,-3.4298055,0.066629454,4.051914,0.36587334,-0.55605316,0.79754174,0.7166694,0.06973212,0.089166105,0.68816555,-1.2344745,-0.13904066,1.0337447,1.0,0.0,0.0,0.0,0.0,0.0,0.0,-3.3243098,0.05046615,-0.26882678,-0.23944378,-0.116539,2.4721549,-3.349173,1.1957169,-1.9139767,-1.2525082
12.003185,62.391975,18.447495,6.176217,-0.21468121,0.8822587,0.15990593,-0.79807234,0.7379269,0.058498204,0.43360016,0.6626281,0.65097916,-0.55810463,1.5205389,-0.8797332,-1.8469303,-0.9021261,2.132849,1.3146331,-0.99603313,1.5860907,-0.9403404,-1.8516605,-0.9373827,2.0759513,1.254975,-0.9439859,-1.4263139,1.3183893,0.11604146,0.8004698,0.9388872,0.54026955,-0.37873816,2.6400375,-0.4498024,0.8585791,-3.4263763,0.06656284,3.9496772,0.3536129,-0.5571785,0.8077936,0.72501546,0.060965445,0.08695511,0.6804958,-1.2235582,-0.08813658,1.0200404,1.0,0.0,0.0,0.0,0.0,0.0,0.0,-3.2900376,0.049802393,-0.3085791,-0.3180027,-0.06418228,1.6357064,-3.9335966,0.96211433,-1.4816284,-0.9829104
14.2076645,62.478207,18.177044,4.711129,-0.4430635,0.7460088,0.19970113,-0.7980321,0.7499137,0.05182018,0.3874109,0.6704109,0.6542704,-0.5498214,1.5062875,-0.86534905,-1.8464785,-0.8986416,2.1429925,1.320402,-0.998968,1.5718161,-0.92710435,-1.8504951,-0.92979527,2.085408,1.260285,-0.94780344,-1.428209,1.3251858,0.117847055,0.74412614,0.94804513,0.5282157,-0.38360107,2.6057997,-0.44913864,0.8973098,-3.4229507,0.06649629,3.8475428,0.3415165,-0.55776215,0.81787556,0.73301554,0.05229015,0.08487075,0.67286754,-1.2044266,-0.03340355,1.0016803,1.0,0.0,0.0,0.0,0.0,0.0,0.0,-3.2557998,0.049138635,-0.34730977,-0.33512115,0.65767765,0.50011575,-5.869508,0.96081495,-1.070118,-0.74257255
17.32579,63.69397,18.750626,3.4000978,-0.62347883,0.68410397,0.27170843,-0.7949695,0.7546389,0.07334624,0.34557232,0.67420596,0.6542653,-0.5393717,1.4923191,-0.85164046,-1.8431605,-0.89523804,2.1528285,1.3257115,-1.0017406,1.5575434,-0.9137777,-1.8492496,-0.9228735,2.0949485,1.2654921,-0.9516544,-1.4276044,1.3351717,0.12781355,0.6740944,0.95599884,0.518879,-0.38634443,2.5715961,-0.44847488,0.9350199,-3.4195285,0.06642981,3.7455103,0.329669,-0.55775833,0.82777333,0.7406159,0.043718044,0.08293945,0.66535544,-1.1776028,0.026343009,0.98316145,1.0,0.0,0.0,0.0,0.0,0.0,0.0,-3.2215962,0.048474878,-0.3850199,-0.08671284,0.9836197,1.3208225,-7.2374344,0.8457422,-0.76464415,-0.53117275
22.246796,62.350204,18.4088,-0.02367878,-0.9994167,0.44351876,0.38955382,-0.7928263,0.7597728,0.07479293,0.25841126,0.68093866,0.6577077,-0.5403406,1.4782608,-0.83780044,-1.8417703,-0.8970324,2.1630423,1.3312628,-1.0056884,1.5432898,-0.9003395,-1.8479106,-0.9169264,2.1045692,1.2706286,-0.9555263,-1.4250133,1.3467724,0.1370009,0.5675153,0.9641559,0.5125884,-0.38836816,2.537427,-0.44781113,0.9717105,-3.4161096,0.066363394,3.64358,0.3181963,-0.55710983,0.83741444,0.7477293,0.03531726,0.08120659,0.6580721,-1.1352861,0.09149171,0.9549782,1.0,0.0,0.0,0.0,0.0,0.0,0.0,-3.187427,0.04781112,-0.4217105,0.10983944,1.1627197,1.2346089,-10.905397,0.87331533,-0.37173033,-0.44992566
29.907944,62.815884,19.048786,-4.8988547,-1.5439392,0.21648368,0.5892792,-0.7908341,0.771413,0.1029419,0.13239047,0.6845318,0.6598307,-0.53598607,1.4642063,-0.8231982,-1.8376164,-0.90368736,2.1730223,1.3366116,-1.0091249,1.5290705,-0.88675344,-1.8463695,-0.9124603,2.1142623,1.2757193,-0.9594125,-1.4212583,1.3626847,0.16098116,0.40542626,0.97148925,0.5090972,-0.38944346,2.503292,-0.44714737,1.0073825,-3.4126942,0.06629704,3.5417514,0.30730247,-0.5557213,0.8467052,0.7542095,0.027186308,0.07972787,0.6512083,-1.0714662,0.1678005,0.9174655,1.0,0.0,0.0,0.0,0.0,0.0,0.0,-3.1532922,0.047147363,-0.4573825,0.22468567,1.6147375,2.7141066,-16.461355,0.7996917,0.022149086,-0.3452599
38.610664,62.627426,19.739124,-10.574046,-2.1170154,-0.061080754,0.8392875,-0.78801495,0.77852756,0.14940408,-0.02379347,0.69184744,0.6527239,-0.5236649,1.450269,-0.8089007,-1.8314291,-0.9148397,2.1834471,1.3409917,-1.011779,1.5148989,-0.8730024,-1.8443954,-0.91009045,2.1240356,1.2807852,-0.9632978,-1.4162393,1.3794135,0.21040893,0.1799982,0.97973394,0.5071819,-0.3888131,2.4691916,-0.4464836,1.042037,-3.4092822,0.06623076,3.4400246,0.29722595,-0.55347824,0.85554,0.7598686,0.019439245,0.07852739,0.64502347,-0.9831363,0.25452504,0.8687681,1.0,0.0,0.0,0.0,0.0,0.0,0.0,-3.1191916,0.046483606,-0.492037,0.36785603,1.7240286,5.2268653,-22.779682,0.9135127,0.30869246,-0.14896989
43.332718,60.152824,19.364841,-13.92412,-2.419654,-0.35302293,0.9752127,-0.7816591,0.77846175,0.1864552,-0.15797152,0.68551564,0.65006256,-0.5139043,1.436733,-0.79515624,-1.8257499,-0.9258876,2.1925871,1.3457915,-1.0146883,1.5007998,-0.8591217,-1.841811,-0.9102135,2.1338623,1.2858378,-0.96716493,-1.4079778,1.3912212,0.27487788,-0.077022724,0.983906,0.506448,-0.38661423,2.4351234,-0.44581985,1.075675,-3.4058735,0.06616454,3.3383994,0.28814316,-0.550354,0.86382186,0.7645927,0.012176212,0.077613935,0.63970757,-0.87882733,0.34109703,0.810885,1.0,0.0,0.0,0.0,0.0,0.0,0.0,-3.0851235,0.04581985,-0.525675,0.73890686,1.2614012,6.627244,-25.896883,0.55550337,0.50622225,0.057899952
40.06201,58.970997,19.030466,-11.245804,-2.061874,-0.37337422,0.91911864,-0.778126,0.7773773,0.23458716,-0.22414292,0.6925118,0.6451798,-0.490798,1.4229872,-0.78138393,-1.8183522,-0.93262774,2.2031136,1.3503557,-1.0162448,1.4867903,-0.8451704,-1.8384788,-0.9126644,2.1437385,1.2908789,-0.970992,-1.3986841,1.3967745,0.35288322,-0.30147496,0.98937577,0.50519127,-0.38176507,2.4010897,-0.4451561,1.1082975,-3.4024684,0.06609839,3.236876,0.28003597,-0.54644775,0.87157816,0.76842386,0.0053685415,0.076913625,0.63527954,-0.7828029,0.41609126,0.75984657,1.0,0.0,0.0,0.0,0.0,0.0,0.0,-3.0510898,0.04515609,-0.55829746,0.8910179,0.6558418,7.8421474,-22.585287,0.75986385,0.4142046,0.37061572
34.65246,59.0331,18.703241,-6.929082,-1.6233978,-0.314083,0.77206236,-0.77243173,0.7853364,0.2639779,-0.28484255,0.69419956,0.64721614,-0.46921703,1.4095471,-0.7666367,-1.812081,-0.94114864,2.2131584,1.3556005,-1.0179137,1.4728819,-0.83115995,-1.8343933,-0.9169874,2.1536644,1.2959067,-0.9747552,-1.3880587,1.4029205,0.42670122,-0.47624633,0.99468845,0.5037123,-0.37474486,2.3670902,-0.44449234,1.1399055,-3.3990667,0.066032305,3.135454,0.27277946,-0.5418587,0.87891006,0.7714948,-0.0010808214,0.07636373,0.6316353,-0.7007456,0.4793945,0.71964234,1.0,0.0,0.0,0.0,0.0,0.0,0.0,-3.0170903,0.044492334,-0.58990544,1.0548592,0.730896,7.3046265,-17.58166,0.8111954,0.32931566,0.6259084
34.47389,61.351597,19.790142,-5.4576907,-1.5185912,-0.2510093,0.7603321,-0.7594424,0.7927455,0.33048722,-0.38218215,0.6913616,0.6455356,-0.45125723,1.3969377,-0.7518854,-1.8013445,-0.9552056,2.2228005,1.3604603,-1.019881,1.4591204,-0.81707036,-1.829459,-0.92290115,2.1636283,1.3009192,-0.97843736,-1.3721296,1.4114035,0.5149052,-0.62998265,0.99815905,0.5021625,-0.3663059,2.333125,-0.4438324,1.1705,-3.3956683,0.065966286,3.0341332,0.26631737,-0.53663635,0.88590753,0.77385944,-0.0072625875,0.07592038,0.6287486,-0.62156665,0.5427558,0.68809295,1.0,0.0,0.0,0.0,0.0,0.0,0.0,-2.9831252,0.04383239,-0.6205,1.6171455,0.9822607,8.642519,-15.439522,0.6956816,0.31487942,0.7958114
30.545776,61.302147,19.837376,-2.3553305,-1.1790388,-0.15880503,0.6854827,-0.758043,0.791653,0.39084232,-0.43589658,0.69577545,0.63882256,-0.433592,1.383316,-0.7379051,-1.7903748,-0.9664908,2.2332058,1.3648014,-1.0217966,1.4454981,-0.80291593,-1.8235614,-0.93011093,2.1736343,1.3059126,-0.9820289,-1.3587302,1.4172565,0.6136989,-0.751578,1.002532,0.49979493,-0.3568874,2.2991943,-0.44317627,1.2000822,-3.3922732,0.06590033,2.932914,0.260561,-0.53082275,0.8926541,0.77558166,-0.013266005,0.07551673,0.6265735,-0.5539135,0.5998818,0.664723,1.0,0.0,0.0,0.0,0.0,0.0,0.0,-2.9491944,0.043176264,-0.6500822,1.377368,0.7314205,9.626031,-12.207174,0.8390784,0.19894838,0.91397166
28.138226,63.157444,20.664522,0.83776665,-0.9030833,-0.02365987,0.60803246,-0.73799247,0.7970954,0.44842833,-0.4545385,0.6924538,0.64120567,-0.39136443,1.3716989,-0.7232064,-1.7787186,-0.9755648,2.2428796,1.3700331,-1.0211654,1.4320666,-0.7886976,-1.8166339,-0.9382067,2.183667,1.3108851,-0.98550314,-1.3377534,1.4239079,0.7179336,-0.8289988,1.005121,0.4976614,-0.34436205,2.265297,-0.44252014,1.2286528,-3.3888817,0.06583445,2.831796,0.2553997,-0.5244522,0.8992599,0.77673095,-0.01921644,0.07509777,0.6250441,-0.49629566,0.6544299,0.6533894,1.0,0.0,0.0,0.0,0.0,0.0,0.0,-2.915297,0.042520136,-0.6786528,2.1534681,0.82786083,10.086703,-7.7753663,0.7226467,0.2000153,1.2349725
19.300743,59.803932,18.794333,5.8294706,-0.37968007,0.05592738,0.4011202,-0.7506778,0.7979069,0.47254252,-0.4573177,0.6920895,0.6421685,-0.37245244,1.3569988,-0.7089069,-1.7693797,-0.98393846,2.2528758,1.3751019,-1.0227484,1.4187475,-0.77442586,-1.8088024,-0.94675064,2.1937149,1.3158346,-0.9888486,-1.3299189,1.4288188,0.8036366,-0.86307764,1.006318,0.49516565,-0.33127123,2.231433,-0.441864,1.2562131,-3.3854935,0.06576863,2.730779,0.25065994,-0.5176277,0.9057949,0.77745783,-0.025190415,0.07464933,0.62398094,-0.45917,0.69512975,0.647358,1.0,0.0,0.0,0.0,0.0,0.0,0.0,-2.881433,0.041864008,-0.70621306,0.8049965,0.655818,8.24548,-3.4698606,0.5770445,0.09112954,1.2931764
15.529955,57.820972,17.872814,8.576111,-0.11679232,0.053807795,0.28228283,-0.7342877,0.7997862,0.5007485,-0.44798237,0.68955564,0.6365618,-0.3265002,1.3453188,-0.6944472,-1.7587276,-0.9915489,2.2626705,1.3794909,-1.0214987,1.4055315,-0.76011217,-1.8002536,-0.95535946,2.2037628,1.3207556,-0.9920406,-1.3185993,1.4327228,0.8708738,-0.8605,1.0057127,0.49207357,-0.3153277,2.1976032,-0.4412079,1.2827638,-3.3821087,0.06570287,2.629863,0.24621773,-0.5104637,0.9123038,0.7778816,-0.031236708,0.07417741,0.6232353,-0.43154243,0.7279684,0.64562815,1.0,0.0,0.0,0.0,0.0,0.0,0.0,-2.8476033,0.04120788,-0.7327638,1.1451006,0.56045055,6.395066,0.17689466,0.39298534,-0.0013709068,1.573348
10.992322,51.1911,14.9021635,9.364171,0.027171195,-0.14784628,0.17628536,-0.74430317,0.7971451,0.49893922,-0.47167462,0.6922407,0.6339168,-0.31096348,1.3311012,-0.6803976,-1.7503597,-1.0025269,2.272987,1.3841473,-1.023137,1.3923537,-0.745787,-1.7912757,-0.96393776,2.213803,1.3256441,-0.9950761,-1.3177794,1.4329946,0.90604657,-0.85735846,1.0050572,0.4886816,-0.29967028,2.1638079,-0.44055176,1.3083063,-3.3787272,0.065637186,2.529048,0.24201679,-0.5030594,0.9187256,0.77809864,-0.037284173,0.07373924,0.6226835,-0.4086165,0.7481615,0.63449705,1.0,0.0,0.0,0.0,0.0,0.0,0.0,-2.813808,0.04055175,-0.7583063,0.06504059,0.18589497,3.2599926,0.20155907,0.3184557,-0.066667795,1.5445709
8.576197,49.42452,14.082085,10.735155,0.14639658,-0.1751589,0.10855253,-0.74312145,0.8017007,0.51822674,-0.45525557,0.6889699,0.6325069,-0.27379188,1.3180416,-0.6656169,-1.7394531,-1.0094633,2.2827,1.3888948,-1.0224553,1.3791605,-0.73144853,-1.7820404,-0.9723921,2.223832,1.3304983,-0.99794286,-1.3200037,1.4346435,0.9284054,-0.841822,1.0029349,0.4853011,-0.28247648,2.130046,-0.43989563,1.3328414,-3.3753493,0.06557156,2.4283338,0.2380085,-0.4954872,0.92504406,0.77817684,-0.04330727,0.07337092,0.6222395,-0.3904489,0.76383406,0.6241481,1.0,0.0,0.0,0.0,0.0,0.0,0.0,-2.780046,0.039895624,-0.7828414,-0.25725365,0.32343864,2.001977,1.4273882,0.15580654,-0.090390444,1.6975164
4.8564153,45.82176,12.54329,12.491272,0.36105216,-0.20897374,0.020010479,-0.7517656,0.7977729,0.5207989,-0.43102914,0.6848431,0.63812834,-0.2417993,1.3039839,-0.65167123,-1.7299604,-1.015495,2.2923162,1.3943112,-1.0221227,1.3658911,-0.71711576,-1.772681,-0.980587,2.2338264,1.3353258,-1.0006312,-1.3292581,1.4333982,0.9377397,-0.81249195,0.9991407,0.48259792,-0.2643571,2.0963173,-0.4392395,1.3563701,-3.3719747,0.065506004,2.3277202,0.23412037,-0.4878235,0.931254,0.7781898,-0.04930558,0.07309096,0.6218097,-0.379994,0.7716591,0.6131543,1.0,0.0,0.0,0.0,0.0,0.0,0.0,-2.7463174,0.039239496,-0.8063701,-0.98941326,0.030183792,0.73826313,2.7788281,-0.035214424,-0.05658865,1.7833531
4.846113,44.270866,12.060017,12.310776,0.34147137,-0.2891289,0.020801034,-0.75227636,0.7987349,0.5250397,-0.42703322,0.68391097,0.6349003,-0.19890742,1.2906635,-0.63724226,-1.720177,-1.0232903,2.3022175,1.3988159,-1.020522,1.352532,-0.70279443,-1.763274,-0.9885025,2.243779,1.3401266,-1.0031222,-1.3383335,1.4322494,0.9409127,-0.7850217,0.9951136,0.47999176,-0.24432054,2.062623,-0.43858337,1.3788934,-3.3686035,0.06544051,2.2272072,0.23034859,-0.48008347,0.9373407,0.778156,-0.055260308,0.07291683,0.6213716,-0.36817077,0.7779337,0.60029763,1.0,0.0,0.0,0.0,0.0,0.0,0.0,-2.7126231,0.038583368,-0.82889336,-0.975132,0.036144257,0.14204979,2.5911808,-0.077056885,-0.05298853,1.9748449
1.6884632,40.18962,10.463056,13.558937,0.536253,-0.33290738,-0.044039905,-0.7700454,0.78974545,0.5209798,-0.40159574,0.6771668,0.6398152,-0.17502263,1.2755275,-0.6238199,-1.7111759,-1.0286621,2.3114955,1.4041082,-1.0206245,1.3390185,-0.68852556,-1.753886,-0.9960928,2.2536743,1.3449064,-1.0054148,-1.3561257,1.4256139,0.93761516,-0.75099915,0.98914284,0.4779601,-0.22448288,2.0289621,-0.43792725,1.4004123,-3.3652356,0.06537508,2.1267946,0.22664356,-0.47233582,0.94328535,0.7781213,-0.061157268,0.072850294,0.6208702,-0.36279726,0.7767388,0.58559686,1.0,0.0,0.0,0.0,0.0,0.0,0.0,-2.6789622,0.03792724,-0.8504123,-1.8749475,-0.51927567,-0.46473742,3.2198668,-0.29268265,-0.024729967,1.9466728
0.9432049,40.204773,10.5982895,14.564736,0.60526514,-0.29502502,-0.06452433,-0.7783883,0.79205537,0.5265092,-0.37307057,0.67254466,0.6416695,-0.13616098,1.2611797,-0.60932004,-1.701235,-1.0333998,2.3209288,1.4090734,-1.0190309,1.3253103,-0.67430913,-1.7445171,-1.0032817,2.2635086,1.349671,-1.0075034,-1.3761189,1.4208207,0.9362077,-0.7089397,0.98254675,0.47633722,-0.20353015,1.9953346,-0.43727112,1.4209279,-3.361871,0.065309726,2.0264826,0.2229681,-0.4645958,0.94910955,0.7781117,-0.067023195,0.07288245,0.6202727,-0.36043727,0.77593815,0.5744713,1.0,0.0,0.0,0.0,0.0,0.0,0.0,-2.6453347,0.037271112,-0.8709279,-2.107501,-0.3350973,-0.26574135,4.0225506,-0.3510356,0.0009536743,2.057269
-0.4306116,37.49439,9.5543165,15.115967,0.7066319,-0.35837936,-0.10195804,-0.7912241,0.78626275,0.5101222,-0.3487698,0.67522556,0.646936,-0.10727187,1.2461879,-0.59568286,-1.6935048,-1.0381587,2.331031,1.4143646,-1.0182306,1.311381,-0.6601547,-1.735234,-1.0100242,2.2732933,1.3544222,-1.0093783,-1.3988689,1.4141933,0.92549235,-0.6632037,0.97844505,0.47537777,-0.18249308,1.9617414,-0.436615,1.4404411,-3.3585098,0.06524443,1.9262705,0.21929741,-0.45690536,0.95481116,0.7781551,-0.07285255,0.07301294,0.6195451,-0.36062524,0.77042246,0.56199247,1.0,0.0,0.0,0.0,0.0,0.0,0.0,-2.6117415,0.036614984,-0.8904411,-2.3973465,-0.52342415,-1.1702418,4.3774486,-0.12024641,0.051540136,2.0625858
-1.2781267,35.330624,8.830876,15.899878,0.8171153,-0.40159535,-0.13835464,-0.79591984,0.7792118,0.4943272,-0.3060312,0.6718277,0.65657914,-0.06721507,1.231789,-0.58223355,-1.6858013,-1.0406274,2.340476,1.4200802,-1.0160998,1.2972533,-0.64608514,-1.7261264,-1.0162135,2.2830398,1.3591734,-1.0110358,-1.4177682,1.4049686,0.9056507,-0.6049165,0.97461236,0.4754563,-0.1603717,1.9281816,-0.4359665,1.458953,-3.355152,0.0651792,1.8261585,0.21560287,-0.44929886,0.96039695,0.7782838,-0.07866075,0.07322749,0.61864734,-0.36352515,0.7609528,0.5506285,1.0,0.0,0.0,0.0,0.0,0.0,0.0,-2.5781817,0.035966486,-0.908953,-2.014637,-0.7856369,-2.0754695,5.621612,-0.10213852,0.14125705,2.1637826
2.0691614,35.202763,9.07726,13.282299,0.5301447,-0.5662934,-0.048144806,-0.8021368,0.7779436,0.49276847,-0.32512718,0.66769785,0.65110457,-0.049197987,1.2170396,-0.56829077,-1.6768496,-1.0487262,2.3498096,1.4242839,-1.0159556,1.2829672,-0.6320976,-1.7172,-1.0220271,2.2927482,1.3639227,-1.0124797,-1.4325712,1.3970441,0.88795215,-0.573937,0.9702976,0.47540504,-0.13937312,1.8946552,-0.435318,1.4764645,-3.3517973,0.065114036,1.7261467,0.21196938,-0.44174957,0.96582156,0.7784516,-0.08439048,0.07355073,0.6176418,-0.3546666,0.755157,0.53306013,1.0,0.0,0.0,0.0,0.0,0.0,0.0,-2.5446553,0.035317987,-0.9264645,-1.5811682,-0.6631851,-1.8503189,2.9163003,-0.17290115,0.15136003,2.0568757
4.39244,35.138393,9.213347,11.506542,0.32903898,-0.70134616,0.013919782,-0.8068163,0.77764547,0.4790553,-0.323287,0.668142,0.650612,-0.009488411,1.2022855,-0.55433303,-1.6692945,-1.0543559,2.3595624,1.4289839,-1.0134284,1.2685648,-0.6181692,-1.7084701,-1.0276653,2.3024223,1.368672,-1.013708,-1.4431905,1.3918567,0.8679195,-0.56098926,0.9670426,0.47544897,-0.11739965,1.8611622,-0.4346695,1.4929765,-3.3484461,0.06504893,1.6262349,0.2084856,-0.43424606,0.9710391,0.77861065,-0.08998003,0.074016824,0.61659586,-0.33725214,0.75137913,0.511373,1.0,0.0,0.0,0.0,0.0,0.0,0.0,-2.5111623,0.03466949,-0.94297653,-1.146245,-0.3940344,-2.0747066,1.1310577,-0.08611679,0.17507076,2.1590412
6.324356,35.52193,9.619539,10.300842,0.18379152,-0.78209466,0.0817295,-0.80966693,0.776008,0.47498804,-0.32174858,0.6660137,0.65324765,0.05766791,1.1875981,-0.5405684,-1.6609713,-1.0598401,2.3690236,1.4339968,-1.0079412,1.2540842,-0.6042789,-1.6999099,-1.0332633,2.312062,1.373427,-1.0146884,-1.4498999,1.3884988,0.8516925,-0.5600662,0.96394247,0.47588477,-0.09168075,1.8277025,-0.434021,1.5084902,-3.3450983,0.0649839,1.526423,0.20522213,-0.4267578,0.97602654,0.7787087,-0.09539737,0.074645594,0.61558104,-0.31362304,0.75018585,0.48795232,1.0,0.0,0.0,0.0,0.0,0.0,0.0,-2.4777026,0.03402099,-0.9584902,-0.7402897,-0.21266937,-1.6939998,-0.0549078,-0.07740259,0.2239883,2.5363252
6.892409,36.60876,10.310039,10.773378,0.18658376,-0.75552285,0.10937086,-0.8108809,0.77706057,0.47373858,-0.30218613,0.6648391,0.6519126,0.13647458,1.1729962,-0.5265729,-1.652536,-1.0634819,2.378546,1.4386183,-1.0010409,1.2395617,-0.59040105,-1.691468,-1.038808,2.321675,1.378184,-1.015375,-1.4532771,1.3878989,0.8414864,-0.55297786,0.96146864,0.47614035,-0.061114725,1.7942772,-0.4333725,1.5230066,-3.3417537,0.06491893,1.4267108,0.20219326,-0.41925812,0.98080844,0.77871317,-0.100663945,0.07543127,0.6146402,-0.29008526,0.75169206,0.4685024,1.0,0.0,0.0,0.0,0.0,0.0,0.0,-2.4442773,0.03337249,-0.97300655,-0.40528774,0.06635189,-1.0996938,0.56967735,-0.0019073486,0.2007842,3.020958
7.215418,37.0747,10.792658,11.299804,0.19821107,-0.7288668,0.12862249,-0.80995625,0.7758571,0.47465008,-0.28820205,0.6552034,0.65655863,0.20753181,1.158566,-0.51281536,-1.644003,-1.0676281,2.3871953,1.4438398,-0.9946218,1.2250296,-0.5765251,-1.6830795,-1.0442268,2.3312423,1.3829466,-1.0157298,-1.4533147,1.3879086,0.83770657,-0.5384996,0.95622873,0.47673166,-0.026953075,1.7608843,-0.432724,1.5365266,-3.3384128,0.06485402,1.3270985,0.19939709,-0.41173172,0.98542154,0.7786025,-0.10582634,0.076362915,0.6137977,-0.26711383,0.7553637,0.45247236,1.0,0.0,0.0,0.0,0.0,0.0,0.0,-2.4108844,0.032723993,-0.98652655,-0.06887913,0.13008118,-0.46579838,1.3138533,-0.2662778,0.22912621,3.3784947
7.3646164,35.226513,10.250005,10.761547,0.17766976,-0.80845666,0.1473077,-0.8119835,0.77040976,0.46918696,-0.29613498,0.64914614,0.6628316,0.24934445,1.1438313,-0.49948412,-1.6361607,-1.0738403,2.396157,1.4492297,-0.9907953,1.2104994,-0.562672,-1.6747234,-1.0495521,2.3407447,1.3877188,-1.0157412,-1.453092,1.3849175,0.8347239,-0.5308291,0.94919324,0.4779361,0.007253488,1.7275257,-0.4320755,1.5490512,-3.3350751,0.06478918,1.2275857,0.19684505,-0.404171,0.98985285,0.77836263,-0.110874385,0.07744033,0.61307544,-0.24216838,0.7571939,0.4336471,1.0,0.0,0.0,0.0,0.0,0.0,0.0,-2.3775258,0.032075495,-0.99905115,-0.03709793,-0.17290115,-0.37907362,0.6350875,-0.4584074,0.29146075,3.3826337
8.071881,32.211613,9.083901,8.739698,0.04762119,-1.0083541,0.17916276,-0.81576574,0.76457673,0.45957142,-0.32993993,0.64318115,0.6595902,0.2576716,1.1289228,-0.48621434,-1.6287663,-1.0825461,2.405063,1.4536778,-0.9899741,1.1959559,-0.54887617,-1.6664264,-1.0549899,2.350167,1.3925005,-1.0154399,-1.4547449,1.3782716,0.8277807,-0.54861367,0.94069636,0.4788456,0.037667185,1.6941996,-0.431427,1.5605813,-3.3317409,0.06472441,1.1281724,0.19459534,-0.3966217,0.9940292,0.7779852,-0.11571641,0.07868833,0.6125004,-0.21011616,0.754891,0.40586358,1.0,0.0,0.0,0.0,0.0,0.0,0.0,-2.3441997,0.031426996,-1.0105813,-0.20928383,-0.5458832,-0.7572293,-1.9025087,-0.64070225,0.27256608,3.007702
5.818675,30.629105,8.532193,11.067601,0.28477126,-0.9405812,0.10167493,-0.8137234,0.7618985,0.44932172,-0.28331718,0.63316715,0.66217726,0.31167996,1.1145835,-0.47268632,-1.6214943,-1.0833217,2.4134839,1.4587183,-0.9842719,1.1814047,-0.5351528,-1.6582382,-1.0604125,2.3594902,1.3972899,-1.0148295,-1.455387,1.3707925,0.8155482,-0.5407215,0.93016374,0.47961882,0.0685919,1.6609077,-0.4307785,1.5711181,-3.32841,0.06465969,1.0288584,0.19259834,-0.38912582,0.9979761,0.7775104,-0.1203807,0.08009771,0.61202145,-0.18680748,0.7493255,0.38448456,1.0,0.0,0.0,0.0,0.0,0.0,0.0,-2.3109078,0.030778497,-1.0211182,-0.12822151,-0.6251097,-1.2881637,0.64593554,-0.829339,0.23208857,3.0531704
2.7111535,28.1531,7.7703724,14.2841015,0.6591331,-0.81815994,0.007821232,-0.8133659,0.7515175,0.44169834,-0.23345178,0.6300005,0.66777265,0.36138266,1.1000681,-0.46000105,-1.6140684,-1.0837578,2.4224901,1.4640671,-0.9786912,1.1668516,-0.52153814,-1.650193,-1.0654956,2.368714,1.4020907,-1.0139064,-1.4556304,1.3588648,0.8006161,-0.49801978,0.92083454,0.48048955,0.09999078,1.6276484,-0.43013,1.5806625,-3.325082,0.06459505,0.92964375,0.19073772,-0.38171387,1.0017738,0.77700096,-0.12497167,0.08160968,0.61154824,-0.17688745,0.7393292,0.3718899,1.0,0.0,0.0,0.0,0.0,0.0,0.0,-2.2776484,0.030129999,-1.0306625,-0.11768341,-1.0662079,-1.5587568,4.0974083,-0.6867528,0.20851493,3.0906067
3.0414681,26.948736,7.2639227,13.556906,0.5984552,-0.9193052,0.007297162,-0.8127927,0.7498644,0.42403063,-0.24908985,0.62683946,0.6632423,0.36996242,1.0855724,-0.44655168,-1.6077899,-1.0904046,2.4313982,1.4684149,-0.9769101,1.1523005,-0.50803125,-1.64235,-1.0702277,2.377854,1.4068934,-1.0126971,-1.4551846,1.3483951,0.7785704,-0.4655493,0.91283613,0.4808068,0.12795481,1.5944223,-0.4294815,1.5892155,-3.3217576,0.06453047,0.83052826,0.18900108,-0.3744011,1.0054227,0.7764814,-0.12947825,0.08322251,0.6110531,-0.16358678,0.7278596,0.3563412,1.0,0.0,0.0,0.0,0.0,0.0,0.0,-2.2444224,0.0294815,-1.0392156,-0.042414665,-0.92487335,-2.2580624,3.0820668,-0.5723834,0.1537025,2.75089
3.3825698,25.975048,6.8461595,12.63217,0.5152993,-1.0127563,0.015449394,-0.8189295,0.7466679,0.4129518,-0.25581932,0.62332684,0.66078603,0.37181932,1.0704075,-0.43336445,-1.6010548,-1.0958097,2.4401867,1.4729719,-0.9755152,1.1377264,-0.49461496,-1.6347415,-1.0747558,2.3869293,1.411698,-1.011238,-1.4585174,1.3396776,0.754824,-0.44907224,0.90600586,0.48072213,0.15177535,1.5612297,-0.42883682,1.5967782,-3.3184364,0.06446595,0.7315119,0.18742657,-0.3672142,1.0088874,0.7759545,-0.13384382,0.08495568,0.61054313,-0.14646,0.71546197,0.33705506,1.0,0.0,0.0,0.0,0.0,0.0,0.0,-2.2112298,0.028836817,-1.0467782,-0.42135715,-0.7550478,-2.4067163,1.4923334,-0.47637224,0.1136601,2.3420155
4.8273315,25.977438,6.928013,11.125344,0.35503554,-1.1233461,0.06499964,-0.8152387,0.7438793,0.40249896,-0.26521304,0.6184087,0.6628146,0.40036634,1.0562025,-0.42022702,-1.5944916,-1.1012771,2.44877,1.4779794,-0.97120136,1.1231352,-0.48127162,-1.6273658,-1.0792533,2.3959358,1.4165045,-1.00955,-1.4594038,1.3329569,0.731637,-0.45055807,0.89938825,0.48090968,0.17448902,1.5280704,-0.42819595,1.6033514,-3.3151186,0.0644015,0.6325945,0.18607903,-0.36014557,1.0121276,0.77540046,-0.1380094,0.08683676,0.61005485,-0.12235388,0.7039121,0.3136933,1.0,0.0,0.0,0.0,0.0,0.0,0.0,-2.1780705,0.028195947,-1.0533514,-0.15618801,-0.55844784,-2.349484,-0.2847612,-0.4725814,0.15001297,2.2363186
4.4610233,25.805473,7.1418233,12.288067,0.45137084,-1.0711473,0.05284859,-0.80961066,0.73847675,0.39453113,-0.23191845,0.6121858,0.665304,0.43875846,1.0421741,-0.40742394,-1.5879127,-1.1024451,2.4571543,1.4830348,-0.9656741,1.1085688,-0.46799648,-1.6201999,-1.0836631,2.4048698,1.4213129,-1.0076312,-1.456004,1.3260587,0.7115914,-0.43840227,0.8922495,0.48120567,0.19750313,1.4949446,-0.42755508,1.6089361,-3.311804,0.06433711,0.53377604,0.1849451,-0.35317993,1.0151694,0.77481127,-0.14200649,0.08885018,0.60959595,-0.101739384,0.69334525,0.295149,1.0,0.0,0.0,0.0,0.0,0.0,0.0,-2.1449447,0.027555078,-1.0589361,0.26900768,-0.57325363,-2.0445585,1.0768712,-0.5099535,0.1488328,2.2634923
4.626942,22.911621,5.679228,10.301166,0.3410318,-1.2901243,0.05382453,-0.81242007,0.7344613,0.35679153,-0.27086934,0.6110146,0.6589327,0.42820764,1.0273268,-0.39455035,-1.5845208,-1.1107501,2.4659712,1.4872062,-0.96481043,1.0940291,-0.45479047,-1.6133487,-1.0881435,2.413739,1.4261194,-1.005514,-1.4535356,1.3191308,0.6762334,-0.4515632,0.8861535,0.48090184,0.21630675,1.4618511,-0.42691422,1.6135334,-3.308493,0.06427278,0.43505645,0.18406773,-0.3463745,1.0179569,0.7742064,-0.14574803,0.091023535,0.6091606,-0.074440226,0.6764146,0.26758263,1.0,0.0,0.0,0.0,0.0,0.0,0.0,-2.1118512,0.02691421,-1.0635333,0.19803047,-0.58345795,-3.5628915,-1.445198,-0.44726133,0.09479523,1.84834
3.552186,18.379696,3.3357923,8.6848545,0.30084252,-1.5204854,0.008714035,-0.818172,0.7288925,0.3077331,-0.3029179,0.59876895,0.6627235,0.4137506,1.0122119,-0.3819012,-1.5825754,-1.1184353,2.473616,1.4923918,-0.964139,1.0794817,-0.44166267,-1.6070259,-1.092929,2.422528,1.430926,-1.0032443,-1.4553709,1.3110245,0.6177554,-0.48782688,0.87671214,0.48091874,0.23045793,1.428791,-0.42627335,1.6171442,-3.305185,0.06420853,0.33643553,0.18349743,-0.3398018,1.0203947,0.7736435,-0.1490927,0.09341501,0.6087041,-0.043191433,0.6493451,0.23033404,1.0,0.0,0.0,0.0,0.0,0.0,0.0,-2.0787911,0.02627334,-1.0671442,-0.21669865,-0.70955753,-5.8553576,-3.7557364,-0.82998276,0.12281537,1.3866276
4.283893,15.562154,1.7469335,5.373548,0.10894185,-1.8180106,0.04856558,-0.82123137,0.72675925,0.26624647,-0.3756641,0.6069518,0.6600159,0.41833887,0.99735856,-0.36898673,-1.5804012,-1.1304954,2.4832232,1.4969275,-0.9614104,1.0648962,-0.42860782,-1.6013992,-1.0983974,2.4312599,1.4357306,-1.0008506,-1.459546,1.3039155,0.5444097,-0.56682414,0.8717535,0.48076046,0.24237679,1.3957644,-0.42563248,1.6197696,-3.3018806,0.064144336,0.23791324,0.18331814,-0.33356094,1.022359,0.7731462,-0.15184999,0.09608055,0.60823935,-0.0012926763,0.61401206,0.17976058,1.0,0.0,0.0,0.0,0.0,0.0,0.0,-2.0457644,0.02563247,-1.0697696,-0.40028095,-0.61855316,-7.3379517,-8.002973,-0.44310093,0.110816956,1.172629
2.9749727,11.602803,-0.19607782,4.762269,0.2123535,-1.9763082,0.009041039,-0.818325,0.71993536,0.204061,-0.40787107,0.6137006,0.6629068,0.4308285,0.9830637,-0.3566143,-1.580993,-1.1391845,2.49263,1.5020213,-0.9577677,1.0502859,-0.41563594,-1.5966594,-1.104726,2.4399726,1.4405352,-0.9983443,-1.4612722,1.2952356,0.45058948,-0.6552518,0.87137926,0.48068824,0.25338888,1.3627701,-0.4249916,1.6214105,-3.2985795,0.0640802,0.13948943,0.18355751,-0.32775116,1.0237801,0.7727574,-0.1539012,0.09902941,0.6077445,0.039961617,0.5685727,0.124319255,1.0,0.0,0.0,0.0,0.0,0.0,0.0,-2.0127702,0.024991602,-1.0714104,-0.119423866,-0.7795572,-9.395897,-8.944595,-0.021278858,0.09704828,1.0812223
3.0016809,10.758779,-0.1823051,4.840351,0.2627713,-1.9660759,0.03835918,-0.8132434,0.7092191,0.18239692,-0.4492485,0.60104126,0.67095006,0.44986323,0.9689616,-0.34471405,-1.5784197,-1.1496508,2.5000768,1.5076302,-0.953358,1.0356947,-0.40278184,-1.5927761,-1.1119529,2.4486587,1.4453455,-0.99572647,-1.458142,1.2824244,0.36727807,-0.74552315,0.86755323,0.48129556,0.26453596,1.3298092,-0.42435074,1.6220679,-3.2952816,0.06401613,0.041164022,0.18420696,-0.3223877,1.0246512,0.7724708,-0.15523547,0.102227174,0.6072401,0.080029204,0.52271223,0.06960841,1.0,0.0,0.0,0.0,0.0,0.0,0.0,-1.9798092,0.024350733,-1.072068,0.40016174,-1.1909962,-8.37735,-9.1174965,-0.36627054,0.14749765,1.0922134
3.358413,11.330286,0.27149487,4.7922096,0.21745008,-1.9469982,0.05896195,-0.8136458,0.70638335,0.1515379,-0.50652176,0.5839045,0.66310656,0.44038987,0.95433015,-0.33214352,-1.5776223,-1.162605,2.507049,1.5116562,-0.95168746,1.0211397,-0.39004743,-1.5896385,-1.120124,2.457257,1.450154,-0.9930161,-1.4542067,1.270763,0.2955545,-0.841324,0.8574193,0.48095354,0.27316132,1.2968817,-0.42370987,1.6217428,-3.291987,0.06395213,-0.057063084,0.1852684,-0.3174591,1.024977,0.7722678,-0.15585777,0.105668806,0.6067493,0.12107519,0.47926354,0.01533615,1.0,0.0,0.0,0.0,0.0,0.0,0.0,-1.9468817,0.023709863,-1.0717428,0.49893856,-1.073885,-7.2356105,-9.654987,-0.99641085,0.03374815,0.8411765
1.8579248,11.231933,0.109662056,6.8049293,0.3561408,-1.840173,-0.025632583,-0.81658554,0.71081626,0.09485113,-0.52971864,0.575046,0.6705894,0.4221572,0.9394812,-0.3189658,-1.5801533,-1.1730958,2.5147617,1.5172129,-0.9508004,1.0066038,-0.37737787,-1.58726,-1.1291286,2.4657333,1.4549624,-0.9902457,-1.4531553,1.2659954,0.21867214,-0.9203386,0.8445583,0.4808897,0.27831835,1.2639866,-0.423069,1.6204362,-3.2886956,0.06388819,-0.15519199,0.1866951,-0.31295776,1.0248022,0.77219,-0.15582134,0.1093625,0.60620296,0.15522021,0.4368736,-0.03313266,1.0,0.0,0.0,0.0,0.0,0.0,0.0,-1.9139866,0.023068994,-1.0704362,0.17204285,-0.38411617,-7.7220826,-7.9925895,-1.2630224,0.020217896,0.4872918
0.008104563,8.236903,-1.1015573,8.067827,0.5587058,-1.8074945,-0.08366155,-0.81167984,0.6985379,0.04199419,-0.56523174,0.5556688,0.67068005,0.42745665,0.92543584,-0.30752409,-1.5830606,-1.1856518,2.5213,1.5220304,-0.94750005,0.9920926,-0.3647822,-1.5856998,-1.1388427,2.4740417,1.4597689,-0.98743045,-1.4502709,1.2576936,0.1348603,-0.98863673,0.8263429,0.48056415,0.2825705,1.2311239,-0.42242813,1.6181489,-3.2854075,0.06382431,-0.25322276,0.18841457,-0.30889893,1.0241572,0.77228355,-0.15516275,0.113297254,0.60552967,0.18231651,0.3900543,-0.07960956,1.0,0.0,0.0,0.0,0.0,0.0,0.0,-1.8811239,0.022428125,-1.0681489,0.3582716,-0.74210167,-8.414897,-6.934476,-1.8054008,-0.03784299,0.38306713
-3.2324133,3.2266457,-3.6194553,9.605971,0.8616927,-1.821939,-0.20939694,-0.81197757,0.69230646,-0.043167785,-0.5917722,0.5422021,0.66836727,0.41605735,0.9108949,-0.29555157,-1.5900166,-1.19802,2.528262,1.5266056,-0.94582474,0.97760344,-0.35228288,-1.5851772,-1.1491443,2.4821517,1.4645678,-0.98458755,-1.4482552,1.2476364,0.024649527,-1.044588,0.80583805,0.47955042,0.28463063,1.1982946,-0.42178726,1.6148821,-3.2821229,0.063760504,-0.35115552,0.19033337,-0.30539322,1.0230547,0.7726421,-0.15388298,0.11746883,0.60460347,0.19920678,0.333418,-0.1250545,1.0,0.0,0.0,0.0,0.0,0.0,0.0,-1.8482946,0.021787256,-1.064882,0.26929379,-0.9303808,-11.029354,-5.72381,-2.0674944,-0.15441775,0.14226437
-5.5153027,0.56769276,-5.0818825,11.170143,1.0865607,-1.7803774,-0.3123452,-0.81398827,0.692777,-0.11690603,-0.6141347,0.5313905,0.6695773,0.38556778,0.8962046,-0.28300518,-1.5968678,-1.2105578,2.5352907,1.5315255,-0.9460308,0.9631181,-0.3398627,-1.5858867,-1.1599265,2.4900596,1.4693571,-0.9817523,-1.4485186,1.2403542,-0.1026605,-1.0898631,0.7854984,0.478243,0.2828638,1.1654978,-0.4211502,1.6106367,-3.2788415,0.06369676,-0.44899037,0.19236565,-0.3024788,1.0215168,0.7733521,-0.15199162,0.12187506,0.60330045,0.20750095,0.27213204,-0.16774142,1.0,0.0,0.0,0.0,0.0,0.0,0.0,-1.8154978,0.021150202,-1.0606368,0.024914742,-0.6630659,-12.704992,-4.6744823,-2.0732522,-0.23007393,-0.25748014
-5.63916,0.21809602,-4.8034115,11.779628,1.0954303,-1.6764574,-0.28249574,-0.81329745,0.6799118,-0.1467402,-0.6466731,0.47376093,0.6675305,0.40209043,0.8817883,-0.2718715,-1.6005608,-1.2245939,2.5374358,1.5361102,-0.9415432,0.94862795,-0.32755077,-1.5877368,-1.1711589,2.4976318,1.4741312,-0.9789256,-1.4490956,1.2283719,-0.212377,-1.1348552,0.747795,0.47670913,0.28227136,1.1327343,-0.42051697,1.6054138,-3.2755632,0.06363307,-0.5467274,0.1944685,-0.30015182,1.0195621,0.77440387,-0.1495243,0.12652883,0.6016075,0.21340537,0.21446651,-0.20881808,1.0,0.0,0.0,0.0,0.0,0.0,0.0,-1.7827343,0.020516962,-1.0554137,-0.004386902,-1.1356354,-10.953933,-4.64046,-3.7978053,-0.26769042,-0.15234351
-5.977364,-0.03244114,-4.143284,13.751827,1.2395529,-1.4651576,-0.25643694,-0.80817735,0.6628502,-0.17731768,-0.6464527,0.42641404,0.6717681,0.41546044,0.8678102,-0.26126575,-1.6054686,-1.2358042,2.5402732,1.541308,-0.93737954,0.9341531,-0.31541765,-1.5905025,-1.1827155,2.504731,1.4788939,-0.9760941,-1.4469875,1.2084532,-0.29796356,-1.1630012,0.6971868,0.47565043,0.28300342,1.1000032,-0.41988373,1.5992141,-3.2722883,0.06356945,-0.6443668,0.19658566,-0.2983513,1.0172489,0.7757451,-0.14658698,0.1314014,0.59955424,0.21226332,0.16270629,-0.24273802,1.0,0.0,0.0,0.0,0.0,0.0,0.0,-1.7500032,0.019883722,-1.0492141,0.22535324,-1.9331932,-8.5299015,-2.9674053,-5.0526023,-0.23040175,-0.034737587
-7.8702803,-2.1259243,-5.0449495,15.770403,1.4980856,-1.3376931,-0.3159956,-0.8160417,0.655128,-0.24483836,-0.6483083,0.40618053,0.67543364,0.41172844,0.8525489,-0.24990484,-1.6149863,-1.2475463,2.545349,1.5464373,-0.93492126,0.9196601,-0.30349243,-1.5941398,-1.1944438,2.5113304,1.4836489,-0.97325885,-1.450173,1.1873559,-0.38520792,-1.1767592,0.6478232,0.4748263,0.28333563,1.0673046,-0.4192505,1.5920388,-3.2690167,0.063505895,-0.74190855,0.19862366,-0.29707336,1.0146347,0.77738833,-0.14325583,0.13645649,0.5970968,0.20119229,0.10997936,-0.27128798,1.0,0.0,0.0,0.0,0.0,0.0,0.0,-1.7173046,0.019250482,-1.0420387,-0.35908222,-2.064848,-8.633804,-1.549387,-4.935837,-0.24316907,-0.09214878
-8.432003,-3.4939759,-5.5679626,16.059175,1.5833858,-1.3075993,-0.3145878,-0.811191,0.6412317,-0.29823256,-0.669683,0.3705564,0.6706682,0.40474734,0.838541,-0.23936924,-1.6239631,-1.2614121,2.548386,1.5507157,-0.93278414,0.9051547,-0.29179657,-1.5986583,-1.2063247,2.51743,1.4883906,-0.9704255,-1.4506888,1.1637529,-0.4738424,-1.1924587,0.5973609,0.47351176,0.28286904,1.0346394,-0.41861725,1.5838888,-3.2657483,0.0634424,-0.8393528,0.20053577,-0.29634094,1.011734,0.77933294,-0.13953944,0.14166673,0.5942216,0.18701857,0.056216847,-0.2997399,1.0,0.0,0.0,0.0,0.0,0.0,0.0,-1.6846393,0.018617243,-1.0338888,-0.0754118,-2.3230076,-8.779287,-1.7365694,-5.056727,-0.31108856,-0.17892718
-9.312805,-6.369317,-6.5671844,15.948914,1.6442292,-1.2893944,-0.2977323,-0.8095027,0.61245215,-0.33880952,-0.68926215,0.294448,0.66515017,0.39940056,0.82420444,-0.23055135,-1.6325393,-1.2752509,2.5468748,1.5549055,-0.9304854,0.8906598,-0.2804178,-1.6040275,-1.2184097,2.5229003,1.4931151,-0.96760166,-1.4490888,1.1293343,-0.5576498,-1.2142158,0.530342,0.4716562,0.28169456,1.0020065,-0.417984,1.5747651,-3.2624831,0.06337897,-0.9366996,0.20228767,-0.29615402,1.0085291,0.78156346,-0.13542096,0.1470359,0.59093165,0.16975188,0.0002080347,-0.33049467,1.0,0.0,0.0,0.0,0.0,0.0,0.0,-1.6520065,0.017984003,-1.024765,0.17826557,-3.414774,-8.328915,-2.325201,-6.7243695,-0.37629604,-0.26524663
-10.740179,-8.816922,-7.7406964,16.555166,1.7458696,-1.2430363,-0.33293694,-0.8132897,0.59268445,-0.39513767,-0.69644296,0.22638781,0.6623204,0.37728584,0.8093308,-0.22114936,-1.6435413,-1.288054,2.5455391,1.5593472,-0.92987305,0.87616587,-0.2694167,-1.6102664,-1.2307044,2.5276039,1.4978205,-0.9648074,-1.4493572,1.0904409,-0.6457064,-1.2350702,0.44989353,0.46945533,0.27815446,0.9694061,-0.41735077,1.5646687,-3.2592213,0.06331561,-1.0339491,0.20383263,-0.29655075,1.005014,0.7840887,-0.13089472,0.15258633,0.58718735,0.14716898,-0.057589523,-0.3613124,1.0,0.0,0.0,0.0,0.0,0.0,0.0,-1.6194061,0.017350763,-1.0146687,-0.0026464462,-3.8767815,-8.742499,-2.229929,-8.088756,-0.4373908,-0.52327514
-10.121335,-6.192068,-6.6436744,17.594656,1.5890312,-1.099862,-0.33904994,-0.8133094,0.5881791,-0.4365785,-0.69625556,0.123373166,0.6631848,0.3691242,0.7948349,-0.21059878,-1.6539243,-1.3003299,2.539941,1.564139,-0.92789495,0.8616643,-0.2587422,-1.6173542,-1.2431537,2.5313232,1.502505,-0.96205413,-1.4506123,1.059786,-0.7292976,-1.2487117,0.34590214,0.46747595,0.27379027,0.93683815,-0.41671753,1.5536004,-3.2559628,0.06325231,-1.1311014,0.20516872,-0.29745102,1.0012145,0.7868919,-0.12600264,0.1584259,0.5829457,0.1259302,-0.105952196,-0.38868445,1.0,0.0,0.0,0.0,0.0,0.0,0.0,-1.5868381,0.016717523,-1.0036004,-0.162673,-3.0570745,-8.236826,-1.5134096,-10.440964,-0.42746067,-0.6236434
-10.33153,-8.136181,-6.997856,17.23722,1.3175756,-1.0298674,-0.29330373,-0.81306505,0.5406894,-0.45484146,-0.7151483,-0.11584542,0.65847754,0.3744216,0.7803578,-0.20467328,-1.6628383,-1.3146685,2.5197387,1.5683527,-0.924612,0.84715223,-0.24849832,-1.6251361,-1.2557708,2.533448,1.5071703,-0.95934,-1.4514014,1.0125898,-0.7942754,-1.2665192,0.16773848,0.46554378,0.2699414,0.9043026,-0.4160843,1.5415614,-3.2527075,0.06318907,-1.2281566,0.20632458,-0.29880142,0.99710584,0.7899122,-0.12076811,0.1647732,0.57818973,0.108168334,-0.14944525,-0.42058298,1.0,0.0,0.0,0.0,0.0,0.0,0.0,-1.5543026,0.016084284,-0.99156135,-0.08189678,-4.7187805,-6.417072,-1.8999815,-17.856173,-0.39915442,-0.6187022
-12.620939,-15.506121,-9.313676,17.326073,1.274522,-0.9503081,-0.24919745,-0.8123768,0.45889476,-0.46196038,-0.71851844,-0.41712865,0.6646749,0.37999693,0.76591456,-0.20260884,-1.6713321,-1.3276227,2.4917352,1.5736378,-0.9213403,0.8326411,-0.23902524,-1.6333835,-1.2685405,2.5330932,1.5118262,-0.95665824,-1.4507012,0.9254928,-0.8349101,-1.2805771,-0.103311546,0.4648864,0.2665744,0.87179947,-0.41545105,1.5285527,-3.2494555,0.063125886,-1.3251146,0.20728016,-0.30059814,0.9926389,0.7930702,-0.115212776,0.1718622,0.5729127,0.08606158,-0.1946475,-0.45744765,1.0,0.0,0.0,0.0,0.0,0.0,0.0,-1.5217994,0.015451044,-0.97855264,0.14560223,-8.729828,-4.0742993,-1.4800072,-27.141678,-0.23710728,-0.63854456
-15.786691,-25.035217,-12.122634,18.557692,1.8361285,-0.8215592,-0.15522033,-0.8079477,0.35710952,-0.4492516,-0.7082868,-0.56248236,0.67734164,0.41426468,0.7518464,-0.20331427,-1.6783087,-1.3393692,2.476845,1.5795603,-0.91523176,0.81816435,-0.23078859,-1.6418006,-1.2813541,2.529927,1.5164858,-0.9539813,-1.4461813,0.789536,-0.8441838,-1.281911,-0.38770083,0.46587026,0.26706174,0.8393297,-0.4148178,1.514575,-3.2462065,0.06306277,-1.4219759,0.20788002,-0.30291367,0.98782027,0.79626966,-0.10938727,0.17959334,0.56721705,0.045954376,-0.24812533,-0.49204215,1.0,0.0,0.0,0.0,0.0,0.0,0.0,-1.4893297,0.014817804,-0.964575,0.5954027,-13.647282,-1.0261059,-0.16188622,-28.465118,-0.06375909,-0.26754737
-21.180265,-39.07343,-17.519077,18.696209,2.8367953,-0.87158287,-0.092037745,-0.80484235,0.22909868,-0.4623677,-0.72242445,-0.61205447,0.6817768,0.42476574,0.73768014,-0.20787872,-1.6880374,-1.3535966,2.4687216,1.5846635,-0.9115047,0.8037572,-0.22431147,-1.6502578,-1.2942039,2.524289,1.5211569,-0.9512862,-1.4378531,0.6001213,-0.847169,-1.2860284,-0.6226431,0.46700296,0.2692591,0.8068924,-0.41418457,1.4996294,-3.242961,0.062999725,-1.51874,0.20786762,-0.30594635,0.9826441,0.79947543,-0.10325344,0.18753569,0.56125575,-0.022833249,-0.32501262,-0.52804863,1.0,0.0,0.0,0.0,0.0,0.0,0.0,-1.4568924,0.014184564,-0.94962937,1.1655807,-19.036293,-0.5765796,-0.36876202,-23.539782,-0.09316206,-0.077706575
-21.086048,-39.715557,-16.889631,19.657827,3.3366864,-0.69876,0.03480282,-0.8092751,0.13884288,-0.42145473,-0.722888,-0.62627834,0.688779,0.4417431,0.7228297,-0.21042718,-1.6924033,-1.3664926,2.461661,1.5900348,-0.9071119,0.78940344,-0.21982777,-1.6585109,-1.3070861,2.5168502,1.5258433,-0.948552,-1.4334158,0.39740512,-0.81894803,-1.2884512,-0.7845037,0.46847183,0.27405652,0.7744875,-0.41355515,1.483717,-3.2397187,0.06293674,-1.6154077,0.20707607,-0.30974197,0.9771586,0.8026316,-0.09682906,0.19523187,0.5552396,-0.10414285,-0.39985007,-0.5570052,1.0,0.0,0.0,0.0,0.0,0.0,0.0,-1.4244875,0.013555139,-0.93371695,0.78377724,-20.383667,2.5151253,-0.1544714,-16.228378,-0.092321634,0.2642572
-20.784784,-44.146347,-16.219795,20.319393,3.993817,-0.4463036,0.288059,-0.8049451,-0.039181672,-0.2980756,-0.7221925,-0.6357447,0.6950283,0.46500283,0.7089089,-0.22374594,-1.6883185,-1.3793054,2.4532757,1.5953461,-0.90205175,0.77510023,-0.21774471,-1.6659,-1.319976,2.5082862,1.5305487,-0.94574726,-1.427935,0.14487825,-0.71377605,-1.2884269,-0.88045686,0.47039846,0.28223,0.742115,-0.41292953,1.4668385,-3.2364798,0.06287381,-1.7119787,0.2053585,-0.31427383,0.9714407,0.8056084,-0.090226606,0.2021163,0.5495482,-0.20106626,-0.4723819,-0.5781564,1.0,0.0,0.0,0.0,0.0,0.0,0.0,-1.392115,0.012929529,-0.91683847,0.96468925,-25.378307,10.056162,0.16450882,-9.589148,-0.048810244,0.731647
-24.429035,-58.43295,-19.985826,19.580008,5.0282073,-0.38259146,0.49899524,-0.796147,-0.28307396,-0.1871258,-0.73872894,-0.5971051,0.69267416,0.45957583,0.69548553,-0.2460521,-1.6846125,-1.3938489,2.4485757,1.5998161,-0.8997897,0.7608924,-0.2188083,-1.671788,-1.3329288,2.4992568,1.5352656,-0.94286335,-1.4161083,-0.1906175,-0.54982907,-1.2964481,-0.9101801,0.47129795,0.29062748,0.709774,-0.41230392,1.4489951,-3.233244,0.06281095,-1.8084531,0.20245457,-0.3196602,0.96551263,0.8083295,-0.08352065,0.20747769,0.5445922,-0.3265786,-0.5603685,-0.5989781,1.0,0.0,0.0,0.0,0.0,0.0,0.0,-1.359774,0.012303919,-0.8989951,1.8700838,-33.706917,15.594435,-0.52495,-2.926743,-0.2105236,0.88715553
-28.422432,-71.39265,-24.72144,16.877289,5.6740985,-0.5331392,0.61888576,-0.7620186,-0.51510465,-0.14404167,-0.77691877,-0.5719333,0.66673607,0.4957867,0.68469054,-0.27031875,-1.6861922,-1.4106207,2.4420636,1.6019392,-0.8932847,0.746964,-0.22368586,-1.6760757,-1.3461314,2.490239,1.5399653,-0.93987167,-1.381963,-0.5874572,-0.39231375,-1.3268292,-0.89850664,0.46807104,0.30259135,0.67746544,-0.4116783,1.4301877,-3.2300112,0.06274816,-1.9048309,0.19813633,-0.32609177,0.9592961,0.8108037,-0.07665684,0.21076512,0.540647,-0.47298634,-0.6673544,-0.6305346,1.0,0.0,0.0,0.0,0.0,0.0,0.0,-1.3274654,0.011678308,-0.8801877,4.37665,-39.877666,14.644253,-2.637601,1.2019753,-0.7509768,1.340425
-19.545343,-58.509834,-16.48919,14.619639,4.979805,-0.29596347,0.91383433,-0.6811727,-0.6797728,-0.010004467,-0.8023586,-0.52154547,0.61532253,0.50556153,0.6788467,-0.29166314,-1.6770761,-1.4263673,2.4380844,1.6014975,-0.8893155,0.7337241,-0.23247635,-1.6785553,-1.3597385,2.4815872,1.5445944,-0.93675315,-1.3020333,-0.9767783,-0.20328486,-1.3707181,-0.8533852,0.45991045,0.3159453,0.6451893,-0.4110527,1.4104172,-3.2267818,0.06268542,-2.0011125,0.19255066,-0.3333931,0.9527553,0.8128936,-0.06970036,0.21174198,0.5380623,-0.5926212,-0.7456794,-0.66350734,1.0,0.0,0.0,0.0,0.0,0.0,0.0,-1.2951893,0.011052698,-0.8604172,8.813643,-39.09736,17.828482,-3.9705753,4.582572,-1.2092948,1.6358733
-7.2897973,-31.108719,-4.3290105,14.065805,3.538744,-0.027540565,0.96023285,-0.59281987,-0.74586684,0.014646647,-0.8063554,-0.490916,0.56992,0.4989013,0.6744421,-0.30706304,-1.6770906,-1.440374,2.4324956,1.6015865,-0.886863,0.72160673,-0.24446571,-1.6794326,-1.3737422,2.4734771,1.5491186,-0.9335154,-1.1800966,-1.2733512,-0.051872622,-1.4091358,-0.79645276,0.44923216,0.3275646,0.61294556,-0.4104271,1.3896847,-3.2235558,0.06262275,-2.0972974,0.1861391,-0.34117126,0.9459215,0.81448084,-0.06278226,0.21067064,0.536933,-0.6620768,-0.7803206,-0.69199836,1.0,0.0,0.0,0.0,0.0,0.0,0.0,-1.2629455,0.010427088,-0.83968467,12.670922,-29.767918,14.370462,-3.5021782,5.7625175,-1.2840033,1.514262
-1.7461791,-9.597052,1.494509,14.744849,2.381626,-0.04505545,0.6342941,-0.50918615,-0.77204144,-0.10748154,-0.7976489,-0.49249232,0.5655579,0.48254192,0.6706881,-0.32166985,-1.6901808,-1.4535071,2.424228,1.6056744,-0.88526124,0.7109046,-0.25851476,-1.6798236,-1.3879863,2.4658515,1.5535475,-0.9301928,-1.0329412,-1.4490213,-0.036296993,-1.428497,-0.75123703,0.4406197,0.33482268,0.58073425,-0.40980148,1.367991,-3.2203329,0.06256013,-2.1933863,0.17928696,-0.34914017,0.9388183,0.81566477,-0.055911124,0.2081818,0.5368662,-0.69645596,-0.7936891,-0.7189066,1.0,0.0,0.0,0.0,0.0,0.0,0.0,-1.2307342,0.009801477,-0.81799096,14.898467,-17.648506,1.1679723,-1.6510963,4.517138,-0.9261787,0.99236965
-3.021646,-0.15790033,0.1387856,14.825761,1.7932172,-0.38753837,0.16466646,-0.41605133,-0.7900112,-0.31287697,-0.79637575,-0.49583235,0.5621247,0.47634298,0.6692995,-0.3375159,-1.7111113,-1.4676238,2.4162683,1.6097599,-0.8825585,0.70180464,-0.27356565,-1.6814239,-1.4023143,2.4585464,1.5579001,-0.9268216,-0.869164,-1.52405,-0.20136176,-1.4331555,-0.7237817,0.4332711,0.3383132,0.5485554,-0.40917587,1.345337,-3.2171133,0.062497582,-2.2893791,0.17217445,-0.35730743,0.931393,0.81671286,-0.04889702,0.2049397,0.5372046,-0.71842545,-0.8135352,-0.753375,1.0,0.0,0.0,0.0,0.0,0.0,0.0,-1.1985554,0.009175867,-0.795337,16.332197,-7.59418,-16.514462,-0.17905235,2.6215553,-0.78579783,0.47409534
-2.4591618,8.703185,0.97347593,15.013755,1.338062,-0.5032463,-0.08598558,-0.35116005,-0.7956433,-0.41227394,-0.79595184,-0.47642007,0.56577206,0.4675636,0.6666886,-0.35312998,-1.7226512,-1.4819095,2.4109044,1.6144773,-0.8800652,0.6942725,-0.28885257,-1.6852615,-1.4166232,2.4514701,1.5621916,-0.9234351,-0.7148209,-1.5305521,-0.44422135,-1.4293433,-0.70277965,0.4277749,0.3388743,0.51640797,-0.40855026,1.3217239,-3.2138968,0.062435098,-2.385276,0.16491699,-0.36565018,0.92360634,0.81781375,-0.041582756,0.2013974,0.5374855,-0.7295324,-0.83122694,-0.79092586,1.0,0.0,0.0,0.0,0.0,0.0,0.0,-1.166408,0.0085502565,-0.7717239,15.34499,-0.7460356,-24.16026,0.6476164,1.9136429,-0.58570504,0.09662509
0.7595538,18.505728,5.3990245,16.042477,0.84279406,-0.24654984,-0.09654829,-0.32913592,-0.80054307,-0.4031275,-0.7880555,-0.5132656,0.5606712,0.45837983,0.66135895,-0.3689069,-1.7255743,-1.4954288,2.4001436,1.6182587,-0.8775971,0.6879735,-0.30396402,-1.6911743,-1.4308387,2.4444244,1.5664355,-0.9200562,-0.6013589,-1.5049571,-0.6403691,-1.418148,-0.70543325,0.42353642,0.33754486,0.48429298,-0.40792465,1.2971526,-3.2106836,0.062372677,-2.481077,0.15765,-0.37402344,0.91549635,0.8189678,-0.03399514,0.1978452,0.5375809,-0.7263514,-0.8296763,-0.8222561,1.0,0.0,0.0,0.0,0.0,0.0,0.0,-1.134293,0.007924646,-0.7471526,11.401617,2.4735212,-19.624317,1.3372183,-0.44573545,-0.390625,-0.12221336
0.45159674,20.987024,6.50283,16.973785,0.7646378,-0.037483215,-0.11853843,-0.32201806,-0.8061144,-0.4436927,-0.7862933,-0.53755873,0.55620426,0.4281484,0.6557717,-0.38457546,-1.7355435,-1.5094681,2.3906686,1.6220559,-0.8772414,0.6824403,-0.31878412,-1.6986606,-1.4449378,2.4372337,1.5706412,-0.91671646,-0.5364779,-1.4746618,-0.78531814,-1.4065657,-0.7242859,0.41979715,0.33283582,0.45221043,-0.40729904,1.2716241,-3.2074735,0.062310316,-2.5767822,0.15040588,-0.3823166,0.9071076,0.82015806,-0.026193395,0.19441055,0.5374561,-0.7236274,-0.8196412,-0.8496519,1.0,0.0,0.0,0.0,0.0,0.0,0.0,-1.1022104,0.007299036,-0.7216241,6.7294717,2.9360294,-14.68215,1.3716221,-2.0734668,-0.3319204,-0.47508478
-3.8950925,18.431185,4.680357,18.732504,1.1462243,0.2201834,-0.19588338,-0.38085744,-0.8084985,-0.45818546,-0.78913,-0.5244855,0.5447607,0.41415527,0.6443545,-0.39963397,-1.7444792,-1.5238508,2.3847852,1.6251172,-0.87530094,0.67697096,-0.3333596,-1.707133,-1.4589568,2.4298828,1.5748049,-0.91343296,-0.5484953,-1.4522547,-0.86949396,-1.399504,-0.73909837,0.41542524,0.32685164,0.42015934,-0.40667343,1.2451391,-3.2042665,0.062248018,-2.672392,0.14305782,-0.3904953,0.8984795,0.8214294,-0.01821155,0.19106205,0.5370451,-0.73834944,-0.8077475,-0.8726611,1.0,0.0,0.0,0.0,0.0,0.0,0.0,-1.0701593,0.0066734254,-0.6951391,-0.65585375,2.1219254,-8.886647,0.9721279,-1.7038226,-0.411129,-0.60180426
-4.596102,19.16802,5.685477,19.50836,1.2646626,0.48651057,-0.14447868,-0.4004831,-0.80910814,-0.4490324,-0.7902746,-0.5197998,0.53656816,0.4117839,0.63692266,-0.4142704,-1.7520363,-1.5379843,2.3779027,1.6284617,-0.87225455,0.6710944,-0.3477906,-1.7159984,-1.4729396,2.4224327,1.5789248,-0.9102057,-0.5985956,-1.4404715,-0.89401263,-1.3971189,-0.7479436,0.41093558,0.3214419,0.38814068,-0.40604782,1.2176988,-3.201063,0.062185783,-2.7679057,0.1355238,-0.39849854,0.88965964,0.8227698,-0.010120791,0.18770175,0.53639096,-0.7582826,-0.7879941,-0.8906136,1.0,0.0,0.0,0.0,0.0,0.0,0.0,-1.0381407,0.006047815,-0.6676988,-4.365003,1.0552168,-3.0359745,0.51567554,-1.1043906,-0.4067421,-0.52003264
-10.320866,13.227481,1.485889,20.38013,1.729955,0.5222913,-0.2790749,-0.4414825,-0.816524,-0.52035254,-0.78437734,-0.5326982,0.5286822,0.37152296,0.62694615,-0.429443,-1.7680336,-1.5513773,2.3691628,1.631793,-0.87305343,0.66451216,-0.36220396,-1.7251861,-1.48689,2.4148872,1.582995,-0.9070567,-0.6755942,-1.4421767,-0.92927444,-1.393118,-0.75781554,0.4056835,0.31275064,0.35615444,-0.40542984,1.189304,-3.1978626,0.062123608,-2.8633242,0.12763691,-0.40636444,0.88064104,0.82425535,-0.001904275,0.1842556,0.53539646,-0.7986539,-0.77745277,-0.91101384,1.0,0.0,0.0,0.0,0.0,0.0,0.0,-1.0061544,0.005429834,-0.639304,-6.95827,-0.32260418,-4.1791677,0.7507324,-1.2426615,-0.5395949,-0.8541465
-12.943506,11.3403015,-0.07974267,20.271454,1.910691,0.5913713,-0.31005377,-0.48672065,-0.81809986,-0.54436374,-0.7915406,-0.5302199,0.52403665,0.37405992,0.6158401,-0.44401395,-1.7796224,-1.566044,2.3618653,1.6353987,-0.8696507,0.65705633,-0.37668073,-1.7347362,-1.5008422,2.4072654,1.5870119,-0.9039868,-0.76629406,-1.4500767,-0.9660511,-1.3944664,-0.76410633,0.40022063,0.30518824,0.32419968,-0.40481186,1.1599557,-3.1946654,0.0620615,-2.9586473,0.119277954,-0.41415787,0.87139374,0.82593817,0.0064798705,0.18066104,0.5339903,-0.84853417,-0.76873094,-0.93453574,1.0,0.0,0.0,0.0,0.0,0.0,0.0,-0.97419965,0.004811853,-0.6099557,-8.296299,-0.9572029,-4.3572903,0.25544167,-0.9034395,-0.59756637,-0.73590875
-13.78702,11.474788,-0.35344315,19.994339,1.9563104,0.6438193,-0.330769,-0.5161252,-0.8205955,-0.579807,-0.78860044,-0.53009444,0.5132395,0.32476866,0.60544384,-0.4587403,-1.7927169,-1.5797023,2.354256,1.638336,-0.87150997,0.64873934,-0.39125335,-1.7447345,-1.5148002,2.3996055,1.5909697,-0.90101993,-0.85109144,-1.4602247,-1.0132617,-1.3949475,-0.76772267,0.39415804,0.29387802,0.29227638,-0.40419388,1.129655,-3.1914713,0.06199945,-3.053875,0.110396385,-0.42185593,0.861898,0.82783765,0.015050248,0.17686869,0.53214246,-0.90157205,-0.75955653,-0.9598475,1.0,0.0,0.0,0.0,0.0,0.0,0.0,-0.94227636,0.004193872,-0.579655,-7.7480316,-1.1888981,-5.357647,0.35862923,-0.64047575,-0.68005323,-1.105845
-15.565401,11.825869,-0.7591243,20.584915,2.0434475,0.7932546,-0.3956179,-0.57670987,-0.8250769,-0.60336286,-0.778232,-0.5495642,0.52479887,0.25190362,0.5910683,-0.47376105,-1.8050708,-1.5926234,2.344649,1.6434495,-0.8758296,0.6395192,-0.4059323,-1.7552192,-1.5287124,2.3918617,1.5948817,-0.89821327,-0.9430974,-1.4710733,-1.0624754,-1.3886213,-0.7770829,0.3899266,0.27640757,0.2603855,-0.4035759,1.0984027,-3.1882806,0.061937463,-3.1490073,0.10094452,-0.429451,0.8521587,0.8299836,0.023785627,0.17288272,0.52978575,-0.9603392,-0.7472823,-0.9839234,1.0,0.0,0.0,0.0,0.0,0.0,0.0,-0.9103855,0.0035758913,-0.5484027,-8.460581,-1.2706757,-5.5550575,1.0653496,-1.2238383,-0.50528646,-1.7241478
-17.716576,13.132223,-1.0400681,21.155636,2.2467432,0.9641303,-0.49699312,-0.6550052,-0.8191406,-0.6218343,-0.7820579,-0.48820338,0.5100202,0.09036197,0.5740187,-0.48784637,-1.8174026,-1.6069182,2.3430414,1.6458837,-0.8891771,0.62924147,-0.42066753,-1.7661674,-1.5425769,2.3842208,1.598746,-0.8956908,-1.0534804,-1.4750147,-1.1077771,-1.3842347,-0.76100165,0.3848591,0.24440444,0.22852707,-0.40295792,1.0661998,-3.185093,0.06187554,-3.2440448,0.09084129,-0.43689728,0.8421952,0.8324466,0.03266591,0.16862038,0.52681386,-1.0276965,-0.73159575,-1.0058153,1.0,0.0,0.0,0.0,0.0,0.0,0.0,-0.87852705,0.0029579103,-0.51619977,-10.256577,-0.5954981,-5.187607,0.8965969,1.303339,-0.6085694,-3.1644046
-18.223192,15.780827,0.17273927,21.729961,2.421246,1.1947503,-0.5600244,-0.71887684,-0.82010466,-0.62169147,-0.7778095,-0.4012498,0.51611745,-0.13214032,0.5573538,-0.502678,-1.8283366,-1.6203579,2.344096,1.6503577,-0.90890485,0.6177964,-0.43541896,-1.7774398,-1.5563899,2.3770149,1.6025683,-0.89363563,-1.1722758,-1.4759043,-1.1358298,-1.3787744,-0.7077159,0.38107026,0.19279896,0.1967001,-0.40233994,1.0330472,-3.1819084,0.06181368,-3.338987,0.080028534,-0.4441452,0.8320557,0.8352883,0.041613147,0.16392548,0.5231539,-1.0999204,-0.7091864,-1.0218842,1.0,0.0,0.0,0.0,0.0,0.0,0.0,-0.8467001,0.0023399293,-0.4830472,-11.108017,-0.29685497,-3.449607,1.0059834,5.0317645,-0.47906637,-5.090481
-15.196016,22.64772,4.5315742,22.559439,2.4450588,1.4904854,-0.51811755,-0.7597741,-0.806823,-0.604295,-0.7584773,-0.2604604,0.5414167,-0.24637336,0.54181904,-0.51610124,-1.8378693,-1.6322377,2.3509688,1.6567099,-0.918273,0.60524416,-0.45010173,-1.7887828,-1.5700732,2.3707473,1.606381,-0.8921498,-1.2806473,-1.4663664,-1.1358242,-1.3635224,-0.6005611,0.38097602,0.13430636,0.1649046,-0.40172195,0.9989459,-3.1787271,0.061751876,-3.4338346,0.06853676,-0.45109177,0.8218579,0.8385085,0.050447796,0.15859626,0.51885045,-1.1665438,-0.67484415,-1.0242465,1.0,0.0,0.0,0.0,0.0,0.0,0.0,-0.8149046,0.0017219484,-0.44894588,-10.168862,0.7618427,-0.5478859,1.922822,10.464096,-0.060868263,-5.7308316
-11.546,26.662401,7.5932283,21.49669,2.1725688,1.5506866,-0.439497,-0.7739267,-0.8080216,-0.6200433,-0.75078744,-0.21486323,0.54950094,-0.34517378,0.52785146,-0.5309039,-1.8507872,-1.645152,2.349261,1.6613312,-0.9266672,0.5918412,-0.46468914,-1.8001087,-1.5835849,2.3656013,1.6102034,-0.8912724,-1.3584983,-1.4567811,-1.1330646,-1.3458083,-0.48685125,0.3825159,0.07269876,0.13314152,-0.40110397,0.9638969,-3.175549,0.061690137,-3.528587,0.056471825,-0.45766068,0.8116532,0.84205014,0.059064046,0.15256897,0.51398987,-1.2206942,-0.63482594,-1.0241958,1.0,0.0,0.0,0.0,0.0,0.0,0.0,-0.7831415,0.0011039674,-0.41389686,-7.265687,0.78954697,-0.14779568,2.1147013,11.171776,0.12602806,-6.0271425
-6.745158,32.55816,12.013156,21.05997,1.6502264,1.6835358,-0.32820517,-0.78972524,-0.80216634,-0.60060745,-0.7263655,-0.23248085,0.5848504,-0.3910638,0.5128687,-0.5449058,-1.8601694,-1.6562215,2.342353,1.6686884,-0.9303788,0.57786894,-0.4791702,-1.8112934,-1.596841,2.361344,1.6140715,-0.8909863,-1.4088843,-1.4456292,-1.1145436,-1.3181113,-0.4058773,0.38845646,0.014366697,0.10140991,-0.400486,0.92789304,-3.172374,0.06162846,-3.6243105,0.044018745,-0.46375656,0.80149126,0.84580237,0.06735365,0.14598745,0.50869375,-1.2542295,-0.5845544,-1.0183264,1.0,0.0,0.0,0.0,0.0,0.0,0.0,-0.7514099,0.00048598647,-0.37789303,-4.660368,0.97727776,1.5427113,3.0387402,7.9601707,0.6393254,-5.7163897
-3.5242205,35.28115,14.105333,19.8069,1.0200939,1.6534119,-0.25528008,-0.7925479,-0.79914653,-0.61502016,-0.70417035,-0.3351142,0.60115594,-0.41640186,0.49861413,-0.55908483,-1.8727953,-1.667258,2.3278327,1.6741871,-0.9326265,0.5635972,-0.49354875,-1.8223598,-1.6097633,2.357354,1.6180121,-0.89124095,-1.4323498,-1.435688,-1.1047521,-1.282985,-0.39703652,0.39629194,-0.03843807,0.06970978,-0.399868,0.8909327,-3.1692023,0.061566845,-3.719938,0.03137493,-0.46931458,0.7913713,0.8496459,0.07529888,0.13918005,0.5030514,-1.2682433,-0.53010976,-1.0143993,1.0,0.0,0.0,0.0,0.0,0.0,0.0,-0.71970975,-0.00013199449,-0.34093267,-2.0769835,0.8800745,0.75769424,3.738141,0.78158975,0.8692384,-5.214057
-1.7037172,35.09738,14.068798,17.363,0.47759056,1.4619772,-0.18680191,-0.7855712,-0.79859805,-0.6514324,-0.70208836,-0.43252102,0.6060054,-0.42441696,0.48504007,-0.57340854,-1.887503,-1.679972,2.314102,1.6786126,-0.9336827,0.5492692,-0.5078529,-1.833535,-1.6223918,2.3529708,1.6220309,-0.8919686,-1.4322349,-1.4289995,-1.1221552,-1.2555889,-0.4520647,0.4038096,-0.08415593,0.03804207,-0.39925003,0.85301673,-3.1660337,0.061505288,-3.81547,0.01869297,-0.47434616,0.78120494,0.8534808,0.083018295,0.13246384,0.4971235,-1.2680492,-0.47789448,-1.0215839,1.0,0.0,0.0,0.0,0.0,0.0,0.0,-0.68804204,-0.00074997544,-0.30301672,0.2106905,0.56734085,-1.9115448,2.9566526,-5.60649,0.82211494,-4.5478334
-2.138748,33.92473,13.170635,16.397305,0.39583486,1.3655648,-0.16650066,-0.79245627,-0.80076027,-0.66930056,-0.6864141,-0.45389014,0.59595644,-0.44130105,0.47002357,-0.58792895,-1.900465,-1.6910332,2.307582,1.6816266,-0.9360987,0.5349879,-0.5221275,-1.8449962,-1.634761,2.3479202,1.6261069,-0.8931092,-1.4261379,-1.4272692,-1.1546879,-1.2299314,-0.523245,0.4089833,-0.12405452,0.0064048767,-0.39863205,0.81414616,-3.1628683,0.0614438,-3.9109066,0.006017685,-0.47888184,0.77092713,0.85726637,0.09061607,0.12595157,0.49093723,-1.266828,-0.4295457,-1.0338061,0.0,1.0,0.0,0.0,0.0,0.0,0.0,-0.65640485,-0.0013679564,-0.26414615,0.7896662,0.06964207,-3.4071445,2.797842,-7.2352114,0.55588484,-3.9745479
-2.5426598,33.031765,12.634764,15.627094,0.38241607,1.3310246,-0.13322544,-0.79370415,-0.8064947,-0.6821764,-0.6735857,-0.4887198,0.60136145,-0.4519995,0.45561752,-0.602777,-1.9132138,-1.7021196,2.2990482,1.686243,-0.93830913,0.5212374,-0.53638893,-1.8582447,-1.6474894,2.341936,1.6355103,-0.8942051,-1.3575236,-1.4263179,-1.3801713,-1.2842351,-0.6305159,1.0985608,-0.113282405,-0.010355949,-0.39995193,0.8140663,-1.2711191,-0.170465,1.2333215,-0.006989479,-0.4823494,0.76012355,0.8608992,0.09624678,0.12006472,0.484947,-1.3075962,-0.30417472,-1.0986623,0.0,1.0,0.0,0.0,0.0,0.0,0.0,-0.639644,-4.8071146e-05,-0.26406628,1.2341261,-0.5791664,-4.5835495,3.1409025,-7.2317123,-0.10325909,-2.5544615
78.29366,176.0,110.0,100.67627,-3.4414935,9.74412,-0.73186445,-0.7953959,0.2614038,0.6852277,0.7698023,-0.41172838,0.59972286,-0.47067642,0.44169778,-0.51024854,-1.7897218,-1.5705092,2.3007634,1.6954826,-0.94127274,0.51270866,-0.5485769,-1.8715065,-1.6501769,2.33,1.6530064,-0.8949375,-0.6910041,-1.1490182,-1.2983431,0.06495304,-1.3786649,1.9759637,-0.063858934,-0.023057938,-0.4016533,0.8256458,-1.2698482,-0.17029458,1.1328373,-0.018182755,-0.48358917,0.75320315,0.864148,0.09433576,0.1200314,0.47952196,-1.0533501,-0.04773571,-0.55868757,1.0,0.0,0.0,0.0,0.0,0.0,0.0,-0.62694204,0.0016532838,-0.2756458,64.747826,27.93336,11.10785,133.46384,-74.07644,90.556244,3.7381067
35.40733,151.75584,92.62104,95.90538,1.5900253,6.7457824,-0.62224096,-0.78849286,-0.5131262,0.481436,0.78876936,-0.59106934,0.6052454,-0.2544246,0.43385938,-0.5998895,-1.8233628,-1.5712999,2.270893,1.713531,-0.92038,0.50571823,-0.55874306,-1.878722,-1.6425036,2.315649,1.6723412,-0.8956499,-0.7013088,-0.973471,-0.5270957,1.0005381,-1.4574184,1.9266567,-0.07371921,-0.035746574,-0.40335464,0.8362212,-1.2685786,-0.17012432,1.0324535,-0.027780533,-0.482975,0.75150037,0.8673264,0.08602182,0.123937696,0.47432542,-0.92534053,0.10662062,-0.045519583,1.0,0.0,0.0,0.0,0.0,0.0,0.0,-0.6142534,0.0033546388,-0.2862212,-0.90692043,17.265331,77.78312,93.2717,-8.876801,-2.7329206,-1.0234833
9.314914,119.71415,63.14186,72.64098,2.3597267,4.51719,-0.6001296,-0.76121944,-0.38106227,0.22585094,0.72418773,-0.64509374,0.6158874,0.16472466,0.42959628,-0.59684926,-1.8561368,-1.5700848,2.2511396,1.73393,-0.87917745,0.49741554,-0.5670801,-1.8794754,-1.6283892,2.3015995,1.6902989,-0.8961754,-0.8705495,-0.788159,0.073797695,1.5490228,-1.3910092,1.7567487,-0.045034364,-0.048422813,-0.405056,0.84579355,-1.2673104,-0.16995423,0.9321701,-0.036642075,-0.48108673,0.7536908,0.8705621,0.074175745,0.1295868,0.46885684,-0.87130326,0.22067314,0.300975,1.0,0.0,0.0,0.0,0.0,0.0,0.0,-0.60157716,0.005055994,-0.29579353,-16.121435,18.21953,59.64258,55.035496,5.643153,-15.611124,2.9925532
-9.495632,81.54997,34.953964,48.229557,2.5508757,2.5646806,-0.5398868,-0.7603163,-0.34338748,0.2110616,0.77419287,-0.6597346,0.56133044,0.104350455,0.42138392,-0.60141885,-1.8583692,-1.55097,2.235626,1.746432,-0.88574034,0.48701763,-0.5739122,-1.8758914,-1.6112727,2.2886982,1.7062978,-0.8964586,-1.0937427,-0.6488763,0.45108166,1.7666305,-1.2583276,1.550558,-0.02229742,-0.061086655,-0.40675735,0.8543638,-1.2660433,-0.16978431,0.83198696,-0.045363426,-0.47837448,0.7580743,0.87387216,0.060975343,0.13582678,0.46279633,-0.8727187,0.29481634,0.47752842,1.0,0.0,0.0,0.0,0.0,0.0,0.0,-0.5889133,0.006757349,-0.3043638,-21.584558,13.734269,37.009598,21.999693,12.718248,-19.739056,2.42543
-14.195669,52.83073,16.937897,27.401562,1.8550395,1.0398878,-0.30837405,-0.7620012,-0.3231507,0.2399932,0.77351373,-0.66710216,0.58393323,0.050586585,0.4108175,-0.6062273,-1.8518921,-1.5339214,2.221988,1.7646911,-0.8914,0.47470665,-0.5797306,-1.8700836,-1.5936812,2.2770557,1.7203835,-0.89657784,-1.2756714,-0.559893,0.62228197,1.7570451,-1.1336727,1.3631923,-0.008263797,-0.073737144,-0.40845108,0.861933,-1.2647775,-0.16961457,0.731904,-0.054193497,-0.47516632,0.76323444,0.87720037,0.04795271,0.14198144,0.45613736,-0.8869579,0.33483973,0.5226929,1.0,0.0,0.0,0.0,0.0,0.0,0.0,-0.57626283,0.008451074,-0.31193298,-17.819763,8.811247,16.603542,-0.8516073,12.250662,-18.126678,1.4762845
-11.061386,35.48779,8.244632,14.355636,1.0879575,0.00077325106,-0.05599645,-0.75505537,-0.3118769,0.260196,0.7686165,-0.67164993,0.5761277,0.044214305,0.3992011,-0.6109183,-1.844064,-1.5168196,2.2098908,1.7779963,-0.8921564,0.46114445,-0.5849996,-1.8635948,-1.5770034,2.266409,1.732787,-0.89659023,-1.3827391,-0.51597834,0.65690124,1.6382151,-1.0417973,1.2009709,0.0010961083,-0.08637524,-0.4101448,0.8685021,-1.2635131,-0.16944498,0.63192105,-0.06311035,-0.47178268,0.76827407,0.8804575,0.035961833,0.14776315,0.4490739,-0.894102,0.3469973,0.49245682,1.0,0.0,0.0,0.0,0.0,0.0,0.0,-0.56362474,0.0101448,-0.31850207,-10.615563,4.3601513,3.2059908,-11.88693,9.092188,-15.765238,0.94012225
-9.767927,20.017572,1.4897583,8.70401,0.9747169,-0.64996094,0.055716928,-0.7520144,-0.35112828,0.24006005,0.76715875,-0.66951925,0.58432996,0.039429273,0.385943,-0.6201124,-1.8395888,-1.5002875,2.199457,1.79122,-0.8926473,0.4470234,-0.5902782,-1.8574321,-1.5616454,2.2564297,1.7437695,-0.89653015,-1.4218948,-0.53171074,0.60252565,1.5016007,-0.98376095,1.0650781,0.0076145506,-0.09900093,-0.41183853,0.87406915,-1.2622498,-0.16927557,0.5316444,-0.07216072,-0.46847916,0.7727115,0.8836239,0.02532246,0.15300988,0.4417641,-0.9085839,0.3337756,0.42313704,1.0,0.0,0.0,0.0,0.0,0.0,0.0,-0.55099905,0.0118385255,-0.32406914,-3.9194822,-1.5676498,-5.550468,-13.690925,5.764866,-13.264799,0.64862275
-10.816977,7.5969076,-3.6527686,7.7710876,1.2835463,-0.9685648,0.058177337,-0.7496874,-0.41045827,0.20230484,0.76078415,-0.65979356,0.56859374,0.052388612,0.37205464,-0.63132405,-1.8372016,-1.485567,2.1904504,1.8006289,-0.89129126,0.4328513,-0.5961347,-1.852164,-1.5474414,2.246851,1.7535542,-0.8964052,-1.4156388,-0.6035494,0.50113446,1.39333,-0.949369,0.9500729,0.0142095145,-0.11161423,-0.41353226,0.8786342,-1.2609878,-0.16910633,0.43146795,-0.08148384,-0.46542358,0.77634084,0.8867421,0.016034393,0.15760078,0.43427318,-0.94012606,0.30299616,0.33912554,1.0,0.0,0.0,0.0,0.0,0.0,0.0,-0.53838575,0.013532251,-0.3286342,0.63774586,-7.157886,-10.210729,-10.822201,3.4359932,-11.290646,0.6846549
-13.947748,2.0975668,-6.5546722,10.30157,1.7230607,-0.9887434,-0.06278663,-0.75542766,-0.4480195,0.14156981,0.7626332,-0.6529177,0.5415624,0.063765526,0.35730854,-0.6409367,-1.8380071,-1.471178,2.181559,1.8077104,-0.89002866,0.41886425,-0.6028829,-1.8481109,-1.5339602,2.2374973,1.7623147,-0.8962126,-1.3928097,-0.6985074,0.37290493,1.3331518,-0.93056333,0.85166866,0.021223571,-0.124215126,-0.41522217,0.8821983,-1.259727,-0.16893725,0.33139163,-0.091257095,-0.46271515,0.77915514,0.88989854,0.007963802,0.16152936,0.42652717,-0.9896869,0.26672032,0.25887507,1.0,0.0,0.0,0.0,0.0,0.0,0.0,-0.52578485,0.015222162,-0.33219826,2.3548603,-9.4674225,-12.923956,-5.9395313,1.9147992,-9.694756,0.7569924
-15.207254,1.5993679,-6.734959,12.820531,1.9518937,-0.8828833,-0.1598129,-0.7424808,-0.49019763,0.08205497,0.76388,-0.6553095,0.54425734,0.03877392,0.34461617,-0.6519027,-1.8399054,-1.4575722,2.1719663,1.8167404,-0.8923352,0.40518188,-0.6106277,-1.8453853,-1.520769,2.228239,1.7702168,-0.89597416,-1.3596967,-0.7997019,0.2386551,1.3148042,-0.92388064,0.77001566,0.02501499,-0.13680267,-0.41690826,0.88476235,-1.2584676,-0.16876835,0.23141539,-0.10158253,-0.46035767,0.78123623,0.8931566,0.00092187244,0.16487376,0.41843417,-1.0468729,0.23282802,0.18814197,1.0,0.0,0.0,0.0,0.0,0.0,0.0,-0.5131973,0.016908258,-0.33476233,3.423643,-10.101234,-13.539431,-1.6907215,0.7090092,-8.053171,0.45244545
-10.38763,7.909874,-1.5766778,13.841424,1.7427545,-0.6704174,-0.08556614,-0.7098252,-0.5374431,0.089785084,0.7616509,-0.6524337,0.5391073,0.011988161,0.33419937,-0.664372,-1.8364068,-1.4446039,2.1629956,1.8241276,-0.89477533,0.39193392,-0.6193729,-1.8436458,-1.5075816,2.2190075,1.7774056,-0.8957243,-1.3127886,-0.89946467,0.15231022,1.3205228,-0.92312753,0.7022354,0.025233116,-0.14937782,-0.41859436,0.8863273,-1.2572093,-0.16859962,0.13153914,-0.11236954,-0.45824814,0.7827385,0.8964805,-0.0053800293,0.16771741,0.41007861,-1.0891472,0.20942888,0.13452804,1.0,0.0,0.0,0.0,0.0,0.0,0.0,-0.50062215,0.018594354,-0.3363273,4.78909,-9.982861,-8.694172,0.73137283,0.03954172,-6.6650987,0.0984326
-8.156509,13.21303,1.6312578,14.457762,1.5996252,-0.49870837,-0.07866211,-0.6924031,-0.57373816,0.05614333,0.75850546,-0.6439818,0.5460383,-0.04319922,0.32269362,-0.6767467,-1.8380315,-1.431731,2.1546092,1.8320094,-0.9000442,0.3791566,-0.62902504,-1.8425777,-1.4942759,2.2097836,1.7840127,-0.8955183,-1.265755,-0.9872279,0.09164269,1.3345202,-0.9220787,0.6472781,0.019267926,-0.16194057,-0.42028046,0.8868943,-1.2559524,-0.16843104,0.031762727,-0.1235075,-0.45632553,0.7837825,0.8998362,-0.011156427,0.17014164,0.40152475,-1.1223046,0.19487202,0.091085166,1.0,0.0,0.0,0.0,0.0,0.0,0.0,-0.4880594,0.02028045,-0.33689427,4.791665,-8.8027,-6.102249,1.5687466,0.028860569,-5.3743005,-0.52341294
-10.373158,14.984012,0.73487794,14.924837,1.5753986,-0.47604233,-0.16419491,-0.68108934,-0.592096,-0.048979662,0.7587467,-0.650716,0.5456857,-0.030352477,0.31104764,-0.6882346,-1.8474756,-1.4184012,2.144712,1.8385812,-0.89855355,0.36678886,-0.6393791,-1.8423507,-1.4808253,2.2005482,1.7901448,-0.89536476,-1.2267619,-1.0515507,-0.0004823076,1.3490678,-0.9241409,0.60230005,0.014274059,-0.17449093,-0.42196655,0.8864643,-1.2546967,-0.16826265,-0.067913935,-0.13499832,-0.454525,0.78438044,0.90324754,-0.016389858,0.17226303,0.39268386,-1.1581595,0.18300804,0.045792963,1.0,0.0,0.0,0.0,0.0,0.0,0.0,-0.47550905,0.021966547,-0.3364643,3.996849,-6.4688206,-9.274745,1.6501904,-0.24813414,-4.375744,-0.44267997
-11.812413,14.874367,-0.8516891,14.372869,1.5103054,-0.55029696,-0.21774659,-0.6513539,-0.6167646,-0.15361314,0.7596952,-0.65034086,0.55676144,-0.021476816,0.30165347,-0.7010555,-1.857712,-1.4048557,2.135514,1.8458209,-0.89751244,0.35482693,-0.65025383,-1.8433597,-1.4672564,2.1912937,1.7958955,-0.8952503,-1.1857318,-1.0996102,-0.13458347,1.360273,-0.92588735,0.56640726,0.010627156,-0.18702888,-0.42364502,0.88503826,-1.2534423,-0.16809443,-0.16749093,-0.14686775,-0.45285034,0.7844728,0.9067451,-0.020955767,0.1741742,0.3834546,-1.1966254,0.16981575,-0.006817655,1.0,0.0,0.0,0.0,0.0,0.0,0.0,-0.4629711,0.023645014,-0.33503824,4.19302,-4.8486233,-13.480462,1.3362169,-0.17827749,-3.4861684,-0.32555425
-17.939362,10.357446,-6.196582,14.4201355,1.6341248,-0.6753057,-0.36205202,-0.64189607,-0.63075566,-0.32841095,0.76690954,-0.6698264,0.58153886,0.01962823,0.2906373,-0.7133294,-1.8762008,-1.3905655,2.124311,1.8540493,-0.8932875,0.34321404,-0.661491,-1.8463104,-1.4535769,2.1819706,1.8013543,-0.89513683,-1.152698,-1.131869,-0.34918147,1.3715397,-0.93410844,0.53924334,0.01167708,-0.19955349,-0.4253235,0.8826172,-1.252189,-0.16792636,-0.2669684,-0.15924549,-0.45134735,0.78392386,0.91039795,-0.024595559,0.17597882,0.3736336,-1.2514702,0.15224622,-0.07512761,1.0,0.0,0.0,0.0,0.0,0.0,0.0,-0.4504465,0.02532348,-0.33261716,3.4363031,-3.270483,-21.599653,1.4050007,-0.7259846,-2.6556134,0.1266295
-20.016783,7.0389814,-9.001903,13.437288,1.6251732,-0.75889033,-0.4146437,-0.61178213,-0.65477335,-0.46818256,0.77431387,-0.66259927,0.60229564,-0.002240538,0.28203583,-0.7269683,-1.8931286,-1.3761455,2.1157107,1.8615838,-0.8953609,0.33196735,-0.6730266,-1.8517406,-1.4397792,2.172594,1.8065938,-0.89502525,-1.1148527,-1.1609936,-0.60806453,1.3837061,-0.9384296,0.51893663,0.011005835,-0.21206665,-0.42700195,0.87921053,-1.2509371,-0.16775846,-0.36522317,-0.17222881,-0.4500389,0.78261256,0.9142495,-0.027119234,0.17770855,0.36308685,-1.3133658,0.13222033,-0.15429293,1.0,0.0,0.0,0.0,0.0,0.0,0.0,-0.43793333,0.027001947,-0.32921052,3.936839,-2.9644728,-26.048262,1.5360355,-0.2897501,-2.0291686,-0.05809404
-15.099453,11.91477,-5.46581,11.882296,1.2194422,-0.69051033,-0.2835161,-0.57060283,-0.6668328,-0.5423843,0.77624303,-0.67706066,0.6307813,-0.0051141717,0.27490708,-0.7397099,-1.905979,-1.3621548,2.104888,1.869672,-0.89553666,0.321198,-0.68481594,-1.8595932,-1.4258803,2.163145,1.8116826,-0.8949232,-1.0638944,-1.1852033,-0.84467375,1.392928,-0.94716686,0.5053938,0.009845549,-0.22456646,-0.42868042,0.8748221,-1.2496865,-0.16759075,-0.4633797,-0.18570614,-0.4488907,0.78053796,0.91823417,-0.028546475,0.17939925,0.35191905,-1.3580462,0.11708742,-0.23019838,1.0,0.0,0.0,0.0,0.0,0.0,0.0,-0.42543352,0.028680414,-0.32482207,5.207491,-2.4954796,-23.753643,1.2138128,-0.7881522,-1.3735652,-0.1335634
-9.607439,13.233303,-2.3319502,9.272271,0.9601319,-0.6051222,-0.10210991,-0.5342727,-0.7171297,-0.59422874,0.7591497,-0.6490784,0.6398781,-0.03611219,0.2677707,-0.7565289,-1.919016,-1.3499653,2.0982373,1.8756704,-0.8985344,0.3110094,-0.69700485,-1.8694007,-1.4120024,2.1536999,1.8166646,-0.89485455,-1.0036387,-1.2304791,-1.0260504,1.3870565,-0.9438722,0.49562076,0.0058477577,-0.23705387,-0.43035507,0.8694528,-1.248437,-0.16742319,-0.56143814,-0.19953728,-0.44788742,0.77770936,0.9222598,-0.029034767,0.18092723,0.3403808,-1.3896105,0.10510243,-0.30578637,1.0,0.0,0.0,0.0,0.0,0.0,0.0,-0.4129461,0.030355066,-0.31945276,6.0782433,-4.609275,-18.147064,-0.32258034,0.34794807,-1.0209739,-0.39719567
7.418593,24.736193,7.8504324,5.0826216,0.10889551,-0.64755744,0.26777256,-0.4221726,-0.7404106,-0.60023814,0.7506528,-0.643942,0.6555403,-0.044906747,0.26879215,-0.7710459,-1.9294245,-1.3369372,2.0893056,1.8822186,-0.8993452,0.30181313,-0.7096897,-1.8804023,-1.3982581,2.144312,1.8215779,-0.89483166,-0.8921564,-1.2814478,-1.1241088,1.3707824,-0.9379535,0.4898977,0.0010597307,-0.24952888,-0.4320259,0.86309046,-1.2471888,-0.1672558,-0.661156,-0.21334362,-0.44701385,0.77422357,0.92615384,-0.028889071,0.18220156,0.32894853,-1.3755872,0.0911203,-0.36860693,1.0,0.0,0.0,0.0,0.0,0.0,0.0,-0.4004711,0.032025903,-0.31309044,10.988069,-5.1802874,-9.587097,-1.5183449,0.46412945,-0.5814314,-0.4818121
28.298456,33.824814,17.263676,-1.9532969,-0.9939197,-0.9320353,0.6960768,-0.27773458,-0.7732885,-0.61030746,0.70711625,-0.6344089,0.6563625,-0.06622926,0.27403966,-0.78701854,-1.9414331,-1.3275465,2.080871,1.8872142,-0.90145457,0.29424334,-0.7229324,-1.8919075,-1.3848838,2.135004,1.8264474,-0.8948698,-0.71336,-1.3387538,-1.1576892,1.3261155,-0.9295317,0.48605323,-0.005443717,-0.2619915,-0.43369675,0.8557317,-1.2459419,-0.16708858,-0.7607742,-0.22663307,-0.44638443,0.77013975,0.9297272,-0.028377628,0.18313107,0.3182217,-1.3105626,0.062234115,-0.42773888,1.0,0.0,0.0,0.0,0.0,0.0,0.0,-0.38800848,0.03369674,-0.3057317,17.456484,-5.7914257,-2.9051065,-4.549551,0.5948067,-0.3650546,-0.6548132
36.35026,38.79607,21.058714,-4.1237125,-1.4422214,-1.0788584,0.87060755,-0.19678295,-0.7903264,-0.6392517,0.68781644,-0.65172225,0.6388741,0.039489865,0.27456504,-0.80196506,-1.9558326,-1.3161021,2.0698318,1.8903347,-0.8909208,0.28857708,-0.73669773,-1.9035671,-1.3720149,2.1257114,1.831273,-0.89488983,-0.51937217,-1.3893994,-1.1669804,1.2734834,-0.93015635,0.4813215,-0.0009090177,-0.27444172,-0.43536758,0.8473775,-1.2446963,-0.16692153,-0.86029273,-0.23912334,-0.44610214,0.7654996,0.9328895,-0.027607001,0.18373072,0.30854148,-1.2257038,0.024830695,-0.4824035,1.0,0.0,0.0,0.0,0.0,0.0,0.0,-0.37555826,0.03536758,-0.29737747,18.908619,-5.13041,-0.4168272,-5.4041147,-0.3596902,-0.4643321,0.44071734
39.28483,42.887226,22.853981,-3.8946152,-1.5426475,-1.1743405,0.8797071,-0.10655095,-0.79770684,-0.6638575,0.67727375,-0.6474141,0.6235506,0.07383174,0.27792197,-0.8164684,-1.9699528,-1.3042876,2.06097,1.893628,-0.88750666,0.28484678,-0.75085884,-1.915303,-1.3596228,2.1164074,1.8360413,-0.8948345,-0.3258245,-1.4252965,-1.1740752,1.2271436,-0.9315133,0.47535136,0.007684182,-0.28687954,-0.43703842,0.83802885,-1.2434518,-0.16675465,-0.9597118,-0.25072384,-0.4462204,0.7603672,0.93563855,-0.026607594,0.18407275,0.299983,-1.1346989,-0.017406078,-0.53004944,1.0,0.0,0.0,0.0,0.0,0.0,0.0,-0.36312044,0.037038416,-0.28802884,18.874084,-3.672409,-0.20143986,-4.782295,-0.45220852,-0.6204307,0.8350174
42.96008,47.041786,24.468866,-3.9054298,-1.7419171,-1.3351444,0.88455427,0.012713518,-0.7984381,-0.6936703,0.66471153,-0.67321324,0.60268074,0.09787399,0.28611812,-0.83070266,-1.98467,-1.2931517,2.049086,1.8963094,-0.88504714,0.28311157,-0.765246,-1.9272087,-1.3476218,2.107008,1.8407391,-0.8946781,-0.1243177,-1.4435086,-1.1944147,1.1905568,-0.9437285,0.4675751,0.018076086,-0.29930496,-0.43870163,0.8276868,-1.2422086,-0.16658792,-1.0590315,-0.2613535,-0.44679642,0.7547979,0.9379821,-0.025349611,0.18428656,0.29254985,-1.0355649,-0.066968165,-0.5724052,1.0,0.0,0.0,0.0,0.0,0.0,0.0,-0.350695,0.038701624,-0.27768677,19.674564,-1.9190788,-1.5273094,-3.81608,-1.5474439,-0.83435774,0.99135095
33.30654,45.36648,20.872917,-0.2989707,-1.2235842,-1.209894,0.6135826,0.042707432,-0.80475307,-0.72390604,0.65098464,-0.6784335,0.5789419,-0.07784284,0.2873823,-0.8457213,-1.9995992,-1.2825234,2.0391645,1.8986334,-0.9024624,0.28303146,-0.7797418,-1.9394462,-1.3359202,2.097475,1.8453435,-0.8945589,0.029623346,-1.4520288,-1.2322129,1.163033,-0.9573327,0.45788783,0.009698198,-0.31171703,-0.44036484,0.81635225,-1.2409667,-0.16642137,-1.1582518,-0.27116108,-0.44781494,0.74881977,0.94001955,-0.023757588,0.18446152,0.28595927,-0.9585467,-0.10943884,-0.6128635,1.0,0.0,0.0,0.0,0.0,0.0,0.0,-0.33828294,0.04036483,-0.26635224,15.062976,-0.97134113,-3.3961296,-2.8147697,-1.6473889,-1.0591984,-0.88827163
13.118347,41.715412,14.449838,6.3187504,-0.2340954,-0.7577647,0.21359545,0.0016128195,-0.80325186,-0.7453704,0.63561934,-0.68621117,0.57326955,-0.24381417,0.28319275,-0.860067,-2.0139832,-1.2723583,2.028854,1.9026704,-0.9189403,0.28378534,-0.7942577,-1.9521282,-1.324457,2.0878048,1.8498544,-0.89465904,0.09034454,-1.4519578,-1.2793125,1.1409916,-0.97087115,0.4486074,-0.016860107,-0.32411766,-0.44202805,0.80402625,-1.239726,-0.16625498,-1.2573729,-0.28050423,-0.44906998,0.742456,0.94190925,-0.021741265,0.18466264,0.27970317,-0.92204404,-0.12842429,-0.6506858,0.0,1.0,0.0,0.0,0.0,0.0,0.0,-0.32588232,0.04202804,-0.25402623,5.9704876,-0.13804436,-4.509115,-2.1267176,-1.5898824,-1.020205,-2.7150295
-14.129618,35.208477,5.6673164,13.851572,1.0244919,-0.12030795,-0.19100294,-0.10447106,-0.8062477,-0.76451874,0.600467,-0.67701304,0.52877903,-0.31034085,0.27333823,-0.87488246,-2.02858,-1.2644104,2.0201035,1.9027323,-0.92569315,0.28422832,-0.8087593,-1.9652927,-1.3132914,2.0780582,1.8542508,-0.895072,0.029487994,-1.450201,-1.3288538,1.1091642,-0.9764431,0.43631616,-0.04960132,-0.33650494,-0.44369125,0.7907098,-1.2384865,-0.16608876,-1.3563949,-0.28988075,-0.45025253,0.73570085,0.94382405,-0.019175734,0.18487665,0.27321988,-0.93827814,-0.11380983,-0.6903085,0.0,1.0,0.0,0.0,0.0,0.0,0.0,-0.31349504,0.043691248,-0.24070978,-5.921801,0.006008148,-4.9628496,-2.9350758,-0.7387996,-1.3092399,-3.3356733
-35.33196,33.992695,1.1853867,21.347176,2.2016642,0.53819156,-0.4685154,-0.20455164,-0.8091323,-0.7427702,0.60563296,-0.63505334,0.52502793,-0.23546419,0.26377317,-0.8896725,-2.0395696,-1.2527281,2.0145528,1.9067535,-0.9186184,0.28339842,-0.8232506,-1.9788302,-1.3024327,2.0685985,1.8585416,-0.8957035,-0.1162602,-1.4487091,-1.3836457,1.0622761,-0.87622535,0.43383658,-0.05838758,-0.34850407,-0.4445343,0.7799982,-0.9902286,0.076403566,-0.21999946,-0.29974556,-0.45105743,0.7286001,0.9458942,-0.01608899,0.1849488,0.26611876,-1.006149,-0.068495795,-0.7298269,0.0,1.0,0.0,0.0,0.0,0.0,0.0,-0.3014959,0.044534296,-0.22999817,-13.7262125,0.06356239,-8.928442,-7.104659,18.355251,0.5577564,0.396806
-32.847004,55.932068,12.83827,29.152079,2.737502,1.1873969,-0.38736817,-0.22517046,-0.7810162,-0.5642889,0.7248812,-0.61691266,0.58955824,0.2196908,0.26088136,-0.9013522,-2.035259,-1.2299446,2.0069072,1.9174974,-0.8737344,0.28107813,-0.8376053,-1.9918498,-1.29133,2.0600154,1.8628618,-0.8960764,-0.26967224,-1.4318839,-1.2745539,1.127361,-0.85398203,0.43128416,-0.030393891,-0.35839844,-0.44377136,0.7770477,-0.98923856,0.076327175,-0.32005873,-0.31015682,-0.45121384,0.7216126,0.948077,-0.0131248655,0.184811,0.25850067,-1.0477825,0.0064111403,-0.69453627,0.0,1.0,0.0,0.0,0.0,0.0,0.0,-0.29160154,0.043771356,-0.22704768,-15.058666,1.4233828,11.003423,6.795168,1.8222213,-0.2649963,2.7575583
-21.70923,61.57801,17.321829,26.669672,2.3089905,0.9797022,-0.243521,-0.20997503,-0.77768004,-0.5773829,0.7277102,-0.59577173,0.5771516,0.21747962,0.26008064,-0.9153733,-2.049588,-1.2185589,2.0004382,1.9205769,-0.87432843,0.27762392,-0.85177785,-2.0037382,-1.2794853,2.0516536,1.867159,-0.89614695,-0.3701635,-1.4131866,-1.1596678,1.204173,-0.8314404,0.4290354,0.00053727994,-0.36828327,-0.44300842,0.77309734,-0.9882495,0.076250866,-0.42001793,-0.3208208,-0.45070648,0.715026,0.95023566,-0.010540573,0.18485102,0.25054184,-1.0678054,0.06892232,-0.65260655,0.0,1.0,0.0,0.0,0.0,0.0,0.0,-0.2817167,0.043008417,-0.22309732,-9.879536,1.6250372,11.675596,7.890177,1.8385768,-0.22756457,3.0558438
-9.276008,58.980972,17.865374,20.053272,1.3781509,0.5038555,-0.011643715,-0.19894528,-0.78105056,-0.6134091,0.7022932,-0.6136203,0.54069734,0.22895856,0.25772938,-0.9298829,-2.065079,-1.209256,1.9902916,1.9212288,-0.8732511,0.2736018,-0.8658131,-2.0147817,-1.267059,2.0432842,1.871401,-0.89592856,-0.41268727,-1.4010203,-1.0850058,1.2559507,-0.8402134,0.42261183,0.02886771,-0.37815857,-0.44224548,0.7681482,-0.9872615,0.07617463,-0.51987725,-0.33150196,-0.44976425,0.70870316,0.9522951,-0.008170021,0.1851035,0.24249494,-1.0635386,0.10668037,-0.6311327,0.0,1.0,0.0,0.0,0.0,0.0,0.0,-0.2718414,0.042245477,-0.21814817,-4.1918516,1.0072947,7.695985,5.3260803,-1.2563229,-0.6558478,2.7795832
6.264445,55.55547,18.87299,12.351198,0.43679428,-0.029278785,0.25101167,-0.1544389,-0.78579104,-0.6147427,0.6982479,-0.61345816,0.54890984,0.26098582,0.2581579,-0.9443922,-2.076256,-1.1972342,1.9819384,1.926292,-0.86982995,0.26965407,-0.8797949,-2.025379,-1.2543331,2.0347812,1.8755857,-0.89543456,-0.3889696,-1.3978077,-1.0501932,1.2784281,-0.85484815,0.41709012,0.05607159,-0.38802433,-0.44148254,0.76220113,-0.9862744,0.07609847,-0.61963665,-0.34195232,-0.44867325,0.7024299,0.9541882,-0.0058073723,0.18552142,0.23467585,-1.0341537,0.115775615,-0.6313998,0.0,1.0,0.0,0.0,0.0,0.0,0.0,-0.26197565,0.041482538,-0.21220112,2.306044,0.15022755,3.76904,2.3160458,-1.8165708,-0.58898926,2.6568904
6.6968994,51.195522,16.376623,9.934312,0.25557363,-0.20213905,0.2779479,-0.17893358,-0.78274477,-0.6225096,0.6935691,-0.60505086,0.52561724,0.25856653,0.25176072,-0.9580694,-2.0876298,-1.1849762,1.9742762,1.9281474,-0.8695779,0.26597813,-0.8937653,-2.0358846,-1.2415558,2.0261638,1.8797036,-0.8947002,-0.3606853,-1.3973595,-1.0501629,1.2777386,-0.8654562,0.40977526,0.078958295,-0.3978796,-0.4407196,0.75525725,-0.9852883,0.07602239,-0.71929634,-0.3521185,-0.44753647,0.6960364,0.9559164,-0.003263217,0.18602332,0.2271748,-1.0064651,0.11719605,-0.64737433,0.0,1.0,0.0,0.0,0.0,0.0,0.0,-0.25212038,0.0407196,-0.20525724,2.7626574,-0.11250973,0.2550602,0.011348724,-1.3694763,-0.79178214,2.225393
-0.60700905,48.64263,13.346623,11.459158,0.54242206,-0.11364955,0.18405668,-0.21300212,-0.78143924,-0.6249908,0.7079533,-0.60931575,0.5259923,0.29790908,0.24467792,-0.97190917,-2.0983837,-1.1707605,1.9652323,1.9323028,-0.8649093,0.26240852,-0.9077404,-2.0465238,-1.2287937,2.0174549,1.8837548,-0.89373606,-0.35575593,-1.3980051,-1.0678425,1.276108,-0.87364244,0.40315017,0.10196824,-0.40772533,-0.43995667,0.7473175,-0.98430324,0.07594638,-0.81885636,-0.3621149,-0.44633102,0.68944347,0.9575168,-0.00041545546,0.18657821,0.21988633,-0.99303234,0.12534404,-0.6683348,0.0,1.0,0.0,0.0,0.0,0.0,0.0,-0.24227464,0.03995666,-0.19731748,0.481385,-0.22594929,-1.5697718,-0.02772808,-1.0887861,-0.737977,2.246058
-3.8532612,46.819565,11.909577,11.508183,0.7222842,-0.055987835,0.14775722,-0.22104876,-0.79018897,-0.6157124,0.69337857,-0.58051103,0.49316126,0.29520652,0.24030365,-0.9867593,-2.1080952,-1.1594559,1.9594038,1.933071,-0.86421543,0.25878027,-0.92176515,-2.0573232,-1.216129,2.0087764,1.8877202,-0.89256877,-0.36516014,-1.4045013,-1.0831437,1.2638112,-0.866994,0.3940118,0.12151034,-0.41756058,-0.43920135,0.73838294,-0.98331916,0.075870454,-0.91831684,-0.37203407,-0.44501877,0.68261266,0.95902634,0.0027583153,0.18708734,0.21274202,-0.98672664,0.13747925,-0.69297874,0.0,1.0,0.0,0.0,0.0,0.0,0.0,-0.2324394,0.03920135,-0.18838292,-0.9310663,-0.8090496,-1.3538122,-1.0697603,0.4049301,-1.006484,1.9183218
-9.794929,43.57002,9.361201,11.7779255,0.9406327,0.054339767,0.102320075,-0.25468284,-0.80258757,-0.62258595,0.66577286,-0.56404674,0.45455077,0.30201936,0.23331198,-1.0020239,-2.1195817,-1.1495516,1.9523717,1.9331753,-0.86236686,0.25487402,-0.935911,-2.0682752,-1.2037102,2.0002353,1.8915712,-0.8912241,-0.3989083,-1.4185605,-1.0985183,1.2352589,-0.8509718,0.3817866,0.13873845,-0.42738628,-0.43844604,0.7284545,-0.98233604,0.0757946,-1.0176779,-0.38196945,-0.44353104,0.67548275,0.9604825,0.0062877997,0.1874268,0.2056817,-0.9908548,0.15684365,-0.72454226,0.0,1.0,0.0,0.0,0.0,0.0,0.0,-0.22261369,0.03844604,-0.17845446,-3.3255339,-1.5633106,-1.4065981,-2.6489973,1.3646722,-1.3321638,1.7110735
-1.1503922,48.674614,13.382021,9.755759,0.7769793,0.018523991,0.19615293,-0.22259307,-0.800316,-0.58615446,0.6479902,-0.4903958,0.443063,0.3223912,0.23261471,-1.0159426,-2.1268907,-1.1389111,1.9511957,1.9358774,-0.85898495,0.25080052,-0.95017314,-2.079213,-1.1916795,1.9921201,1.8952825,-0.8896931,-0.40983444,-1.4291629,-1.094594,1.1903518,-0.7955561,0.3661778,0.15901673,-0.43716812,-0.4372368,0.7194669,-0.97399443,0.1634085,-0.7390466,-0.39184284,-0.44189835,0.66808414,0.96189076,0.010049379,0.18743485,0.1988301,-0.98132104,0.16864486,-0.75090015,0.0,1.0,0.0,0.0,0.0,0.0,0.0,-0.21283185,0.03723678,-0.16946691,-1.2186468,-1.2292147,1.3150215,-3.65386,5.272794,-1.2153924,1.8154591
-14.702815,51.06175,11.312748,15.162997,1.446908,0.34943467,-0.011507817,-0.30891812,-0.7972017,-0.5844065,0.6678027,-0.49499592,0.41280434,0.34378824,0.21990871,-1.0298933,-2.1376536,-1.1248991,1.9426205,1.9365629,-0.85531425,0.24628462,-0.9644964,-2.0900352,-1.1799035,1.9845552,1.8988533,-0.8879657,-0.46530795,-1.4339768,-1.0774025,1.1740716,-0.74460435,0.35370472,0.17735215,-0.4464512,-0.43569183,0.71176857,-0.9139756,0.15156285,-0.7810953,-0.40177727,-0.43998718,0.6605151,0.9632894,0.013952589,0.18710941,0.19201289,-0.9922344,0.20299952,-0.76362175,0.0,1.0,0.0,0.0,0.0,0.0,0.0,-0.20354879,0.035691828,-0.16176856,-5.483156,-0.6556988,1.8831253,-1.4175653,4.8057437,-1.3837576,1.8503964
-17.626469,55.35642,12.561878,16.880268,1.7390449,0.536572,-0.055078976,-0.34389922,-0.7977265,-0.5361516,0.64664346,-0.4321459,0.34945723,0.38927418,0.21189469,-1.0442691,-2.1436503,-1.1152391,1.9413407,1.933799,-0.84903824,0.2410945,-0.97883964,-2.1004646,-1.1682898,1.9775788,1.9022563,-0.88603824,-0.53667694,-1.435127,-1.0303823,1.1577849,-0.68451077,0.3352906,0.19775769,-0.45523834,-0.43416977,0.703746,-0.87438047,0.1556991,-0.8075867,-0.41183472,-0.43766785,0.6529004,0.9646979,0.017861562,0.18645903,0.18512684,-1.0045049,0.24604768,-0.76532143,0.0,1.0,0.0,0.0,0.0,0.0,0.0,-0.19476163,0.034169763,-0.15374601,-7.065928,-0.29621124,4.904437,-1.4437199,5.3058624,-2.0179033,2.0062952
-14.134876,58.098774,14.681742,15.99517,1.8374124,0.5786122,-0.04976183,-0.3603504,-0.80501133,-0.48236609,0.6166773,-0.31332463,0.3075622,0.36254302,0.20505945,-1.0593407,-2.1487012,-1.1066221,1.9462463,1.9330125,-0.84978396,0.23522845,-0.99321246,-2.1101997,-1.1569163,1.971407,1.9054531,-0.8839518,-0.6030949,-1.4385887,-0.9535079,1.1310747,-0.5959777,0.31408668,0.21245517,-0.46382904,-0.4325142,0.695566,-0.85398126,0.1691006,-0.82183444,-0.4219761,-0.4349289,0.6453157,0.966137,0.021592857,0.18535568,0.17820318,-1.011585,0.28876692,-0.76044935,0.0,1.0,0.0,0.0,0.0,0.0,0.0,-0.18617094,0.032514185,-0.14556599,-6.5989137,-0.5162239,7.8959107,-2.4980545,8.504641,-2.2414923,1.5167892
-16.267365,59.245373,14.404446,16.565918,1.9115802,0.6530494,-0.08503118,-0.40768394,-0.8026756,-0.46051064,0.6061448,-0.28305098,0.28521064,0.3707008,0.19446005,-1.07348,-2.1562507,-1.0963018,1.943102,1.9339741,-0.8468817,0.22865404,-1.0076041,-2.1191647,-1.1458155,1.9660861,1.9084382,-0.8817327,-0.67539555,-1.4398581,-0.87693626,1.1035867,-0.511918,0.2927783,0.2252606,-0.4722166,-0.43072128,0.68725306,-0.83380073,0.18302372,-0.83503944,-0.43219566,-0.43173218,0.6377884,0.96761674,0.025084706,0.18377346,0.17121875,-1.0197774,0.33504474,-0.7543652,0.0,1.0,0.0,0.0,0.0,0.0,0.0,-0.17778337,0.030721277,-0.13725305,-7.177174,-0.29377937,7.8497767,-2.5653124,8.075153,-2.2480667,1.3337016
-15.593142,60.459553,14.454132,15.909878,1.879707,0.5944617,-0.082603395,-0.4396459,-0.7922921,-0.4428763,0.57463527,-0.18949519,0.16210113,0.38796055,0.18468945,-1.0868334,-2.1634524,-1.088352,1.9471366,1.9246483,-0.84293664,0.22138377,-1.0219512,-2.1274655,-1.1350752,1.9617167,1.9111387,-0.8793895,-0.7440832,-1.4335246,-0.8138022,1.064746,-0.41306436,0.26199096,0.23745725,-0.48040295,-0.42879868,0.6787997,-0.813772,0.19552992,-0.849125,-0.44248676,-0.42808914,0.6303144,0.96914715,0.028378133,0.18166421,0.16415419,-1.0264386,0.37942588,-0.74912816,0.0,1.0,0.0,0.0,0.0,0.0,0.0,-0.16959703,0.02879867,-0.12879968,-6.8219066,0.47414303,6.491065,-3.7133455,9.57163,-3.1997323,1.2718439
-8.541775,63.264668,16.833223,14.669114,1.9548628,0.4289201,-0.09108006,-0.4353882,-0.7891443,-0.3990212,0.568371,0.007923322,0.05656609,0.39997226,0.17784494,-1.1008656,-2.1673677,-1.0782381,1.962509,1.9167953,-0.8393923,0.2136304,-1.0362144,-2.1351292,-1.124684,1.9587513,1.9134735,-0.8769301,-0.78572077,-1.4244297,-0.7500825,1.0309798,-0.25871733,0.22368552,0.2489699,-0.48837566,-0.42676926,0.67024165,-0.7919159,0.2051966,-0.85817,-0.45281982,-0.42406464,0.6229412,0.9707591,0.031350464,0.17885354,0.15701959,-1.0298035,0.4157755,-0.7373208,0.0,1.0,0.0,0.0,0.0,0.0,0.0,-0.16162431,0.02676925,-0.12024164,-4.1579485,0.7627487,6.5835595,-3.2573938,15.130466,-3.9643078,1.2132198
-7.7678156,57.36981,13.817779,11.29199,1.5176295,0.1885156,-0.006689258,-0.46849155,-0.78573984,-0.43848103,0.4893243,0.0488525,-0.18688808,0.3899662,0.16678123,-1.1147883,-2.1789773,-1.0757515,1.9636365,1.8947847,-0.8379335,0.20548792,-1.0503802,-2.1425183,-1.1149031,1.9572464,1.9152757,-0.87437904,-0.8237269,-1.4146054,-0.7343615,0.9609029,-0.1153621,0.16519226,0.2572435,-0.4961605,-0.42467117,0.6614651,-0.77430844,0.21130043,-0.8847478,-0.4631691,-0.41975403,0.6155264,0.972454,0.034227498,0.17523022,0.14985344,-1.0309182,0.44271266,-0.74663216,0.0,1.0,0.0,0.0,0.0,0.0,0.0,-0.15383947,0.024671167,-0.1114651,-3.7915945,0.85258484,1.7233729,-6.8769336,14.083995,-5.992275,0.88047385
7.4509277,57.82278,17.026964,6.1099114,0.8728822,-0.07513136,0.18867242,-0.4285013,-0.7876951,-0.39012328,0.44349822,0.14902383,-0.27748546,0.4201164,0.16263779,-1.1291498,-2.1815307,-1.0705533,1.9721488,1.8875271,-0.8323674,0.19727613,-1.0644794,-2.1496863,-1.10595,1.9571899,1.9164678,-0.87173724,-0.82051915,-1.4086564,-0.7105121,0.8735133,0.030018566,0.10351908,0.26656595,-0.50371647,-0.42256927,0.6524455,-0.7497573,0.21013895,-0.9084256,-0.4733734,-0.41532898,0.60799205,0.97420293,0.0370433,0.17071557,0.14287283,-1.0110902,0.44819698,-0.7593713,0.0,1.0,0.0,0.0,0.0,0.0,0.0,-0.1462835,0.022569269,-0.10244548,0.26079416,0.49233437,2.5831223,-8.699179,14.28495,-6.2883825,0.96092224
9.76851,57.78482,17.015804,5.951277,0.535583,-0.14592254,0.22438365,-0.42851424,-0.788232,-0.39365926,0.44796145,0.0999341,-0.31582582,0.4507053,0.1544247,-1.1433026,-2.1890523,-1.0611539,1.9671834,1.8848852,-0.8266667,0.18919852,-1.078546,-2.1567092,-1.0976912,1.9581383,1.9170723,-0.8689905,-0.8037169,-1.4063842,-0.6986567,0.8103264,0.11549036,0.045668136,0.27739698,-0.5110073,-0.4204979,0.6432163,-0.7226784,0.20627773,-0.92882776,-0.4833393,-0.41090775,0.6003088,0.975949,0.03988054,0.16550495,0.13616607,-0.9858616,0.44630164,-0.7746934,0.0,1.0,0.0,0.0,0.0,0.0,0.0,-0.13899267,0.020497888,-0.0932163,1.6179919,0.13024807,1.3853669,-6.2745214,8.326307,-5.891665,1.0912597
