Afshin1997/kuka_rl_ros2/src/catch_and_throw/input_files/idealpd/polynomial_regressor/optimizer_files/env_187_data.csv
torque0,torque1,torque2,torque3,torque4,torque5,torque6,action0,action1,action2,action3,action4,action5,action6,set_target_0,set_target_1,set_target_2,set_target_3,set_target_4,set_target_5,set_target_6,joint_pos_0,joint_pos_1,joint_pos_2,joint_pos_3,joint_pos_4,joint_pos_5,joint_pos_6,joint_vel_0,joint_vel_1,joint_vel_2,joint_vel_3,joint_vel_4,joint_vel_5,joint_vel_6,tennisball_pos_0,tennisball_pos_1,tennisball_pos_2,tennisball_lin_vel_0,tennisball_lin_vel_1,tennisball_lin_vel_2,end_effector_pos_0,end_effector_pos_1,end_effector_pos_2,end_effector_rot_0,end_effector_rot_1,end_effector_rot_2,end_effector_rot_3,end_effector_lin_vel_0,end_effector_lin_vel_1,end_effector_lin_vel_2,obs_task_0,obs_task_1,obs_task_2,obs_task_3,obs_task_4,obs_task_5,obs_task_6,to_final_target_0,to_final_target_1,to_final_target_2,joint_acc_0,joint_acc_1,joint_acc_2,joint_acc_3,joint_acc_4,joint_acc_5,joint_acc_6
0.0,0.0,0.0,0.0,0.0,0.0,0.0,0.0,0.0,0.0,0.0,0.0,0.0,0.0,1.7802359,-1.0646509,-1.8151424,-1.1170107,1.9373155,1.1170107,-0.91629785,1.7802359,-1.0646509,-1.8151424,-1.1170107,1.9373155,1.1170107,-0.91629785,0.0,0.0,0.0,0.0,0.0,0.0,0.0,3.1940594,-0.5935297,0.424107,-3.4041643,-0.16403066,5.074996,0.5304146,-0.4544952,0.693097,0.5745483,0.17512383,0.15255436,0.7848268,0.0,0.0,0.0,1.0,0.0,0.0,0.0,0.0,0.0,0.0,-3.8440595,0.1935297,0.12589303,0.0,0.0,0.0,0.0,0.0,0.0,0.0
0.0,0.0,0.0,0.0,0.0,0.0,0.0,0.0,0.0,0.0,0.0,0.0,0.0,0.0,1.7802359,-1.0646509,-1.8151424,-1.1170107,1.9373155,1.1170107,-0.91629785,1.7802359,-1.0646509,-1.8151424,-1.1170107,1.9373155,1.1170107,-0.91629785,0.0,0.0,0.0,0.0,0.0,0.0,0.0,3.1940594,-0.5935297,0.424107,-3.4041643,-0.16403066,5.074996,0.5304146,-0.4544952,0.693097,0.5745483,0.17512383,0.15255436,0.7848268,0.0,0.0,0.0,1.0,0.0,0.0,0.0,0.0,0.0,0.0,-3.8440595,0.1935297,0.12589303,0.0,0.0,0.0,0.0,0.0,0.0,0.0
0.0,0.0,0.0,0.0,0.0,0.0,0.0,0.0,0.0,0.0,0.0,0.0,0.0,0.0,1.7802359,-1.0646509,-1.8151424,-1.1170107,1.9373155,1.1170107,-0.91629785,1.7802359,-1.0646509,-1.8151424,-1.1170107,1.9373155,1.1170107,-0.91629785,0.0,0.0,0.0,0.0,0.0,0.0,0.0,3.1940594,-0.5935297,0.424107,-3.4041643,-0.16403066,5.074996,0.5304146,-0.4544952,0.693097,0.5745483,0.17512383,0.15255436,0.7848268,0.0,0.0,0.0,1.0,0.0,0.0,0.0,0.0,0.0,0.0,-3.8440595,0.1935297,0.12589303,0.0,0.0,0.0,0.0,0.0,0.0,0.0
-176.0,48.9245,-13.036379,110.0,10.467961,4.097138,-3.7926629,-0.7845423,0.22975358,-0.5175094,0.7437995,0.009966396,0.7035728,-0.5983815,1.7017816,-1.0416756,-1.8668933,-1.0426308,1.938312,1.187368,-0.976136,1.7789885,-1.0629133,-1.8207977,-1.1118304,1.9409986,1.121905,-0.9168157,-0.1661185,0.23110804,-0.75376725,0.6912008,0.49064335,0.65107054,-0.06870675,3.1600437,-0.5951688,0.47408244,-3.400761,-0.16386667,4.971736,0.5283928,-0.45776725,0.69370633,0.5780585,0.17372644,0.15139835,0.782781,-0.26950303,-0.43654722,0.08103704,1.0,0.0,0.0,0.0,0.0,0.0,0.0,-3.8100438,0.19516882,0.07591757,-16.513878,22.92806,-75.27669,69.250656,48.885113,64.68427,-6.742049
-176.0,-39.72079,-49.41679,110.0,11.805767,0.95411146,-3.408924,-0.7817901,-0.20243925,-0.5755144,0.7113624,0.27311045,0.6609421,-0.5740492,1.7008095,-1.0831572,-1.8783491,-1.0406941,1.9683096,1.1879991,-0.97422063,1.7776762,-1.0610002,-1.8355701,-1.0969931,1.9484735,1.1345698,-0.9159402,-0.11880879,0.17301299,-1.7104238,1.7506748,0.8287438,1.4578236,0.13921049,3.1260624,-0.5968063,0.52302605,-3.3973608,-0.16370283,4.868579,0.5239258,-0.46625566,0.69416857,0.5859585,0.17039582,0.14838555,0.77820283,-0.50720155,-0.9849259,0.03601468,1.0,0.0,0.0,0.0,0.0,0.0,0.0,-3.7760625,0.19680628,0.026973963,4.987812,-7.3127656,-93.28456,106.7626,32.521236,76.550606,20.687336
-148.00488,115.38636,35.175587,92.13671,8.063486,8.094564,-1.844772,-0.7334989,0.22491132,0.2038715,0.6859232,0.31707242,0.70884883,-0.4647268,1.7043264,-1.0385091,-1.8151829,-1.0284008,1.9801807,1.2054546,-0.9624129,1.7733771,-1.0587229,-1.8501289,-1.0776106,1.9568505,1.1490713,-0.914854,-0.5338027,0.24245068,-1.3640951,2.002357,0.8351333,1.4414824,0.09719055,3.0921135,-0.5984421,0.5709389,-3.393964,-0.16353917,4.765525,0.51659775,-0.47753358,0.6963223,0.5966058,0.16528149,0.14395422,0.77202374,-0.8151874,-1.1684517,0.27895176,1.0,0.0,0.0,0.0,0.0,0.0,0.0,-3.7421136,0.19844207,-0.020938873,-41.517647,5.916393,36.71434,25.604176,-1.0823727,-3.4777641,-4.5743303
-100.03126,105.74733,40.58458,57.66884,5.318172,7.6702247,-0.32634765,-0.7613454,0.034161724,0.21653858,0.6885285,0.34584412,0.6896943,-0.5448553,1.6972425,-1.0553067,-1.828475,-1.0087577,1.9914349,1.2180407,-0.9693395,1.7648016,-1.0566744,-1.8587635,-1.0582434,1.9645772,1.1626154,-0.9143924,-0.9661595,0.18989384,-0.68897647,1.9156257,0.74564517,1.3219037,0.027796626,3.058199,-0.6000762,0.61782193,-3.3905709,-0.16337566,4.662574,0.506649,-0.48960423,0.70045906,0.6081962,0.15874438,0.13810818,0.7653911,-1.0661322,-1.2084271,0.46247685,1.0,0.0,0.0,0.0,0.0,0.0,0.0,-3.708199,0.2000762,-0.06782192,-43.476974,-5.947599,69.77306,-8.441448,-10.7896805,-13.050938,-7.3238044
-43.05217,133.14503,54.501495,32.45276,2.4236662,7.3317413,0.44090837,-0.7722031,0.19800475,0.24194717,0.67666185,0.5083454,0.68907714,-0.5690335,1.6875813,-1.0368739,-1.8345687,-0.9905772,2.0154119,1.2315232,-0.9712958,1.7526308,-1.0544714,-1.8605983,-1.0410086,1.971726,1.1747977,-0.91467375,-1.3018836,0.22831474,-0.008289964,1.6591173,0.6997041,1.1816672,-0.048582442,3.0243187,-0.6017089,0.66367626,-3.387181,-0.16321233,4.5597258,0.49477386,-0.50108814,0.70642626,0.61957633,0.15099367,0.13107732,0.7590419,-1.2403234,-1.1155604,0.64273185,1.0,0.0,0.0,0.0,0.0,0.0,0.0,-3.6743188,0.20170888,-0.11367625,-33.926987,3.2807798,70.05206,-25.747442,-6.050551,-14.603543,-8.192957
-11.106685,122.44619,46.24134,16.067545,0.314832,4.99867,0.3644705,-0.8009793,0.28272438,0.10764994,0.6617802,0.53116184,0.66696006,-0.60164315,1.6725329,-1.026199,-1.8498334,-0.97483057,2.024842,1.2414937,-0.9748381,1.738093,-1.0514196,-1.8578517,-1.0264059,1.9786572,1.1856848,-0.9156732,-1.5052285,0.32960972,0.37266195,1.3933913,0.68848497,1.0573499,-0.11858533,2.9904728,-0.6033397,0.7085029,-3.3837945,-0.16304915,4.4569807,0.4817791,-0.5114088,0.7136579,0.63042337,0.14255218,0.12365636,0.7529636,-1.3305683,-0.9911181,0.74865216,1.0,0.0,0.0,0.0,0.0,0.0,0.0,-3.640473,0.20333967,-0.15850288,-20.62061,9.757739,39.239174,-26.715374,-1.8368244,-12.537742,-7.464458
14.860457,140.60289,48.92125,9.9179325,-1.4478116,3.9970012,-0.013314754,-0.80676585,0.49694005,0.0510654,0.6428776,0.521435,0.6730342,-0.59723693,1.6574165,-1.0017256,-1.8527452,-0.96211815,2.0308008,1.2529882,-0.9753969,1.7224394,-1.0463899,-1.8533638,-1.0139872,1.9855886,1.1954867,-0.9172935,-1.5865401,0.5597373,0.47672516,1.1907601,0.69337726,0.9546715,-0.17812374,2.9566593,-0.604969,0.75230277,-3.3804114,-0.16288613,4.3543386,0.46832848,-0.52021146,0.72194475,0.640865,0.1336746,0.11689149,0.74683297,-1.3596864,-0.8301347,0.85297024,1.0,0.0,0.0,0.0,0.0,0.0,0.0,-3.6066594,0.20496902,-0.20230275,-8.43668,22.675741,11.199779,-20.37933,0.15655756,-10.177445,-6.45231
24.524128,133.61488,43.26589,7.530455,-2.0378096,2.762619,-0.30265954,-0.80787987,0.582096,-0.0016251783,0.6397392,0.5237043,0.66510934,-0.56594133,1.6416514,-0.98818034,-1.8535262,-0.9500133,2.037959,1.2619976,-0.9738876,1.7065893,-1.0388788,-1.8492992,-1.0029188,1.9926305,1.204394,-0.9194059,-1.5854074,0.81416136,0.38501,1.0784554,0.7072412,0.86959213,-0.22370273,2.9228802,-0.6065967,0.795077,-3.3770316,-0.16272327,4.2517986,0.45486832,-0.527498,0.73108417,0.65113306,0.12456899,0.111422285,0.74033326,-1.3502636,-0.6809805,0.9318482,1.0,0.0,0.0,0.0,0.0,0.0,0.0,-3.5728803,0.2065967,-0.24507701,-0.16286373,25.183846,-8.627772,-11.330509,1.2474775,-8.391392,-4.976949
26.847902,125.08618,39.60167,7.990641,-1.8522978,2.2113519,-0.3687273,-0.8077588,0.65369356,0.013489466,0.63574064,0.54929775,0.66982657,-0.5339959,1.6258135,-0.97350943,-1.8479502,-0.93934476,2.0475602,1.2713766,-0.9728055,1.6910464,-1.0290045,-1.8465412,-0.9924208,1.999888,1.2125612,-0.92188257,-1.5447466,1.0445447,0.24099539,1.039927,0.7318437,0.7991599,-0.2568645,2.8891354,-0.6082227,0.8368267,-3.3736553,-0.16256058,4.1493616,0.4415741,-0.53344464,0.74093896,0.6613609,0.1153238,0.1073071,0.7333398,-1.3293335,-0.55130935,1.0011843,1.0,0.0,0.0,0.0,0.0,0.0,0.0,-3.5391355,0.20822272,-0.28682667,3.8300037,22.824501,-13.939425,-3.9687872,2.3661137,-7.0286155,-3.6825716
22.600132,105.99483,32.704056,8.42045,-1.3362992,1.6522273,-0.3397184,-0.8056565,0.6877044,-0.008762572,0.63054305,0.5544847,0.67031157,-0.5136221,1.6104807,-0.96023405,-1.8474175,-0.92936647,2.0553365,1.2795924,-0.9732448,1.6759745,-1.0173162,-1.8452194,-0.981979,2.0073876,1.2201144,-0.9246215,-1.4954406,1.2098243,0.09713416,1.0449593,0.75581634,0.74061656,-0.28062344,2.855425,-0.60984707,0.8775527,-3.3702824,-0.16239806,4.0470266,0.42847252,-0.5383291,0.7513005,0.6715909,0.10602121,0.10430066,0.7258418,-1.3088378,-0.45197195,1.0458574,1.0,0.0,0.0,0.0,0.0,0.0,0.0,-3.505425,0.20984706,-0.32755268,4.740405,16.364216,-14.00241,0.34234524,2.3373842,-5.9078574,-2.6960313
18.223923,89.993576,27.89597,8.507635,-0.7623475,1.4105425,-0.19289154,-0.8037767,0.7117842,0.0030738441,0.61663616,0.57551515,0.6676198,-0.5070275,1.5955968,-0.9461378,-1.8449119,-0.9203154,2.0649393,1.2868763,-0.9753243,1.6613241,-1.0044798,-1.8449371,-0.9714047,2.015143,1.2271582,-0.9275541,-1.4554805,1.307762,0.0064311014,1.0608773,0.782208,0.6918073,-0.29847986,2.8217468,-0.61146975,0.9172561,-3.3669128,-0.16223569,3.9447947,0.41551018,-0.5423894,0.7619748,0.681767,0.09670486,0.10201047,0.7179385,-1.2955822,-0.37459564,1.0728434,1.0,0.0,0.0,0.0,0.0,0.0,0.0,-3.471747,0.21146974,-0.3672561,3.8288355,9.662819,-8.685669,1.393199,2.5796175,-4.970169,-2.093196
14.2736,77.22867,24.165548,8.548433,-0.32191753,1.2722125,-0.06645849,-0.7979335,0.72497493,0.008154508,0.61492187,0.5761695,0.67271674,-0.5063466,1.5815308,-0.9319823,-1.8441217,-0.90991247,2.0727599,1.2944299,-0.97818875,1.6469771,-0.9910768,-1.8451602,-0.9606663,2.0231156,1.2337805,-0.9306373,-1.4282249,1.3507055,-0.030656919,1.0774966,0.80206037,0.6521177,-0.31255266,2.788103,-0.613091,0.95593804,-3.3635466,-0.1620735,3.842665,0.40262413,-0.5457969,0.7728098,0.69180596,0.08738225,0.1000791,0.70975554,-1.2895766,-0.3128133,1.085504,1.0,0.0,0.0,0.0,0.0,0.0,0.0,-3.4381032,0.21309099,-0.40593803,2.5718212,4.188657,-3.3083375,1.444006,1.921761,-4.0570736,-1.7113686
11.513359,67.14361,20.701807,7.8735867,-0.11841118,1.0644011,0.016008876,-0.7921209,0.7361426,-0.018686678,0.6035903,0.58806497,0.679484,-0.49990708,1.567765,-0.9174626,-1.847029,-0.9003073,2.081922,1.301729,-0.980628,1.6328188,-0.9774927,-1.8456085,-0.9498497,2.0312676,1.2400671,-0.93383497,-1.4120365,1.3606877,-0.04821932,1.0821903,0.819645,0.6206378,-0.32318112,2.7544918,-0.61471057,0.9935994,-3.3601837,-0.16191144,3.7406373,0.38977242,-0.54866767,0.78365195,0.701642,0.078093015,0.0983087,0.7013811,-1.2857732,-0.2616664,1.082295,1.0,0.0,0.0,0.0,0.0,0.0,0.0,-3.404492,0.21471056,-0.4435994,1.4705658,0.917387,-1.3645328,0.23126602,1.7071486,-3.1958818,-1.358062
8.770367,60.211998,17.90584,7.574842,-0.0185467,0.8799234,0.040929098,-0.7926561,0.74143714,-0.046239827,0.5917834,0.5987136,0.685094,-0.50499076,1.5535532,-0.903349,-1.8502325,-0.8906714,2.091139,1.3085766,-0.98433405,1.6187407,-0.96393144,-1.8462303,-0.9390856,2.0395837,1.2460886,-0.9371261,-1.4067907,1.3543341,-0.065487765,1.0736206,0.8355701,0.59600097,-0.3320749,2.7209148,-0.6163285,1.0302414,-3.3568242,-0.16174957,3.6387117,0.37695122,-0.5510869,0.79436845,0.7112483,0.06889984,0.096625775,0.69285077,-1.2830026,-0.2184628,1.0665432,1.0,0.0,0.0,0.0,0.0,0.0,0.0,-3.370915,0.21632847,-0.48024136,0.3770113,-0.6979227,-1.3530784,-1.1092901,1.5578032,-2.4737597,-1.1707187
7.784431,58.489292,17.12631,7.8512816,-0.0013816953,0.84365714,0.043439414,-0.7895318,0.7429976,-0.04947768,0.5917063,0.5855654,0.6880558,-0.50659484,1.5397875,-0.8896317,-1.851178,-0.879915,2.0981402,1.3148942,-0.9877856,1.6046816,-0.95047414,-1.8469799,-0.9284283,2.0479836,1.2519022,-0.94049543,-1.4062098,1.3426505,-0.07683391,1.0622815,0.84121716,0.5764567,-0.33949894,2.6873722,-0.6179447,1.0658648,-3.353468,-0.16158785,3.5368881,0.36415482,-0.5530844,0.8049114,0.7206189,0.05980356,0.09502504,0.6841799,-1.280503,-0.17678344,1.048593,1.0,0.0,0.0,0.0,0.0,0.0,0.0,-3.3373723,0.21794471,-0.5158648,-0.09031296,-1.2271881,-0.7542774,-1.3846397,0.53013563,-1.9553185,-1.0202289
5.4821777,56.379982,15.515865,8.4412365,-0.029664278,0.70963204,-0.01886686,-0.7935276,0.7486019,-0.09972916,0.58525956,0.581298,0.6928281,-0.49549982,1.5253289,-0.8756139,-1.8569528,-0.8699023,2.1061134,1.321185,-0.9900454,1.5905863,-0.93710077,-1.8480327,-0.9179007,2.0563912,1.2575518,-0.9439201,-1.4109275,1.33533,-0.11384001,1.0487136,0.84077847,0.5612285,-0.34433708,2.653862,-0.6195593,1.1004707,-3.350115,-0.16142629,3.4351661,0.3513775,-0.55469537,0.8152359,0.729793,0.05083497,0.09359562,0.6753205,-1.2774135,-0.13932344,1.0253253,1.0,0.0,0.0,0.0,0.0,0.0,0.0,-3.303862,0.21955928,-0.55047065,-0.6198883,-0.78496933,-3.3532665,-1.6111135,-0.057184696,-1.5114307,-0.74406266
8.775883,58.30769,16.349358,6.978993,-0.19997835,0.6991686,0.06465191,-0.7923968,0.7501284,-0.09086273,0.5462352,0.5989959,0.69175637,-0.5071865,1.5113466,-0.8620879,-1.857119,-0.86327714,2.1162908,1.3267274,-0.99463874,1.5764452,-0.9237665,-1.8493793,-0.9076649,2.0648293,1.2630717,-0.9473943,-1.4157792,1.3325982,-0.14035255,1.0143707,0.8448752,0.54901165,-0.34939054,2.6203861,-0.6211724,1.1340601,-3.3467655,-0.1612649,3.333546,0.33868408,-0.55587506,0.8253315,0.73872566,0.04200431,0.092357546,0.66632575,-1.2677016,-0.09463977,1.0026044,1.0,0.0,0.0,0.0,0.0,0.0,0.0,-3.2703862,0.22117242,-0.58406013,-0.65050125,-0.3263235,-2.256575,-3.7009,0.37636757,-1.1900425,-0.7794738
8.482249,60.418224,16.736538,8.027145,-0.20294803,0.726405,0.028361142,-0.793024,0.75620383,-0.11380993,0.55264944,0.5842411,0.69611883,-0.49960202,1.4971428,-0.8481461,-1.8607603,-0.85239995,2.1232533,1.3326836,-0.9973545,1.5622622,-0.91040933,-1.8510196,-0.8977076,2.0732636,1.2684885,-0.95090765,-1.4197649,1.3365544,-0.17053732,0.9886632,0.84285575,0.5393117,-0.35292026,2.5869427,-0.6227839,1.1666342,-3.3434196,-0.16110367,3.2320273,0.32607841,-0.5566001,0.83523655,0.7474234,0.033275537,0.091342404,0.6571967,-1.2579184,-0.049123395,0.98471797,1.0,0.0,0.0,0.0,0.0,0.0,0.0,-3.2369428,0.2227839,-0.6166342,-0.5649328,0.3379345,-2.6186764,-2.8286934,-0.23577213,-0.9604573,-0.6267488
12.432828,61.988228,17.363726,6.1897917,-0.4188086,0.655897,0.11211336,-0.7901575,0.7629481,-0.1259759,0.5045012,0.6015884,0.69856906,-0.4980768,1.4832464,-0.83411455,-1.8636172,-0.84725744,2.1334224,1.3383454,-1.0007154,1.5480639,-0.89697015,-1.8529384,-0.88815653,2.0817246,1.2738272,-0.95445055,-1.4204848,1.346149,-0.19775459,0.94292676,0.846831,0.53200096,-0.35571432,2.5535336,-0.6243937,1.1981938,-3.340077,-0.1609426,3.1306102,0.31363678,-0.55682015,0.84495467,0.7558388,0.024650866,0.09056683,0.647995,-1.2388585,0.002799517,0.9656696,1.0,0.0,0.0,0.0,0.0,0.0,0.0,-3.2035336,0.2243937,-0.6481938,-0.25117397,0.9074211,-2.2934854,-4.8466206,0.353992,-0.6890297,-0.5633533
18.266273,66.1214,19.61446,3.9233265,-0.61770326,0.74331725,0.2956347,-0.79306966,0.7659103,-0.069903426,0.44155183,0.61052924,0.6988713,-0.49655232,1.4687569,-0.82037914,-1.8599287,-0.84400135,2.1427777,1.3437144,-1.0041058,1.5338541,-0.883427,-1.8547866,-0.8792864,2.0902505,1.2791029,-0.9580173,-1.4217815,1.3568245,-0.17879482,0.8675502,0.854131,0.5264902,-0.35806313,2.5201588,-0.6260021,1.22874,-3.3367376,-0.16078168,3.0292945,0.30145645,-0.5564258,0.8545138,0.7638413,0.016098868,0.089957766,0.6389013,-1.2104586,0.06706075,0.950786,1.0,0.0,0.0,0.0,0.0,0.0,0.0,-3.1701589,0.22600207,-0.67873996,-0.33135414,1.0187149,2.4087489,-7.815051,0.6499171,-0.4765749,-0.54231286
19.582771,68.245926,20.522917,4.41525,-0.5652623,0.7788464,0.33159867,-0.788575,0.7707913,-0.053667992,0.43118083,0.613345,0.69243956,-0.48296726,1.4549966,-0.8063479,-1.8601534,-0.83616835,2.151585,1.3483468,-1.006314,1.5196558,-0.8697761,-1.8562953,-0.87111056,2.0988526,1.284329,-0.9615945,-1.4196512,1.3677278,-0.14000092,0.8001319,0.86187005,0.5213872,-0.35863733,2.4868164,-0.62760854,1.2582738,-3.3334017,-0.16062094,2.92808,0.2895546,-0.5553744,0.86397,0.7713802,0.00755028,0.089436755,0.63001317,-1.1809497,0.13259685,0.94171196,1.0,0.0,0.0,0.0,0.0,0.0,0.0,-3.1368165,0.22760853,-0.7082738,0.019717216,1.0462761,4.38613,-6.9973946,0.69983006,-0.44037104,-0.3606379
21.386845,71.58511,22.154713,4.732785,-0.47344112,0.9044348,0.42637193,-0.79159856,0.7748905,0.015896924,0.39150667,0.6322104,0.693266,-0.4676077,1.440496,-0.7922871,-1.8547057,-0.8319599,2.1620736,1.3536557,-1.0083553,1.505469,-0.85602415,-1.8571079,-0.8636147,2.107573,1.2895094,-0.9651641,-1.4189978,1.3775686,-0.05995806,0.7320374,0.8752715,0.51719147,-0.35740006,2.4535065,-0.6292136,1.2867963,-3.330069,-0.16046035,2.8269668,0.27794456,-0.55362797,0.8733952,0.7784008,-0.001081483,0.08887961,0.62144303,-1.151809,0.20292807,0.9403688,1.0,0.0,0.0,0.0,0.0,0.0,0.0,-3.1035066,0.22921357,-0.7367963,-0.12683868,0.94139576,8.535347,-7.036531,1.25947,-0.35529137,-0.18106103
23.30031,72.60994,22.806599,4.526315,-0.46607265,0.9023268,0.48716286,-0.7849691,0.7760835,0.072977535,0.35817587,0.63389516,0.69296306,-0.45199472,1.426972,-0.7784158,-1.8498101,-0.8277971,2.1709626,1.3588058,-1.0103636,1.4913164,-0.84219587,-1.8569438,-0.8567711,2.1164193,1.2946535,-0.968708,-1.4144082,1.3844709,0.04360689,0.6677234,0.8873694,0.5138688,-0.35440564,2.4202309,-0.63081694,1.3143084,-3.3267398,-0.16029993,2.7259545,0.2666397,-0.5511606,0.88283116,0.7848582,-0.009864352,0.08819482,0.6132877,-1.1199996,0.27514568,0.94175136,1.0,0.0,0.0,0.0,0.0,0.0,0.0,-3.070231,0.23081693,-0.7643084,0.28603077,0.6561279,10.861112,-6.6275835,1.1457205,-0.24675131,0.004684925
27.415115,73.11479,23.265509,2.219192,-0.66908437,0.78879166,0.607763,-0.78118855,0.78398967,0.1377259,0.2836212,0.6567005,0.68561316,-0.44190848,1.4131976,-0.7637969,-1.8431712,-0.828409,2.1820893,1.3632149,-1.0128988,1.4772269,-0.8282875,-1.855624,-0.850741,2.1254296,1.2997671,-0.97221464,-1.4076922,1.3929123,0.16300341,0.5808518,0.9054264,0.5111093,-0.3504154,2.3869896,-0.63241863,1.340811,-3.3234136,-0.16013967,2.6250434,0.25572395,-0.5479343,0.892258,0.79067725,-0.018789802,0.087341234,0.60567963,-1.0776862,0.35146478,0.93946403,1.0,0.0,0.0,0.0,0.0,0.0,0.0,-3.0369897,0.23241863,-0.790811,0.51493645,0.8234024,12.418182,-8.859706,1.7575026,-0.12420416,0.119405985
28.890339,73.3932,23.553513,1.4982305,-0.7104799,0.7393248,0.68755496,-0.78373307,0.7862013,0.2286963,0.23153867,0.66395044,0.675661,-0.40978727,1.3988535,-0.74966735,-1.8327544,-0.8275872,2.1918247,1.3673333,-1.0131934,1.463185,-0.81430376,-1.8529441,-0.8456503,2.1346154,1.3048521,-0.9756593,-1.4035373,1.4001762,0.30459166,0.48464185,0.92314214,0.5082685,-0.3434164,2.3537807,-0.6340189,1.3663054,-3.3200908,-0.15997955,2.524233,0.24526024,-0.54393125,0.90166104,0.79579955,-0.027855603,0.086277954,0.59873456,-1.0314751,0.42890596,0.93657285,1.0,0.0,0.0,0.0,0.0,0.0,0.0,-3.0037808,0.23401889,-0.81630534,0.28181076,0.716424,14.590094,-9.755838,1.7529845,-0.091302395,0.4431367
29.90075,73.04737,23.600565,1.1610131,-0.72724456,0.6748209,0.7384359,-0.77766216,0.78567296,0.32049546,0.18860838,0.66299725,0.6770948,-0.36635053,1.3854188,-0.7357365,-1.8208946,-0.8267895,2.200915,1.3725616,-1.0122944,1.4491984,-0.80027044,-1.8487232,-0.84150755,2.1439424,1.3099142,-0.97900575,-1.3974193,1.4044174,0.4623413,0.39052087,0.9362684,0.50633997,-0.33241388,2.3206043,-0.6356175,1.3907923,-3.3167713,-0.1598196,2.4235237,0.23526955,-0.53915215,0.9110382,0.8001913,-0.037082575,0.084971435,0.5925356,-0.98258543,0.50577664,0.93347317,1.0,0.0,0.0,0.0,0.0,0.0,0.0,-2.9706044,0.23561749,-0.84079224,0.51505566,0.4250288,16.131824,-9.502733,1.3340712,0.03452301,0.8695483
24.550442,71.07248,22.122086,4.4058604,-0.46119583,0.60983425,0.58495694,-0.7766403,0.7930318,0.3569987,0.19606835,0.6660247,0.6688758,-0.33525085,1.3715343,-0.72096723,-1.8130233,-0.8219007,2.2105448,1.3768018,-1.0125308,1.4352671,-0.7861799,-1.8431175,-0.8380219,2.153376,1.3149515,-0.98222345,-1.3920246,1.4107467,0.59412235,0.33426395,0.94630057,0.5037153,-0.31885442,2.2874622,-0.6372144,1.4142728,-3.313455,-0.15965982,2.3229148,0.22568512,-0.53367376,0.92041034,0.8039454,-0.04649647,0.083454,0.5869798,-0.94415605,0.5726107,0.9332136,1.0,0.0,0.0,0.0,0.0,0.0,0.0,-2.9374623,0.23721442,-0.8642728,0.47323704,0.646019,13.4181385,-5.684596,1.0870814,-0.06213188,1.1653006
16.269918,67.2747,19.920902,9.336084,0.006915748,0.5810163,0.36596042,-0.7764822,0.7909677,0.39209008,0.2345197,0.663952,0.66603684,-0.27675658,1.3576188,-0.7070831,-1.8039085,-0.8145699,2.2197714,1.3815552,-1.0098991,1.4213759,-0.7720474,-1.8364398,-0.8346697,2.1628785,1.3199602,-0.9852714,-1.388297,1.4141859,0.6928527,0.33530617,0.9520955,0.50050056,-0.30059445,2.2543526,-0.6388099,1.436748,-3.3101423,-0.15950018,2.2224066,0.21634293,-0.5276289,0.9298169,0.8072289,-0.056146532,0.081761666,0.5818453,-0.92452043,0.625343,0.9373553,1.0,0.0,0.0,0.0,0.0,0.0,0.0,-2.9043527,0.23880991,-0.886748,0.32343864,0.37026405,10.010111,0.05375147,0.71891546,-0.18320084,1.6648471
5.688042,60.961906,16.623938,14.854842,0.538619,0.5269475,0.082771406,-0.78630483,0.78692657,0.39487353,0.28970402,0.658662,0.66888875,-0.24834295,1.3427454,-0.6933547,-1.7969525,-0.8056993,2.2287447,1.3868492,-1.0101057,1.4074618,-0.75791395,-1.8291271,-0.83087695,2.1724,1.3249384,-0.98812765,-1.392733,1.4132348,0.74407226,0.3936166,0.9532343,0.4971622,-0.2810809,2.2212753,-0.64040375,1.4582189,-3.3068328,-0.15934071,2.1219988,0.2070179,-0.5211854,0.939278,0.8102533,-0.066064306,0.0799529,0.5768296,-0.92763144,0.66061604,0.94274366,1.0,0.0,0.0,0.0,0.0,0.0,0.0,-2.8712754,0.24040374,-0.9082189,-0.50184727,-0.0551939,5.181539,5.7584643,0.2991438,-0.27034283,1.8159807
1.003253,56.661137,14.479596,16.653156,0.66108733,0.42317426,-0.05765503,-0.79427034,0.788983,0.40116653,0.3086129,0.6498334,0.6712544,-0.23714949,1.3280348,-0.67901564,-1.7890104,-0.8000156,2.2373834,1.3920639,-1.0118426,1.3934542,-0.743791,-1.8215568,-0.82637846,2.1818948,1.329888,-0.990797,-1.4036956,1.4121333,0.76152897,0.46825016,0.94901764,0.49421227,-0.26267937,2.1882324,-0.6419959,1.4786866,-3.3035266,-0.1591814,2.0216916,0.19761086,-0.514447,0.9487665,0.81315607,-0.07622526,0.07811706,0.57172066,-0.9379806,0.6881988,0.94430476,1.0,0.0,0.0,0.0,0.0,0.0,0.0,-2.8382325,0.2419959,-0.92868656,-1.1690378,-0.06706715,1.7877221,7.374197,-0.22636652,-0.25541782,1.7203391
0.42020512,54.531197,13.567133,16.912941,0.6279088,0.32946205,-0.12050118,-0.7845773,0.787361,0.40318936,0.35589767,0.6356397,0.67548174,-0.22436345,1.3149965,-0.66505486,-1.7812378,-0.7907887,2.2454588,1.3974361,-1.0132333,1.3793894,-0.7296871,-1.8139694,-0.82102835,2.1913018,1.3348128,-0.99329275,-1.4077102,1.409961,0.757952,0.55702204,0.93850535,0.49198487,-0.24565065,2.155222,-0.64358664,1.4981519,-3.3002238,-0.15902226,1.9214842,0.188097,-0.50745034,0.9582578,0.8159952,-0.08661524,0.076324694,0.5664133,-0.9482387,0.71356505,0.9439166,1.0,0.0,0.0,0.0,0.0,0.0,0.0,-2.805222,0.24358663,-0.9481519,-0.46520233,-0.1765728,-0.32252073,8.789003,-0.8647084,-0.19506216,1.5857875
2.0847282,53.838837,13.28863,15.413493,0.42671084,0.23065868,-0.09664728,-0.7889167,0.79110336,0.40507933,0.3712423,0.63212097,0.68321276,-0.22955565,1.3004978,-0.6505768,-1.7734615,-0.78390414,2.254514,1.403134,-1.0162483,1.3652884,-0.71558416,-1.8064735,-0.8149029,2.2005982,1.3397242,-0.99564165,-1.4112048,1.410395,0.74691576,0.6307267,0.9270376,0.49106354,-0.23175694,2.122244,-0.6451757,1.5166159,-3.2969244,-0.15886328,1.821377,0.17852783,-0.500185,0.9677121,0.8187657,-0.097199276,0.07463113,0.56089675,-0.95170695,0.7411876,0.93884367,1.0,0.0,0.0,0.0,0.0,0.0,0.0,-2.772244,0.24517569,-0.96661586,-0.41689873,0.074124336,-1.0315418,7.286978,-0.99051,-0.050354004,1.2712747
7.044866,52.531994,13.102102,10.958921,0.0051867366,0.0053343177,0.051321797,-0.79536396,0.7919065,0.4134618,0.33851406,0.6391092,0.6757547,-0.22663252,1.2857519,-0.6363935,-1.7651273,-0.7810515,2.2645092,1.4072996,-1.018305,1.3511358,-0.7014698,-1.7990501,-0.8084179,2.2098145,1.344628,-0.9978685,-1.4168077,1.4118828,0.7412345,0.6541647,0.92029786,0.49044663,-0.22004667,2.0893002,-0.6467631,1.5340794,-3.2936282,-0.15870444,1.72137,0.16905975,-0.49262333,0.9770304,0.8213852,-0.107858464,0.073079154,0.55529475,-0.93730867,0.7716207,0.9223726,1.0,0.0,0.0,0.0,0.0,0.0,0.0,-2.7393003,0.24676308,-0.9840794,-0.63562393,0.16794205,-0.42483807,2.2602558,-0.5708456,0.051140785,1.0475934
11.379755,48.83161,12.254347,6.664674,-0.3284284,-0.27822873,0.18391746,-0.792911,0.78072786,0.41737723,0.31781438,0.63359666,0.6791509,-0.21998584,1.2718447,-0.623397,-1.7573124,-0.7766365,2.2731743,1.412543,-1.0198671,1.336949,-0.6873926,-1.79164,-0.8019997,2.2189698,1.3495337,-0.9999885,-1.419516,1.4064066,0.74153274,0.6374716,0.91405725,0.4911458,-0.20974867,2.0563889,-0.64834905,1.5505438,-3.2903352,-0.15854578,1.621463,0.15985298,-0.48477817,0.9860946,0.8237652,-0.11845813,0.07168501,0.5497634,-0.9066961,0.7991229,0.89389014,1.0,0.0,0.0,0.0,0.0,0.0,0.0,-2.706389,0.24834904,-1.0005438,-0.33679008,-0.5294323,0.20558834,-1.7584085,-0.5608678,0.26199818,0.90537965
11.704614,50.036987,12.54944,6.826839,-0.36914855,-0.29746598,0.19148129,-0.7952193,0.7880332,0.41723078,0.3404493,0.6238255,0.68183005,-0.18759044,1.2574271,-0.6085893,-1.7499169,-0.76795477,2.2813523,1.4177167,-1.0187476,1.3227392,-0.6733383,-1.784209,-0.795735,2.2280488,1.354447,-1.001995,-1.4218265,1.4050791,0.7442959,0.6225028,0.90612894,0.49212018,-0.19791101,2.02351,-0.64993334,1.5660098,-3.2870455,-0.15838726,1.5216558,0.15095901,-0.4766438,0.99489486,0.825884,-0.12898134,0.07046511,0.54434735,-0.8748725,0.8281048,0.86811286,1.0,0.0,0.0,0.0,0.0,0.0,0.0,-2.67351,0.24993333,-1.0160098,-0.29325485,-0.11613369,0.45372248,-1.5699625,-0.73211193,0.2794206,1.0629594
11.506741,50.000557,12.557629,7.424615,-0.3142519,-0.32298425,0.20560715,-0.7884093,0.7847996,0.4186448,0.3589327,0.6135874,0.68269193,-0.083061725,1.2438983,-0.59485835,-1.7423445,-0.75984174,2.2894075,1.4227161,-1.0103011,1.3085467,-0.65930307,-1.7767417,-0.78951514,2.2370324,1.3593699,-1.0038146,-1.4185183,1.4030569,0.74821717,0.62155515,0.89587975,0.49298117,-0.17713226,1.9906654,-0.65151596,1.5804784,-3.283759,-0.1582289,1.4219484,0.14237022,-0.46822047,1.0034604,0.8277319,-0.1394642,0.069414265,0.53906506,-0.8446313,0.85650426,0.8454066,1.0,0.0,0.0,0.0,0.0,0.0,0.0,-2.6406655,0.25151595,-1.0304785,0.2847433,-0.18310547,0.5500555,-0.15467405,-0.95808506,0.25071502,1.9582093
10.193986,46.99013,11.363617,7.398583,-0.2963432,-0.4545679,0.17973138,-0.79575044,0.78168666,0.39986295,0.34715745,0.61035556,0.67645884,-0.050538186,1.2289716,-0.5811344,-1.7367555,-0.75479937,2.298068,1.4270158,-1.0088685,1.2943579,-0.64529645,-1.7693279,-0.78332007,2.2459207,1.3642966,-1.0054129,-1.4190642,1.3999417,0.73950154,0.6185249,0.8865973,0.49318504,-0.15461197,1.9578514,-0.65309715,1.5939507,-3.280476,-0.1580707,1.3223408,0.13407516,-0.45955157,1.011777,0.8293306,-0.14987785,0.0685538,0.53389865,-0.81474227,0.8793665,0.81975853,1.0,0.0,0.0,0.0,0.0,0.0,0.0,-2.6078515,0.25309715,-1.0439508,-0.107359886,-0.28717518,-0.73018074,-0.37267208,-0.84950924,0.19238591,2.1432638
12.323775,45.6594,11.065489,5.4759283,-0.45266744,-0.6142028,0.25966915,-0.7867226,0.77738225,0.40467915,0.32203093,0.60184646,0.67533207,0.033618852,1.2156856,-0.5675582,-1.72886,-0.751117,2.3061054,1.4318298,-1.002051,1.2802035,-0.6313356,-1.7619884,-0.7772614,2.2547097,1.369227,-1.0067443,-1.4143795,1.3948042,0.7325478,0.6014649,0.8764034,0.49343514,-0.12629423,1.9250717,-0.6546767,1.6064278,-3.2771962,-0.15791266,1.2228328,0.1261425,-0.45066476,1.0198107,0.8306556,-0.16016985,0.0679036,0.5289103,-0.7768178,0.9001682,0.79054165,1.0,0.0,0.0,0.0,0.0,0.0,0.0,-2.5750718,0.25467667,-1.0564277,0.43463707,-0.48925877,-0.5523324,-1.7650723,-0.9589553,0.22614598,2.7255356
12.1037,42.744312,10.09919,4.639668,-0.46708372,-0.7689673,0.30263504,-0.79173446,0.77160484,0.39558008,0.30345005,0.6024144,0.66616315,0.15502982,1.20103,-0.55417514,-1.7224303,-0.74691635,2.3149512,1.4358433,-0.9912413,1.2660719,-0.6174463,-1.7547481,-0.77145445,2.2634187,1.3741518,-1.0077246,-1.4129659,1.3871028,0.7216805,0.5736064,0.8691715,0.49290872,-0.08889063,1.8923244,-0.65625453,1.6179105,-3.2739196,-0.15775478,1.1234242,0.11860275,-0.4416101,1.0275247,0.8316874,-0.17027389,0.06747674,0.52416563,-0.73664695,0.915237,0.7578397,1.0,0.0,0.0,0.0,0.0,0.0,0.0,-2.5423245,0.25625452,-1.0679104,0.106954575,-0.7409811,-0.95362663,-2.8503895,-0.65665245,0.16762614,3.6421015
10.791575,41.074444,9.57506,5.7400947,-0.36008555,-0.8061969,0.2719047,-0.77997524,0.7629442,0.38553333,0.32855016,0.5736544,0.668324,0.25456327,1.1880744,-0.5411519,-1.7161947,-0.7385994,2.320784,1.4409842,-0.98226833,1.2519995,-0.60366285,-1.7476451,-0.7657715,2.2719903,1.3790728,-1.0082854,-1.405233,1.375661,0.7067305,0.56623,0.85339934,0.49235362,-0.045273133,1.8596096,-0.65783095,1.6283998,-3.2706463,-0.15759705,1.024115,0.11143494,-0.43242264,1.0349338,0.8324428,-0.18020855,0.06728411,0.51965046,-0.70082974,0.9273329,0.72817165,1.0,0.0,0.0,0.0,0.0,0.0,0.0,-2.5096097,0.25783095,-1.0783999,0.7560253,-1.1079073,-1.4029145,-0.80018044,-1.4923334,0.14514327,4.267722
9.748689,37.359047,8.3629265,5.9762063,-0.34656376,-0.92909145,0.22248918,-0.76501477,0.74858963,0.3572333,0.33779082,0.5275431,0.6690834,0.32742107,1.175498,-0.5288039,-1.7119218,-0.7319924,2.3247447,1.4459811,-0.9755433,1.238072,-0.59004056,-1.7408016,-0.76005423,2.2802835,1.3839899,-1.0083903,-1.3887213,1.3578295,0.67708653,0.5733872,0.8215605,0.4919707,0.0007570708,1.8269272,-0.6594057,1.6378968,-3.2673764,-0.15743949,0.92490506,0.10461426,-0.4231534,1.0420394,0.83296186,-0.18998143,0.06737703,0.51530766,-0.6659622,0.9335535,0.6976551,1.0,0.0,0.0,0.0,0.0,0.0,0.0,-2.4769273,0.2594057,-1.0878968,1.6568184,-1.7389536,-2.920401,0.64775944,-3.0860543,0.16364455,4.517001
9.73692,32.279366,6.498256,3.7180414,-0.5254385,-1.2134342,0.2288242,-0.7752735,0.7407541,0.31609297,0.27935332,0.51968384,0.65408635,0.3722558,1.1605446,-0.51596516,-1.7091923,-0.7321189,2.3322518,1.4493985,-0.9711647,1.2242438,-0.57660615,-1.734412,-0.75450766,2.2882638,1.3888937,-1.0080451,-1.3808088,1.3388349,0.62653404,0.5482018,0.79039323,0.49064562,0.04553155,1.7942772,-0.6609788,1.6464024,-3.2641096,-0.15728208,0.82579434,0.09820366,-0.41389513,1.0487704,0.8332914,-0.19945979,0.067841776,0.511115,-0.62291944,0.9297454,0.65815294,1.0,0.0,0.0,0.0,0.0,0.0,0.0,-2.4442773,0.2609788,-1.0964024,0.78516006,-1.8522263,-5.0120115,-2.6022673,-3.0226827,0.11951327,4.408444
13.567133,30.045094,6.0004506,-0.5222206,-0.90531105,-1.4954123,0.35935754,-0.7624739,0.7241481,0.31850624,0.21199068,0.46905622,0.6439203,0.43807328,1.1479964,-0.50419134,-1.7025614,-0.7333086,2.3351693,1.4532857,-0.96423775,1.2105204,-0.5633968,-1.7284477,-0.74953616,2.295836,1.3937804,-1.0072516,-1.3696014,1.3150903,0.5866606,0.47993886,0.7463244,0.488997,0.090554,1.7616615,-0.66255045,1.6539176,-3.2608461,-0.15712483,0.72678274,0.09235573,-0.40470815,1.0550436,0.8334042,-0.2084945,0.06875406,0.5071887,-0.5621554,0.92073035,0.61057836,1.0,0.0,0.0,0.0,0.0,0.0,0.0,-2.4116616,0.26255044,-1.1039176,1.1513948,-2.3282766,-3.9356828,-6.887543,-4.3586493,0.15025139,4.4417605
12.318423,23.258808,3.8502116,-1.6764197,-0.9242896,-1.7488562,0.32451588,-0.762338,0.69845444,0.2717908,0.18044338,0.4220606,0.6430649,0.475245,1.1342866,-0.49355137,-1.7012686,-0.7314918,2.338042,1.4580868,-0.9597271,1.1968828,-0.5504955,-1.7229831,-0.7453505,2.3028893,1.3986536,-1.0060252,-1.3616749,1.2819724,0.5330526,0.3977826,0.69233024,0.48773056,0.13308403,1.7290764,-0.66412044,1.6604435,-3.257586,-0.15696774,0.6278701,0.087135315,-0.39570427,1.0607934,0.83334064,-0.21696647,0.07017777,0.50353146,-0.4993025,0.8985011,0.5569986,1.0,0.0,0.0,0.0,0.0,0.0,0.0,-2.3790765,0.26412043,-1.1104436,0.83363056,-3.2544136,-5.3524017,-8.292305,-5.3408504,0.21517277,4.2070985
10.641674,18.337372,2.2809682,-1.4835811,-0.8672025,-1.9131324,0.25071082,-0.7504791,0.67508405,0.22237301,0.15779978,0.3636698,0.6388884,0.50334454,1.121835,-0.4829871,-1.7007458,-0.7295705,2.3392563,1.4625424,-0.95569074,1.183354,-0.53797567,-1.7181766,-0.74194205,2.309317,1.4035116,-1.0044001,-1.349819,1.2422193,0.46292236,0.3215129,0.626568,0.4862525,0.17216697,1.6965256,-0.665689,1.665981,-3.254329,-0.1568108,0.5290564,0.08252525,-0.38698816,1.0659981,0.83317924,-0.22481543,0.07215965,0.5000632,-0.438559,0.86677784,0.5026828,1.0,0.0,0.0,0.0,0.0,0.0,0.0,-2.3465257,0.265689,-1.1159811,1.2452126,-3.9083004,-7.0576787,-7.7128353,-6.5030336,0.1888156,3.869197
9.851496,13.389957,0.8400593,-2.3390408,-0.8419056,-2.1045887,0.23187894,-0.7476874,0.6459723,0.18622847,0.09408411,0.31873998,0.63802665,0.51974976,1.1085852,-0.47337842,-1.6995537,-0.73253363,2.341191,1.4673144,-0.9524252,1.1699358,-0.5259088,-1.7141101,-0.73938906,2.3150582,1.4083544,-1.0024184,-1.339057,1.1951046,0.38744816,0.23290348,0.5573221,0.48492306,0.20681624,1.6640072,-0.6672559,1.6705313,-3.2510753,-0.15665403,0.43034148,0.07853317,-0.37865877,1.0706322,0.8329775,-0.2319711,0.074716754,0.49674475,-0.3771408,0.8249121,0.44524673,1.0,0.0,0.0,0.0,0.0,0.0,0.0,-2.3140073,0.26725587,-1.1205313,1.152134,-4.6390295,-7.6174736,-8.949256,-6.8568826,0.20658374,3.4287095
6.5087576,15.675304,1.5245597,1.6341872,-0.44776756,-1.927509,0.14346549,-0.7549559,0.6360751,0.16433164,0.094898365,0.31983942,0.6311558,0.5370997,1.0944402,-0.4623013,-1.697677,-0.7298992,2.347042,1.47147,-0.9487084,1.1565596,-0.5142597,-1.7107284,-0.7375151,2.3202462,1.4131781,-1.0001181,-1.3370793,1.1551442,0.32147086,0.17188665,0.5062724,0.48238915,0.23749906,1.6315212,-0.66882133,1.674095,-3.247825,-0.1564974,0.3317253,0.07503319,-0.37070847,1.0747763,0.83277434,-0.23851381,0.0777576,0.49350953,-0.33230293,0.78765494,0.39959636,1.0,0.0,0.0,0.0,0.0,0.0,0.0,-2.2815213,0.26882133,-1.124095,0.22969246,-3.9244413,-6.6536007,-6.2023373,-5.0150156,0.010865927,3.0238838
7.281051,14.656668,1.5842209,0.98646593,-0.38346556,-1.9965497,0.19184455,-0.74071264,0.6023728,0.15116766,0.035350252,0.284693,0.62591994,0.554063,1.0824883,-0.4540224,-1.6956116,-0.73398006,2.3487155,1.4757701,-0.9447118,1.1432425,-0.5030483,-1.707875,-0.7363049,2.3249612,1.4179732,-0.99753654,-1.3298024,1.1099868,0.2730073,0.10375048,0.4602722,0.47946537,0.26485223,1.5990677,-0.6703851,1.6766733,-3.2445776,-0.15634094,0.23320772,0.07199097,-0.3631463,1.078466,0.8325567,-0.24447381,0.08118199,0.49039894,-0.28712723,0.7477181,0.35469565,1.0,0.0,0.0,0.0,0.0,0.0,0.0,-2.2490678,0.27038512,-1.1266732,0.7862091,-4.4427156,-4.919255,-6.8987846,-4.5232773,-0.03786683,2.6902437
1.0124512,14.649221,1.657742,8.0120735,0.31661612,-1.6912885,-0.015094411,-0.74187744,0.5802479,0.10960599,0.108945,0.2728693,0.62926227,0.5633552,1.0690547,-0.4450235,-1.6969144,-0.7254104,2.3522482,1.4808993,-0.94120103,1.1299788,-0.492283,-1.7055233,-0.73525584,2.3293023,1.4227415,-0.9947089,-1.3253746,1.0656079,0.2225529,0.10489918,0.42556813,0.4763135,0.28850093,1.5666466,-0.67194724,1.6782671,-3.2413337,-0.15618463,0.13478862,0.06917381,-0.35593843,1.0818236,0.8323803,-0.25003973,0.08485756,0.4872601,-0.2723619,0.71325535,0.32573912,1.0,0.0,0.0,0.0,0.0,0.0,0.0,-2.2166467,0.27194723,-1.128267,0.4357338,-4.3659687,-5.1169424,-0.018364191,-3.3408463,-0.14541149,2.3053467
-1.5928588,7.9014616,-0.0259794,9.284355,0.59263307,-1.7468548,-0.093854524,-0.72846556,0.5290575,0.07462813,0.10317064,0.20777453,0.6328825,0.5720649,1.0571322,-0.43937725,-1.6980604,-0.72493875,2.3500798,1.4860297,-0.9375024,1.1168066,-0.4820863,-1.7037017,-0.7340485,2.333201,1.4274813,-0.9916686,-1.3144559,1.0045601,0.1683883,0.12553878,0.3781675,0.47386488,0.30902997,1.5342579,-0.6735079,1.6788776,-3.2380931,-0.15602848,0.03646791,0.06642914,-0.34913516,1.084888,0.8323045,-0.25529042,0.088717595,0.48396802,-0.2678005,0.6705082,0.29662025,1.0,0.0,0.0,0.0,0.0,0.0,0.0,-2.184258,0.27350792,-1.1288776,1.1024475,-6.032324,-5.5226803,1.9175186,-4.601681,-0.08204579,1.9883871
1.5904489,2.5342383,-1.4412996,4.0659046,0.106931925,-2.0900872,0.015674058,-0.7157155,0.482897,0.054673202,0.01130842,0.08491646,0.631596,0.5674536,1.045235,-0.43379658,-1.6982344,-0.73291767,2.3416927,1.4906409,-0.93492323,1.1037928,-0.47259963,-1.7023857,-0.7330214,2.336329,1.432202,-0.98845184,-1.2966769,0.9302758,0.11902839,0.09484015,0.29162034,0.4721637,0.32572562,1.5019016,-0.6750672,1.6785055,-3.2348557,-0.15587248,-0.0617545,0.063884735,-0.34284663,1.0875623,0.83233464,-0.26007667,0.09287101,0.4805769,-0.24299297,0.6160403,0.2547824,1.0,0.0,0.0,0.0,0.0,0.0,0.0,-2.1519017,0.27506718,-1.1285055,1.8645287,-7.3557973,-5.070835,-3.1727254,-8.5644245,0.04195571,1.6114295
3.8630538,-5.1282225,-3.0436106,-0.6746807,0.012419581,-2.4193003,0.17415881,-0.70663726,0.41604745,0.06808269,-0.0654487,0.054137252,0.6315015,0.57019377,1.0331291,-0.43099487,-1.6955774,-0.73956627,2.3417428,1.4953521,-0.9314325,1.0909792,-0.4640199,-1.7013614,-0.7327,2.338591,1.4369093,-0.9850882,-1.2757611,0.83410263,0.09640961,0.010977591,0.2046813,0.47108346,0.3397242,1.4695759,-0.6766248,1.677152,-3.2316215,-0.15571664,-0.1598787,0.061670303,-0.33723187,1.0897245,0.8324227,-0.26420525,0.097274855,0.47728992,-0.20835719,0.54398423,0.20083044,1.0,0.0,0.0,0.0,0.0,0.0,0.0,-2.119576,0.27662477,-1.127152,2.2446156,-9.545601,-2.4170115,-8.454221,-8.652157,0.1253128,1.342994
2.451778,-21.263739,-6.611931,-3.1155393,0.2930401,-2.7174792,0.22054742,-0.67372906,0.29595962,0.09577701,-0.09386897,-0.1001484,0.63461065,0.5605677,1.0236063,-0.43442392,-1.6917837,-0.7420869,2.3285763,1.5003704,-0.9290315,1.0784918,-0.45677865,-1.7003028,-0.73330367,2.339682,1.441609,-0.9816121,-1.2390063,0.68765754,0.108237624,-0.084231675,0.07735424,0.47048044,0.35006687,1.4372845,-0.6781807,1.674818,-3.2283905,-0.15556096,-0.25790483,0.059762955,-0.3325293,1.0912579,0.83255154,-0.26756084,0.10180749,0.47424075,-0.1799203,0.44600406,0.1354479,1.0,0.0,0.0,0.0,0.0,0.0,0.0,-2.0872846,0.2781807,-1.1248181,3.9093256,-14.579558,0.9726018,-9.578638,-12.716892,0.16052127,0.95737576
-5.090373,-69.421776,-19.130472,-9.504875,1.0484122,-3.7053933,0.15450977,-0.64052767,0.05975582,0.057460584,-0.20017655,-0.28987056,0.6381764,0.5367313,1.014439,-0.45080307,-1.6945568,-0.75332135,2.310695,1.5054266,-0.92793894,1.0664812,-0.45187294,-1.6992309,-0.73517287,2.33911,1.4463049,-0.9780692,-1.1871493,0.42498177,0.10608801,-0.22137211,-0.10260246,0.469884,0.35517445,1.4050236,-0.6797352,1.6715044,-3.2251627,-0.15540543,-0.35583293,0.057998657,-0.3294239,1.0918415,0.83286417,-0.26976284,0.10628613,0.47145352,-0.17119582,0.26528248,0.031215966,1.0,0.0,0.0,0.0,0.0,0.0,0.0,-2.0550237,0.27973518,-1.1215043,5.5550814,-26.237488,-0.4484281,-13.791212,-18.079298,0.10450482,0.3568828
-14.529213,-135.49403,-35.404907,-18.169468,2.5297382,-4.9535446,0.18444052,-0.57840693,-0.29264742,0.105916,-0.34286258,-0.4354309,0.6235687,0.47665796,1.0086405,-0.4811377,-1.6886393,-0.7694591,2.2955668,1.5086617,-0.9304034,1.0551993,-0.4509002,-1.697953,-0.73883975,2.3365312,1.4509703,-0.97453964,-1.1068708,-0.012181384,0.13485296,-0.41535893,-0.31015947,0.4648343,0.3512096,1.372797,-0.681288,1.6672122,-3.2219381,-0.15525006,-0.45366314,0.056041718,-0.32897186,1.0909938,0.833511,-0.27026874,0.11015607,0.46912673,-0.2010715,-0.028416956,-0.124037,1.0,0.0,0.0,0.0,0.0,0.0,0.0,-2.022797,0.281288,-1.1172123,8.497429,-43.794807,2.8277442,-19.48126,-21.056812,-0.65574646,-0.6979346
-14.233478,-145.36456,-34.63131,-14.291312,4.0187917,-4.5822496,0.34230077,-0.36407036,-0.5614233,0.29497412,-0.22384606,-0.56164753,0.6574258,0.45599726,1.0187923,-0.5070425,-1.6684556,-0.7612243,2.2803664,1.5167129,-0.92893994,1.04559,-0.45494998,-1.6954925,-0.74355567,2.3318505,1.4555899,-0.9710711,-0.9114432,-0.53647023,0.2838788,-0.49062118,-0.5216342,0.45896,0.34440774,1.340601,-0.6828394,1.6619426,-3.2187169,-0.15509483,-0.55139554,0.05347824,-0.3314705,1.0886855,0.8342898,-0.26939413,0.11253885,0.4676776,-0.2751296,-0.32329214,-0.26656106,1.0,0.0,0.0,0.0,0.0,0.0,0.0,-1.990601,0.2828394,-1.1119425,19.798744,-52.5967,15.114069,-7.605797,-21.447533,-1.1723161,-0.96465945
-10.245783,-109.923454,-23.44239,-2.1667094,4.5968065,-3.3210504,0.2762079,-0.17394818,-0.70431626,0.36602065,-0.042282186,-0.60241157,0.6715145,0.35408294,1.0281953,-0.5253816,-1.6588905,-0.7477839,2.2716093,1.5227413,-0.9356628,1.0386149,-0.46387923,-1.6912506,-0.7477013,2.3253617,1.4601599,-0.9677352,-0.6268859,-1.0122298,0.4725925,-0.38945195,-0.69198346,0.4539246,0.32984456,1.3084393,-0.6843891,1.6556964,-3.215499,-0.15493977,-0.64903027,0.05000496,-0.33635402,1.0853242,0.8349322,-0.26803577,0.11288688,0.46722758,-0.3727151,-0.54168844,-0.35956872,1.0,0.0,0.0,0.0,0.0,0.0,0.0,-1.9584392,0.2843891,-1.1056964,28.291464,-47.727047,19.338535,10.039729,-17.205954,-1.1946082,-1.5155196
11.8451805,-41.519157,-5.000518,-2.7834334,2.6725078,-2.4220552,0.54024595,0.066684715,-0.73493266,0.37071872,-0.044689823,-0.5988144,0.6798587,0.21029812,1.0452833,-0.53737247,-1.6541787,-0.75217026,2.2654803,1.5281458,-0.94670534,1.0351454,-0.47638857,-1.6853855,-0.7505766,2.317618,1.4646975,-0.9646386,-0.25607643,-1.3308051,0.6274642,-0.25418657,-0.8023251,0.45204118,0.30329186,1.2763081,-0.6859374,1.6484746,-3.212284,-0.15478486,-0.74656737,0.046087265,-0.34266448,1.0813495,0.8351198,-0.26685283,0.11131092,0.4679469,-0.40010622,-0.6579265,-0.4111938,1.0,0.0,0.0,0.0,0.0,0.0,0.0,-1.926308,0.2859374,-1.0984745,36.357414,-31.957626,16.422403,13.337541,-11.228061,-0.71498156,-2.5615335
26.881506,10.089591,7.059158,-4.4645114,0.70397156,-2.0046837,0.5552841,0.24294478,-0.7642171,0.3032742,-0.029235072,-0.60216105,0.67420703,0.04482299,1.0594399,-0.5528103,-1.655058,-0.7535001,2.2574017,1.5321182,-0.9601563,1.035504,-0.4909402,-1.6787384,-0.75217974,2.309134,1.4692274,-0.9619187,0.12983203,-1.4970046,0.68135333,-0.12989694,-0.8650362,0.452153,0.26191404,1.2442093,-0.687484,1.6402781,-3.2090724,-0.15463011,-0.84400696,0.042375565,-0.3496232,1.0770597,0.83474046,-0.2660778,0.108345225,0.4697577,-0.36186823,-0.70560694,-0.43693003,1.0,0.0,0.0,0.0,0.0,0.0,0.0,-1.8942093,0.28748402,-1.0902781,37.581287,-16.732264,6.6823125,12.172702,-6.6250086,-0.32955408,-4.0540338
28.918049,23.283081,5.898569,-9.463835,-1.0211928,-2.518068,0.2735345,0.30998302,-0.7837989,0.04204399,-0.12189207,-0.57637984,0.6687175,-0.08322373,1.0665023,-0.5693201,-1.674534,-0.76436895,2.251496,1.5360992,-0.97024107,1.0391165,-0.5063078,-1.6732051,-0.753307,2.3003602,1.4737593,-0.9596909,0.43507528,-1.550571,0.5151199,-0.10785458,-0.882612,0.4522655,0.20943533,1.212143,-0.6890292,1.6311079,-3.205864,-0.15447551,-0.9413491,0.039419174,-0.35705948,1.0724211,0.83410555,-0.26522583,0.104877226,0.47214806,-0.2733424,-0.75413567,-0.47567797,1.0,0.0,0.0,0.0,0.0,0.0,0.0,-1.8621429,0.2890292,-1.0811079,29.529715,-5.5134535,-15.330399,1.9608126,-2.1387339,-0.3193915,-5.3240685
28.688961,26.702658,3.0237653,-14.152473,-2.3050287,-3.0016737,0.1151827,0.38257593,-0.7852509,-0.16138671,-0.21362913,-0.58115286,0.6792396,-0.0897801,1.0773741,-0.58483285,-1.6893438,-0.7746699,2.242245,1.5416832,-0.96866894,1.0451227,-0.52168196,-1.6705062,-0.75497687,2.2915597,1.4782988,-0.95796096,0.6532327,-1.5335926,0.19153255,-0.18744777,-0.879963,0.45327878,0.16026697,1.1801071,-0.69057274,1.620965,-3.202659,-0.15432106,-1.0385939,0.037599564,-0.36504078,1.0672649,0.8335728,-0.26362973,0.10175553,0.47465932,-0.14844248,-0.8112298,-0.53246194,1.0,0.0,0.0,0.0,0.0,0.0,0.0,-1.8301071,0.29057273,-1.070965,20.9746,1.5380144,-31.349802,-8.17976,0.026643276,-0.25589466,-5.120435
19.837858,24.665184,0.4920739,-9.637753,-2.2256632,-2.9119112,-0.14582358,0.40851268,-0.78553945,-0.31042352,-0.20974222,-0.56633323,0.6735556,-0.112849884,1.085974,-0.60023594,-1.7015486,-0.7759511,2.2349265,1.5456543,-0.969246,1.0525976,-0.53667086,-1.6714714,-0.75754225,2.2828965,1.4828459,-0.9566878,0.7774824,-1.4878011,-0.19083212,-0.27986053,-0.8620786,0.45412025,0.115590826,1.1481056,-0.69211483,1.6098504,-3.199457,-0.15416677,-1.1357416,0.036907196,-0.37358522,1.0615292,0.8334207,-0.2609707,0.0994497,0.47687948,-0.038164686,-0.8673496,-0.5914044,1.0,0.0,0.0,0.0,0.0,0.0,0.0,-1.7981056,0.29211482,-1.0598505,11.961163,4.4636965,-37.69213,-9.321043,1.6683221,-0.23293495,-4.677215
12.773888,20.843899,-0.78962207,-5.184989,-1.7403171,-2.670719,-0.24311565,0.44452122,-0.79506975,-0.42784682,-0.22875547,-0.5574811,0.6697783,-0.11961216,1.0970497,-0.61617786,-1.714256,-0.7804178,2.2271483,1.5498238,-0.968649,1.0608698,-0.55124396,-1.6760814,-0.7609745,2.2744431,1.4873987,-0.9558133,0.84310603,-1.4474396,-0.5500864,-0.3642301,-0.8396202,0.45457342,0.07746598,1.1161346,-0.69365525,1.5977651,-3.196258,-0.15401264,-1.232792,0.03713417,-0.3826797,1.055206,0.83376265,-0.2572058,0.09805267,0.47861317,0.04836236,-0.9215509,-0.6505054,1.0,0.0,0.0,0.0,0.0,0.0,0.0,-1.7661346,0.29365525,-1.047765,6.363511,3.951335,-35.655815,-8.423317,2.1521091,-0.2646923,-3.995888
13.597348,21.967808,0.30950773,-5.829243,-1.6076524,-2.4924989,-0.045586407,0.48447445,-0.79362875,-0.5113872,-0.32326546,-0.53487843,0.6617282,-0.07298537,1.1093173,-0.63060683,-1.7272202,-0.79330105,2.2209554,1.5535716,-0.9631118,1.0696036,-0.5655071,-1.6837204,-0.7654587,2.2662568,1.4919459,-0.95523536,0.8832095,-1.4194132,-0.8347546,-0.4764112,-0.8116162,0.45375276,0.050748166,1.0841961,-0.69519424,1.5847099,-3.1930625,-0.15385866,-1.3297455,0.038188934,-0.39227724,1.0482692,0.8344912,-0.25235328,0.097441114,0.48004952,0.1314768,-0.9701156,-0.71328557,1.0,0.0,0.0,0.0,0.0,0.0,0.0,-1.7341961,0.29519424,-1.0347099,3.9025426,2.7439117,-28.346003,-11.21307,2.7390957,-0.43084025,-2.8212287
17.386517,27.215542,3.3107135,-6.5932126,-1.4843038,-2.2009833,0.22023806,0.53358126,-0.7965256,-0.5530183,-0.3825147,-0.5331191,0.6560126,-0.0005785936,1.1229616,-0.64515966,-1.7390221,-0.80371016,2.212945,1.5575471,-0.95529324,1.0787607,-0.579611,-1.6934497,-0.77111685,2.2583184,1.4964815,-0.9548243,0.9260187,-1.4074819,-1.0187826,-0.5956789,-0.7881743,0.45227364,0.037519388,1.05229,-0.69673157,1.570686,-3.18987,-0.15370484,-1.426602,0.040065765,-0.40226173,1.0407264,0.83536536,-0.24654979,0.09737952,0.48155475,0.21376897,-1.004942,-0.7738649,1.0,0.0,0.0,0.0,0.0,0.0,0.0,-1.7022899,0.29673156,-1.0206859,4.1647673,1.1622906,-18.377066,-11.96177,2.3421168,-0.5000174,-1.4044702
17.552738,31.132008,5.601021,-4.930708,-1.2047219,-1.8352698,0.35238463,0.54139495,-0.79925275,-0.5895676,-0.42962852,-0.53545225,0.6598224,0.05168398,1.1329002,-0.6595363,-1.7524065,-0.8140797,2.2047732,1.5624638,-0.94965595,1.0882612,-0.59368914,-1.7043998,-0.7779108,2.2505517,1.5010077,-0.9544724,0.9579157,-1.4079441,-1.1206281,-0.70752233,-0.77281815,0.4515742,0.034251887,1.0204144,-0.69826746,1.5556942,-3.1866808,-0.15355116,-1.5233617,0.042696,-0.4124956,1.0326171,0.83619267,-0.23998612,0.097659506,0.48337477,0.28632468,-1.0258554,-0.8298461,1.0,0.0,0.0,0.0,0.0,0.0,0.0,-1.6704143,0.29826745,-1.0056942,3.1092167,-0.06046295,-10.259461,-11.214471,1.5654564,-0.39255023,-0.34621656
20.163631,34.462967,7.5052414,-5.6972065,-1.1603796,-1.6404879,0.5013259,0.5622488,-0.80435586,-0.6129421,-0.5141094,-0.51463014,0.6475336,0.062158052,1.1444862,-0.6741247,-1.765694,-0.82932174,2.1990886,1.5657611,-0.9482566,1.0980688,-0.6078369,-1.7159336,-0.7859131,2.2429528,1.5055186,-0.95412624,0.9880369,-1.416963,-1.1649004,-0.8311746,-0.75543666,0.44982544,0.034871947,0.98857117,-0.6998019,1.5397356,-3.1834948,-0.15339763,-1.6200246,0.04605484,-0.4228773,1.0239514,0.8368162,-0.232776,0.09810311,0.48572606,0.35957554,-1.037828,-0.8858371,1.0,0.0,0.0,0.0,0.0,0.0,0.0,-1.6385711,0.29980192,-0.98973554,2.9324174,-0.8950472,-4.6016693,-12.405753,1.8321157,-0.49746633,0.09797141
16.270163,42.486275,10.624335,1.0406113,-0.6260745,-1.0726542,0.3959971,0.57763976,-0.79961455,-0.6073208,-0.46385998,-0.5371917,0.66319567,0.08717127,1.1558328,-0.6877984,-1.7766657,-0.8322991,2.1892335,1.5718381,-0.9454091,1.1081587,-0.62205905,-1.7275646,-0.7946173,2.2354226,1.5100313,-0.95374763,1.0160015,-1.4239365,-1.1632295,-0.8836627,-0.7519188,0.45131484,0.039162707,0.9567604,-0.7013347,1.522811,-3.180312,-0.15324427,-1.7165909,0.04996872,-0.43321753,1.0148768,0.83717096,-0.22522832,0.09859346,0.48856556,0.40935215,-1.0275098,-0.92216384,1.0,0.0,0.0,0.0,0.0,0.0,0.0,-1.6067604,0.3013347,-0.97281104,2.7405977,-0.6919384,-0.03707409,-5.289626,0.44335127,-0.021612644,0.5058095
7.827314,44.471092,11.215368,8.9480295,0.045489192,-0.643768,0.14762588,0.5671377,-0.8036429,-0.62696004,-0.4163236,-0.5607021,0.6624292,0.073958166,1.1648725,-0.70242333,-1.7902606,-0.83624965,2.1793523,1.5762743,-0.9463518,1.1184031,-0.6363527,-1.7391155,-0.8033043,2.227816,1.514567,-0.95333564,1.0273024,-1.4312534,-1.1528934,-0.86365694,-0.76343465,0.45417836,0.042132962,0.92498016,-0.7028661,1.5049216,-3.1771321,-0.15309106,-1.8130606,0.05415535,-0.44338632,1.0055599,0.83732706,-0.2176393,0.099108465,0.4916237,0.42861363,-1.0073152,-0.9424416,1.0,0.0,0.0,0.0,0.0,0.0,0.0,-1.5749801,0.30286607,-0.95492154,1.1389494,-0.7524967,0.8807421,2.0086408,-1.1522651,0.23890138,0.37088394
5.833785,45.917984,11.506898,10.69376,0.14956528,-0.5371152,0.096198305,0.570269,-0.80179185,-0.6401356,-0.4386139,-0.56243736,0.66179776,0.104349054,1.1754299,-0.7165319,-1.8031291,-0.8471657,2.1715724,1.5807468,-0.9429007,1.1287028,-0.65069216,-1.7505977,-0.81171095,2.2200723,1.5191313,-0.952876,1.030942,-1.4348704,-1.1472286,-0.83285856,-0.7779315,0.45714343,0.047570176,0.89323425,-0.7043958,1.4860681,-3.1739557,-0.152938,-1.909434,0.05848503,-0.45333767,0.99606633,0.8373352,-0.21009953,0.09968322,0.49476367,0.44227856,-0.98480433,-0.9591533,1.0,0.0,0.0,0.0,0.0,0.0,0.0,-1.5432342,0.30439577,-0.9360681,0.39913654,-0.3885746,0.42960644,3.1036735,-1.4867783,0.2684176,0.60765296
2.0384302,46.010612,11.478659,13.682192,0.5223647,-0.40305653,-0.017699838,0.5651372,-0.80706227,-0.6368952,-0.40223452,-0.5327686,0.6603146,0.045777556,1.1852164,-0.7313984,-1.8142872,-0.85193443,2.1667955,1.5851628,-0.9482982,1.1389757,-0.6650745,-1.7620285,-0.8196417,2.2122865,1.5237242,-0.9524087,1.026233,-1.4394358,-1.1419462,-0.7796413,-0.7789415,0.45997444,0.046721645,0.86151886,-0.70592403,1.4662516,-3.1707823,-0.1527851,-2.0057108,0.06285286,-0.46306872,0.9864458,0.8372513,-0.20267288,0.100269765,0.49787536,0.44178504,-0.9625801,-0.97036785,1.0,0.0,0.0,0.0,0.0,0.0,0.0,-1.5115188,0.30592403,-0.9162516,-0.4089594,-0.49920082,0.4308462,5.373955,-0.18997192,0.2888322,-0.015751272
0.7339053,46.747772,11.481678,14.816617,0.5613361,-0.36795095,-0.06449722,0.56996906,-0.8058835,-0.6540699,-0.36497232,-0.56235635,0.6652758,0.09008262,1.1959727,-0.74566287,-1.8274355,-0.85613894,2.156051,1.5902518,-0.9434004,1.1492106,-0.6794855,-1.7735031,-0.8269383,2.204432,1.5283476,-0.9519223,1.0226275,-1.4417589,-1.1493903,-0.7128492,-0.78824204,0.46294096,0.049458917,0.829834,-0.70745087,1.4454731,-3.167612,-0.15263234,-2.1018913,0.06719017,-0.47257996,0.9767298,0.83711874,-0.19538745,0.100903906,0.50087357,0.4386949,-0.9406542,-0.979152,1.0,0.0,0.0,0.0,0.0,0.0,0.0,-1.479834,0.30745086,-0.89547306,-0.29654503,-0.2846241,-0.80075264,6.7415476,-1.0491133,0.30690432,0.32487884
2.8388448,46.45266,11.313748,12.690241,0.36695027,-0.4734367,-0.011726037,0.57016766,-0.80580574,-0.6657157,-0.37742385,-0.5510443,0.65679145,0.07344574,1.2062273,-0.7600661,-1.8400747,-0.86468065,2.1493275,1.5940268,-0.9445777,1.1594168,-0.6939079,-1.7851188,-0.83375037,2.1965241,1.5329882,-0.9514216,1.0200629,-1.442518,-1.1659349,-0.6704679,-0.7918151,0.46413556,0.050362315,0.79818153,-0.70897603,1.4237335,-3.1644452,-0.15247974,-2.1979756,0.071567535,-0.48189735,0.96688336,0.8369381,-0.18816322,0.10162404,0.5037873,0.44406316,-0.9220103,-0.9934547,1.0,0.0,0.0,0.0,0.0,0.0,0.0,-1.4481815,0.30897602,-0.87373346,-0.19397736,-0.12683868,-1.7130852,4.303503,-0.47391653,0.078076124,0.13444349
5.032014,47.061775,11.542296,10.552364,0.12025744,-0.50814795,0.08312286,0.5605789,-0.80526465,-0.66023874,-0.3902326,-0.5708764,0.6622874,0.11548592,1.2154747,-0.7744344,-1.8511426,-0.87277365,2.1394365,1.5992169,-0.93987304,1.169562,-0.7083275,-1.7968662,-0.84036505,2.18854,1.5376383,-0.9508828,1.0129031,-1.4418684,-1.1777906,-0.658299,-0.8012854,0.46500558,0.055129595,0.7665615,-0.71049976,1.4010338,-3.1612813,-0.15232728,-2.293964,0.07606125,-0.49102354,0.9568523,0.83666974,-0.18090531,0.10247203,0.50671136,0.4585181,-0.9026325,-1.0131902,1.0,0.0,0.0,0.0,0.0,0.0,0.0,-1.4165615,0.31049976,-0.85103375,-0.6471634,0.021004677,-1.2716055,1.2814283,-1.0527134,0.0012218952,0.513494
2.4492822,48.875896,12.012213,12.553977,0.29885137,-0.35272336,0.045993626,0.54393333,-0.8030454,-0.65576315,-0.34710193,-0.5819082,0.6733303,0.14308211,1.2239553,-0.78863204,-1.8624425,-0.8750752,2.1303492,1.6049713,-0.9365746,1.179566,-0.722727,-1.8086727,-0.8467833,2.1804338,1.5423037,-0.95027816,0.996507,-1.4394877,-1.1817915,-0.63604504,-0.81394625,0.46700028,0.06241016,0.734972,-0.7120218,1.3773749,-3.1581206,-0.152175,-2.389856,0.080646515,-0.4999323,0.946657,0.83631045,-0.17363645,0.10346924,0.5096363,0.46497557,-0.8799504,-1.0284269,1.0,0.0,0.0,0.0,0.0,0.0,0.0,-1.384972,0.31202182,-0.8273749,-1.5540719,0.1885891,-0.47471523,2.2984385,-1.3994694,0.13979077,0.76146275
1.6030483,48.99353,12.0567875,12.814649,0.3968348,-0.30706665,0.048721254,0.53210074,-0.8044637,-0.65623415,-0.34524775,-0.56632286,0.6704998,0.13901985,1.232776,-0.80317336,-1.8742961,-0.8813081,2.1238015,1.6093537,-0.93637615,1.1893679,-0.7371103,-1.8204868,-0.85302126,2.1722627,1.5469862,-0.9496068,0.9749424,-1.4381222,-1.1814644,-0.6194277,-0.8183421,0.4685204,0.06880387,0.703413,-0.71354246,1.3527578,-3.1549633,-0.15202285,-2.4856524,0.08527374,-0.5086212,0.9363069,0.83586246,-0.16636711,0.10457835,0.51256156,0.46838424,-0.8580446,-1.0438795,1.0,0.0,0.0,0.0,0.0,0.0,0.0,-1.353413,0.31354246,-0.8027578,-2.0617723,0.08428097,-0.040650368,1.7463088,-0.58403015,0.0867486,0.6788641
0.13357353,48.164917,11.503489,13.10584,0.4387564,-0.30743653,0.03176737,0.5177281,-0.8020085,-0.67953557,-0.3389402,-0.5716678,0.66458815,0.172877,1.2411407,-0.81731117,-1.8884404,-0.88691527,2.1150959,1.613445,-0.9323191,1.1989237,-0.75147456,-1.8323905,-0.8591143,2.1640573,1.5516783,-0.9488534,0.9494491,-1.4359841,-1.1934747,-0.60556847,-0.82163984,0.4690823,0.07755396,0.67188835,-0.71506166,1.3271835,-3.151809,-0.15187086,-2.5813532,0.089920044,-0.51711273,0.9257851,0.8353416,-0.15905775,0.10581091,0.5154697,0.46967265,-0.8387518,-1.0613925,1.0,0.0,0.0,0.0,0.0,0.0,0.0,-1.3218883,0.31506166,-0.7771835,-2.4432182,0.1554966,-1.2589931,1.4880776,-0.4927039,-0.024276972,0.9044215
-3.0487642,50.195312,11.989845,15.551626,0.6660864,-0.13956994,-0.025897056,0.49509636,-0.7995689,-0.66614187,-0.3015456,-0.5912405,0.6748241,0.19390951,1.2484334,-0.83143145,-1.8990047,-0.8892689,2.1049333,1.6191607,-0.92946243,1.2081724,-0.7658102,-1.8443477,-0.86494124,2.1557755,1.5563818,-0.9480046,0.9169461,-1.4329679,-1.1966037,-0.57460535,-0.8312152,0.4707655,0.08742486,0.6403942,-0.7165792,1.3006529,-3.1486578,-0.15171902,-2.676958,0.09451294,-0.52539134,0.91513455,0.8347722,-0.15175773,0.1071791,0.5183026,0.46142116,-0.8167783,-1.0727006,1.0,0.0,0.0,0.0,0.0,0.0,0.0,-1.2903942,0.3165792,-0.75065285,-3.1382442,0.23553371,-0.34701824,3.202629,-1.1473656,0.12167096,1.0122716
-4.7776937,47.177372,10.624008,14.735617,0.62246466,-0.19384551,-0.042081445,0.46105027,-0.80157965,-0.6866442,-0.33270153,-0.59982675,0.6577895,0.123302475,1.2542775,-0.8459681,-1.9130121,-0.8982114,2.0957928,1.6221608,-0.93567437,1.2170016,-0.7801296,-1.8564079,-0.8706404,2.1473756,1.5610853,-0.9471196,0.87204856,-1.4319391,-1.2094346,-0.5678425,-0.843439,0.47013587,0.08896919,0.6089306,-0.7180953,1.2731669,-3.1455097,-0.15156732,-2.7724676,0.09902191,-0.53348756,0.90430987,0.8341869,-0.14439468,0.10871895,0.52102065,0.4535247,-0.7997925,-1.0920852,1.0,0.0,0.0,0.0,0.0,0.0,0.0,-1.2589306,0.3180953,-0.7231669,-4.3503523,0.03054142,-1.3201475,0.8173466,-1.4303088,-0.15694499,0.167647
-8.488836,42.716007,8.510118,13.926136,0.5902381,-0.2245793,-0.035439357,0.4019963,-0.80231184,-0.7054241,-0.38157743,-0.61593,0.64463204,0.1081001,1.2572012,-0.8603608,-1.9269503,-0.90879816,2.0857825,1.6255486,-0.9363096,1.2251879,-0.79445094,-1.8686721,-0.87656844,2.1388192,1.5657698,-0.9462403,0.80152774,-1.4324579,-1.2322885,-0.6003877,-0.860321,0.46739694,0.08749116,0.5774975,-0.71960974,1.2447265,-3.1423647,-0.1514158,-2.8678813,0.10344505,-0.54145503,0.8931975,0.83361095,-0.13680081,0.11049125,0.5236123,0.44349727,-0.7881125,-1.123759,1.0,0.0,0.0,0.0,0.0,0.0,0.0,-1.2274975,0.31960973,-0.6947265,-6.858909,-0.13291836,-2.3383856,-3.058207,-1.9322515,-0.43140054,-0.1516968
-17.54246,35.632904,5.2521315,14.336034,0.8453243,-0.12833688,-0.029262349,0.28906146,-0.8114222,-0.69453233,-0.47248277,-0.61019105,0.6378513,0.09085407,1.254094,-0.8755932,-1.9381254,-0.92381674,2.0778,1.6295549,-0.9371549,1.2322565,-0.8088257,-1.881089,-0.8832756,2.130137,1.570418,-0.94539344,0.67615885,-1.4394457,-1.245057,-0.6931625,-0.8723944,0.4632342,0.08378856,0.5460987,-0.72112274,1.2153327,-3.139223,-0.15126441,-2.9631996,0.107658386,-0.5493567,0.88164914,0.8330693,-0.12877536,0.11248793,0.52607876,0.41863972,-0.7830197,-1.1713914,1.0,0.0,0.0,0.0,0.0,0.0,0.0,-1.1960987,0.32112274,-0.66533273,-12.2388,-0.80029964,-1.3632774,-8.975351,-1.5322208,-0.649178,-0.3736928
-44.409676,26.333738,-0.5746485,21.603167,1.9210749,0.3585045,-0.17000371,0.044532996,-0.81421965,-0.661201,-0.6046971,-0.59849423,0.63161856,0.17131759,1.2367098,-0.89024764,-1.9472091,-0.9437453,2.0702875,1.6335799,-0.9282617,1.2371031,-0.82328624,-1.8934238,-0.8914591,2.121386,1.5750185,-0.94452274,0.4227329,-1.4488413,-1.2297684,-0.8583489,-0.87794167,0.45804593,0.08816198,0.51473045,-0.7226343,1.1849865,-3.1360846,-0.15111318,-3.0584228,0.11122894,-0.5572705,0.8695226,0.8326672,-0.120104715,0.114673875,0.52828985,0.34028995,-0.7860133,-1.2326057,1.0,0.0,0.0,0.0,0.0,0.0,0.0,-1.1647304,0.3226343,-0.63498646,-24.81718,-1.1134148,1.4499664,-15.9958,-1.1337042,-0.8203149,0.42857528
-70.102356,30.91032,-0.94751406,32.971004,3.3870788,1.3080511,-0.2858363,-0.19717927,-0.8082804,-0.51737046,-0.67956746,-0.58475703,0.6521907,0.34926084,1.2173852,-0.90411425,-1.9451609,-0.95941585,2.0629103,1.6402376,-0.9095967,1.2385832,-0.83780307,-1.9048927,-0.9014336,2.1126351,1.5795885,-0.943467,0.058885038,-1.4533468,-1.1194407,-1.041516,-0.8765538,0.45596036,0.1115532,0.48339272,-0.7241442,1.1536887,-3.132949,-0.1509621,-3.1535509,0.113544464,-0.56513596,0.85691935,0.8324724,-0.11089878,0.11684811,0.5301298,0.19795729,-0.7782071,-1.2755913,1.0,0.0,0.0,0.0,0.0,0.0,0.0,-1.1333927,0.3241442,-0.60368866,-35.7071,-0.6931782,10.933661,-17.64034,-0.64970255,-0.45900345,2.4049983
-70.113625,45.805954,4.797571,36.420914,3.7803204,1.8897609,-0.19598868,-0.31439957,-0.7957076,-0.3870801,-0.72759867,-0.5820368,0.6529879,0.45900953,1.2071433,-0.91737384,-1.9436007,-0.97419345,2.0544314,1.6448873,-0.8975661,1.2364565,-0.85228175,-1.9146774,-0.9130789,2.10393,1.5841509,-0.9420918,-0.30086812,-1.4467418,-0.9322493,-1.2033281,-0.8708431,0.45581532,0.14695026,0.4520855,-0.7256527,1.1214404,-3.1298168,-0.15081117,-3.2485836,0.114370346,-0.5727596,0.84411,0.8324074,-0.101499625,0.11874826,0.5316903,0.044251826,-0.74829406,-1.2885532,1.0,0.0,0.0,0.0,0.0,0.0,0.0,-1.1020855,0.3256527,-0.5714404,-35.339893,0.44288635,18.450523,-15.535212,-0.08683205,-0.14811754,3.7378936
-42.784706,67.95499,16.087011,30.979408,2.962135,2.0095444,0.10465474,-0.31610677,-0.7784385,-0.254514,-0.7404114,-0.5921825,0.6708711,0.52219045,1.2048458,-0.9301256,-1.9401288,-0.98712003,2.0447118,1.651238,-0.8898728,1.2315985,-0.86659163,-1.9222114,-0.925944,2.0952744,1.58874,-0.9403275,-0.54591733,-1.4258504,-0.6956228,-1.3129166,-0.86442375,0.46041188,0.18739422,0.4208107,-0.72715974,1.0882425,-3.1266875,-0.15066038,-3.3435214,0.11401367,-0.57985735,0.831433,0.83222824,-0.092367455,0.12015351,0.53331745,-0.063182786,-0.68789536,-1.2658308,1.0,0.0,0.0,0.0,0.0,0.0,0.0,-1.0708107,0.32715973,-0.5382425,-24.07573,2.0237446,23.084259,-10.558915,0.46093464,0.57715774,4.3711753
-23.158762,62.837395,15.429142,22.577412,1.854867,1.171258,0.12473664,-0.3203941,-0.7838527,-0.3823516,-0.7461541,-0.6125929,0.6613944,0.5218406,1.1995591,-0.9449769,-1.9604466,-1.0005593,2.0340152,1.6548795,-0.8881435,1.2252089,-0.88072413,-1.928416,-0.9394976,2.086619,1.5933672,-0.93819606,-0.66891605,-1.4091555,-0.59698194,-1.3685429,-0.8660569,0.46376333,0.22264522,0.38956833,-0.7286651,1.054096,-3.1235616,-0.15050974,-3.4383643,0.112968445,-0.5864718,0.8188568,0.83187175,-0.083466865,0.12122503,0.53509545,-0.121137686,-0.6433463,-1.259007,1.0,0.0,0.0,0.0,0.0,0.0,0.0,-1.0395683,0.3286651,-0.504096,-12.02203,1.6558647,9.373856,-5.256009,-0.20364523,0.4125476,3.78384
-15.537608,45.938114,8.467783,15.632438,0.98223996,0.1619885,0.011167593,-0.34605435,-0.78578913,-0.56694293,-0.767441,-0.6282531,0.6315259,0.52736944,1.1906035,-0.959303,-1.9851103,-1.0162417,2.0237937,1.6565198,-0.8854591,1.2181841,-0.894746,-1.9350746,-0.95338595,2.0778832,1.5979925,-0.93575656,-0.713141,-1.3999532,-0.6893281,-1.3945476,-0.8768566,0.46152058,0.25145492,0.35835648,-0.73016906,1.0190017,-3.1204386,-0.15035926,-3.5331123,0.11157799,-0.5928869,0.806039,0.83144075,-0.07432648,0.12236706,0.5368503,-0.14764562,-0.63119435,-1.2927371,1.0,0.0,0.0,0.0,0.0,0.0,0.0,-1.0083565,0.33016905,-0.4690017,-4.2233825,0.8689165,-9.408307,-2.2705793,-1.271081,-0.37005544,2.9863
-21.204857,32.18378,1.9364688,14.966875,0.9988917,-0.26275182,-0.16748938,-0.40898934,-0.79614615,-0.6582534,-0.76775885,-0.63615453,0.61041665,0.52385277,1.1772852,-0.97436064,-2.0008998,-1.0301619,2.0142677,1.6590343,-0.8833713,1.2108237,-0.90877455,-1.9434211,-0.96735156,2.0690064,1.6025645,-0.9330739,-0.74310166,-1.4041657,-0.88283706,-1.3957686,-0.89267147,0.45474198,0.27387875,0.32717514,-0.7316716,0.98296064,-3.1173189,-0.15020894,-3.6277657,0.10988808,-0.59936047,0.7926776,0.83108336,-0.06454533,0.12383675,0.5383295,-0.17942181,-0.64282495,-1.3538842,1.0,0.0,0.0,0.0,0.0,0.0,0.0,-0.9771751,0.33167157,-0.43296063,-2.7975678,-0.5455494,-19.281996,0.29616356,-1.9587636,-1.0138869,2.2587836
-28.535929,29.792576,0.09800172,17.158611,1.3433175,-0.11662048,-0.26591823,-0.4712936,-0.7974363,-0.6903709,-0.76934975,-0.6455903,0.6042589,0.51373935,1.1636943,-0.9885182,-2.0124583,-1.0442865,2.0044475,1.6629903,-0.8816999,1.2030379,-0.92288226,-1.9537284,-0.98124564,2.0599542,1.607062,-0.9302081,-0.78953815,-1.4135641,-1.0797062,-1.385625,-0.9109206,0.4466761,0.29087463,0.29602432,-0.73317266,0.94597375,-3.114202,-0.15005876,-3.7223244,0.10775375,-0.6059754,0.7786783,0.8308846,-0.054010622,0.12566146,0.5393727,-0.22787039,-0.6572412,-1.4189653,1.0,0.0,0.0,0.0,0.0,0.0,0.0,-0.9460243,0.33317265,-0.39597374,-4.421568,-1.1143446,-19.537247,1.4970541,-2.2942543,-1.2146175,1.7039597
-39.38351,34.706436,1.0530668,22.318157,2.08448,0.43751174,-0.3554332,-0.55650175,-0.79676366,-0.6940133,-0.7618757,-0.6293226,0.6101367,0.5059057,1.1473877,-1.0025586,-2.0231297,-1.0574332,1.9970219,1.6680757,-0.8796175,1.1944777,-0.9370815,-1.9655788,-0.9949795,2.050795,1.611487,-0.9272002,-0.8771953,-1.4227511,-1.2196119,-1.3675729,-0.91931313,0.44001848,0.30418798,0.26490402,-0.73467207,0.908042,-3.1110885,-0.14990874,-3.8167884,0.104917526,-0.61267686,0.7641405,0.83089125,-0.04285313,0.12767532,0.5398909,-0.30604842,-0.66330147,-1.4695213,1.0,0.0,0.0,0.0,0.0,0.0,0.0,-0.914904,0.33467206,-0.358042,-8.515013,-1.1369467,-13.826919,2.3415089,-1.3705611,-1.0689139,1.3833225
-49.073532,37.78263,1.4263644,26.083908,2.8081636,0.8957733,-0.42453253,-0.64181536,-0.80412096,-0.72537357,-0.7668766,-0.56340325,0.58419716,0.45669228,1.1302961,-1.0174936,-2.0381162,-1.0716672,1.9944547,1.6699067,-0.881531,1.1847559,-0.95138854,-1.9784591,-1.0085732,2.0417848,1.6158339,-0.9241122,-1.0030282,-1.4342486,-1.3102903,-1.3544209,-0.8971041,0.43154603,0.31079403,0.23381805,-0.73617005,0.86916625,-3.107978,-0.14975886,-3.911158,0.10110092,-0.6194048,0.7491783,0.8311531,-0.03121594,0.12959327,0.5398294,-0.41149652,-0.66417134,-1.5095555,1.0,0.0,0.0,0.0,0.0,0.0,0.0,-0.88381803,0.33617005,-0.31916624,-12.306595,-1.4158487,-8.885312,1.9246101,1.6204953,-1.2786686,0.7859647
-50.549377,42.90192,3.5740318,27.294159,3.2727282,1.2146083,-0.42079318,-0.69649506,-0.8082709,-0.7488757,-0.7577652,-0.44336614,0.5634121,0.42181823,1.1151065,-1.0322156,-2.0533466,-1.0843496,1.9974482,1.672175,-0.88193035,1.1737219,-0.9658062,-1.9919536,-1.0220333,2.0333772,1.6200892,-0.92099464,-1.1360861,-1.4452041,-1.3618237,-1.34114,-0.8236865,0.42209935,0.31286058,0.2027626,-0.7376666,0.82934755,-3.1048708,-0.14960913,-4.0054336,0.09614372,-0.6260998,0.73391134,0.8316912,-0.019246005,0.13105658,0.53920627,-0.5292546,-0.6586424,-1.5368463,1.0,0.0,0.0,0.0,0.0,0.0,0.0,-0.8527626,0.3376666,-0.27934754,-13.044572,-1.3682842,-4.9887896,1.9416332,6.7616105,-1.3690829,0.42013526
-48.32556,48.893066,6.111783,27.253897,3.4088092,1.4144353,-0.43721175,-0.7493461,-0.806495,-0.7761979,-0.7458467,-0.35646182,0.54390556,0.30099806,1.0987873,-1.0464557,-2.0695734,-1.096618,1.997731,1.6744797,-0.89089483,1.1614119,-0.9802963,-2.005822,-1.0353428,2.0259347,1.6242453,-0.91795146,-1.2618095,-1.4511526,-1.3945771,-1.3255951,-0.719175,0.4119281,0.30229643,0.17173767,-0.7391615,0.7885788,-3.1017666,-0.14945956,-4.10068,0.09000397,-0.6326928,0.71844673,0.83252335,-0.00707107,0.13181423,0.53803337,-0.64746237,-0.6459149,-1.5539048,1.0,0.0,0.0,0.0,0.0,0.0,0.0,-0.82173765,0.3391615,-0.2385788,-12.340021,-0.85487366,-3.1301737,2.1401644,9.922493,-1.4300764,-0.7914603
-42.11038,54.457714,9.364257,25.965803,3.6778364,1.5019641,-0.4357741,-0.7872303,-0.8045379,-0.78519344,-0.735519,-0.091814294,0.4805682,0.13691106,1.0826888,-1.0607501,-2.0843413,-1.1088947,2.0167532,1.6723021,-0.90426034,1.1480108,-0.99480647,-2.0198982,-1.0484883,2.0202127,1.6282622,-0.9151362,-1.3657589,-1.4516551,-1.4117664,-1.3090168,-0.5246739,0.39699826,0.27586892,0.14074326,-0.74065495,0.7468583,-3.0986655,-0.14931013,-4.195831,0.08269882,-0.63914514,0.70290214,0.833687,0.0051805996,0.13145354,0.53633857,-0.7639742,-0.6305056,-1.5586799,1.0,0.0,0.0,0.0,0.0,0.0,0.0,-0.79074323,0.34065494,-0.19685829,-10.210395,-0.27520657,-1.6046047,2.1684408,19.024813,-1.8779695,-2.2880495
-35.125298,59.10128,12.56488,25.219519,4.1172376,1.5270697,-0.5389997,-0.80608577,-0.8072983,-0.79199,-0.69443375,0.2583603,0.44726872,-0.19200003,1.0674022,-1.0755363,-2.0990973,-1.1179316,2.0460486,1.672989,-0.93433625,1.1337287,-1.0092446,-2.0345197,-1.0616726,2.0180998,1.6311779,-0.9131502,-1.4610268,-1.4311838,-1.5469171,-1.3763671,1.9773757e-05,0.069011204,0.1483014,0.11566162,-0.74178267,0.71838546,-1.6019453,0.089251414,-0.10112526,0.07419968,-0.6456983,0.6872669,0.8354547,0.01798229,0.12909704,0.5338783,-0.8794754,-0.6886761,-1.5920542,0.0,1.0,0.0,0.0,0.0,0.0,0.0,-0.7656616,0.34178266,-0.16838545,-11.761785,3.8383245,-26.080036,-16.658258,73.76375,-64.29641,-19.337505
7.8941727,176.0,110.0,110.0,7.4407735,12.351868,-2.304462,-0.7589599,0.5271533,0.7052301,0.61994433,-0.35275385,0.69817066,-0.33538073,1.0578327,-0.95652926,-1.9639966,-0.99967813,1.9828244,1.700995,-0.9466883,1.1209474,-1.0260063,-2.0388768,-1.0631922,2.010102,1.6381476,-0.91208947,-1.2033199,-1.6762148,-0.21329999,0.21713796,-0.9281481,0.972873,0.11656489,0.09980965,-0.7407973,0.7173923,-1.6003436,0.08916218,-0.20027536,0.06417847,-0.6506889,0.6759714,0.8381125,0.022353988,0.12704207,0.5300265,-1.0487069,-0.4168209,-0.9784014,0.0,1.0,0.0,0.0,0.0,0.0,0.0,-0.7498096,0.34079728,-0.16739231,29.767704,-4.7683716e-05,88.31978,146.9401,-50.436462,107.53473,4.20866
-35.39613,176.0,77.04701,93.470695,8.531683,5.888127,-2.2384796,-0.77146965,-0.72418165,0.33437702,0.69266903,-0.32890758,0.63630617,-0.49557272,1.0438004,-1.0984246,-2.005439,-0.99392533,1.9772112,1.7017782,-0.96164674,1.1089921,-1.0427681,-2.034856,-1.0541133,1.9995964,1.6478941,-0.91157925,-1.1914532,-1.6762146,0.6083697,1.1389433,-1.092656,0.9798424,0.031703398,0.083818436,-0.7399063,0.71464664,-1.5987436,0.08907303,-0.29932627,0.05238533,-0.6542902,0.6696256,0.84203887,0.019306224,0.12516823,0.5243383,-1.2237551,-0.32967737,-0.52248216,0.0,1.0,0.0,0.0,0.0,0.0,0.0,-0.7338184,0.3399063,-0.16464663,1.6283035,0.0,82.50537,92.43204,-16.848755,2.128172,-7.734169
-47.58863,154.25069,42.14123,64.23889,5.0233245,2.9701204,-1.7687026,-0.76789844,-0.5991465,-0.13633038,0.5690292,-0.4178542,0.655297,-0.3256334,1.0322022,-1.1026828,-2.048489,-0.9972103,1.9578109,1.7134238,-0.9441426,1.0968575,-1.0579468,-2.028272,-1.039627,1.989085,1.6574881,-0.91160023,-1.2193677,-1.4656594,0.6751873,1.554287,-1.0381682,0.9549177,-0.012666435,0.06784248,-0.7390163,0.71091115,-1.5971451,0.088983975,-0.39827818,0.03924179,-0.6572585,0.66612244,0.84708667,0.013558451,0.123820364,0.5166514,-1.3470153,-0.27720284,-0.29722258,0.0,1.0,0.0,0.0,0.0,0.0,0.0,-0.71784246,0.3390163,-0.16091114,-2.326274,20.88561,6.6450834,42.190407,5.2131653,-1.7733216,-4.2109814
-28.322132,141.19637,40.769176,43.067734,3.373433,2.4848604,-0.8847969,-0.7807783,-0.6085263,0.42702207,0.68463314,-0.4021111,0.6255508,-0.39899045,1.0187798,-1.1187994,-1.9855697,-0.97116363,1.9488739,1.7200432,-0.9514993,1.0841546,-1.0710694,-2.02057,-1.0232371,1.9796798,1.666506,-0.9120666,-1.2862581,-1.2617183,0.80202675,1.6685728,-0.9095424,0.88562185,-0.0575671,0.05188179,-0.73812723,0.70618695,-1.5955483,0.08889501,-0.49713114,0.025299072,-0.65953803,0.6644499,0.852727,0.006684324,0.12273969,0.50768787,-1.4128035,-0.20268312,-0.12951978,0.0,1.0,0.0,0.0,0.0,0.0,0.0,-0.70188177,0.33812723,-0.15618694,-6.424403,20.148827,12.762451,11.851478,12.384343,-6.4572096,-4.3773108
-8.053785,99.61608,27.14059,17.544668,1.0480536,1.2033117,-0.11189435,-0.76412725,-0.60614616,0.38300353,0.6046217,-0.37033397,0.6712403,-0.3752767,1.0077419,-1.131684,-1.9822696,-0.96277493,1.9426464,1.7336301,-0.94959426,1.0708966,-1.0825535,-2.012483,-1.0075129,1.9716651,1.6748736,-0.9129144,-1.3390726,-1.1110524,0.81116873,1.5408134,-0.7664396,0.82172364,-0.09405016,0.035938263,-0.7372391,0.700475,-1.593953,0.08880613,-0.5958853,0.011188507,-0.6611724,0.6635604,0.8584405,-0.00025857208,0.121591695,0.4982924,-1.415145,-0.14116421,-0.080978915,0.0,1.0,0.0,0.0,0.0,0.0,0.0,-0.68593824,0.33723912,-0.15047497,-5.2773237,14.885664,0.9471178,-12.63032,13.991952,-6.045699,-3.6863327
8.759487,80.628235,22.653051,4.201567,-0.091885,0.5335877,0.32484585,-0.75397295,-0.5563488,0.4013332,0.5590218,-0.26423284,0.6348748,-0.35814577,0.9954993,-1.1381884,-1.9723495,-0.95161074,1.9452418,1.7383611,-0.948729,1.0572827,-1.0928097,-2.004743,-0.99395883,1.9651777,1.6818433,-0.91378844,-1.3692073,-0.9979287,0.76369274,1.2951822,-0.6087174,0.6656474,-0.09027311,0.01884842,-0.7345154,0.7020766,-1.7185268,0.3111602,0.33550432,-0.00258255,-0.6624086,0.66270196,0.8638649,-0.0061736526,0.1201297,0.48915035,-1.3691149,-0.10709457,-0.09147136,0.0,1.0,0.0,0.0,0.0,0.0,0.0,-0.6688484,0.33451542,-0.1520766,-2.9334784,10.8677025,-1.7712831,-22.470856,15.014243,-5.621588,-3.0891986
5.140374,122.314735,35.510994,16.52759,0.45032445,1.2107571,0.029907614,-0.7850486,-0.29691523,0.42530563,0.65289706,-0.1807389,0.63621444,-0.4239651,0.9787778,-1.1225013,-1.9622126,-0.9286691,1.9471037,1.7454647,-0.9561849,1.0433877,-1.1011753,-1.9972267,-0.9820694,1.9602147,1.6881166,-0.91491663,-1.3964751,-0.7834771,0.7479842,1.1538864,-0.4600875,0.61567235,-0.12067645,0.0016746521,-0.7314062,0.7046847,-1.7168087,0.3108491,0.23591772,-0.016010284,-0.6629801,0.6624501,0.8690868,-0.011807653,0.11867586,0.48006734,-1.3374572,-0.031584136,-0.0070394855,0.0,1.0,0.0,0.0,0.0,0.0,0.0,-0.6516746,0.3314062,-0.15468466,-2.7926207,21.247696,-1.4071226,-14.024067,14.507514,-4.633236,-3.1361177
1.8208151,120.94118,34.88661,19.7725,0.94578034,1.1753259,-0.114961445,-0.7862407,-0.26109502,0.40558094,0.63940495,-0.06636713,0.6296185,-0.3990874,0.9647636,-1.1272848,-1.9566686,-0.91812885,1.953578,1.7510784,-0.9548254,1.0293095,-1.1075497,-1.9898701,-0.97108305,1.9567624,1.6940255,-0.91632426,-1.4116489,-0.5893953,0.73216426,1.0806918,-0.30778533,0.58371955,-0.14766915,-0.0154800415,-0.7283001,0.70629764,-1.7150922,0.31053832,0.13643068,-0.02924347,-0.66285276,0.663082,0.87420756,-0.017587544,0.11734031,0.4708321,-1.3205807,0.03618829,0.08348971,0.0,1.0,0.0,0.0,0.0,0.0,0.0,-0.63451993,0.3283001,-0.15629762,-1.5451193,19.233322,-1.4130354,-7.156253,14.943427,-2.9195905,-2.7389228
-7.372015,131.58548,35.987026,26.977161,1.16712,1.2678015,-0.35494095,-0.8039708,-0.10432525,0.31129292,0.6666597,-0.08942057,0.6138914,-0.3576509,0.94891244,-1.1179821,-1.9587408,-0.9044171,1.9478204,1.7554146,-0.95208937,1.0150712,-1.1117458,-1.983057,-0.96026075,1.9544488,1.6996751,-0.91794455,-1.4277343,-0.36355543,0.66496336,1.0836349,-0.20658985,0.5594841,-0.16687109,-0.032619476,-0.7251971,0.7069135,-1.7133775,0.31022784,0.03664938,-0.04239273,-0.66202664,0.6647663,0.87931633,-0.023605697,0.11653953,0.46115524,-1.3146061,0.1067342,0.19427404,0.0,1.0,0.0,0.0,0.0,0.0,0.0,-0.6173805,0.32519707,-0.15691346,-1.6029835,22.404121,-6.578696,0.5415678,9.913385,-2.1928072,-1.9522905
-12.095307,124.41094,32.376133,28.373508,1.0765797,1.0775088,-0.4616221,-0.8048026,-0.028408531,0.24826346,0.69862276,-0.14629708,0.6163829,-0.36910757,0.9345909,-1.1145867,-1.9582307,-0.8903985,1.9398191,1.7613133,-0.9548553,1.0007147,-1.1138442,-1.9772398,-0.9490599,1.9527696,1.7049699,-0.9197269,-1.438591,-0.15886045,0.54941744,1.1302987,-0.14812763,0.50956404,-0.18159673,-0.04943657,-0.72148156,0.70865357,-1.6493895,0.43450364,0.37077993,-0.055517197,-0.6605861,0.66744524,0.88446516,-0.029689115,0.116626956,0.45081928,-1.3127794,0.16289718,0.28886992,0.0,1.0,0.0,0.0,0.0,0.0,0.0,-0.6005634,0.32148156,-0.15865356,-1.1131525,20.31039,-11.50757,4.8041344,5.777788,-3.5244346,-1.7707676
-12.962458,145.27371,38.025593,32.447784,1.0343405,1.3132204,-0.5208341,-0.8186215,0.19551633,0.17332613,0.70990306,-0.054616943,0.61162025,-0.37883592,0.9188525,-1.0942925,-1.9599073,-0.8780696,1.947308,1.7661319,-0.9576105,0.9862245,-1.1134226,-1.9727666,-0.9372903,1.9516813,1.7098358,-0.92164534,-1.4526969,0.10829827,0.41440913,1.1932613,-0.096591465,0.47949076,-0.19560233,-0.06567383,-0.71676064,0.71334964,-1.613526,0.48231056,0.50463873,-0.06857872,-0.6584525,0.6713264,0.88965404,-0.035796244,0.11789786,0.439698,-1.3035095,0.23952301,0.4193627,0.0,1.0,0.0,0.0,0.0,0.0,0.0,-0.58432615,0.31676063,-0.16334963,-1.4530659,26.462797,-13.204628,6.541705,4.873498,-2.9211998,-1.4872909
-18.031202,122.13101,29.223934,29.261375,1.2003388,0.90156657,-0.53934956,-0.8345829,0.23320729,0.021030728,0.7119247,0.10911162,0.5957081,-0.4226724,0.90276617,-1.090102,-1.9706635,-0.86609787,1.9625924,1.7694066,-0.9639126,0.9715493,-1.1107028,-1.9700845,-0.92497814,1.9514481,1.7144371,-0.923716,-1.4727297,0.32567713,0.22026348,1.2443378,0.0005074312,0.45335984,-0.21112691,-0.08164978,-0.7115984,0.7190048,-1.5917875,0.52766573,0.5877321,-0.081653595,-0.6556952,0.6761783,0.8948962,-0.04178582,0.12024851,0.42773244,-1.3077751,0.2976574,0.505543,0.0,1.0,0.0,0.0,0.0,0.0,0.0,-0.5683502,0.3115984,-0.1690048,-2.0677805,21.51047,-19.169289,5.2678347,9.497344,-2.6506782,-1.6383916
-24.053318,90.49146,16.68508,24.476997,0.86220837,0.29424018,-0.5502354,-0.8462388,0.28231746,-0.2382244,0.7218057,0.12892576,0.5644901,-0.44356206,0.8869254,-1.082471,-1.993907,-0.85279757,1.9643407,1.7708862,-0.96807224,0.9566547,-1.1062396,-1.9701966,-0.91225487,1.9521044,1.7188342,-0.9259461,-1.4952421,0.48592556,-0.08821798,1.2817718,0.08724687,0.43456575,-0.22724701,-0.097480774,-0.7061343,0.7249651,-1.5797417,0.5544017,0.6010599,-0.094839096,-0.65255094,0.68140167,0.90022045,-0.047115084,0.12365685,0.41483995,-1.3191578,0.33064818,0.52695656,0.0,1.0,0.0,0.0,0.0,0.0,0.0,-0.5525192,0.3061343,-0.17496508,-2.3123264,15.852415,-30.773788,3.7880182,8.626895,-1.9900262,-1.6980678
-23.06804,53.40017,5.2469077,16.958828,0.44489026,-0.25117064,-0.4452686,-0.84037745,0.24114245,-0.36649176,0.7451758,0.054164898,0.54720026,-0.4590559,0.872617,-1.0821253,-2.0068457,-0.8377373,1.957521,1.7735542,-0.9718517,0.94161433,-1.1009676,-1.9735129,-0.89918536,1.9532042,1.7230886,-0.92833686,-1.5070845,0.54059356,-0.41322035,1.3150613,0.118026644,0.42227706,-0.24331029,-0.113256454,-0.70052576,0.73054254,-1.5766693,0.5638411,0.54633486,-0.10815811,-0.6492822,0.68634504,0.9056026,-0.051363073,0.12803587,0.40106428,-1.3326172,0.33690983,0.48317587,0.0,1.0,0.0,0.0,0.0,0.0,0.0,-0.5367435,0.30052575,-0.18054253,-1.2016773,5.371344,-32.56288,3.2734394,3.1544373,-1.2559354,-1.7160118
-18.250486,28.9983,-1.01123,10.592604,-0.094476044,-0.5371942,-0.27338526,-0.83186436,0.2020799,-0.46766624,0.7647691,-0.102172464,0.5580256,-0.4194803,0.8584279,-1.0807596,-2.0202794,-0.8227084,1.942987,1.7788912,-0.9702849,0.92655486,-1.0957873,-1.9798148,-0.8857948,1.9539499,1.7272695,-0.930846,-1.5054166,0.5103007,-0.7030287,1.3466878,0.060596135,0.41695723,-0.25380355,-0.12901306,-0.6948874,0.73527074,-1.5758682,0.56426007,0.45177624,-0.121564865,-0.64607215,0.6905392,0.910952,-0.054336302,0.1333379,0.38656834,-1.3389581,0.3275283,0.39869684,0.0,1.0,0.0,0.0,0.0,0.0,0.0,-0.5209869,0.2948874,-0.18527073,0.19562244,-3.068006,-29.112316,3.0815601,-5.5951633,-0.44383407,-1.1871189
-15.087812,12.828944,-4.208786,6.3942637,-0.3060044,-0.61045563,-0.10962845,-0.8371513,0.13530855,-0.52820945,0.7724553,-0.23434497,0.5583774,-0.37491107,0.8428397,-1.0822564,-2.0326357,-0.8085493,1.9305154,1.7831073,-0.96833706,0.91152877,-1.0914328,-1.988457,-0.8721401,1.9536333,1.731418,-0.93340945,-1.5015562,0.41036126,-0.9184967,1.3715394,-0.061807767,0.41468278,-0.25773543,-0.14476013,-0.68924904,0.7390377,-1.5742927,0.5636959,0.35167965,-0.13502502,-0.64301825,0.6937073,0.91616625,-0.05602274,0.13943605,0.3715622,-1.3443757,0.30988342,0.2908254,0.0,1.0,0.0,0.0,0.0,0.0,0.0,-0.50523984,0.28924903,-0.18903768,0.4537344,-9.991598,-21.696484,2.4467945,-12.060814,-0.073719025,-0.5326569
-9.282028,19.051731,-0.62676525,5.3262486,-0.42465797,-0.43826193,0.04518959,-0.8333097,0.12247064,-0.5771206,0.77137405,-0.32186547,0.5590112,-0.31844547,0.8281978,-1.0791857,-2.046169,-0.7950027,1.9214468,1.7873192,-0.965254,0.8965618,-1.0881159,-1.9986899,-0.85832614,1.9518976,1.7355512,-0.9359596,-1.4950114,0.30537495,-1.0582062,1.3845112,-0.21072695,0.41314784,-0.25469336,-0.16049194,-0.68361616,0.7418045,-1.5727187,0.56313235,0.25168312,-0.14846039,-0.64008546,0.6958941,0.92113614,-0.056584775,0.14622511,0.3562647,-1.3395281,0.2995994,0.19640358,0.0,1.0,0.0,0.0,0.0,0.0,0.0,-0.48950803,0.28361616,-0.19180447,0.683856,-10.518593,-13.93981,1.2624979,-14.858159,-0.03848672,0.1302123
-5.7191906,16.897072,0.16623831,3.5800183,-0.3844944,-0.37390715,0.16622745,-0.82895786,0.042779103,-0.6097413,0.77082443,-0.40258172,0.57485557,-0.26129982,0.813666,-1.083838,-2.059664,-0.7812437,1.9116395,1.7930368,-0.96208954,0.88167113,-1.0860045,-2.009856,-0.84445304,1.9486513,1.7396826,-0.93843055,-1.4870028,0.17956722,-1.1357118,1.3881886,-0.36266685,0.4135534,-0.2451082,-0.1762085,-0.677989,0.74358046,-1.5711464,0.5625693,0.1529098,-0.16183853,-0.63725066,0.69714034,0.92578727,-0.056184467,0.15350813,0.340876,-1.3334168,0.2896793,0.10260715,0.0,1.0,0.0,0.0,0.0,0.0,0.0,-0.47379148,0.277989,-0.19358045,0.8215904,-12.592518,-7.652974,0.36287308,-15.212178,0.14295578,0.7917106
0.54132044,44.863335,9.466528,7.037484,-0.17822725,0.016016424,0.21845788,-0.8182059,0.08063602,-0.6063815,0.7771242,-0.42724955,0.59353316,-0.23359843,0.7998505,-1.077941,-2.0704942,-0.7667406,1.9059263,1.7990359,-0.9617904,0.8668891,-1.0847056,-2.0213425,-0.8305601,1.944094,1.7438252,-0.9407901,-1.4756628,0.11295154,-1.153657,1.3883643,-0.48146477,0.4135667,-0.234799,-0.19190216,-0.67236614,0.74437875,-1.5335319,0.5709749,0.106665015,-0.17504501,-0.6343515,0.697824,0.9300523,-0.055164404,0.16120309,0.3255353,-1.3137854,0.30070743,0.058342643,0.0,1.0,0.0,0.0,0.0,0.0,0.0,-0.45809782,0.27236614,-0.19437873,1.0228157,-6.751688,-1.5192509,-0.17352104,-11.573416,-0.14625788,0.6802082
-5.0924153,22.01945,2.5388823,4.5597167,0.118731424,-0.2760188,0.22883366,-0.8291254,-0.07896615,-0.66636485,0.7712363,-0.45426726,0.5523556,-0.16754177,0.78397655,-1.0926023,-2.087979,-0.75343645,1.8986672,1.7990607,-0.95754427,0.85215485,-1.0845015,-2.033064,-0.8167055,1.938596,1.7479379,-0.9429988,-1.4727288,-0.010647552,-1.1776155,1.38461,-0.57295835,0.4103985,-0.21667156,-0.20723724,-0.6666348,0.74482757,-1.53336,0.57439816,0.027647635,-0.18823051,-0.6314714,0.6977924,0.93397284,-0.053478114,0.16897635,0.31029293,-1.3166462,0.29456514,-0.022066701,0.0,1.0,0.0,0.0,0.0,0.0,0.0,-0.44276273,0.2666348,-0.19482756,0.29263496,-12.395697,-2.1790266,-0.34542084,-9.290838,-0.31695962,1.6738027
-4.5268393,43.19554,8.154045,8.637245,0.32890487,-0.036954403,0.24734125,-0.8279221,-0.03889125,-0.67573017,0.7728066,-0.48828807,0.5510151,-0.037894655,0.7693626,-1.0883906,-2.100637,-0.7394249,1.8897672,1.8030394,-0.9467883,0.8374225,-1.0851367,-2.0449805,-0.8028932,1.9323672,1.7520032,-0.94494355,-1.4736435,-0.08145507,-1.1949732,1.3798747,-0.6405886,0.4047862,-0.18772078,-0.22245789,-0.6608043,0.74475133,-1.5169599,0.58648884,-0.016823107,-0.20139503,-0.62853813,0.6972066,0.93753743,-0.051194645,0.17682007,0.29519036,-1.3134631,0.3034305,-0.069362916,0.0,1.0,0.0,0.0,0.0,0.0,0.0,-0.4275421,0.26080427,-0.19475132,-0.1695633,-7.192139,-1.252842,-0.50473213,-7.1447015,-0.68982244,2.7172148
-8.418655,13.538625,-0.11486244,3.9892588,0.4348095,-0.40941077,0.26572874,-0.827985,-0.22143902,-0.7001481,0.7664135,-0.49556163,0.5348452,-0.023237463,0.754624,-1.1072806,-2.1149952,-0.72625184,1.8828111,1.8054878,-0.9472673,0.8226749,-1.087044,-2.0571303,-0.78913265,1.9256305,1.7560182,-0.9465991,-1.4748908,-0.22724544,-1.2212963,1.3752118,-0.68480414,0.40027988,-0.15838936,-0.2376175,-0.65494394,0.74383104,-1.5154432,0.58590245,-0.11708549,-0.2147026,-0.625669,0.69579566,0.9408013,-0.04820195,0.18444589,0.2802662,-1.3331507,0.29183805,-0.16376294,0.0,1.0,0.0,0.0,0.0,0.0,0.0,-0.41238248,0.25494394,-0.19383103,-0.069093704,-14.602023,-2.5446892,-0.32951832,-4.463327,-0.49737096,2.8675675
-7.775964,18.078047,1.2869695,4.634978,0.5528126,-0.3186462,0.30054635,-0.826123,-0.25256896,-0.6940268,0.765602,-0.50138897,0.5497261,0.092197515,0.7400626,-1.1123009,-2.126533,-0.71257246,1.8754915,1.8109908,-0.93737936,0.8079225,-1.0903342,-2.069462,-0.7754118,1.9185847,1.7600026,-0.94790184,-1.4751852,-0.36330608,-1.236627,1.3714752,-0.71128756,0.3975374,-0.12113428,-0.25275993,-0.64908934,0.7419395,-1.5134758,0.5854488,-0.20802583,-0.22821045,-0.62287354,0.69350517,0.943787,-0.044523142,0.19170114,0.26558307,-1.3530289,0.28588018,-0.25000903,0.0,1.0,0.0,0.0,0.0,0.0,0.0,-0.39724004,0.24908933,-0.19193947,0.01168251,-13.647962,-1.4122486,-0.24170876,-2.7298808,-0.3626883,3.6709218
-9.783616,8.077547,-1.5224366,3.287509,0.5654849,-0.43099153,0.31114113,-0.8251017,-0.36464056,-0.71498984,0.77674884,-0.52849007,0.5244292,0.17085932,0.7254123,-1.1267983,-2.140961,-0.6977369,1.8657357,1.8124455,-0.93081594,0.79317963,-1.0951788,-2.0819895,-0.76165694,1.9113063,1.7639451,-0.9488002,-1.4737093,-0.5247184,-1.2581707,1.3777349,-0.7332692,0.39282307,-0.07939876,-0.2678852,-0.64323926,0.7391086,-1.5119627,0.5848635,-0.30809706,-0.2419815,-0.62017846,0.69023365,0.9465252,-0.0401198,0.19848113,0.25116846,-1.3820766,0.27482542,-0.35200676,0.0,1.0,0.0,0.0,0.0,0.0,0.0,-0.38211477,0.24323925,-0.18910861,0.24838448,-16.16665,-2.160883,0.87952614,-2.1669984,-0.5770922,4.1891007
-8.930544,8.95294,-1.2321389,2.7399092,0.509336,-0.39346528,0.36184502,-0.8234164,-0.4355232,-0.72555095,0.76675934,-0.53119415,0.5112907,0.27270707,0.71083796,-1.1387311,-2.1545446,-0.684981,1.8581868,1.8150742,-0.9215295,0.7784606,-1.1016047,-2.0947344,-0.74787444,1.9038638,1.7678323,-0.94924176,-1.47102,-0.6821136,-1.2798947,1.3793935,-0.7478522,0.38690418,-0.03226162,-0.28299522,-0.63739514,0.73527783,-1.510451,0.58427876,-0.40806824,-0.2560253,-0.6175761,0.6859469,0.94902766,-0.03497069,0.20473887,0.2370767,-1.4091276,0.26655206,-0.4539771,0.0,1.0,0.0,0.0,0.0,0.0,0.0,-0.36700475,0.23739514,-0.18527782,0.36900043,-15.773177,-2.1734715,0.4443407,-1.4432311,-0.73233247,4.7490253
-8.340192,18.813644,1.2933115,4.269202,0.60852385,-0.22164148,0.38220403,-0.82681113,-0.48247,-0.7225213,0.76232135,-0.51830816,0.49100175,0.37232888,0.6957795,-1.1498517,-2.1669865,-0.6716423,1.852033,1.8169324,-0.9120089,0.7637483,-1.1094191,-2.1076243,-0.7341053,1.8963565,1.7716451,-0.94917977,-1.4711827,-0.8147884,-1.2914202,1.3768351,-0.7522928,0.3789729,0.019044705,-0.29808998,-0.63155675,0.73044807,-1.5089408,0.5836946,-0.50793946,-0.27030563,-0.6149862,0.6807592,0.95129436,-0.029145105,0.21047765,0.22335778,-1.431044,0.26808816,-0.54043275,0.0,1.0,0.0,0.0,0.0,0.0,0.0,-0.35191,0.23155674,-0.18044806,0.043988228,-13.335764,-1.0083437,-0.0031232834,-0.58048964,-0.9936154,5.157543
-7.823287,27.60442,3.3687553,5.5837865,0.64464104,-0.049972177,0.3741925,-0.8298909,-0.53410614,-0.7267124,0.75569475,-0.5272939,0.50224715,0.3858849,0.6807592,-1.1628298,-2.1802955,-0.65853584,1.8436271,1.8218697,-0.9105913,0.74901116,-1.1183894,-2.1205866,-0.72040194,1.8888034,1.775393,-0.94864476,-1.4744785,-0.9246709,-1.2966272,1.36883,-0.7571122,0.37255517,0.06505314,-0.31316948,-0.6257241,0.72462034,-1.5074322,0.583111,-0.6077108,-0.28476143,-0.61231995,0.67480373,0.95332295,-0.022726653,0.21575436,0.2100209,-1.4463946,0.2782671,-0.61415863,0.0,1.0,0.0,0.0,0.0,0.0,0.0,-0.3368305,0.22572407,-0.17462033,-0.3067732,-11.08433,-0.24366379,-0.58186054,-0.7548094,-0.8833945,4.607009
-6.084206,31.79747,4.523301,5.546292,0.6124821,0.059493124,0.40373856,-0.8284489,-0.5963749,-0.71920085,0.7465215,-0.5348664,0.51432604,0.45757508,0.66616625,-1.1780269,-2.1925068,-0.6457498,1.8353168,1.8268256,-0.9028872,0.73424447,-1.1283858,-2.1335223,-0.7068197,1.8811892,1.7790914,-0.9476491,-1.4773538,-1.024961,-1.291292,1.3553288,-0.76395494,0.36820927,0.11106047,-0.32823372,-0.61989737,0.7177956,-1.505925,0.582528,-0.7073824,-0.29932404,-0.60952115,0.66815543,0.95511234,-0.015782876,0.22059105,0.19710632,-1.4555606,0.2928753,-0.682341,0.0,1.0,0.0,0.0,0.0,0.0,0.0,-0.32176626,0.21989736,-0.1677956,-0.28951168,-10.1340885,0.8880377,-1.1548042,-1.0370612,-0.69617033,4.5997887
-3.5804453,37.186646,5.9593053,5.4164906,0.59228045,0.15282589,0.42748258,-0.8284611,-0.6371915,-0.71366745,0.7232143,-0.51564014,0.4970555,0.48220024,0.65139836,-1.1921049,-2.204889,-0.6344983,1.8296252,1.8287969,-0.8994291,0.71945393,-1.1392729,-2.1463754,-0.6934795,1.8735946,1.7827473,-0.9462299,-1.4797293,-1.1103029,-1.2820814,1.3274621,-0.7595552,0.36355376,0.15222166,-0.34321213,-0.6140137,0.71067995,-1.494445,0.5903748,-0.71900403,-0.3139286,-0.60655236,0.66087514,0.95667094,-0.008375923,0.2249675,0.1846625,-1.4573199,0.31096655,-0.74416834,0.0,1.0,0.0,0.0,0.0,0.0,0.0,-0.30678785,0.21401367,-0.16067994,-0.27182102,-8.651304,1.517868,-2.5528193,-0.13908148,-0.82900524,4.1408567
-1.5234091,50.539116,9.216338,7.936144,0.8020091,0.33903158,0.38019937,-0.8232907,-0.64989257,-0.68762344,0.73317885,-0.509777,0.49897012,0.5162827,0.63712484,-1.2042621,-2.2151377,-0.6201616,1.8226169,1.8326442,-0.8946016,0.7046691,-1.1508048,-2.1590095,-0.68033874,1.8660758,1.7863485,-0.9444179,-1.4784371,-1.1680101,-1.2548041,1.3098216,-0.7514678,0.3579668,0.190714,-0.35796356,-0.6080334,0.7031988,-1.4684024,0.60050607,-0.7573885,-0.3284893,-0.6033411,0.6531538,0.958006,-0.0006537477,0.22892328,0.17267886,-1.4510518,0.33736882,-0.78260887,0.0,1.0,0.0,0.0,0.0,0.0,0.0,-0.2920364,0.20803341,-0.15319878,0.029277802,-5.91259,3.3923626,-1.7003059,0.15619993,-0.8684695,3.7971377
0.80586433,60.030415,11.314668,9.233651,0.8597326,0.4444301,0.35857674,-0.81937844,-0.6615768,-0.68177897,0.71648186,-0.50127286,0.4898691,0.5207681,0.62273127,-1.2169625,-2.2271874,-0.60869056,1.8159485,1.8353354,-0.8923411,0.68991864,-1.1627352,-2.1713614,-0.6673945,1.8586637,1.7898917,-0.9422636,-1.4743485,-1.2019898,-1.2259127,1.2892098,-0.74048483,0.3519354,0.22335456,-0.37239265,-0.6019447,0.6954447,-1.4343423,0.6115631,-0.7810503,-0.34292412,-0.5998385,0.64515877,0.95912176,0.0072719385,0.2325233,0.16113777,-1.4359757,0.36731234,-0.8064782,0.0,1.0,0.0,0.0,0.0,0.0,0.0,-0.27760732,0.20194468,-0.14544469,0.25968552,-3.553915,3.7050724,-2.0756245,0.29990673,-0.92134476,3.170544
0.50012946,65.95206,12.123444,10.447753,0.9631741,0.4644804,0.34121847,-0.82483214,-0.66610825,-0.68973756,0.6889028,-0.4577608,0.4031557,0.5460036,0.6074354,-1.229346,-2.2403352,-0.59850425,1.8128875,1.8302073,-0.88766325,0.6751815,-1.1748602,-2.1835184,-0.65473634,1.8514761,1.793317,-0.93980694,-1.474078,-1.2163212,-1.2092797,1.2578158,-0.71447444,0.33824763,0.25277603,-0.38646126,-0.5957594,0.68750465,-1.3975691,0.6207616,-0.7974506,-0.3571949,-0.5960252,0.6369872,0.960033,0.015391728,0.23578554,0.15001632,-1.4183291,0.398844,-0.82183653,0.0,1.0,0.0,0.0,0.0,0.0,0.0,-0.26353872,0.19575939,-0.13750464,-0.14362335,-1.5966654,2.5488615,-3.1972885,1.7156243,-1.6719043,2.8369398
2.871389,69.3783,12.760254,10.346123,0.96583986,0.4346547,0.3523905,-0.8171653,-0.6700474,-0.68702865,0.6637489,-0.41535154,0.31862295,0.5767395,0.593465,-1.2418649,-2.2522213,-0.58836144,1.8099409,1.8251792,-0.882133,0.660473,-1.1870406,-2.1955688,-0.64246064,1.8446552,1.7965462,-0.9370687,-1.4704387,-1.2191205,-1.2005599,1.2170544,-0.67441076,0.3168496,0.280442,-0.40013123,-0.5894823,0.67942536,-1.3570426,0.6294541,-0.81054056,-0.37125587,-0.59191036,0.62870055,0.9607585,0.023708023,0.23868614,0.1393196,-1.3960086,0.42818627,-0.832316,0.0,1.0,0.0,0.0,0.0,0.0,0.0,-0.24986875,0.1894823,-0.12942535,0.17006397,-0.43759346,1.804781,-4.185343,3.0670047,-2.4204314,2.6261806
4.9175897,65.40815,12.26974,8.717962,1.223621,0.32831597,0.3501518,-0.81393415,-0.6945666,-0.66665995,0.620823,-0.22895066,0.19315186,0.5854929,0.57907957,-1.2564973,-2.2622347,-0.58037835,1.82176,1.8158615,-0.8785194,0.64581215,-1.1993124,-2.2074893,-0.63071793,1.8387417,1.7994791,-0.9340764,-1.4651453,-1.2302049,-1.1862202,1.1596404,-0.5664354,0.2846842,0.30520162,-0.4134407,-0.5831299,0.6711415,-1.3217237,0.6349472,-0.8330129,-0.38514137,-0.58752084,0.62028646,0.9613859,0.032128938,0.2409248,0.12907335,-1.379769,0.45491618,-0.84558845,0.0,1.0,0.0,0.0,0.0,0.0,0.0,-0.23655927,0.18312988,-0.12114149,0.34606457,-1.2422323,2.296996,-5.8498144,9.935844,-3.517419,2.3909748
7.3932953,65.87892,12.471086,7.8468547,1.2646646,0.2679956,0.35806254,-0.8107628,-0.6907228,-0.6593094,0.5723813,-0.1429343,0.03965463,0.5793078,0.5647359,-1.2683847,-2.27342,-0.5734798,1.8244482,1.8034446,-0.87614566,0.63121235,-1.2116606,-2.2192574,-0.6196771,1.8340873,1.8019977,-0.9308708,-1.4589323,-1.2367951,-1.1710804,1.085062,-0.43444777,0.24005736,0.32543236,-0.42639923,-0.5767307,0.6626328,-1.2868903,0.6392991,-0.85588574,-0.39884377,-0.5828836,0.6117506,0.96198344,0.040591665,0.24229856,0.1192963,-1.361412,0.47877178,-0.8574976,0.0,1.0,0.0,0.0,0.0,0.0,0.0,-0.22360075,0.17673072,-0.11263281,0.43170452,-0.7762909,2.369094,-7.59604,12.353349,-4.75578,1.9465327
13.505907,64.66847,13.141979,5.3755956,1.5103076,0.12666678,0.3870623,-0.7975148,-0.6941816,-0.63625807,0.49056575,0.14509717,-0.21747859,0.5861192,0.55146086,-1.2810788,-2.2828832,-0.57062054,1.8485969,1.7802498,-0.87225884,0.61672413,-1.224066,-2.2308004,-0.60962814,1.8314239,1.8039105,-0.9274834,-1.446223,-1.2420276,-1.1462327,0.9775378,-0.2128934,0.17389145,0.34313378,-0.4390297,-0.57030845,0.6538666,-1.2546221,0.6425012,-0.882409,-0.4123783,-0.57804275,0.6031127,0.9626697,0.048946377,0.24240647,0.11004773,-1.3439771,0.49774635,-0.86696404,0.0,1.0,0.0,0.0,0.0,0.0,0.0,-0.21097028,0.17030844,-0.10386658,1.070404,-0.60851574,3.3086061,-10.944759,21.332878,-6.9488974,1.7528057
10.144715,70.88777,13.9418,8.501836,1.8154964,0.2207843,0.27008298,-0.80644864,-0.68569463,-0.5918975,0.47847363,0.17295426,-0.33241045,0.5674144,0.5360793,-1.2926354,-2.2899902,-0.56178075,1.8487194,1.7706695,-0.87074196,0.6023046,-1.2364638,-2.2419305,-0.6005264,1.8307989,1.8051233,-0.9239566,-1.4411645,-1.2393547,-1.0990249,0.88702977,-0.015092613,0.10255085,0.3557939,-0.45132065,-0.5638726,0.6449092,-1.2201508,0.64354646,-0.89912844,-0.42575645,-0.5729692,0.5944752,0.96349156,0.05706176,0.24120413,0.10123449,-1.3292729,0.5222446,-0.8636864,0.0,1.0,0.0,0.0,0.0,0.0,0.0,-0.19867933,0.16387257,-0.09490919,0.3122568,0.17592907,5.581093,-9.22929,18.938879,-7.46361,1.2494922
15.1658,72.04232,14.498825,7.5230827,1.5771983,0.20007426,0.28041625,-0.7831245,-0.6896309,-0.5584634,0.43247214,0.21850082,-0.45692122,0.566492,0.5239921,-1.3054268,-2.297777,-0.55727917,1.852649,1.7594312,-0.86730736,0.5880147,-1.2488387,-2.252493,-0.5922866,1.8318793,1.8055933,-0.9203231,-1.4254961,-1.2369652,-1.0392209,0.8021533,0.14641652,0.027640998,0.36563727,-0.46322823,-0.55743575,0.63581765,-1.180501,0.643136,-0.9114129,-0.43891525,-0.5676999,0.58587813,0.96443844,0.0649015,0.23880756,0.09282872,-1.3051339,0.53995365,-0.85935056,0.0,1.0,0.0,0.0,0.0,0.0,0.0,-0.18677175,0.15743575,-0.085817635,1.3662815,0.16672611,6.826687,-8.697319,15.353229,-7.7719836,0.933218
14.708373,78.92254,15.0001745,9.23749,1.2397959,0.29853946,0.29231614,-0.7863607,-0.65699005,-0.54661334,0.37899652,0.1468451,-0.52281415,0.5718576,0.5093787,-1.3145376,-2.3071542,-0.5543869,1.8465638,1.7533119,-0.8631373,0.57384884,-1.2610381,-2.262517,-0.5849005,1.8339423,1.8053452,-0.9166056,-1.4142869,-1.214443,-0.9869491,0.7166343,0.22367927,-0.043172244,0.3734256,-0.47467613,-0.5510361,0.6266961,-1.1328274,0.6386438,-0.91176003,-0.4517517,-0.5622709,0.57736236,0.96542126,0.07259135,0.23557869,0.08482331,-1.2695955,0.5549699,-0.8499235,0.0,1.0,0.0,0.0,0.0,0.0,0.0,-0.17532384,0.15103611,-0.0766961,0.9168863,2.1816254,6.087208,-8.784712,6.9201946,-7.3214836,0.6637752
15.386724,73.30884,13.4009075,6.8997226,0.83445215,0.25870615,0.39260375,-0.78905004,-0.65546983,-0.5531177,0.27544183,0.22716357,-0.5763724,0.5784802,0.49494383,-1.326585,-2.3178287,-0.5573563,1.8566587,1.747708,-0.85875756,0.5597497,-1.2730105,-2.2721987,-0.5786262,1.8366638,1.8044295,-0.9128166,-1.4089619,-1.191567,-0.9597801,0.5970467,0.28599703,-0.10844412,0.38035938,-0.48566818,-0.54470277,0.6174969,-1.0880561,0.63135207,-0.92225045,-0.46419907,-0.5567353,0.5688281,0.9663918,0.08029647,0.23165879,0.07728824,-1.2303334,0.563735,-0.85561097,0.0,1.0,0.0,0.0,0.0,0.0,0.0,-0.1643318,0.14470276,-0.067496896,0.3623724,2.2378683,3.4231186,-12.161839,5.549306,-6.732334,0.58519244
20.237953,70.52072,13.144648,3.9461517,0.4472601,0.28643435,0.5150161,-0.7843024,-0.64010614,-0.5176224,0.16142848,0.2567063,-0.5896316,0.554788,0.4813195,-1.3370211,-2.323961,-0.5624834,1.8623345,1.7454664,-0.8573378,0.5456954,-1.2847254,-2.281594,-0.57385784,1.8398969,1.8029284,-0.90898466,-1.4048454,-1.164928,-0.93043107,0.4360647,0.33393535,-0.16433573,0.38376877,-0.49620438,-0.5384681,0.60816616,-1.0420895,0.62065494,-0.93649274,-0.47618103,-0.5511615,0.56017095,0.9673337,0.08808117,0.22705826,0.070369005,-1.1811466,0.565451,-0.87023526,0.0,1.0,0.0,0.0,0.0,0.0,0.0,-0.1537956,0.13846812,-0.058166146,0.25782585,2.645278,3.5187721,-16.31282,4.2190733,-5.7424994,0.23480058
16.14446,76.80614,13.779879,7.6715903,0.7891238,0.401622,0.38749215,-0.78352743,-0.617212,-0.4867802,0.15380932,0.26181063,-0.5895564,0.55995506,0.46734267,-1.3464466,-2.330272,-0.5584769,1.866078,1.7439728,-0.85298914,0.5316689,-1.2961257,-2.290646,-0.5704428,1.8434924,1.8009396,-0.9051229,-1.4023842,-1.131934,-0.89480466,0.30936453,0.36646026,-0.2108832,0.38670313,-0.50627136,-0.53234196,0.5987662,-0.9953111,0.60983115,-0.9414423,-0.48770523,-0.54552436,0.55146265,0.9682357,0.09586853,0.22188666,0.06399365,-1.1373614,0.5728247,-0.8723359,0.0,1.0,0.0,0.0,0.0,0.0,0.0,-0.14372861,0.13234195,-0.048766196,0.11129379,3.281331,4.0766478,-12.860733,2.7689695,-4.8112006,0.19671917
20.001816,76.77767,14.71163,6.8574486,1.0017685,0.46717057,0.38213876,-0.77442575,-0.61438173,-0.40102562,0.06591254,0.35040674,-0.6048725,0.5553407,0.45422632,-1.3575639,-2.3307486,-0.56385154,1.878533,1.7404523,-0.8495888,0.5176985,-1.3072493,-2.2990193,-0.5683114,1.8475766,1.7985381,-0.9012383,-1.3956527,-1.1059515,-0.8168177,0.18043701,0.4212704,-0.2503884,0.3887974,-0.51587677,-0.5263357,0.5893326,-0.9492585,0.5975156,-0.9445941,-0.49878883,-0.53981423,0.5427712,0.9691491,0.1034178,0.21603869,0.058154702,-1.0935161,0.57964706,-0.8695309,0.0,1.0,0.0,0.0,0.0,0.0,0.0,-0.1341232,0.12633571,-0.03933257,0.5530834,2.6042461,8.196926,-13.083643,5.127758,-4.0797563,0.1412332
28.24051,74.03804,15.62024,3.215454,0.874689,0.5204396,0.5028515,-0.7682652,-0.60429466,-0.30427057,-0.073971115,0.41126856,-0.6075903,0.5516026,0.440872,-1.3676788,-2.3294463,-0.5757085,1.8887035,1.737779,-0.84607804,0.5038178,-1.3181479,-2.3062568,-0.5677697,1.8523283,1.7957944,-0.89733684,-1.3858083,-1.0843465,-0.69225335,0.011496079,0.49234152,-0.28248522,0.3904211,-0.52501297,-0.5204778,0.5798612,-0.902372,0.5819603,-0.94903857,-0.5093727,-0.53408146,0.5340891,0.97014624,0.1104778,0.20928724,0.05300658,-1.0411,0.5797953,-0.86922413,0.0,1.0,0.0,0.0,0.0,0.0,0.0,-0.124987006,0.120477766,-0.029861212,0.8874178,2.2004604,12.668347,-17.086504,6.939137,-3.2688081,0.12666583
22.910357,98.49294,20.597912,13.20978,2.2794747,0.9159013,0.17988262,-0.77145946,-0.5528965,-0.1074778,-0.024810417,0.4602481,-0.5895838,0.56645167,0.42667186,-1.3734375,-2.3170044,-0.57025075,1.8983531,1.736836,-0.8406917,0.49000645,-1.3286612,-2.3115218,-0.56835544,1.8578528,1.7927924,-0.8934125,-1.3798355,-1.0402237,-0.4710177,-0.08261351,0.57247305,-0.30633575,0.39306048,-0.53362846,-0.5147853,0.57064724,-0.8476122,0.56641746,-0.91333944,-0.5195122,-0.5281973,0.5258302,0.97130775,0.11648667,0.20162691,0.048359573,-0.99955904,0.5993255,-0.81295294,0.0,1.0,0.0,0.0,0.0,0.0,0.0,-0.11637151,0.114785284,-0.020647228,0.5069256,4.463482,22.227652,-9.632061,8.029795,-2.3896098,0.22640824
35.709805,106.30066,25.168175,11.6536875,2.709187,1.1687279,0.25580686,-0.7588262,-0.54302263,0.20101179,-0.15427469,0.53632075,-0.57921076,0.5950673,0.41412383,-1.3829634,-2.2914207,-0.5837829,1.9114848,1.7348714,-0.83390576,0.4762926,-1.3387454,-2.313449,-0.57007337,1.864295,1.7896073,-0.88944,-1.3686956,-0.99748856,-0.100637585,-0.20226085,0.6691998,-0.32231918,0.39861375,-0.5416393,-0.5092926,0.56195295,-0.78561133,0.54486775,-0.85610974,-0.5291462,-0.52213573,0.51832974,0.9727736,0.12072529,0.1928089,0.04429077,-0.9471052,0.61577326,-0.7305844,0.0,1.0,0.0,0.0,0.0,0.0,0.0,-0.10836065,0.1092926,-0.011952937,1.0628223,4.3588758,36.847298,-12.188384,10.021914,-1.4438748,0.54201484
36.05259,128.8445,29.02372,17.429607,3.0574343,1.406617,0.18294622,-0.7558347,-0.43106744,0.2911145,-0.22449106,0.60874915,-0.53933054,0.5938892,0.40070915,-1.3818521,-2.2843375,-0.5925225,1.92517,1.7356743,-0.83005106,0.46269074,-1.3479782,-2.3117979,-0.57302064,1.8717958,1.7863314,-0.8854145,-1.3572562,-0.89817196,0.25185153,-0.32605565,0.7793693,-0.32852155,0.40388918,-0.5489464,-0.50406575,0.5541096,-0.713012,0.5166289,-0.7623531,-0.5382099,-0.5158925,0.5119286,0.9745529,0.12290836,0.1829627,0.04080172,-0.88852346,0.63380104,-0.6114517,0.0,1.0,0.0,0.0,0.0,0.0,0.0,-0.101053596,0.104065746,-0.0041095614,1.1755466,10.029864,34.697598,-12.5341835,11.762821,-0.29076934,0.5258143
