Afshin1997/kuka_rl_ros2/src/catch_and_throw/input_files/idealpd/polynomial_regressor/optimizer_files/env_305_data.csv
torque0,torque1,torque2,torque3,torque4,torque5,torque6,action0,action1,action2,action3,action4,action5,action6,set_target_0,set_target_1,set_target_2,set_target_3,set_target_4,set_target_5,set_target_6,joint_pos_0,joint_pos_1,joint_pos_2,joint_pos_3,joint_pos_4,joint_pos_5,joint_pos_6,joint_vel_0,joint_vel_1,joint_vel_2,joint_vel_3,joint_vel_4,joint_vel_5,joint_vel_6,tennisball_pos_0,tennisball_pos_1,tennisball_pos_2,tennisball_lin_vel_0,tennisball_lin_vel_1,tennisball_lin_vel_2,end_effector_pos_0,end_effector_pos_1,end_effector_pos_2,end_effector_rot_0,end_effector_rot_1,end_effector_rot_2,end_effector_rot_3,end_effector_lin_vel_0,end_effector_lin_vel_1,end_effector_lin_vel_2,obs_task_0,obs_task_1,obs_task_2,obs_task_3,obs_task_4,obs_task_5,obs_task_6,to_final_target_0,to_final_target_1,to_final_target_2,joint_acc_0,joint_acc_1,joint_acc_2,joint_acc_3,joint_acc_4,joint_acc_5,joint_acc_6
0.0,0.0,0.0,0.0,0.0,0.0,0.0,0.0,0.0,0.0,0.0,0.0,0.0,0.0,1.7802359,-1.0646509,-1.8151424,-1.1170107,1.9373155,1.1170107,-0.91629785,1.7802359,-1.0646509,-1.8151424,-1.1170107,1.9373155,1.1170107,-0.91629785,0.0,0.0,0.0,0.0,0.0,0.0,0.0,2.9420757,-0.4891777,0.0764382,-3.1398375,-0.20662974,5.630152,0.5304165,-0.45449448,0.693097,0.5745483,0.17512383,0.15255436,0.7848268,0.0,0.0,0.0,1.0,0.0,0.0,0.0,0.0,0.0,0.0,-3.5920758,0.0891777,0.47356182,0.0,0.0,0.0,0.0,0.0,0.0,0.0
0.0,0.0,0.0,0.0,0.0,0.0,0.0,0.0,0.0,0.0,0.0,0.0,0.0,0.0,1.7802359,-1.0646509,-1.8151424,-1.1170107,1.9373155,1.1170107,-0.91629785,1.7802359,-1.0646509,-1.8151424,-1.1170107,1.9373155,1.1170107,-0.91629785,0.0,0.0,0.0,0.0,0.0,0.0,0.0,2.9420757,-0.4891777,0.0764382,-3.1398375,-0.20662974,5.630152,0.5304165,-0.45449448,0.693097,0.5745483,0.17512383,0.15255436,0.7848268,0.0,0.0,0.0,1.0,0.0,0.0,0.0,0.0,0.0,0.0,-3.5920758,0.0891777,0.47356182,0.0,0.0,0.0,0.0,0.0,0.0,0.0
0.0,0.0,0.0,0.0,0.0,0.0,0.0,0.0,0.0,0.0,0.0,0.0,0.0,0.0,1.7802359,-1.0646509,-1.8151424,-1.1170107,1.9373155,1.1170107,-0.91629785,1.7802359,-1.0646509,-1.8151424,-1.1170107,1.9373155,1.1170107,-0.91629785,0.0,0.0,0.0,0.0,0.0,0.0,0.0,2.9420757,-0.4891777,0.0764382,-3.1398375,-0.20662974,5.630152,0.5304165,-0.45449448,0.693097,0.5745483,0.17512383,0.15255436,0.7848268,0.0,0.0,0.0,1.0,0.0,0.0,0.0,0.0,0.0,0.0,-3.5920758,0.0891777,0.47356182,0.0,0.0,0.0,0.0,0.0,0.0,0.0
-176.0,57.268066,-10.460907,110.0,10.36042,4.33896,-3.8993123,-0.7931093,0.28415668,-0.54469615,0.74743515,-0.008399341,0.67755216,-0.57599217,1.700925,-1.0362352,-1.869612,-1.0422672,1.9364755,1.1847659,-0.9738971,1.7789198,-1.0627359,-1.820893,-1.1116263,1.9408536,1.1220309,-0.9172906,-0.17509696,0.2548528,-0.76639915,0.71822345,0.47124863,0.66802615,-0.13191149,2.9107008,-0.49124527,0.13196105,-3.1366982,-0.20642315,5.526337,0.52830887,-0.45780945,0.69382524,0.5783933,0.17354403,0.15153326,0.7825479,-0.280705,-0.4415604,0.0969722,1.0,0.0,0.0,0.0,0.0,0.0,0.0,-3.560701,0.091245264,0.41803896,-17.414076,25.300577,-76.54151,71.947,46.94783,66.357506,-13.067314
-176.0,-61.23181,-56.536903,105.14936,11.382384,0.23715034,-3.1713724,-0.7911129,-0.32900745,-0.55979896,0.7138458,0.040009037,0.6598882,-0.57484376,1.6998085,-1.0956366,-1.8768729,-1.0402417,1.9448545,1.1880196,-0.974775,1.7774512,-1.061231,-1.8356502,-1.0963503,1.9470506,1.134812,-0.91678995,-0.13529636,0.11309844,-1.710423,1.8008953,0.6683387,1.4733679,0.11235151,2.8793573,-0.4933052,0.18644652,-3.1335623,-0.20621677,5.4226255,0.52375793,-0.46648026,0.6941464,0.5867054,0.17001466,0.1489088,0.77762324,-0.5145401,-1.0080113,0.011558833,1.0,0.0,0.0,0.0,0.0,0.0,0.0,-3.5293574,0.0933052,0.3635535,4.582372,-14.999947,-93.8843,109.34577,19.442547,78.059006,24.929285
-152.58698,76.72742,19.416512,84.97178,8.260512,6.566002,-1.5661597,-0.7494179,0.05472787,0.1838521,0.68156105,0.22763605,0.6935117,-0.46329686,1.7025094,-1.0557582,-1.817265,-1.0281942,1.9698142,1.2041632,-0.9631196,1.7729384,-1.060388,-1.8503006,-1.0765272,1.9535947,1.1494623,-0.9159021,-0.55616164,0.072197326,-1.377786,2.0451012,0.64471036,1.457277,0.08091108,2.8480453,-0.49536514,0.23989564,-3.1304293,-0.2060106,5.319018,0.51642513,-0.47826385,0.6955139,0.59765404,0.16505156,0.14481838,0.7711,-0.8135574,-1.2276438,0.18218274,1.0,0.0,0.0,0.0,0.0,0.0,0.0,-3.4980454,0.09536514,0.31010437,-41.93728,-4.894173,34.89308,25.096655,-3.9191842,-3.098464,-3.1408281
-99.82951,58.40792,24.923334,48.36332,5.9414535,6.1168838,0.20056409,-0.75621796,-0.25870848,0.34367228,0.6863877,0.3442918,0.67489415,-0.5524527,1.6973165,-1.0862588,-1.8159333,-1.0078884,1.9880239,1.2169517,-0.97114736,1.7642142,-1.0612959,-1.8585002,-1.0568453,1.959681,1.1631609,-0.91554445,-0.9780059,-0.14657559,-0.6278114,1.9439906,0.590624,1.3381938,0.021188127,2.8167648,-0.49742508,0.29230946,-3.1272995,-0.20580463,5.2155137,0.50657845,-0.49123,0.6981238,0.60921,0.15914802,0.13862547,0.764407,-1.0529085,-1.3077974,0.2903707,1.0,0.0,0.0,0.0,0.0,0.0,0.0,-3.466765,0.09742507,0.25769055,-42.242397,-22.31529,76.85169,-9.647083,-7.2295666,-12.643194,-5.8400106
-45.337925,98.81761,43.1806,26.840532,3.084253,6.319662,0.7656226,-0.7776031,-0.08524357,0.37544855,0.6930431,0.41978168,0.6913987,-0.55537164,1.6864538,-1.0698202,-1.8209554,-0.987541,2.0016592,1.2323008,-0.9710816,1.7519652,-1.0634035,-1.8590915,-1.0393606,1.9653974,1.1755053,-0.9158439,-1.3076162,-0.23333175,0.13591093,1.6834347,0.5603884,1.1988025,-0.04758882,2.7855148,-0.4994812,0.34368902,-3.124173,-0.20559886,5.112113,0.4948578,-0.5039444,0.70201373,0.6202568,0.15235014,0.13049485,0.75831527,-1.2240618,-1.2474258,0.42175144,1.0,0.0,0.0,0.0,0.0,0.0,0.0,-3.435515,0.099481195,0.20631099,-33.11467,-9.072653,77.99641,-26.038265,-4.4991374,-14.253378,-7.0841537
-11.270554,101.59671,40.63925,12.782714,0.9785727,4.5785627,0.6491868,-0.7930698,-0.039450157,0.31377172,0.6897352,0.43159723,0.6669189,-0.5908853,1.6726582,-1.0673485,-1.8277143,-0.9703871,2.008557,1.2421972,-0.97493243,1.737456,-1.065698,-1.8540637,-1.0244642,1.9709783,1.1865565,-0.9168052,-1.4990944,-0.22914095,0.6283638,1.4247997,0.5545183,1.0740442,-0.11322374,2.7542973,-0.5015335,0.39403537,-3.1210494,-0.2053933,5.008816,0.48201942,-0.5157242,0.7068968,0.6305376,0.14493787,0.1212822,0.75279874,-1.3164586,-1.1440346,0.5074762,1.0,0.0,0.0,0.0,0.0,0.0,0.0,-3.4042974,0.1015335,0.15596464,-19.262695,0.12408495,50.181683,-25.942825,-1.3741612,-12.414265,-6.838341
9.126236,137.08058,46.554928,11.362353,-0.87988925,3.939363,-0.020411849,-0.8090642,0.2327813,0.16344635,0.68197435,0.42519405,0.67106736,-0.5754487,1.6565496,-1.0424199,-1.8377191,-0.9562668,2.0134976,1.2536632,-0.9743501,1.7218786,-1.0663599,-1.8468311,-1.0116087,1.976582,1.1965166,-0.91835016,-1.5777031,-0.01296223,0.75665563,1.2389445,0.561496,0.9708444,-0.16969478,2.7231102,-0.5035858,0.4433495,-3.117929,-0.20518795,4.9056215,0.46865177,-0.5261574,0.71279967,0.6403941,0.1370526,0.112420544,0.7473108,-1.35538,-0.9994075,0.61371475,1.0,0.0,0.0,0.0,0.0,0.0,0.0,-3.3731103,0.10358581,0.1066505,-8.026648,21.306875,13.378882,-18.59343,0.4185319,-10.040426,-6.0740767
14.763626,136.16054,39.4395,10.34593,-2.022638,2.486939,-0.6348828,-0.8114836,0.363845,-0.046941992,0.67380464,0.36059904,0.66901255,-0.57721055,1.6407303,-1.0299754,-1.8515253,-0.94422823,2.012642,1.2634178,-0.97607124,1.7060953,-1.064195,-1.8407924,-0.99997014,1.9821057,1.2055823,-0.92039007,-1.5791439,0.29232514,0.5538688,1.1388822,0.54937875,0.88598746,-0.2166697,2.6919537,-0.5056381,0.4916325,-3.1148117,-0.2049828,4.8025303,0.45522118,-0.53520966,0.719517,0.6503213,0.1290011,0.105242595,0.7411915,-1.3492479,-0.86256206,0.68741244,1.0,0.0,0.0,0.0,0.0,0.0,0.0,-3.3419538,0.10563812,0.05836752,-0.35266876,30.283117,-20.020508,-9.983468,-1.1989236,-8.161569,-5.082655
15.148743,138.19261,37.415768,12.1398325,-2.1830006,2.014224,-0.88526064,-0.82426554,0.51308626,-0.13780512,0.6577429,0.40478653,0.6592916,-0.57285386,1.6236688,-1.0128864,-1.8545729,-0.9341959,2.0225844,1.2715114,-0.97767544,1.690518,-1.0587038,-1.8377883,-0.9888751,1.987639,1.2138964,-0.9228324,-1.5513618,0.6338495,0.21683699,1.0996071,0.55467796,0.8136365,-0.25471735,2.6608295,-0.5076866,0.5388853,-3.1116974,-0.20477787,4.699542,0.44194317,-0.54297256,0.7269569,0.6606291,0.12097352,0.10032421,0.73407733,-1.329388,-0.73629284,0.7600776,1.0,0.0,0.0,0.0,0.0,0.0,0.0,-3.3108296,0.10768661,0.0111147165,2.5526047,33.918644,-33.476593,-3.9644241,0.57309866,-7.0909977,-4.161742
14.505731,120.00285,31.359331,11.10694,-1.7788644,1.4186643,-0.7893982,-0.81483245,0.56768477,-0.20916273,0.6437078,0.45500195,0.6424029,-0.57711387,1.6090348,-1.0019352,-1.8587046,-0.9245043,2.0331392,1.2781367,-0.9805438,1.6753184,-1.0502828,-1.8381736,-0.97792596,1.9933915,1.2215582,-0.9256057,-1.5102993,0.91090953,-0.12283687,1.0928075,0.5820946,0.75033444,-0.28588295,2.629736,-0.5097313,0.585109,-3.1085863,-0.20457312,4.596657,0.4288864,-0.54968643,0.7349323,0.6713462,0.11312522,0.0974833,0.72594345,-1.3043805,-0.63596433,0.80849785,1.0,0.0,0.0,0.0,0.0,0.0,0.0,-3.279736,0.10973129,-0.035108984,3.898573,27.508497,-33.72879,-0.8504152,2.7546644,-6.365025,-3.442037
13.9104395,103.3688,27.738293,9.924931,-1.2174914,1.260695,-0.53545636,-0.80914474,0.6155113,-0.23372354,0.62564045,0.46907067,0.6532283,-0.5766529,1.5944039,-0.9887317,-1.861546,-0.9153619,2.0402985,1.2868811,-0.983271,1.6605021,-1.039739,-1.8412693,-0.9669921,1.9994569,1.2286707,-0.928647,-1.4727762,1.1016952,-0.3707774,1.0927875,0.6143876,0.6975589,-0.3113159,2.5986729,-0.511776,0.6303046,-3.1054785,-0.20436859,4.4938745,0.41603184,-0.55553055,0.7432749,0.68231577,0.10548092,0.09617205,0.7169867,-1.2843302,-0.55344534,0.8423767,1.0,0.0,0.0,0.0,0.0,0.0,0.0,-3.248673,0.111775964,-0.08030456,3.5566568,18.908548,-24.472565,-0.26671886,3.1867385,-5.420637,-2.8695464
11.789959,87.77719,24.507034,9.333544,-0.60905564,1.2059076,-0.29036036,-0.8053638,0.6463038,-0.25875035,0.6177073,0.48481712,0.6598755,-0.5773322,1.5799657,-0.9751086,-1.8671443,-0.90522134,2.0479386,1.2946583,-0.9863802,1.6459795,-1.0279096,-1.8460681,-0.9560582,2.0058427,1.2353255,-0.9319076,-1.4460216,1.2094713,-0.51496553,1.0925767,0.6465146,0.6542215,-0.33214414,2.5676413,-0.51382065,0.67447317,-3.1023736,-0.20416427,4.3911953,0.4033041,-0.5606842,0.75185156,0.6933469,0.09799523,0.09578689,0.70745444,-1.2732953,-0.4876613,0.86317414,1.0,0.0,0.0,0.0,0.0,0.0,0.0,-3.2176414,0.11382064,-0.124473155,2.4887323,10.63714,-14.0239,-0.3190279,3.1329513,-4.5132637,-2.40919
11.035303,77.49503,22.868967,8.624913,-0.13565642,1.2455207,-0.05749558,-0.80116326,0.6671521,-0.25996053,0.601718,0.5217765,0.6657783,-0.57741076,1.5658633,-0.9611944,-1.8720642,-0.8958864,2.0580204,1.3019032,-0.9896487,1.6316439,-1.0154623,-1.8515995,-0.94519776,2.0125947,1.2416083,-0.9353494,-1.430097,1.2562066,-0.5642386,1.0828656,0.6843598,0.6192043,-0.34926614,2.5366411,-0.5158577,0.7176157,-3.099272,-0.20396014,4.288619,0.3906269,-0.5652542,0.76057655,0.7042533,0.090598896,0.09578659,0.6975987,-1.2697123,-0.43086562,0.8765754,1.0,0.0,0.0,0.0,0.0,0.0,0.0,-3.1866412,0.11585769,-0.16761571,1.4022112,4.556656,-4.4534683,-1.2727976,3.6715865,-3.67769,-2.0445347
10.886198,72.00395,21.97509,8.302962,0.07543558,1.2778308,0.0625554,-0.79435307,0.6843952,-0.26419348,0.59532195,0.51932377,0.67159945,-0.5835541,1.5522085,-0.94702274,-1.8780189,-0.88566554,2.064527,1.3087682,-0.9937048,1.6174227,-1.0028032,-1.8571937,-0.93446416,2.019648,1.2475954,-0.9389438,-1.4202129,1.2688708,-0.5560748,1.0692496,0.7121077,0.5914036,-0.36398402,2.5056715,-0.51789474,0.75973326,-3.0961733,-0.20375621,4.186145,0.37795925,-0.5692749,0.7694054,0.7149163,0.08321189,0.09586116,0.6875907,-1.2692904,-0.37713683,0.8861075,1.0,0.0,0.0,0.0,0.0,0.0,0.0,-3.1556716,0.11789474,-0.20973325,0.79672337,1.1643887,1.3362646,-1.6539574,2.6470065,-2.9337525,-1.8096328
9.806718,71.60748,22.061977,8.903876,0.1948964,1.3877344,0.1172854,-0.7999754,0.70393676,-0.25307092,0.5810638,0.5253178,0.6775624,-0.57731277,1.5374252,-0.9324095,-1.8825008,-0.8763578,2.0721798,1.3153517,-0.9966751,1.6032225,-0.9900869,-1.8624599,-0.92391366,2.026919,1.2533499,-0.9426622,-1.4204838,1.2721223,-0.5148272,1.0494151,0.7317969,0.56939447,-0.37558913,2.4747324,-0.5199318,0.80082685,-3.093078,-0.2035525,4.0837736,0.365263,-0.5727501,0.77834326,0.7252797,0.07575672,0.095878534,0.6775231,-1.2725185,-0.32221588,0.89731246,1.0,0.0,0.0,0.0,0.0,0.0,0.0,-3.1247325,0.11993179,-0.25082684,-0.22864342,0.22339821,4.694259,-2.2635698,1.8211961,-2.355945,-1.5023768
8.873975,70.25396,21.433462,9.291092,0.264781,1.3758271,0.13581765,-0.8025552,0.70743454,-0.23991606,0.56994444,0.53902,0.67843485,-0.5771264,1.522967,-0.9193435,-1.8864515,-0.8669192,2.0808208,1.3211933,-1.0003748,1.5889784,-0.9773773,-1.867234,-0.91357964,2.0343652,1.2589136,-0.94647974,-1.4263588,1.2702065,-0.46311724,1.0271856,0.7485275,0.55174536,-0.3849833,2.4438248,-0.52196884,0.8408975,-3.0899854,-0.203349,3.9815047,0.35252,-0.5756874,0.7873813,0.73532087,0.06820094,0.095785715,0.6674406,-1.276855,-0.2683688,0.90653765,1.0,0.0,0.0,0.0,0.0,0.0,0.0,-3.0938249,0.121968836,-0.2908975,-0.78766346,-0.28777122,5.744481,-2.491665,1.5258074,-1.9064903,-1.2743354
7.902686,69.98343,20.821642,10.076515,0.28436852,1.337185,0.10169789,-0.8026831,0.71436673,-0.23507378,0.5708779,0.5403735,0.6853053,-0.57183635,1.5087101,-0.90594065,-1.8907413,-0.85649186,2.0884025,1.3274442,-1.0036634,1.5746714,-0.9646696,-1.871556,-0.9034144,2.0419374,1.2643324,-0.9503736,-1.4329772,1.2706504,-0.42007917,1.0120653,0.7598423,0.53808975,-0.39202902,2.4129486,-0.52399826,0.87994623,-3.0868962,-0.20314568,3.8793383,0.33973217,-0.57809067,0.7965087,0.7450608,0.06052481,0.095607795,0.6573281,-1.2813916,-0.21584955,0.91506237,1.0,0.0,0.0,0.0,0.0,0.0,0.0,-3.0629487,0.123998255,-0.32994622,-0.8549452,-0.048971176,4.85608,-1.7691374,0.9979367,-1.5021443,-1.0295928
8.820269,70.21155,20.411049,9.95145,0.18972838,1.2534053,0.08427359,-0.7987674,0.7231562,-0.2332635,0.56167555,0.5488068,0.6920505,-0.5686307,1.4947946,-0.89235395,-1.8948824,-0.8472469,2.096818,1.3335375,-1.0072367,1.5603281,-0.95191514,-1.8755691,-0.8933875,2.0496125,1.2696406,-0.9543256,-1.435574,1.276865,-0.39333564,0.9987777,0.76974857,0.527949,-0.3973276,2.382103,-0.5260277,0.91797405,-3.0838099,-0.20294258,3.777274,0.32692146,-0.5799675,0.80570966,0.7545152,0.05273208,0.09540745,0.6471658,-1.281851,-0.1621652,0.9218057,1.0,0.0,0.0,0.0,0.0,0.0,0.0,-3.032103,0.12602767,-0.36797404,-0.44884682,0.5322933,3.2066524,-1.5852332,0.87069273,-1.1334419,-0.8498907
10.287495,72.43265,21.111431,10.083548,0.15024799,1.2967236,0.104442224,-0.7989174,0.7286735,-0.19368863,0.554698,0.5497184,0.6947284,-0.56573033,1.4804363,-0.8790478,-1.894938,-0.8379177,2.1045845,1.3391134,-1.0108986,1.5459734,-0.939072,-1.8792465,-0.8834817,2.057364,1.2748629,-0.95832056,-1.4361091,1.2865808,-0.35745627,0.9870987,0.7764029,0.52009976,-0.4013335,2.3512878,-0.5280571,0.954982,-3.0807266,-0.20273967,3.6753116,0.3141203,-0.5812683,0.8150093,0.7636714,0.04478412,0.09520019,0.636975,-1.2799588,-0.10405793,0.93234396,1.0,0.0,0.0,0.0,0.0,0.0,0.0,-3.001288,0.12805709,-0.40498197,-0.24733543,0.8809805,4.1425467,-1.4182568,0.5364299,-0.9046078,-0.7260382
12.757736,73.35024,21.293055,9.21669,0.014056683,1.2402791,0.13828187,-0.7946445,0.73759556,-0.17883629,0.53620225,0.5589044,0.69739866,-0.5653799,1.466509,-0.86531246,-1.8971301,-0.82986146,2.1132545,1.3446027,-1.0148586,1.5316416,-0.9261011,-1.8825767,-0.8737418,2.065184,1.2800223,-0.96234983,-1.4327329,1.3002944,-0.32305723,0.9686715,0.78386396,0.51432616,-0.40452868,2.3205032,-0.5300827,0.9909711,-3.0776465,-0.20253697,3.5734513,0.30138206,-0.58195496,0.8244093,0.7725009,0.036667805,0.09500582,0.6267947,-1.2716318,-0.041908033,0.9417994,1.0,0.0,0.0,0.0,0.0,0.0,0.0,-2.9705033,0.1300827,-0.44097108,0.1409769,1.2863874,3.9998293,-2.095902,0.61883926,-0.6706476,-0.64741373
14.121796,73.9287,21.53829,8.748438,-0.012557685,1.2328627,0.19478089,-0.79911137,0.7419342,-0.13620326,0.5140234,0.5721397,0.69483835,-0.56047916,1.4517305,-0.8519077,-1.8961971,-0.8223395,2.1223981,1.3495061,-1.0183978,1.517327,-0.91299665,-1.8854511,-0.86425847,2.0731034,1.285132,-0.96640295,-1.431804,1.3136634,-0.27354595,0.94066906,0.79439616,0.50967795,-0.4066602,2.2897491,-0.5321045,1.0259423,-3.0745695,-0.20233448,3.4716928,0.28874397,-0.58200836,0.83390415,0.7809584,0.028374791,0.094790675,0.61669564,-1.2601957,0.02307887,0.9511275,1.0,0.0,0.0,0.0,0.0,0.0,0.0,-2.9397492,0.13210449,-0.4759423,-0.10931492,1.2566328,5.5327835,-3.04873,0.9173989,-0.5396724,-0.5418718
17.392103,72.902695,21.255123,6.7479615,-0.20326182,1.0974562,0.27313218,-0.7947827,0.7485332,-0.11160111,0.47267875,0.58708346,0.70077765,-0.55918723,1.4378487,-0.83814335,-1.8966112,-0.8169906,2.1318119,1.3552098,-1.0223217,1.5030352,-0.89975965,-1.8878067,-0.8552062,2.08116,1.2902094,-0.97047323,-1.4289683,1.3268445,-0.2208966,0.892583,0.80907685,0.5071314,-0.40816587,2.2590265,-0.5341263,1.0598968,-3.0714955,-0.20213218,3.3700361,0.27628803,-0.58138657,0.8434498,0.78898484,0.01993599,0.09454068,0.606768,-1.2391063,0.09077865,0.9543222,1.0,0.0,0.0,0.0,0.0,0.0,0.0,-2.9090266,0.13412628,-0.5098968,0.08161068,1.2537956,5.8380127,-5.062306,1.3419509,-0.26634932,-0.47512054
17.960732,71.83908,20.707203,6.34948,-0.27495477,0.9969932,0.28958702,-0.7955191,0.75483304,-0.083965,0.45140868,0.57665974,0.69335884,-0.5386397,1.4234833,-0.8242763,-1.8962032,-0.8100653,2.1388261,1.3595454,-1.0243372,1.4887644,-0.8863958,-1.8896263,-0.846667,2.089312,1.2952639,-0.9745397,-1.4271177,1.3394016,-0.16720332,0.8402801,0.81698513,0.504881,-0.40718642,2.2283354,-0.5361481,1.0928354,-3.0684247,-0.20193009,3.268481,0.26406956,-0.58008957,0.8530073,0.79655707,0.011376124,0.094280206,0.59705824,-1.2138175,0.15755625,0.9544407,1.0,0.0,0.0,0.0,0.0,0.0,0.0,-2.8783355,0.13614807,-0.5428354,-0.009298325,1.2024164,5.9154153,-5.4744363,0.6826043,-0.20198822,-0.2133727
18.841316,69.62408,19.707516,5.569281,-0.35725975,0.8150492,0.29614472,-0.78952813,0.7619285,-0.07495181,0.4212315,0.59348154,0.6919139,-0.5327417,1.4098116,-0.81020296,-1.8971214,-0.80454385,2.1486602,1.3644552,-1.0278139,1.4745356,-0.87290704,-1.8910072,-0.83867806,2.097567,1.3003012,-0.97858995,-1.4221795,1.3519114,-0.1265801,0.78425705,0.82807845,0.5033629,-0.40522695,2.1976748,-0.53816605,1.1247593,-3.065357,-0.2017282,3.1670275,0.25214005,-0.5781441,0.8625277,0.80367804,0.0027417224,0.09403762,0.5875806,-1.1830504,0.22069193,0.9489678,1.0,0.0,0.0,0.0,0.0,0.0,0.0,-2.8476748,0.13816604,-0.5747593,0.31383038,1.2133598,4.554182,-5.8413744,1.0317087,-0.08612871,-0.09649396
22.448553,69.417755,19.959852,3.315207,-0.5531635,0.7152985,0.4135008,-0.79264045,0.76819503,-0.012159179,0.34528378,0.60684395,0.68648094,-0.52598447,1.3952715,-0.79608756,-1.8922231,-0.8041497,2.1582515,1.3689493,-1.0311884,1.4603354,-0.8592962,-1.8918273,-0.8314702,2.1059518,1.3053232,-0.9826154,-1.4199376,1.3640504,-0.06543563,0.69875896,0.8418824,0.50228155,-0.40262076,2.1670446,-0.5401802,1.1556695,-3.062292,-0.20152651,3.0656753,0.2405901,-0.5755501,0.87196213,0.81028306,-0.005920949,0.09379431,0.57845384,-1.1420149,0.28732526,0.93896085,1.0,0.0,0.0,0.0,0.0,0.0,0.0,-2.8170447,0.1401802,-0.60566944,0.04248619,1.1914492,6.6099987,-8.785677,1.3066769,0.02374649,-0.025331974
22.340424,69.749725,20.184677,3.898315,-0.4410867,0.71399164,0.44316003,-0.7943036,0.7707533,0.047886133,0.32087505,0.61818814,0.68137336,-0.5112055,1.380905,-0.78222084,-1.8870387,-0.7993827,2.1677706,1.3734605,-1.033736,1.446139,-0.8455843,-1.8918712,-0.8250863,2.114489,1.310332,-0.98660463,-1.4200648,1.3734993,0.017556746,0.61755687,0.8575434,0.5009909,-0.39864686,2.136445,-0.54219437,1.1855668,-3.0592306,-0.20132503,2.9644246,0.22943592,-0.5722847,0.8813213,0.8163455,-0.014637174,0.09347829,0.56976086,-1.1022114,0.35253012,0.93189776,1.0,0.0,0.0,0.0,0.0,0.0,0.0,-2.7864451,0.14219436,-0.6355668,-0.18062592,0.9306669,8.762634,-8.327341,1.5133381,0.009012222,0.12862086
30.041237,67.62235,20.169949,-1.4287968,-0.92144996,0.43902904,0.6457684,-0.7866854,0.77478725,0.10544008,0.18997927,0.6441423,0.6857109,-0.504555,1.3674704,-0.76810557,-1.8813272,-0.8060884,2.1789033,1.378903,-1.0370601,1.4319693,-0.8317894,-1.8909652,-0.81992215,2.1232362,1.3153406,-0.9905519,-1.4162656,1.3814653,0.11653783,0.481944,0.8801694,0.501736,-0.3942367,2.105876,-0.5442085,1.2144523,-3.056172,-0.20112374,2.863275,0.2188425,-0.5683403,0.8905139,0.82175404,-0.023321845,0.09305891,0.5617084,-1.039799,0.4214284,0.9115254,1.0,0.0,0.0,0.0,0.0,0.0,0.0,-2.755876,0.14420852,-0.66445225,0.22854805,0.809145,10.326609,-13.762683,2.2322655,0.35160184,0.18981695
42.021145,63.189766,19.698952,-10.842608,-1.835083,-0.05637467,0.9724106,-0.7862681,0.77891314,0.17708077,-0.022843746,0.655716,0.6734191,-0.48034352,1.3533425,-0.7538981,-1.8732572,-0.8222065,2.1888077,1.3826826,-1.0385863,1.4178396,-0.8179201,-1.8889396,-0.81689614,2.1322122,1.3203608,-0.99443907,-1.4120467,1.3888543,0.23246995,0.24228735,0.90348625,0.5037525,-0.38758424,2.0753374,-0.54621506,1.2423271,-3.0531163,-0.20092265,2.7622266,0.20916748,-0.5636673,0.8993115,0.82629734,-0.03172681,0.09259168,0.5546647,-0.93767595,0.49449396,0.8652767,1.0,0.0,0.0,0.0,0.0,0.0,0.0,-2.7253375,0.14621505,-0.6923271,0.29947758,0.78954697,11.957309,-24.154755,2.3361444,0.709939,0.45527816
54.07857,62.025356,20.306286,-19.047504,-2.6679246,-0.47938883,1.2750744,-0.7728707,0.79006606,0.2647483,-0.22654288,0.66993415,0.65965754,-0.4382048,1.3405526,-0.7389135,-1.8624648,-0.83955044,2.1992056,1.3863266,-1.0382595,1.403813,-0.8039459,-1.8855999,-0.8168971,2.1414247,1.3254,-0.9982299,-1.3996341,1.4006504,0.36840403,-0.0812438,0.9274033,0.50621665,-0.37671217,2.0448294,-0.5482216,1.2691922,-3.0500638,-0.20072177,2.6612792,0.2007885,-0.55820847,0.90751946,0.82976735,-0.03962011,0.0921419,0.549023,-0.7980037,0.5718839,0.801733,1.0,0.0,0.0,0.0,0.0,0.0,0.0,-2.6948295,0.14822158,-0.7191922,1.193881,1.2642145,13.804215,-32.468933,2.4765372,0.9360671,0.94932914
54.708946,64.27882,21.310116,-18.042377,-2.5744834,-0.50322676,1.3013017,-0.7592646,0.7951873,0.36743832,-0.31388542,0.6667338,0.65045035,-0.35592154,1.3278866,-0.72442716,-1.848856,-0.8482856,2.208098,1.390445,-1.0338221,1.3899695,-0.7898468,-1.8807266,-0.81997555,2.150828,1.3304564,-1.001854,-1.3791451,1.413289,0.5267491,-0.3834069,0.94516945,0.50756454,-0.3577961,2.0143518,-0.5502281,1.2950486,-3.0470142,-0.2005211,2.5604327,0.19380379,-0.55197525,0.91516095,0.8321244,-0.047013126,0.09169303,0.54493225,-0.65857667,0.64690006,0.7467536,1.0,0.0,0.0,0.0,0.0,0.0,0.0,-2.664352,0.15022811,-0.7450486,2.098322,1.3729334,15.788394,-30.221752,2.0172477,0.81927776,1.8363655
41.57045,68.399376,21.652672,-6.8287926,-1.5115633,-0.141694,0.9681806,-0.74587953,0.8025075,0.4330583,-0.26853347,0.65521693,0.64255375,-0.23158166,1.3153815,-0.70959604,-1.8374207,-0.8468289,2.2163496,1.3947117,-1.0250121,1.3763682,-0.77561414,-1.8743198,-0.82506627,2.160334,1.335509,-1.0052052,-1.353475,1.4270555,0.67770946,-0.55083,0.9534386,0.5062498,-0.32757935,1.9839048,-0.55223465,1.3198973,-3.043968,-0.20032062,2.459687,0.18788815,-0.54506683,0.92249763,0.83357644,-0.054190196,0.09117612,0.54212594,-0.5617055,0.7118979,0.72394913,1.0,0.0,0.0,0.0,0.0,0.0,0.0,-2.633905,0.15223464,-0.7698973,2.6578903,1.5080929,14.811587,-16.704346,1.242733,0.3910303,3.0051708
23.730587,66.26886,19.599632,5.6164017,-0.2640965,0.15103553,0.5542172,-0.74060583,0.7954893,0.46787483,-0.20762308,0.6356309,0.6410353,-0.046463247,1.3023076,-0.6960652,-1.8275323,-0.8458286,2.2238972,1.3996124,-1.0098515,1.3629977,-0.7613081,-1.8666484,-0.83074063,2.169825,1.3405367,-1.0081348,-1.3312106,1.4322278,0.7958614,-0.57300407,0.9493091,0.50283843,-0.28146297,1.9534883,-0.55423355,1.3437393,-3.0409245,-0.20012033,2.359042,0.18254471,-0.537632,0.9297985,0.83443224,-0.061462406,0.09054584,0.54013574,-0.51695865,0.75871366,0.726391,1.0,0.0,0.0,0.0,0.0,0.0,0.0,-2.6034884,0.15423355,-0.79373926,2.2876024,0.6648779,11.442924,-2.2337317,0.08201599,0.010514259,4.5802298
-6.937731,64.04827,16.299444,26.948242,1.8576357,0.80837363,-0.1800497,-0.7581153,0.7907288,0.4621156,0.043762296,0.61368436,0.655689,0.13046277,1.2871861,-0.6822352,-1.8204368,-0.8263644,2.2311935,1.4061056,-0.9950886,1.3496977,-0.7470068,-1.8582237,-0.8349368,2.1791902,1.3455263,-1.0105019,-1.3296807,1.4299296,0.85694623,-0.36910176,0.9339891,0.4979343,-0.2221614,1.9231024,-0.55623245,1.3665755,-3.0378842,-0.19992025,2.2584977,0.17696667,-0.5299187,0.937449,0.8351813,-0.06928958,0.089736305,0.5381621,-0.56333154,0.78079075,0.77177083,1.0,0.0,0.0,0.0,0.0,0.0,0.0,-2.5731025,0.15623245,-0.81657547,0.08280277,-0.06468296,5.7579637,20.2268,-0.98900795,-0.43939948,5.8372946
-38.269432,61.66849,12.820592,49.040398,4.0024147,1.5625368,-0.9709183,-0.78487587,0.7865925,0.42848563,0.37901983,0.5789718,0.6822397,0.25115654,1.2712101,-0.66834754,-1.8153751,-0.7970348,2.2370872,1.4137503,-0.9853862,1.3362223,-0.73276746,-1.8496749,-0.8353755,2.1883035,1.3504721,-1.0122318,-1.3540924,1.4225277,0.85290676,0.06376055,0.9056318,0.49237543,-0.1570453,1.8927469,-0.55823135,1.388407,-3.034847,-0.19972037,2.1580539,0.17021275,-0.5221329,0.94588,0.83638334,-0.07820707,0.08869224,0.5352384,-0.7044704,0.782869,0.86043245,1.0,0.0,0.0,0.0,0.0,0.0,0.0,-2.542747,0.15823135,-0.838407,-2.6248455,-0.5701542,-0.7385373,43.023396,-2.251029,-0.8685291,6.381044
-45.510162,54.390263,9.58488,52.160557,4.223658,1.527857,-1.2066156,-0.79376894,0.77826947,0.377788,0.5180905,0.5354347,0.6777584,0.27272153,1.2568454,-0.6549405,-1.8118961,-0.7835664,2.241847,1.4182479,-0.98495966,1.3224436,-0.71864164,-1.841603,-0.8312184,2.1970277,1.3553549,-1.0133514,-1.3861758,1.4097142,0.79076785,0.5324094,0.86294824,0.48525,-0.09709871,1.862422,-0.56023026,1.4092349,-3.0318127,-0.19952069,2.0577104,0.16192722,-0.51439285,0.9551507,0.83829075,-0.08832688,0.08752054,0.530855,-0.861357,0.77899665,0.9425283,1.0,0.0,0.0,0.0,0.0,0.0,0.0,-2.512422,0.16023025,-0.85923487,-3.3555746,-1.1492968,-6.5533996,46.664665,-3.7290454,-1.1867583,5.906403
-33.45164,47.3417,8.111247,40.36208,3.1059046,0.9885825,-0.9348883,-0.80727017,0.7727236,0.35561538,0.5118822,0.5755672,0.66459334,0.11940437,1.2417166,-0.6413693,-1.8060415,-0.7800302,2.2545843,1.4218142,-1.001411,1.3083292,-0.704656,-1.8342845,-0.82338685,2.2054925,1.3601652,-1.0140495,-1.4200875,1.3950583,0.7114733,0.8663634,0.8421418,0.47839653,-0.060958236,1.8321266,-0.5622215,1.4290601,-3.0287817,-0.19932121,1.9574673,0.15240479,-0.50665283,0.9649452,0.8407783,-0.099305004,0.08633077,0.52514493,-0.97410506,0.7805231,0.98462343,1.0,0.0,0.0,0.0,0.0,0.0,0.0,-2.4821267,0.16222152,-0.8790601,-3.4906864,-1.3882399,-8.166111,33.26733,-1.6663909,-1.0584414,3.5545886
-12.257839,45.432686,8.987616,23.072865,1.3768377,0.34718215,-0.4267175,-0.81300914,0.77589273,0.351544,0.4607742,0.6040673,0.6637833,-0.028425952,1.2270284,-0.62706673,-1.7991302,-0.7773094,2.2658992,1.4265436,-1.0168921,1.2939287,-0.6907753,-1.8276393,-0.8136603,2.213904,1.364926,-1.0145626,-1.4470084,1.3858664,0.6487505,1.0076275,0.8417491,0.4750044,-0.04833691,1.8018608,-0.5642128,1.4478836,-3.0257535,-0.19912194,1.8573242,0.14229298,-0.49881363,0.9748322,0.84351236,-0.110642314,0.0852275,0.5186342,-1.0150062,0.79536736,0.9825948,1.0,0.0,0.0,0.0,0.0,0.0,0.0,-2.451861,0.1642128,-0.8978836,-2.7945518,-0.8906603,-6.2676787,14.010561,0.18482208,-0.44380426,1.1716038
8.052143,44.20366,9.953517,6.663236,-0.25487536,-0.31441438,0.07587539,-0.8154867,0.775369,0.3434717,0.38071322,0.6234118,0.67153287,-0.13422614,1.21238,-0.6132384,-1.7932922,-0.775589,2.276245,1.4320793,-1.0279852,1.2793337,-0.6769537,-1.82145,-0.8038632,2.2224145,1.369681,-1.0150757,-1.4639513,1.3810048,0.60979074,0.9699753,0.85450613,0.47652486,-0.052576024,1.7716255,-0.5662041,1.4657065,-3.0227282,-0.19892286,1.7572813,0.13229847,-0.49079514,0.98441136,0.8461453,-0.12185369,0.084312655,0.5119386,-0.98562,0.8171122,0.9422329,1.0,0.0,0.0,0.0,0.0,0.0,0.0,-2.4216256,0.16620407,-0.91570646,-1.8186569,-0.48241615,-3.6486506,-3.907299,1.3134599,0.36062598,-0.5575374
22.652225,47.48303,11.951647,-3.4704952,-1.3383648,-0.6973075,0.44505325,-0.80762106,0.7811453,0.35548458,0.32223156,0.6173162,0.679733,-0.12213966,1.1985716,-0.59883916,-1.7859015,-0.77164006,2.284146,1.4376543,-1.0272896,1.2646834,-0.66312635,-1.8154094,-0.79521245,2.2310433,1.3744723,-1.0156403,-1.4657674,1.3833008,0.60330564,0.82969904,0.8650425,0.4814184,-0.058428615,1.7414207,-0.5681915,1.4825296,-3.0197062,-0.19872397,1.6573384,0.12295532,-0.48250198,0.9934673,0.84840983,-0.13265958,0.08366101,0.50557184,-0.9081626,0.8456193,0.8861052,1.0,0.0,0.0,0.0,0.0,0.0,0.0,-2.3914208,0.16819152,-0.9325296,-0.2862215,0.22115707,-0.26185513,-14.144838,0.9633422,0.8833349,-0.74058026
27.71294,47.38471,12.172208,-7.461294,-1.7119441,-0.9659866,0.59151936,-0.8128267,0.7808533,0.35246485,0.25886962,0.63059664,0.6714805,-0.11350275,1.1834008,-0.58504105,-1.7801629,-0.7693255,2.294103,1.4416203,-1.0269905,1.2500426,-0.6492609,-1.8093307,-0.7882783,2.2397943,1.3793112,-1.0162582,-1.4636855,1.3875788,0.6107152,0.64767885,0.8779433,0.48630974,-0.06327251,1.7112465,-0.5701752,1.4983541,-3.0166872,-0.1985253,1.5574954,0.11452198,-0.473938,1.0019176,0.85019594,-0.14292209,0.08329872,0.49980146,-0.8120662,0.87018704,0.82425934,1.0,0.0,0.0,0.0,0.0,0.0,0.0,-2.3612466,0.17017516,-0.94835407,0.13747215,0.42908192,1.1100292,-18.28723,1.1828899,0.9562731,-0.6188065
26.81794,49.681244,13.072128,-5.325525,-1.485856,-0.9053458,0.6236564,-0.80785006,0.77857125,0.3882285,0.24347454,0.6170181,0.6653344,0.04722388,1.1692575,-0.57140374,-1.7705078,-0.7639308,2.301496,1.4458447,-1.0115359,1.2354628,-0.6353649,-1.8029754,-0.78293294,2.24861,1.3841883,-1.016798,-1.4560713,1.3903481,0.6448157,0.49667883,0.88253933,0.48949525,-0.051214114,1.6811028,-0.5721588,1.513181,-3.013671,-0.19832681,1.4577521,0.106993675,-0.46511078,1.0098363,0.8514699,-0.15271536,0.083177306,0.49473074,-0.7230065,0.8955217,0.7742753,1.0,0.0,0.0,0.0,0.0,0.0,0.0,-2.3311028,0.17215881,-0.96318096,0.7390022,0.2901554,3.6922097,-15.13412,0.3965974,0.72580576,1.090619
16.787891,50.31646,12.78122,4.0007815,-0.56400824,-0.5860467,0.37900662,-0.8027152,0.7757271,0.381776,0.32726696,0.6035667,0.6697621,0.20693173,1.1551913,-0.5577922,-1.7647978,-0.75020623,2.3089666,1.4511645,-0.99610484,1.2209822,-0.6214632,-1.7963264,-0.7782542,2.2574105,1.3890864,-1.0170918,-1.445472,1.3901938,0.6720801,0.4581771,0.87954783,0.49070343,-0.022415867,1.6509886,-0.57414246,1.527011,-3.010658,-0.19812852,1.3581088,0.100063324,-0.45602036,1.0174389,0.8523358,-0.16231991,0.08321782,0.4901536,-0.67312735,0.9204733,0.748814,1.0,0.0,0.0,0.0,0.0,0.0,0.0,-2.3009887,0.17414245,-0.977011,1.0480881,0.016832352,2.8621078,-3.8804948,-0.24049282,0.3516972,2.7754056
7.030301,45.58613,10.832419,11.3910475,0.19222683,-0.42455155,0.119673535,-0.7975696,0.76031965,0.35809872,0.38698885,0.5678684,0.67474943,0.31993878,1.1412252,-0.5454312,-1.7605165,-0.7395553,2.3141973,1.4565613,-0.9850979,1.2066141,-0.60764253,-1.7895935,-0.7732646,2.266066,1.3939902,-1.0170212,-1.4339033,1.3795115,0.6738291,0.5122287,0.86137,0.49068117,0.016554762,1.620904,-0.5761223,1.5398455,-3.007648,-0.19793044,1.2585648,0.09337616,-0.44672775,1.0248858,0.8529533,-0.17197078,0.0833934,0.48573878,-0.6570494,0.9394965,0.73650783,1.0,0.0,0.0,0.0,0.0,0.0,0.0,-2.270904,0.17612228,-0.98984545,1.1339426,-1.019001,0.20705462,5.336404,-1.6680717,0.10896921,3.7946694
2.5844145,39.86297,8.849594,14.085209,0.44098032,-0.46463466,-0.029237285,-0.77851063,0.742705,0.33007863,0.4241257,0.5073111,0.67596805,0.39053565,1.1287631,-0.53337204,-1.7565856,-0.730852,2.3167973,1.461587,-0.9779676,1.1924273,-0.5940126,-1.7830551,-0.7673871,2.274363,1.398892,-1.0165329,-1.4137585,1.3576987,0.6471557,0.61258876,0.8197269,0.49008563,0.059161495,1.5908499,-0.5780983,1.5516852,-3.0046408,-0.19773255,1.1591206,0.08675194,-0.43728638,1.0322226,0.8534369,-0.18176004,0.08376224,0.48124072,-0.653895,0.95187914,0.72590435,1.0,0.0,0.0,0.0,0.0,0.0,0.0,-2.24085,0.17809829,-1.0016851,2.0052671,-2.1241426,-2.6982665,9.944117,-3.982079,0.011962652,4.162386
1.9038553,31.49556,6.0029945,11.170359,0.2462635,-0.805989,-0.027057804,-0.7924423,0.7289239,0.2856186,0.3729328,0.5067356,0.66442305,0.4138395,1.113183,-0.52112025,-1.7544932,-0.73009384,2.3250365,1.4653343,-0.975149,1.1783453,-0.580644,-1.7770126,-0.7608296,2.282271,1.4037806,-1.0156384,-1.4064841,1.3301224,0.58988047,0.66975623,0.78181213,0.48897764,0.09919456,1.5608263,-0.5800743,1.5625312,-3.001637,-0.19753486,1.0597757,0.08021641,-0.42783356,1.0393369,0.8538485,-0.1915142,0.08441771,0.47659072,-0.6432413,0.9494879,0.69973016,1.0,0.0,0.0,0.0,0.0,0.0,0.0,-2.2108264,0.1800743,-1.0125313,0.6960869,-2.699256,-5.7466745,5.593896,-3.6203384,0.033587217,3.9248242
6.950385,27.268538,4.823867,4.6844106,-0.33301067,-1.2228384,0.13327982,-0.7899513,0.7166325,0.26573476,0.29495546,0.49421605,0.6506693,0.43096274,1.0993502,-0.50898075,-1.7504392,-0.7313341,2.3316925,1.4688475,-0.97254205,1.1643015,-0.56755865,-1.7715824,-0.75429887,2.2898355,1.4086558,-1.0143757,-1.4038936,1.3014951,0.5274564,0.64717466,0.7483367,0.4877415,0.1352149,1.5308332,-0.5820503,1.5723846,-2.998636,-0.19733737,0.96053016,0.07398224,-0.41848755,1.046058,0.85416317,-0.20095153,0.08544427,0.4719353,-0.60687107,0.936138,0.6562992,1.0,0.0,0.0,0.0,0.0,0.0,0.0,-2.1808333,0.18205032,-1.0223846,0.23798943,-2.8086662,-6.215632,-2.3744464,-3.2369852,0.14278293,3.5362303
9.968107,23.224903,3.6942208,0.37052584,-0.7422272,-1.5430225,0.22827664,-0.7860131,0.695068,0.23491706,0.2536177,0.43688357,0.6531632,0.47227266,1.0857002,-0.49805185,-1.7480906,-0.7289371,2.3335238,1.4739721,-0.9671484,1.1502749,-0.5547918,-1.7667911,-0.7483651,2.2969728,1.4135252,-1.012764,-1.4022899,1.2685632,0.463182,0.5750349,0.70248854,0.4877443,0.16976765,1.5008688,-0.5840225,1.5812463,-2.995638,-0.19714007,0.8613838,0.06824303,-0.40934753,1.052261,0.85436046,-0.20985372,0.08693836,0.4674091,-0.5531385,0.9125953,0.6020803,1.0,0.0,0.0,0.0,0.0,0.0,0.0,-2.150869,0.18402252,-1.0312462,0.1616478,-3.2361746,-6.3963594,-7.3226333,-4.508829,0.34600496,3.4010112
13.103735,20.153927,2.8602824,-3.8559818,-1.1063929,-1.863405,0.33166796,-0.7860704,0.6766401,0.20107627,0.17001511,0.41012296,0.64949805,0.49838156,1.0716678,-0.48712778,-1.7466835,-0.7313636,2.337985,1.478475,-0.9629258,1.136254,-0.5423664,-1.7626407,-0.74353665,2.3036447,1.4183966,-1.0108242,-1.4017628,1.234068,0.3991695,0.4517608,0.65519124,0.48818547,0.20186263,1.4709349,-0.5859909,1.5891172,-2.9926429,-0.19694297,0.7623366,0.06316471,-0.40050888,1.0578502,0.85442835,-0.21802993,0.08896213,0.46314225,-0.4828721,0.87854296,0.53886515,1.0,0.0,0.0,0.0,0.0,0.0,0.0,-2.120935,0.1859909,-1.0391171,0.08318424,-3.3881426,-6.372863,-12.418133,-4.690802,0.45014024,3.1677067
14.859687,20.80472,3.3803031,-5.1706605,-1.1675613,-1.9555624,0.41296884,-0.7853731,0.65730923,0.20951879,0.10474029,0.38605726,0.64494485,0.52557737,1.0577166,-0.47663546,-1.7416888,-0.7330626,2.3422503,1.4828911,-0.9582665,1.1222388,-0.53029287,-1.7589233,-0.7400891,2.3098588,1.4232699,-1.0085793,-1.4011244,1.1986597,0.36275268,0.30889347,0.609988,0.4881507,0.23177208,1.4410315,-0.5879593,1.5959984,-2.989651,-0.19674607,0.66338843,0.058825493,-0.39202118,1.0628138,0.8543358,-0.2254203,0.09147746,0.45926872,-0.4076957,0.8425676,0.47706205,1.0,0.0,0.0,0.0,0.0,0.0,0.0,-2.0910316,0.18795928,-1.0459983,0.121593475,-3.4771204,-3.6187768,-14.347201,-4.5068026,0.39039254,2.9527128
12.278817,24.112015,4.440176,-1.0656466,-0.7561945,-1.7693315,0.33032146,-0.7778884,0.645276,0.19699834,0.11441187,0.3752675,0.6407398,0.5408186,1.0444499,-0.46576527,-1.7392235,-0.72864795,2.3473856,1.4873438,-0.9544974,1.1082636,-0.5185398,-1.7554615,-0.7377345,2.3156877,1.4281336,-1.0060596,-1.3960514,1.1677018,0.34059656,0.21081825,0.57383823,0.48676118,0.25851485,1.4111567,-0.5899277,1.6018908,-2.986662,-0.19654936,0.5645392,0.055125237,-0.38383865,1.067267,0.85409254,-0.23216929,0.09436956,0.45576048,-0.34873134,0.8138268,0.43012145,1.0,0.0,0.0,0.0,0.0,0.0,0.0,-2.0611567,0.18992767,-1.0518909,0.56021214,-3.0296326,-2.2277236,-9.862593,-3.5684347,0.16197562,2.6325464
7.6679115,22.519402,3.8653603,3.5945373,-0.3259837,-1.6446408,0.15435767,-0.7641044,0.6200528,0.15072735,0.13441522,0.31167996,0.63921577,0.55334365,1.0318532,-0.4565345,-1.7403888,-0.724293,2.3468556,1.4920552,-0.95072526,1.094401,-0.5071224,-1.7523277,-0.73590535,2.3210626,1.4329783,-1.0032959,-1.3826516,1.133348,0.30413225,0.17331441,0.5255807,0.48451915,0.2821152,1.3813124,-0.5918884,1.6067955,-2.9836757,-0.19635285,0.46578878,0.05186367,-0.37591934,1.071332,0.8537757,-0.23845437,0.097597286,0.45241714,-0.30945587,0.78692186,0.3944182,1.0,0.0,0.0,0.0,0.0,0.0,0.0,-2.0313125,0.19188842,-1.0567956,1.3837099,-3.3638954,-3.713137,-3.8323073,-4.7287226,0.007736683,2.3110032
1.0366888,21.384544,3.0742292,9.891006,0.24575907,-1.4493767,-0.08226097,-0.76760316,0.608976,0.086271614,0.17919502,0.29809794,0.6375486,0.5658136,1.0176407,-0.4462248,-1.7437005,-0.71798587,2.3508723,1.4967332,-0.9467145,1.0806452,-0.4960165,-1.7497947,-0.733957,2.325995,1.4377962,-1.0003166,-1.373469,1.1032679,0.23631084,0.20154297,0.48320094,0.48144606,0.30296987,1.3514986,-0.5938492,1.6107135,-2.9806926,-0.19615653,0.36713713,0.04880333,-0.3682289,1.0751371,0.85350484,-0.24445115,0.101149805,0.448934,-0.29665244,0.76423335,0.37191865,1.0,0.0,0.0,0.0,0.0,0.0,0.0,-2.0014987,0.19384918,-1.0607135,0.89895725,-2.938223,-6.8511844,2.690074,-4.0896235,-0.15630126,2.024299
-1.7439618,15.910558,1.6192168,11.293962,0.5429747,-1.4950321,-0.15572096,-0.76197857,0.5731264,0.053885728,0.17466426,0.27959165,0.635129,0.57422847,1.0044473,-0.43870386,-1.7444061,-0.71649057,2.353954,1.5013092,-0.94289374,1.0669752,-0.48529148,-1.7480056,-0.73161095,2.330546,1.4425837,-0.9971485,-1.3647319,1.06252,0.15958329,0.2451506,0.44623873,0.4782673,0.32121906,1.3217134,-0.59580994,1.6136457,-2.9777126,-0.19596042,0.2685841,0.045786858,-0.36082077,1.0787184,0.85334814,-0.25021264,0.10496829,0.4451654,-0.29539967,0.73509985,0.34988523,1.0,0.0,0.0,0.0,0.0,0.0,0.0,-1.9717134,0.19580993,-1.0636456,0.8522749,-4.005909,-7.7576427,4.210085,-3.5382628,-0.18046498,1.7603457
-4.2127447,10.724168,0.24775541,12.321116,0.771814,-1.539936,-0.21351665,-0.7630784,0.5392758,0.014308091,0.19328186,0.24775924,0.633513,0.5800673,0.9906674,-0.4313639,-1.7465749,-0.7122828,2.355322,1.505935,-0.9391418,1.0533606,-0.47505093,-1.7470119,-0.7287728,2.334723,1.4473406,-0.9938164,-1.3604397,1.0114872,0.07906236,0.296135,0.40899733,0.47521904,0.33705157,1.2919588,-0.5977707,1.6155931,-2.9747355,-0.1957645,0.17012963,0.042715073,-0.35373688,1.0820745,0.8533478,-0.25573948,0.10900715,0.4410354,-0.30362043,0.7001723,0.3274607,1.0,0.0,0.0,0.0,0.0,0.0,0.0,-1.9419588,0.19777068,-1.065593,0.4059553,-5.037284,-8.146673,4.9393473,-3.5610795,-0.17610788,1.518774
-3.8354502,7.091338,-0.5154735,10.920629,0.7727576,-1.6633118,-0.17139702,-0.7585751,0.5046669,-0.017619433,0.18525645,0.23029988,0.6329538,0.5918574,0.97750306,-0.42458424,-1.7487738,-0.71024716,2.357753,1.510636,-0.93463063,1.0397879,-0.46538258,-1.7467773,-0.7255656,2.3385568,1.4520708,-0.99033546,-1.356057,0.95214146,0.004487223,0.32836944,0.3753117,0.47268993,0.35151324,1.2622337,-0.5997238,1.6165566,-2.9717612,-0.19556877,0.07177358,0.039571762,-0.34706497,1.0851744,0.8535041,-0.2609794,0.11321667,0.4365802,-0.3105686,0.6586395,0.3010937,1.0,0.0,0.0,0.0,0.0,0.0,0.0,-1.9122337,0.19972381,-1.0665567,0.4430771,-5.8697343,-7.5668497,3.083104,-3.2208562,-0.10998845,1.3886333
-1.7712278,5.4548454,-0.3411597,8.786419,0.64983475,-1.7378405,-0.0636103,-0.74874985,0.4575369,-0.00016304346,0.17548428,0.15588206,0.6349173,0.59459054,0.9649129,-0.4196289,-1.7467936,-0.7080172,2.354145,1.5155625,-0.93087643,1.0262934,-0.45640135,-1.7469985,-0.72220963,2.341906,1.456782,-0.98672485,-1.3470492,0.8802896,-0.031395625,0.33763373,0.32201555,0.47098088,0.36402783,1.2325382,-0.60167694,1.6165373,-2.96879,-0.19537324,-0.026484128,0.03641033,-0.3408165,1.0879818,0.8537629,-0.26589596,0.11755462,0.43193626,-0.3110099,0.6145864,0.2712999,1.0,0.0,0.0,0.0,0.0,0.0,0.0,-1.8825382,0.20167693,-1.0665374,0.9476423,-7.1208,-3.7042196,0.82232356,-5.21394,-0.009173155,1.1995614
-1.7279778,-3.1938539,-2.3574948,6.1167183,0.66706675,-1.9963683,-0.018192418,-0.7405303,0.3936803,-0.038055167,0.1530265,0.12860581,0.6320094,0.58919436,0.95224035,-0.4170333,-1.7508041,-0.706907,2.3547666,1.5199829,-0.9278054,1.012921,-0.44828796,-1.7475593,-0.7189614,2.3447137,1.461476,-0.9830084,-1.3338046,0.7886177,-0.0649184,0.32014868,0.2672836,0.46965137,0.3740466,1.2028732,-0.60363007,1.6155362,-2.965822,-0.1951779,-0.1246436,0.033251762,-0.33514404,1.0904218,0.8541162,-0.27037847,0.12195667,0.4272089,-0.3110235,0.5534946,0.23258412,1.0,0.0,0.0,0.0,0.0,0.0,0.0,-1.8528732,0.20363006,-1.0655363,1.4280319,-9.096491,-3.5212681,-1.8321812,-5.372107,0.057399273,0.96189976
0.54714227,-21.555168,-6.7389593,-2.3940449,0.2394624,-2.6418571,0.13450892,-0.7195403,0.28467408,-0.05272969,0.033752996,-0.017282488,0.6320655,0.5838464,0.94096696,-0.41982055,-1.7528323,-0.7155861,2.3429854,1.5246825,-0.9246237,0.9997641,-0.44142056,-1.74841,-0.7164847,2.3466325,1.4661642,-0.97920895,-1.3088648,0.65304714,-0.09270594,0.22334525,0.16735348,0.46945873,0.38182944,1.1732368,-0.6055832,1.6135542,-2.9628568,-0.19498277,-0.22270493,0.030222893,-0.33036804,1.0922755,0.85458827,-0.2740894,0.12644958,0.4225686,-0.2947433,0.4524164,0.16778405,1.0,0.0,0.0,0.0,0.0,0.0,0.0,-1.8232368,0.20558318,-1.0635543,2.728653,-13.468254,-3.052771,-9.720718,-9.93318,0.25599003,0.7495403
-1.6415942,-77.089615,-19.77318,-17.266123,0.37556487,-4.013579,0.33108318,-0.6846163,0.011580472,-0.024788616,-0.1685407,-0.22839914,0.63849354,0.5735372,0.9313024,-0.4402625,-1.7508888,-0.7333388,2.3237925,1.5300136,-0.9218552,0.98700106,-0.43696022,-1.7493274,-0.71589345,2.347033,1.4708601,-0.9753523,-1.2638363,0.37732705,-0.09305126,0.004385346,-0.0026136956,0.4705653,0.38687086,1.143631,-0.6075287,1.6105924,-2.9598944,-0.19478782,-0.32066822,0.02732563,-0.3274002,1.0930458,0.8552751,-0.2763575,0.1308429,0.4183434,-0.2837838,0.24631755,0.04562256,1.0,0.0,0.0,0.0,0.0,0.0,0.0,-1.793631,0.20752868,-1.0605924,4.990363,-27.467316,-0.498648,-21.886488,-17.01338,0.4246056,0.4543364
-5.6213217,-107.913994,-26.22725,-21.610561,1.076427,-4.5000644,0.4127792,-0.6606625,-0.20365222,0.077644035,-0.2670411,-0.37094364,0.6481822,0.5020562,0.9209348,-0.45732543,-1.741563,-0.7425976,2.3099387,1.5356784,-0.9251467,0.9747454,-0.4359436,-1.7496841,-0.71775025,2.3454843,1.4755579,-0.97151184,-1.2112457,0.009862921,-0.017472995,-0.24883312,-0.20631811,0.46961668,0.38266748,1.1140537,-0.6094742,1.6066515,-2.956935,-0.19459307,-0.41853356,0.024346352,-0.3268509,1.0924246,0.85622334,-0.2768573,0.13474895,0.4148184,-0.3000376,-0.008167292,-0.098494284,1.0,0.0,0.0,0.0,0.0,0.0,0.0,-1.7640537,0.20947418,-1.0566516,5.7587385,-36.725227,7.2708235,-25.283703,-20.547918,-0.09713769,-0.5596757
-9.1088,-143.73116,-33.030277,-25.637323,2.2749312,-4.942793,0.5410524,-0.55299056,-0.5306584,0.21269542,-0.36208567,-0.50020385,0.6517883,0.47315502,0.91944635,-0.48900944,-1.7284145,-0.7539588,2.2954638,1.5407368,-0.92419636,0.963411,-0.4395094,-1.7486141,-0.72208947,2.3418183,1.4802214,-0.96774673,-1.1062702,-0.47917193,0.14862368,-0.4955803,-0.42123,0.4634739,0.3735766,1.084507,-0.6114197,1.601733,-2.9539788,-0.19439852,-0.5163011,0.020916939,-0.32923508,1.0901933,0.85739,-0.27553946,0.1374703,0.4123861,-0.3573483,-0.31387287,-0.26480344,1.0,0.0,0.0,0.0,0.0,0.0,0.0,-1.734507,0.21141967,-1.051733,10.883188,-49.026814,16.703354,-24.64996,-21.869188,-1.1683583,-1.1636972
-3.9890466,-123.25868,-25.900751,-20.68945,2.7910988,-4.182497,0.67406756,-0.4187876,-0.707725,0.38440037,-0.3716457,-0.5480968,0.6691899,0.37355977,0.9215322,-0.5102819,-1.7101741,-0.75925404,2.2870088,1.5471404,-0.9303908,0.9536015,-0.44789696,-1.7452056,-0.7283036,2.336268,1.4848181,-0.96414375,-0.9392633,-0.95935273,0.40664968,-0.6634876,-0.60094523,0.45509043,0.35506016,1.0549889,-0.6133652,1.5958374,-2.9510255,-0.19420417,-0.61397094,0.016856194,-0.33432007,1.0864764,0.8585425,-0.27289873,0.13841245,0.41142806,-0.4239969,-0.57119673,-0.407657,1.0,0.0,0.0,0.0,0.0,0.0,0.0,-1.7049888,0.21336517,-1.0458374,16.675817,-48.243523,26.326227,-16.855026,-18.36903,-1.7958224,-2.0707488
10.991694,-61.235847,-9.99242,-15.215091,1.6686622,-3.0476477,0.7831669,-0.24527663,-0.7451506,0.41726723,-0.39116153,-0.5854156,0.664112,0.26214355,0.9290738,-0.522412,-1.7034789,-0.76741976,2.2777264,1.5512292,-0.9379294,0.9460083,-0.46005726,-1.7394245,-0.7356431,2.3292603,1.4893366,-0.96079636,-0.7010661,-1.3022333,0.63768595,-0.75822437,-0.7347521,0.44787553,0.32768038,1.0255013,-0.61530304,1.5889658,-2.948075,-0.19401,-0.7115431,0.0125284195,-0.3412285,1.0816717,0.85938776,-0.26961857,0.13762254,0.4120902,-0.43834308,-0.7273801,-0.50601995,1.0,0.0,0.0,0.0,0.0,0.0,0.0,-1.6755012,0.21530303,-1.0389657,23.292648,-34.484528,23.875118,-9.691513,-13.617301,-1.5657842,-2.8290093
24.887806,-3.2045035,3.706029,-11.84345,0.13586119,-2.2329297,0.7711893,-0.088643126,-0.76959616,0.38775858,-0.4316799,-0.6003358,0.6609012,0.09764835,0.93714404,-0.53701687,-1.7006487,-0.7788111,2.2692268,1.5554267,-0.9510315,0.941115,-0.4744916,-1.7320831,-0.743633,2.3212724,1.4938055,-0.9578247,-0.4214324,-1.4909004,0.7689735,-0.8135919,-0.82044685,0.4447235,0.28698355,0.99604225,-0.6172409,1.5811192,-2.9451275,-0.19381604,-0.8090177,0.008523941,-0.34908295,1.0761732,0.8597553,-0.26616493,0.13557112,0.4142433,-0.3899638,-0.8000222,-0.5666355,1.0,0.0,0.0,0.0,0.0,0.0,0.0,-1.6460422,0.2172409,-1.0311191,27.127283,-18.9919,13.961077,-5.8487177,-8.669174,-0.8182645,-4.0668726
33.72593,35.97585,12.091959,-10.025075,-1.100039,-1.8530517,0.67369914,0.056167517,-0.7849116,0.3196802,-0.4655139,-0.5805005,0.64549834,-0.018387899,0.94673175,-0.55298275,-1.7001151,-0.7901844,2.2632222,1.5583553,-0.9596635,0.93911135,-0.48989105,-1.7243755,-0.7520396,2.312796,1.4982535,-0.95531845,-0.12967767,-1.5565103,0.77407825,-0.85075825,-0.856864,0.44406354,0.23853858,0.9666128,-0.6191788,1.5722986,-2.9421828,-0.19362226,-0.90639484,0.00534153,-0.35730362,1.0702608,0.8596261,-0.2627121,0.13280381,0.41759825,-0.29492995,-0.8232092,-0.60209703,1.0,0.0,0.0,0.0,0.0,0.0,0.0,-1.6166128,0.21917877,-1.0222986,28.258429,-6.629133,1.2888193,-4.033184,-3.682816,-0.27686954,-4.805556
31.986061,48.336292,12.871178,-7.08622,-1.554832,-1.8275123,0.40149423,0.14491023,-0.7969094,0.18529159,-0.48772454,-0.5339409,0.6331406,-0.0977445,0.9536024,-0.569582,-1.7058463,-0.80081207,2.259402,1.5615675,-0.9650929,0.9397408,-0.5054046,-1.7176616,-0.7607457,2.304297,1.5026957,-0.95331955,0.12458353,-1.549797,0.6392526,-0.8780171,-0.8475337,0.44403407,0.18718053,0.93721294,-0.62111664,1.562505,-2.9392414,-0.19342868,-1.0036746,0.0031690598,-0.36566925,1.0640619,0.85917133,-0.25916559,0.12980196,0.42167416,-0.19049044,-0.8346924,-0.6287832,1.0,0.0,0.0,0.0,0.0,0.0,0.0,-1.5872129,0.22111663,-1.012505,24.663519,0.625515,-12.834883,-2.9401898,0.8624077,-0.09698272,-5.11246
26.508232,41.754383,8.521183,-5.9283996,-1.6332158,-2.1625051,0.09686874,0.25630116,-0.80228895,-0.053141072,-0.50316554,-0.45500126,0.62805605,-0.13615033,0.9653709,-0.5856335,-1.7229757,-0.8110623,2.258797,1.5655013,-0.96693456,0.9426819,-0.5206233,-1.7135093,-0.76968354,2.296225,1.5071341,-0.9518175,0.3483908,-1.5127695,0.3430632,-0.89948905,-0.7939898,0.4431786,0.13768357,0.90784264,-0.6230469,1.5517393,-2.936303,-0.1932353,-1.1008571,0.0019788742,-0.37428665,1.0575411,0.8586794,-0.25521272,0.1269299,0.42593998,-0.09276339,-0.8656634,-0.6630372,1.0,0.0,0.0,0.0,0.0,0.0,0.0,-1.5578426,0.22304687,-1.0017393,21.725256,3.6466122,-28.924025,-2.2764206,5.182135,-0.24091601,-5.002239
20.29211,30.70678,3.652466,-5.181985,-1.5721221,-2.427189,-0.08633204,0.33603457,-0.8002739,-0.26024577,-0.5286336,-0.4280238,0.6398589,-0.057595585,0.97628534,-0.6006507,-1.7395339,-0.8225469,2.2534227,1.57112,-0.95757705,0.9475504,-0.53543293,-1.7130287,-0.77887315,2.288775,1.5115668,-0.9507017,0.53135055,-1.4706225,-0.048119154,-0.92567873,-0.72962326,0.4424915,0.10250951,0.8785019,-0.6249771,1.5400026,-2.9333673,-0.1930421,-1.1979425,0.0016708374,-0.38337326,1.0505831,0.8583951,-0.25051063,0.1244702,0.430011,-0.0062000556,-0.91743016,-0.71051896,1.0,0.0,0.0,0.0,0.0,0.0,0.0,-1.5285019,0.2249771,-0.9900026,17.788977,4.145789,-38.459377,-2.6762009,6.2041044,-0.33405423,-3.6311984
13.054276,21.491137,0.1668123,-3.0128717,-1.3726541,-2.4090927,-0.1611553,0.3646448,-0.79922986,-0.4083206,-0.55600286,-0.4735242,0.64382625,0.09683567,0.98401487,-0.6153559,-1.7538607,-0.83447343,2.2414227,1.5759494,-0.94101816,0.9537865,-0.5498935,-1.7164905,-0.78838795,2.2817407,1.5159918,-0.9497709,0.65354717,-1.4382049,-0.44389215,-0.96000016,-0.6956253,0.44144228,0.08942494,0.84918976,-0.62690735,1.5272957,-2.9304345,-0.1928491,-1.2949308,0.0020990372,-0.39303207,1.0430763,0.8584491,-0.2448314,0.12266642,0.433677,0.06431492,-0.9772205,-0.76867336,1.0,0.0,0.0,0.0,0.0,0.0,0.0,-1.4991897,0.22690734,-0.9772957,11.939716,3.1674385,-39.092648,-3.4028888,3.1461,-0.45294166,-1.4527649
11.104879,21.338717,0.71100605,-1.8455424,-1.2342908,-2.143225,-0.06181337,0.40408462,-0.79992026,-0.4736673,-0.5919355,-0.5218615,0.6394414,0.14948286,0.994195,-0.62988555,-1.7638572,-0.8475815,2.2295544,1.5799359,-0.9348226,0.9609314,-0.56414044,-1.7232635,-0.7983472,2.2747712,1.5204035,-0.9488907,0.73441017,-1.4204205,-0.7541852,-1.0077068,-0.69773495,0.4398814,0.087245256,0.8199072,-0.6288376,1.5136197,-2.9275045,-0.1926563,-1.3918221,0.0031728745,-0.4032135,1.0349733,0.85879326,-0.238168,0.12157422,0.43700072,0.12774687,-1.0275959,-0.82975936,1.0,0.0,0.0,0.0,0.0,0.0,0.0,-1.4699072,0.22883758,-0.96361965,7.9541087,1.7170429,-30.768002,-4.7151566,-0.40262938,-0.52137375,-0.33924878
12.192829,30.245857,4.786398,0.3549633,-1.0715123,-1.6193833,0.11684072,0.4437529,-0.7954823,-0.48305783,-0.5987635,-0.58540237,0.6567892,0.22994888,1.0053067,-0.6436887,-1.7715693,-0.85822356,2.2162309,1.5860825,-0.9258958,0.9687153,-0.5782796,-1.7321594,-0.80873173,2.2675118,1.5248171,-0.94794846,0.7928073,-1.4117786,-0.93459976,-1.0485946,-0.73566055,0.44106486,0.096319534,0.7906542,-0.6307602,1.4989754,-2.9245775,-0.19246367,-1.4886166,0.0048513412,-0.4137001,1.0263395,0.85923356,-0.23076233,0.12110324,0.44022763,0.18731618,-1.0510042,-0.8811048,1.0,0.0,0.0,0.0,0.0,0.0,0.0,-1.4406542,0.23076019,-0.9489754,5.768335,0.8337736,-18.007994,-4.0627956,-3.8619995,-0.1586318,0.8487165
8.941459,36.341686,7.789816,5.3798475,-0.49339318,-1.0652288,0.13906835,0.445385,-0.79885453,-0.49724612,-0.57776487,-0.6017494,0.66022956,0.22150528,1.0132538,-0.6581651,-1.781884,-0.86650825,2.207337,1.5908401,-0.92579794,0.9768559,-0.5924026,-1.7420642,-0.81930894,2.2598138,1.5292536,-0.9469137,0.82113403,-1.4126425,-1.0093654,-1.0607194,-0.7815203,0.4439872,0.10586906,0.7614298,-0.6326828,1.4833639,-2.9216533,-0.19227125,-1.5853143,0.0069713593,-0.4242401,1.0173059,0.8596224,-0.22295505,0.12106451,0.44349018,0.2268085,-1.0508605,-0.91795987,1.0,0.0,0.0,0.0,0.0,0.0,0.0,-1.4114298,0.2326828,-0.93336385,2.8333783,-0.108361244,-7.582736,-1.17805,-4.6151996,0.13475418,0.96021146
6.5229497,39.201206,9.369674,8.165632,-0.08888042,-0.74119174,0.163087,0.44120038,-0.8038188,-0.5129148,-0.59150845,-0.6035706,0.66202366,0.23356017,1.020976,-0.67278445,-1.7933557,-0.8784598,2.1994567,1.595456,-0.9235577,0.98509467,-0.6065866,-1.7522361,-0.8299596,2.2517114,1.5337225,-0.94577885,0.8250236,-1.4203652,-1.0204409,-1.0663581,-0.819907,0.44765282,0.11619634,0.73223495,-0.6346054,1.4667861,-2.9187324,-0.19207901,-1.6819153,0.009384155,-0.43470764,1.0079609,0.8598777,-0.21496916,0.121270046,0.44686908,0.25259006,-1.0389842,-0.94747066,1.0,0.0,0.0,0.0,0.0,0.0,0.0,-1.3822349,0.2346054,-0.91678613,0.4439354,-0.7924795,-1.2964487,-0.51050186,-3.8607478,0.26760697,1.0845184
7.146338,44.373222,11.633286,9.271917,0.0881449,-0.50908345,0.23033145,0.44805664,-0.80240315,-0.49378723,-0.6027397,-0.60093844,0.6617336,0.26474676,1.0299003,-0.6868269,-1.8016149,-0.8902335,2.1916175,1.5998958,-0.9193042,0.9933115,-0.62084496,-1.7621677,-0.84066933,2.2433267,1.5382296,-0.94452477,0.8208251,-1.4276439,-0.9849734,-1.072404,-0.8446064,0.4515123,0.12878339,0.7030697,-0.636528,1.4492432,-2.9158144,-0.19188698,-1.7784197,0.012026787,-0.44496536,0.9983757,0.8599168,-0.20695934,0.12155799,0.45048264,0.27477083,-1.0161422,-0.9696428,1.0,0.0,0.0,0.0,0.0,0.0,0.0,-1.3530697,0.23652801,-0.8992432,-0.3537178,-0.7353306,3.2850146,-0.56426525,-2.457559,0.34114122,1.3566151
3.3225842,46.10234,12.156212,12.168268,0.40372372,-0.2901251,0.17091879,0.4157514,-0.80243003,-0.4803223,-0.59583384,-0.6101415,0.6705989,0.26818287,1.0348867,-0.70108795,-1.8102,-0.9002527,2.1823125,1.6052895,-0.9177065,1.0013125,-0.6351596,-1.7716129,-0.8513858,2.2347512,1.5427805,-0.9431524,0.7936097,-1.4328274,-0.9320622,-1.0712477,-0.86200255,0.45628807,0.14042296,0.673933,-0.638443,1.4307358,-2.9128993,-0.19169512,-1.8748276,0.014797211,-0.45495224,0.98861414,0.85973424,-0.19902612,0.121851996,0.45430994,0.28420174,-0.9868136,-0.98568416,1.0,0.0,0.0,0.0,0.0,0.0,0.0,-1.323933,0.23844299,-0.8807358,-2.5942206,-0.5283356,4.9979568,0.18746853,-1.7609715,0.48125982,1.2760937
1.1886277,47.012745,12.332935,13.598818,0.5831476,-0.19918904,0.13466671,0.39853454,-0.8016377,-0.47026426,-0.5956874,-0.60140836,0.66995543,0.29188442,1.041166,-0.7153234,-1.8186393,-0.91095454,2.1746104,1.609776,-0.913964,1.0089686,-0.6495029,-1.780545,-0.86207455,2.2260842,1.5473772,-0.941658,0.7566961,-1.4349283,-0.88133085,-1.0677154,-0.86822975,0.46067864,0.15280923,0.64482594,-0.640358,1.4112651,-2.909987,-0.19150347,-1.9711392,0.01761055,-0.46464157,0.9787123,0.8593527,-0.19120494,0.122116804,0.45830244,0.28663316,-0.9560549,-0.9987041,1.0,0.0,0.0,0.0,0.0,0.0,0.0,-1.2948259,0.24035797,-0.8612651,-3.5344958,-0.2218008,4.7749043,0.44653416,-0.6668091,0.46438575,1.3575464
-2.5335264,44.860287,11.251361,14.910078,0.76544714,-0.16657948,0.06777213,0.36163706,-0.80489194,-0.4654855,-0.60076284,-0.6026794,0.6719029,0.30482468,1.0451323,-0.7299921,-1.8270936,-0.92215085,2.1658163,1.6145675,-0.91117555,1.0161402,-0.663869,-1.7890747,-0.8727471,2.2173905,1.552014,-0.9400425,0.7046985,-1.4372004,-0.8444886,-1.0666816,-0.87008476,0.464551,0.1647235,0.6157484,-0.64227295,1.3908321,-2.9070776,-0.191312,-2.0673542,0.020381927,-0.4740448,0.96866655,0.8588242,-0.18346176,0.12235552,0.4623762,0.28018424,-0.92876935,-1.0132252,1.0,0.0,0.0,0.0,0.0,0.0,0.0,-1.2657484,0.24227294,-0.84083205,-5.000782,-0.2496481,3.4011483,0.24063587,-0.27538538,0.40304065,1.3010323
-3.0141716,41.32834,9.79345,13.360378,0.6948052,-0.29858926,0.08169888,0.33747283,-0.8083644,-0.4787592,-0.63711256,-0.5853202,0.6583878,0.3415662,1.0498875,-0.74470544,-1.8369505,-0.93645835,2.1588585,1.6178528,-0.9058859,1.0227702,-0.6782676,-1.7974327,-0.8835847,2.2087464,1.5566698,-0.9382944,0.6498167,-1.4407296,-0.83371043,-1.0889825,-0.8626913,0.46575314,0.17848074,0.5866995,-0.6441879,1.3694376,-2.904171,-0.19112073,-2.163473,0.023105621,-0.48325348,0.958405,0.858184,-0.17565908,0.122580566,0.46651703,0.2754753,-0.9103975,-1.0368721,1.0,0.0,0.0,0.0,0.0,0.0,0.0,-1.2366995,0.24418792,-0.81943756,-5.274427,-0.38421154,0.8137226,-2.0576715,0.6236911,0.06844401,1.473996
-5.665318,42.89544,10.213825,14.680338,0.82038414,-0.1326819,0.0756957,0.28133863,-0.80608857,-0.43073437,-0.6482834,-0.5970754,0.6677231,0.37442845,1.050904,-0.75887644,-1.8405061,-0.948413,2.1490388,1.6234422,-0.90085155,1.0287173,-0.69268334,-1.8055637,-0.89470166,2.200148,1.5613428,-0.9363966,0.5771619,-1.4420173,-0.807372,-1.1186382,-0.859326,0.4675159,0.1938927,0.5576792,-0.6460953,1.3470826,-2.9012673,-0.19092965,-2.2594957,0.02573967,-0.49223328,0.9479215,0.8574349,-0.16777539,0.12279403,0.470721,0.26467672,-0.88716274,-1.058469,1.0,0.0,0.0,0.0,0.0,0.0,0.0,-1.2076792,0.24609527,-0.7970826,-7.016301,-0.15819073,2.3326635,-2.7738333,0.21363497,0.14299154,1.6470224
-10.691954,45.001568,10.615878,17.584982,1.0766971,0.11737254,0.020714633,0.21088357,-0.8017169,-0.3932301,-0.65317327,-0.6163726,0.683733,0.40440235,1.0498056,-0.77285504,-1.8448867,-0.960019,2.138511,1.6297162,-0.89595634,1.0337527,-0.7070838,-1.8133037,-0.90609425,2.1915154,1.5660444,-0.9343357,0.47988945,-1.4394377,-0.7639461,-1.1453263,-0.86524445,0.47106972,0.21048303,0.52868843,-0.6480026,1.3237681,-2.8983665,-0.19073875,-2.3554225,0.028179169,-0.5009346,0.93726355,0.85659474,-0.15986623,0.12301762,0.47492614,0.2416185,-0.8570394,-1.0742023,1.0,0.0,0.0,0.0,0.0,0.0,0.0,-1.1786884,0.24800262,-0.7737681,-9.432387,0.22861958,4.0068626,-2.4523258,-0.7323861,0.367558,1.7695814
-16.84719,46.885414,10.899126,21.061268,1.4102937,0.38162756,-0.054955006,0.12912004,-0.7983725,-0.3485943,-0.6588258,-0.63896674,0.68149513,0.42039472,1.0466647,-0.7869211,-1.8481631,-0.9719768,2.1276188,1.634194,-0.89229625,1.0376132,-0.7214376,-1.8204601,-0.9177043,2.1827416,1.5707804,-0.9321127,0.3558681,-1.4341841,-0.70091397,-1.165471,-0.8816483,0.47468522,0.2266659,0.4997263,-0.64991,1.2994951,-2.8954685,-0.19054806,-2.4512534,0.030277252,-0.509285,0.9265022,0.85569966,-0.15201165,0.12327658,0.47903368,0.20332849,-0.8206147,-1.0825579,1.0,0.0,0.0,0.0,0.0,0.0,0.0,-1.1497263,0.24990997,-0.7494951,-12.061954,0.49436092,5.932784,-1.768446,-1.7977595,0.4262209,1.7380476
-21.09816,46.930584,10.867256,22.967552,1.7262473,0.5422926,-0.08617572,0.05156923,-0.8023456,-0.29921013,-0.6772361,-0.62470126,0.6806194,0.4348038,1.04277,-0.8016721,-1.8503811,-0.9854279,2.1202714,1.6388423,-0.8886323,1.0401099,-0.7357627,-1.8268592,-0.9295289,2.1738572,1.5755507,-0.9297333,0.2155336,-1.4319757,-0.6210445,-1.1871705,-0.8913754,0.4780451,0.2423037,0.47079372,-0.6518173,1.2742646,-2.8925736,-0.19035755,-2.5469885,0.031903267,-0.51726913,0.9156804,0.8547753,-0.14426807,0.123505056,0.48300344,0.15278065,-0.78292817,-1.0873055,1.0,0.0,0.0,0.0,0.0,0.0,0.0,-1.1207937,0.25181732,-0.72426456,-13.668731,0.18696785,7.582402,-1.8933773,-1.1297107,0.42396784,1.7124087
-30.255877,46.8516,10.232642,27.297422,2.283867,0.8144716,-0.20347896,-0.07113641,-0.799118,-0.24164756,-0.6810233,-0.6184001,0.68224615,0.4358367,1.0329962,-0.81567454,-1.851024,-0.9976312,2.1120172,1.6437753,-0.8861496,1.0409396,-0.75006306,-1.8323467,-0.941529,2.1649232,1.5803534,-0.92721176,0.04021291,-1.4294736,-0.5260193,-1.203093,-0.8948202,0.4815219,0.25605506,0.44188976,-0.65371704,1.2480773,-2.8896818,-0.19016723,-2.6426277,0.032855988,-0.52485275,0.9048584,0.8538885,-0.13670057,0.12363841,0.48672467,0.07866823,-0.74281794,-1.0851971,1.0,0.0,0.0,0.0,0.0,0.0,0.0,-1.0918897,0.25371704,-0.69807726,-17.109236,0.20751953,9.058941,-1.262331,-0.5207777,0.4792452,1.5503854
-25.422108,53.723164,13.709481,26.224445,2.179065,0.95219165,-0.09146672,-0.120223105,-0.7953426,-0.13476202,-0.70067716,-0.6193273,0.6800685,0.44927096,1.0289173,-0.82959735,-1.8458229,-1.0115967,2.1029904,1.6483603,-0.88228464,1.0401423,-0.7643262,-1.8365867,-0.9537255,2.1559815,1.5851885,-0.9245548,-0.1184222,-1.4252858,-0.39173594,-1.224145,-0.8944262,0.48491123,0.2696182,0.4130144,-0.65561676,1.2209344,-2.886793,-0.18997711,-2.7381713,0.033138275,-0.53196335,0.8941296,0.8529851,-0.12944213,0.12356675,0.49029815,0.013474396,-0.69313747,-1.072954,1.0,0.0,0.0,0.0,0.0,0.0,0.0,-1.0630144,0.25561675,-0.6709344,-15.477618,0.40876865,12.880903,-1.8108606,-0.025975704,0.531739,1.5942216
-16.284765,54.158077,14.740596,21.69408,1.7298274,0.6743612,0.0068967864,-0.13133965,-0.7986496,-0.13085854,-0.7140902,-0.6051065,0.67091465,0.44139776,1.0270083,-0.8441912,-1.8496726,-1.0251346,2.095471,1.65228,-0.880415,1.0381396,-0.7785684,-1.8397033,-0.96615094,2.147097,1.5900465,-0.9217825,-0.2264933,-1.4238391,-0.2867415,-1.2477959,-0.8862836,0.48665223,0.28052953,0.38416767,-0.6575165,1.1928368,-2.8839068,-0.18978716,-2.8336194,0.03294182,-0.53863525,0.8834838,0.8519993,-0.12248546,0.12323465,0.49387,-0.029606424,-0.6498815,-1.0653187,1.0,0.0,0.0,0.0,0.0,0.0,0.0,-1.0341676,0.25751647,-0.64283675,-10.504734,0.15375614,9.971017,-2.1064758,0.81642866,0.33955574,1.3398051
-5.5885324,50.034523,13.642745,15.524557,1.0368967,0.13485193,0.07335705,-0.11244462,-0.80114555,-0.19517781,-0.7178726,-0.60915804,0.66825795,0.45347765,1.0268952,-0.85868293,-1.8592211,-1.0379382,2.0861814,1.6568723,-0.87643474,1.0355666,-0.79281723,-1.8423927,-0.97878045,2.1382852,1.5949122,-0.9189091,-0.26688534,-1.425233,-0.26424545,-1.26728,-0.879581,0.4867334,0.2902534,0.3553505,-0.6594162,1.1637853,-2.8810236,-0.18959743,-2.928972,0.032532692,-0.54499054,0.8727905,0.8509063,-0.115643784,0.12272024,0.4975185,-0.043499604,-0.623081,-1.0735891,1.0,0.0,0.0,0.0,0.0,0.0,0.0,-1.0053505,0.2594162,-0.6137853,-3.8444252,-0.12848377,1.8580616,-1.7243862,0.6699085,0.080013275,1.170814
18.920713,43.87535,12.471092,2.4916313,-0.4639743,-0.9239072,0.27892327,0.03167496,-0.8035452,-0.35812676,-0.73067087,-0.6037217,0.6502568,0.46033236,1.0387341,-0.87317175,-1.8782053,-1.0518476,2.077913,1.6599379,-0.8728758,1.0335715,-0.8070966,-1.8459022,-0.9916093,2.1295457,1.599753,-0.9159508,-0.17699741,-1.428803,-0.3804547,-1.2876898,-0.87238264,0.48286515,0.2980113,0.32656193,-0.6613083,1.1337812,-2.8781433,-0.18940787,-3.0242293,0.03246498,-0.551281,0.861776,0.8496256,-0.10853789,0.12220123,0.50142056,0.006197259,-0.6229025,-1.1133912,1.0,0.0,0.0,0.0,0.0,0.0,0.0,-0.9765619,0.26130828,-0.5837812,8.985048,-0.34034252,-11.766481,-1.9108057,0.7123828,-0.497818,0.8715272
31.795525,42.389584,12.728039,-3.4092255,-1.2120718,-1.361002,0.38175288,0.10453832,-0.80703175,-0.42424336,-0.7215854,-0.62771493,0.65659577,0.47892958,1.0440253,-0.8877998,-1.8883265,-1.0637678,2.0667741,1.6654125,-0.86805785,1.032963,-0.82142556,-1.8509929,-1.0045496,2.120791,1.6045557,-0.9129143,-0.022484675,-1.4342134,-0.5521229,-1.2957889,-0.87650084,0.47874662,0.3057389,0.29780197,-0.6632004,1.102825,-2.8752658,-0.18921849,-3.1193914,0.033132553,-0.5576401,0.8502679,0.8480742,-0.100947924,0.12182318,0.50570613,0.087753154,-0.631221,-1.1660684,1.0,0.0,0.0,0.0,0.0,0.0,0.0,-0.94780195,0.26320037,-0.55282503,15.360238,-0.513649,-17.231428,-0.7309675,-0.38784742,-0.60132146,0.82527995
-1.6746478,29.725317,3.802955,8.171472,0.1923643,-0.91305006,-0.09181773,-0.06390858,-0.8064765,-0.53655356,-0.72144157,-0.6320699,0.6396772,0.44617197,1.0265722,-0.9020732,-1.9046483,-1.0766938,2.057584,1.6685234,-0.8682971,1.0329669,-0.83580315,-1.8581054,-1.0175062,2.1119561,1.6093012,-0.90983677,0.008436522,-1.4391698,-0.764263,-1.2947835,-0.8868848,0.47239393,0.308384,0.26907063,-0.66509247,1.0709181,-2.8723912,-0.18902932,-3.2144585,0.034072876,-0.5641632,0.8381618,0.84651685,-0.09266661,0.121742666,0.5099028,0.097701125,-0.65021384,-1.2286941,1.0,0.0,0.0,0.0,0.0,0.0,0.0,-0.9190706,0.26509246,-0.5209181,3.1928837,-0.564003,-21.178162,0.3832817,-1.2638807,-0.91459155,0.2610743
-36.845356,21.143826,-3.082617,20.26745,1.821861,-0.16068316,-0.46190393,-0.22099686,-0.8140414,-0.58178157,-0.7558664,-0.6079305,0.599176,0.4345557,1.0108671,-0.9172073,-1.9162836,-1.0930929,2.051163,1.6692188,-0.86638117,1.0321906,-0.850258,-1.8671329,-1.0305754,2.1030793,1.6139551,-0.9067507,-0.105267234,-1.4481906,-0.9487516,-1.3092833,-0.8898078,0.4619114,0.30866963,0.24036789,-0.66698456,1.0380611,-2.8695195,-0.18884033,-3.3094304,0.034521103,-0.57086945,0.8254174,0.84526676,-0.08357644,0.12195227,0.51348484,0.028641677,-0.66921145,-1.2934326,1.0,0.0,0.0,0.0,0.0,0.0,0.0,-0.89036787,0.26698455,-0.48806113,-11.060586,-1.0770559,-18.357372,-0.9563923,-0.7813692,-1.3907671,0.014203787
-64.00682,22.409643,-4.9876814,31.181534,3.259573,0.74786574,-0.702875,-0.37007907,-0.8129758,-0.5811556,-0.7637797,-0.5829154,0.5896816,0.44810575,0.99518263,-0.93155557,-1.9252485,-1.1069534,2.044788,1.6729233,-0.8619401,1.0294249,-0.8647901,-1.8774726,-1.0438143,2.094252,1.6185023,-0.90365314,-0.33212456,-1.45573,-1.0618252,-1.3266565,-0.8825128,0.45127434,0.31016585,0.21169376,-0.668869,1.0042552,-2.8666506,-0.18865152,-3.4043074,0.033795357,-0.5776825,0.81214416,0.8445226,-0.073789306,0.122300975,0.5161192,-0.10546798,-0.6749063,-1.3427457,1.0,0.0,0.0,0.0,0.0,0.0,0.0,-0.86169374,0.268869,-0.45425516,-22.230762,-1.0169268,-11.191916,-1.0933161,0.035381317,-1.4093816,0.1722455
-74.76957,28.213589,-3.7732716,35.970398,3.8001263,1.3171178,-0.7694911,-0.483089,-0.807223,-0.6085826,-0.766351,-0.61229736,0.58093333,0.46273753,0.981116,-0.9455124,-1.9383309,-1.1204494,2.0330224,1.6765956,-0.8573794,1.0240672,-0.8793527,-1.8885677,-1.0572058,2.0854173,1.6229464,-0.90052795,-0.6018624,-1.4574567,-1.124972,-1.3409522,-0.886672,0.44090036,0.31349418,0.1830492,-0.6707535,0.9695012,-2.8637846,-0.18846291,-3.4990895,0.031546593,-0.5844345,0.7984905,0.8443457,-0.06347895,0.12270251,0.51768225,-0.26466492,-0.6658696,-1.3773369,1.0,0.0,0.0,0.0,0.0,0.0,0.0,-0.8330492,0.27075347,-0.4195012,-26.47428,-0.48372746,-6.1965227,-0.7107973,-1.1992574,-1.3999224,0.39470196
-69.31631,32.23249,-1.7317545,33.88244,3.6372128,1.3392721,-0.683414,-0.54529357,-0.8136456,-0.673895,-0.766889,-0.59198105,0.56237817,0.45536947,0.9695378,-0.96071726,-1.9559572,-1.1338947,2.0262191,1.6791842,-0.854991,1.0162413,-0.893942,-1.9002559,-1.0706984,2.0765939,1.6272837,-0.8973732,-0.841278,-1.4605342,-1.1830772,-1.3495644,-0.8837349,0.4297429,0.31649297,0.15443325,-0.67263794,0.9337921,-2.8609214,-0.18827449,-3.5948422,0.027785301,-0.5910797,0.78450763,0.8446855,-0.05272679,0.123062536,0.51824874,-0.4141813,-0.652412,-1.4097263,1.0,0.0,0.0,0.0,0.0,0.0,0.0,-0.8044332,0.27263793,-0.3837921,-23.485052,-0.6224632,-5.7002783,-0.13439655,-0.45546293,-1.5228212,0.40774345
-67.80253,35.886566,-0.38941622,33.586494,3.6809902,1.4560454,-0.68979585,-0.6598192,-0.8107401,-0.72066,-0.7504158,-0.5601856,0.5741809,0.40787974,0.9502594,-0.975016,-1.9723219,-1.1457399,2.0205753,1.6847018,-0.8565852,1.0061629,-0.9085418,-1.912545,-1.0841585,2.0678964,1.6315256,-0.8942251,-1.0618762,-1.460843,-1.2437356,-1.3424277,-0.86775625,0.4208851,0.31478566,0.12584591,-0.6745224,0.8971262,-2.858061,-0.18808624,-3.6904993,0.022542,-0.59755707,0.7702377,0.84551924,-0.041597687,0.123282194,0.51784956,-0.5632987,-0.63435596,-1.4371476,1.0,0.0,0.0,0.0,0.0,0.0,0.0,-0.7758459,0.2745224,-0.3471262,-21.636189,-0.3567934,-5.932617,1.4519453,0.8585572,-1.3271987,-0.02951026
-61.31214,40.794727,1.8463802,31.727684,3.4477065,1.4621863,-0.6869751,-0.73585194,-0.8018494,-0.77711576,-0.7235378,-0.5432061,0.5968109,0.28607765,0.93257767,-0.98872674,-1.9902565,-1.1565123,2.0135758,1.6912067,-0.86561733,0.99416846,-0.92309487,-1.9255493,-1.0973974,2.0594087,1.6357065,-0.89118767,-1.2442254,-1.4545219,-1.3186723,-1.315395,-0.84471685,0.41568717,0.3006626,0.09728718,-0.67639923,0.8595044,-2.8552036,-0.1878982,-3.7860608,0.015906334,-0.60383606,0.75572693,0.84683,-0.030161709,0.123322725,0.5164887,-0.7000686,-0.61154884,-1.4600005,1.0,0.0,0.0,0.0,0.0,0.0,0.0,-0.74728715,0.27639922,-0.3095044,-17.872883,0.32031536,-7.336688,3.3976555,1.6229391,-0.9729445,-1.2630403
-47.635887,47.52528,6.435044,27.67001,3.046104,1.4187521,-0.5730518,-0.77311265,-0.8019887,-0.7861446,-0.6995223,-0.48157302,0.5870398,0.16435808,0.9168572,-1.0032938,-2.0041637,-1.1673497,2.0112514,1.6944106,-0.87475187,0.9807617,-0.9375793,-1.9391887,-1.1102682,2.0513177,1.6398417,-0.8883791,-1.3719851,-1.4473389,-1.3785793,-1.2757032,-0.79898095,0.41147125,0.27485156,0.0687561,-0.67827606,0.82092774,-2.852349,-0.18771034,-3.8815267,0.00809288,-0.60982895,0.74105144,0.84853923,-0.018552275,0.12305378,0.5142904,-0.81203276,-0.5820307,-1.474296,1.0,0.0,0.0,0.0,0.0,0.0,0.0,-0.7187561,0.27827606,-0.27092773,-12.510252,0.46494007,-5.870056,4.5422792,4.0489793,-0.81394315,-2.402562
-35.233646,52.9845,10.685711,23.803656,2.8046684,1.3785064,-0.49248335,-0.8101619,-0.8023614,-0.788056,-0.6848107,-0.35396478,0.54492414,-0.07535437,0.8997455,-1.0178155,-2.0179944,-1.1787493,2.015921,1.694334,-0.89591455,0.96640223,-0.9520036,-1.9532516,-1.1227366,2.0440316,1.643912,-0.88599396,-1.4566606,-1.4414349,-1.4151016,-1.235756,-0.7065429,0.40452448,0.22720192,0.04025364,-0.6801529,0.78139716,-2.8494973,-0.18752266,-3.976897,-0.0006866455,-0.61550903,0.72629327,0.8505829,-0.006922805,0.122211635,0.51139516,-0.90352076,-0.54812866,-1.4804264,1.0,0.0,0.0,0.0,0.0,0.0,0.0,-0.6902536,0.2801529,-0.23139715,-8.28383,0.39622784,-3.5774708,4.4484377,8.873283,-1.0254383,-4.536313
-25.40918,57.67406,14.733244,21.60101,3.2862706,1.3357077,-0.43896854,-0.8283722,-0.7997178,-0.78779435,-0.65920067,0.062196355,0.48671716,-0.23235647,0.883565,-1.0319754,-2.032031,-1.1886567,2.0502512,1.6925837,-0.9092296,0.9514782,-0.9663726,-1.9675109,-1.1347891,2.0388436,1.6478773,-0.8841715,-1.5040287,-1.435771,-1.4294533,-1.1939036,-0.45731387,0.39279112,0.1684611,0.011779785,-0.6820297,0.74091357,-2.8466485,-0.18733518,-4.072172,-0.010371208,-0.62088394,0.7115743,0.85296637,0.0045112465,0.12011768,0.5079368,-0.9934569,-0.5182422,-1.4729505,0.0,1.0,0.0,0.0,0.0,0.0,0.0,-0.66177976,0.28202972,-0.19091356,-4.6272993,0.4232645,-1.3827085,4.517269,24.698061,-1.4654875,-5.512327
-18.982874,61.942017,17.782072,20.915682,3.5230672,1.3532927,-0.45706323,-0.83657116,-0.79514056,-0.7912519,-0.6074479,0.30966598,0.47572616,-0.35795888,0.8678211,-1.0458866,-2.046636,-1.1955339,2.0698102,1.69545,-0.91996735,0.9362117,-0.9805772,-1.9826982,-1.1468657,2.03809,1.6508875,-0.88326395,-1.5316344,-1.4183755,-1.5274687,-1.1971114,0.014996724,0.2818303,0.07595542,-0.004468918,-0.68198395,0.73629045,-1.5421548,0.048546948,-0.11355692,-0.02104187,-0.6262779,0.69672006,0.85590464,0.016319413,0.115713745,0.5037571,-1.0921249,-0.5226627,-1.486963,0.0,1.0,0.0,0.0,0.0,0.0,0.0,-0.64553106,0.28198394,-0.18629044,-1.6794443,0.45511723,-0.016188622,6.5929174,32.05544,-2.3261666,-5.720192
32.447845,176.0,110.0,110.0,4.961166,10.682311,-1.5992898,-0.7609547,0.48464623,0.70937395,0.65207434,-0.33851612,0.7042332,-0.350129,0.86011624,-0.9321126,-1.9117608,-1.0816582,2.0042384,1.7213109,-0.91827685,0.9245273,-0.99733895,-1.9889448,-1.1438121,2.027592,1.6607637,-0.8809532,-1.0344775,-1.6762137,-0.46888563,0.7701922,-1.2694999,1.2856736,0.31339952,-0.019878387,-0.68149567,0.7344113,-1.5406129,0.04849841,-0.21269454,-0.032494545,-0.6296768,0.6865239,0.85889477,0.018191462,0.11505861,0.49872857,-1.1659882,-0.26146933,-0.8685329,0.0,1.0,0.0,0.0,0.0,0.0,0.0,-0.6301216,0.28149566,-0.18441129,53.554153,0.00023841858,62.328297,185.89464,-87.89258,119.177376,32.911335
-20.26581,176.0,74.04494,80.67402,6.529603,4.8064795,-1.7232219,-0.76013595,-0.7036535,0.15937026,0.71346843,-0.41405758,0.6203435,-0.37401882,0.8485137,-1.0677043,-1.9730078,-1.0724652,1.9861861,1.7227981,-0.91835505,0.91456616,-1.0140988,-1.9881284,-1.1294154,2.0131228,1.6735773,-0.87830865,-0.9820268,-1.6762146,0.26742628,1.6638058,-1.5091038,1.2841622,0.2504343,-0.0352726,-0.6810074,0.7315415,-1.5390726,0.048449922,-0.31173304,-0.0450058,-0.6315994,0.68095696,0.86260545,0.013104982,0.116499454,0.49210563,-1.2777984,-0.1575339,-0.45684597,1.0,0.0,0.0,0.0,0.0,0.0,0.0,-0.6147274,0.28100738,-0.1815415,5.6067944,-0.10151863,74.33517,89.66045,-24.83964,1.1253357,-5.6043806
-38.391716,135.95802,39.269966,51.490215,3.9160144,2.2723594,-1.3145744,-0.741701,-0.59757787,-0.23241827,0.6445692,-0.5286449,0.6384997,-0.22189187,0.84039605,-1.0738566,-2.0113702,-1.0649585,1.9602582,1.7374272,-0.90049785,0.90435517,-1.0292774,-1.9848974,-1.1105345,1.9986227,1.6858912,-0.8762039,-1.0328933,-1.4660813,0.3421563,1.9647369,-1.4322762,1.2157425,0.19741254,-0.05065155,-0.68052673,0.72768205,-1.5375339,0.048401482,-0.41067255,-0.058412552,-0.63274384,0.6778227,0.86709297,0.00600813,0.11879221,0.4837376,-1.3616225,-0.09112722,-0.2724465,0.0,1.0,0.0,0.0,0.0,0.0,0.0,-0.5993484,0.28052673,-0.17768204,-4.7128916,20.703983,7.61497,30.597855,7.097745,-6.2253714,-5.23428
-17.025747,131.90332,42.079674,30.366982,2.2986708,2.0671003,-0.40317595,-0.72109354,-0.60659945,0.3540075,0.7501236,-0.5760487,0.6099698,-0.21026391,0.8322458,-1.0899374,-1.9494966,-1.0355222,1.9410177,1.7468882,-0.89723027,0.8932668,-1.0423981,-1.9800184,-1.0911444,1.9855669,1.6971807,-0.874658,-1.1336896,-1.2618926,0.53758687,1.9310669,-1.2665206,1.101385,0.1402282,-0.06601524,-0.6800461,0.722834,-1.5359967,0.04835309,-0.50951314,-0.072146416,-0.63302994,0.67623454,0.87186533,-0.0016957342,0.121156916,0.47451973,-1.377925,0.0005929449,-0.12854083,0.0,1.0,0.0,0.0,0.0,0.0,0.0,-0.58398473,0.28004608,-0.17283398,-9.954953,20.085789,19.823896,-3.2170057,15.656447,-11.01253,-5.7345686
-7.2865224,96.666565,27.986517,12.140583,0.74394405,1.0078684,0.076830335,-0.7236243,-0.5966433,0.279314,0.6951727,-0.5506044,0.6261643,-0.21940172,0.8209044,-1.1020625,-1.9520869,-1.0216272,1.9305065,1.7597972,-0.89659816,0.8812152,-1.0538384,-1.9741781,-1.0735339,1.9742696,1.707387,-0.8736385,-1.2290612,-1.105583,0.5996968,1.7044891,-1.0859084,0.99482465,0.08884206,-0.08136368,-0.6795654,0.7169953,-1.5344609,0.048304748,-0.60864854,-0.08577156,-0.6325989,0.6753009,0.8765726,-0.009131594,0.12313759,0.4651604,-1.3586243,0.06689981,-0.08872034,0.0,1.0,0.0,0.0,0.0,0.0,0.0,-0.5686363,0.27956542,-0.16699529,-9.586501,15.421438,6.2811017,-22.669388,17.524004,-10.314107,-5.2454906
1.6617589,84.047,23.953468,6.00801,0.093654454,0.4714771,0.2309607,-0.71791977,-0.5343812,0.29279917,0.704223,-0.5297072,0.5806583,-0.22554336,0.8094232,-1.1072764,-1.9448981,-1.0031116,1.9212989,1.7654529,-0.89619285,0.8684649,-1.0639567,-1.9681625,-1.0583297,1.9645462,1.7163916,-0.8730092,-1.2908615,-0.97997224,0.5869542,1.4500382,-0.92275834,0.84396726,0.060082145,-0.0972662,-0.6779175,0.713613,-1.5858301,0.3535863,0.3978357,-0.099033356,-0.6316681,0.6745022,0.88107526,-0.015745224,0.12468886,0.4559726,-1.3159348,0.10442248,-0.0877603,0.0,1.0,0.0,0.0,0.0,0.0,0.0,-0.5527338,0.27791747,-0.16361296,-6.2998295,12.593579,-3.764081,-27.028202,17.242098,-20.154785,-1.4403552
-5.104351,117.61851,33.276684,17.005806,0.51862913,0.93487203,-0.047634635,-0.7814253,-0.274599,0.27890795,0.7261505,-0.44730434,0.5858038,-0.2669817,0.79032236,-1.0914166,-1.9402717,-0.9857147,1.9198158,1.774972,-0.8997074,0.8550543,-1.0720496,-1.9625149,-1.045045,1.9563293,1.7242174,-0.8727155,-1.3580095,-0.75316674,0.5576186,1.2881455,-0.78927165,0.76329947,0.01874965,-0.11311245,-0.6743851,0.716841,-1.5842446,0.35323277,0.29779303,-0.11192322,-0.6301613,0.674227,0.8854511,-0.021607226,0.12628444,0.44672337,-1.2807839,0.17462514,-0.011935109,0.0,1.0,0.0,0.0,0.0,0.0,0.0,-0.5368875,0.27438506,-0.16684097,-6.7718267,22.47796,-2.8502345,-16.116787,12.939585,-7.6892257,-4.2732997
-5.0455117,117.51617,32.915726,19.690746,0.67534566,0.76333356,-0.15024659,-0.77572626,-0.21921325,0.2433181,0.7212757,-0.42087638,0.57644784,-0.21001373,0.7774817,-1.0939709,-1.9381831,-0.97291744,1.9142417,1.7818623,-0.8937169,0.8411831,-1.0779624,-1.9573708,-1.0327693,1.9491978,1.7313509,-0.87274885,-1.3970208,-0.5378679,0.500417,1.2078958,-0.68881553,0.69773936,-0.0111205205,-0.12894344,-0.67085266,0.7190693,-1.5826607,0.35287958,0.1978504,-0.12449551,-0.6280136,0.6747434,0.8897558,-0.027122416,0.12835063,0.43717855,-1.2499152,0.23660637,0.06957728,0.0,1.0,0.0,0.0,0.0,0.0,0.0,-0.52105653,0.27085266,-0.16906929,-3.9463282,21.342278,-5.5866003,-7.906127,9.682238,-6.25751,-3.0974197
-6.5371466,106.55137,28.82478,20.419323,0.7812925,0.50410044,-0.23151447,-0.7772575,-0.17393789,0.1837545,0.723292,-0.42395112,0.5650239,-0.18334422,0.76345736,-1.0953562,-1.9389954,-0.9604401,1.9068027,1.7878532,-0.8910833,0.8270888,-1.0820403,-1.95298,-1.0207816,1.942749,1.7379389,-0.87302446,-1.4137098,-0.3649402,0.419058,1.1962805,-0.6311484,0.646543,-0.033337016,-0.14475822,-0.6673279,0.7202989,-1.5810784,0.35252675,0.0980077,-0.13683605,-0.62535477,0.6759575,0.8940235,-0.03231777,0.13104641,0.42720518,-1.2283356,0.2848364,0.13608731,0.0,1.0,0.0,0.0,0.0,0.0,0.0,-0.50524175,0.26732787,-0.17029887,-1.6968727,17.128199,-7.984024,-1.0234356,5.463958,-4.92115,-2.3052797
-13.675271,78.959465,17.762531,19.058468,0.909058,0.023450017,-0.32769963,-0.7898524,-0.1665589,0.044978485,0.73199135,-0.40872058,0.5565245,-0.19599673,0.74810356,-1.0986962,-1.9484822,-0.9475825,1.9018769,1.7935914,-0.89262414,0.8128914,-1.0849242,-1.9499283,-1.0086051,1.9367027,1.7440767,-0.87349653,-1.4217975,-0.26319915,0.2675387,1.2254522,-0.596086,0.6032613,-0.051976897,-0.1605568,-0.6638031,0.7205308,-1.5794976,0.35217428,-0.001735188,-0.1491394,-0.62239456,0.6774567,0.8983265,-0.036935452,0.13436493,0.41664276,-1.229608,0.30718535,0.1525762,0.0,1.0,0.0,0.0,0.0,0.0,0.0,-0.48944318,0.2638031,-0.1705308,-0.8014679,10.060578,-15.106291,3.0592442,3.3698797,-4.2227626,-1.9246608
-18.347075,55.144012,8.150552,16.716995,0.7544174,-0.39626777,-0.35914302,-0.7889673,-0.15224022,-0.114669785,0.7496484,-0.4382591,0.560838,-0.18683863,0.7339947,-1.1001482,-1.9613953,-0.9336403,1.8928769,1.8001605,-0.8921804,0.79867595,-1.0871981,-1.9490231,-0.9960152,1.9309297,1.749755,-0.8741119,-1.4212883,-0.21581979,0.033211313,1.2714801,-0.5749935,0.55842865,-0.06513572,-0.17568779,-0.6595268,0.72256434,-1.5093563,0.43253106,0.20439856,-0.16156864,-0.6194,0.6787505,0.9027257,-0.04053601,0.138253,0.40537545,-1.2454655,0.30542699,0.12044456,0.0,1.0,0.0,0.0,0.0,0.0,0.0,-0.4743122,0.25952682,-0.17256433,0.08947849,4.6198697,-22.82658,5.053067,0.75258017,-3.663373,-1.4664874
-20.439903,57.009407,8.035136,17.496187,0.73088324,-0.3686635,-0.36224988,-0.8016933,-0.06853175,-0.22738717,0.7620301,-0.40983674,0.53907824,-0.18862732,0.71850663,-1.0940514,-1.9717618,-0.9198122,1.889946,1.8036629,-0.8929746,0.7844328,-1.0889243,-1.9505718,-0.98292696,1.9252379,1.7550882,-0.87484825,-1.4251084,-0.15862615,-0.21763867,1.321655,-0.56740177,0.52496433,-0.076796174,-0.19073105,-0.65511703,0.72434205,-1.5026598,0.4443231,0.16910079,-0.17415905,-0.61639404,0.6797471,0.90720373,-0.043006223,0.14284559,0.3933535,-1.2611083,0.30864865,0.0913724,0.0,1.0,0.0,0.0,0.0,0.0,0.0,-0.45926893,0.25511703,-0.17434204,-0.3473282,5.6159973,-25.115585,5.1280975,0.7443905,-3.346765,-1.272224
-20.883291,53.879475,6.969205,16.637869,0.6848699,-0.34728992,-0.30810586,-0.8077006,-0.052731868,-0.34950438,0.77160466,-0.39242738,0.5386798,-0.16572195,0.70366275,-1.0941975,-1.9855223,-0.9057665,1.8859951,1.8089561,-0.8914204,0.77012867,-1.090166,-1.9546343,-0.969401,1.9196147,1.7601333,-0.8756699,-1.4320717,-0.11308762,-0.46912247,1.3631314,-0.5608892,0.49744922,-0.084387675,-0.20571136,-0.650589,0.7257229,-1.4963369,0.4558819,0.12844792,-0.18691158,-0.6133423,0.68040174,0.9117175,-0.04430413,0.14812826,0.3806132,-1.2777187,0.3124991,0.055992007,0.0,1.0,0.0,0.0,0.0,0.0,0.0,-0.4442886,0.25058898,-0.1757229,-0.6641865,4.4345217,-25.137817,4.23007,0.6050229,-2.8035283,-0.8945331
-15.587196,62.50347,10.996513,15.811642,0.5768884,-0.16559988,-0.19758657,-0.8038361,-0.0035087678,-0.42000926,0.77658635,-0.379837,0.5247934,-0.14419521,0.68974507,-1.0905168,-1.9966352,-0.89174235,1.881631,1.8126127,-0.8900894,0.7557778,-1.0908679,-1.9608922,-0.9555736,1.9140805,1.7649227,-0.8765405,-1.4361647,-0.05632896,-0.6776538,1.3892542,-0.55163604,0.47228834,-0.08851616,-0.22056484,-0.64590454,0.7268555,-1.4815376,0.47297108,0.10904243,-0.19974232,-0.6101837,0.68082786,0.9161761,-0.044560198,0.15404756,0.36729404,-1.2817419,0.32594284,0.037891574,0.0,1.0,0.0,0.0,0.0,0.0,0.0,-0.42943513,0.24590454,-0.1768555,-0.4284382,5.5169554,-20.670914,2.6189566,0.7180333,-2.6310444,-0.59275776
-9.504976,57.455647,11.112377,12.534772,0.4821803,-0.13958263,-0.060550462,-0.7937903,-0.033667136,-0.46994597,0.77697057,-0.38614032,0.5376058,-0.12376249,0.67639875,-1.0942346,-2.007887,-0.8778766,1.8754665,1.8186833,-0.88891673,0.74144787,-1.0912685,-1.9688072,-0.94159937,1.908602,1.7695009,-0.8774285,-1.4321107,-0.035264045,-0.82841617,1.399913,-0.54723686,0.4524945,-0.08951613,-0.23525524,-0.64105606,0.72774774,-1.4643925,0.48878968,0.08434798,-0.21256638,-0.6069145,0.6810238,0.9204904,-0.04394942,0.16040078,0.35360634,-1.2795016,0.3382254,0.013687898,0.0,1.0,0.0,0.0,0.0,0.0,0.0,-0.41474473,0.24105605,-0.17774773,0.35936832,1.9605488,-14.805782,1.0267258,0.17160177,-2.1086633,-0.2827868
-6.71562,58.011032,12.1132145,11.408768,0.41447896,-0.04714936,0.044273123,-0.7974851,-0.022961287,-0.52835596,0.7758771,-0.42001674,0.536699,-0.044621103,0.66169935,-1.0935646,-2.021643,-0.86401165,1.8666003,1.8231708,-0.8818906,0.7271523,-1.0915508,-1.977922,-0.927605,1.903047,1.7739055,-0.87826306,-1.429001,-0.026433708,-0.93803513,1.3989888,-0.5591109,0.43601555,-0.08203494,-0.24974823,-0.63604355,0.72841746,-1.4435836,0.505678,0.063391805,-0.22532749,-0.6034851,0.68099016,0.9245836,-0.04260309,0.16707183,0.33973068,-1.2716825,0.35345146,-0.008501297,0.0,1.0,0.0,0.0,0.0,0.0,0.0,-0.40025175,0.23604354,-0.17841744,0.23765564,0.7339388,-10.597145,-0.16157627,-1.5328407,-1.7894089,0.5542502
-6.089067,50.57331,10.402528,9.981378,0.5217464,-0.076562524,0.0913723,-0.7974887,-0.064472675,-0.5663753,0.7766845,-0.42058727,0.52803344,-0.03577011,0.6474034,-1.0979981,-2.0345595,-0.84993654,1.8609883,1.8267089,-0.88184005,0.71288246,-1.0920181,-1.9878739,-0.9136525,1.8973563,1.7781633,-0.87901366,-1.426531,-0.053894706,-1.013057,1.3938175,-0.5733034,0.4219625,-0.07321027,-0.26405716,-0.6308861,0.7287698,-1.425778,0.5194941,0.02831968,-0.23805141,-0.59994507,0.6806427,0.9284315,-0.04060892,0.17387646,0.32578018,-1.2692255,0.36502865,-0.04262763,0.0,1.0,0.0,0.0,0.0,0.0,0.0,-0.38594282,0.23088607,-0.17876977,0.18327236,-2.8729908,-7.136214,-0.5636215,-1.7509699,-1.54863,0.71632713
-9.191151,36.193817,5.7516074,8.391376,0.5393033,-0.17378742,0.13772677,-0.805075,-0.12667084,-0.6258099,0.77523357,-0.46053433,0.52127457,0.06956989,0.63237494,-1.1046852,-2.0504549,-0.8361291,1.8513029,1.8302908,-0.87205666,0.6985945,-1.0930805,-1.9985374,-0.8997572,1.8914119,1.782301,-0.8796011,-1.4294957,-0.12406232,-1.0835302,1.388176,-0.601965,0.410628,-0.054321114,-0.2782545,-0.62564087,0.7285667,-1.4168321,0.52674186,-0.03378199,-0.25084114,-0.59632874,0.6797725,0.93203473,-0.037918456,0.18065557,0.31182823,-1.2785184,0.3696393,-0.100938104,0.0,1.0,0.0,0.0,0.0,0.0,0.0,-0.37174547,0.22564086,-0.1785667,-0.30920506,-7.108319,-6.7901373,-0.5327225,-3.0873656,-1.2499392,1.765164
-8.29784,34.61342,5.609186,7.919818,0.57583475,-0.15287673,0.1714193,-0.799062,-0.1549466,-0.6438294,0.77910393,-0.47380534,0.527847,0.1267154,0.6186883,-1.1085752,-2.0629203,-0.82184684,1.8440313,1.8350856,-0.8669296,0.68429893,-1.094929,-2.009771,-0.8858877,1.8851681,1.7863469,-0.87996477,-1.4295785,-0.20541112,-1.1357845,1.3866758,-0.6323088,0.40202555,-0.030775817,-0.29236507,-0.6203308,0.7277269,-1.4081023,0.5330018,-0.09787321,-0.26372814,-0.59267807,0.67830825,0.9353871,-0.034557868,0.18731934,0.29793987,-1.2887807,0.37479186,-0.16067865,0.0,1.0,0.0,0.0,0.0,0.0,0.0,-0.3576349,0.2203308,-0.17772686,-0.018548965,-8.22432,-4.9562693,-0.095677376,-3.263104,-0.9892523,2.2473838
-9.491484,21.09265,1.6694725,5.6916785,0.5488704,-0.27166975,0.21287012,-0.80078167,-0.2522872,-0.67272663,0.77345175,-0.4985183,0.49808556,0.18681477,0.60422075,-1.1201577,-2.0770438,-0.8085425,1.8353163,1.8361554,-0.8612833,0.6700024,-1.0978892,-2.0214784,-0.8720375,1.8785954,1.7903008,-0.880063,-1.4296005,-0.3264523,-1.1816728,1.3848765,-0.665888,0.39295214,-0.003137682,-0.30644512,-0.61499786,0.72605145,-1.4081839,0.5333931,-0.18746927,-0.2767887,-0.58901215,0.676079,0.93850386,-0.030494021,0.19370623,0.28418034,-1.3084284,0.37304062,-0.24282275,0.0,1.0,0.0,0.0,0.0,0.0,0.0,-0.34355485,0.21499786,-0.17605144,0.03798008,-12.158275,-4.4435263,-0.037550926,-3.4663439,-1.0119557,2.7076292
-6.273344,28.297411,4.2038774,5.834425,0.5177463,-0.17857236,0.26407623,-0.79109454,-0.27148598,-0.68035597,0.77349204,-0.5137508,0.5058707,0.28262705,0.590893,-1.1250378,-2.089514,-0.7946883,1.8272203,1.8408879,-0.8518003,0.6557507,-1.1019442,-2.0335252,-0.8582012,1.871706,1.7941772,-0.87983793,-1.4236324,-0.43216056,-1.2118737,1.3835707,-0.69709307,0.38537621,0.030893004,-0.32049274,-0.60964584,0.7235849,-1.4023869,0.5364999,-0.26338914,-0.2899828,-0.5853348,0.67312044,0.94136935,-0.02579006,0.19979005,0.2706334,-1.319723,0.37622166,-0.313057,0.0,1.0,0.0,0.0,0.0,0.0,0.0,-0.32950723,0.20964584,-0.17358488,0.60355663,-10.644788,-2.7831078,-0.013446808,-3.319645,-0.89821815,3.3436053
-7.261859,21.819399,2.244986,4.7978015,0.5180329,-0.2314797,0.2815075,-0.7921805,-0.3622824,-0.705559,0.77343446,-0.5266046,0.4722765,0.33607236,0.57653266,-1.1381724,-2.1040812,-0.78085774,1.8190455,1.8414048,-0.8462307,0.6415562,-1.1071894,-2.0458696,-0.84436816,1.8645315,1.7979652,-0.87925905,-1.4180144,-0.5555962,-1.2415596,1.3837116,-0.7245522,0.3760173,0.066814765,-0.33451366,-0.6042824,0.72026366,-1.4021438,0.53649753,-0.35185274,-0.30333424,-0.58164597,0.6693786,0.9439965,-0.020441072,0.20549397,0.257342,-1.336555,0.3770022,-0.39426482,0.0,1.0,0.0,0.0,0.0,0.0,0.0,-0.3154863,0.20428237,-0.17026365,0.5983591,-12.405109,-2.8022766,0.19466877,-2.8835654,-1.0848045,3.5696015
-8.268005,31.12075,4.5044184,6.5682015,0.5726564,-0.0643599,0.283005,-0.8009719,-0.3817364,-0.7172026,0.7672033,-0.56105375,0.47555998,0.3893818,0.561459,-1.1453631,-2.11759,-0.76764786,1.8084261,1.8455212,-0.8403209,0.6273636,-1.1134741,-2.0584733,-0.8305618,1.8570493,1.8016636,-0.87831575,-1.4197311,-0.65320003,-1.2660387,1.3800663,-0.7569441,0.36715975,0.103435114,-0.34848213,-0.5988846,0.716176,-1.3942124,0.5408368,-0.42532006,-0.31681442,-0.5778847,0.66493285,0.9463789,-0.014468718,0.21087627,0.24431288,-1.3479754,0.386669,-0.4614281,0.0,1.0,0.0,0.0,0.0,0.0,0.0,-0.30151784,0.19888458,-0.16617596,-0.16322136,-9.856224,-2.1718502,-0.20360947,-3.5057545,-1.0701537,3.6197438
-8.636642,30.081892,4.2759523,6.312843,0.67006135,-0.025628984,0.28897327,-0.8013025,-0.45680863,-0.7160836,0.7643105,-0.5475542,0.45810688,0.4388944,0.54723334,-1.159155,-2.1300817,-0.7541308,1.8022939,1.8474743,-0.8344263,0.6131367,-1.1207755,-2.07124,-0.81680375,1.8493401,1.805269,-0.87700444,-1.4235948,-0.7560751,-1.2793328,1.3750522,-0.77635497,0.35761777,0.14036314,-0.36238956,-0.59345245,0.71133465,-1.388572,0.5448454,-0.5013404,-0.33043003,-0.5740166,0.65980786,0.9485304,-0.007924275,0.2158788,0.23156756,-1.3618083,0.39860126,-0.5296905,0.0,1.0,0.0,0.0,0.0,0.0,0.0,-0.2876104,0.19345245,-0.16133463,-0.37148,-10.383844,-1.0564566,-0.31046867,-2.2048712,-1.1748791,3.6776214
-10.717241,29.47012,3.646,6.4985123,0.6650431,0.0035423636,0.2955818,-0.81221503,-0.51459235,-0.7332258,0.7576407,-0.5830373,0.39335188,0.4925775,0.5319152,-1.1722347,-2.1445625,-0.7410397,1.7910364,1.8446041,-0.8277467,0.5988211,-1.129103,-2.084149,-0.8031174,1.8413917,1.8087404,-0.8753214,-1.4342123,-0.85874736,-1.2942736,1.3672216,-0.8016717,0.34275517,0.17766547,-0.37625027,-0.5879822,0.7057108,-1.3843237,0.5483634,-0.58038074,-0.34419346,-0.5700035,0.65398437,0.9504641,-0.0007812865,0.22047216,0.21911006,-1.3769904,0.4129269,-0.6004767,0.0,1.0,0.0,0.0,0.0,0.0,0.0,-0.2737497,0.18798217,-0.15571082,-1.0338545,-10.369611,-1.2323141,-0.55532455,-2.798736,-1.710105,3.7323415
-6.165267,35.33302,5.7339034,5.9882097,0.59922516,0.081641436,0.33049452,-0.7977239,-0.5522834,-0.72449344,0.7564707,-0.5916168,0.4118579,0.5477874,0.5190487,-1.1843313,-2.1565983,-0.72747034,1.78223,1.8499261,-0.82054263,0.584474,-1.1383688,-2.0971255,-0.78950536,1.8332156,1.8120842,-0.87326336,-1.4349649,-0.94945693,-1.2975596,1.3597027,-0.8239212,0.33066148,0.21518673,-0.39002037,-0.5824623,0.6993744,-1.3734685,0.55317354,-0.6489292,-0.35803318,-0.56583405,0.6475201,0.9521725,0.006900676,0.22466497,0.20699126,-1.3816432,0.42918733,-0.6623472,0.0,1.0,0.0,0.0,0.0,0.0,0.0,-0.2599796,0.1824623,-0.14937437,-0.087451935,-9.1803665,0.019741058,-0.5764961,-2.5707722,-1.4446497,3.7373571
-4.564498,35.64053,5.9007177,5.1469746,0.5426284,0.09898865,0.35549483,-0.80065095,-0.6080378,-0.7254425,0.7414955,-0.59829116,0.36437532,0.57668585,0.50440896,-1.1991726,-2.1696699,-0.7153558,1.7733865,1.8485217,-0.8155948,0.5701279,-1.1485331,-2.1100993,-0.77602017,1.8248467,1.8152833,-0.870847,-1.4345155,-1.0390688,-1.2963668,1.3453124,-0.8422397,0.31556007,0.25039396,-0.40367413,-0.57689667,0.69234717,-1.3615004,0.5576538,-0.7181888,-0.37189484,-0.5615196,0.64043516,0.9536609,0.015082412,0.2284217,0.1952613,-1.3825775,0.44534677,-0.7249303,0.0,1.0,0.0,0.0,0.0,0.0,0.0,-0.24632585,0.17689666,-0.14234716,0.025320053,-9.067559,0.4771471,-1.2679577,-2.1968722,-1.7628729,3.512743
-4.9355874,45.465683,8.307108,7.334107,0.7885126,0.2549913,0.3067943,-0.8071562,-0.6246963,-0.7090997,0.7459416,-0.59189224,0.3481843,0.59357435,0.48941228,-1.2110027,-2.1810093,-0.701426,1.7656575,1.8501017,-0.8114896,0.5557627,-1.1594262,-2.1229658,-0.7626419,1.8163632,1.8183296,-0.8681053,-1.4373647,-1.1065,-1.2818202,1.3356832,-0.85200024,0.29995602,0.28207225,-0.41715908,-0.57128143,0.68475175,-1.3429056,0.56424326,-0.7711646,-0.38574028,-0.5569763,0.6328569,0.9549406,0.023660371,0.23175658,0.18389544,-1.3797275,0.46913928,-0.7700645,0.0,1.0,0.0,0.0,0.0,0.0,0.0,-0.2328409,0.17128143,-0.13475174,-0.33836365,-6.8762302,1.9426346,-0.8325577,-1.4745712,-1.8800795,3.151381
3.8358502,54.510246,11.866208,6.5252256,0.8894916,0.31646347,0.31817612,-0.7761732,-0.6494368,-0.6679822,0.7389262,-0.52229136,0.34257844,0.6055688,0.4781454,-1.2243699,-2.189764,-0.6887493,1.764134,1.8525875,-0.8075484,0.541511,-1.1708722,-2.135489,-0.7493675,1.8080345,1.8212292,-0.8650761,-1.4216083,-1.157928,-1.2407749,1.3247027,-0.8284029,0.28549248,0.30982274,-0.43038368,-0.56560135,0.6767548,-1.3141558,0.57021606,-0.8070331,-0.39946175,-0.55220413,0.6249623,0.9560366,0.032393407,0.23459499,0.17294419,-1.3633747,0.49201804,-0.79753053,0.0,1.0,0.0,0.0,0.0,0.0,0.0,-0.2196163,0.16560134,-0.12675476,1.4490366,-5.2745104,4.7442913,-1.08881,1.7316461,-1.7760694,2.7399182
8.487774,59.195026,13.394527,5.5680485,0.899606,0.3074882,0.34759662,-0.77080727,-0.66615146,-0.65376043,0.6982673,-0.46111038,0.23333609,0.60867274,0.46443027,-1.2374873,-2.200865,-0.67954075,1.7619236,1.8445628,-0.8042089,0.5274443,-1.1827207,-2.147562,-0.73636967,1.8001503,1.823917,-0.8618014,-1.4021952,-1.1942242,-1.1942035,1.2912433,-0.7772664,0.2622042,0.33317897,-0.44328213,-0.5598717,0.66845053,-1.280405,0.5743087,-0.83620256,-0.41295815,-0.54722214,0.6168493,0.9569861,0.041152433,0.23682405,0.16247578,-1.3387591,0.5121039,-0.817479,0.0,1.0,0.0,0.0,0.0,0.0,0.0,-0.20671785,0.15987167,-0.11845052,1.7778873,-3.7546635,5.364251,-3.4120321,4.406345,-2.6577652,2.2864878
10.199459,60.62847,13.5863495,4.874171,0.959903,0.20341551,0.36389583,-0.7675502,-0.67937905,-0.6507522,0.6540036,-0.3569926,0.0063941423,0.62567914,0.4506893,-1.2506585,-2.2126372,-0.6709693,1.764451,1.8245565,-0.7992335,0.5135578,-1.1948476,-2.1592495,-0.7238878,1.793057,1.8262178,-0.8583111,-1.3847955,-1.2193488,-1.1578397,1.2334566,-0.68905824,0.21835113,0.35416552,-0.45584488,-0.5541191,0.65984815,-1.2467365,0.5761108,-0.8659008,-0.42620468,-0.5420685,0.60855275,0.9578442,0.04993164,0.23828408,0.15251853,-1.3132426,0.5282927,-0.835343,0.0,1.0,0.0,0.0,0.0,0.0,0.0,-0.1941551,0.1541191,-0.10984814,1.568675,-2.6282787,4.3372393,-5.8778524,8.096385,-4.710534,2.050686
9.356682,61.952972,13.43678,4.8273716,1.1828511,0.09295118,0.3561058,-0.77269846,-0.6794297,-0.6516479,0.5857592,-0.17462468,-0.2905764,0.6241193,0.43628794,-1.2627906,-2.2244143,-0.6653119,1.7755945,1.7971601,-0.7958992,0.4997715,-1.2071195,-2.170697,-0.7122318,1.7872939,1.8278795,-0.85463774,-1.3770359,-1.2303406,-1.1380455,1.1425822,-0.54077935,0.1477038,0.37166137,-0.468091,-0.5483551,0.65093124,-1.215977,0.57664955,-0.89805794,-0.43923092,-0.5367508,0.6000967,0.9586946,0.05874363,0.23872265,0.14305712,-1.2925131,0.5434272,-0.85064846,0.0,1.0,0.0,0.0,0.0,0.0,0.0,-0.18190897,0.1483551,-0.10093123,0.6100893,-1.2065172,2.6452065,-9.203434,14.1089325,-7.4077935,1.7216325
9.342176,65.07355,13.883364,5.4406304,1.3160573,0.098505735,0.32659918,-0.7675507,-0.6772064,-0.6376709,0.5412498,-0.076080285,-0.4194118,0.6185421,0.42301643,-1.2748401,-2.2344642,-0.6581068,1.7796859,1.7859384,-0.79278356,0.4860405,-1.21942,-2.1819804,-0.70155823,1.7831457,1.8287784,-0.8508166,-1.3723699,-1.2301481,-1.1231627,1.0417507,-0.37512395,0.06954722,0.38552615,-0.48002243,-0.5425911,0.6417199,-1.184078,0.5763136,-0.92652476,-0.45205307,-0.53128815,0.5915271,0.9595877,0.06754983,0.23802912,0.13405469,-1.2718434,0.5590843,-0.860567,0.0,1.0,0.0,0.0,0.0,0.0,0.0,-0.16997755,0.14259109,-0.091719866,0.29993057,-0.082826614,2.1520615,-10.217261,15.85359,-8.1572895,1.3544738
19.629803,67.67918,16.21017,3.1831398,1.4739017,0.11757362,0.32578906,-0.7282247,-0.68744135,-0.57060474,0.48493,0.14750567,-0.44220886,0.597715,0.41321802,-1.2881641,-2.2390409,-0.6530652,1.7978963,1.7845575,-0.7910451,0.47251216,-1.2317262,-2.192867,-0.69194597,1.7810506,1.8289467,-0.84689146,-1.3469894,-1.2309756,-1.0748271,0.9336989,-0.15637927,-0.0017873985,0.39477623,-0.49159336,-0.5368538,0.6322906,-1.1468568,0.57302356,-0.94639325,-0.46460724,-0.525692,0.58293,0.96059865,0.076034546,0.23601516,0.12556162,-1.243123,0.56965446,-0.8607978,0.0,1.0,0.0,0.0,0.0,0.0,0.0,-0.15840662,0.13685378,-0.08229059,2.3354769,-0.15437603,5.525899,-11.0256195,21.184917,-7.465762,0.90215206
21.816853,64.11809,15.716112,1.1050135,1.3858184,0.17289972,0.37632465,-0.73726726,-0.6974323,-0.5301159,0.3740703,0.27529114,-0.49836817,0.58373964,0.3987854,-1.3014694,-2.2458787,-0.6545389,1.8085797,1.7791098,-0.7885175,0.45918217,-1.2440782,-2.203128,-0.68367374,1.7811904,1.8284434,-0.84289956,-1.328977,-1.2367972,-1.0076619,0.79099053,0.06887714,-0.067594476,0.40065366,-0.5028,-0.53115845,0.6226257,-1.1107084,0.56822544,-0.97123706,-0.47685242,-0.5200081,0.574282,0.96178335,0.083998166,0.23253359,0.11766529,-1.2113047,0.578404,-0.8675516,0.0,1.0,0.0,0.0,0.0,0.0,0.0,-0.14719999,0.13115844,-0.0726257,1.6203403,-0.62799454,7.3224545,-14.476538,21.927092,-6.8627486,0.5787134
19.692125,69.97613,16.292747,3.055657,1.2446746,0.3062157,0.3620084,-0.7418288,-0.67331034,-0.4942351,0.31620935,0.23519512,-0.55533046,0.5795419,0.38499928,-1.3114092,-2.2525516,-0.6520528,1.8047099,1.7729104,-0.78494537,0.44595805,-1.2563729,-2.2126534,-0.6768215,1.783038,1.8273166,-0.8388647,-1.3207465,-1.2273343,-0.93267703,0.64929026,0.22169426,-0.12853324,0.40433574,-0.51359653,-0.52553177,0.61279845,-1.0683328,0.5615509,-0.9853871,-0.48872375,-0.5142288,0.5656142,0.96309537,0.09147846,0.22781475,0.110359855,-1.1726732,0.58781356,-0.86822736,0.0,1.0,0.0,0.0,0.0,0.0,0.0,-0.13640344,0.12553176,-0.06279844,0.65784454,0.9013653,8.074915,-14.365042,14.724782,-6.3372164,0.32992363
23.608643,74.69528,17.616592,2.950566,1.0414506,0.40565765,0.38811865,-0.7250381,-0.6599916,-0.42756602,0.2350427,0.26711082,-0.55411583,0.56426316,0.37345424,-1.3223721,-2.25541,-0.6533172,1.8097491,1.7719051,-0.7824384,0.43284312,-1.268498,-2.2212896,-0.67141604,1.7860531,1.8256553,-0.8348127,-1.3089368,-1.2077771,-0.83889663,0.5034452,0.32639968,-0.17942,0.40525866,-0.52391434,-0.52000046,0.60291684,-1.0185344,0.5509029,-0.9883836,-0.50012493,-0.5083885,0.5569847,0.96447974,0.09847344,0.22211029,0.10367592,-1.1227163,0.59230906,-0.86287165,0.0,1.0,0.0,0.0,0.0,0.0,0.0,-0.12608564,0.12000045,-0.052916825,1.0179996,1.927805,9.903944,-14.803469,9.993458,-5.2734942,0.026339293
26.941029,82.74799,20.458038,4.3509293,1.3968458,0.5900488,0.3442642,-0.71952665,-0.64855313,-0.27346605,0.1649783,0.35983372,-0.552584,0.5704248,0.36089045,-1.3333533,-2.2486362,-0.6549182,1.8220364,1.770397,-0.7777702,0.419845,-1.2803884,-2.2284687,-0.6674278,1.790043,1.8235519,-0.8307511,-1.2973245,-1.1828942,-0.6757634,0.3631597,0.42206976,-0.2211026,0.40626973,-0.53368187,-0.51459885,0.59314895,-0.9619089,0.5375534,-0.97257143,-0.5109911,-0.50248337,0.5485605,0.9659585,0.10469248,0.21547775,0.097636834,-1.0685822,0.5987325,-0.83714217,0.0,1.0,0.0,0.0,0.0,0.0,0.0,-0.11631811,0.11459884,-0.043148935,1.0037899,2.4783373,16.78356,-14.265519,9.189439,-4.2984815,0.039964914
33.981716,82.66579,21.534922,1.1927595,1.1706822,0.658926,0.48062107,-0.7199099,-0.6314127,-0.16071816,-0.0038110076,0.4380178,-0.5761713,0.5719215,0.34785402,-1.3435296,-2.2445405,-0.6678089,1.8338448,1.7659347,-0.773559,0.4069337,-1.2919927,-2.2337291,-0.66525245,1.7949924,1.8210747,-0.82668,-1.2894691,-1.1529624,-0.47533843,0.16814914,0.5185819,-0.2566618,0.4072702,-0.5428543,-0.5093651,0.5835686,-0.901398,0.51958793,-0.9531058,-0.5212288,-0.49656677,0.54039097,0.9675679,0.10991017,0.20782645,0.092412844,-1.0028522,0.5973676,-0.81204534,0.0,1.0,0.0,0.0,0.0,0.0,0.0,-0.10714567,0.109365076,-0.03356856,0.65722466,3.0118227,20.329506,-19.730091,9.430456,-3.5345376,0.0359416
33.36097,96.37726,25.117264,5.4711266,1.8406546,0.87411606,0.36524493,-0.7215634,-0.5908138,0.024890099,-0.0502074,0.51240766,-0.58028245,0.60109216,0.33477736,-1.3510741,-2.23124,-0.6702732,1.8462332,1.7630465,-0.7665708,0.3940648,-1.3031697,-2.2365177,-0.6648739,1.8009433,1.8182862,-0.82257706,-1.2863011,-1.1057283,-0.21271598,-0.006262432,0.6205201,-0.28596205,0.41122568,-0.5513716,-0.5043297,0.5743916,-0.83448744,0.49918783,-0.90621185,-0.53082275,-0.49060822,0.5327097,0.9693535,0.11378475,0.19916098,0.08798698,-0.93952256,0.602996,-0.75510246,0.0,1.0,0.0,0.0,0.0,0.0,0.0,-0.0986284,0.104329675,-0.024391592,0.2307415,4.755497,26.357412,-17.64553,10.207546,-2.8375924,0.35187602
41.301735,100.6714,28.107634,4.437201,2.085004,0.97698414,0.3830222,-0.70621645,-0.58321667,0.26679504,-0.16350678,0.6102709,-0.57384086,0.6088824,0.32344317,-1.3614914,-2.2098382,-0.6812246,1.8619703,1.760902,-0.7616888,0.3812803,-1.3139119,-2.2360675,-0.6662931,1.8080257,1.815255,-0.8184291,-1.2759678,-1.0635532,0.13046278,-0.18766797,0.7385596,-0.30819166,0.41601756,-0.5591793,-0.4995346,0.5658164,-0.76275593,0.473895,-0.84224916,-0.53974056,-0.48461533,0.5257181,0.9713848,0.11585446,0.18938006,0.0844066,-0.87139386,0.60435325,-0.6822508,0.0,1.0,0.0,0.0,0.0,0.0,0.0,-0.09082067,0.0995346,-0.01581639,1.0073185,4.269576,34.126385,-18.297049,12.135803,-1.9946873,0.46177506
42.74973,110.83919,29.706318,6.315946,1.9413698,0.97437423,0.3813666,-0.69064677,-0.5027926,0.321913,-0.26575467,0.6805515,-0.55412257,0.6193105,0.31221563,-1.3641912,-2.2038763,-0.69286853,1.8760809,1.7598428,-0.75649804,0.36866462,-1.3239675,-2.2325933,-0.66953003,1.8163104,1.8120553,-0.814228,-1.2565979,-0.98592776,0.4178523,-0.36928248,0.8606433,-0.32284176,0.42152673,-0.56623363,-0.49503326,0.55801374,-0.6864941,0.44316834,-0.7609044,-0.54793835,-0.47864914,0.5195428,0.97361827,0.11610525,0.17865159,0.08167398,-0.79855293,0.5993102,-0.59760475,0.0,1.0,0.0,0.0,0.0,0.0,0.0,-0.08376634,0.09503326,-0.008013725,1.9888401,7.827437,28.240103,-18.22638,12.875152,-1.0974169,0.55606365
33.28124,120.91241,29.765965,12.832464,2.100429,0.95857453,0.18749468,-0.67940825,-0.4385151,0.37739626,-0.25713542,0.68863994,-0.50888556,0.6096381,0.3007238,-1.367819,-2.1948538,-0.6952436,1.8851744,1.7611668,-0.7532642,0.35627735,-1.3330579,-2.2268527,-0.67406666,1.8256137,1.8087689,-0.80998224,-1.232359,-0.88310444,0.62382096,-0.48157582,0.9565166,-0.32909086,0.42570806,-0.5725374,-0.4908409,0.5511354,-0.61277735,0.4117382,-0.6652039,-0.5554905,-0.47270203,0.5143078,0.97594,0.1148094,0.16743082,0.07954082,-0.7373999,0.5987129,-0.50016767,0.0,1.0,0.0,0.0,0.0,0.0,0.0,-0.077462554,0.090840906,-0.0011354089,2.554512,10.370291,19.86406,-11.183727,10.514975,-0.1902461,0.4649222
