Afshin1997/kuka_rl_ros2/src/catch_and_throw/input_files/idealpd/polynomial_regressor/optimizer_files/env_221_data.csv
torque0,torque1,torque2,torque3,torque4,torque5,torque6,action0,action1,action2,action3,action4,action5,action6,set_target_0,set_target_1,set_target_2,set_target_3,set_target_4,set_target_5,set_target_6,joint_pos_0,joint_pos_1,joint_pos_2,joint_pos_3,joint_pos_4,joint_pos_5,joint_pos_6,joint_vel_0,joint_vel_1,joint_vel_2,joint_vel_3,joint_vel_4,joint_vel_5,joint_vel_6,tennisball_pos_0,tennisball_pos_1,tennisball_pos_2,tennisball_lin_vel_0,tennisball_lin_vel_1,tennisball_lin_vel_2,end_effector_pos_0,end_effector_pos_1,end_effector_pos_2,end_effector_rot_0,end_effector_rot_1,end_effector_rot_2,end_effector_rot_3,end_effector_lin_vel_0,end_effector_lin_vel_1,end_effector_lin_vel_2,obs_task_0,obs_task_1,obs_task_2,obs_task_3,obs_task_4,obs_task_5,obs_task_6,to_final_target_0,to_final_target_1,to_final_target_2,joint_acc_0,joint_acc_1,joint_acc_2,joint_acc_3,joint_acc_4,joint_acc_5,joint_acc_6
0.0,0.0,0.0,0.0,0.0,0.0,0.0,0.0,0.0,0.0,0.0,0.0,0.0,0.0,1.7802359,-1.0646509,-1.8151424,-1.1170107,1.9373155,1.1170107,-0.91629785,1.7802359,-1.0646509,-1.8151424,-1.1170107,1.9373155,1.1170107,-0.91629785,0.0,0.0,0.0,0.0,0.0,0.0,0.0,3.2189064,-0.37716675,0.2719146,-3.6323988,-0.3487651,5.297323,0.530416,-0.45448303,0.693097,0.5745483,0.17512383,0.15255436,0.7848268,0.0,0.0,0.0,1.0,0.0,0.0,0.0,0.0,0.0,0.0,-3.8689065,-0.022833258,0.2780854,0.0,0.0,0.0,0.0,0.0,0.0,0.0
0.0,0.0,0.0,0.0,0.0,0.0,0.0,0.0,0.0,0.0,0.0,0.0,0.0,0.0,1.7802359,-1.0646509,-1.8151424,-1.1170107,1.9373155,1.1170107,-0.91629785,1.7802359,-1.0646509,-1.8151424,-1.1170107,1.9373155,1.1170107,-0.91629785,0.0,0.0,0.0,0.0,0.0,0.0,0.0,3.2189064,-0.37716675,0.2719146,-3.6323988,-0.3487651,5.297323,0.530416,-0.45448303,0.693097,0.5745483,0.17512383,0.15255436,0.7848268,0.0,0.0,0.0,1.0,0.0,0.0,0.0,0.0,0.0,0.0,-3.8689065,-0.022833258,0.2780854,0.0,0.0,0.0,0.0,0.0,0.0,0.0
0.0,0.0,0.0,0.0,0.0,0.0,0.0,0.0,0.0,0.0,0.0,0.0,0.0,0.0,1.7802359,-1.0646509,-1.8151424,-1.1170107,1.9373155,1.1170107,-0.91629785,1.7802359,-1.0646509,-1.8151424,-1.1170107,1.9373155,1.1170107,-0.91629785,0.0,0.0,0.0,0.0,0.0,0.0,0.0,3.2189064,-0.37716675,0.2719146,-3.6323988,-0.3487651,5.297323,0.530416,-0.45448303,0.693097,0.5745483,0.17512383,0.15255436,0.7848268,0.0,0.0,0.0,1.0,0.0,0.0,0.0,0.0,0.0,0.0,-3.8689065,-0.022833258,0.2780854,0.0,0.0,0.0,0.0,0.0,0.0,0.0
-176.0,62.025917,-8.109198,110.0,10.018796,4.511324,-3.9237318,-0.78562194,0.29884216,-0.52459013,0.74182576,-0.10258584,0.68094057,-0.5729779,1.7016737,-1.0347667,-1.8676014,-1.0428281,1.9270569,1.1851047,-0.9735956,1.7787806,-1.0626711,-1.8205135,-1.1121603,1.9402375,1.1214663,-0.9170312,-0.19372879,0.26338986,-0.71578634,0.64701986,0.38913223,0.5929558,-0.097484566,3.1826096,-0.38064575,0.32411164,-3.6287673,-0.3484164,5.193841,0.5284147,-0.45754242,0.6938117,0.5781239,0.17369317,0.15186168,0.78265023,-0.26670197,-0.40568027,0.095071584,1.0,0.0,0.0,0.0,0.0,0.0,0.0,-3.8326097,-0.019354254,0.22588837,-19.296267,26.161285,-71.45794,64.79949,38.74664,58.907516,-9.672817
-176.0,-40.73226,-50.491863,110.0,11.750012,0.9994701,-3.568333,-0.7961847,-0.20281592,-0.5810239,0.7224978,-4.6704256e-05,0.65691406,-0.58928746,1.6991621,-1.0829526,-1.8786159,-1.0399106,1.9402329,1.1871576,-0.97595996,1.7772337,-1.0603765,-1.835139,-1.0977885,1.9463582,1.1339175,-0.9167051,-0.13959484,0.21534482,-1.7104232,1.7038045,0.6860086,1.4554399,0.07744325,3.146349,-0.38412476,0.37527466,-3.6251392,-0.34806803,5.0904617,0.52398586,-0.4656601,0.6943706,0.58624744,0.1701431,0.14968145,0.77779216,-0.50283206,-0.94514704,0.043591578,1.0,0.0,0.0,0.0,0.0,0.0,0.0,-3.796349,-0.01587525,0.17472535,6.013197,-5.5844455,-99.16849,106.62215,29.535984,84.1002,17.948454
-155.984,87.190796,22.195045,90.57838,8.226391,6.995084,-1.9337636,-0.739057,0.13127278,0.108761825,0.6835499,0.093171276,0.6823539,-0.48448,1.703328,-1.0472492,-1.8242629,-1.0294335,1.9556754,1.2021528,-0.9651531,1.7727591,-1.0581735,-1.8502376,-1.0787894,1.952807,1.1484362,-0.9162168,-0.5496533,0.21914284,-1.437302,1.9671805,0.62593716,1.4454029,0.038867056,3.1101246,-0.38760376,0.42540464,-3.6215148,-0.34772003,4.9871864,0.516809,-0.4767456,0.6961367,0.59722304,0.16500515,0.14636037,0.7711526,-0.796131,-1.1578413,0.22483297,1.0,0.0,0.0,0.0,0.0,0.0,0.0,-3.7601247,-0.012396246,0.124595374,-40.91084,-0.5112499,29.01175,26.936554,-7.5544715,-2.5667667,-3.993059
-103.581055,86.82374,34.050148,56.29622,5.775865,7.1930056,-0.19075102,-0.7664853,-0.052142315,0.2419487,0.6767003,0.24076778,0.6585012,-0.5634527,1.6961106,-1.0633878,-1.8260428,-1.0111194,1.9768838,1.2142863,-0.9725621,1.7640673,-1.0568594,-1.8595302,-1.0597006,1.9584088,1.162026,-0.9162826,-0.9763234,0.10014316,-0.75317156,1.8905681,0.5322381,1.3272123,-0.022080263,3.0739365,-0.39108276,0.47450265,-3.6178942,-0.34737238,4.884014,0.50709486,-0.4888687,0.6994925,0.609089,0.15869941,0.1415299,0.76406425,-1.0404738,-1.2198495,0.37648997,1.0,0.0,0.0,0.0,0.0,0.0,0.0,-3.7239366,-0.008917242,0.07549736,-42.839645,-12.506805,70.500755,-7.306862,-11.226881,-12.762618,-6.221849
-49.591625,112.869446,47.579742,32.217026,3.0471313,6.9264054,0.5567732,-0.78850377,0.07073825,0.25802922,0.68014985,0.3662299,0.6614084,-0.5689191,1.6852169,-1.0497855,-1.8337272,-0.9916856,1.9950318,1.2281669,-0.9731745,1.7517687,-1.0561289,-1.861798,-1.0425936,1.9633985,1.1742426,-0.91698545,-1.3151385,0.062482,-0.045390338,1.650655,0.482917,1.1848197,-0.08735117,3.0377846,-0.39455414,0.5225697,-3.614277,-0.3470251,4.780945,0.495471,-0.5006943,0.70437115,0.62067604,0.15139697,0.13521014,0.75733644,-1.2146579,-1.1573558,0.52622783,1.0,0.0,0.0,0.0,0.0,0.0,0.0,-3.6877847,-0.005445868,0.027430296,-34.14066,-4.241827,72.57625,-23.987938,-6.446409,-14.736867,-6.812872
-11.288666,125.10781,48.549057,17.28508,0.6709265,5.3691783,0.46020836,-0.8026133,0.21699476,0.14936036,0.67118657,0.40675122,0.65751445,-0.5873865,1.6715074,-1.0344294,-1.846862,-0.97547495,2.0040736,1.239994,-0.9757241,1.737126,-1.0548509,-1.8590553,-1.0279585,1.9682279,1.1851488,-0.9183015,-1.5149591,0.14836185,0.38456842,1.4009038,0.4802441,1.0588535,-0.14762107,3.001669,-0.39801788,0.56960684,-3.6106634,-0.34667817,4.6779785,0.48270035,-0.511467,0.71052873,0.6316706,0.14339787,0.12822644,0.75099075,-1.3095313,-1.0372072,0.644276,1.0,0.0,0.0,0.0,0.0,0.0,0.0,-3.651669,-0.0019821227,-0.019606829,-20.22097,8.212517,44.130585,-25.082802,-1.1043727,-12.712574,-6.4013286
14.014256,148.65573,51.26919,11.456558,-1.4148054,4.277453,-0.064895354,-0.81186926,0.45323706,0.0052900617,0.64432573,0.38449964,0.6462569,-0.5829242,1.6559391,-1.0095272,-1.8585262,-0.96352595,2.0066779,1.2497746,-0.976594,1.7213846,-1.051452,-1.8545539,-1.0154253,1.9731164,1.1949431,-0.92015547,-1.5947876,0.4026112,0.47462845,1.2038567,0.4903948,0.95324033,-0.19947815,2.9655895,-0.40148163,0.61561507,-3.6070535,-0.34633154,4.575115,0.46945,-0.5207138,0.7178544,0.64227736,0.13492931,0.12189144,0.74459136,-1.3405269,-0.8756481,0.7595774,1.0,0.0,0.0,0.0,0.0,0.0,0.0,-3.6155896,0.0014816225,-0.06561506,-8.268523,25.07755,9.745306,-19.800163,0.6373346,-10.4519005,-5.651176
26.596584,152.7165,49.97469,9.423264,-2.0288916,3.3960905,-0.28945535,-0.8165081,0.5679658,-0.001458268,0.62689894,0.46925095,0.62862486,-0.5589332,1.6397338,-0.9946555,-1.8546997,-0.9527354,2.0200415,1.2578056,-0.97604877,1.7054373,-1.0451139,-1.8505046,-1.004294,1.9784017,1.2038046,-0.92244333,-1.5955557,0.7098961,0.38356933,1.0826272,0.54067856,0.864037,-0.23999266,2.9295464,-0.40494537,0.6605954,-3.6034472,-0.34598526,4.472355,0.45614815,-0.5283432,0.72628677,0.6527091,0.12615225,0.116873324,0.7378326,-1.3354656,-0.71328497,0.8687162,1.0,0.0,0.0,0.0,0.0,0.0,0.0,-3.5795465,0.0049453676,-0.110595405,-0.371027,30.430496,-8.519912,-12.1993065,4.8212767,-8.827996,-4.4797688
31.792755,147.30225,48.051117,9.376032,-1.9206543,2.9659743,-0.3108853,-0.8100971,0.64781046,0.049229324,0.62702185,0.484293,0.6279911,-0.53156763,1.6244276,-0.98033285,-1.8455817,-0.94159186,2.026831,1.2666037,-0.9756001,1.6898028,-1.0358824,-1.8475921,-0.99382293,1.9842248,1.2118822,-0.92505735,-1.5535798,0.99320877,0.2624043,1.0349721,0.5956263,0.7890574,-0.26979768,2.8935385,-0.40840912,0.70454895,-3.5998445,-0.34563935,4.3696976,0.4429803,-0.53445435,0.7357874,0.66305256,0.117075935,0.113190584,0.73064524,-1.3172503,-0.5626753,0.9749977,1.0,0.0,0.0,0.0,0.0,0.0,0.0,-3.5435386,0.008409113,-0.15454894,3.9319992,28.07014,-11.556202,-4.8484325,5.312693,-7.5333357,-3.364867
30.126734,127.93605,41.681633,8.800192,-1.440598,2.4162574,-0.21971573,-0.8019094,0.6940252,0.057742704,0.6169343,0.50876194,0.6391385,-0.52493244,1.6096119,-0.96647984,-1.8418179,-0.9321295,2.035101,1.275796,-0.9775506,1.6746832,-1.0243715,-1.8457363,-0.98350894,1.9905896,1.2193133,-0.92791647,-1.4988395,1.2030374,0.1619101,1.0297222,0.64951974,0.7274144,-0.29239586,2.8575668,-0.4118576,0.7474767,-3.5962453,-0.3452938,4.2671423,0.42999554,-0.53925323,0.7461672,0.6732992,0.10773305,0.110533044,0.7230796,-1.2972534,-0.43804714,1.057143,1.0,0.0,0.0,0.0,0.0,0.0,0.0,-3.507567,0.011857599,-0.19747669,5.252433,20.773197,-9.538627,-0.64303875,5.2291274,-6.2823415,-2.598077
23.51523,102.789246,33.104645,8.465565,-0.8035928,1.8284407,-0.11748428,-0.79652476,0.7159515,0.046647962,0.61330533,0.5331798,0.6484134,-0.51685977,1.5950308,-0.9527764,-1.8410715,-0.9221784,2.0439076,1.2841547,-0.97960246,1.6600577,-1.0114149,-1.8446414,-0.97309387,1.997458,1.226216,-0.93095964,-1.4512362,1.3258785,0.09354369,1.0448642,0.69869477,0.677584,-0.3093091,2.8216314,-0.4153061,0.7893797,-3.59265,-0.3449486,4.16469,0.41715956,-0.54307556,0.7571103,0.68341136,0.09823054,0.10849865,0.7152116,-1.2827708,-0.34655115,1.1048185,1.0,0.0,0.0,0.0,0.0,0.0,0.0,-3.4716315,0.015306085,-0.2393797,4.583621,12.1331215,-6.4002247,1.3519526,4.811418,-5.1092863,-1.9989431
17.978079,82.5837,26.494081,7.6281652,-0.3452096,1.4370795,0.007151153,-0.7927055,0.72833544,0.058775805,0.5987851,0.5421193,0.6562351,-0.52007145,1.5807871,-0.93858135,-1.8387638,-0.91321534,2.0516698,1.2918395,-0.9829668,1.6457907,-0.9977697,-1.8438976,-0.96255577,2.0047288,1.2326971,-0.9341478,-1.4190369,1.3771285,0.06947285,1.0560473,0.7365382,0.63800824,-0.32298955,2.7857323,-0.41875458,0.83025897,-3.589058,-0.3446037,4.06234,0.40441847,-0.5461426,0.7683159,0.6933211,0.088665836,0.10673731,0.70714307,-1.2741141,-0.27783856,1.1240872,1.0,0.0,0.0,0.0,0.0,0.0,0.0,-3.4357324,0.018754572,-0.28025895,3.0668736,5.0188065,-1.998718,0.9181261,3.7026048,-4.041338,-1.6635835
13.400158,69.659386,22.201443,7.598962,-0.00302428,1.2137933,0.079818666,-0.78667235,0.7364375,0.06746852,0.59933627,0.55426604,0.66152304,-0.52130306,1.5671234,-0.92412597,-1.8371507,-0.90262216,2.0601554,1.2988495,-0.98627806,1.631745,-0.983951,-1.8431537,-0.9519309,2.0123124,1.2388426,-0.93745416,-1.400208,1.3831263,0.07731576,1.0638729,0.765317,0.6067115,-0.3341305,2.7498684,-0.42220306,0.87011546,-3.5854697,-0.34425914,3.9600925,0.39171505,-0.54865265,0.779585,0.70297706,0.07908835,0.10500403,0.6989581,-1.2712091,-0.22478166,1.1258959,1.0,0.0,0.0,0.0,0.0,0.0,0.0,-3.3998685,0.022203058,-0.32011545,1.7448425,0.5223751,1.1765852,0.56614876,2.8133035,-3.1779647,-1.4004469
10.448038,63.510025,19.986341,7.7775817,0.1447435,1.1210383,0.11644229,-0.7853488,0.7426387,0.07616463,0.5939869,0.5566756,0.66756934,-0.5142563,1.5532101,-0.9096871,-1.8355372,-0.89253217,2.06798,1.3055996,-0.9888798,1.6178004,-0.9702238,-1.8421981,-0.94128597,2.0201058,1.2447268,-0.94085115,-1.3930738,1.3690299,0.10289768,1.0640091,0.7838674,0.582173,-0.34248546,2.7140408,-0.42564392,0.9089502,-3.5818849,-0.34391496,3.8579476,0.37901115,-0.5506897,0.7908064,0.7123495,0.06951107,0.10319146,0.69070834,-1.2718216,-0.17832829,1.1188258,1.0,0.0,0.0,0.0,0.0,0.0,0.0,-3.3640409,0.025643915,-0.3589502,0.5782366,-1.4741421,2.9525146,-0.20685196,1.7984033,-2.4769902,-1.1156499
7.022054,58.689934,17.380613,8.28815,0.17995703,0.9233432,0.06337121,-0.786005,0.7476352,0.03926252,0.59276706,0.5641966,0.6696663,-0.5104397,1.5391998,-0.89546025,-1.8382719,-0.88200927,2.0765254,1.3116934,-0.99189514,1.6038672,-0.9566587,-1.8411624,-0.93066776,2.0280442,1.250403,-0.94431585,-1.3940555,1.3521142,0.10494813,1.0602967,0.79693556,0.56285197,-0.3485739,2.6782484,-0.42907715,0.9467643,-3.5783038,-0.34357113,3.7559047,0.3662939,-0.5522995,0.8018831,0.7214673,0.05998782,0.101339646,0.68236107,-1.2731897,-0.1394862,1.1016983,1.0,0.0,0.0,0.0,0.0,0.0,0.0,-3.3282485,0.029077142,-0.39676428,-0.22947788,-1.7428637,0.55280626,-0.59661865,1.2775898,-1.9245625,-0.86475015
5.4665394,57.387985,16.25575,8.679958,0.14227188,0.82386327,0.023557547,-0.7879396,0.7487019,0.024624446,0.5879264,0.564651,0.6681703,-0.50997365,1.5250732,-0.88178855,-1.8387,-0.8718751,2.0845094,1.3172201,-0.9953132,1.5898863,-0.94323385,-1.8402297,-0.92011535,2.0360703,1.2559134,-0.94783014,-1.3998082,1.3391076,0.09025997,1.0528437,0.8044883,0.54715884,-0.35324308,2.6424923,-0.43251038,0.9835587,-3.574726,-0.34322762,3.6539638,0.35356236,-0.55353546,0.8127628,0.73036593,0.050555732,0.09953398,0.6738714,-1.273884,-0.10274721,1.0809315,1.0,0.0,0.0,0.0,0.0,0.0,0.0,-3.2924924,0.03251037,-0.4335587,-0.7089138,-1.3481617,-1.139015,-0.9721279,0.74396133,-1.5501857,-0.7115722
6.051008,58.62365,16.349022,8.679402,0.047771215,0.79897165,0.01724045,-0.7876625,0.75035864,0.017795729,0.580357,0.56542283,0.6740347,-0.5046656,1.5111201,-0.868198,-1.8384502,-0.8620796,2.0926127,1.3233168,-0.9982967,1.5758463,-0.9298881,-1.8394973,-0.90966594,2.0441422,1.2612921,-0.95138067,-1.4058433,1.3327788,0.06860828,1.0416133,0.8082387,0.5349768,-0.35642242,2.6067724,-0.4359436,1.0193346,-3.5711522,-0.34288445,3.552125,0.34084177,-0.55438995,0.8234418,0.73905396,0.04121395,0.09784428,0.66522706,-1.2718956,-0.06336212,1.0610193,1.0,0.0,0.0,0.0,0.0,0.0,0.0,-3.2567725,0.035943598,-0.46933454,-0.7426739,-0.6835222,-1.8248842,-1.3479948,0.35836697,-1.1980295,-0.56093335
8.924525,62.604477,17.653702,8.257193,-0.13226736,0.8394593,0.03524614,-0.78194016,0.75908905,0.013448906,0.57218766,0.55933386,0.6793664,-0.50610846,1.4976523,-0.85397923,-1.8381524,-0.85244715,2.1000757,1.3292288,-1.0019915,1.5617834,-0.91652906,-1.8389747,-0.8993491,2.052218,1.2665716,-0.95495886,-1.4067084,1.3367298,0.048191782,1.0276226,0.8069588,0.5256089,-0.3591762,2.5710878,-0.4393692,1.0540928,-3.5675817,-0.34254164,3.4503877,0.3281765,-0.55480194,0.83396053,0.74751514,0.031921405,0.09632652,0.6564475,-1.2644966,-0.016177936,1.0463268,1.0,0.0,0.0,0.0,0.0,0.0,0.0,-3.221088,0.039369196,-0.50409275,-0.23317337,0.3361702,-1.6670532,-1.619792,-0.15884638,-0.92116594,-0.53022504
11.760156,65.013115,18.517939,7.511396,-0.27951193,0.83520025,0.07760502,-0.77781343,0.7627447,0.010656499,0.5582177,0.55752313,0.6814661,-0.49747705,1.4840021,-0.8402546,-1.8379091,-0.8435273,2.1079702,1.3347182,-1.0047066,1.5477473,-0.9030937,-1.8386142,-0.8892106,2.0602632,1.271773,-0.95855516,-1.4029789,1.3457083,0.033337492,1.0085169,0.80349946,0.51835155,-0.36065263,2.5354385,-0.44278717,1.0878344,-3.564015,-0.34219918,3.3487523,0.31562424,-0.5546799,0.84435326,0.7557131,0.0226421,0.09500909,0.6475787,-1.251306,0.03681036,1.0342977,1.0,0.0,0.0,0.0,0.0,0.0,0.0,-3.1854386,0.042787164,-0.53783435,0.22091866,0.83625317,-1.0814272,-2.1300793,-0.39469004,-0.70443153,-0.4108727
10.1769705,63.97593,17.70103,8.15164,-0.24401945,0.7665658,0.051275462,-0.7875234,0.76568276,-0.012662375,0.54987735,0.55531096,0.68372476,-0.4907947,1.4689949,-0.82652545,-1.8398805,-0.83422285,2.1157942,1.3401455,-1.0076346,1.5337092,-0.88955724,-1.8384578,-0.8792676,2.0682664,1.2769133,-0.96215814,-1.4045528,1.35609,0.011166917,0.9888265,0.7991634,0.51268816,-0.3610113,2.4998255,-0.44620514,1.1205603,-3.5604515,-0.34185705,3.2472184,0.30319643,-0.5540619,0.85461426,0.76365787,0.013381568,0.093918964,0.63861316,-1.2386265,0.08684171,1.0207084,1.0,0.0,0.0,0.0,0.0,0.0,0.0,-3.1498256,0.046205133,-0.5705603,-0.31290054,0.9801388,-1.8220295,-2.189672,-0.47149658,-0.5470753,-0.29132962
10.176586,64.07355,17.818657,8.57863,-0.17142123,0.772651,0.073523894,-0.7883152,0.76389146,0.0029488453,0.5439835,0.55207026,0.67736405,-0.4874186,1.4548776,-0.8131681,-1.8381629,-0.8248692,2.1234734,1.3446497,-1.0109,1.5196444,-0.87594545,-1.8384063,-0.86950195,2.0762239,1.2820002,-0.9657602,-1.4075645,1.3626864,0.0046137925,0.97176105,0.79427046,0.5073892,-0.36081007,2.4642477,-0.4496231,1.1522716,-3.556892,-0.34151524,3.145786,0.29088593,-0.552948,0.8647578,0.7713446,0.004118046,0.09301841,0.6295698,-1.2265826,0.13665955,1.009358,1.0,0.0,0.0,0.0,0.0,0.0,0.0,-3.1142478,0.049623102,-0.6022716,-0.45747757,0.6021738,-0.24222136,-1.9204736,-0.5395055,-0.5200982,-0.2372384
13.35233,64.65475,18.248966,6.8487215,-0.2951424,0.71513003,0.17716618,-0.7889875,0.76962,0.01574397,0.49913153,0.5753641,0.68059796,-0.4876464,1.4407456,-0.79898345,-1.8368319,-0.8195888,2.1337602,1.35006,-1.0145248,1.5055472,-0.86226785,-1.8383033,-0.8600663,2.084208,1.2870451,-0.9693603,-1.4110271,1.3693728,0.013557255,0.93345314,0.799697,0.5035819,-0.36062407,2.4287052,-0.45304108,1.1829695,-3.5533357,-0.3411738,3.0444553,0.27874422,-0.55127716,0.87477386,0.7787072,-0.005143292,0.09224763,0.62054735,-1.207621,0.19075413,0.99608064,1.0,0.0,0.0,0.0,0.0,0.0,0.0,-3.0787053,0.05304107,-0.63296944,-0.51226616,0.6160021,1.342783,-4.049945,0.4745841,-0.33951998,-0.24596453
17.799704,67.426315,19.71069,5.2757626,-0.41359794,0.7366985,0.3027891,-0.78370047,0.7739183,0.058736205,0.46652558,0.58835405,0.6800427,-0.48200613,1.4271771,-0.78487605,-1.8324296,-0.81341374,2.1430435,1.3550494,-1.017561,1.4914461,-0.84852254,-1.8378818,-0.8511199,2.0922914,1.2920557,-0.97295564,-1.4102718,1.3761214,0.053503554,0.88108665,0.8113536,0.50065607,-0.3600359,2.393199,-0.4564438,1.2126547,-3.549783,-0.3408327,2.9432256,0.26684237,-0.5490265,0.8846806,0.78565156,-0.0144296475,0.0915202,0.61169213,-1.1814454,0.25199777,0.9858012,1.0,0.0,0.0,0.0,0.0,0.0,0.0,-3.043199,0.05644378,-0.6626547,-0.092577934,0.6235361,4.488931,-5.4447412,1.0726452,-0.23241043,-0.21803379
19.589003,67.72482,20.025639,4.4395657,-0.44355333,0.69676375,0.37905398,-0.78851247,0.77389216,0.097045995,0.42969298,0.59969366,0.67057526,-0.4848211,1.4125949,-0.7711333,-1.8281772,-0.8081506,2.1522608,1.3591132,-1.0214378,1.4773394,-0.8347267,-1.8368938,-0.84278095,2.1005235,1.2970377,-0.9765472,-1.4113514,1.3806243,0.11564894,0.8173966,0.8267582,0.49763396,-0.3597449,2.357728,-0.4598465,1.2413284,-3.546234,-0.34049195,2.842097,0.25522566,-0.5461502,0.894486,0.7921128,-0.023761418,0.09075616,0.6031217,-1.1513941,0.31480566,0.97523916,1.0,0.0,0.0,0.0,0.0,0.0,0.0,-3.007728,0.05984649,-0.69132835,-0.27236938,0.40626526,6.7148743,-6.5625668,1.4437914,-0.21557808,-0.24275184
20.193012,68.81208,20.480207,4.879604,-0.3918559,0.71055984,0.4057787,-0.78567064,0.7758178,0.14324632,0.41439173,0.5999646,0.6807976,-0.46366936,1.3987724,-0.7571449,-1.8225691,-0.8013418,2.1605198,1.3651174,-1.0229142,1.4632365,-0.8208946,-1.8351524,-0.83502185,2.108889,1.3020006,-0.9801206,-1.4103566,1.3840057,0.19531801,0.7615632,0.83959043,0.4961405,-0.35735422,2.3222923,-0.4632492,1.2689916,-3.5426884,-0.34015152,2.7410696,0.24390411,-0.5426178,0.9042154,0.7980684,-0.033186354,0.08990275,0.59489745,-1.1213328,0.37834328,0.9683031,1.0,0.0,0.0,0.0,0.0,0.0,0.0,-2.9722924,0.0632492,-0.7189916,-0.04851818,0.29850006,8.447397,-5.7475686,1.1969447,-0.059986115,-0.02295971
23.420826,68.64608,20.519485,2.7403526,-0.5888097,0.573216,0.5044381,-0.785294,0.7807649,0.19080335,0.34479976,0.6213635,0.67266065,-0.44904724,1.3847071,-0.7428181,-1.8160721,-0.8005419,2.1710255,1.3692667,-1.0250254,1.4491488,-0.8070177,-1.8325412,-0.82798755,2.117415,1.3069483,-0.98365873,-1.4088196,1.3888154,0.28471428,0.6836599,0.8569062,0.4948135,-0.35348094,2.286892,-0.46665192,1.2956454,-3.5391464,-0.33981144,2.6401432,0.23295212,-0.5384369,0.91384476,0.8034621,-0.042684603,0.088942274,0.58712506,-1.0816646,0.44402617,0.9569348,1.0,0.0,0.0,0.0,0.0,0.0,0.0,-2.936892,0.06665191,-0.74564534,0.016260147,0.45170784,9.403986,-7.9385877,1.6550183,0.014948845,0.13759136
30.084942,66.831314,20.15514,-2.48137,-1.100393,0.26522648,0.6883974,-0.78275234,0.7844055,0.24370727,0.22770202,0.63659686,0.66953975,-0.4303862,1.3708736,-0.72857714,-1.8081706,-0.8052173,2.1810746,1.3739023,-1.0266974,1.4350878,-0.7930845,-1.8289859,-0.8221282,2.1261353,1.3118883,-0.98714536,-1.4056712,1.39481,0.38055944,0.55297875,0.87665784,0.4947071,-0.34786353,2.2515268,-0.470047,1.3212906,-3.535608,-0.3394717,2.5393178,0.22255611,-0.53357697,0.92326534,0.8081836,-0.052136432,0.08790851,0.57999396,-1.0200348,0.51275593,0.93242884,1.0,0.0,0.0,0.0,0.0,0.0,0.0,-2.901527,0.07004699,-0.7712906,0.19290447,0.587821,10.024988,-13.205469,1.9078255,0.26379824,0.3313005
35.65531,64.99063,19.768045,-6.9085684,-1.5113369,-0.03651175,0.8495282,-0.7789449,0.7873975,0.30494532,0.11692547,0.6562611,0.6663734,-0.40512016,1.3571934,-0.71434474,-1.7984914,-0.81043565,2.1917615,1.3785257,-1.0276574,1.4210726,-0.7790874,-1.8244159,-0.81790245,2.1350808,1.3168322,-0.9905595,-1.4003576,1.401295,0.48359358,0.37872523,0.90006554,0.4955829,-0.3399695,2.216198,-0.47343445,1.3459283,-3.5320733,-0.33913228,2.4385931,0.21291256,-0.5280304,0.9323649,0.81212705,-0.061411243,0.08683967,0.5737047,-0.93948245,0.5814083,0.89726985,1.0,0.0,0.0,0.0,0.0,0.0,0.0,-2.866198,0.07343444,-0.7959283,0.44116974,0.65562725,10.680408,-17.533886,2.3022175,0.47031045,0.59189796
45.558136,61.237183,18.898346,-15.382347,-2.349455,-0.56740385,1.1210768,-0.7734183,0.7914219,0.3633345,-0.08549509,0.6659494,0.65998363,-0.36879668,1.3437308,-0.6999452,-1.7880825,-0.82645196,2.2016757,1.3828305,-1.0274392,1.4071337,-0.7650207,-1.818795,-0.8160571,2.1442475,1.3217913,-0.9938716,-1.3920039,1.4085464,0.5892249,0.119521715,0.9221555,0.49771568,-0.32873282,2.1809034,-0.4768219,1.3695595,-3.5285418,-0.33879322,2.3379693,0.20433521,-0.5217743,0.9409519,0.8151404,-0.07027706,0.08584094,0.5685407,-0.823448,0.6507863,0.84041196,1.0,0.0,0.0,0.0,0.0,0.0,0.0,-2.8309035,0.07682189,-0.8195595,0.7969141,0.7542372,10.856068,-25.985825,2.1973252,0.77436566,0.9798646
46.959724,59.97675,18.483017,-16.42826,-2.472991,-0.7855233,1.1675206,-0.76113254,0.79406434,0.42346004,-0.17893402,0.6565161,0.65272737,-0.27009362,1.3310205,-0.6856143,-1.776449,-0.83395046,2.2098992,1.387064,-1.0208809,1.3933264,-0.7508844,-1.8121116,-0.81680954,2.1535668,1.3267657,-0.99700254,-1.3768153,1.4154449,0.69513744,-0.1401809,0.93504673,0.49935034,-0.3081567,2.1456451,-0.48020935,1.3921852,-3.525014,-0.3384545,2.237446,0.19696808,-0.5148468,0.94896144,0.81717944,-0.0786383,0.08498131,0.5646344,-0.7001241,0.7146932,0.782108,1.0,0.0,0.0,0.0,0.0,0.0,0.0,-2.7956452,0.080209345,-0.8421852,1.5557528,0.7420778,10.707081,-25.964855,1.3664722,0.7512212,1.9763768
33.49547,58.29275,16.967121,-6.5855474,-1.5062332,-0.6176526,0.8204753,-0.75922173,0.7961273,0.43840158,-0.1402246,0.6563636,0.64997023,-0.16732588,1.3174043,-0.6712717,-1.7682714,-0.830832,2.2192032,1.3917627,-1.0137352,1.3796602,-0.7366861,-1.8045833,-0.819353,2.16297,1.3317457,-0.9998607,-1.3629568,1.421502,0.7717008,-0.29233646,0.9430013,0.49909183,-0.27850434,2.1104212,-0.4835968,1.4138064,-3.5214896,-0.3381161,2.1370234,0.19055128,-0.5073929,0.95653844,0.8184544,-0.08664174,0.08425135,0.56171805,-0.6142598,0.7611837,0.7435859,1.0,0.0,0.0,0.0,0.0,0.0,0.0,-2.7604213,0.083596796,-0.8638064,1.4368296,0.68855286,7.582772,-15.207434,1.0060549,0.42005777,2.9217482
8.124034,59.55438,15.933878,13.783712,0.4481784,0.09586731,0.17169434,-0.7596236,0.7991202,0.44205177,0.061412558,0.6332135,0.6520809,0.055719282,1.303698,-0.6567741,-1.7603781,-0.81321174,2.2262914,1.3969538,-0.9942888,1.3660933,-0.72242963,-1.7965572,-0.82179534,2.1723619,1.3367106,-1.0022753,-1.3547387,1.4273823,0.8120118,-0.22846723,0.9390875,0.49612704,-0.2294515,2.0752325,-0.486969,1.4344242,-3.517969,-0.33777806,2.036701,0.18439388,-0.49962616,0.96407527,0.81938547,-0.09473966,0.08353881,0.5591538,-0.6078822,0.78896016,0.75075436,1.0,0.0,0.0,0.0,0.0,0.0,0.0,-2.7252326,0.08696899,-0.88442415,0.7941723,0.70974827,3.823316,6.3020587,-0.01360178,-0.12179613,4.835683
-27.591503,55.687805,12.8030815,40.995472,3.120918,1.061984,-0.759243,-0.7808655,0.7851656,0.4013551,0.41069004,0.5868558,0.68267226,0.23551963,1.2880068,-0.6439131,-1.7564217,-0.7807263,2.2310474,1.4049778,-0.9787234,1.3524653,-0.7081951,-1.7885463,-0.8214997,2.181563,1.3416487,-1.0040969,-1.3661638,1.4226844,0.79651403,0.11480962,0.9158739,0.49230775,-0.16680166,2.040079,-0.4903412,1.4540395,-3.5144517,-0.33744037,1.9364786,0.17746878,-0.49176788,0.9720804,0.8205762,-0.10357823,0.08268314,0.5559583,-0.7122675,0.7901484,0.81065786,1.0,0.0,0.0,0.0,0.0,0.0,0.0,-2.6900792,0.09034118,-0.90403944,-1.3127089,-0.31688213,-1.8373132,34.08548,-1.7843843,-0.589782,6.1413856
-40.587463,48.37847,9.585241,49.167675,3.836166,1.2502804,-1.1410722,-0.7965581,0.77332926,0.35536668,0.5484166,0.5213372,0.6754353,0.27695653,1.2728095,-0.6308622,-1.7530097,-0.76665807,2.2336967,1.4091922,-0.9764012,1.3386236,-0.6940788,-1.7810371,-0.8171519,2.1903405,1.3465353,-1.0053061,-1.3909199,1.4083296,0.7346021,0.5406946,0.86689955,0.48603675,-0.10595643,2.004961,-0.49371338,1.4726533,-3.510938,-0.33710298,1.8363566,0.16924047,-0.4839859,0.9807302,0.82237625,-0.113423415,0.081712015,0.551503,-0.8511668,0.78175384,0.87633324,1.0,0.0,0.0,0.0,0.0,0.0,0.0,-2.654961,0.09371337,-0.92265326,-2.6502848,-1.3050079,-6.504154,42.354668,-4.3491483,-1.0261357,5.9777246
-31.492744,46.23112,9.257958,41.056473,2.9723165,0.95300317,-0.9364645,-0.8010186,0.77510726,0.3412231,0.5611997,0.5225421,0.6702422,0.2229091,1.2585218,-0.6165681,-1.7469147,-0.7610319,2.2425947,1.4135596,-0.98301524,1.3245322,-0.6800951,-1.774205,-0.8091992,2.1986642,1.351359,-1.0060061,-1.4157317,1.3953172,0.66525376,0.8796728,0.8225975,0.47994703,-0.05838548,1.9698782,-0.49708557,1.4902666,-3.5074277,-0.33676594,1.7363346,0.15985823,-0.47621155,0.9898628,0.8247217,-0.12411595,0.08074309,0.5458111,-0.9588049,0.78433615,0.91846216,1.0,0.0,0.0,0.0,0.0,0.0,0.0,-2.6198783,0.097085565,-0.94026655,-2.5953293,-1.224494,-7.1622133,33.759544,-3.999424,-0.9720087,4.6799116
-14.304387,43.65634,9.156194,25.590452,1.4987953,0.33332214,-0.46983814,-0.8142354,0.77105623,0.32747683,0.5172451,0.55107605,0.66020346,0.14840947,1.2431086,-0.60298944,-1.7414573,-0.7574747,2.2537718,1.4173794,-0.99116516,1.310187,-0.6662315,-1.7679889,-0.79912555,2.2067132,1.3561312,-1.0063514,-1.4412451,1.3834302,0.6070192,1.0495772,0.7997907,0.47569957,-0.02687439,1.9348297,-0.50045013,1.5068804,-3.503921,-0.33642927,1.6364126,0.14984846,-0.46835327,0.99912477,0.8273244,-0.13523619,0.07988791,0.5393175,-1.006567,0.7971269,0.9214064,1.0,0.0,0.0,0.0,0.0,0.0,0.0,-2.5848298,0.10045013,-0.9568804,-2.6566029,-1.1600971,-5.837357,16.876232,-2.0295858,-0.57266355,3.0588784
2.9890957,44.780582,10.239762,11.471526,0.09432566,-0.20184523,-0.0083060935,-0.8136363,0.7702818,0.32404545,0.48700765,0.5500968,0.663451,0.119767725,1.2288233,-0.58920336,-1.7355844,-0.7504248,2.2617228,1.4224763,-0.9943746,1.2956549,-0.6524576,-1.762183,-0.7884406,2.2146173,1.3608805,-1.0064582,-1.4576563,1.3753521,0.57265973,1.0744445,0.7874314,0.4749366,-0.0057007833,1.8998175,-0.50380707,1.5224957,-3.5004177,-0.3360929,1.5365906,0.13979626,-0.46029663,1.0081997,0.829869,-0.14639255,0.07925176,0.53254664,-0.99608797,0.8201575,0.89541006,1.0,0.0,0.0,0.0,0.0,0.0,0.0,-2.5498176,0.10380706,-0.97249573,-1.7476559,-0.8137703,-3.218937,2.3766994,-1.1735082,0.0047683716,1.9854918
15.856758,46.419575,11.32212,1.3401189,-0.8846984,-0.6153735,0.360273,-0.81056947,0.7671306,0.33089933,0.44613025,0.5498841,0.6689955,0.15757243,1.214598,-0.5757445,-1.7290931,-0.7438276,2.2696056,1.42778,-0.9907009,1.2810408,-0.6387485,-1.7565181,-0.7782544,2.2224488,1.3656412,-1.0063628,-1.4631212,1.3693422,0.5657103,0.99967635,0.7812512,0.4771391,0.014008368,1.8648396,-0.507164,1.5371137,-3.496918,-0.33575687,1.4368683,0.130167,-0.45196533,1.0168846,0.8320989,-0.15732117,0.07889278,0.5259633,-0.9428856,0.84800804,0.8520695,1.0,0.0,0.0,0.0,0.0,0.0,0.0,-2.5148396,0.107163996,-0.98711365,-0.6378889,-0.6236553,-0.3222704,-7.5719595,-0.69915056,0.47032833,1.8117338
20.002441,45.62758,11.229259,-2.0242815,-1.1868469,-0.84791315,0.48358622,-0.8070518,0.7579115,0.32396978,0.43900278,0.52992845,0.67581135,0.2188635,1.2003356,-0.5629574,-1.7241211,-0.73435414,2.2754416,1.4332224,-0.98447645,1.2664381,-0.62511957,-1.7508476,-0.7690085,2.230185,1.3704344,-1.00605,-1.459486,1.3607603,0.56876224,0.89929086,0.77082354,0.4809276,0.03653139,1.829896,-0.51052094,1.5507351,-3.4934218,-0.33542117,1.3372457,0.12117767,-0.44338226,1.0251004,0.8339093,-0.16791278,0.07883618,0.5197936,-0.8749502,0.87261194,0.8041544,1.0,0.0,0.0,0.0,0.0,0.0,0.0,-2.479896,0.11052093,-1.000735,0.30789375,-0.87542534,0.67545176,-10.1107235,-1.1565685,0.68662167,2.100483
19.35924,43.51188,10.459791,-1.7357216,-1.1442593,-0.97995996,0.4794479,-0.80114806,0.749078,0.30801362,0.43102553,0.50206083,0.6772746,0.33671102,1.1863233,-0.5502118,-1.7200462,-0.72590595,2.2803912,1.4381618,-0.9723789,1.2519232,-0.6115993,-1.7451866,-0.76067245,2.2377496,1.3752657,-1.0054435,-1.448935,1.3490716,0.56598556,0.81155545,0.751602,0.48468244,0.06815244,1.7949886,-0.51387787,1.563361,-3.489929,-0.3350858,1.2377228,0.11286163,-0.43460083,1.0328487,0.8352997,-0.1781546,0.079106286,0.51407933,-0.8075429,0.8910902,0.7579917,1.0,0.0,0.0,0.0,0.0,0.0,0.0,-2.4449887,0.11387786,-1.013361,1.0348558,-1.171565,0.012862682,-8.828354,-2.0037293,0.6803632,3.0312858
14.31986,38.484955,8.377865,1.1211877,-0.8681776,-1.0992175,0.31315613,-0.8013027,0.74085385,0.25391552,0.43267635,0.47781512,0.66580486,0.38814297,1.171793,-0.537514,-1.719795,-0.71740484,2.285531,1.4418463,-0.96662915,1.2375094,-0.5982126,-1.7398155,-0.7529601,2.2450738,1.380118,-1.004505,-1.4388131,1.3352572,0.52797055,0.7576156,0.7262013,0.48654515,0.102100946,1.7601156,-0.51721954,1.5749925,-3.4864397,-0.3347508,1.1382992,0.105130196,-0.4256897,1.0401564,0.83638555,-0.18804581,0.07975862,0.5086613,-0.7518651,0.89846706,0.7148149,1.0,0.0,0.0,0.0,0.0,0.0,0.0,-2.4101157,0.11721954,-1.0249925,0.99852085,-1.3629913,-3.6337733,-5.463958,-2.5369763,0.46112537,3.2935097
11.036415,33.853012,6.818069,2.9133615,-0.67080396,-1.1934592,0.21088056,-0.79318374,0.7228741,0.23112066,0.4209338,0.4313285,0.6646323,0.4429303,1.158191,-0.52592516,-1.7167034,-0.7108667,2.2882066,1.4465812,-0.960212,1.2232119,-0.58501947,-1.7349327,-0.74560344,2.2520432,1.3849837,-1.0032176,-1.4265721,1.3141562,0.47526997,0.7280575,0.68748677,0.48759115,0.13751678,1.725277,-0.5205612,1.5856305,-3.482954,-0.33441612,1.0389751,0.097893715,-0.41677094,1.0470446,0.83726865,-0.19759849,0.080835044,0.5033901,-0.7043473,0.8977448,0.6735561,1.0,0.0,0.0,0.0,0.0,0.0,0.0,-2.375277,0.12056121,-1.0356305,1.2219429,-2.0769358,-5.1802278,-3.0382633,-3.821683,0.36207438,3.4550695
8.979318,28.851124,5.057842,2.9821215,-0.64268106,-1.3714979,0.15002613,-0.79540837,0.7085505,0.18588899,0.38180095,0.39707744,0.66271484,0.48068273,1.143671,-0.51416445,-1.7163438,-0.7074233,2.291751,1.4512551,-0.9551493,1.2090002,-0.5720686,-1.7307155,-0.7385634,2.2585778,1.3898588,-1.0015811,-1.4192984,1.2888783,0.40400472,0.6956989,0.64211524,0.48830763,0.17216164,1.6904736,-0.5239029,1.595276,-3.4794717,-0.33408177,0.9397503,0.0911212,-0.40792847,1.0534962,0.8380258,-0.20675923,0.08239388,0.49817112,-0.6582054,0.88774955,0.62945133,1.0,0.0,0.0,0.0,0.0,0.0,0.0,-2.3404737,0.12390289,-1.0452759,0.7212639,-2.4841547,-7.0817413,-3.3355951,-4.4570923,0.34392476,3.3914924
9.415952,21.282187,2.658786,-0.048232555,-0.8286634,-1.7414411,0.17009255,-0.7937065,0.6835141,0.126528,0.30759835,0.3662207,0.66281927,0.50770503,1.1296296,-0.5037172,-1.7180628,-0.7078036,2.2951999,1.4561408,-0.95081055,1.1948401,-0.5594362,-1.7273624,-0.7321023,2.2646394,1.3947417,-0.9996127,-1.4148517,1.2548693,0.31227097,0.6292897,0.5944366,0.48956332,0.20475577,1.6557055,-0.52724457,1.60393,-3.475993,-0.33374777,0.84062475,0.084882736,-0.39928436,1.0594244,0.83870924,-0.2153622,0.08450611,0.4929955,-0.602765,0.8622778,0.57476544,1.0,0.0,0.0,0.0,0.0,0.0,0.0,-2.3057055,0.12724456,-1.05393,0.45661926,-3.3429623,-9.175473,-6.753099,-4.67906,0.46839714,3.202659
11.8929,20.396091,2.6436412,-2.696721,-1.0294096,-1.9186566,0.27591807,-0.7916055,0.66446865,0.124584585,0.23584577,0.32558653,0.65422976,0.5340044,1.1156795,-0.49298933,-1.714904,-0.7085177,2.297198,1.4601647,-0.94621223,1.1807142,-0.54717004,-1.7247627,-0.72655666,2.2701936,1.3996321,-0.9973372,-1.4118682,1.2174615,0.24277918,0.52933806,0.5423034,0.49008518,0.23507483,1.6209717,-0.53058624,1.6115935,-3.4725177,-0.33341408,0.7415983,0.07927418,-0.39092255,1.06478,0.83929926,-0.22329772,0.08717995,0.48796982,-0.53727204,0.8328528,0.51727486,1.0,0.0,0.0,0.0,0.0,0.0,0.0,-2.2709718,0.13058624,-1.0615935,0.33285618,-3.6798954,-6.9368153,-10.085464,-5.1638246,0.41925907,2.976534
13.439531,21.48475,3.2249265,-3.6498542,-1.1173275,-1.9775449,0.34089118,-0.785318,0.6448895,0.11778766,0.1835158,0.26905718,0.651993,0.5559259,1.1021824,-0.4826811,-1.712984,-0.7082051,2.2970994,1.4648314,-0.9417446,1.1666342,-0.5352863,-1.7226627,-0.722103,2.2751527,1.4045244,-0.9947766,-1.4065212,1.1789775,0.19931303,0.41721022,0.48054743,0.49016178,0.26289186,1.5862722,-0.53391266,1.6182675,-3.4690459,-0.33308074,0.64267087,0.07435846,-0.38285828,1.0695735,0.83975965,-0.23054822,0.09039626,0.48319733,-0.4672317,0.80364656,0.46203557,1.0,0.0,0.0,0.0,0.0,0.0,0.0,-2.2362723,0.13391265,-1.0682676,0.59256554,-3.7859678,-4.332015,-11.276555,-6.1530232,0.36135316,2.7259917
11.736923,23.46159,3.9853702,-1.0036607,-0.811852,-1.8704753,0.29953834,-0.7801862,0.628749,0.10050158,0.17154454,0.2568837,0.64844155,0.56961066,1.0886155,-0.4724114,-1.7126125,-0.70494854,2.300841,1.4693686,-0.93781555,1.1526228,-0.5237659,-1.7208793,-0.7185849,2.2795625,1.4094111,-0.9919604,-1.399203,1.143229,0.17123345,0.32971257,0.42828384,0.48914587,0.28771707,1.5516071,-0.5372391,1.6239529,-3.4655776,-0.33274773,0.5438423,0.07006168,-0.37504578,1.0738853,0.84008855,-0.23720671,0.09405866,0.47868276,-0.4083349,0.7775849,0.4165771,1.0,0.0,0.0,0.0,0.0,0.0,0.0,-2.2016072,0.13723907,-1.0739529,0.78582764,-3.5116196,-2.8118968,-8.807182,-5.189472,0.18706918,2.4258077
8.787417,23.669807,4.1480947,2.478539,-0.4682079,-1.7522935,0.19610643,-0.7708572,0.60667723,0.07905355,0.17197734,0.20657502,0.64453053,0.57496864,1.0755371,-0.4630982,-1.712974,-0.70138717,2.30022,1.4738641,-0.93446356,1.1387163,-0.512607,-1.7193496,-0.71565425,2.2834306,1.4142824,-0.988922,-1.3877509,1.1070776,0.14695269,0.28061152,0.37285766,0.48714948,0.30901295,1.5169773,-0.5405655,1.6286507,-3.4621127,-0.33241504,0.44511265,0.066250324,-0.36746216,1.0778091,0.8403235,-0.24340148,0.09808572,0.47433236,-0.3636172,0.7540441,0.3804973,1.0,0.0,0.0,0.0,0.0,0.0,0.0,-2.1669774,0.14056548,-1.0786507,1.1893749,-3.5510778,-2.461073,-4.9771786,-5.4768324,0.031137466,2.0699441
3.6750917,20.85704,3.059941,6.891552,-0.08959466,-1.6787144,-0.0023255795,-0.76566595,0.5867389,0.01480093,0.19683886,0.14958996,0.64061254,0.5880351,1.0621498,-0.4539331,-1.7178695,-0.69597036,2.2983897,1.4783437,-0.9301185,1.12493,-0.5018076,-1.7182796,-0.71285427,2.2866883,1.419129,-0.98568904,-1.3757356,1.0711803,0.09327841,0.2794589,0.310474,0.4843727,0.32796028,1.4823828,-0.5438919,1.6323619,-3.4586513,-0.33208272,0.34648168,0.062755585,-0.36013794,1.0814286,0.8405683,-0.24923734,0.102488615,0.46991673,-0.3367215,0.72914547,0.35210118,1.0,0.0,0.0,0.0,0.0,0.0,0.0,-2.1323829,0.1438919,-1.0823619,1.2176514,-3.525734,-5.4324775,-0.2160132,-6.128031,-0.09499192,1.8303275
1.1942377,17.332539,2.3816512,8.912802,0.22985697,-1.6447201,-0.061501183,-0.7575429,0.54925203,0.01753026,0.19877578,0.09815695,0.63873786,0.59280515,1.0491757,-0.44688237,-1.7165266,-0.6929767,2.296504,1.4830028,-0.9264085,1.1112734,-0.49144733,-1.7176692,-0.70990264,2.2892823,1.423947,-0.9822854,-1.3623317,1.0244914,0.050045952,0.29998696,0.24280505,0.48142537,0.344235,1.4478226,-0.5472107,1.6350877,-3.4551933,-0.3317507,0.24794933,0.05944395,-0.35305786,1.084787,0.84086937,-0.25478816,0.1072138,0.4653244,-0.32161576,0.7018131,0.3269916,1.0,0.0,0.0,0.0,0.0,0.0,0.0,-2.0978227,0.14721069,-1.0850878,1.3547897,-4.606056,-4.4033513,1.9430339,-6.6459627,-0.1325965,1.5597522
-0.72838783,15.404412,2.03045,10.705944,0.5024318,-1.609229,-0.10956468,-0.74930745,0.5216746,-0.003385061,0.21831512,0.069505595,0.6356635,0.59748346,1.0363426,-0.43927988,-1.7180078,-0.68807113,2.296233,1.4875133,-0.922537,1.097756,-0.4815892,-1.7174671,-0.70662105,2.291243,1.4287344,-0.97873676,-1.3480337,0.9731162,0.009772506,0.33726758,0.18084474,0.4782977,0.35826397,1.4132967,-0.55052185,1.6368289,-3.4517388,-0.33141902,0.14951548,0.05621147,-0.34626007,1.0879192,0.84124255,-0.2601145,0.11217847,0.46050754,-0.31641054,0.67378247,0.3055153,1.0,0.0,0.0,0.0,0.0,0.0,0.0,-2.0632968,0.15052184,-1.086829,1.4394999,-5.0780177,-4.113813,3.6152065,-6.068623,-0.17335415,1.3358176
-2.3534517,13.197496,1.3758748,11.560813,0.57588893,-1.6227146,-0.15449572,-0.75292695,0.49319693,-0.031673055,0.2294452,0.0023046688,0.6358183,0.5966226,1.0224633,-0.4322695,-1.7206343,-0.68367654,2.2914736,1.4923162,-0.9190745,1.0843321,-0.47226322,-1.7176807,-0.7029542,2.292521,1.4334933,-0.97506607,-1.3406373,0.9192613,-0.031984735,0.37620696,0.11054366,0.47553322,0.36984396,1.3788052,-0.553833,1.6375865,-3.4482877,-0.33108765,0.05118005,0.053002357,-0.33976746,1.0908375,0.8417156,-0.26522413,0.11738699,0.4554023,-0.31531304,0.644359,0.2844093,1.0,0.0,0.0,0.0,0.0,0.0,0.0,-2.0288053,0.153833,-1.0875864,0.739336,-5.3311825,-4.2519917,3.7822902,-6.9085584,-0.14293194,1.0924995
-0.9736757,8.27676,0.010571957,8.170815,0.24245596,-1.8691671,-0.093923405,-0.74871945,0.450294,-0.053618245,0.18782508,-0.10764291,0.6370814,0.59086883,1.0094602,-0.42723382,-1.7230425,-0.6841717,2.2817566,1.4972014,-0.9159792,1.0709654,-0.46354473,-1.7183082,-0.6991776,2.2928987,1.4382311,-0.97129905,-1.3350976,0.85620093,-0.07332051,0.3778207,0.013765102,0.4737553,0.37885976,1.344348,-0.55714417,1.6373614,-3.4448402,-0.33075663,-0.04705707,0.049896717,-0.33364105,1.0934722,0.84230286,-0.26998946,0.122936785,0.45002,-0.30219877,0.6045849,0.2538968,1.0,0.0,0.0,0.0,0.0,0.0,0.0,-1.9943479,0.15714416,-1.0873613,0.5923748,-6.248188,-4.2253604,0.07357597,-9.580673,-0.0015735626,0.8384943
3.883745,-7.236909,-3.3747602,-1.7807715,-0.3353643,-2.4992373,0.17765398,-0.7307743,0.348758,-0.0063384143,0.05808044,-0.28220585,0.6431771,0.58273166,0.99788797,-0.42866892,-1.718942,-0.69336957,2.264678,1.5025488,-0.91302586,1.0577208,-0.4557923,-1.7190216,-0.6960925,2.291926,1.4429651,-0.9674605,-1.3202585,0.7485319,-0.071359545,0.28542915,-0.13415846,0.47402093,0.38534692,1.3099251,-0.5604553,1.6361548,-3.441396,-0.33042595,-0.14519598,0.047118664,-0.32814026,1.0956017,0.842952,-0.2740885,0.12888077,0.44463128,-0.26343393,0.53097767,0.19710888,1.0,0.0,0.0,0.0,0.0,0.0,0.0,-1.959925,0.16045532,-1.0861547,1.6576767,-10.686421,0.023125112,-9.269852,-14.741074,0.3050089,0.5842507
4.9014473,-10.552082,-3.9142816,-4.1474643,-0.46983004,-2.634282,0.27583957,-0.73611194,0.29732862,0.02481774,0.010820372,-0.39780152,0.65968466,0.5674919,0.9841096,-0.42605945,-1.7165397,-0.6950104,2.2521458,1.5089337,-0.91071135,1.0445849,-0.4491986,-1.7194602,-0.6941794,2.2893128,1.4477144,-0.96358,-1.3106279,0.6298966,-0.035150457,0.15983403,-0.30348656,0.47592622,0.38874292,1.2755365,-0.5637512,1.6339674,-3.4379554,-0.3300956,-0.24323675,0.044772148,-0.32344818,1.0971222,0.8436203,-0.27736712,0.13522363,0.4394165,-0.21964525,0.44957176,0.13520233,1.0,0.0,0.0,0.0,0.0,0.0,0.0,-1.9255365,0.16375121,-1.0839674,1.1492968,-11.791635,3.4772456,-12.573382,-16.920979,0.43600202,0.25575757
-3.2623231,-71.546104,-17.675056,-11.846506,0.93551064,-3.7777023,0.3564437,-0.6988407,-0.009848476,0.1061177,-0.09724148,-0.50677454,0.66089904,0.554932,0.9747008,-0.45018345,-1.7088485,-0.70390356,2.2386353,1.5138043,-0.90808684,1.0316988,-0.44497716,-1.7191417,-0.69384754,2.284964,1.4524809,-0.9596852,-1.2798084,0.35312605,0.052852686,-0.009228954,-0.47823602,0.4777145,0.3892301,1.2411823,-0.5670471,1.6308004,-3.434518,-0.32976556,-0.34117952,0.042548656,-0.3203354,1.0977026,0.8443671,-0.27948272,0.14140683,0.43466946,-0.218778,0.26691723,0.030920107,1.0,0.0,0.0,0.0,0.0,0.0,0.0,-1.8911823,0.16704711,-1.0808003,3.4842014,-27.601545,8.455372,-16.933626,-17.429483,0.39228797,-0.096678734
-17.616005,-110.181404,-25.610512,-4.3680773,3.3290012,-3.876812,0.10708502,-0.65672004,-0.25435215,0.20953766,0.003771612,-0.55682796,0.66014737,0.5126587,0.96602684,-0.47041237,-1.698188,-0.69347036,2.2292812,1.5184957,-0.9084193,1.0192934,-0.44436824,-1.7175319,-0.6944274,2.2790627,1.4572531,-0.9558228,-1.2261899,-0.036464702,0.19580042,-0.074474774,-0.6269205,0.47667667,0.38471776,1.2068624,-0.570343,1.6266546,-3.4310844,-0.32943586,-0.43902433,0.03970623,-0.3193512,1.097237,0.84529346,-0.28053892,0.14658916,0.43045142,-0.3034482,0.04171689,-0.073123716,1.0,0.0,0.0,0.0,0.0,0.0,0.0,-1.8568624,0.17034301,-1.0766547,5.790782,-38.940178,13.9447155,-6.5870047,-14.807093,-0.14907718,-0.611639
-25.49927,-121.893875,-27.924946,2.9179156,4.6674657,-3.6835558,-0.12462369,-0.58915263,-0.4419684,0.22495313,0.06570275,-0.58257544,0.6626443,0.47611597,0.96037817,-0.4885651,-1.6950366,-0.6878571,2.2208052,1.5235175,-0.90821123,1.007672,-0.44791353,-1.7146175,-0.6949519,2.2719674,1.4620024,-0.95203006,-1.1394083,-0.46058697,0.32216138,-0.04518988,-0.73723245,0.47322646,0.37722254,1.1725769,-0.5736389,1.6215312,-3.427654,-0.32910648,-0.53677136,0.035653114,-0.32064056,1.095806,0.84649104,-0.28083014,0.15021762,0.42664036,-0.4384599,-0.18710321,-0.16665772,1.0,0.0,0.0,0.0,0.0,0.0,0.0,-1.8225769,0.17363891,-1.0715313,9.07402,-42.42447,12.318718,2.9132307,-10.9604,-0.6375909,-0.82374215
-27.92138,-98.845764,-21.77,13.630391,5.219685,-2.7558506,-0.30817235,-0.55149245,-0.57147515,0.3240802,0.16894339,-0.63162893,0.6786812,0.42384186,0.9525227,-0.50506103,-1.6822095,-0.67805755,2.2088046,1.5298705,-0.90964586,0.9969692,-0.4553579,-1.7103202,-0.6944512,2.263949,1.466725,-0.9483365,-1.0457964,-0.8390883,0.46428546,0.082322344,-0.8233368,0.47056904,0.36717197,1.1383257,-0.5769272,1.6154311,-3.424227,-0.32877743,-0.6344207,0.030091763,-0.32382202,1.093666,0.8479443,-0.28086278,0.15212207,0.42304298,-0.5963519,-0.3601441,-0.23002914,1.0,0.0,0.0,0.0,0.0,0.0,0.0,-1.7883257,0.17692718,-1.0654311,9.768128,-37.85119,13.800073,12.914489,-8.500648,-0.6359458,-0.8618891
-18.545275,-69.296364,-15.0074835,10.747352,3.991178,-2.435484,-0.1674686,-0.48826867,-0.67844445,0.34424394,0.100962035,-0.6679333,0.6798362,0.33588126,0.94814235,-0.52320236,-1.6758958,-0.684355,2.1971555,1.5347086,-0.9147484,0.9872856,-0.46599853,-1.7048404,-0.69300735,2.2552056,1.4714228,-0.94479835,-0.94164306,-1.1390575,0.57509303,0.16578335,-0.89134336,0.46815455,0.34998986,1.1041088,-0.5802078,1.6083552,-3.4208035,-0.32844874,-0.7319724,0.023289204,-0.3284607,1.0909346,0.84957194,-0.28078574,0.1525241,0.41967025,-0.7104846,-0.4939677,-0.28831202,1.0,0.0,0.0,0.0,0.0,0.0,0.0,-1.7541088,0.18020782,-1.0583551,10.668659,-30.000246,10.847389,8.546545,-6.768608,-0.63375235,-1.5129507
4.3205996,-23.628275,-3.6181974,-0.38036275,1.7115698,-2.2312086,0.32710296,-0.3270098,-0.7328199,0.40132785,0.012472163,-0.6884437,0.67530775,0.2480763,0.95458466,-0.53928053,-1.6647077,-0.6917601,2.1863613,1.5389535,-0.9199907,0.9791336,-0.47887266,-1.6983154,-0.69142234,2.2458978,1.4760958,-0.9414929,-0.77384377,-1.3370205,0.67976433,0.15597934,-0.94422185,0.46595803,0.32450965,1.0699263,-0.58348846,1.6003045,-3.4173834,-0.32812035,-0.8294265,0.016036034,-0.33407593,1.0876629,0.8511126,-0.28058445,0.15176193,0.41695076,-0.73309535,-0.57968986,-0.34190896,1.0,0.0,0.0,0.0,0.0,0.0,0.0,-1.7199262,0.18348846,-1.0503044,16.53489,-19.84849,10.896134,-0.98780096,-5.5044413,-0.58457255,-2.4378777
25.298285,9.437889,3.4723508,-14.386797,-0.6926741,-2.4776082,0.7584634,-0.20350215,-0.76465815,0.3634055,-0.14138168,-0.67085123,0.6654247,0.13248013,0.9587834,-0.5553385,-1.6619748,-0.7055605,2.1788127,1.5426383,-0.9282449,0.9729452,-0.49304044,-1.691201,-0.69091976,2.236258,1.480744,-0.9385222,-0.56965625,-1.4437342,0.72555196,0.013985521,-0.97174174,0.46308258,0.2875999,1.035778,-0.5867691,1.59128,-3.4139667,-0.32779232,-0.92678326,0.009255886,-0.34040833,1.0838078,0.85235584,-0.2800042,0.15025166,0.41534516,-0.6625597,-0.6464117,-0.40247977,1.0,0.0,0.0,0.0,0.0,0.0,0.0,-1.685778,0.1867691,-1.04128,19.660461,-10.796571,5.6322217,-14.509156,-3.1626463,-0.65807104,-3.7831724
33.003124,31.151608,7.3596816,-19.067324,-1.9759555,-2.4636981,0.9007709,-0.18849164,-0.77381206,0.36195108,-0.273075,-0.6503106,0.663217,0.07396765,0.9540961,-0.57042164,-1.6550058,-0.71822727,2.171227,1.5470657,-0.93112546,0.9684677,-0.5077337,-1.6839149,-0.6924943,2.2265267,1.4853655,-0.93594444,-0.40979102,-1.4782912,0.73288107,-0.21585226,-0.9749229,0.4608331,0.24729545,1.0016642,-0.59004974,1.5812827,-3.4105535,-0.32746458,-1.0240427,0.0035157204,-0.34725952,1.0793536,0.8532439,-0.2787889,0.14840733,0.41500223,-0.5466114,-0.69417447,-0.46253562,1.0,0.0,0.0,0.0,0.0,0.0,0.0,-1.6516641,0.19004974,-1.0312827,15.218485,-3.6110163,1.6925216,-23.35404,-0.6940484,-0.5476892,-4.1941614
34.348824,40.17474,8.358013,-19.658949,-2.4828694,-2.4625049,0.87105614,-0.13777296,-0.78414327,0.31647483,-0.38426808,-0.6214173,0.6555245,0.019169299,0.9546904,-0.586148,-1.6522675,-0.7309211,2.164385,1.550918,-0.9340275,0.9653177,-0.5224794,-1.6769378,-0.69660175,2.2169251,1.4899641,-0.9337758,-0.28562295,-1.4738791,0.68829876,-0.47677368,-0.9560859,0.4584079,0.20615485,0.9675846,-0.5933151,1.5703135,-3.4071436,-0.3271372,-1.121205,-0.0009584427,-0.35453796,1.0743111,0.85381645,-0.27677804,0.14652213,0.41583976,-0.4156279,-0.733821,-0.5210039,1.0,0.0,0.0,0.0,0.0,0.0,0.0,-1.6175846,0.19331512,-1.0203135,11.781573,0.30043125,-3.7829876,-26.410967,1.6271949,-0.5429745,-4.270917
29.769344,37.698963,6.373057,-16.953022,-2.4357471,-2.528394,0.6726314,-0.0884141,-0.78744936,0.18625875,-0.47524354,-0.5790478,0.641061,0.017787622,0.95647633,-0.60122436,-1.658312,-0.7441261,2.1590204,1.5540702,-0.931997,0.9631996,-0.5370573,-1.6710746,-0.7031945,2.207663,1.4945284,-0.9319781,-0.18879108,-1.4528267,0.55398023,-0.7207265,-0.91694486,0.45481515,0.17044444,0.93353844,-0.5965805,1.5583733,-3.403737,-0.32681012,-1.21827,-0.004193783,-0.36221313,1.0686797,0.85421294,-0.27382672,0.14481854,0.41757226,-0.29314137,-0.7776539,-0.5799639,1.0,0.0,0.0,0.0,0.0,0.0,0.0,-1.5835384,0.1965805,-1.0083733,9.217143,1.996088,-12.990511,-24.602545,3.7391067,-0.671643,-3.7098913
22.55095,31.67064,3.9420464,-11.814469,-2.04673,-2.4838583,0.4250645,-0.04231972,-0.7889084,0.05315748,-0.5300515,-0.5748248,0.6384899,0.0811647,0.9589676,-0.61594814,-1.6657588,-0.75619966,2.1501806,1.5583774,-0.9238616,0.96192455,-0.55141675,-1.6671016,-0.7118119,2.1987786,1.4990584,-0.93044746,-0.108094685,-1.4305241,0.34604633,-0.9091265,-0.8796965,0.4512733,0.14691907,0.8995266,-0.5998459,1.5454633,-3.4003341,-0.3264834,-1.3152379,-0.0063734055,-0.37039185,1.0624683,0.85459363,-0.26987666,0.14347833,0.4198216,-0.19230992,-0.82499707,-0.6378044,1.0,0.0,0.0,0.0,0.0,0.0,0.0,-1.5495266,0.19984588,-0.9954633,7.7550964,2.1541595,-20.47739,-18.933033,3.5562634,-0.6703198,-2.4701805
21.330997,24.84422,1.6146374,-11.056618,-1.9536495,-2.6431122,0.31661,0.06829794,-0.79267275,-0.13596398,-0.58510697,-0.56224036,0.63710505,0.17888644,0.96875435,-0.630684,-1.680698,-0.7703226,2.1425545,1.5627688,-0.9125588,0.9617033,-0.5656141,-1.6657951,-0.72191894,2.19023,1.5035521,-0.92904174,0.005288778,-1.4163245,0.060096562,-1.0448514,-0.847348,0.44747028,0.13799623,0.8655491,-0.60311127,1.5315844,-3.3969345,-0.32615697,-1.4121089,-0.007599354,-0.37913513,1.0556474,0.85505515,-0.26486754,0.14262,0.4223567,-0.09815041,-0.88466126,-0.70023155,1.0,0.0,0.0,0.0,0.0,0.0,0.0,-1.5155491,0.20311126,-0.98158437,10.990222,1.3569355,-28.16141,-13.656306,3.0240178,-0.7591665,-1.0397762
17.922607,23.555086,1.587518,-7.0700903,-1.5019503,-2.420268,0.23233947,0.118843354,-0.7936949,-0.23127066,-0.608023,-0.5655369,0.65223145,0.26925716,0.97358763,-0.6449836,-1.6889222,-0.7827212,2.1336763,1.5687752,-0.902116,0.9626341,-0.5797304,-1.6673038,-0.73295677,2.1819177,1.5080248,-0.9276284,0.12140113,-1.410223,-0.22000322,-1.1236598,-0.8265652,0.4460029,0.14208795,0.83160496,-0.60637665,1.5167375,-3.3935382,-0.32583088,-1.5088831,-0.008020878,-0.3884201,1.0482359,0.85561097,-0.2588954,0.14224221,0.42505294,-0.021713015,-0.9386734,-0.75892895,1.0,0.0,0.0,0.0,0.0,0.0,0.0,-1.4816049,0.20637664,-0.96673745,11.327544,0.56631565,-27.65352,-7.9274893,1.89991,-0.49381256,0.29101372
3.4642415,22.167433,1.5138515,3.7192242,-0.44265658,-1.7871058,-0.0013854876,0.031457644,-0.7895821,-0.27202207,-0.62910885,-0.5824537,0.6555026,0.32109904,0.96577984,-0.6586886,-1.694506,-0.7958677,2.1236722,1.573575,-0.8955185,0.96405506,-0.5938095,-1.6711166,-0.7444829,2.1736894,1.5124937,-0.9261197,0.14911272,-1.4072733,-0.4346518,-1.1618841,-0.82253355,0.4463622,0.15361883,0.79769516,-0.60962677,1.5009235,-3.3901453,-0.3255051,-1.6055605,-0.008024693,-0.3981018,1.040317,0.8563135,-0.2521567,0.14233361,0.4276508,0.0092881275,-0.97321486,-0.8078341,1.0,0.0,0.0,0.0,0.0,0.0,0.0,-1.4476951,0.20962676,-0.9509235,2.7974486,0.24709702,-21.351974,-3.706646,0.16592741,-0.21389127,1.0898083
-1.0860324,27.890795,4.2234206,8.572472,0.14850935,-1.23949,0.033547826,0.026379786,-0.79292536,-0.25851154,-0.667887,-0.59161365,0.6546047,0.3685128,0.96669304,-0.673102,-1.6969677,-0.81127155,2.114528,1.5779542,-0.8892684,0.9654331,-0.60789526,-1.6762836,-0.75632656,2.1654267,1.5169722,-0.92445743,0.13455409,-1.409145,-0.5444847,-1.1913555,-0.8281068,0.44792876,0.17052448,0.7638192,-0.6128769,1.4841435,-3.386756,-0.32517967,-1.7021413,-0.007870197,-0.40795898,1.0319902,0.85709536,-0.24490803,0.14276242,0.43014708,0.019906672,-0.9855582,-0.8466613,1.0,0.0,0.0,0.0,0.0,0.0,0.0,-1.4138192,0.21287689,-0.9341435,-1.3070673,-0.22389889,-11.089319,-2.7901888,-0.7277131,0.0056505203,1.7023951
-7.575856,34.215313,6.9852147,14.719486,0.8097983,-0.6518959,0.0068210065,-0.024568211,-0.791942,-0.23285326,-0.6733267,-0.61078954,0.6555721,0.40540347,0.9629763,-0.68708944,-1.6995689,-0.82365924,2.1043477,1.5825294,-0.8839171,0.9663048,-0.62200487,-1.681834,-0.76836,2.1570344,1.5214735,-0.92260444,0.07225016,-1.4116333,-0.5595588,-1.2066264,-0.84328383,0.450922,0.19050023,0.72997713,-0.616127,1.4663984,-3.38337,-0.32485455,-1.7986255,-0.007786274,-0.4177704,1.0233792,0.85787565,-0.2374294,0.14338203,0.4325714,0.006796897,-0.97400373,-0.871955,1.0,0.0,0.0,0.0,0.0,0.0,0.0,-1.3799771,0.21612701,-0.91639835,-5.9561996,-0.27811527,-1.8070102,-1.3190746,-1.6473413,0.274992,2.0820827
-15.222531,44.87332,11.319005,22.491804,1.6138663,0.10887778,-0.033739686,-0.11948863,-0.7850556,-0.113774605,-0.6652449,-0.6307693,0.66897476,0.41643628,0.9543559,-0.70051044,-1.6932114,-0.8348845,2.0939574,1.588371,-0.8809608,0.96612644,-0.636104,-1.6866348,-0.7804221,2.1484437,1.5260245,-0.92055404,-0.04652683,-1.409374,-0.4554584,-1.2052406,-0.86460096,0.45709333,0.2104908,0.6961689,-0.61937714,1.447689,-3.3799872,-0.32452977,-1.8950132,-0.008038998,-0.4272232,1.0146781,0.85857415,-0.2300953,0.1440218,0.4349302,-0.033909887,-0.92946887,-0.8755088,1.0,0.0,0.0,0.0,0.0,0.0,0.0,-1.3461689,0.21937713,-0.89768904,-11.4685135,0.21777153,9.845209,0.39565563,-2.173102,0.78954697,2.1900148
-15.271405,51.504074,13.935222,23.987616,1.7813591,0.3471645,-0.010452256,-0.14915687,-0.78057677,-0.07139306,-0.66866684,-0.6368524,0.6650965,0.41021138,0.95121074,-0.71416163,-1.6937741,-0.8472888,2.0847585,1.5925341,-0.87953293,0.9647541,-0.65015256,-1.6901023,-0.7924365,2.1396546,1.5306364,-0.91832626,-0.16616832,-1.4032204,-0.3126239,-1.1994038,-0.88372195,0.46345752,0.22776563,0.6623945,-0.6226196,1.4280168,-3.376608,-0.3242053,-1.9913045,-0.008716583,-0.4361496,1.0060186,0.8591307,-0.22313301,0.14456573,0.43727207,-0.07750412,-0.87273544,-0.86828744,1.0,0.0,0.0,0.0,0.0,0.0,0.0,-1.3123945,0.22261962,-0.87801677,-11.559618,0.6330967,13.601976,0.8355379,-1.8541574,0.89951754,1.9754618
-4.484309,51.427425,14.108363,17.045656,1.1470947,-0.06976044,0.13886355,-0.09314229,-0.7883278,-0.1056057,-0.6832933,-0.63566077,0.65200746,0.42280573,0.95543987,-0.72898537,-1.7006629,-0.8607658,2.0760887,1.5958371,-0.8760457,0.96271515,-0.6641773,-1.6924922,-0.8044585,2.1307244,1.5352942,-0.9159373,-0.21578161,-1.4020941,-0.2163864,-1.2025161,-0.8960515,0.46716842,0.24334987,0.6286535,-0.6258545,1.4073822,-3.373232,-0.32388115,-2.0874996,-0.00961113,-0.44460297,0.9973727,0.85948706,-0.21649657,0.1449698,0.43976682,-0.092589736,-0.830464,-0.86829203,1.0,0.0,0.0,0.0,0.0,0.0,0.0,-1.2786535,0.22585449,-0.85738224,-4.7299027,0.14853477,9.045497,-0.14023781,-1.09905,0.5700886,1.7871797
4.4245014,52.61865,14.628227,12.123705,0.64415586,-0.37561613,0.21906224,-0.061775036,-0.78680855,-0.10302108,-0.66768485,-0.6407958,0.6619109,0.4198146,0.95653766,-0.7428582,-1.7027943,-0.87122697,2.066645,1.6014853,-0.87395585,0.9606323,-0.6781963,-1.6942527,-0.8164538,2.121695,1.5399882,-0.91341484,-0.20539714,-1.4016361,-0.1641261,-1.1982744,-0.9044676,0.4707079,0.2558726,0.5949464,-0.62908936,1.3857864,-3.3698592,-0.32355735,-2.1835983,-0.010486126,-0.4526825,0.9886958,0.85960424,-0.21011245,0.14523211,0.44253924,-0.08495905,-0.79774934,-0.87187904,1.0,0.0,0.0,0.0,0.0,0.0,0.0,-1.2449464,0.22908935,-0.8357864,1.1302382,0.096559525,4.755783,0.5219221,-0.6658554,0.5228877,1.4545947
1.8049808,38.968422,8.686844,10.035364,0.3513778,-0.92835,0.05586756,-0.08432945,-0.78703874,-0.2584965,-0.67462015,-0.64386046,0.65593916,0.42189932,0.9521994,-0.7569002,-1.7201024,-0.88391584,2.057309,1.6055821,-0.8712249,0.9587221,-0.6922201,-1.6964881,-0.8284358,2.1125932,1.5446993,-0.9107884,-0.18589768,-1.4026357,-0.24399775,-1.1976206,-0.91229475,0.471152,0.2651462,0.5612731,-0.6323242,1.3632303,-3.3664901,-0.32323384,-2.2796009,-0.011262417,-0.46071625,0.9798189,0.85963386,-0.20363273,0.1455564,0.44539496,-0.07424526,-0.79634804,-0.8969766,1.0,0.0,0.0,0.0,0.0,0.0,0.0,-1.2112731,0.23232421,-0.81323034,2.029893,-0.09737015,-8.180812,0.21111965,-0.8199096,0.028246641,1.0121703
5.963845,33.65147,6.3847723,5.8233624,-0.07672134,-1.3014779,0.0899443,-0.04438899,-0.7895661,-0.32591984,-0.69343334,-0.64057934,0.64211124,0.4346372,0.95428324,-0.7711767,-1.7290801,-0.8977791,2.0485353,1.6089104,-0.8673247,0.95720387,-0.7062677,-1.6999977,-0.84050643,2.1034417,1.5493933,-0.9080771,-0.14045556,-1.4055803,-0.38666582,-1.2097993,-0.91665757,0.46850336,0.2732201,0.5276332,-0.6355591,1.339715,-3.3631244,-0.32291067,-2.3755074,-0.011823177,-0.46884918,0.97057813,0.8596551,-0.19675234,0.14607407,0.44826782,-0.04919746,-0.81218415,-0.9372152,1.0,0.0,0.0,0.0,0.0,0.0,0.0,-1.1776332,0.23555908,-0.789715,4.568741,-0.3082037,-14.324039,-1.0859966,-0.5364537,-0.4016757,0.83283186
2.258563,31.03036,5.3005385,6.962981,0.09180707,-1.2426512,0.047743514,-0.0683653,-0.79145145,-0.36102262,-0.70323294,-0.63199383,0.6419103,0.44226602,0.95036733,-0.78541285,-1.7361,-0.9108297,2.0402424,1.6135843,-0.86385053,0.9559841,-0.7203535,-1.704972,-0.8527459,2.0942826,1.5540568,-0.9052905,-0.11553943,-1.4096938,-0.5345504,-1.2281762,-0.9160795,0.46518853,0.28050318,0.49402714,-0.6387863,1.3152412,-3.359762,-0.32258782,-2.471318,-0.012197971,-0.47714996,0.96090156,0.85970217,-0.18935533,0.1468042,0.45111543,-0.032554965,-0.8299667,-0.98231286,1.0,0.0,0.0,0.0,0.0,0.0,0.0,-1.1440271,0.23878631,-0.7652412,2.5663705,-0.44050217,-14.837032,-1.6663551,-0.09520054,-0.50987005,0.7456362
0.9821284,31.303377,5.538829,7.439018,0.22486407,-1.1286042,0.061250024,-0.06311796,-0.79507154,-0.4103753,-0.7165075,-0.61672026,0.63621175,0.45059168,0.94967234,-0.79986066,-1.7460096,-0.92439663,2.0326107,1.6176779,-0.86023134,0.954936,-0.7344917,-1.7113216,-0.86520755,2.0851884,1.5586859,-0.9024333,-0.10081864,-1.4152822,-0.66888434,-1.2515956,-0.9080633,0.4614087,0.28753495,0.46045494,-0.6420059,1.2898102,-3.3564029,-0.3222653,-2.567033,-0.012444019,-0.48562622,0.95076674,0.85976964,-0.18143117,0.1476888,0.45394596,-0.020663211,-0.8452569,-1.0288026,1.0,0.0,0.0,0.0,0.0,0.0,0.0,-1.1104549,0.24200591,-0.73981017,1.5712633,-0.59223175,-13.503194,-2.15559,0.6419897,-0.57120323,0.73209405
-3.576062,35.91037,7.464197,10.860498,0.5888282,-0.7405846,0.032232255,-0.091216765,-0.79231066,-0.4170361,-0.7168063,-0.62559825,0.64552104,0.4606223,0.9458144,-0.8137228,-1.7530252,-0.93688816,2.0226285,1.623238,-0.85637105,0.95382786,-0.74866235,-1.7186668,-0.87785995,2.0761476,1.5632902,-0.89950454,-0.113628626,-1.4177974,-0.7568044,-1.2691445,-0.9032999,0.45960164,0.2948072,0.42691612,-0.6452255,1.2634226,-3.3530471,-0.3219431,-2.6626523,-0.01266861,-0.49412537,0.9402362,0.8598339,-0.17309831,0.14866789,0.45674974,-0.021968992,-0.8462374,-1.0664335,1.0,0.0,0.0,0.0,0.0,0.0,0.0,-1.0769161,0.24522552,-0.7134226,-1.1339098,-0.28328896,-8.932424,-1.5536785,0.32479763,-0.31375885,0.78657866
-7.409718,40.812576,9.506407,13.775798,0.87683654,-0.37802184,0.015849411,-0.12036802,-0.7901385,-0.42177466,-0.7245384,-0.6406343,0.6497646,0.47312367,0.94179106,-0.8276762,-1.7608442,-0.9503138,2.012084,1.6282667,-0.85219216,0.95241165,-0.7628349,-1.7265556,-0.8906659,2.0670953,1.567885,-0.89650047,-0.15032852,-1.417092,-0.8001674,-1.2836756,-0.90624976,0.45929375,0.30259666,0.39341068,-0.6484451,1.2360796,-3.3496947,-0.3216212,-2.758176,-0.012983322,-0.5025635,0.9293996,0.85986835,-0.16450804,0.14969872,0.45951465,-0.033562504,-0.8335337,-1.0948428,1.0,0.0,0.0,0.0,0.0,0.0,0.0,-1.0434107,0.24844512,-0.68607956,-3.489068,0.041770935,-4.5389414,-1.244545,-0.43512583,-0.10536909,0.8644819
-14.013638,42.787334,10.293695,17.672953,1.3077713,-0.06457269,-0.064732976,-0.16889183,-0.790768,-0.43205917,-0.7204985,-0.64706856,0.64303267,0.47709247,0.9355225,-0.84191173,-1.7697616,-0.96271574,2.0023885,1.6321883,-0.84879124,0.9504194,-0.77699506,-1.7346656,-0.9035462,2.057982,1.572476,-0.893422,-0.2148261,-1.415767,-0.8152675,-1.2886984,-0.91359717,0.45905927,0.30995372,0.35993862,-0.65166473,1.207782,-3.3463457,-0.32129967,-2.853604,-0.013536453,-0.51078796,0.9183381,0.85988814,-0.15577772,0.15075067,0.4621687,-0.0618694,-0.812156,-1.1154879,1.0,0.0,0.0,0.0,0.0,0.0,0.0,-1.0099386,0.25166473,-0.657782,-6.226149,0.09171963,-1.7287493,-0.2629757,-0.9081483,-0.058692694,0.83877444
-20.337412,42.194374,9.767632,20.449514,1.6064782,0.10607731,-0.15078023,-0.22408228,-0.78873146,-0.46064544,-0.7256503,-0.65610963,0.6360603,0.47447374,0.9280112,-0.8558682,-1.7807301,-0.97611123,1.992371,1.636082,-0.8459746,0.9476061,-0.7911333,-1.7429168,-0.916458,2.0487695,1.5770613,-0.89027965,-0.30263197,-1.4133055,-0.82897913,-1.2911323,-0.92484367,0.45819566,0.31597984,0.32650042,-0.6548691,1.1785309,-3.343,-0.32097843,-2.9489367,-0.014473438,-0.5187912,0.9070815,0.859944,-0.14693025,0.1518333,0.46460125,-0.10363105,-0.7886629,-1.1345108,1.0,0.0,0.0,0.0,0.0,0.0,0.0,-0.9765004,0.25486907,-0.6285309,-8.516497,0.18515587,-1.5673995,0.039458275,-1.3587713,-0.1285255,0.70341825
-15.536341,40.93366,9.318098,17.244572,1.2874615,-0.07310277,-0.0873707,-0.2133925,-0.7928439,-0.5131484,-0.7388285,-0.66616786,0.6313266,0.46690977,0.92626685,-0.87041765,-1.7942317,-0.9903408,1.9821527,1.6401939,-0.84358865,0.94411373,-0.80526865,-1.7514904,-0.9294375,2.0394235,1.5816313,-0.8870915,-0.36403438,-1.413801,-0.86747336,-1.299331,-0.938197,0.45641273,0.32009763,0.2930956,-0.6580734,1.1483272,-3.3396575,-0.32065752,-3.044174,-0.015730381,-0.5266037,0.895577,0.86002964,-0.13788873,0.15296476,0.46683758,-0.13309672,-0.7719031,-1.1611044,1.0,0.0,0.0,0.0,0.0,0.0,0.0,-0.94309556,0.25807342,-0.5983272,-5.920023,-0.1057148,-4.017198,-0.5501032,-1.5494466,-0.2708733,0.4995644
-25.927374,32.845646,5.1031857,20.059748,1.5920994,-0.09487188,-0.25111395,-0.3076801,-0.7950626,-0.59804076,-0.7404085,-0.6876404,0.6119499,0.45645568,0.9133457,-0.8847749,-1.8112944,-1.0034784,1.9706594,1.6428263,-0.8414459,0.939785,-0.81942785,-1.7608039,-0.9424933,2.0298944,1.5861651,-0.8838786,-0.45492348,-1.4170458,-0.95283335,-1.3063627,-0.95910525,0.4516595,0.32185918,0.25972414,-0.6612778,1.1171719,-3.3363185,-0.32033694,-3.1393163,-0.017424583,-0.5343323,0.8837178,0.8602445,-0.12846212,0.15423095,0.46871045,-0.18173419,-0.76514584,-1.1994646,1.0,0.0,0.0,0.0,0.0,0.0,0.0,-0.9097241,0.26127777,-0.5671719,-8.798254,-0.43997765,-8.579052,-0.32801628,-2.479899,-0.6798923,0.22124052
-32.049313,30.129232,3.486588,21.62106,1.8289132,0.012117684,-0.3050813,-0.37776664,-0.7964322,-0.6330693,-0.7542583,-0.69050837,0.6001718,0.4567121,0.90200835,-0.8990711,-1.8241109,-1.0179192,1.9608436,1.6461823,-0.83820736,0.93439865,-0.83362806,-1.7710483,-0.9556626,2.0201707,1.5906397,-0.88065326,-0.56543225,-1.4216328,-1.048242,-1.3190187,-0.97838014,0.44528127,0.3229767,0.22638607,-0.6644821,1.0850658,-3.3329828,-0.32001665,-3.2343633,-0.019696236,-0.5420151,0.87143564,0.86065704,-0.11852828,0.15565376,0.47009823,-0.24297592,-0.7594155,-1.2432318,1.0,0.0,0.0,0.0,0.0,0.0,0.0,-0.87638605,0.2644821,-0.5350658,-10.718417,-0.61244965,-9.528708,-0.82407,-2.413869,-0.9098828,0.15085936
-35.5527,29.670837,3.0443306,22.600214,2.0503237,0.13839251,-0.32393932,-0.43624586,-0.8004388,-0.6733645,-0.75755686,-0.68194675,0.5788486,0.45729393,0.8907741,-0.913672,-1.8383847,-1.0314183,1.9519761,1.6485245,-0.83492386,0.9278536,-0.8478893,-1.7822387,-0.968953,2.0103173,1.5950361,-0.8774165,-0.68308324,-1.4281635,-1.142567,-1.3306686,-0.9896084,0.43685165,0.3239737,0.19308138,-0.66768646,1.0520099,-3.3296504,-0.3196967,-3.3293154,-0.02264452,-0.5496216,0.8587064,0.8612827,-0.108054504,0.15716845,0.47097173,-0.31333888,-0.75219005,-1.2884068,1.0,0.0,0.0,0.0,0.0,0.0,0.0,-0.84308136,0.26768646,-0.5020099,-11.419272,-0.8338213,-9.384918,-0.68359375,-1.6612172,-1.1593759,0.15184283
-36.855244,31.39277,3.6711097,23.074451,2.2093136,0.29424495,-0.3187726,-0.49384323,-0.80423737,-0.70963377,-0.7571939,-0.67598164,0.56342125,0.44984764,0.8784693,-0.928313,-1.8532021,-1.0446724,1.9427192,1.6513783,-0.83243173,0.9201393,-0.862224,-1.794297,-0.98232734,2.0004067,1.599343,-0.8741759,-0.7997726,-1.43578,-1.2268515,-1.3379406,-0.9931266,0.4275508,0.32431775,0.15981007,-0.67087555,1.0180054,-3.3263214,-0.31937706,-3.4241726,-0.026329517,-0.5571289,0.8455417,0.8621111,-0.09707091,0.15868463,0.4713394,-0.38865548,-0.74059135,-1.3315891,1.0,0.0,0.0,0.0,0.0,0.0,0.0,-0.80981004,0.27087554,-0.46800536,-11.328924,-0.95677376,-8.368707,-0.22788048,-0.9038925,-1.2640536,0.10891557
-39.508095,36.24706,5.5269504,24.798857,2.4988606,0.60817164,-0.32947177,-0.57104564,-0.8007564,-0.7221938,-0.7549229,-0.65292156,0.5791459,0.44470838,0.8630347,-0.9422996,-1.8665164,-1.0578196,1.9351146,1.6572576,-0.82970506,0.91119957,-0.87660253,-1.8070095,-0.99573123,1.9905591,1.6035792,-0.87093437,-0.9242157,-1.4391977,-1.2858907,-1.3395066,-0.98381865,0.42109418,0.32438466,0.12657166,-0.67406464,0.98305285,-3.3229957,-0.31905773,-3.518935,-0.030825615,-0.56446075,0.8320135,0.8631256,-0.08569235,0.16008778,0.47121406,-0.47232014,-0.7184412,-1.365786,1.0,0.0,0.0,0.0,0.0,0.0,0.0,-0.77657163,0.27406463,-0.43305284,-12.110031,-0.54786205,-5.846715,0.34754276,0.3749013,-0.96380115,0.116717815
-43.939137,38.78779,6.1757793,26.712366,2.8406544,0.8650534,-0.38230008,-0.6557849,-0.8002817,-0.75189644,-0.7541226,-0.6138989,0.5772787,0.40055528,0.8456211,-0.9566307,-1.882199,-1.0711435,1.9291692,1.661307,-0.83087885,0.90092564,-0.8909954,-1.8202236,-1.009124,1.9809327,1.6077563,-0.8677243,-1.0606402,-1.4399865,-1.3328923,-1.3373277,-0.95764315,0.41552752,0.32038277,0.09336662,-0.6772537,0.94715345,-3.3196733,-0.31873876,-3.6136026,-0.036242485,-0.5715103,0.818186,0.86434364,-0.07400976,0.16125937,0.47056133,-0.56751835,-0.6894868,-1.3942227,1.0,0.0,0.0,0.0,0.0,0.0,0.0,-0.7433666,0.27725372,-0.39715344,-13.302433,-0.30853748,-4.6208143,0.7528782,2.0268798,-0.89419484,-0.2546072
-43.973866,43.871437,7.927869,27.246275,2.903608,1.0647247,-0.41096717,-0.7151419,-0.78956044,-0.7818417,-0.74102557,-0.5974946,0.6034646,0.3415078,0.82941145,-0.96995145,-1.8984077,-1.0832266,1.9211832,1.6681027,-0.8335735,0.8893299,-0.9053339,-1.8338745,-1.0224259,1.9716039,1.6119047,-0.8645972,-1.1915385,-1.4325359,-1.3756026,-1.3261104,-0.92648995,0.41366422,0.31062397,0.06019497,-0.6804428,0.91030806,-3.3163543,-0.31842008,-3.7081754,-0.042608738,-0.57821655,0.80412984,0.865772,-0.062112186,0.16215457,0.4693472,-0.66290504,-0.65266514,-1.4152029,1.0,0.0,0.0,0.0,0.0,0.0,0.0,-0.71019495,0.2804428,-0.36030805,-12.776566,0.5159378,-4.1811466,1.6385078,2.5425315,-0.5156994,-0.81944466
-40.753124,47.08661,9.416211,26.241463,2.8615294,1.1309791,-0.420789,-0.7587634,-0.78997695,-0.80459213,-0.72359115,-0.56323946,0.59584635,0.2243411,0.81345356,-0.98433155,-1.9143337,-1.094785,1.9152799,1.6714894,-0.8421631,0.87656784,-0.9195951,-1.8479278,-1.0355389,1.962645,1.616036,-0.86165226,-1.3034475,-1.4247198,-1.4149855,-1.3047138,-0.88722974,0.41194284,0.28981298,0.027056217,-0.68362427,0.87251765,-3.3130386,-0.31810173,-3.8026538,-0.04988861,-0.5845413,0.7898949,0.86741114,-0.05007935,0.16271253,0.46756238,-0.75307167,-0.6126665,-1.4318855,1.0,0.0,0.0,0.0,0.0,0.0,0.0,-0.6770562,0.28362426,-0.32251763,-10.922098,0.5650997,-3.8497925,2.623558,3.4134626,-0.4951477,-1.9079566
-31.680403,51.233406,12.065901,23.001024,2.5474553,1.1165473,-0.32701024,-0.7761249,-0.79512054,-0.8065884,-0.70952153,-0.544167,0.59893763,0.16162662,0.7989553,-0.9991072,-1.9285866,-1.1064911,1.9082284,1.6759298,-0.8454896,0.8629503,-0.9338144,-1.862273,-1.0483983,1.954081,1.6201597,-0.85895145,-1.3806341,-1.4215662,-1.4408462,-1.2784548,-0.8473294,0.41143093,0.26408213,-0.006049156,-0.6867981,0.83377516,-3.3097262,-0.3177837,-3.8981032,-0.057935238,-0.59046173,0.7755152,0.8692065,-0.038008574,0.16286415,0.46530712,-0.82545537,-0.5700391,-1.4453616,1.0,0.0,0.0,0.0,0.0,0.0,0.0,-0.6439508,0.2867981,-0.28377515,-7.5187683,0.1445055,-2.5495768,3.0351639,3.61228,-0.32526255,-2.3867905
-23.76404,55.634785,14.637955,20.624542,2.186719,1.114129,-0.3010628,-0.790584,-0.79150957,-0.8157832,-0.6755487,-0.56432915,0.5924131,0.02128728,0.7838919,-1.0129653,-1.9438514,-1.1159531,1.8976481,1.679401,-0.8568227,0.8487249,-0.9479625,-1.8771447,-1.0611024,1.9462807,1.6235597,-0.8568693,-1.4501138,-1.4044541,-1.5706713,-1.3127722,-0.6851989,0.131842,0.16738163,-0.033862114,-0.68847656,0.80559903,-1.7931738,0.3497442,0.023533372,-0.06661081,-0.59609985,0.7609562,0.8712577,-0.025537258,0.16237707,0.46248388,-0.8848357,-0.59002036,-1.482218,0.0,1.0,0.0,0.0,0.0,0.0,0.0,-0.61613786,0.28847656,-0.25559902,-9.1558695,2.980876,-24.176264,-10.542583,29.901993,-56.10019,-15.437031
2.2085195,176.0,110.0,110.0,7.768575,10.942441,-2.2186286,-0.7994019,0.5357674,0.6741821,0.6173091,-0.40996075,0.6595634,-0.38148442,0.7687847,-0.8943858,-1.8097265,-0.99937147,1.9052846,1.6895161,-0.89501774,0.83712536,-0.9647243,-1.8818425,-1.0608945,1.929189,1.6302259,-0.8544517,-1.0542734,-1.6762149,-0.2696675,0.43466073,-1.8928074,0.9228849,0.2939905,-0.051780224,-0.6849823,0.8050897,-1.791381,0.34939453,-0.07574131,-0.07631588,-0.5996399,0.7504006,0.8733258,-0.020763613,0.16445446,0.4580671,-1.0013903,-0.2580394,-0.9194434,0.0,1.0,0.0,0.0,0.0,0.0,0.0,-0.59821975,0.2849823,-0.2550897,42.29312,2.3841858e-05,80.04909,165.53795,-73.47915,102.45571,20.86693
-75.81315,135.0264,45.683163,91.503845,9.768653,3.2487788,-2.8325684,-0.7845804,-0.6860869,-0.45315513,0.68603486,-0.35077268,0.59562474,-0.45666486,0.75866735,-1.033333,-1.927158,-0.992291,1.8941118,1.6897883,-0.90011823,0.8266664,-0.9809997,-1.8827409,-1.0499578,1.9108193,1.6395929,-0.85203034,-1.0411727,-1.6121205,-0.028434258,1.3160396,-1.8202866,0.9445953,0.22759242,-0.06968069,-0.68148804,0.80358845,-1.78959,0.34904522,-0.17491674,-0.08811855,-0.6017227,0.7434599,0.8764503,-0.021357646,0.16772018,0.45083112,-1.2387496,-0.18159732,-0.62303174,1.0,0.0,0.0,0.0,0.0,0.0,0.0,-0.5803193,0.28148803,-0.25358844,1.8656492,6.178546,24.51835,88.93865,6.664562,3.1369925,-5.841479
-72.00277,148.1223,39.642197,71.61098,6.9296546,2.1486769,-2.1203005,-0.79223704,-0.44379237,-0.47244775,0.6962311,-0.39277977,0.49473825,-0.11136871,0.7474427,-1.025379,-1.9299856,-0.98033464,1.8715413,1.6890668,-0.8631672,0.8156124,-0.99482036,-1.8840035,-1.0335526,1.8950016,1.648731,-0.85007817,-1.1250916,-1.3068186,-0.15866856,1.7507889,-1.5040829,0.90484834,0.18498802,-0.08756304,-0.6779938,0.80109614,-1.7878008,0.34869626,-0.27399305,-0.10173321,-0.6029587,0.7388848,0.88079304,-0.023428189,0.1713389,0.44079196,-1.4014381,-0.09850938,-0.4083157,1.0,0.0,0.0,0.0,0.0,0.0,0.0,-0.56243694,0.27799377,-0.25109613,-7.868099,30.127644,-12.958208,44.17157,31.06327,-3.564179,-4.104823
-52.54252,102.61697,23.967999,42.469112,4.3898053,1.082651,-1.1353588,-0.7605151,-0.5802708,-0.29107395,0.77858055,-0.47509,0.6067565,-0.21085642,0.73956084,-1.0528474,-1.913111,-0.9556946,1.8474927,1.7094066,-0.8711638,0.803556,-1.006353,-1.8867196,-1.0152459,1.8823769,1.6572492,-0.8486305,-1.2315079,-1.1032965,-0.30937546,1.8586808,-1.1834198,0.8337546,0.13141602,-0.10542774,-0.6745148,0.7976138,-1.7860134,0.34834763,-0.37297028,-0.11651182,-0.60359955,0.7355055,0.88588625,-0.025496315,0.1748688,0.42892456,-1.5024358,-0.04116077,-0.32068807,1.0,0.0,0.0,0.0,0.0,0.0,0.0,-0.54457223,0.27451476,-0.24761379,-10.357523,20.004536,-15.092429,11.206388,31.667185,-7.170069,-5.3263574
-25.478884,82.777435,18.918789,19.859787,1.7974505,0.56664157,-0.28861386,-0.75612587,-0.5265216,-0.3126833,0.7562229,-0.47620937,0.6397588,-0.1721158,0.7279434,-1.0590051,-1.917988,-0.9396236,1.834756,1.7212251,-0.86584204,0.7905994,-1.0162388,-1.8909405,-0.9974182,1.8724167,1.6651018,-0.84764725,-1.3170255,-0.951396,-0.45928165,1.7576753,-0.93505436,0.76852196,0.08686584,-0.12327433,-0.67103577,0.79314244,-1.7842277,0.34799933,-0.47184855,-0.13172245,-0.6037216,0.7324562,0.8912242,-0.026858097,0.17812468,0.41625664,-1.5263278,0.0073102266,-0.30494335,0.0,1.0,0.0,0.0,0.0,0.0,0.0,-0.52672565,0.27103576,-0.24314243,-8.534789,14.913321,-14.858568,-10.036039,24.399126,-6.649816,-4.581642
-7.0069084,68.03472,15.910619,7.7915707,0.4331744,0.18414861,0.14198318,-0.74910223,-0.49450096,-0.3590731,0.7674169,-0.4513206,0.62203634,-0.15451477,0.7156892,-1.0656888,-1.9268478,-0.9206765,1.8272847,1.7273054,-0.86309874,0.77707726,-1.0250527,-1.896489,-0.9810541,1.8643429,1.6723535,-0.8470445,-1.3642553,-0.8588178,-0.58607817,1.5956072,-0.7662741,0.7104085,0.05086566,-0.14110327,-0.66755676,0.787683,-1.7824439,0.3476514,-0.570628,-0.14686632,-0.6034851,0.7292751,0.8964888,-0.02728377,0.1811119,0.4034375,-1.5089873,0.041259848,-0.32657048,0.0,1.0,0.0,0.0,0.0,0.0,0.0,-0.5088967,0.26755676,-0.237683,-4.8243523,9.0562935,-12.425995,-16.292976,16.428173,-5.919397,-3.7579901
-1.1347156,58.414223,12.815823,4.378888,-0.23754984,-0.09223306,0.26493013,-0.7542382,-0.4605371,-0.46503344,0.7768135,-0.5044877,0.61940074,-0.042108614,0.7016534,-1.0711064,-1.9429923,-0.90337276,1.8138942,1.7342936,-0.8512554,0.76329476,-1.0332123,-1.9034089,-0.9661415,1.8572419,1.6790941,-0.84666973,-1.3831859,-0.8022068,-0.7264154,1.4561933,-0.692672,0.66169417,0.03235229,-0.15891457,-0.66407776,0.7812365,-1.7806618,0.3473038,-0.6693086,-0.16173315,-0.6030121,0.7257205,0.9015391,-0.02664908,0.18406689,0.39068714,-1.4776577,0.061726052,-0.36804807,0.0,1.0,0.0,0.0,0.0,0.0,0.0,-0.4910854,0.26407775,-0.23123652,-1.9946098,5.504918,-13.780201,-14.026856,6.981516,-4.948163,-2.0332322
-2.1319299,54.0501,11.3829565,6.0713515,-0.18666396,-0.1832853,0.24004579,-0.75822395,-0.44457823,-0.53236014,0.7917096,-0.53025454,0.5961236,0.11702165,0.68747234,-1.0776701,-1.9566449,-0.8869706,1.8042164,1.7387065,-0.83496755,0.749456,-1.0410134,-1.9116982,-0.9521664,1.8504059,1.6853921,-0.84632164,-1.3844258,-0.7730531,-0.86226743,1.3779465,-0.6818338,0.6188813,0.03516494,-0.17670774,-0.660614,0.773804,-1.7788815,0.34695658,-0.76789063,-0.17633343,-0.6023865,0.7217335,0.90633565,-0.024954304,0.18721172,0.37800077,-1.4523998,0.0753382,-0.41104832,0.0,1.0,0.0,0.0,0.0,0.0,0.0,-0.47329223,0.260614,-0.223804,-0.18680096,2.7683377,-13.32308,-7.847595,0.74111223,-4.379213,0.11139214
-1.5912433,52.889076,11.808059,7.738888,0.051882565,-0.15012228,0.19941528,-0.74520755,-0.45054498,-0.55376446,0.79943216,-0.55058116,0.60116893,0.18080698,0.6749352,-1.0860679,-1.9670746,-0.87222314,1.7953478,1.745509,-0.82824093,0.73573357,-1.048721,-1.9210824,-0.93855363,1.8434117,1.6913183,-0.8458715,-1.3682852,-0.77056193,-0.9629003,1.3557407,-0.7064923,0.5834236,0.047788084,-0.19448328,-0.65715027,0.7653864,-1.777103,0.3466097,-0.8663741,-0.19072866,-0.60163116,0.71736294,0.9108707,-0.022363968,0.19061586,0.36534896,-1.4333106,0.08749678,-0.44762343,0.0,1.0,0.0,0.0,0.0,0.0,0.0,-0.4555167,0.25715026,-0.21538639,1.5645266,0.09907484,-9.7427845,-2.2025108,-2.822864,-3.6769032,1.1197351
-9.291576,38.98588,6.783898,9.32876,0.48248896,-0.23248726,0.12007935,-0.7595747,-0.5069738,-0.6187036,0.79889303,-0.5594575,0.59470356,0.22187863,0.6597761,-1.0994183,-1.9829527,-0.85866433,1.7874659,1.7507887,-0.8236836,0.72212094,-1.0567558,-1.9314988,-0.92496276,1.836026,1.6967536,-0.84513944,-1.3590297,-0.8147832,-1.0697806,1.3592077,-0.75137794,0.52459365,0.08453747,-0.21282864,-0.6526871,0.7590223,-1.8646666,0.5092249,-0.46496382,-0.20510387,-0.6008606,0.71246624,0.9151719,-0.018781422,0.19417897,0.35270667,-1.4365311,0.08579091,-0.50620604,0.0,1.0,0.0,0.0,0.0,0.0,0.0,-0.43717134,0.25268707,-0.20902228,1.0166883,-4.641938,-9.331298,1.2495518,-3.911233,-3.3971667,1.8570065
-16.775906,58.00352,11.513197,15.287674,0.7432366,0.18960077,0.03818707,-0.79609984,-0.412789,-0.68475956,0.79256004,-0.6205932,0.5535067,0.32126752,0.64251095,-1.0980346,-1.9999747,-0.84570676,1.7739667,1.7521043,-0.8130127,0.7084004,-1.0648239,-1.9429406,-0.91123503,1.8280876,1.7017459,-0.84407556,-1.3763558,-0.8050459,-1.167487,1.3777475,-0.80963933,0.4901657,0.11307886,-0.23157263,-0.647377,0.7543388,-1.8775122,0.5375646,-0.4729619,-0.21952772,-0.59989166,0.70723164,0.9192351,-0.014244861,0.19811285,0.3399339,-1.4424307,0.11050419,-0.5308856,0.0,1.0,0.0,0.0,0.0,0.0,0.0,-0.41842735,0.24737701,-0.20433879,-1.7267942,0.7546663,-9.3693495,1.9739628,-6.2824726,-3.6861062,2.710271
-17.699844,65.77806,13.621756,16.618322,0.81111467,0.41223276,0.05111653,-0.80116075,-0.40177962,-0.732905,0.78310126,-0.65110844,0.58399075,0.3746824,0.62828434,-1.1050018,-2.016231,-0.8329249,1.7629768,1.760145,-0.8066073,0.6944529,-1.072661,-1.9553131,-0.8973633,1.8195806,1.7064654,-0.84272796,-1.4010246,-0.77728474,-1.2586493,1.390661,-0.8659706,0.4652309,0.14110051,-0.25023174,-0.6417618,0.7496425,-1.8591458,0.5665761,-0.4738,-0.23399115,-0.5986481,0.70183164,0.92302924,-0.008892199,0.20254262,0.32697743,-1.4453928,0.14435984,-0.5443717,0.0,1.0,0.0,0.0,0.0,0.0,0.0,-0.39976823,0.24176177,-0.19964248,-2.495718,2.524674,-8.603549,1.373291,-6.0346127,-2.6964962,2.532515
-19.099669,50.242535,9.023742,13.984471,0.9192269,0.3260448,0.10655977,-0.8129623,-0.48562822,-0.7562534,0.77134925,-0.6597296,0.59279364,0.38088137,0.6131567,-1.1212238,-2.0309384,-0.8202284,1.7536076,1.7657447,-0.8046398,0.6802336,-1.0806013,-1.9684365,-0.8834449,1.8106136,1.7110022,-0.8411352,-1.4288301,-0.8003918,-1.3286973,1.3928494,-0.90882796,0.44911408,0.16502516,-0.26865292,-0.6359558,0.74470073,-1.8379593,0.58465564,-0.5049541,-0.24858141,-0.5970764,0.6961147,0.9265577,-0.0027740533,0.20722476,0.31391212,-1.4609941,0.17214906,-0.58209884,0.0,1.0,0.0,0.0,0.0,0.0,0.0,-0.38134706,0.2359558,-0.19470072,-2.76618,-2.5188208,-6.58195,0.38461685,-4.7534347,-1.8864274,2.2878737
-14.868951,52.1548,10.431118,12.500848,0.9376127,0.44171906,0.17987269,-0.814642,-0.48282245,-0.7582349,0.76745117,-0.66961026,0.6216835,0.4242067,0.5987694,-1.1288836,-2.04426,-0.8066998,1.7436526,1.7731706,-0.7987145,0.6657863,-1.0888201,-1.9820234,-0.86956286,1.8013096,1.7154286,-0.8392996,-1.4500958,-0.82977045,-1.3669012,1.3871238,-0.93953145,0.4395961,0.18940656,-0.28682804,-0.62996674,0.7394861,-1.8123485,0.60299337,-0.5310163,-0.26328373,-0.59521484,0.6900466,0.9298025,0.0039742105,0.21196567,0.30086896,-1.4703642,0.2034352,-0.61630124,0.0,1.0,0.0,0.0,0.0,0.0,0.0,-0.36317194,0.22996673,-0.18948609,-2.1487236,-3.1403184,-3.3252,-0.4439354,-3.595984,-1.2413979,2.345261
-7.981365,54.28554,12.164755,10.419308,0.90520936,0.48103648,0.24503548,-0.80362386,-0.49880302,-0.7528256,0.7686242,-0.66485846,0.63002133,0.43640432,0.58542395,-1.1387004,-2.0573058,-0.79270047,1.7348237,1.7784307,-0.7956592,0.6512466,-1.09738,-1.9957687,-0.85574836,1.791815,1.7197863,-0.8372369,-1.4554179,-0.8653801,-1.3750455,1.379858,-0.95494056,0.43358165,0.21162161,-0.3047061,-0.6238022,0.7340528,-1.7812634,0.620304,-0.5514425,-0.2780094,-0.5930557,0.68367153,0.93274766,0.011171401,0.2166141,0.2879846,-1.4703324,0.23443307,-0.6458322,0.0,1.0,0.0,0.0,0.0,0.0,0.0,-0.34529388,0.22380218,-0.18405277,-0.60031414,-3.7489414,-0.254488,-0.6545782,-2.1080017,-0.8978665,2.1415532
-5.360083,61.095814,14.451554,10.73935,1.001783,0.6071206,0.25405148,-0.810947,-0.49484825,-0.75116515,0.7655257,-0.66430223,0.64000225,0.4592125,0.5701519,-1.1468649,-2.0708852,-0.7791958,1.7253848,1.7837865,-0.7913156,0.6366773,-1.1062053,-2.009465,-0.8420156,1.782242,1.7241019,-0.83496046,-1.4577403,-0.8888762,-1.365355,1.3712016,-0.9605148,0.42984623,0.23270045,-0.32222652,-0.61746216,0.72849715,-1.7437724,0.63826865,-0.5603261,-0.29269075,-0.59054565,0.67708915,0.93538994,0.018668963,0.22111644,0.27532613,-1.463642,0.26971644,-0.66360486,0.0,1.0,0.0,0.0,0.0,0.0,0.0,-0.32777345,0.21746215,-0.17849714,-0.3412485,-2.5490642,1.63064,-0.8502722,-1.2193799,-0.6887138,2.0195932
-5.8252535,51.943287,11.548348,9.072735,0.9641202,0.47307658,0.27432793,-0.8156945,-0.5538745,-0.76129305,0.75813806,-0.6695049,0.59813195,0.47355315,0.5551079,-1.1615928,-2.0855942,-0.7662018,1.7152915,1.783915,-0.78760517,0.62208897,-1.1154503,-2.0230699,-0.82838064,1.7726347,1.7283622,-0.83248466,-1.4594173,-0.93705934,-1.3568658,1.3611879,-0.9629055,0.42370757,0.25238135,-0.33942652,-0.6109772,0.72271556,-1.7134689,0.6516435,-0.58728606,-0.30734682,-0.58771515,0.67021644,0.9377539,0.026466465,0.22536117,0.26292488,-1.4624375,0.29922462,-0.69658166,0.0,1.0,0.0,0.0,0.0,0.0,0.0,-0.31057346,0.21097717,-0.17271554,-0.24106503,-4.9879193,1.4083385,-0.92196465,-0.80223083,-0.9208143,1.9238889
-5.9613576,53.984444,11.90991,9.487539,1.0544817,0.5293316,0.26552376,-0.81846416,-0.56222,-0.75467557,0.75663763,-0.65802646,0.60572124,0.50524276,0.54024255,-1.1716722,-2.0985374,-0.7527169,1.706832,1.7889344,-0.78196037,0.6074787,-1.1251472,-2.0365708,-0.8148321,1.7630543,1.7325712,-0.82980984,-1.4618447,-0.9812227,-1.3457686,1.3530369,-0.9585295,0.41888443,0.27235562,-0.35631514,-0.6043701,0.71667546,-1.6821284,0.6643481,-0.6127222,-0.32198763,-0.58460236,0.66303915,0.9398586,0.03454039,0.22929771,0.25078925,-1.4605353,0.33112442,-0.72627884,0.0,1.0,0.0,0.0,0.0,0.0,0.0,-0.29368484,0.20437011,-0.16667545,-0.32246113,-4.5906663,1.695466,-0.7398844,-0.1535058,-0.8024633,1.9595623
-4.739924,56.329235,12.4103155,9.412253,1.0235488,0.56293046,0.26751265,-0.8156318,-0.57340884,-0.75143474,0.75242496,-0.663818,0.57875293,0.52696925,0.5259155,-1.1824881,-2.1117144,-0.7395896,1.6966724,1.7904465,-0.7771129,0.5928617,-1.1352295,-2.0499687,-0.8013607,1.7535112,1.7367188,-0.82694036,-1.461982,-1.0177096,-1.3356481,1.3453872,-0.95534086,0.41223922,0.2916126,-0.37287188,-0.597641,0.7104043,-1.6481814,0.67581695,-0.63467425,-0.33657932,-0.58114624,0.65559393,0.9417091,0.042872537,0.23294197,0.2389224,-1.4540546,0.36355746,-0.7520083,0.0,1.0,0.0,0.0,0.0,0.0,0.0,-0.2771281,0.19764099,-0.16040426,-0.10893345,-3.824389,1.630187,-0.71570873,-0.3042221,-0.9862423,1.8768668
-2.376562,63.0482,14.086156,9.789241,0.9836582,0.6347775,0.27773157,-0.80989,-0.5695892,-0.7526822,0.7460177,-0.66943157,0.5801858,0.56288695,0.5118727,-1.1921884,-2.125237,-0.72675896,1.686568,1.7947373,-0.77065164,0.5782743,-1.1455404,-2.0632977,-0.7879778,1.7439815,1.7408046,-0.8238742,-1.4581174,-1.0360845,-1.3295075,1.3359984,-0.9547789,0.40638888,0.31134906,-0.38904142,-0.5907974,0.7039809,-1.6076086,0.68621546,-0.6470864,-0.35104322,-0.57735443,0.6479599,0.94329154,0.0514496,0.23637086,0.22733842,-1.4388372,0.39705634,-0.76868653,0.0,1.0,0.0,0.0,0.0,0.0,0.0,-0.26095855,0.19079742,-0.15398091,0.25532246,-2.0232916,1.3168573,-0.95250607,-0.6506443,-0.91316104,1.8879533
-2.1738281,65.18709,14.488282,10.303546,1.092218,0.6728064,0.2608389,-0.809722,-0.5867395,-0.73856705,0.7478381,-0.6573292,0.5765182,0.58266395,0.49730211,-1.2042143,-2.1371543,-0.713194,1.6782485,1.7984564,-0.7656078,0.5637279,-1.1560136,-2.076524,-0.77466,1.7344853,1.7448366,-0.8206158,-1.4540033,-1.051725,-1.3178707,1.3303144,-0.9504796,0.40103167,0.33041412,-0.40479755,-0.5838623,0.6974455,-1.5659467,0.6952296,-0.65770835,-0.36535263,-0.57321167,0.640192,0.94461304,0.06022438,0.23959877,0.21603593,-1.4228936,0.4314151,-0.78112245,0.0,1.0,0.0,0.0,0.0,0.0,0.0,-0.24520242,0.1838623,-0.1474455,0.2707243,-1.7523766,1.903677,-0.5927563,-0.31229258,-0.87489486,1.8246055
-1.8106639,68.48311,15.214089,11.08645,1.273367,0.68871224,0.23344529,-0.8069352,-0.5967549,-0.7211397,0.7498209,-0.6343092,0.5418166,0.5863489,0.4830344,-1.2156891,-2.148638,-0.6996779,1.6710544,1.7990183,-0.76198095,0.5492265,-1.1666318,-2.089568,-0.761367,1.7250987,1.7487966,-0.81718504,-1.4492964,-1.0656806,-1.2973602,1.3288174,-0.9375118,0.393032,0.3472372,-0.42013502,-0.57686615,0.6908128,-1.5230985,0.70242196,-0.6671011,-0.37950516,-0.5687256,0.63233656,0.9457002,0.06912939,0.24258602,0.20499802,-1.4069061,0.46641618,-0.78849286,0.0,1.0,0.0,0.0,0.0,0.0,0.0,-0.22986495,0.17686614,-0.14081281,0.31821728,-1.5892506,2.8436184,-0.18424988,0.50582886,-1.1524558,1.6110837
1.8057795,69.46685,15.679609,10.166783,1.249892,0.66129744,0.24904956,-0.79147977,-0.60587084,-0.7074421,0.7459622,-0.6142626,0.51461077,0.6014399,0.47007853,-1.2272189,-2.1603122,-0.6867708,1.6636724,1.8002577,-0.75704104,0.5348327,-1.1773874,-2.10237,-0.74809283,1.7158955,1.7526643,-0.8135954,-1.4365567,-1.0795665,-1.2716438,1.3268467,-0.9173977,0.38299397,0.3629525,-0.4350338,-0.5698166,0.684084,-1.4785663,0.7087631,-0.6760977,-0.39346123,-0.5639267,0.62442243,0.94657195,0.07810499,0.24529295,0.19424845,-1.385882,0.49791622,-0.7938583,0.0,1.0,0.0,0.0,0.0,0.0,0.0,-0.21496618,0.16981658,-0.13408399,1.1019945,-1.5731573,3.3953667,-0.26550293,1.1911273,-1.3732076,1.5126228
1.4890394,70.77504,15.595105,10.579407,1.3125908,0.6527591,0.23355913,-0.79167473,-0.60720533,-0.7033923,0.74232304,-0.5964059,0.46629637,0.6105751,0.45566523,-1.2381079,-2.1727092,-0.67386055,1.6562549,1.799294,-0.7525379,0.5205543,-1.1882497,-2.1149433,-0.73484915,1.7069242,1.7564048,-0.80986106,-1.4255421,-1.0892314,-1.2495762,1.3234355,-0.89326173,0.3691876,0.37713978,-0.44949055,-0.5627289,0.67725563,-1.4332435,0.7127255,-0.6864722,-0.4072075,-0.5588074,0.6164686,0.9472456,0.08714153,0.24770387,0.18377927,-1.3646638,0.52875525,-0.7973565,0.0,1.0,0.0,0.0,0.0,0.0,0.0,-0.20050943,0.16272888,-0.12725562,0.9272337,-1.1525154,3.0520916,-0.41384697,1.5678048,-1.7980456,1.3839066
2.7544444,70.952446,15.469938,10.171663,1.3159544,0.6145544,0.2406246,-0.7839169,-0.6135976,-0.6901401,0.7335138,-0.5697856,0.39407706,0.6193753,0.4421626,-1.2496095,-2.1839573,-0.6614978,1.6499456,1.7958125,-0.74792355,0.5063932,-1.1992036,-2.1272953,-0.7216751,1.6982334,1.7599655,-0.8059962,-1.4135178,-1.0980151,-1.2275429,1.3150257,-0.86392665,0.35029393,0.38951004,-0.4635067,-0.5556259,0.6703083,-1.3911736,0.71026057,-0.69745463,-0.42073107,-0.5533829,0.6084801,0.94773996,0.09623873,0.24978621,0.17359118,-1.3417073,0.5570833,-0.80073255,0.0,1.0,0.0,0.0,0.0,0.0,0.0,-0.18649328,0.15562591,-0.12030828,1.0215998,-1.0571241,3.0606508,-0.92897415,2.0677805,-2.2753298,1.1838078
6.726152,78.84412,17.504576,10.579122,1.3398554,0.65874183,0.24505916,-0.76713043,-0.5890239,-0.6718097,0.7260825,-0.5585648,0.3363718,0.63659304,0.42968014,-1.258106,-2.1944761,-0.64906687,1.6423769,1.7936027,-0.74233687,0.49239856,-1.2101022,-2.139399,-0.7086174,1.6898272,1.7633018,-0.80200803,-1.3954842,-1.0877607,-1.2013716,1.3020903,-0.83620214,0.32683504,0.40158933,-0.477026,-0.54854584,0.66332525,-1.3392738,0.7074397,-0.69781035,-0.43395615,-0.5477295,0.60055035,0.94805354,0.10536263,0.25158384,0.16370328,-1.309187,0.5827865,-0.7917252,0.0,1.0,0.0,0.0,0.0,0.0,0.0,-0.17297399,0.14854583,-0.11332524,1.576519,0.8419752,3.5965443,-1.4663935,1.7735243,-2.68296,1.085192
7.953678,86.97157,19.26799,12.09474,1.5314337,0.7050585,0.21593687,-0.7611685,-0.56350285,-0.6497525,0.71766806,-0.53111273,0.24339265,0.6457022,0.4162817,-1.2664524,-2.2043743,-0.6368506,1.6367159,1.7876412,-0.73743784,0.4785803,-1.2207566,-2.15119,-0.6957143,1.6817241,1.7663506,-0.7979056,-1.378167,-1.0584643,-1.168377,1.285619,-0.80543214,0.2962753,0.41269985,-0.48998404,-0.54151154,0.6564156,-1.2809747,0.7023325,-0.68796986,-0.44682455,-0.5417862,0.59281474,0.94819206,0.11446258,0.25314415,0.1541039,-1.2724009,0.6080461,-0.7686203,0.0,1.0,0.0,0.0,0.0,0.0,0.0,-0.16001594,0.14151153,-0.10641557,1.4713764,2.734995,4.4043064,-1.876378,1.9568801,-3.4189045,0.97464323
8.532899,83.05979,18.189144,10.945845,1.6451383,0.508037,0.24190292,-0.7585872,-0.571719,-0.631853,0.67990446,-0.42154962,-0.051840678,0.6574121,0.40272158,-1.2779286,-2.2143753,-0.6277239,1.6395692,1.7611666,-0.7321644,0.46490413,-1.2311689,-2.162634,-0.6831209,1.6741891,1.7688993,-0.7936966,-1.3649225,-1.0360296,-1.1330583,1.24986,-0.7396128,0.23971933,0.42334786,-0.5024166,-0.5345459,0.6495279,-1.2300955,0.69453263,-0.6880181,-0.45936584,-0.5356293,0.5852786,0.948218,0.12353126,0.25427654,0.14479633,-1.2411497,0.6278777,-0.7496756,0.0,1.0,0.0,0.0,0.0,0.0,0.0,-0.14758337,0.13454589,-0.099527895,1.0792494,2.0704508,4.5800686,-3.792882,5.50611,-6.038296,0.9784579
10.15707,87.89764,19.472374,11.398874,2.030786,0.44949147,0.23197493,-0.7557532,-0.5376649,-0.5917197,0.6348293,-0.27082214,-0.3304316,0.6636639,0.3893288,-1.2849354,-2.2218058,-0.61963797,1.6471069,1.7358562,-0.7273302,0.4513262,-1.2412606,-2.1736197,-0.67105865,1.6676977,1.770704,-0.78938854,-1.3562679,-1.0007684,-1.0832195,1.1908349,-0.6226096,0.15930647,0.43312937,-0.51434946,-0.52767944,0.64266247,-1.1799682,0.6842251,-0.68452597,-0.4716072,-0.5292816,0.57802147,0.94822705,0.13245915,0.25472075,0.13578376,-1.2115415,0.64673865,-0.7185345,0.0,1.0,0.0,0.0,0.0,0.0,0.0,-0.13565052,0.12767944,-0.09266245,0.6020546,3.3621788,6.084299,-6.1653852,10.560346,-8.435928,0.9106636
18.428526,92.28964,22.156538,9.815466,2.5060241,0.51944816,0.2422939,-0.7377629,-0.52155215,-0.477553,0.5745635,-0.06104688,-0.4459247,0.65321165,0.3775499,-1.2934159,-2.221375,-0.6136023,1.661593,1.7261115,-0.7240674,0.43788034,-1.2509862,-2.1836593,-0.65979177,1.6628876,1.7716694,-0.7849993,-1.3416935,-0.9636581,-0.9736415,1.1041826,-0.43771872,0.074173994,0.4407911,-0.52575874,-0.5209274,0.6358787,-1.1268938,0.67160755,-0.6745963,-0.4835143,-0.5227585,0.57120174,0.9483712,0.14083333,0.25414678,0.12715116,-1.177103,0.66382337,-0.6704962,0.0,1.0,0.0,0.0,0.0,0.0,0.0,-0.12424123,0.12092742,-0.08587867,1.1591673,3.5733938,12.141418,-9.001088,17.283768,-8.907316,0.73087215
19.450031,80.61623,20.260004,6.77508,2.7927608,0.4817862,0.26370165,-0.7457635,-0.5538716,-0.38803273,0.49637327,0.18482041,-0.51400304,0.6412647,0.363304,-1.3063734,-2.2224627,-0.61015445,1.6813697,1.7202691,-0.7208728,0.42451984,-1.2605745,-2.1923065,-0.64961207,1.6604348,1.7718135,-0.7805507,-1.3349665,-0.9575287,-0.8252844,0.9883282,-0.18420258,-0.0068125585,0.44642293,-0.5367422,-0.51428986,0.6290392,-1.0875973,0.661901,-0.68504816,-0.49515104,-0.51605225,0.5647796,0.9488404,0.14824255,0.25212753,0.11898633,-1.152657,0.68233615,-0.63344556,0.0,1.0,0.0,0.0,0.0,0.0,0.0,-0.113257766,0.11428985,-0.079039216,0.43361187,0.51944256,15.816331,-11.8436575,24.366814,-8.460215,0.6095648
29.418045,89.99387,24.146952,5.5727434,2.9689097,0.75168633,0.29633594,-0.7321398,-0.51459086,-0.19713233,0.40749016,0.261307,-0.5271784,0.6381882,0.35130584,-1.3120335,-2.2120197,-0.60886306,1.6865655,1.7190957,-0.7167319,0.4112547,-1.270012,-2.198829,-0.6408041,1.66041,1.7712274,-0.77605647,-1.3245779,-0.93948215,-0.5909762,0.84390265,0.054963373,-0.07666708,0.450318,-0.5472317,-0.507782,0.62224567,-1.0355027,0.6447797,-0.675482,-0.5064049,-0.50917816,0.55888546,0.949739,0.1542526,0.24856548,0.11143168,-1.1101584,0.69792527,-0.5753074,0.0,1.0,0.0,0.0,0.0,0.0,0.0,-0.1027683,0.10778198,-0.07224566,0.77712536,1.7296791,24.483597,-14.762568,22.908726,-7.241461,0.3875196
38.529907,104.83828,30.140036,7.146584,3.844298,1.1218038,0.1907449,-0.7201974,-0.5025689,0.13362645,0.35902292,0.40791228,-0.5416956,0.63930064,0.33923495,-1.3202689,-2.1854663,-0.6049018,1.7012013,1.7170578,-0.7121264,0.39812738,-1.2792493,-2.2018273,-0.6333845,1.6627407,1.7700174,-0.7715261,-1.309594,-0.91872066,-0.19941416,0.7068708,0.2892778,-0.13656579,0.45400432,-0.5570903,-0.5014801,0.61579186,-0.9685126,0.6249183,-0.6342046,-0.5171547,-0.50211334,0.55388623,0.951216,0.15812042,0.24341723,0.104565926,-1.0575591,0.717258,-0.47560692,0.0,1.0,0.0,0.0,0.0,0.0,0.0,-0.09290969,0.1014801,-0.065791845,1.2485743,2.00212,40.266506,-14.021659,22.435019,-6.151025,0.35562515
40.718876,108.887505,31.566257,7.4502573,4.1021376,1.2382891,0.17879826,-0.7232972,-0.4872892,0.33830428,0.25813526,0.5721491,-0.58529115,0.6598822,0.32579765,-1.3279783,-2.167997,-0.607571,1.7199556,1.7114882,-0.70553786,0.38511497,-1.2882482,-2.2005227,-0.62744373,1.667414,1.7682562,-0.766949,-1.2990124,-0.8937565,0.24306712,0.5558311,0.52417284,-0.18957226,0.45893887,-0.5662513,-0.49541473,0.60983163,-0.89847696,0.60113627,-0.5824445,-0.5273633,-0.49484253,0.5499663,0.9533585,0.15941295,0.23665509,0.09843467,-1.0034704,0.73743737,-0.3651942,0.0,1.0,0.0,0.0,0.0,0.0,0.0,-0.0837487,0.09541473,-0.05983162,0.8964777,2.4142146,45.14276,-15.310049,22.718632,-5.36215,0.47845244
38.93458,123.03845,32.429417,10.95087,3.7104614,1.2475615,0.15309173,-0.706772,-0.38474435,0.37542427,0.17962283,0.6337967,-0.5616049,0.64925534,0.31443775,-1.3267226,-2.1629803,-0.60948145,1.7307936,1.7120957,-0.70202345,0.3722542,-1.296568,-2.195575,-0.6230111,1.6741635,1.7660519,-0.76233554,-1.2820457,-0.81183636,0.5809047,0.40547553,0.72374296,-0.2303007,0.46200642,-0.57460546,-0.48963928,0.60456556,-0.8153601,0.56911135,-0.508662,-0.53695965,-0.48739624,0.54721195,0.95601386,0.15838543,0.22870742,0.092974685,-0.94111466,0.75209475,-0.24704587,0.0,1.0,0.0,0.0,0.0,0.0,0.0,-0.07539451,0.089639276,-0.05456555,1.6240597,8.09648,34.33839,-15.10374,19.55346,-3.9807975,0.25821924
50.69941,110.69591,28.146824,0.19551349,1.4141637,0.98291326,0.6850444,-0.6982009,-0.3138739,0.35594878,-0.1357178,0.6797324,-0.5345545,0.62536085,0.3024341,-1.3279555,-2.15998,-0.6365829,1.7421367,1.7125964,-0.6997995,0.35957414,-1.3037988,-2.1884885,-0.62116605,1.6825864,1.7635368,-0.7577188,-1.2634584,-0.6938289,0.7517417,0.11098488,0.8814313,-0.25730115,0.4614019,-0.5820832,-0.48429108,0.59993976,-0.72712475,0.52459663,-0.4500953,-0.54568005,-0.4800949,0.5452383,0.95890313,0.15584008,0.21993506,0.08858363,-0.84594434,0.7315021,-0.18257344,0.0,1.0,0.0,0.0,0.0,0.0,0.0,-0.06791675,0.08429107,-0.04993975,1.8156528,11.718726,17.203724,-29.427662,15.784157,-2.3420513,-0.09692907
50.74441,112.26172,27.489595,-0.6188261,0.80551165,0.9481628,0.78511894,-0.7024746,-0.24565473,0.4878543,-0.2706878,0.7119753,-0.50821966,0.5880354,0.28932667,-1.3283643,-2.139703,-0.64823484,1.753784,1.7127148,-0.69891524,0.34702465,-1.3097059,-2.180056,-0.62249595,1.6922737,1.7608259,-0.75313896,-1.251997,-0.55653465,0.87251526,-0.21386203,0.99925476,-0.27401975,0.45688352,-0.588655,-0.47942352,0.5959383,-0.6359186,0.47557205,-0.38684762,-0.55338573,-0.47304535,0.5438496,0.96184945,0.15225169,0.21061783,0.085470505,-0.7431616,0.70139,-0.12596254,0.0,1.0,0.0,0.0,0.0,0.0,0.0,-0.06134498,0.07942352,-0.045938313,1.1890173,13.688719,11.727619,-32.345135,12.285889,-1.1527538,-0.42874217
50.893883,96.17329,23.73293,-4.6676407,0.07374595,0.72451043,0.8824123,-0.69195545,-0.24077202,0.5646116,-0.41905588,0.74240744,-0.42729843,0.56407017,0.2778291,-1.333783,-2.123595,-0.66440153,1.7665145,1.718096,-0.6967319,0.3345949,-1.3145009,-2.1706283,-0.6270844,1.7028801,1.7580462,-0.7486231,-1.2396204,-0.4539317,0.9639965,-0.5397247,1.0835487,-0.2774033,0.45016414,-0.59439087,-0.475029,0.5924103,-0.5549231,0.4282282,-0.34523967,-0.5600872,-0.46637726,0.5427854,0.9647697,0.147881,0.20085362,0.083715364,-0.64390266,0.66099596,-0.10123054,0.0,1.0,0.0,0.0,0.0,0.0,0.0,-0.055609107,0.075028986,-0.042410314,1.3464689,10.256947,8.472157,-32.366417,9.24108,0.24020076,-0.5751908
64.188934,48.885334,15.413836,-18.33696,-1.3593842,0.034009814,1.0758339,-0.6119692,-0.37078032,0.63690263,-0.52538466,0.76634663,-0.30190346,0.5686055,0.27339798,-1.351579,-2.1069381,-0.6796228,1.7795148,1.7278558,-0.6917625,0.32262868,-1.3192292,-2.1602755,-0.63459104,1.7140934,1.7553544,-0.7441731,-1.1819578,-0.47918418,1.0575583,-0.82038885,1.1356894,-0.2649024,0.4436704,-0.5995045,-0.47107697,0.58881414,-0.49825642,0.38498154,-0.36704737,-0.5658603,-0.46030426,0.5413843,0.9676574,0.14286771,0.19041613,0.083484106,-0.55326813,0.59084505,-0.15383434,0.0,1.0,0.0,0.0,0.0,0.0,0.0,-0.050495505,0.07107696,-0.038814127,5.8591127,-2.5553703,8.83534,-27.876818,5.805564,1.7376304,-0.5272627
47.553696,46.858936,13.386395,-11.310801,-0.7499677,0.002145946,0.76545084,-0.6186519,-0.3491341,0.66784483,-0.5458786,0.7601367,-0.17291728,0.5761298,0.2607635,-1.3541427,-2.093491,-0.6891789,1.7901071,1.7380626,-0.68656015,0.31117886,-1.3243982,-2.1491027,-0.6441432,1.7255998,1.7528859,-0.7397737,-1.1322415,-0.5295585,1.1352555,-0.9993863,1.1575987,-0.2396678,0.43930396,-0.60414886,-0.46748352,0.58493936,-0.45444715,0.3515244,-0.39679134,-0.57093287,-0.4548111,0.5394591,0.97047824,0.13729729,0.17939474,0.08449216,-0.49036187,0.5393819,-0.2057607,0.0,1.0,0.0,0.0,0.0,0.0,0.0,-0.04585111,0.067483515,-0.03493935,5.1054,-5.041194,7.1508884,-17.67764,2.8421402,2.910173,-0.2655983
31.401638,38.12595,9.790842,-6.2486987,-0.3223907,-0.11742172,0.4995992,-0.6069373,-0.3994872,0.6666802,-0.5742439,0.7670913,-0.08253932,0.55851877,0.25048512,-1.3643469,-2.0824347,-0.7015676,1.8023089,1.744632,-0.6839218,0.30015916,-1.3303243,-2.1373878,-0.65485114,1.737187,1.7507211,-0.7354229,-1.091481,-0.6136823,1.181916,-1.0938755,1.1606351,-0.20781952,0.43436053,-0.6084795,-0.46414185,0.5806102,-0.42663008,0.32885316,-0.44627735,-0.5755887,-0.44968414,0.53691775,0.9731954,0.13130689,0.1679224,0.0863201,-0.45553383,0.5046174,-0.2702615,0.0,1.0,0.0,0.0,0.0,0.0,0.0,-0.041520476,0.06414184,-0.030610204,4.2027235,-8.410645,4.1499376,-9.239364,0.7972717,3.4326553,-0.29336214
27.375683,31.980415,8.025377,-4.768389,-0.24152735,-0.20499736,0.34468699,-0.5547289,-0.46540308,0.6719334,-0.57930136,0.76795036,0.11918831,0.5591177,0.24468626,-1.3768646,-2.0701945,-0.71278125,1.813982,1.7626399,-0.67951113,0.2896554,-1.3372861,-2.1253867,-0.6659909,1.7487265,1.749001,-0.7311151,-1.0363027,-0.72356385,1.2050031,-1.1199774,1.15292,-0.15954529,0.43029162,-0.6125932,-0.46099854,0.5756988,-0.40626803,0.31048277,-0.5061236,-0.57998466,-0.44489288,0.5336597,0.9757785,0.12496727,0.1561152,0.08869926,-0.43254593,0.473873,-0.34383103,0.0,1.0,0.0,0.0,0.0,0.0,0.0,-0.037406802,0.06099853,-0.025698781,5.6299925,-10.98485,1.9249201,-2.4167538,-0.4207611,4.9924045,-0.19748807
32.382153,42.950203,11.133974,-2.4142323,-0.10946885,-0.18012193,0.19310334,-0.47471312,-0.48833215,0.6892413,-0.5268164,0.7558253,0.2810635,0.5694995,0.24218407,-1.3861194,-2.0564625,-0.7186725,1.824309,1.7771074,-0.6741651,0.27996653,-1.3452531,-2.1132252,-0.67684275,1.7601492,1.7478547,-0.7268349,-0.94594824,-0.8208378,1.2187114,-1.0729599,1.1402712,-0.09896314,0.4279654,-0.61646414,-0.45806122,0.5703503,-0.38070178,0.2883761,-0.544011,-0.5841341,-0.4404297,0.52982295,0.9781947,0.11822534,0.14421026,0.09143994,-0.40713271,0.4391955,-0.39630398,0.0,1.0,0.0,0.0,0.0,0.0,0.0,-0.033535838,0.058061212,-0.020350277,9.170877,-9.682226,0.94561577,4.905224,-0.82263947,6.295869,-0.019443035
46.497078,53.3226,14.753386,-4.365378,-0.52872103,-0.28974295,0.20958543,-0.3761212,-0.508836,0.67602617,-0.506839,0.75123197,0.3401721,0.5602243,0.24235441,-1.3961368,-2.0456226,-0.72752666,1.8352724,1.7818719,-0.6708125,0.27150887,-1.3540155,-2.1010675,-0.6870175,1.7714596,1.7473152,-0.72258157,-0.8118763,-0.89448196,1.2133478,-0.99817413,1.129682,-0.037798233,0.42513737,-0.6200166,-0.4554062,0.56478757,-0.34689346,0.25780585,-0.5600965,-0.58791494,-0.4364624,0.52558434,0.98040456,0.11107362,0.13241905,0.094523884,-0.36673337,0.384996,-0.4324513,0.0,1.0,0.0,0.0,0.0,0.0,0.0,-0.029983401,0.055406183,-0.014787555,13.5599375,-7.3019147,-0.95186234,7.720864,-0.5580902,6.4565644,-0.06886721
59.947742,56.180244,16.587593,-8.437813,-1.1056318,-0.5045099,0.31313202,-0.27832466,-0.5485644,0.6668382,-0.49328265,0.7505628,0.3215053,0.5703355,0.24367641,-1.4088719,-2.0343838,-0.73634577,1.8465159,1.7794657,-0.665548,0.26463622,-1.3634378,-2.089047,-0.69645494,1.7826918,1.747317,-0.7183482,-0.64522606,-0.95794046,1.1972477,-0.9246415,1.1226282,0.013964827,0.42346144,-0.6232052,-0.4531021,0.55911183,-0.30952054,0.22081205,-0.5693117,-0.59119225,-0.43318176,0.52100897,0.98237765,0.10356618,0.12080224,0.09805574,-0.31329015,0.30956018,-0.46542358,0.0,1.0,0.0,0.0,0.0,0.0,0.0,-0.026794791,0.053102106,-0.009111822,16.816795,-6.3012958,-1.9318819,7.6352596,-0.26392937,5.545415,0.048565865
49.387688,67.14806,18.064346,-3.2534862,-0.6747783,-0.36125672,0.20067436,-0.24804616,-0.5422653,0.6505124,-0.45561957,0.75082177,0.32520762,0.56322306,0.2398316,-1.4176643,-2.0239956,-0.7420169,1.857774,1.7798377,-0.6620259,0.25924942,-1.3732549,-2.077267,-0.7051571,1.7938797,1.7477716,-0.71413213,-0.5025488,-0.9894321,1.1701101,-0.8510324,1.1193016,0.05723403,0.42179617,-0.6260395,-0.45114136,0.553431,-0.27467346,0.18780011,-0.56646264,-0.59399223,-0.43056488,0.5162418,0.98410255,0.09578324,0.109432064,0.10194267,-0.267685,0.24752149,-0.48023462,0.0,1.0,0.0,0.0,0.0,0.0,0.0,-0.023960471,0.05114135,-0.0034309626,14.439487,-3.0868173,-3.1048536,7.681823,0.18706322,4.696964,0.073987246
39.262394,80.004036,20.459425,2.7868958,-0.09161313,-0.17250155,0.039681315,-0.18664697,-0.5349705,0.6577478,-0.37488222,0.7456589,0.3529169,0.56386787,0.24058472,-1.426752,-2.0114923,-0.7426453,1.8684456,1.7830633,-0.65774536,0.25516245,-1.3831788,-2.0656967,-0.712939,1.8050393,1.7486203,-0.70992845,-0.37676257,-0.9929571,1.1509928,-0.7528783,1.1171218,0.09543381,0.4206701,-0.62854195,-0.44947815,0.54792136,-0.24200875,0.15883262,-0.5443209,-0.5964074,-0.42845917,0.51151276,0.9855878,0.08772571,0.0984331,0.105980426,-0.23200957,0.20107162,-0.4704311,0.0,1.0,0.0,0.0,0.0,0.0,0.0,-0.02145803,0.049478143,0.0020786524,12.771666,-0.26078224,-2.3809195,10.148823,0.40941238,4.2494164,0.12130141
30.980663,97.63947,23.942741,8.695204,0.29854923,0.018499255,-0.08604342,-0.12695977,-0.48331216,0.63258564,-0.31031743,0.73002326,0.33749494,0.56155014,0.24246646,-1.4315101,-2.002438,-0.74397075,1.8780416,1.7823697,-0.6537734,0.25222462,-1.39279,-2.0543818,-0.7196318,1.8161525,1.7497905,-0.70573527,-0.26544946,-0.9500635,1.1228919,-0.6402058,1.1118653,0.12569684,0.41964042,-0.630713,-0.4480896,0.542845,-0.20886825,0.13185027,-0.49395168,-0.59849596,-0.4267273,0.507113,0.98683685,0.07943991,0.088007584,0.10998595,-0.20064814,0.16589744,-0.4301544,0.0,1.0,0.0,0.0,0.0,0.0,0.0,-0.01928699,0.048089594,0.007155001,11.349648,4.409075,-3.3584118,11.626375,0.19965172,3.4391193,0.14587045
