Afshin1997/kuka_rl_ros2/src/catch_and_throw/input_files/idealpd/polynomial_regressor/optimizer_files/env_463_data.csv
torque0,torque1,torque2,torque3,torque4,torque5,torque6,action0,action1,action2,action3,action4,action5,action6,set_target_0,set_target_1,set_target_2,set_target_3,set_target_4,set_target_5,set_target_6,joint_pos_0,joint_pos_1,joint_pos_2,joint_pos_3,joint_pos_4,joint_pos_5,joint_pos_6,joint_vel_0,joint_vel_1,joint_vel_2,joint_vel_3,joint_vel_4,joint_vel_5,joint_vel_6,tennisball_pos_0,tennisball_pos_1,tennisball_pos_2,tennisball_lin_vel_0,tennisball_lin_vel_1,tennisball_lin_vel_2,end_effector_pos_0,end_effector_pos_1,end_effector_pos_2,end_effector_rot_0,end_effector_rot_1,end_effector_rot_2,end_effector_rot_3,end_effector_lin_vel_0,end_effector_lin_vel_1,end_effector_lin_vel_2,obs_task_0,obs_task_1,obs_task_2,obs_task_3,obs_task_4,obs_task_5,obs_task_6,to_final_target_0,to_final_target_1,to_final_target_2,joint_acc_0,joint_acc_1,joint_acc_2,joint_acc_3,joint_acc_4,joint_acc_5,joint_acc_6
0.0,0.0,0.0,0.0,0.0,0.0,0.0,0.0,0.0,0.0,0.0,0.0,0.0,0.0,1.7802359,-1.0646509,-1.8151424,-1.1170107,1.9373155,1.1170107,-0.91629785,1.7802359,-1.0646509,-1.8151424,-1.1170107,1.9373155,1.1170107,-0.91629785,0.0,0.0,0.0,0.0,0.0,0.0,0.0,2.908844,-0.5985565,0.40478116,-3.2174113,0.05955508,5.0089417,0.5304184,-0.45448303,0.693097,0.5745483,0.17512383,0.15255436,0.7848268,0.0,0.0,0.0,1.0,0.0,0.0,0.0,0.0,0.0,0.0,-3.558844,0.19855651,0.14521885,0.0,0.0,0.0,0.0,0.0,0.0,0.0
0.0,0.0,0.0,0.0,0.0,0.0,0.0,0.0,0.0,0.0,0.0,0.0,0.0,0.0,1.7802359,-1.0646509,-1.8151424,-1.1170107,1.9373155,1.1170107,-0.91629785,1.7802359,-1.0646509,-1.8151424,-1.1170107,1.9373155,1.1170107,-0.91629785,0.0,0.0,0.0,0.0,0.0,0.0,0.0,2.908844,-0.5985565,0.40478116,-3.2174113,0.05955508,5.0089417,0.5304184,-0.45448303,0.693097,0.5745483,0.17512383,0.15255436,0.7848268,0.0,0.0,0.0,1.0,0.0,0.0,0.0,0.0,0.0,0.0,-3.558844,0.19855651,0.14521885,0.0,0.0,0.0,0.0,0.0,0.0,0.0
0.0,0.0,0.0,0.0,0.0,0.0,0.0,0.0,0.0,0.0,0.0,0.0,0.0,0.0,1.7802359,-1.0646509,-1.8151424,-1.1170107,1.9373155,1.1170107,-0.91629785,1.7802359,-1.0646509,-1.8151424,-1.1170107,1.9373155,1.1170107,-0.91629785,0.0,0.0,0.0,0.0,0.0,0.0,0.0,2.908844,-0.5985565,0.40478116,-3.2174113,0.05955508,5.0089417,0.5304184,-0.45448303,0.693097,0.5745483,0.17512383,0.15255436,0.7848268,0.0,0.0,0.0,1.0,0.0,0.0,0.0,0.0,0.0,0.0,-3.558844,0.19855651,0.14521885,0.0,0.0,0.0,0.0,0.0,0.0,0.0
-176.0,72.86245,-4.1272736,110.0,11.135451,5.018603,-3.7882805,-0.8184744,0.3649259,-0.52786535,0.73907584,0.34411708,0.6617425,-0.5980603,1.6983885,-1.0281583,-1.867929,-1.0431031,1.9717271,1.183185,-0.9761039,1.778792,-1.0623754,-1.8206813,-1.1127726,1.9446397,1.1227423,-0.9198703,-0.1923441,0.30276152,-0.73774195,0.5651876,0.9753419,0.76214993,-0.47552884,2.8766937,-0.5979614,0.45409656,-3.2141945,0.059495535,4.9057474,0.52814484,-0.45778656,0.69397414,0.578779,0.17361808,0.15015998,0.78251106,-0.30342045,-0.43883744,0.11672255,1.0,0.0,0.0,0.0,0.0,0.0,0.0,-3.5266938,0.19796142,0.095903456,-19.182274,30.083197,-73.56223,56.593384,97.20807,75.57156,-47.307007
-176.0,10.219786,-30.3405,110.0,11.119281,2.6600637,-3.1119354,-0.7969291,0.02947385,-0.5272432,0.70300984,0.43456015,0.65126604,-0.57911825,1.6990991,-1.0594281,-1.8734057,-1.0424716,1.9880956,1.187869,-0.97778213,1.7765242,-1.0585073,-1.8348072,-1.100762,1.9589524,1.1363016,-0.924488,-0.2365651,0.41330048,-1.6382672,1.4153711,1.5822762,1.5469517,-0.45368475,2.8445816,-0.59736633,0.5023808,-3.210981,0.05943605,4.802656,0.5230942,-0.46588898,0.6953099,0.5878058,0.17016046,0.14514811,0.77747136,-0.5728288,-0.932438,0.13967822,1.0,0.0,0.0,0.0,0.0,0.0,0.0,-3.4945817,0.19736633,0.047619224,-3.8730235,10.5317,-90.26964,85.70063,60.407948,76.41225,3.2019079
-161.93974,124.72826,32.90108,97.819405,7.637576,7.4408236,-1.9691133,-0.7702956,0.36056092,0.013734438,0.6520193,0.45793855,0.68340665,-0.5369765,1.6994946,-1.0224513,-1.8334337,-1.0355601,2.0047462,1.2046423,-0.97818565,1.7709204,-1.0533327,-1.849572,-1.0846506,1.974545,1.1515642,-0.9290771,-0.66853124,0.5489389,-1.4160955,1.677488,1.5472918,1.5116603,-0.46293405,2.8125,-0.59677124,0.5496349,-3.2077706,0.059376623,4.699668,0.51509094,-0.47670746,0.6984586,0.59982723,0.16502045,0.13906047,0.77047884,-0.8832219,-1.1268215,0.3770501,1.0,0.0,0.0,0.0,0.0,0.0,0.0,-3.4625,0.19677123,0.00036513805,-43.29998,12.561482,24.17345,26.510262,-4.7823668,-5.837822,-1.5898049
-102.069176,131.70786,47.360447,64.10988,4.498684,7.675038,-0.6146164,-0.7807253,0.28170487,0.12045095,0.6457078,0.4829141,0.6557069,-0.56413776,1.6928478,-1.0251622,-1.8375268,-1.0200799,2.0228364,1.217135,-0.98549086,1.761151,-1.0475763,-1.8593452,-1.0679957,1.9883943,1.1656786,-0.9336805,-1.0809503,0.58195853,-0.8234873,1.6618873,1.326201,1.3734998,-0.46244326,2.780449,-0.59617615,0.5958598,-3.2045636,0.059317257,4.5967827,0.504509,-0.48820496,0.70384836,0.6129729,0.1582583,0.13240454,0.76268446,-1.1301339,-1.1446491,0.59762824,1.0,0.0,0.0,0.0,0.0,0.0,0.0,-3.430449,0.19617614,-0.045859814,-41.622723,2.539909,61.537697,-1.4336586,-23.436213,-15.172553,-0.8624315
-43.32024,141.89001,55.610207,36.247234,1.6123238,6.792366,0.11852748,-0.7953354,0.39106902,0.11678123,0.64204866,0.5242799,0.653039,-0.5683127,1.6816174,-1.0084695,-1.8476671,-1.0037909,2.0408223,1.2309825,-0.9905118,1.7480627,-1.0413088,-1.8630607,-1.0526015,1.9999051,1.178269,-0.9382829,-1.3863639,0.63976365,-0.21429306,1.4982932,1.0893203,1.2188237,-0.46251875,2.7484283,-0.59558105,0.6410567,-3.2013597,0.05925795,4.4940004,0.49208832,-0.49895477,0.71121085,0.62601286,0.15003592,0.12552175,0.7548783,-1.2899518,-1.0383619,0.78521913,1.0,0.0,0.0,0.0,0.0,0.0,0.0,-3.3984284,0.19558105,-0.091056705,-30.985046,5.232942,62.8525,-16.450333,-24.667145,-16.062593,-0.9041071
-3.695089,126.18245,48.162117,16.108496,-0.39141506,4.578115,0.2942688,-0.80559677,0.45465416,0.043240678,0.637405,0.5141217,0.6442449,-0.5777442,1.667503,-0.99584335,-1.8587366,-0.98886096,2.0513172,1.2426935,-0.99605733,1.7329699,-1.0343088,-1.8623741,-1.0390116,2.0094037,1.1894518,-0.9428806,-1.5514995,0.7189917,0.16718383,1.3119612,0.9018219,1.0844069,-0.46102393,2.7164383,-0.59498596,0.68522656,-3.198159,0.059198704,4.391321,0.4787445,-0.50836945,0.7198841,0.6384461,0.14088508,0.11895891,0.7472528,-1.3602711,-0.8942267,0.8949233,1.0,0.0,0.0,0.0,0.0,0.0,0.0,-3.3664384,0.19498596,-0.13522655,-16.868664,7.57792,39.380478,-18.805218,-19.268345,-13.5291815,-0.5148053
16.6401,116.36548,40.888992,7.376356,-1.3890204,2.8488576,0.14437842,-0.8150139,0.5537876,-0.025560344,0.63944644,0.53567094,0.6390373,-0.56564635,1.6514685,-0.97893006,-1.8649302,-0.97506696,2.0629709,1.2533555,-0.9994452,1.7170569,-1.0261797,-1.8598087,-1.0269457,2.0175977,1.1994559,-0.94744676,-1.6057189,0.84337825,0.28881243,1.1708363,0.7913648,0.97272354,-0.45680195,2.6844788,-0.59439087,0.72837037,-3.1949615,0.059139516,4.2887444,0.4651413,-0.51636505,0.7292972,0.6502722,0.13134621,0.11324222,0.7396421,-1.3713883,-0.75217116,0.95536405,1.0,0.0,0.0,0.0,0.0,0.0,0.0,-3.3344789,0.19439086,-0.17837036,-5.713129,12.202061,12.915853,-14.304209,-11.273443,-11.063993,-0.08407831
22.683987,103.88334,33.26455,4.8214207,-1.5949237,1.63377,-0.044048257,-0.8226144,0.61439806,-0.06916478,0.6348084,0.54472965,0.6382298,-0.5595888,1.6347954,-0.96473986,-1.8667252,-0.96346486,2.0720706,1.2632788,-1.0034057,1.7010924,-1.0167116,-1.8574016,-1.0158392,2.025147,1.2084929,-0.9519605,-1.5939752,0.9807796,0.22617832,1.0898385,0.742507,0.88104004,-0.4509595,2.6525497,-0.5937958,0.7704892,-3.1917672,0.05908039,4.18627,0.45161438,-0.5231247,0.73905975,0.66167897,0.121814,0.10865237,0.73180383,-1.3520464,-0.63428956,0.98123395,1.0,0.0,0.0,0.0,0.0,0.0,0.0,-3.3025498,0.19379577,-0.2204892,0.93815327,13.5803585,-5.80343,-8.304143,-4.9548507,-9.027362,0.19034147
24.002146,94.58419,29.000027,4.691038,-1.3831543,1.0844564,-0.09730878,-0.8195802,0.6535159,-0.0656712,0.62127036,0.55643135,0.64253247,-0.55419976,1.6191343,-0.95136,-1.8639687,-0.95371217,2.08079,1.2727461,-1.0073805,1.6854788,-1.0059808,-1.8561046,-1.0052077,2.0325208,1.2167383,-0.95641226,-1.551219,1.1035172,0.098800555,1.053515,0.73536515,0.8058857,-0.44446683,2.6206512,-0.5932007,0.81158406,-3.188576,0.05902132,4.0838985,0.43837738,-0.52885437,0.7489743,0.67279536,0.112469256,0.10514413,0.72363096,-1.3228303,-0.5378988,0.99309313,1.0,0.0,0.0,0.0,0.0,0.0,0.0,-3.2706513,0.19320068,-0.26158404,4.0806055,12.155318,-12.396232,-3.8568258,-0.73747635,-7.415974,0.3127694
21.508745,86.27447,26.229824,5.795904,-0.9444791,0.92180026,-0.06529859,-0.8171442,0.6774455,-0.058698826,0.6068192,0.57357496,0.6508894,-0.55414176,1.6037644,-0.9382363,-1.8619745,-0.9445257,2.0898783,1.2818273,-1.0118264,1.6703192,-0.99426115,-1.8560073,-0.99475634,2.040009,1.2243372,-0.9608039,-1.5048687,1.1945541,-0.018922757,1.0415857,0.75327575,0.74451685,-0.43845564,2.5887833,-0.5926056,0.85165596,-3.185388,0.05896231,3.9816294,0.42536926,-0.5337753,0.75896347,0.68366605,0.103342116,0.10245588,0.71513903,-1.2973074,-0.46012494,0.99930346,1.0,0.0,0.0,0.0,0.0,0.0,0.0,-3.2387834,0.19260558,-0.30165595,4.467058,9.006619,-11.457012,-1.432395,1.778233,-6.0973644,0.29052496
16.121181,79.306656,23.913887,7.823715,-0.49411762,0.9303608,-0.0457799,-0.8175634,0.69890416,-0.07331902,0.60071844,0.57332027,0.6605917,-0.5510614,1.5885628,-0.9243707,-1.8633392,-0.9346845,2.097341,1.2903965,-1.01591,1.6555296,-0.9818615,-1.8568637,-0.98432887,2.047711,1.2314097,-0.9651384,-1.4709342,1.2548996,-0.106831364,1.0424502,0.7760064,0.6946164,-0.43285882,2.5569534,-0.5920105,0.89070594,-3.1822033,0.058903363,3.879463,0.41254425,-0.5380173,0.7689907,0.69431406,0.09439756,0.10032086,0.7063659,-1.281986,-0.39775345,1.0026379,1.0,0.0,0.0,0.0,0.0,0.0,0.0,-3.2069535,0.19201049,-0.34070593,3.238678,5.9470415,-8.46715,-0.15432835,2.258587,-5.0097823,0.26457906
14.624883,75.13836,23.260633,7.734622,-0.23733765,1.013491,0.074203074,-0.8168612,0.71178377,-0.05628512,0.5642633,0.6029448,0.6562398,-0.56186783,1.5738435,-0.9106831,-1.8624922,-0.9279025,2.1080053,1.2970337,-1.0213251,1.6409613,-0.9690565,-1.8582027,-0.97401583,2.0557065,1.2380453,-0.9694328,-1.452587,1.2887267,-0.14138032,1.0267226,0.8071047,0.65318686,-0.42927867,2.5251617,-0.5914154,0.928735,-3.1790216,0.058844473,3.7773986,0.3998108,-0.541687,0.77903473,0.70467687,0.08559143,0.09846745,0.69743,-1.2725028,-0.33867812,1.0039749,1.0,0.0,0.0,0.0,0.0,0.0,0.0,-3.1751618,0.1914154,-0.378735,1.6663074,3.3001661,-3.0600607,-1.8249989,3.066063,-4.177952,0.05404353
15.143692,74.97462,24.106733,7.912537,-0.086494744,1.174892,0.1731115,-0.80803657,0.7230216,-0.025561916,0.5537661,0.61216,0.6625943,-0.5564075,1.5601577,-0.8967543,-1.8607589,-0.91863924,2.1169226,1.3043047,-1.0250735,1.6265208,-0.9560398,-1.8594882,-0.96390307,2.063992,1.2443262,-0.9736938,-1.4417707,1.3057815,-0.122682504,1.0053419,0.8356311,0.6196616,-0.42610055,2.4934006,-0.5908203,0.9657442,-3.1758432,0.058785643,3.6754363,0.38715363,-0.54473114,0.7891262,0.714672,0.07682458,0.09667656,0.68847334,-1.2666276,-0.27725405,1.0099293,1.0,0.0,0.0,0.0,0.0,0.0,0.0,-3.1434007,0.1908203,-0.4157442,0.90374947,1.623416,2.330707,-2.382946,2.780676,-3.3981562,0.0007748604
15.623268,73.85418,23.641748,7.441562,-0.14006656,1.1447453,0.20210439,-0.8019141,0.7395354,-0.038379394,0.5322811,0.61529285,0.6731885,-0.5500081,1.5463294,-0.8820863,-1.8633262,-0.9106749,2.1255214,1.311645,-1.0286946,1.6121584,-0.94288003,-1.8605201,-0.9540745,2.072514,1.2503268,-0.9779224,-1.434913,1.3190356,-0.09497854,0.9745295,0.857233,0.59354067,-0.42288446,2.46167,-0.59023285,1.0017346,-3.172668,0.058726873,3.573576,0.3745575,-0.5471573,0.79925644,0.7242611,0.06805019,0.09489449,0.6795661,-1.2586386,-0.21406463,1.0128417,1.0,0.0,0.0,0.0,0.0,0.0,0.0,-3.11167,0.19023284,-0.4517346,0.5037546,1.2497425,3.24409,-3.3271432,2.0932317,-2.6348948,0.0029861927
14.821689,70.85511,22.349121,7.0313897,-0.14770257,1.0513257,0.2235071,-0.8071253,0.7412476,-0.026810484,0.5015038,0.62588143,0.67087436,-0.54945856,1.5314459,-0.8687553,-1.8632011,-0.9039241,2.1351023,1.3174142,-1.0328683,1.5978075,-0.9296354,-1.8612354,-0.9446455,2.081223,1.2561041,-0.98212236,-1.4357936,1.3260764,-0.06200246,0.9314829,0.87503576,0.57249993,-0.4199881,2.4299698,-0.589653,1.0367072,-3.1694958,0.058668155,3.4718173,0.36205292,-0.54894257,0.80937034,0.7334283,0.05927898,0.09311671,0.6707445,-1.2491851,-0.15289117,1.0094142,1.0,0.0,0.0,0.0,0.0,0.0,0.0,-3.07997,0.18965301,-0.48670715,-0.2708912,0.6410122,3.7624636,-4.551494,1.7219067,-2.0924568,-0.016772747
16.38599,70.39302,22.10807,6.097362,-0.254593,0.9742687,0.2608605,-0.80492467,0.74979025,-0.006360887,0.46600324,0.6376076,0.6682768,-0.54083776,1.517315,-0.8546564,-1.8618715,-0.8980452,2.1449838,1.3229318,-1.0362061,1.5834376,-0.91631734,-1.8615901,-0.93573916,2.090096,1.2617003,-0.98628896,-1.4380531,1.3335501,-0.025177216,0.87619185,0.89101493,0.5554922,-0.41665596,2.3983002,-0.5890732,1.0706629,-3.166327,0.058609497,3.3701603,0.3496704,-0.5501175,0.81942916,0.7421455,0.050522245,0.09135073,0.6620593,-1.2347006,-0.0894837,1.0028828,1.0,0.0,0.0,0.0,0.0,0.0,0.0,-3.0483003,0.18907318,-0.52066284,-0.4105091,0.6943226,4.142256,-5.776489,1.5507102,-1.6525388,0.032770634
17.922665,66.53088,20.233995,3.9156919,-0.48812658,0.70097744,0.2842307,-0.8062054,0.75690037,-0.025209343,0.40528217,0.6496493,0.6801763,-0.5259024,1.502817,-0.8406273,-1.8641111,-0.8952109,2.155061,1.3297179,-1.0388792,1.5690352,-0.9029125,-1.8617523,-0.9275671,2.0991254,1.2671629,-0.9904136,-1.4414982,1.3427178,-0.011658639,0.7967726,0.9068469,0.5435652,-0.41205677,2.366661,-0.58849335,1.1036026,-3.1631613,0.058550898,3.268605,0.33750916,-0.55067444,0.8293276,0.7503915,0.041867796,0.089679286,0.6535421,-1.2100149,-0.027253065,0.98346305,1.0,0.0,0.0,0.0,0.0,0.0,0.0,-3.0166612,0.18849334,-0.55360264,-0.5275965,0.88574886,1.7672896,-8.205867,1.563251,-1.0679603,0.18063188
18.283445,65.346146,19.476824,3.8174334,-0.55272925,0.56883514,0.26338208,-0.8031273,0.7632719,-0.021942457,0.37938192,0.6467298,0.6778341,-0.51721525,1.4887224,-0.8265853,-1.8639466,-0.88962895,2.1637983,1.3349463,-1.0421351,1.5546175,-0.88940465,-1.8618591,-0.92017233,2.1082692,1.2725245,-0.99448866,-1.4422336,1.3534311,-0.009165661,0.7195161,0.9171703,0.534187,-0.40692043,2.3350525,-0.5879135,1.1355277,-3.1599987,0.05849236,3.1671512,0.32561493,-0.55059814,0.8390171,0.75818425,0.033352602,0.088170655,0.64519006,-1.1810035,0.032090105,0.96173173,1.0,0.0,0.0,0.0,0.0,0.0,0.0,-2.9850526,0.1879135,-0.5855277,-0.24485588,1.0537386,0.6196199,-7.9840183,1.0377765,-0.7888794,0.25222898
18.773054,63.223698,18.628555,3.3072639,-0.5895738,0.43078017,0.27400813,-0.8047776,0.76363635,-0.013418025,0.3308194,0.6544528,0.67823184,-0.5107594,1.4741398,-0.81304103,-1.8632009,-0.8870904,2.1737144,1.3403476,-1.0455647,1.5401961,-0.87581,-1.8619525,-0.9135853,2.1175084,1.2778078,-0.9985122,-1.4427799,1.3614736,-0.008403319,0.6376308,0.9264009,0.5269908,-0.40162423,2.3034744,-0.5873337,1.166439,-3.1568394,0.05843388,3.065799,0.31404114,-0.54997253,0.84846276,0.7655327,0.0250036,0.08684463,0.6370184,-1.1479285,0.08815655,0.9362642,1.0,0.0,0.0,0.0,0.0,0.0,0.0,-2.9534745,0.18733367,-0.61643904,-0.21746159,0.80063343,0.41473266,-8.445084,0.9480715,-0.5438447,0.28253198
22.265453,63.721657,19.390018,1.8047218,-0.69494367,0.3839669,0.36438587,-0.8034067,0.7631395,0.033019442,0.2634571,0.6607514,0.6731636,-0.5128866,1.4598554,-0.79949605,-1.8586506,-0.8872396,2.1835835,1.3451242,-1.0498009,1.5257784,-0.8621639,-1.8618362,-0.9079281,2.1268392,1.2830282,-1.002489,-1.4418892,1.3657261,0.019428268,0.54094124,0.9350008,0.5211008,-0.39724183,2.2719269,-0.58675385,1.1963376,-3.1536832,0.05837546,2.9645479,0.30284882,-0.54872894,0.8576556,0.7723857,0.016817722,0.085652865,0.62912726,-1.1078143,0.1478823,0.9108779,1.0,0.0,0.0,0.0,0.0,0.0,0.0,-2.921927,0.18675384,-0.64633757,-0.06918907,0.43430328,3.1195636,-9.916508,0.89024305,-0.37398338,0.19476414
28.746485,67.3577,21.492392,-0.96227884,-0.9629154,0.37391242,0.51832914,-0.80012834,0.7735645,0.0922718,0.16901329,0.67229927,0.66876817,-0.5034984,1.4457656,-0.78480744,-1.852609,-0.8910268,2.1940691,1.349905,-1.0528388,1.5113856,-0.84844816,-1.8611667,-0.9034668,2.136269,1.2881972,-1.00642,-1.4387906,1.3735923,0.08386734,0.41367495,0.9456784,0.51649535,-0.39266065,2.2404099,-0.586174,1.2252244,-3.15053,0.0583171,2.8633983,0.2921524,-0.5468216,0.866608,0.7786278,0.008779063,0.08454178,0.6217027,-1.0549872,0.21853253,0.887014,1.0,0.0,0.0,0.0,0.0,0.0,0.0,-2.89041,0.186174,-0.67522436,0.1540184,0.80924034,6.7846003,-12.956715,1.1110663,-0.18309355,0.21811724
32.63034,64.15387,20.566202,-4.462638,-1.2627152,0.08992228,0.6142334,-0.8017365,0.774623,0.10517284,0.056979977,0.6821815,0.665877,-0.4984745,1.431212,-0.77098584,-1.8506495,-0.8977688,2.2044873,1.3547848,-1.0562675,1.4970175,-0.8346609,-1.8598506,-0.90055907,2.1458173,1.2933298,-1.0103053,-1.4366413,1.38056,0.14845258,0.24904566,0.95800054,0.5133887,-0.38796455,2.2089233,-0.5855942,1.2531004,-3.1473804,0.05825879,2.7623498,0.28207397,-0.5441818,0.87523377,0.78417397,0.0009788828,0.08352937,0.61489266,-0.98728096,0.28878492,0.8510085,1.0,0.0,0.0,0.0,0.0,0.0,0.0,-2.8589234,0.18559417,-0.7031004,0.077819824,0.7436037,6.742391,-16.682318,1.3015509,0.05697012,0.26370883
35.512802,63.298725,20.593239,-6.0935097,-1.4042628,-0.0694226,0.6797657,-0.79493153,0.77637285,0.15418968,-0.030212214,0.68297297,0.6584976,-0.47572753,1.4175243,-0.7570236,-1.8444316,-0.9035803,2.2141147,1.3591796,-1.057878,1.4826971,-0.8208126,-1.8578079,-0.8993908,2.1554723,1.2984339,-1.0141314,-1.4307613,1.3864037,0.2234377,0.07211196,0.9683444,0.510784,-0.38136587,2.1774673,-0.58501434,1.2799667,-3.1442335,0.058200542,2.6614025,0.27272797,-0.54087067,0.8834795,0.78898144,-0.006525348,0.08262487,0.608801,-0.91054356,0.35808283,0.81196123,1.0,0.0,0.0,0.0,0.0,0.0,0.0,-2.8274674,0.18501434,-0.7299667,0.48520565,0.6530762,7.6952486,-17.880152,1.1525631,0.1581788,0.4895091
34.213512,62.926987,20.318218,-4.9259405,-1.3083754,-0.13145296,0.6548564,-0.7932461,0.7820803,0.19315496,-0.09697019,0.68565756,0.66013366,-0.4424805,1.4033725,-0.74260455,-1.8384924,-0.90908784,2.2240381,1.3644472,-1.0583795,1.4684397,-0.8068975,-1.8550079,-0.8998953,2.1652188,1.303517,-1.0178698,-1.4243714,1.3934673,0.2991611,-0.09179347,0.9769793,0.5088231,-0.37179068,2.1460419,-0.5844345,1.3058243,-3.14109,0.058142353,2.5605557,0.26416016,-0.53687286,0.8913577,0.79307544,-0.013740657,0.08182295,0.60344636,-0.83532196,0.4219652,0.7756912,1.0,0.0,0.0,0.0,0.0,0.0,0.0,-2.796042,0.1844345,-0.75582427,0.5683422,0.79066753,7.6713505,-16.540438,1.0352492,0.21888018,0.8260608
31.516201,63.673386,20.607944,-2.2551818,-1.0484831,-0.06777449,0.6154223,-0.79227275,0.7822,0.25979325,-0.15005958,0.68659544,0.65500426,-0.4097601,1.3892124,-0.7286775,-1.8290286,-0.91490126,2.2338784,1.3690174,-1.0588459,1.4542395,-0.7929262,-1.8513343,-0.9018284,2.1750302,1.3085791,-1.0214938,-1.4187791,1.39859,0.3901881,-0.22764036,0.9836207,0.50649816,-0.3596043,2.1146545,-0.5838547,1.3306742,-3.1379495,0.058084223,2.45981,0.2562561,-0.5322571,0.89894056,0.7965102,-0.020744303,0.08107377,0.5988056,-0.7682901,0.481057,0.7479957,1.0,0.0,0.0,0.0,0.0,0.0,0.0,-2.7646546,0.18385467,-0.78067416,0.51460266,0.6086111,9.111309,-13.699761,0.8988023,0.15641451,1.1131763
30.139523,64.081985,20.963963,-0.52571917,-0.87742066,-0.027501725,0.6040051,-0.7871406,0.78082585,0.32887343,-0.21034929,0.6849674,0.65789276,-0.36960533,1.3755255,-0.71484363,-1.818447,-0.92286336,2.243527,1.3743683,-1.0584543,1.4401041,-0.77892816,-1.8466289,-0.90496314,2.1848874,1.3136202,-1.0249747,-1.4119242,1.4006313,0.49706072,-0.34231606,0.9875635,0.5046592,-0.3444964,2.0833054,-0.58327484,1.3545175,-3.134812,0.058026154,2.359165,0.24897766,-0.52708435,0.906296,0.7993166,-0.027616309,0.08031134,0.5948785,-0.7064292,0.5375972,0.72654533,1.0,0.0,0.0,0.0,0.0,0.0,0.0,-2.7333055,0.18327484,-0.80451745,0.66633224,0.31180382,10.613996,-11.552733,0.6813288,0.19470453,1.427412
28.182251,66.223755,21.740976,2.156886,-0.68054557,0.07154235,0.5605128,-0.77908957,0.7870692,0.39257282,-0.23954538,0.68125045,0.6520756,-0.31838462,1.3621951,-0.70022124,-1.8073716,-0.92891765,2.2530124,1.3788278,-1.0568131,1.4260603,-0.7648939,-1.8407905,-0.9090048,2.1947637,1.3186404,-1.0282782,-1.4018155,1.4047335,0.6123149,-0.42494768,0.9887869,0.5023434,-0.32575613,2.0519867,-0.582695,1.3773549,-3.131678,0.057968136,2.2586205,0.24227142,-0.5213318,0.9135147,0.80153555,-0.03446014,0.07949356,0.5916366,-0.6520573,0.5931637,0.71513927,1.0,0.0,0.0,0.0,0.0,0.0,0.0,-2.7019868,0.182695,-0.82735485,1.0139704,0.53048134,11.367714,-8.319992,0.46851635,0.12770891,1.8102169
17.420446,64.543076,20.183409,9.760925,-0.0006520748,0.247505,0.32560873,-0.78335696,0.78581876,0.41682425,-0.18102342,0.6735172,0.65570825,-0.24425775,1.3477247,-0.686312,-1.799108,-0.92710716,2.2621155,1.3842112,-1.052704,1.4120795,-0.750831,-1.8339584,-0.91328394,2.2046208,1.3236376,-1.0313548,-1.3968195,1.4071934,0.70615727,-0.4291485,0.9860321,0.49971575,-0.3016908,2.0206985,-0.5821152,1.3991876,-3.128547,0.057910178,2.1581764,0.23591614,-0.5151291,0.92073065,0.803338,-0.04142821,0.0785905,0.58885926,-0.6257419,0.63448596,0.71820885,1.0,0.0,0.0,0.0,0.0,0.0,0.0,-2.6706986,0.18211517,-0.84918755,0.48487186,0.37341118,9.18231,-0.4976511,0.111198425,-0.00040531158,2.3419619
10.9230795,61.444958,18.454538,13.796578,0.3630911,0.2662013,0.16927177,-0.7825375,0.7850494,0.44103655,-0.16296975,0.6731119,0.65351474,-0.2180599,1.3338257,-0.6723261,-1.7898548,-0.9295809,2.2719321,1.3889891,-1.0531608,1.3981291,-0.7367567,-1.826371,-0.91728365,2.2144475,1.3286062,-1.0341891,-1.3946785,1.4079214,0.7754691,-0.3905308,0.9825369,0.49659708,-0.27755743,1.9894409,-0.58153534,1.4200168,-3.1254191,0.05785228,2.057833,0.22966766,-0.5085983,0.92801476,0.80488056,-0.048602454,0.07760118,0.5863302,-0.61465657,0.6654595,0.7259152,1.0,0.0,0.0,0.0,0.0,0.0,0.0,-2.639441,0.18153533,-0.87001675,0.18303394,0.20177364,6.7292213,3.7632763,0.033164024,-0.105535984,2.3464262
3.276126,58.738968,16.73041,18.740908,0.7864611,0.35108733,-0.011710927,-0.78891647,0.7860374,0.4565302,-0.098715924,0.66318387,0.6587705,-0.17778002,1.3192375,-0.65815294,-1.780718,-0.92715526,2.2807658,1.3944833,-1.0519671,1.384152,-0.72267854,-1.81828,-0.92053473,2.2242131,1.3335463,-1.0367755,-1.3990245,1.4082849,0.81976587,-0.30371705,0.97558063,0.49362236,-0.25262988,1.9582138,-0.5809555,1.4398432,-3.1222942,0.05779444,1.9575896,0.22340393,-0.50183105,0.9354288,0.80631715,-0.05606,0.07654279,0.5838245,-0.6224681,0.6867217,0.74054176,1.0,0.0,0.0,0.0,0.0,0.0,0.0,-2.608214,0.1809555,-0.88984317,-0.49536228,0.1670599,4.2364597,8.555585,-0.31507015,-0.16064644,2.422601
-5.942025,55.625587,14.85635,25.420273,1.4028618,0.50698227,-0.238877,-0.7903645,0.7809686,0.45372015,0.032991037,0.6578192,0.6634849,-0.12763028,1.3051156,-0.6445817,-1.772908,-0.9172356,2.289995,1.3998947,-1.0495385,1.370114,-0.70862234,-1.8099563,-0.9223753,2.2338986,1.3384577,-1.0391024,-1.4056299,1.4050974,0.835856,-0.14471602,0.96743256,0.49053326,-0.22621502,1.9270172,-0.5803757,1.458668,-3.1191726,0.057736658,1.8574464,0.21686554,-0.49493408,0.9430785,0.8078285,-0.063936785,0.07539431,0.5810687,-0.6564014,0.69616175,0.7668409,1.0,0.0,0.0,0.0,0.0,0.0,0.0,-2.5770173,0.18037567,-0.908668,-0.74977875,-0.1863718,1.4145255,15.739691,-0.42450428,-0.26970506,2.5576472
-14.198592,51.833477,12.769216,30.768381,1.8968055,0.62701654,-0.45203507,-0.80545354,0.7769127,0.43921748,0.15584426,0.6539424,0.6662689,-0.15808116,1.2895687,-0.6309311,-1.7660346,-0.9067909,2.2992928,1.4050846,-1.0549105,1.3559462,-0.6946186,-1.8016708,-0.9222475,2.2435002,1.3433386,-1.0412139,-1.4210223,1.3991582,0.82544166,0.06465629,0.95935845,0.4871191,-0.20632884,1.8958511,-0.57979584,1.476492,-3.116054,0.05767893,1.7574034,0.20981598,-0.48801422,0.9510428,0.8095899,-0.07234392,0.074135095,0.5777841,-0.7126364,0.6962403,0.7999315,1.0,0.0,0.0,0.0,0.0,0.0,0.0,-2.5458512,0.17979583,-0.92649204,-1.6573668,-0.46992302,-1.217699,20.756552,-0.42600632,-0.40107965,1.9003451
-13.389726,51.961815,12.847059,30.67211,1.8147802,0.6197291,-0.46834952,-0.80190945,0.7819553,0.43103933,0.23959284,0.6511643,0.66478306,-0.14985079,1.2757553,-0.6164231,-1.7585669,-0.89828825,2.3086166,1.4098169,-1.056199,1.3416563,-0.6806463,-1.7935894,-0.9200026,2.2530293,1.3481871,-1.043146,-1.4319252,1.3969728,0.80196846,0.27727506,0.95217717,0.483635,-0.18917964,1.8647156,-0.579216,1.4933164,-3.1129386,0.057621263,1.6574603,0.20222473,-0.48107147,0.95933443,0.8116409,-0.08131064,0.07278487,0.57387275,-0.76761484,0.70059466,0.8324457,1.0,0.0,0.0,0.0,0.0,0.0,0.0,-2.5147157,0.179216,-0.9433164,-1.194191,-0.11115074,-2.5044441,21.109188,-0.36143064,-0.4383862,1.6276449
-6.758231,48.538803,12.06138,24.019665,1.2173722,0.27483785,-0.32440716,-0.80602294,0.7780536,0.41287276,0.24071833,0.65489596,0.66097623,-0.18687156,1.261054,-0.60284096,-1.752302,-0.89593077,2.3185189,1.4142847,-1.0618331,1.327273,-0.6667017,-1.7858131,-0.9161421,2.2625165,1.3530031,-1.0449561,-1.4407334,1.3939389,0.7692621,0.42185438,0.94811445,0.48088652,-0.17869854,1.8336105,-0.57863617,1.5091422,-3.1098263,0.057563655,1.5576172,0.19424438,-0.47406006,0.9677944,0.8138862,-0.090664156,0.07142153,0.5694454,-0.798065,0.7090631,0.8439798,1.0,0.0,0.0,0.0,0.0,0.0,0.0,-2.4836106,0.17863616,-0.95914215,-0.9716749,-0.22058487,-3.3498645,14.321298,-0.12284517,-0.29399395,0.9596497
1.7503672,47.85351,12.29913,16.297426,0.46225786,-0.06609021,-0.12203032,-0.8129301,0.7836279,0.404219,0.2252404,0.65120566,0.6600445,-0.19527675,1.24598,-0.58833885,-1.7453912,-0.89361805,2.327637,1.4190075,-1.0644838,1.312802,-0.6527542,-1.7783458,-0.9114634,2.2719617,1.3578001,-1.046688,-1.4496026,1.3952721,0.739284,0.48278096,0.9438158,0.4795138,-0.17155115,1.802536,-0.57805634,1.5239702,-3.106717,0.057506103,1.457874,0.18621063,-0.4669037,0.9762179,0.81617177,-0.10016674,0.07016795,0.5647182,-0.7978023,0.7254654,0.8352416,1.0,0.0,0.0,0.0,0.0,0.0,0.0,-2.452536,0.17805633,-0.97397023,-0.9791136,0.19435883,-2.978325,5.968815,-0.22616386,-0.053727627,0.62375367
10.56365,42.84389,11.089948,6.736375,-0.3346479,-0.5973298,0.10924467,-0.8187663,0.77416116,0.38874197,0.15491442,0.647738,0.6595961,-0.21502322,1.2309253,-0.57533807,-1.7394717,-0.89597195,2.3367355,1.4237597,-1.0681903,1.2982394,-0.63883054,-1.7711666,-0.9069296,2.2813573,1.3625952,-1.048374,-1.4588087,1.391558,0.7111772,0.44311884,0.9384596,0.48008415,-0.16803275,1.771492,-0.5774765,1.5378015,-3.103611,0.057448607,1.3582304,0.17844391,-0.45961,0.9843427,0.8183326,-0.10950193,0.06914869,0.5599637,-0.76150846,0.7408569,0.79825366,1.0,0.0,0.0,0.0,0.0,0.0,0.0,-2.421492,0.1774765,-0.9878015,-1.0086536,-0.3200531,-2.705574,-4.098892,-0.41730404,0.2944231,0.2651006
19.951078,42.841713,11.683434,-1.3482399,-1.0652614,-1.0062732,0.35194778,-0.81303984,0.7787713,0.38906044,0.070303775,0.65165025,0.6598345,-0.1809139,1.2169354,-0.56095344,-1.7322605,-0.89989924,2.3465223,1.4285786,-1.0664655,1.2836367,-0.6249231,-1.7641819,-0.9034029,2.2907186,1.3674036,-1.0500087,-1.4610722,1.3905759,0.69458085,0.3221967,0.93520486,0.48215604,-0.16215232,1.7404785,-0.57689667,1.5506371,-3.100508,0.05739117,1.2586864,0.17128754,-0.4521103,0.9919659,0.8202,-0.1184032,0.06845669,0.5554874,-0.69163823,0.7593711,0.7438459,1.0,0.0,0.0,0.0,0.0,0.0,0.0,-2.3904786,0.17689666,-1.000637,-0.285244,-0.05156994,-1.505506,-12.199026,-0.27161837,0.56494474,0.50800145
20.364,41.870323,11.465333,-1.6812844,-1.0524876,-1.1097229,0.39881912,-0.8140502,0.77474594,0.38178062,0.06071751,0.64851993,0.66106063,-0.07029643,1.2022316,-0.5474485,-1.7260038,-0.8973312,2.3555706,1.4335097,-1.0570383,1.2690302,-0.61103857,-1.7573249,-0.9010912,2.3000455,1.372233,-1.0515059,-1.4605085,1.3880109,0.68310237,0.2005255,0.93223417,0.48437002,-0.14578573,1.7094955,-0.57631683,1.5624781,-3.097408,0.057333793,1.159242,0.1648407,-0.444458,0.99905,0.8217166,-0.12680313,0.06810437,0.55142033,-0.6197308,0.77383703,0.6903485,1.0,0.0,0.0,0.0,0.0,0.0,0.0,-2.3594956,0.17631683,-1.0124781,0.02272129,-0.19981861,-1.0353088,-12.257639,-0.22884607,0.57694316,1.56869
17.299875,43.07939,11.879236,2.1312103,-0.71142906,-0.9761402,0.35754925,-0.8117703,0.7751921,0.38232416,0.072446,0.6459391,0.66350913,0.0690192,1.1878532,-0.5335194,-1.7190925,-0.89384663,2.3646393,1.438584,-1.0446041,1.2544504,-0.59717214,-1.750531,-0.8996769,2.3093457,1.3770815,-1.0527419,-1.4570249,1.3864021,0.67818284,0.12153279,0.9296747,0.486017,-0.11622905,1.6785431,-0.575737,1.5733253,-3.0943112,0.05727647,1.0598971,0.15900421,-0.43667603,1.0056975,0.8228982,-0.13481182,0.0680345,0.54775506,-0.5614194,0.7873395,0.6500185,1.0,0.0,0.0,0.0,0.0,0.0,0.0,-2.3285432,0.175737,-1.0233252,0.32367706,-0.09293556,-0.43866634,-7.980351,-0.13972521,0.45624375,2.8918698
9.089247,43.15338,11.716878,10.636247,0.05867082,-0.62584317,0.18165772,-0.81086564,0.76916283,0.37701404,0.15216617,0.635927,0.669588,0.21739432,1.1733639,-0.52025586,-1.7128296,-0.88446033,2.3729384,1.4440403,-1.0310024,1.2399107,-0.58334386,-1.7437828,-0.89836085,2.3186002,1.3819433,-1.0535849,-1.4531013,1.3819654,0.6737502,0.13462988,0.92489475,0.48678014,-0.073925264,1.6476212,-0.5751648,1.5831798,-3.0912175,0.057219204,0.96065134,0.15350342,-0.42874908,1.0121136,0.823838,-0.14269374,0.068140045,0.54432184,-0.5364246,0.7987405,0.6327245,1.0,0.0,0.0,0.0,0.0,0.0,0.0,-2.2976213,0.17516479,-1.0331798,0.34160614,-0.36168098,-0.45678616,1.2022585,-0.27976036,0.24701357,4.155366
0.09326649,39.99067,10.187461,18.77697,0.80600667,-0.361946,-0.061405204,-0.80744356,0.76048213,0.33843127,0.24658799,0.62424463,0.6643428,0.28381437,1.1591663,-0.50729567,-1.7099396,-0.87370205,2.3810246,1.4483776,-1.0252035,1.2254168,-0.56959474,-1.7372444,-0.89623797,2.3277822,1.3868014,-1.0539836,-1.4483287,1.3728325,0.6469068,0.23768984,0.9169249,0.48564318,-0.02881047,1.6167297,-0.5746002,1.5920427,-3.088127,0.057161998,0.86150485,0.14801025,-0.4207611,1.0184923,0.8246934,-0.15070873,0.068332024,0.5408312,-0.5444361,0.8043325,0.63344646,1.0,0.0,0.0,0.0,0.0,0.0,0.0,-2.2667298,0.17460021,-1.0420427,0.3910303,-0.8217335,-2.7481318,10.152534,-0.52548647,-0.053870678,4.4222307
-4.4883842,33.18969,7.2944264,20.54675,1.0262663,-0.4543622,-0.20733991,-0.81364435,0.75139123,0.27641585,0.266825,0.6210913,0.6663324,0.27590293,1.1440524,-0.4944556,-1.7096028,-0.8695555,2.3898914,1.4534346,-1.0263933,1.2109305,-0.5559696,-1.7312534,-0.89296496,2.336884,1.391646,-1.0539778,-1.4490604,1.3593311,0.5829015,0.35650524,0.90899694,0.4842307,0.010081341,1.5858688,-0.57403564,1.5999148,-3.0850394,0.057104845,0.76245755,0.14235687,-0.41277313,1.0248568,0.8256039,-0.158889,0.068625554,0.5370501,-0.56220025,0.79953647,0.6313651,1.0,0.0,0.0,0.0,0.0,0.0,0.0,-2.235869,0.17403564,-1.0499148,-0.18188953,-1.2607336,-6.4652443,11.695469,-0.5198121,-0.10941625,3.8064227
-1.3470383,32.764336,7.424258,17.482653,0.7263611,-0.5978012,-0.121948995,-0.81049156,0.74579245,0.27585793,0.2571169,0.6049175,0.6600568,0.3103714,1.1298813,-0.48139036,-1.7036676,-0.86725324,2.3973758,1.4576517,-1.0229408,1.1964403,-0.5424856,-1.7258499,-0.8887602,2.3458753,1.3964735,-1.053604,-1.4492613,1.3449821,0.5262358,0.44122782,0.8962691,0.4825749,0.046224654,1.5550385,-0.57347107,1.6067972,-3.081955,0.05704775,0.66350925,0.13663483,-0.4048462,1.0311455,0.82655555,-0.16715455,0.06906825,0.53300554,-0.56725276,0.7969357,0.6220286,1.0,0.0,0.0,0.0,0.0,0.0,0.0,-2.2050385,0.17347106,-1.0567973,-0.112223625,-1.3571739,-5.6978464,8.308023,-1.0366797,-0.09998083,3.5319023
4.395533,28.714388,6.191826,9.701668,0.10237491,-1.0502597,0.042071577,-0.8145638,0.7336689,0.24018748,0.18258427,0.59864783,0.6624145,0.31575367,1.1149839,-0.4691187,-1.7018311,-0.87050176,2.40574,1.462715,-1.0220287,1.1819292,-0.5291704,-1.7210319,-0.884359,2.354733,1.4012953,-1.0529059,-1.451993,1.3273178,0.46695656,0.439294,0.88247716,0.48249027,0.077413134,1.5242386,-0.5729065,1.6126909,-3.0788736,0.056990717,0.5646599,0.13106537,-0.3969803,1.0371706,0.8274725,-0.17524566,0.06975954,0.52887785,-0.54316384,0.7873524,0.590226,1.0,0.0,0.0,0.0,0.0,0.0,0.0,-2.1742387,0.17290649,-1.062691,-0.33698082,-1.6962767,-5.9080896,-0.3391266,-1.2238503,0.17235279,3.0520825
10.096108,28.033882,6.287039,3.4140196,-0.4390932,-1.3799291,0.21771729,-0.81481606,0.7245113,0.23022144,0.122834735,0.581942,0.65889287,0.35631913,1.1004477,-0.45671925,-1.6980097,-0.87207556,2.4129272,1.4671845,-1.017274,1.1673914,-0.51603734,-1.7166984,-0.8804995,2.363419,1.406119,-1.0519046,-1.4543953,1.3088404,0.42235398,0.3677205,0.8644663,0.483181,0.10760289,1.4934692,-0.5723419,1.6175969,-3.0757954,0.056933735,0.46590936,0.12594604,-0.38924408,1.0427691,0.82826346,-0.1829179,0.070788175,0.52489,-0.4937949,0.7750645,0.5441833,1.0,0.0,0.0,0.0,0.0,0.0,0.0,-2.1434693,0.17234191,-1.0675969,-0.26876926,-1.780343,-4.406887,-7.271594,-1.7099857,0.3379345,2.963327
13.200232,27.669281,6.27364,-0.010098934,-0.708917,-1.6086724,0.30710346,-0.81085503,0.71845835,0.20221171,0.07413381,0.585561,0.65900904,0.38597512,1.0863059,-0.44419152,-1.6964773,-0.8730861,2.4219751,1.4720199,-1.0133071,1.1528555,-0.50307405,-1.7127883,-0.8776356,2.371964,1.4109522,-1.0506133,-1.4532269,1.2925129,0.3806768,0.25910774,0.8513108,0.48433495,0.13629827,1.4627304,-0.57177734,1.621516,-3.0727203,0.056876812,0.3672576,0.121398926,-0.38165283,1.0478553,0.8288759,-0.19002022,0.07218424,0.52119714,-0.4305392,0.7588709,0.49163887,1.0,0.0,0.0,0.0,0.0,0.0,0.0,-2.1127305,0.17177734,-1.071516,0.124168396,-1.5625954,-4.1211843,-10.948438,-1.2582302,0.41996837,2.825576
13.461981,26.589836,5.864568,-0.8955736,-0.75617176,-1.7319635,0.32375103,-0.81564623,0.7109398,0.17623065,0.021619795,0.57961726,0.6540377,0.4236212,1.0712909,-0.43198007,-1.6951653,-0.8754736,2.4299257,1.476356,-1.0082512,1.1383177,-0.49026048,-1.7092903,-0.87596,2.3803945,1.4157931,-1.0490359,-1.4539416,1.277919,0.3395041,0.13678141,0.8405265,0.48496372,0.16461302,1.4320221,-0.57121277,1.6244494,-3.0696483,0.05681995,0.26870444,0.11752319,-0.37423706,1.0524045,0.8293096,-0.19647832,0.0739598,0.517853,-0.36399028,0.73834944,0.43784365,1.0,0.0,0.0,0.0,0.0,0.0,0.0,-2.0820222,0.17121276,-1.0744493,-0.04682541,-1.3832331,-4.09264,-12.305474,-1.0273814,0.36546588,2.8025448
10.934182,22.641247,4.3822384,0.5181875,-0.579587,-1.7973465,0.24880075,-0.8104287,0.6950455,0.12930197,-0.0060405647,0.5520258,0.6545687,0.46884894,1.0572748,-0.42075592,-1.6963601,-0.876564,2.435597,1.4812499,-1.002151,1.123799,-0.4776219,-1.7063148,-0.8753773,2.3886647,1.4206377,-1.0471724,-1.4512923,1.2594072,0.2833504,0.031926636,0.82280785,0.48522985,0.19338281,1.4013443,-0.5706482,1.626398,-3.066579,0.05676314,0.17024985,0.1142807,-0.36706543,1.0564324,0.8296248,-0.20228744,0.07612437,0.5147889,-0.30449015,0.7103843,0.38649714,1.0,0.0,0.0,0.0,0.0,0.0,0.0,-2.0513444,0.17064819,-1.0763979,0.3061056,-1.7673492,-5.638212,-10.567764,-1.7062545,0.2989173,2.8523684
3.9355206,18.214493,2.5172877,7.090563,0.0048671365,-1.6213967,0.01699157,-0.80412483,0.68072337,0.05967835,0.045362275,0.51657295,0.65603834,0.49333543,1.0433865,-0.40954956,-1.700347,-0.8708411,2.440322,1.4862416,-0.99783885,1.1093336,-0.4651965,-1.7041214,-0.8752924,2.3966794,1.4254824,-1.0450343,-1.4450234,1.2372091,0.19780132,0.00022967585,0.7946625,0.4846763,0.22036158,1.370697,-0.5700836,1.6273627,-3.0635133,0.056706388,0.071893685,0.11141205,-0.3602295,1.060053,0.82996154,-0.20760106,0.07866884,0.5117391,-0.27218664,0.67844826,0.34963194,1.0,0.0,0.0,0.0,0.0,0.0,0.0,-2.020697,0.17008361,-1.0773628,0.6289482,-2.1332264,-8.608418,-3.3083656,-2.6946187,0.12895465,2.6540427
-2.2858381,9.806549,-1.0324847,10.378478,0.4311515,-1.6918378,-0.18864404,-0.8093082,0.6661768,-0.055222858,0.033988006,0.52399534,0.64879954,0.5009224,1.0284028,-0.39857882,-1.7096436,-0.87189364,2.449079,1.4903624,-0.99494207,1.0948988,-0.4530152,-1.7031848,-0.8752934,2.404469,1.4303118,-1.042652,-1.442945,1.2120082,0.05874547,-0.00084580213,0.77402216,0.48287907,0.24400705,1.3400803,-0.56951904,1.6273446,-3.0604503,0.056649692,-0.026364144,0.10873413,-0.35379028,1.0633204,0.8304956,-0.21245867,0.08160123,0.50840884,-0.25803486,0.6326381,0.31516308,1.0,0.0,0.0,0.0,0.0,0.0,0.0,-1.9900802,0.16951904,-1.0773447,0.1814127,-2.436757,-13.95866,-0.29849395,-1.9404292,-0.04339814,2.3130746
1.8339715,6.9297705,-1.2894428,4.717538,0.075341344,-1.9713455,-0.008693468,-0.8052357,0.63367116,-0.047136556,-0.097941115,0.4816083,0.65434724,0.52404183,1.0143752,-0.38964808,-1.7078985,-0.8850875,2.4526298,1.4957465,-0.99024785,1.0804945,-0.4411825,-1.7033966,-0.87579024,2.4119763,1.4351298,-1.0400447,-1.439304,1.1739874,-0.048193865,-0.06636862,0.74304736,0.48223513,0.2662829,1.309494,-0.56895447,1.6263447,-3.0573905,0.056593053,-0.12452374,0.1063385,-0.34786987,1.0661376,0.83119494,-0.2167075,0.08491935,0.5049173,-0.22520141,0.57961977,0.26704365,1.0,0.0,0.0,0.0,0.0,0.0,0.0,-1.959494,0.16895446,-1.0763447,0.42624474,-3.7147284,-10.77955,-6.6847324,-3.0290008,0.13046265,2.1907568
6.4431233,9.659836,0.14025414,0.38904333,-0.36027592,-2.1232512,0.15453207,-0.8023406,0.621616,-0.061011627,-0.1880148,0.43315208,0.6571529,0.5285659,1.0002605,-0.3790209,-1.7094977,-0.8945917,2.4552915,1.5008451,-0.9871881,1.066136,-0.4297217,-1.7044151,-0.877339,2.4190755,1.4399477,-1.0372351,-1.4343171,1.1370382,-0.120004565,-0.18458311,0.6986281,0.48239964,0.2857214,1.2789383,-0.5683899,1.6243639,-3.0543337,0.056536473,-0.22258519,0.10442352,-0.34246063,1.0684147,0.83195835,-0.22020672,0.08864941,0.5014932,-0.17326832,0.5283147,0.21152397,1.0,0.0,0.0,0.0,0.0,0.0,0.0,-1.9289383,0.16838989,-1.074364,0.62093735,-3.6010504,-7.2871237,-11.894202,-4.4111133,0.24067163,1.9205034
10.204325,13.703341,2.1019716,-2.1482902,-0.6721809,-2.1587913,0.29246825,-0.7962935,0.6046456,-0.057485487,-0.26736253,0.37380275,0.664728,0.5331162,0.98650664,-0.36925715,-1.7101636,-0.90407526,2.4564557,1.5064205,-0.9839235,1.05185,-0.41861856,-1.705836,-0.88030875,2.42561,1.4447752,-1.034252,-1.4261605,1.1017598,-0.14977577,-0.33451915,0.63831156,0.48354116,0.30254474,1.2484131,-0.5678253,1.6214032,-3.05128,0.056479946,-0.3205486,0.103141785,-0.33751678,1.070116,0.83268654,-0.2229029,0.092805065,0.4983319,-0.10801071,0.48241475,0.15358096,1.0,0.0,0.0,0.0,0.0,0.0,0.0,-1.8984131,0.16782531,-1.0714033,0.98326206,-3.425932,-3.1190276,-15.015518,-6.008184,0.341779,1.6698956
12.254142,16.246552,3.5483124,-3.2951279,-0.7384683,-2.1493998,0.39419085,-0.79591423,0.5839319,-0.038517583,-0.35849774,0.352474,0.6715167,0.52934515,0.97225857,-0.36022538,-1.7096878,-0.9161585,2.4608574,1.5119269,-0.9813175,1.0376364,-0.4078673,-1.7072551,-0.8849274,2.4315648,1.449618,-1.031124,-1.4190956,1.0666084,-0.13983524,-0.5042286,0.580997,0.48517784,0.31624287,1.2179184,-0.56726074,1.6174636,-3.0482295,0.056423478,-0.41841406,0.10254669,-0.3330078,1.071234,0.83329386,-0.2247836,0.097317085,0.49560365,-0.03808029,0.43951973,0.095255755,1.0,0.0,0.0,0.0,0.0,0.0,0.0,-1.8679184,0.16726074,-1.0674636,0.90076923,-3.4074783,0.8139998,-16.956638,-5.6986094,0.3702402,1.3702631
13.241936,16.518457,4.2008896,-3.9387467,-0.76523775,-2.148336,0.45903426,-0.78691864,0.55565166,-0.0114110755,-0.45159027,0.2854521,0.6730569,0.53050596,0.95894456,-0.35230213,-1.7083962,-0.93008643,2.46011,1.5169237,-0.9780734,1.0235201,-0.39750612,-1.7083461,-0.8913046,2.4368634,1.454476,-1.0278758,-1.4084866,1.0263355,-0.099590845,-0.6820708,0.5129175,0.48661748,0.32764184,1.1874542,-0.56669617,1.6125462,-3.0451818,0.056367066,-0.5161817,0.10266113,-0.3289032,1.0717629,0.8337222,-0.22585304,0.10212556,0.49342495,0.03402713,0.3972947,0.03617573,1.0,0.0,0.0,0.0,0.0,0.0,0.0,-1.8374542,0.16669616,-1.0625463,1.3003111,-3.9159536,3.7726119,-17.739164,-6.752169,0.32601357,1.1476457
11.905554,12.927517,3.3900704,-3.548007,-0.6861175,-2.1379972,0.4568871,-0.7842965,0.5162316,0.022023546,-0.53834254,0.17663516,0.6810739,0.5291348,0.9450905,-0.34588295,-1.7061437,-0.9451389,2.454527,1.5225834,-0.9749623,1.009503,-0.38764036,-1.7088802,-0.89943373,2.4412732,1.4593512,-1.0245303,-1.3984616,0.9736607,-0.03902002,-0.85631746,0.4176934,0.4882702,0.33667943,1.1570206,-0.5661316,1.6066518,-3.0421371,0.05631071,-0.61385167,0.10349274,-0.32524872,1.0716915,0.8339589,-0.22612633,0.10722749,0.49181452,0.10207173,0.35211468,-0.024279447,1.0,0.0,0.0,0.0,0.0,0.0,0.0,-1.8070205,0.16613159,-1.0566518,1.2725115,-5.1642537,5.755953,-17.37008,-9.452433,0.30705333,0.8986056
8.329796,7.3948402,1.646268,-1.0293734,-0.6400418,-2.0438054,0.35321224,-0.774657,0.46571437,0.051756617,-0.58212066,-0.06788849,0.679432,0.5240715,0.9320373,-0.34106892,-1.7037045,-0.9576458,2.4344845,1.5272944,-0.97212315,0.99560606,-0.37843692,-1.7087562,-0.90904963,2.4441419,1.4642378,-1.0211142,-1.3858306,0.9028803,0.028468654,-0.99662733,0.24321742,0.4890953,0.34288988,1.1266174,-0.565567,1.5997814,-3.0390956,0.056254413,-0.71142393,0.10492706,-0.32205963,1.0710313,0.8340521,-0.22568227,0.11278735,0.49061564,0.16185854,0.3069618,-0.08283782,1.0,0.0,0.0,0.0,0.0,0.0,0.0,-1.7766174,0.16556701,-1.0497813,1.5308619,-6.9933653,6.4308434,-14.00249,-17.359861,0.17651916,0.55850744
-2.0272,-17.776588,-6.7119846,1.9042046,0.027268484,-2.1713145,0.12889606,-0.7566434,0.33685532,0.042662,-0.597872,-0.3563512,0.68716955,0.5336292,0.9199417,-0.3447514,-1.7044901,-0.96883684,2.4085066,1.5329548,-0.9677513,0.98189604,-0.37041795,-1.708144,-0.91968596,2.4445806,1.469134,-1.0176486,-1.365026,0.768234,0.07129915,-1.0861274,-0.0225207,0.48968077,0.3471993,1.0962448,-0.56500244,1.591936,-3.036057,0.05619817,-0.8088987,0.10674286,-0.31951904,1.069737,0.83414847,-0.2245566,0.11895856,0.4895093,0.1907534,0.23195814,-0.14788991,1.0,0.0,0.0,0.0,0.0,0.0,0.0,-1.7462448,0.16500244,-1.0419359,2.386117,-13.4470825,4.018368,-8.988261,-26.564732,0.072681904,0.22412539
-21.141775,-64.54642,-22.752592,6.5076485,1.8533678,-2.5397294,-0.2537568,-0.7337558,0.13156895,-0.044090517,-0.56696707,-0.5125205,0.68178535,0.5158641,0.90852046,-0.35726106,-1.712553,-0.9763827,2.3933284,1.5373125,-0.9660622,0.9684721,-0.36454093,-1.7076728,-0.93068755,2.4422078,1.4740225,-1.0141696,-1.3336083,0.5271413,0.038835675,-1.1052474,-0.3095313,0.48818162,0.34658265,1.0659027,-0.56443787,1.5831167,-3.0330217,0.056141984,-0.9062759,0.1083374,-0.3182373,1.0677136,0.83453315,-0.22268464,0.1255264,0.48806658,0.14981826,0.08966697,-0.22322854,1.0,0.0,0.0,0.0,0.0,0.0,0.0,-1.7159027,0.16443786,-1.0331166,3.498125,-24.2244,-3.3141084,-2.0477295,-28.891468,-0.2770543,-0.48249364
-49.100967,-144.63573,-50.28329,6.309218,4.7552104,-3.562453,-0.6749733,-0.7166731,-0.22114605,-0.19678193,-0.5936219,-0.5545089,0.6680901,0.451267,0.8968048,-0.38665554,-1.7273511,-0.9900497,2.386757,1.5408316,-0.9690429,0.95540774,-0.36242855,-1.7083614,-0.941733,2.4373326,1.478871,-1.010765,-1.295188,0.1048178,-0.10434252,-1.1046,-0.5486367,0.48206398,0.33623034,1.0355911,-0.5638733,1.5733242,-3.0299892,0.05608585,-1.0035558,0.10876465,-0.31935883,1.0646591,0.83563924,-0.21966499,0.13174604,0.48589846,0.0061644358,-0.18292801,-0.33495128,1.0,0.0,0.0,0.0,0.0,0.0,0.0,-1.6855911,0.16387329,-1.0233243,4.484725,-42.57179,-14.204186,0.00019073486,-24.438297,-1.0536492,-1.717788
-48.45532,-155.76112,-49.78528,5.8254743,6.094829,-3.2728226,-0.21153289,-0.66626716,-0.50044787,0.104869224,-0.63039595,-0.5635409,0.65697145,0.50153506,0.888781,-0.41247332,-1.6978744,-1.0047725,2.3809786,1.5445682,-0.96061146,0.94289553,-0.36528862,-1.7090442,-0.9528357,2.4306378,1.4836355,-1.0074157,-1.2340472,-0.41759458,-0.056849875,-1.1113957,-0.71095675,0.47215408,0.33289656,1.00531,-0.5633087,1.5625597,-3.02696,0.056029778,-1.1007385,0.10749817,-0.3232727,1.0604947,0.8372626,-0.21553798,0.1365145,0.48363063,-0.17306267,-0.46067047,-0.4449569,1.0,0.0,0.0,0.0,0.0,0.0,0.0,-1.65531,0.16330871,-1.0125597,6.878996,-52.63034,4.5833406,-0.46875477,-16.592657,-1.7170489,-0.80844164
-32.060654,-121.34645,-35.40434,2.422097,5.394972,-2.6821554,0.3526072,-0.6022572,-0.6516926,0.25797755,-0.7185486,-0.52278805,0.6458327,0.5081334,0.8826698,-0.4304579,-1.6832465,-1.0246905,2.378359,1.5482188,-0.95660233,0.9311892,-0.3730911,-1.7082336,-0.9644028,2.422978,1.4882895,-1.0040702,-1.1476506,-0.9022363,0.12608285,-1.1707792,-0.78520846,0.45998576,0.33455577,0.9750595,-0.56274414,1.5508242,-3.0239336,0.055973757,-1.197824,0.10469818,-0.32953644,1.0552949,0.83892566,-0.2105454,0.13917623,0.48218706,-0.31624994,-0.68015665,-0.54630065,1.0,0.0,0.0,0.0,0.0,0.0,0.0,-1.6250595,0.16274413,-1.0008242,9.186935,-48.80091,18.047445,-5.631113,-7.6113343,-2.1187603,0.014197826
-1.7821618,-51.077454,-8.915077,-0.34129608,3.1390703,-1.775784,0.90345204,-0.40129945,-0.7223052,0.3564529,-0.7257021,-0.56505543,0.62290424,0.44550025,0.8910592,-0.44532162,-1.6725883,-1.036973,2.3664725,1.5505799,-0.95952016,0.9211136,-0.3847574,-1.7051284,-0.9765917,2.414845,1.4928232,-1.0007342,-0.96108514,-1.2553321,0.37164497,-1.2346176,-0.822515,0.44918057,0.3337128,0.9448395,-0.56217957,1.5381185,-3.0209103,0.055917796,-1.2948124,0.10119629,-0.3371811,1.0493088,0.84007686,-0.20515612,0.13975523,0.48233825,-0.36698413,-0.78845435,-0.617908,1.0,0.0,0.0,0.0,0.0,0.0,0.0,-1.5948395,0.16217956,-0.98811847,18.59268,-35.483814,24.444378,-6.2764406,-3.618443,-1.7387688,0.06405115
27.25321,18.116543,16.072,-1.5595088,0.69095135,-1.0534403,1.1986591,-0.15017588,-0.7530651,0.37028763,-0.68747485,-0.6094609,0.63766,0.35483631,0.90609604,-0.4600639,-1.6680996,-1.0453392,2.353899,1.5565892,-0.96525055,0.91383517,-0.39879262,-1.6998794,-0.9891325,2.4064183,1.497296,-0.9974669,-0.6524909,-1.4529284,0.5766426,-1.2611545,-0.8484149,0.44598272,0.32530954,0.91464996,-0.561615,1.5244436,-3.01789,0.055861887,-1.391704,0.09790039,-0.34516144,1.0428841,0.8402837,-0.19992751,0.13871804,0.48446843,-0.32036608,-0.7943469,-0.6529992,1.0,0.0,0.0,0.0,0.0,0.0,0.0,-1.5646499,0.16161498,-0.9744436,30.123556,-19.761871,20.700068,-2.831912,-2.2544622,-0.5218744,-0.53744316
42.20583,56.26194,27.981384,-1.779721,-0.8690537,-0.93864775,1.1160216,0.073556684,-0.77683496,0.26571807,-0.65143824,-0.6030426,0.6453371,0.2768305,0.92119086,-0.47647613,-1.6733077,-1.0542763,2.3461142,1.5618297,-0.9697839,0.9102446,-0.4138974,-1.6936557,-1.0016133,2.3978467,1.5017687,-0.99434364,-0.2648855,-1.5294201,0.63951176,-1.2447305,-0.8589189,0.4478091,0.30890957,0.88449097,-0.5610504,1.5098006,-3.0148728,0.055806037,-1.4884984,0.09550476,-0.35287476,1.0362761,0.8394505,-0.19513872,0.13666546,0.48843256,-0.21491972,-0.75517625,-0.66578215,1.0,0.0,0.0,0.0,0.0,0.0,0.0,-1.534491,0.16105041,-0.95980054,37.65115,-7.5805426,6.8460345,1.331234,-0.7488847,0.2385199,-1.3558328
35.021557,53.87709,22.02065,0.29726171,-1.1126095,-1.3671172,0.5944269,0.16700041,-0.7888678,0.038404338,-0.651753,-0.5542482,0.6392356,0.24940473,0.9269446,-0.49278417,-1.6898153,-1.0667886,2.3424218,1.5656923,-0.96940315,0.9102398,-0.42920387,-1.688422,-1.0138317,2.3893628,1.5062586,-0.9914063,0.08421481,-1.5309827,0.48724225,-1.2151073,-0.84429246,0.4494197,0.28908962,0.8543625,-0.56048584,1.4941902,-3.0118585,0.05575024,-1.5851963,0.09412384,-0.36034393,1.0295054,0.8379405,-0.19056308,0.13421448,0.49348542,-0.11168534,-0.73715377,-0.6832112,1.0,0.0,0.0,0.0,0.0,0.0,0.0,-1.5043625,0.16048583,-0.9441902,33.901333,-0.13530254,-14.468068,2.759099,1.5084982,0.17273426,-1.8474936
18.720055,29.46334,7.391072,1.019347,-0.6219436,-2.076873,0.036074072,0.23407644,-0.8004669,-0.23878488,-0.6911742,-0.449553,0.6254188,0.2761535,0.93364745,-0.5092506,-1.7123004,-1.0829492,2.3444076,1.5688004,-0.96379095,0.9130837,-0.44430435,-1.6862609,-1.0259472,2.3813596,1.5107428,-0.9886416,0.34850317,-1.5032629,0.12864381,-1.2105125,-0.7862432,0.44752657,0.27219573,0.8242645,-0.5599289,1.4776137,-3.0088472,0.0556945,-1.6817974,0.09353638,-0.36805725,1.0223594,0.8363261,-0.18559733,0.13179822,0.4987399,-0.038854893,-0.77566475,-0.7276971,1.0,0.0,0.0,0.0,0.0,0.0,0.0,-1.4742645,0.15992889,-0.9276137,25.655657,2.7023077,-34.99829,0.42784214,5.6017637,-0.38880706,-1.7230868
10.47122,16.028137,-0.05261755,0.37712145,-0.325462,-2.374073,-0.14955723,0.31842294,-0.8056317,-0.376635,-0.7340227,-0.3842135,0.6158481,0.3172882,0.94492596,-0.52486753,-1.7239244,-1.0993495,2.3429382,1.5723276,-0.9569128,0.91803706,-0.4591006,-1.6880805,-1.038282,2.3741117,1.5151926,-0.98599803,0.54259664,-1.4721144,-0.28297466,-1.2408743,-0.70520097,0.44304413,0.2615161,0.7941971,-0.5593796,1.4600719,-3.005839,0.055638816,-1.778302,0.09354401,-0.37635803,1.0146221,0.83493423,-0.17977718,0.12957923,0.5037599,0.017259331,-0.84178,-0.7926266,1.0,0.0,0.0,0.0,0.0,0.0,0.0,-1.444197,0.15937957,-0.9100719,18.896358,3.0054808,-40.454014,-2.9672384,7.8327417,-0.788033,-1.1503577
9.649199,17.530582,0.7751682,0.8917198,-0.30629045,-2.1504407,-0.08400138,0.3936473,-0.80115694,-0.43660566,-0.7540421,-0.38034037,0.6227441,0.35749558,0.9574018,-0.5392163,-1.7317411,-1.1136862,2.3360777,1.5774671,-0.9502485,0.9245478,-0.4736179,-1.693505,-1.0510403,2.3675885,1.5196024,-0.9834107,0.68629825,-1.4452474,-0.62742484,-1.2870417,-0.635554,0.43923628,0.25766656,0.76416016,-0.55883026,1.4415658,-3.0028338,0.05558319,-1.8747101,0.094078064,-0.38523865,1.0062236,0.8337729,-0.17301014,0.12757361,0.5085423,0.0693727,-0.89860326,-0.8603892,1.0,0.0,0.0,0.0,0.0,0.0,0.0,-1.4141601,0.15883026,-0.89156574,14.087224,2.5914192,-34.030186,-4.516673,6.7442417,-0.7324755,-0.4287958
8.7335205,24.53748,4.5228024,4.3803167,-0.3438493,-1.570763,-0.012028977,0.4137566,-0.7953101,-0.46570843,-0.7553777,-0.47028315,0.6381254,0.380412,0.9659234,-0.5531489,-1.740076,-1.1265781,2.3205602,1.5834149,-0.94536954,0.9320475,-0.4879173,-1.7014797,-1.0642086,2.3613362,1.523995,-0.980831,0.77088845,-1.4251101,-0.8537323,-1.3262482,-0.622398,0.4382654,0.25812638,0.73415375,-0.55828094,1.4220963,-2.9998314,0.055527616,-1.9710217,0.095062256,-0.39448547,0.9972311,0.8327275,-0.1654869,0.12585768,0.5131654,0.11546831,-0.9270467,-0.9180769,1.0,0.0,0.0,0.0,0.0,0.0,0.0,-1.3841537,0.15828094,-0.87209624,8.391857,1.9457579,-22.5178,-3.8087606,1.1583328,-0.36938787,0.034445524
6.361962,27.719986,6.4929705,7.797291,-0.23156232,-1.1213942,0.0062711984,0.42949268,-0.795761,-0.5350792,-0.75867814,-0.5259634,0.6315177,0.39561468,0.97499675,-0.5674934,-1.7549876,-1.1400764,2.30874,1.5871468,-0.9412696,0.9400641,-0.5020907,-1.7111042,-1.0776726,2.354897,1.52838,-0.97822845,0.81210315,-1.4149449,-0.9987977,-1.3525097,-0.6516222,0.43778807,0.2609702,0.70417786,-0.5577316,1.4016644,-2.9968324,0.055472102,-2.0672367,0.096458435,-0.40387726,0.98773277,0.8317142,-0.15741517,0.12450344,0.5176588,0.15124778,-0.9372896,-0.9670607,1.0,0.0,0.0,0.0,0.0,0.0,0.0,-1.3541778,0.15773162,-0.85166436,4.1841984,0.9564638,-14.552891,-2.4955988,-3.0621052,-0.26246905,0.28131008
3.7785082,32.414043,9.365994,12.257874,0.13413662,-0.587889,0.03420665,0.4158506,-0.797448,-0.53165936,-0.75252426,-0.5170274,0.63769054,0.40487748,0.98164916,-0.5818355,-1.7642701,-1.152925,2.3031943,1.5921491,-0.9377407,0.9481741,-0.516227,-1.7214992,-1.0912606,2.3481374,1.5327708,-0.9755887,0.8111627,-1.4133978,-1.053716,-1.3605114,-0.6847223,0.43914786,0.26518914,0.6742325,-0.5571823,1.3802711,-2.9938362,0.05541664,-2.1633556,0.09806061,-0.41323853,0.97786176,0.8306546,-0.14904872,0.123420015,0.52207744,0.17038646,-0.92842126,-1.0009346,1.0,0.0,0.0,0.0,0.0,0.0,0.0,-1.3242325,0.1571823,-0.83027107,0.067293644,0.10147095,-5.6640863,-0.6635189,-3.4379125,0.017893314,0.45394897
1.5244956,34.873135,10.859918,14.843236,0.35291588,-0.25286895,0.05215113,0.39483416,-0.799709,-0.5355894,-0.76182485,-0.5428737,0.6398738,0.42711228,0.98765755,-0.5961979,-1.7750582,-1.167443,2.29385,1.5967581,-0.9328774,0.95604384,-0.53039193,-1.7320335,-1.1048943,2.341004,1.5371805,-0.97289073,0.7796456,-1.4176526,-1.054104,-1.3638437,-0.72295076,0.44134697,0.27149048,0.6443176,-0.556633,1.3579173,-2.9908428,0.055361234,-2.2593784,0.09978485,-0.42243195,0.967714,0.8294937,-0.14056182,0.122523904,0.52646977,0.17873839,-0.9089329,-1.0265632,1.0,0.0,0.0,0.0,0.0,0.0,0.0,-1.2943176,0.15663299,-0.8079173,-2.9252768,-0.476408,-0.28762817,-0.18303394,-3.9541483,0.15268922,0.68107843
-1.082643,38.939857,12.92433,18.203758,0.6263111,0.13652122,0.050781913,0.34837887,-0.7990553,-0.4904974,-0.75446904,-0.55817723,0.6518545,0.4338771,0.99088174,-0.61029744,-1.7810832,-1.1803412,2.2851863,1.602366,-0.929503,0.9633585,-0.5446055,-1.7421615,-1.1184937,2.3335118,1.5416247,-0.970127,0.7164618,-1.422733,-1.000089,-1.3581855,-0.75834745,0.44544527,0.27819058,0.6144333,-0.5560837,1.334604,-2.9878526,0.055305883,-2.3553052,0.101501465,-0.43134308,0.95740193,0.8281977,-0.13212907,0.12172777,0.53086025,0.17448546,-0.87682486,-1.039861,1.0,0.0,0.0,0.0,0.0,0.0,0.0,-1.2644333,0.15608367,-0.784604,-6.0280085,-0.5525112,5.077386,0.72147846,-3.673792,0.4205227,0.74627995
-1.1509237,41.191875,14.034229,18.696323,0.70170385,0.23991352,0.06957162,0.32939017,-0.79813564,-0.47946608,-0.7610136,-0.5549923,0.64153165,0.44141608,0.99629754,-0.62441903,-1.7901081,-1.1945951,2.2780125,1.6057779,-0.9259854,0.9700161,-0.5588572,-1.751662,-1.1320549,2.3257527,1.5461012,-0.9672965,0.64985967,-1.4261605,-0.93453205,-1.355011,-0.7819051,0.44848615,0.28503907,0.58457947,-0.55553436,1.3103322,-2.9848654,0.05525059,-2.451136,0.10316467,-0.43990326,0.9469849,0.82674545,-0.123822376,0.12095756,0.5352841,0.1679601,-0.84180635,-1.0490687,1.0,0.0,0.0,0.0,0.0,0.0,0.0,-1.2345794,0.15553436,-0.76033217,-6.3660026,-0.3796339,6.2090874,0.47359467,-2.4806023,0.33926964,0.782758
-1.0949993,41.286263,14.062527,18.407852,0.7435507,0.22535211,0.07027918,0.31055844,-0.8008215,-0.47448805,-0.7615152,-0.55488646,0.63889766,0.4498867,1.0010719,-0.6389394,-1.7991108,-1.2082064,2.2702641,1.609991,-0.9223078,0.9760643,-0.57314324,-1.7605903,-1.1455971,2.3178372,1.5506026,-0.9643973,0.59071976,-1.4295466,-0.87993383,-1.3532947,-0.7953382,0.4507319,0.29190513,0.55475616,-0.55498505,1.2851027,-2.9818811,0.05519535,-2.5468712,0.10473633,-0.44812012,0.93647027,0.82513773,-0.11563298,0.12015981,0.53975767,0.16104834,-0.809415,-1.0585054,1.0,0.0,0.0,0.0,0.0,0.0,0.0,-1.2047561,0.15498504,-0.7351027,-5.6391954,-0.3738165,5.12836,0.33342838,-1.4642239,0.25502443,0.7946253
-2.422463,37.95942,11.879575,17.543941,0.77730054,0.052731693,0.008019529,0.29372594,-0.79871196,-0.51876515,-0.7630119,-0.5516864,0.6317716,0.448548,1.0054369,-0.6530144,-1.8124669,-1.2218983,2.2626686,1.6137797,-0.9195425,0.98161376,-0.58744454,-1.7693412,-1.1591355,2.3098493,1.5551153,-0.96143806,0.54385096,-1.4304163,-0.87432635,-1.3535975,-0.8003121,0.451326,0.29748383,0.5249634,-0.55443573,1.2589166,-2.9788997,0.055140164,-2.6425107,0.10626984,-0.4561386,0.92580485,0.82343364,-0.10745359,0.11934832,0.54421204,0.1533413,-0.78818476,-1.0751578,1.0,0.0,0.0,0.0,0.0,0.0,0.0,-1.1749634,0.15443572,-0.7089166,-4.432738,-0.13599396,0.2940774,0.15671253,-0.64798594,0.041681528,0.64494014
-8.934341,31.430395,7.503682,18.22294,1.0012295,-0.03745964,-0.12465738,0.22867678,-0.79915357,-0.5588653,-0.7738606,-0.5667146,0.60763407,0.45617744,1.0044814,-0.6673599,-1.8252277,-1.2365215,2.253178,1.6158787,-0.9158203,0.9865519,-0.6017487,-1.7783706,-1.172731,2.3017964,1.559611,-0.9584273,0.47815612,-1.4306659,-0.9134045,-1.3606893,-0.8075961,0.44856974,0.30242288,0.4952011,-0.5538864,1.2317749,-2.9759216,0.055085037,-2.7380545,0.10761261,-0.46401215,0.91489565,0.8217573,-0.09911028,0.118591644,0.54847795,0.13339445,-0.7805698,-1.1017824,1.0,0.0,0.0,0.0,0.0,0.0,0.0,-1.1452011,0.15388641,-0.6817749,-6.2652407,-0.10445118,-4.134333,-0.45630932,-0.946939,-0.35240054,0.5370438
-12.82821,29.948065,6.2813725,19.52387,1.2377472,0.067799926,-0.1856246,0.17778987,-0.8020401,-0.5532785,-0.7711483,-0.555539,0.60871124,0.43514553,1.0043309,-0.6819527,-1.8336985,-1.2498459,2.2462425,1.6204821,-0.91491276,0.99072707,-0.6160662,-1.787812,-1.1863858,2.293717,1.5640761,-0.9553889,0.39836052,-1.4323437,-0.9550926,-1.3659313,-0.8086916,0.44567123,0.30438727,0.46546936,-0.5533371,1.2036784,-2.9729464,0.055029962,-2.8335028,0.108695984,-0.4718399,0.9037154,0.8201859,-0.090546675,0.11788098,0.5524495,0.10262402,-0.7756281,-1.1289039,1.0,0.0,0.0,0.0,0.0,0.0,0.0,-1.1154693,0.15333709,-0.65367836,-7.6506615,-0.26285648,-4.3853283,-0.2424717,-0.35982132,-0.37631392,0.2350092
-21.353468,25.931776,2.99409,22.130714,1.620992,0.21645524,-0.32615533,0.08602933,-0.8021167,-0.586446,-0.7751274,-0.5675361,0.595373,0.40755174,0.99933,-0.69627786,-1.8464566,-1.2638985,2.2369633,1.6236134,-0.91463375,0.9938389,-0.6304009,-1.7977531,-1.200092,2.285603,1.568503,-0.9523581,0.28334275,-1.4343024,-1.0076836,-1.3710037,-0.81346136,0.44142675,0.30261442,0.43576813,-0.5527878,1.1746281,-2.969974,0.054974943,-2.9288554,0.109313965,-0.47966766,0.89224434,0.818831,-0.08171646,0.117226385,0.55596405,0.051923096,-0.7767183,-1.1586567,1.0,0.0,0.0,0.0,0.0,0.0,0.0,-1.0857681,0.15278777,-0.6246281,-11.099619,-0.32401085,-5.4683685,-0.16012192,-0.79687834,-0.5369544,-0.16685128
-39.641903,17.168015,-3.522166,28.20689,2.5804935,0.5941944,-0.5683177,-0.09502004,-0.8159947,-0.5941509,-0.7829756,-0.5538576,0.5636349,0.40241748,0.9843369,-0.71200037,-1.8571682,-1.2783896,2.2302172,1.6248665,-0.9121164,0.99515975,-0.64482045,-1.8081481,-1.213863,2.2774816,1.5728651,-0.94935405,0.0835953,-1.4451622,-1.0509592,-1.3774832,-0.8133778,0.43410254,0.29973856,0.4060974,-0.55223846,1.1446252,-2.9670045,0.05491998,-3.024113,0.10909271,-0.4875946,0.88046294,0.81789553,-0.072559714,0.1165844,0.5587397,-0.04495129,-0.7885621,-1.1900504,1.0,0.0,0.0,0.0,0.0,0.0,0.0,-1.0560974,0.15223846,-0.5946252,-19.400333,-1.2831926,-4.5666933,-0.15788078,-0.44897795,-0.8793652,-0.30183792
-47.990265,20.268631,-3.0294929,32.48976,3.0779293,1.1113133,-0.6211184,-0.23463084,-0.81348884,-0.5411908,-0.78471017,-0.53371876,0.5650332,0.4155831,0.9716967,-0.72616935,-1.8622673,-1.2923341,2.2241096,1.6293684,-0.9077957,0.99411166,-0.65933347,-1.8186004,-1.2276913,2.269425,1.5771605,-0.94636524,-0.16536228,-1.4541192,-1.0442792,-1.3827069,-0.8047324,0.42771167,0.29870614,0.37644958,-0.55168915,1.1136702,-2.9640381,0.05486507,-3.1192753,0.10771942,-0.49556732,0.8684582,0.81746095,-0.06317414,0.11584814,0.56066555,-0.16640294,-0.7907384,-1.2093014,1.0,0.0,0.0,0.0,0.0,0.0,0.0,-1.0264496,0.15168914,-0.5636702,-24.23855,-1.1188984,0.36420822,0.02155304,0.36076307,-0.76161623,-0.08350015
-51.40984,21.256947,-3.277515,33.33238,3.2424169,1.2766585,-0.6376147,-0.34545517,-0.817528,-0.56269616,-0.78920335,-0.52687454,0.54295534,0.42064214,0.9595661,-0.74108624,-1.8748701,-1.3066117,2.2167375,1.631456,-0.90430105,0.99052584,-0.6739342,-1.8289688,-1.241573,2.261475,1.5813814,-0.9433783,-0.42078987,-1.462854,-1.035244,-1.3879882,-0.7933307,0.41968375,0.29891366,0.34682465,-0.55113983,1.0817645,-2.9610748,0.054810215,-3.2143424,0.10507965,-0.50354767,0.8562711,0.81754905,-0.05360185,0.11494763,0.5617182,-0.2964946,-0.79111797,-1.2269801,1.0,0.0,0.0,0.0,0.0,0.0,0.0,-0.9968246,0.15113983,-0.53176445,-24.87476,-1.1187792,0.58972836,0.06394386,0.616312,-0.96032023,0.06750226
-51.244427,19.54348,-4.9097915,31.309784,3.1588044,1.1072503,-0.6567296,-0.43330607,-0.81990707,-0.6459593,-0.7949169,-0.51199317,0.50528276,0.39159536,0.94719523,-0.75592494,-1.8935647,-1.3210647,2.2102757,1.6319097,-0.9042188,0.984594,-0.68860936,-1.8396175,-1.2555157,2.2536702,1.5854956,-0.94040763,-0.6485938,-1.4700557,-1.0756428,-1.3943976,-0.77799934,0.4078256,0.2965224,0.31723022,-0.5505905,1.0489086,-2.9581144,0.054755416,-3.3093145,0.10116577,-0.5116043,0.84382784,0.8181855,-0.04372857,0.11387577,0.56186515,-0.42356,-0.79822403,-1.2551099,1.0,0.0,0.0,0.0,0.0,0.0,0.0,-0.9672302,0.15059051,-0.49890858,-22.150887,-0.9902477,-4.2940855,-0.0047922134,0.9883404,-1.444459,-0.19248724
-52.78235,19.789568,-5.7011223,30.617085,3.2423785,1.1272001,-0.6731939,-0.5593779,-0.8185253,-0.6823232,-0.8012405,-0.45826405,0.47843653,0.38614354,0.9286562,-0.7704619,-1.9078498,-1.3356397,2.2078438,1.6333393,-0.9017933,0.9764582,-0.7033293,-1.8508613,-1.2695366,2.2461553,1.5894762,-0.93746364,-0.86647344,-1.4735992,-1.1413406,-1.402405,-0.7445459,0.39352554,0.29389712,0.28766632,-0.5500412,1.0151038,-2.9551568,0.054700673,-3.4041917,0.095954895,-0.5197296,0.8310662,0.81939113,-0.033450656,0.11257101,0.56107664,-0.5548447,-0.806616,-1.2880138,1.0,0.0,0.0,0.0,0.0,0.0,0.0,-0.9376663,0.1500412,-0.4651038,-21.168768,-0.6516695,-6.7884207,-0.11601448,2.7623177,-1.7702937,-0.1969397
-51.70847,23.130806,-4.6353955,30.025755,3.0972867,1.2228198,-0.6964641,-0.65600413,-0.8137428,-0.7267471,-0.7856504,-0.4760145,0.5026757,0.3014028,0.9108578,-0.7847036,-1.9235361,-1.3481016,2.1985538,1.6397438,-0.90732336,0.9663044,-0.71804357,-1.8628948,-1.283548,2.238892,1.5933386,-0.9346074,-1.0630684,-1.4716862,-1.2244444,-1.3984344,-0.722302,0.38271156,0.2830872,0.25813293,-0.5494919,0.980351,-2.952202,0.054645985,-3.498974,0.08946228,-0.5279007,0.81797767,0.821169,-0.02276667,0.11105471,0.5593119,-0.6831182,-0.80865544,-1.3205702,1.0,0.0,0.0,0.0,0.0,0.0,0.0,-0.9081329,0.14949188,-0.43035096,-19.083988,-0.11918545,-8.475494,1.0915995,1.6364336,-1.467061,-1.0188937
-47.0169,30.449514,-0.7673421,28.773666,2.8606849,1.4010489,-0.6307234,-0.73995703,-0.8025442,-0.74464554,-0.78173906,-0.44131643,0.5212603,0.24905044,0.8923087,-0.798298,-1.9373593,-1.3617219,2.1947603,1.6454647,-0.90970236,0.9543663,-0.7326729,-1.8756835,-1.2974831,2.231892,1.5971228,-0.9318932,-1.235712,-1.4610839,-1.2975343,-1.3897343,-0.6939246,0.3756802,0.26771885,0.22863007,-0.54894257,0.944651,-2.9492505,0.05459135,-3.5936615,0.08177185,-0.53598785,0.8046164,0.82345736,-0.011763907,0.1093112,0.55662435,-0.80201966,-0.79734826,-1.3462331,1.0,0.0,0.0,0.0,0.0,0.0,0.0,-0.87863004,0.14894256,-0.394651,-16.76054,0.76236725,-7.4380636,1.5194893,2.2868872,-1.0852277,-1.4544785
-37.395233,38.316765,4.932845,26.316782,2.6990178,1.4874134,-0.53735423,-0.7817466,-0.80247414,-0.746761,-0.7697248,-0.2997653,0.50191605,0.01313776,0.8761917,-0.81292033,-1.9503597,-1.3744556,2.2019155,1.6473144,-0.9305794,0.9410292,-0.7471955,-1.8890045,-1.3112828,2.225556,1.6008364,-0.92949665,-1.365073,-1.4501878,-1.3439608,-1.3749115,-0.6148224,0.36881876,0.23074806,0.19915771,-0.54839325,0.9080049,-2.946302,0.05453677,-3.6882544,0.073005676,-0.5439224,0.7910767,0.82617474,-0.000593344,0.107090384,0.5531424,-0.90580124,-0.77549875,-1.3613472,1.0,0.0,0.0,0.0,0.0,0.0,0.0,-0.8491577,0.14839324,-0.35800487,-12.555099,0.8371115,-4.7378063,2.0266056,7.474971,-1.024878,-3.5478473
-27.089703,44.600285,10.324392,23.489906,2.556616,1.5163935,-0.43380678,-0.80948746,-0.8060112,-0.74440396,-0.7566961,-0.14127424,0.48910505,-0.20564075,0.8600804,-0.8277966,-1.9634448,-1.3869524,2.2114284,1.6497469,-0.9500607,0.92673075,-0.76164556,-1.9025791,-1.3248993,2.2204404,1.6044832,-0.92761505,-1.450523,-1.443914,-1.3622545,-1.3557571,-0.47838035,0.36235586,0.17469117,0.16971588,-0.54784393,0.87041354,-2.9433563,0.054482248,-3.7827528,0.063323975,-0.5515671,0.7774524,0.82924074,0.010572881,0.10405143,0.54901844,-0.993454,-0.74650526,-1.3674397,1.0,0.0,0.0,0.0,0.0,0.0,0.0,-0.81971586,0.14784393,-0.32041353,-8.284235,0.43098927,-1.9026518,2.3456812,13.342172,-0.9275079,-5.384371
-18.32059,51.34443,15.581579,22.088573,2.4873223,1.6010554,-0.36443317,-0.8264986,-0.8004185,-0.7356546,-0.72474176,0.034985572,0.5211385,-0.36349154,0.84408087,-0.8416874,-1.9761446,-1.3973734,2.223939,1.6565971,-0.9639642,0.91186106,-0.77603173,-1.9161556,-1.3382164,2.2170835,1.6081015,-0.9263762,-1.4986986,-1.4373345,-1.356127,-1.322579,-0.2887123,0.36085457,0.10784393,0.14030457,-0.5472946,0.83187795,-2.9404135,0.054427776,-3.8771567,0.052864075,-0.5588989,0.7638649,0.8325961,0.021522801,0.0999029,0.54437107,-1.0682158,-0.7110397,-1.3603065,1.0,0.0,0.0,0.0,0.0,0.0,0.0,-0.79030454,0.14729461,-0.28187793,-4.6627283,0.5164385,0.5723953,3.6270142,18.799257,-0.35475492,-6.4155145
-11.266909,54.324963,18.380342,19.785294,2.27129,1.530318,-0.2903069,-0.83028615,-0.7972434,-0.74733824,-0.710031,0.18288343,0.5139591,-0.4208775,0.82883245,-0.85575604,-1.9908894,-1.4092195,2.2353718,1.6594974,-0.96846396,0.8967396,-0.790354,-1.9296558,-1.3511845,2.2158132,1.6117083,-0.9257935,-1.5162582,-1.4309119,-1.3481944,-1.2873802,-0.07318346,0.35996354,0.042635117,0.11092377,-0.5467453,0.792399,-2.9374735,0.054373357,-3.9714663,0.041755676,-0.56585693,0.75036395,0.8361827,0.032151632,0.09449373,0.5392918,-1.1289544,-0.6742261,-1.3510543,1.0,0.0,0.0,0.0,0.0,0.0,0.0,-0.76092374,0.1467453,-0.24239898,-1.6673326,0.5401373,0.77631474,3.7523508,21.478806,-0.25402308,-6.241142
-6.641969,56.185207,19.710651,17.649921,1.733746,1.4641985,-0.24489158,-0.831845,-0.78834134,-0.7652568,-0.6933843,0.18839936,0.53067565,-0.4337532,0.8135551,-0.86918813,-2.0061815,-1.4205229,2.234653,1.6647758,-0.96916884,0.8815838,-0.80458665,-1.9431598,-1.3638035,2.2163472,1.6153227,-0.92580783,-1.515143,-1.4209373,-1.351214,-1.2526922,0.09573486,0.36146098,-0.015367987,0.08157349,-0.546196,0.7519777,-2.9345365,0.054318994,-4.0656815,0.030174255,-0.5724182,0.73693085,0.8399297,0.042457372,0.08800843,0.5338256,-1.1719712,-0.6328742,-1.3448981,0.0,1.0,0.0,0.0,0.0,0.0,0.0,-0.73157346,0.14619598,-0.20197767,0.16577244,0.9176016,-0.30026436,3.657508,16.866142,0.016993284,-5.5762687
-3.524516,55.566666,19.488058,15.024008,0.7844378,1.3523717,-0.19895366,-0.829643,-0.7934308,-0.78316677,-0.6790966,-0.01524596,0.5237485,-0.44254428,0.7986195,-0.8839297,-2.0214765,-1.4317131,2.2148225,1.6676975,-0.97006226,0.86657155,-0.81866837,-1.9578651,-1.3764702,2.2162354,1.6205937,-0.9257537,-1.4969269,-1.4064534,-1.4865193,-1.2612374,-0.021531653,0.53590864,-0.0052950215,0.065216064,-0.5475464,0.75274837,-1.5447592,-0.12246503,0.501534,0.018371582,-0.5783386,0.72308826,0.84355515,0.052306406,0.0818499,0.52818495,-1.1861318,-0.5637164,-1.3924323,0.0,1.0,0.0,0.0,0.0,0.0,0.0,-0.71521604,0.14754638,-0.20274836,1.4866829,0.30691624,-2.0291567,3.8197517,2.6755228,-0.38036108,-5.109631
64.31593,176.0,110.0,110.0,-1.1714423,11.455476,-0.9645183,-0.7878368,0.527811,0.67163,0.7330716,-0.3089629,0.6707262,-0.4186987,0.78778785,-0.76588726,-1.8907021,-1.303163,2.1853392,1.6876663,-0.9676236,0.8562852,-0.8342047,-1.9687008,-1.3756214,2.20515,1.6357895,-0.9251834,-0.87702656,-1.6014968,-0.94388205,0.52902216,-1.4651971,1.8577245,0.07412341,0.0497818,-0.5487671,0.7570155,-1.5432148,-0.12234259,0.4017814,0.0068893433,-0.58190155,0.71344733,0.84717613,0.051864624,0.081398286,0.5224719,-1.1380242,-0.27168912,-0.8227929,1.0,0.0,0.0,0.0,0.0,0.0,0.0,-0.6997818,0.14876708,-0.20701551,60.664104,-19.14766,55.904472,177.69437,-142.6485,135.25307,6.8707705
-3.2738886,176.0,88.07583,95.58336,3.7242317,6.006719,-1.1276658,-0.80256724,-0.6126552,0.19804032,0.76994705,-0.57943934,0.5887414,-0.22071502,0.7760285,-0.8954702,-1.9488968,-1.2986268,2.147206,1.6946636,-0.9472549,0.8475534,-0.85004425,-1.9723591,-1.3632218,2.187999,1.653999,-0.92498314,-0.8710268,-1.5792378,-0.1701469,1.4773144,-1.8029546,1.8151807,0.0030292873,0.034362793,-0.5499878,0.76028585,-1.5416719,-0.12222026,0.30212852,-0.0048217773,-0.5837784,0.7088018,0.85131913,0.043864924,0.08428549,0.5159723,-1.1796764,-0.14641449,-0.35015327,1.0,0.0,0.0,0.0,0.0,0.0,0.0,-0.68436277,0.14998779,-0.21028584,0.8489847,1.8839598,78.27226,94.932465,-35.045006,-2.3638725,-6.793045
-38.09718,153.40494,52.4457,71.42161,3.5939178,3.6123247,-1.2593216,-0.784608,-0.42782676,-0.25562662,0.7210285,-0.6496749,0.6323334,0.06842713,0.76909256,-0.8928269,-1.9979217,-1.2911189,2.1230316,1.7172323,-0.9181404,0.8378974,-0.8637819,-1.9724201,-1.3452736,2.170314,1.6710888,-0.92495453,-0.99503106,-1.3065803,0.04797156,1.9021895,-1.759604,1.6778058,0.0029409484,0.018959045,-0.5512085,0.7625604,-1.5401305,-0.12209807,0.20257528,-0.017234802,-0.58465576,0.70743436,0.856164,0.03323941,0.08864902,0.50795627,-1.260338,-0.060369484,-0.073777296,1.0,0.0,0.0,0.0,0.0,0.0,0.0,-0.668959,0.15120849,-0.21256042,-11.764622,26.890015,21.67596,42.88993,3.5954952,-12.4916315,0.01122714
-27.426939,142.28308,47.23152,45.585606,2.191896,2.587535,-0.59046113,-0.7676572,-0.39735147,0.08503545,0.7699838,-0.64149684,0.58309853,0.015767649,0.7611317,-0.90351707,-1.9639165,-1.2682753,2.1061645,1.7293987,-0.92337775,0.82665837,-0.8745699,-1.9705929,-1.3258911,2.154361,1.6864315,-0.9249307,-1.1657766,-1.004005,0.22679041,1.9508404,-1.543005,1.4890754,0.0018614882,0.0035705566,-0.5524292,0.7638402,-1.5385907,-0.121976,0.1031216,-0.030067444,-0.5845871,0.70812416,0.8613497,0.022064202,0.09357435,0.4988323,-1.2909653,0.036434103,0.107863866,1.0,0.0,0.0,0.0,0.0,0.0,0.0,-0.65357053,0.1524292,-0.21384019,-16.73138,29.907322,17.645718,5.016017,20.929241,-18.046211,-0.19758028
-31.119198,87.63267,19.24374,23.388256,1.4594684,0.7823369,-0.37462848,-0.77862704,-0.41849557,-0.11568203,0.7602634,-0.6356852,0.60244477,-0.0032745288,0.7487957,-0.91641945,-1.982161,-1.2498648,2.0907924,1.746676,-0.92525816,0.8138906,-0.8829737,-1.9688686,-1.3075291,2.140735,1.6999985,-0.9249164,-1.3134042,-0.78635865,0.15295768,1.7983431,-1.303245,1.3143464,0.00079180126,-0.011802673,-0.5536499,0.7641262,-1.5370524,-0.12185405,0.0037673453,-0.043190002,-0.58395386,0.7094395,0.86667556,0.011908559,0.09848597,0.4889091,-1.319616,0.080990314,0.13191812,1.0,0.0,0.0,0.0,0.0,0.0,0.0,-0.6381973,0.1536499,-0.21412617,-14.656687,21.599937,-7.7490954,-15.185738,23.83268,-17.007042,-0.2546062
-18.482237,67.84791,13.902721,12.450664,0.65560657,0.058365047,-0.12705882,-0.7775327,-0.36530042,-0.07821479,0.7743303,-0.6140522,0.585282,-0.120205,0.73613733,-0.9195037,-1.97669,-1.2300961,2.0793297,1.7585267,-0.9369369,0.80005944,-0.8897228,-1.9681934,-1.2910057,2.129207,1.7119805,-0.9250003,-1.4064066,-0.6382098,0.038412612,1.6035204,-1.1035604,1.1604829,-0.011947498,-0.027160645,-0.5548706,0.7634194,-1.5355157,-0.12173222,-0.09548758,-0.056396484,-0.5830231,0.71061856,0.8720107,0.0033566013,0.103177786,0.4784771,-1.3205625,0.10733023,0.10740192,1.0,0.0,0.0,0.0,0.0,0.0,0.0,-0.62283933,0.1548706,-0.21341938,-9.341049,14.700627,-11.62566,-19.51027,19.80195,-15.113711,-1.4312254
-3.982191,52.738903,13.970225,6.6149845,0.34488398,-0.24161506,0.1229022,-0.7726916,-0.4014427,0.035365954,0.773429,-0.5985089,0.5900899,-0.18181151,0.7227903,-0.9298671,-1.9646568,-1.2136629,2.069356,1.7709894,-0.94318146,0.78572094,-0.89578533,-1.9680923,-1.2761685,2.1192276,1.7226082,-0.92525303,-1.443314,-0.5957641,0.000600436,1.4435859,-0.9639361,1.0307341,-0.029893128,-0.042503357,-0.5560913,0.7617208,-1.5339805,-0.12161051,-0.19464324,-0.069480896,-0.5819168,0.7114338,0.8772083,-0.003831725,0.107410505,0.46792492,-1.3041899,0.120659016,0.068601884,1.0,0.0,0.0,0.0,0.0,0.0,0.0,-0.6074966,0.1560913,-0.21172076,-3.7753344,4.1644454,-3.7397738,-16.048574,13.684773,-12.830901,-1.8714547
5.5805707,45.839413,16.115618,5.2929378,0.36574125,-0.26617098,0.257688,-0.77168655,-0.43131888,0.11594966,0.7608393,-0.57316464,0.589417,-0.19101457,0.7085523,-0.9389172,-1.9564973,-1.2000846,2.061911,1.7815499,-0.9443545,0.7712976,-0.9019966,-1.9677109,-1.262508,2.1102746,1.732103,-0.9256784,-1.4423157,-0.6297622,0.05111235,1.3402889,-0.8735401,0.92265373,-0.04669401,-0.05783081,-0.557312,0.75903136,-1.5324469,-0.12148892,-0.2936998,-0.08236694,-0.5807266,0.71189296,0.8821719,-0.010157163,0.11097854,0.4575512,-1.2817327,0.12841721,0.035019916,1.0,0.0,0.0,0.0,0.0,0.0,0.0,-0.59216917,0.157312,-0.20903134,0.02105236,-3.4654975,5.2165747,-10.370493,8.702267,-10.714316,-1.6862564
8.424793,38.40316,14.789239,5.4243264,0.46568766,-0.374754,0.26207045,-0.7560728,-0.4673697,0.11432407,0.75083417,-0.57584596,0.5858879,-0.16509773,0.6956903,-0.94873357,-1.9562784,-1.1874247,2.05269,1.7906917,-0.94218814,0.75709164,-0.9088955,-1.9666809,-1.2494808,2.1018937,1.7406555,-0.92623246,-1.4135014,-0.7101822,0.12089877,1.2901788,-0.82729745,0.83295983,-0.058215592,-0.073143005,-0.5585327,0.75535214,-1.5309147,-0.12136746,-0.39265734,-0.09503174,-0.5795288,0.71198994,0.886887,-0.01594904,0.113844134,0.44745544,-1.2629361,0.1270512,-0.0017672835,1.0,0.0,0.0,0.0,0.0,0.0,0.0,-0.576857,0.15853271,-0.20535213,2.832365,-8.093643,7.1645885,-5.0098896,4.3183565,-8.900917,-1.1223509
8.730217,36.30111,13.544782,6.587475,0.46344337,-0.4746511,0.19692992,-0.7263228,-0.486118,0.08655654,0.7531044,-0.592417,0.5937762,-0.14375924,0.6844593,-0.9575073,-1.9580252,-1.1741704,2.042652,1.8000332,-0.9406084,0.7433368,-0.9166479,-1.9651588,-1.236633,2.093715,1.7484356,-0.9268676,-1.3629322,-0.7970859,0.1634249,1.2830765,-0.8159578,0.75990814,-0.065229505,-0.08843994,-0.55973816,0.7506841,-1.5293841,-0.12124612,-0.49151593,-0.107559204,-0.57837677,0.71170866,0.89138603,-0.021330332,0.1161627,0.4375868,-1.2464927,0.11985548,-0.039704245,0.0,1.0,0.0,0.0,0.0,0.0,0.0,-0.56156003,0.15973815,-0.20068407,5.0266743,-8.739674,4.4305058,-0.66981316,0.8767605,-7.239938,-0.6722361
0.1420021,25.477518,5.9039397,7.603029,0.6401823,-0.69877106,0.045297876,-0.7141081,-0.53426313,-0.017582322,0.74995464,-0.60487676,0.59526265,-0.11276264,0.67192596,-0.97007424,-1.966917,-1.1616374,2.0332272,1.807962,-0.93814385,0.73009026,-0.925313,-1.9638733,-1.2237011,2.085498,1.7555844,-0.92753613,-1.3118938,-0.88983023,0.11712692,1.2969859,-0.8242034,0.6999329,-0.06723555,-0.10372162,-0.5609436,0.7450252,-1.527855,-0.1211249,-0.59066933,-0.120033264,-0.5774002,0.71087074,0.89576674,-0.026120927,0.11813172,0.42774346,-1.2493675,0.09957795,-0.10137797,0.0,1.0,0.0,0.0,0.0,0.0,0.0,-0.54627836,0.1609436,-0.1950252,5.1179647,-9.305679,-4.554938,1.5126705,-0.937891,-5.96056,-0.15813261
-10.296194,18.913296,-1.5712283,9.093653,0.655515,-0.9073187,-0.1284265,-0.69841594,-0.53845644,-0.19663653,0.75274557,-0.6239847,0.59800345,-0.054339267,0.66024864,-0.97915864,-1.983537,-1.1484265,2.0230997,1.8153847,-0.93297005,0.717311,-0.93470097,-1.9640259,-1.2105652,2.0771058,1.7622143,-0.92817414,-1.2664382,-0.9552367,-0.05965627,1.3197783,-0.8440598,0.650956,-0.062495288,-0.11898804,-0.56214905,0.73837554,-1.5263275,-0.1210038,-0.6897237,-0.13267517,-0.5766983,0.7092477,0.90015227,-0.029909885,0.12006604,0.41763067,-1.2683709,0.07002725,-0.18567829,0.0,1.0,0.0,0.0,0.0,0.0,0.0,-0.53101194,0.16214904,-0.18837553,4.599428,-6.5634966,-17.738605,2.4871588,-1.9289494,-4.87237,0.49406365
-13.209986,18.94247,-3.7996633,9.674868,0.5302856,-1.0001998,-0.19369671,-0.66031396,-0.55029106,-0.32695624,0.7741794,-0.6320616,0.60949016,-0.014130926,0.6512796,-0.98973006,-1.9967215,-1.1331472,2.0138996,1.8231633,-0.92958724,0.7050584,-0.9445558,-1.9666418,-1.1971759,2.0682738,1.7681797,-0.92887276,-1.211314,-0.995675,-0.32977977,1.3462055,-0.8944511,0.5810013,-0.07157188,-0.1357727,-0.5600662,0.7371845,-1.7124139,0.30791295,0.080711655,-0.1454544,-0.5763321,0.7066751,0.9046234,-0.032206014,0.12231978,0.4070099,-1.2825898,0.0307424,-0.28432298,0.0,1.0,0.0,0.0,0.0,0.0,0.0,-0.5142273,0.16006622,-0.18718451,5.225563,-4.1313887,-25.167734,3.6252975,-2.0777583,-3.822744,0.81789196
-32.303604,72.543724,9.979193,26.119831,0.7904763,0.105186194,-0.4824474,-0.77503026,-0.26422682,-0.47638497,0.795971,-0.62089324,0.56875044,0.08157323,0.6275554,-0.9709785,-2.0142803,-1.1175787,2.0061846,1.8250546,-0.92071545,0.692673,-0.9532972,-1.9721369,-1.183422,2.0592291,1.7737224,-0.9294631,-1.2472109,-0.83426243,-0.622864,1.3859149,-0.908244,0.54545766,-0.055725668,-0.15288544,-0.55698395,0.73724365,-1.7107018,0.3076051,-0.01901394,-0.1584549,-0.5759201,0.7038375,0.90922076,-0.033144154,0.12563676,0.3955179,-1.3051856,0.05632939,-0.2867182,0.0,1.0,0.0,0.0,0.0,0.0,0.0,-0.49711454,0.15698394,-0.18724364,-3.4677505,15.937686,-29.379398,4.177141,-1.4421463,-3.5118937,1.3471521
-40.089916,76.679184,10.041016,28.857738,1.0550156,0.3992859,-0.51131314,-0.7945039,-0.27284223,-0.6079815,0.7945079,-0.6281312,0.5555316,0.078015275,0.61322266,-0.9805814,-2.032935,-1.1039711,1.996416,1.8292756,-0.92166156,0.67969924,-0.9603458,-1.9805273,-1.1693438,2.0501082,1.7789619,-0.92989415,-1.3136265,-0.6625751,-0.91102374,1.415639,-0.9137631,0.51668555,-0.03980275,-0.16998291,-0.55391693,0.73630625,-1.7089914,0.30729756,-0.11863983,-0.17177582,-0.5751419,0.7010324,0.91393286,-0.032796197,0.13024709,0.38299692,-1.3387218,0.09431218,-0.28123617,0.0,1.0,0.0,0.0,0.0,0.0,0.0,-0.48001707,0.15391693,-0.18630624,-6.5108776,16.89824,-28.795052,3.15938,-0.7352352,-2.9585958,1.3060868
-37.79999,72.31827,9.907964,26.241806,1.0113246,0.50713027,-0.34440702,-0.8052753,-0.26835254,-0.6963231,0.78214383,-0.649758,0.58229524,0.18943618,0.5991717,-0.98718107,-2.0501597,-1.0911294,1.9851325,1.8371915,-0.91095054,0.66604453,-0.9659496,-1.9914488,-1.1551245,2.0409071,1.7839744,-0.93009347,-1.38254,-0.52729976,-1.1521779,1.4244509,-0.92311746,0.49549687,-0.014273217,-0.1870575,-0.5508499,0.73437333,-1.7072828,0.30699033,-0.21816611,-0.18540955,-0.57395935,0.69822407,0.9186504,-0.031230789,0.13597342,0.36961767,-1.3699026,0.13588947,-0.28272057,0.0,1.0,0.0,0.0,0.0,0.0,0.0,-0.46294248,0.15084991,-0.18437332,-6.8014145,13.233698,-23.953104,1.0264874,-1.2391567,-2.303934,2.2571259
-30.39946,55.61661,7.3731365,20.256529,1.0314826,0.39224565,-0.14490505,-0.8081116,-0.3187559,-0.7323761,0.78493947,-0.6519541,0.5698749,0.22450784,0.5852334,-0.9978252,-2.0646863,-1.0766306,1.9757117,1.8409619,-0.90764266,0.6518405,-0.97087914,-2.004188,-1.14089,2.0316222,1.7887962,-0.93002385,-1.4328953,-0.48230064,-1.3138529,1.4238229,-0.93124044,0.47695783,0.013394631,-0.20411682,-0.5477829,0.7314459,-1.7055758,0.3066834,-0.31759292,-0.19935608,-0.57244873,0.6952212,0.9232556,-0.028613562,0.1423386,0.35569647,-1.4013937,0.16798204,-0.3073986,0.0,1.0,0.0,0.0,0.0,0.0,0.0,-0.44588315,0.14778289,-0.1814459,-4.971695,4.254377,-15.940857,0.099372864,-1.1240602,-2.0770252,2.5516975
-22.506414,38.59456,4.564363,13.793442,0.9520297,0.24219602,0.05536608,-0.8137544,-0.37215766,-0.7654935,0.7743232,-0.65948474,0.5706466,0.29919994,0.5704651,-1.0080949,-2.0807374,-1.0634577,1.9656737,1.8458608,-0.90010387,0.6372836,-0.97598416,-2.0180354,-1.126747,2.022257,1.7934577,-0.9296405,-1.4630542,-0.5205414,-1.4076955,1.4119925,-0.93948627,0.46186507,0.046234753,-0.22116089,-0.5447159,0.72752494,-1.7038707,0.30637676,-0.4169203,-0.21362305,-0.57068634,0.69177526,0.927657,-0.025112422,0.14882247,0.34157512,-1.4315659,0.1896631,-0.35779068,0.0,1.0,0.0,0.0,0.0,0.0,0.0,-0.4288391,0.14471588,-0.17752492,-2.96278,-3.9985657,-9.165096,-0.9832382,-1.0746956,-1.7159045,3.1612852
-11.965282,34.38886,6.225799,9.279995,0.7233337,0.18287349,0.2179265,-0.8022223,-0.3962264,-0.77689344,0.7722223,-0.6687894,0.584923,0.3489664,0.5570614,-1.0156068,-2.0957248,-1.0495248,1.9553782,1.85195,-0.89474386,0.6226209,-0.9817596,-2.0323977,-1.1127356,2.0127966,1.798001,-0.9289176,-1.4672662,-0.59696156,-1.4446731,1.3980091,-0.9490261,0.4511525,0.08072517,-0.2381897,-0.54164886,0.7226114,-1.7021672,0.30607045,-0.5161484,-0.22808075,-0.5687485,0.6877845,0.9317787,-0.0209289,0.1551062,0.32755497,-1.4481282,0.20712306,-0.41359118,0.0,1.0,0.0,0.0,0.0,0.0,0.0,-0.41181028,0.14164886,-0.17261142,-0.416708,-7.7700973,-3.442812,-1.2292147,-1.1971116,-1.2523353,3.3708677
-6.6318808,36.088783,8.282646,7.6008625,0.5655366,0.24381286,0.28867346,-0.8070497,-0.4157051,-0.7848196,0.76526195,-0.69235605,0.59574395,0.36762792,0.5419159,-1.0233301,-2.1108797,-1.0362095,1.9435611,1.8575754,-0.8921548,0.60798484,-0.9883438,-2.0468707,-1.0988749,2.0031874,1.8024623,-0.92786855,-1.4625283,-0.67929316,-1.4473547,1.3825598,-0.96609,0.44389564,0.11276164,-0.25519562,-0.5385971,0.71671486,-1.7004653,0.30576444,-0.614154,-0.24263763,-0.56663513,0.6832688,0.9355809,-0.016229887,0.16108562,0.3138092,-1.4538482,0.22640222,-0.46519154,0.0,1.0,0.0,0.0,0.0,0.0,0.0,-0.39480436,0.1385971,-0.16671485,0.4399538,-8.349192,0.03335476,-1.4080048,-1.983118,-0.89595914,3.135869
-1.6719227,47.60549,13.114495,8.544184,0.5302868,0.38338685,0.31038257,-0.79864246,-0.41236767,-0.7790121,0.76883763,-0.67572284,0.6198582,0.41101018,0.5281206,-1.0295806,-2.1247718,-1.0219911,1.9356152,1.8644482,-0.8867675,0.59346837,-0.99555844,-2.0612807,-1.0851434,1.9936795,1.8070937,-0.92645544,-1.4484266,-0.7360861,-1.4361666,1.3706695,-0.95214397,0.463162,0.1490798,-0.27064514,-0.5358734,0.71246266,-1.5340067,0.27825338,-0.4108009,-0.25717163,-0.56424713,0.67836946,0.9390463,-0.01128414,0.16674149,0.300436,-1.4497844,0.25475454,-0.49896544,0.0,1.0,0.0,0.0,0.0,0.0,0.0,-0.37935483,0.1358734,-0.16246265,1.2475252,-5.833757,2.199006,-0.9422064,-0.8891344,-0.30682683,3.0772238
0.49521828,54.75146,15.968158,9.678396,0.63175327,0.4931152,0.2861145,-0.79432076,-0.43731287,-0.7506275,0.77183086,-0.6618686,0.6247508,0.39199767,0.5140363,-1.0392897,-2.1363435,-1.0079603,1.9274926,1.8695688,-0.88725567,0.57909834,-1.0032488,-2.075353,-1.071462,1.9841939,1.8117342,-0.92477417,-1.4335992,-0.78045887,-1.3959587,1.367237,-0.94868815,0.4639688,0.17414977,-0.28580475,-0.53297424,0.70822936,-1.510132,0.2933848,-0.42592028,-0.2715912,-0.5615845,0.67325443,0.9421882,-0.006178489,0.17213061,0.28742668,-1.4369,0.284615,-0.5169721,0.0,1.0,0.0,0.0,0.0,0.0,0.0,-0.36419523,0.13297424,-0.15822935,1.3523817,-4.585159,4.5003414,-0.33454895,-0.101184845,-0.07022619,2.3942323
-1.2406187,54.701458,15.275125,10.467713,0.7681054,0.4715712,0.24733183,-0.79356974,-0.47833222,-0.7491518,0.7735358,-0.64956826,0.6261348,0.41120547,0.49974138,-1.051082,-2.150268,-0.99410844,1.9192371,1.8743477,-0.88365364,0.56484944,-1.0114104,-2.0890322,-1.0577711,1.9747597,1.8163651,-0.92286503,-1.422342,-0.8284507,-1.3570567,1.3697206,-0.9431738,0.4621571,0.19618978,-0.30072784,-0.5299225,0.7038162,-1.486529,0.30848077,-0.44503474,-0.2859192,-0.558609,0.6679507,0.9450411,-0.0009542901,0.17723623,0.27474275,-1.4280932,0.31375232,-0.5362765,0.0,1.0,0.0,0.0,0.0,0.0,0.0,-0.34927213,0.12992248,-0.15381616,1.0106087,-4.951501,4.362893,0.2878666,0.102221966,-0.3457904,2.105269
3.804741,68.60729,20.46032,12.153557,0.7554362,0.5993688,0.24968332,-0.77100945,-0.45214877,-0.70370305,0.7828564,-0.6399206,0.6429631,0.44371435,0.4877485,-1.0566252,-2.1594024,-0.97948545,1.9107677,1.8806615,-0.8784936,0.550778,-1.0198046,-2.1021965,-1.0440058,1.9654095,1.8209965,-0.9207403,-1.4026966,-0.8436531,-1.3009299,1.3785375,-0.93418247,0.46272197,0.2174906,-0.31533813,-0.52671814,0.6993893,-1.4523408,0.32560763,-0.44064143,-0.30005646,-0.5553055,0.6626323,0.9476033,0.0042639896,0.18215175,0.2623939,-1.4040732,0.34755394,-0.5319352,0.0,1.0,0.0,0.0,0.0,0.0,0.0,-0.33466184,0.12671813,-0.14938927,1.7822981,-1.6950369,6.2162876,0.81648827,0.32724142,-0.12418628,1.9838095
0.639802,62.02109,17.125233,11.487675,0.79990566,0.4869613,0.22328655,-0.7737753,-0.49747458,-0.71387315,0.77480644,-0.62903225,0.6108466,0.44988447,0.47340044,-1.0695521,-2.1735837,-0.9665251,1.9025064,1.8820812,-0.87575185,0.5368591,-1.0284392,-2.1149504,-1.0301888,1.9561679,1.8256078,-0.9184211,-1.3886583,-0.87056404,-1.2653323,1.3826967,-0.92230374,0.45984077,0.23626027,-0.32964325,-0.52336884,0.6948906,-1.4230865,0.33829066,-0.45096084,-0.31401062,-0.5517044,0.6572604,0.9499037,0.009528055,0.18686365,0.25034806,-1.3879682,0.3768912,-0.5405394,0.0,1.0,0.0,0.0,0.0,0.0,0.0,-0.32035673,0.12336883,-0.1448906,1.2641191,-2.852857,4.082918,0.40988922,0.6778598,-0.46548247,1.7552823
-6.0090003,51.285076,11.957077,10.890806,0.9036415,0.38694936,0.1859825,-0.786503,-0.5461481,-0.7209491,0.7712476,-0.62321544,0.5807065,0.47168124,0.4582088,-1.083054,-2.1870453,-0.953064,1.8938464,1.8836784,-0.87125295,0.52297825,-1.0375086,-2.1275194,-1.0163603,1.9470407,1.830158,-0.91592073,-1.3881758,-0.91963357,-1.2527419,1.3832986,-0.9107805,0.45269874,0.25445464,-0.3437271,-0.51989746,0.6901178,-1.4032586,0.34980682,-0.48389927,-0.32791138,-0.5478134,0.6516556,0.9519918,0.014994803,0.19128491,0.2385304,-1.3868843,0.40394613,-0.56876785,0.0,1.0,0.0,0.0,0.0,0.0,0.0,-0.30627286,0.119897455,-0.14011776,-0.02207756,-5.056536,1.6635895,0.16288757,0.7528782,-0.90461373,1.752606
-1.7972324,57.744755,14.652215,11.030662,0.86091566,0.45112962,0.21073705,-0.7647696,-0.54071367,-0.67401356,0.7798794,-0.6174036,0.5981156,0.5131916,0.44650128,-1.0915799,-2.1949208,-0.9383724,1.8853003,1.8899696,-0.86460155,0.50916225,-1.0469824,-2.139848,-1.0025032,1.9380257,1.8346552,-0.9132286,-1.3798214,-0.95693165,-1.2247602,1.3868165,-0.8998584,0.44818303,0.2739332,-0.35757446,-0.5163269,0.6850951,-1.378123,0.35959443,-0.5061666,-0.34173584,-0.5436554,0.64584863,0.95387137,0.020620437,0.19542351,0.22696672,-1.3755656,0.4321427,-0.58623385,0.0,1.0,0.0,0.0,0.0,0.0,0.0,-0.2924255,0.1163269,-0.13509506,0.7249832,-3.8830876,3.2760382,0.3968954,0.6314039,-0.64023733,1.8624544
0.088537216,53.681007,13.604479,9.358419,0.782019,0.37920254,0.23232512,-0.7546951,-0.5851678,-0.6611183,0.77672535,-0.60763824,0.59006894,0.5213541,0.43369272,-1.1054991,-2.2059598,-0.9248306,1.8772619,1.8936621,-0.86109316,0.49546626,-1.0569216,-2.1518867,-0.98862624,1.929125,1.8391047,-0.9103525,-1.3664757,-1.0066241,-1.1952844,1.3881611,-0.8881303,0.44337025,0.29193157,-0.3711853,-0.5126648,0.6797808,-1.3541899,0.36794153,-0.53718096,-0.35544586,-0.5392456,0.6398117,0.9555531,0.026376259,0.19924045,0.21569836,-1.3632861,0.4560236,-0.611241,0.0,1.0,0.0,0.0,0.0,0.0,0.0,-0.27881467,0.11266479,-0.12978077,1.2299299,-5.1054835,3.3963442,0.19128323,0.74260235,-0.6585121,1.7335773
1.0893412,57.881336,14.549339,9.864351,0.735039,0.39323682,0.23210996,-0.74777925,-0.5868211,-0.65711004,0.77921593,-0.6140101,0.56213486,0.5471498,0.42068833,-1.1156037,-2.2175977,-0.9107047,1.867724,1.8953182,-0.85563755,0.48191875,-1.0672594,-2.1636736,-0.97473377,1.9203002,1.8434929,-0.90729904,-1.3512168,-1.0432752,-1.1715411,1.3897678,-0.8820672,0.43668136,0.3096222,-0.3845291,-0.508934,0.67419285,-1.3270472,0.37513137,-0.56295013,-0.36898804,-0.53458405,0.63356364,0.95703846,0.032275856,0.20278028,0.20473325,-1.345709,0.4796558,-0.6311404,0.0,1.0,0.0,0.0,0.0,0.0,0.0,-0.26547086,0.108934015,-0.124192834,1.4059782,-3.808999,2.857709,0.19242764,0.13955832,-0.8474469,1.6816258
4.1129384,53.872658,13.565235,7.706812,0.5380881,0.28907937,0.27217323,-0.72763807,-0.62715375,-0.6535126,0.7716415,-0.61610115,0.55192494,0.5559035,0.40915495,-1.1299748,-2.229025,-0.8975696,1.8586901,1.8986853,-0.8517087,0.46858677,-1.0780302,-2.1752813,-0.96086437,1.9115059,1.84781,-0.90408015,-1.3275994,-1.0886663,-1.1558257,1.386015,-0.87982213,0.42942584,0.32569605,-0.3976059,-0.5051422,0.6682841,-1.300656,0.38021353,-0.59715825,-0.38233185,-0.529747,0.62704897,0.9583298,0.038363744,0.20604083,0.19411173,-1.3245051,0.49688783,-0.66015434,0.0,1.0,0.0,0.0,0.0,0.0,0.0,-0.25239408,0.105142206,-0.118284106,2.242303,-4.6652555,2.0235062,-0.34472942,-0.2060175,-0.90542436,1.5290916
6.1438193,51.30824,13.111273,6.4674816,0.48281705,0.23720312,0.2897927,-0.7127985,-0.66427606,-0.6300403,0.772698,-0.6109501,0.5315034,0.57125515,0.39730692,-1.1444578,-2.2382853,-0.8835946,1.8504109,1.9009603,-0.84695464,0.4555209,-1.0893236,-2.1866903,-0.94703203,1.9027328,1.8520459,-0.90070814,-1.2999207,-1.1431979,-1.1342483,1.382485,-0.8776686,0.4209626,0.34089038,-0.4104309,-0.5013199,0.6620009,-1.2754602,0.3827086,-0.6360233,-0.39544678,-0.5247421,0.62021196,0.959442,0.044637434,0.2089725,0.18387188,-1.3020275,0.510464,-0.6934431,0.0,1.0,0.0,0.0,0.0,0.0,0.0,-0.23956907,0.10131988,-0.11200088,2.6492596,-5.568838,2.5995493,-0.31552315,-0.20042658,-1.0364711,1.4641702
19.290192,62.157173,18.578028,5.1476517,0.23931068,0.22594267,0.3640272,-0.654491,-0.65438163,-0.5860932,0.77428395,-0.61318946,0.5333816,0.59304756,0.3900718,-1.1547618,-2.2452996,-0.86960363,1.8414139,1.9053841,-0.84140337,0.44294512,-1.1010023,-2.1977181,-0.9332294,1.8939767,1.8562111,-0.8971856,-1.2442074,-1.1763679,-1.0905924,1.3791136,-0.87666565,0.41455472,0.35571036,-0.42290497,-0.49749756,0.6554823,-1.236118,0.38180026,-0.65419537,-0.4081726,-0.51969147,0.61317635,0.96036035,0.050957512,0.21162896,0.17413919,-1.255871,0.5150019,-0.7090474,0.0,1.0,0.0,0.0,0.0,0.0,0.0,-0.22709501,0.09749755,-0.10548228,5.359745,-3.4297466,4.9665213,-0.44851303,-0.4544735,-0.8172214,1.3655663
14.173086,61.032494,16.8031,6.420697,0.40659153,0.21523982,0.3141445,-0.66131836,-0.6801227,-0.5949453,0.7683827,-0.5969064,0.4813408,0.6010434,0.3768133,-1.1690146,-2.2572126,-0.85639113,1.8342861,1.9043452,-0.8370813,0.4308257,-1.1129957,-2.2084062,-0.9194762,1.8852701,1.8602791,-0.89352554,-1.2017697,-1.2074257,-1.059654,1.3739084,-0.8701263,0.4035852,0.36916736,-0.43501282,-0.4936905,0.64874727,-1.200456,0.38069314,-0.6770751,-0.42051697,-0.51457214,0.6059672,0.9611036,0.057332806,0.2140224,0.16488495,-1.2185639,0.52135575,-0.72700506,0.0,1.0,0.0,0.0,0.0,0.0,0.0,-0.21498716,0.093690485,-0.09874725,4.0651083,-3.227806,3.6569595,-0.57964325,0.1190424,-1.2961149,1.252228
22.151066,65.35353,19.122568,4.9587545,0.22289291,0.13453704,0.36480656,-0.60736513,-0.68354785,-0.5693959,0.75550455,-0.58759534,0.4309271,0.6069661,0.3700892,-1.1813505,-2.2653458,-0.8439258,1.8265105,1.9033718,-0.83282894,0.4192528,-1.1252142,-2.2187624,-0.9058309,1.8766589,1.8642099,-0.8897426,-1.1431867,-1.2270719,-1.02574,1.3608606,-0.8599989,0.38897052,0.38091558,-0.4467163,-0.48992157,0.6418469,-1.1579913,0.3755691,-0.69181514,-0.4323578,-0.5094452,0.5986234,0.9616798,0.06374871,0.21615775,0.15615343,-1.1688381,0.51875746,-0.73915386,0.0,1.0,0.0,0.0,0.0,0.0,0.0,-0.20328367,0.089921564,-0.09184688,5.6355,-2.079773,4.022503,-1.441741,0.41183233,-1.656878,1.0489225
19.142626,68.68717,18.846462,6.504462,0.35052612,0.123277426,0.3358191,-0.5978024,-0.6773502,-0.5715386,0.74006206,-0.56850404,0.33149835,0.62468815,0.35947257,-1.1929493,-2.2759163,-0.8318247,1.8198085,1.8973597,-0.8272738,0.4081911,-1.1375166,-2.2288787,-0.8923763,1.8681949,1.8679291,-0.8858445,-1.0945071,-1.2319435,-1.0051167,1.3399392,-0.8438331,0.36550775,0.3923394,-0.45798492,-0.48621368,0.6348244,-1.114979,0.36971152,-0.7039031,-0.4437561,-0.5043335,0.5911889,0.96210027,0.070253454,0.21805163,0.14792193,-1.12255,0.5168567,-0.74716556,0.0,1.0,0.0,0.0,0.0,0.0,0.0,-0.19201505,0.08621368,-0.08482438,4.654479,-0.613451,2.6970625,-2.222371,0.99453926,-2.5571942,1.0102391
24.10201,75.99195,22.092508,7.089543,0.6180943,0.19068539,0.324038,-0.5645182,-0.67648965,-0.4826857,0.7264223,-0.5037428,0.28839964,0.6324111,0.3517393,-1.2051656,-2.2771473,-0.8197341,1.8178207,1.896769,-0.8226034,0.39762768,-1.1498057,-2.2384605,-0.8791697,1.8600664,1.8713965,-0.8818385,-1.0444783,-1.2284079,-0.93995273,1.313573,-0.8047293,0.33972073,0.40297732,-0.4687729,-0.48257446,0.6277814,-1.0658275,0.36175022,-0.7019146,-0.45463562,-0.49925232,0.5838028,0.9624092,0.07665456,0.21962461,0.14020523,-1.0711375,0.5140032,-0.7378823,0.0,1.0,0.0,0.0,0.0,0.0,0.0,-0.18122709,0.08257446,-0.07778138,4.753518,0.22711754,7.259059,-2.8251648,3.1788468,-2.80357,0.94495416
22.37034,75.69473,22.029612,7.5792246,1.0292484,0.15915251,0.27495265,-0.55999523,-0.6905094,-0.4138204,0.6930897,-0.39800787,0.07062426,0.6287918,0.34162816,-1.2188566,-2.2798426,-0.8098607,1.8202657,1.878459,-0.8189593,0.38745195,-1.1621042,-2.2471273,-0.8663312,1.852612,1.8744634,-0.87773967,-1.0093279,-1.2306336,-0.8401933,1.2733152,-0.72806686,0.29488167,0.41199583,-0.47909546,-0.4790268,0.62075496,-1.0201606,0.3530124,-0.70073384,-0.46508026,-0.49417877,0.57654905,0.96269983,0.0827526,0.22063304,0.13297422,-1.028781,0.512907,-0.72330195,0.0,1.0,0.0,0.0,0.0,0.0,0.0,-0.17090452,0.07902679,-0.070754945,3.2858372,-0.34279823,10.709715,-4.187989,6.9224834,-4.7142324,0.8420706
21.85115,82.681435,24.837563,9.435687,1.9084723,0.24085605,0.18091649,-0.5673189,-0.6815384,-0.25860426,0.6384486,-0.15643612,-0.22683866,0.63729817,0.33072007,-1.2302581,-2.2729876,-0.80248636,1.8369684,1.8517796,-0.81400985,0.37746313,-1.1743857,-2.254214,-0.8540879,1.8465722,1.8768828,-0.87355316,-0.99614596,-1.2276987,-0.6618756,1.2073756,-0.5651864,0.22343522,0.4209648,-0.48896027,-0.4755478,0.61382437,-0.9739591,0.34532714,-0.68778133,-0.47518158,-0.4890442,0.5696188,0.9631389,0.08814609,0.22062698,0.12616396,-0.9961644,0.5197195,-0.6847114,0.0,1.0,0.0,0.0,0.0,0.0,0.0,-0.16103971,0.075547785,-0.063824356,1.0915041,0.17585754,18.621826,-6.767559,15.455782,-7.3868694,0.9098649
19.39786,82.04369,25.156391,9.053394,2.7599862,0.34251165,0.10108065,-0.59015787,-0.684512,-0.12087621,0.5275749,0.21414194,-0.38547626,0.61628884,0.31844735,-1.2428368,-2.2663016,-0.8013304,1.8679863,1.8383352,-0.8119243,0.3673994,-1.186648,-2.2591116,-0.8429259,1.8431258,1.8785057,-0.8693001,-1.0104148,-1.2260994,-0.43021464,1.0853028,-0.27352265,0.14113323,0.42706516,-0.4984131,-0.4721222,0.6069959,-0.9348528,0.34086147,-0.67836624,-0.4850464,-0.4837494,0.5631422,0.96395147,0.09231701,0.21895824,0.1197175,-0.9785756,0.5381759,-0.63721883,0.0,1.0,0.0,0.0,0.0,0.0,0.0,-0.15158689,0.07212219,-0.05699587,-1.6123533,0.060653687,23.867237,-12.355757,28.40411,-8.47817,0.7050097
23.403576,88.47469,28.766651,9.358787,3.23402,0.5685276,0.06242708,-0.60240734,-0.68644875,0.13159586,0.45736307,0.352092,-0.4642185,0.59749913,0.30715865,-1.2552929,-2.2459521,-0.7971896,1.878335,1.8320838,-0.8095502,0.3570882,-1.1989083,-2.260931,-0.8331583,1.8427194,1.8793181,-0.8650089,-1.0385771,-1.2262367,-0.0967426,0.9400627,0.034526404,0.06055532,0.43017232,-0.5074234,-0.46875763,0.60039586,-0.8897102,0.33574742,-0.65267324,-0.49471283,-0.47824097,0.5572918,0.96527517,0.09471247,0.21530508,0.11365344,-0.9569006,0.56230795,-0.569433,0.0,1.0,0.0,0.0,0.0,0.0,0.0,-0.14257658,0.06875762,-0.050395846,-2.9752254,-0.105166435,34.03367,-14.674032,30.07099,-8.233393,0.4063964
42.575478,98.85215,35.013096,7.7875834,2.9840364,0.502784,0.08579758,-0.5312813,-0.67586076,0.3361616,0.44911483,0.43707094,-0.4970954,0.5936821,0.30396008,-1.2664944,-2.227315,-0.7882468,1.8864266,1.8296086,-0.8056407,0.34684902,-1.2111268,-2.2590384,-0.8246008,1.8451226,1.8793935,-0.86069804,-1.0195689,-1.2205315,0.28720748,0.8271154,0.3068199,-0.0104082525,0.43143868,-0.5158615,-0.46551514,0.5942681,-0.8273406,0.32083967,-0.5972963,-0.5039673,-0.4726181,0.5522754,0.967102,0.09493576,0.2098117,0.108073816,-0.9122861,0.5672003,-0.4809551,0.0,1.0,0.0,0.0,0.0,0.0,0.0,-0.13413846,0.06551513,-0.04426807,1.7440557,0.46842098,39.119003,-11.467039,26.540398,-7.1553426,0.13411641
38.339645,99.128235,32.274025,10.462556,2.6159267,0.27608934,0.005780626,-0.5072036,-0.65463626,0.33706498,0.46157736,0.5189839,-0.5192218,0.60725147,0.29612866,-1.2765905,-2.225332,-0.7784431,1.8970209,1.8274713,-0.7999729,0.3369814,-1.223187,-2.2541182,-0.8167416,1.8498673,1.8788295,-0.85637045,-0.97607285,-1.2017083,0.5620329,0.77212745,0.5287399,-0.071571425,0.4330644,-0.52368164,-0.46243286,0.58871925,-0.7674432,0.30359328,-0.54268,-0.5128555,-0.4670105,0.5480668,0.96929854,0.0932546,0.20294207,0.10285141,-0.874743,0.5653888,-0.4031712,0.0,1.0,0.0,0.0,0.0,0.0,0.0,-0.12631834,0.062432855,-0.038719237,4.272008,1.7707348,28.016163,-5.5380583,21.740383,-6.1046996,0.14048815
37.81112,98.10242,30.235704,10.048733,2.018469,0.14537033,0.062557146,-0.48240685,-0.62819844,0.41965884,0.3994265,0.5900549,-0.5111168,0.6141022,0.2887407,-1.2860068,-2.2121522,-0.77679896,1.9088728,1.8277178,-0.79496026,0.3276478,-1.2349458,-2.2470427,-0.8094013,1.8564621,1.877741,-0.8520242,-0.9192562,-1.1678458,0.7573349,0.72152275,0.7018,-0.121040925,0.434996,-0.53089905,-0.45954895,0.58370346,-0.7077503,0.28373483,-0.4902838,-0.52130127,-0.46146393,0.5445308,0.97170997,0.090101056,0.19511048,0.09794528,-0.833434,0.55568916,-0.33981746,0.0,1.0,0.0,0.0,0.0,0.0,0.0,-0.11910093,0.059548944,-0.033703446,5.639732,3.2711506,19.946384,-5.0184608,16.991747,-4.866633,0.15999675
23.582478,96.83675,25.705833,12.875254,1.7184167,0.16653533,0.061667297,-0.49866036,-0.58450395,0.4422894,0.3436522,0.6275476,-0.49904835,0.6192134,0.27778178,-1.2933961,-2.2028136,-0.77503604,1.9192169,1.8278362,-0.79010284,0.31871104,-1.246203,-2.238716,-0.80263996,1.8644116,1.8762326,-0.8476553,-0.8851056,-1.1119915,0.85868084,0.66142094,0.8254197,-0.16033404,0.43747142,-0.53756714,-0.45684052,0.57915235,-0.6548102,0.26721263,-0.44730887,-0.52939606,-0.4559784,0.5415076,0.97419256,0.085998066,0.18668428,0.093284674,-0.80068827,0.55395657,-0.29261774,0.0,1.0,0.0,0.0,0.0,0.0,0.0,-0.11243284,0.05684051,-0.029152334,3.4258366,5.4913044,10.308099,-5.8859468,12.276292,-3.7913918,0.2569139
19.868433,97.54898,24.051529,12.886983,1.2625396,0.18212652,0.13787702,-0.48154616,-0.53606516,0.47529608,0.27752262,0.6519285,-0.46065786,0.61812246,0.27055642,-1.2998095,-2.1911862,-0.7748877,1.9296044,1.8301668,-0.7858431,0.31005642,-1.2567544,-2.229791,-0.796652,1.8732882,1.8744168,-0.8432633,-0.8588321,-1.0362822,0.90395236,0.5785014,0.90811634,-0.18817973,0.4398319,-0.5437088,-0.45429993,0.5750285,-0.6023924,0.25058302,-0.40588525,-0.53713226,-0.45049286,0.5388869,0.9766329,0.0813443,0.17795764,0.08889473,-0.7630213,0.5507504,-0.25475252,0.0,1.0,0.0,0.0,0.0,0.0,0.0,-0.106291175,0.05429992,-0.025028467,2.651167,7.4888945,4.57536,-8.138037,8.315504,-2.5872588,0.27196407
19.996984,90.514725,22.015484,10.076352,0.8246699,0.15280381,0.23732132,-0.46969688,-0.5245971,0.5292004,0.2037413,0.6680838,-0.43213755,0.60752016,0.26308674,-1.3092141,-2.1768708,-0.7762779,1.9400965,1.8312031,-0.7825113,0.30161604,-1.2666249,-2.2204921,-0.7916856,1.8827534,1.8723874,-0.8388578,-0.83900714,-0.9708455,0.93865335,0.4699322,0.95947754,-0.20731749,0.44102332,-0.54935455,-0.45192719,0.57124585,-0.5535861,0.23415641,-0.37492368,-0.5444641,-0.44509125,0.5365205,0.97897625,0.07634442,0.1690299,0.08488705,-0.7218319,0.543008,-0.23339453,0.0,1.0,0.0,0.0,0.0,0.0,0.0,-0.10064542,0.05192718,-0.021245837,2.0128608,6.4724326,3.444612,-10.694814,5.2464843,-1.6930372,0.18498898
39.654377,75.0102,21.005919,-2.696256,-0.47788078,-0.06428257,0.6260836,-0.42927548,-0.5131023,0.56712306,-0.013895999,0.70234805,-0.4176473,0.5935799,0.2586885,-1.3179351,-2.1637797,-0.7930752,1.9529881,1.8306227,-0.7794998,0.29348695,-1.2759728,-2.2108223,-0.7886216,1.8926445,1.870213,-0.8344517,-0.80427176,-0.92309743,0.9767613,0.2523799,0.99899215,-0.21987866,0.44069916,-0.55449677,-0.44976044,0.56760424,-0.50327605,0.21121268,-0.3658844,-0.5511627,-0.43997955,0.5341046,0.98120177,0.07112454,0.15970393,0.08172511,-0.6525013,0.5051109,-0.24698503,0.0,1.0,0.0,0.0,0.0,0.0,0.0,-0.09550321,0.04976043,-0.017604232,3.4608483,4.685521,3.804803,-21.6204,4.036534,-0.96304715,0.04528761
40.794983,66.936104,18.674644,-7.0589585,-1.0279057,-0.10712257,0.781685,-0.4400958,-0.47973132,0.5514921,-0.172415,0.7130495,-0.3600472,0.5787249,0.24947737,-1.323946,-2.155673,-0.8058631,1.9639494,1.8342084,-0.7765792,0.28559878,-1.2848649,-2.200944,-0.7882051,1.9028424,1.8679781,-0.83005905,-0.7836057,-0.8782285,0.9909442,-0.027957378,1.0271491,-0.22357245,0.4391897,-0.5591583,-0.44782257,0.5639238,-0.45656434,0.18847138,-0.37420186,-0.5571213,-0.43530273,0.53139794,0.98328674,0.06585696,0.14985543,0.079708286,-0.57646817,0.45979622,-0.28110623,0.0,1.0,0.0,0.0,0.0,0.0,0.0,-0.09084165,0.047822565,-0.013923764,2.076733,4.406941,1.2568474,-27.862677,3.0273676,-0.041782856,-0.00820756
43.101013,57.47906,16.64555,-10.518306,-1.3660485,-0.20168757,0.8500478,-0.42173985,-0.48574197,0.5586457,-0.30006668,0.7243666,-0.27774337,0.58828986,0.2434248,-1.3334391,-2.1450794,-0.81821173,1.9752791,1.8402038,-0.77123004,0.27792317,-1.2934728,-2.1909888,-0.7906868,1.9132648,1.8657808,-0.8256731,-0.76207066,-0.85533965,0.99616694,-0.32086074,1.0480862,-0.21729292,0.43901962,-0.56340027,-0.44610596,0.56002456,-0.4148738,0.16605261,-0.3997818,-0.5623245,-0.4311142,0.5282167,0.9852168,0.060635105,0.1394154,0.078958705,-0.49964848,0.40740082,-0.33258304,0.0,1.0,0.0,0.0,0.0,0.0,0.0,-0.08659971,0.04610595,-0.010024548,2.1962404,2.215469,0.2643466,-29.071903,2.3760557,0.932914,0.18621087
