Afshin1997/kuka_rl_ros2/src/catch_and_throw/output_files/tm/nn_ema5.00_jvws1_realball_D22H18M12S56/recorded_data.csv
pure_target_joint_0,pure_target_joint_1,pure_target_joint_2,pure_target_joint_3,pure_target_joint_4,pure_target_joint_5,pure_target_joint_6,target_joint_0,target_joint_1,target_joint_2,target_joint_3,target_joint_4,target_joint_5,target_joint_6,pos_joint_0,pos_joint_1,pos_joint_2,pos_joint_3,pos_joint_4,pos_joint_5,pos_joint_6,vel_joint_0,vel_joint_1,vel_joint_2,vel_joint_3,vel_joint_4,vel_joint_5,vel_joint_6,vel_smooth_joint_0,vel_smooth_joint_1,vel_smooth_joint_2,vel_smooth_joint_3,vel_smooth_joint_4,vel_smooth_joint_5,vel_smooth_joint_6,ee_pos_x,ee_pos_y,ee_pos_z,ee_or_w,ee_or_x,ee_or_y,ee_or_z,ee_vel_x,ee_vel_y,ee_vel_z,ball_pos_x,ball_pos_y,ball_pos_z,ball_raw_vx,ball_raw_vy,ball_raw_vz,ball_ema_vx,ball_ema_vy,ball_ema_vz,action_0,action_1,action_2,action_3,action_4,action_5,action_6,command_published
1.8403,-1.11486,-1.79213,-1.0496,2.00641,1.18219,-0.959163,1.8403,-1.11486,-1.79213,-1.0496,2.00641,1.18219,-0.959163,1.78026,-1.06467,-1.81524,-1.11695,1.9373,1.11682,-0.916337,0,0,0,0,0,0,0,0,0,0,0,0,0,0,0.53106,-0.454486,0.694258,0.574588,0.175229,0.152607,0.784764,0,0,0,0.571349,-2.25538,0.156876,0.000640335,-0.0131726,0.00276063,-0.00470996,-0.0055933,-0.239005,0.600486,-0.501942,0.231141,0.67356,0.691148,0.653681,-0.428261,1
1.84123,-1.11101,-1.81619,-1.05094,1.99568,1.18895,-0.948403,1.84123,-1.11101,-1.81619,-1.05094,1.99568,1.18895,-0.948403,1.78026,-1.06467,-1.81524,-1.11695,1.9373,1.11682,-0.916337,0,0,0,0,0,0,0,0,0,0,0,0,0,0,0.53106,-0.454486,0.694258,0.574588,0.175229,0.152607,0.784764,0,0,0,0.572249,-2.25793,0.155088,0.00899982,-0.0255182,-0.0178914,0.0211823,-0.0371695,-0.264274,0.609706,-0.463476,-0.00951901,0.660171,0.583807,0.721258,-0.32066,1
1.84125,-1.11087,-1.82363,-1.05146,1.99826,1.18866,-0.949146,1.84125,-1.11087,-1.82363,-1.05146,1.99826,1.18866,-0.949146,1.78026,-1.06467,-1.81524,-1.11695,1.9373,1.11682,-0.916337,0,0,0,0,0,0,0,0,0,0,0,0,0,0,0.53106,-0.454486,0.694258,0.574588,0.175229,0.152607,0.784764,0,0,0,0.572249,-2.25793,0.155088,0.00899982,-0.0255182,-0.0178914,0.0211823,-0.0371695,-0.514274,0.609979,-0.462069,-0.0839199,0.654914,0.609672,0.718332,-0.328089,1
1.84102,-1.10851,-1.83462,-1.04993,1.99362,1.18982,-0.95285,1.84102,-1.10851,-1.83462,-1.04993,1.99362,1.18982,-0.95285,1.78026,-1.06467,-1.81524,-1.11695,1.9373,1.11682,-0.916337,0,0,0,0,0,0,0,0,0,0,0,0,0,0,0.53106,-0.454486,0.694258,0.574588,0.175229,0.152607,0.784764,0,0,0,0.572391,-2.25767,0.154895,0.0149481,0.0270215,-0.0202193,0.0292814,-0.0788593,-0.306491,0.607604,-0.438419,-0.193798,0.670267,0.563241,0.729971,-0.365127,1
1.8411,-1.1079,-1.84088,-1.0496,1.99141,1.1903,-0.953865,1.8411,-1.1079,-1.84088,-1.0496,1.99141,1.1903,-0.953865,1.78026,-1.06467,-1.81524,-1.11695,1.9373,1.11682,-0.916337,0,0,0,0,0,0,0,0,0,0,0,0,0,0,0.53106,-0.454486,0.694258,0.574588,0.175229,0.152607,0.784764,0,0,0,0.572447,-2.25786,0.154506,0.00558067,-0.0183806,-0.0387025,0.0325,-0.0748825,-0.316702,0.608477,-0.432307,-0.25639,0.673491,0.541121,0.734735,-0.375282,1
1.84149,-1.10842,-1.84276,-1.04961,1.98933,1.19018,-0.95436,1.84149,-1.10842,-1.84276,-1.04961,1.98933,1.19018,-0.95436,1.78026,-1.06467,-1.81524,-1.11695,1.9373,1.11682,-0.916337,0,0,0,0,0,0,0,0,0,0,0,0,0,0,0.53106,-0.454486,0.694258,0.574588,0.175229,0.152607,0.784764,0,0,0,0.572568,-2.25778,0.154189,0.0122348,0.00732638,-0.0321617,0.0263608,-0.047369,-0.309551,0.612364,-0.437534,-0.275236,0.673392,0.520305,0.73354,-0.38023,1
1.84163,-1.10897,-1.8426,-1.04984,1.98889,1.18987,-0.953985,1.84163,-1.10897,-1.8426,-1.04984,1.98889,1.18987,-0.953985,1.78026,-1.06467,-1.81524,-1.11695,1.9373,1.11682,-0.916337,0,0,0,0,0,0,0,0,0,0,0,0,0,0,0.53106,-0.454486,0.694258,0.574588,0.175229,0.152607,0.784764,0,0,0,0.572626,-2.25772,0.153767,0.00588654,0.00619257,-0.0424779,0.00931978,0.00301838,-0.283467,0.613708,-0.443,-0.273544,0.671135,0.515946,0.730456,-0.376479,1
1.84186,-1.10914,-1.8426,-1.04984,1.9885,1.18986,-0.954065,1.84186,-1.10914,-1.8426,-1.04984,1.9885,1.18986,-0.954065,1.78026,-1.06467,-1.81524,-1.11695,1.9373,1.11682,-0.916337,0,0,0,0,0,0,0,0,0,0,0,0,0,0,0.53106,-0.454486,0.694258,0.574588,0.175229,0.152607,0.784764,0,0,0,0.572645,-2.25779,0.153301,0.00186843,-0.0062986,-0.0460056,0.00687242,-0.000958443,-0.289277,0.616079,-0.444779,-0.273632,0.671075,0.51208,0.730355,-0.377279,1
1.84201,-1.10917,-1.84318,-1.0498,1.9882,1.18997,-0.954107,1.84201,-1.10917,-1.84318,-1.0498,1.9882,1.18997,-0.954107,1.78026,-1.06467,-1.81524,-1.11695,1.9373,1.11682,-0.916337,0,0,0,0,0,0,0,0,0,0,0,0,0,0,0.53106,-0.454486,0.694258,0.574588,0.175229,0.152607,0.784764,0,0,0,0.572466,-2.2585,0.152616,-0.0177175,-0.0700229,-0.0675347,0.00114441,-0.0128126,-0.296688,0.617582,-0.445017,-0.279418,0.671543,0.509097,0.731427,-0.377698,1
1.84217,-1.10921,-1.84391,-1.04975,1.98775,1.1901,-0.954234,1.84217,-1.10921,-1.84391,-1.04975,1.98775,1.1901,-0.954234,1.78026,-1.06467,-1.81524,-1.11695,1.9373,1.11682,-0.916337,0,0,0,0,0,0,0,0,0,0,0,0,0,0,0.53106,-0.454486,0.694258,0.574588,0.175229,0.152607,0.784764,0,0,0,0.572489,-2.25871,0.152055,0.00232493,-0.0218112,-0.0564004,-0.00318527,-0.0263071,-0.30419,0.619156,-0.445411,-0.286648,0.672053,0.504538,0.732796,-0.37897,1
1.84219,-1.1095,-1.84296,-1.04986,1.98814,1.18992,-0.954004,1.84219,-1.1095,-1.84296,-1.04986,1.98814,1.18992,-0.954004,1.78026,-1.06467,-1.81524,-1.11695,1.9373,1.11682,-0.916337,0,0,0,0,0,0,0,0,0,0,0,0,0,0,0.53106,-0.454486,0.694258,0.574588,0.175229,0.152607,0.784764,0,0,0,0.572697,-2.2571,0.151633,0.0199315,0.154288,-0.0404743,-0.00015378,0.00312328,-0.305141,0.61934,-0.448331,-0.277179,0.670886,0.508442,0.730974,-0.376672,1
1.84211,-1.10958,-1.84197,-1.04997,1.98859,1.18977,-0.953769,1.84211,-1.10958,-1.84197,-1.04997,1.98859,1.18977,-0.953769,1.78026,-1.06467,-1.81524,-1.11695,1.9373,1.11682,-0.916337,0,0,0,0,0,0,0,0,0,0,0,0,0,0,0.53106,-0.454486,0.694258,0.574588,0.175229,0.152607,0.784764,0,0,0,0.572586,-2.25753,0.150889,-0.0107633,-0.0414536,-0.0723874,0.00112772,0.0190687,-0.308074,0.61852,-0.449175,-0.267283,0.669869,0.512961,0.729419,-0.374323,1
1.84203,-1.10959,-1.8412,-1.05,1.98917,1.18967,-0.953589,1.84203,-1.10959,-1.8412,-1.05,1.98917,1.18967,-0.953589,1.78026,-1.06467,-1.81524,-1.11695,1.9373,1.11682,-0.916337,0,0,0,0,0,0,0,0,0,0,0,0,0,0,0.53106,-0.454486,0.694258,0.574588,0.175229,0.152607,0.784764,0,0,0,0.572489,-2.25771,0.150221,-0.00995603,-0.0184521,-0.0687414,0.00144601,0.0275755,-0.309581,0.617784,-0.449275,-0.259596,0.669543,0.518774,0.728425,-0.372523,1
1.84198,-1.10955,-1.8411,-1.04997,1.98936,1.18966,-0.953552,1.84198,-1.10955,-1.8411,-1.04997,1.98936,1.18966,-0.953552,1.78026,-1.06467,-1.81524,-1.11695,1.9373,1.11682,-0.916337,0,0,0,0,0,0,0,0,0,0,0,0,0,0,0.53106,-0.454486,0.694258,0.574588,0.175229,0.152607,0.784764,0,0,0,0.572503,-2.25723,0.149617,0.00137456,0.0476831,-0.0599624,-0.00178695,0.0236177,-0.312881,0.617224,-0.44887,-0.258555,0.669862,0.520698,0.728373,-0.37215,1
1.84195,-1.10944,-1.84217,-1.04986,1.98896,1.18982,-0.953646,1.84195,-1.10944,-1.84217,-1.04986,1.98896,1.18982,-0.953646,1.78026,-1.06467,-1.81524,-1.11695,1.9373,1.11682,-0.916337,0,0,0,0,0,0,0,0,0,0,0,0,0,0,0.53106,-0.454486,0.694258,0.574588,0.175229,0.152607,0.784764,0,0,0,0.572393,-2.25724,0.14904,-0.011034,-0.000740376,-0.0578717,-0.00690341,0.000333786,-0.314577,0.616954,-0.447708,-0.269249,0.670954,0.516677,0.729968,-0.373093,1
1.84199,-1.10958,-1.84187,-1.04992,1.98914,1.18977,-0.95358,1.84199,-1.10958,-1.84187,-1.04992,1.98914,1.18977,-0.95358,1.78026,-1.06467,-1.81524,-1.11695,1.9373,1.11682,-0.916337,0,0,0,0,0,0,0,0,0,0,0,0,0,0,0.53106,-0.454486,0.694258,0.574588,0.175229,0.152607,0.784764,0,0,0,0.572334,-2.25701,0.148346,-0.00580552,0.0220445,-0.0684768,-0.0059998,0.0150442,-0.312651,0.617377,-0.449187,-0.26626,0.670344,0.518495,0.72947,-0.372429,1
1.84199,-1.10962,-1.84167,-1.04996,1.98909,1.18973,-0.953593,1.84199,-1.10962,-1.84167,-1.04996,1.98909,1.18973,-0.953593,1.78026,-1.06467,-1.81524,-1.11695,1.9373,1.11682,-0.916337,0,0,0,0,0,0,0,0,0,0,0,0,0,0,0.53106,-0.454486,0.694258,0.574588,0.175229,0.152607,0.784764,0,0,0,0.572277,-2.2569,0.147565,-0.00576726,0.0110047,-0.0789055,-0.00593305,0.0182438,-0.315817,0.617376,-0.44952,-0.264321,0.669917,0.517976,0.729097,-0.372555,1
1.842,-1.10963,-1.84208,-1.04993,1.98896,1.18979,-0.953572,1.842,-1.10963,-1.84208,-1.04993,1.98896,1.18979,-0.953572,1.78026,-1.06467,-1.81524,-1.11695,1.9373,1.11682,-0.916337,0,0,0,0,0,0,0,0,0,0,0,0,0,0,0.53106,-0.454486,0.694258,0.574588,0.175229,0.152607,0.784764,0,0,0,0.572103,-2.25693,0.146762,-0.0172305,-0.002427,-0.0793635,-0.00916719,0.00932693,-0.321848,0.617456,-0.449639,-0.268404,0.67025,0.516683,0.729698,-0.372347,1
1.84208,-1.10969,-1.84261,-1.04989,1.9887,1.18988,-0.953621,1.84208,-1.10969,-1.84261,-1.04989,1.9887,1.18988,-0.953621,1.78026,-1.06467,-1.81524,-1.11695,1.9373,1.11682,-0.916337,0,0,0,0,0,0,0,0,0,0,0,0,0,0,0.53106,-0.454486,0.694258,0.574588,0.175229,0.152607,0.784764,0,0,0,0.571912,-2.25727,0.145966,-0.0188112,-0.0333112,-0.0786489,-0.0119257,0.000252724,-0.327311,0.618191,-0.450256,-0.273688,0.670624,0.514037,0.730563,-0.372837,1
1.84213,-1.10973,-1.84294,-1.04989,1.98846,1.18992,-0.953669,1.84213,-1.10973,-1.84294,-1.04989,1.98846,1.18992,-0.953669,1.78026,-1.06467,-1.81524,-1.11695,1.9373,1.11682,-0.916337,0,0,0,0,0,0,0,0,0,0,0,0,0,0,0.53106,-0.454486,0.694258,0.574588,0.175229,0.152607,0.784764,0,0,0,0.57178,-2.2569,0.14529,-0.0135549,0.0371555,-0.0692454,-0.0147319,-0.00141621,-0.32712,0.618772,-0.450657,-0.276991,0.670607,0.51169,0.730986,-0.373315,1
1.84214,-1.10977,-1.84295,-1.04991,1.98839,1.1899,-0.95367,1.84214,-1.10977,-1.84295,-1.04991,1.98839,1.1899,-0.95367,1.78026,-1.06467,-1.81524,-1.11695,1.9373,1.11682,-0.916337,0,0,0,0,0,0,0,0,0,0,0,0,0,0,0.53106,-0.454486,0.694258,0.574588,0.175229,0.152607,0.784764,0,0,0,0.571537,-2.2567,0.144667,-0.0237271,0.0198694,-0.06075,-0.0180376,0.00435829,-0.322692,0.618873,-0.451012,-0.277117,0.670403,0.510985,0.730774,-0.373333,1
1.84213,-1.10975,-1.84298,-1.04992,1.98835,1.18988,-0.953687,1.84213,-1.10975,-1.84298,-1.04992,1.98835,1.18988,-0.953687,1.78026,-1.06467,-1.81524,-1.11695,1.9373,1.11682,-0.916337,0,0,0,0,0,0,0,0,0,0,0,0,0,0,0.53106,-0.454486,0.694258,0.574588,0.175229,0.152607,0.784764,0,0,0,0.57111,-2.25681,0.144026,-0.0412069,-0.0103305,-0.0617989,-0.0236213,0.00811577,-0.317713,0.618696,-0.450854,-0.277347,0.670371,0.51059,0.730602,-0.373496,1
1.84208,-1.10981,-1.84239,-1.04999,1.98872,1.18978,-0.953528,1.84208,-1.10981,-1.84239,-1.04999,1.98872,1.18978,-0.953528,1.78026,-1.06467,-1.81524,-1.11695,1.9373,1.11682,-0.916337,0,0,0,0,0,0,0,0,0,0,0,0,0,0,0.53106,-0.454486,0.694258,0.574588,0.175229,0.152607,0.784764,0,0,0,0.570783,-2.25602,0.143473,-0.0350171,0.0845879,-0.0593393,-0.0292945,0.0259447,-0.312507,0.618253,-0.451484,-0.271508,0.66965,0.514293,0.729582,-0.371908,1
1.84202,-1.10975,-1.84252,-1.04996,1.98871,1.18978,-0.953579,1.84202,-1.10975,-1.84252,-1.04996,1.98871,1.18978,-0.953579,1.78026,-1.06467,-1.81524,-1.11695,1.9373,1.11682,-0.916337,0,0,0,0,0,0,0,0,0,0,0,0,0,0,0.53106,-0.454486,0.694258,0.574588,0.175229,0.152607,0.784764,0,0,0,0.570189,-2.25603,0.142785,-0.0576846,-0.00166866,-0.0668245,-0.0393486,0.0241947,-0.312034,0.617647,-0.45089,-0.27275,0.669924,0.514147,0.729592,-0.372416,1
1.842,-1.10978,-1.84288,-1.04994,1.98868,1.18982,-0.953533,1.842,-1.10978,-1.84288,-1.04994,1.98868,1.18982,-0.953533,1.78026,-1.06467,-1.81524,-1.11695,1.9373,1.11682,-0.916337,0,0,0,0,0,0,0,0,0,0,0,0,0,0,0.53106,-0.454486,0.694258,0.574588,0.175229,0.152607,0.784764,0,0,0,0.569605,-2.25599,0.142027,-0.0601885,0.00429611,-0.0780327,-0.0478351,0.0218534,-0.315196,0.617406,-0.451193,-0.276368,0.670143,0.513822,0.730002,-0.371957,1
1.84204,-1.10981,-1.84358,-1.04989,1.98829,1.18993,-0.953623,1.84204,-1.10981,-1.84358,-1.04989,1.98829,1.18993,-0.953623,1.78026,-1.06467,-1.81524,-1.11695,1.9373,1.11682,-0.916337,0,0,0,0,0,0,0,0,0,0,0,0,0,0,0.53106,-0.454486,0.694258,0.574588,0.175229,0.152607,0.784764,0,0,0,0.568996,-2.25629,0.141187,-0.0610474,-0.0302726,-0.084245,-0.0540459,0.0104856,-0.321231,0.61784,-0.45143,-0.283411,0.670589,0.509941,0.73103,-0.372856,1
1.84209,-1.10995,-1.84334,-1.04996,1.98836,1.18988,-0.953531,1.84209,-1.10995,-1.84334,-1.04996,1.98836,1.18988,-0.953531,1.78026,-1.06467,-1.81524,-1.11695,1.9373,1.11682,-0.916337,0,0,0,0,0,0,0,0,0,0,0,0,0,0,0.53106,-0.454486,0.694258,0.574588,0.175229,0.152607,0.784764,0,0,0,0.568599,-2.25472,0.140629,-0.0394031,0.156407,-0.0554002,-0.0556159,0.0234079,-0.322861,0.618375,-0.452877,-0.281001,0.669934,0.51069,0.73052,-0.371943,1
1.84205,-1.11005,-1.84239,-1.05008,1.98882,1.18974,-0.953271,1.84205,-1.11005,-1.84239,-1.05008,1.98882,1.18974,-0.953271,1.78026,-1.06467,-1.81524,-1.11695,1.9373,1.11682,-0.916337,0,0,0,0,0,0,0,0,0,0,0,0,0,0,0.53106,-0.454486,0.694258,0.574588,0.175229,0.152607,0.784764,0,0,0,0.568052,-2.25452,0.139868,-0.0533797,0.0191232,-0.0742012,-0.0528169,0.0430346,-0.322332,0.617911,-0.453886,-0.271515,0.668674,0.515206,0.729136,-0.36934,1
1.84195,-1.11013,-1.84129,-1.05018,1.98947,1.18958,-0.953016,1.84195,-1.11013,-1.84129,-1.05018,1.98947,1.18958,-0.953016,1.78026,-1.06467,-1.81524,-1.11695,1.9373,1.11682,-0.916337,0,0,0,0,0,0,0,0,0,0,0,0,0,0,0.53106,-0.454486,0.694258,0.574588,0.175229,0.152607,0.784764,0,0,0,0.567587,-2.25394,0.139029,-0.0469201,0.0581403,-0.0846535,-0.049808,0.0586939,-0.323153,0.616941,-0.454613,-0.260452,0.667717,0.521714,0.727517,-0.366788,1
1.8419,-1.11012,-1.84074,-1.05019,1.98988,1.18952,-0.952925,1.8419,-1.11012,-1.84074,-1.05019,1.98988,1.18952,-0.952925,1.78026,-1.06467,-1.81524,-1.11695,1.9373,1.11682,-0.916337,0,0,0,0,0,0,0,0,0,0,0,0,0,0,0.53106,-0.454486,0.694258,0.574588,0.175229,0.152607,0.784764,0,0,0,0.567192,-2.25364,0.138155,-0.0391156,0.0305125,-0.0866836,-0.0461996,0.060873,-0.326641,0.616417,-0.454598,-0.255014,0.667634,0.525824,0.726925,-0.365881,1
1.84192,-1.11005,-1.84138,-1.05008,1.98967,1.18964,-0.953051,1.84192,-1.11005,-1.84138,-1.05008,1.98967,1.18964,-0.953051,1.78026,-1.06467,-1.81524,-1.11695,1.9373,1.11682,-0.916337,0,0,0,0,0,0,0,0,0,0,0,0,0,0,0.53106,-0.454486,0.694258,0.574588,0.175229,0.152607,0.784764,0,0,0,0.56682,-2.25313,0.137206,-0.0371917,0.0501212,-0.0948859,-0.0441658,0.0404596,-0.335587,0.616676,-0.453837,-0.261436,0.668723,0.523776,0.728183,-0.367139,1
1.84199,-1.1102,-1.84134,-1.05011,1.98974,1.18965,-0.952928,1.84199,-1.1102,-1.84134,-1.05011,1.98974,1.18965,-0.952928,1.78026,-1.06467,-1.81524,-1.11695,1.9373,1.11682,-0.916337,0,0,0,0,0,0,0,0,0,0,0,0,0,0,0.53106,-0.454486,0.694258,0.574588,0.175229,0.152607,0.784764,0,0,0,0.566431,-2.25274,0.136241,-0.0392541,0.039741,-0.0973119,-0.0400829,0.0436783,-0.340784,0.617322,-0.455344,-0.261039,0.668382,0.524473,0.728239,-0.365906,1
1.84203,-1.11022,-1.84168,-1.05009,1.98944,1.1897,-0.953004,1.84203,-1.11022,-1.84168,-1.05009,1.98944,1.1897,-0.953004,1.78026,-1.06467,-1.81524,-1.11695,1.9373,1.11682,-0.916337,0,0,0,0,0,0,0,0,0,0,0,0,0,0,0.53106,-0.454486,0.694258,0.574588,0.175229,0.152607,0.784764,0,0,0,0.56614,-2.25277,0.135176,-0.0301851,-0.00293946,-0.11036,-0.0365579,0.0324535,-0.346219,0.617724,-0.455508,-0.264401,0.668618,0.521424,0.728797,-0.366673,1
1.84207,-1.11003,-1.84201,-1.05003,1.98919,1.18977,-0.953153,1.84207,-1.11003,-1.84201,-1.05003,1.98919,1.18977,-0.953153,1.78026,-1.06467,-1.81524,-1.11695,1.9373,1.11682,-0.916337,0,0,0,0,0,0,0,0,0,0,0,0,0,0,0.53106,-0.454486,0.694258,0.574588,0.175229,0.152607,0.784764,0,0,0,0.56614,-2.25277,0.135176,0,0,0,-0.0278604,0.0209951,-0.329891,0.618134,-0.453673,-0.267655,0.669175,0.518945,0.729428,-0.368161,1
1.84216,-1.11008,-1.8432,-1.04996,1.98855,1.18995,-0.953334,1.84216,-1.11008,-1.8432,-1.04996,1.98855,1.18995,-0.953334,1.78026,-1.06467,-1.81524,-1.11695,1.9373,1.11682,-0.916337,0,0,0,0,0,0,0,0,0,0,0,0,0,0,0.53106,-0.454486,0.694258,0.574588,0.175229,0.152607,0.784764,0,0,0,0.565289,-2.2532,0.13322,-0.0824679,-0.0414854,-0.189656,-0.0335312,-0.00152111,-0.340365,0.619037,-0.454198,-0.279547,0.669955,0.51257,0.731227,-0.369972,1
1.84225,-1.11038,-1.84293,-1.05004,1.98863,1.18989,-0.953184,1.84225,-1.11038,-1.84293,-1.05004,1.98863,1.18989,-0.953184,1.78026,-1.06467,-1.81524,-1.11695,1.9373,1.11682,-0.916337,0,0,0,0,0,0,0,0,0,0,0,0,0,0,0.53106,-0.454486,0.694258,0.574588,0.175229,0.152607,0.784764,0,0,0,0.56515,-2.25173,0.132464,-0.0134521,0.141399,-0.0728467,-0.0341272,0.0159645,-0.345091,0.619973,-0.45718,-0.276869,0.669102,0.513383,0.730612,-0.368465,1
1.84226,-1.11047,-1.84243,-1.05012,1.98875,1.1898,-0.953092,1.84226,-1.11047,-1.84243,-1.05012,1.98875,1.1898,-0.953092,1.78026,-1.06467,-1.81524,-1.11695,1.9373,1.11682,-0.916337,0,0,0,0,0,0,0,0,0,0,0,0,0,0,0.53106,-0.454486,0.694258,0.574588,0.175229,0.152607,0.784764,0,0,0,0.564772,-2.25189,0.131622,-0.038865,-0.0161938,-0.0866274,-0.0372505,0.0280571,-0.348185,0.620013,-0.458067,-0.271922,0.668296,0.514549,0.729764,-0.367545,1
1.84224,-1.1105,-1.84207,-1.05015,1.98901,1.18975,-0.952975,1.84224,-1.1105,-1.84207,-1.05015,1.98901,1.18975,-0.952975,1.78026,-1.06467,-1.81524,-1.11695,1.9373,1.11682,-0.916337,0,0,0,0,0,0,0,0,0,0,0,0,0,0,0.53106,-0.454486,0.694258,0.574588,0.175229,0.152607,0.784764,0,0,0,0.564539,-2.2518,0.130921,-0.0233913,0.00880246,-0.0705666,-0.0371742,0.0325155,-0.351078,0.619852,-0.458389,-0.268254,0.668034,0.517174,0.729275,-0.366382,1
1.84221,-1.1102,-1.84195,-1.05008,1.989,1.18976,-0.953165,1.84221,-1.1102,-1.84195,-1.05008,1.989,1.18976,-0.953165,1.78026,-1.06467,-1.81524,-1.11695,1.9373,1.11682,-0.916337,0,0,0,0,0,0,0,0,0,0,0,0,0,0,0.53106,-0.454486,0.694258,0.574588,0.175229,0.152607,0.784764,0,0,0,0.56422,-2.25194,0.130349,-0.0320216,-0.0140355,-0.0571954,-0.0274956,0.024457,-0.322848,0.619567,-0.455343,-0.267083,0.668726,0.517073,0.729309,-0.368276,1
1.84219,-1.11,-1.84292,-1.04997,1.98856,1.18991,-0.953351,1.84219,-1.11,-1.84292,-1.04997,1.98856,1.18991,-0.953351,1.78026,-1.06467,-1.81524,-1.11695,1.9373,1.11682,-0.916337,0,0,0,0,0,0,0,0,0,0,0,0,0,0,0.53106,-0.454486,0.694258,0.574588,0.175229,0.152607,0.784764,0,0,0,0.5641,-2.25165,0.129877,-0.0116656,0.0279602,-0.0461728,-0.0265098,0.000991821,-0.314459,0.619366,-0.453311,-0.276822,0.66983,0.512615,0.730827,-0.370143,1
1.84228,-1.10999,-1.84329,-1.04995,1.98831,1.18998,-0.953461,1.84228,-1.10999,-1.84329,-1.04995,1.98831,1.18998,-0.953461,1.78026,-1.06467,-1.81524,-1.11695,1.9373,1.11682,-0.916337,0,0,0,0,0,0,0,0,0,0,0,0,0,0,0.53106,-0.454486,0.694258,0.574588,0.175229,0.152607,0.784764,0,0,0,0.56394,-2.25213,0.129422,-0.0160242,-0.0471791,-0.0455052,-0.0210297,-0.00332355,-0.304436,0.620245,-0.453222,-0.280477,0.669988,0.510181,0.731528,-0.371234,1
1.84236,-1.10984,-1.84397,-1.04991,1.98773,1.19009,-0.953701,1.84236,-1.10984,-1.84397,-1.04991,1.98773,1.19009,-0.953701,1.78026,-1.06467,-1.81524,-1.11695,1.9373,1.11682,-0.916337,0,0,0,0,0,0,0,0,0,0,0,0,0,0,0.53106,-0.454486,0.694258,0.574588,0.175229,0.152607,0.784764,0,0,0,0.563733,-2.25258,0.129106,-0.0206784,-0.0452183,-0.0315718,-0.0189209,-0.0174332,-0.295563,0.621065,-0.451792,-0.287265,0.670416,0.504379,0.732656,-0.373638,1
1.84248,-1.10965,-1.84489,-1.04983,1.98704,1.19025,-0.954036,1.84248,-1.10965,-1.84489,-1.04983,1.98704,1.19025,-0.954036,1.78026,-1.06467,-1.81524,-1.11695,1.9373,1.11682,-0.916337,0,0,0,0,0,0,0,0,0,0,0,0,0,0,0.53106,-0.454486,0.694258,0.574588,0.175229,0.152607,0.784764,0,0,0,0.56358,-2.25328,0.128904,-0.0156314,-0.0711278,-0.0205826,-0.0164676,-0.0359726,-0.286613,0.622282,-0.44985,-0.296491,0.671244,0.497412,0.734232,-0.376987,1
1.84262,-1.10927,-1.84599,-1.04967,1.98602,1.19042,-0.954544,1.84262,-1.10927,-1.84599,-1.04967,1.98602,1.19042,-0.954544,1.78026,-1.06467,-1.81524,-1.11695,1.9373,1.11682,-0.916337,0,0,0,0,0,0,0,0,0,0,0,0,0,0,0.53106,-0.454486,0.694258,0.574588,0.175229,0.152607,0.784764,0,0,0,0.563431,-2.25414,0.12876,-0.0149737,-0.0863921,-0.0145335,-0.0169933,-0.0611401,-0.27753,0.623596,-0.446016,-0.307471,0.672842,0.487294,0.736002,-0.382074,1
1.8427,-1.10901,-1.84647,-1.04955,1.98539,1.19048,-0.954822,1.8427,-1.10901,-1.84647,-1.04955,1.98539,1.19048,-0.954822,1.78026,-1.06467,-1.81524,-1.11695,1.9373,1.11682,-0.916337,0,0,0,0,0,0,0,0,0,0,0,0,0,0,0.53106,-0.454486,0.694258,0.574588,0.175229,0.152607,0.784764,0,0,0,0.563457,-2.2548,0.128789,0.00264368,-0.0663127,0.00295698,-0.0126791,-0.0690174,-0.266122,0.624445,-0.443438,-0.3123,0.673984,0.480912,0.736551,-0.384854,1
1.84272,-1.10874,-1.84695,-1.04943,1.98472,1.19053,-0.955103,1.84272,-1.10874,-1.84695,-1.04943,1.98472,1.19053,-0.955103,1.78026,-1.06467,-1.81524,-1.11695,1.9373,1.11682,-0.916337,0,0,0,0,0,0,0,0,0,0,0,0,0,0,0.53106,-0.454486,0.694258,0.574588,0.175229,0.152607,0.784764,0,0,0,0.563381,-2.25588,0.128921,-0.008012,-0.112604,0.013758,-0.00827909,-0.0811815,-0.254857,0.624664,-0.440777,-0.31707,0.675176,0.474232,0.737009,-0.387661,1
1.84276,-1.10857,-1.84712,-1.04937,1.98442,1.19054,-0.955253,1.84276,-1.10857,-1.84712,-1.04937,1.98442,1.19054,-0.955253,1.78026,-1.06467,-1.81524,-1.11695,1.9373,1.11682,-0.916337,0,0,0,0,0,0,0,0,0,0,0,0,0,0,0.53106,-0.454486,0.694258,0.574588,0.175229,0.152607,0.784764,0,0,0,0.563422,-2.25662,0.129219,0.00394923,-0.0705429,0.0282783,-0.00365853,-0.0842714,-0.242097,0.625061,-0.43909,-0.318779,0.675808,0.471214,0.737189,-0.389159,1
1.84278,-1.1083,-1.84745,-1.04927,1.98394,1.19059,-0.9555,1.84278,-1.1083,-1.84745,-1.04927,1.98394,1.19059,-0.9555,1.78026,-1.06467,-1.81524,-1.11695,1.9373,1.11682,-0.916337,0,0,0,0,0,0,0,0,0,0,0,0,0,0,0.53106,-0.454486,0.694258,0.574588,0.175229,0.152607,0.784764,0,0,0,0.563477,-2.25807,0.129513,0.0056755,-0.148775,0.0301928,0.000579357,-0.0968552,-0.230641,0.62527,-0.436371,-0.322112,0.676806,0.466418,0.737682,-0.391632,1
1.8428,-1.10787,-1.84824,-1.0491,1.98314,1.19072,-0.955816,1.8428,-1.10787,-1.84824,-1.0491,1.98314,1.19072,-0.955816,1.78026,-1.06467,-1.81524,-1.11695,1.9373,1.11682,-0.916337,0,0,0,0,0,0,0,0,0,0,0,0,0,0,0.53106,-0.454486,0.694258,0.574588,0.175229,0.152607,0.784764,0,0,0,0.56342,-2.25968,0.129859,-0.00563828,-0.157359,0.033888,0.000219345,-0.119481,-0.222682,0.625466,-0.432094,-0.330007,0.678569,0.458417,0.738923,-0.39479,1
1.84285,-1.10757,-1.84868,-1.04898,1.9826,1.19078,-0.956036,1.84285,-1.10757,-1.84868,-1.04898,1.9826,1.19078,-0.956036,1.78026,-1.06467,-1.81524,-1.11695,1.9373,1.11682,-0.916337,0,0,0,0,0,0,0,0,0,0,0,0,0,0,0.53106,-0.454486,0.694258,0.574588,0.175229,0.152607,0.784764,0,0,0,0.563542,-2.26081,0.130493,0.0123076,-0.114009,0.0635472,0.00321507,-0.129304,-0.212164,0.625928,-0.429077,-0.334411,0.679772,0.45301,0.739577,-0.396994,1
1.84288,-1.10729,-1.84905,-1.04886,1.98198,1.19082,-0.956232,1.84288,-1.10729,-1.84905,-1.04886,1.98198,1.19082,-0.956232,1.78026,-1.06467,-1.81524,-1.11695,1.9373,1.11682,-0.916337,0,0,0,0,0,0,0,0,0,0,0,0,0,0,0.53106,-0.454486,0.694258,0.574588,0.175229,0.152607,0.784764,0,0,0,0.56374,-2.26224,0.131097,0.0198349,-0.144092,0.0608212,0.00699759,-0.139956,-0.20264,0.626263,-0.426203,-0.338066,0.680897,0.446854,0.739998,-0.398946,1
1.84293,-1.10714,-1.84911,-1.04881,1.98176,1.19083,-0.956327,1.84293,-1.10714,-1.84911,-1.04881,1.98176,1.19083,-0.956327,1.78026,-1.06467,-1.81524,-1.11695,1.9373,1.11682,-0.916337,0,0,0,0,0,0,0,0,0,0,0,0,0,0,0.53106,-0.454486,0.694258,0.574588,0.175229,0.152607,0.784764,0,0,0,0.564059,-2.26387,0.131793,0.0315563,-0.16065,0.0687941,0.0148261,-0.14173,-0.192016,0.626695,-0.424728,-0.33867,0.681396,0.444621,0.740064,-0.399903,1
1.843,-1.10766,-1.8484,-1.04896,1.98243,1.19072,-0.95609,1.843,-1.10766,-1.8484,-1.04896,1.98243,1.19072,-0.95609,1.78026,-1.06467,-1.81524,-1.11695,1.9373,1.11682,-0.916337,0,0,0,0,0,0,0,0,0,0,0,0,0,0,0.53106,-0.454486,0.694258,0.574588,0.175229,0.152607,0.784764,0,0,0,0.564059,-2.26387,0.131793,0,0,0,0.0179446,-0.114446,-0.198318,0.627402,-0.429959,-0.331589,0.679928,0.451341,0.738968,-0.397527,1
1.84294,-1.10743,-1.84811,-1.04895,1.98244,1.19069,-0.956186,1.84294,-1.10743,-1.84811,-1.04895,1.98244,1.19069,-0.956186,1.78026,-1.06467,-1.81524,-1.11695,1.9373,1.11682,-0.916337,0,0,0,0,0,0,0,0,0,0,0,0,0,0,0.53106,-0.454486,0.694258,0.574588,0.175229,0.152607,0.784764,0,0,0,0.564891,-2.26604,0.133458,0.0788071,-0.205944,0.157738,0.0301611,-0.120888,-0.183724,0.626791,-0.427645,-0.328666,0.680034,0.451426,0.738671,-0.398493,1
1.84287,-1.10738,-1.84753,-1.04903,1.98311,1.19063,-0.95615,1.84287,-1.10738,-1.84753,-1.04903,1.98311,1.19063,-0.95615,1.78026,-1.06467,-1.81524,-1.11695,1.9373,1.11682,-0.916337,0,0,0,0,0,0,0,0,0,0,0,0,0,0,0.53106,-0.454486,0.694258,0.574588,0.175229,0.152607,0.784764,0,0,0,0.565603,-2.26671,0.134568,0.0747992,-0.0695947,0.116639,0.0455832,-0.110979,-0.16392,0.626099,-0.427154,-0.322879,0.679211,0.458142,0.73801,-0.398129,1
1.84279,-1.10732,-1.84688,-1.04911,1.9836,1.19056,-0.956205,1.84279,-1.10732,-1.84688,-1.04911,1.9836,1.19056,-0.956205,1.78026,-1.06467,-1.81524,-1.11695,1.9373,1.11682,-0.916337,0,0,0,0,0,0,0,0,0,0,0,0,0,0,0.53106,-0.454486,0.694258,0.574588,0.175229,0.152607,0.784764,0,0,0,0.566266,-2.26777,0.135681,0.0659542,-0.105389,0.110521,0.0595903,-0.106306,-0.144494,0.6253,-0.426563,-0.316434,0.67846,0.463047,0.737318,-0.398674,1
1.84271,-1.10681,-1.84723,-1.04901,1.98325,1.19064,-0.956437,1.84271,-1.10681,-1.84723,-1.04901,1.98325,1.19064,-0.956437,1.78026,-1.06467,-1.81524,-1.11695,1.9373,1.11682,-0.916337,0,0,0,0,0,0,0,0,0,0,0,0,0,0,0.53106,-0.454486,0.694258,0.574588,0.175229,0.152607,0.784764,0,0,0,0.566933,-2.26955,0.136744,0.0670287,-0.179654,0.106909,0.0712466,-0.130916,-0.128753,0.624532,-0.421438,-0.319932,0.679438,0.459522,0.738122,-0.400994,1
1.84278,-1.10763,-1.84686,-1.04918,1.98407,1.19057,-0.955997,1.84278,-1.10763,-1.84686,-1.04918,1.98407,1.19057,-0.955997,1.78026,-1.06467,-1.81524,-1.11695,1.9373,1.11682,-0.916337,0,0,0,0,0,0,0,0,0,0,0,0,0,0,0.53106,-0.454486,0.694258,0.574588,0.175229,0.152607,0.784764,0,0,0,0.566933,-2.26955,0.136744,0,0,0,0.0541556,-0.0986814,-0.162522,0.62522,-0.429618,-0.316162,0.677705,0.467793,0.737434,-0.396594,1
1.84278,-1.10693,-1.84745,-1.04897,1.98301,1.19069,-0.956456,1.84278,-1.10693,-1.84745,-1.04897,1.98301,1.19069,-0.956456,1.78026,-1.06467,-1.81524,-1.11695,1.9373,1.11682,-0.916337,0,0,0,0,0,0,0,0,0,0,0,0,0,0,0.53106,-0.454486,0.694258,0.574588,0.175229,0.152607,0.784764,0,0,0,0.568584,-2.27284,0.13881,0.158795,-0.316536,0.198646,0.0662982,-0.140648,-0.154542,0.625209,-0.422654,-0.322058,0.679775,0.457133,0.73866,-0.401194,1
1.84279,-1.10656,-1.84804,-1.04886,1.98262,1.19078,-0.956633,1.84279,-1.10656,-1.84804,-1.04886,1.98262,1.19078,-0.956633,1.78026,-1.06467,-1.81524,-1.11695,1.9373,1.11682,-0.916337,0,0,0,0,0,0,0,0,0,0,0,0,0,0,0.53106,-0.454486,0.694258,0.574588,0.175229,0.152607,0.784764,0,0,0,0.569611,-2.27403,0.139949,0.103242,-0.118949,0.114536,0.0834,-0.158134,-0.14399,0.625356,-0.418984,-0.327964,0.680933,0.453282,0.739526,-0.402956,1
1.84287,-1.10671,-1.8471,-1.04895,1.98311,1.19067,-0.956703,1.84287,-1.10671,-1.8471,-1.04895,1.98311,1.19067,-0.956703,1.78026,-1.06467,-1.81524,-1.11695,1.9373,1.11682,-0.916337,0,0,0,0,0,0,0,0,0,0,0,0,0,0,0.53106,-0.454486,0.694258,0.574588,0.175229,0.152607,0.784764,0,0,0,0.571083,-2.27438,0.141211,0.148624,-0.035558,0.12745,0.109769,-0.141263,-0.128625,0.626124,-0.420487,-0.318593,0.680037,0.458171,0.738476,-0.403659,1
1.84282,-1.10675,-1.84585,-1.04911,1.98388,1.19053,-0.956686,1.84282,-1.10675,-1.84585,-1.04911,1.98388,1.19053,-0.956686,1.78026,-1.06467,-1.81524,-1.11695,1.9373,1.11682,-0.916337,0,0,0,0,0,0,0,0,0,0,0,0,0,0,0.53106,-0.454486,0.694258,0.574588,0.175229,0.152607,0.784764,0,0,0,0.572538,-2.27519,0.142559,0.14255,-0.079271,0.13213,0.137073,-0.12805,-0.109688,0.625603,-0.420875,-0.306044,0.678422,0.465888,0.73704,-0.403491,1
1.84272,-1.10813,-1.84424,-1.0495,1.98583,1.19026,-0.955633,1.84272,-1.10813,-1.84424,-1.0495,1.98583,1.19026,-0.955633,1.78026,-1.06467,-1.81524,-1.11695,1.9373,1.11682,-0.916337,0,0,0,0,0,0,0,0,0,0,0,0,0,0,0.53106,-0.454486,0.694258,0.574588,0.175229,0.152607,0.784764,0,0,0,0.572538,-2.27519,0.142559,0,0,0,0.108334,-0.0584936,-0.1489,0.624667,-0.434642,-0.28997,0.674511,0.485394,0.73435,-0.392963,1
1.84268,-1.10767,-1.84378,-1.04946,1.98587,1.19029,-0.955849,1.84268,-1.10767,-1.84378,-1.04946,1.98587,1.19029,-0.955849,1.78026,-1.06467,-1.81524,-1.11695,1.9373,1.11682,-0.916337,0,0,0,0,0,0,0,0,0,0,0,0,0,0,0.53106,-0.454486,0.694258,0.574588,0.175229,0.152607,0.784764,0,0,0,0.575232,-2.27808,0.144851,0.269477,-0.289561,0.229243,0.126965,-0.0892162,-0.138464,0.624263,-0.430083,-0.285422,0.6749,0.485792,0.734694,-0.39512,1
1.8426,-1.10729,-1.84434,-1.04941,1.98581,1.1904,-0.956054,1.8426,-1.10729,-1.84434,-1.04941,1.98581,1.1904,-0.956054,1.78026,-1.06467,-1.81524,-1.11695,1.9373,1.11682,-0.916337,0,0,0,0,0,0,0,0,0,0,0,0,0,0,0.53106,-0.454486,0.694258,0.574588,0.175229,0.152607,0.784764,0,0,0,0.576887,-2.27859,0.146253,0.166651,-0.0511294,0.141152,0.143028,-0.113187,-0.126232,0.623448,-0.426209,-0.290978,0.675463,0.485107,0.735712,-0.397172,1
1.84262,-1.10753,-1.84437,-1.04942,1.98596,1.19039,-0.955915,1.84262,-1.10753,-1.84437,-1.04942,1.98596,1.19039,-0.955915,1.78026,-1.06467,-1.81524,-1.11695,1.9373,1.11682,-0.916337,0,0,0,0,0,0,0,0,0,0,0,0,0,0,0.53106,-0.454486,0.694258,0.574588,0.175229,0.152607,0.784764,0,0,0,0.576887,-2.27859,0.146253,0,0,0,0.130486,-0.102086,-0.13918,0.62362,-0.428634,-0.291305,0.675326,0.486613,0.735692,-0.395781,1
1.84255,-1.10717,-1.8438,-1.04942,1.986,1.19034,-0.956176,1.84255,-1.10717,-1.8438,-1.04942,1.986,1.19034,-0.956176,1.78026,-1.06467,-1.81524,-1.11695,1.9373,1.11682,-0.916337,0,0,0,0,0,0,0,0,0,0,0,0,0,0,0.53106,-0.454486,0.694258,0.574588,0.175229,0.152607,0.784764,0,0,0,0.580123,-2.28042,0.148796,0.301968,-0.170707,0.237283,0.168264,-0.10973,-0.111243,0.622955,-0.425024,-0.285585,0.675333,0.487052,0.735199,-0.39839,1
1.84239,-1.10752,-1.84243,-1.04957,1.98718,1.19011,-0.95566,1.84239,-1.10752,-1.84243,-1.04957,1.98718,1.19011,-0.95566,1.78026,-1.06467,-1.81524,-1.11695,1.9373,1.11682,-0.916337,0,0,0,0,0,0,0,0,0,0,0,0,0,0,0.53106,-0.454486,0.694258,0.574588,0.175229,0.152607,0.784764,0,0,0,0.581925,-2.2806,0.150206,0.186474,-0.0186289,0.145901,0.166223,-0.0686407,-0.117479,0.621323,-0.428536,-0.271869,0.673832,0.498855,0.732859,-0.393228,1
1.84225,-1.10741,-1.84112,-1.04961,1.9879,1.18997,-0.955541,1.84225,-1.10741,-1.84112,-1.04961,1.9879,1.18997,-0.955541,1.78026,-1.06467,-1.81524,-1.11695,1.9373,1.11682,-0.916337,0,0,0,0,0,0,0,0,0,0,0,0,0,0,0.53106,-0.454486,0.694258,0.574588,0.175229,0.152607,0.784764,0,0,0,0.583705,-2.28084,0.151513,0.170067,-0.0229132,0.124858,0.186741,-0.0650835,-0.105281,0.619971,-0.427419,-0.258818,0.673473,0.506078,0.731485,-0.392044,1
1.84206,-1.10758,-1.84056,-1.04967,1.98865,1.18986,-0.955075,1.84206,-1.10758,-1.84056,-1.04967,1.98865,1.18986,-0.955075,1.78026,-1.06467,-1.81524,-1.11695,1.9373,1.11682,-0.916337,0,0,0,0,0,0,0,0,0,0,0,0,0,0,0.53106,-0.454486,0.694258,0.574588,0.175229,0.152607,0.784764,0,0,0,0.583705,-2.28084,0.151513,0,0,0,0.172182,-0.0491858,-0.117639,0.618064,-0.429128,-0.253165,0.672853,0.513537,0.730373,-0.387377,1
1.84189,-1.10781,-1.83872,-1.04978,1.98977,1.18959,-0.954713,1.84189,-1.10781,-1.83872,-1.04978,1.98977,1.18959,-0.954713,1.78026,-1.06467,-1.81524,-1.11695,1.9373,1.11682,-0.916337,0,0,0,0,0,0,0,0,0,0,0,0,0,0,0.53106,-0.454486,0.694258,0.574588,0.175229,0.152607,0.784764,0,0,0,0.587426,-2.28092,0.154084,0.362153,-0.00807634,0.250303,0.163853,-0.0124502,-0.131167,0.616371,-0.431476,-0.234783,0.671707,0.52478,0.727687,-0.383759,1
1.84173,-1.10752,-1.83801,-1.04977,1.99015,1.18953,-0.954745,1.84173,-1.10752,-1.83801,-1.04977,1.99015,1.18953,-0.954745,1.78026,-1.06467,-1.81524,-1.11695,1.9373,1.11682,-0.916337,0,0,0,0,0,0,0,0,0,0,0,0,0,0,0.53106,-0.454486,0.694258,0.574588,0.175229,0.152607,0.784764,0,0,0,0.589003,-2.28166,0.155144,0.162569,-0.0754204,0.109282,0.178763,-0.0219154,-0.125514,0.61472,-0.4285,-0.227649,0.671852,0.528599,0.727066,-0.384077,1
1.84238,-1.10375,-1.85073,-1.04839,1.98077,1.19155,-0.957285,1.84238,-1.10375,-1.85073,-1.04839,1.98077,1.19155,-0.957285,1.78026,-1.06467,-1.81524,-1.11695,1.9373,1.11682,-0.916337,0,0,0,0,0,0,0,0,0,0,0,0,0,0,0.53106,-0.454486,0.694258,0.574588,0.175229,0.152607,0.784764,0,0,0,0.586276,-2.30045,0.15558,-0.272984,-1.88126,0.0435677,0.104399,-0.400229,-0.132348,0.621204,-0.390881,-0.354922,0.685579,0.434729,0.74729,-0.409482,1
1.8429,-1.10374,-1.85041,-1.04819,1.98136,1.19154,-0.95786,1.8429,-1.10374,-1.85041,-1.04819,1.98136,1.19154,-0.95786,1.78026,-1.06467,-1.81524,-1.11695,1.9373,1.11682,-0.916337,0,0,0,0,0,0,0,0,0,0,0,0,0,0,0.53106,-0.454486,0.694258,0.574588,0.175229,0.152607,0.784764,0,0,0,0.593079,-2.28608,0.157697,0.670435,1.41552,0.208666,0.175977,-0.300055,-0.111368,0.6264,-0.390751,-0.351713,0.687642,0.44069,0.74716,-0.415233,1
1.84301,-1.10742,-1.84414,-1.04926,1.98466,1.1903,-0.956826,1.84301,-1.10742,-1.84414,-1.04926,1.98466,1.1903,-0.956826,1.78026,-1.06467,-1.81524,-1.11695,1.9373,1.11682,-0.916337,0,0,0,0,0,0,0,0,0,0,0,0,0,0,0.53106,-0.454486,0.694258,0.574588,0.175229,0.152607,0.784764,0,0,0,0.594204,-2.28202,0.15898,0.112703,0.407143,0.12851,0.176327,-0.0661469,-0.126562,0.627527,-0.427527,-0.289,0.67688,0.473601,0.734795,-0.404892,1
1.8423,-1.10885,-1.83488,-1.05051,1.99,1.18914,-0.954154,1.8423,-1.10885,-1.83488,-1.05051,1.99,1.18914,-0.954154,1.78026,-1.06467,-1.81524,-1.11695,1.9373,1.11682,-0.916337,0,0,0,0,0,0,0,0,0,0,0,0,0,0,0.53106,-0.454486,0.694258,0.574588,0.175229,0.152607,0.784764,0,0,0,0.596201,-2.28718,0.159282,0.197971,-0.512245,0.0298969,0.223241,0.0737,-0.133254,0.620478,-0.441874,-0.196411,0.664444,0.527067,0.723106,-0.378172,1
1.84081,-1.10943,-1.81575,-1.05174,1.99652,1.18691,-0.950602,1.84081,-1.10943,-1.81575,-1.05174,1.99652,1.18691,-0.950602,1.78026,-1.06467,-1.81524,-1.11695,1.9373,1.11682,-0.916337,0,0,0,0,0,0,0,0,0,0,0,0,0,0,0.53106,-0.454486,0.694258,0.574588,0.175229,0.152607,0.784764,0,0,0,0.597721,-2.287,0.160079,0.148353,0.0181952,0.0778413,0.260119,0.257926,-0.14416,0.605533,-0.447655,-0.00513583,0.652159,0.592219,0.700807,-0.342648,1
1.84004,-1.10656,-1.83342,-1.04958,1.99348,1.18899,-0.954,1.84004,-1.10656,-1.83342,-1.04958,1.99348,1.18899,-0.954,1.78026,-1.06467,-1.81524,-1.11695,1.9373,1.11682,-0.916337,0,0,0,0,0,0,0,0,0,0,0,0,0,0,0.53106,-0.454486,0.694258,0.574588,0.175229,0.152607,0.784764,0,0,0,0.599211,-2.2866,0.160785,0.149717,0.0402024,0.0709742,0.157818,-0.0601053,-0.177234,0.597845,-0.418999,-0.181786,0.673675,0.561807,0.721629,-0.376624,1
1.84172,-1.10726,-1.83602,-1.04956,1.99301,1.19015,-0.953996,1.84172,-1.10726,-1.83602,-1.04956,1.99301,1.19015,-0.953996,1.78026,-1.06467,-1.81524,-1.11695,1.9373,1.11682,-0.916337,0,0,0,0,0,0,0,0,0,0,0,0,0,0,0.53106,-0.454486,0.694258,0.574588,0.175229,0.152607,0.784764,0,0,0,0.600634,-2.28644,0.161358,0.155798,0.0174848,0.0626714,0.158707,-0.08255,-0.1874,0.614686,-0.425904,-0.207779,0.673896,0.557138,0.733206,-0.376593,1
1.84115,-1.10805,-1.83524,-1.0499,1.99232,1.18918,-0.953717,1.84115,-1.10805,-1.83524,-1.0499,1.99232,1.18918,-0.953717,1.78026,-1.06467,-1.81524,-1.11695,1.9373,1.11682,-0.916337,0,0,0,0,0,0,0,0,0,0,0,0,0,0,0.53106,-0.454486,0.694258,0.574588,0.175229,0.152607,0.784764,0,0,0,0.601829,-2.28589,0.161839,0.11407,0.0525367,0.045907,0.141696,0.0315285,-0.186065,0.608928,-0.433894,-0.199947,0.670528,0.550206,0.723562,-0.373803,1
1.84069,-1.10856,-1.83004,-1.05056,1.99432,1.18831,-0.952103,1.84069,-1.10856,-1.83004,-1.05056,1.99432,1.18831,-0.952103,1.78026,-1.06467,-1.81524,-1.11695,1.9373,1.11682,-0.916337,0,0,0,0,0,0,0,0,0,0,0,0,0,0,0.53106,-0.454486,0.694258,0.574588,0.175229,0.152607,0.784764,0,0,0,0.602435,-2.28002,0.162559,0.0622044,0.603022,0.0739814,0.120449,0.14668,-0.189872,0.604388,-0.438973,-0.148031,0.66394,0.570285,0.714879,-0.357657,1
1.84017,-1.10824,-1.82435,-1.05101,1.99633,1.18762,-0.951187,1.84017,-1.10824,-1.82435,-1.05101,1.99633,1.18762,-0.951187,1.78026,-1.06467,-1.81524,-1.11695,1.9373,1.11682,-0.916337,0,0,0,0,0,0,0,0,0,0,0,0,0,0,0.53106,-0.454486,0.694258,0.574588,0.175229,0.152607,0.784764,0,0,0,0.603478,-2.27941,0.162695,0.0995562,0.0580337,0.0129865,0.103332,0.20793,-0.199802,0.599155,-0.435762,-0.0910835,0.659416,0.590323,0.707994,-0.348503,1
1.83967,-1.10809,-1.82215,-1.05114,1.99784,1.18716,-0.951076,1.83967,-1.10809,-1.82215,-1.05114,1.99784,1.18716,-0.951076,1.78026,-1.06467,-1.81524,-1.11695,1.9373,1.11682,-0.916337,0,0,0,0,0,0,0,0,0,0,0,0,0,0,0.53106,-0.454486,0.694258,0.574588,0.175229,0.152607,0.784764,0,0,0,0.604433,-2.27839,0.162666,0.0957018,0.102732,-0.00286693,0.0924468,0.225816,-0.215273,0.594158,-0.434251,-0.069076,0.658112,0.605478,0.703315,-0.347391,1
1.83969,-1.10837,-1.82235,-1.0511,1.99824,1.18725,-0.951203,1.83969,-1.10837,-1.82235,-1.0511,1.99824,1.18725,-0.951203,1.78026,-1.06467,-1.81524,-1.11695,1.9373,1.11682,-0.916337,0,0,0,0,0,0,0,0,0,0,0,0,0,0,0.53106,-0.454486,0.694258,0.574588,0.175229,0.152607,0.784764,0,0,0,0.605378,-2.27658,0.161622,0.0953891,0.182494,-0.105336,0.0909638,0.20256,-0.253264,0.594312,-0.437094,-0.0710903,0.658558,0.609414,0.704255,-0.348663,1
1.84006,-1.10869,-1.82605,-1.05079,1.99729,1.18797,-0.951424,1.84006,-1.10869,-1.82605,-1.05079,1.99729,1.18797,-0.951424,1.78026,-1.06467,-1.81524,-1.11695,1.9373,1.11682,-0.916337,0,0,0,0,0,0,0,0,0,0,0,0,0,0,0.53106,-0.454486,0.694258,0.574588,0.175229,0.152607,0.784764,0,0,0,0.606245,-2.27529,0.161109,0.0861103,0.128135,-0.0509644,0.095216,0.122986,-0.289727,0.597998,-0.440226,-0.108082,0.661583,0.599994,0.711407,-0.350866,1
1.8406,-1.10911,-1.82602,-1.05109,1.99737,1.18797,-0.95093,1.8406,-1.10911,-1.82602,-1.05109,1.99737,1.18797,-0.95093,1.78026,-1.06467,-1.81524,-1.11695,1.9373,1.11682,-0.916337,0,0,0,0,0,0,0,0,0,0,0,0,0,0,0.53106,-0.454486,0.694258,0.574588,0.175229,0.152607,0.784764,0,0,0,0.607143,-2.27329,0.160411,0.0916244,0.20411,-0.07118,0.0914323,0.15348,-0.311243,0.60348,-0.444416,-0.107826,0.658658,0.600702,0.711444,-0.345926,1
1.84051,-1.10895,-1.82768,-1.05087,1.99658,1.1881,-0.951491,1.84051,-1.10895,-1.82768,-1.05087,1.99658,1.1881,-0.951491,1.78026,-1.06467,-1.81524,-1.11695,1.9373,1.11682,-0.916337,0,0,0,0,0,0,0,0,0,0,0,0,0,0,0.53106,-0.454486,0.694258,0.574588,0.175229,0.152607,0.784764,0,0,0,0.607143,-2.27329,0.160411,0,0,0,0.0718534,0.134888,-0.307202,0.602512,-0.442807,-0.124384,0.660803,0.592858,0.712708,-0.351543,1
1.84073,-1.10946,-1.82517,-1.0514,1.99754,1.18766,-0.950495,1.84073,-1.10946,-1.82517,-1.0514,1.99754,1.18766,-0.950495,1.78026,-1.06467,-1.81524,-1.11695,1.9373,1.11682,-0.916337,0,0,0,0,0,0,0,0,0,0,0,0,0,0,0.53106,-0.454486,0.694258,0.574588,0.175229,0.152607,0.784764,0,0,0,0.609076,-2.26769,0.157981,0.185675,0.5378,-0.233494,0.0829303,0.197778,-0.329802,0.604704,-0.447984,-0.0993249,0.655499,0.602454,0.708326,-0.341578,1
1.84059,-1.10987,-1.82432,-1.05148,1.99768,1.18749,-0.95046,1.84059,-1.10987,-1.82432,-1.05148,1.99768,1.18749,-0.95046,1.78026,-1.06467,-1.81524,-1.11695,1.9373,1.11682,-0.916337,0,0,0,0,0,0,0,0,0,0,0,0,0,0,0.53106,-0.454486,0.694258,0.574588,0.175229,0.152607,0.784764,0,0,0,0.609232,-2.26844,0.15563,0.0157228,-0.0756611,-0.236264,0.0790787,0.192914,-0.383898,0.603295,-0.452041,-0.0907944,0.654709,0.603804,0.706698,-0.341231,1
1.84073,-1.11043,-1.82337,-1.0518,1.99834,1.18732,-0.949807,1.84073,-1.11043,-1.82337,-1.0518,1.99834,1.18732,-0.949807,1.78026,-1.06467,-1.81524,-1.11695,1.9373,1.11682,-0.916337,0,0,0,0,0,0,0,0,0,0,0,0,0,0,0.53106,-0.454486,0.694258,0.574588,0.175229,0.152607,0.784764,0,0,0,0.609907,-2.2653,0.153626,0.0655179,0.305522,-0.194657,0.0761712,0.208273,-0.433533,0.604715,-0.45763,-0.0812901,0.651557,0.610469,0.704998,-0.334702,1
1.8407,-1.11075,-1.82128,-1.05213,1.99896,1.18701,-0.949052,1.8407,-1.11075,-1.82128,-1.05213,1.99896,1.18701,-0.949052,1.78026,-1.06467,-1.81524,-1.11695,1.9373,1.11682,-0.916337,0,0,0,0,0,0,0,0,0,0,0,0,0,0,0.53106,-0.454486,0.694258,0.574588,0.175229,0.152607,0.784764,0,0,0,0.609856,-2.26256,0.151319,-0.00517591,0.276105,-0.232925,0.0625622,0.238423,-0.475398,0.604441,-0.460799,-0.0604036,0.64823,0.616667,0.701809,-0.327145,1
1.84025,-1.11049,-1.82138,-1.05218,1.9993,1.18685,-0.948975,1.84025,-1.11049,-1.82138,-1.05218,1.9993,1.18685,-0.948975,1.78026,-1.06467,-1.81524,-1.11695,1.9373,1.11682,-0.916337,0,0,0,0,0,0,0,0,0,0,0,0,0,0,0.53106,-0.454486,0.694258,0.574588,0.175229,0.152607,0.784764,0,0,0,0.609654,-2.25811,0.148784,-0.0198894,0.440478,-0.250589,0.0178003,0.250421,-0.47703,0.599941,-0.458243,-0.0613434,0.647698,0.620067,0.700237,-0.326376,1
1.83986,-1.11051,-1.81701,-1.05307,2.00074,1.18597,-0.946859,1.83986,-1.11051,-1.81701,-1.05307,2.00074,1.18597,-0.946859,1.78026,-1.06467,-1.81524,-1.11695,1.9373,1.11682,-0.916337,0,0,0,0,0,0,0,0,0,0,0,0,0,0,0.53106,-0.454486,0.694258,0.574588,0.175229,0.152607,0.784764,0,0,0,0.608881,-2.25433,0.145875,-0.0765515,0.373921,-0.288153,-0.00954509,0.354099,-0.493509,0.596052,-0.458446,-0.0177025,0.638777,0.634495,0.691427,-0.305217,1
1.83827,-1.10942,-1.81429,-1.05351,2.00162,1.18519,-0.945637,1.83827,-1.10942,-1.81429,-1.05351,2.00162,1.18519,-0.945637,1.78026,-1.06467,-1.81524,-1.11695,1.9373,1.11682,-0.916337,0,0,0,0,0,0,0,0,0,0,0,0,0,0,0.53106,-0.454486,0.694258,0.574588,0.175229,0.152607,0.784764,0,0,0,0.607552,-2.24932,0.142835,-0.140576,0.529793,-0.321342,-0.0568473,0.401859,-0.520264,0.58016,-0.447511,0.00948103,0.634387,0.643224,0.683706,-0.293,1
1.83659,-1.1077,-1.8115,-1.05479,2.00302,1.18414,-0.942309,1.83659,-1.1077,-1.8115,-1.05479,2.00302,1.18414,-0.942309,1.78026,-1.06467,-1.81524,-1.11695,1.9373,1.11682,-0.916337,0,0,0,0,0,0,0,0,0,0,0,0,0,0,0.53106,-0.454486,0.694258,0.574588,0.175229,0.152607,0.784764,0,0,0,0.606209,-2.24221,0.139823,-0.133138,0.704928,-0.298768,-0.0939524,0.494857,-0.539416,0.563381,-0.430333,0.0374187,0.621637,0.657246,0.673142,-0.259715,1
1.83333,-1.10621,-1.81015,-1.05622,2.0044,1.18295,-0.940141,1.83333,-1.10621,-1.81015,-1.05622,2.0044,1.18295,-0.940141,1.78026,-1.06467,-1.81524,-1.11695,1.9373,1.11682,-0.916337,0,0,0,0,0,0,0,0,0,0,0,0,0,0,0.53106,-0.454486,0.694258,0.574588,0.175229,0.152607,0.784764,0,0,0,0.604877,-2.23361,0.13629,-0.134252,0.866511,-0.356061,-0.122261,0.61101,-0.560404,0.530698,-0.415421,0.0508914,0.607319,0.671091,0.661293,-0.238041,1
1.82827,-1.1054,-1.8117,-1.05837,2.00569,1.18169,-0.938343,1.82827,-1.1054,-1.8117,-1.05837,2.00569,1.18169,-0.938343,1.78026,-1.06467,-1.81524,-1.11695,1.9373,1.11682,-0.916337,0,0,0,0,0,0,0,0,0,0,0,0,0,0,0.53106,-0.454486,0.694258,0.574588,0.175229,0.152607,0.784764,0,0,0,0.602732,-2.22487,0.133442,-0.220574,0.898869,-0.29284,-0.149721,0.746169,-0.564092,0.480093,-0.407306,0.0354287,0.585835,0.683912,0.648701,-0.220062,1
1.82304,-1.10419,-1.81121,-1.0599,2.00647,1.18035,-0.938573,1.82304,-1.10419,-1.81121,-1.0599,2.00647,1.18035,-0.938573,1.78026,-1.06467,-1.81524,-1.11695,1.9373,1.11682,-0.916337,0,0,0,0,0,0,0,0,0,0,0,0,0,0,0.53106,-0.454486,0.694258,0.574588,0.175229,0.152607,0.784764,0,0,0,0.600474,-2.21522,0.130691,-0.234244,1.00156,-0.285371,-0.176322,0.855417,-0.556682,0.427883,-0.395292,0.0402765,0.570531,0.691783,0.635209,-0.222363,1
1.81749,-1.10343,-1.8118,-1.0607,2.00666,1.17907,-0.941469,1.81749,-1.10343,-1.8118,-1.0607,2.00666,1.17907,-0.941469,1.78026,-1.06467,-1.81524,-1.11695,1.9373,1.11682,-0.916337,0,0,0,0,0,0,0,0,0,0,0,0,0,0,0.53106,-0.454486,0.694258,0.574588,0.175229,0.152607,0.784764,0,0,0,0.598103,-2.2053,0.128104,-0.230843,0.965362,-0.251826,-0.20617,0.922213,-0.540369,0.372308,-0.387683,0.0343632,0.56257,0.693647,0.622491,-0.251317,1
1.81192,-1.10288,-1.81198,-1.0617,2.00691,1.17759,-0.942891,1.81192,-1.10288,-1.81198,-1.0617,2.00691,1.17759,-0.942891,1.78026,-1.06467,-1.81524,-1.11695,1.9373,1.11682,-0.916337,0,0,0,0,0,0,0,0,0,0,0,0,0,0,0.53106,-0.454486,0.694258,0.574588,0.175229,0.152607,0.784764,0,0,0,0.596001,-2.19397,0.125635,-0.212223,1.14401,-0.249389,-0.223817,0.988555,-0.516486,0.31664,-0.38216,0.0325625,0.552536,0.696196,0.607652,-0.26554,1
1.80721,-1.10229,-1.81045,-1.06263,2.00698,1.17636,-0.943174,1.80721,-1.10229,-1.81045,-1.06263,2.00698,1.17636,-0.943174,1.78026,-1.06467,-1.81524,-1.11695,1.9373,1.11682,-0.916337,0,0,0,0,0,0,0,0,0,0,0,0,0,0,0.53106,-0.454486,0.694258,0.574588,0.175229,0.152607,0.784764,0,0,0,0.59371,-2.18281,0.123553,-0.222523,1.08435,-0.202139,-0.225174,1.05376,-0.498341,0.269562,-0.376266,0.0479569,0.543186,0.696866,0.59534,-0.268369,1
1.8046,-1.1011,-1.80993,-1.06338,2.00702,1.17597,-0.943772,1.8046,-1.1011,-1.80993,-1.06338,2.00702,1.17597,-0.943772,1.78026,-1.06467,-1.81524,-1.11695,1.9373,1.11682,-0.916337,0,0,0,0,0,0,0,0,0,0,0,0,0,0,0.53106,-0.454486,0.694258,0.574588,0.175229,0.152607,0.784764,0,0,0,0.591328,-2.17185,0.121644,-0.237907,1.09407,-0.190689,-0.22684,1.09218,-0.476439,0.243405,-0.364304,0.0531342,0.535763,0.697284,0.591443,-0.27435,1
1.80254,-1.09998,-1.8092,-1.0638,2.0071,1.17574,-0.943317,1.80254,-1.09998,-1.8092,-1.0638,2.0071,1.17574,-0.943317,1.78026,-1.06467,-1.81524,-1.11695,1.9373,1.11682,-0.916337,0,0,0,0,0,0,0,0,0,0,0,0,0,0,0.53106,-0.454486,0.694258,0.574588,0.175229,0.152607,0.784764,0,0,0,0.588885,-2.16101,0.12014,-0.245126,1.0884,-0.15093,-0.231088,1.1071,-0.449191,0.222863,-0.353154,0.0604364,0.531559,0.698059,0.589149,-0.269797,1
1.80208,-1.09905,-1.80941,-1.06361,2.00705,1.17611,-0.944137,1.80208,-1.09905,-1.80941,-1.06361,2.00705,1.17611,-0.944137,1.78026,-1.06467,-1.81524,-1.11695,1.9373,1.11682,-0.916337,0,0,0,0,0,0,0,0,0,0,0,0,0,0,0.53106,-0.454486,0.694258,0.574588,0.175229,0.152607,0.784764,0,0,0,0.586308,-2.15057,0.118867,-0.256913,1.0402,-0.126921,-0.242122,1.08605,-0.419497,0.218227,-0.343885,0.0583248,0.533401,0.697502,0.592818,-0.277996,1
1.80203,-1.09885,-1.81008,-1.06343,2.00695,1.17641,-0.944839,1.80203,-1.09885,-1.81008,-1.06343,2.00695,1.17641,-0.944839,1.78026,-1.06467,-1.81524,-1.11695,1.9373,1.11682,-0.916337,0,0,0,0,0,0,0,0,0,0,0,0,0,0,0.53106,-0.454486,0.694258,0.574588,0.175229,0.152607,0.784764,0,0,0,0.583376,-2.1404,0.117784,-0.292541,1.01482,-0.10807,-0.256891,1.06099,-0.393171,0.217691,-0.341862,0.0516096,0.535207,0.696584,0.595815,-0.285018,1
1.8029,-1.09901,-1.8105,-1.06302,2.00679,1.17677,-0.945793,1.8029,-1.09901,-1.8105,-1.06302,2.00679,1.17677,-0.945793,1.78026,-1.06467,-1.81524,-1.11695,1.9373,1.11682,-0.916337,0,0,0,0,0,0,0,0,0,0,0,0,0,0,0.53106,-0.454486,0.694258,0.574588,0.175229,0.152607,0.784764,0,0,0,0.580282,-2.13085,0.116787,-0.306454,0.946129,-0.0986747,-0.276017,1.02618,-0.370701,0.226393,-0.34348,0.0473943,0.539331,0.694936,0.599428,-0.294555,1
1.80396,-1.0992,-1.81141,-1.06261,2.00656,1.17707,-0.946718,1.80396,-1.0992,-1.81141,-1.06261,2.00656,1.17707,-0.946718,1.78026,-1.06467,-1.81524,-1.11695,1.9373,1.11682,-0.916337,0,0,0,0,0,0,0,0,0,0,0,0,0,0,0.53106,-0.454486,0.694258,0.574588,0.175229,0.152607,0.784764,0,0,0,0.577162,-2.12126,0.11615,-0.303576,0.933137,-0.0619992,-0.294718,0.992174,-0.350586,0.237036,-0.345339,0.0382981,0.543472,0.692651,0.602477,-0.303812,1
1.80485,-1.09922,-1.81149,-1.06242,2.00644,1.17716,-0.94692,1.80485,-1.09922,-1.81149,-1.06242,2.00644,1.17716,-0.94692,1.78026,-1.06467,-1.81524,-1.11695,1.9373,1.11682,-0.916337,0,0,0,0,0,0,0,0,0,0,0,0,0,0,0.53106,-0.454486,0.694258,0.574588,0.175229,0.152607,0.784764,0,0,0,0.574082,-2.11145,0.115675,-0.30401,0.96806,-0.046948,-0.306654,0.97383,-0.330176,0.245973,-0.345558,0.0374946,0.545295,0.691428,0.603349,-0.305826,1
1.80354,-1.09869,-1.80933,-1.06355,2.00669,1.17608,-0.945005,1.80354,-1.09869,-1.80933,-1.06355,2.00669,1.17608,-0.945005,1.78026,-1.06467,-1.81524,-1.11695,1.9373,1.11682,-0.916337,0,0,0,0,0,0,0,0,0,0,0,0,0,0,0.53106,-0.454486,0.694258,0.574588,0.175229,0.152607,0.784764,0,0,0,0.571857,-2.09749,0.115809,-0.226547,1.42141,0.0136667,-0.292362,1.0521,-0.300623,0.232793,-0.340208,0.0591163,0.534062,0.693947,0.592513,-0.286681,1
1.80503,-1.09792,-1.81162,-1.06248,2.00648,1.17733,-0.947405,1.80503,-1.09792,-1.81162,-1.06248,2.00648,1.17733,-0.947405,1.78026,-1.06467,-1.81524,-1.11695,1.9373,1.11682,-0.916337,0,0,0,0,0,0,0,0,0,0,0,0,0,0,0.53106,-0.454486,0.694258,0.574588,0.175229,0.152607,0.784764,0,0,0,0.567953,-2.09468,0.114485,-0.389528,0.280651,-0.132077,-0.299618,0.961013,-0.299462,0.247771,-0.332561,0.0362002,0.544694,0.691856,0.605078,-0.310678,1
1.80695,-1.09923,-1.81358,-1.06136,2.00611,1.17832,-0.948402,1.80695,-1.09923,-1.81358,-1.06136,2.00611,1.17832,-0.948402,1.78026,-1.06467,-1.81524,-1.11695,1.9373,1.11682,-0.916337,0,0,0,0,0,0,0,0,0,0,0,0,0,0,0.53106,-0.454486,0.694258,0.574588,0.175229,0.152607,0.784764,0,0,0,0.565134,-2.08682,0.113869,-0.284608,0.793833,-0.062157,-0.301837,0.856509,-0.307512,0.26691,-0.345665,0.0166267,0.555947,0.688186,0.614981,-0.320647,1
1.81155,-1.09991,-1.81373,-1.05951,2.00547,1.17951,-0.948642,1.81155,-1.09991,-1.81373,-1.05951,2.00547,1.17951,-0.948642,1.78026,-1.06467,-1.81524,-1.11695,1.9373,1.11682,-0.916337,0,0,0,0,0,0,0,0,0,0,0,0,0,0,0.53106,-0.454486,0.694258,0.574588,0.175229,0.152607,0.784764,0,0,0,0.562786,-2.07972,0.113386,-0.224174,0.677738,-0.0461649,-0.293155,0.74142,-0.315171,0.312901,-0.352453,0.0151555,0.574472,0.681728,0.62687,-0.323052,1
1.81774,-1.10154,-1.81315,-1.05805,2.00467,1.1808,-0.947698,1.81774,-1.10154,-1.81315,-1.05805,2.00467,1.1808,-0.947698,1.78026,-1.06467,-1.81524,-1.11695,1.9373,1.11682,-0.916337,0,0,0,0,0,0,0,0,0,0,0,0,0,0,0.53106,-0.454486,0.694258,0.574588,0.175229,0.152607,0.784764,0,0,0,0.560598,-2.07302,0.112496,-0.223609,0.6842,-0.0908985,-0.27686,0.639024,-0.32724,0.374841,-0.368728,0.0208889,0.589054,0.673765,0.639794,-0.313609,1
1.82136,-1.1017,-1.81036,-1.059,2.00496,1.18084,-0.944972,1.82136,-1.1017,-1.81036,-1.059,2.00496,1.18084,-0.944972,1.78026,-1.06467,-1.81524,-1.11695,1.9373,1.11682,-0.916337,0,0,0,0,0,0,0,0,0,0,0,0,0,0,0.53106,-0.454486,0.694258,0.574588,0.175229,0.152607,0.784764,0,0,0,0.558814,-2.06753,0.111319,-0.180896,0.556565,-0.119379,-0.228146,0.680857,-0.327048,0.411046,-0.370395,0.048809,0.579489,0.67669,0.64011,-0.286351,1
1.82471,-1.10275,-1.81089,-1.05768,2.00474,1.1817,-0.94376,1.82471,-1.10275,-1.81089,-1.05768,2.00474,1.1817,-0.94376,1.78026,-1.06467,-1.81524,-1.11695,1.9373,1.11682,-0.916337,0,0,0,0,0,0,0,0,0,0,0,0,0,0,0.53106,-0.454486,0.694258,0.574588,0.175229,0.152607,0.784764,0,0,0,0.557434,-2.06302,0.109736,-0.136237,0.445992,-0.156329,-0.193714,0.59782,-0.353334,0.444495,-0.380853,0.0435108,0.59274,0.674422,0.648738,-0.274227,1
1.82855,-1.10482,-1.81243,-1.05662,2.00438,1.18288,-0.942771,1.82855,-1.10482,-1.81243,-1.05662,2.00438,1.18288,-0.942771,1.78026,-1.06467,-1.81524,-1.11695,1.9373,1.11682,-0.916337,0,0,0,0,0,0,0,0,0,0,0,0,0,0,0.53106,-0.454486,0.694258,0.574588,0.175229,0.152607,0.784764,0,0,0,0.556507,-2.05896,0.107735,-0.0941788,0.411686,-0.203108,-0.157219,0.515156,-0.390618,0.482902,-0.401523,0.0280906,0.603334,0.670801,0.660517,-0.264342,1
1.83205,-1.10617,-1.8114,-1.05594,2.00389,1.18359,-0.942238,1.83205,-1.10617,-1.8114,-1.05594,2.00389,1.18359,-0.942238,1.78026,-1.06467,-1.81524,-1.11695,1.9373,1.11682,-0.916337,0,0,0,0,0,0,0,0,0,0,0,0,0,0,0.53106,-0.454486,0.694258,0.574588,0.175229,0.152607,0.784764,0,0,0,0.555828,-2.05468,0.105357,-0.0678057,0.428066,-0.237725,-0.118474,0.452604,-0.428638,0.517963,-0.415031,0.038393,0.610155,0.6659,0.667618,-0.25901,1
1.83412,-1.10731,-1.81234,-1.05526,2.00322,1.18407,-0.942876,1.83412,-1.10731,-1.81234,-1.05526,2.00322,1.18407,-0.942876,1.78026,-1.06467,-1.81524,-1.11695,1.9373,1.11682,-0.916337,0,0,0,0,0,0,0,0,0,0,0,0,0,0,0.53106,-0.454486,0.694258,0.574588,0.175229,0.152607,0.784764,0,0,0,0.55575,-2.05216,0.102452,-0.00754061,0.242676,-0.279478,-0.0773454,0.39094,-0.471145,0.538632,-0.426457,0.0289652,0.616878,0.6592,0.672476,-0.265384,1
1.70219,-1.08545,-1.86979,-1.16918,1.99422,1.05628,-0.869514,1.70219,-1.08545,-1.86979,-1.16918,1.99422,1.05628,-0.869514,1.78026,-1.06467,-1.81524,-1.11695,1.9373,1.11682,-0.916337,0,0,0,0,0,0,0,0,0,0,0,0,0,0,0.53106,-0.454486,0.694258,0.574588,0.175229,0.152607,0.784764,0,0,0,0.470883,-1.54537,0.113803,-2.2063,4.78127,4.36903,-2.10388,4.82939,3.82129,-0.780624,-0.207805,-0.54548,-0.522238,0.569276,-0.605433,0.468231,1
1.7013,-1.07842,-1.86963,-1.16697,1.99345,1.05618,-0.868659,1.7013,-1.07842,-1.86963,-1.16697,1.99345,1.05618,-0.868659,1.78026,-1.06467,-1.81524,-1.11695,1.9373,1.11682,-0.916337,0,0,0,0,0,0,0,0,0,0,0,0,0,0,0.53106,-0.454486,0.694258,0.574588,0.175229,0.152607,0.784764,0,0,0,0.449819,-1.49934,0.15779,-2.12788,4.65029,4.44339,-2.15437,4.7656,4.01471,-0.789524,-0.137572,-0.543893,-0.500133,0.561588,-0.606413,0.476781,1
1.70072,-1.07168,-1.86931,-1.16516,1.99314,1.05627,-0.868139,1.70072,-1.07168,-1.86931,-1.16516,1.99314,1.05627,-0.868139,1.78026,-1.06467,-1.81524,-1.11695,1.9373,1.11682,-0.916337,0,0,0,0,0,0,0,0,0,0,0,0,0,0,0.53106,-0.454486,0.694258,0.574588,0.175229,0.152607,0.784764,0,0,0,0.428606,-1.45245,0.201732,-2.13193,4.71248,4.41635,-2.16008,4.7041,4.11393,-0.795354,-0.0701306,-0.540657,-0.482029,0.558486,-0.605565,0.481983,1
1.70036,-1.06747,-1.86907,-1.16441,1.99308,1.05635,-0.867924,1.70036,-1.06747,-1.86907,-1.16441,1.99308,1.05635,-0.867924,1.78026,-1.06467,-1.81524,-1.11695,1.9373,1.11682,-0.916337,0,0,0,0,0,0,0,0,0,0,0,0,0,0,0.53106,-0.454486,0.694258,0.574588,0.175229,0.152607,0.784764,0,0,0,0.407325,-1.40604,0.244033,-2.0954,4.56924,4.16497,-2.13561,4.67296,4.10848,-0.798917,-0.0280557,-0.538303,-0.474542,0.557854,-0.604715,0.484132,1
1.7001,-1.06443,-1.86883,-1.16381,1.99303,1.05647,-0.867851,1.7001,-1.06443,-1.86883,-1.16381,1.99303,1.05647,-0.867851,1.78026,-1.06467,-1.81524,-1.11695,1.9373,1.11682,-0.916337,0,0,0,0,0,0,0,0,0,0,0,0,0,0,0.53106,-0.454486,0.694258,0.574588,0.175229,0.152607,0.784764,0,0,0,0.387109,-1.3599,0.285696,-1.98324,4.52723,4.08738,-2.10042,4.64248,4.05028,-0.801589,0.00236933,-0.535915,-0.468552,0.557318,-0.603561,0.484864,1
1.6999,-1.06244,-1.86855,-1.16311,1.99305,1.05657,-0.867716,1.6999,-1.06244,-1.86855,-1.16311,1.99305,1.05657,-0.867716,1.78026,-1.06467,-1.81524,-1.11695,1.9373,1.11682,-0.916337,0,0,0,0,0,0,0,0,0,0,0,0,0,0,0.53106,-0.454486,0.694258,0.574588,0.175229,0.152607,0.784764,0,0,0,0.36671,-1.3134,0.327237,-2.08761,4.75891,4.25134,-2.07713,4.64438,3.97859,-0.803584,0.0222895,-0.533108,-0.461591,0.557564,-0.602561,0.486213,1
1.69981,-1.06091,-1.86828,-1.16277,1.99323,1.0567,-0.867662,1.69981,-1.06091,-1.86828,-1.16277,1.99323,1.0567,-0.867662,1.78026,-1.06467,-1.81524,-1.11695,1.9373,1.11682,-0.916337,0,0,0,0,0,0,0,0,0,0,0,0,0,0,0.53106,-0.454486,0.694258,0.574588,0.175229,0.152607,0.784764,0,0,0,0.346818,-1.26647,0.366897,-2.02966,4.78808,4.04666,-2.04189,4.64609,3.88535,-0.80444,0.0375508,-0.530434,-0.458175,0.55931,-0.601271,0.48675,1
1.69983,-1.06034,-1.86795,-1.16285,1.99348,1.05684,-0.867694,1.69983,-1.06034,-1.86795,-1.16285,1.99348,1.05684,-0.867694,1.78026,-1.06467,-1.81524,-1.11695,1.9373,1.11682,-0.916337,0,0,0,0,0,0,0,0,0,0,0,0,0,0,0.53106,-0.454486,0.694258,0.574588,0.175229,0.152607,0.784764,0,0,0,0.327584,-1.21995,0.404225,-1.96345,4.74905,3.81045,-1.99772,4.65621,3.76587,-0.804259,0.0432109,-0.527053,-0.458947,0.561845,-0.599833,0.48643,1
1.69986,-1.06035,-1.86755,-1.16286,1.99367,1.05692,-0.86763,1.69986,-1.06035,-1.86755,-1.16286,1.99367,1.05692,-0.86763,1.78026,-1.06467,-1.81524,-1.11695,1.9373,1.11682,-0.916337,0,0,0,0,0,0,0,0,0,0,0,0,0,0,0.53106,-0.454486,0.694258,0.574588,0.175229,0.152607,0.784764,0,0,0,0.308668,-1.17514,0.441377,-1.86007,4.40614,3.65322,-1.96009,4.62967,3.63351,-0.803929,0.0431265,-0.523087,-0.459108,0.563711,-0.599057,0.48707,1
1.69988,-1.05939,-1.86705,-1.16257,1.99386,1.05703,-0.867538,1.69988,-1.05939,-1.86705,-1.16257,1.99386,1.05703,-0.867538,1.78026,-1.06467,-1.81524,-1.11695,1.9373,1.11682,-0.916337,0,0,0,0,0,0,0,0,0,0,0,0,0,0,0.53106,-0.454486,0.694258,0.574588,0.175229,0.152607,0.784764,0,0,0,0.289923,-1.12931,0.478811,-1.8475,4.51669,3.6894,-1.91726,4.59502,3.52626,-0.80374,0.0527788,-0.518068,-0.456146,0.565688,-0.597897,0.487993,1
1.69987,-1.05635,-1.86629,-1.1618,1.99417,1.05698,-0.867334,1.69987,-1.05635,-1.86629,-1.1618,1.99417,1.05698,-0.867334,1.78026,-1.06467,-1.81524,-1.11695,1.9373,1.11682,-0.916337,0,0,0,0,0,0,0,0,0,0,0,0,0,0,0.53106,-0.454486,0.694258,0.574588,0.175229,0.152607,0.784764,0,0,0,0.272391,-1.08313,0.514936,-1.74387,4.5937,3.59336,-1.86516,4.57318,3.45663,-0.803907,0.0831304,-0.510483,-0.448496,0.568769,-0.598417,0.49003,1
1.69982,-1.05323,-1.8652,-1.16083,1.9944,1.05669,-0.867265,1.69982,-1.05323,-1.8652,-1.16083,1.9944,1.05669,-0.867265,1.78026,-1.06467,-1.81524,-1.11695,1.9373,1.11682,-0.916337,0,0,0,0,0,0,0,0,0,0,0,0,0,0,0.53106,-0.454486,0.694258,0.574588,0.175229,0.152607,0.784764,0,0,0,0.255142,-1.03808,0.549877,-1.67949,4.3863,3.40202,-1.81162,4.55746,3.39862,-0.804352,0.114368,-0.49962,-0.438789,0.571001,-0.601361,0.490726,1
1.69979,-1.05168,-1.86426,-1.16029,1.99457,1.0564,-0.867236,1.69979,-1.05168,-1.86426,-1.16029,1.99457,1.0564,-0.867236,1.78026,-1.06467,-1.81524,-1.11695,1.9373,1.11682,-0.916337,0,0,0,0,0,0,0,0,0,0,0,0,0,0,0.53106,-0.454486,0.694258,0.574588,0.175229,0.152607,0.784764,0,0,0,0.237485,-0.992951,0.583405,-1.63357,4.17512,3.10191,-1.77148,4.55607,3.30121,-0.804621,0.129834,-0.490167,-0.433366,0.572786,-0.604255,0.491008,1
1.69977,-1.0507,-1.86342,-1.1598,1.99476,1.05625,-0.867198,1.69977,-1.0507,-1.86342,-1.1598,1.99476,1.05625,-0.867198,1.78026,-1.06467,-1.81524,-1.11695,1.9373,1.11682,-0.916337,0,0,0,0,0,0,0,0,0,0,0,0,0,0,0.53106,-0.454486,0.694258,0.574588,0.175229,0.152607,0.784764,0,0,0,0.220595,-0.947921,0.616233,-1.81567,4.84085,3.52909,-1.73562,4.5296,3.18314,-0.804909,0.139672,-0.48182,-0.42847,0.574615,-0.605769,0.491394,1
1.69975,-1.04943,-1.86247,-1.15915,1.99502,1.0562,-0.867221,1.69975,-1.04943,-1.86247,-1.15915,1.99502,1.0562,-0.867221,1.78026,-1.06467,-1.81524,-1.11695,1.9373,1.11682,-0.916337,0,0,0,0,0,0,0,0,0,0,0,0,0,0,0.53106,-0.454486,0.694258,0.574588,0.175229,0.152607,0.784764,0,0,0,0.204972,-0.903532,0.64798,-1.63253,4.63854,3.31749,-1.69384,4.49353,3.07444,-0.805039,0.152366,-0.472269,-0.422006,0.577292,-0.606294,0.491156,1
1.69971,-1.04754,-1.86147,-1.15823,1.99523,1.05621,-0.867477,1.69971,-1.04754,-1.86147,-1.15823,1.99523,1.05621,-0.867477,1.78026,-1.06467,-1.81524,-1.11695,1.9373,1.11682,-0.916337,0,0,0,0,0,0,0,0,0,0,0,0,0,0,0.53106,-0.454486,0.694258,0.574588,0.175229,0.152607,0.784764,0,0,0,0.189564,-0.859662,0.679322,-1.52109,4.33095,3.09407,-1.63667,4.46256,2.98465,-0.805431,0.171218,-0.462297,-0.412806,0.579313,-0.606097,0.488601,1
1.69966,-1.04532,-1.86057,-1.15722,1.99539,1.05623,-0.867811,1.69966,-1.04532,-1.86057,-1.15722,1.99539,1.05623,-0.867811,1.78026,-1.06467,-1.81524,-1.11695,1.9373,1.11682,-0.916337,0,0,0,0,0,0,0,0,0,0,0,0,0,0,0.53106,-0.454486,0.694258,0.574588,0.175229,0.152607,0.784764,0,0,0,0.173832,-0.815491,0.70977,-1.63969,4.60367,3.17349,-1.58336,4.43181,2.90819,-0.805949,0.193457,-0.453273,-0.402665,0.580921,-0.605902,0.485262,1
1.69962,-1.04305,-1.85984,-1.15644,1.99564,1.05623,-0.867997,1.69962,-1.04305,-1.85984,-1.15644,1.99564,1.05623,-0.867997,1.78026,-1.06467,-1.81524,-1.11695,1.9373,1.11682,-0.916337,0,0,0,0,0,0,0,0,0,0,0,0,0,0,0.53106,-0.454486,0.694258,0.574588,0.175229,0.152607,0.784764,0,0,0,0.158933,-0.771467,0.739278,-1.55888,4.60611,3.08729,-1.54465,4.4095,2.82879,-0.806383,0.216115,-0.446012,-0.394838,0.583495,-0.605945,0.483399,1
1.69955,-1.04098,-1.85912,-1.15555,1.99583,1.05621,-0.86821,1.69955,-1.04098,-1.85912,-1.15555,1.99583,1.05621,-0.86821,1.78026,-1.06467,-1.81524,-1.11695,1.9373,1.11682,-0.916337,0,0,0,0,0,0,0,0,0,0,0,0,0,0,0.53106,-0.454486,0.694258,0.574588,0.175229,0.152607,0.784764,0,0,0,0.144542,-0.727862,0.768263,-1.46796,4.44814,2.9568,-1.51491,4.39535,2.75522,-0.80702,0.236812,-0.438791,-0.386023,0.585355,-0.606183,0.481268,1
1.69951,-1.03928,-1.85836,-1.15476,1.99604,1.05616,-0.868406,1.69951,-1.03928,-1.85836,-1.15476,1.99604,1.05616,-0.868406,1.78026,-1.06467,-1.81524,-1.11695,1.9373,1.11682,-0.916337,0,0,0,0,0,0,0,0,0,0,0,0,0,0,0.53106,-0.454486,0.694258,0.574588,0.175229,0.152607,0.784764,0,0,0,0.130139,-0.683662,0.796249,-1.42926,4.38593,2.77705,-1.48141,4.39627,2.67348,-0.807423,0.253817,-0.431163,-0.378054,0.587463,-0.606616,0.479312,1
1.6995,-1.03819,-1.85749,-1.1541,1.99628,1.05612,-0.868604,1.6995,-1.03819,-1.85749,-1.1541,1.99628,1.05612,-0.868604,1.78026,-1.06467,-1.81524,-1.11695,1.9373,1.11682,-0.916337,0,0,0,0,0,0,0,0,0,0,0,0,0,0,0.53106,-0.454486,0.694258,0.574588,0.175229,0.152607,0.784764,0,0,0,0.116243,-0.639874,0.822283,-1.32764,4.18364,2.48731,-1.43972,4.39038,2.56996,-0.807528,0.264797,-0.42246,-0.371441,0.589816,-0.607027,0.477333,1
1.69951,-1.03749,-1.85672,-1.15355,1.99652,1.05614,-0.868794,1.69951,-1.03749,-1.85672,-1.15355,1.99652,1.05614,-0.868794,1.78026,-1.06467,-1.81524,-1.11695,1.9373,1.11682,-0.916337,0,0,0,0,0,0,0,0,0,0,0,0,0,0,0.53106,-0.454486,0.694258,0.574588,0.175229,0.152607,0.784764,0,0,0,0.102872,-0.596755,0.847353,-1.32328,4.26731,2.48113,-1.40421,4.37411,2.45171,-0.807508,0.271732,-0.414828,-0.366006,0.592273,-0.60689,0.47543,1
1.69951,-1.03654,-1.85598,-1.15287,1.99676,1.05617,-0.869006,1.69951,-1.03654,-1.85598,-1.15287,1.99676,1.05617,-0.869006,1.78026,-1.06467,-1.81524,-1.11695,1.9373,1.11682,-0.916337,0,0,0,0,0,0,0,0,0,0,0,0,0,0,0.53106,-0.454486,0.694258,0.574588,0.175229,0.152607,0.784764,0,0,0,0.0897989,-0.553781,0.872554,-1.3577,4.46306,2.61725,-1.36754,4.35069,2.34687,-0.807462,0.281217,-0.407351,-0.359179,0.594614,-0.60658,0.473314,1
1.69953,-1.03535,-1.85512,-1.1521,1.99696,1.05618,-0.869256,1.69953,-1.03535,-1.85512,-1.1521,1.99696,1.05618,-0.869256,1.78026,-1.06467,-1.81524,-1.11695,1.9373,1.11682,-0.916337,0,0,0,0,0,0,0,0,0,0,0,0,0,0,0.53106,-0.454486,0.694258,0.574588,0.175229,0.152607,0.784764,0,0,0,0.0772458,-0.510664,0.896518,-1.28318,4.40747,2.44955,-1.3223,4.3209,2.25809,-0.807304,0.293149,-0.398752,-0.351506,0.596607,-0.606492,0.470811,1
1.69955,-1.03416,-1.85428,-1.15144,1.99714,1.05617,-0.869469,1.69955,-1.03416,-1.85428,-1.15144,1.99714,1.05617,-0.869469,1.78026,-1.06467,-1.81524,-1.11695,1.9373,1.11682,-0.916337,0,0,0,0,0,0,0,0,0,0,0,0,0,0,0.53106,-0.454486,0.694258,0.574588,0.175229,0.152607,0.784764,0,0,0,0.0653393,-0.468172,0.919581,-1.12969,4.03166,2.1883,-1.27434,4.29496,2.18762,-0.807059,0.305031,-0.390429,-0.344857,0.598434,-0.606575,0.468681,1
1.69959,-1.03332,-1.85356,-1.15082,1.99735,1.05615,-0.869668,1.69959,-1.03332,-1.85356,-1.15082,1.99735,1.05615,-0.869668,1.78026,-1.06467,-1.81524,-1.11695,1.9373,1.11682,-0.916337,0,0,0,0,0,0,0,0,0,0,0,0,0,0,0.53106,-0.454486,0.694258,0.574588,0.175229,0.152607,0.784764,0,0,0,0.0536094,-0.425721,0.941674,-1.22741,4.44207,2.31171,-1.22985,4.27678,2.10668,-0.806653,0.313466,-0.383237,-0.338693,0.600581,-0.606775,0.46669,1
1.69963,-1.03294,-1.85322,-1.15052,1.99763,1.05624,-0.869865,1.69963,-1.03294,-1.85322,-1.15052,1.99763,1.05624,-0.869865,1.78026,-1.06467,-1.81524,-1.11695,1.9373,1.11682,-0.916337,0,0,0,0,0,0,0,0,0,0,0,0,0,0,0.53106,-0.454486,0.694258,0.574588,0.175229,0.152607,0.784764,0,0,0,0.041629,-0.383443,0.962623,-1.19998,4.23455,2.09835,-1.19976,4.25618,2.00294,-0.806213,0.317247,-0.379822,-0.335673,0.603309,-0.605862,0.464716,1
1.69971,-1.03281,-1.85269,-1.15035,1.99797,1.05632,-0.870041,1.69971,-1.03281,-1.85269,-1.15035,1.99797,1.05632,-0.870041,1.78026,-1.06467,-1.81524,-1.11695,1.9373,1.11682,-0.916337,0,0,0,0,0,0,0,0,0,0,0,0,0,0,0.53106,-0.454486,0.694258,0.574588,0.175229,0.152607,0.784764,0,0,0,0.0310025,-0.341367,0.982481,-1.04533,4.13908,1.95342,-1.16197,4.23322,1.89969,-0.805488,0.318566,-0.374454,-0.334006,0.606751,-0.605075,0.462958,1
1.69981,-1.03262,-1.85189,-1.15035,1.99835,1.05642,-0.870222,1.69981,-1.03262,-1.85189,-1.15035,1.99835,1.05642,-0.870222,1.78026,-1.06467,-1.81524,-1.11695,1.9373,1.11682,-0.916337,0,0,0,0,0,0,0,0,0,0,0,0,0,0,0.53106,-0.454486,0.694258,0.574588,0.175229,0.152607,0.784764,0,0,0,0.0211323,-0.299578,1.00175,-0.976758,4.13547,1.90662,-1.11021,4.21542,1.8014,-0.804427,0.320444,-0.366519,-0.333968,0.610523,-0.604022,0.461148,1
1.69992,-1.03238,-1.85096,-1.15022,1.99872,1.05656,-0.870399,1.69992,-1.03238,-1.85096,-1.15022,1.99872,1.05656,-0.870399,1.78026,-1.06467,-1.81524,-1.11695,1.9373,1.11682,-0.916337,0,0,0,0,0,0,0,0,0,0,0,0,0,0,0.53106,-0.454486,0.694258,0.574588,0.175229,0.152607,0.784764,0,0,0,0.0110328,-0.258,1.02035,-1.0572,4.35222,1.94765,-1.0565,4.19306,1.71485,-0.803344,0.322875,-0.357195,-0.332632,0.614275,-0.602683,0.459382,1
1.70001,-1.03214,-1.85012,-1.15005,1.99908,1.05668,-0.870497,1.70001,-1.03214,-1.85012,-1.15005,1.99908,1.05668,-0.870497,1.78026,-1.06467,-1.81524,-1.11695,1.9373,1.11682,-0.916337,0,0,0,0,0,0,0,0,0,0,0,0,0,0,0.53106,-0.454486,0.694258,0.574588,0.175229,0.152607,0.784764,0,0,0,0.00108166,-0.216176,1.03798,-0.969753,4.07581,1.71739,-1.01064,4.17901,1.6358,-0.802412,0.325272,-0.348807,-0.330944,0.617827,-0.60146,0.458403,1
1.70008,-1.03182,-1.8495,-1.14984,1.99938,1.05679,-0.870543,1.70008,-1.03182,-1.8495,-1.14984,1.99938,1.05679,-0.870543,1.78026,-1.06467,-1.81524,-1.11695,1.9373,1.11682,-0.916337,0,0,0,0,0,0,0,0,0,0,0,0,0,0,0.53106,-0.454486,0.694258,0.574588,0.175229,0.152607,0.784764,0,0,0,-0.00804453,-0.174897,1.05483,-0.913907,4.13379,1.68765,-0.981448,4.16341,1.55926,-0.801745,0.328477,-0.342629,-0.328867,0.62082,-0.600391,0.457936,1
1.70015,-1.03172,-1.84904,-1.14981,1.99965,1.05685,-0.87055,1.70015,-1.03172,-1.84904,-1.14981,1.99965,1.05685,-0.87055,1.78026,-1.06467,-1.81524,-1.11695,1.9373,1.11682,-0.916337,0,0,0,0,0,0,0,0,0,0,0,0,0,0,0.53106,-0.454486,0.694258,0.574588,0.175229,0.152607,0.784764,0,0,0,-0.0171481,-0.133393,1.07055,-0.845473,3.85457,1.45957,-0.95638,4.15472,1.47071,-0.801054,0.329481,-0.337996,-0.32858,0.623524,-0.599783,0.457875,1
1.70024,-1.03158,-1.8485,-1.1499,1.99995,1.05688,-0.870492,1.70024,-1.03158,-1.8485,-1.1499,1.99995,1.05688,-0.870492,1.78026,-1.06467,-1.81524,-1.11695,1.9373,1.11682,-0.916337,0,0,0,0,0,0,0,0,0,0,0,0,0,0,0.53106,-0.454486,0.694258,0.574588,0.175229,0.152607,0.784764,0,0,0,-0.0262231,-0.0920933,1.08546,-0.924846,4.20893,1.52025,-0.927414,4.14597,1.37786,-0.800159,0.330821,-0.332608,-0.329503,0.626499,-0.599397,0.45845,1
1.70036,-1.03161,-1.84781,-1.14997,2.00027,1.05688,-0.870502,1.70036,-1.03161,-1.84781,-1.14997,2.00027,1.05688,-0.870502,1.78026,-1.06467,-1.81524,-1.11695,1.9373,1.11682,-0.916337,0,0,0,0,0,0,0,0,0,0,0,0,0,0,0.53106,-0.454486,0.694258,0.574588,0.175229,0.152607,0.784764,0,0,0,-0.0343146,-0.0512188,1.09894,-0.798502,4.03366,1.32984,-0.88971,4.12719,1.27556,-0.79896,0.330518,-0.325717,-0.330134,0.629757,-0.599424,0.458347,1
1.70049,-1.0315,-1.84693,-1.15001,2.00061,1.05694,-0.870519,1.70049,-1.0315,-1.84693,-1.15001,2.00061,1.05694,-0.870519,1.78026,-1.06467,-1.81524,-1.11695,1.9373,1.11682,-0.916337,0,0,0,0,0,0,0,0,0,0,0,0,0,0,0.53106,-0.454486,0.694258,0.574588,0.175229,0.152607,0.784764,0,0,0,-0.0421499,-0.0106332,1.11192,-0.795118,4.11857,1.31753,-0.853772,4.10701,1.17578,-0.797703,0.331628,-0.316888,-0.330592,0.633171,-0.598878,0.458183,1
1.70064,-1.03149,-1.84573,-1.15007,2.00099,1.05701,-0.870611,1.70064,-1.03149,-1.84573,-1.15007,2.00099,1.05701,-0.870611,1.78026,-1.06467,-1.81524,-1.11695,1.9373,1.11682,-0.916337,0,0,0,0,0,0,0,0,0,0,0,0,0,0,0.53106,-0.454486,0.694258,0.574588,0.175229,0.152607,0.784764,0,0,0,-0.049162,0.0299723,1.1239,-0.686089,3.973,1.17217,-0.799546,4.08191,1.08172,-0.79614,0.331794,-0.304918,-0.331165,0.636935,-0.598118,0.457256,1
1.7008,-1.03152,-1.84447,-1.15021,2.00135,1.0571,-0.870678,1.7008,-1.03152,-1.84447,-1.15021,2.00135,1.0571,-0.870678,1.78026,-1.06467,-1.81524,-1.11695,1.9373,1.11682,-0.916337,0,0,0,0,0,0,0,0,0,0,0,0,0,0,0.53106,-0.454486,0.694258,0.574588,0.175229,0.152607,0.784764,0,0,0,-0.0559512,0.0704769,1.13506,-0.691881,4.12779,1.13704,-0.743036,4.06331,0.99156,-0.794539,0.331435,-0.292255,-0.332558,0.640565,-0.597246,0.456593,1
1.70095,-1.03148,-1.84321,-1.15024,2.00169,1.0572,-0.870708,1.70095,-1.03148,-1.84321,-1.15024,2.00169,1.0572,-0.870708,1.78026,-1.06467,-1.81524,-1.11695,1.9373,1.11682,-0.916337,0,0,0,0,0,0,0,0,0,0,0,0,0,0,0.53106,-0.454486,0.694258,0.574588,0.175229,0.152607,0.784764,0,0,0,-0.0623026,0.110018,1.14516,-0.629368,3.91815,1.00042,-0.697774,4.03584,0.905708,-0.793079,0.331857,-0.27974,-0.332924,0.643971,-0.596221,0.456288,1
1.70108,-1.03149,-1.84212,-1.15031,2.002,1.0573,-0.870703,1.70108,-1.03149,-1.84212,-1.15031,2.002,1.0573,-0.870703,1.78026,-1.06467,-1.81524,-1.11695,1.9373,1.11682,-0.916337,0,0,0,0,0,0,0,0,0,0,0,0,0,0,0.53106,-0.454486,0.694258,0.574588,0.175229,0.152607,0.784764,0,0,0,-0.0686737,0.149809,1.15455,-0.657599,4.10707,0.970123,-0.661883,4.0093,0.81518,-0.791731,0.331705,-0.268761,-0.333578,0.647022,-0.595249,0.456337,1
1.70121,-1.03168,-1.84111,-1.15051,2.00226,1.05739,-0.870705,1.70121,-1.03168,-1.84111,-1.15051,2.00226,1.05739,-0.870705,1.78026,-1.06467,-1.81524,-1.11695,1.9373,1.11682,-0.916337,0,0,0,0,0,0,0,0,0,0,0,0,0,0,0.53106,-0.454486,0.694258,0.574588,0.175229,0.152607,0.784764,0,0,0,-0.0743021,0.189641,1.16262,-0.562337,3.97969,0.805822,-0.630027,3.9867,0.719305,-0.790418,0.329829,-0.25869,-0.335594,0.649634,-0.594352,0.456325,1
1.70136,-1.03218,-1.84006,-1.15067,2.00248,1.05748,-0.870785,1.70136,-1.03218,-1.84006,-1.15067,2.00248,1.05748,-0.870785,1.78026,-1.06467,-1.81524,-1.11695,1.9373,1.11682,-0.916337,0,0,0,0,0,0,0,0,0,0,0,0,0,0,0.53106,-0.454486,0.694258,0.574588,0.175229,0.152607,0.784764,0,0,0,-0.079061,0.228913,1.16981,-0.468593,3.86688,0.707943,-0.582191,3.96494,0.619644,-0.789007,0.324807,-0.248163,-0.337224,0.651848,-0.593412,0.455519,1
1.70149,-1.0326,-1.83915,-1.15085,2.00269,1.05758,-0.870774,1.70149,-1.0326,-1.83915,-1.15085,2.00269,1.05758,-0.870774,1.78026,-1.06467,-1.81524,-1.11695,1.9373,1.11682,-0.916337,0,0,0,0,0,0,0,0,0,0,0,0,0,0,0.53106,-0.454486,0.694258,0.574588,0.175229,0.152607,0.784764,0,0,0,-0.0839802,0.268196,1.17667,-0.489224,3.90688,0.682424,-0.537424,3.9546,0.532866,-0.787704,0.320693,-0.239087,-0.339015,0.653988,-0.592478,0.455632,1
1.70162,-1.03298,-1.83823,-1.15095,2.00292,1.05768,-0.87079,1.70162,-1.03298,-1.83823,-1.15095,2.00292,1.05768,-0.87079,1.78026,-1.06467,-1.81524,-1.11695,1.9373,1.11682,-0.916337,0,0,0,0,0,0,0,0,0,0,0,0,0,0,0.53106,-0.454486,0.694258,0.574588,0.175229,0.152607,0.784764,0,0,0,-0.0884054,0.307403,1.18261,-0.443972,3.93348,0.595822,-0.491415,3.93743,0.451628,-0.786391,0.316866,-0.229926,-0.339979,0.656239,-0.591415,0.455471,1
1.70174,-1.03316,-1.83742,-1.15112,2.00311,1.05774,-0.870688,1.70174,-1.03316,-1.83742,-1.15112,2.00311,1.05774,-0.870688,1.78026,-1.06467,-1.81524,-1.11695,1.9373,1.11682,-0.916337,0,0,0,0,0,0,0,0,0,0,0,0,0,0,0.53106,-0.454486,0.694258,0.574588,0.175229,0.152607,0.784764,0,0,0,-0.0926928,0.346475,1.18733,-0.41053,3.74127,0.451908,-0.461258,3.92158,0.372203,-0.785207,0.315091,-0.221809,-0.341685,0.658115,-0.590884,0.456494,1
1.70185,-1.0333,-1.83662,-1.15135,2.00327,1.05774,-0.870507,1.70185,-1.0333,-1.83662,-1.15135,2.00327,1.05774,-0.870507,1.78026,-1.06467,-1.81524,-1.11695,1.9373,1.11682,-0.916337,0,0,0,0,0,0,0,0,0,0,0,0,0,0,0.53106,-0.454486,0.694258,0.574588,0.175229,0.152607,0.784764,0,0,0,-0.0965058,0.385089,1.19167,-0.386113,3.91017,0.439275,-0.436022,3.90632,0.293745,-0.784045,0.313605,-0.213757,-0.343986,0.659795,-0.590879,0.458303,1
1.70199,-1.03369,-1.83571,-1.15168,2.00344,1.05772,-0.870376,1.70199,-1.03369,-1.83571,-1.15168,2.00344,1.05772,-0.870376,1.78026,-1.06467,-1.81524,-1.11695,1.9373,1.11682,-0.916337,0,0,0,0,0,0,0,0,0,0,0,0,0,0,0.53106,-0.454486,0.694258,0.574588,0.175229,0.152607,0.784764,0,0,0,-0.0997929,0.42394,1.1951,-0.327281,3.86819,0.341975,-0.397258,3.89173,0.209194,-0.782623,0.309726,-0.204677,-0.347255,0.661472,-0.591029,0.459606,1
1.70213,-1.03423,-1.83512,-1.15214,2.00358,1.05769,-0.870189,1.70213,-1.03423,-1.83512,-1.15214,2.00358,1.05769,-0.870189,1.78026,-1.06467,-1.81524,-1.11695,1.9373,1.11682,-0.916337,0,0,0,0,0,0,0,0,0,0,0,0,0,0,0.53106,-0.454486,0.694258,0.574588,0.175229,0.152607,0.784764,0,0,0,-0.103381,0.462535,1.19677,-0.361549,3.88893,0.167901,-0.370513,3.87729,0.110897,-0.781308,0.304314,-0.198793,-0.351919,0.662809,-0.591322,0.461483,1
1.70225,-1.03489,-1.83464,-1.15256,2.00369,1.05766,-0.870039,1.70225,-1.03489,-1.83464,-1.15256,2.00369,1.05766,-0.870039,1.78026,-1.06467,-1.81524,-1.11695,1.9373,1.11682,-0.916337,0,0,0,0,0,0,0,0,0,0,0,0,0,0,0.53106,-0.454486,0.694258,0.574588,0.175229,0.152607,0.784764,0,0,0,-0.106242,0.500877,1.19784,-0.282881,3.79065,0.106329,-0.339744,3.8625,0.0112996,-0.78007,0.297759,-0.194005,-0.356034,0.663949,-0.591664,0.462981,1
1.70239,-1.03583,-1.83425,-1.15303,2.00379,1.05761,-0.869954,1.70239,-1.03583,-1.83425,-1.15303,2.00379,1.05761,-0.869954,1.78026,-1.06467,-1.81524,-1.11695,1.9373,1.11682,-0.916337,0,0,0,0,0,0,0,0,0,0,0,0,0,0,0.53106,-0.454486,0.694258,0.574588,0.175229,0.152607,0.784764,0,0,0,-0.108043,0.53937,1.19808,-0.172738,3.69311,0.023092,-0.295234,3.85498,-0.0942388,-0.778679,0.288389,-0.190079,-0.360758,0.664907,-0.592136,0.463834,1
1.70254,-1.03661,-1.83368,-1.1534,2.00389,1.05759,-0.869941,1.70254,-1.03661,-1.83368,-1.1534,2.00389,1.05759,-0.869941,1.78026,-1.06467,-1.81524,-1.11695,1.9373,1.11682,-0.916337,0,0,0,0,0,0,0,0,0,0,0,0,0,0,0.53106,-0.454486,0.694258,0.574588,0.175229,0.152607,0.784764,0,0,0,-0.10955,0.577419,1.19755,-0.159764,4.03254,-0.0561838,-0.241764,3.83792,-0.187792,-0.777206,0.280509,-0.184416,-0.36444,0.66598,-0.592335,0.463964,1
1.70271,-1.0374,-1.83288,-1.15379,2.00402,1.05758,-0.869925,1.70271,-1.0374,-1.83288,-1.15379,2.00402,1.05758,-0.869925,1.78026,-1.06467,-1.81524,-1.11695,1.9373,1.11682,-0.916337,0,0,0,0,0,0,0,0,0,0,0,0,0,0,0.53106,-0.454486,0.694258,0.574588,0.175229,0.152607,0.784764,0,0,0,-0.110985,0.614915,1.19574,-0.142042,3.71171,-0.180016,-0.185161,3.81301,-0.273544,-0.775458,0.272669,-0.176426,-0.368363,0.667252,-0.592418,0.464116,1
1.70291,-1.03798,-1.83186,-1.15425,2.00419,1.05757,-0.869771,1.70291,-1.03798,-1.83186,-1.15425,2.00419,1.05757,-0.869771,1.78026,-1.06467,-1.81524,-1.11695,1.9373,1.11682,-0.916337,0,0,0,0,0,0,0,0,0,0,0,0,0,0,0.53106,-0.454486,0.694258,0.574588,0.175229,0.152607,0.784764,0,0,0,-0.111794,0.652493,1.1937,-0.0856589,3.97939,-0.215703,-0.140458,3.78777,-0.356382,-0.773485,0.266893,-0.166218,-0.372933,0.668969,-0.592506,0.465656,1
1.7031,-1.03889,-1.83102,-1.15484,2.00434,1.05752,-0.869449,1.7031,-1.03889,-1.83102,-1.15484,2.00434,1.05752,-0.869449,1.78026,-1.06467,-1.81524,-1.11695,1.9373,1.11682,-0.916337,0,0,0,0,0,0,0,0,0,0,0,0,0,0,0.53106,-0.454486,0.694258,0.574588,0.175229,0.152607,0.784764,0,0,0,-0.112484,0.690454,1.19005,-0.0651936,3.58807,-0.345157,-0.111259,3.77244,-0.449301,-0.771593,0.257734,-0.157831,-0.378862,0.670486,-0.593073,0.468879,1
1.70331,-1.04007,-1.83002,-1.15538,2.00451,1.05751,-0.869248,1.70331,-1.04007,-1.83002,-1.15538,2.00451,1.05751,-0.869248,1.78026,-1.06467,-1.81524,-1.11695,1.9373,1.11682,-0.916337,0,0,0,0,0,0,0,0,0,0,0,0,0,0,0.53106,-0.454486,0.694258,0.574588,0.175229,0.152607,0.784764,0,0,0,-0.112503,0.72703,1.18548,-0.00197714,3.72158,-0.464591,-0.0740464,3.74762,-0.54835,-0.769502,0.245937,-0.147833,-0.384282,0.672112,-0.593168,0.470891,1
1.70353,-1.04117,-1.82886,-1.15576,2.00468,1.05758,-0.869193,1.70353,-1.04117,-1.82886,-1.15576,2.00468,1.05758,-0.869193,1.78026,-1.06467,-1.81524,-1.11695,1.9373,1.11682,-0.916337,0,0,0,0,0,0,0,0,0,0,0,0,0,0,0.53106,-0.454486,0.694258,0.574588,0.175229,0.152607,0.784764,0,0,0,-0.111974,0.763697,1.18055,0.0524604,3.63792,-0.489134,-0.0268783,3.72101,-0.635869,-0.767305,0.234967,-0.136223,-0.388054,0.673875,-0.592428,0.471443,1
1.70377,-1.04222,-1.82743,-1.15614,2.00488,1.05768,-0.869132,1.70377,-1.04222,-1.82743,-1.15614,2.00488,1.05768,-0.869132,1.78026,-1.06467,-1.81524,-1.11695,1.9373,1.11682,-0.916337,0,0,0,0,0,0,0,0,0,0,0,0,0,0,0.53106,-0.454486,0.694258,0.574588,0.175229,0.152607,0.784764,0,0,0,-0.111361,0.80002,1.17496,0.0621183,3.67772,-0.566422,0.0137548,3.68296,-0.719801,-0.764842,0.224456,-0.121889,-0.39187,0.675818,-0.591466,0.472054,1
1.70399,-1.04244,-1.82665,-1.15669,2.00499,1.05767,-0.869033,1.70399,-1.04244,-1.82665,-1.15669,2.00499,1.05767,-0.869033,1.78026,-1.06467,-1.81524,-1.11695,1.9373,1.11682,-0.916337,0,0,0,0,0,0,0,0,0,0,0,0,0,0,0.53106,-0.454486,0.694258,0.574588,0.175229,0.152607,0.784764,0,0,0,-0.110116,0.836521,1.16841,0.125444,3.6772,-0.65923,0.0587831,3.65123,-0.787925,-0.762662,0.222259,-0.114124,-0.397414,0.67692,-0.591546,0.473041,1
1.70412,-1.04368,-1.82679,-1.15734,2.005,1.05761,-0.868944,1.70412,-1.04368,-1.82679,-1.15734,2.005,1.05761,-0.868944,1.78026,-1.06467,-1.81524,-1.11695,1.9373,1.11682,-0.916337,0,0,0,0,0,0,0,0,0,0,0,0,0,0,0.53106,-0.454486,0.694258,0.574588,0.175229,0.152607,0.784764,0,0,0,-0.108796,0.872846,1.16064,0.12739,3.50675,-0.750334,0.092728,3.64457,-0.868191,-0.761367,0.209866,-0.115455,-0.403871,0.677064,-0.592094,0.473935,1
1.70421,-1.04513,-1.82762,-1.15791,2.00498,1.05754,-0.868965,1.70421,-1.04513,-1.82762,-1.15791,2.00498,1.05754,-0.868965,1.78026,-1.06467,-1.81524,-1.11695,1.9373,1.11682,-0.916337,0,0,0,0,0,0,0,0,0,0,0,0,0,0,0.53106,-0.454486,0.694258,0.574588,0.175229,0.152607,0.784764,0,0,0,-0.107065,0.909009,1.15218,0.172201,3.59672,-0.84104,0.123842,3.63451,-0.960497,-0.760498,0.195343,-0.123778,-0.409565,0.676866,-0.592861,0.47372,1
1.70428,-1.04745,-1.82901,-1.15855,2.00491,1.05744,-0.869076,1.70428,-1.04745,-1.82901,-1.15855,2.00491,1.05744,-0.869076,1.78026,-1.06467,-1.81524,-1.11695,1.9373,1.11682,-0.916337,0,0,0,0,0,0,0,0,0,0,0,0,0,0,0.53106,-0.454486,0.694258,0.574588,0.175229,0.152607,0.784764,0,0,0,-0.105095,0.945377,1.14267,0.197378,3.64346,-0.952806,0.155837,3.63203,-1.05795,-0.759748,0.172141,-0.137694,-0.415944,0.676174,-0.593887,0.472609,1
1.70434,-1.04993,-1.83068,-1.15911,2.00482,1.05732,-0.869244,1.70434,-1.04993,-1.83068,-1.15911,2.00482,1.05732,-0.869244,1.78026,-1.06467,-1.81524,-1.11695,1.9373,1.11682,-0.916337,0,0,0,0,0,0,0,0,0,0,0,0,0,0,0.53106,-0.454486,0.694258,0.574588,0.175229,0.152607,0.784764,0,0,0,-0.103044,0.981512,1.13226,0.21211,3.73807,-1.07775,0.178447,3.62513,-1.15282,-0.759194,0.147381,-0.154406,-0.421583,0.67527,-0.595016,0.470936,1
1.70445,-1.05321,-1.83191,-1.15984,2.00471,1.05724,-0.869503,1.70445,-1.05321,-1.83191,-1.15984,2.00471,1.05724,-0.869503,1.78026,-1.06467,-1.81524,-1.11695,1.9373,1.11682,-0.916337,0,0,0,0,0,0,0,0,0,0,0,0,0,0,0.53106,-0.454486,0.694258,0.574588,0.175229,0.152607,0.784764,0,0,0,-0.100271,1.0176,1.12068,0.275771,3.58881,-1.15094,0.210707,3.62011,-1.24847,-0.758031,0.114577,-0.166704,-0.428862,0.674123,-0.595889,0.468336,1
1.7047,-1.05608,-1.83234,-1.16055,2.00466,1.05717,-0.869785,1.7047,-1.05608,-1.83234,-1.16055,2.00466,1.05717,-0.869785,1.78026,-1.06467,-1.81524,-1.11695,1.9373,1.11682,-0.916337,0,0,0,0,0,0,0,0,0,0,0,0,0,0,0.53106,-0.454486,0.694258,0.574588,0.175229,0.152607,0.784764,0,0,0,-0.0960142,1.05298,1.10877,0.417956,3.47412,-1.16974,0.269245,3.60173,-1.33825,-0.75554,0.0858927,-0.17097,-0.435955,0.67366,-0.596566,0.465517,1
1.705,-1.05897,-1.83261,-1.16121,2.00464,1.05713,-0.869986,1.705,-1.05897,-1.83261,-1.16121,2.00464,1.05713,-0.869986,1.78026,-1.06467,-1.81524,-1.11695,1.9373,1.11682,-0.916337,0,0,0,0,0,0,0,0,0,0,0,0,0,0,0.53106,-0.454486,0.694258,0.574588,0.175229,0.152607,0.784764,0,0,0,-0.0919943,1.08839,1.09568,0.401044,3.53247,-1.30561,0.332305,3.57502,-1.42472,-0.752542,0.0569766,-0.173685,-0.442531,0.673429,-0.596938,0.463507,1
1.70529,-1.06157,-1.83283,-1.16179,2.00461,1.05711,-0.870195,1.70529,-1.06157,-1.83283,-1.16179,2.00461,1.05711,-0.870195,1.78026,-1.06467,-1.81524,-1.11695,1.9373,1.11682,-0.916337,0,0,0,0,0,0,0,0,0,0,0,0,0,0,0.53106,-0.454486,0.694258,0.574588,0.175229,0.152607,0.784764,0,0,0,-0.0876027,1.1233,1.08175,0.443879,3.52774,-1.40831,0.391598,3.54358,-1.51016,-0.749686,0.0309533,-0.17593,-0.448329,0.673154,-0.597152,0.461424,1
1.70551,-1.06426,-1.83337,-1.16238,2.00456,1.05709,-0.870298,1.70551,-1.06426,-1.83337,-1.16238,2.00456,1.05709,-0.870298,1.78026,-1.06467,-1.81524,-1.11695,1.9373,1.11682,-0.916337,0,0,0,0,0,0,0,0,0,0,0,0,0,0,0.53106,-0.454486,0.694258,0.574588,0.175229,0.152607,0.784764,0,0,0,-0.0835179,1.15823,1.06695,0.423866,3.62553,-1.53501,0.41918,3.51578,-1.59475,-0.747426,0.00402344,-0.181254,-0.454299,0.672612,-0.597366,0.46039,1
1.7057,-1.0678,-1.83441,-1.16303,2.00445,1.05704,-0.870363,1.7057,-1.0678,-1.83441,-1.16303,2.00445,1.05704,-0.870363,1.78026,-1.06467,-1.81524,-1.11695,1.9373,1.11682,-0.916337,0,0,0,0,0,0,0,0,0,0,0,0,0,0,0.53106,-0.454486,0.694258,0.574588,0.175229,0.152607,0.784764,0,0,0,-0.0786131,1.19296,1.05109,0.476322,3.37266,-1.54084,0.432786,3.49799,-1.69085,-0.745599,-0.0313116,-0.191702,-0.460822,0.671516,-0.597857,0.459738,1
1.70589,-1.07104,-1.83542,-1.16359,2.00434,1.05699,-0.870528,1.70589,-1.07104,-1.83542,-1.16359,2.00434,1.05699,-0.870528,1.78026,-1.06467,-1.81524,-1.11695,1.9373,1.11682,-0.916337,0,0,0,0,0,0,0,0,0,0,0,0,0,0,0.53106,-0.454486,0.694258,0.574588,0.175229,0.152607,0.784764,0,0,0,-0.0732094,1.22759,1.03458,0.522631,3.34871,-1.5965,0.465593,3.48056,-1.77858,-0.743647,-0.0637513,-0.201812,-0.466381,0.670401,-0.59832,0.458095,1
1.70613,-1.07457,-1.83632,-1.16414,2.00421,1.05699,-0.87078,1.70613,-1.07457,-1.83632,-1.16414,2.00421,1.05699,-0.87078,1.78026,-1.06467,-1.81524,-1.11695,1.9373,1.11682,-0.916337,0,0,0,0,0,0,0,0,0,0,0,0,0,0,0.53106,-0.454486,0.694258,0.574588,0.175229,0.152607,0.784764,0,0,0,-0.0674138,1.26214,1.01718,0.606356,3.61554,-1.82031,0.506862,3.4705,-1.86503,-0.741267,-0.0990078,-0.210831,-0.47187,0.669105,-0.598356,0.455572,1
1.70641,-1.07749,-1.83688,-1.16467,2.00409,1.05701,-0.871119,1.70641,-1.07749,-1.83688,-1.16467,2.00409,1.05701,-0.871119,1.78026,-1.06467,-1.81524,-1.11695,1.9373,1.11682,-0.916337,0,0,0,0,0,0,0,0,0,0,0,0,0,0,0.53106,-0.454486,0.694258,0.574588,0.175229,0.152607,0.784764,0,0,0,-0.0614034,1.29619,0.998944,0.573411,3.24832,-1.74002,0.554283,3.45098,-1.94927,-0.738419,-0.128284,-0.216408,-0.477149,0.667996,-0.598155,0.452182,1
1.70669,-1.08026,-1.83724,-1.16523,2.004,1.05702,-0.871361,1.70669,-1.08026,-1.83724,-1.16523,2.004,1.05702,-0.871361,1.78026,-1.06467,-1.81524,-1.11695,1.9373,1.11682,-0.916337,0,0,0,0,0,0,0,0,0,0,0,0,0,0,0.53106,-0.454486,0.694258,0.574588,0.175229,0.152607,0.784764,0,0,0,-0.0548456,1.33026,0.97956,0.658569,3.42156,-1.94665,0.593411,3.43207,-2.03694,-0.735704,-0.155913,-0.21995,-0.4828,0.667062,-0.598034,0.44976,1
1.70695,-1.08276,-1.83765,-1.16574,2.00391,1.05702,-0.871556,1.70695,-1.08276,-1.83765,-1.16574,2.00391,1.05702,-0.871556,1.78026,-1.06467,-1.81524,-1.11695,1.9373,1.11682,-0.916337,0,0,0,0,0,0,0,0,0,0,0,0,0,0,0.53106,-0.454486,0.694258,0.574588,0.175229,0.152607,0.784764,0,0,0,-0.0478004,1.36382,0.959441,0.71825,3.42061,-2.05113,0.633864,3.40578,-2.12904,-0.733104,-0.180965,-0.224089,-0.487868,0.666175,-0.598091,0.447808,1
1.70717,-1.08538,-1.83813,-1.16633,2.00377,1.05698,-0.871861,1.70717,-1.08538,-1.83813,-1.16633,2.00377,1.05698,-0.871861,1.78026,-1.06467,-1.81524,-1.11695,1.9373,1.11682,-0.916337,0,0,0,0,0,0,0,0,0,0,0,0,0,0,0.53106,-0.454486,0.694258,0.574588,0.175229,0.152607,0.784764,0,0,0,-0.0408913,1.39779,0.93844,0.718231,3.53188,-2.18312,0.66648,3.38916,-2.21989,-0.730826,-0.20716,-0.228855,-0.493785,0.664773,-0.598401,0.444766,1
1.70742,-1.08768,-1.83854,-1.16697,2.00363,1.05694,-0.872266,1.70742,-1.08768,-1.83854,-1.16697,2.00363,1.05694,-0.872266,1.78026,-1.06467,-1.81524,-1.11695,1.9373,1.11682,-0.916337,0,0,0,0,0,0,0,0,0,0,0,0,0,0,0.53106,-0.454486,0.694258,0.574588,0.175229,0.152607,0.784764,0,0,0,-0.0333584,1.43115,0.916695,0.733743,3.24965,-2.11806,0.700444,3.37449,-2.30618,-0.728346,-0.230183,-0.233005,-0.500134,0.663332,-0.598888,0.440711,1
1.70766,-1.08988,-1.83895,-1.16759,2.00347,1.05689,-0.872633,1.70766,-1.08988,-1.83895,-1.16759,2.00347,1.05689,-0.872633,1.78026,-1.06467,-1.81524,-1.11695,1.9373,1.11682,-0.916337,0,0,0,0,0,0,0,0,0,0,0,0,0,0,0.53106,-0.454486,0.694258,0.574588,0.175229,0.152607,0.784764,0,0,0,-0.0255687,1.46475,0.894008,0.771774,3.32828,-2.24776,0.729959,3.36303,-2.3885,-0.725955,-0.252163,-0.237084,-0.506395,0.661728,-0.599389,0.437037,1
1.70801,-1.09249,-1.83876,-1.16828,2.00337,1.05684,-0.873073,1.70801,-1.09249,-1.83876,-1.16828,2.00337,1.05684,-0.873073,1.78026,-1.06467,-1.81524,-1.11695,1.9373,1.11682,-0.916337,0,0,0,0,0,0,0,0,0,0,0,0,0,0,0.53106,-0.454486,0.694258,0.574588,0.175229,0.152607,0.784764,0,0,0,-0.0163128,1.49741,0.870759,0.926644,3.27008,-2.32755,0.782979,3.34144,-2.46796,-0.722449,-0.278223,-0.235195,-0.513311,0.660798,-0.599795,0.432639,1
1.70854,-1.09538,-1.8379,-1.16908,2.00337,1.05684,-0.873578,1.70854,-1.09538,-1.8379,-1.16908,2.00337,1.05684,-0.873578,1.78026,-1.06467,-1.81524,-1.11695,1.9373,1.11682,-0.916337,0,0,0,0,0,0,0,0,0,0,0,0,0,0,0.53106,-0.454486,0.694258,0.574588,0.175229,0.152607,0.784764,0,0,0,-0.0071439,1.53079,0.846313,0.917914,3.34177,-2.44735,0.845405,3.32256,-2.55191,-0.717122,-0.307114,-0.226546,-0.521305,0.660794,-0.599893,0.427589,1
1.70916,-1.09781,-1.83673,-1.16985,2.00339,1.05689,-0.874004,1.70916,-1.09781,-1.83673,-1.16985,2.00339,1.05689,-0.874004,1.78026,-1.06467,-1.81524,-1.11695,1.9373,1.11682,-0.916337,0,0,0,0,0,0,0,0,0,0,0,0,0,0,0.53106,-0.454486,0.694258,0.574588,0.175229,0.152607,0.784764,0,0,0,0.00222964,1.56301,0.820856,0.956779,3.28857,-2.59851,0.896008,3.29754,-2.64375,-0.710992,-0.331475,-0.214852,-0.528988,0.660956,-0.599301,0.42333,1
1.70978,-1.09981,-1.83574,-1.17053,2.0034,1.05695,-0.874457,1.70978,-1.09981,-1.83574,-1.17053,2.0034,1.05695,-0.874457,1.78026,-1.06467,-1.81524,-1.11695,1.9373,1.11682,-0.916337,0,0,0,0,0,0,0,0,0,0,0,0,0,0,0.53106,-0.454486,0.694258,0.574588,0.175229,0.152607,0.784764,0,0,0,0.0118877,1.59518,0.794738,0.947128,3.15446,-2.56127,0.934552,3.26456,-2.73444,-0.70478,-0.351438,-0.204943,-0.535737,0.661066,-0.598772,0.418806,1
1.71028,-1.1017,-1.83551,-1.17117,2.00335,1.05697,-0.874868,1.71028,-1.1017,-1.83551,-1.17117,2.00335,1.05697,-0.874868,1.78026,-1.06467,-1.81524,-1.11695,1.9373,1.11682,-0.916337,0,0,0,0,0,0,0,0,0,0,0,0,0,0,0.53106,-0.454486,0.694258,0.574588,0.175229,0.152607,0.784764,0,0,0,0.0217763,1.62789,0.767535,0.998987,3.30518,-2.74816,0.952098,3.25349,-2.83024,-0.699727,-0.370364,-0.202644,-0.542138,0.660537,-0.598583,0.414688,1
1.71073,-1.10356,-1.83552,-1.17177,2.00325,1.05697,-0.875465,1.71073,-1.10356,-1.83552,-1.17177,2.00325,1.05697,-0.875465,1.78026,-1.06467,-1.81524,-1.11695,1.9373,1.11682,-0.916337,0,0,0,0,0,0,0,0,0,0,0,0,0,0,0.53106,-0.454486,0.694258,0.574588,0.175229,0.152607,0.784764,0,0,0,0.0318255,1.66003,0.739281,1.01118,3.23369,-2.84298,0.974855,3.2336,-2.92385,-0.695251,-0.388994,-0.20282,-0.548183,0.659576,-0.598556,0.408723,1
1.71111,-1.10537,-1.83571,-1.17232,2.00311,1.05694,-0.876127,1.71111,-1.10537,-1.83571,-1.17232,2.00311,1.05694,-0.876127,1.78026,-1.06467,-1.81524,-1.11695,1.9373,1.11682,-0.916337,0,0,0,0,0,0,0,0,0,0,0,0,0,0,0.53106,-0.454486,0.694258,0.574588,0.175229,0.152607,0.784764,0,0,0,0.0424111,1.69205,0.710622,1.00792,3.04904,-2.72881,1.00301,3.22938,-3.00924,-0.691464,-0.407027,-0.204645,-0.553648,0.658192,-0.598873,0.402097,1
1.7116,-1.1071,-1.83548,-1.17285,2.00299,1.05692,-0.876865,1.7116,-1.1071,-1.83548,-1.17285,2.00299,1.05692,-0.876865,1.78026,-1.06467,-1.81524,-1.11695,1.9373,1.11682,-0.916337,0,0,0,0,0,0,0,0,0,0,0,0,0,0,0.53106,-0.454486,0.694258,0.574588,0.175229,0.152607,0.784764,0,0,0,0.0534846,1.72388,0.680961,1.11758,3.21274,-2.99351,1.03829,3.21577,-3.09467,-0.686516,-0.424335,-0.202378,-0.55898,0.656993,-0.599045,0.394717,1
1.71238,-1.10864,-1.83442,-1.17343,2.00295,1.05698,-0.877632,1.71238,-1.10864,-1.83442,-1.17343,2.00295,1.05698,-0.877632,1.78026,-1.06467,-1.81524,-1.11695,1.9373,1.11682,-0.916337,0,0,0,0,0,0,0,0,0,0,0,0,0,0,0.53106,-0.454486,0.694258,0.574588,0.175229,0.152607,0.784764,0,0,0,0.0654336,1.75537,0.65028,1.18096,3.11215,-3.03225,1.08974,3.18818,-3.17829,-0.678734,-0.439731,-0.191805,-0.564805,0.656501,-0.59842,0.387046,1
1.71341,-1.11003,-1.83324,-1.17414,2.00294,1.05716,-0.878475,1.71341,-1.11003,-1.83324,-1.17414,2.00294,1.05716,-0.878475,1.78026,-1.06467,-1.81524,-1.11695,1.9373,1.11682,-0.916337,0,0,0,0,0,0,0,0,0,0,0,0,0,0,0.53106,-0.454486,0.694258,0.574588,0.175229,0.152607,0.784764,0,0,0,0.0775846,1.78614,0.618516,1.30888,3.31437,-3.42158,1.14541,3.1555,-3.26872,-0.668489,-0.453691,-0.180003,-0.571879,0.656448,-0.596688,0.378624,1
1.71443,-1.11112,-1.83282,-1.17473,2.00293,1.05736,-0.878992,1.71443,-1.11112,-1.83282,-1.17473,2.00293,1.05736,-0.878992,1.78026,-1.06467,-1.81524,-1.11695,1.9373,1.11682,-0.916337,0,0,0,0,0,0,0,0,0,0,0,0,0,0,0.53106,-0.454486,0.694258,0.574588,0.175229,0.152607,0.784764,0,0,0,0.0898425,1.81756,0.586285,1.1639,2.98301,-3.06038,1.18963,3.13273,-3.36118,-0.658227,-0.464534,-0.175756,-0.577816,0.656365,-0.59463,0.373452,1
1.71516,-1.11183,-1.83329,-1.17503,2.00291,1.05749,-0.879329,1.71516,-1.11183,-1.83329,-1.17503,2.00291,1.05749,-0.879329,1.78026,-1.06467,-1.81524,-1.11695,1.9373,1.11682,-0.916337,0,0,0,0,0,0,0,0,0,0,0,0,0,0,0.53106,-0.454486,0.694258,0.574588,0.175229,0.152607,0.784764,0,0,0,0.102147,1.84896,0.553455,1.23145,3.14259,-3.28569,1.21734,3.12335,-3.44008,-0.650924,-0.471608,-0.180537,-0.580742,0.656103,-0.593305,0.370084,1
1.71594,-1.11264,-1.83372,-1.17534,2.00285,1.05759,-0.879895,1.71594,-1.11264,-1.83372,-1.17534,2.00285,1.05759,-0.879895,1.78026,-1.06467,-1.81524,-1.11695,1.9373,1.11682,-0.916337,0,0,0,0,0,0,0,0,0,0,0,0,0,0,0.53106,-0.454486,0.694258,0.574588,0.175229,0.152607,0.784764,0,0,0,0.115366,1.87879,0.519431,1.34984,3.04582,-3.47423,1.24428,3.09645,-3.51761,-0.643143,-0.479774,-0.184833,-0.583845,0.655582,-0.592339,0.364425,1
1.71657,-1.11334,-1.83384,-1.17557,2.00278,1.05763,-0.880385,1.71657,-1.11334,-1.83384,-1.17557,2.00278,1.05763,-0.880385,1.78026,-1.06467,-1.81524,-1.11695,1.9373,1.11682,-0.916337,0,0,0,0,0,0,0,0,0,0,0,0,0,0,0.53106,-0.454486,0.694258,0.574588,0.175229,0.152607,0.784764,0,0,0,0.128899,1.90969,0.48522,1.39392,3.1836,-3.52394,1.28152,3.08333,-3.58447,-0.636873,-0.486786,-0.185977,-0.586199,0.654845,-0.59196,0.359521,1
1.71731,-1.11413,-1.83382,-1.17582,2.00267,1.0577,-0.881039,1.71731,-1.11413,-1.83382,-1.17582,2.00267,1.0577,-0.881039,1.78026,-1.06467,-1.81524,-1.11695,1.9373,1.11682,-0.916337,0,0,0,0,0,0,0,0,0,0,0,0,0,0,0.53106,-0.454486,0.694258,0.574588,0.175229,0.152607,0.784764,0,0,0,0.143125,1.94058,0.449598,1.38648,3.00996,-3.47156,1.33317,3.06778,-3.66609,-0.629412,-0.494606,-0.1858,-0.588688,0.653797,-0.591257,0.352984,1
1.71832,-1.115,-1.83366,-1.1761,2.00257,1.05782,-0.881817,1.71832,-1.115,-1.83366,-1.1761,2.00257,1.05782,-0.881817,1.78026,-1.06467,-1.81524,-1.11695,1.9373,1.11682,-0.916337,0,0,0,0,0,0,0,0,0,0,0,0,0,0,0.53106,-0.454486,0.694258,0.574588,0.175229,0.152607,0.784764,0,0,0,0.157404,1.9703,0.412692,1.4493,3.01635,-3.74599,1.38273,3.04468,-3.76357,-0.619368,-0.503338,-0.184201,-0.591478,0.652736,-0.590065,0.345196,1
1.71923,-1.11584,-1.8336,-1.17633,2.00244,1.05791,-0.882461,1.71923,-1.11584,-1.8336,-1.17633,2.00244,1.05791,-0.882461,1.78026,-1.06467,-1.81524,-1.11695,1.9373,1.11682,-0.916337,0,0,0,0,0,0,0,0,0,0,0,0,0,0,0.53106,-0.454486,0.694258,0.574588,0.175229,0.152607,0.784764,0,0,0,0.172721,1.99993,0.37519,1.49587,2.89375,-3.66262,1.43214,3.02881,-3.86009,-0.6103,-0.5117,-0.183555,-0.593737,0.651445,-0.589137,0.338757,1
1.72029,-1.11662,-1.83327,-1.17656,2.00234,1.05803,-0.883146,1.72029,-1.11662,-1.83327,-1.17656,2.00234,1.05803,-0.883146,1.78026,-1.06467,-1.81524,-1.11695,1.9373,1.11682,-0.916337,0,0,0,0,0,0,0,0,0,0,0,0,0,0,0.53106,-0.454486,0.694258,0.574588,0.175229,0.152607,0.784764,0,0,0,0.187838,2.03015,0.336976,1.51963,3.03777,-3.8414,1.47473,3.0025,-3.95895,-0.599661,-0.519599,-0.180286,-0.596047,0.650457,-0.587905,0.331914,1
1.72124,-1.11736,-1.83328,-1.17679,2.00221,1.05814,-0.883747,1.72124,-1.11736,-1.83328,-1.17679,2.00221,1.05814,-0.883747,1.78026,-1.06467,-1.81524,-1.11695,1.9373,1.11682,-0.916337,0,0,0,0,0,0,0,0,0,0,0,0,0,0,0.53106,-0.454486,0.694258,0.574588,0.175229,0.152607,0.784764,0,0,0,0.202718,2.06006,0.297546,1.51893,3.05351,-4.02488,1.49619,2.9881,-4.04821,-0.590144,-0.526925,-0.180391,-0.598347,0.649111,-0.58687,0.325903,1
1.72171,-1.11804,-1.83416,-1.17689,2.00208,1.0582,-0.884308,1.72171,-1.11804,-1.83416,-1.17689,2.00208,1.0582,-0.884308,1.78026,-1.06467,-1.81524,-1.11695,1.9373,1.11682,-0.916337,0,0,0,0,0,0,0,0,0,0,0,0,0,0,0.53106,-0.454486,0.694258,0.574588,0.175229,0.152607,0.784764,0,0,0,0.217731,2.08934,0.257588,1.48686,2.90021,-3.95732,1.50652,2.98228,-4.12853,-0.585418,-0.533712,-0.189221,-0.599379,0.647827,-0.586195,0.320291,1
1.72222,-1.11881,-1.83517,-1.17707,2.00203,1.05841,-0.885224,1.72222,-1.11881,-1.83517,-1.17707,2.00203,1.05841,-0.885224,1.78026,-1.06467,-1.81524,-1.11695,1.9373,1.11682,-0.916337,0,0,0,0,0,0,0,0,0,0,0,0,0,0,0.53106,-0.454486,0.694258,0.574588,0.175229,0.152607,0.784764,0,0,0,0.233679,2.11811,0.217075,1.62502,2.93124,-4.12801,1.51811,2.95568,-4.20618,-0.580369,-0.541482,-0.199317,-0.601177,0.647366,-0.584172,0.311129,1
1.723,-1.11965,-1.83546,-1.17724,2.002,1.05867,-0.88648,1.723,-1.11965,-1.83546,-1.17724,2.002,1.05867,-0.88648,1.78026,-1.06467,-1.81524,-1.11695,1.9373,1.11682,-0.916337,0,0,0,0,0,0,0,0,0,0,0,0,0,0,0.53106,-0.454486,0.694258,0.574588,0.175229,0.152607,0.784764,0,0,0,0.250922,2.14691,0.175586,1.76871,2.95442,-4.25597,1.57129,2.91586,-4.28252,-0.572604,-0.549822,-0.202174,-0.602838,0.647057,-0.581582,0.298572,1
1.72372,-1.12059,-1.83578,-1.17731,2.00197,1.05897,-0.887774,1.72372,-1.12059,-1.83578,-1.17731,2.00197,1.05897,-0.887774,1.78026,-1.06467,-1.81524,-1.11695,1.9373,1.11682,-0.916337,0,0,0,0,0,0,0,0,0,0,0,0,0,0,0.53106,-0.454486,0.694258,0.574588,0.175229,0.152607,0.784764,0,0,0,0.268508,2.17483,0.13205,1.69126,2.68516,-4.18666,1.64771,2.87118,-4.37994,-0.565335,-0.559244,-0.20537,-0.603569,0.646748,-0.578532,0.285626,1
