Afshin1997/kuka_rl_ros2/src/catch_and_throw/output_files/tm/idealpd_9/tm_received_joint_target_np.csv
joint_0,joint_1,joint_2,joint_3,joint_4,joint_5,joint_6
7.720812559127807617e-01,2.617410384118556976e-02,1.349832177162170410e+00,1.249742984771728516e+00,1.608323693275451660e+00,-9.137063026428222656e-01,1.537546753883361816e+00
7.744972705841064453e-01,1.862361840903759003e-02,1.359894752502441406e+00,1.250646710395812988e+00,1.622201919555664062e+00,-9.275813102722167969e-01,1.524287343025207520e+00
7.796422839164733887e-01,1.258057635277509689e-02,1.367478609085083008e+00,1.247212290763854980e+00,1.633311510086059570e+00,-9.386302828788757324e-01,1.513680934906005859e+00
7.839929461479187012e-01,1.093637570738792419e-02,1.373547196388244629e+00,1.248794198036193848e+00,1.642248153686523438e+00,-9.475289583206176758e-01,1.505138039588928223e+00
7.878355979919433594e-01,8.305920287966728210e-03,1.378369212150573730e+00,1.247513055801391602e+00,1.649404287338256836e+00,-9.546536207199096680e-01,1.498285174369812012e+00
7.913393378257751465e-01,6.136150099337100983e-03,1.382202386856079102e+00,1.245702624320983887e+00,1.655205130577087402e+00,-9.604573249816894531e-01,1.492692232131958008e+00
7.956652045249938965e-01,3.042005002498626709e-03,1.385613083839416504e+00,1.243210077285766602e+00,1.660675048828125000e+00,-9.659824967384338379e-01,1.487181663513183594e+00
8.007903099060058594e-01,4.844088107347488403e-04,1.388949155807495117e+00,1.246050000190734863e+00,1.667183399200439453e+00,-9.724246263504028320e-01,1.480340600013732910e+00
8.062468767166137695e-01,-1.661967486143112183e-03,1.392005562782287598e+00,1.245527505874633789e+00,1.675705671310424805e+00,-9.805423021316528320e-01,1.471489191055297852e+00
8.112519979476928711e-01,-2.988802269101142883e-03,1.394399166107177734e+00,1.239982724189758301e+00,1.686370611190795898e+00,-9.905413985252380371e-01,1.460517764091491699e+00
8.155279159545898438e-01,-3.388730809092521667e-03,1.396261811256408691e+00,1.231746792793273926e+00,1.698796868324279785e+00,-1.002239227294921875e+00,1.447823643684387207e+00
8.191664814949035645e-01,-3.702102228999137878e-03,1.397999167442321777e+00,1.223843455314636230e+00,1.712594270706176758e+00,-1.015039324760437012e+00,1.434189319610595703e+00
8.222019076347351074e-01,-4.527578130364418030e-03,1.398994565010070801e+00,1.217026352882385254e+00,1.727289557456970215e+00,-1.028256416320800781e+00,1.420267820358276367e+00
8.246962428092956543e-01,-6.182573735713958740e-03,1.398582458496093750e+00,1.210847854614257812e+00,1.742380738258361816e+00,-1.041528105735778809e+00,1.406394720077514648e+00
8.268662691116333008e-01,-8.651928044855594635e-03,1.396725177764892578e+00,1.204737067222595215e+00,1.757508516311645508e+00,-1.054552316665649414e+00,1.392619967460632324e+00
8.290733695030212402e-01,-1.151438523083925247e-02,1.395191192626953125e+00,1.198628544807434082e+00,1.772552132606506348e+00,-1.067722439765930176e+00,1.378836035728454590e+00
8.314684629440307617e-01,-1.440498325973749161e-02,1.394079446792602539e+00,1.192576408386230469e+00,1.787530779838562012e+00,-1.081009268760681152e+00,1.364882469177246094e+00
8.339256644248962402e-01,-1.767817512154579163e-02,1.391544342041015625e+00,1.186690688133239746e+00,1.802463650703430176e+00,-1.094333887100219727e+00,1.350642442703247070e+00
8.364651799201965332e-01,-2.118143066763877869e-02,1.388174772262573242e+00,1.180930733680725098e+00,1.817233324050903320e+00,-1.108014702796936035e+00,1.336058139801025391e+00
8.392142653465270996e-01,-2.440750226378440857e-02,1.384821057319641113e+00,1.175096988677978516e+00,1.831765055656433105e+00,-1.121766090393066406e+00,1.321158647537231445e+00
8.422414660453796387e-01,-2.680902555584907532e-02,1.381878376007080078e+00,1.169216513633728027e+00,1.845929265022277832e+00,-1.135090112686157227e+00,1.306009888648986816e+00
8.455820679664611816e-01,-2.868020720779895782e-02,1.378329515457153320e+00,1.163414478302001953e+00,1.859808921813964844e+00,-1.148337006568908691e+00,1.290647983551025391e+00
8.491275906562805176e-01,-3.005556762218475342e-02,1.373945355415344238e+00,1.157520651817321777e+00,1.873380303382873535e+00,-1.161115288734436035e+00,1.275124669075012207e+00
8.531246781349182129e-01,-3.103571385145187378e-02,1.368992209434509277e+00,1.151912927627563477e+00,1.886674880981445312e+00,-1.171077728271484375e+00,1.259450554847717285e+00
8.576183915138244629e-01,-3.152292221784591675e-02,1.364919424057006836e+00,1.146661043167114258e+00,1.899680614471435547e+00,-1.176211357116699219e+00,1.243629455566406250e+00
8.625008463859558105e-01,-3.142388164997100830e-02,1.360985875129699707e+00,1.141248583793640137e+00,1.912414908409118652e+00,-1.171452879905700684e+00,1.227708935737609863e+00
8.677390217781066895e-01,-3.123133257031440735e-02,1.356516480445861816e+00,1.136053681373596191e+00,1.925004124641418457e+00,-1.166961550712585449e+00,1.211663603782653809e+00
8.732562065124511719e-01,-3.073757141828536987e-02,1.351234316825866699e+00,1.131273746490478516e+00,1.937416076660156250e+00,-1.163220524787902832e+00,1.195482850074768066e+00
8.789557814598083496e-01,-3.018826432526111603e-02,1.345128774642944336e+00,1.126655220985412598e+00,1.949670433998107910e+00,-1.161083579063415527e+00,1.179174304008483887e+00
8.849416375160217285e-01,-2.969020046293735504e-02,1.338645458221435547e+00,1.123653173446655273e+00,1.961820244789123535e+00,-1.159655809402465820e+00,1.162722468376159668e+00
8.912889957427978516e-01,-2.859851159155368805e-02,1.332444667816162109e+00,1.126586675643920898e+00,1.973881483078002930e+00,-1.157118558883666992e+00,1.146141648292541504e+00
8.977707624435424805e-01,-2.767177298665046692e-02,1.326366901397705078e+00,1.137365102767944336e+00,1.985916852951049805e+00,-1.153041005134582520e+00,1.129480242729187012e+00
9.040741920471191406e-01,-2.818877995014190674e-02,1.319442272186279297e+00,1.148765921592712402e+00,1.998085021972656250e+00,-1.147652268409729004e+00,1.112740159034729004e+00
9.101885557174682617e-01,-2.993412688374519348e-02,1.312040925025939941e+00,1.157146573066711426e+00,2.010310173034667969e+00,-1.141342759132385254e+00,1.096033453941345215e+00
9.164163470268249512e-01,-3.149890154600143433e-02,1.304789066314697266e+00,1.163349032402038574e+00,2.022579669952392578e+00,-1.134653687477111816e+00,1.079352021217346191e+00
9.225865602493286133e-01,-3.349462896585464478e-02,1.297146320343017578e+00,1.167921066284179688e+00,2.034800052642822266e+00,-1.127709388732910156e+00,1.062736988067626953e+00
9.287256598472595215e-01,-3.549638390541076660e-02,1.289276123046875000e+00,1.171324491500854492e+00,2.047078132629394531e+00,-1.120253801345825195e+00,1.046194076538085938e+00
9.349813461303710938e-01,-3.693174570798873901e-02,1.281515121459960938e+00,1.173918962478637695e+00,2.059426784515380859e+00,-1.112204790115356445e+00,1.029742240905761719e+00
9.411478042602539062e-01,-3.817836940288543701e-02,1.273433566093444824e+00,1.176234006881713867e+00,2.071786880493164062e+00,-1.103645205497741699e+00,1.013381361961364746e+00
9.473684430122375488e-01,-3.896404057741165161e-02,1.265386223793029785e+00,1.178801059722900391e+00,2.084181547164916992e+00,-1.094653606414794922e+00,9.971067905426025391e-01
9.536643624305725098e-01,-3.917741030454635620e-02,1.257240533828735352e+00,1.181382775306701660e+00,2.096591711044311523e+00,-1.085216283798217773e+00,9.809148907661437988e-01
9.597975611686706543e-01,-3.932571411132812500e-02,1.248596429824829102e+00,1.183987021446228027e+00,2.108989238739013672e+00,-1.075308322906494141e+00,9.647879004478454590e-01
9.657958149909973145e-01,-3.959790244698524475e-02,1.239506840705871582e+00,1.186749100685119629e+00,2.121420383453369141e+00,-1.065134286880493164e+00,9.487063288688659668e-01
9.717099666595458984e-01,-3.973247855901718140e-02,1.230177640914916992e+00,1.189523816108703613e+00,2.133843898773193359e+00,-1.054666996002197266e+00,9.326847791671752930e-01
9.777043461799621582e-01,-3.976541012525558472e-02,1.220879197120666504e+00,1.192226648330688477e+00,2.146216154098510742e+00,-1.043889164924621582e+00,9.166955351829528809e-01
9.834362864494323730e-01,-4.090466350317001343e-02,1.211074948310852051e+00,1.195039391517639160e+00,2.158561468124389648e+00,-1.032723188400268555e+00,9.007369875907897949e-01
9.890382289886474609e-01,-4.221733659505844116e-02,1.201018333435058594e+00,1.197873115539550781e+00,2.170938014984130859e+00,-1.021254062652587891e+00,8.848102688789367676e-01
9.947963356971740723e-01,-4.305429011583328247e-02,1.191121101379394531e+00,1.200537800788879395e+00,2.183234930038452148e+00,-1.009467720985412598e+00,8.689046502113342285e-01
1.000531196594238281e+00,-4.401256889104843140e-02,1.181080937385559082e+00,1.203236579895019531e+00,2.195488929748535156e+00,-9.974462389945983887e-01,8.530253171920776367e-01
1.006212711334228516e+00,-4.519262164831161499e-02,1.170814990997314453e+00,1.206074714660644531e+00,2.207713603973388672e+00,-9.849293231964111328e-01,8.371556401252746582e-01
1.012049317359924316e+00,-4.580926150083541870e-02,1.160759210586547852e+00,1.208517193794250488e+00,2.219885587692260742e+00,-9.722803235054016113e-01,8.213204145431518555e-01
1.018069744110107422e+00,-4.663823544979095459e-02,1.150904178619384766e+00,1.210850358009338379e+00,2.232016086578369141e+00,-9.594233632087707520e-01,8.054943680763244629e-01
1.023887515068054199e+00,-4.819507896900177002e-02,1.140796661376953125e+00,1.213225722312927246e+00,2.244139194488525391e+00,-9.461178779602050781e-01,7.896744608879089355e-01
1.029708147048950195e+00,-4.944309219717979431e-02,1.130805611610412598e+00,1.215180277824401855e+00,2.256220817565917969e+00,-9.327161908149719238e-01,7.738656401634216309e-01
1.035660862922668457e+00,-5.072724074125289917e-02,1.121116161346435547e+00,1.216423153877258301e+00,2.268274784088134766e+00,-9.190438985824584961e-01,7.580600380897521973e-01
1.041573762893676758e+00,-5.248854309320449829e-02,1.111422300338745117e+00,1.216897010803222656e+00,2.280298471450805664e+00,-9.049887061119079590e-01,7.422570586204528809e-01
1.047429680824279785e+00,-5.465178564190864563e-02,1.101857066154479980e+00,1.216086506843566895e+00,2.292342662811279297e+00,-8.909675478935241699e-01,7.264506816864013672e-01
1.053402662277221680e+00,-5.684119462966918945e-02,1.092586278915405273e+00,1.212732434272766113e+00,2.304354906082153320e+00,-8.768948316574096680e-01,7.106563448905944824e-01
1.059092760086059570e+00,-5.953246355056762695e-02,1.083067774772644043e+00,1.208500146865844727e+00,2.316356658935546875e+00,-8.623522520065307617e-01,6.948540210723876953e-01
1.064739704132080078e+00,-6.205020844936370850e-02,1.073585152626037598e+00,1.203536629676818848e+00,2.328302860260009766e+00,-8.476985096931457520e-01,6.790440082550048828e-01
1.070503234863281250e+00,-6.400847434997558594e-02,1.064320325851440430e+00,1.198245644569396973e+00,2.340271711349487305e+00,-8.331411480903625488e-01,6.632327437400817871e-01
1.076316952705383301e+00,-6.617484241724014282e-02,1.054962396621704102e+00,1.193710327148437500e+00,2.352330446243286133e+00,-8.184573054313659668e-01,6.474233269691467285e-01
1.081950902938842773e+00,-6.826934218406677246e-02,1.045363545417785645e+00,1.189026117324829102e+00,2.364336967468261719e+00,-8.035349845886230469e-01,6.316184997558593750e-01
1.087671399116516113e+00,-6.989871710538864136e-02,1.035982608795166016e+00,1.183910489082336426e+00,2.376249313354492188e+00,-7.885706424713134766e-01,6.158158779144287109e-01
1.093404650688171387e+00,-7.147639989852905273e-02,1.026560187339782715e+00,1.178948998451232910e+00,2.388231039047241211e+00,-7.735809683799743652e-01,6.000214815139770508e-01
1.099034070968627930e+00,-7.310050725936889648e-02,1.016967892646789551e+00,1.173914551734924316e+00,2.400268554687500000e+00,-7.586204409599304199e-01,5.842426419258117676e-01
1.104717969894409180e+00,-7.439015805721282959e-02,1.007562279701232910e+00,1.168645977973937988e+00,2.412188529968261719e+00,-7.436242699623107910e-01,5.684677362442016602e-01
1.110470890998840332e+00,-7.570695132017135620e-02,9.982961416244506836e-01,1.163241982460021973e+00,2.424023389816284180e+00,-7.283368110656738281e-01,5.526983737945556641e-01
1.116109132766723633e+00,-7.708843052387237549e-02,9.888548851013183594e-01,1.157811164855957031e+00,2.435925245285034180e+00,-7.127932906150817871e-01,5.369355678558349609e-01
1.121766328811645508e+00,-7.816842943429946899e-02,9.795806407928466797e-01,1.152100324630737305e+00,2.447882652282714844e+00,-6.976261734962463379e-01,5.211815834045410156e-01
1.127592921257019043e+00,-7.898876070976257324e-02,9.706798195838928223e-01,1.146328091621398926e+00,2.459792852401733398e+00,-6.826198697090148926e-01,5.054354071617126465e-01
1.133345246315002441e+00,-8.015832304954528809e-02,9.616518020629882812e-01,1.140492796897888184e+00,2.471687316894531250e+00,-6.672885417938232422e-01,4.896820485591888428e-01
1.139091491699218750e+00,-8.142390102148056030e-02,9.526581764221191406e-01,1.134386301040649414e+00,2.483576059341430664e+00,-6.519513726234436035e-01,4.739303588867187500e-01
1.144982337951660156e+00,-8.253505080938339233e-02,9.439504146575927734e-01,1.127882599830627441e+00,2.495478153228759766e+00,-6.369027495384216309e-01,4.581956863403320312e-01
1.150959253311157227e+00,-8.407884836196899414e-02,9.353323578834533691e-01,1.121493220329284668e+00,2.507449626922607422e+00,-6.220623254776000977e-01,4.424613118171691895e-01
1.156774044036865234e+00,-8.606112003326416016e-02,9.264111518859863281e-01,1.114998579025268555e+00,2.519433498382568359e+00,-6.073967218399047852e-01,4.267314672470092773e-01
1.162660360336303711e+00,-8.780261874198913574e-02,9.177134037017822266e-01,1.107949376106262207e+00,2.531315326690673828e+00,-5.937485694885253906e-01,4.109884500503540039e-01
1.168632507324218750e+00,-8.927789330482482910e-02,9.091506004333496094e-01,1.100661158561706543e+00,2.543181419372558594e+00,-5.794454813003540039e-01,3.952368199825286865e-01
1.174457311630249023e+00,-9.096911549568176270e-02,9.003211259841918945e-01,1.093422293663024902e+00,2.555160045623779297e+00,-5.656597018241882324e-01,3.794952332973480225e-01
1.180186629295349121e+00,-9.236584603786468506e-02,8.914185762405395508e-01,1.085902690887451172e+00,2.567150115966796875e+00,-5.538852214813232422e-01,3.637621402740478516e-01
1.185950398445129395e+00,-9.352181851863861084e-02,8.826254606246948242e-01,1.077839374542236328e+00,2.579058647155761719e+00,-5.439810156822204590e-01,3.480405509471893311e-01
1.191634058952331543e+00,-9.485846757888793945e-02,8.736770749092102051e-01,1.069699764251708984e+00,2.590948104858398438e+00,-5.358550548553466797e-01,3.323056697845458984e-01
1.197101473808288574e+00,-9.629741311073303223e-02,8.644043803215026855e-01,1.061204791069030762e+00,2.602832078933715820e+00,-5.364153385162353516e-01,3.165754973888397217e-01
1.202618718147277832e+00,-9.715303778648376465e-02,8.552443385124206543e-01,1.052239179611206055e+00,2.614615201950073242e+00,-5.393151640892028809e-01,3.008513450622558594e-01
1.208110094070434570e+00,-9.776917099952697754e-02,8.460474610328674316e-01,1.043146610260009766e+00,2.626316308975219727e+00,-5.408564209938049316e-01,2.851315140724182129e-01
1.213424444198608398e+00,-9.853003174066543579e-02,8.366249203681945801e-01,1.033958077430725098e+00,2.637948274612426758e+00,-5.407517552375793457e-01,2.694189548492431641e-01
1.218636393547058105e+00,-9.866267442703247070e-02,8.272092342376708984e-01,1.024492502212524414e+00,2.649486303329467773e+00,-5.402020812034606934e-01,2.536959052085876465e-01
1.223881363868713379e+00,-9.833088517189025879e-02,8.179892897605895996e-01,1.015053868293762207e+00,2.660932540893554688e+00,-5.409786105155944824e-01,2.379797697067260742e-01
1.228908896446228027e+00,-9.777133911848068237e-02,8.086044192314147949e-01,1.005628347396850586e+00,2.672272443771362305e+00,-5.435779094696044922e-01,2.222711741924285889e-01
1.233687877655029297e+00,-9.761605411767959595e-02,7.990129590034484863e-01,9.962055087089538574e-01,2.683463335037231445e+00,-5.475764870643615723e-01,2.065600156784057617e-01
1.238430857658386230e+00,-9.747911989688873291e-02,7.896064519882202148e-01,9.864816069602966309e-01,2.694567441940307617e+00,-5.520972013473510742e-01,1.908590197563171387e-01
1.243256092071533203e+00,-9.763821214437484741e-02,7.805054187774658203e-01,9.767815470695495605e-01,2.705927371978759766e+00,-5.570332407951354980e-01,1.751673519611358643e-01
1.247956275939941406e+00,-9.813981503248214722e-02,7.712841629981994629e-01,9.669083356857299805e-01,2.717498779296875000e+00,-5.625505447387695312e-01,1.594931781291961670e-01
1.252506017684936523e+00,-9.884930402040481567e-02,7.619978189468383789e-01,9.569474458694458008e-01,2.729176044464111328e+00,-5.687563419342041016e-01,1.438298225402832031e-01
1.257127761840820312e+00,-9.918422251939773560e-02,7.530373334884643555e-01,9.467605352401733398e-01,2.740861415863037109e+00,-5.756559371948242188e-01,1.281706541776657104e-01
1.261772871017456055e+00,-9.978130459785461426e-02,7.441980838775634766e-01,9.366393089294433594e-01,2.752729654312133789e+00,-5.831345915794372559e-01,1.125307604670524597e-01
1.266343593597412109e+00,-1.009272113442420959e-01,7.351087331771850586e-01,9.264952540397644043e-01,2.764767408370971680e+00,-5.911586284637451172e-01,9.689008444547653198e-02
1.270779967308044434e+00,-1.019532084465026855e-01,7.258866429328918457e-01,9.162718057632446289e-01,2.776826858520507812e+00,-5.997490882873535156e-01,8.126495033502578735e-02
1.275305032730102539e+00,-1.028495952486991882e-01,7.169513702392578125e-01,9.058952927589416504e-01,2.788841009140014648e+00,-6.089269518852233887e-01,6.563957035541534424e-02
1.279850721359252930e+00,-1.038065701723098755e-01,7.079500555992126465e-01,8.955838680267333984e-01,2.801020860671997070e+00,-6.184796690940856934e-01,5.002314597368240356e-02
1.284313797950744629e+00,-1.051063686609268188e-01,6.987144351005554199e-01,8.851432204246520996e-01,2.813272714614868164e+00,-6.284734010696411133e-01,3.440866619348526001e-02
1.288651943206787109e+00,-1.058864742517471313e-01,6.895166039466857910e-01,8.746038675308227539e-01,2.825437068939208984e+00,-6.388621926307678223e-01,1.879280060529708862e-02
1.292998313903808594e+00,-1.063052862882614136e-01,6.806038618087768555e-01,8.637813925743103027e-01,2.837675333023071289e+00,-6.498704552650451660e-01,3.200635313987731934e-03
1.297412514686584473e+00,-1.066790223121643066e-01,6.715940833091735840e-01,8.530837297439575195e-01,2.848415851593017578e+00,-6.610962152481079102e-01,-1.238263398408889771e-02
1.301712751388549805e+00,-1.072240620851516724e-01,6.624078750610351562e-01,8.420845270156860352e-01,2.848415851593017578e+00,-6.727319955825805664e-01,-2.796083688735961914e-02
1.305943131446838379e+00,-1.074224263429641724e-01,6.533167362213134766e-01,8.310954570770263672e-01,2.848415851593017578e+00,-6.846679449081420898e-01,-4.353743046522140503e-02
1.310189843177795410e+00,-1.077201142907142639e-01,6.443455815315246582e-01,8.198632001876831055e-01,2.848415851593017578e+00,-6.970497369766235352e-01,-5.910894274711608887e-02
1.314393401145935059e+00,-1.080544367432594299e-01,6.352013945579528809e-01,8.088399171829223633e-01,2.848415851593017578e+00,-7.097157835960388184e-01,-7.467498630285263062e-02
1.318470478057861328e+00,-1.085474714636802673e-01,6.259160041809082031e-01,7.975639104843139648e-01,2.848415851593017578e+00,-7.225005030632019043e-01,-9.026035666465759277e-02
1.322395324707031250e+00,-1.088270395994186401e-01,6.167736649513244629e-01,7.862503528594970703e-01,2.848415851593017578e+00,-7.356226444244384766e-01,-1.058428362011909485e-01
1.326225876808166504e+00,-1.092946380376815796e-01,6.078407168388366699e-01,7.748742103576660156e-01,2.848415851593017578e+00,-7.491066455841064453e-01,-1.213937774300575256e-01
1.329928278923034668e+00,-1.107296571135520935e-01,5.988637208938598633e-01,7.635216712951660156e-01,2.848415851593017578e+00,-7.627400755882263184e-01,-1.369174122810363770e-01
1.333531498908996582e+00,-1.128982380032539368e-01,5.897380709648132324e-01,7.522053122520446777e-01,2.848415851593017578e+00,-7.765198945999145508e-01,-1.524474322795867920e-01
1.336878776550292969e+00,-1.157347857952117920e-01,5.807752609252929688e-01,7.406852841377258301e-01,2.848415851593017578e+00,-7.906097173690795898e-01,-1.679695546627044678e-01
1.340348482131958008e+00,-1.191590279340744019e-01,5.719711184501647949e-01,7.292259931564331055e-01,2.848415851593017578e+00,-8.047497272491455078e-01,-1.834882050752639771e-01
1.343902111053466797e+00,-1.234939843416213989e-01,5.631369352340698242e-01,7.177962660789489746e-01,2.848415851593017578e+00,-8.190181851387023926e-01,-1.990098655223846436e-01
1.347202777862548828e+00,-1.286022961139678955e-01,5.540713071823120117e-01,7.063093185424804688e-01,2.848415851593017578e+00,-8.336002826690673828e-01,-2.145428955554962158e-01
1.350347518920898438e+00,-1.338440626859664917e-01,5.450800657272338867e-01,6.946338415145874023e-01,2.848415851593017578e+00,-8.482315540313720703e-01,-2.301106750965118408e-01
1.353448867797851562e+00,-1.390391588211059570e-01,5.362234711647033691e-01,6.828373074531555176e-01,2.848415851593017578e+00,-8.629208207130432129e-01,-2.456867396831512451e-01
1.356576919555664062e+00,-1.441709846258163452e-01,5.273760557174682617e-01,6.711896657943725586e-01,2.848415851593017578e+00,-8.777940869331359863e-01,-2.612616717815399170e-01
1.359290242195129395e+00,-1.491198241710662842e-01,5.184540748596191406e-01,6.593215465545654297e-01,2.848415851593017578e+00,-8.930109739303588867e-01,-2.768471240997314453e-01
1.361946463584899902e+00,-1.539563685655593872e-01,5.094395279884338379e-01,6.472618579864501953e-01,2.848415851593017578e+00,-9.082658886909484863e-01,-2.924545705318450928e-01
1.364729881286621094e+00,-1.584933549165725708e-01,5.006147623062133789e-01,6.352701187133789062e-01,2.848415851593017578e+00,-9.234011173248291016e-01,-3.080860674381256104e-01
1.367017269134521484e+00,-1.630704998970031738e-01,4.917900562286376953e-01,6.231577396392822266e-01,2.848415851593017578e+00,-9.388588070869445801e-01,-3.237138092517852783e-01
1.369186639785766602e+00,-1.677279323339462280e-01,4.830114841461181641e-01,6.111797094345092773e-01,2.848415851593017578e+00,-9.545036554336547852e-01,-3.393422067165374756e-01
1.370320796966552734e+00,-1.727652102708816528e-01,4.740759134292602539e-01,5.989767909049987793e-01,2.848415851593017578e+00,-9.702063798904418945e-01,-3.550010621547698975e-01
1.371040701866149902e+00,-1.779114305973052979e-01,4.652250111103057861e-01,5.867287516593933105e-01,2.848415851593017578e+00,-9.858527779579162598e-01,-3.706911206245422363e-01
1.370151281356811523e+00,-1.830899119377136230e-01,4.564953446388244629e-01,5.746126770973205566e-01,2.848415851593017578e+00,-1.001546740531921387e+00,-3.863664567470550537e-01
1.367968916893005371e+00,-1.881546080112457275e-01,4.478060901165008545e-01,5.623181462287902832e-01,2.848415851593017578e+00,-1.017672181129455566e+00,-4.020344018936157227e-01
1.365151166915893555e+00,-1.931083500385284424e-01,4.390906095504760742e-01,5.500971674919128418e-01,2.848415851593017578e+00,-1.033730149269104004e+00,-4.176892638206481934e-01
1.361790895462036133e+00,-1.979573965072631836e-01,4.302584230899810791e-01,5.376587510108947754e-01,2.848415851593017578e+00,-1.049875617027282715e+00,-4.333507120609283447e-01
1.358248353004455566e+00,-2.026567757129669189e-01,4.215845763683319092e-01,5.251915454864501953e-01,2.848415851593017578e+00,-1.066132903099060059e+00,-4.490011036396026611e-01
1.355255126953125000e+00,-2.072925418615341187e-01,4.129657745361328125e-01,5.128850340843200684e-01,2.848415851593017578e+00,-1.082457304000854492e+00,-4.646437764167785645e-01
1.352033853530883789e+00,-2.118762135505676270e-01,4.044195115566253662e-01,5.005114674568176270e-01,2.848415851593017578e+00,-1.098854899406433105e+00,-4.802787899971008301e-01
1.349037528038024902e+00,-2.164180427789688110e-01,3.957372605800628662e-01,4.881337285041809082e-01,2.848415851593017578e+00,-1.115221142768859863e+00,-4.959212839603424072e-01
1.346516251564025879e+00,-2.208800017833709717e-01,3.870414197444915771e-01,4.758095741271972656e-01,2.848415851593017578e+00,-1.131667256355285645e+00,-5.115662217140197754e-01
1.344020247459411621e+00,-2.253316193819046021e-01,3.783842623233795166e-01,4.634478390216827393e-01,2.848415851593017578e+00,-1.148146629333496094e+00,-5.272102952003479004e-01
1.342096567153930664e+00,-2.298120856285095215e-01,3.697881698608398438e-01,4.513061046600341797e-01,2.848415851593017578e+00,-1.164470791816711426e+00,-5.428737998008728027e-01
1.340235948562622070e+00,-2.342642545700073242e-01,3.612764179706573486e-01,4.392381608486175537e-01,2.848415851593017578e+00,-1.180764079093933105e+00,-5.585367679595947266e-01
1.338317513465881348e+00,-2.386336624622344971e-01,3.526528477668762207e-01,4.270518422126770020e-01,2.848415851593017578e+00,-1.197064042091369629e+00,-5.742002129554748535e-01
1.336621761322021484e+00,-2.428518831729888916e-01,3.441252112388610840e-01,4.150604605674743652e-01,2.848415851593017578e+00,-1.213266968727111816e+00,-5.898595452308654785e-01
1.334830641746520996e+00,-2.470705807209014893e-01,3.354882001876831055e-01,4.029954075813293457e-01,2.848415851593017578e+00,-1.229479074478149414e+00,-6.055172681808471680e-01
1.351518869400024414e+00,-2.496331930160522461e-01,3.287914693355560303e-01,3.933391869068145752e-01,2.848415851593017578e+00,-1.246306777000427246e+00,-6.187070012092590332e-01
1.365506887435913086e+00,-2.522361278533935547e-01,3.219475448131561279e-01,3.837066292762756348e-01,2.848415851593017578e+00,-1.262868523597717285e+00,-6.322289109230041504e-01
1.377313256263732910e+00,-2.535525560379028320e-01,3.153595328330993652e-01,3.739748597145080566e-01,2.848415851593017578e+00,-1.279282450675964355e+00,-6.460505723953247070e-01
1.386519551277160645e+00,-2.547593116760253906e-01,3.084225058555603027e-01,3.641263842582702637e-01,2.848415851593017578e+00,-1.295547723770141602e+00,-6.601964235305786133e-01
1.393410444259643555e+00,-2.557925283908843994e-01,3.012573719024658203e-01,3.538805842399597168e-01,2.848415851593017578e+00,-1.311778545379638672e+00,-6.745884418487548828e-01
1.398451924324035645e+00,-2.572051584720611572e-01,2.941593527793884277e-01,3.435633182525634766e-01,2.848415851593017578e+00,-1.327931404113769531e+00,-6.892106533050537109e-01
1.401977062225341797e+00,-2.591367065906524658e-01,2.866265773773193359e-01,3.331413269042968750e-01,2.848415851593017578e+00,-1.343892455101013184e+00,-7.040523290634155273e-01
1.404320478439331055e+00,-2.617486119270324707e-01,2.791815698146820068e-01,3.224416375160217285e-01,2.848415851593017578e+00,-1.359916448593139648e+00,-7.190751433372497559e-01
1.405551671981811523e+00,-2.645063996315002441e-01,2.715132534503936768e-01,3.117376565933227539e-01,2.848415851593017578e+00,-1.375773429870605469e+00,-7.341922521591186523e-01
1.406117439270019531e+00,-2.673555612564086914e-01,2.638715207576751709e-01,3.006924986839294434e-01,2.848415851593017578e+00,-1.391735315322875977e+00,-7.493829727172851562e-01
1.406248331069946289e+00,-2.703211009502410889e-01,2.561476230621337891e-01,2.897847294807434082e-01,2.848415851593017578e+00,-1.407590866088867188e+00,-7.646080255508422852e-01
1.405673742294311523e+00,-2.727303802967071533e-01,2.484738230705261230e-01,2.791527509689331055e-01,2.848415851593017578e+00,-1.423309803009033203e+00,-7.791072130203247070e-01
1.404763579368591309e+00,-2.770209908485412598e-01,2.469142228364944458e-01,2.732818126678466797e-01,2.848415851593017578e+00,-1.438438415527343750e+00,-7.868342995643615723e-01
1.403391122817993164e+00,-2.811266481876373291e-01,2.444226145744323730e-01,2.667258083820343018e-01,2.848415851593017578e+00,-1.453486084938049316e+00,-7.947885394096374512e-01
1.402258396148681641e+00,-2.849672138690948486e-01,2.416345626115798950e-01,2.590548396110534668e-01,2.848415851593017578e+00,-1.468894124031066895e+00,-8.021063804626464844e-01
1.401149034500122070e+00,-2.883699536323547363e-01,2.373287081718444824e-01,2.510886192321777344e-01,2.848415851593017578e+00,-1.484191536903381348e+00,-8.098727464675903320e-01
1.400367498397827148e+00,-2.917180061340332031e-01,2.321889847517013550e-01,2.430385798215866089e-01,2.848415851593017578e+00,-1.499616861343383789e+00,-8.171666264533996582e-01
1.400157809257507324e+00,-2.964974045753479004e-01,2.243627458810806274e-01,2.349423021078109741e-01,2.848415851593017578e+00,-1.515334606170654297e+00,-8.227983117103576660e-01
1.400266885757446289e+00,-3.007777333259582520e-01,2.159982770681381226e-01,2.277352064847946167e-01,2.848415851593017578e+00,-1.531027078628540039e+00,-8.257510066032409668e-01
1.400382161140441895e+00,-3.045298159122467041e-01,2.073657959699630737e-01,2.207746952772140503e-01,2.848415851593017578e+00,-1.546831727027893066e+00,-8.276085853576660156e-01
1.400392293930053711e+00,-3.071937561035156250e-01,1.989919245243072510e-01,2.154176682233810425e-01,2.848415851593017578e+00,-1.562472224235534668e+00,-8.296293616294860840e-01
1.400361657142639160e+00,-3.092382848262786865e-01,1.915131658315658569e-01,2.103417366743087769e-01,2.848415851593017578e+00,-1.578218936920166016e+00,-8.319321870803833008e-01
1.400065183639526367e+00,-3.106057047843933105e-01,1.840109527111053467e-01,2.070397436618804932e-01,2.848415851593017578e+00,-1.593795537948608398e+00,-8.342431783676147461e-01
1.399356842041015625e+00,-3.106915652751922607e-01,1.778688728809356689e-01,2.031200826168060303e-01,2.848415851593017578e+00,-1.609486818313598633e+00,-8.362813591957092285e-01
1.398207545280456543e+00,-3.099778890609741211e-01,1.712331324815750122e-01,1.992821991443634033e-01,2.848415851593017578e+00,-1.625104665756225586e+00,-8.377864956855773926e-01
1.396734356880187988e+00,-3.075853586196899414e-01,1.660624593496322632e-01,1.948323100805282593e-01,2.848415851593017578e+00,-1.640736579895019531e+00,-8.394374847412109375e-01
1.395127773284912109e+00,-3.052029907703399658e-01,1.603797674179077148e-01,1.905804425477981567e-01,2.848415851593017578e+00,-1.656327128410339355e+00,-8.409773111343383789e-01
1.393027782440185547e+00,-3.025475740432739258e-01,1.563180983066558838e-01,1.857331097126007080e-01,2.848415851593017578e+00,-1.671893358230590820e+00,-8.426867127418518066e-01
1.390820264816284180e+00,-3.003567457199096680e-01,1.526838541030883789e-01,1.805731356143951416e-01,2.848415851593017578e+00,-1.687476158142089844e+00,-8.441059589385986328e-01
1.388469219207763672e+00,-2.985768616199493408e-01,1.493656337261199951e-01,1.749479770660400391e-01,2.848415851593017578e+00,-1.703082919120788574e+00,-8.450598120689392090e-01
1.386654853820800781e+00,-2.969726920127868652e-01,1.466099768877029419e-01,1.687488108873367310e-01,2.848415851593017578e+00,-1.718727350234985352e+00,-8.459877967834472656e-01
1.385479331016540527e+00,-2.958543896675109863e-01,1.427607238292694092e-01,1.634835004806518555e-01,2.848415851593017578e+00,-1.734350204467773438e+00,-8.466745615005493164e-01
1.384519457817077637e+00,-2.949845790863037109e-01,1.401870101690292358e-01,1.576171815395355225e-01,2.848415851593017578e+00,-1.750009894371032715e+00,-8.474768996238708496e-01
1.383873462677001953e+00,-2.944531440734863281e-01,1.370630115270614624e-01,1.517210602760314941e-01,2.848415851593017578e+00,-1.765722513198852539e+00,-8.480083346366882324e-01
1.383737206459045410e+00,-2.940897047519683838e-01,1.345555186271667480e-01,1.460468471050262451e-01,2.848415851593017578e+00,-1.781455636024475098e+00,-8.486024141311645508e-01
1.383774876594543457e+00,-2.940900921821594238e-01,1.321010738611221313e-01,1.405741572380065918e-01,2.848415851593017578e+00,-1.797198414802551270e+00,-8.489857316017150879e-01
1.384009480476379395e+00,-2.943253219127655029e-01,1.300025880336761475e-01,1.350304186344146729e-01,2.848415851593017578e+00,-1.812908649444580078e+00,-8.492329716682434082e-01
1.384531855583190918e+00,-2.947385311126708984e-01,1.280853003263473511e-01,1.296430379152297974e-01,2.848415851593017578e+00,-1.828649997711181641e+00,-8.493600487709045410e-01
1.386946439743041992e+00,-2.954383492469787598e-01,1.227585971355438232e-01,1.277720928192138672e-01,2.848415851593017578e+00,-1.843932867050170898e+00,-8.479921221733093262e-01
1.389186263084411621e+00,-2.959241271018981934e-01,1.192238628864288330e-01,1.251093298196792603e-01,2.848415851593017578e+00,-1.859332561492919922e+00,-8.470067977905273438e-01
1.391353487968444824e+00,-2.963794469833374023e-01,1.159812733530998230e-01,1.223235651850700378e-01,2.848415851593017578e+00,-1.874895453453063965e+00,-8.463262915611267090e-01
1.393540024757385254e+00,-2.967369854450225830e-01,1.138062030076980591e-01,1.192604452371597290e-01,2.848415851593017578e+00,-1.890470743179321289e+00,-8.457458615303039551e-01
1.395501375198364258e+00,-2.971067428588867188e-01,1.113539934158325195e-01,1.163805425167083740e-01,2.848415851593017578e+00,-1.906167626380920410e+00,-8.448770642280578613e-01
1.396374344825744629e+00,-2.977258265018463135e-01,1.094407215714454651e-01,1.130870282649993896e-01,2.848415851593017578e+00,-1.921682476997375488e+00,-8.430786728858947754e-01
1.397203087806701660e+00,-2.981635928153991699e-01,1.068246737122535706e-01,1.104214116930961609e-01,2.848415851593017578e+00,-1.937331438064575195e+00,-8.410066366195678711e-01
1.398020625114440918e+00,-2.984114885330200195e-01,1.039926931262016296e-01,1.083760410547256470e-01,2.848415851593017578e+00,-1.952997922897338867e+00,-8.388882875442504883e-01
1.398935317993164062e+00,-2.984310686588287354e-01,1.011147201061248779e-01,1.067226678133010864e-01,2.848415851593017578e+00,-1.968710064888000488e+00,-8.367434144020080566e-01
1.399609923362731934e+00,-2.982890009880065918e-01,9.873405098915100098e-02,1.049643680453300476e-01,2.848415851593017578e+00,-1.984418749809265137e+00,-8.346378803253173828e-01
1.400284528732299805e+00,-2.979809641838073730e-01,9.704293310642242432e-02,1.030289158225059509e-01,2.848415851593017578e+00,-2.000156164169311523e+00,-8.323985338211059570e-01
1.400889277458190918e+00,-2.976095080375671387e-01,9.520062059164047241e-02,1.012449041008949280e-01,2.848415851593017578e+00,-2.010623931884765625e+00,-8.299045562744140625e-01
1.401805639266967773e+00,-2.970269620418548584e-01,9.337852895259857178e-02,9.993116557598114014e-02,2.848415851593017578e+00,-2.010623931884765625e+00,-8.273031115531921387e-01
1.402607202529907227e+00,-2.963544428348541260e-01,9.139413386583328247e-02,9.885347634553909302e-02,2.848415851593017578e+00,-2.010623931884765625e+00,-8.246393203735351562e-01
1.403351545333862305e+00,-2.955596148967742920e-01,8.977837860584259033e-02,9.761878848075866699e-02,2.848415851593017578e+00,-2.010623931884765625e+00,-8.219329714775085449e-01
1.404116272926330566e+00,-2.947151958942413330e-01,8.822315186262130737e-02,9.647119790315628052e-02,2.848415851593017578e+00,-2.010623931884765625e+00,-8.191053867340087891e-01
1.404924869537353516e+00,-2.938448786735534668e-01,8.679854869842529297e-02,9.549990296363830566e-02,2.848415851593017578e+00,-2.010623931884765625e+00,-8.163684606552124023e-01
1.405866146087646484e+00,-2.930636405944824219e-01,8.530610054731369019e-02,9.497053921222686768e-02,2.848415851593017578e+00,-2.010623931884765625e+00,-8.142772912979125977e-01
1.406895041465759277e+00,-2.927045524120330811e-01,8.380749076604843140e-02,9.484641253948211670e-02,2.848415851593017578e+00,-2.010623931884765625e+00,-8.131841421127319336e-01
1.407465815544128418e+00,-2.931013703346252441e-01,8.262978494167327881e-02,9.428946673870086670e-02,2.848415851593017578e+00,-2.010623931884765625e+00,-8.123933672904968262e-01
1.407393097877502441e+00,-2.942560613155364990e-01,8.102211356163024902e-02,9.348544478416442871e-02,2.848415851593017578e+00,-2.010623931884765625e+00,-8.113133311271667480e-01
1.406793117523193359e+00,-2.957595586776733398e-01,7.810901105403900146e-02,9.259370714426040649e-02,2.848415851593017578e+00,-2.010623931884765625e+00,-8.102430105209350586e-01
1.405308842658996582e+00,-2.972202003002166748e-01,7.439288496971130371e-02,9.162064641714096069e-02,2.848415851593017578e+00,-2.010623931884765625e+00,-8.085293173789978027e-01
1.403885245323181152e+00,-2.980038523674011230e-01,7.027860730886459351e-02,9.068281203508377075e-02,2.848415851593017578e+00,-2.010623931884765625e+00,-8.064426183700561523e-01
1.402841567993164062e+00,-2.983808219432830811e-01,6.617713719606399536e-02,9.002636373043060303e-02,2.848415851593017578e+00,-2.010623931884765625e+00,-8.043336868286132812e-01
1.401829242706298828e+00,-2.984372675418853760e-01,6.236701458692550659e-02,8.926725387573242188e-02,2.848415851593017578e+00,-2.010623931884765625e+00,-8.023171424865722656e-01
1.401248216629028320e+00,-2.982827723026275635e-01,5.849405378103256226e-02,8.883512020111083984e-02,2.848415851593017578e+00,-2.010623931884765625e+00,-8.005398511886596680e-01
1.400670170783996582e+00,-2.978907227516174316e-01,5.473054945468902588e-02,8.828669041395187378e-02,2.848415851593017578e+00,-2.010623931884765625e+00,-7.986290454864501953e-01
1.400455594062805176e+00,-2.974457442760467529e-01,5.087492242455482483e-02,8.799807727336883545e-02,2.848415851593017578e+00,-2.010623931884765625e+00,-7.968260645866394043e-01
1.400251150131225586e+00,-2.968953549861907959e-01,4.702775552868843079e-02,8.761689066886901855e-02,2.848415851593017578e+00,-2.010623931884765625e+00,-7.948154211044311523e-01
1.400195956230163574e+00,-2.963457405567169189e-01,4.313449561595916748e-02,8.731339871883392334e-02,2.848415851593017578e+00,-2.010623931884765625e+00,-7.927681207656860352e-01
1.400276780128479004e+00,-2.958687543869018555e-01,3.911371901631355286e-02,8.722759783267974854e-02,2.848415851593017578e+00,-2.010623931884765625e+00,-7.907508015632629395e-01
1.400390744209289551e+00,-2.953684031963348389e-01,3.511269390583038330e-02,8.711215108633041382e-02,2.848415851593017578e+00,-2.010623931884765625e+00,-7.886408567428588867e-01
1.400534749031066895e+00,-2.947917282581329346e-01,3.109285235404968262e-02,8.699584007263183594e-02,2.848415851593017578e+00,-2.010623931884765625e+00,-7.864498496055603027e-01
1.400702238082885742e+00,-2.941464781761169434e-01,2.716475538909435272e-02,8.684082329273223877e-02,2.848415851593017578e+00,-2.010623931884765625e+00,-7.842516303062438965e-01
1.400950908660888672e+00,-2.934579253196716309e-01,2.322397381067276001e-02,8.678996562957763672e-02,2.848415851593017578e+00,-2.010623931884765625e+00,-7.820836305618286133e-01
1.401235342025756836e+00,-2.927215397357940674e-01,1.925208233296871185e-02,8.676902204751968384e-02,2.848415851593017578e+00,-2.010623931884765625e+00,-7.798901200294494629e-01
1.401554942131042480e+00,-2.919365465641021729e-01,1.526048965752124786e-02,8.674678951501846313e-02,2.848415851593017578e+00,-2.010623931884765625e+00,-7.776590585708618164e-01
1.401890635490417480e+00,-2.908145487308502197e-01,1.099310070276260376e-02,8.654220402240753174e-02,2.848415851593017578e+00,-2.010623931884765625e+00,-7.757840156555175781e-01
1.402308106422424316e+00,-2.897371351718902588e-01,6.775701418519020081e-03,8.634037524461746216e-02,2.848415851593017578e+00,-2.010623931884765625e+00,-7.738729715347290039e-01
1.402732372283935547e+00,-2.887009978294372559e-01,2.559382468461990356e-03,8.612397313117980957e-02,2.848415851593017578e+00,-2.010623931884765625e+00,-7.718952298164367676e-01
1.403185725212097168e+00,-2.877052128314971924e-01,-1.626471057534217834e-03,8.586328476667404175e-02,2.848415851593017578e+00,-2.010623931884765625e+00,-7.698128223419189453e-01
1.403663873672485352e+00,-2.867659032344818115e-01,-5.898416042327880859e-03,8.565635234117507935e-02,2.848415851593017578e+00,-2.010623931884765625e+00,-7.676575183868408203e-01
1.404181838035583496e+00,-2.859104871749877930e-01,-1.020824536681175232e-02,8.554813265800476074e-02,2.848415851593017578e+00,-2.010623931884765625e+00,-7.654797434806823730e-01
1.404683470726013184e+00,-2.850855290889739990e-01,-1.463419292122125626e-02,8.553403615951538086e-02,2.848415851593017578e+00,-2.010623931884765625e+00,-7.632052898406982422e-01
1.405165076255798340e+00,-2.842772006988525391e-01,-1.906992495059967041e-02,8.557887375354766846e-02,2.848415851593017578e+00,-2.010623931884765625e+00,-7.608910202980041504e-01
1.405661582946777344e+00,-2.835147678852081299e-01,-2.360449731349945068e-02,8.586753159761428833e-02,2.848415851593017578e+00,-2.010623931884765625e+00,-7.585694789886474609e-01
1.406133770942687988e+00,-2.827655375003814697e-01,-2.822965011000633240e-02,8.636021614074707031e-02,2.848415851593017578e+00,-2.010623931884765625e+00,-7.561708092689514160e-01
1.406573176383972168e+00,-2.820205688476562500e-01,-3.291764110326766968e-02,8.701908588409423828e-02,2.848415851593017578e+00,-2.010623931884765625e+00,-7.536983489990234375e-01
1.406964659690856934e+00,-2.812682986259460449e-01,-3.766275942325592041e-02,8.782777935266494751e-02,2.848415851593017578e+00,-2.010623931884765625e+00,-7.511643171310424805e-01
1.407281994819641113e+00,-2.804985046386718750e-01,-4.238433390855789185e-02,8.864181488752365112e-02,2.848415851593017578e+00,-2.010623931884765625e+00,-7.485898733139038086e-01
1.407545447349548340e+00,-2.796962857246398926e-01,-4.719004780054092407e-02,8.956981450319290161e-02,2.848415851593017578e+00,-2.010623931884765625e+00,-7.459697127342224121e-01
1.407772779464721680e+00,-2.788813114166259766e-01,-5.196921527385711670e-02,9.055902808904647827e-02,2.848415851593017578e+00,-2.010623931884765625e+00,-7.433410882949829102e-01
1.407944560050964355e+00,-2.780259549617767334e-01,-5.682621523737907410e-02,9.160575270652770996e-02,2.848415851593017578e+00,-2.010623931884765625e+00,-7.406362891197204590e-01
1.408045411109924316e+00,-2.771243751049041748e-01,-6.160411238670349121e-02,9.255943447351455688e-02,2.848415851593017578e+00,-2.010623931884765625e+00,-7.379043102264404297e-01
1.408128857612609863e+00,-2.762092649936676025e-01,-6.650546193122863770e-02,9.358167648315429688e-02,2.848415851593017578e+00,-2.010623931884765625e+00,-7.351290583610534668e-01
1.408151984214782715e+00,-2.752585709095001221e-01,-7.133939117193222046e-02,9.453637152910232544e-02,2.848415851593017578e+00,-2.010623931884765625e+00,-7.322953939437866211e-01
1.408178925514221191e+00,-2.742725908756256104e-01,-7.621821761131286621e-02,9.547464549541473389e-02,2.848415851593017578e+00,-2.010623931884765625e+00,-7.294179797172546387e-01
1.408181548118591309e+00,-2.732560336589813232e-01,-8.100652694702148438e-02,9.623965620994567871e-02,2.848415851593017578e+00,-2.010623931884765625e+00,-7.265485525131225586e-01
1.408239603042602539e+00,-2.722401022911071777e-01,-8.583112806081771851e-02,9.702597558498382568e-02,2.848415851593017578e+00,-2.010623931884765625e+00,-7.236923575401306152e-01
1.408295631408691406e+00,-2.712257802486419678e-01,-9.063493460416793823e-02,9.778308868408203125e-02,2.848415851593017578e+00,-2.010623931884765625e+00,-7.207761406898498535e-01
1.408422589302062988e+00,-2.702001631259918213e-01,-9.544444084167480469e-02,9.854735434055328369e-02,2.848415851593017578e+00,-2.010623931884765625e+00,-7.178147435188293457e-01
1.408578276634216309e+00,-2.691625356674194336e-01,-1.002539619803428650e-01,9.923778474330902100e-02,2.848415851593017578e+00,-2.010623931884765625e+00,-7.148045301437377930e-01
1.408801317214965820e+00,-2.681138813495635986e-01,-1.050065085291862488e-01,9.980718791484832764e-02,2.848415851593017578e+00,-2.010623931884765625e+00,-7.117962837219238281e-01
1.409093976020812988e+00,-2.670822739601135254e-01,-1.097711995244026184e-01,1.003555431962013245e-01,2.848415851593017578e+00,-2.010623931884765625e+00,-7.087757587432861328e-01
1.409491658210754395e+00,-2.660656869411468506e-01,-1.145296916365623474e-01,1.009650677442550659e-01,2.848415851593017578e+00,-2.010623931884765625e+00,-7.057429552078247070e-01
1.409925818443298340e+00,-2.650403082370758057e-01,-1.193867102265357971e-01,1.015757247805595398e-01,2.848415851593017578e+00,-2.010623931884765625e+00,-7.026228308677673340e-01
1.410424470901489258e+00,-2.640104293823242188e-01,-1.242603361606597900e-01,1.021906659007072449e-01,2.848415851593017578e+00,-2.010623931884765625e+00,-6.994789242744445801e-01
1.410982012748718262e+00,-2.630163729190826416e-01,-1.291903406381607056e-01,1.028875857591629028e-01,2.848415851593017578e+00,-2.010623931884765625e+00,-6.963011026382446289e-01
1.411598682403564453e+00,-2.620499432086944580e-01,-1.341470777988433838e-01,1.037039458751678467e-01,2.848415851593017578e+00,-2.010623931884765625e+00,-6.930723786354064941e-01
1.412225127220153809e+00,-2.610805034637451172e-01,-1.391529440879821777e-01,1.045406684279441833e-01,2.848415851593017578e+00,-2.010623931884765625e+00,-6.897512674331665039e-01
1.412882566452026367e+00,-2.601080834865570068e-01,-1.442378908395767212e-01,1.054809987545013428e-01,2.848415851593017578e+00,-2.010623931884765625e+00,-6.863818764686584473e-01
1.413464426994323730e+00,-2.592288255691528320e-01,-1.493716239929199219e-01,1.067046970129013062e-01,2.848415851593017578e+00,-2.010623931884765625e+00,-6.825774312019348145e-01
1.414088010787963867e+00,-2.583218514919281006e-01,-1.546010375022888184e-01,1.080057993531227112e-01,2.848415851593017578e+00,-2.010623931884765625e+00,-6.787855625152587891e-01
1.414744019508361816e+00,-2.573768794536590576e-01,-1.599125564098358154e-01,1.093943566083908081e-01,2.848415851593017578e+00,-2.010623931884765625e+00,-6.749680638313293457e-01
1.415486693382263184e+00,-2.563143968582153320e-01,-1.652558743953704834e-01,1.105885505676269531e-01,2.848415851593017578e+00,-2.010623931884765625e+00,-6.714802980422973633e-01
1.416223406791687012e+00,-2.552650272846221924e-01,-1.706747859716415405e-01,1.119953468441963196e-01,2.848415851593017578e+00,-2.010623931884765625e+00,-6.678624749183654785e-01
1.416902184486389160e+00,-2.541988492012023926e-01,-1.761386096477508545e-01,1.134873405098915100e-01,2.848415851593017578e+00,-2.010623931884765625e+00,-6.640772223472595215e-01
1.417560577392578125e+00,-2.530882060527801514e-01,-1.816277205944061279e-01,1.150474920868873596e-01,2.848415851593017578e+00,-2.010623931884765625e+00,-6.601452231407165527e-01
1.418178677558898926e+00,-2.519398927688598633e-01,-1.872041225433349609e-01,1.166272759437561035e-01,2.848415851593017578e+00,-2.010623931884765625e+00,-6.561090946197509766e-01
1.418784618377685547e+00,-2.507413923740386963e-01,-1.928022652864456177e-01,1.182410717010498047e-01,2.848415851593017578e+00,-2.010623931884765625e+00,-6.520279645919799805e-01
1.419399976730346680e+00,-2.495334595441818237e-01,-1.984506547451019287e-01,1.198879778385162354e-01,2.848415851593017578e+00,-2.010623931884765625e+00,-6.479099988937377930e-01
1.420001029968261719e+00,-2.482829838991165161e-01,-2.041188031435012817e-01,1.214506551623344421e-01,2.848415851593017578e+00,-2.010623931884765625e+00,-6.437463760375976562e-01
1.420614004135131836e+00,-2.469926774501800537e-01,-2.098522931337356567e-01,1.230017766356468201e-01,2.848227739334106445e+00,-2.010623931884765625e+00,-6.395386457443237305e-01
1.421268820762634277e+00,-2.456744909286499023e-01,-2.156318873167037964e-01,1.246169060468673706e-01,2.847249269485473633e+00,-2.010623931884765625e+00,-6.352825164794921875e-01
1.421975255012512207e+00,-2.443325966596603394e-01,-2.214386314153671265e-01,1.262578666210174561e-01,2.846278429031372070e+00,-2.010623931884765625e+00,-6.309584975242614746e-01
1.422711849212646484e+00,-2.429647743701934814e-01,-2.273229360580444336e-01,1.278767734766006470e-01,2.845213651657104492e+00,-2.010623931884765625e+00,-6.265613436698913574e-01
1.423492074012756348e+00,-2.416102290153503418e-01,-2.332463860511779785e-01,1.295178383588790894e-01,2.844098329544067383e+00,-2.010623931884765625e+00,-6.221165657043457031e-01
1.424270868301391602e+00,-2.402331978082656860e-01,-2.391839772462844849e-01,1.310868859291076660e-01,2.842723608016967773e+00,-2.010623931884765625e+00,-6.175963878631591797e-01
1.425038933753967285e+00,-2.388586699962615967e-01,-2.452512830495834351e-01,1.326746195554733276e-01,2.840853452682495117e+00,-2.010623931884765625e+00,-6.129168272018432617e-01
1.425835251808166504e+00,-2.374946326017379761e-01,-2.512918114662170410e-01,1.342060863971710205e-01,2.838954925537109375e+00,-2.010623931884765625e+00,-6.082715988159179688e-01
1.426641225814819336e+00,-2.361422777175903320e-01,-2.573353350162506104e-01,1.357228755950927734e-01,2.836885929107666016e+00,-2.010623931884765625e+00,-6.035320758819580078e-01
1.427475571632385254e+00,-2.347987294197082520e-01,-2.634158432483673096e-01,1.372358053922653198e-01,2.834592819213867188e+00,-2.010623931884765625e+00,-5.987155437469482422e-01
1.428310155868530273e+00,-2.334548085927963257e-01,-2.695824503898620605e-01,1.387421786785125732e-01,2.831950902938842773e+00,-2.010623931884765625e+00,-5.938041806221008301e-01
1.429156780242919922e+00,-2.321057468652725220e-01,-2.757998704910278320e-01,1.402882337570190430e-01,2.829033136367797852e+00,-2.010623931884765625e+00,-5.887998938560485840e-01
1.430022120475769043e+00,-2.307521551847457886e-01,-2.820968627929687500e-01,1.419356167316436768e-01,2.825859308242797852e+00,-2.010623931884765625e+00,-5.836761593818664551e-01
1.430889964103698730e+00,-2.293757796287536621e-01,-2.884816825389862061e-01,1.435834765434265137e-01,2.822452068328857422e+00,-2.010623931884765625e+00,-5.784507393836975098e-01
1.431781291961669922e+00,-2.279791384935379028e-01,-2.949925959110260010e-01,1.453231424093246460e-01,2.818800210952758789e+00,-2.010623931884765625e+00,-5.731487870216369629e-01
1.432696223258972168e+00,-2.265575379133224487e-01,-3.015712797641754150e-01,1.472198367118835449e-01,2.814940929412841797e+00,-2.010623931884765625e+00,-5.677519440650939941e-01
1.433601140975952148e+00,-2.250473201274871826e-01,-3.082279562950134277e-01,1.490843892097473145e-01,2.810820579528808594e+00,-2.010623931884765625e+00,-5.622294545173645020e-01
1.434510827064514160e+00,-2.234439700841903687e-01,-3.150230050086975098e-01,1.510514020919799805e-01,2.806498527526855469e+00,-2.010623931884765625e+00,-5.566161870956420898e-01
1.435443520545959473e+00,-2.217839956283569336e-01,-3.218725323677062988e-01,1.531831622123718262e-01,2.802072525024414062e+00,-2.010623931884765625e+00,-5.509046316146850586e-01
1.436334133148193359e+00,-2.200571447610855103e-01,-3.288603425025939941e-01,1.554723978042602539e-01,2.797459840774536133e+00,-2.010623931884765625e+00,-5.450259447097778320e-01
1.437178015708923340e+00,-2.182594686746597290e-01,-3.360041975975036621e-01,1.578547358512878418e-01,2.792648553848266602e+00,-2.010623931884765625e+00,-5.389797091484069824e-01
1.438004612922668457e+00,-2.164058387279510498e-01,-3.432785570621490479e-01,1.604074686765670776e-01,2.787684202194213867e+00,-2.010623931884765625e+00,-5.328086614608764648e-01
1.438822269439697266e+00,-2.145200669765472412e-01,-3.506409227848052979e-01,1.630935221910476685e-01,2.782519102096557617e+00,-2.010623931884765625e+00,-5.265179872512817383e-01
1.439620375633239746e+00,-2.125121951103210449e-01,-3.583917319774627686e-01,1.661043763160705566e-01,2.777016401290893555e+00,-2.010623931884765625e+00,-5.199471712112426758e-01
1.440388679504394531e+00,-2.104869782924652100e-01,-3.661760091781616211e-01,1.691792011260986328e-01,2.771339654922485352e+00,-2.010623931884765625e+00,-5.132427215576171875e-01
1.441227674484252930e+00,-2.084561735391616821e-01,-3.740035593509674072e-01,1.723357439041137695e-01,2.765608072280883789e+00,-2.010623931884765625e+00,-5.064807534217834473e-01
1.441979765892028809e+00,-2.064590305089950562e-01,-3.818072974681854248e-01,1.753557622432708740e-01,2.759772777557373047e+00,-2.010623931884765625e+00,-4.996972978115081787e-01
1.442802309989929199e+00,-2.043797820806503296e-01,-3.896175920963287354e-01,1.783978343009948730e-01,2.753905534744262695e+00,-2.010623931884765625e+00,-4.927855730056762695e-01
1.443782687187194824e+00,-2.021770775318145752e-01,-3.977766335010528564e-01,1.818831413984298706e-01,2.747913122177124023e+00,-2.010623931884765625e+00,-4.856198728084564209e-01
1.444731950759887695e+00,-1.999294459819793701e-01,-4.060837626457214355e-01,1.854420155286788940e-01,2.741704225540161133e+00,-2.010623931884765625e+00,-4.782861471176147461e-01
1.445859909057617188e+00,-1.975976973772048950e-01,-4.143941998481750488e-01,1.890358030796051025e-01,2.735521554946899414e+00,-2.010623931884765625e+00,-4.708932936191558838e-01
1.446917891502380371e+00,-1.952680051326751709e-01,-4.226717054843902588e-01,1.924387365579605103e-01,2.729266881942749023e+00,-2.010623931884765625e+00,-4.634936451911926270e-01
1.448105335235595703e+00,-1.928735971450805664e-01,-4.310478866100311279e-01,1.959264874458312988e-01,2.723046302795410156e+00,-2.010623931884765625e+00,-4.560104906558990479e-01
1.449497699737548828e+00,-1.904382258653640747e-01,-4.394444823265075684e-01,1.995458453893661499e-01,2.716950893402099609e+00,-2.010623931884765625e+00,-4.484364688396453857e-01
1.450965046882629395e+00,-1.879757195711135864e-01,-4.480401575565338135e-01,2.032975703477859497e-01,2.710860729217529297e+00,-2.010623931884765625e+00,-4.407298862934112549e-01
1.452547669410705566e+00,-1.854658722877502441e-01,-4.566452503204345703e-01,2.071378231048583984e-01,2.704817771911621094e+00,-2.010623931884765625e+00,-4.329421818256378174e-01
1.454203248023986816e+00,-1.830010414123535156e-01,-4.654422104358673096e-01,2.111661136150360107e-01,2.698785543441772461e+00,-2.010623931884765625e+00,-4.250292778015136719e-01
1.455799579620361328e+00,-1.805176287889480591e-01,-4.743984341621398926e-01,2.152753472328186035e-01,2.692672729492187500e+00,-2.010623931884765625e+00,-4.170413911342620850e-01
1.457574725151062012e+00,-1.780680418014526367e-01,-4.833520352840423584e-01,2.194844484329223633e-01,2.686744928359985352e+00,-2.010623931884765625e+00,-4.089793562889099121e-01
1.459314823150634766e+00,-1.755614578723907471e-01,-4.926002323627471924e-01,2.236784845590591431e-01,2.680850982666015625e+00,-2.010623931884765625e+00,-4.008325636386871338e-01
1.461365103721618652e+00,-1.729600131511688232e-01,-5.017353892326354980e-01,2.277861833572387695e-01,2.675372600555419922e+00,-2.010623931884765625e+00,-3.927104771137237549e-01
1.463595271110534668e+00,-1.703245192766189575e-01,-5.110833644866943359e-01,2.321943044662475586e-01,2.670297861099243164e+00,-2.010623931884765625e+00,-3.845083117485046387e-01
1.465904235839843750e+00,-1.676096767187118530e-01,-5.204746127128601074e-01,2.366356253623962402e-01,2.665598630905151367e+00,-2.010623931884765625e+00,-3.762842714786529541e-01
1.468398332595825195e+00,-1.648433506488800049e-01,-5.298974514007568359e-01,2.412384003400802612e-01,2.661407232284545898e+00,-2.010623931884765625e+00,-3.680008649826049805e-01
1.470892667770385742e+00,-1.620742976665496826e-01,-5.395301580429077148e-01,2.459857016801834106e-01,2.657872200012207031e+00,-2.010623931884765625e+00,-3.596305847167968750e-01
1.473603963851928711e+00,-1.592282205820083618e-01,-5.489314794540405273e-01,2.506098747253417969e-01,2.655147790908813477e+00,-2.010623931884765625e+00,-3.512962162494659424e-01
1.476320624351501465e+00,-1.564941853284835815e-01,-5.586371421813964844e-01,2.557652890682220459e-01,2.653875827789306641e+00,-2.010623931884765625e+00,-3.428359627723693848e-01
1.479109406471252441e+00,-1.537770479917526245e-01,-5.680915117263793945e-01,2.609400749206542969e-01,2.653207063674926758e+00,-2.010623931884765625e+00,-3.344189226627349854e-01
1.481877207756042480e+00,-1.511130481958389282e-01,-5.778526067733764648e-01,2.663243412971496582e-01,2.653279304504394531e+00,-2.010623931884765625e+00,-3.259226381778717041e-01
1.484883904457092285e+00,-1.483218371868133545e-01,-5.874219536781311035e-01,2.716245651245117188e-01,2.654047250747680664e+00,-2.010623931884765625e+00,-3.174990713596343994e-01
1.488318324089050293e+00,-1.453890502452850342e-01,-5.969601869583129883e-01,2.771024405956268311e-01,2.655948400497436523e+00,-2.010623931884765625e+00,-3.090791106224060059e-01
1.492023706436157227e+00,-1.423956304788589478e-01,-6.065510511398315430e-01,2.830597460269927979e-01,2.659295082092285156e+00,-2.010623931884765625e+00,-3.006657361984252930e-01
1.496100306510925293e+00,-1.393128633499145508e-01,-6.158847808837890625e-01,2.891950011253356934e-01,2.663764953613281250e+00,-2.010623931884765625e+00,-2.923269569873809814e-01
1.500115871429443359e+00,-1.363036334514617920e-01,-6.254804134368896484e-01,2.955244779586791992e-01,2.669140577316284180e+00,-2.010623931884765625e+00,-2.839416861534118652e-01
1.504413008689880371e+00,-1.331982165575027466e-01,-6.346193552017211914e-01,3.017868101596832275e-01,2.675041675567626953e+00,-2.010623931884765625e+00,-2.756814360618591309e-01
1.508426308631896973e+00,-1.303552389144897461e-01,-6.441021561622619629e-01,3.084006309509277344e-01,2.681550741195678711e+00,-2.010623931884765625e+00,-2.673197090625762939e-01
1.512540578842163086e+00,-1.274635493755340576e-01,-6.531842350959777832e-01,3.150646388530731201e-01,2.688652515411376953e+00,-2.010623931884765625e+00,-2.589957416057586670e-01
1.516509056091308594e+00,-1.246429085731506348e-01,-6.626245975494384766e-01,3.216360509395599365e-01,2.696338891983032227e+00,-2.010623931884765625e+00,-2.506503462791442871e-01
1.520764708518981934e+00,-1.216351985931396484e-01,-6.717640757560729980e-01,3.284326195716857910e-01,2.704709529876708984e+00,-2.010623931884765625e+00,-2.424321621656417847e-01
1.525061249732971191e+00,-1.186522319912910461e-01,-6.810425519943237305e-01,3.353623747825622559e-01,2.713611125946044922e+00,-2.010623931884765625e+00,-2.342603951692581177e-01
1.529355168342590332e+00,-1.156080961227416992e-01,-6.903094649314880371e-01,3.424071669578552246e-01,2.723071098327636719e+00,-2.010623931884765625e+00,-2.261355817317962646e-01
1.533830046653747559e+00,-1.124981790781021118e-01,-6.993979811668395996e-01,3.494111895561218262e-01,2.732965707778930664e+00,-2.010623931884765625e+00,-2.180777490139007568e-01
1.538096785545349121e+00,-1.095758676528930664e-01,-7.086465358734130859e-01,3.567650616168975830e-01,2.743297815322875977e+00,-2.010623931884765625e+00,-2.099661678075790405e-01
1.542507171630859375e+00,-1.066503524780273438e-01,-7.175435423851013184e-01,3.640646636486053467e-01,2.753984928131103516e+00,-2.010623931884765625e+00,-2.018556743860244751e-01
1.546680331230163574e+00,-1.038127169013023376e-01,-7.267884016036987305e-01,3.712510168552398682e-01,2.764958858489990234e+00,-2.010623931884765625e+00,-1.937124282121658325e-01
1.551171779632568359e+00,-1.007647514343261719e-01,-7.356344461441040039e-01,3.786307573318481445e-01,2.776330709457397461e+00,-2.010623931884765625e+00,-1.856846511363983154e-01
1.555502057075500488e+00,-9.779393672943115234e-02,-7.448177337646484375e-01,3.861488103866577148e-01,2.787935733795166016e+00,-2.010623931884765625e+00,-1.776500642299652100e-01
1.560058355331420898e+00,-9.455217421054840088e-02,-7.537673115730285645e-01,3.935775756835937500e-01,2.799938440322875977e+00,-2.010623931884765625e+00,-1.696879565715789795e-01
1.564640641212463379e+00,-9.144726395606994629e-02,-7.627407908439636230e-01,4.011941850185394287e-01,2.812171936035156250e+00,-2.010623931884765625e+00,-1.617762595415115356e-01
1.569090604782104492e+00,-8.846175670623779297e-02,-7.716569304466247559e-01,4.090245366096496582e-01,2.824685811996459961e+00,-2.010623931884765625e+00,-1.538052260875701904e-01
1.573570489883422852e+00,-8.540846407413482666e-02,-7.805367112159729004e-01,4.165998399257659912e-01,2.837346553802490234e+00,-2.010623931884765625e+00,-1.458269059658050537e-01
1.577891945838928223e+00,-8.242513984441757202e-02,-7.896204590797424316e-01,4.245837032794952393e-01,2.848415851593017578e+00,-2.010623931884765625e+00,-1.378506124019622803e-01
1.582423806190490723e+00,-7.932157814502716064e-02,-7.984111309051513672e-01,4.324520826339721680e-01,2.848415851593017578e+00,-2.010623931884765625e+00,-1.298680752515792847e-01
1.586924791336059570e+00,-7.618671655654907227e-02,-8.074531555175781250e-01,4.404133558273315430e-01,2.848415851593017578e+00,-2.010623931884765625e+00,-1.219519376754760742e-01
1.591531276702880859e+00,-7.302734255790710449e-02,-8.161916136741638184e-01,4.484841227531433105e-01,2.848415851593017578e+00,-2.010623931884765625e+00,-1.140670180320739746e-01
1.595944762229919434e+00,-6.999804824590682983e-02,-8.251261115074157715e-01,4.565594196319580078e-01,2.848415851593017578e+00,-2.010623931884765625e+00,-1.061450690031051636e-01
1.600361824035644531e+00,-6.684102118015289307e-02,-8.339800238609313965e-01,4.647614657878875732e-01,2.848415851593017578e+00,-2.010623931884765625e+00,-9.820434451103210449e-02
1.604630947113037109e+00,-6.391239911317825317e-02,-8.427123427391052246e-01,4.728124737739562988e-01,2.848415851593017578e+00,-2.010623931884765625e+00,-9.020836651325225830e-02
1.608594298362731934e+00,-6.092697381973266602e-02,-8.512198925018310547e-01,4.807192981243133545e-01,2.848415851593017578e+00,-2.010623931884765625e+00,-8.216344565153121948e-02
1.612186312675476074e+00,-5.804044380784034729e-02,-8.595762252807617188e-01,4.883222281932830811e-01,2.848415851593017578e+00,-2.010623931884765625e+00,-7.402274012565612793e-02
1.615267157554626465e+00,-5.513883382081985474e-02,-8.679838180541992188e-01,4.958127737045288086e-01,2.848415851593017578e+00,-2.010623931884765625e+00,-6.578490883111953735e-02
1.618257999420166016e+00,-5.212555080652236938e-02,-8.762619495391845703e-01,5.031569004058837891e-01,2.848415851593017578e+00,-2.010623931884765625e+00,-5.751638114452362061e-02
1.621031641960144043e+00,-4.928493127226829529e-02,-8.846094012260437012e-01,5.104798674583435059e-01,2.848415851593017578e+00,-2.010623931884765625e+00,-4.919213056564331055e-02
1.623849391937255859e+00,-4.628597572445869446e-02,-8.928034901618957520e-01,5.176180005073547363e-01,2.848415851593017578e+00,-2.010623931884765625e+00,-4.089360311627388000e-02
1.626609921455383301e+00,-4.344360902905464172e-02,-9.012994766235351562e-01,5.249981284141540527e-01,2.848415851593017578e+00,-2.010623931884765625e+00,-3.251235559582710266e-02
1.629568219184875488e+00,-4.032263532280921936e-02,-9.097831249237060547e-01,5.323881506919860840e-01,2.848415851593017578e+00,-2.010623931884765625e+00,-2.414096519351005554e-02
1.632832407951354980e+00,-3.728276491165161133e-02,-9.183596968650817871e-01,5.401949286460876465e-01,2.848415851593017578e+00,-2.010623931884765625e+00,-1.572136953473091125e-02
1.636241197586059570e+00,-3.421510010957717896e-02,-9.268438816070556641e-01,5.479367971420288086e-01,2.848415851593017578e+00,-2.010623931884765625e+00,-7.281351834535598755e-03
1.639825940132141113e+00,-3.118922002613544464e-02,-9.353138208389282227e-01,5.558436512947082520e-01,2.848415851593017578e+00,-2.010623931884765625e+00,1.173768192529678345e-03
1.643364310264587402e+00,-2.825052291154861450e-02,-9.440267086029052734e-01,5.639078021049499512e-01,2.848415851593017578e+00,-2.010623931884765625e+00,9.709438309073448181e-03
1.647230386734008789e+00,-2.503190748393535614e-02,-9.526797533035278320e-01,5.719000697135925293e-01,2.848415851593017578e+00,-2.010623931884765625e+00,1.819828897714614868e-02
1.651186943054199219e+00,-2.197792939841747284e-02,-9.615063071250915527e-01,5.802373886108398438e-01,2.848415851593017578e+00,-2.010623931884765625e+00,2.674512565135955811e-02
1.655328869819641113e+00,-1.878968067467212677e-02,-9.700448513031005859e-01,5.883229374885559082e-01,2.848415851593017578e+00,-2.010623931884765625e+00,3.523981943726539612e-02
1.659349083900451660e+00,-1.581705361604690552e-02,-9.787629842758178711e-01,5.966461896896362305e-01,2.848415851593017578e+00,-2.010623931884765625e+00,4.379030317068099976e-02
1.663318753242492676e+00,-1.279849372804164886e-02,-9.874747395515441895e-01,6.048876643180847168e-01,2.848415851593017578e+00,-2.010623931884765625e+00,5.237337201833724976e-02
1.667378902435302734e+00,-9.732229635119438171e-03,-9.962301254272460938e-01,6.131473779678344727e-01,2.848415851593017578e+00,-2.010623931884765625e+00,6.094435602426528931e-02
1.671401619911193848e+00,-6.747314706444740295e-03,-1.005030035972595215e+00,6.215251088142395020e-01,2.848415851593017578e+00,-2.010623931884765625e+00,6.953982263803482056e-02
1.675576925277709961e+00,-3.630613908171653748e-03,-1.013597846031188965e+00,6.295580267906188965e-01,2.848415851593017578e+00,-2.010623931884765625e+00,7.809353619813919067e-02
1.679543137550354004e+00,-6.767734885215759277e-04,-1.022385478019714355e+00,6.379001140594482422e-01,2.848415851593017578e+00,-2.010623931884765625e+00,8.669002354145050049e-02
1.683619260787963867e+00,2.422360703349113464e-03,-1.031016707420349121e+00,6.460645198822021484e-01,2.848415851593017578e+00,-2.010623931884765625e+00,9.526109695434570312e-02
1.687603592872619629e+00,5.471929907798767090e-03,-1.039847850799560547e+00,6.544091701507568359e-01,2.848415851593017578e+00,-2.010623931884765625e+00,1.038668751716613770e-01
1.691634893417358398e+00,8.501814678311347961e-03,-1.048520088195800781e+00,6.627470254898071289e-01,2.848415851593017578e+00,-2.010623931884765625e+00,1.124641895294189453e-01
1.695655703544616699e+00,1.147791184484958649e-02,-1.057099223136901855e+00,6.708784103393554688e-01,2.848415851593017578e+00,-2.010623931884765625e+00,1.210673451423645020e-01
1.699482679367065430e+00,1.437837444245815277e-02,-1.065841197967529297e+00,6.792475581169128418e-01,2.848415851593017578e+00,-2.010623931884765625e+00,1.297250837087631226e-01
1.703536272048950195e+00,1.741696894168853760e-02,-1.074457168579101562e+00,6.874082684516906738e-01,2.848415851593017578e+00,-2.010623931884765625e+00,1.382953226566314697e-01
1.707494974136352539e+00,2.050596103072166443e-02,-1.083365797996520996e+00,6.959456205368041992e-01,2.848415851593017578e+00,-2.010623931884765625e+00,1.469492167234420776e-01
1.711524963378906250e+00,2.364035323262214661e-02,-1.092014908790588379e+00,7.042106986045837402e-01,2.848415851593017578e+00,-2.010623931884765625e+00,1.555358767509460449e-01
1.715405821800231934e+00,2.664034254848957062e-02,-1.100632786750793457e+00,7.124983072280883789e-01,2.848415851593017578e+00,-2.010623931884765625e+00,1.641396582126617432e-01
1.719269275665283203e+00,2.955692075192928314e-02,-1.109198451042175293e+00,7.208708524703979492e-01,2.848415851593017578e+00,-2.010623931884765625e+00,1.727655529975891113e-01
1.724844455718994141e+00,3.230377286672592163e-02,-1.115737438201904297e+00,7.243439555168151855e-01,2.848415851593017578e+00,-2.010623931884765625e+00,1.836216747760772705e-01
1.730042099952697754e+00,3.532526642084121704e-02,-1.122850298881530762e+00,7.294898033142089844e-01,2.848415851593017578e+00,-2.010623931884765625e+00,1.939793676137924194e-01
1.735044956207275391e+00,3.850368782877922058e-02,-1.130246162414550781e+00,7.353978753089904785e-01,2.848415851593017578e+00,-2.010623931884765625e+00,2.039262801408767700e-01
1.739902853965759277e+00,4.176821559667587280e-02,-1.137775897979736328e+00,7.418645620346069336e-01,2.848415851593017578e+00,-2.010623931884765625e+00,2.135940343141555786e-01
1.744611144065856934e+00,4.485788941383361816e-02,-1.145541071891784668e+00,7.486272454261779785e-01,2.848415851593017578e+00,-2.010623931884765625e+00,2.231564223766326904e-01
1.749112129211425781e+00,4.795428365468978882e-02,-1.153474569320678711e+00,7.553692460060119629e-01,2.848415851593017578e+00,-2.010623931884765625e+00,2.327753603458404541e-01
1.753542184829711914e+00,5.101735889911651611e-02,-1.161541581153869629e+00,7.623571753501892090e-01,2.848415851593017578e+00,-2.010623931884765625e+00,2.425487488508224487e-01
1.757857680320739746e+00,5.401489883661270142e-02,-1.169773459434509277e+00,7.692009806632995605e-01,2.848415851593017578e+00,-2.010623931884765625e+00,2.524932324886322021e-01
1.762281775474548340e+00,5.713484436273574829e-02,-1.177762985229492188e+00,7.760169506072998047e-01,2.848415851593017578e+00,-2.010623931884765625e+00,2.625252008438110352e-01
1.766577124595642090e+00,5.995081737637519836e-02,-1.185994029045104980e+00,7.827845215797424316e-01,2.848415851593017578e+00,-2.010623931884765625e+00,2.726629078388214111e-01
1.770863771438598633e+00,6.295654922723770142e-02,-1.194140791893005371e+00,7.892416715621948242e-01,2.848415851593017578e+00,-2.010623931884765625e+00,2.828045487403869629e-01
1.775037407875061035e+00,6.575164198875427246e-02,-1.202597379684448242e+00,7.960521578788757324e-01,2.848415851593017578e+00,-2.010623931884765625e+00,2.929785549640655518e-01
1.779276967048645020e+00,6.868378818035125732e-02,-1.211046695709228516e+00,8.028979897499084473e-01,2.848415851593017578e+00,-2.010623931884765625e+00,3.031457662582397461e-01
1.783594369888305664e+00,7.155659794807434082e-02,-1.219396591186523438e+00,8.094920516014099121e-01,2.848415851593017578e+00,-2.010623931884765625e+00,3.133402764797210693e-01
1.787752747535705566e+00,7.433984428644180298e-02,-1.227899909019470215e+00,8.161634802818298340e-01,2.848415851593017578e+00,-2.010623931884765625e+00,3.235632777214050293e-01
1.792073845863342285e+00,7.737520337104797363e-02,-1.236405372619628906e+00,8.227024674415588379e-01,2.848415851593017578e+00,-2.010623931884765625e+00,3.338177204132080078e-01
1.796262741088867188e+00,8.035468310117721558e-02,-1.245217323303222656e+00,8.296253681182861328e-01,2.848415851593017578e+00,-2.010623931884765625e+00,3.441024720668792725e-01
1.800634264945983887e+00,8.353831619024276733e-02,-1.253818750381469727e+00,8.364542722702026367e-01,2.848415851593017578e+00,-2.010623931884765625e+00,3.544009327888488770e-01
1.805035710334777832e+00,8.650824427604675293e-02,-1.262376904487609863e+00,8.432061076164245605e-01,2.848415851593017578e+00,-2.010623931884765625e+00,3.647421598434448242e-01
1.809317588806152344e+00,8.941358327865600586e-02,-1.270903825759887695e+00,8.497005701065063477e-01,2.848415851593017578e+00,-2.010623931884765625e+00,3.750972449779510498e-01
1.813608884811401367e+00,9.229326248168945312e-02,-1.279481291770935059e+00,8.561440110206604004e-01,2.848415851593017578e+00,-2.010623931884765625e+00,3.854794204235076904e-01
1.817843079566955566e+00,9.525431692600250244e-02,-1.288130164146423340e+00,8.626521825790405273e-01,2.848415851593017578e+00,-2.010623931884765625e+00,3.958799242973327637e-01
1.822189331054687500e+00,9.831967949867248535e-02,-1.296641230583190918e+00,8.690837025642395020e-01,2.848415851593017578e+00,-2.010623931884765625e+00,4.062774479389190674e-01
1.826588034629821777e+00,1.013478413224220276e-01,-1.304986596107482910e+00,8.755016326904296875e-01,2.848415851593017578e+00,-2.010623931884765625e+00,4.166841208934783936e-01
1.830967545509338379e+00,1.043316870927810669e-01,-1.313297390937805176e+00,8.816191554069519043e-01,2.848415851593017578e+00,-2.010623931884765625e+00,4.271087944507598877e-01
1.835246324539184570e+00,1.072922199964523315e-01,-1.321775078773498535e+00,8.876853585243225098e-01,2.848415851593017578e+00,-2.010623931884765625e+00,4.375501573085784912e-01
1.839627146720886230e+00,1.103322282433509827e-01,-1.330110788345336914e+00,8.938350081443786621e-01,2.848415851593017578e+00,-2.010623931884765625e+00,4.479934275150299072e-01
1.844037890434265137e+00,1.133431419730186462e-01,-1.338500499725341797e+00,8.998495340347290039e-01,2.848415851593017578e+00,-2.010623931884765625e+00,4.584502279758453369e-01
1.848437905311584473e+00,1.163942068815231323e-01,-1.346789479255676270e+00,9.056978225708007812e-01,2.848415851593017578e+00,-2.010623931884765625e+00,4.689131379127502441e-01
1.852777481079101562e+00,1.193772256374359131e-01,-1.355223178863525391e+00,9.116545915603637695e-01,2.848415851593017578e+00,-2.010623931884765625e+00,4.793837070465087891e-01
1.857112407684326172e+00,1.223856434226036072e-01,-1.363694548606872559e+00,9.175463318824768066e-01,2.848415851593017578e+00,-2.010623931884765625e+00,4.898577630519866943e-01
1.861537933349609375e+00,1.254481524229049683e-01,-1.372019052505493164e+00,9.233375191688537598e-01,2.848415851593017578e+00,-2.010623931884765625e+00,5.003265738487243652e-01
1.865908384323120117e+00,1.284739673137664795e-01,-1.380380868911743164e+00,9.291517138481140137e-01,2.848415851593017578e+00,-2.010623931884765625e+00,5.108038783073425293e-01
1.870270490646362305e+00,1.314763277769088745e-01,-1.388763666152954102e+00,9.349374175071716309e-01,2.848415851593017578e+00,-2.010623931884765625e+00,5.212776064872741699e-01
1.874562740325927734e+00,1.344525068998336792e-01,-1.397357106208801270e+00,9.406539201736450195e-01,2.848415851593017578e+00,-2.010623931884765625e+00,5.317742824554443359e-01
1.878920555114746094e+00,1.374607384204864502e-01,-1.405766367912292480e+00,9.464294314384460449e-01,2.848415851593017578e+00,-2.010623931884765625e+00,5.422537326812744141e-01
1.883337855339050293e+00,1.404789537191390991e-01,-1.414015054702758789e+00,9.521530866622924805e-01,2.848415851593017578e+00,-2.010623931884765625e+00,5.527270436286926270e-01
1.887740969657897949e+00,1.435061693191528320e-01,-1.422285556793212891e+00,9.576911926269531250e-01,2.848415851593017578e+00,-2.010623931884765625e+00,5.632081627845764160e-01
1.892039179801940918e+00,1.465457677841186523e-01,-1.430728077888488770e+00,9.633894562721252441e-01,2.848415851593017578e+00,-2.010623931884765625e+00,5.736794471740722656e-01
1.896419763565063477e+00,1.497575044631958008e-01,-1.439358592033386230e+00,9.695063829421997070e-01,2.848415851593017578e+00,-2.010623931884765625e+00,5.841448903083801270e-01
1.900864481925964355e+00,1.529900431632995605e-01,-1.447722673416137695e+00,9.753664135932922363e-01,2.848415851593017578e+00,-2.010623931884765625e+00,5.946063995361328125e-01
1.905251622200012207e+00,1.561437547206878662e-01,-1.455998539924621582e+00,9.810391664505004883e-01,2.848415851593017578e+00,-2.010623931884765625e+00,6.050707697868347168e-01
1.909653186798095703e+00,1.593095958232879639e-01,-1.464159846305847168e+00,9.866421222686767578e-01,2.848415851593017578e+00,-2.010623931884765625e+00,6.155241131782531738e-01
1.913925409317016602e+00,1.624155789613723755e-01,-1.472560882568359375e+00,9.923418164253234863e-01,2.848415851593017578e+00,-2.010623931884765625e+00,6.259894371032714844e-01
1.918272852897644043e+00,1.656919121742248535e-01,-1.480901241302490234e+00,9.979434013366699219e-01,2.848415851593017578e+00,-2.010623931884765625e+00,6.364429593086242676e-01
1.922604680061340332e+00,1.688993126153945923e-01,-1.489069461822509766e+00,1.003503441810607910e+00,2.848415851593017578e+00,-2.010623931884765625e+00,6.468776464462280273e-01
1.926943421363830566e+00,1.721243411302566528e-01,-1.497119307518005371e+00,1.009055256843566895e+00,2.848415851593017578e+00,-2.010623931884765625e+00,6.573002934455871582e-01
1.931273221969604492e+00,1.753279268741607666e-01,-1.505352616310119629e+00,1.014512896537780762e+00,2.848415851593017578e+00,-2.010623931884765625e+00,6.677504777908325195e-01
1.935428023338317871e+00,1.784663945436477661e-01,-1.513600230216979980e+00,1.019936442375183105e+00,2.848415851593017578e+00,-2.010623931884765625e+00,6.781805157661437988e-01
1.939771890640258789e+00,1.817578077316284180e-01,-1.521613121032714844e+00,1.025338530540466309e+00,2.848415851593017578e+00,-2.010623931884765625e+00,6.886042356491088867e-01
1.944038867950439453e+00,1.849103122949600220e-01,-1.529487490653991699e+00,1.030593156814575195e+00,2.848415851593017578e+00,-2.010623931884765625e+00,6.990033388137817383e-01
1.948241591453552246e+00,1.880794763565063477e-01,-1.537410378456115723e+00,1.035585165023803711e+00,2.848415851593017578e+00,-2.010623931884765625e+00,7.094107866287231445e-01
1.952369332313537598e+00,1.911983191967010498e-01,-1.545445322990417480e+00,1.040707230567932129e+00,2.848415851593017578e+00,-2.010623931884765625e+00,7.198146581649780273e-01
1.956542253494262695e+00,1.944681704044342041e-01,-1.553451895713806152e+00,1.045926928520202637e+00,2.848415851593017578e+00,-2.010623931884765625e+00,7.302085757255554199e-01
1.960834860801696777e+00,1.977021247148513794e-01,-1.561321854591369629e+00,1.051015734672546387e+00,2.848415851593017578e+00,-2.010623931884765625e+00,7.405998706817626953e-01
1.964991211891174316e+00,2.008270472288131714e-01,-1.569055199623107910e+00,1.055842518806457520e+00,2.848415851593017578e+00,-2.010623931884765625e+00,7.509778738021850586e-01
1.969164848327636719e+00,2.040186226367950439e-01,-1.576772689819335938e+00,1.060589075088500977e+00,2.848415851593017578e+00,-2.010623931884765625e+00,7.613496780395507812e-01
1.973261952400207520e+00,2.072349488735198975e-01,-1.584805965423583984e+00,1.065748095512390137e+00,2.848415851593017578e+00,-2.010623931884765625e+00,7.717007398605346680e-01
1.977430582046508789e+00,2.106175720691680908e-01,-1.592733621597290039e+00,1.070710778236389160e+00,2.848415851593017578e+00,-2.010623931884765625e+00,7.820543050765991211e-01
1.981686949729919434e+00,2.139171063899993896e-01,-1.600399971008300781e+00,1.075608015060424805e+00,2.848415851593017578e+00,-2.010623931884765625e+00,7.923954725265502930e-01
1.985859513282775879e+00,2.171745598316192627e-01,-1.607937812805175781e+00,1.080227613449096680e+00,2.848415851593017578e+00,-2.010623931884765625e+00,8.027178645133972168e-01
1.990037560462951660e+00,2.204324007034301758e-01,-1.615553855895996094e+00,1.084851503372192383e+00,2.848415851593017578e+00,-2.010623931884765625e+00,8.130325675010681152e-01
1.994115352630615234e+00,2.236883640289306641e-01,-1.623368978500366211e+00,1.089611411094665527e+00,2.848415851593017578e+00,-2.010623931884765625e+00,8.233536481857299805e-01
1.998370289802551270e+00,2.271521985530853271e-01,-1.630967378616333008e+00,1.094355702400207520e+00,2.848415851593017578e+00,-2.010623931884765625e+00,8.336501717567443848e-01
2.002630710601806641e+00,2.305076420307159424e-01,-1.638427257537841797e+00,1.099137544631958008e+00,2.848415851593017578e+00,-2.010623931884765625e+00,8.439314365386962891e-01
2.006816625595092773e+00,2.338808923959732056e-01,-1.645904898643493652e+00,1.103657722473144531e+00,2.848415851593017578e+00,-2.010623931884765625e+00,8.542102575302124023e-01
2.011003017425537109e+00,2.371736168861389160e-01,-1.653471827507019043e+00,1.108175396919250488e+00,2.848415851593017578e+00,-2.010623931884765625e+00,8.644996881484985352e-01
2.015082359313964844e+00,2.404966652393341064e-01,-1.660916447639465332e+00,1.112680196762084961e+00,2.848415851593017578e+00,-2.010623931884765625e+00,8.747689127922058105e-01
2.019329547882080078e+00,2.439694851636886597e-01,-1.668209910392761230e+00,1.117185115814208984e+00,2.848415851593017578e+00,-2.010623931884765625e+00,8.850231766700744629e-01
2.023499250411987305e+00,2.473045140504837036e-01,-1.675422668457031250e+00,1.121640682220458984e+00,2.848415851593017578e+00,-2.010623931884765625e+00,8.952579498291015625e-01
2.027569055557250977e+00,2.506451904773712158e-01,-1.682762742042541504e+00,1.125822067260742188e+00,2.848415851593017578e+00,-2.010623931884765625e+00,9.055022597312927246e-01
2.031633615493774414e+00,2.539747953414916992e-01,-1.690069317817687988e+00,1.130173921585083008e+00,2.848415851593017578e+00,-2.010623931884765625e+00,9.157243371009826660e-01
2.035655736923217773e+00,2.573346197605133057e-01,-1.697298526763916016e+00,1.134453892707824707e+00,2.848415851593017578e+00,-2.010623931884765625e+00,9.259264469146728516e-01
2.039817571640014648e+00,2.608289718627929688e-01,-1.704221248626708984e+00,1.138581395149230957e+00,2.848415851593017578e+00,-2.010623931884765625e+00,9.361113905906677246e-01
2.043861150741577148e+00,2.641122341156005859e-01,-1.711141109466552734e+00,1.142607450485229492e+00,2.848415851593017578e+00,-2.010623931884765625e+00,9.462903141975402832e-01
2.047762870788574219e+00,2.674402892589569092e-01,-1.718178510665893555e+00,1.146390676498413086e+00,2.848415851593017578e+00,-2.010623931884765625e+00,9.564674496650695801e-01
2.051718711853027344e+00,2.707957029342651367e-01,-1.725257992744445801e+00,1.150495052337646484e+00,2.848415851593017578e+00,-2.010623931884765625e+00,9.666226506233215332e-01
2.055673360824584961e+00,2.741884291172027588e-01,-1.732130289077758789e+00,1.154444098472595215e+00,2.848415851593017578e+00,-2.010623931884765625e+00,9.767563939094543457e-01
2.059725522994995117e+00,2.776221930980682373e-01,-1.738735318183898926e+00,1.158135771751403809e+00,2.848415851593017578e+00,-2.010623931884765625e+00,9.868731498718261719e-01
2.063694477081298828e+00,2.808673381805419922e-01,-1.745242238044738770e+00,1.161592364311218262e+00,2.848415851593017578e+00,-2.010623931884765625e+00,9.969900250434875488e-01
2.050225734710693359e+00,2.803761959075927734e-01,-1.743989706039428711e+00,1.163855433464050293e+00,2.848415851593017578e+00,-2.010623931884765625e+00,9.888546466827392578e-01
2.041169166564941406e+00,2.803973555564880371e-01,-1.744821310043334961e+00,1.166157364845275879e+00,2.848415851593017578e+00,-2.010623931884765625e+00,9.846351742744445801e-01
2.034910202026367188e+00,2.803580164909362793e-01,-1.746402025222778320e+00,1.171255111694335938e+00,2.848415851593017578e+00,-2.010623931884765625e+00,9.829182028770446777e-01
2.030750751495361328e+00,2.810650169849395752e-01,-1.749002695083618164e+00,1.175532102584838867e+00,2.848415851593017578e+00,-2.010623931884765625e+00,9.836006164550781250e-01
2.028224945068359375e+00,2.820245921611785889e-01,-1.752030491828918457e+00,1.179159045219421387e+00,2.848415851593017578e+00,-2.010623931884765625e+00,9.857083559036254883e-01
2.026656150817871094e+00,2.827766835689544678e-01,-1.755060553550720215e+00,1.181140422821044922e+00,2.848415851593017578e+00,-2.010623931884765625e+00,9.884876012802124023e-01
2.026032686233520508e+00,2.835945785045623779e-01,-1.758105516433715820e+00,1.180290222167968750e+00,2.848415851593017578e+00,-2.010623931884765625e+00,9.920521974563598633e-01
2.026474237442016602e+00,2.848392426967620850e-01,-1.761020779609680176e+00,1.178109049797058105e+00,2.848415851593017578e+00,-2.010623931884765625e+00,9.965677261352539062e-01
2.027502059936523438e+00,2.865145802497863770e-01,-1.763605952262878418e+00,1.176228523254394531e+00,2.848415851593017578e+00,-2.010623931884765625e+00,1.000561714172363281e+00
2.028717041015625000e+00,2.885161638259887695e-01,-1.766035199165344238e+00,1.175443291664123535e+00,2.848415851593017578e+00,-2.010623931884765625e+00,1.003484010696411133e+00
2.029950141906738281e+00,2.907467782497406006e-01,-1.768288135528564453e+00,1.175683617591857910e+00,2.848415851593017578e+00,-2.010623931884765625e+00,1.005540370941162109e+00
2.031109094619750977e+00,2.930784225463867188e-01,-1.770305395126342773e+00,1.176786065101623535e+00,2.848415851593017578e+00,-2.010623931884765625e+00,1.006890296936035156e+00
2.032173633575439453e+00,2.954570353031158447e-01,-1.772133111953735352e+00,1.178568124771118164e+00,2.848415851593017578e+00,-2.010623931884765625e+00,1.007768750190734863e+00
2.033217191696166992e+00,2.977819144725799561e-01,-1.773694396018981934e+00,1.180788516998291016e+00,2.848415851593017578e+00,-2.010623931884765625e+00,1.008371591567993164e+00
2.034243822097778320e+00,3.000110983848571777e-01,-1.775059103965759277e+00,1.183096528053283691e+00,2.848415851593017578e+00,-2.010623931884765625e+00,1.008810400962829590e+00
2.035293340682983398e+00,3.023000061511993408e-01,-1.776344180107116699e+00,1.185052275657653809e+00,2.848415851593017578e+00,-2.010623931884765625e+00,1.009249091148376465e+00
2.036361932754516602e+00,3.046757876873016357e-01,-1.777568459510803223e+00,1.186710000038146973e+00,2.848415851593017578e+00,-2.010623931884765625e+00,1.009821176528930664e+00
2.037403106689453125e+00,3.071961700916290283e-01,-1.778718471527099609e+00,1.188213706016540527e+00,2.848415851593017578e+00,-2.010623931884765625e+00,1.010580897331237793e+00
2.038360357284545898e+00,3.097943961620330811e-01,-1.779678344726562500e+00,1.189884305000305176e+00,2.848415851593017578e+00,-2.010623931884765625e+00,1.011330485343933105e+00
2.039129734039306641e+00,3.122673332691192627e-01,-1.780352115631103516e+00,1.191840529441833496e+00,2.848415851593017578e+00,-2.010623931884765625e+00,1.012025952339172363e+00
2.039616584777832031e+00,3.145787715911865234e-01,-1.780697703361511230e+00,1.193975448608398438e+00,2.848415851593017578e+00,-2.010623931884765625e+00,1.012666583061218262e+00
2.039804697036743164e+00,3.167389631271362305e-01,-1.780778884887695312e+00,1.196486949920654297e+00,2.848415851593017578e+00,-2.010623931884765625e+00,1.013151407241821289e+00
2.039734125137329102e+00,3.188856244087219238e-01,-1.780665874481201172e+00,1.199110746383666992e+00,2.848415851593017578e+00,-2.010623931884765625e+00,1.013530731201171875e+00
2.039417982101440430e+00,3.209905326366424561e-01,-1.780365586280822754e+00,1.201888442039489746e+00,2.848415851593017578e+00,-2.010623931884765625e+00,1.013805270195007324e+00
2.038837432861328125e+00,3.230787813663482666e-01,-1.779872179031372070e+00,1.204744577407836914e+00,2.848415851593017578e+00,-2.010623931884765625e+00,1.014006495475769043e+00
2.037987470626831055e+00,3.251542448997497559e-01,-1.779164075851440430e+00,1.207645177841186523e+00,2.848415851593017578e+00,-2.010623931884765625e+00,1.014176607131958008e+00
2.036828517913818359e+00,3.272153437137603760e-01,-1.778295159339904785e+00,1.210689783096313477e+00,2.848415851593017578e+00,-2.010623931884765625e+00,1.014287710189819336e+00
2.035406827926635742e+00,3.292540609836578369e-01,-1.777200698852539062e+00,1.213800072669982910e+00,2.848415851593017578e+00,-2.010623931884765625e+00,1.014350175857543945e+00
2.033698797225952148e+00,3.312341868877410889e-01,-1.775887250900268555e+00,1.217007040977478027e+00,2.848415851593017578e+00,-2.010623931884765625e+00,1.014296889305114746e+00
2.031690120697021484e+00,3.330797255039215088e-01,-1.774387001991271973e+00,1.220293760299682617e+00,2.848415851593017578e+00,-2.010623931884765625e+00,1.014122009277343750e+00
2.029417037963867188e+00,3.348000049591064453e-01,-1.772692441940307617e+00,1.223516106605529785e+00,2.848415851593017578e+00,-2.010623931884765625e+00,1.013900876045227051e+00
2.026922941207885742e+00,3.364649713039398193e-01,-1.770844221115112305e+00,1.226659059524536133e+00,2.848415851593017578e+00,-2.010623931884765625e+00,1.013673782348632812e+00
2.024272441864013672e+00,3.381359279155731201e-01,-1.768877267837524414e+00,1.229621767997741699e+00,2.848415851593017578e+00,-2.010623931884765625e+00,1.013548851013183594e+00
2.021508693695068359e+00,3.398647904396057129e-01,-1.766850352287292480e+00,1.232452034950256348e+00,2.848415851593017578e+00,-2.010623931884765625e+00,1.013520121574401855e+00
2.018668651580810547e+00,3.417007029056549072e-01,-1.764790654182434082e+00,1.235242605209350586e+00,2.848415851593017578e+00,-2.010623931884765625e+00,1.013557553291320801e+00
2.015796422958374023e+00,3.436812460422515869e-01,-1.762671589851379395e+00,1.237987399101257324e+00,2.848415851593017578e+00,-2.010623931884765625e+00,1.013582944869995117e+00
2.012838363647460938e+00,3.457105159759521484e-01,-1.760452628135681152e+00,1.240776896476745605e+00,2.848415851593017578e+00,-2.010623931884765625e+00,1.013553857803344727e+00
2.009809970855712891e+00,3.477185666561126709e-01,-1.758093595504760742e+00,1.243653535842895508e+00,2.848415851593017578e+00,-2.010623931884765625e+00,1.013323545455932617e+00
2.006680011749267578e+00,3.496518433094024658e-01,-1.755610227584838867e+00,1.246598839759826660e+00,2.848415851593017578e+00,-2.010623931884765625e+00,1.012949466705322266e+00
2.003422498703002930e+00,3.514811992645263672e-01,-1.753043651580810547e+00,1.249558210372924805e+00,2.848415851593017578e+00,-2.010623931884765625e+00,1.012537240982055664e+00
2.000081777572631836e+00,3.532074391841888428e-01,-1.750423073768615723e+00,1.252478599548339844e+00,2.848415851593017578e+00,-2.010623931884765625e+00,1.012202262878417969e+00
1.996733307838439941e+00,3.549214601516723633e-01,-1.747731924057006836e+00,1.255380511283874512e+00,2.848415851593017578e+00,-2.010623931884765625e+00,1.011939406394958496e+00
1.993405103683471680e+00,3.566665947437286377e-01,-1.744952321052551270e+00,1.258293628692626953e+00,2.848415851593017578e+00,-2.010623931884765625e+00,1.011683821678161621e+00
1.990092158317565918e+00,3.584323823451995850e-01,-1.742043256759643555e+00,1.261136770248413086e+00,2.848415851593017578e+00,-2.010623931884765625e+00,1.011435985565185547e+00
1.986723780632019043e+00,3.601488173007965088e-01,-1.739059329032897949e+00,1.264038205146789551e+00,2.848415851593017578e+00,-2.010623931884765625e+00,1.011105298995971680e+00
1.983293175697326660e+00,3.618164956569671631e-01,-1.736026406288146973e+00,1.266911149024963379e+00,2.848415851593017578e+00,-2.010623931884765625e+00,1.010808229446411133e+00
1.979796886444091797e+00,3.634087145328521729e-01,-1.732988238334655762e+00,1.269811153411865234e+00,2.848415851593017578e+00,-2.010623931884765625e+00,1.010566592216491699e+00
1.976283907890319824e+00,3.650012612342834473e-01,-1.729926705360412598e+00,1.272687792778015137e+00,2.848415851593017578e+00,-2.010623931884765625e+00,1.010413765907287598e+00
1.972839474678039551e+00,3.666350245475769043e-01,-1.726757168769836426e+00,1.275590062141418457e+00,2.848415851593017578e+00,-2.010623931884765625e+00,1.010239362716674805e+00
1.969416141510009766e+00,3.682886362075805664e-01,-1.723454713821411133e+00,1.278453230857849121e+00,2.848415851593017578e+00,-2.010623931884765625e+00,1.010001301765441895e+00
1.965940833091735840e+00,3.699097633361816406e-01,-1.720083355903625488e+00,1.281267523765563965e+00,2.848415851593017578e+00,-2.010623931884765625e+00,1.009729385375976562e+00
1.962377071380615234e+00,3.714725375175476074e-01,-1.716725230216979980e+00,1.284191370010375977e+00,2.848415851593017578e+00,-2.010623931884765625e+00,1.009417533874511719e+00
1.958787560462951660e+00,3.729641437530517578e-01,-1.713371038436889648e+00,1.287078142166137695e+00,2.848415851593017578e+00,-2.010623931884765625e+00,1.009234547615051270e+00
1.955191135406494141e+00,3.743845820426940918e-01,-1.709984660148620605e+00,1.290024757385253906e+00,2.848415851593017578e+00,-2.010623931884765625e+00,1.009066104888916016e+00
1.951653480529785156e+00,3.758382499217987061e-01,-1.706485509872436523e+00,1.292918562889099121e+00,2.848415851593017578e+00,-2.010623931884765625e+00,1.008875370025634766e+00
1.948151111602783203e+00,3.773472607135772705e-01,-1.702858090400695801e+00,1.295817732810974121e+00,2.848415851593017578e+00,-2.010623931884765625e+00,1.008604407310485840e+00
1.944542169570922852e+00,3.787958920001983643e-01,-1.699194788932800293e+00,1.298656940460205078e+00,2.848415851593017578e+00,-2.010623931884765625e+00,1.008392930030822754e+00
1.940831899642944336e+00,3.801577389240264893e-01,-1.695548295974731445e+00,1.301533818244934082e+00,2.848415851593017578e+00,-2.010623931884765625e+00,1.008238554000854492e+00
1.937092661857604980e+00,3.814909458160400391e-01,-1.691942214965820312e+00,1.304481744766235352e+00,2.848415851593017578e+00,-2.010623931884765625e+00,1.008112907409667969e+00
1.933397054672241211e+00,3.828319311141967773e-01,-1.688295602798461914e+00,1.307400584220886230e+00,2.848415851593017578e+00,-2.010623931884765625e+00,1.008022904396057129e+00
1.929752469062805176e+00,3.841750919818878174e-01,-1.684534788131713867e+00,1.310320496559143066e+00,2.848415851593017578e+00,-2.010623931884765625e+00,1.007868885993957520e+00
1.926118135452270508e+00,3.855265080928802490e-01,-1.680668711662292480e+00,1.313172817230224609e+00,2.848415851593017578e+00,-2.010623931884765625e+00,1.007676482200622559e+00
1.922387599945068359e+00,3.868238627910614014e-01,-1.676811575889587402e+00,1.316072583198547363e+00,2.848415851593017578e+00,-2.010623931884765625e+00,1.007472395896911621e+00
1.918564438819885254e+00,3.880550265312194824e-01,-1.673004269599914551e+00,1.318928360939025879e+00,2.848415851593017578e+00,-2.010623931884765625e+00,1.007404208183288574e+00
1.914730668067932129e+00,3.892529010772705078e-01,-1.669227123260498047e+00,1.321862459182739258e+00,2.848415851593017578e+00,-2.010623931884765625e+00,1.007377624511718750e+00
1.910971403121948242e+00,3.904451131820678711e-01,-1.665340423583984375e+00,1.324785232543945312e+00,2.848415851593017578e+00,-2.010623931884765625e+00,1.007343769073486328e+00
1.907235980033874512e+00,3.915966451168060303e-01,-1.661305308341979980e+00,1.327594518661499023e+00,2.848415851593017578e+00,-2.010623931884765625e+00,1.007311701774597168e+00
1.903430223464965820e+00,3.926808536052703857e-01,-1.657229185104370117e+00,1.330388665199279785e+00,2.848415851593017578e+00,-2.010623931884765625e+00,1.007216930389404297e+00
1.899545907974243164e+00,3.937553465366363525e-01,-1.653209090232849121e+00,1.333157181739807129e+00,2.848415851593017578e+00,-2.010623931884765625e+00,1.007176518440246582e+00
1.895640134811401367e+00,3.948450386524200439e-01,-1.649290919303894043e+00,1.336009263992309570e+00,2.848415851593017578e+00,-2.010623931884765625e+00,1.007177233695983887e+00
1.891807794570922852e+00,3.959370851516723633e-01,-1.645345807075500488e+00,1.338886380195617676e+00,2.848415851593017578e+00,-2.010623931884765625e+00,1.007188558578491211e+00
1.888040542602539062e+00,3.970381915569305420e-01,-1.641291737556457520e+00,1.341793298721313477e+00,2.848415851593017578e+00,-2.010623931884765625e+00,1.007115602493286133e+00
1.884235262870788574e+00,3.980897367000579834e-01,-1.637146353721618652e+00,1.344628334045410156e+00,2.848415851593017578e+00,-2.010623931884765625e+00,1.007042288780212402e+00
1.880316734313964844e+00,3.990607559680938721e-01,-1.632994532585144043e+00,1.347395896911621094e+00,2.848415851593017578e+00,-2.010623931884765625e+00,1.007049083709716797e+00
1.876344919204711914e+00,3.999709486961364746e-01,-1.628897786140441895e+00,1.350156426429748535e+00,2.848415851593017578e+00,-2.010623931884765625e+00,1.007146477699279785e+00
1.872404336929321289e+00,4.008904397487640381e-01,-1.624822616577148438e+00,1.352981686592102051e+00,2.848415851593017578e+00,-2.010623931884765625e+00,1.007255792617797852e+00
1.868505835533142090e+00,4.018022418022155762e-01,-1.620704531669616699e+00,1.355820178985595703e+00,2.848415851593017578e+00,-2.010623931884765625e+00,1.007351636886596680e+00
1.864628672599792480e+00,4.026942551136016846e-01,-1.616492629051208496e+00,1.358624696731567383e+00,2.848415851593017578e+00,-2.010623931884765625e+00,1.007408380508422852e+00
1.860728144645690918e+00,4.035889208316802979e-01,-1.612237215042114258e+00,1.361402630805969238e+00,2.848415851593017578e+00,-2.010623931884765625e+00,1.007443904876708984e+00
1.856776595115661621e+00,4.044554233551025391e-01,-1.608012318611145020e+00,1.364079356193542480e+00,2.848415851593017578e+00,-2.010623931884765625e+00,1.007587075233459473e+00
1.852788329124450684e+00,4.052451550960540771e-01,-1.603840708732604980e+00,1.366775751113891602e+00,2.848415851593017578e+00,-2.010623931884765625e+00,1.007769584655761719e+00
1.848816037178039551e+00,4.059840440750122070e-01,-1.599662184715270996e+00,1.369507312774658203e+00,2.848415851593017578e+00,-2.010623931884765625e+00,1.007936000823974609e+00
1.844896793365478516e+00,4.067467749118804932e-01,-1.595405936241149902e+00,1.372327566146850586e+00,2.848415851593017578e+00,-2.010623931884765625e+00,1.007971763610839844e+00
1.840954899787902832e+00,4.075156748294830322e-01,-1.591062068939208984e+00,1.375036358833312988e+00,2.848415851593017578e+00,-2.010623931884765625e+00,1.008044600486755371e+00
1.836966753005981445e+00,4.082490503787994385e-01,-1.586684823036193848e+00,1.377661347389221191e+00,2.848415851593017578e+00,-2.010623931884765625e+00,1.008151173591613770e+00
1.832883596420288086e+00,4.089038372039794922e-01,-1.582369565963745117e+00,1.380296707153320312e+00,2.848415851593017578e+00,-2.010623931884765625e+00,1.008311629295349121e+00
1.828765511512756348e+00,4.094911217689514160e-01,-1.578114628791809082e+00,1.382956147193908691e+00,2.848415851593017578e+00,-2.010623931884765625e+00,1.008512020111083984e+00
1.824726939201354980e+00,4.100618362426757812e-01,-1.573803901672363281e+00,1.385716557502746582e+00,2.848415851593017578e+00,-2.010623931884765625e+00,1.008588671684265137e+00
1.820772767066955566e+00,4.106655418872833252e-01,-1.569366097450256348e+00,1.388373494148254395e+00,2.848415851593017578e+00,-2.010623931884765625e+00,1.008625626564025879e+00
1.816784739494323730e+00,4.112944900989532471e-01,-1.564882040023803711e+00,1.390920400619506836e+00,2.848415851593017578e+00,-2.010623931884765625e+00,1.008673191070556641e+00
1.812631845474243164e+00,4.118402600288391113e-01,-1.560517787933349609e+00,1.393384218215942383e+00,2.848415851593017578e+00,-2.010623931884765625e+00,1.008878827095031738e+00
1.808456659317016602e+00,4.122874140739440918e-01,-1.556250691413879395e+00,1.396006584167480469e+00,2.848415851593017578e+00,-2.010623931884765625e+00,1.009041666984558105e+00
1.804415225982666016e+00,4.127763211727142334e-01,-1.551911234855651855e+00,1.398774981498718262e+00,2.848415851593017578e+00,-2.010623931884765625e+00,1.009038686752319336e+00
1.800462603569030762e+00,4.132992327213287354e-01,-1.547397136688232422e+00,1.401387929916381836e+00,2.848415851593017578e+00,-2.010623931884765625e+00,1.009016990661621094e+00
1.796383738517761230e+00,4.137560129165649414e-01,-1.542827963829040527e+00,1.403773903846740723e+00,2.848415851593017578e+00,-2.010623931884765625e+00,1.009093880653381348e+00
1.792113900184631348e+00,4.141067862510681152e-01,-1.538401961326599121e+00,1.406094551086425781e+00,2.848415851593017578e+00,-2.010623931884765625e+00,1.009352564811706543e+00
1.787881493568420410e+00,4.144336581230163574e-01,-1.534087061882019043e+00,1.408634305000305176e+00,2.848415851593017578e+00,-2.010623931884765625e+00,1.009574890136718750e+00
1.783843040466308594e+00,4.148300588130950928e-01,-1.529677271842956543e+00,1.411324024200439453e+00,2.848415851593017578e+00,-2.010623931884765625e+00,1.009633183479309082e+00
1.779867768287658691e+00,4.152345061302185059e-01,-1.525084018707275391e+00,1.413828253746032715e+00,2.848415851593017578e+00,-2.010623931884765625e+00,1.009671211242675781e+00
1.775706171989440918e+00,4.155674278736114502e-01,-1.520474195480346680e+00,1.416133046150207520e+00,2.848415851593017578e+00,-2.010623931884765625e+00,1.009783625602722168e+00
1.771437764167785645e+00,4.157561659812927246e-01,-1.516038894653320312e+00,1.418598651885986328e+00,2.848415851593017578e+00,-2.010623931884765625e+00,1.009922504425048828e+00
1.767157793045043945e+00,4.159750044345855713e-01,-1.511658310890197754e+00,1.421007156372070312e+00,2.848415851593017578e+00,-2.010623931884765625e+00,1.010186076164245605e+00
1.763081192970275879e+00,4.162096381187438965e-01,-1.507130861282348633e+00,1.423529982566833496e+00,2.848415851593017578e+00,-2.010623931884765625e+00,1.010263085365295410e+00
1.759005784988403320e+00,4.164687991142272949e-01,-1.502440094947814941e+00,1.425791740417480469e+00,2.848415851593017578e+00,-2.010623931884765625e+00,1.010393619537353516e+00
1.754706263542175293e+00,4.166412651538848877e-01,-1.497781038284301758e+00,1.427922487258911133e+00,2.848415851593017578e+00,-2.010623931884765625e+00,1.010625839233398438e+00
1.750261783599853516e+00,4.167105555534362793e-01,-1.493286371231079102e+00,1.430116653442382812e+00,2.848415851593017578e+00,-2.010623931884765625e+00,1.010938763618469238e+00
1.745981335639953613e+00,4.167799055576324463e-01,-1.488783717155456543e+00,1.432549476623535156e+00,2.848415851593017578e+00,-2.010623931884765625e+00,1.011102199554443359e+00
1.741864919662475586e+00,4.168989658355712891e-01,-1.484098553657531738e+00,1.434925556182861328e+00,2.848415851593017578e+00,-2.010623931884765625e+00,1.011172533035278320e+00
1.737662076950073242e+00,4.170317351818084717e-01,-1.479331374168395996e+00,1.437003970146179199e+00,2.848415851593017578e+00,-2.010623931884765625e+00,1.011350154876708984e+00
1.733252644538879395e+00,4.170263409614562988e-01,-1.474671483039855957e+00,1.438977003097534180e+00,2.848415851593017578e+00,-2.010623931884765625e+00,1.011659264564514160e+00
