Afshin1997/kuka_rl_ros2/src/catch_and_throw/output_files/tm/nn_ema5.00_jvws1_realball_D23H09M21S13/recorded_data.csv
pure_target_joint_0,pure_target_joint_1,pure_target_joint_2,pure_target_joint_3,pure_target_joint_4,pure_target_joint_5,pure_target_joint_6,target_joint_0,target_joint_1,target_joint_2,target_joint_3,target_joint_4,target_joint_5,target_joint_6,pos_joint_0,pos_joint_1,pos_joint_2,pos_joint_3,pos_joint_4,pos_joint_5,pos_joint_6,vel_joint_0,vel_joint_1,vel_joint_2,vel_joint_3,vel_joint_4,vel_joint_5,vel_joint_6,vel_smooth_joint_0,vel_smooth_joint_1,vel_smooth_joint_2,vel_smooth_joint_3,vel_smooth_joint_4,vel_smooth_joint_5,vel_smooth_joint_6,ee_pos_x,ee_pos_y,ee_pos_z,ee_or_w,ee_or_x,ee_or_y,ee_or_z,ee_vel_x,ee_vel_y,ee_vel_z,ball_pos_x,ball_pos_y,ball_pos_z,ball_raw_vx,ball_raw_vy,ball_raw_vz,ball_ema_vx,ball_ema_vy,ball_ema_vz,action_0,action_1,action_2,action_3,action_4,action_5,action_6,command_published
1.81169,-1.0479,-1.82064,-1.07252,1.97835,1.1819,-0.856142,1.81169,-1.0479,-1.82064,-1.07252,1.97835,1.1819,-0.856142,1.78023,-1.06469,-1.81512,-1.11707,1.93723,1.11718,-0.916367,0,0,0,0,0,0,0,0,0,0,0,0,0,0,0.531013,-0.454415,0.694277,0.574559,0.175049,0.152569,0.784833,0,0,0,2.99308,-0.493468,0.163904,-2.5659,0.0889132,5.67422,-2.92785,-0.0587016,5.51796,0.314626,0.167992,-0.0551609,0.445554,0.411256,0.647193,0.602246,1
1.77318,-1.04791,-1.82483,-1.06514,1.97678,1.1787,-0.853519,1.77318,-1.04791,-1.82483,-1.06514,1.97678,1.1787,-0.853519,1.78023,-1.06469,-1.81512,-1.11707,1.93723,1.11718,-0.916367,0,0,0,0,0,0,0,0,0,0,0,0,0,0,0.531013,-0.454415,0.694277,0.574559,0.175049,0.152569,0.784833,0,0,0,2.96619,-0.492573,0.222098,-2.78971,0.0928812,6.03643,-2.78027,0.0149155,5.60463,-0.0704141,0.167854,-0.0970427,0.519319,0.395561,0.61525,0.628483,1
1.77776,-0.996108,-1.75463,-1.07997,2.00009,1.17551,-0.851802,1.77776,-0.996108,-1.75463,-1.07997,2.00009,1.17551,-0.851802,1.78354,-1.06293,-1.8157,-1.11239,1.94155,1.12398,-0.910034,0.661744,0.353332,-0.116017,0.93712,0.864979,1.36122,1.26668,0.661744,0.353332,-0.116017,0.93712,0.864979,1.36122,1.26668,0.530428,-0.454087,0.696805,0.572679,0.171485,0.149356,0.787607,-0.0405267,0.0620527,0.466555,2.93924,-0.49144,0.278752,-2.71494,0.114172,5.70713,-2.70402,0.0702518,5.58263,-0.0577723,0.668205,0.610741,0.324195,0.585351,0.515242,0.582318,1
1.73533,-0.995173,-1.76064,-1.09269,2.00646,1.1659,-0.836342,1.73533,-0.995173,-1.76064,-1.09269,2.00646,1.1659,-0.836342,1.7851,-1.05993,-1.81713,-1.10367,1.94872,1.13519,-0.899019,-0.279961,0.282636,-0.180988,0.905533,0.65961,1.02279,1.06946,-0.279961,0.282636,-0.180988,0.905533,0.65961,1.02279,1.06946,0.52751,-0.45601,0.701077,0.571299,0.165814,0.143702,0.790868,-0.41921,-0.430187,0.374795,2.91218,-0.490136,0.334657,-2.70773,0.130453,5.59541,-2.69289,0.105521,5.49987,-0.497612,0.647617,0.564869,0.109739,0.577462,0.307173,0.626779,1
1.78734,-0.983212,-1.74885,-1.08178,2.01798,1.19035,-0.843979,1.78734,-0.983212,-1.74885,-1.08178,2.01798,1.19035,-0.843979,1.7832,-1.05209,-1.81128,-1.09755,1.95676,1.14352,-0.889772,-0.127996,1.31584,1.33153,0.413245,1.01832,0.751794,0.892468,-0.127996,1.31584,1.33153,0.413245,1.01832,0.751794,0.892468,0.522813,-0.455936,0.709851,0.57018,0.158026,0.137956,0.794287,-0.40798,0.393949,1.34309,2.88521,-0.488829,0.389569,-2.67402,0.129572,5.44284,-2.69757,0.117156,5.38889,0.041378,0.688786,0.624327,0.157723,0.61224,0.468242,0.457928,1
1.73727,-0.970336,-1.74607,-1.07581,2.02319,1.19398,-0.829442,1.73727,-0.970336,-1.74607,-1.07581,2.02319,1.19398,-0.829442,1.77766,-1.04084,-1.80062,-1.09538,1.96606,1.14888,-0.88058,-0.99476,1.07332,0.939776,0.0632551,0.949569,0.400017,1.03981,-0.99476,1.07332,0.939776,0.0632551,0.949569,0.400017,1.03981,0.516804,-0.454421,0.721018,0.568316,0.149953,0.132274,0.798144,-0.671458,-0.0641301,0.961936,2.85794,-0.487596,0.443486,-2.74061,0.123908,5.4195,-2.70527,0.125641,5.28593,-0.403904,0.705015,0.545533,0.195696,0.571228,0.450958,0.511379,1
1.78625,-0.963551,-1.73168,-1.07526,2.03302,1.21112,-0.820777,1.78625,-0.963551,-1.73168,-1.07526,2.03302,1.21112,-0.820777,1.77469,-1.03048,-1.79142,-1.0937,1.97533,1.15485,-0.872568,0.297291,1.11101,1.00056,0.280243,1.00266,0.834383,0.671967,0.297291,1.11101,1.00056,0.280243,1.00266,0.834383,0.671967,0.512121,-0.451812,0.730971,0.565715,0.14216,0.127115,0.802247,-0.182439,0.557066,1.06542,2.83032,-0.486344,0.496264,-2.82695,0.128097,5.40082,-2.72088,0.127302,5.18852,0.115586,0.669288,0.59739,0.184427,0.576966,0.562702,0.517912,1
1.74295,-0.949202,-1.72879,-1.06456,2.0361,1.21402,-0.806768,1.74295,-0.949202,-1.72879,-1.06456,2.0361,1.21402,-0.806768,1.77195,-1.01971,-1.78264,-1.0907,1.98437,1.1623,-0.865343,-0.815147,1.16045,0.859589,0.349806,0.912296,0.744581,0.84382,-0.815147,1.16045,0.859589,0.349806,0.912296,0.744581,0.84382,0.507017,-0.449215,0.741291,0.563827,0.133247,0.122073,0.80588,-0.685886,-0.00540919,1.04558,2.803,-0.485707,0.547651,-2.65377,0.061908,4.99303,-2.73252,0.113423,5.07683,-0.290004,0.705055,0.538485,0.261367,0.5173,0.517143,0.585753,1
1.77776,-0.941152,-1.71428,-1.06077,2.05266,1.22772,-0.805281,1.77776,-0.941152,-1.71428,-1.06077,2.05266,1.22772,-0.805281,1.77019,-1.00916,-1.77384,-1.08767,1.99314,1.17042,-0.857278,0.377559,1.07191,0.99103,0.291824,0.937375,0.956629,0.857931,0.377559,1.07191,0.99103,0.291824,0.937375,0.956629,0.857931,0.502216,-0.445987,0.751412,0.561058,0.123991,0.117097,0.810018,-0.172311,0.612722,1.02493,2.77596,-0.485033,0.597707,-2.67738,0.0667504,4.95616,-2.73425,0.0948054,4.9544,0.0757504,0.680035,0.595597,0.26898,0.595182,0.573019,0.519973,1
1.73487,-0.927467,-1.71142,-1.05383,2.05594,1.23094,-0.790936,1.73487,-0.927467,-1.71142,-1.05383,2.05594,1.23094,-0.790936,1.76883,-0.99856,-1.76514,-1.08407,2.00141,1.17883,-0.848532,-0.608482,1.16013,0.854214,0.458656,0.815385,0.827001,0.981635,-0.608482,1.16013,0.854214,0.458656,0.815385,0.827001,0.981635,0.497395,-0.442532,0.761542,0.557958,0.11439,0.112337,0.814235,-0.62836,0.104528,1.04942,2.7491,-0.483675,0.64672,-2.75778,0.13944,5.03259,-2.72027,0.0915354,4.82911,-0.339614,0.710921,0.537208,0.30239,0.545311,0.52105,0.575953,1
1.76917,-0.918305,-1.69706,-1.05072,2.0696,1.24314,-0.788571,1.76917,-0.918305,-1.69706,-1.05072,2.0696,1.24314,-0.788571,1.76734,-0.987878,-1.75637,-1.07979,2.01007,1.18728,-0.840053,0.245042,1.09826,0.989228,0.446882,1.00114,0.950404,0.817305,0.245042,1.09826,0.989228,0.446882,1.00114,0.950404,0.817305,0.492255,-0.439255,0.771791,0.555073,0.104574,0.107395,0.818183,-0.281132,0.522578,1.05312,2.72236,-0.483418,0.695105,-2.65286,0.0254942,4.79948,-2.69811,0.0788492,4.71752,0.0182983,0.695732,0.593098,0.290636,0.595286,0.558562,0.514827,1
1.72742,-0.905333,-1.6945,-1.04698,2.07346,1.24753,-0.773425,1.72742,-0.905333,-1.6945,-1.04698,2.07346,1.24753,-0.773425,1.7649,-0.977128,-1.74768,-1.07527,2.0189,1.19568,-0.831616,-0.705835,1.16719,0.852352,0.503775,0.870671,0.828663,0.956105,-0.705835,1.16719,0.852352,0.503775,0.870671,0.828663,0.956105,0.486588,-0.436391,0.781974,0.552507,0.0947573,0.102436,0.821745,-0.693431,0.0732841,1.04152,2.69559,-0.482526,0.742759,-2.63281,0.0877597,4.68588,-2.6844,0.0797844,4.62615,-0.374827,0.717948,0.531786,0.282856,0.545601,0.518514,0.581908,1
1.76067,-0.895603,-1.68004,-1.04424,2.0871,1.25938,-0.771967,1.76067,-0.895603,-1.68004,-1.04424,2.0871,1.25938,-0.771967,1.76253,-0.966269,-1.73895,-1.07067,2.02772,1.20399,-0.823261,0.156074,1.12732,0.984456,0.468821,0.984289,0.920193,0.815343,0.156074,1.12732,0.984456,0.468821,0.984289,0.920193,0.815343,0.48086,-0.433327,0.792109,0.549808,0.0848503,0.097616,0.825217,-0.338084,0.509433,1.04588,2.66871,-0.481537,0.789189,-2.78931,0.102618,4.81943,-2.68019,0.0814176,4.54003,-0.0185305,0.706661,0.589069,0.264303,0.593809,0.553881,0.512942,1
1.71801,-0.883399,-1.6777,-1.04128,2.09229,1.26279,-0.755616,1.71801,-0.883399,-1.6777,-1.04128,2.09229,1.26279,-0.755616,1.75946,-0.955347,-1.73033,-1.0663,2.03647,1.21225,-0.814756,-0.753001,1.1755,0.842059,0.454068,0.869425,0.829182,0.971409,-0.753001,1.1755,0.842059,0.454068,0.869425,0.829182,0.971409,0.474845,-0.430361,0.802036,0.547111,0.0750157,0.0929971,0.828489,-0.712794,0.103732,1.0063,2.64181,-0.480409,0.834507,-2.6535,0.111289,4.46974,-2.68236,0.0841397,4.44656,-0.414542,0.719481,0.526261,0.250217,0.558222,0.505423,0.591401,1
1.75052,-0.872639,-1.66285,-1.04384,2.10432,1.27528,-0.754409,1.75052,-0.872639,-1.66285,-1.04384,2.10432,1.27528,-0.754409,1.75657,-0.944358,-1.72167,-1.06216,2.04527,1.22053,-0.806367,0.0963835,1.14591,0.978481,0.421276,0.983011,0.913087,0.808511,0.0963835,1.14591,0.978481,0.421276,0.983011,0.913087,0.808511,0.46889,-0.427055,0.811814,0.544128,0.0651372,0.0885253,0.831772,-0.367938,0.528843,1.01561,2.61498,-0.479314,0.879039,-2.59306,0.105742,4.30348,-2.68541,0.103243,4.34615,-0.0605205,0.717191,0.588252,0.183261,0.590469,0.547574,0.519582,1
1.70814,-0.861498,-1.6604,-1.03692,2.11286,1.27601,-0.73743,1.70814,-0.861498,-1.6604,-1.03692,2.11286,1.27601,-0.73743,1.7529,-0.93336,-1.71313,-1.05828,2.05415,1.22863,-0.797793,-0.820198,1.17423,0.832599,0.399577,0.896341,0.803018,0.991296,-0.820198,1.17423,0.832599,0.399577,0.896341,0.803018,0.991296,0.462651,-0.423928,0.82135,0.541157,0.0554472,0.0841989,0.834856,-0.733391,0.118535,0.964404,2.58791,-0.478331,0.922481,-2.71098,0.098484,4.35125,-2.69084,0.106114,4.24294,-0.44767,0.718615,0.527302,0.213651,0.587029,0.473845,0.603628,1
1.74148,-0.850022,-1.64569,-1.04744,2.12162,1.29048,-0.73623,1.74148,-0.850022,-1.64569,-1.04744,2.12162,1.29048,-0.73623,1.74937,-0.922273,-1.70451,-1.05516,2.06302,1.23675,-0.789262,0.0270821,1.16656,0.979209,0.266165,0.970747,0.905703,0.819157,0.0270821,1.16656,0.979209,0.266165,0.970747,0.905703,0.819157,0.456593,-0.42029,0.830619,0.537701,0.0458232,0.0801438,0.838066,-0.37553,0.580716,0.960968,2.56034,-0.477042,0.964824,-2.8413,0.132829,4.36308,-2.70651,0.110672,4.14244,-0.0788423,0.722508,0.588227,0.077262,0.586073,0.537313,0.530318,1
1.69997,-0.839416,-1.64261,-1.03515,2.13344,1.28798,-0.719038,1.69997,-0.839416,-1.64261,-1.03515,2.13344,1.28798,-0.719038,1.74514,-0.911211,-1.69595,-1.05218,2.07215,1.2445,-0.780531,-0.869738,1.16842,0.835534,0.358707,0.956837,0.740537,1.01302,-0.869738,1.16842,0.835534,0.358707,0.956837,0.740537,1.01302,0.450304,-0.41687,0.839676,0.534241,0.0364754,0.0761365,0.841106,-0.742912,0.132052,0.926884,2.53337,-0.476183,1.00591,-2.70488,0.0861579,4.12003,-2.71529,0.107236,4.03583,-0.45167,0.717957,0.533393,0.170269,0.612946,0.43476,0.614936,1
1.73651,-0.827948,-1.62836,-1.05229,2.13962,1.3055,-0.71686,1.73651,-0.827948,-1.62836,-1.05229,2.13962,1.3055,-0.71686,1.74127,-0.900099,-1.68732,-1.05024,2.08118,1.2523,-0.771817,0.00493855,1.17695,0.978501,0.0659701,0.950597,0.897268,0.836406,0.00493855,1.17695,0.978501,0.0659701,0.950597,0.897268,0.836406,0.444386,-0.412771,0.848373,0.530106,0.0272688,0.0724802,0.844388,-0.34688,0.661504,0.888897,2.50623,-0.475669,1.04546,-2.65119,0.050253,3.86426,-2.72042,0.0943977,3.91267,-0.0476156,0.7215,0.589564,-0.0205047,0.58438,0.531927,0.549571,1
1.69359,-0.817172,-1.62421,-1.0384,2.15367,1.29748,-0.700105,1.69359,-0.817172,-1.62421,-1.0384,2.15367,1.29748,-0.700105,1.73695,-0.889005,-1.6787,-1.04839,2.09048,1.25965,-0.762918,-0.869077,1.16551,0.84821,0.311203,1.00967,0.665893,1.03132,-0.869077,1.16551,0.84821,0.311203,1.00967,0.665893,1.03132,0.438353,-0.408796,0.856889,0.525891,0.0183552,0.0688723,0.84756,-0.725638,0.171701,0.891722,2.47917,-0.474879,1.08406,-2.77179,0.0808988,3.95327,-2.71597,0.0827831,3.78787,-0.433565,0.718327,0.544903,0.0999602,0.631879,0.378299,0.628126,1
1.73969,-0.805967,-1.6104,-1.05413,2.15855,1.3204,-0.69754,1.73969,-0.805967,-1.6104,-1.05413,2.15855,1.3204,-0.69754,1.73343,-0.877918,-1.67001,-1.04756,2.09969,1.26714,-0.753945,0.072565,1.17444,0.978855,-0.111346,0.938407,0.901609,0.871626,0.072565,1.17444,0.978855,-0.111346,0.938407,0.901609,0.871626,0.432867,-0.40401,0.865027,0.520797,0.00956035,0.0655782,0.851104,-0.28362,0.764564,0.816212,2.45298,-0.474355,1.12182,-2.52274,0.0505017,3.63865,-2.68907,0.0667918,3.67148,0.0625992,0.719509,0.596096,-0.0657239,0.588576,0.532603,0.564045,1
1.68686,-0.794574,-1.60587,-1.04216,2.17343,1.29992,-0.680326,1.68686,-0.794574,-1.60587,-1.04216,2.17343,1.29992,-0.680326,1.72953,-0.866827,-1.66127,-1.04704,2.10912,1.27394,-0.744793,-0.844538,1.16706,0.871156,0.203137,1.04694,0.553307,1.05032,-0.844538,1.16706,0.871156,0.203137,1.04694,0.553307,1.05032,0.427402,-0.399238,0.872955,0.515513,0.00121171,0.0624128,0.854605,-0.678312,0.240316,0.846404,2.42629,-0.473757,1.15934,-2.69044,0.0602778,3.78098,-2.67396,0.0616676,3.58221,-0.426672,0.722536,0.554042,0.0487878,0.643008,0.259863,0.644672,1
1.75231,-0.783964,-1.59139,-1.05581,2.17664,1.33559,-0.677834,1.75231,-0.783964,-1.59139,-1.05581,2.17664,1.33559,-0.677834,1.72721,-0.855755,-1.65244,-1.04697,2.11851,1.28104,-0.735619,0.293114,1.17018,0.987987,-0.168227,0.940954,0.925057,0.89497,0.293114,1.17018,0.987987,-0.168227,0.940954,0.925057,0.89497,0.422626,-0.393517,0.880648,0.509216,-0.00723691,0.0594018,0.858556,-0.190685,0.892575,0.774295,2.39965,-0.472728,1.19559,-2.60762,0.100656,3.54822,-2.66039,0.0700319,3.50536,0.250962,0.717903,0.610502,-0.0884061,0.581289,0.545566,0.577849,1
1.68769,-0.770833,-1.58542,-1.05121,2.19515,1.29464,-0.660085,1.68769,-0.770833,-1.58542,-1.05121,2.19515,1.29464,-0.660085,1.72414,-0.844636,-1.64358,-1.04714,2.12806,1.28673,-0.726221,-0.876295,1.17662,0.886396,0.117014,1.06634,0.310139,1.07868,-0.876295,1.17662,0.886396,0.117014,1.06634,0.310139,1.07868,0.417824,-0.388025,0.888166,0.502943,-0.0148887,0.0566306,0.862334,-0.640005,0.274266,0.808121,2.373,-0.471836,1.2307,-2.71421,0.0908519,3.57693,-2.6567,0.0771165,3.42064,-0.364559,0.738031,0.581646,-0.0407442,0.670992,0.0791515,0.66136,1
1.76504,-0.762029,-1.57199,-1.06284,2.19572,1.34982,-0.656597,1.76504,-0.762029,-1.57199,-1.06284,2.19572,1.34982,-0.656597,1.7236,-0.833544,-1.63454,-1.04758,2.13743,1.29311,-0.716814,0.674879,1.16535,1.01444,-0.193428,0.921563,0.998615,0.916197,0.674879,1.16535,1.01444,-0.193428,0.921563,0.998615,0.916197,0.413936,-0.381225,0.895506,0.495292,-0.0229149,0.0539478,0.866747,-0.0563155,1.0809,0.743481,2.34616,-0.470899,1.26494,-2.63021,0.091825,3.35445,-2.66945,0.0883156,3.32608,0.414422,0.715158,0.625552,-0.152585,0.582833,0.567175,0.60217,1
1.73835,-0.746419,-1.56434,-1.07562,2.21572,1.30795,-0.642214,1.73835,-0.746419,-1.56434,-1.07562,2.21572,1.30795,-0.642214,1.72252,-0.822284,-1.62532,-1.04874,2.14719,1.29727,-0.70718,-0.818778,1.20934,0.9378,-0.058166,1.12729,-0.0616952,1.10694,-0.818778,1.20934,0.9378,-0.058166,1.12729,-0.0616952,1.10694,0.410309,-0.374407,0.902671,0.487356,-0.0296806,0.051559,0.871175,-0.537234,0.377384,0.769564,2.31918,-0.469763,1.29813,-2.72536,0.11479,3.35269,-2.67716,0.0981694,3.21941,0.158287,0.758649,0.60977,-0.268842,0.685251,0.106828,0.649659,1
1.77801,-0.744035,-1.55473,-1.06585,2.21261,1.36233,-0.631674,1.77801,-0.744035,-1.55473,-1.06585,2.21261,1.36233,-0.631674,1.72372,-0.811106,-1.61595,-1.05046,2.15681,1.30255,-0.697429,0.971283,1.15353,1.03337,-0.291137,0.914504,1.11124,0.959734,0.971283,1.15353,1.03337,-0.291137,0.914504,1.11124,0.959734,0.407461,-0.366367,0.909546,0.477995,-0.0368838,0.0492262,0.876206,0.04481,1.2437,0.688939,2.2919,-0.468762,1.33013,-2.74842,0.100881,3.22422,-2.69316,0.100068,3.11505,0.542922,0.670705,0.612245,-0.153948,0.55802,0.597862,0.657546,1
1.74327,-0.724142,-1.55109,-1.03865,2.23093,1.34225,-0.620259,1.74327,-0.724142,-1.55109,-1.03865,2.23093,1.34225,-0.620259,1.72914,-0.799685,-1.60639,-1.05427,2.16667,1.30756,-0.68778,0.216429,1.25199,0.988348,-0.50196,1.15296,0.00906546,1.071,0.216429,1.25199,0.988348,-0.50196,1.15296,0.00906546,1.071,0.406602,-0.355831,0.915922,0.465881,-0.0435447,0.047225,0.882513,-0.0750659,0.974855,0.664351,2.2648,-0.468228,1.36094,-2.7642,0.0544103,3.14231,-2.70662,0.0935388,3.00657,0.14129,0.755429,0.552992,0.156161,0.64264,0.346832,0.675211,1
1.77123,-0.720216,-1.5408,-1.03176,2.23364,1.36933,-0.614208,1.77123,-0.720216,-1.5408,-1.03176,2.23364,1.36933,-0.614208,1.73515,-0.788821,-1.597,-1.0575,2.17611,1.31336,-0.677592,1.00738,1.05265,0.993529,-0.196376,0.85787,1.15109,1.07927,1.00738,1.05265,0.993529,-0.196376,0.85787,1.15109,1.07927,0.405637,-0.345445,0.922004,0.453385,-0.0504893,0.0451111,0.88874,0.00963539,1.18557,0.629128,2.23781,-0.467772,1.39052,-2.70026,0.0456019,2.95993,-2.71076,0.0778836,2.88976,0.360818,0.686045,0.562049,0.257335,0.575219,0.559665,0.633838,1
1.69253,-0.702455,-1.53823,-1.02037,2.25203,1.34499,-0.601944,1.69253,-0.702455,-1.53823,-1.02037,2.25203,1.34499,-0.601944,1.74004,-0.777805,-1.58819,-1.0563,2.18531,1.32101,-0.667242,0.0760718,1.2613,0.872111,0.414812,1.07221,0.499257,1.10431,0.0760718,1.2613,0.872111,0.414812,1.07221,0.499257,1.10431,0.402824,-0.336652,0.928914,0.442756,-0.0593554,0.0424064,0.89367,-0.395582,0.679158,0.831157,2.21096,-0.467101,1.41897,-2.70685,0.0676508,2.86785,-2.70521,0.0631207,2.77067,-0.475035,0.753496,0.499689,0.35926,0.667129,0.239813,0.652976,1
1.7708,-0.691422,-1.51839,-1.05286,2.25484,1.37612,-0.596654,1.7708,-0.691422,-1.51839,-1.05286,2.25484,1.37612,-0.596654,1.74362,-0.766699,-1.57972,-1.05206,2.19469,1.32809,-0.657244,0.64894,1.09255,0.914867,0.477067,0.915458,0.969322,1.01152,0.64894,1.09255,0.914867,0.477067,0.915458,0.969322,1.01152,0.398829,-0.329278,0.936384,0.433803,-0.068641,0.0393169,0.897529,-0.267403,0.850198,0.765789,2.18447,-0.466401,1.44649,-2.67199,0.070573,2.77501,-2.68705,0.058468,2.65738,0.27178,0.752768,0.61333,-0.00802244,0.601516,0.480338,0.605901,1
1.69252,-0.68041,-1.51808,-1.0454,2.27254,1.31736,-0.580115,1.69252,-0.68041,-1.51808,-1.0454,2.27254,1.31736,-0.580115,1.74085,-0.755569,-1.57169,-1.04682,2.20438,1.33374,-0.647379,-1.13559,1.24841,0.786615,0.621522,1.11984,0.264259,1.06791,-1.13559,1.24841,0.786615,0.621522,1.11984,0.264259,1.06791,0.392729,-0.324834,0.943887,0.428088,-0.0772159,0.0364453,0.899694,-0.814193,0.120297,0.833266,2.1581,-0.46586,1.47364,-2.49466,0.0512056,2.56912,-2.66738,0.0610626,2.56358,-0.483316,0.751586,0.536079,0.014129,0.68154,-0.163815,0.672635,1
1.78755,-0.671247,-1.5021,-1.05845,2.27079,1.38955,-0.573832,1.78755,-0.671247,-1.5021,-1.05845,2.27079,1.38955,-0.573832,1.73945,-0.743825,-1.56294,-1.04496,2.21417,1.33926,-0.637769,0.736841,1.2317,1.04716,-0.185613,0.955861,0.866406,0.966391,0.736841,1.2317,1.04716,-0.185613,0.955861,0.866406,0.966391,0.387788,-0.318316,0.95083,0.420367,-0.0851438,0.0342842,0.9027,-0.114764,1.17596,0.661018,2.13152,-0.465145,1.49979,-2.75294,0.0740502,2.70814,-2.65442,0.0649494,2.48196,0.480981,0.725784,0.608347,-0.13486,0.566206,0.502919,0.639366,1
1.7578,-0.655887,-1.49516,-1.06824,2.29657,1.3185,-0.56258,1.7578,-0.655887,-1.49516,-1.06824,2.29657,1.3185,-0.56258,1.73746,-0.732225,-1.55403,-1.04575,2.22414,1.34042,-0.627837,-1.05651,1.21788,0.844836,0.00821605,1.13762,-0.542056,1.12167,-1.05651,1.21788,0.844836,0.00821605,1.13762,-0.542056,1.12167,0.384054,-0.311465,0.957089,0.411889,-0.0901091,0.0330024,0.906167,-0.539951,0.316931,0.674491,2.10518,-0.46439,1.5249,-2.68113,0.0768873,2.55628,-2.64506,0.066787,2.4016,0.203343,0.763376,0.588677,-0.224895,0.724372,-0.219285,0.652573,1
1.79761,-0.655086,-1.48513,-1.03338,2.29042,1.40016,-0.551566,1.79761,-0.655086,-1.48513,-1.03338,2.29042,1.40016,-0.551566,1.7385,-0.720937,-1.54519,-1.04706,2.2336,1.34342,-0.617667,1.15281,1.16793,1.01263,-0.267819,0.87425,1.08425,1.03031,1.15281,1.16793,1.01263,-0.267819,0.87425,1.08425,1.03031,0.381152,-0.303301,0.962901,0.401678,-0.0957432,0.0317193,0.91021,0.00475695,1.34016,0.573807,2.07826,-0.463547,1.54895,-2.63641,0.0825263,2.35512,-2.65326,0.0717849,2.31179,0.591065,0.658505,0.600502,0.136793,0.568208,0.567391,0.661007,1
1.77136,-0.635059,-1.48664,-1.03402,2.31513,1.33376,-0.543158,1.77136,-0.635059,-1.48664,-1.03402,2.31513,1.33376,-0.543158,1.74515,-0.70942,-1.53587,-1.05036,2.24372,1.34514,-0.607749,0.29739,1.25825,0.956864,-0.420419,1.24229,-0.626257,1.06168,0.29739,1.25825,0.956864,-0.420419,1.24229,-0.626257,1.06168,0.380473,-0.29232,0.968327,0.38806,-0.10031,0.0304129,0.915654,-0.0372704,1.00925,0.585669,2.05145,-0.462604,1.57199,-2.67854,0.0942052,2.30219,-2.66551,0.0810957,2.20857,0.262133,0.743612,0.492315,0.163381,0.714056,-0.113829,0.645908,1
1.79331,-0.629931,-1.4694,-1.04347,2.30944,1.39841,-0.530376,1.79331,-0.629931,-1.4694,-1.04347,2.30944,1.39841,-0.530376,1.75185,-0.698669,-1.5267,-1.05025,2.2536,1.34842,-0.59759,1.07537,1.02433,0.977013,0.39667,0.865241,1.21608,1.08171,1.07537,1.02433,0.977013,0.39667,0.865241,1.21608,1.08171,0.378644,-0.282634,0.974088,0.37529,-0.106334,0.0281985,0.920356,-0.209806,1.0472,0.646495,2.02428,-0.461634,1.59389,-2.7498,0.0981802,2.21673,-2.68201,0.088073,2.10297,0.414564,0.687381,0.573089,0.0678635,0.558345,0.499899,0.672139,1
1.74614,-0.612028,-1.473,-1.03167,2.3347,1.33262,-0.5208,1.74614,-0.612028,-1.473,-1.03167,2.3347,1.33262,-0.5208,1.75821,-0.687878,-1.51858,-1.04696,2.26354,1.35175,-0.587535,0.309044,1.24143,0.7507,0.304135,1.21247,-0.422789,1.04301,0.309044,1.24143,0.7507,0.304135,1.21247,-0.422789,1.04301,0.375934,-0.274147,0.980291,0.363933,-0.112987,0.0256421,0.924191,-0.214989,0.781385,0.685755,2.02428,-0.461634,1.59389,-2.7498,0.0981802,2.21673,-2.68201,0.088073,1.85297,-0.120724,0.758504,0.455764,0.15286,0.711611,-0.191231,0.667355,1
1.79751,-0.604546,-1.45167,-1.05423,2.33504,1.39308,-0.510661,1.79751,-0.604546,-1.45167,-1.05423,2.33504,1.39308,-0.510661,1.76314,-0.676814,-1.5104,-1.04537,2.27322,1.35496,-0.577348,0.70912,1.10191,0.963776,0.0447967,0.851269,1.02118,1.104,0.70912,1.10191,0.963776,0.0447967,0.851269,1.02118,1.104,0.373167,-0.265492,0.986059,0.352509,-0.119105,0.0237715,0.927894,-0.240269,1.04346,0.561519,1.9704,-0.460759,1.6342,-3.47213,0.0477266,2.52725,-2.69898,0.0705272,1.88158,0.343658,0.722681,0.587361,-0.0886087,0.618236,0.381234,0.666879,1
1.75545,-0.58868,-1.45583,-1.05463,2.35455,1.32969,-0.500896,1.75545,-0.58868,-1.45583,-1.05463,2.35455,1.32969,-0.500896,1.76419,-0.665589,-1.50261,-1.04375,2.28309,1.3567,-0.566982,-0.424285,1.25887,0.695859,0.283942,1.21291,-0.565889,1.08542,-0.424285,1.25887,0.695859,0.283942,1.21291,-0.565889,1.08542,0.369593,-0.258303,0.991747,0.34285,-0.12433,0.0224105,0.930857,-0.392506,0.517167,0.656517,1.94364,-0.460212,1.65252,-2.81442,0.0575033,1.92708,-2.69515,0.0566006,1.76386,-0.0874049,0.769094,0.467767,-0.108812,0.714557,-0.270099,0.660858,1
1.81443,-0.5847,-1.43923,-1.04595,2.35647,1.39797,-0.491221,1.81443,-0.5847,-1.43923,-1.04595,2.35647,1.39797,-0.491221,1.766,-0.65413,-1.49447,-1.04372,2.29341,1.35826,-0.556713,0.740583,1.16538,1.00597,-0.247151,0.97846,0.818462,1.08238,0.740583,1.16538,1.00597,-0.247151,0.97846,0.818462,1.08238,0.366525,-0.250208,0.997088,0.33209,-0.129036,0.0212131,0.934139,-0.172144,1.16802,0.498795,1.91715,-0.459661,1.66983,-2.75493,0.057339,1.79952,-2.67905,0.048632,1.6476,0.484389,0.6943,0.552337,-0.0223524,0.630614,0.397094,0.65492,1
1.77585,-0.566526,-1.4484,-1.05939,2.37696,1.32474,-0.480035,1.77585,-0.566526,-1.4484,-1.05939,2.37696,1.32474,-0.480035,1.76389,-0.641088,-1.48677,-1.04589,2.30559,1.35257,-0.545591,-0.198458,1.23176,0.727075,-0.205435,1.15058,-0.537693,1.05048,-0.198458,1.23176,0.727075,-0.205435,1.15058,-0.537693,1.05048,0.364097,-0.242387,1.0025,0.322077,-0.129491,0.0215132,0.937569,-0.219861,0.749973,0.50587,1.89106,-0.458908,1.68674,-2.59069,0.0748096,1.6796,-2.65678,0.0553972,1.54831,0.119577,0.745623,0.383693,-0.134976,0.713695,-0.278311,0.655562,1
1.82679,-0.56437,-1.42696,-1.04592,2.37938,1.40509,-0.470213,1.82679,-0.56437,-1.42696,-1.04592,2.37938,1.40509,-0.470213,1.77396,-0.629852,-1.4773,-1.04591,2.31573,1.36161,-0.534757,0.951164,1.06122,0.894616,-0.00113331,0.957547,0.854473,1.02324,0.951164,1.06122,0.894616,-0.00113331,0.957547,0.854473,1.02324,0.361474,-0.2309,1.00743,0.306169,-0.138037,0.0188833,0.941727,-0.177231,1.09878,0.475498,1.86461,-0.45834,1.70291,-2.57355,0.0552137,1.57284,-2.64155,0.061425,1.46627,0.528209,0.654819,0.503409,-0.000113385,0.636473,0.43478,0.645442,1
1.7679,-0.543757,-1.44314,-1.05017,2.40002,1.32513,-0.458648,1.7679,-0.543757,-1.44314,-1.05017,2.40002,1.32513,-0.458648,1.77434,-0.617233,-1.47154,-1.04859,2.32793,1.35427,-0.523853,0.0355104,1.1918,0.543845,-0.253799,1.15237,-0.694045,1.02987,0.0355104,1.1918,0.543845,-0.253799,1.15237,-0.694045,1.02987,0.360419,-0.222621,1.01205,0.295542,-0.136767,0.019659,0.945285,-0.10602,0.794267,0.427709,1.83797,-0.457735,1.71803,-2.70485,0.061452,1.53603,-2.6388,0.0627565,1.39102,-0.06445,0.734763,0.283937,-0.0157635,0.720877,-0.291364,0.652052,1
1.83575,-0.54669,-1.41919,-1.05941,2.39664,1.40832,-0.451242,1.83575,-0.54669,-1.41919,-1.05941,2.39664,1.40832,-0.451242,1.78,-0.606902,-1.46467,-1.04933,2.33796,1.35683,-0.514089,1.09966,0.999653,0.886471,0.0801593,0.973559,1.13427,1.03123,1.09966,0.999653,0.886471,0.0801593,0.973559,1.13427,1.03123,0.358481,-0.213719,1.0161,0.283106,-0.140869,0.01838,0.948509,-0.211379,1.09625,0.444683,1.81144,-0.457054,1.73205,-2.61463,0.0670619,1.38085,-2.64524,0.063861,1.3074,0.557522,0.602121,0.454838,-0.10081,0.586869,0.514885,0.62847,1
1.762,-0.522109,-1.43714,-1.05597,2.41916,1.34663,-0.438767,1.762,-0.522109,-1.43714,-1.05597,2.41916,1.34663,-0.438767,1.78313,-0.59626,-1.45886,-1.04909,2.34838,1.35804,-0.50413,-0.358013,1.23398,0.36935,-0.0252416,1.21369,-0.773495,1.06898,-0.358013,1.23398,0.36935,-0.0252416,1.21369,-0.773495,1.06898,0.356067,-0.206068,1.02025,0.272349,-0.144301,0.0174482,0.951157,-0.216787,0.577426,0.449985,1.78462,-0.456223,1.7451,-2.72045,0.0843245,1.32437,-2.66062,0.0665492,1.20869,-0.21128,0.741502,0.217186,-0.0687566,0.707756,-0.114052,0.653628,1
1.83209,-0.526916,-1.41609,-1.0495,2.42458,1.41099,-0.432305,1.83209,-0.526916,-1.41609,-1.0495,2.42458,1.41099,-0.432305,1.79361,-0.586382,-1.45095,-1.05115,2.358,1.36806,-0.493591,0.990344,0.932891,0.746602,-0.194098,0.908294,0.946285,0.995348,0.990344,0.932891,0.746602,-0.194098,0.908294,0.946285,0.995348,0.353918,-0.195072,1.02346,0.256069,-0.151648,0.0151642,0.954569,-0.143136,1.05789,0.314593,1.75773,-0.455362,1.75697,-2.62086,0.0839119,1.15671,-2.67114,0.0746781,1.10197,0.384803,0.594659,0.348655,0.016496,0.665832,0.429348,0.612855,1
1.7485,-0.499341,-1.4605,-1.06755,2.43938,1.36071,-0.420008,1.7485,-0.499341,-1.4605,-1.06755,2.43938,1.36071,-0.420008,1.78731,-0.573575,-1.4482,-1.05211,2.37019,1.36379,-0.482667,-0.594966,1.20961,0.259975,-0.0907228,1.151,-0.403205,1.03179,-0.594966,1.20961,0.259975,-0.0907228,1.151,-0.403205,1.03179,0.351086,-0.189902,1.02748,0.249838,-0.151372,0.0166877,0.956237,-0.266143,0.488589,0.373954,1.73084,-0.454911,1.76764,-2.67911,0.0449677,1.06347,-2.67961,0.0734025,0.991395,-0.388156,0.742342,-0.12297,-0.154439,0.691942,-0.0308471,0.626587,1
1.83296,-0.506152,-1.45564,-1.08926,2.44407,1.43084,-0.419595,1.83296,-0.506152,-1.45564,-1.08926,2.44407,1.43084,-0.419595,1.79624,-0.564278,-1.4418,-1.05159,2.38103,1.3732,-0.472632,0.842752,0.878115,0.604365,0.0491238,1.02374,0.888373,0.947793,0.842752,0.878115,0.604365,0.0491238,1.02374,0.888373,0.947793,0.348293,-0.181093,1.03075,0.235591,-0.158489,0.013583,0.958746,-0.202251,0.858305,0.321595,1.70416,-0.45477,1.77714,-2.62309,0.0138695,0.933305,-2.68334,0.0588131,0.877207,0.3672,0.581261,-0.138377,-0.376658,0.630413,0.57645,0.530367,1
1.76015,-0.485956,-1.48417,-1.08342,2.45887,1.42231,-0.409933,1.76015,-0.485956,-1.48417,-1.08342,2.45887,1.42231,-0.409933,1.79459,-0.553933,-1.44135,-1.05307,2.39126,1.37544,-0.463303,-1.08338,1.28316,-0.4501,-0.340387,1.13102,-0.346312,1.01762,-1.08338,1.28316,-0.4501,-0.340387,1.13102,-0.346312,1.01762,0.346302,-0.175891,1.03311,0.228785,-0.160226,0.0143232,0.960094,-0.180941,0.272593,0.194349,1.67738,-0.454391,1.78551,-2.77345,0.0392384,0.86746,-2.68055,0.0425673,0.759893,-0.344442,0.67977,-0.428219,-0.303477,0.676069,0.468734,0.533693,1
1.77812,-0.488002,-1.49434,-1.09706,2.44508,1.44294,-0.416437,1.77812,-0.488002,-1.49434,-1.09706,2.44508,1.44294,-0.416437,1.79429,-0.543771,-1.44465,-1.05824,2.40134,1.37988,-0.454632,0.908889,0.884226,-0.25823,-0.729007,1.00422,1.19783,0.823535,0.908889,0.884226,-0.25823,-0.729007,1.00422,1.19783,0.823535,0.345986,-0.170147,1.03375,0.222056,-0.160809,0.016077,0.961547,0.102129,0.890227,-0.0423968,1.65106,-0.45391,1.79286,-2.66485,0.0486855,0.743782,-2.66807,0.0342411,0.64649,-0.161642,0.557689,-0.496912,-0.388149,0.437412,0.630574,0.381951,1
1.74133,-0.46315,-1.50215,-1.0716,2.46389,1.44581,-0.393603,1.74133,-0.46315,-1.50215,-1.0716,2.46389,1.44581,-0.393603,1.79434,-0.534151,-1.44984,-1.06381,2.41141,1.38914,-0.446635,-0.803612,1.1328,-0.806848,-0.460999,1.11542,0.779776,0.862639,-0.803612,1.1328,-0.806848,-0.460999,1.11542,0.779776,0.862639,0.345525,-0.165,1.03356,0.215999,-0.162972,0.0173827,0.96254,-0.143951,0.2192,0.0128683,1.62503,-0.453359,1.79967,-2.42896,0.0514569,0.635749,-2.64729,0.0396413,0.547822,-0.530109,0.710014,-0.523111,-0.0779452,0.524797,0.566776,0.530314,1
1.7261,-0.454518,-1.51957,-1.05943,2.44665,1.45429,-0.393369,1.7261,-0.454518,-1.51957,-1.05943,2.44665,1.45429,-0.393369,1.78941,-0.524763,-1.45775,-1.06915,2.41942,1.39792,-0.440005,-0.265373,0.864038,-0.860063,-0.65592,0.603234,1.05817,0.553957,-0.265373,0.864038,-0.860063,-0.65592,0.603234,1.05817,0.553957,0.344859,-0.162092,1.03289,0.214548,-0.164456,0.0203046,0.962554,0.00928076,0.333948,-0.13391,1.59868,-0.452839,1.80582,-2.76735,0.0546181,0.646077,-2.63297,0.048945,0.465299,-0.633182,0.702447,-0.618156,0.0971828,0.27227,0.563725,0.46636,1
1.71644,-0.441661,-1.52009,-1.05955,2.47077,1.45858,-0.377367,1.71644,-0.441661,-1.52009,-1.05955,2.47077,1.45858,-0.377367,1.7833,-0.514825,-1.46587,-1.07203,2.42651,1.40719,-0.432908,-0.986462,1.21458,-0.852937,0.0101413,0.878622,0.90785,0.923832,-0.986462,1.21458,-0.852937,0.0101413,0.878622,0.90785,0.923832,0.343245,-0.15978,1.03288,0.214307,-0.167173,0.0235508,0.962066,-0.29816,0.101936,0.134882,1.57224,-0.452391,1.8109,-2.54184,0.0430531,0.4879,-2.62657,0.0507176,0.387357,-0.668517,0.731636,-0.542244,0.124874,0.442578,0.51392,0.555406,1
1.69757,-0.433163,-1.53546,-1.05366,2.48113,1.45026,-0.367962,1.69757,-0.433163,-1.53546,-1.05366,2.48113,1.45026,-0.367962,1.77333,-0.50362,-1.47493,-1.07067,2.43215,1.41578,-0.425051,-1.11021,1.1541,-1.04925,0.264105,0.340811,0.905185,0.744666,-1.11021,1.1541,-1.04925,0.264105,0.340811,0.905185,0.744666,0.340011,-0.158931,1.03408,0.217228,-0.171211,0.0279243,0.960583,-0.334929,-0.0170807,0.149338,1.54577,-0.451877,1.81498,-2.63882,0.0512398,0.406745,-2.63363,0.0503439,0.304655,-0.757565,0.704569,-0.605286,0.170033,0.489892,0.344836,0.570895,1
1.69256,-0.418766,-1.53649,-1.08575,2.49019,1.4562,-0.358467,1.69256,-0.418766,-1.53649,-1.08575,2.49019,1.4562,-0.358467,1.7629,-0.492484,-1.48388,-1.06844,2.43757,1.4239,-0.417056,-1.09202,1.19456,-0.851143,0.209064,0.78027,0.81511,0.932849,-1.09202,1.19456,-0.851143,0.209064,0.78027,0.81511,0.932849,0.336545,-0.158362,1.03552,0.220523,-0.175349,0.0323716,0.958944,-0.347474,0.0298798,0.182528,1.51917,-0.451038,1.81807,-2.64853,0.0835502,0.308217,-2.64618,0.0560355,0.209585,-0.703394,0.737175,-0.526072,-0.17309,0.526169,0.322951,0.585886,1
1.68194,-0.409556,-1.54883,-1.09638,2.50316,1.47354,-0.349869,1.68194,-0.409556,-1.54883,-1.09638,2.50316,1.47354,-0.349869,1.75166,-0.481463,-1.49271,-1.06605,2.44528,1.42994,-0.408158,-1.27129,1.13526,-1.00474,0.291112,0.842825,0.477681,0.944788,-1.27129,1.13526,-1.00474,0.291112,0.842825,0.477681,0.944788,0.333213,-0.158463,1.03714,0.223544,-0.17829,0.0360807,0.957569,-0.327484,-0.128646,0.183244,1.49254,-0.45017,1.82011,-2.64634,0.0861874,0.202551,-2.65349,0.0668973,0.107528,-0.697188,0.719066,-0.561201,-0.30326,0.578843,0.435997,0.582888,1
1.6863,-0.39923,-1.55397,-1.09991,2.51114,1.49099,-0.3455,1.6863,-0.39923,-1.55397,-1.09991,2.51114,1.49099,-0.3455,1.74036,-0.470325,-1.50134,-1.06696,2.45337,1.43461,-0.39915,-1.12334,1.21185,-0.826168,-0.441735,0.865305,0.507365,0.95623,-1.12334,1.21185,-0.826168,-0.441735,0.865305,0.507365,0.95623,0.330975,-0.157757,1.03801,0.225621,-0.179352,0.0403498,0.956713,-0.155674,0.172153,0.0221964,1.46567,-0.449838,1.82087,-2.7502,0.0340286,0.0771102,-2.66374,0.0681245,0.00067091,-0.540614,0.710944,-0.526383,-0.329583,0.577663,0.563747,0.536499,1
1.67694,-0.389531,-1.564,-1.0993,2.51862,1.4965,-0.34033,1.67694,-0.389531,-1.564,-1.0993,2.51862,1.4965,-0.34033,1.72972,-0.459082,-1.50964,-1.07182,2.46207,1.44074,-0.390139,-1.1229,1.16408,-0.921183,-0.577211,0.965725,0.770968,0.946521,-1.1229,1.16408,-0.921183,-0.577211,0.965725,0.770968,0.946521,0.329701,-0.155956,1.0378,0.226111,-0.179619,0.0447873,0.95635,-0.130061,0.12858,-0.0530348,1.43893,-0.44966,1.82054,-2.67488,0.0177675,-0.0328988,-2.67184,0.0563323,-0.110904,-0.527785,0.695511,-0.543623,-0.274781,0.565495,0.557685,0.498089,1
1.67768,-0.37808,-1.57272,-1.10484,2.5243,1.50461,-0.336223,1.67768,-0.37808,-1.57272,-1.10484,2.5243,1.50461,-0.336223,1.72065,-0.448128,-1.51799,-1.07708,2.4711,1.44911,-0.381655,-0.807594,1.14931,-0.845823,-0.536615,0.941115,0.98434,0.849812,-0.807594,1.14931,-0.845823,-0.536615,0.941115,0.98434,0.849812,0.32851,-0.153851,1.03726,0.225928,-0.180721,0.0486352,0.955997,-0.119628,0.238015,-0.0483715,1.4123,-0.449283,1.81906,-2.6508,0.0375623,-0.146702,-2.67352,0.0402004,-0.225963,-0.429763,0.700477,-0.547281,-0.277602,0.532013,0.555014,0.454329,1
1.66864,-0.369564,-1.58626,-1.10597,2.53298,1.51572,-0.331642,1.66864,-0.369564,-1.58626,-1.10597,2.53298,1.51572,-0.331642,1.71282,-0.437364,-1.52621,-1.08157,2.47987,1.45803,-0.373907,-0.84348,1.12429,-0.888157,-0.416693,0.910984,0.904268,0.789208,-0.84348,1.12429,-0.888157,-0.416693,0.910984,0.904268,0.789208,0.327231,-0.151593,1.03683,0.225716,-0.182413,0.0521609,0.95554,-0.135639,0.174266,-0.0264056,1.38601,-0.449023,1.8165,-2.62431,0.0259545,-0.255987,-2.66418,0.0284988,-0.340303,-0.441861,0.678007,-0.600415,-0.244037,0.531123,0.576918,0.422652,1
1.6662,-0.359743,-1.59694,-1.11083,2.54116,1.5246,-0.328596,1.6662,-0.359743,-1.59694,-1.11083,2.54116,1.5246,-0.328596,1.70575,-0.426629,-1.53466,-1.08568,2.48819,1.46655,-0.366785,-0.659807,1.14106,-0.894466,-0.450324,0.848835,0.894486,0.718311,-0.659807,1.14106,-0.894466,-0.450324,0.848835,0.894486,0.718311,0.326096,-0.149201,1.03644,0.225746,-0.184038,0.0557715,0.955018,-0.0944932,0.255524,-0.0375568,1.36023,-0.448587,1.81335,-2.63522,0.0445169,-0.322084,-2.63786,0.0313818,-0.440732,-0.395526,0.668858,-0.622789,-0.251476,0.529753,0.580449,0.381886,1
1.65382,-0.351686,-1.60823,-1.12045,2.54874,1.52977,-0.325474,1.65382,-0.351686,-1.60823,-1.12045,2.54874,1.52977,-0.325474,1.69921,-0.416059,-1.54367,-1.08962,2.49629,1.4753,-0.360213,-0.718463,1.0928,-1.00097,-0.384307,0.862176,0.950027,0.671512,-0.718463,1.0928,-1.00097,-0.384307,0.862176,0.950027,0.671512,0.32507,-0.146932,1.03594,0.226129,-0.185719,0.059357,0.954385,-0.109416,0.157879,-0.0469072,1.33397,-0.448124,1.80947,-2.62525,0.0463171,-0.387328,-2.61985,0.0376779,-0.528411,-0.453846,0.643737,-0.645625,-0.308303,0.524497,0.544635,0.347394,1
1.65192,-0.342306,-1.61741,-1.13226,2.55939,1.53523,-0.322711,1.65192,-0.342306,-1.61741,-1.13226,2.55939,1.53523,-0.322711,1.69286,-0.405762,-1.55328,-1.09339,2.50446,1.48429,-0.3542,-0.626605,1.08159,-1.0262,-0.409941,0.862479,0.947303,0.601768,-0.626605,1.08159,-1.0262,-0.409941,0.862479,0.947303,0.601768,0.324102,-0.145022,1.03533,0.227017,-0.187412,0.062778,0.953624,-0.0845883,0.174485,-0.0615815,1.3077,-0.447772,1.80477,-2.62343,0.0351223,-0.469309,-2.61231,0.0391966,-0.60603,-0.409351,0.634561,-0.641297,-0.388717,0.549274,0.509392,0.314889,1
1.64788,-0.334373,-1.62864,-1.13922,2.56733,1.54441,-0.317826,1.64788,-0.334373,-1.62864,-1.13922,2.56733,1.54441,-0.317826,1.68625,-0.395745,-1.56316,-1.09788,2.51257,1.49287,-0.34877,-0.762047,1.03553,-1.05918,-0.530561,0.85011,0.867297,0.547527,-0.762047,1.03553,-1.05918,-0.530561,0.85011,0.867297,0.547527,0.323433,-0.143391,1.03444,0.228362,-0.188511,0.0662253,0.952853,-0.0578265,0.103796,-0.108276,1.28135,-0.447313,1.79894,-2.55329,0.0445303,-0.564907,-2.61846,0.0423503,-0.686826,-0.383653,0.613714,-0.654733,-0.413402,0.547594,0.515423,0.309433,1
1.65496,-0.324374,-1.638,-1.1479,2.57675,1.55387,-0.314176,1.65496,-0.324374,-1.638,-1.1479,2.57675,1.55387,-0.314176,1.67958,-0.385979,-1.57311,-1.10362,2.5209,1.50079,-0.343837,-0.650119,1.02646,-1.04113,-0.67324,0.904655,0.809373,0.496534,-0.650119,1.02646,-1.04113,-0.67324,0.904655,0.809373,0.496534,0.323242,-0.141879,1.03317,0.229799,-0.188716,0.0695908,0.952227,-0.000436997,0.147721,-0.148098,1.25501,-0.446692,1.79215,-2.72345,0.06418,-0.702721,-2.63067,0.0460196,-0.779308,-0.246223,0.616045,-0.648923,-0.442798,0.55853,0.530722,0.29661,1
1.64441,-0.317413,-1.64895,-1.15466,2.5849,1.56001,-0.313518,1.64441,-0.317413,-1.64895,-1.15466,2.5849,1.56001,-0.313518,1.67365,-0.376442,-1.58312,-1.11006,2.52941,1.50862,-0.339114,-0.605633,0.988761,-1.06988,-0.685374,0.891424,0.841127,0.500326,-0.605633,0.988761,-1.06988,-0.685374,0.891424,0.841127,0.500326,0.323381,-0.140315,1.03165,0.230934,-0.188543,0.0727426,0.951751,0.00940753,0.12524,-0.165907,1.22841,-0.446064,1.78436,-2.66553,0.0628936,-0.780742,-2.63814,0.0519955,-0.87861,-0.292392,0.590297,-0.658344,-0.446039,0.554964,0.513898,0.25596,1
1.63541,-0.308032,-1.65835,-1.16341,2.59523,1.56546,-0.313289,1.63541,-0.308032,-1.65835,-1.16341,2.59523,1.56546,-0.313289,1.66926,-0.367008,-1.59317,-1.11678,2.53795,1.51675,-0.334488,-0.335992,1.00203,-1.05363,-0.731354,0.911928,0.872428,0.477399,-0.335992,1.00203,-1.05363,-0.731354,0.911928,0.872428,0.477399,0.323763,-0.13838,1.02998,0.231391,-0.18842,0.0756593,0.951437,0.0521442,0.225198,-0.178257,1.2016,-0.4456,1.77529,-2.67163,0.0462956,-0.903321,-2.65149,0.0559342,-0.985555,-0.338518,0.589758,-0.651806,-0.466285,0.572785,0.487177,0.211989,1
1.63161,-0.299833,-1.66936,-1.1715,2.60123,1.5737,-0.307593,1.63161,-0.299833,-1.66936,-1.1715,2.60123,1.5737,-0.307593,1.6653,-0.357781,-1.60326,-1.12369,2.54654,1.52479,-0.330371,-0.491006,0.94878,-1.07398,-0.727867,0.901585,0.827818,0.396117,-0.491006,0.94878,-1.07398,-0.727867,0.901585,0.827818,0.396117,0.32426,-0.136524,1.02821,0.231947,-0.188168,0.0783635,0.951132,0.0354954,0.123876,-0.189097,1.17508,-0.445425,1.76508,-2.66457,0.0175869,-1.02639,-2.65961,0.0486845,-1.09595,-0.336874,0.579475,-0.661022,-0.478044,0.546905,0.489077,0.22778,1
1.63343,-0.29271,-1.67946,-1.17815,2.60959,1.58474,-0.305121,1.63343,-0.29271,-1.67946,-1.17815,2.60959,1.58474,-0.305121,1.66019,-0.34875,-1.61335,-1.13078,2.55527,1.53238,-0.326989,-0.582501,0.957009,-1.0577,-0.766816,0.939199,0.777563,0.321994,-0.582501,0.957009,-1.0577,-0.766816,0.939199,0.777563,0.321994,0.324699,-0.135274,1.02637,0.233473,-0.187565,0.0809467,0.950662,0.0317136,0.093766,-0.196111,1.1485,-0.445167,1.75383,-2.68393,0.026012,-1.13516,-2.66356,0.0368947,-1.2091,-0.267647,0.560405,-0.661116,-0.473715,0.543183,0.523631,0.218678,1
1.62684,-0.288396,-1.69052,-1.18535,2.61909,1.59269,-0.306889,1.62684,-0.288396,-1.69052,-1.18535,2.61909,1.59269,-0.306889,1.65485,-0.339775,-1.62347,-1.13813,2.56387,1.53984,-0.32366,-0.546228,0.938754,-1.07842,-0.784112,0.878242,0.795774,0.377622,-0.546228,0.938754,-1.07842,-0.784112,0.878242,0.795774,0.377622,0.325181,-0.134181,1.02442,0.235194,-0.186769,0.083579,0.950166,0.0395783,0.0886413,-0.210635,1.12266,-0.444882,1.74136,-2.5391,0.0279689,-1.22558,-2.64601,0.0279635,-1.32447,-0.280123,0.513789,-0.670496,-0.472211,0.552226,0.528518,0.167711,1
1.62042,-0.285372,-1.70038,-1.19311,2.6287,1.59625,-0.315152,1.62042,-0.285372,-1.70038,-1.19311,2.6287,1.59625,-0.315152,1.65041,-0.331067,-1.63368,-1.14548,2.57219,1.54775,-0.320199,-0.399249,0.90151,-1.07602,-0.767899,0.879024,0.869543,0.354371,-0.399249,0.90151,-1.07602,-0.767899,0.879024,0.869543,0.354371,0.325705,-0.133039,1.02238,0.236552,-0.186182,0.0860962,0.949719,0.0453654,0.105667,-0.216138,1.09701,-0.444377,1.72838,-2.67527,0.0527046,-1.35421,-2.61596,0.029875,-1.42541,-0.299936,0.45695,-0.66704,-0.476292,0.565046,0.485039,0.0504701,1
1.61484,-0.285365,-1.71028,-1.19905,2.63781,1.59953,-0.31918,1.61484,-0.285365,-1.71028,-1.19905,2.63781,1.59953,-0.31918,1.64634,-0.32297,-1.64397,-1.15275,2.58064,1.55595,-0.31738,-0.458187,0.812606,-1.09427,-0.766338,0.903619,0.863411,0.246577,-0.458187,0.812606,-1.09427,-0.766338,0.903619,0.863411,0.246577,0.326198,-0.132324,1.02024,0.238189,-0.185711,0.0881277,0.949216,0.0371382,0.0117023,-0.232406,1.07092,-0.443966,1.71464,-2.51444,0.0396153,-1.32374,-2.59812,0.0370723,-1.51325,-0.31496,0.376045,-0.663149,-0.463046,0.571715,0.435797,-0.0179934,1
1.61356,-0.281168,-1.72044,-1.20236,2.64658,1.60749,-0.318748,1.61356,-0.281168,-1.72044,-1.20236,2.64658,1.60749,-0.318748,1.64178,-0.315763,-1.65428,-1.16006,2.58931,1.56365,-0.316159,-0.501946,0.714287,-1.08359,-0.77676,0.925609,0.766247,0.0236668,-0.501946,0.714287,-1.08359,-0.77676,0.925609,0.766247,0.0236668,0.326708,-0.132499,1.01797,0.240987,-0.184883,0.0895214,0.948541,0.0422398,-0.0736542,-0.246497,1.04482,-0.44346,1.70004,-2.56546,0.0497251,-1.43514,-2.59111,0.043304,-1.5931,-0.282109,0.345944,-0.661585,-0.422958,0.572656,0.438412,-0.0258901,1
1.60886,-0.287617,-1.73142,-1.20643,2.65608,1.61564,-0.326524,1.60886,-0.287617,-1.73142,-1.20643,2.65608,1.61564,-0.326524,1.63693,-0.309706,-1.66451,-1.16727,2.59812,1.57049,-0.316382,-0.519302,0.572114,-1.07587,-0.747003,0.932988,0.682652,-0.0657657,-0.519302,0.572114,-1.07587,-0.747003,0.932988,0.682652,-0.0657657,0.327268,-0.133645,1.01562,0.244811,-0.183591,0.0901744,0.94775,0.040785,-0.179883,-0.256169,1.01852,-0.44324,1.68444,-2.65941,0.022238,-1.57717,-2.60478,0.0420159,-1.67174,-0.280743,0.220892,-0.669125,-0.391591,0.579555,0.451539,-0.10142,1
1.60594,-0.300439,-1.74165,-1.21066,2.66548,1.62255,-0.334714,1.60594,-0.300439,-1.74165,-1.21066,2.66548,1.62255,-0.334714,1.6324,-0.304415,-1.6747,-1.17395,2.60695,1.57711,-0.316894,-0.442635,0.546392,-1.07514,-0.667646,0.931429,0.713959,-0.0435766,-0.442635,0.546392,-1.07514,-0.667646,0.931429,0.713959,-0.0435766,0.327714,-0.135317,1.01333,0.248859,-0.182366,0.0903281,0.946918,0.0224417,-0.182357,-0.236193,0.99243,-0.442541,1.66786,-2.59196,0.069483,-1.64781,-2.61559,0.0439847,-1.76236,-0.264547,0.0397525,-0.669579,-0.367057,0.58525,0.454336,-0.178199,1
1.59398,-0.325087,-1.75203,-1.21252,2.67296,1.62771,-0.345061,1.59398,-0.325087,-1.75203,-1.21252,2.67296,1.62771,-0.345061,1.62815,-0.300461,-1.68497,-1.18004,2.61585,1.58403,-0.318081,-0.453407,0.301883,-1.09187,-0.620288,0.945566,0.743202,-0.198441,-0.453407,0.301883,-1.09187,-0.620288,0.945566,0.743202,-0.198441,0.327973,-0.137922,1.01099,0.253388,-0.181393,0.0896684,0.945966,0.00739691,-0.355406,-0.264248,0.965957,-0.441973,1.65021,-2.722,0.0583717,-1.81444,-2.6231,0.0490516,-1.86041,-0.341686,-0.246261,-0.670646,-0.324776,0.571105,0.436825,-0.269801,1
1.5847,-0.345937,-1.76211,-1.20842,2.67743,1.63859,-0.358639,1.5847,-0.345937,-1.76211,-1.20842,2.67743,1.63859,-0.358639,1.624,-0.29925,-1.6953,-1.18574,2.62485,1.59105,-0.320624,-0.424414,-0.0279603,-1.08956,-0.585591,0.954869,0.740312,-0.331157,-0.424414,-0.0279603,-1.08956,-0.585591,0.954869,0.740312,-0.331157,0.328137,-0.142433,1.00833,0.258893,-0.180308,0.0875005,0.944885,0.00520138,-0.558832,-0.309238,0.939331,-0.441646,1.63149,-2.60254,0.0319877,-1.82985,-2.63533,0.0489557,-1.9633,-0.39301,-0.466872,-0.668062,-0.226745,0.525842,0.475417,-0.380148,1
1.58833,-0.359737,-1.76904,-1.18224,2.68799,1.65011,-0.369741,1.58833,-0.359737,-1.76904,-1.18224,2.68799,1.65011,-0.369741,1.61914,-0.302079,-1.70563,-1.1909,2.63373,1.59787,-0.32452,-0.59142,-0.540789,-1.09069,-0.508033,0.921937,0.701306,-0.482804,-0.59142,-0.540789,-1.09069,-0.508033,0.921937,0.701306,-0.482804,0.328119,-0.14991,1.00518,0.265891,-0.178796,0.0834064,0.943598,-0.0308358,-0.939791,-0.376957,0.912853,-0.441704,1.61155,-2.61116,-0.0056927,-1.96677,-2.64436,0.0396824,-2.07163,-0.308122,-0.576582,-0.634168,0.0866155,0.542566,0.522376,-0.452209,1
1.59285,-0.370167,-1.77622,-1.16253,2.69881,1.65875,-0.376385,1.59285,-0.370167,-1.77622,-1.16253,2.69881,1.65875,-0.376385,1.61315,-0.308856,-1.71593,-1.19478,2.64202,1.60496,-0.330041,-0.66882,-0.871566,-1.08525,-0.320568,0.832423,0.79052,-0.672185,-0.66882,-0.871566,-1.08525,-0.320568,0.832423,0.79052,-0.672185,0.327533,-0.160342,1.00167,0.274799,-0.17743,0.0776307,0.941795,-0.104783,-1.16786,-0.391032,0.886685,-0.441573,1.59043,-2.6029,0.0130168,-2.10086,-2.64596,0.0220573,-2.18529,-0.202977,-0.613114,-0.602852,0.322533,0.567875,0.537862,-0.463445,1
1.61129,-0.384202,-1.78506,-1.17523,2.71025,1.66335,-0.385696,1.61129,-0.384202,-1.78506,-1.17523,2.71025,1.66335,-0.385696,1.60786,-0.317696,-1.72586,-1.19474,2.65019,1.61287,-0.336907,-0.459137,-0.988145,-1.01494,0.293859,0.888538,0.87518,-0.771742,-0.459137,-0.988145,-1.01494,0.293859,0.888538,0.87518,-0.771742,0.325723,-0.171957,0.998882,0.284664,-0.178045,0.0705078,0.939306,-0.243525,-1.19053,-0.223532,0.860699,-0.441399,1.56834,-2.67025,0.0178385,-2.26912,-2.63163,0.0122112,-2.298,0.0342582,-0.665056,-0.591923,0.195167,0.600644,0.504767,-0.487887,1
1.63539,-0.396497,-1.79565,-1.19032,2.71871,1.67473,-0.395533,1.63539,-0.396497,-1.79565,-1.19032,2.71871,1.67473,-0.395533,1.60445,-0.32717,-1.73522,-1.19018,2.65886,1.6212,-0.344148,-0.272486,-1.01062,-0.963596,0.649982,0.939007,0.882485,-0.757715,-0.272486,-1.01062,-0.963596,0.649982,0.939007,0.882485,-0.757715,0.322739,-0.183495,0.997275,0.294357,-0.180948,0.0623729,0.936334,-0.310453,-1.15003,-0.123394,0.835046,-0.441268,1.54552,-2.62547,0.0134542,-2.33611,-2.60725,0.0106084,-2.40148,0.309468,-0.693269,-0.604323,-0.00144214,0.598513,0.53527,-0.513846,1
1.64642,-0.407122,-1.80932,-1.20956,2.72136,1.68788,-0.404996,1.64642,-0.407122,-1.80932,-1.20956,2.72136,1.68788,-0.404996,1.60581,-0.338534,-1.74515,-1.1872,2.6691,1.6296,-0.352427,0.128781,-1.07338,-0.937909,0.281412,0.967281,0.793274,-0.781957,0.128781,-1.07338,-0.937909,0.281412,0.967281,0.793274,-0.781957,0.320981,-0.19497,0.994604,0.302389,-0.182854,0.0522654,0.93402,-0.134566,-1.01822,-0.265087,0.809243,-0.441014,1.52206,-2.6092,0.025676,-2.37235,-2.58859,0.0168478,-2.48886,0.406062,-0.685879,-0.64163,-0.223556,0.522641,0.582775,-0.52569,1
1.65428,-0.4145,-1.82437,-1.24189,2.71842,1.69965,-0.414137,1.65428,-0.4145,-1.82437,-1.24189,2.71842,1.69965,-0.414137,1.61171,-0.350084,-1.75522,-1.18782,2.67898,1.63859,-0.361017,0.556782,-1.09091,-0.950497,-0.0587906,0.933709,0.849353,-0.811287,0.556782,-1.09091,-0.950497,-0.0587906,0.933709,0.849353,-0.811287,0.321075,-0.20476,0.990541,0.30796,-0.183392,0.0420168,0.932611,0.0379003,-0.850947,-0.398836,0.783723,-0.440101,1.49752,-2.58627,0.0924869,-2.48675,-2.5738,0.0332856,-2.571,0.425729,-0.644155,-0.691565,-0.540638,0.39434,0.610614,-0.531203,1
1.64568,-0.420942,-1.83906,-1.25746,2.69176,1.71284,-0.421863,1.64568,-0.420942,-1.83906,-1.25746,2.69176,1.71284,-0.421863,1.61862,-0.36145,-1.766,-1.19215,2.68743,1.64841,-0.36978,0.653299,-1.0735,-1.0182,-0.409037,0.797603,0.927587,-0.827733,0.653299,-1.0735,-1.0182,-0.409037,0.797603,0.927587,-0.827733,0.322446,-0.213703,0.985052,0.312897,-0.182481,0.0327429,0.931517,0.14629,-0.772784,-0.535005,0.757573,-0.439923,1.47225,-2.62829,0.0178731,-2.53943,-2.57575,0.0411808,-2.6518,0.27062,-0.59492,-0.730617,-0.653039,0.0433646,0.644253,-0.520832,1
1.6292,-0.41905,-1.85158,-1.26965,2.66155,1.72535,-0.426755,1.6292,-0.41905,-1.85158,-1.26965,2.66155,1.72535,-0.426755,1.62573,-0.37202,-1.77763,-1.20206,2.6936,1.65862,-0.378619,0.671079,-0.998445,-1.09869,-0.936021,0.583249,0.964394,-0.834834,0.671079,-0.998445,-1.09869,-0.936021,0.583249,0.964394,-0.834834,0.325496,-0.22143,0.977732,0.317287,-0.179159,0.0253254,0.930908,0.280552,-0.663829,-0.712188,0.731476,-0.439599,1.44592,-2.55024,0.0316898,-2.57383,-2.58809,0.0442767,-2.74009,0.0346719,-0.47029,-0.739541,-0.675832,-0.320529,0.667231,-0.481364,1
1.58557,-0.432268,-1.86326,-1.2821,2.65523,1.72639,-0.432053,1.58557,-0.432268,-1.86326,-1.2821,2.65523,1.72639,-0.432053,1.6297,-0.381769,-1.78987,-1.2131,2.69324,1.66943,-0.387236,0.375591,-0.920693,-1.1561,-1.04251,-0.0346021,1.02032,-0.81386,0.375591,-0.920693,-1.1561,-1.04251,-0.0346021,1.02032,-0.81386,0.328359,-0.228538,0.969939,0.323245,-0.175667,0.0219836,0.929608,0.246929,-0.639237,-0.753638,0.705354,-0.439003,1.41875,-2.54595,0.0580762,-2.64781,-2.60023,0.0452334,-2.83222,-0.441344,-0.504992,-0.733918,-0.690019,-0.380045,0.569676,-0.448171,1
1.56669,-0.45219,-1.87596,-1.29343,2.67553,1.71025,-0.444577,1.56669,-0.45219,-1.87596,-1.29343,2.67553,1.71025,-0.444577,1.6296,-0.389197,-1.80217,-1.22437,2.68692,1.68057,-0.39511,-0.00958877,-0.701624,-1.16144,-1.06418,-0.596339,1.05241,-0.743753,-0.00958877,-0.701624,-1.16144,-1.06418,-0.596339,1.05241,-0.743753,0.330431,-0.234464,0.962451,0.330625,-0.172694,0.0231006,0.92754,0.160587,-0.567363,-0.719651,0.679068,-0.438887,1.39031,-2.60442,0.0114832,-2.81724,-2.61529,0.0334793,-2.92916,-0.629156,-0.629932,-0.737962,-0.690591,-0.113899,0.296825,-0.494665,1
1.55833,-0.465001,-1.88624,-1.30322,2.6971,1.71966,-0.45355,1.55833,-0.465001,-1.88624,-1.30322,2.6971,1.71966,-0.45355,1.62493,-0.396536,-1.81324,-1.2347,2.6812,1.6896,-0.401973,-0.925182,-0.839819,-1.17563,-1.11411,-0.610386,0.864739,-0.70697,-0.925182,-0.839819,-1.17563,-1.11411,-0.610386,0.864739,-0.70697,0.331335,-0.241693,0.955462,0.339246,-0.169212,0.0242718,0.925035,-0.0415117,-0.960957,-0.774796,0.652736,-0.438448,1.36079,-2.67022,0.0445552,-2.99413,-2.62082,0.0366259,-3.03533,-0.666084,-0.684657,-0.729992,-0.685222,0.158995,0.300593,-0.515767,1
1.56582,-0.473021,-1.89456,-1.31536,2.72876,1.74392,-0.46031,1.56582,-0.473021,-1.89456,-1.31536,2.72876,1.74392,-0.46031,1.6151,-0.405751,-1.82454,-1.24534,2.67816,1.69524,-0.409284,-1.13796,-1.09148,-1.2085,-1.13028,-0.0618081,0.352928,-0.8295,-1.13796,-1.09148,-1.2085,-1.13028,-0.0618081,0.352928,-0.8295,0.331313,-0.252363,0.947982,0.350656,-0.163345,0.023752,0.921843,-0.076944,-1.26089,-0.839106,0.626704,-0.438423,1.32997,-2.58985,0.00249648,-3.06606,-2.62164,0.0290775,-3.14854,-0.492853,-0.672701,-0.700153,-0.700174,0.506001,0.48683,-0.510261,1
1.56944,-0.491555,-1.89784,-1.31094,2.73847,1.75685,-0.469334,1.56944,-0.491555,-1.89784,-1.31094,2.73847,1.75685,-0.469334,1.60458,-0.416352,-1.83587,-1.25595,2.67991,1.69922,-0.41726,-1.08707,-1.14343,-1.18386,-1.11107,0.404145,0.480499,-0.852928,-1.08707,-1.14343,-1.18386,-1.11107,0.404145,0.480499,-0.852928,0.330842,-0.264883,0.940139,0.362737,-0.156256,0.0202021,0.918476,-0.133334,-1.30545,-0.86122,0.601003,-0.438637,1.29816,-2.55407,-0.021289,-3.16091,-2.61066,0.011968,-3.26518,-0.35141,-0.75203,-0.619706,-0.549867,0.585616,0.576364,-0.520737,1
1.54975,-0.50294,-1.90559,-1.31211,2.73473,1.76069,-0.471211,1.54975,-0.50294,-1.90559,-1.31211,2.73473,1.76069,-0.471211,1.59615,-0.426889,-1.84678,-1.26665,2.68666,1.70584,-0.425202,-0.712854,-1.08425,-1.12292,-1.14483,0.989488,0.894929,-0.825149,-0.712854,-1.08425,-1.12292,-1.14483,0.989488,0.894929,-0.825149,0.32995,-0.277095,0.932091,0.373448,-0.150424,0.0138501,0.915269,-0.122919,-1.16158,-0.874786,0.575491,-0.438519,1.26577,-2.58178,0.0119248,-3.27748,-2.58886,0.00546992,-3.36703,-0.463947,-0.760503,-0.588107,-0.454648,0.480698,0.548482,-0.46009,1
1.55758,-0.515153,-1.91969,-1.33693,2.72572,1.77605,-0.475483,1.55758,-0.515153,-1.91969,-1.33693,2.72572,1.77605,-0.475483,1.59049,-0.438031,-1.85665,-1.27589,2.69607,1.71479,-0.433147,-0.494732,-1.258,-0.968185,-0.823787,0.996449,0.988649,-0.850513,-0.494732,-1.258,-0.968185,-0.823787,0.996449,0.988649,-0.850513,0.328727,-0.288711,0.924207,0.382666,-0.146417,0.00543454,0.912195,-0.151734,-1.14503,-0.818747,0.55,-0.438361,1.23247,-2.55712,0.0158359,-3.34073,-2.56685,0.000767112,-3.45825,-0.329098,-0.771224,-0.630441,-0.610464,0.296518,0.612569,-0.423358,1
1.55792,-0.527614,-1.93212,-1.35156,2.70699,1.78968,-0.481937,1.55792,-0.527614,-1.93212,-1.35156,2.70699,1.78968,-0.481937,1.58422,-0.449893,-1.86567,-1.28299,2.70413,1.72357,-0.440555,-0.810096,-1.24676,-0.938295,-0.68432,0.719319,0.872334,-0.720523,-0.810096,-1.24676,-0.938295,-0.68432,0.719319,0.872334,-0.720523,0.326737,-0.300506,0.916741,0.392002,-0.143295,-0.00270989,0.908732,-0.268116,-1.20618,-0.777293,0.52432,-0.437956,1.19833,-2.5981,0.0409879,-3.45425,-2.55772,0.0120884,-3.53969,-0.263001,-0.777203,-0.664524,-0.685649,0.0286022,0.661024,-0.413817,1
1.52601,-0.537706,-1.94579,-1.36473,2.68678,1.79126,-0.497749,1.52601,-0.537706,-1.94579,-1.36473,2.68678,1.79126,-0.497749,1.57818,-0.461748,-1.87511,-1.29141,2.70928,1.73259,-0.447113,-0.484169,-1.2552,-1.04785,-1.07003,0.386529,1.02148,-0.666783,-0.484169,-1.2552,-1.04785,-1.07003,0.386529,1.02148,-0.666783,0.325066,-0.311626,0.90864,0.400782,-0.139641,-0.00927831,0.905421,-0.114006,-1.03596,-0.941874,0.498502,-0.437561,1.16336,-2.57694,0.0394121,-3.49075,-2.56173,0.027144,-3.62054,-0.52169,-0.759582,-0.70686,-0.733252,-0.224982,0.586791,-0.506362,1
1.51344,-0.546942,-1.95723,-1.37537,2.6915,1.78271,-0.505097,1.51344,-0.546942,-1.95723,-1.37537,2.6915,1.78271,-0.505097,1.57411,-0.4737,-1.8853,-1.30202,2.71058,1.74268,-0.453445,-0.380426,-1.26715,-1.10051,-1.16442,-0.0845535,1.10461,-0.669658,-0.380426,-1.26715,-1.10051,-1.16442,-0.0845535,1.10461,-0.669658,0.324413,-0.321384,0.899521,0.40842,-0.135383,-0.0139805,0.90259,-0.0683254,-0.937712,-0.999981,0.472858,-0.437541,1.12733,-2.52535,0.00196926,-3.54754,-2.56763,0.027557,-3.70998,-0.606665,-0.73242,-0.719273,-0.733533,-0.190872,0.400304,-0.516526,1
1.50677,-0.561595,-1.96807,-1.38652,2.71483,1.7926,-0.513975,1.50677,-0.561595,-1.96807,-1.38652,2.71483,1.7926,-0.513975,1.56753,-0.485504,-1.89607,-1.31327,2.70774,1.75221,-0.460785,-0.975833,-1.22692,-1.16875,-1.20944,-0.492695,0.917889,-0.868781,-0.975833,-1.22692,-1.16875,-1.20944,-0.492695,0.917889,-0.868781,0.323251,-0.331215,0.890072,0.417638,-0.130498,-0.0163603,0.899044,-0.240767,-1.07559,-1.01714,0.44689,-0.436896,1.09064,-2.56758,0.0638156,-3.62747,-2.57682,0.0334573,-3.79651,-0.607559,-0.760909,-0.72005,-0.732496,0.0708588,0.403898,-0.531898,1
1.49705,-0.571389,-1.97945,-1.40036,2.72561,1.79938,-0.522273,1.49705,-0.571389,-1.97945,-1.40036,2.72561,1.79938,-0.522273,1.55793,-0.496877,-1.90718,-1.32465,2.70406,1.75909,-0.468923,-1.04567,-1.17668,-1.1763,-1.19217,-0.295306,0.555059,-0.850208,-1.04567,-1.17668,-1.1763,-1.19217,-0.295306,0.555059,-0.850208,0.32132,-0.341751,0.880673,0.428574,-0.12425,-0.0179327,0.894743,-0.265261,-1.09862,-0.997165,0.420787,-0.437045,1.05301,-2.65337,-0.0151413,-3.82568,-2.58677,0.0248802,-3.88351,-0.608791,-0.745121,-0.722757,-0.757124,0.215526,0.402847,-0.5335,1
1.49707,-0.585028,-1.98923,-1.41096,2.71717,1.81731,-0.52785,1.49707,-0.585028,-1.98923,-1.41096,2.71717,1.81731,-0.52785,1.54837,-0.508394,-1.91829,-1.33593,2.70401,1.76484,-0.477065,-0.977605,-1.25039,-1.17001,-1.1892,0.254236,0.652489,-0.867501,-0.977605,-1.25039,-1.17001,-1.1892,0.254236,0.652489,-0.867501,0.319026,-0.352821,0.871156,0.43951,-0.117362,-0.0214187,0.89028,-0.309766,-1.14706,-1.03889,0.394806,-0.436618,1.01371,-2.59675,0.0426879,-3.92835,-2.59463,0.0238359,-3.98625,-0.512937,-0.766343,-0.709438,-0.750361,0.131587,0.524732,-0.507854,1
1.49613,-0.595499,-1.99957,-1.42243,2.70787,1.83033,-0.531328,1.49613,-0.595499,-1.99957,-1.42243,2.70787,1.83033,-0.531328,1.53905,-0.520025,-1.92941,-1.34746,2.7073,1.77108,-0.485292,-0.987237,-1.20729,-1.1763,-1.24327,0.430435,0.665036,-0.869214,-0.987237,-1.20729,-1.1763,-1.24327,0.430435,0.665036,-0.869214,0.316286,-0.364128,0.861338,0.450323,-0.110508,-0.0266927,0.885598,-0.342613,-1.12179,-1.05733,0.369109,-0.436824,0.973485,-2.56325,-0.0205801,-4.01197,-2.59581,0.0171256,-4.09634,-0.429291,-0.754743,-0.701621,-0.749683,0.00566485,0.592505,-0.460362,1
1.47384,-0.607937,-2.01137,-1.43293,2.69776,1.82944,-0.541752,1.47384,-0.607937,-2.01137,-1.43293,2.69776,1.82944,-0.541752,1.53069,-0.531694,-1.94041,-1.35912,2.71006,1.77861,-0.493248,-0.790126,-1.25359,-1.14764,-1.21856,0.167069,0.909731,-0.813312,-0.790126,-1.25359,-1.14764,-1.21856,0.167069,0.909731,-0.813312,0.313499,-0.374734,0.85131,0.460415,-0.10422,-0.0318253,0.88099,-0.310685,-1.0079,-1.07819,0.343668,-0.436465,0.932153,-2.55814,0.036137,-4.15608,-2.58121,0.0108325,-4.21509,-0.568501,-0.762427,-0.709601,-0.73811,-0.123025,0.508369,-0.485048,1
1.46262,-0.61852,-2.02237,-1.44377,2.70254,1.82581,-0.548829,1.46262,-0.61852,-2.02237,-1.44377,2.70254,1.82581,-0.548829,1.52389,-0.543423,-1.95122,-1.37066,2.7105,1.78769,-0.500508,-0.652569,-1.22402,-1.13632,-1.21698,-0.0618802,1.00234,-0.724407,-0.652569,-1.22402,-1.13632,-1.21698,-0.0618802,1.00234,-0.724407,0.310997,-0.384162,0.841179,0.469274,-0.098758,-0.0359414,0.876777,-0.275385,-0.893225,-1.07615,0.318623,-0.437006,0.891084,-2.48613,-0.0537393,-4.0768,-2.55466,0.0023067,-4.30406,-0.612737,-0.750969,-0.711503,-0.731131,-0.0796151,0.381236,-0.483206,1
1.45525,-0.632071,-2.03347,-1.45532,2.71486,1.8331,-0.558734,1.45525,-0.632071,-2.03347,-1.45532,2.71486,1.8331,-0.558734,1.51601,-0.555108,-1.9621,-1.38208,2.70891,1.79609,-0.507746,-0.991324,-1.24172,-1.15806,-1.19528,-0.262148,0.783899,-0.799302,-0.991324,-1.24172,-1.15806,-1.19528,-0.262148,0.783899,-0.799302,0.308095,-0.393472,0.831032,0.478453,-0.0930077,-0.0389959,0.872302,-0.400557,-0.984992,-1.08239,0.293522,-0.437654,0.848541,-2.48822,-0.0642314,-4.21718,-2.53054,-0.0225449,-4.37732,-0.607662,-0.769636,-0.713727,-0.732391,0.0594325,0.370111,-0.509882,1
1.45,-0.642762,-2.04454,-1.46799,2.72406,1.84176,-0.566819,1.45,-0.642762,-2.04454,-1.46799,2.72406,1.84176,-0.566819,1.50643,-0.566748,-1.97307,-1.39335,2.70719,1.80236,-0.515266,-1.02981,-1.21688,-1.15879,-1.18507,-0.109394,0.551317,-0.788871,-1.02981,-1.21688,-1.15879,-1.18507,-0.109394,0.551317,-0.788871,0.304577,-0.403263,0.820897,0.488445,-0.0862403,-0.0419177,0.86731,-0.425731,-0.993082,-1.0762,0.267732,-0.436938,0.804804,-2.59482,0.0720631,-4.40053,-2.52899,-0.0141668,-4.45974,-0.564295,-0.760147,-0.714669,-0.746446,0.168699,0.394064,-0.515528,1
1.44323,-0.655313,-2.05517,-1.47845,2.72402,1.84851,-0.573028,1.44323,-0.655313,-2.05517,-1.47845,2.72402,1.84851,-0.573028,1.49692,-0.578489,-1.98406,-1.40461,2.70756,1.8078,-0.522996,-0.979587,-1.25942,-1.16128,-1.19179,0.171472,0.594819,-0.840009,-0.979587,-1.25942,-1.16128,-1.19179,0.171472,0.594819,-0.840009,0.300791,-0.413227,0.81061,0.498487,-0.0789945,-0.0459766,0.862065,-0.452015,-0.996889,-1.10974,0.242614,-0.437141,0.76043,-2.54309,-0.0205752,-4.49266,-2.52999,-0.0128424,-4.54725,-0.536936,-0.768239,-0.7111,-0.738423,0.164626,0.407169,-0.500321,1
1.43848,-0.666372,-2.06583,-1.48969,2.72682,1.85702,-0.578366,1.43848,-0.666372,-2.06583,-1.48969,2.72682,1.85702,-0.578366,1.48807,-0.59029,-1.99507,-1.41605,2.70998,1.81375,-0.530967,-0.894761,-1.23332,-1.16269,-1.22098,0.330947,0.658415,-0.842675,-0.894761,-1.23332,-1.16269,-1.22098,0.330947,0.658415,-0.842675,0.296819,-0.423022,0.800083,0.508329,-0.0718516,-0.0511562,0.856634,-0.451326,-0.942237,-1.12284,0.217616,-0.436853,0.714706,-2.50088,0.0288315,-4.57439,-2.52922,0.00819564,-4.65867,-0.495917,-0.760815,-0.707555,-0.736431,0.168378,0.432695,-0.473988,1
1.42794,-0.678621,-2.0768,-1.50095,2.73215,1.85921,-0.587546,1.42794,-0.678621,-2.0768,-1.50095,2.73215,1.85921,-0.587546,1.47977,-0.602066,-2.00605,-1.4275,2.71278,1.82004,-0.538764,-0.858847,-1.25154,-1.15467,-1.19765,0.264169,0.669213,-0.805347,-0.858847,-1.25154,-1.15467,-1.19765,0.264169,0.669213,-0.805347,0.292781,-0.432404,0.789444,0.517758,-0.0648465,-0.0565636,0.851188,-0.458356,-0.904393,-1.13003,0.192189,-0.436452,0.668399,-2.45881,0.038787,-4.4779,-2.52783,0.0248957,-4.75383,-0.518269,-0.765548,-0.707469,-0.734541,0.193647,0.391651,-0.487819,1
1.41906,-0.690181,-2.08753,-1.51238,2.73607,1.85916,-0.596831,1.41906,-0.690181,-2.08753,-1.51238,2.73607,1.85916,-0.596831,1.47199,-0.613839,-2.01696,-1.43883,2.71532,1.82661,-0.546153,-0.787709,-1.23475,-1.14868,-1.19537,0.270361,0.714767,-0.757152,-0.787709,-1.23475,-1.14868,-1.19537,0.270361,0.714767,-0.757152,0.288722,-0.441313,0.778752,0.526673,-0.0580165,-0.061875,0.845825,-0.451627,-0.845161,-1.13112,0.166939,-0.436091,0.620966,-2.62496,0.0374877,-4.93096,-2.52013,0.0238258,-4.84708,-0.529295,-0.763422,-0.705686,-0.735442,0.207545,0.325514,-0.506783,1
1.41542,-0.701482,-2.09817,-1.52366,2.74014,1.86897,-0.602265,1.41542,-0.701482,-2.09817,-1.52366,2.74014,1.86897,-0.602265,1.4642,-0.625595,-2.02785,-1.45015,2.71817,1.8329,-0.553537,-0.85228,-1.24634,-1.15045,-1.19404,0.328564,0.618347,-0.799356,-0.85228,-1.24634,-1.15045,-1.19404,0.328564,0.618347,-0.799356,0.284472,-0.450028,0.767978,0.535501,-0.0510363,-0.0673646,0.840295,-0.494335,-0.853719,-1.144,0.141121,-0.435863,0.572951,-2.55656,0.0225826,-4.7547,-2.53663,0.0331753,-4.93698,-0.487799,-0.758876,-0.703246,-0.735082,0.219746,0.360669,-0.487278,1
1.41079,-0.712701,-2.10888,-1.53497,2.74533,1.87562,-0.607997,1.41079,-0.712701,-2.10888,-1.53497,2.74533,1.87562,-0.607997,1.45604,-0.637377,-2.03873,-1.46148,2.72137,1.83814,-0.56129,-0.869295,-1.24114,-1.14691,-1.19642,0.345613,0.494168,-0.835367,-0.869295,-1.24114,-1.14691,-1.19642,0.345613,0.494168,-0.835367,0.279973,-0.458741,0.757108,0.544535,-0.0435002,-0.0730694,0.834416,-0.508863,-0.837,-1.14931,0.115952,-0.43622,0.523496,-2.44855,-0.0347737,-4.81115,-2.54396,0.0185329,-5.02868,-0.452498,-0.753245,-0.701506,-0.734894,0.239643,0.374852,-0.467063,1
1.40049,-0.724714,-2.11953,-1.54622,2.74986,1.87509,-0.617552,1.40049,-0.724714,-2.11953,-1.54622,2.74986,1.87509,-0.617552,1.44829,-0.649087,-2.04957,-1.47281,2.72473,1.84336,-0.568944,-0.77255,-1.23152,-1.14232,-1.19531,0.3624,0.601926,-0.783197,-0.77255,-1.23152,-1.14232,-1.19531,0.3624,0.601926,-0.783197,0.275462,-0.467057,0.746176,0.553237,-0.0359422,-0.0788577,0.828503,-0.49408,-0.770023,-1.15325,0.0909167,-0.436662,0.473372,-2.54104,-0.0448135,-5.08746,-2.53531,-0.00550032,-5.12523,-0.477999,-0.756268,-0.699566,-0.734192,0.25133,0.317298,-0.486082,1
1.3934,-0.735996,-2.13009,-1.55767,2.75453,1.87811,-0.625371,1.3934,-0.735996,-2.13009,-1.55767,2.75453,1.87811,-0.625371,1.44126,-0.660707,-2.06038,-1.48413,2.72834,1.84916,-0.576186,-0.715948,-1.22203,-1.13985,-1.19485,0.399275,0.621942,-0.74765,-0.715948,-1.22203,-1.13985,-1.19485,0.399275,0.621942,-0.74765,0.271011,-0.474845,0.735191,0.561385,-0.0286675,-0.0847547,0.822704,-0.487985,-0.723809,-1.15654,0.0660784,-0.436932,0.422276,-2.43848,-0.026543,-5.01633,-2.51925,-0.0248158,-5.21959,-0.478531,-0.752889,-0.697051,-0.735466,0.261903,0.289533,-0.491852,1
1.39066,-0.747286,-2.14039,-1.56914,2.76298,1.88657,-0.630078,1.39066,-0.747286,-2.14039,-1.56914,2.76298,1.88657,-0.630078,1.4341,-0.672331,-2.07117,-1.49544,2.73221,1.85438,-0.58353,-0.789956,-1.23117,-1.13668,-1.19356,0.414927,0.486762,-0.799636,-0.789956,-1.23117,-1.13668,-1.19356,0.414927,0.486762,-0.799636,0.266395,-0.482483,0.72413,0.569509,-0.0210853,-0.0907959,0.816683,-0.526574,-0.729163,-1.16576,0.0413317,-0.43695,0.370493,-2.51155,-0.00175127,-5.25547,-2.49453,-0.0288504,-5.31136,-0.434449,-0.749547,-0.692273,-0.736951,0.307793,0.321912,-0.465486,1
1.38331,-0.759348,-2.15093,-1.5805,2.77126,1.89012,-0.637154,1.38331,-0.759348,-2.15093,-1.5805,2.77126,1.89012,-0.637154,1.42666,-0.683955,-2.08191,-1.50676,2.73621,1.85882,-0.591131,-0.781649,-1.22313,-1.13226,-1.19654,0.430573,0.453416,-0.804755,-0.781649,-1.22313,-1.13226,-1.19654,0.430573,0.453416,-0.804755,0.261571,-0.490012,0.712994,0.577712,-0.0131011,-0.0969388,0.810358,-0.534774,-0.697054,-1.16903,0.016318,-0.436846,0.31759,-2.48661,0.0103337,-5.25906,-2.48853,-0.015381,-5.39691,-0.433517,-0.753924,-0.690145,-0.737363,0.350447,0.313014,-0.460228,1
1.37427,-0.771354,-2.1615,-1.59189,2.77615,1.89278,-0.64662,1.37427,-0.771354,-2.1615,-1.59189,2.77615,1.89278,-0.64662,1.41974,-0.695512,-2.0926,-1.51811,2.74075,1.86356,-0.598449,-0.683628,-1.21684,-1.12338,-1.19919,0.522499,0.540883,-0.743389,-0.683628,-1.21684,-1.12338,-1.19919,0.522499,0.540883,-0.743389,0.256773,-0.497122,0.701798,0.585493,-0.00524408,-0.103326,0.804049,-0.514792,-0.638896,-1.17343,-0.00849961,-0.436731,0.263754,-2.43786,0.0112944,-5.28839,-2.48593,-0.000507236,-5.48922,-0.454739,-0.758421,-0.689049,-0.73779,0.353943,0.29221,-0.481709,1
1.36921,-0.782817,-2.17172,-1.60327,2.78349,1.89855,-0.652351,1.36921,-0.782817,-2.17172,-1.60327,2.78349,1.89855,-0.652351,1.41318,-0.707097,-2.10323,-1.52948,2.74605,1.86852,-0.605496,-0.701983,-1.22806,-1.1211,-1.19925,0.592417,0.507874,-0.744077,-0.701983,-1.22806,-1.1211,-1.19925,0.592417,0.507874,-0.744077,0.251903,-0.503933,0.690498,0.592967,0.0025273,-0.110097,0.797661,-0.539364,-0.625745,-1.18517,-0.0333339,-0.436425,0.209201,-2.52513,0.0310694,-5.54696,-2.48656,0.0123346,-5.5789,-0.439683,-0.757202,-0.684866,-0.737927,0.374332,0.300347,-0.468555,1
1.36456,-0.794504,-2.18187,-1.61449,2.79157,1.90383,-0.657271,1.36456,-0.794504,-2.18187,-1.61449,2.79157,1.90383,-0.657271,1.40627,-0.718771,-2.11385,-1.54084,2.75159,1.8731,-0.612799,-0.752183,-1.23587,-1.12008,-1.19988,0.577185,0.462466,-0.794894,-0.752183,-1.23587,-1.12008,-1.19988,0.577185,0.462466,-0.794894,0.246746,-0.510637,0.679082,0.600556,0.0105218,-0.11703,0.790902,-0.572383,-0.61191,-1.19349,-0.0582245,-0.436384,0.153778,-2.63389,0.00431733,-5.86468,-2.48764,0.0155109,-5.66819,-0.417114,-0.757327,-0.680277,-0.736529,0.399759,0.307287,-0.444716,1
