Afshin1997/kuka_rl_ros2/src/catch_and_throw/output_files/tm/nn_ema5.00_jvws1_realball_D22H17M26S02/recorded_data.csv
pure_target_joint_0,pure_target_joint_1,pure_target_joint_2,pure_target_joint_3,pure_target_joint_4,pure_target_joint_5,pure_target_joint_6,target_joint_0,target_joint_1,target_joint_2,target_joint_3,target_joint_4,target_joint_5,target_joint_6,pos_joint_0,pos_joint_1,pos_joint_2,pos_joint_3,pos_joint_4,pos_joint_5,pos_joint_6,vel_joint_0,vel_joint_1,vel_joint_2,vel_joint_3,vel_joint_4,vel_joint_5,vel_joint_6,vel_smooth_joint_0,vel_smooth_joint_1,vel_smooth_joint_2,vel_smooth_joint_3,vel_smooth_joint_4,vel_smooth_joint_5,vel_smooth_joint_6,ee_pos_x,ee_pos_y,ee_pos_z,ee_or_w,ee_or_x,ee_or_y,ee_or_z,ee_vel_x,ee_vel_y,ee_vel_z,ball_pos_x,ball_pos_y,ball_pos_z,ball_raw_vx,ball_raw_vy,ball_raw_vz,ball_ema_vx,ball_ema_vy,ball_ema_vz,action_0,action_1,action_2,action_3,action_4,action_5,action_6,command_published
1.78462,-1.02567,-1.82402,-1.15319,1.99273,1.18228,-0.863682,1.78462,-1.02567,-1.82402,-1.15319,1.99273,1.18228,-0.863682,1.78025,-1.06463,-1.81505,-1.11691,1.93728,1.11687,-0.916388,0,0,0,0,0,0,0,0,0,0,0,0,0,0,0.531024,-0.45445,0.694364,0.574606,0.175121,0.152567,0.784783,0,0,0,2.97677,-0.487785,0.282006,-3.37444,0.0580553,4.88485,-3.48032,0.0559425,4.56855,0.0437224,0.389532,-0.0897345,-0.36272,0.554556,0.654167,0.527064,1
1.75702,-1.031,-1.83334,-1.06453,1.9907,1.18321,-0.861656,1.75702,-1.031,-1.83334,-1.06453,1.9907,1.18321,-0.861656,1.78025,-1.06463,-1.81505,-1.11691,1.93728,1.11687,-0.916388,-7.8066e-07,1.06177e-07,6.7732e-07,5.337e-07,-1.13818e-06,-3.58114e-07,-3.37019e-07,-7.8066e-07,1.06177e-07,6.7732e-07,5.337e-07,-1.13818e-06,-3.58114e-07,-3.37019e-07,0.531024,-0.45445,0.694364,0.574606,0.175121,0.152567,0.784783,-4.04531e-07,-3.22075e-07,3.83781e-07,2.94371,-0.48706,0.331427,-3.30716,0.0725586,4.9443,-3.43255,0.060432,4.66895,-0.232264,0.336255,-0.182937,0.523791,0.534275,0.663453,0.547323,1
1.77972,-0.992668,-1.75687,-1.09453,1.99655,1.17577,-0.848624,1.77972,-0.992668,-1.75687,-1.09453,1.99655,1.17577,-0.848624,1.7807,-1.06053,-1.81599,-1.12073,1.94311,1.12375,-0.910846,0.0919548,0.81925,-0.188727,-0.762858,1.16632,1.37582,1.1085,0.0919548,0.81925,-0.188727,-0.762858,1.16632,1.37582,1.1085,0.530433,-0.452,0.695972,0.571078,0.172697,0.150737,0.788241,-0.068497,0.470346,0.295408,2.9107,-0.486902,0.380785,-3.33992,0.0159101,4.99335,-3.37253,0.0544637,4.71668,-0.00985282,0.678604,0.591262,0.261951,0.534376,0.520198,0.622219,1
1.72547,-0.990252,-1.76904,-1.09647,2.00225,1.17634,-0.835894,1.72547,-0.990252,-1.76904,-1.09647,2.00225,1.17634,-0.835894,1.77858,-1.05414,-1.81857,-1.11787,1.95278,1.13551,-0.901235,-0.506837,0.54398,-0.347155,1.25369,0.891308,1.12126,0.930273,-0.506837,0.54398,-0.347155,1.25369,0.891308,1.12126,0.930273,0.526571,-0.453123,0.700337,0.569811,0.167555,0.14603,0.791148,-0.601762,-0.638559,0.555681,2.8788,-0.487054,0.429713,-3.13158,-0.014882,4.80388,-3.30217,0.0351793,4.72938,-0.531095,0.638911,0.495283,0.214006,0.494691,0.408272,0.65341,1
1.77786,-0.977206,-1.75441,-1.07095,2.02437,1.19734,-0.847902,1.77786,-0.977206,-1.75441,-1.07095,2.02437,1.19734,-0.847902,1.77667,-1.0455,-1.81347,-1.1104,1.96095,1.14423,-0.891978,0.0716169,1.24179,1.33052,0.37293,0.836573,0.741219,1.01901,0.0716169,1.24179,1.33052,0.37293,0.836573,0.741219,1.01901,0.521619,-0.453373,0.709641,0.569412,0.159336,0.140446,0.794139,-0.290338,0.509616,1.28443,2.84591,-0.486533,0.479201,-3.30839,0.0523536,4.97863,-3.26615,0.0250846,4.72678,0.0118289,0.682942,0.590664,0.394531,0.634166,0.531121,0.440757,1
1.71668,-0.963068,-1.759,-1.0655,2.02254,1.2008,-0.824733,1.71668,-0.963068,-1.759,-1.0655,2.02254,1.2008,-0.824733,1.77158,-1.03472,-1.80347,-1.10744,1.96865,1.15057,-0.882,-1.08361,1.04517,0.809259,0.257825,0.789894,0.605494,1.08371,-1.08361,1.04517,0.809259,0.257825,0.789894,0.605494,1.08371,0.515769,-0.451862,0.720497,0.567562,0.150859,0.135305,0.798002,-0.745213,-0.178804,0.951755,2.81237,-0.485752,0.528605,-3.32417,0.0774794,4.89515,-3.27471,0.0298494,4.72774,-0.548942,0.716507,0.444748,0.419385,0.538887,0.502296,0.572672,1
1.77107,-0.954288,-1.73911,-1.05874,2.0336,1.21676,-0.822079,1.77107,-0.954288,-1.73911,-1.05874,2.0336,1.21676,-0.822079,1.7679,-1.02449,-1.79507,-1.10257,1.97767,1.15792,-0.874076,0.234063,1.11129,0.955864,0.743336,1.0977,0.926688,0.615195,0.234063,1.11129,0.955864,0.743336,1.0977,0.926688,0.615195,0.510101,-0.450773,0.730949,0.566659,0.142134,0.129736,0.801164,-0.297971,0.358522,1.16691,2.78039,-0.484101,0.576841,-3.21202,0.165774,4.84587,-3.27042,0.0690424,4.71006,0.0317462,0.701989,0.559658,0.438325,0.559359,0.588423,0.51997,1
1.70535,-0.941165,-1.74558,-1.05176,2.03792,1.21343,-0.806046,1.70535,-0.941165,-1.74558,-1.05176,2.03792,1.21343,-0.806046,1.76345,-1.01358,-1.78745,-1.0957,1.98678,1.16614,-0.866424,-1.09924,1.18721,0.668802,0.709695,0.840362,0.814831,0.979917,-1.09924,1.18721,0.668802,0.709695,0.840362,0.814831,0.979917,0.503497,-0.450449,0.741941,0.56696,0.132567,0.124189,0.803467,-0.870642,-0.272625,1.0839,2.74858,-0.482642,0.622892,-3.07572,0.141107,4.45199,-3.25966,0.112562,4.64,-0.580992,0.72414,0.418733,0.439407,0.511356,0.472922,0.603778,1
1.7534,-0.930993,-1.72231,-1.0486,2.05319,1.2316,-0.808987,1.7534,-0.930993,-1.72231,-1.0486,2.05319,1.2316,-0.808987,1.75985,-1.00259,-1.77969,-1.08897,1.99507,1.17472,-0.857837,0.263784,1.13533,0.953894,0.71055,0.905731,0.988041,0.840483,0.263784,1.13533,0.953894,0.71055,0.905731,0.988041,0.840483,0.497183,-0.449247,0.75287,0.566371,0.122582,0.119098,0.806234,-0.298964,0.447204,1.14806,2.71493,-0.483194,0.667968,-3.41512,-0.0559978,4.57446,-3.25764,0.0978953,4.51821,-0.0644721,0.715979,0.573817,0.403696,0.581156,0.568783,0.488499,1
1.69652,-0.918909,-1.72974,-1.04104,2.05606,1.22944,-0.788257,1.69652,-0.918909,-1.72974,-1.04104,2.05606,1.22944,-0.788257,1.75517,-0.991585,-1.77229,-1.08221,2.0032,1.18275,-0.849026,-1.1711,1.18511,0.627698,0.715818,0.815962,0.721125,1.01022,-1.1711,1.18511,0.627698,0.715818,0.815962,0.721125,1.01022,0.490425,-0.448471,0.763543,0.566042,0.112936,0.114281,0.808567,-0.903639,-0.272949,1.04837,2.68353,-0.482753,0.712101,-3.07209,0.0431333,4.31905,-3.23129,0.069052,4.38119,-0.586511,0.72676,0.425486,0.411737,0.528627,0.466887,0.607693,1
1.74543,-0.9084,-1.70892,-1.03859,2.06591,1.24948,-0.78915,1.74543,-0.9084,-1.70892,-1.03859,2.06591,1.24948,-0.78915,1.7503,-0.980469,-1.76452,-1.07581,2.01173,1.19077,-0.840771,0.0729328,1.16291,0.992051,0.639581,0.974504,0.959633,0.747054,0.0729328,1.16291,0.992051,0.639581,0.974504,0.959633,0.747054,0.483513,-0.447408,0.774196,0.565636,0.103157,0.109428,0.810827,-0.391788,0.421098,1.13463,2.64994,-0.482327,0.755576,-3.55358,0.0450427,4.59903,-3.25943,0.0343764,4.26677,-0.0486966,0.720686,0.556011,0.372234,0.541871,0.587104,0.516205,1
1.68812,-0.896712,-1.71449,-1.0283,2.07325,1.24759,-0.770776,1.68812,-0.896712,-1.71449,-1.0283,2.07325,1.24759,-0.770776,1.74494,-0.969339,-1.75689,-1.06959,2.02029,1.19868,-0.832257,-1.13792,1.18532,0.638166,0.671188,0.840878,0.722909,1.03422,-1.13792,1.18532,0.638166,0.671188,0.840878,0.722909,1.03422,0.476387,-0.446354,0.784633,0.565118,0.0934797,0.104729,0.812979,-0.892766,-0.195335,1.02177,2.61802,-0.481659,0.79778,-3.1927,0.0668057,4.22123,-3.26095,0.0283188,4.17382,-0.568177,0.726272,0.423942,0.412918,0.529653,0.489085,0.614818,1
1.72764,-0.885605,-1.69438,-1.02869,2.08269,1.26551,-0.772355,1.72764,-0.885605,-1.69438,-1.02869,2.08269,1.26551,-0.772355,1.74043,-0.958185,-1.74929,-1.06365,2.02845,1.20692,-0.823584,0.117459,1.17017,0.948924,0.588978,0.88044,1.00049,0.809338,0.117459,1.17017,0.948924,0.588978,0.88044,1.00049,0.809338,0.469619,-0.444521,0.79488,0.563966,0.0835459,0.100401,0.815403,-0.37345,0.496206,1.08691,2.58474,-0.481421,0.837988,-3.27451,0.0234078,3.95653,-3.25875,0.0463837,4.05719,-0.127923,0.725806,0.549033,0.349582,0.542335,0.585943,0.51229,1
1.67742,-0.874021,-1.69973,-1.01796,2.09112,1.26358,-0.753092,1.67742,-0.874021,-1.69973,-1.01796,2.09112,1.26358,-0.753092,1.7354,-0.947036,-1.74183,-1.05757,2.03669,1.2152,-0.81479,-1.11135,1.18283,0.642525,0.687956,0.859435,0.761288,1.03453,-1.11135,1.18283,0.642525,0.687956,0.859435,0.761288,1.03453,0.46254,-0.442822,0.804982,0.562888,0.0735829,0.0961512,0.817617,-0.897709,-0.142395,1.00628,2.55162,-0.481125,0.877614,-3.33908,0.0298901,3.99462,-3.29024,0.0416207,3.93438,-0.579825,0.730146,0.420997,0.396122,0.544348,0.483837,0.616981,1
1.71015,-0.86219,-1.68081,-1.02288,2.09691,1.28176,-0.753492,1.71015,-0.86219,-1.68081,-1.02288,2.09691,1.28176,-0.753492,1.73014,-0.93584,-1.73427,-1.05178,2.04497,1.22354,-0.806186,-0.05866,1.18075,0.937436,0.542756,0.886573,0.98655,0.795176,-0.05866,1.18075,0.937436,0.542756,0.886573,0.98655,0.795176,0.455352,-0.440908,0.814937,0.561699,0.0635508,0.0920453,0.819746,-0.451847,0.463319,1.05121,2.52013,-0.480427,0.916176,-3.21164,0.0711386,3.93282,-3.26024,0.0433403,3.81035,-0.1999,0.736502,0.534627,0.288978,0.519382,0.582204,0.526932,1
1.66672,-0.85114,-1.68343,-1.00982,2.11032,1.2783,-0.735109,1.66672,-0.85114,-1.68343,-1.00982,2.11032,1.2783,-0.735109,1.72436,-0.924612,-1.72688,-1.04605,2.05337,1.2317,-0.797419,-1.10321,1.18905,0.63818,0.660229,0.887331,0.749382,1.04182,-1.10321,1.18905,0.63818,0.660229,0.887331,0.749382,1.04182,0.447952,-0.439062,0.8247,0.560504,0.0536496,0.0880822,0.821705,-0.893863,-0.0857434,0.979357,2.48717,-0.479295,0.954604,-3.23404,0.111084,3.77066,-3.26314,0.0572205,3.71836,-0.576416,0.734722,0.434556,0.362284,0.569472,0.466024,0.6231,1
1.68923,-0.839119,-1.66707,-1.01565,2.11484,1.29637,-0.734966,1.68923,-0.839119,-1.66707,-1.01565,2.11484,1.29637,-0.734966,1.71845,-0.913287,-1.71948,-1.04097,2.0615,1.23996,-0.788628,-0.195076,1.20095,0.909033,0.425139,0.832112,0.982316,0.825806,-0.195076,1.20095,0.909033,0.425139,0.832112,0.982316,0.825806,0.440619,-0.436787,0.834209,0.558993,0.0437364,0.084514,0.823693,-0.489261,0.479633,0.996165,2.45404,-0.478945,0.992665,-3.34041,0.0353055,3.83733,-3.2586,0.0678229,3.66343,-0.292157,0.741685,0.524112,0.253234,0.533366,0.564049,0.536627,1
1.6542,-0.827456,-1.6671,-1.00491,2.12916,1.2908,-0.717179,1.6542,-0.827456,-1.6671,-1.00491,2.12916,1.2908,-0.717179,1.71222,-0.901943,-1.71205,-1.03599,2.06997,1.24793,-0.779694,-1.06961,1.19405,0.672754,0.6151,0.948385,0.713869,1.04789,-1.06961,1.19405,0.672754,0.6151,0.948385,0.713869,1.04789,0.433178,-0.434477,0.843572,0.557331,0.0339854,0.0809685,0.825634,-0.873184,-0.0113331,0.957835,2.42268,-0.477207,1.02821,-3.11958,0.172843,3.53604,-3.23976,0.0931704,3.57685,-0.580262,0.744878,0.449538,0.310824,0.591933,0.428663,0.625153,1
1.66547,-0.815612,-1.65359,-1.00627,2.13353,1.30926,-0.715091,1.66547,-0.815612,-1.65359,-1.00627,2.13353,1.30926,-0.715091,1.70552,-0.890556,-1.70463,-1.03139,2.07848,1.25588,-0.770795,-0.382963,1.20895,0.882698,0.370021,0.854479,0.951601,0.8421,-0.382963,1.20895,0.882698,0.370021,0.854479,0.951601,0.8421,0.425614,-0.432058,0.852719,0.5556,0.0242995,0.0776215,0.827462,-0.557573,0.443049,0.951589,2.39083,-0.476163,1.06239,-3.19198,0.104673,3.42608,-3.23088,0.106159,3.46043,-0.400557,0.749436,0.51038,0.251196,0.550456,0.533757,0.557033,1
1.6412,-0.803494,-1.64923,-1.00399,2.1487,1.30007,-0.699275,1.6412,-0.803494,-1.64923,-1.00399,2.1487,1.30007,-0.699275,1.69859,-0.87908,-1.69715,-1.02712,2.08723,1.26336,-0.761785,-1.04342,1.21334,0.706258,0.5221,0.985424,0.644755,1.04839,-1.04342,1.21334,0.706258,0.5221,0.985424,0.644755,1.04839,0.418085,-0.429456,0.861697,0.553632,0.0148792,0.0744273,0.829296,-0.836833,0.0790939,0.929198,2.35964,-0.474911,1.09634,-3.02812,0.121603,3.29622,-3.18259,0.115509,3.33206,-0.573886,0.755858,0.479138,0.231352,0.61464,0.367092,0.625094,1
1.64474,-0.792053,-1.63817,-1.00167,2.15268,1.31671,-0.694032,1.64474,-0.792053,-1.63817,-1.00167,2.15268,1.31671,-0.694032,1.69093,-0.867548,-1.68974,-1.02284,2.09605,1.27077,-0.752677,-0.598486,1.22065,0.849617,0.389451,0.880934,0.904557,0.883384,-0.598486,1.22065,0.849617,0.389451,0.880934,0.904557,0.883384,0.41026,-0.426964,0.870543,0.5518,0.00549887,0.0713944,0.830897,-0.648482,0.377921,0.925341,2.32713,-0.474441,1.12916,-3.35591,0.048495,3.38744,-3.16853,0.113052,3.21128,-0.461943,0.754949,0.515635,0.211752,0.566368,0.459352,0.586452,1
1.62656,-0.779425,-1.63403,-1.00133,2.16748,1.30959,-0.680896,1.62656,-0.779425,-1.63403,-1.00133,2.16748,1.30959,-0.680896,1.68331,-0.855924,-1.68208,-1.0193,2.10511,1.27747,-0.743524,-0.989532,1.23229,0.771949,0.359838,1.02442,0.531138,1.03999,-0.989532,1.23229,0.771949,0.359838,1.02442,0.531138,1.03999,0.402728,-0.42404,0.879174,0.549475,-0.00345804,0.0685534,0.832686,-0.76481,0.201662,0.890703,2.2954,-0.47324,1.16094,-3.12405,0.118202,3.12844,-3.1827,0.0965691,3.12231,-0.567507,0.764997,0.480435,0.179655,0.623696,0.321132,0.626288,1
1.62319,-0.76807,-1.62378,-0.998379,2.17299,1.3203,-0.673627,1.62319,-0.76807,-1.62378,-0.998379,2.17299,1.3203,-0.673627,1.67529,-0.844274,-1.67437,-1.016,2.11422,1.28373,-0.734156,-0.718048,1.22737,0.850694,0.336998,0.904139,0.775137,0.943047,-0.718048,1.22737,0.850694,0.336998,0.904139,0.775137,0.943047,0.395188,-0.421025,0.887625,0.546999,-0.0121461,0.0659261,0.834445,-0.668467,0.375898,0.888181,2.26341,-0.472336,1.1918,-3.22501,0.0911338,3.11125,-3.19092,0.0932419,3.03409,-0.520948,0.762041,0.505872,0.176246,0.587715,0.365751,0.605291,1
1.60959,-0.755162,-1.6179,-1.00086,2.18577,1.31183,-0.661618,1.60959,-0.755162,-1.6179,-1.00086,2.18577,1.31183,-0.661618,1.66729,-0.83254,-1.66672,-1.01311,2.12344,1.28955,-0.724779,-0.957364,1.24839,0.768281,0.276834,1.03517,0.470956,1.03141,-0.957364,1.24839,0.768281,0.276834,1.03517,0.470956,1.03141,0.387871,-0.417721,0.895859,0.544259,-0.0205262,0.0635444,0.836255,-0.715567,0.279522,0.851119,2.23198,-0.471509,1.22188,-3.19352,0.084084,3.05681,-3.19044,0.0890827,2.93713,-0.57702,0.773782,0.488244,0.122548,0.623348,0.222821,0.631611,1
1.60438,-0.743706,-1.60846,-1.00306,2.19315,1.31819,-0.652599,1.60438,-0.743706,-1.60846,-1.00306,2.19315,1.31819,-0.652599,1.65882,-0.820762,-1.65913,-1.01045,2.13279,1.29467,-0.71527,-0.837302,1.23844,0.830791,0.283799,0.944713,0.602449,0.978764,-0.837302,1.23844,0.830791,0.283799,0.944713,0.602449,0.978764,0.380579,-0.414407,0.903906,0.541477,-0.0284678,0.0613802,0.837989,-0.677304,0.368808,0.848917,2.19977,-0.471076,1.24973,-3.18251,0.042766,2.75117,-3.18135,0.0846118,2.82072,-0.544406,0.770559,0.506735,0.0739691,0.603564,0.235215,0.626717,1
1.59499,-0.730879,-1.6001,-1.0078,2.20642,1.30949,-0.64178,1.59499,-0.730879,-1.6001,-1.0078,2.20642,1.30949,-0.64178,1.65029,-0.808905,-1.65147,-1.00831,2.14215,1.29889,-0.705709,-0.956634,1.26314,0.789014,0.17514,1.02535,0.304266,1.0363,-0.956634,1.26314,0.789014,0.17514,1.02535,0.304266,1.0363,0.373596,-0.410805,0.911748,0.538416,-0.0358645,0.0595311,0.839808,-0.659413,0.348654,0.8128,2.16746,-0.470807,1.27706,-3.20413,0.0266967,2.71015,-3.19515,0.0612724,2.70163,-0.553018,0.780258,0.513723,0.00510263,0.642784,0.106072,0.639291,1
1.58913,-0.719235,-1.59165,-1.00825,2.21466,1.30691,-0.631739,1.58913,-0.719235,-1.59165,-1.00825,2.21466,1.30691,-0.631739,1.64163,-0.796991,-1.64379,-1.00706,2.15161,1.30213,-0.695975,-0.875564,1.25238,0.830348,0.093966,0.976181,0.377377,1.01949,-0.875564,1.25238,0.830348,0.093966,0.976181,0.377377,1.01949,0.367028,-0.406901,0.919278,0.534946,-0.0425284,0.0580085,0.841819,-0.60574,0.429287,0.783798,2.13427,-0.470403,1.30375,-3.36998,0.0409626,2.7101,-3.22814,0.0456828,2.59083,-0.524959,0.77756,0.521407,-0.0119874,0.63043,0.0477182,0.642363,1
1.58218,-0.70642,-1.58276,-1.01331,2.22692,1.29255,-0.621759,1.58218,-0.70642,-1.58276,-1.01331,2.22692,1.29255,-0.621759,1.63322,-0.785025,-1.63587,-1.00676,2.16129,1.30442,-0.686194,-0.898599,1.2726,0.840739,-0.0244731,1.06088,0.119257,1.04387,-0.898599,1.2726,0.840739,-0.0244731,1.06088,0.119257,1.04387,0.361027,-0.402524,0.926536,0.530883,-0.0485022,0.0567122,0.844153,-0.551249,0.456293,0.756479,2.10428,-0.469207,1.33036,-2.95097,0.117681,2.61867,-3.20912,0.0527561,2.50984,-0.51037,0.786045,0.531054,-0.0655437,0.656291,-0.118638,0.644352,1
1.57918,-0.694398,-1.57261,-1.01976,2.23788,1.2797,-0.611801,1.57918,-0.694398,-1.57261,-1.01976,2.23788,1.2797,-0.611801,1.62499,-0.773011,-1.62785,-1.00701,2.17115,1.30516,-0.676288,-0.842669,1.26397,0.850982,-0.0291803,1.02269,0.041085,1.0471,-0.842669,1.26397,0.850982,-0.0291803,1.02269,0.041085,1.0471,0.355562,-0.397884,0.933596,0.52642,-0.0535496,0.0556443,0.84671,-0.508076,0.490962,0.741294,2.0727,-0.468132,1.35573,-3.15327,0.10741,2.53356,-3.17317,0.0748771,2.45314,-0.458077,0.78613,0.552451,-0.127438,0.667286,-0.254589,0.644871,1
1.5763,-0.682137,-1.56538,-1.02403,2.2508,1.2628,-0.603181,1.5763,-0.682137,-1.56538,-1.02403,2.2508,1.2628,-0.603181,1.61711,-0.760948,-1.6197,-1.00779,2.18111,1.304,-0.666362,-0.820966,1.28164,0.868261,-0.129737,1.07673,-0.268937,1.04836,-0.820966,1.28164,0.868261,-0.129737,1.07673,-0.268937,1.04836,0.350759,-0.392936,0.940482,0.521554,-0.057517,0.054837,0.849509,-0.431727,0.528617,0.719499,2.04111,-0.467321,1.37961,-3.17487,0.081473,2.39951,-3.1427,0.0924301,2.37092,-0.408093,0.788106,0.543227,-0.162349,0.696981,-0.41194,0.631803,1
1.59016,-0.670457,-1.55758,-1.03424,2.26335,1.25069,-0.595015,1.59016,-0.670457,-1.55758,-1.03424,2.26335,1.25069,-0.595015,1.60984,-0.748818,-1.61127,-1.00957,2.19139,1.30036,-0.656427,-0.72057,1.27912,0.90886,-0.23944,1.09269,-0.485744,1.0489,-0.72057,1.27912,0.90886,-0.23944,1.09269,-0.485744,1.0489,0.346912,-0.387526,0.947138,0.515999,-0.0600112,0.0542518,0.852761,-0.331467,0.598027,0.69042,2.00918,-0.466719,1.40254,-3.29014,0.0620053,2.36266,-3.13353,0.0925446,2.26832,-0.196789,0.783613,0.536921,-0.246705,0.71963,-0.496769,0.61412,1
1.61253,-0.659607,-1.55345,-1.0373,2.2761,1.24557,-0.586937,1.61253,-0.659607,-1.55345,-1.0373,2.2761,1.24557,-0.586937,1.60342,-0.736685,-1.60281,-1.01205,2.20201,1.29447,-0.646628,-0.637491,1.28211,0.879745,-0.281542,1.14688,-0.744321,1.02119,-0.637491,1.28211,0.879745,-0.281542,1.14688,-0.744321,1.02119,0.344034,-0.381727,0.95355,0.509858,-0.0611262,0.0538219,0.856394,-0.2484,0.624677,0.665588,1.97735,-0.46582,1.42455,-3.0951,0.0874384,2.14088,-3.17374,0.0818676,2.1519,0.0910138,0.770779,0.493591,-0.252485,0.740923,-0.489038,0.596907,1
1.60978,-0.649722,-1.55322,-1.01626,2.28775,1.2358,-0.57797,1.60978,-0.649722,-1.55322,-1.01626,2.28775,1.2358,-0.57797,1.59948,-0.724588,-1.59453,-1.01551,2.21305,1.28689,-0.637112,-0.219063,1.2723,0.868462,-0.440253,1.18222,-0.850811,0.989468,-0.219063,1.2723,0.868462,-0.440253,1.18222,-0.850811,0.989468,0.342744,-0.37499,0.959575,0.502457,-0.061013,0.0534945,0.860786,-0.0238584,0.798389,0.607625,1.94563,-0.464801,1.44571,-3.20378,0.102919,2.13707,-3.17885,0.081616,2.04897,0.103042,0.748655,0.413096,-0.00747857,0.747022,-0.510832,0.591416,1
1.59399,-0.635423,-1.55303,-1.00559,2.29615,1.23048,-0.566591,1.59399,-0.635423,-1.55303,-1.00559,2.29615,1.23048,-0.566591,1.59997,-0.71266,-1.58673,-1.01956,2.22442,1.27913,-0.627874,0.295066,1.24698,0.782315,-0.416824,1.21486,-0.789,0.962193,0.295066,1.24698,0.782315,-0.416824,1.21486,-0.789,0.962193,0.343416,-0.366775,0.96516,0.493094,-0.0604669,0.0531069,0.866246,0.163584,0.944337,0.570968,1.91378,-0.464229,1.46608,-3.20777,0.0576251,2.05114,-3.18186,0.081017,1.961,-0.0597894,0.772377,0.336983,0.13974,0.717322,-0.486572,0.612831,1
1.55978,-0.621298,-1.55383,-1.00719,2.30568,1.22203,-0.555149,1.55978,-0.621298,-1.55383,-1.00719,2.30568,1.22203,-0.555149,1.60218,-0.701049,-1.58008,-1.02088,2.23594,1.27142,-0.618774,0.178545,1.20642,0.63124,0.108757,1.21786,-0.837133,0.959064,0.178545,1.20642,0.63124,0.108757,1.21786,-0.837133,0.959064,0.344,-0.358983,0.970956,0.4841,-0.0603225,0.0522972,0.871363,-0.0107868,0.732167,0.646627,1.88217,-0.463383,1.48469,-3.08272,0.0824908,1.8147,-3.1759,0.0826353,1.85821,-0.424063,0.797518,0.262502,0.136891,0.697437,-0.493923,0.636253,1
1.54632,-0.609342,-1.54821,-1.00167,2.31775,1.21495,-0.546009,1.54632,-0.609342,-1.54821,-1.00167,2.31775,1.21495,-0.546009,1.60204,-0.689318,-1.57471,-1.01884,2.24715,1.26376,-0.609447,-0.189098,1.26678,0.509367,0.311463,1.15173,-0.782335,1.0073,-0.189098,1.26678,0.509367,0.311463,1.15173,-0.782335,1.0073,0.342856,-0.352848,0.977273,0.477381,-0.0608112,0.051489,0.875076,-0.194044,0.584577,0.683945,1.85003,-0.463144,1.50207,-3.2433,0.0241014,1.75413,-3.18118,0.0677031,1.74015,-0.557228,0.799761,0.264961,0.17169,0.705979,-0.488129,0.634382,1
1.53266,-0.597896,-1.53786,-1.00247,2.32909,1.20268,-0.534953,1.53266,-0.597896,-1.53786,-1.00247,2.32909,1.20268,-0.534953,1.59684,-0.677093,-1.57047,-1.01637,2.25791,1.25624,-0.599704,-0.871039,1.31144,0.391213,0.215622,1.12279,-0.804184,1.04724,-0.871039,1.31144,0.391213,0.215622,1.12279,-0.804184,1.04724,0.339973,-0.348333,0.983538,0.473134,-0.0611481,0.0514397,0.877359,-0.389152,0.381674,0.641127,1.81841,-0.46192,1.51807,-3.18588,0.123318,1.61172,-3.18206,0.068469,1.60706,-0.6418,0.791973,0.32608,0.138969,0.711764,-0.535563,0.647506,1
1.52444,-0.585944,-1.53423,-1.00201,2.34008,1.19539,-0.525008,1.52444,-0.585944,-1.53423,-1.00201,2.34008,1.19539,-0.525008,1.58804,-0.664718,-1.56656,-1.01396,2.2687,1.24868,-0.589865,-0.980639,1.30158,0.431395,0.288834,1.15275,-0.7928,1.03081,-0.980639,1.30158,0.431395,0.288834,1.15275,-0.7928,1.03081,0.335978,-0.344892,0.989684,0.470431,-0.0612601,0.0516762,0.87879,-0.446483,0.344864,0.655689,1.78679,-0.461377,1.53344,-3.13784,0.0538934,1.52525,-3.17739,0.071665,1.48094,-0.635989,0.787739,0.323296,0.119479,0.713768,-0.532924,0.648565,1
1.51528,-0.574646,-1.52777,-0.990588,2.3516,1.18648,-0.51645,1.51528,-0.574646,-1.52777,-0.990588,2.3516,1.18648,-0.51645,1.57829,-0.65248,-1.56182,-1.0116,2.27967,1.24067,-0.579963,-1.0725,1.28296,0.563059,0.214442,1.16167,-0.89278,1.05793,-1.0725,1.28296,0.563059,0.214442,1.16167,-0.89278,1.05793,0.331719,-0.341546,0.99586,0.467751,-0.0612739,0.0517331,0.880215,-0.447448,0.362147,0.647803,1.75556,-0.460522,1.54906,-3.16412,0.0866718,1.58311,-3.16445,0.0748956,1.40107,-0.630076,0.778336,0.34052,0.210075,0.719305,-0.541882,0.635135,1
1.50552,-0.562231,-1.52328,-0.991428,2.36247,1.17767,-0.505597,1.50552,-0.562231,-1.52328,-0.991428,2.36247,1.17767,-0.505597,1.56833,-0.640347,-1.55666,-1.00973,2.29067,1.23233,-0.569949,-1.03166,1.2787,0.527184,0.181387,1.16129,-0.868378,1.0563,-1.03166,1.2787,0.527184,0.181387,1.16129,-0.868378,1.0563,0.32766,-0.33801,1.00186,0.464767,-0.0610044,0.05182,0.881808,-0.41127,0.38629,0.619549,1.72347,-0.459576,1.56228,-3.17033,0.0934558,1.30524,-3.15974,0.0853562,1.31402,-0.628096,0.781157,0.333834,0.183008,0.717971,-0.54661,0.643514,1
1.49622,-0.550375,-1.51996,-0.986976,2.37377,1.17075,-0.495981,1.49622,-0.550375,-1.51996,-0.986976,2.37377,1.17075,-0.495981,1.55862,-0.628318,-1.55151,-1.00699,2.30173,1.22403,-0.560094,-1.01867,1.26146,0.558145,0.385502,1.17212,-0.882633,1.02577,-1.01867,1.26146,0.558145,0.385502,1.17212,-0.882633,1.02577,0.323497,-0.3345,1.00796,0.46191,-0.0609883,0.0517239,0.883314,-0.45976,0.360671,0.663834,1.69193,-0.458924,1.57415,-3.22948,0.0667093,1.21617,-3.16283,0.0779361,1.21007,-0.624011,0.779427,0.315491,0.200143,0.720408,-0.532788,0.64113,1
1.48628,-0.538491,-1.51561,-0.98372,2.38487,1.1625,-0.486311,1.48628,-0.538491,-1.51561,-0.98372,2.38487,1.1625,-0.486311,1.54896,-0.616318,-1.54631,-1.00381,2.31281,1.21562,-0.550256,-1.02093,1.27122,0.541282,0.291012,1.16718,-0.892024,1.04962,-1.02093,1.27122,0.541282,0.291012,1.16718,-0.892024,1.04962,0.319316,-0.330932,1.01407,0.459063,-0.0610412,0.0515741,0.884802,-0.417654,0.39501,0.628491,1.65992,-0.45884,1.58701,-3.19176,0.00842402,1.28212,-3.17379,0.0667244,1.12239,-0.626812,0.77827,0.307024,0.200897,0.720576,-0.531245,0.639452,1
1.47655,-0.526371,-1.51145,-0.982786,2.39603,1.15479,-0.476039,1.47655,-0.526371,-1.51145,-0.982786,2.39603,1.15479,-0.476039,1.53932,-0.604294,-1.54137,-1.00087,2.32389,1.20733,-0.540346,-1.01311,1.26725,0.503149,0.326669,1.17226,-0.859736,1.04272,-1.01311,1.26725,0.503149,0.326669,1.17226,-0.859736,1.04272,0.315352,-0.327214,1.01998,0.456108,-0.0609623,0.0515645,0.886335,-0.415477,0.393356,0.618783,1.62946,-0.457303,1.59776,-3.02632,0.152696,1.06784,-3.15753,0.0717378,1.02128,-0.627713,0.779224,0.299257,0.180883,0.721393,-0.525447,0.643064,1
1.46723,-0.514559,-1.50704,-0.980394,2.40739,1.14713,-0.466258,1.46723,-0.514559,-1.50704,-0.980394,2.40739,1.14713,-0.466258,1.52969,-0.5923,-1.53665,-0.997763,2.335,1.19918,-0.530488,-1.02034,1.26469,0.494528,0.33004,1.17207,-0.862041,1.03832,-1.02034,1.26469,0.494528,0.33004,1.17207,-0.862041,1.03832,0.31144,-0.323465,1.02579,0.453214,-0.0609081,0.0515761,0.887822,-0.406568,0.400518,0.607099,1.59834,-0.456399,1.60755,-3.03535,0.0881392,0.954773,-3.12716,0.0797391,0.941467,-0.62458,0.77741,0.296114,0.173689,0.723955,-0.520499,0.6423,1
1.45778,-0.502625,-1.50275,-0.978085,2.4187,1.13912,-0.456439,1.45778,-0.502625,-1.50275,-0.978085,2.4187,1.13912,-0.456439,1.52002,-0.580303,-1.53202,-0.994866,2.34611,1.19106,-0.520605,-1.02153,1.26758,0.483499,0.283922,1.17335,-0.852427,1.04745,-1.02153,1.26758,0.483499,0.283922,1.17335,-0.852427,1.04745,0.307712,-0.319578,1.03142,0.45022,-0.0607302,0.0516862,0.889349,-0.380468,0.421089,0.583184,1.56714,-0.455212,1.61622,-3.17921,0.120952,0.884145,-3.11158,0.0986445,0.846793,-0.622348,0.776782,0.292698,0.167817,0.725914,-0.519403,0.641659,1
1.44922,-0.490807,-1.49869,-0.976804,2.4302,1.13183,-0.446596,1.44922,-0.490807,-1.49869,-0.976804,2.4302,1.13183,-0.446596,1.51038,-0.568314,-1.52745,-0.992208,2.35725,1.18303,-0.510696,-1.01402,1.26343,0.479899,0.277664,1.1785,-0.843719,1.04444,-1.01402,1.26343,0.479899,0.277664,1.1785,-0.843719,1.04444,0.304189,-0.315535,1.03688,0.447079,-0.0604463,0.0518733,0.890941,-0.364742,0.433603,0.569111,1.53569,-0.454793,1.62351,-3.1618,0.0421115,0.732621,-3.10774,0.101835,0.71465,-0.611564,0.775075,0.287633,0.154037,0.72948,-0.511998,0.641008,1
1.44133,-0.479134,-1.49474,-0.974426,2.4417,1.1249,-0.437085,1.44133,-0.479134,-1.49474,-0.974426,2.4417,1.1249,-0.437085,1.50079,-0.556348,-1.52294,-0.989611,2.36843,1.17503,-0.500809,-1.01072,1.26266,0.474468,0.270901,1.18147,-0.844051,1.04283,-1.01072,1.26266,0.474468,0.270901,1.18147,-0.844051,1.04283,0.300824,-0.311375,1.04221,0.443845,-0.0600969,0.0520929,0.892567,-0.348544,0.445829,0.555675,1.50474,-0.454201,1.63015,-3.08347,0.0589561,0.661126,-3.12095,0.078088,0.607428,-0.594534,0.772138,0.281909,0.151844,0.732677,-0.501252,0.637243,1
1.43367,-0.467363,-1.49113,-0.972281,2.45318,1.11776,-0.42751,1.43367,-0.467363,-1.49113,-0.972281,2.45318,1.11776,-0.42751,1.49132,-0.5444,-1.51849,-0.987179,2.37966,1.16711,-0.490933,-0.989401,1.25962,0.465236,0.243856,1.18789,-0.829232,1.04206,-0.989401,1.25962,0.465236,0.243856,1.18789,-0.829232,1.04206,0.297674,-0.307069,1.04738,0.440465,-0.059654,0.0523605,0.894254,-0.321471,0.463882,0.535182,1.47336,-0.45371,1.6357,-3.09873,0.0484876,0.548102,-3.12376,0.0638849,0.502281,-0.576434,0.770369,0.273607,0.148982,0.735221,-0.493427,0.634231,1
1.42614,-0.455547,-1.48822,-0.970246,2.46459,1.11075,-0.417911,1.42614,-0.455547,-1.48822,-0.970246,2.46459,1.11075,-0.417911,1.4821,-0.532494,-1.51413,-0.984862,2.39094,1.15935,-0.481098,-0.958142,1.25412,0.455547,0.245268,1.19306,-0.809556,1.03445,-0.958142,1.25412,0.455547,0.245268,1.19306,-0.809556,1.03445,0.294749,-0.302612,1.05239,0.436911,-0.0591748,0.052648,0.896011,-0.301388,0.478144,0.521627,1.44238,-0.452769,1.64058,-3.10118,0.0942629,0.488457,-3.11846,0.0596917,0.408931,-0.559599,0.769469,0.259091,0.146161,0.73649,-0.485979,0.631871,1
1.41785,-0.443747,-1.48603,-0.967128,2.47606,1.10355,-0.408297,1.41785,-0.443747,-1.48603,-0.967128,2.47606,1.10355,-0.408297,1.47317,-0.520623,-1.50988,-0.982557,2.40226,1.15173,-0.471321,-0.928311,1.25178,0.440891,0.241514,1.19677,-0.798414,1.02971,-0.928311,1.25178,0.440891,0.241514,1.19677,-0.798414,1.02971,0.292027,-0.298018,1.05726,0.433216,-0.0586816,0.0529474,0.897818,-0.278739,0.492454,0.506952,1.41145,-0.451566,1.64488,-2.92127,0.113587,0.406482,-3.10828,0.0788641,0.331681,-0.553177,0.76876,0.238534,0.154288,0.737986,-0.481843,0.630239,1
1.40893,-0.431878,-1.48463,-0.965202,2.48745,1.09645,-0.398599,1.40893,-0.431878,-1.48463,-0.965202,2.48745,1.09645,-0.398599,1.46451,-0.508768,-1.50584,-0.980295,2.41361,1.14423,-0.461581,-0.901789,1.25087,0.41419,0.236195,1.19822,-0.786821,1.0264,-0.901789,1.25087,0.41419,0.236195,1.19822,-0.786821,1.0264,0.289527,-0.293307,1.06199,0.429409,-0.0581265,0.0532908,0.899661,-0.255883,0.503016,0.490419,1.38097,-0.450143,1.64838,-3.05373,0.142546,0.350753,-3.09443,0.102605,0.25651,-0.555818,0.7689,0.212103,0.150928,0.738475,-0.477802,0.629821,1
1.4,-0.420199,-1.48421,-0.963344,2.49889,1.09031,-0.388974,1.4,-0.420199,-1.48421,-0.963344,2.49889,1.09031,-0.388974,1.45599,-0.496922,-1.5021,-0.977965,2.42497,1.1368,-0.451868,-0.896377,1.24978,0.377657,0.254701,1.20073,-0.78148,1.02408,-0.896377,1.24978,0.377657,0.254701,1.20073,-0.78148,1.02408,0.287183,-0.288561,1.06658,0.42561,-0.0575104,0.0536768,0.901481,-0.246446,0.5001,0.479275,1.34965,-0.449765,1.65058,-3.14389,0.0379617,0.220799,-3.08832,0.105163,0.175726,-0.559881,0.767226,0.178869,0.146212,0.739169,-0.464874,0.628944,1
1.39071,-0.408603,-1.48612,-0.961028,2.51032,1.08482,-0.379417,1.39071,-0.408603,-1.48612,-0.961028,2.51032,1.08482,-0.379417,1.44745,-0.485078,-1.49875,-0.975603,2.43635,1.12943,-0.442166,-0.905504,1.25038,0.331858,0.244448,1.20112,-0.775135,1.02397,-0.905504,1.25038,0.331858,0.244448,1.20112,-0.775135,1.02397,0.28497,-0.283851,1.07103,0.421919,-0.0567841,0.0541278,0.903233,-0.230884,0.495183,0.459511,1.31836,-0.449117,1.65167,-3.31587,0.0686496,0.115628,-3.09855,0.0910461,0.0789354,-0.567413,0.764751,0.126283,0.145754,0.739747,-0.44604,0.627495,1
1.38074,-0.396986,-1.49174,-0.95988,2.52168,1.08031,-0.369926,1.38074,-0.396986,-1.49174,-0.95988,2.52168,1.08031,-0.369926,1.43884,-0.473249,-1.49589,-0.973335,2.44773,1.12221,-0.432473,-0.912781,1.2469,0.274539,0.234841,1.20232,-0.749749,1.02241,-0.912781,1.2469,0.274539,0.234841,1.20232,-0.749749,1.02241,0.282912,-0.279212,1.07528,0.418373,-0.0559228,0.0546647,0.904903,-0.216936,0.484734,0.437366,1.28741,-0.448189,1.65195,-3.10148,0.0929626,0.0277604,-3.10705,0.0777966,-0.0257017,-0.580996,0.76263,0.0414977,0.134553,0.73948,-0.418971,0.625473,1
1.36985,-0.385677,-1.50481,-0.95737,2.53268,1.08141,-0.360918,1.36985,-0.385677,-1.50481,-0.95737,2.53268,1.08141,-0.360918,1.43012,-0.461459,-1.49377,-0.971101,2.45913,1.11528,-0.4228,-0.926324,1.24234,0.179672,0.23676,1.20327,-0.7158,1.0197,-0.926324,1.24234,0.179672,0.23676,1.20327,-0.7158,1.0197,0.280974,-0.274745,1.07931,0.415098,-0.0549571,0.0552808,0.906431,-0.208095,0.458997,0.413417,1.25627,-0.447364,1.65153,-3.09495,0.0820019,-0.0414704,-3.11641,0.0713307,-0.12331,-0.602747,0.757816,-0.110494,0.137305,0.735552,-0.33866,0.618816,1
1.36084,-0.374716,-1.51608,-0.955525,2.54302,1.09816,-0.352871,1.36084,-0.374716,-1.51608,-0.955525,2.54302,1.09816,-0.352871,1.42122,-0.449705,-1.49283,-0.968973,2.47053,1.10873,-0.413157,-0.951514,1.23913,0.0256441,0.213723,1.20242,-0.668021,1.01614,-0.951514,1.23913,0.0256441,0.213723,1.20242,-0.668021,1.01614,0.279175,-0.270601,1.08304,0.412313,-0.0538075,0.0560253,0.907724,-0.192825,0.416229,0.375446,1.22469,-0.446896,1.6495,-3.14692,0.0467163,-0.202784,-3.12009,0.0749153,-0.223079,-0.603785,0.749892,-0.232508,0.134479,0.724911,-0.105769,0.60286,1
1.36027,-0.366977,-1.5329,-0.950376,2.5506,1.14822,-0.347876,1.36027,-0.366977,-1.5329,-0.950376,2.5506,1.14822,-0.347876,1.41201,-0.438011,-1.49399,-0.966897,2.48188,1.10319,-0.403596,-0.990966,1.23007,-0.254415,0.223922,1.19423,-0.511823,1.0031,-0.990966,1.23007,-0.254415,0.223922,1.19423,-0.511823,1.0031,0.277422,-0.267066,1.08636,0.41047,-0.0525985,0.0569636,0.908572,-0.201512,0.329301,0.328801,1.19631,-0.455832,1.62389,-2.90845,-0.915972,-2.62529,-3.06804,-0.121354,-0.780266,-0.517405,0.710339,-0.389131,0.165205,0.687208,0.450286,0.557198,1
1.33618,-0.35496,-1.55483,-0.951569,2.55264,1.15562,-0.33884,1.33618,-0.35496,-1.55483,-0.951569,2.55264,1.15562,-0.33884,1.40266,-0.42643,-1.49733,-0.964805,2.49309,1.10061,-0.394245,-0.982919,1.21551,-0.440744,0.218114,1.17356,-0.0576091,0.972473,-0.982919,1.21551,-0.440744,0.218114,1.17356,-0.0576091,0.972473,0.275411,-0.264022,1.08926,0.40957,-0.0523463,0.0581131,0.90892,-0.23274,0.298372,0.287523,1.16326,-0.444966,1.64185,-3.21279,1.05621,1.74622,-3.08242,-0.0201982,-0.678458,-0.664797,0.714699,-0.574941,0.132359,0.595577,0.550155,0.554059,1
1.32681,-0.340165,-1.55802,-0.995949,2.55325,1.12414,-0.330985,1.32681,-0.340165,-1.55802,-0.995949,2.55325,1.12414,-0.330985,1.39427,-0.415311,-1.50284,-0.962414,2.50383,1.10538,-0.385476,-0.79913,1.13607,-0.706678,0.282937,1.09916,1.00672,0.883763,-0.79913,1.13607,-0.706678,0.282937,1.09916,1.00672,0.883763,0.272598,-0.261079,1.09168,0.409265,-0.0553816,0.0594644,0.90879,-0.316206,0.279572,0.23468,1.13283,-0.44401,1.63677,-3.08587,0.0968772,-0.514994,-3.08302,0.0863814,-0.57169,-0.674577,0.751461,-0.551869,-0.335346,0.494155,0.187568,0.544906,1
1.31642,-0.329375,-1.55806,-1.01485,2.56993,1.11013,-0.316552,1.31642,-0.329375,-1.55806,-1.01485,2.56993,1.11013,-0.316552,1.38496,-0.404416,-1.51113,-0.960141,2.51337,1.1147,-0.377033,-1.14651,1.16244,-1.02697,0.201483,0.9232,0.961943,0.89772,-1.14651,1.16244,-1.02697,0.201483,0.9232,0.961943,0.89772,0.269169,-0.258811,1.09352,0.410712,-0.0599718,0.0616374,0.9077,-0.3483,0.136326,0.172452,1.10193,-0.442825,1.63094,-3.10429,0.119052,-0.586032,-3.09005,0.199623,-0.442329,-0.685419,0.750416,-0.469214,-0.547061,0.56565,-0.045677,0.604816,1
1.31153,-0.317584,-1.56102,-1.00943,2.58533,1.14774,-0.309684,1.31153,-0.317584,-1.56102,-1.00943,2.58533,1.14774,-0.309684,1.37425,-0.393006,-1.52018,-0.9631,2.52126,1.11954,-0.368597,-1.11516,1.24198,-0.889594,-0.772095,0.751948,0.108094,0.884036,-1.11516,1.24198,-0.889594,-0.772095,0.751948,0.108094,0.884036,0.268372,-0.256468,1.09392,0.41255,-0.0599441,0.0654601,0.9066,0.121459,0.280209,-0.0673523,1.07113,-0.441646,1.62344,-3.09906,0.118657,-0.754377,-3.117,0.30512,-0.31801,-0.627198,0.754215,-0.408437,-0.463291,0.640766,0.281974,0.589124,1
1.30572,-0.31334,-1.57844,-0.981609,2.59617,1.16651,-0.310137,1.30572,-0.31334,-1.57844,-0.981609,2.59617,1.16651,-0.310137,1.36371,-0.381342,-1.52772,-0.971633,2.52939,1.11899,-0.359584,-1.11152,1.22146,-0.712978,-1.01572,0.953002,-0.208132,1.01146,-1.11152,1.22146,-0.712978,-1.01572,0.953002,-0.208132,1.01146,0.270597,-0.25363,1.09301,0.412545,-0.0551159,0.069631,0.906598,0.229851,0.284085,-0.12349,1.03972,-0.440772,1.61563,-3.11994,0.0868713,-0.775989,-3.0878,0.107527,-0.857732,-0.579871,0.680015,-0.507213,-0.0997637,0.667807,0.475233,0.494471,1
1.2936,-0.301897,-1.59558,-0.981568,2.59014,1.18125,-0.306593,1.2936,-0.301897,-1.59558,-0.981568,2.59014,1.18125,-0.306593,1.35377,-0.369747,-1.53408,-0.979674,2.53908,1.12118,-0.350287,-0.992742,1.22605,-0.633269,-0.699372,1.08705,0.624368,0.95435,-0.992742,1.22605,-0.633269,-0.699372,1.08705,0.624368,0.95435,0.272243,-0.250469,1.09225,0.411372,-0.0520633,0.0729174,0.907053,0.0540172,0.349334,-0.0383917,1.00892,-0.440281,1.60658,-3.05192,0.0485758,-0.896791,-3.10024,0.0951195,-0.956946,-0.601727,0.678497,-0.615034,-0.0189463,0.510587,0.600769,0.436946,1
1.2789,-0.289645,-1.6086,-1.01767,2.58742,1.17872,-0.301087,1.2789,-0.289645,-1.6086,-1.01767,2.58742,1.17872,-0.301087,1.34474,-0.358907,-1.54128,-0.982677,2.54944,1.12844,-0.342244,-0.917211,1.071,-0.873525,0.0251099,1.09829,0.894712,0.754659,-0.917211,1.071,-0.873525,0.0251099,1.09829,0.894712,0.754659,0.271307,-0.247874,1.0926,0.411393,-0.0535199,0.0751625,0.906776,-0.229514,0.163467,0.113997,0.978323,-0.439462,1.59722,-3.11691,0.0834642,-0.953521,-3.0942,0.0809151,-1.04302,-0.658412,0.692618,-0.673239,-0.34995,0.379796,0.502809,0.41157,1
1.27048,-0.285846,-1.61918,-1.0351,2.60166,1.1877,-0.297081,1.27048,-0.285846,-1.61918,-1.0351,2.60166,1.1877,-0.297081,1.33569,-0.348624,-1.55049,-0.98246,2.55812,1.13758,-0.335474,-0.989407,1.09828,-1.05993,0.0209589,0.75276,1.02654,0.678832,-0.989407,1.09828,-1.05993,0.0209589,0.75276,1.02654,0.678832,0.268956,-0.246065,1.09348,0.41373,-0.0568587,0.0777537,0.905289,-0.235185,0.150282,0.0878507,0.947799,-0.438271,1.58634,-3.0696,0.119733,-1.09404,-3.08063,0.0805914,-1.12616,-0.652076,0.627775,-0.686971,-0.526395,0.435462,0.501212,0.383931,1
1.26039,-0.274728,-1.62858,-1.04087,2.61235,1.20266,-0.29203,1.26039,-0.274728,-1.62858,-1.04087,2.61235,1.20266,-0.29203,1.32576,-0.338024,-1.56084,-0.986079,2.56421,1.14602,-0.32914,-1.1013,1.13708,-1.12254,-0.742542,0.545436,0.768758,0.659329,-1.1013,1.13708,-1.12254,-0.742542,0.545436,0.768758,0.659329,0.26826,-0.244235,1.09309,0.416975,-0.0578507,0.0820594,0.903356,0.0483664,0.151842,-0.145103,0.91782,-0.437462,1.57464,-2.98009,0.0803994,-1.16311,-3.04928,0.0862807,-1.22222,-0.653708,0.632967,-0.677428,-0.547952,0.481389,0.566415,0.371097,1
1.25235,-0.266052,-1.63961,-1.04975,2.62236,1.2071,-0.285377,1.25235,-0.266052,-1.63961,-1.04975,2.62236,1.2071,-0.285377,1.31554,-0.327985,-1.57147,-0.994207,2.57033,1.15348,-0.323129,-1.05887,0.990394,-1.1214,-0.961106,0.736332,0.804351,0.612214,-1.05887,0.990394,-1.1214,-0.961106,0.736332,0.804351,0.612214,0.269248,-0.243071,1.09119,0.419879,-0.0562013,0.0863844,0.90171,0.0893882,0.0389694,-0.239607,0.887821,-0.436867,1.56174,-2.9625,0.0587686,-1.27371,-3.02706,0.0882727,-1.32257,-0.631834,0.619329,-0.681374,-0.55544,0.520264,0.536255,0.37752,1
1.24116,-0.257706,-1.65092,-1.06144,2.63116,1.20717,-0.28137,1.24116,-0.257706,-1.65092,-1.06144,2.63116,1.20717,-0.28137,1.3055,-0.318419,-1.58197,-1.00296,2.5777,1.16187,-0.317407,-1.06023,1.02689,-1.09566,-0.891046,0.814392,0.958646,0.596443,-1.06023,1.02689,-1.09566,-0.891046,0.814392,0.958646,0.596443,0.270148,-0.242367,1.08901,0.422439,-0.0547336,0.0899333,0.900257,0.0453427,0.0603573,-0.214028,0.857,-0.43586,1.54732,-3.04133,0.0994477,-1.42315,-3.02624,0.086087,-1.44398,-0.643328,0.607129,-0.689529,-0.584791,0.534552,0.453015,0.360376,1
1.23283,-0.247281,-1.66122,-1.07222,2.63879,1.21851,-0.277566,1.23283,-0.247281,-1.66122,-1.07222,2.63879,1.21851,-0.277566,1.29566,-0.3088,-1.59242,-1.01145,2.58566,1.17046,-0.311651,-1.01795,1.00473,-1.10919,-0.900188,0.862636,0.861121,0.617527,-1.01795,1.00473,-1.10919,-0.900188,0.862636,0.861121,0.617527,0.270876,-0.241737,1.0869,0.424846,-0.0534983,0.0931599,0.898869,0.0559256,0.0296895,-0.223055,0.826314,-0.435273,1.53206,-3.09663,0.0591879,-1.53947,-3.03789,0.0759935,-1.55872,-0.628332,0.615198,-0.688009,-0.607729,0.531315,0.480464,0.340847,1
1.22784,-0.241713,-1.67159,-1.08154,2.64862,1.23254,-0.277234,1.22784,-0.241713,-1.67159,-1.08154,2.64862,1.23254,-0.277234,1.28586,-0.299405,-1.60301,-1.02031,2.5939,1.17777,-0.305994,-1.05042,0.980056,-1.12607,-0.96669,0.875729,0.690968,0.578755,-1.05042,0.980056,-1.12607,-0.96669,0.875729,0.690968,0.578755,0.271799,-0.241584,1.08462,0.427365,-0.0514059,0.0960159,0.897495,0.0741851,-0.026194,-0.250174,0.795975,-0.434215,1.51593,-3.0544,0.106543,-1.62391,-3.05195,0.0808978,-1.67088,-0.580161,0.57691,-0.685782,-0.612268,0.547191,0.547684,0.287599,1
1.21733,-0.237923,-1.68286,-1.09206,2.65684,1.23712,-0.277373,1.21733,-0.237923,-1.68286,-1.09206,2.65684,1.23712,-0.277373,1.27607,-0.289999,-1.61364,-1.02964,2.60212,1.18482,-0.300687,-1.01639,1.00403,-1.11824,-1.00082,0.861768,0.791776,0.543423,-1.01639,1.00403,-1.11824,-1.00082,0.861768,0.791776,0.543423,0.272863,-0.241588,1.08217,0.430047,-0.0489656,0.0987875,0.896048,0.0810725,-0.00320729,-0.261714,0.765726,-0.432906,1.4993,-2.95968,0.12808,-1.62744,-3.05214,0.0956815,-1.76267,-0.587436,0.520762,-0.69226,-0.624229,0.547189,0.522953,0.233142,1
1.20821,-0.234712,-1.6937,-1.10338,2.66451,1.23841,-0.27955,1.20821,-0.234712,-1.6937,-1.10338,2.66451,1.23841,-0.27955,1.26693,-0.280902,-1.62421,-1.03911,2.61046,1.19301,-0.296045,-0.9188,0.921048,-1.11352,-0.997309,0.896711,0.929076,0.442122,-0.9188,0.921048,-1.11352,-0.997309,0.896711,0.929076,0.442122,0.273813,-0.241656,1.07958,0.43269,-0.0470667,0.10132,0.894594,0.06206,-0.0360186,-0.277726,0.735438,-0.431697,1.482,-3.11696,0.124347,-1.78073,-3.03711,0.106916,-1.83408,-0.587258,0.461898,-0.694927,-0.642719,0.540484,0.454004,0.164952,1
1.20657,-0.239965,-1.7042,-1.11356,2.67259,1.25064,-0.293476,1.20657,-0.239965,-1.7042,-1.11356,2.67259,1.25064,-0.293476,1.25804,-0.272694,-1.63484,-1.04867,2.61893,1.20137,-0.292312,-0.95675,0.817237,-1.12883,-1.01995,0.891054,0.840219,0.351102,-0.95675,0.817237,-1.12883,-1.01995,0.891054,0.840219,0.351102,0.27453,-0.242422,1.0768,0.435704,-0.0451925,0.103265,0.893004,0.0359874,-0.137149,-0.303764,0.704865,-0.4309,1.4635,-2.96096,0.0772448,-1.79156,-3.03435,0.112638,-1.91067,-0.514636,0.327291,-0.693596,-0.648905,0.536617,0.492747,-0.0116432,1
1.21217,-0.237116,-1.7135,-1.11953,2.68312,1.26198,-0.288467,1.21217,-0.237116,-1.7135,-1.11953,2.68312,1.26198,-0.288467,1.24897,-0.265428,-1.64555,-1.05851,2.62729,1.20863,-0.289564,-0.957996,0.72193,-1.13183,-1.05466,0.874787,0.699992,0.235356,-0.957996,0.72193,-1.13183,-1.05466,0.874787,0.699992,0.235356,0.275134,-0.244134,1.07378,0.43941,-0.0426134,0.104611,0.891156,0.0288698,-0.220823,-0.330295,0.674757,-0.430096,1.444,-3.11407,0.0831138,-2.01659,-3.03298,0.102429,-1.99667,-0.367994,0.283123,-0.679585,-0.610213,0.558319,0.533503,0.0109697,1
1.19653,-0.265633,-1.72445,-1.12825,2.68656,1.2661,-0.298288,1.19653,-0.265633,-1.72445,-1.12825,2.68656,1.2661,-0.298288,1.24067,-0.25986,-1.65625,-1.06852,2.63556,1.21585,-0.289033,-0.801439,0.46759,-1.12699,-1.05862,0.87043,0.817781,-0.104424,-0.801439,0.46759,-1.12699,-1.05862,0.87043,0.817781,-0.104424,0.275479,-0.246905,1.07045,0.443869,-0.0399891,0.10501,0.889019,-0.0115618,-0.341646,-0.373574,0.644732,-0.429692,1.42363,-3.03049,0.0408453,-2.05612,-3.0267,0.0802952,-2.09338,-0.441425,-0.0577273,-0.682055,-0.597335,0.509973,0.502544,-0.092546,1
1.18777,-0.284587,-1.73482,-1.13715,2.69072,1.27451,-0.311921,1.18777,-0.284587,-1.73482,-1.13715,2.69072,1.27451,-0.311921,1.23447,-0.255596,-1.66678,-1.07812,2.64405,1.22397,-0.289391,-0.524104,0.434347,-1.09821,-0.973192,0.918474,0.893222,0.0217316,-0.524104,0.434347,-1.09821,-0.973192,0.918474,0.893222,0.0217316,0.275621,-0.249936,1.06706,0.44781,-0.0381369,0.104593,0.887171,0.00453968,-0.278693,-0.348488,0.614889,-0.428961,1.40232,-2.8946,0.0709037,-2.06729,-3.01231,0.0668198,-2.1923,-0.466968,-0.289912,-0.680459,-0.590255,0.466753,0.50534,-0.225296,1
1.17368,-0.308818,-1.74528,-1.14353,2.69572,1.28409,-0.323119,1.17368,-0.308818,-1.74528,-1.14353,2.69572,1.28409,-0.323119,1.22838,-0.254912,-1.67724,-1.08729,2.65219,1.23198,-0.29024,-0.748537,-0.251961,-1.10959,-0.962756,0.807628,0.801994,-0.189144,-0.748537,-0.251961,-1.10959,-0.962756,0.807628,0.801994,-0.189144,0.2747,-0.255348,1.06327,0.452192,-0.0362505,0.102469,0.885273,-0.212122,-0.783047,-0.456302,0.584851,-0.42771,1.37992,-3.06591,0.12767,-2.2863,-2.99897,0.0751597,-2.28849,-0.547001,-0.539055,-0.680433,-0.562394,0.4353,0.521089,-0.328791,1
1.16135,-0.316517,-1.75766,-1.15488,2.6976,1.29166,-0.331559,1.16135,-0.316517,-1.75766,-1.15488,2.6976,1.29166,-0.331559,1.22111,-0.259042,-1.68774,-1.09639,2.65948,1.23966,-0.293277,-0.783636,-0.600399,-1.10667,-0.957984,0.734304,0.818952,-0.43819,-0.783636,-0.600399,-1.10667,-0.957984,0.734304,0.818952,-0.43819,0.272239,-0.264284,1.05873,0.458437,-0.0339481,0.0982558,0.882626,-0.318552,-1.00066,-0.518995,0.554816,-0.426765,1.35654,-2.94798,0.0927453,-2.29459,-2.99763,0.0864476,-2.38639,-0.597602,-0.574751,-0.699173,-0.584953,0.381223,0.51991,-0.382819,1
1.15386,-0.33399,-1.76885,-1.16784,2.70056,1.30315,-0.343201,1.15386,-0.33399,-1.76885,-1.16784,2.70056,1.30315,-0.343201,1.21299,-0.26668,-1.69822,-1.10518,2.66623,1.24762,-0.29817,-0.923891,-0.990422,-1.10618,-0.901363,0.693223,0.85732,-0.586415,-0.923891,-0.990422,-1.10618,-0.901363,0.693223,0.85732,-0.586415,0.268394,-0.27563,1.05364,0.466106,-0.0317341,0.0925059,0.879307,-0.488698,-1.26396,-0.578447,0.5249,-0.425526,1.33175,-3.04579,0.12613,-2.5232,-2.99736,0.10527,-2.49527,-0.59122,-0.673099,-0.706304,-0.626658,0.343317,0.55537,-0.45031,1
1.14537,-0.343004,-1.78015,-1.18014,2.7001,1.31372,-0.351073,1.14537,-0.343004,-1.78015,-1.18014,2.7001,1.31372,-0.351073,1.20386,-0.275886,-1.7089,-1.11401,2.6723,1.25568,-0.304029,-0.999075,-0.954998,-1.14598,-0.960552,0.59458,0.845608,-0.647084,-0.999075,-0.954998,-1.14598,-0.960552,0.59458,0.845608,-0.647084,0.263683,-0.288145,1.0481,0.474841,-0.0293883,0.0862573,0.875341,-0.507119,-1.25415,-0.613006,0.494945,-0.424192,1.30602,-2.94099,0.130928,-2.52696,-2.99839,0.117201,-2.60759,-0.584847,-0.671183,-0.712477,-0.661213,0.277984,0.5804,-0.470437,1
1.13338,-0.356366,-1.79175,-1.19153,2.69245,1.31991,-0.36061,1.13338,-0.356366,-1.79175,-1.19153,2.69245,1.31991,-0.36061,1.1946,-0.28582,-1.71979,-1.12352,2.67766,1.26406,-0.310739,-0.957474,-1.13221,-1.1531,-1.0418,0.538378,0.918918,-0.762999,-0.957474,-1.13221,-1.1531,-1.0418,0.538378,0.918918,-0.762999,0.258709,-0.301018,1.042,0.484069,-0.0267852,0.0799491,0.870958,-0.544753,-1.3307,-0.693211,0.464604,-0.42365,1.27955,-3.1374,0.0560991,-2.73724,-3.00363,0.10692,-2.7126,-0.612158,-0.705463,-0.719523,-0.680135,0.147891,0.558494,-0.498713,1
1.12084,-0.366091,-1.80421,-1.20486,2.66191,1.32461,-0.369748,1.12084,-0.366091,-1.80421,-1.20486,2.66191,1.32461,-0.369748,1.18559,-0.296366,-1.73076,-1.13365,2.68217,1.27296,-0.318035,-0.945285,-1.0962,-1.16092,-1.09273,0.421446,0.958056,-0.776525,-0.945285,-1.0962,-1.16092,-1.09273,0.421446,0.958056,-0.776525,0.253591,-0.313967,1.03537,0.493442,-0.024065,0.0737056,0.866316,-0.540048,-1.2778,-0.724571,0.434172,-0.422636,1.25213,-3.0387,0.101201,-2.73793,-3.01584,0.101329,-2.81034,-0.647504,-0.697245,-0.734501,-0.712171,-0.2026,0.516512,-0.517129,1
1.11083,-0.37249,-1.81524,-1.21822,2.64785,1.33372,-0.373278,1.11083,-0.37249,-1.81524,-1.21822,2.64785,1.33372,-0.373278,1.17632,-0.307065,-1.74182,-1.14411,2.68494,1.28173,-0.325621,-1.00907,-1.1588,-1.17351,-1.11473,0.176415,0.897284,-0.822394,-1.00907,-1.1588,-1.17351,-1.11473,0.176415,0.897284,-0.822394,0.24838,-0.326757,1.02838,0.503213,-0.0209433,0.068132,0.861218,-0.57338,-1.29904,-0.767357,0.404178,-0.421553,1.22358,-2.93991,0.106217,-2.79789,-3.02218,0.0950253,-2.9024,-0.654822,-0.654254,-0.734181,-0.741089,-0.37091,0.519867,-0.476572,1
1.09743,-0.386774,-1.82668,-1.22819,2.65695,1.33327,-0.38167,1.09743,-0.386774,-1.82668,-1.22819,2.65695,1.33327,-0.38167,1.16644,-0.317911,-1.75308,-1.15496,2.68322,1.28983,-0.333554,-1.07185,-1.13243,-1.20177,-1.17293,-0.50093,0.817409,-0.850715,-1.07185,-1.13243,-1.20177,-1.17293,-0.50093,0.817409,-0.850715,0.243334,-0.339229,1.02095,0.513877,-0.0168431,0.0644587,0.855273,-0.540647,-1.23583,-0.811751,0.374359,-0.420683,1.19401,-2.96513,0.0864773,-2.9405,-3.016,0.0911593,-2.99981,-0.690162,-0.68863,-0.736035,-0.732348,-0.262732,0.434348,-0.481154,1
1.08574,-0.401437,-1.83798,-1.23879,2.66648,1.32152,-0.388266,1.08574,-0.401437,-1.83798,-1.23879,2.66648,1.32152,-0.388266,1.1563,-0.328185,-1.76442,-1.16631,2.6775,1.29772,-0.341138,-1.06873,-1.04137,-1.19428,-1.22009,-0.696908,0.846104,-0.755452,-1.06873,-1.04137,-1.19428,-1.22009,-0.696908,0.846104,-0.755452,0.238703,-0.350831,1.01322,0.52476,-0.0120027,0.0628734,0.84884,-0.515102,-1.14185,-0.825903,0.345154,-0.419613,1.1638,-2.99569,0.109773,-3.09921,-2.98712,0.100273,-3.09616,-0.705637,-0.732524,-0.735576,-0.724781,-0.110229,0.238022,-0.471285,1
1.07869,-0.411175,-1.84889,-1.25173,2.66868,1.33688,-0.395265,1.07869,-0.411175,-1.84889,-1.25173,2.66868,1.33688,-0.395265,1.14583,-0.338515,-1.77575,-1.1777,2.67255,1.30485,-0.348424,-1.13777,-1.1343,-1.19701,-1.18683,-0.366589,0.668032,-0.781408,-1.13777,-1.1343,-1.19701,-1.18683,-0.366589,0.668032,-0.781408,0.233703,-0.362536,1.00533,0.535397,-0.00676887,0.0607764,0.842384,-0.611715,-1.23246,-0.846567,0.315637,-0.41862,1.13285,-2.92512,0.0984248,-3.06657,-2.96091,0.0997311,-3.18333,-0.671412,-0.726604,-0.731358,-0.740323,-0.0387188,0.320356,-0.468407,1
1.07437,-0.42184,-1.86034,-1.26493,2.67958,1.35784,-0.404693,1.07437,-0.42184,-1.86034,-1.26493,2.67958,1.35784,-0.404693,1.13496,-0.349673,-1.78709,-1.18888,2.67044,1.30927,-0.355743,-1.15686,-1.21667,-1.19621,-1.17311,-0.0932091,0.28789,-0.764443,-1.15686,-1.21667,-1.19621,-1.17311,-0.0932091,0.28789,-0.764443,0.227983,-0.375265,0.997225,0.545871,-0.000485089,0.0565963,0.835955,-0.662651,-1.31441,-0.874706,0.286548,-0.41745,1.10071,-2.92001,0.117439,-3.22614,-2.93979,0.102691,-3.26893,-0.605887,-0.721668,-0.732532,-0.760526,0.0913525,0.485615,-0.489501,1
1.05897,-0.434954,-1.87131,-1.27574,2.66433,1.34919,-0.41613,1.05897,-0.434954,-1.87131,-1.27574,2.66433,1.34919,-0.41613,1.12441,-0.361012,-1.79838,-1.20018,2.66988,1.31333,-0.362959,-1.07457,-1.17906,-1.18724,-1.21166,-0.0283665,0.553564,-0.759328,-1.07457,-1.17906,-1.18724,-1.21166,-0.0283665,0.553564,-0.759328,0.221952,-0.388012,0.988877,0.555817,0.00590556,0.0514816,0.829688,-0.666766,-1.22925,-0.896569,0.257976,-0.420215,1.06876,-2.80386,-0.271325,-3.13533,-2.91371,0.030998,-3.33576,-0.654377,-0.739418,-0.729333,-0.75555,-0.0555065,0.358567,-0.531702,1
1.04255,-0.433389,-1.88173,-1.28363,2.62177,1.3061,-0.421195,1.04255,-0.433389,-1.88173,-1.28363,2.62177,1.3061,-0.421195,1.11485,-0.372129,-1.80965,-1.21184,2.67079,1.32023,-0.370388,-0.951357,-1.16842,-1.19157,-1.24776,0.206562,0.88398,-0.80631,-0.951357,-1.16842,-1.19157,-1.24776,0.206562,0.88398,-0.80631,0.215697,-0.399999,0.980297,0.565027,0.0108904,0.0460273,0.823716,-0.680585,-1.1616,-0.922356,0.240171,-0.441414,1.0571,-1.78048,-2.11985,-1.16594,-2.67629,-0.45197,-2.97475,-0.722943,-0.612597,-0.72079,-0.717841,-0.490177,-0.141257,-0.508072,1
1.03066,-0.421439,-1.89167,-1.25862,2.61584,1.32688,-0.421479,1.03066,-0.421439,-1.89167,-1.25862,2.61584,1.32688,-0.421479,1.10516,-0.383414,-1.8209,-1.22356,2.67094,1.32681,-0.378426,-1.08564,-1.21142,-1.18482,-1.22647,-0.155235,0.525927,-0.886188,-1.08564,-1.21142,-1.18482,-1.22647,-0.155235,0.525927,-0.886188,0.209243,-0.41181,0.971467,0.574461,0.0161452,0.0407545,0.817357,-0.71218,-1.18592,-0.947195,0.222713,-0.473958,1.05288,-1.78404,-3.32566,-0.431178,-2.32228,-1.34641,-2.23546,-0.744963,-0.380256,-0.707719,-0.350647,-0.550932,0.000742986,-0.430529,1
1.03327,-0.424767,-1.89654,-1.2051,2.64718,1.39568,-0.439048,1.03327,-0.424767,-1.89654,-1.2051,2.64718,1.39568,-0.439048,1.09423,-0.393519,-1.83204,-1.23478,2.66514,1.32674,-0.386472,-1.21463,-0.937068,-1.16774,-1.14795,-1.01943,-0.485059,-0.816112,-1.21463,-0.937068,-1.16774,-1.14795,-1.01943,-0.485059,-0.816112,0.203715,-0.423121,0.962882,0.584856,0.024994,0.0380518,0.809858,-0.57306,-1.06474,-0.867518,0.211447,-0.499643,1.04388,-1.11718,-2.54704,-0.892438,-1.85467,-2.18129,-1.49537,-0.609582,-0.312481,-0.644934,0.296804,-0.179686,0.689409,-0.52576,1
1.03023,-0.418305,-1.89688,-1.18522,2.64466,1.39776,-0.436677,1.03023,-0.418305,-1.89688,-1.18522,2.64466,1.39776,-0.436677,1.08268,-0.400207,-1.84299,-1.24189,2.65588,1.32481,-0.393421,-1.2226,-0.499028,-1.14428,-0.393317,-0.940963,0.0487275,-0.659465,-1.2226,-0.499028,-1.14428,-0.393317,-0.940963,0.0487275,-0.659465,0.198191,-0.432062,0.956609,0.595767,0.0330421,0.0385972,0.801549,-0.713162,-0.749479,-0.467494,0.194793,-0.526639,1.03362,-1.65846,-2.68841,-1.0219,-1.5509,-2.71078,-1.035,-0.524563,-0.180979,-0.538958,0.566703,-0.112164,0.729494,-0.432563,1
1.03751,-0.433607,-1.90818,-1.17294,2.59866,1.40444,-0.425143,1.03751,-0.433607,-1.90818,-1.17294,2.59866,1.40444,-0.425143,1.07259,-0.404788,-1.8532,-1.23959,2.6512,1.33246,-0.400859,-0.924135,-0.469583,-1.0185,0.810627,-0.0944799,1.48587,-0.897555,-0.924135,-0.469583,-1.0185,0.810627,-0.0944799,1.48587,-0.897555,0.189713,-0.437853,0.954601,0.607032,0.0314053,0.039748,0.793061,-1.04769,-0.505459,0.0158219,0.179332,-0.555596,1.02343,-1.54253,-2.88897,-1.01728,-1.49597,-2.81045,-1.06615,-0.350792,-0.288195,-0.549839,0.666529,-0.52535,0.719819,-0.242839,1
1.0183,-0.440846,-1.91253,-1.1614,2.60826,1.4195,-0.434337,1.0183,-0.440846,-1.91253,-1.1614,2.60826,1.4195,-0.434337,1.06444,-0.408089,-1.86187,-1.23063,2.65013,1.34528,-0.40822,-0.804047,-0.240098,-0.822888,1.06736,-0.128525,1.23358,-0.668846,-0.804047,-0.240098,-0.822888,1.06736,-0.128525,1.23358,-0.668846,0.179879,-0.441189,0.955698,0.617651,0.0234395,0.0409744,0.785035,-0.935572,-0.306076,0.19932,0.164792,-0.583743,1.01169,-1.45332,-2.8135,-1.17335,-1.47956,-2.75523,-1.22851,-0.461323,-0.327562,-0.506601,0.692329,-0.418709,0.742221,-0.261175,1
1.01159,-0.45044,-1.91449,-1.15285,2.60121,1.43087,-0.433845,1.01159,-0.45044,-1.91449,-1.15285,2.60121,1.43087,-0.433845,1.05839,-0.411734,-1.87004,-1.22029,2.6442,1.35644,-0.412677,-0.490595,-0.514091,-0.896589,1.11285,-1.0704,1.12827,-0.292994,-0.490595,-0.514091,-0.896589,1.11285,-1.0704,1.12827,-0.292994,0.171399,-0.443641,0.957115,0.62659,0.016237,0.0443063,0.777919,-0.80023,-0.332762,0.103941,0.148632,-0.612449,0.998919,-1.62476,-2.88604,-1.28363,-1.55631,-2.82717,-1.31864,-0.467962,-0.387058,-0.444552,0.674357,-0.429917,0.744327,-0.211673,1
1.00978,-0.458564,-1.92217,-1.1421,2.59441,1.44183,-0.436843,1.00978,-0.458564,-1.92217,-1.1421,2.59441,1.44183,-0.436843,1.05221,-0.416854,-1.8781,-1.20964,2.63614,1.36759,-0.416128,-0.79682,-0.563884,-0.809374,1.13389,-0.655229,1.22011,-0.427971,-0.79682,-0.563884,-0.809374,1.13389,-0.655229,1.22011,-0.427971,0.162651,-0.446488,0.958093,0.635232,0.00938586,0.0480446,0.770768,-0.98804,-0.387911,0.105112,0.133827,-0.641385,0.98652,-1.49385,-2.91971,-1.25108,-1.52632,-2.86345,-1.3871,-0.424287,-0.417104,-0.440691,0.675421,-0.417234,0.742424,-0.207146,1
1.00356,-0.466701,-1.92756,-1.13255,2.59055,1.45371,-0.441169,1.00356,-0.466701,-1.92756,-1.13255,2.59055,1.45371,-0.441169,1.04474,-0.422643,-1.88516,-1.19913,2.62984,1.37913,-0.419705,-0.77926,-0.653309,-0.689316,1.08762,-0.672895,1.21615,-0.332332,-0.77926,-0.653309,-0.689316,1.08762,-0.672895,1.21615,-0.332332,0.15308,-0.449588,0.958894,0.643823,0.00215326,0.0507449,0.763487,-0.970205,-0.382505,0.068628,0.118953,-0.668782,0.971662,-1.46622,-2.7007,-1.46467,-1.51723,-2.84014,-1.48693,-0.411867,-0.440576,-0.42391,0.665842,-0.392961,0.745844,-0.214641,1
0.99677,-0.476559,-1.93421,-1.12317,2.58468,1.46512,-0.442207,0.99677,-0.476559,-1.93421,-1.12317,2.58468,1.46512,-0.442207,1.03795,-0.429037,-1.89181,-1.18878,2.62342,1.39059,-0.422838,-0.662087,-0.693996,-0.713325,1.0971,-0.681771,1.20429,-0.329168,-0.662087,-0.693996,-0.713325,1.0971,-0.681771,1.20429,-0.329168,0.143766,-0.452641,0.959408,0.651735,-0.00490332,0.0532869,0.756557,-0.936877,-0.375661,0.0458388,0.103663,-0.696816,0.956234,-1.53328,-2.81134,-1.54714,-1.51937,-2.82478,-1.58162,-0.411774,-0.475219,-0.423926,0.656123,-0.387414,0.74527,-0.193694,1
0.991718,-0.485684,-1.94047,-1.11379,2.58019,1.47662,-0.446753,0.991718,-0.485684,-1.94047,-1.11379,2.58019,1.47662,-0.446753,1.03168,-0.435776,-1.89843,-1.17847,2.61723,1.40205,-0.426083,-0.660964,-0.726839,-0.684548,1.07942,-0.627292,1.21422,-0.354561,-0.660964,-0.726839,-0.684548,1.07942,-0.627292,1.21422,-0.354561,0.134573,-0.455663,0.959703,0.659366,-0.0118651,0.0556537,0.749666,-0.94403,-0.373079,0.0239793,0.0887859,-0.724652,0.94091,-1.48602,-2.78043,-1.5307,-1.49855,-2.79838,-1.66305,-0.399627,-0.499081,-0.420381,0.646828,-0.37046,0.745681,-0.206695,1
0.985497,-0.496343,-1.94735,-1.10513,2.57554,1.48809,-0.447982,0.985497,-0.496343,-1.94735,-1.10513,2.57554,1.48809,-0.447982,1.02536,-0.442975,-1.90493,-1.16833,2.6113,1.41354,-0.429198,-0.672019,-0.789325,-0.688056,1.06161,-0.625644,1.21215,-0.305743,-0.672019,-0.789325,-0.688056,1.06161,-0.625644,1.21215,-0.305743,0.125243,-0.458789,0.959707,0.666804,-0.0186845,0.0577729,0.742756,-0.966097,-0.392417,-0.0134568,0.0742914,-0.753095,0.923421,-1.4476,-2.84062,-1.74664,-1.49238,-2.7929,-1.76951,-0.398652,-0.53368,-0.424185,0.632043,-0.357573,0.745495,-0.187841,1
0.979595,-0.506964,-1.95412,-1.0967,2.57155,1.49947,-0.450269,0.979595,-0.506964,-1.95412,-1.0967,2.57155,1.49947,-0.450269,1.01913,-0.450627,-1.91142,-1.15835,2.60552,1.42503,-0.432269,-0.644375,-0.82397,-0.682608,1.04727,-0.595442,1.21249,-0.340427,-0.644375,-0.82397,-0.682608,1.04727,-0.595442,1.21249,-0.340427,0.115834,-0.46202,0.959408,0.674078,-0.0253192,0.059689,0.735809,-0.964112,-0.392508,-0.0393162,0.0594393,-0.780049,0.904429,-1.48252,-2.6905,-1.8958,-1.48399,-2.78813,-1.87281,-0.395388,-0.563375,-0.426918,0.616424,-0.339733,0.744419,-0.180009,1
0.972409,-0.518102,-1.96178,-1.08911,2.56791,1.51077,-0.451076,0.972409,-0.518102,-1.96178,-1.08911,2.56791,1.51077,-0.451076,1.01302,-0.458733,-1.91794,-1.14856,2.59999,1.43651,-0.435284,-0.646794,-0.883954,-0.691364,1.02071,-0.574512,1.21223,-0.298455,-0.646794,-0.883954,-0.691364,1.02071,-0.574512,1.21223,-0.298455,0.10635,-0.465372,0.958782,0.681179,-0.0317568,0.0613601,0.728849,-0.982635,-0.412254,-0.0807241,0.0433636,-0.807478,0.884621,-1.59836,-2.72719,-1.96942,-1.49946,-2.76719,-1.99708,-0.406073,-0.593692,-0.438407,0.594452,-0.320716,0.74254,-0.157923,1
0.964382,-0.529643,-1.96986,-1.08267,2.56558,1.52172,-0.452079,0.964382,-0.529643,-1.96986,-1.08267,2.56558,1.52172,-0.452079,1.00691,-0.467344,-1.92451,-1.13902,2.5947,1.44799,-0.438055,-0.64205,-0.931195,-0.695883,0.994504,-0.544003,1.20999,-0.287083,-0.64205,-0.931195,-0.695883,0.994504,-0.544003,1.20999,-0.287083,0.0967328,-0.4689,0.957784,0.688089,-0.0379452,0.0627588,0.721911,-0.994126,-0.424476,-0.117484,0.0281384,-0.835099,0.863698,-1.54262,-2.7986,-2.11992,-1.52223,-2.75277,-2.13224,-0.425308,-0.622989,-0.453518,0.563435,-0.291149,0.737327,-0.140242,1
0.956849,-0.540436,-1.97766,-1.07649,2.56375,1.53286,-0.45265,0.956849,-0.540436,-1.97766,-1.07649,2.56375,1.53286,-0.45265,1.00071,-0.47641,-1.93121,-1.12979,2.5897,1.45943,-0.440574,-0.66527,-0.979946,-0.718354,0.956058,-0.512082,1.20657,-0.246861,-0.66527,-0.979946,-0.718354,0.956058,-0.512082,1.20657,-0.246861,0.0869445,-0.472614,0.956396,0.694858,-0.0438424,0.0638861,0.71496,-1.02018,-0.444515,-0.162131,0.013338,-0.863451,0.842766,-1.48947,-2.85327,-2.10655,-1.53208,-2.75763,-2.22041,-0.438648,-0.640261,-0.464441,0.533024,-0.259531,0.734242,-0.120767,1
0.948863,-0.551673,-1.98648,-1.07099,2.56232,1.54382,-0.453287,0.948863,-0.551673,-1.98648,-1.07099,2.56232,1.54382,-0.453287,0.994229,-0.485932,-1.93815,-1.12101,2.58511,1.47082,-0.442772,-0.701552,-1.02741,-0.745242,0.900958,-0.459131,1.1965,-0.218759,-0.701552,-1.02741,-0.745242,0.900958,-0.459131,1.1965,-0.218759,0.0768964,-0.476573,0.954557,0.701543,-0.0493549,0.0646852,0.707967,-1.05126,-0.467779,-0.212759,-0.00239162,-0.890473,0.819799,-1.56357,-2.68605,-2.28296,-1.53687,-2.76822,-2.31114,-0.453661,-0.657411,-0.483221,0.50019,-0.227937,0.730068,-0.105155,1
0.941537,-0.562758,-1.99462,-1.0658,2.56099,1.55486,-0.454147,0.941537,-0.562758,-1.99462,-1.0658,2.56099,1.55486,-0.454147,0.98749,-0.495777,-1.94529,-1.11272,2.58103,1.48213,-0.444686,-0.720196,-1.0497,-0.760745,0.851597,-0.406185,1.19235,-0.187184,-0.720196,-1.0497,-0.760745,0.851597,-0.406185,1.19235,-0.187184,0.0666463,-0.480697,0.952301,0.708123,-0.054506,0.0651705,0.700959,-1.06576,-0.472664,-0.250907,-0.0173852,-0.9184,0.796438,-1.47183,-2.74139,-2.2932,-1.52028,-2.77217,-2.40264,-0.459527,-0.669813,-0.493239,0.46922,-0.200402,0.727333,-0.0946091,1
0.934205,-0.574422,-2.00322,-1.06316,2.56174,1.56538,-0.455219,0.934205,-0.574422,-2.00322,-1.06316,2.56174,1.56538,-0.455219,0.980544,-0.505857,-1.95267,-1.10492,2.57744,1.49339,-0.44634,-0.744645,-1.07686,-0.794626,0.797559,-0.35527,1.18534,-0.163285,-0.744645,-1.07686,-0.794626,0.797559,-0.35527,1.18534,-0.163285,0.0562365,-0.48493,0.949655,0.7146,-0.0593061,0.0653941,0.69394,-1.087,-0.483422,-0.29532,-0.0324841,-0.946448,0.772346,-1.53415,-2.84989,-2.44794,-1.51968,-2.77645,-2.49032,-0.463393,-0.685644,-0.505528,0.41761,-0.156913,0.719926,-0.088783,1
0.928139,-0.585103,-2.01074,-1.05834,2.56222,1.57645,-0.455378,0.928139,-0.585103,-2.01074,-1.05834,2.56222,1.57645,-0.455378,0.973461,-0.516152,-1.96026,-1.09761,2.57428,1.5046,-0.447815,-0.750355,-1.09544,-0.807487,0.747833,-0.312484,1.18138,-0.148838,-0.750355,-1.09544,-0.807487,0.747833,-0.312484,1.18138,-0.148838,0.0457155,-0.489239,0.946628,0.720977,-0.0637667,0.0653834,0.686914,-1.09244,-0.482674,-0.33203,-0.0468066,-0.976063,0.750786,-1.41759,-2.93121,-2.13388,-1.50382,-2.81199,-2.51412,-0.453223,-0.689508,-0.504763,0.392717,-0.120608,0.718464,-0.0756323,1
0.921486,-0.597159,-2.01944,-1.05859,2.56449,1.58643,-0.458266,0.921486,-0.597159,-2.01944,-1.05859,2.56449,1.58643,-0.458266,0.966329,-0.526666,-1.96801,-1.09099,2.57171,1.51572,-0.44919,-0.755048,-1.12248,-0.827581,0.654279,-0.234332,1.16725,-0.141711,-0.755048,-1.12248,-0.827581,0.654279,-0.234332,1.16725,-0.141711,0.0351668,-0.493639,0.943169,0.727204,-0.0678389,0.0650289,0.679958,-1.09422,-0.493593,-0.386886,-0.0615312,-1.00168,0.722638,-1.51759,-2.64033,-2.90113,-1.477,-2.80079,-2.59974,-0.448425,-0.704933,-0.514256,0.324055,-0.0722111,0.707112,-0.090765,1
0.916864,-0.609131,-2.02728,-1.06113,2.56665,1.59619,-0.460984,0.916864,-0.609131,-2.02728,-1.06113,2.56665,1.59619,-0.460984,0.95929,-0.537305,-1.97582,-1.08494,2.56978,1.52678,-0.450408,-0.732186,-1.12347,-0.82076,0.625243,-0.177574,1.16736,-0.116831,-0.732186,-1.12347,-0.82076,0.625243,-0.177574,1.16736,-0.116831,0.0246653,-0.498039,0.939368,0.733201,-0.0716468,0.0643539,0.673158,-1.08252,-0.477556,-0.406699,-0.0759607,-1.02991,0.695906,-1.39993,-2.73839,-2.59351,-1.46198,-2.78247,-2.70772,-0.42426,-0.718256,-0.514577,0.238093,-0.0313291,0.694049,-0.10576,1
0.911047,-0.621958,-2.03685,-1.07744,2.57272,1.60434,-0.46547,0.911047,-0.621958,-2.03685,-1.07744,2.57272,1.60434,-0.46547,0.952383,-0.548097,-1.98369,-1.07967,2.56851,1.53773,-0.451702,-0.726208,-1.15317,-0.840195,0.495417,-0.0944463,1.1448,-0.154288,-0.726208,-1.15317,-0.840195,0.495417,-0.0944463,1.1448,-0.154288,0.0142724,-0.50249,0.93515,0.739015,-0.0751,0.0632764,0.666493,-1.07069,-0.493662,-0.473843,-0.090432,-1.05658,0.666946,-1.45062,-2.67413,-2.90293,-1.4505,-2.74114,-2.85679,-0.413363,-0.738607,-0.531546,0.0222886,0.0421269,0.666083,-0.137683,1
0.907277,-0.634667,-2.04678,-1.09689,2.58235,1.61218,-0.472283,0.907277,-0.634667,-2.04678,-1.09689,2.58235,1.61218,-0.472283,0.94574,-0.559132,-1.99164,-1.07573,2.56794,1.54846,-0.453296,-0.678726,-1.17518,-0.83764,0.343219,-0.0303601,1.1218,-0.180702,-0.678726,-1.17518,-0.83764,0.343219,-0.0303601,1.1218,-0.180702,0.00416951,-0.50713,0.930305,0.744614,-0.0779385,0.0616236,0.66006,-1.02279,-0.503677,-0.541509,-0.105572,-1.08467,0.638347,-1.52436,-2.82769,-2.87956,-1.46431,-2.72112,-3.00571,-0.384628,-0.755349,-0.551435,-0.211536,0.144152,0.637252,-0.189873,1
0.904653,-0.647212,-2.05753,-1.11039,2.59097,1.6198,-0.481405,0.904653,-0.647212,-2.05753,-1.11039,2.59097,1.6198,-0.481405,0.939375,-0.570444,-1.99975,-1.07454,2.56832,1.55883,-0.455299,-0.665829,-1.2108,-0.872005,-0.0681313,0.103541,1.06969,-0.239058,-0.665829,-1.2108,-0.872005,-0.0681313,0.103541,1.06969,-0.239058,-0.00534067,-0.512221,0.924379,0.749866,-0.079575,0.0590206,0.654129,-0.947888,-0.558698,-0.70224,-0.121406,-1.11246,0.609862,-1.57432,-2.76279,-2.83209,-1.49361,-2.76311,-3.03111,-0.34722,-0.767684,-0.577889,-0.358509,0.226528,0.609701,-0.261054,1
0.902425,-0.659323,-2.06746,-1.12059,2.60102,1.62782,-0.490008,0.902425,-0.659323,-2.06746,-1.12059,2.60102,1.62782,-0.490008,0.933334,-0.582045,-2.00818,-1.07716,2.57021,1.56872,-0.458042,-0.612431,-1.23684,-0.907234,-0.463637,0.285418,1.02159,-0.334715,-0.612431,-1.23684,-0.907234,-0.463637,0.285418,1.02159,-0.334715,-0.0140851,-0.517986,0.917009,0.754761,-0.0796204,0.0549952,0.648824,-0.859597,-0.607812,-0.854338,-0.135083,-1.14068,0.578452,-1.38989,-2.86844,-3.19205,-1.49218,-2.77421,-3.11992,-0.309084,-0.772782,-0.592752,-0.434263,0.308076,0.59101,-0.31966,1
0.896473,-0.6709,-2.07752,-1.12545,2.60736,1.63818,-0.494184,0.896473,-0.6709,-2.07752,-1.12545,2.60736,1.63818,-0.494184,0.927865,-0.59385,-2.017,-1.08251,2.57354,1.57818,-0.461839,-0.545606,-1.25425,-0.952619,-0.655242,0.409832,0.978137,-0.459875,-0.545606,-1.25425,-0.952619,-0.655242,0.409832,0.978137,-0.459875,-0.022198,-0.524223,0.908548,0.759487,-0.07855,0.0497219,0.643846,-0.80683,-0.630099,-0.941028,-0.150374,-1.1673,0.545382,-1.55476,-2.70649,-3.36253,-1.49394,-2.77445,-3.23023,-0.313929,-0.770499,-0.605112,-0.429388,0.338245,0.599958,-0.32345,1
0.88793,-0.682412,-2.08787,-1.13004,2.61184,1.64839,-0.497478,0.88793,-0.682412,-2.08787,-1.13004,2.61184,1.64839,-0.497478,0.923006,-0.605757,-2.02612,-1.08914,2.57807,1.58732,-0.466643,-0.483713,-1.25899,-0.971473,-0.73914,0.539421,0.951966,-0.549171,-0.483713,-1.25899,-0.971473,-0.73914,0.539421,0.951966,-0.549171,-0.0299494,-0.530634,0.89949,0.764192,-0.0769871,0.0435545,0.638895,-0.774068,-0.629543,-0.984726,-0.165487,-1.19572,0.512511,-1.45499,-2.73583,-3.16455,-1.48798,-2.76942,-3.36152,-0.350761,-0.766549,-0.617417,-0.408963,0.337702,0.610707,-0.308352,1
0.883306,-0.694191,-2.0969,-1.13682,2.61731,1.65754,-0.501358,0.883306,-0.694191,-2.0969,-1.13682,2.61731,1.65754,-0.501358,0.918279,-0.617648,-2.03542,-1.09592,2.58331,1.59648,-0.471738,-0.51252,-1.2516,-0.989429,-0.694132,0.565331,0.98008,-0.527566,-0.51252,-1.2516,-0.989429,-0.694132,0.565331,0.98008,-0.527566,-0.0377457,-0.536902,0.890237,0.768917,-0.0754591,0.0370413,0.633798,-0.806378,-0.598543,-0.983245,-0.178862,-1.2239,0.477969,-1.35899,-2.86341,-3.50961,-1.45317,-2.77923,-3.49728,-0.349733,-0.765425,-0.614806,-0.408977,0.339997,0.610613,-0.296199,1
0.880625,-0.70594,-2.10603,-1.1427,2.62195,1.66719,-0.506847,0.880625,-0.70594,-2.10603,-1.1427,2.62195,1.66719,-0.506847,0.913035,-0.62947,-2.0449,-1.10229,2.58857,1.60586,-0.476557,-0.590064,-1.24431,-1.00996,-0.652248,0.546836,0.999543,-0.491713,-0.590064,-1.24431,-1.00996,-0.652248,0.546836,0.999543,-0.491713,-0.0459561,-0.542836,0.880982,0.773771,-0.0741227,0.030698,0.628365,-0.859772,-0.564834,-0.982679,-0.192609,-1.2493,0.447448,-1.37761,-2.54526,-3.05872,-1.43541,-2.73832,-3.49423,-0.324098,-0.764701,-0.611323,-0.404147,0.333794,0.613314,-0.302906,1
0.877619,-0.717509,-2.1155,-1.14713,2.6265,1.67751,-0.510273,0.877619,-0.717509,-2.1155,-1.14713,2.6265,1.67751,-0.510273,0.907546,-0.641258,-2.05441,-1.10853,2.59378,1.6153,-0.481134,-0.569739,-1.24409,-0.998681,-0.66486,0.552906,0.992819,-0.475332,-0.569739,-1.24409,-0.998681,-0.66486,0.552906,0.992819,-0.475332,-0.0543283,-0.548491,0.871654,0.778606,-0.072821,0.0244418,0.622795,-0.843727,-0.541721,-0.996224,-0.209511,-1.27651,0.415066,-1.68643,-2.71533,-3.23087,-1.45397,-2.72005,-3.45696,-0.29927,-0.762509,-0.610903,-0.385994,0.327211,0.622101,-0.291393,1
0.873422,-0.729434,-2.12531,-1.15376,2.63138,1.68675,-0.51434,0.873422,-0.729434,-2.12531,-1.15376,2.63138,1.68675,-0.51434,0.902434,-0.653041,-2.06383,-1.11478,2.59896,1.62473,-0.485741,-0.512578,-1.2433,-0.99167,-0.656129,0.540397,0.998011,-0.496073,-0.512578,-1.2433,-0.99167,-0.656129,0.540397,0.998011,-0.496073,-0.0624695,-0.55392,0.862223,0.783265,-0.071522,0.0181745,0.617293,-0.8101,-0.517998,-1.00321,-0.223237,-1.30465,0.377721,-1.37553,-2.82022,-3.74246,-1.46149,-2.70486,-3.52483,-0.290124,-0.763936,-0.614787,-0.389793,0.324253,0.620163,-0.285989,1
0.870535,-0.741673,-2.13502,-1.16383,2.63894,1.69456,-0.521121,0.870535,-0.741673,-2.13502,-1.16383,2.63894,1.69456,-0.521121,0.897772,-0.664798,-2.07324,-1.12081,2.60402,1.63428,-0.490307,-0.473662,-1.23887,-0.993247,-0.618501,0.52847,1.01609,-0.469269,-0.473662,-1.23887,-0.993247,-0.618501,0.52847,1.01609,-0.469269,-0.070383,-0.559087,0.852766,0.787753,-0.0703356,0.0120155,0.611845,-0.793582,-0.490411,-1.00051,-0.233746,-1.32609,0.342894,-1.04145,-2.12448,-3.45128,-1.40397,-2.59743,-3.59877,-0.272378,-0.768752,-0.61778,-0.430145,0.349266,0.60286,-0.308139,1
0.868174,-0.75358,-2.14484,-1.17125,2.64518,1.70333,-0.524934,0.868174,-0.75358,-2.14484,-1.17125,2.64518,1.70333,-0.524934,0.893315,-0.676556,-2.08269,-1.12675,2.60901,1.64386,-0.494713,-0.467561,-1.24283,-1.00176,-0.634811,0.525804,1.00792,-0.461292,-0.467561,-1.24283,-1.00176,-0.634811,0.525804,1.00792,-0.461292,-0.0781883,-0.564035,0.843217,0.792111,-0.0691519,0.0059154,0.606418,-0.786331,-0.472674,-1.01967,-0.253019,-1.35983,0.300917,-1.96304,-3.43617,-4.27563,-1.45056,-2.70642,-3.85233,-0.251418,-0.770241,-0.621536,-0.444932,0.36173,0.594682,-0.302213,1
0.865532,-0.765404,-2.15448,-1.1775,2.65151,1.71265,-0.52872,0.865532,-0.765404,-2.15448,-1.1775,2.65151,1.71265,-0.52872,0.889048,-0.688379,-2.0922,-1.13319,2.61426,1.65323,-0.499337,-0.435115,-1.25258,-1.00622,-0.71997,0.580061,0.971458,-0.511989,-0.435115,-1.25258,-1.00622,-0.71997,0.580061,0.971458,-0.511989,-0.0858114,-0.568913,0.833364,0.796386,-0.0676817,-0.000473821,0.600989,-0.754159,-0.46818,-1.06285,-0.264536,-1.38536,0.263402,-1.14016,-2.52788,-3.71388,-1.39832,-2.72875,-4.00132,-0.235154,-0.770245,-0.622779,-0.443105,0.372439,0.594256,-0.293829,1
0.864146,-0.776984,-2.1641,-1.18257,2.65643,1.72267,-0.531011,0.864146,-0.776984,-2.1641,-1.18257,2.65643,1.72267,-0.531011,0.88511,-0.700251,-2.10177,-1.14008,2.61984,1.66239,-0.504079,-0.398072,-1.2534,-1.01243,-0.732565,0.595716,0.962292,-0.490176,-0.398072,-1.2534,-1.01243,-0.732565,0.595716,0.962292,-0.490176,-0.0931832,-0.573715,0.823233,0.800508,-0.0659664,-0.00716517,0.595638,-0.729641,-0.451355,-1.0788,-0.279839,-1.41553,0.223242,-1.54325,-3.04238,-4.05014,-1.43992,-2.81021,-4.08449,-0.209649,-0.76733,-0.623314,-0.424904,0.365906,0.602854,-0.269326,1
0.860746,-0.788663,-2.17417,-1.18807,2.66148,1.73213,-0.533411,0.860746,-0.788663,-2.17417,-1.18807,2.66148,1.73213,-0.533411,0.881458,-0.712121,-2.11137,-1.14695,2.62555,1.67153,-0.508633,-0.374301,-1.25233,-1.01338,-0.718199,0.610013,0.966654,-0.472118,-0.374301,-1.25233,-1.01338,-0.718199,0.610013,0.966654,-0.472118,-0.100392,-0.57833,0.812996,0.804454,-0.0642417,-0.0139207,0.590367,-0.716885,-0.429045,-1.08404,-0.296809,-1.44334,0.179418,-1.69757,-2.78221,-4.38366,-1.52945,-2.90206,-4.24627,-0.207117,-0.765419,-0.628036,-0.411221,0.359296,0.606021,-0.247786,1
0.859749,-0.800864,-2.18391,-1.19823,2.66945,1.7396,-0.539941,0.859749,-0.800864,-2.18391,-1.19823,2.66945,1.7396,-0.539941,0.878139,-0.723956,-2.12097,-1.15357,2.63124,1.68077,-0.512876,-0.328883,-1.24633,-1.01373,-0.681596,0.591951,0.984731,-0.426234,-0.328883,-1.24633,-1.01373,-0.681596,0.591951,0.984731,-0.426234,-0.10742,-0.582702,0.802751,0.808203,-0.0626308,-0.0205754,0.585203,-0.690851,-0.404174,-1.07891,-0.310516,-1.46894,0.13685,-1.36182,-2.54321,-4.2293,-1.47267,-2.76209,-4.32118,-0.183898,-0.769081,-0.629404,-0.446629,0.382114,0.588267,-0.270647,1
