Afshin1997/kuka_rl_ros2/src/catch_and_throw/output_files/tm/poly_ema1.00_jvws1_simball_D11H10M33S56/recorded_data.csv
pure_target_joint_0,pure_target_joint_1,pure_target_joint_2,pure_target_joint_3,pure_target_joint_4,pure_target_joint_5,pure_target_joint_6,target_joint_0,target_joint_1,target_joint_2,target_joint_3,target_joint_4,target_joint_5,target_joint_6,pos_joint_0,pos_joint_1,pos_joint_2,pos_joint_3,pos_joint_4,pos_joint_5,pos_joint_6,vel_joint_0,vel_joint_1,vel_joint_2,vel_joint_3,vel_joint_4,vel_joint_5,vel_joint_6,vel_smooth_joint_0,vel_smooth_joint_1,vel_smooth_joint_2,vel_smooth_joint_3,vel_smooth_joint_4,vel_smooth_joint_5,vel_smooth_joint_6,ee_pos_x,ee_pos_y,ee_pos_z,ee_or_w,ee_or_x,ee_or_y,ee_or_z,ee_vel_x,ee_vel_y,ee_vel_z,ball_pos_x,ball_pos_y,ball_pos_z,ball_raw_vx,ball_raw_vy,ball_raw_vz,ball_ema_vx,ball_ema_vy,ball_ema_vz,action_0,action_1,action_2,action_3,action_4,action_5,action_6,command_published
-nan,-nan,-nan,-nan,-nan,-nan,-nan,nan,nan,nan,-nan,nan,nan,nan,1.78184,-1.07676,-1.82232,-1.12314,1.93548,1.11149,-0.916323,0,-1.19989e-05,0,-1.1977e-05,-1.91633e-05,0,0,0,-1.19989e-05,0,-1.1977e-05,-1.91633e-05,0,0,0.53981,-0.456602,0.691751,0.571296,0.185039,0.153359,0.784769,3.24265e-06,2.76575e-06,-9.91561e-06,0.00803585,1.61199,0.0111709,0.000477965,0.0013383,-0.00430168,0.000477965,0.0013383,-0.00430168,-nan,-nan,-nan,-nan,-nan,-nan,-nan,1
1.7269,-1.13547,-1.87583,-1.1918,1.97626,1.07144,-0.867144,1.71999,-1.08122,-1.82159,-1.13304,1.90674,1.16989,-0.903307,1.78184,-1.07676,-1.82232,-1.12314,1.93548,1.11149,-0.916323,0,-1.19989e-05,0,-1.1977e-05,-1.91633e-05,0,0,0,-1.19989e-05,0,-1.1977e-05,-1.91633e-05,0,0,0.53981,-0.456602,0.691751,0.571296,0.185039,0.153359,0.784769,3.24265e-06,2.76575e-06,-9.91561e-06,0.00803585,1.61199,0.0111709,0.000477965,0.0013383,-0.00430168,0.000477965,0.0013383,-0.00430168,-0.5494,-0.587133,-0.535145,-0.68663,0.407863,-0.400481,0.491783,1
-nan,-nan,-nan,-nan,-nan,-nan,-nan,nan,nan,nan,-nan,nan,nan,nan,1.78184,-1.07676,-1.82232,-1.12314,1.93548,1.11149,-0.916323,0,-1.19989e-05,0,-1.1977e-05,-1.91633e-05,0,0,0,-1.19989e-05,0,-1.1977e-05,-1.91633e-05,0,0,0.53981,-0.456602,0.691751,0.571296,0.185039,0.153359,0.784769,3.24265e-06,2.76575e-06,-9.91561e-06,0.00803585,1.61199,0.0111709,0.000477965,0.0013383,-0.00430168,0.000477965,0.0013383,-0.00430168,-nan,-nan,-nan,-nan,-nan,-nan,-nan,1
-nan,-nan,-nan,-nan,-nan,-nan,-nan,nan,nan,nan,-nan,nan,nan,nan,1.78184,-1.07676,-1.82232,-1.12314,1.93548,1.11149,-0.916323,-2.39541e-05,2.39759e-05,0,0,3.83615e-05,0,-3.5953e-05,-2.39541e-05,2.39759e-05,0,0,3.83615e-05,0,-3.5953e-05,0.53981,-0.456602,0.691751,0.571296,0.185038,0.153359,0.784769,-1.37604e-05,-9.26847e-06,1.41237e-05,0.00802566,1.612,0.011172,0.000402759,0.0174529,-0.0210777,0.000402759,0.0174529,-0.0210777,-nan,-nan,-nan,-nan,-nan,-nan,-nan,1
-nan,-nan,-nan,-nan,-nan,-nan,-nan,nan,nan,nan,-nan,nan,nan,nan,1.78184,-1.07676,-1.82232,-1.12314,1.93548,1.11149,-0.916323,-2.39541e-05,0,0,2.39759e-05,0,-2.39541e-05,0,-2.39541e-05,0,0,2.39759e-05,0,-2.39541e-05,0,0.53981,-0.456602,0.691751,0.571296,0.185038,0.153359,0.784769,-1.21554e-05,-2.19768e-05,4.40697e-06,0.00801559,1.61201,0.0111803,0.000214738,0.00854178,-0.00297054,0.000214738,0.00854178,-0.00297054,-nan,-nan,-nan,-nan,-nan,-nan,-nan,1
-nan,-nan,-nan,-nan,-nan,-nan,-nan,nan,nan,nan,-nan,nan,nan,nan,1.78184,-1.07676,-1.82232,-1.12314,1.93548,1.11149,-0.916323,0,1.1977e-05,-1.19989e-05,-3.5953e-05,0,-2.39541e-05,0,0,1.1977e-05,-1.19989e-05,-3.5953e-05,0,-2.39541e-05,0,0.53981,-0.456602,0.691751,0.571296,0.185038,0.153359,0.784769,7.84926e-06,1.31888e-05,-7.48988e-06,0.00802947,1.61197,0.0111698,9.25098e-05,-0.00747017,0.00101761,9.25098e-05,-0.00747017,0.00101761,-nan,-nan,-nan,-nan,-nan,-nan,-nan,1
-nan,-nan,-nan,-nan,-nan,-nan,-nan,nan,nan,nan,-nan,nan,nan,nan,1.78184,-1.07676,-1.82232,-1.12314,1.93548,1.11149,-0.916323,0,0,3.5953e-05,-1.19989e-05,0,2.39541e-05,3.5953e-05,0,0,3.5953e-05,-1.19989e-05,0,2.39541e-05,3.5953e-05,0.53981,-0.456602,0.691751,0.571296,0.185038,0.153359,0.784769,-2.27471e-06,1.21023e-05,1.13366e-05,0.00802256,1.61197,0.011175,0.000137977,-0.00866955,0.000160973,0.000137977,-0.00866955,0.000160973,-nan,-nan,-nan,-nan,-nan,-nan,-nan,1
1.7269,-1.13547,-1.87583,-1.1918,1.97626,1.07144,-0.867145,1.71999,-1.08122,-1.82159,-1.13304,1.90674,1.16989,-0.903306,1.78184,-1.07676,-1.82232,-1.12314,1.93548,1.11149,-0.916323,2.39771e-05,0,0,0,3.83633e-05,2.39552e-05,3.59547e-05,2.39771e-05,0,0,0,3.83633e-05,2.39552e-05,3.59547e-05,0.53981,-0.456602,0.691751,0.571296,0.185038,0.153359,0.784769,7.20492e-06,9.30643e-06,2.09082e-06,0.00802757,1.61199,0.011181,0.0011782,0,0.00176109,0.0011782,0,0.00176109,-0.5494,-0.587127,-0.535129,-0.686628,0.407853,-0.40048,0.491778,1
-nan,-nan,-nan,-nan,-nan,-nan,-nan,nan,nan,nan,-nan,nan,nan,nan,1.78184,-1.07676,-1.82232,-1.12314,1.93548,1.11149,-0.916323,0,0,0,-1.19994e-05,0,3.59547e-05,0,0,0,0,-1.19994e-05,0,3.59547e-05,0,0.53981,-0.456602,0.691751,0.571297,0.185038,0.153359,0.784769,-1.93407e-06,5.86046e-06,-9.10575e-07,0.00801708,1.61198,0.0111938,-0.000567429,-0.00657754,0.00327719,-0.000567429,-0.00657754,0.00327719,-nan,-nan,-nan,-nan,-nan,-nan,-nan,1
-nan,-nan,-nan,-nan,-nan,-nan,-nan,nan,nan,nan,-nan,nan,nan,nan,1.78184,-1.07676,-1.82232,-1.12314,1.93548,1.11149,-0.916323,0,0,0,-1.19776e-05,0,0,3.59547e-05,0,0,0,-1.19776e-05,0,0,3.59547e-05,0.53981,-0.456602,0.691751,0.571296,0.185038,0.153359,0.784769,1.85005e-06,4.30231e-06,-2.84806e-06,0.00801636,1.61201,0.0111872,0.00319824,0.00124111,0.00289989,0.00319824,0.00124111,0.00289989,-nan,-nan,-nan,-nan,-nan,-nan,-nan,1
-nan,-nan,-nan,-nan,-nan,-nan,-nan,nan,nan,nan,-nan,nan,nan,nan,1.78184,-1.07676,-1.82232,-1.12314,1.93548,1.11149,-0.916323,0,-1.19776e-05,0,-1.19776e-05,0,0,-2.39552e-05,0,-1.19776e-05,0,-1.19776e-05,0,0,-2.39552e-05,0.53981,-0.456602,0.691751,0.571296,0.185038,0.153359,0.784769,2.61331e-06,7.39528e-07,-9.50559e-06,0.00802345,1.612,0.011157,0.000248951,0.000995803,-0.00390853,0.000248951,0.000995803,-0.00390853,-nan,-nan,-nan,-nan,-nan,-nan,-nan,1
1.69915,-1.01464,-1.79694,-1.14295,1.98881,1.03549,-0.884489,1.98683,-1.02569,-1.80314,-1.12423,1.98058,1.06009,-0.924544,1.78184,-1.07676,-1.82232,-1.12314,1.93548,1.11149,-0.916323,0,0,2.39552e-05,1.19776e-05,0,2.39771e-05,0,0,0,2.39552e-05,1.19776e-05,0,2.39771e-05,0,0.53981,-0.456602,0.691751,0.571296,0.185038,0.153359,0.784769,-5.44494e-06,1.23495e-06,1.27354e-05,0.00801964,1.61201,0.0111552,-0.00104434,-0.000888803,-0.00125543,-0.00104434,-0.000888803,-0.00125543,-0.826897,0.621159,0.253759,-0.198139,0.533328,-0.760027,0.318337,1
-nan,-nan,-nan,-nan,-nan,-nan,-nan,nan,nan,nan,-nan,nan,nan,nan,1.78184,-1.07676,-1.82232,-1.12314,1.93548,1.11149,-0.916323,1.19776e-05,-3.59547e-05,0,0,-3.83633e-05,0,3.59547e-05,1.19776e-05,-3.59547e-05,0,0,-3.83633e-05,0,3.59547e-05,0.53981,-0.456602,0.691751,0.571296,0.185038,0.153359,0.784769,9.03593e-06,-4.60025e-07,-2.07812e-05,0.00800796,1.61197,0.0111834,-0.00276829,-0.00369106,0.00679727,-0.00276829,-0.00369106,0.00679727,-nan,-nan,-nan,-nan,-nan,-nan,-nan,1
-nan,-nan,-nan,-nan,-nan,-nan,-nan,nan,nan,nan,-nan,nan,nan,nan,1.78184,-1.07676,-1.82232,-1.12314,1.93548,1.11149,-0.916323,2.39771e-05,0,2.39552e-05,0,1.91642e-05,0,-2.39552e-05,2.39771e-05,0,2.39552e-05,0,1.91642e-05,0,-2.39552e-05,0.53981,-0.456602,0.691751,0.571296,0.185038,0.153359,0.784769,9.28835e-06,1.48133e-05,8.9897e-06,0.00801898,1.61206,0.0111494,-0.00213998,0.0166722,-0.00630804,-0.00213998,0.0166722,-0.00630804,-nan,-nan,-nan,-nan,-nan,-nan,-nan,1
-nan,-nan,-nan,-nan,-nan,-nan,-nan,nan,nan,nan,-nan,nan,nan,nan,1.78184,-1.07676,-1.82232,-1.12314,1.93548,1.11149,-0.916323,2.39771e-05,0,0,-1.19776e-05,0,-3.59547e-05,3.59547e-05,2.39771e-05,0,0,-1.19776e-05,0,-3.59547e-05,3.59547e-05,0.53981,-0.456602,0.691751,0.571296,0.185038,0.153359,0.784769,-1.22425e-05,-1.64118e-05,7.96498e-07,0.00801928,1.612,0.0111719,0.0109374,0.0362013,-0.0402066,0.0109374,0.0362013,-0.0402066,-nan,-nan,-nan,-nan,-nan,-nan,-nan,1
1.7269,-1.13547,-1.87583,-1.1918,1.97626,1.07145,-0.867145,1.71999,-1.08122,-1.82159,-1.13304,1.90674,1.16989,-0.903307,1.78184,-1.07676,-1.82232,-1.12314,1.93548,1.11149,-0.916323,0,0,2.39552e-05,2.39771e-05,0,0,-1.19994e-05,0,0,2.39552e-05,2.39771e-05,0,0,-1.19994e-05,0.53981,-0.456602,0.691751,0.571297,0.185038,0.153359,0.784769,-1.24467e-05,-1.12266e-05,-7.44564e-06,0.00801296,1.61198,0.0111893,-0.0061646,-0.041611,0.0364097,-0.0061646,-0.041611,0.0364097,-0.549401,-0.587134,-0.53514,-0.686633,0.407857,-0.400473,0.491783,1
-nan,-nan,-nan,-nan,-nan,-nan,-nan,nan,nan,nan,-nan,nan,nan,nan,1.78184,-1.07676,-1.82232,-1.12314,1.93548,1.11149,-0.916323,-1.19776e-05,0,0,0,0,0,2.39552e-05,-1.19776e-05,0,0,0,0,0,2.39552e-05,0.53981,-0.456602,0.691751,0.571297,0.185038,0.153359,0.784769,-9.91631e-06,-1.6846e-05,-8.59181e-06,0.00800903,1.61197,0.0111991,-0.0294207,-0.00787315,0.0261057,-0.0294207,-0.00787315,0.0261057,-nan,-nan,-nan,-nan,-nan,-nan,-nan,1
-nan,-nan,-nan,-nan,-nan,-nan,-nan,nan,nan,nan,-nan,nan,nan,nan,1.78184,-1.07676,-1.82232,-1.12314,1.93548,1.11149,-0.916323,0,0,0,1.19994e-05,0,-2.39771e-05,-3.59547e-05,0,0,0,1.19994e-05,0,-2.39771e-05,-3.59547e-05,0.53981,-0.456602,0.691751,0.571297,0.185038,0.153359,0.784769,-5.48772e-06,-6.1657e-06,0,0.00800903,1.61197,0.0111991,-0.0294207,-0.00787315,0.0261057,-0.0294207,-0.00787315,0.0261057,-nan,-nan,-nan,-nan,-nan,-nan,-nan,1
-nan,-nan,-nan,-nan,-nan,-nan,-nan,nan,nan,nan,-nan,nan,nan,nan,1.78184,-1.07676,-1.82232,-1.12314,1.93548,1.11149,-0.916323,1.19776e-05,-2.39771e-05,0,-1.19994e-05,0,0,0,1.19776e-05,-2.39771e-05,0,-1.19994e-05,0,0,0,0.53981,-0.456602,0.691751,0.571297,0.185038,0.153359,0.784769,-2.78495e-06,3.06295e-06,1.41237e-05,0.00802095,1.61201,0.0111637,-0.0384858,0.0326434,0.00593517,-0.0384858,0.0326434,0.00593517,-nan,-nan,-nan,-nan,-nan,-nan,-nan,1
-nan,-nan,-nan,-nan,-nan,-nan,-nan,nan,nan,nan,-nan,nan,nan,nan,1.78184,-1.07676,-1.82232,-1.12314,1.93548,1.11149,-0.916323,-1.1977e-05,-2.39759e-05,0,0,0,0,-1.19989e-05,-1.1977e-05,-2.39759e-05,0,0,0,0,-1.19989e-05,0.53981,-0.456602,0.691751,0.571297,0.185038,0.153359,0.784769,-2.12427e-06,6.89103e-06,1.5384e-05,0.00804116,1.612,0.0111677,0.0100492,0.00643146,-0.0256253,0.0100492,0.00643146,-0.0256253,-nan,-nan,-nan,-nan,-nan,-nan,-nan,1
-nan,-nan,-nan,-nan,-nan,-nan,-nan,nan,nan,nan,-nan,nan,nan,nan,1.78184,-1.07676,-1.82232,-1.12314,1.93548,1.11149,-0.916323,-2.39759e-05,0,0,1.1977e-05,0,2.39759e-05,-1.19989e-05,-2.39759e-05,0,0,1.1977e-05,0,2.39759e-05,-1.19989e-05,0.53981,-0.456602,0.691751,0.571297,0.185038,0.153359,0.784769,-1.5279e-06,7.13206e-06,1.33272e-05,0.00802357,1.61199,0.0111939,-0.00715293,0.0114085,-0.0347687,-0.00715293,0.0114085,-0.0347687,-nan,-nan,-nan,-nan,-nan,-nan,-nan,1
-nan,-nan,-nan,-nan,-nan,-nan,-nan,nan,nan,nan,-nan,nan,nan,nan,1.78184,-1.07676,-1.82232,-1.12314,1.93548,1.11149,-0.916323,-4.793e-05,0,0,3.5953e-05,-3.83615e-05,2.39759e-05,0,-4.793e-05,0,0,3.5953e-05,-3.83615e-05,2.39759e-05,0,0.53981,-0.456602,0.691751,0.571297,0.185038,0.153359,0.784769,6.82223e-06,7.8118e-06,-9.04836e-06,0.00802995,1.61197,0.0112023,-0.00449374,0.00365116,-0.0169919,-0.00449374,0.00365116,-0.0169919,-nan,-nan,-nan,-nan,-nan,-nan,-nan,1
-nan,-nan,-nan,-nan,-nan,-nan,-nan,nan,nan,nan,-nan,nan,nan,nan,1.78184,-1.07676,-1.82232,-1.12314,1.93548,1.11149,-0.916323,0,0,0,0,3.83615e-05,2.39759e-05,0,0,0,0,0,3.83615e-05,2.39759e-05,0,0.53981,-0.456602,0.691751,0.571297,0.185038,0.153359,0.784769,2.63367e-05,2.79425e-05,-4.14356e-06,0.00803239,1.612,0.0111751,0.00539846,0.00498319,-0.000913586,0.00539846,0.00498319,-0.000913586,-nan,-nan,-nan,-nan,-nan,-nan,-nan,1
-nan,-nan,-nan,-nan,-nan,-nan,-nan,nan,nan,nan,-nan,nan,nan,nan,1.78184,-1.07676,-1.82232,-1.12314,1.93548,1.11149,-0.916323,2.39759e-05,2.39541e-05,0,0,3.83615e-05,0,3.5953e-05,2.39759e-05,2.39541e-05,0,0,3.83615e-05,0,3.5953e-05,0.53981,-0.456602,0.691751,0.571296,0.185038,0.153359,0.784769,2.03469e-05,2.33248e-05,-1.03073e-05,0.00804813,1.612,0.0111846,0.0301801,0.00379889,0.00327126,0.0301801,0.00379889,0.00327126,-nan,-nan,-nan,-nan,-nan,-nan,-nan,1
1.69965,-1.01179,-1.78397,-1.14679,1.98933,1.03624,-0.88342,2.01488,-1.02105,-1.80041,-1.12404,1.98407,1.05417,-0.924986,1.78184,-1.07676,-1.82232,-1.12314,1.93548,1.11149,-0.916323,4.793e-05,0,-1.19989e-05,1.1977e-05,0,2.39759e-05,0,4.793e-05,0,-1.19989e-05,1.1977e-05,0,2.39759e-05,0,0.53981,-0.456602,0.691751,0.571296,0.185038,0.153359,0.784769,2.15711e-06,-2.58187e-06,-1.59257e-06,0.00804092,1.61198,0.0111638,0.0121273,-0.0301345,-0.024714,0.0121273,-0.0301345,-0.024714,-0.821872,0.649699,0.383519,-0.236515,0.538513,-0.752508,0.329031,1
-nan,-nan,-nan,-nan,-nan,-nan,-nan,nan,nan,nan,-nan,nan,nan,nan,1.78184,-1.07676,-1.82232,-1.12314,1.93548,1.11149,-0.916323,-2.39541e-05,-2.39759e-05,1.1977e-05,1.1977e-05,-3.83615e-05,0,-3.5953e-05,-2.39541e-05,-2.39759e-05,1.1977e-05,1.1977e-05,-3.83615e-05,0,-3.5953e-05,0.53981,-0.456602,0.691752,0.571297,0.185038,0.153359,0.784769,-7.02397e-06,-3.29371e-06,2.41287e-05,0.00803573,1.612,0.0111618,0.0163788,0.00771993,-0.0235771,0.0163788,0.00771993,-0.0235771,-nan,-nan,-nan,-nan,-nan,-nan,-nan,1
-nan,-nan,-nan,-nan,-nan,-nan,-nan,nan,nan,nan,-nan,nan,nan,nan,1.78184,-1.07676,-1.82232,-1.12314,1.93548,1.11149,-0.916323,-2.39541e-05,0,-1.1977e-05,2.39759e-05,0,0,2.39541e-05,-2.39541e-05,0,-1.1977e-05,2.39759e-05,0,0,2.39541e-05,0.53981,-0.456602,0.691752,0.571297,0.185038,0.153359,0.784769,1.47373e-05,2.34288e-05,-3.45695e-06,0.00802709,1.61194,0.0112087,-0.00993315,-0.0174399,0.00985732,-0.00993315,-0.0174399,0.00985732,-nan,-nan,-nan,-nan,-nan,-nan,-nan,1
-nan,-nan,-nan,-nan,-nan,-nan,-nan,nan,nan,nan,-nan,nan,nan,nan,1.78184,-1.07676,-1.82232,-1.12314,1.93548,1.11149,-0.916323,-1.1977e-05,-2.39759e-05,0,0,0,0,2.39541e-05,-1.1977e-05,-2.39759e-05,0,0,0,0,2.39541e-05,0.53981,-0.456602,0.691752,0.571297,0.185038,0.153359,0.784769,-7.02562e-06,9.55134e-07,1.33272e-05,0.00803835,1.61196,0.0111979,0.00965737,-0.0163639,-0.00596879,0.00965737,-0.0163639,-0.00596879,-nan,-nan,-nan,-nan,-nan,-nan,-nan,1
1.69959,-1.01372,-1.79083,-1.14941,1.99029,1.03591,-0.883043,2.01943,-1.02067,-1.80005,-1.12504,1.98571,1.05303,-0.925563,1.78184,-1.07676,-1.82232,-1.12314,1.93548,1.11149,-0.916323,-2.39759e-05,0,0,0,0,-2.39759e-05,-2.39541e-05,-2.39759e-05,0,0,0,0,-2.39759e-05,-2.39541e-05,0.53981,-0.456602,0.691752,0.571297,0.185038,0.153359,0.784769,8.92296e-06,2.17264e-05,1.76231e-05,0.00803454,1.61198,0.0112061,0.0114039,-0.00728907,-0.0166943,0.0114039,-0.00728907,-0.0166943,-0.822433,0.630336,0.314896,-0.26275,0.548152,-0.755848,0.332801,1
-nan,-nan,-nan,-nan,-nan,-nan,-nan,nan,nan,nan,-nan,nan,nan,nan,1.78184,-1.07676,-1.82232,-1.12314,1.93548,1.11149,-0.916323,-2.39759e-05,0,0,0,0,0,-1.19989e-05,-2.39759e-05,0,0,0,0,0,-1.19989e-05,0.53981,-0.456602,0.691752,0.571297,0.185038,0.153359,0.784769,9.45204e-06,8.50023e-06,-7.72797e-06,0.0080368,1.612,0.0111582,-0.00284294,-0.0241081,-0.0518551,-0.00284294,-0.0241081,-0.0518551,-nan,-nan,-nan,-nan,-nan,-nan,-nan,1
1.7269,-1.13547,-1.87583,-1.1918,1.97626,1.07144,-0.867143,1.71998,-1.08122,-1.82159,-1.13304,1.90674,1.1699,-0.903305,1.78184,-1.07676,-1.82232,-1.12314,1.93548,1.11149,-0.916323,0,1.19989e-05,0,1.1977e-05,-3.83615e-05,0,-3.5953e-05,0,1.19989e-05,0,1.1977e-05,-3.83615e-05,0,-3.5953e-05,0.53981,-0.456602,0.691752,0.571297,0.185038,0.153359,0.784769,-6.66727e-07,1.80339e-05,2.14879e-05,0.00802947,1.61199,0.0111626,-0.00978173,-0.00800323,-0.0411277,-0.00978173,-0.00800323,-0.0411277,-0.549401,-0.587139,-0.535158,-0.686633,0.40786,-0.400488,0.491796,1
-nan,-nan,-nan,-nan,-nan,-nan,-nan,nan,nan,nan,-nan,nan,nan,nan,1.78184,-1.07676,-1.82232,-1.12314,1.93548,1.11149,-0.916323,-1.19989e-05,0,1.19989e-05,1.1977e-05,3.83615e-05,0,3.5953e-05,-1.19989e-05,0,1.19989e-05,1.1977e-05,3.83615e-05,0,3.5953e-05,0.53981,-0.456602,0.691752,0.571297,0.185038,0.153359,0.784769,1.11353e-05,8.92894e-06,-4.79072e-06,0.00803448,1.61198,0.0111937,-0.00383504,0.0356555,0.0219738,-0.00383504,0.0356555,0.0219738,-nan,-nan,-nan,-nan,-nan,-nan,-nan,1
-nan,-nan,-nan,-nan,-nan,-nan,-nan,nan,nan,nan,-nan,nan,nan,nan,1.78184,-1.07676,-1.82232,-1.12314,1.93548,1.11149,-0.916323,3.59547e-05,2.39771e-05,1.19776e-05,-1.19776e-05,5.75275e-05,0,0,3.59547e-05,2.39771e-05,1.19776e-05,-1.19776e-05,5.75275e-05,0,0,0.53981,-0.456602,0.691752,0.571296,0.185038,0.153359,0.784769,3.41291e-06,-1.03024e-06,-1.45216e-05,0.00803472,1.61197,0.0111911,-0.0039282,-0.0321564,-0.00191842,-0.0039282,-0.0321564,-0.00191842,-nan,-nan,-nan,-nan,-nan,-nan,-nan,1
-nan,-nan,-nan,-nan,-nan,-nan,-nan,nan,nan,nan,-nan,nan,nan,nan,1.78184,-1.07676,-1.82232,-1.12314,1.93548,1.11149,-0.916323,3.59547e-05,2.39771e-05,0,-1.19776e-05,0,0,-3.59547e-05,3.59547e-05,2.39771e-05,0,-1.19776e-05,0,0,-3.59547e-05,0.53981,-0.456602,0.691752,0.571296,0.185038,0.153359,0.784769,1.74032e-06,-2.08182e-05,-2.81023e-05,0.00802393,1.61201,0.0111931,-0.0139939,0.0492417,-0.0223061,-0.0139939,0.0492417,-0.0223061,-nan,-nan,-nan,-nan,-nan,-nan,-nan,1
-nan,-nan,-nan,-nan,-nan,-nan,-nan,nan,nan,nan,-nan,nan,nan,nan,1.78184,-1.07676,-1.82232,-1.12314,1.93548,1.11149,-0.916323,0,0,0,-1.19776e-05,0,0,3.59547e-05,0,0,0,-1.19776e-05,0,0,3.59547e-05,0.53981,-0.456602,0.691752,0.571296,0.185038,0.153359,0.784769,-1.83232e-05,-2.28107e-05,2.84805e-06,0.00801892,1.61198,0.0111935,-0.0444569,-0.000663536,0.00353886,-0.0444569,-0.000663536,0.00353886,-nan,-nan,-nan,-nan,-nan,-nan,-nan,1
1.7269,-1.13547,-1.87583,-1.1918,1.97626,1.07145,-0.867144,1.71999,-1.08122,-1.82159,-1.13304,1.90674,1.16989,-0.903307,1.78184,-1.07676,-1.82232,-1.12314,1.93548,1.11149,-0.916323,0,0,0,0,0,0,0,0,0,0,0,0,0,0,0.53981,-0.456602,0.691752,0.571296,0.185038,0.153359,0.784769,5.49771e-06,6.17693e-06,0,0.0080349,1.61199,0.0111773,0.007084,0.0312529,-0.0319822,0.007084,0.0312529,-0.0319822,-0.5494,-0.587133,-0.535144,-0.686631,0.407858,-0.400478,0.491784,1
-nan,-nan,-nan,-nan,-nan,-nan,-nan,nan,nan,nan,-nan,nan,nan,nan,1.78184,-1.07676,-1.82232,-1.12314,1.93548,1.11149,-0.916323,0,0,0,1.19776e-05,-3.83633e-05,0,0,0,0,0,1.19776e-05,-3.83633e-05,0,0,0.53981,-0.456602,0.691752,0.571296,0.185038,0.153359,0.784769,-5.34567e-07,2.2517e-06,4.2959e-06,0.0080368,1.61198,0.0111729,-0.000644095,-0.051957,0.024905,-0.000644095,-0.051957,0.024905,-nan,-nan,-nan,-nan,-nan,-nan,-nan,1
-nan,-nan,-nan,-nan,-nan,-nan,-nan,nan,nan,nan,-nan,nan,nan,nan,1.78184,-1.07676,-1.82232,-1.12314,1.93548,1.11149,-0.916323,0,0,0,0,5.75275e-05,3.59547e-05,-3.59547e-05,0,0,0,0,5.75275e-05,3.59547e-05,-3.59547e-05,0.53981,-0.456602,0.691752,0.571296,0.185038,0.153359,0.784769,1.23833e-05,2.31739e-05,5.35369e-06,0.00803967,1.61197,0.0111716,0.0219317,-0.0817648,0.0152244,0.0219317,-0.0817648,0.0152244,-nan,-nan,-nan,-nan,-nan,-nan,-nan,1
-nan,-nan,-nan,-nan,-nan,-nan,-nan,nan,nan,nan,-nan,nan,nan,nan,1.78184,-1.07676,-1.82232,-1.12314,1.93548,1.11149,-0.916323,-3.59547e-05,0,0,0,0,0,0,-3.59547e-05,0,0,0,0,0,0,0.53981,-0.456602,0.691752,0.571296,0.185038,0.153359,0.784769,-4.90448e-06,9.95534e-06,2.94903e-05,0.00802715,1.61198,0.0111852,-0.0205461,0.0266807,-0.00593986,-0.0205461,0.0266807,-0.00593986,-nan,-nan,-nan,-nan,-nan,-nan,-nan,1
-nan,-nan,-nan,-nan,-nan,-nan,-nan,nan,nan,nan,-nan,nan,nan,nan,1.78184,-1.07676,-1.82232,-1.12314,1.93548,1.11149,-0.916323,0,0,0,-3.59547e-05,3.83633e-05,0,0,0,0,0,-3.59547e-05,3.83633e-05,0,0,0.53981,-0.456602,0.691752,0.571296,0.185038,0.153359,0.784769,4.29648e-06,8.84566e-06,-7.75286e-06,0.00802536,1.61198,0.0111818,0.00568488,0.0667973,-0.0760352,0.00568488,0.0667973,-0.0760352,-nan,-nan,-nan,-nan,-nan,-nan,-nan,1
-nan,-nan,-nan,-nan,-nan,-nan,-nan,nan,nan,nan,-nan,nan,nan,nan,1.78184,-1.07676,-1.82232,-1.12314,1.93548,1.11149,-0.916323,2.39552e-05,0,0,0,0,3.59547e-05,0,2.39552e-05,0,0,0,0,3.59547e-05,0,0.53981,-0.456602,0.691752,0.571296,0.185038,0.153359,0.784769,7.18794e-06,1.38817e-05,1.94266e-06,0.00802804,1.61203,0.0111531,-0.000556727,0.0233825,-0.0192999,-0.000556727,0.0233825,-0.0192999,-nan,-nan,-nan,-nan,-nan,-nan,-nan,1
-nan,-nan,-nan,-nan,-nan,-nan,-nan,nan,nan,nan,-nan,nan,nan,nan,1.78184,-1.07676,-1.82232,-1.12314,1.93548,1.11149,-0.916323,0,-2.39552e-05,-2.39771e-05,0,0,-3.59547e-05,1.19994e-05,0,-2.39552e-05,-2.39771e-05,0,0,-3.59547e-05,1.19994e-05,0.53981,-0.456602,0.691752,0.571297,0.185038,0.153359,0.784769,6.38411e-06,-1.31834e-05,-2.38574e-05,0.00802929,1.612,0.0111884,-0.000328983,-0.00817758,0.00378331,-0.000328983,-0.00817758,0.00378331,-nan,-nan,-nan,-nan,-nan,-nan,-nan,1
-nan,-nan,-nan,-nan,-nan,-nan,-nan,nan,nan,nan,-nan,nan,nan,nan,1.78184,-1.07676,-1.82232,-1.12314,1.93548,1.11149,-0.916323,-2.39552e-05,0,-1.19776e-05,-1.19776e-05,-3.83633e-05,0,-3.59547e-05,-2.39552e-05,0,-1.19776e-05,-1.19776e-05,-3.83633e-05,0,-3.59547e-05,0.53981,-0.456602,0.691752,0.571297,0.185038,0.153359,0.784769,-7.33376e-06,-6.21168e-06,-7.94046e-06,0.0080399,1.61198,0.0111799,-0.0179574,0.0145517,-0.00774024,-0.0179574,0.0145517,-0.00774024,-nan,-nan,-nan,-nan,-nan,-nan,-nan,1
-nan,-nan,-nan,-nan,-nan,-nan,-nan,nan,nan,nan,-nan,nan,nan,nan,1.78184,-1.07676,-1.82232,-1.12314,1.93548,1.11149,-0.916323,1.19994e-05,0,0,0,3.83633e-05,3.59547e-05,3.59547e-05,1.19994e-05,0,0,0,3.83633e-05,3.59547e-05,3.59547e-05,0.53981,-0.456602,0.691752,0.571296,0.185038,0.153359,0.784769,4.5317e-07,3.65812e-06,2.73916e-06,0.0080312,1.61201,0.0111732,-0.0026405,0.000493551,-0.000172743,-0.0026405,0.000493551,-0.000172743,-nan,-nan,-nan,-nan,-nan,-nan,-nan,1
-nan,-nan,-nan,-nan,-nan,-nan,-nan,nan,nan,nan,-nan,nan,nan,nan,1.78184,-1.07676,-1.82232,-1.12314,1.93548,1.11149,-0.916323,-1.19989e-05,2.39541e-05,0,0,0,0,0,-1.19989e-05,2.39541e-05,0,0,0,0,0,0.53981,-0.456602,0.691752,0.571296,0.185038,0.153359,0.784769,-7.02423e-06,9.48651e-07,1.33151e-05,0.00802786,1.61197,0.0111871,0.00270456,-0.00793337,-0.00288486,0.00270456,-0.00793337,-0.00288486,-nan,-nan,-nan,-nan,-nan,-nan,-nan,1
-nan,-nan,-nan,-nan,-nan,-nan,-nan,nan,nan,nan,-nan,nan,nan,nan,1.78184,-1.07676,-1.82232,-1.12314,1.93548,1.11149,-0.916323,1.19989e-05,0,1.1977e-05,0,0,0,-2.39541e-05,1.19989e-05,0,1.1977e-05,0,0,0,-2.39541e-05,0.53981,-0.456602,0.691752,0.571296,0.185038,0.153359,0.784769,4.96314e-06,8.42864e-06,4.2959e-06,0.00802083,1.61198,0.0111893,-0.00546523,-0.0133113,0.0065204,-0.00546523,-0.0133113,0.0065204,-nan,-nan,-nan,-nan,-nan,-nan,-nan,1
-nan,-nan,-nan,-nan,-nan,-nan,-nan,nan,nan,nan,-nan,nan,nan,nan,1.78184,-1.07676,-1.82232,-1.12314,1.93548,1.11149,-0.916323,0,-2.39541e-05,0,0,0,-3.5953e-05,0,0,-2.39541e-05,0,0,0,-3.5953e-05,0,0.53981,-0.456602,0.691752,0.571296,0.185038,0.153359,0.784769,5.31401e-06,-8.67589e-06,-1.52577e-05,0.0080228,1.61199,0.0111871,0.0059253,-0.0013762,0.00233189,0.0059253,-0.0013762,0.00233189,-nan,-nan,-nan,-nan,-nan,-nan,-nan,1
1.7269,-1.13547,-1.87583,-1.1918,1.97626,1.07145,-0.867144,1.71999,-1.08122,-1.82159,-1.13304,1.90674,1.16989,-0.903306,1.78184,-1.07676,-1.82232,-1.12314,1.93548,1.11149,-0.916323,0,2.39541e-05,-2.39541e-05,-1.1977e-05,0,0,-1.19989e-05,0,2.39541e-05,-2.39541e-05,-1.1977e-05,0,0,-1.19989e-05,0.53981,-0.456602,0.691752,0.571296,0.185038,0.153359,0.784769,1.39267e-06,6.92449e-06,1.87521e-06,0.00802107,1.612,0.0111757,-0.00120048,0.0148345,0.00385869,-0.00120048,0.0148345,0.00385869,-0.549401,-0.587134,-0.535143,-0.68663,0.407863,-0.400478,0.491786,1
-nan,-nan,-nan,-nan,-nan,-nan,-nan,nan,nan,nan,-nan,nan,nan,nan,1.78184,-1.07676,-1.82232,-1.12314,1.93548,1.11149,-0.916323,0,2.39759e-05,0,-1.1977e-05,0,0,0,0,2.39759e-05,0,-1.1977e-05,0,0,0,0.53981,-0.456602,0.691752,0.571296,0.185038,0.153359,0.784769,3.22143e-07,1.14344e-05,1.04791e-05,0.00801523,1.612,0.0111722,-0.00153309,-0.0121981,0.00719888,-0.00153309,-0.0121981,0.00719888,-nan,-nan,-nan,-nan,-nan,-nan,-nan,1
-nan,-nan,-nan,-nan,-nan,-nan,-nan,nan,nan,nan,-nan,nan,nan,nan,1.78184,-1.07676,-1.82232,-1.12314,1.93548,1.11149,-0.916323,-2.39759e-05,0,-2.39541e-05,0,0,0,-5.99071e-05,-2.39759e-05,0,-2.39541e-05,0,0,0,-5.99071e-05,0.53981,-0.456602,0.691752,0.571297,0.185038,0.153359,0.784769,-9.91629e-06,-1.6846e-05,-8.59181e-06,0.0080287,1.61197,0.01118,0.00783031,-0.0147831,0.0026326,0.00783031,-0.0147831,0.0026326,-nan,-nan,-nan,-nan,-nan,-nan,-nan,1
1.7269,-1.13547,-1.87583,-1.1918,1.97626,1.07145,-0.867145,1.71999,-1.08122,-1.82159,-1.13304,1.90674,1.16989,-0.903307,1.78184,-1.07676,-1.82232,-1.12314,1.93548,1.11149,-0.916323,1.19989e-05,0,2.39541e-05,1.19989e-05,0,0,3.5953e-05,1.19989e-05,0,2.39541e-05,1.19989e-05,0,0,3.5953e-05,0.53981,-0.456602,0.691752,0.571296,0.185038,0.153359,0.784769,2.57515e-06,6.37019e-06,1.1445e-05,0.00802685,1.61203,0.011185,0.0031061,0.0303777,-0.00279549,0.0031061,0.0303777,-0.00279549,-0.549396,-0.587129,-0.535136,-0.686628,0.40786,-0.400473,0.49178,1
-nan,-nan,-nan,-nan,-nan,-nan,-nan,nan,nan,nan,-nan,nan,nan,nan,1.78184,-1.07676,-1.82232,-1.12314,1.93548,1.11149,-0.916323,-2.39759e-05,2.39759e-05,0,2.39759e-05,-3.83615e-05,0,1.19989e-05,-2.39759e-05,2.39759e-05,0,2.39759e-05,-3.83615e-05,0,1.19989e-05,0.53981,-0.456602,0.691752,0.571297,0.185038,0.153359,0.784769,-1.49598e-05,-9.7539e-06,1.8232e-05,0.00803025,1.61195,0.0112082,0.00492686,-0.0325444,0.0170406,0.00492686,-0.0325444,0.0170406,-nan,-nan,-nan,-nan,-nan,-nan,-nan,1
1.7269,-1.13547,-1.87583,-1.1918,1.97626,1.07145,-0.867144,1.71999,-1.08122,-1.82159,-1.13304,1.90674,1.16989,-0.903306,1.78184,-1.07676,-1.82232,-1.12314,1.93548,1.11149,-0.916323,0,2.39759e-05,0,0,0,0,0,0,2.39759e-05,0,0,0,0,0,0.53981,-0.456602,0.691752,0.571297,0.185038,0.153359,0.784769,-1.52791e-06,7.13208e-06,1.33272e-05,0.00802089,1.612,0.0111813,-0.00346085,0.00293648,-0.00227228,-0.00346085,0.00293648,-0.00227228,-0.549399,-0.587133,-0.535141,-0.686629,0.407862,-0.400476,0.491786,1
1.7269,-1.13547,-1.87583,-1.1918,1.97626,1.07145,-0.867144,1.71999,-1.08122,-1.82159,-1.13304,1.90674,1.16989,-0.903307,1.78184,-1.07676,-1.82232,-1.12314,1.93548,1.11149,-0.916323,-1.19989e-05,0,0,-1.19989e-05,3.83615e-05,0,-2.39541e-05,-1.19989e-05,0,0,-1.19989e-05,3.83615e-05,0,-2.39541e-05,0.53981,-0.456602,0.691752,0.571296,0.185038,0.153359,0.784769,-4.90134e-06,-5.9359e-06,-2.05675e-06,0.00803442,1.61197,0.01119,0.0203726,-0.0447065,0.0986089,0.0203726,-0.0447065,0.0986089,-0.549405,-0.587137,-0.535147,-0.686635,0.407852,-0.400474,0.491785,1
-nan,-nan,-nan,-nan,-nan,-nan,-nan,nan,nan,nan,-nan,nan,nan,nan,1.78184,-1.07676,-1.82232,-1.12314,1.93548,1.11149,-0.916323,0,0,0,2.39759e-05,-3.83615e-05,2.39759e-05,1.19989e-05,0,0,0,2.39759e-05,-3.83615e-05,2.39759e-05,1.19989e-05,0.53981,-0.456602,0.691752,0.571297,0.185038,0.153359,0.784769,-4.97219e-06,-3.50949e-06,6.2003e-06,0.00801892,1.61199,0.0111651,-0.00996169,-0.00919025,-0.0011404,-0.00996169,-0.00919025,-0.0011404,-nan,-nan,-nan,-nan,-nan,-nan,-nan,1
-nan,-nan,-nan,-nan,-nan,-nan,-nan,nan,nan,nan,-nan,nan,nan,nan,1.78184,-1.07676,-1.82232,-1.12314,1.93548,1.11149,-0.916323,-2.39759e-05,0,0,1.19989e-05,0,-2.39759e-05,-1.19989e-05,-2.39759e-05,0,0,1.19989e-05,0,-2.39759e-05,-1.19989e-05,0.53981,-0.456602,0.691752,0.571296,0.185038,0.153359,0.784769,-1.03131e-05,-1.76866e-05,1.55774e-06,0.00801928,1.61199,0.01119,0.00239416,-0.00409183,-0.000246671,0.00239416,-0.00409183,-0.000246671,-nan,-nan,-nan,-nan,-nan,-nan,-nan,1
-nan,-nan,-nan,-nan,-nan,-nan,-nan,nan,nan,nan,-nan,nan,nan,nan,1.78184,-1.07676,-1.82232,-1.12314,1.93548,1.11149,-0.916323,1.1977e-05,0,1.1977e-05,0,0,0,3.5953e-05,1.1977e-05,0,1.1977e-05,0,0,0,3.5953e-05,0.53981,-0.456602,0.691752,0.571296,0.185038,0.153359,0.784769,4.95314e-06,8.41741e-06,4.2959e-06,0.00802536,1.61201,0.0111897,0.00119093,0.00326923,-7.00548e-05,0.00119093,0.00326923,-7.00548e-05,-nan,-nan,-nan,-nan,-nan,-nan,-nan,1
-nan,-nan,-nan,-nan,-nan,-nan,-nan,nan,nan,nan,-nan,nan,nan,nan,1.78184,-1.07676,-1.82232,-1.12314,1.93548,1.11149,-0.916323,0,1.19776e-05,0,0,-3.83633e-05,0,0,0,1.19776e-05,0,0,-3.83633e-05,0,0,0.53981,-0.456601,0.691752,0.571296,0.185038,0.153359,0.784769,4.9379e-07,7.63191e-06,5.86104e-06,0.00801845,1.61197,0.0112019,0.00435705,-0.00626326,-0.00156581,0.00435705,-0.00626326,-0.00156581,-nan,-nan,-nan,-nan,-nan,-nan,-nan,1
-nan,-nan,-nan,-nan,-nan,-nan,-nan,nan,nan,nan,-nan,nan,nan,nan,1.78184,-1.07676,-1.82232,-1.12314,1.93548,1.11149,-0.916323,0,-1.19994e-05,0,-1.19994e-05,0,2.39771e-05,1.19994e-05,0,-1.19994e-05,0,-1.19994e-05,0,2.39771e-05,1.19994e-05,0.53981,-0.456602,0.691752,0.571296,0.185038,0.153359,0.784769,9.231e-08,1.77472e-06,-8.2274e-06,0.00800807,1.61198,0.0111911,0.000341712,0.0135925,-0.0116182,0.000341712,0.0135925,-0.0116182,-nan,-nan,-nan,-nan,-nan,-nan,-nan,1
1.7269,-1.13547,-1.87583,-1.1918,1.97626,1.07145,-0.867143,1.71998,-1.08122,-1.82159,-1.13304,1.90674,1.1699,-0.903304,1.78184,-1.07676,-1.82232,-1.12314,1.93548,1.11149,-0.916323,1.19776e-05,3.59547e-05,0,-1.19994e-05,3.83633e-05,0,-3.59547e-05,1.19776e-05,3.59547e-05,0,-1.19994e-05,3.83633e-05,0,-3.59547e-05,0.53981,-0.456601,0.691752,0.571296,0.185038,0.153359,0.784769,3.79291e-06,1.71016e-05,1.7928e-05,0.00802286,1.61197,0.0111679,-0.0039734,-0.00686926,-0.00693661,-0.0039734,-0.00686926,-0.00693661,-0.549405,-0.587135,-0.535144,-0.686632,0.407852,-0.400476,0.491795,1
-nan,-nan,-nan,-nan,-nan,-nan,-nan,nan,nan,nan,-nan,nan,nan,nan,1.78184,-1.07676,-1.82232,-1.12314,1.93548,1.11149,-0.916323,0,1.19776e-05,0,2.39552e-05,0,2.39771e-05,0,0,1.19776e-05,0,2.39552e-05,0,2.39771e-05,0,0.53981,-0.456601,0.691752,0.571296,0.185038,0.153359,0.784769,-6.98912e-06,-4.00798e-06,1.36491e-05,0.00802429,1.61199,0.0111837,-0.0265341,-0.0104397,0.0420486,-0.0265341,-0.0104397,0.0420486,-nan,-nan,-nan,-nan,-nan,-nan,-nan,1
-nan,-nan,-nan,-nan,-nan,-nan,-nan,nan,nan,nan,-nan,nan,nan,nan,1.78184,-1.07676,-1.82232,-1.12314,1.93548,1.11149,-0.916323,-1.19776e-05,-1.19994e-05,-1.19994e-05,0,-3.83633e-05,2.39771e-05,3.59547e-05,-1.19776e-05,-1.19994e-05,-1.19994e-05,0,-3.83633e-05,2.39771e-05,3.59547e-05,0.53981,-0.456602,0.691752,0.571296,0.185038,0.153359,0.784769,-5.45623e-06,-6.88782e-06,-1.04744e-05,0.00802327,1.61195,0.0112213,0.000930307,-0.00837276,0.00534926,0.000930307,-0.00837276,0.00534926,-nan,-nan,-nan,-nan,-nan,-nan,-nan,1
-nan,-nan,-nan,-nan,-nan,-nan,-nan,nan,nan,nan,-nan,nan,nan,nan,1.78184,-1.07676,-1.82232,-1.12314,1.93548,1.11149,-0.916323,-2.39771e-05,0,0,-1.19776e-05,0,0,0,-2.39771e-05,0,0,-1.19776e-05,0,0,0,0.53981,-0.456602,0.691752,0.571296,0.185038,0.153359,0.784769,-9.13537e-06,-8.04032e-06,-2.84806e-06,0.0080073,1.61199,0.0112046,-0.00567337,-0.000778467,0.00191078,-0.00567337,-0.000778467,0.00191078,-nan,-nan,-nan,-nan,-nan,-nan,-nan,1
1.74576,-1.1201,-1.83449,-1.17479,1.96888,1.09604,-0.865207,1.65976,-1.0587,-1.80013,-1.12812,1.8425,1.20421,-0.875096,1.78184,-1.07676,-1.82232,-1.12314,1.93548,1.11149,-0.916323,0,1.19994e-05,0,1.19776e-05,3.83633e-05,-2.39771e-05,0,0,1.19994e-05,0,1.19776e-05,3.83633e-05,-2.39771e-05,0,0.53981,-0.456602,0.691752,0.571296,0.185038,0.153359,0.784769,-1.34599e-06,-5.836e-06,9.01872e-06,0.00803543,1.61199,0.0111844,0.00553242,-9.37698e-05,-0.00396177,0.00553242,-9.37698e-05,-0.00396177,-0.360783,-0.433422,-0.121757,-0.516473,0.334015,-0.154508,0.511161,1
1.7269,-1.13547,-1.87583,-1.1918,1.97626,1.07145,-0.867144,1.71999,-1.08122,-1.82159,-1.13304,1.90674,1.1699,-0.903305,1.78184,-1.07676,-1.82232,-1.12314,1.93548,1.11149,-0.916323,0,1.19994e-05,2.39771e-05,-2.39771e-05,3.83633e-05,0,-2.39552e-05,0,1.19994e-05,2.39771e-05,-2.39771e-05,3.83633e-05,0,-2.39552e-05,0.53981,-0.456601,0.691752,0.571296,0.185038,0.153359,0.784769,6.1166e-07,1.26201e-05,1.03645e-05,0.00801535,1.61199,0.0112077,-0.00400837,0.00336031,0.00589254,-0.00400837,0.00336031,0.00589254,-0.549405,-0.587135,-0.535147,-0.686632,0.407852,-0.400476,0.491792,1
1.7269,-1.13547,-1.87583,-1.1918,1.97627,1.07145,-0.867145,1.71999,-1.08122,-1.82159,-1.13304,1.90675,1.16989,-0.903307,1.78184,-1.07676,-1.82232,-1.12314,1.93548,1.11149,-0.916323,0,0,1.19994e-05,0,0,0,3.59547e-05,0,0,1.19994e-05,0,0,0,3.59547e-05,0.53981,-0.456601,0.691752,0.571296,0.185038,0.153359,0.784769,-5.35543e-07,2.2558e-06,4.30373e-06,0.00802917,1.61199,0.0111769,0.00269285,-0.000324999,-0.00598926,0.00269285,-0.000324999,-0.00598926,-0.549396,-0.58713,-0.535137,-0.686628,0.407863,-0.400473,0.491777,1
-nan,-nan,-nan,-nan,-nan,-nan,-nan,nan,nan,nan,-nan,nan,nan,nan,1.78184,-1.07676,-1.82232,-1.12314,1.93548,1.11149,-0.916323,3.59547e-05,-3.59547e-05,0,-2.39771e-05,3.83633e-05,0,0,3.59547e-05,-3.59547e-05,0,-2.39771e-05,3.83633e-05,0,0,0.53981,-0.456601,0.691752,0.571296,0.185038,0.153359,0.784769,2.12107e-05,1.23568e-05,-2.48895e-05,0.00803883,1.612,0.0111828,0.0027418,0.0133957,0.000940046,0.0027418,0.0133957,0.000940046,-nan,-nan,-nan,-nan,-nan,-nan,-nan,1
-nan,-nan,-nan,-nan,-nan,-nan,-nan,nan,nan,nan,-nan,nan,nan,nan,1.78184,-1.07676,-1.82232,-1.12314,1.93548,1.11149,-0.916323,0,0,2.39771e-05,0,0,2.39771e-05,-3.59547e-05,0,0,2.39771e-05,0,0,2.39771e-05,-3.59547e-05,0.53981,-0.456601,0.691752,0.571296,0.185037,0.153359,0.784769,-3.59588e-06,5.54136e-06,9.89513e-06,0.00803782,1.61198,0.0111997,-0.000301538,0.00881998,0.00376922,-0.000301538,0.00881998,0.00376922,-nan,-nan,-nan,-nan,-nan,-nan,-nan,1
-nan,-nan,-nan,-nan,-nan,-nan,-nan,nan,nan,nan,-nan,nan,nan,nan,1.78184,-1.07676,-1.82232,-1.12314,1.93548,1.11149,-0.916323,0,0,0,0,0,0,0,0,0,0,0,0,0,0,0.53981,-0.456601,0.691752,0.571296,0.185038,0.153359,0.784769,-9.9153e-06,-1.68501e-05,-8.59963e-06,0.00800784,1.612,0.0111838,-0.00247976,0.00383236,-0.0025643,-0.00247976,0.00383236,-0.0025643,-nan,-nan,-nan,-nan,-nan,-nan,-nan,1
-nan,-nan,-nan,-nan,-nan,-nan,-nan,nan,nan,nan,-nan,nan,nan,nan,1.78184,-1.07676,-1.82232,-1.12314,1.93548,1.11149,-0.916323,0,2.39759e-05,2.39759e-05,-2.39759e-05,-3.83615e-05,0,-3.5953e-05,0,2.39759e-05,2.39759e-05,-2.39759e-05,-3.83615e-05,0,-3.5953e-05,0.53981,-0.456601,0.691752,0.571296,0.185037,0.153359,0.784769,2.36249e-06,2.43212e-05,1.5429e-05,0.00802178,1.61197,0.0112135,-0.000303132,0.00257056,0.00291006,-0.000303132,0.00257056,0.00291006,-nan,-nan,-nan,-nan,-nan,-nan,-nan,1
-nan,-nan,-nan,-nan,-nan,-nan,-nan,nan,nan,nan,-nan,nan,nan,nan,1.78184,-1.07676,-1.82232,-1.12314,1.93548,1.11149,-0.916323,2.39759e-05,-1.1977e-05,-1.1977e-05,2.39759e-05,0,0,0,2.39759e-05,-1.1977e-05,-1.1977e-05,2.39759e-05,0,0,0,0.53981,-0.456601,0.691752,0.571296,0.185037,0.153359,0.784769,8.57978e-06,-2.08432e-06,-5.25214e-06,0.0080278,1.61196,0.0112045,0.00117001,-0.0016913,-0.0017608,0.00117001,-0.0016913,-0.0017608,-nan,-nan,-nan,-nan,-nan,-nan,-nan,1
-nan,-nan,-nan,-nan,-nan,-nan,-nan,nan,nan,nan,-nan,nan,nan,nan,1.78184,-1.07676,-1.82232,-1.12314,1.93548,1.11149,-0.916323,2.39759e-05,0,-1.1977e-05,1.1977e-05,-3.83615e-05,0,-3.5953e-05,2.39759e-05,0,-1.1977e-05,1.1977e-05,-3.83615e-05,0,-3.5953e-05,0.53981,-0.456601,0.691752,0.571296,0.185037,0.153359,0.784769,1.0927e-05,9.85774e-06,-2.24435e-06,0.00801344,1.61199,0.0111825,-0.00430958,0.00447811,-0.000385214,-0.00430958,0.00447811,-0.000385214,-nan,-nan,-nan,-nan,-nan,-nan,-nan,1
-nan,-nan,-nan,-nan,-nan,-nan,-nan,nan,nan,nan,-nan,nan,nan,nan,1.78184,-1.07676,-1.82232,-1.12314,1.93548,1.11149,-0.916323,0,-1.1977e-05,0,-2.39759e-05,5.75247e-05,0,3.5953e-05,0,-1.1977e-05,0,-2.39759e-05,5.75247e-05,0,3.5953e-05,0.53981,-0.456601,0.691752,0.571296,0.185038,0.153359,0.784769,2.58173e-06,-1.05216e-06,-1.11644e-05,0.00802906,1.61197,0.0111924,0.00178806,0.00567451,-0.000945752,0.00178806,0.00567451,-0.000945752,-nan,-nan,-nan,-nan,-nan,-nan,-nan,1
-nan,-nan,-nan,-nan,-nan,-nan,-nan,nan,nan,nan,-nan,nan,nan,nan,1.78184,-1.07676,-1.82232,-1.12314,1.93548,1.11149,-0.916323,0,2.39759e-05,0,0,3.83615e-05,0,-2.39759e-05,0,2.39759e-05,0,0,3.83615e-05,0,-2.39759e-05,0.53981,-0.456601,0.691752,0.571296,0.185037,0.153359,0.784769,-2.78496e-06,3.06296e-06,1.41237e-05,0.00801952,1.61197,0.0111792,-0.00188647,-0.00167424,-0.00261747,-0.00188647,-0.00167424,-0.00261747,-nan,-nan,-nan,-nan,-nan,-nan,-nan,1
1.7269,-1.13547,-1.87583,-1.1918,1.97626,1.07145,-0.867144,1.71999,-1.08122,-1.82159,-1.13304,1.90674,1.1699,-0.903305,1.78184,-1.07676,-1.82232,-1.12314,1.93548,1.11149,-0.916323,2.39759e-05,1.19989e-05,0,-3.59311e-05,3.83615e-05,0,-1.19989e-05,2.39759e-05,1.19989e-05,0,-3.59311e-05,3.83615e-05,0,-1.19989e-05,0.53981,-0.456601,0.691752,0.571296,0.185037,0.153359,0.784769,1.45139e-05,2.47497e-05,-1.07801e-06,0.00801666,1.61199,0.0112014,-0.00624045,0.00791471,-0.000456618,-0.00624045,0.00791471,-0.000456618,-0.549404,-0.58713,-0.535141,-0.686629,0.407853,-0.400478,0.491791,1
-nan,-nan,-nan,-nan,-nan,-nan,-nan,nan,nan,nan,-nan,nan,nan,nan,1.78184,-1.07676,-1.82232,-1.12314,1.93548,1.11149,-0.916323,0,0,1.1977e-05,-1.1977e-05,-1.91633e-05,0,3.5953e-05,0,0,1.1977e-05,-1.1977e-05,-1.91633e-05,0,3.5953e-05,0.53981,-0.456601,0.691752,0.571296,0.185037,0.153359,0.784769,1.94343e-06,8.58673e-06,1.04996e-06,0.00802345,1.61197,0.0112078,-0.000625772,-0.00120432,-0.00035421,-0.000625772,-0.00120432,-0.00035421,-nan,-nan,-nan,-nan,-nan,-nan,-nan,1
-nan,-nan,-nan,-nan,-nan,-nan,-nan,nan,nan,nan,-nan,nan,nan,nan,1.78184,-1.07676,-1.82232,-1.12314,1.93548,1.11149,-0.916323,2.39759e-05,1.19989e-05,0,4.793e-05,1.91633e-05,3.59311e-05,1.19989e-05,2.39759e-05,1.19989e-05,0,4.793e-05,1.91633e-05,3.59311e-05,1.19989e-05,0.53981,-0.456601,0.691752,0.571296,0.185037,0.153359,0.784769,-1.59596e-06,-1.7885e-06,2.04064e-05,0.00800039,1.61201,0.011176,-0.00460819,0.00874009,-0.00634669,-0.00460819,0.00874009,-0.00634669,-nan,-nan,-nan,-nan,-nan,-nan,-nan,1
-nan,-nan,-nan,-nan,-nan,-nan,-nan,nan,nan,nan,-nan,nan,nan,nan,1.78184,-1.07676,-1.82232,-1.12314,1.93548,1.11149,-0.916323,2.39759e-05,0,0,-3.59311e-05,0,3.59311e-05,2.39541e-05,2.39759e-05,0,0,-3.59311e-05,0,3.59311e-05,2.39541e-05,0.53981,-0.456601,0.691752,0.571296,0.185037,0.153359,0.784769,1.27504e-05,2.67989e-05,-6.60269e-06,0.00802321,1.61196,0.0111911,0.0114492,-0.00414827,0.002406,0.0114492,-0.00414827,0.002406,-nan,-nan,-nan,-nan,-nan,-nan,-nan,1
1.7269,-1.13547,-1.87583,-1.1918,1.97626,1.07145,-0.867145,1.71999,-1.08122,-1.82159,-1.13304,1.90674,1.16989,-0.903306,1.78184,-1.07676,-1.82232,-1.12314,1.93548,1.11149,-0.916323,2.39759e-05,1.1977e-05,0,2.39759e-05,3.83615e-05,0,1.19989e-05,2.39759e-05,1.1977e-05,0,2.39759e-05,3.83615e-05,0,1.19989e-05,0.53981,-0.456601,0.691752,0.571296,0.185037,0.153359,0.784769,6.40188e-06,-8.02013e-07,-1.14523e-05,0.00802584,1.61197,0.0111843,0.00214925,-0.0126962,0.00489631,0.00214925,-0.0126962,0.00489631,-0.5494,-0.587127,-0.535129,-0.686629,0.407851,-0.400468,0.491779,1
1.7269,-1.13547,-1.87583,-1.1918,1.97626,1.07144,-0.867144,1.71999,-1.08122,-1.82159,-1.13304,1.90674,1.1699,-0.903305,1.78184,-1.07676,-1.82232,-1.12314,1.93548,1.11149,-0.916323,2.39759e-05,0,0,2.39541e-05,0,3.59311e-05,0,2.39759e-05,0,0,2.39541e-05,0,3.59311e-05,0,0.539811,-0.456601,0.691752,0.571296,0.185037,0.153359,0.784769,3.50011e-06,5.28739e-06,7.63759e-06,0.00801111,1.61198,0.0111887,-0.00413463,0.0050548,-0.00428185,-0.00413463,0.0050548,-0.00428185,-0.549403,-0.587136,-0.535144,-0.686633,0.407851,-0.400497,0.491787,1
-nan,-nan,-nan,-nan,-nan,-nan,-nan,nan,nan,nan,-nan,nan,nan,nan,1.78184,-1.07676,-1.82232,-1.12314,1.93548,1.11149,-0.916323,0,2.39759e-05,-2.39759e-05,-3.5953e-05,3.83615e-05,0,-2.39541e-05,0,2.39759e-05,-2.39759e-05,-3.5953e-05,3.83615e-05,0,-2.39541e-05,0.539811,-0.456601,0.691752,0.571296,0.185037,0.153359,0.784769,3.83867e-06,1.14702e-05,-3.02529e-06,0.00801111,1.612,0.0111858,0.00151565,-0.00279261,-0.0012889,0.00151565,-0.00279261,-0.0012889,-nan,-nan,-nan,-nan,-nan,-nan,-nan,1
-nan,-nan,-nan,-nan,-nan,-nan,-nan,nan,nan,nan,-nan,nan,nan,nan,1.78184,-1.07676,-1.82232,-1.12314,1.93548,1.11149,-0.916323,0,-2.39759e-05,-2.39759e-05,0,0,0,2.39541e-05,0,-2.39759e-05,-2.39759e-05,0,0,0,2.39541e-05,0.53981,-0.456601,0.691752,0.571296,0.185037,0.153359,0.784769,2.59803e-06,-1.16396e-05,-2.19268e-05,0.00800992,1.61197,0.0112025,-0.00137854,-0.00583416,-0.000258475,-0.00137854,-0.00583416,-0.000258475,-nan,-nan,-nan,-nan,-nan,-nan,-nan,1
-nan,-nan,-nan,-nan,-nan,-nan,-nan,nan,nan,nan,-nan,nan,nan,nan,1.78184,-1.07676,-1.82232,-1.12314,1.93548,1.11149,-0.916323,0,0,-2.39771e-05,-1.19776e-05,-3.83633e-05,0,0,0,0,-2.39771e-05,-1.19776e-05,-3.83633e-05,0,0,0.539811,-0.456601,0.691752,0.571296,0.185037,0.153359,0.784769,4.17721e-06,3.86392e-06,-1.22442e-05,0.00800247,1.61197,0.0111884,0.000534163,-0.00605385,0.00127182,0.000534163,-0.00605385,0.00127182,-nan,-nan,-nan,-nan,-nan,-nan,-nan,1
1.7269,-1.13547,-1.87583,-1.1918,1.97626,1.07145,-0.867145,1.71999,-1.08122,-1.82159,-1.13304,1.90674,1.16989,-0.903305,1.78184,-1.07676,-1.82232,-1.12314,1.93548,1.11149,-0.916323,2.39771e-05,2.39771e-05,0,0,3.83633e-05,3.59329e-05,5.99099e-05,2.39771e-05,2.39771e-05,0,0,3.83633e-05,3.59329e-05,5.99099e-05,0.53981,-0.456601,0.691752,0.571296,0.185037,0.153359,0.784769,4.41525e-06,1.6955e-05,1.60652e-05,0.00800545,1.612,0.011171,-0.00334959,0.00685029,-0.00051629,-0.00334959,0.00685029,-0.00051629,-0.549396,-0.587126,-0.535124,-0.686625,0.407858,-0.400483,0.491778,1
-nan,-nan,-nan,-nan,-nan,-nan,-nan,nan,nan,nan,-nan,nan,nan,nan,1.78184,-1.07676,-1.82232,-1.12314,1.93548,1.11149,-0.916323,4.79323e-05,0,0,2.39552e-05,0,0,0,4.79323e-05,0,0,2.39552e-05,0,0,0,0.539811,-0.456601,0.691752,0.571296,0.185037,0.153359,0.784769,1.82607e-05,1.60694e-05,5.69611e-06,0.00801588,1.61199,0.0111759,0.000703252,-0.00737798,0.00528056,0.000703252,-0.00737798,0.00528056,-nan,-nan,-nan,-nan,-nan,-nan,-nan,1
1.7269,-1.13547,-1.87583,-1.1918,1.97626,1.07144,-0.867144,1.71998,-1.08122,-1.82159,-1.13304,1.90674,1.1699,-0.903304,1.78184,-1.07676,-1.82232,-1.12314,1.93548,1.11149,-0.916323,2.39771e-05,0,0,-2.39552e-05,0,3.59329e-05,0,2.39771e-05,0,0,-2.39552e-05,0,3.59329e-05,0,0.539811,-0.456601,0.691752,0.571296,0.185037,0.153359,0.784769,1.09003e-05,2.24966e-05,-3.75463e-06,0.00801201,1.61197,0.0111894,0.00137426,-0.00131451,0.00364477,0.00137426,-0.00131451,0.00364477,-0.549405,-0.587134,-0.535145,-0.686629,0.407856,-0.400501,0.491791,1
-nan,-nan,-nan,-nan,-nan,-nan,-nan,nan,nan,nan,-nan,nan,nan,nan,1.78184,-1.07676,-1.82232,-1.12314,1.93548,1.11149,-0.916323,0,0,-2.39771e-05,1.19994e-05,-1.91642e-05,0,3.59547e-05,0,0,-2.39771e-05,1.19994e-05,-1.91642e-05,0,3.59547e-05,0.539811,-0.456601,0.691752,0.571296,0.185037,0.153359,0.784769,-1.55347e-07,-6.78495e-06,-6.14427e-06,0.00798638,1.61201,0.011175,-0.00569494,0.00861542,-0.000900482,-0.00569494,0.00861542,-0.000900482,-nan,-nan,-nan,-nan,-nan,-nan,-nan,1
-nan,-nan,-nan,-nan,-nan,-nan,-nan,nan,nan,nan,-nan,nan,nan,nan,1.78184,-1.07676,-1.82232,-1.12314,1.93548,1.11149,-0.916323,-2.39771e-05,-1.19776e-05,0,-1.19994e-05,1.91642e-05,0,-2.39552e-05,-2.39771e-05,-1.19776e-05,0,-1.19994e-05,1.91642e-05,0,-2.39552e-05,0.539811,-0.456601,0.691752,0.571296,0.185037,0.153359,0.784769,-8.99667e-06,-1.3628e-05,-9.11289e-06,0.00800754,1.61199,0.0111867,-0.00130887,0.00133311,0.00123615,-0.00130887,0.00133311,0.00123615,-nan,-nan,-nan,-nan,-nan,-nan,-nan,1
1.7269,-1.13547,-1.87583,-1.1918,1.97626,1.07145,-0.867145,1.71999,-1.08122,-1.82159,-1.13304,1.90675,1.16989,-0.903307,1.78184,-1.07676,-1.82232,-1.12314,1.93548,1.11149,-0.916323,0,1.19776e-05,0,1.19994e-05,1.91642e-05,-3.59329e-05,0,0,1.19776e-05,0,1.19994e-05,1.91642e-05,-3.59329e-05,0,0.539811,-0.456601,0.691752,0.571296,0.185037,0.153359,0.784769,5.40564e-07,-4.32943e-06,7.96719e-06,0.00801296,1.61203,0.0111642,-0.00316031,0.010423,-0.00265943,-0.00316031,0.010423,-0.00265943,-0.549397,-0.587131,-0.535142,-0.686632,0.407856,-0.400457,0.49178,1
1.69916,-1.00894,-1.7798,-1.12862,1.98474,1.03635,-0.884068,1.94632,-1.03224,-1.80677,-1.1206,1.97079,1.07026,-0.922162,1.78184,-1.07676,-1.82232,-1.12314,1.93548,1.11149,-0.916323,-2.39552e-05,0,-2.39771e-05,-3.59547e-05,1.91642e-05,-3.59329e-05,3.59547e-05,-2.39552e-05,0,-2.39771e-05,-3.59547e-05,1.91642e-05,-3.59329e-05,3.59547e-05,0.539811,-0.456601,0.691752,0.571296,0.185037,0.153359,0.784769,-1.19453e-06,-7.50623e-06,-1.86926e-05,0.00800539,1.61199,0.0111701,-0.00365066,-0.000154253,-0.00485898,-0.00365066,-0.000154253,-0.00485898,-0.826822,0.678148,0.425163,-0.0548459,0.492573,-0.751391,0.322549,1
1.69917,-1.00897,-1.77978,-1.12885,1.98485,1.03636,-0.884046,1.94721,-1.03213,-1.80672,-1.12064,1.97099,1.07003,-0.922217,1.78184,-1.07676,-1.82232,-1.12314,1.93548,1.11149,-0.916323,0,0,-2.39771e-05,-3.59547e-05,0,0,-2.39552e-05,0,0,-2.39771e-05,-3.59547e-05,0,0,-2.39552e-05,0.539811,-0.456601,0.691752,0.571296,0.185037,0.153359,0.784769,6.62363e-06,8.40727e-06,-1.7149e-05,0.00802381,1.61197,0.011175,0.00460053,-0.00696012,-0.00151594,0.00460053,-0.00696012,-0.00151594,-0.826706,0.677825,0.425379,-0.057134,0.493708,-0.751385,0.322773,1
1.69917,-1.00902,-1.77982,-1.12915,1.98486,1.03635,-0.88411,1.94819,-1.03189,-1.80659,-1.12069,1.97113,1.06982,-0.922214,1.78184,-1.07676,-1.82232,-1.12314,1.93548,1.11149,-0.916323,2.39771e-05,2.39771e-05,-2.39771e-05,2.39552e-05,-1.91642e-05,0,-3.59547e-05,2.39771e-05,2.39771e-05,-2.39771e-05,2.39552e-05,-1.91642e-05,0,-3.59547e-05,0.539811,-0.4566,0.691753,0.571296,0.185037,0.153359,0.78477,7.45546e-06,8.39531e-06,1.00258e-05,0.00800372,1.61199,0.011179,-0.00105605,0.00193042,0.00146485,-0.00105605,0.00193042,0.00146485,-0.826684,0.677339,0.424929,-0.0600785,0.493792,-0.751426,0.322132,1
1.69916,-1.00924,-1.78004,-1.1294,1.98497,1.03631,-0.884389,1.94877,-1.03164,-1.80647,-1.12071,1.97125,1.06968,-0.922197,1.78184,-1.07676,-1.82232,-1.12314,1.93548,1.11149,-0.916323,0,0,2.39771e-05,0,-1.91991e-05,0,-2.39552e-05,0,0,2.39771e-05,0,-1.91991e-05,0,-2.39552e-05,0.539811,-0.4566,0.691753,0.571296,0.185037,0.153359,0.784769,-4.41028e-07,6.54392e-06,8.20101e-06,0.00801106,1.61196,0.011214,0.000983,-0.00325146,0.00733469,0.000983,-0.00325146,0.00733469,-0.826777,0.67515,0.422755,-0.0626168,0.494887,-0.75182,0.319344,1
1.69911,-1.00953,-1.78059,-1.12964,1.98474,1.03626,-0.884955,1.94873,-1.03114,-1.80622,-1.12072,1.97102,1.06976,-0.921991,1.78184,-1.07676,-1.82232,-1.12314,1.93548,1.11149,-0.916323,0,0,0,3.59547e-05,-1.91642e-05,0,3.59547e-05,0,0,0,3.59547e-05,-1.91642e-05,0,3.59547e-05,0.539811,-0.4566,0.691753,0.571296,0.185037,0.153359,0.78477,-4.92556e-06,-1.08821e-05,8.15147e-06,0.00801582,1.61197,0.0111931,0.0032337,0.000275742,-0.00392305,0.0032337,0.000275742,-0.00392305,-0.827278,0.672221,0.417273,-0.0650522,0.492569,-0.752348,0.313682,1
1.6991,-1.00865,-1.77988,-1.12768,1.98377,1.03641,-0.88383,1.94233,-1.03259,-1.80697,-1.12046,1.96944,1.0715,-0.921735,1.78184,-1.07676,-1.82232,-1.12314,1.93548,1.11149,-0.916323,4.79518e-05,-2.39759e-05,-2.39759e-05,-3.5953e-05,-1.91633e-05,3.59311e-05,0,4.79518e-05,-2.39759e-05,-2.39759e-05,-3.5953e-05,-1.91633e-05,3.59311e-05,0,0.539811,-0.4566,0.691752,0.571296,0.185037,0.153359,0.78477,2.69651e-05,2.95426e-05,-2.89326e-05,0.00800056,1.612,0.0112042,-0.00143216,0.00559726,0.00341617,-0.00143216,0.00559726,0.00341617,-0.827353,0.681091,0.424337,-0.0454299,0.482877,-0.750863,0.324931,1
1.84165,-1.13388,-1.81964,-1.05298,1.87342,1.17583,-0.878034,1.66909,-1.12193,-1.82595,-1.10447,1.94843,1.12336,-0.934938,1.78184,-1.07676,-1.82232,-1.12314,1.93548,1.11149,-0.916323,0,0,-2.39759e-05,0,-3.83615e-05,0,0,0,0,-2.39759e-05,0,-3.83615e-05,0,0,0.539811,-0.4566,0.691753,0.571296,0.185037,0.153359,0.784769,2.32717e-06,-4.3839e-07,-9.39613e-06,0.00800849,1.612,0.0111959,-0.00127181,0.00773361,0.00323733,-0.00127181,0.00773361,0.00323733,0.598094,-0.571251,0.0267258,0.701594,-0.620599,0.643323,0.382889,1
1.7269,-1.13547,-1.87583,-1.1918,1.97626,1.07145,-0.867145,1.71999,-1.08122,-1.82159,-1.13304,1.90674,1.16989,-0.903307,1.78184,-1.07676,-1.82232,-1.12314,1.93548,1.11149,-0.916323,0,-2.39759e-05,1.19989e-05,0,0,0,0,0,-2.39759e-05,1.19989e-05,0,0,0,0,0.539811,-0.4566,0.691753,0.571296,0.185037,0.153359,0.78477,9.92377e-07,-4.87628e-06,-9.02347e-06,0.00800653,1.61199,0.0111909,-0.00105339,0.00649235,-0.00479402,-0.00105339,0.00649235,-0.00479402,-0.549402,-0.587136,-0.53515,-0.686634,0.407854,-0.400481,0.491781,1
