Afshin1997/kuka_rl_ros2/src/catch_and_throw/output_files/tm/nn_ema7.00_jvws1_realball_D01H10M11S30/recorded_data.csv
pure_target_joint_0,pure_target_joint_1,pure_target_joint_2,pure_target_joint_3,pure_target_joint_4,pure_target_joint_5,pure_target_joint_6,target_joint_0,target_joint_1,target_joint_2,target_joint_3,target_joint_4,target_joint_5,target_joint_6,pos_joint_0,pos_joint_1,pos_joint_2,pos_joint_3,pos_joint_4,pos_joint_5,pos_joint_6,vel_joint_0,vel_joint_1,vel_joint_2,vel_joint_3,vel_joint_4,vel_joint_5,vel_joint_6,vel_smooth_joint_0,vel_smooth_joint_1,vel_smooth_joint_2,vel_smooth_joint_3,vel_smooth_joint_4,vel_smooth_joint_5,vel_smooth_joint_6,ee_pos_x,ee_pos_y,ee_pos_z,ee_or_w,ee_or_x,ee_or_y,ee_or_z,eep_vel_x,eep_vel_y,eep_vel_z,ee_vel_offset_x,ee_vel_offset_y,ee_vel_offset_z,ball_pos_x,ball_pos_y,ball_pos_z,ball_raw_vx,ball_raw_vy,ball_raw_vz,ball_ema_vx,ball_ema_vy,ball_ema_vz,action_0,action_1,action_2,action_3,action_4,action_5,action_6,command_published
1.71984,-0.991871,-1.85921,-1.17059,1.98359,1.05558,-0.942029,1.71984,-0.991871,-1.85921,-1.17059,1.98359,1.05558,-0.942029,1.78097,-1.07177,-1.81827,-1.11967,1.9374,1.11678,-0.916296,1.19994e-05,0,1.19776e-05,0,1.91642e-05,-2.39771e-05,-2.39771e-05,1.19994e-05,0,1.19776e-05,0,1.91642e-05,-2.39771e-05,-2.39771e-05,0.54458,-0.455291,0.711861,0.572936,0.179233,0.151604,0.785262,6.83315e-06,5.33443e-06,3.40864e-06,7.20957e-06,4.05311e-06,3.26319e-06,2.98104,-0.486041,0.252991,-3.36483,0.183666,4.92651,-3.36483,0.116324,4.92651,-0.611239,0.798954,-0.409416,-0.509236,0.461879,-0.612001,-0.257328,1
1.72423,-0.988758,-1.8454,-1.15467,1.99549,1.05653,-0.950295,1.72423,-0.988758,-1.8454,-1.15467,1.99549,1.05653,-0.950295,1.78097,-1.07177,-1.81827,-1.11967,1.9374,1.11678,-0.916296,0,2.39771e-05,4.79323e-05,5.99099e-05,3.83633e-05,0,0,0,2.39771e-05,4.79323e-05,5.99099e-05,3.83633e-05,0,0,0.54458,-0.455291,0.711861,0.572936,0.179233,0.151604,0.785262,-1.446e-05,-9.17405e-06,4.54489e-05,-1.98623e-05,-1.08858e-05,4.82757e-05,2.94795,-0.48443,0.303242,-3.30968,0.16109,5.02513,-3.30968,0.139482,5.02513,-0.567361,0.830085,-0.271312,-0.35001,0.580872,-0.602495,-0.339982,1
1.72819,-0.990474,-1.85888,-1.15745,1.9992,1.06243,-0.955409,1.72819,-0.990474,-1.85888,-1.15745,1.9992,1.06243,-0.955409,1.78096,-1.07173,-1.81831,-1.11981,1.9374,1.11678,-0.916297,0.000778982,0.00485373,-0.0143215,-0.0306205,-0.000134219,-0.000743027,-5.99317e-05,0.000778982,0.00485373,-0.0143215,-0.0306205,-0.000134219,-0.000743027,-5.99317e-05,0.544606,-0.455235,0.711831,0.572894,0.179259,0.151652,0.785277,0.00559554,0.0100869,-0.00974917,0.00726163,0.0109007,-0.0106317,2.91475,-0.482949,0.353029,-3.31957,0.148082,4.97872,-3.31957,0.157439,4.97872,-0.52771,0.812541,-0.405643,-0.376479,0.618034,-0.543541,-0.391124,1
1.7222,-0.990441,-1.86382,-1.15987,1.99783,1.0597,-0.954711,1.7222,-0.990441,-1.86382,-1.15987,1.99783,1.0597,-0.954711,1.78107,-1.07155,-1.81987,-1.12101,1.93838,1.11573,-0.917208,0.0124879,0.0248319,-0.232296,-0.175741,0.175799,-0.184885,-0.157513,0.0124879,0.0248319,-0.232296,-0.175741,0.175799,-0.184885,-0.157513,0.545142,-0.455193,0.710975,0.572889,0.180467,0.152123,0.784913,0.0560235,0.00608857,-0.117152,0.081151,-0.00452871,-0.12971,2.8824,-0.481431,0.401619,-3.23522,0.151747,4.85894,-3.23522,0.164552,4.85894,-0.588668,0.811049,-0.439505,-0.388586,0.594499,-0.560349,-0.375029,1
1.7314,-0.988937,-1.84528,-1.17785,2.00852,1.05381,-0.942919,1.7314,-0.988937,-1.84528,-1.17785,2.00852,1.05381,-0.942919,1.78121,-1.07029,-1.82386,-1.12461,1.94461,1.11007,-0.920897,0.00853297,0.177179,-0.426026,-0.419159,0.78024,-0.691986,-0.421328,0.00853297,0.177179,-0.426026,-0.419159,0.78024,-0.691986,-0.421328,0.546787,-0.455488,0.708949,0.572997,0.185249,0.152495,0.783647,0.123665,0.013785,-0.176167,0.18316,-0.0317675,-0.206063,2.84927,-0.479984,0.448811,-3.31235,0.144768,4.71928,-3.31235,0.161953,4.71928,-0.498103,0.813529,-0.214272,-0.532419,0.639053,-0.562566,-0.220219,1
1.72588,-0.985196,-1.80636,-1.18491,2.0218,1.0372,-0.943905,1.72588,-0.985196,-1.80636,-1.18491,2.0218,1.0372,-0.943905,1.78005,-1.0671,-1.82926,-1.13054,1.95628,1.10009,-0.926935,-0.171067,0.350931,-0.592371,-0.641244,1.27673,-1.07562,-0.661797,-0.171067,0.350931,-0.592371,-0.641244,1.27673,-1.07562,-0.661797,0.548667,-0.456388,0.706627,0.573518,0.19299,0.152501,0.781394,0.0936376,-0.0492276,-0.208523,0.179915,-0.124996,-0.253835,2.81663,-0.478735,0.494766,-3.2645,0.124919,4.59542,-3.2645,0.151929,4.59542,-0.541704,0.819008,0.229026,-0.543703,0.655198,-0.628884,-0.169703,1
1.74197,-0.983167,-1.79818,-1.19513,2.03773,1.02606,-0.949473,1.74197,-0.983167,-1.79818,-1.19513,2.03773,1.02606,-0.949473,1.77712,-1.06306,-1.83621,-1.13782,1.97071,1.08878,-0.934581,-0.316272,0.420345,-0.718077,-0.748469,1.4648,-1.13795,-0.783764,-0.316272,0.420345,-0.718077,-0.748469,1.4648,-1.13795,-0.783764,0.550105,-0.458326,0.703712,0.574866,0.202256,0.152366,0.778078,0.0406279,-0.114349,-0.248053,0.135669,-0.202088,-0.301006,2.78429,-0.477329,0.540444,-3.234,0.140527,4.56783,-3.234,0.144605,4.56783,-0.351465,0.798979,0.380292,-0.573081,0.670259,-0.6272,-0.148919,1
1.76683,-0.978164,-1.82611,-1.20124,2.05173,1.0241,-0.957715,1.76683,-0.978164,-1.82611,-1.20124,2.05173,1.0241,-0.957715,1.77405,-1.05838,-1.84359,-1.1459,1.98438,1.07797,-0.941566,-0.299877,0.487243,-0.726322,-0.839612,1.32023,-1.05568,-0.632891,-0.299877,0.487243,-0.726322,-0.839612,1.32023,-1.05568,-0.632891,0.551527,-0.45976,0.700712,0.575857,0.211299,0.152918,0.774827,0.049879,-0.0396613,-0.241606,0.144532,-0.111099,-0.297304,2.7516,-0.475689,0.585675,-3.26931,0.164038,4.52315,-3.26931,0.143423,4.52315,-0.0722089,0.802157,0.174883,-0.553401,0.673508,-0.53865,-0.161484,1
1.77022,-0.971747,-1.8822,-1.19785,2.05721,1.02931,-0.952211,1.77022,-0.971747,-1.8822,-1.19785,2.05721,1.02931,-0.952211,1.77081,-1.05286,-1.84889,-1.15476,1.99621,1.0674,-0.945762,-0.347995,0.564783,-0.450199,-0.902315,1.14346,-1.06786,-0.361249,-0.347995,0.564783,-0.450199,-0.902315,1.14346,-1.06786,-0.361249,0.55279,-0.459981,0.698659,0.575449,0.219363,0.153845,0.772703,0.0282433,0.0521778,-0.1261,0.113267,-0.00336683,-0.178288,2.71868,-0.473858,0.629523,-3.29161,0.183138,4.3848,-3.29161,0.147906,4.3848,-0.00590074,0.811098,-0.333067,-0.430857,0.610081,-0.380906,-0.0644838,1
1.74648,-0.967112,-1.88834,-1.19818,2.06194,1.03107,-0.938046,1.74648,-0.967112,-1.88834,-1.19818,2.06194,1.03107,-0.938046,1.76654,-1.04766,-1.85029,-1.16475,2.00698,1.0561,-0.948278,-0.445084,0.491486,-0.019402,-1.03511,1.0604,-1.15453,-0.229589,-0.445084,0.491486,-0.019402,-1.03511,1.0604,-1.15453,-0.229589,0.553657,-0.459509,0.697456,0.573761,0.226918,0.154175,0.771711,0.00708893,0.122403,-0.0587422,0.0819141,0.0684244,-0.106601,2.68593,-0.47211,0.671863,-3.27454,0.174791,4.23396,-3.27454,0.154513,4.23396,-0.200684,0.805466,-0.38052,-0.334344,0.549619,-0.250296,0.10232,1
1.71156,-0.962419,-1.87841,-1.19715,2.07373,1.00372,-0.963073,1.71156,-0.962419,-1.87841,-1.19715,2.07373,1.00372,-0.963073,1.7616,-1.04341,-1.84752,-1.17557,2.01768,1.04358,-0.95032,-0.515214,0.409048,0.353982,-1.0806,1.0818,-1.26926,-0.208653,-0.515214,0.409048,0.353982,-1.0806,1.0818,-1.26926,-0.208653,0.554315,-0.458563,0.696914,0.570995,0.234308,0.153438,0.7717,-0.0114291,0.153611,0.00649599,0.0537876,0.094035,-0.0372047,2.65433,-0.470491,0.713356,-3.16045,0.16185,4.14928,-3.16045,0.161427,4.14928,-0.500416,0.809897,-0.308913,-0.215828,0.560499,-0.398521,-0.127536,1
1.69718,-0.956907,-1.83233,-1.21399,2.09215,0.98206,-0.972976,1.69718,-0.956907,-1.83233,-1.21399,2.09215,0.98206,-0.972976,1.75583,-1.0394,-1.84381,-1.18631,2.02904,1.03146,-0.952527,-0.587154,0.404087,0.342885,-1.05345,1.15276,-1.17589,-0.209204,-0.587154,0.404087,0.342885,-1.05345,1.15276,-1.17589,-0.209204,0.55444,-0.458004,0.696619,0.568365,0.24145,0.152019,0.771721,-0.0586463,0.103885,0.00835761,0.000300006,0.0400592,-0.0330856,2.62266,-0.468789,0.754194,-3.16706,0.170165,4.0838,-3.16706,0.168182,4.0838,-0.586488,0.82493,0.114771,-0.276811,0.631104,-0.493964,-0.204492,1
1.69416,-0.952354,-1.80632,-1.23301,2.11014,0.98174,-0.997769,1.69416,-0.952354,-1.80632,-1.23301,2.11014,0.98174,-0.997769,1.75045,-1.03443,-1.84186,-1.19546,2.04065,1.02238,-0.953278,-0.51344,0.53289,0.121865,-0.862832,1.15558,-0.801882,-0.012715,-0.51344,0.53289,0.121865,-0.862832,1.15558,-0.801882,-0.012715,0.554052,-0.457697,0.696844,0.566097,0.247273,0.150421,0.771857,-0.0918317,0.0803009,0.0667273,-0.0500862,0.0287483,0.0360876,2.59022,-0.467181,0.793745,-3.2444,0.16081,3.95517,-3.2444,0.170032,3.95517,-0.562961,0.820785,0.355447,-0.375435,0.694874,-0.406371,-0.44491,1
1.71076,-0.948172,-1.80804,-1.22386,2.12103,1.01685,-1.0008,1.71076,-0.948172,-1.80804,-1.22386,2.12103,1.01685,-1.0008,1.74602,-1.02802,-1.84431,-1.20269,2.05143,1.01676,-0.952602,-0.419294,0.686057,-0.375745,-0.666463,1.05054,-0.514723,0.0516748,-0.419294,0.686057,-0.375745,-0.666463,1.05054,-0.514723,0.0516748,0.553463,-0.457751,0.69695,0.564761,0.251983,0.149784,0.771437,-0.101778,0.0156495,0.0320935,-0.0584319,-0.0215702,0.00048316,2.55651,-0.465366,0.832086,-3.37055,0.181565,3.83403,-3.37055,0.17015,3.83403,-0.352572,0.798458,0.362673,-0.211686,0.696027,0.000843863,-0.482011,1
1.72851,-0.942062,-1.83997,-1.23501,2.12786,1.04701,-1.00442,1.72851,-0.942062,-1.83997,-1.23501,2.12786,1.04701,-1.00442,1.74273,-1.0197,-1.85134,-1.20789,2.0614,1.01159,-0.953838,-0.293499,0.883277,-0.78701,-0.494901,0.986289,-0.545905,-0.183594,-0.293499,0.883277,-0.78701,-0.494901,0.986289,-0.545905,-0.183594,0.553158,-0.458211,0.696838,0.565578,0.256568,0.151119,0.769063,-0.0709843,-0.0121065,0.0267826,-0.0135467,-0.0396231,-0.0146373,2.52446,-0.463739,0.86931,-3.20489,0.162682,3.72242,-3.20489,0.168405,3.72242,-0.142165,0.776356,0.113711,-0.271213,0.664631,0.354161,-0.505782,1
1.71954,-0.931114,-1.8683,-1.23211,2.13363,1.04843,-0.998496,1.71954,-0.931114,-1.8683,-1.23211,2.13363,1.04843,-0.998496,1.74021,-1.00949,-1.85948,-1.21271,2.07168,1.00464,-0.95781,-0.255414,1.04834,-0.785284,-0.500809,1.05447,-0.74485,-0.475092,-0.255414,1.04834,-0.785284,-0.500809,1.05447,-0.74485,-0.475092,0.553309,-0.458181,0.697199,0.567612,0.261393,0.153798,0.765399,-0.0476325,0.0404822,0.0974756,0.0174128,0.0148557,0.0497389,2.4925,-0.461982,0.905666,-3.19564,0.175649,3.63561,-3.19564,0.168964,3.63561,-0.20673,0.783717,-0.0882386,-0.193982,0.619435,0.437938,-0.406861,1
1.70896,-0.919441,-1.8629,-1.23424,2.14603,1.02318,-1.00182,1.70896,-0.919441,-1.8629,-1.23424,2.14603,1.02318,-1.00182,1.73661,-0.999374,-1.86539,-1.21888,2.08328,0.996676,-0.965401,-0.409492,0.997208,-0.504836,-0.653305,1.19757,-0.769621,-0.847709,-0.409492,0.997208,-0.504836,-0.653305,1.19757,-0.769621,-0.847709,0.553146,-0.458045,0.697849,0.570397,0.266305,0.156073,0.761163,-0.0989598,0.0473917,0.124543,-0.0429136,0.0102871,0.0811098,2.46062,-0.460423,0.941478,-3.18809,0.155962,3.5812,-3.18809,0.168791,3.5812,-0.276506,0.799333,0.024921,-0.153563,0.627486,0.265023,-0.364168,1
1.70389,-0.908627,-1.83125,-1.25288,2.16381,0.986588,-1.02002,1.70389,-0.908627,-1.83125,-1.25288,2.16381,0.986588,-1.02002,1.73106,-0.989963,-1.86594,-1.22589,2.09598,0.992615,-0.975549,-0.593074,0.908659,0.113716,-0.722429,1.29143,-0.255426,-1.05431,-0.593074,0.908659,0.113716,-0.722429,1.29143,-0.255426,-1.05431,0.55138,-0.45754,0.700376,0.57377,0.268333,0.156127,0.757898,-0.220822,0.109441,0.313881,-0.218393,0.0754769,0.309119,2.42877,-0.459066,0.976531,-3.1853,0.135636,3.50527,-3.1853,0.164534,3.50527,-0.271651,0.813361,0.346915,-0.269884,0.678285,-0.0602685,-0.44468,1
1.6989,-0.903534,-1.80639,-1.24227,2.17651,1.02472,-1.03964,1.6989,-0.903534,-1.80639,-1.24227,2.17651,1.02472,-1.03964,1.72471,-0.982408,-1.86118,-1.23327,2.10885,0.994425,-0.985987,-0.637055,0.700786,0.575937,-0.725976,1.27783,0.31078,-1.01471,-0.637055,0.700786,0.575937,-0.725976,1.27783,0.31078,-1.01471,0.54832,-0.456298,0.70448,0.576647,0.266866,0.15351,0.756766,-0.283007,0.163398,0.404711,-0.328491,0.13547,0.434716,2.39673,-0.457756,1.01065,-3.2043,0.131008,3.41207,-3.2043,0.15782,3.41207,-0.258122,0.788741,0.547891,-0.0900026,0.676594,0.302999,-0.536548,1
1.71982,-0.908085,-1.80141,-1.22364,2.18705,1.05429,-1.05113,1.71982,-0.908085,-1.80141,-1.22364,2.18705,1.05429,-1.05113,1.71884,-0.976623,-1.8546,-1.23931,2.12086,1.00017,-0.99437,-0.559531,0.544335,0.641165,-0.549716,1.17042,0.618827,-0.777231,-0.559531,0.544335,0.641165,-0.549716,1.17042,0.618827,-0.777231,0.544711,-0.455066,0.709122,0.578845,0.263409,0.149246,0.757153,-0.292575,0.13527,0.412471,-0.360325,0.111076,0.457556,2.36464,-0.456175,1.04328,-3.20873,0.158095,3.26335,-3.20873,0.151614,3.26335,0.00980482,0.685377,0.531904,0.156688,0.661958,0.541262,-0.567582,1
1.72103,-0.900855,-1.80849,-1.20526,2.19904,1.05926,-1.05911,1.72103,-0.900855,-1.80849,-1.20526,2.19904,1.05926,-1.05911,1.71473,-0.971425,-1.84985,-1.24361,2.13202,1.00485,-1.00092,-0.353503,0.530386,0.400252,-0.401498,1.10199,0.3884,-0.635892,-0.353503,0.530386,0.400252,-0.401498,1.10199,0.3884,-0.635892,0.541915,-0.454087,0.713087,0.580525,0.260734,0.145382,0.757544,-0.195176,0.125831,0.340126,-0.242961,0.101514,0.370472,2.33256,-0.454586,1.07484,-3.20828,0.158897,3.15597,-3.20828,0.149064,3.15597,0.0630434,0.705701,0.413604,0.383563,0.670177,0.54416,-0.581939,1
1.68541,-0.891978,-1.8343,-1.20441,2.20998,1.06048,-1.06295,1.68541,-0.891978,-1.8343,-1.20441,2.20998,1.06048,-1.06295,1.71225,-0.96515,-1.84836,-1.24671,2.14332,1.00605,-1.00762,-0.230535,0.670442,0.0754629,-0.269891,1.1481,0.0615735,-0.700402,-0.230535,0.670442,0.0754629,-0.269891,1.1481,0.0615735,-0.700402,0.540268,-0.453309,0.7163,0.582521,0.259948,0.143065,0.756722,-0.132861,0.0920306,0.308271,-0.1546,0.0639353,0.320105,2.30027,-0.453158,1.10553,-3.22926,0.142837,3.06877,-3.22926,0.14656,3.06877,-0.268495,0.731715,0.140637,0.423042,0.666623,0.544295,-0.553305,1
1.65555,-0.882427,-1.81208,-1.2052,2.22159,1.05674,-1.07601,1.65555,-0.882427,-1.81208,-1.2052,2.22159,1.05674,-1.07601,1.70954,-0.956849,-1.84877,-1.24795,2.15534,1.00796,-1.01604,-0.286226,0.879005,-0.051857,-0.0682399,1.21577,0.268561,-0.895436,-0.286226,0.879005,-0.051857,-0.0682399,1.21577,0.268561,-0.895436,0.538009,-0.453134,0.720483,0.586517,0.258384,0.141195,0.75452,-0.218932,0.0332686,0.440885,-0.257489,0.00921037,0.464177,2.26823,-0.451622,1.13515,-3.20308,0.153646,2.96209,-3.20308,0.147822,2.96209,-0.5399,0.744218,0.366865,0.427432,0.662458,0.487783,-0.599764,1
1.65977,-0.87794,-1.79317,-1.20967,2.2329,1.05827,-1.08732,1.65977,-0.87794,-1.79317,-1.20967,2.2329,1.05827,-1.08732,1.707,-0.948489,-1.84834,-1.24802,2.16752,1.01345,-1.02639,-0.23359,0.788462,0.085965,0.0165027,1.21444,0.642358,-1.07587,-0.23359,0.788462,0.085965,0.0165027,1.21444,0.642358,-1.07587,0.535008,-0.452822,0.725745,0.591679,0.254571,0.138538,0.752274,-0.242245,0.053914,0.491202,-0.309969,0.0347812,0.533589,2.23616,-0.450235,1.1637,-3.20721,0.138688,2.85499,-3.20721,0.149221,2.85499,-0.472322,0.705489,0.551674,0.383523,0.653773,0.448178,-0.609288,1
1.67423,-0.877627,-1.78609,-1.20093,2.24343,1.07348,-1.098,1.67423,-0.877627,-1.78609,-1.20093,2.24343,1.07348,-1.098,1.70509,-0.941958,-1.84532,-1.24636,2.1795,1.02134,-1.03776,-0.181422,0.612781,0.373737,0.221222,1.19322,0.820005,-1.14565,-0.181422,0.612781,0.373737,0.221222,1.19322,0.820005,-1.14565,0.531549,-0.452585,0.731797,0.597067,0.248991,0.134246,0.750661,-0.262842,0.0397719,0.570721,-0.359731,0.0181144,0.629862,2.20401,-0.44881,1.19104,-3.21522,0.142512,2.73399,-3.21522,0.14888,2.73399,-0.308591,0.643312,0.592343,0.454386,0.639347,0.521483,-0.602393,1
1.67371,-0.875386,-1.78381,-1.19176,2.25456,1.08568,-1.10925,1.67371,-0.875386,-1.78381,-1.19176,2.25456,1.08568,-1.10925,1.70386,-0.93663,-1.83994,-1.24263,2.19125,1.02973,-1.04891,-0.0976379,0.517372,0.576659,0.411417,1.17005,0.828442,-1.09832,-0.0976379,0.517372,0.576659,0.411417,1.17005,0.828442,-1.09832,0.527832,-0.452433,0.738767,0.602268,0.24236,0.128651,0.749656,-0.256392,0.0449818,0.644259,-0.369744,0.0222343,0.710777,2.17225,-0.447321,1.21776,-3.17638,0.148904,2.67134,-3.17638,0.146577,2.67134,-0.301535,0.612437,0.561337,0.508677,0.633161,0.559544,-0.603409,1
1.66023,-0.868066,-1.77953,-1.18021,2.2658,1.09137,-1.11898,1.66023,-0.868066,-1.77953,-1.18021,2.2658,1.09137,-1.11898,1.70329,-0.931197,-1.83449,-1.23753,2.20291,1.03745,-1.05967,-0.0481418,0.569504,0.527115,0.538309,1.16582,0.754342,-1.06824,-0.0481418,0.569504,0.527115,0.538309,1.16582,0.754342,-1.06824,0.524183,-0.452316,0.746112,0.60744,0.23566,0.122912,0.748581,-0.254026,0.0352846,0.681384,-0.367552,0.0135171,0.745177,2.14028,-0.445755,1.24367,-3.19707,0.156546,2.59155,-3.19707,0.146361,2.59155,-0.430627,0.631313,0.549606,0.573253,0.628951,0.539279,-0.593112,1
1.6544,-0.859238,-1.7711,-1.17338,2.27681,1.095,-1.12913,1.6544,-0.859238,-1.7711,-1.17338,2.27681,1.095,-1.12913,1.70283,-0.924282,-1.82893,-1.23145,2.21462,1.04497,-1.07037,-0.0575377,0.734891,0.572189,0.635947,1.17412,0.758884,-1.07332,-0.0575377,0.734891,0.572189,0.635947,1.17412,0.758884,-1.07332,0.520261,-0.451808,0.754481,0.61295,0.228307,0.11738,0.747255,-0.289064,0.0741692,0.804317,-0.411849,0.0610885,0.871349,2.10787,-0.444278,1.26833,-3.24006,0.147718,2.46602,-3.24006,0.147456,2.46602,-0.484309,0.650438,0.578382,0.580751,0.621909,0.50027,-0.587676,1
1.65099,-0.849779,-1.76165,-1.1697,2.28812,1.09975,-1.13944,1.65099,-0.849779,-1.76165,-1.1697,2.28812,1.09975,-1.13944,1.70137,-0.916324,-1.82223,-1.22465,2.22624,1.0527,-1.08123,-0.178917,0.796108,0.70294,0.688151,1.15604,0.777795,-1.09121,-0.178917,0.796108,0.70294,0.688151,1.15604,0.777795,-1.09121,0.515496,-0.451214,0.763977,0.618966,0.220036,0.111611,0.74566,-0.364939,0.0662061,0.889269,-0.499375,0.0559553,0.959412,2.07631,-0.442983,1.29181,-3.15626,0.129527,2.34737,-3.15626,0.146018,2.34737,-0.503758,0.665442,0.605854,0.549422,0.61879,0.47046,-0.582162,1
1.64354,-0.843507,-1.75278,-1.16361,2.29975,1.10542,-1.14958,1.64354,-0.843507,-1.75278,-1.16361,2.29975,1.10542,-1.14958,1.69873,-0.909858,-1.81451,-1.21731,2.23771,1.06058,-1.0922,-0.282152,0.589003,0.795892,0.763594,1.14093,0.793747,-1.10256,-0.282152,0.589003,0.795892,0.763594,1.14093,0.793747,-1.10256,0.510002,-0.451618,0.77315,0.625166,0.211865,0.104862,0.743831,-0.424844,-0.0474497,0.832198,-0.568097,-0.071516,0.901225,2.04548,-0.441523,1.31414,-3.08347,0.145972,2.23337,-3.08347,0.145828,2.23337,-0.551861,0.663513,0.617293,0.536974,0.620371,0.448448,-0.573777,1
1.63647,-0.839348,-1.74608,-1.15355,2.31033,1.11253,-1.16005,1.63647,-0.839348,-1.74608,-1.15355,2.31033,1.11253,-1.16005,1.69598,-0.905219,-1.80601,-1.20944,2.24903,1.06847,-1.10315,-0.266464,0.438442,0.858835,0.791518,1.128,0.785322,-1.0973,-0.266464,0.438442,0.858835,0.791518,1.128,0.785322,-1.0973,0.504295,-0.452718,0.781726,0.631107,0.204,0.0971904,0.742053,-0.424413,-0.0807898,0.777701,-0.571323,-0.112075,0.843364,2.01416,-0.439999,1.33602,-3.13148,0.152364,2.18809,-3.13148,0.145709,2.18809,-0.59506,0.658709,0.599358,0.558948,0.613073,0.440525,-0.568953,1
1.63344,-0.833332,-1.73786,-1.14638,2.32102,1.11824,-1.1715,1.63344,-0.833332,-1.73786,-1.14638,2.32102,1.11824,-1.1715,1.69336,-0.900314,-1.7972,-1.20148,2.26016,1.07598,-1.11398,-0.263851,0.521734,0.889503,0.796671,1.11074,0.731763,-1.08317,-0.263851,0.521734,0.889503,0.796671,1.11074,0.731763,-1.08317,0.498561,-0.453503,0.790435,0.636817,0.196111,0.0895825,0.740257,-0.431239,-0.0351279,0.820155,-0.578384,-0.0603031,0.882515,1.98263,-0.438691,1.35694,-3.1535,0.130853,2.09209,-3.1535,0.143414,2.09209,-0.599161,0.669827,0.593387,0.550922,0.608608,0.422621,-0.575218,1
1.6292,-0.825259,-1.72844,-1.14007,2.33239,1.12115,-1.18252,1.6292,-0.825259,-1.72844,-1.14007,2.33239,1.12115,-1.18252,1.69049,-0.894418,-1.78796,-1.19365,2.27119,1.08302,-1.12467,-0.294592,0.602893,0.940198,0.769634,1.09941,0.695809,-1.06484,-0.294592,0.602893,0.940198,0.769634,1.09941,0.695809,-1.06484,0.492647,-0.453736,0.799604,0.642378,0.188029,0.0822483,0.738397,-0.449104,0.0112512,0.858953,-0.5971,-0.00817798,0.918358,1.95094,-0.437227,1.37647,-3.169,0.14638,1.95299,-3.169,0.141936,1.95299,-0.612918,0.691591,0.59519,0.535784,0.612012,0.381284,-0.578473,1
1.62429,-0.817812,-1.71929,-1.1344,2.3441,1.12282,-1.19299,1.62429,-0.817812,-1.71929,-1.1344,2.3441,1.12282,-1.19299,1.68719,-0.888348,-1.7784,-1.18637,2.28221,1.08975,-1.13521,-0.350727,0.601407,0.950289,0.716387,1.10317,0.666579,-1.04844,-0.350727,0.601407,0.950289,0.716387,1.10317,0.666579,-1.04844,0.486594,-0.453772,0.808655,0.647657,0.180142,0.0749514,0.736527,-0.468556,0.0105153,0.836064,-0.614406,-0.0099639,0.890558,1.9195,-0.435526,1.39496,-3.14343,0.170141,1.84927,-3.14343,0.145002,1.84927,-0.629025,0.705358,0.591161,0.519622,0.618899,0.330669,-0.57788,1
1.61684,-0.80996,-1.71169,-1.12769,2.35539,1.12499,-1.20301,1.61684,-0.80996,-1.71169,-1.12769,2.35539,1.12499,-1.20301,1.68282,-0.882179,-1.76931,-1.17919,2.29325,1.09617,-1.14566,-0.462341,0.631758,0.907365,0.726311,1.10753,0.637307,-1.0426,-0.462341,0.631758,0.907365,0.726311,1.10753,0.637307,-1.0426,0.480077,-0.454295,0.817432,0.653214,0.172607,0.067699,0.734122,-0.524404,-0.0343044,0.830834,-0.669368,-0.0560628,0.881106,1.88805,-0.433881,1.4125,-3.14579,0.164416,1.75362,-3.14579,0.150253,1.75362,-0.659786,0.722183,0.576149,0.514957,0.621361,0.288179,-0.573453,1
1.60858,-0.802486,-1.70322,-1.11948,2.36572,1.13171,-1.21304,1.60858,-0.802486,-1.70322,-1.11948,2.36572,1.13171,-1.21304,1.67757,-0.875304,-1.7599,-1.17187,2.30424,1.10252,-1.15616,-0.54938,0.698209,0.94678,0.732267,1.09815,0.632357,-1.0507,-0.54938,0.698209,0.94678,0.732267,1.09815,0.632357,-1.0507,0.472996,-0.454743,0.826589,0.659003,0.164781,0.0604838,0.731371,-0.574914,-0.0256841,0.868427,-0.723667,-0.043202,0.91687,1.85656,-0.432633,1.42912,-3.14838,0.124881,1.66246,-3.14838,0.150258,1.66246,-0.689851,0.728179,0.566745,0.523962,0.614858,0.291825,-0.568797,1
1.59882,-0.795138,-1.69513,-1.11109,2.37736,1.13643,-1.22233,1.59882,-0.795138,-1.69513,-1.11109,2.37736,1.13643,-1.22233,1.67125,-0.868488,-1.75061,-1.16437,2.31524,1.10858,-1.16678,-0.652778,0.675332,0.926815,0.76037,1.10511,0.589778,-1.0619,-0.652778,0.675332,0.926815,0.76037,1.10511,0.589778,-1.0619,0.465367,-0.455691,0.835594,0.665127,0.157161,0.0531526,0.728066,-0.627647,-0.0843653,0.848351,-0.776078,-0.105855,0.89241,1.82556,-0.431393,1.44545,-3.10003,0.123954,1.63268,-3.10003,0.147431,1.63268,-0.724292,0.733506,0.554732,0.532777,0.621119,0.278512,-0.555478,1
1.59114,-0.787436,-1.68575,-1.10439,2.38941,1.13905,-1.23307,1.59114,-0.787436,-1.68575,-1.10439,2.38941,1.13905,-1.23307,1.66463,-0.861583,-1.74121,-1.15648,2.32641,1.11386,-1.1775,-0.663024,0.7016,0.937373,0.791947,1.12066,0.500917,-1.07187,-0.663024,0.7016,0.937373,0.791947,1.12066,0.500917,-1.07187,0.457534,-0.456746,0.844617,0.671267,0.149805,0.0457689,0.724475,-0.638052,-0.0752495,0.860728,-0.784327,-0.0965293,0.900552,1.79429,-0.430005,1.46078,-3.12696,0.138757,1.53319,-3.12696,0.14506,1.53319,-0.734976,0.741475,0.554645,0.520899,0.629975,0.251876,-0.555783,1
1.5842,-0.780705,-1.67638,-1.10019,2.40121,1.14338,-1.24451,1.5842,-0.780705,-1.67638,-1.10019,2.40121,1.14338,-1.24451,1.65785,-0.854486,-1.73224,-1.1487,2.3377,1.11833,-1.18822,-0.686896,0.70522,0.881959,0.777207,1.13408,0.42972,-1.0698,-0.686896,0.70522,0.881959,0.777207,1.13408,0.42972,-1.0698,0.449746,-0.457772,0.853406,0.67732,0.142944,0.038637,0.720633,-0.641848,-0.0839803,0.830459,-0.781617,-0.106485,0.864979,1.73144,-0.427658,1.48787,-3.13945,0.121403,1.30283,-3.13945,0.129464,1.30283,-0.736435,0.737807,0.558561,0.485154,0.635179,0.250583,-0.562973,1
1.57748,-0.774271,-1.66693,-1.09476,2.41254,1.14542,-1.25543,1.57748,-0.774271,-1.66693,-1.09476,2.41254,1.14542,-1.25543,1.65089,-0.847489,-1.72333,-1.14091,2.34904,1.12258,-1.19882,-0.695261,0.695836,0.900786,0.787885,1.13393,0.429061,-1.05436,-0.695261,0.695836,0.900786,0.787885,1.13393,0.429061,-1.05436,0.441852,-0.458812,0.862003,0.683222,0.136274,0.0314463,0.716692,-0.65429,-0.0759839,0.825857,-0.796027,-0.0976324,0.857828,1.70053,-0.426138,1.49988,-3.09104,0.151986,1.20063,-3.09104,0.127505,1.20063,-0.73404,0.732182,0.563936,0.461565,0.635022,0.228348,-0.566155,1
1.56941,-0.767166,-1.65859,-1.08689,2.42374,1.14941,-1.26594,1.56941,-0.767166,-1.65859,-1.08689,2.42374,1.14941,-1.26594,1.64371,-0.840451,-1.71438,-1.13302,2.36037,1.12679,-1.20918,-0.728397,0.708599,0.884523,0.791744,1.13311,0.418887,-1.03288,-0.728397,0.708599,0.884523,0.791744,1.13311,0.418887,-1.03288,0.433773,-0.459789,0.870543,0.688978,0.129616,0.0241964,0.712688,-0.67421,-0.0752719,0.819264,-0.815697,-0.0952961,0.848243,1.66931,-0.424658,1.51094,-3.122,0.147957,1.10632,-3.122,0.13136,1.10632,-0.742992,0.732851,0.557871,0.461272,0.633667,0.226216,-0.567556,1
1.56151,-0.759847,-1.65043,-1.07907,2.4351,1.15151,-1.27597,1.56151,-0.759847,-1.65043,-1.07907,2.4351,1.15151,-1.27597,1.63617,-0.833161,-1.70561,-1.12513,2.37178,1.13092,-1.21943,-0.761292,0.732771,0.877609,0.791624,1.14532,0.411948,-1.02732,-0.761292,0.732771,0.877609,0.791624,1.14532,0.411948,-1.02732,0.425484,-0.460688,0.879035,0.694695,0.122992,0.0169927,0.708508,-0.694182,-0.0658528,0.819577,-0.836059,-0.0839717,0.845802,1.66931,-0.424658,1.51094,-3.122,0.147957,1.10632,-3.122,0.13136,1.10632,-0.746682,0.733143,0.551776,0.460511,0.633183,0.205958,-0.565442,1
1.5528,-0.753116,-1.64199,-1.07248,2.44676,1.15258,-1.28599,1.5528,-0.753116,-1.64199,-1.07248,2.44676,1.15258,-1.28599,1.6284,-0.825921,-1.69673,-1.11729,2.38336,1.13498,-1.22973,-0.780611,0.71839,0.892505,0.77505,1.16064,0.408785,-1.03468,-0.780611,0.71839,0.892505,0.77505,1.16064,0.408785,-1.03468,0.417046,-0.461533,0.887392,0.700283,0.11647,0.00967419,0.704234,-0.703782,-0.0588119,0.802963,-0.846023,-0.0773229,0.826088,1.60642,-0.422429,1.52984,-3.15224,0.115395,0.891638,-3.15224,0.12966,0.891638,-0.756035,0.72804,0.547432,0.448122,0.634019,0.176005,-0.562585,1
1.54539,-0.746005,-1.63289,-1.06835,2.45895,1.15086,-1.29659,1.54539,-0.746005,-1.63289,-1.06835,2.45895,1.15086,-1.29659,1.62057,-0.818558,-1.68775,-1.10988,2.39503,1.13874,-1.2402,-0.784709,0.746349,0.900726,0.735707,1.16446,0.372941,-1.05326,-0.784709,0.746349,0.900726,0.735707,1.16446,0.372941,-1.05326,0.408704,-0.462061,0.895586,0.705624,0.110175,0.00248979,0.699964,-0.696227,-0.0212436,0.797374,-0.834792,-0.0371943,0.817292,1.5751,-0.421143,1.53794,-3.1321,0.128594,0.810623,-3.1321,0.129273,0.810623,-0.751793,0.725538,0.548595,0.415327,0.639211,0.121198,-0.563928,1
1.53601,-0.739025,-1.62492,-1.06192,2.47041,1.15747,-1.30703,1.53601,-0.739025,-1.62492,-1.06192,2.47041,1.15747,-1.30703,1.61236,-0.811095,-1.67888,-1.10251,2.40675,1.14238,-1.25077,-0.833364,0.740812,0.882079,0.744131,1.17146,0.359387,-1.06137,-0.833364,0.740812,0.882079,0.744131,1.17146,0.359387,-1.06137,0.400191,-0.462552,0.903661,0.71098,0.103982,-0.00464794,0.695467,-0.721216,-0.0357898,0.782372,-0.85933,-0.0518528,0.799323,1.54366,-0.419941,1.54519,-3.14391,0.120196,0.724459,-3.14391,0.12631,0.724459,-0.763451,0.720698,0.53959,0.405856,0.63664,0.150847,-0.562651,1
1.52852,-0.732264,-1.61609,-1.05741,2.48215,1.1544,-1.31817,1.52852,-0.732264,-1.61609,-1.05741,2.48215,1.1544,-1.31817,1.60415,-0.803816,-1.66978,-1.09526,2.41842,1.14575,-1.26133,-0.809959,0.730254,0.918546,0.712949,1.16409,0.324346,-1.05411,-0.809959,0.730254,0.918546,0.712949,1.16409,0.324346,-1.05411,0.391726,-0.462899,0.911547,0.716064,0.0979869,-0.0117979,0.691022,-0.701989,-0.000304417,0.768745,-0.837188,-0.0155335,0.782655,1.51194,-0.418637,1.55104,-3.17161,0.130484,0.585103,-3.17161,0.122777,0.585103,-0.756283,0.715522,0.536975,0.378493,0.637313,0.0865507,-0.568363,1
1.52076,-0.724987,-1.60588,-1.0599,2.49471,1.15047,-1.32921,1.52076,-0.724987,-1.60588,-1.0599,2.49471,1.15047,-1.32921,1.59595,-0.796365,-1.66087,-1.08805,2.43,1.1485,-1.27182,-0.833184,0.746037,0.875056,0.726383,1.16129,0.255749,-1.04589,-0.833184,0.746037,0.875056,0.726383,1.16129,0.255749,-1.04589,0.383392,-0.463033,0.91932,0.720979,0.0922792,-0.0186708,0.686531,-0.708188,-0.00296422,0.757852,-0.837974,-0.0174385,0.768697,1.48112,-0.417453,1.55585,-3.08169,0.118363,0.480914,-3.08169,0.121419,0.480914,-0.751894,0.713785,0.549868,0.281514,0.647061,0.0197715,-0.573827,1
1.51259,-0.718739,-1.59582,-1.06283,2.50669,1.14675,-1.3399,1.51259,-0.718739,-1.59582,-1.06283,2.50669,1.14675,-1.3399,1.5876,-0.789001,-1.65212,-1.08086,2.44167,1.15081,-1.28225,-0.823588,0.734256,0.890007,0.712168,1.1718,0.232284,-1.03817,-0.823588,0.734256,0.890007,0.712168,1.1718,0.232284,-1.03817,0.375058,-0.463202,0.926877,0.725773,0.0868955,-0.0254886,0.681948,-0.699688,0.0147412,0.743017,-0.827694,-0.000207325,0.75118,1.45057,-0.416178,1.55987,-3.05514,0.12747,0.402558,-3.05514,0.123838,0.402558,-0.750013,0.702624,0.563072,0.180292,0.650114,-0.0405489,-0.576541,1
1.50549,-0.712435,-1.58486,-1.07279,2.51873,1.14147,-1.35044,1.50549,-0.712435,-1.58486,-1.07279,2.51873,1.14147,-1.35044,1.57945,-0.78164,-1.64318,-1.07416,2.45334,1.15305,-1.2926,-0.825146,0.736916,0.878046,0.668557,1.1695,0.21487,-1.03428,-0.825146,0.736916,0.878046,0.668557,1.1695,0.21487,-1.03428,0.366981,-0.462964,0.934238,0.730144,0.081676,-0.0321972,0.677629,-0.68595,0.0367694,0.720442,-0.809545,0.0228835,0.726137,1.4205,-0.414395,1.56291,-3.00679,0.17834,0.303757,-3.00679,0.130436,0.303757,-0.739665,0.692048,0.583213,0.013694,0.653827,-0.115775,-0.578343,1
1.49681,-0.704158,-1.5758,-1.07461,2.52952,1.15382,-1.36167,1.49681,-0.704158,-1.5758,-1.07461,2.52952,1.15382,-1.36167,1.57079,-0.774172,-1.63469,-1.06762,2.4651,1.15451,-1.30307,-0.866829,0.751705,0.856642,0.636666,1.18035,0.1174,-1.04843,-0.866829,0.751705,0.856642,0.636666,1.18035,0.1174,-1.04843,0.358893,-0.462845,0.941363,0.734618,0.0769625,-0.0385982,0.672996,-0.68338,0.0408764,0.703397,-0.798291,0.0260358,0.706379,1.39022,-0.413375,1.56555,-3.02866,0.101945,0.263727,-3.02866,0.131626,0.263727,-0.739758,0.700137,0.588904,-0.0699216,0.644185,-0.00695509,-0.585991,1
1.49331,-0.695813,-1.56765,-1.07863,2.54024,1.16274,-1.37427,1.49331,-0.695813,-1.56765,-1.07863,2.54024,1.16274,-1.37427,1.56263,-0.766646,-1.6255,-1.06242,2.47694,1.15485,-1.31363,-0.808104,0.748338,0.926344,0.478206,1.18539,0.00577655,-1.05922,-0.808104,0.748338,0.926344,0.478206,1.18539,0.00577655,-1.05922,0.351661,-0.461962,0.94821,0.738283,0.0730114,-0.0445187,0.669049,-0.598741,0.121725,0.667696,-0.698853,0.104558,0.668027,1.35904,-0.412324,1.56687,-3.1177,0.105107,0.131691,-3.1177,0.130113,0.131691,-0.693191,0.708338,0.578518,-0.162073,0.633026,0.0788472,-0.606423,1
1.48497,-0.687965,-1.55881,-1.08274,2.55319,1.16085,-1.38492,1.48497,-0.687965,-1.55881,-1.08274,2.55319,1.16085,-1.38492,1.55384,-0.759204,-1.61674,-1.05878,2.48903,1.1542,-1.32433,-0.900181,0.747391,0.870508,0.321844,1.21529,-0.0845029,-1.07478,-0.900181,0.747391,0.870508,0.321844,1.21529,-0.0845029,-1.07478,0.344937,-0.46108,0.954386,0.74177,0.070145,-0.0498174,0.665113,-0.577439,0.115427,0.603821,-0.661427,0.0943572,0.601833,1.32814,-0.411009,1.56679,-3.08987,0.131544,-0.00780821,-3.08987,0.128368,-0.00780821,-0.688757,0.712392,0.579252,-0.239539,0.641597,0.0664773,-0.60586,1
1.47894,-0.681375,-1.54656,-1.08782,2.5659,1.1625,-1.39608,1.47894,-0.681375,-1.54656,-1.08782,2.5659,1.1625,-1.39608,1.54479,-0.751561,-1.60703,-1.05734,2.50133,1.15344,-1.33509,-0.906246,0.764996,1.00308,0.0869237,1.23038,-0.0514615,-1.0784,-0.906246,0.764996,1.00308,0.0869237,1.23038,-0.0514615,-1.0784,0.338864,-0.459362,0.960209,0.744525,0.0677575,-0.0546816,0.661892,-0.513748,0.220295,0.574489,-0.590663,0.200436,0.571641,1.29723,-0.409803,1.56592,-3.09141,0.12058,-0.0870228,-3.09141,0.126282,-0.0870228,-0.658472,0.701859,0.604726,-0.304772,0.645707,0.0905735,-0.609941,1
1.46894,-0.676292,-1.53568,-1.0878,2.57744,1.16671,-1.40615,1.46894,-0.676292,-1.53568,-1.0878,2.57744,1.16671,-1.40615,1.53481,-0.744406,-1.59734,-1.05754,2.51363,1.1539,-1.34592,-1.03508,0.704522,0.946849,-0.0397527,1.2318,0.0768807,-1.08938,-1.03508,0.704522,0.946849,-0.0397527,1.2318,0.0768807,-1.08938,0.332809,-0.457709,0.965316,0.747219,0.0655066,-0.0595136,0.658659,-0.538913,0.172589,0.495453,-0.615299,0.151551,0.49148,1.26668,-0.408482,1.56427,-3.05476,0.132141,-0.164998,-3.05476,0.123713,-0.164998,-0.65872,0.681132,0.616547,-0.302595,0.638155,0.128076,-0.602303,1
1.46572,-0.673308,-1.52522,-1.09068,2.58816,1.17505,-1.41781,1.46572,-0.673308,-1.52522,-1.09068,2.58816,1.17505,-1.41781,1.52462,-0.737062,-1.58728,-1.05897,2.52568,1.15554,-1.35695,-0.995063,0.747091,1.03316,-0.191393,1.19797,0.189128,-1.10753,-0.995063,0.747091,1.03316,-0.191393,1.19797,0.189128,-1.10753,0.32697,-0.455427,0.970206,0.749715,0.0629605,-0.0641338,0.65563,-0.481279,0.282969,0.488413,-0.556699,0.269502,0.484927,1.23573,-0.407487,1.56166,-3.09525,0.0994414,-0.260556,-3.09525,0.117969,-0.260556,-0.588937,0.637546,0.62067,-0.317086,0.624753,0.195145,-0.608559,1
1.45804,-0.669527,-1.51814,-1.08963,2.5992,1.1785,-1.42876,1.45804,-0.669527,-1.51814,-1.08963,2.5992,1.1785,-1.42876,1.51453,-0.729939,-1.57759,-1.06182,2.53754,1.15761,-1.36814,-1.02556,0.691567,0.937525,-0.297228,1.18756,0.208543,-1.12227,-1.02556,0.691567,0.937525,-0.297228,1.18756,0.208543,-1.12227,0.321756,-0.452889,0.974478,0.752024,0.0608169,-0.0683015,0.65276,-0.45201,0.24988,0.408045,-0.517957,0.233461,0.403464,1.20578,-0.406722,1.559,-2.99426,0.0765234,-0.266099,-2.99426,0.114862,-0.266099,-0.564904,0.604124,0.594569,-0.278151,0.616664,0.208906,-0.606202,1
1.4542,-0.665335,-1.51141,-1.09364,2.60971,1.18619,-1.44049,1.4542,-0.665335,-1.51141,-1.09364,2.60971,1.18619,-1.44049,1.50471,-0.722815,-1.56778,-1.06551,2.54942,1.1597,-1.37938,-0.954543,0.730552,1.01097,-0.400175,1.1833,0.212126,-1.12212,-0.954543,0.730552,1.01097,-0.400175,1.1833,0.212126,-1.12212,0.317062,-0.449978,0.978477,0.754014,0.0589714,-0.0721942,0.65021,-0.382145,0.344086,0.407339,-0.442281,0.330399,0.402823,1.17454,-0.405406,1.55455,-3.12483,0.131631,-0.445545,-3.12483,0.113019,-0.445545,-0.50509,0.574798,0.56364,-0.281256,0.602973,0.264859,-0.611123,1
1.44777,-0.661676,-1.50346,-1.1,2.61962,1.18823,-1.45038,1.44777,-0.661676,-1.50346,-1.1,2.61962,1.18823,-1.45038,1.4951,-0.715431,-1.55782,-1.06974,2.56129,1.16212,-1.39055,-0.97723,0.726849,0.983797,-0.416594,1.19222,0.269041,-1.11557,-0.97723,0.726849,0.983797,-0.416594,1.19222,0.269041,-1.11557,0.312705,-0.446592,0.982405,0.755754,0.0571012,-0.0758774,0.647933,-0.383682,0.339556,0.38757,-0.444637,0.326462,0.382582,1.14404,-0.403668,1.54901,-3.04919,0.173822,-0.554001,-3.04919,0.116352,-0.554001,-0.473274,0.53755,0.543607,-0.302624,0.583327,0.26108,-0.598257,1
1.44385,-0.661068,-1.49505,-1.10327,2.62639,1.19777,-1.46016,1.44385,-0.661068,-1.49505,-1.10327,2.62639,1.19777,-1.46016,1.48576,-0.708326,-1.54741,-1.07392,2.57311,1.16566,-1.40166,-0.903249,0.707111,1.06384,-0.426397,1.17379,0.381839,-1.10675,-0.903249,0.707111,1.06384,-0.426397,1.17379,0.381839,-1.10675,0.308302,-0.443034,0.986253,0.757266,0.0548218,-0.0799554,0.645871,-0.357328,0.388134,0.387946,-0.425223,0.377155,0.382383,1.11377,-0.402307,1.54254,-3.02709,0.13608,-0.646532,-3.02709,0.122139,-0.646532,-0.419172,0.472581,0.523628,-0.293492,0.53282,0.32112,-0.585032,1
1.43518,-0.660812,-1.49642,-1.10334,2.62926,1.21057,-1.46847,1.43518,-0.660812,-1.49642,-1.10334,2.62926,1.21057,-1.46847,1.47708,-0.701439,-1.53737,-1.07789,2.58462,1.16997,-1.41272,-0.867003,0.683157,0.973564,-0.385308,1.14521,0.449087,-1.1082,-0.867003,0.683157,0.973564,-0.385308,1.14521,0.449087,-1.1082,0.304103,-0.439396,0.989909,0.758723,0.0523553,-0.0840872,0.643838,-0.35072,0.364406,0.361802,-0.420143,0.35486,0.355712,1.08287,-0.401261,1.53551,-3.09016,0.104553,-0.703061,-3.09016,0.125276,-0.703061,-0.419022,0.406276,0.409507,-0.25456,0.446468,0.406043,-0.557489,1
1.42836,-0.65526,-1.49844,-1.11591,2.62826,1.21941,-1.47736,1.42836,-0.65526,-1.49844,-1.11591,2.62826,1.21941,-1.47736,1.46919,-0.694614,-1.52768,-1.0817,2.59584,1.17512,-1.42382,-0.750519,0.686908,0.979005,-0.397352,1.11217,0.530182,-1.10989,-0.750519,0.686908,0.979005,-0.397352,1.11217,0.530182,-1.10989,0.300164,-0.435531,0.993433,0.760089,0.0496355,-0.088253,0.641882,-0.298542,0.417945,0.354442,-0.369237,0.41156,0.348128,1.05203,-0.400269,1.52703,-3.08437,0.0991821,-0.848162,-3.08437,0.127409,-0.848162,-0.40831,0.393537,0.29234,-0.342074,0.324237,0.442896,-0.535375,1
1.41781,-0.647547,-1.4947,-1.11812,2.63329,1.22119,-1.48931,1.41781,-0.647547,-1.4947,-1.11812,2.63329,1.22119,-1.48931,1.46213,-0.688063,-1.51846,-1.08579,2.60662,1.18064,-1.43484,-0.710385,0.640314,0.886609,-0.402289,1.06837,0.566613,-1.09883,-0.710385,0.640314,0.886609,-0.402289,1.06837,0.566613,-1.09883,0.296754,-0.431534,0.996602,0.761283,0.0470618,-0.0921954,0.640104,-0.274707,0.388801,0.308511,-0.34214,0.381997,0.301671,1.02147,-0.3991,1.5178,-3.05605,0.116897,-0.92243,-3.05605,0.126943,-0.92243,-0.44316,0.405158,0.237602,-0.323335,0.266751,0.405525,-0.544696,1
1.41155,-0.640943,-1.48023,-1.12563,2.64036,1.22406,-1.50163,1.41155,-0.640943,-1.48023,-1.12563,2.64036,1.22406,-1.50163,1.4552,-0.681678,-1.50997,-1.08949,2.61672,1.1869,-1.44562,-0.676015,0.647936,0.848284,-0.369573,0.981898,0.654851,-1.06947,-0.676015,0.647936,0.848284,-0.369573,0.981898,0.654851,-1.06947,0.293273,-0.427691,0.999593,0.76272,0.0441947,-0.0960726,0.638025,-0.269947,0.402758,0.306491,-0.340747,0.403171,0.300042,0.991357,-0.398548,1.50741,-3.01106,0.0552207,-1.03984,-3.01106,0.113372,-1.03984,-0.436576,0.40735,0.297449,-0.361398,0.236368,0.371594,-0.560102,1
1.40823,-0.643882,-1.47797,-1.11921,2.62627,1.24305,-1.51165,1.40823,-0.643882,-1.47797,-1.11921,2.62627,1.24305,-1.51165,1.44896,-0.675411,-1.50215,-1.09345,2.6253,1.19433,-1.45591,-0.612356,0.611469,0.740069,-0.414872,0.807411,0.769346,-1.01762,-0.612356,0.611469,0.740069,-0.414872,0.807411,0.769346,-1.01762,0.290156,-0.423505,1.00231,0.764168,0.0408213,-0.0994729,0.635992,-0.22887,0.405443,0.254772,-0.296298,0.415263,0.249761,0.960556,-0.397271,1.49618,-3.08014,0.12767,-1.12276,-3.08014,0.103093,-1.12276,-0.407281,0.315286,0.241773,-0.25765,0.00971128,0.487259,-0.557452,1
1.39999,-0.6432,-1.50735,-1.11558,2.60163,1.25535,-1.52102,1.39999,-0.6432,-1.50735,-1.11558,2.60163,1.25535,-1.52102,1.44311,-0.669557,-1.49631,-1.09776,2.6316,1.20287,-1.46571,-0.577267,0.587909,0.542094,-0.435401,0.572143,0.873906,-0.969957,-0.577267,0.587909,0.542094,-0.435401,0.572143,0.873906,-0.969957,0.287434,-0.419487,1.00436,0.766182,0.0371345,-0.101932,0.6334,-0.200255,0.382459,0.197689,-0.261838,0.406591,0.195403,0.929714,-0.395933,1.48382,-3.08422,0.133803,-1.23554,-3.08422,0.10293,-1.23554,-0.431216,0.263574,-0.110392,-0.178224,-0.299676,0.524828,-0.553164,1
1.39388,-0.627549,-1.49091,-1.13588,2.60079,1.25299,-1.53535,1.39388,-0.627549,-1.49091,-1.13588,2.60079,1.25299,-1.53535,1.4374,-0.663226,-1.49142,-1.10237,2.63599,1.21151,-1.47539,-0.572306,0.649602,0.485985,-0.482306,0.401319,0.858914,-0.970916,-0.572306,0.649602,0.485985,-0.482306,0.401319,0.858914,-0.970916,0.285133,-0.414975,1.00633,0.768624,0.0331064,-0.103223,0.63045,-0.163696,0.433597,0.19432,-0.215312,0.47157,0.195179,0.899774,-0.394226,1.47046,-2.99398,0.170782,-1.33649,-2.99398,0.112884,-1.33649,-0.435233,0.356774,0.00501365,-0.335095,-0.352011,0.414861,-0.599553,1
1.38589,-0.623099,-1.44187,-1.14543,2.62735,1.25422,-1.54913,1.38589,-0.623099,-1.44187,-1.14543,2.62735,1.25422,-1.54913,1.4314,-0.656682,-1.48635,-1.10734,2.63904,1.21979,-1.48536,-0.615196,0.643838,0.511523,-0.494889,0.252085,0.829361,-1.00611,-0.615196,0.643838,0.511523,-0.494889,0.252085,0.829361,-1.00611,0.283042,-0.410066,1.00831,0.771316,0.0289445,-0.103751,0.627272,-0.165156,0.444198,0.191975,-0.212139,0.490503,0.19431,0.870126,-0.393462,1.45616,-2.96484,0.0763386,-1.42956,-2.96484,0.117092,-1.42956,-0.455122,0.335832,0.444776,-0.380906,-0.116883,0.344226,-0.637773,1
1.38395,-0.643256,-1.43515,-1.13195,2.63651,1.27868,-1.55824,1.38395,-0.643256,-1.43515,-1.13195,2.63651,1.27868,-1.55824,1.42487,-0.651052,-1.4819,-1.11127,2.63868,1.22863,-1.49559,-0.661598,0.525113,0.395398,-0.355576,-0.144632,0.898784,-1.0275,-0.661598,0.525113,0.395398,-0.355576,-0.144632,0.898784,-1.0275,0.280426,-0.405637,1.01015,0.775059,0.0238554,-0.103648,0.622873,-0.223186,0.349549,0.166033,-0.273644,0.415529,0.170485,0.841265,-0.392496,1.44107,-2.8861,0.096646,-1.509,-2.8861,0.11797,-1.509,-0.409145,0.0779571,0.467512,-0.206809,-0.0216893,0.500485,-0.626497,1
1.39924,-0.661834,-1.50724,-1.11622,2.5987,1.30479,-1.56117,1.39924,-0.661834,-1.50724,-1.11622,2.5987,1.30479,-1.56117,1.41898,-0.646388,-1.48072,-1.11476,2.63354,1.23801,-1.5059,-0.542777,0.471988,0.0414525,-0.360525,-0.631334,0.953635,-1.03031,-0.542777,0.471988,0.0414525,-0.360525,-0.631334,0.953635,-1.03031,0.278261,-0.401787,1.0112,0.78023,0.0181789,-0.101706,0.616901,-0.149502,0.310527,0.0791192,-0.181434,0.40412,0.0893861,0.810559,-0.391203,1.42508,-3.07057,0.129232,-1.5994,-3.07057,0.121631,-1.5994,-0.197409,-0.154462,-0.265166,-0.0146033,-0.348389,0.667793,-0.552775,1
1.39082,-0.642577,-1.51528,-1.10945,2.57573,1.31162,-1.56629,1.39082,-0.642577,-1.51528,-1.10945,2.57573,1.31162,-1.56629,1.41441,-0.64034,-1.4811,-1.11862,2.62564,1.24711,-1.51656,-0.449913,0.648763,-0.0447241,-0.39154,-0.784728,0.889868,-1.0811,-0.449913,0.648763,-0.0447241,-0.39154,-0.784728,0.889868,-1.0811,0.277273,-0.396549,1.01236,0.78579,0.0118967,-0.097697,0.610613,-0.0662782,0.439107,0.111709,-0.0824847,0.552406,0.125357,0.779984,-0.390513,1.40791,-3.05753,0.0690848,-1.71692,-3.05753,0.11238,-1.71692,-0.235886,-0.0223634,-0.341788,0.0916962,-0.499072,0.645066,-0.497307,1
1.37463,-0.606909,-1.49241,-1.14466,2.57998,1.30802,-1.58109,1.37463,-0.606909,-1.49241,-1.14466,2.57998,1.30802,-1.58109,1.4094,-0.633423,-1.47985,-1.12348,2.62099,1.25524,-1.52794,-0.523926,0.684499,0.211049,-0.505759,-0.33486,0.796933,-1.15378,-0.523926,0.684499,0.211049,-0.505759,-0.33486,0.796933,-1.15378,0.276511,-0.390837,1.01374,0.790538,0.00651874,-0.0944148,0.605056,-0.0670394,0.479452,0.131015,-0.0866956,0.564681,0.138995,0.750266,-0.389367,1.38998,-2.97179,0.114581,-1.79329,-2.97179,0.104945,-1.79329,-0.347663,0.265135,-0.12563,-0.211826,-0.410151,0.52782,-0.531475,1
1.34357,-0.59834,-1.46412,-1.1562,2.59453,1.30453,-1.60031,1.34357,-0.59834,-1.46412,-1.1562,2.59453,1.30453,-1.60031,1.40312,-0.628463,-1.47506,-1.12775,2.62042,1.26368,-1.53968,-0.662233,0.414824,0.549788,-0.378333,-0.0141315,0.871233,-1.16901,-0.662233,0.414824,0.549788,-0.378333,-0.0141315,0.871233,-1.16901,0.274314,-0.38655,1.0151,0.794239,0.00188554,-0.094435,0.600219,-0.217737,0.321746,0.133398,-0.27116,0.372225,0.131342,0.72046,-0.388186,1.37113,-2.98052,0.118062,-1.88496,-2.98052,0.101044,-1.88496,-0.595437,0.301233,0.109366,-0.284528,-0.258854,0.40848,-0.606322,1
1.33124,-0.613135,-1.44001,-1.16018,2.58326,1.31846,-1.61228,1.33124,-0.613135,-1.44001,-1.16018,2.58326,1.31846,-1.61228,1.39687,-0.62645,-1.46876,-1.13006,2.61824,1.2737,-1.55053,-0.587901,0.151484,0.6257,-0.175729,-0.32155,1.04162,-1.05077,-0.587901,0.151484,0.6257,-0.175729,-0.32155,1.04162,-1.05077,0.270771,-0.383716,1.01625,0.797654,-0.00365233,-0.0963066,0.595365,-0.291256,0.214774,0.117915,-0.366821,0.271621,0.112055,0.690406,-0.387201,1.35131,-3.00542,0.0985533,-1.98213,-3.00542,0.104431,-1.98213,-0.656389,0.133145,0.287537,-0.301266,-0.34988,0.447539,-0.617492,1
1.34634,-0.641612,-1.49686,-1.15378,2.55563,1.34686,-1.61609,1.34634,-0.641612,-1.49686,-1.15378,2.55563,1.34686,-1.61609,1.39285,-0.625621,-1.46442,-1.13052,2.61096,1.28515,-1.5599,-0.337005,0.0732974,0.344495,-0.0285471,-0.861237,1.16872,-0.9073,-0.337005,0.0732974,0.344495,-0.0285471,-0.861237,1.16872,-0.9073,0.267441,-0.380931,1.01717,0.801325,-0.0108455,-0.0972703,0.590168,-0.233368,0.199027,0.0803879,-0.304695,0.287125,0.0768716,0.660879,-0.386111,1.33075,-2.9527,0.108933,-2.05532,-2.9527,0.105305,-2.05532,-0.465079,-0.159915,-0.324405,-0.232639,-0.553318,0.61714,-0.561961,1
1.35312,-0.61034,-1.51777,-1.14457,2.54124,1.3595,-1.61818,1.35312,-0.61034,-1.51777,-1.14457,2.54124,1.3595,-1.61818,1.39101,-0.624544,-1.46454,-1.13138,2.60066,1.2962,-1.56877,-0.147254,0.128342,-0.136072,-0.113182,-1.02988,1.07148,-0.896418,-0.147254,0.128342,-0.136072,-0.113182,-1.02988,1.07148,-0.896418,0.265747,-0.378078,1.01726,0.805628,-0.0178156,-0.0958846,0.584339,-0.087832,0.17725,-0.0187303,-0.125139,0.27639,-0.0169738,0.63096,-0.385179,1.30902,-2.99193,0.0932068,-2.17313,-2.99193,0.103719,-2.17313,-0.378943,0.142034,-0.532337,-0.131941,-0.594214,0.63301,-0.494059,1
1.34609,-0.59812,-1.51413,-1.12854,2.53851,1.3552,-1.62823,1.34609,-0.59812,-1.51413,-1.12854,2.53851,1.3552,-1.62823,1.3895,-0.622032,-1.46849,-1.13376,2.59295,1.3058,-1.57859,-0.169257,0.303844,-0.452512,-0.290565,-0.693357,0.927842,-1.01681,-0.169257,0.303844,-0.452512,-0.290565,-0.693357,0.927842,-1.01681,0.265374,-0.375571,1.01662,0.810504,-0.0228903,-0.0933266,0.577797,-0.000734653,0.171142,-0.07823,-0.0110371,0.257318,-0.0738846,0.600921,-0.384262,1.28651,-3.00391,0.0916809,-2.25058,-3.00391,0.104287,-2.25058,-0.434061,0.239124,-0.456355,0.0521412,-0.54435,0.494006,-0.496368,1
1.34306,-0.590758,-1.49289,-1.15016,2.54511,1.32795,-1.64055,1.34306,-0.590758,-1.49289,-1.15016,2.54511,1.32795,-1.64055,1.38617,-0.617349,-1.47244,-1.138,2.58645,1.31498,-1.5896,-0.407234,0.516161,-0.350032,-0.456586,-0.657365,0.929867,-1.12053,-0.407234,0.516161,-0.350032,-0.456586,-0.657365,0.929867,-1.12053,0.265303,-0.372044,1.01614,0.815733,-0.0277653,-0.0897807,0.570744,-0.0187119,0.284792,-0.0398387,-0.0212705,0.384225,-0.0345144,0.5713,-0.382846,1.26273,-2.96212,0.141671,-2.37855,-2.96212,0.105115,-2.37855,-0.431043,0.265913,-0.204577,-0.121585,-0.413424,0.129699,-0.509544,1
1.31405,-0.604549,-1.50201,-1.13433,2.54578,1.3617,-1.6551,1.31405,-0.604549,-1.50201,-1.13433,2.54578,1.3617,-1.6551,1.37983,-0.612519,-1.47354,-1.14271,2.57857,1.32545,-1.60065,-0.702964,0.424072,-0.0277202,-0.462758,-0.832589,1.10609,-1.0875,-0.702964,0.424072,-0.0277202,-0.462758,-0.832589,1.10609,-1.0875,0.263954,-0.368,1.01607,0.821036,-0.0341047,-0.0864772,0.563257,-0.160287,0.269929,-0.0124466,-0.182647,0.381462,-0.0118513,0.541472,-0.38189,1.23793,-2.98274,0.0955969,-2.48017,-2.98274,0.105171,-2.48017,-0.657751,0.0797051,-0.284747,0.083839,-0.327882,0.362498,-0.544437,1
1.30855,-0.615105,-1.52274,-1.19178,2.5158,1.37455,-1.66236,1.30855,-0.615105,-1.52274,-1.19178,2.5158,1.37455,-1.66236,1.37186,-0.610262,-1.47302,-1.1466,2.56826,1.33692,-1.61052,-0.792381,0.154588,0.0652317,-0.354622,-1.08626,1.15723,-0.951967,-0.792381,0.154588,0.0652317,-0.354622,-1.08626,1.15723,-0.951967,0.261269,-0.36524,1.01568,0.826258,-0.0412643,-0.0840189,0.555461,-0.25378,0.126964,-0.0491067,-0.285514,0.240446,-0.0521673,0.511398,-0.381105,1.21254,-3.00745,0.0785202,-2.53888,-3.00745,0.103803,-2.53888,-0.633117,-0.0484259,-0.497258,-0.451832,-0.52464,0.376294,-0.518357,1
1.30285,-0.604673,-1.52717,-1.19273,2.49965,1.39552,-1.66752,1.30285,-0.604673,-1.52717,-1.19273,2.49965,1.39552,-1.66752,1.36475,-0.609418,-1.47415,-1.14873,2.55676,1.34711,-1.6193,-0.681656,0.0903513,-0.214847,-0.165914,-1.14781,0.912717,-0.864527,-0.681656,0.0903513,-0.214847,-0.165914,-1.14781,0.912717,-0.864527,0.258561,-0.363789,1.01501,0.83158,-0.0479801,-0.0813987,0.547309,-0.233774,0.0044713,-0.0690356,-0.24727,0.113825,-0.070582,0.481688,-0.380243,1.18573,-2.97093,0.0861496,-2.68077,-2.97093,0.100453,-2.68077,-0.619045,0.0474586,-0.530197,-0.439957,-0.571113,0.484138,-0.48216,1
1.29917,-0.584426,-1.53088,-1.20966,2.49624,1.34576,-1.67507,1.29917,-0.584426,-1.53088,-1.20966,2.49624,1.34576,-1.67507,1.3594,-0.607115,-1.47885,-1.15029,2.54705,1.35247,-1.62793,-0.484666,0.295251,-0.525294,-0.141609,-0.895848,0.449731,-0.871395,-0.484666,0.295251,-0.525294,-0.141609,-0.895848,0.449731,-0.871395,0.257557,-0.36268,1.01436,0.837112,-0.0522916,-0.0769677,0.539059,-0.086975,0.034534,-0.0555839,-0.0614109,0.128556,-0.0512021,0.452046,-0.379361,1.15802,-2.96429,0.0881881,-2.77116,-2.96429,0.0972648,-2.77116,-0.60232,0.226893,-0.520352,-0.593751,-0.508027,-0.0670658,-0.471356,1
1.28772,-0.57209,-1.52371,-1.20884,2.52017,1.31433,-1.6879,1.28772,-0.57209,-1.52371,-1.20884,2.52017,1.31433,-1.6879,1.35485,-0.602727,-1.48516,-1.1511,2.54018,1.35706,-1.63716,-0.46446,0.462099,-0.677269,-0.089848,-0.645515,0.504488,-0.940389,-0.46446,0.462099,-0.677269,-0.089848,-0.645515,0.504488,-0.940389,0.256974,-0.361137,1.0142,0.842653,-0.0561371,-0.0725822,0.530581,-0.08488,0.0589098,-0.0257968,-0.0620153,0.150191,-0.0231994,0.422523,-0.378962,1.12997,-2.95223,0.0399679,-2.80449,-2.95223,0.0875665,-2.80449,-0.671378,0.306371,-0.385554,-0.577382,-0.200127,-0.427296,-0.507484,1
1.28157,-0.574215,-1.54765,-1.21196,2.49246,1.35603,-1.68857,1.28157,-0.574215,-1.54765,-1.21196,2.49246,1.35603,-1.68857,1.35012,-0.598545,-1.49329,-1.15358,2.53326,1.36367,-1.64681,-0.46887,0.400451,-0.845652,-0.307451,-0.72816,0.7094,-0.968325,-0.46887,0.400451,-0.845652,-0.307451,-0.72816,0.7094,-0.968325,0.256693,-0.359937,1.01311,0.848408,-0.05999,-0.0679266,0.521528,-0.0423789,0.0220034,-0.142132,-0.0110062,0.116865,-0.139444,0.391741,-0.377877,1.10124,-3.07822,0.108498,-2.8733,-3.07822,0.080384,-2.8733,-0.685552,0.243297,-0.543571,-0.583743,-0.407973,-0.0763435,-0.417581,1
1.27567,-0.597802,-1.55846,-1.19932,2.46941,1.39872,-1.69786,1.27567,-0.597802,-1.55846,-1.19932,2.46941,1.39872,-1.69786,1.34514,-0.595333,-1.5025,-1.15852,2.52444,1.37177,-1.6562,-0.516077,0.290241,-0.941552,-0.580638,-0.928561,0.810118,-0.928669,-0.516077,0.290241,-0.941552,-0.580638,-0.928561,0.810118,-0.928669,0.257018,-0.359003,1.0108,0.854098,-0.0638127,-0.0623044,0.512409,0.00780319,-0.0190453,-0.273118,0.0572812,0.0799526,-0.269021,0.362624,-0.376712,1.0726,-2.91168,0.116473,-2.8639,-2.91168,0.0831127,-2.8639,-0.694698,-0.0246842,-0.559667,-0.407911,-0.550314,0.269488,-0.416564,1
1.28905,-0.593814,-1.54725,-1.20394,2.48922,1.35153,-1.70276,1.28905,-0.593814,-1.54725,-1.20394,2.48922,1.35153,-1.70276,1.33944,-0.592919,-1.51115,-1.16727,2.51482,1.3777,-1.66504,-0.587741,0.239391,-0.80368,-0.945785,-0.935477,0.453928,-0.877297,-0.587741,0.239391,-0.80368,-0.945785,-0.935477,0.453928,-0.877297,0.258716,-0.358189,1.00736,0.85925,-0.0657864,-0.0549444,0.504324,0.118066,0.00410449,-0.361067,0.205601,0.0841445,-0.351465,0.346282,-0.377861,1.05955,-1.6342,-0.114945,-1.30531,-1.6342,0.0652757,-1.30531,-0.503892,-0.00895316,-0.36102,-0.366753,-0.25597,-0.261663,-0.37725,1
1.35331,-0.604628,-1.49885,-1.20605,2.5305,1.33517,-1.64437,1.35331,-0.604628,-1.49885,-1.20605,2.5305,1.33517,-1.64437,1.33211,-0.590396,-1.51748,-1.17802,2.50879,1.37691,-1.67378,-0.790629,0.244101,-0.601403,-1.09727,-0.477747,-0.200731,-0.872024,-0.790629,0.244101,-0.601403,-1.09727,-0.477747,-0.200731,-0.872024,0.261283,-0.358007,1.00397,0.863865,-0.0639565,-0.0468642,0.497445,0.132143,-0.0564817,-0.356839,0.249865,-0.0253898,-0.341611,0.352405,-0.384347,1.06619,0.61228,-0.64854,0.664258,0.61228,-0.0252182,0.664258,0.211957,-0.142324,0.186371,-0.280319,0.217084,-0.417361,0.294144,1
1.35006,-0.595621,-1.51736,-1.19592,2.52747,1.38757,-1.63772,1.35006,-0.595621,-1.51736,-1.19592,2.52747,1.38757,-1.63772,1.32295,-0.58809,-1.52358,-1.18876,2.50437,1.37427,-1.68187,-0.942634,0.243634,-0.622902,-1.0323,-0.488542,-0.208677,-0.790413,-0.942634,0.243634,-0.622902,-1.0323,-0.488542,-0.208677,-0.790413,0.263293,-0.358889,1.00054,0.868557,-0.0609355,-0.0389433,0.490284,0.0541539,-0.119543,-0.348932,0.171339,-0.0880271,-0.336,0.36472,-0.392677,1.07799,1.23149,-0.833058,1.17956,1.23149,-0.181082,1.17956,0.271051,-0.0753079,0.062215,-0.0716031,0.231013,0.132979,0.441489,1
1.337,-0.60713,-1.53781,-1.19648,2.51009,1.40599,-1.64584,1.337,-0.60713,-1.53781,-1.19648,2.51009,1.40599,-1.64584,1.3133,-0.585316,-1.53034,-1.19714,2.497,1.37526,-1.68926,-0.956859,0.293535,-0.689569,-0.801594,-0.818111,0.187944,-0.726179,-0.956859,0.293535,-0.689569,-0.801594,-0.818111,0.187944,-0.726179,0.263982,-0.359374,0.9976,0.873544,-0.0609166,-0.0312997,0.481902,-0.0421111,-0.0954051,-0.293136,0.0521968,-0.0271491,-0.287595,0.377274,-0.401039,1.08948,1.25541,-0.836194,1.14884,1.25541,-0.369533,1.14884,0.236974,-0.218137,-0.074706,0.00660573,0.130917,0.30731,0.434276,1
1.32114,-0.597332,-1.55589,-1.18239,2.48827,1.42726,-1.6541,1.32114,-0.597332,-1.55589,-1.18239,2.48827,1.42726,-1.6541,1.30498,-0.58181,-1.53658,-1.20468,2.48982,1.3761,-1.69483,-0.787178,0.363281,-0.57644,-0.734868,-0.604451,-0.011169,-0.449027,-0.787178,0.363281,-0.57644,-0.734868,-0.604451,-0.011169,-0.449027,0.26494,-0.359102,0.995149,0.877603,-0.0613575,-0.0238015,0.474849,0.0183012,-0.023433,-0.232057,0.111834,0.0285696,-0.227081,0.390026,-0.408966,1.09978,1.27524,-0.792724,1.03068,1.27524,-0.559787,1.03068,0.161616,-0.155212,-0.193154,0.222923,-0.0154828,0.511577,0.407272,1
1.33397,-0.566631,-1.57159,-1.1514,2.46014,1.43526,-1.66385,1.33397,-0.566631,-1.57159,-1.1514,2.46014,1.43526,-1.66385,1.29764,-0.57858,-1.53977,-1.21035,2.48959,1.373,-1.69372,-0.72147,0.291857,-0.213722,-0.504944,0.178149,-0.375229,0.308886,-0.72147,0.291857,-0.213722,-0.504944,0.178149,-0.375229,0.308886,0.265506,-0.35959,0.993844,0.879114,-0.0592413,-0.0190551,0.472531,-0.0398395,-0.0727634,-0.105656,0.0236821,-0.0808812,-0.099222,0.401949,-0.417506,1.10877,1.19223,-0.854003,0.898361,1.19223,-0.718881,0.898361,0.363284,0.119493,-0.31826,0.589474,-0.294456,0.622605,0.298696,1
1.33696,-0.633444,-1.58668,-1.14837,2.44206,1.43771,-1.71973,1.33696,-0.633444,-1.58668,-1.14837,2.44206,1.43771,-1.71973,1.29145,-0.577463,-1.53902,-1.21444,2.49554,1.37075,-1.6855,-0.573336,0.0442807,0.143628,-0.384014,0.675646,-0.120642,0.960562,-0.573336,0.0442807,0.143628,-0.384014,0.675646,-0.120642,0.960562,0.264719,-0.361041,0.993183,0.877728,-0.0561631,-0.0189104,0.47548,-0.116333,-0.116228,-0.0703431,-0.110893,-0.16078,-0.0662519,0.414365,-0.42562,1.11729,1.24161,-0.811321,0.852585,1.24161,-0.806728,0.852585,0.455155,-0.559803,-0.476533,0.660697,-0.534803,0.669529,-0.342351,1
1.34491,-0.642878,-1.55189,-1.16062,2.44055,1.43575,-1.72276,1.34491,-0.642878,-1.55189,-1.16062,2.44055,1.43575,-1.72276,1.28709,-0.578683,-1.53772,-1.21608,2.50115,1.37362,-1.67492,-0.392498,-0.164839,0.089592,-0.0651328,0.484152,0.430751,1.03278,-0.392498,-0.164839,0.089592,-0.0651328,0.484152,0.430751,1.03278,0.262446,-0.363065,0.992585,0.875422,-0.0552675,-0.0217629,0.479697,-0.227621,-0.190525,-0.0523975,-0.270644,-0.216009,-0.0543984,0.426118,-0.433871,1.12479,1.17533,-0.825167,0.75016,1.17533,-0.824736,0.75016,0.578198,-0.641953,-0.14172,0.554605,-0.605952,0.621237,-0.478482,1
1.34572,-0.648873,-1.52546,-1.1641,2.44718,1.44443,-1.71328,1.34572,-0.648873,-1.52546,-1.1641,2.44718,1.44443,-1.71328,1.28508,-0.58075,-1.53875,-1.21438,2.50205,1.38207,-1.66688,-0.128312,-0.206627,-0.171358,0.249218,-0.0560849,0.978322,0.710409,-0.128312,-0.206627,-0.171358,0.249218,-0.0560849,0.978322,0.710409,0.259246,-0.364822,0.99212,0.87414,-0.0581859,-0.0252301,0.481516,-0.260034,-0.17427,-0.0327653,-0.328589,-0.149486,-0.0416209,0.437975,-0.442677,1.1316,1.18565,-0.880563,0.681031,1.18565,-0.829702,0.681031,0.606329,-0.681226,0.13293,0.502768,-0.548783,0.623654,-0.464011,1
1.34471,-0.652543,-1.55471,-1.16208,2.44574,1.45789,-1.70358,1.34471,-0.652543,-1.55471,-1.16208,2.44574,1.45789,-1.70358,1.28548,-0.582538,-1.54303,-1.20923,2.49676,1.39444,-1.66338,0.0830368,-0.172329,-0.52123,0.598934,-0.695088,1.29364,0.198538,0.0830368,-0.172329,-0.52123,0.598934,-0.695088,1.29364,0.198538,0.255789,-0.365758,0.991952,0.87464,-0.064869,-0.0276617,0.479617,-0.276416,-0.162239,0.00166246,-0.347986,-0.0819534,-0.0133838,0.449879,-0.451196,1.13731,1.19043,-0.851932,0.570679,1.19043,-0.836633,0.570679,0.592242,-0.700047,-0.11686,0.471534,-0.510166,0.634503,-0.402017,1
1.34172,-0.650872,-1.56464,-1.17,2.46582,1.46874,-1.70049,1.34172,-0.650872,-1.56464,-1.17,2.46582,1.46874,-1.70049,1.28747,-0.584133,-1.55036,-1.20094,2.48524,1.40828,-1.66685,0.240865,-0.152076,-0.77783,0.894422,-1.28922,1.38552,-0.537229,0.240865,-0.152076,-0.77783,0.894422,-1.28922,1.38552,-0.537229,0.25233,-0.366221,0.992024,0.877606,-0.0741786,-0.0283503,0.472759,-0.273992,-0.151147,0.0352095,-0.334804,-0.0256353,0.0146823,0.462219,-0.459582,1.14163,1.23399,-0.838587,0.43149,1.23399,-0.843872,0.43149,0.542452,-0.667396,-0.142822,0.309417,-0.194185,0.604602,-0.336436,1
1.33982,-0.646863,-1.56087,-1.163,2.50529,1.47146,-1.6885,1.33982,-0.646863,-1.56087,-1.163,2.50529,1.47146,-1.6885,1.29064,-0.585345,-1.55757,-1.19173,2.47015,1.42086,-1.67708,0.327965,-0.118677,-0.669076,0.893715,-1.542,1.22333,-1.15047,0.327965,-0.118677,-0.669076,0.893715,-1.542,1.22333,-1.15047,0.249656,-0.365664,0.992419,0.881995,-0.0842457,-0.0276442,0.462842,-0.199024,-0.0545095,0.0617022,-0.243124,0.0838722,0.0387278,0.474536,-0.467703,1.14508,1.23167,-0.812095,0.3456,1.23167,-0.842285,0.3456,0.491861,-0.615185,-0.0329274,0.287299,0.351341,0.505972,-0.114174,1
1.34008,-0.646328,-1.57571,-1.16759,2.49448,1.4792,-1.69747,1.34008,-0.646328,-1.57571,-1.16759,2.49448,1.4792,-1.69747,1.29351,-0.587307,-1.56117,-1.18386,2.45635,1.43197,-1.6892,0.264462,-0.230391,-0.235832,0.76333,-1.29833,1.07383,-1.17658,0.264462,-0.230391,-0.235832,0.76333,-1.29833,1.07383,-1.17658,0.247235,-0.364724,0.992883,0.88583,-0.0933091,-0.0278582,0.453676,-0.197729,-0.0202913,0.074638,-0.252917,0.0906328,0.0512652,0.486772,-0.475925,1.14784,1.22368,-0.822154,0.275338,1.22368,-0.841013,0.275338,0.465702,-0.590212,-0.145326,0.162634,0.381274,0.472312,-0.0827237,1
1.34671,-0.651754,-1.56672,-1.20399,2.46572,1.48447,-1.71746,1.34671,-0.651754,-1.56672,-1.20399,2.46572,1.48447,-1.71746,1.29562,-0.591495,-1.5604,-1.17753,2.4469,1.44245,-1.69823,0.198787,-0.490107,0.158783,0.559138,-0.792417,1.05306,-0.802831,0.198787,-0.490107,0.158783,0.559138,-0.792417,1.05306,-0.802831,0.244197,-0.364675,0.993095,0.887908,-0.100464,-0.0308827,0.447854,-0.232123,-0.0967018,0.0155323,-0.314185,-0.0367023,-0.00586986,0.499265,-0.484158,1.14964,1.24923,-0.823331,0.18028,1.24923,-0.835222,0.18028,0.510912,-0.602587,-0.0631739,-0.264519,0.188214,0.420258,-0.192233,1
1.34984,-0.665609,-1.57117,-1.21004,2.41107,1.50217,-1.74191,1.34984,-0.665609,-1.57117,-1.21004,2.41107,1.50217,-1.74191,1.2976,-0.598042,-1.55821,-1.17255,2.44458,1.45299,-1.7031,0.205259,-0.699824,0.210436,0.513009,-0.0310831,1.0592,-0.371748,0.205259,-0.699824,0.210436,0.513009,-0.0310831,1.0592,-0.371748,0.240407,-0.366788,0.992543,0.888428,-0.104713,-0.0373729,0.445346,-0.296547,-0.276191,-0.0494391,-0.408571,-0.276847,-0.0676771,0.511883,-0.492472,1.15031,1.26185,-0.831455,0.0673652,1.26185,-0.82733,0.0673652,0.522342,-0.67568,-0.129619,-0.374906,-0.335082,0.491811,-0.388133,1
1.34857,-0.665802,-1.56802,-1.2142,2.3985,1.4964,-1.75198,1.34857,-0.665802,-1.56802,-1.2142,2.3985,1.4964,-1.75198,1.30076,-0.605218,-1.55711,-1.16787,2.45041,1.46342,-1.70403,0.365995,-0.711018,0.0683118,0.415036,0.772244,1.03441,-0.0368644,0.365995,-0.711018,0.0683118,0.415036,0.772244,1.03441,-0.0368644,0.236355,-0.370724,0.991524,0.887694,-0.10617,-0.046818,0.445573,-0.25253,-0.363151,-0.109993,-0.380541,-0.418471,-0.12503,0.52453,-0.500577,1.1498,1.26469,-0.810492,-0.0516891,1.26469,-0.822782,-0.0516891,0.478036,-0.605832,-0.109149,-0.463263,-0.519049,0.32978,-0.47949,1
1.34902,-0.680375,-1.52008,-1.22879,2.42242,1.44323,-1.74636,1.34902,-0.680375,-1.52008,-1.22879,2.42242,1.44323,-1.74636,1.30546,-0.611831,-1.55796,-1.16494,2.46132,1.47331,-1.70429,0.494625,-0.640908,-0.131266,0.258087,1.13002,0.970854,-0.0478063,0.494625,-0.640908,-0.131266,0.258087,1.13002,0.970854,-0.0478063,0.233318,-0.375272,0.989799,0.886446,-0.105328,-0.0570354,0.447063,-0.155694,-0.374885,-0.176052,-0.274458,-0.455174,-0.188711,0.536596,-0.509068,1.14896,1.20655,-0.849068,-0.0836134,1.20655,-0.824123,-0.0836134,0.435604,-0.685438,0.378812,-0.6385,-0.388999,-0.300742,-0.420728,1
1.35939,-0.689946,-1.51891,-1.22547,2.45334,1.51086,-1.73903,1.35939,-0.689946,-1.51891,-1.22547,2.45334,1.51086,-1.73903,1.3109,-0.617846,-1.55976,-1.16434,2.46917,1.48257,-1.70657,0.553733,-0.604811,-0.189343,-0.0256828,0.615602,0.92149,-0.305354,0.553733,-0.604811,-0.189343,-0.0256828,0.615602,0.92149,-0.305354,0.231961,-0.37885,0.987388,0.885564,-0.104353,-0.0648986,0.447968,-0.00222434,-0.267443,-0.259797,-0.0834384,-0.323274,-0.26996,0.548818,-0.517585,1.14692,1.22228,-0.851703,-0.203609,1.22228,-0.82983,-0.203609,0.484881,-0.721,0.408457,-0.611306,-0.158298,0.28293,-0.324605,1
1.37047,-0.695356,-1.56084,-1.20742,2.47213,1.55034,-1.73216,1.37047,-0.695356,-1.56084,-1.20742,2.47213,1.55034,-1.73216,1.31624,-0.624687,-1.56208,-1.16733,2.46846,1.49164,-1.71251,0.524275,-0.709651,-0.230091,-0.389389,-0.314263,0.899858,-0.692274,0.524275,-0.709651,-0.230091,-0.389389,-0.314263,0.899858,-0.692274,0.232564,-0.381283,0.983626,0.885712,-0.104107,-0.0685949,0.447181,0.139976,-0.193988,-0.40369,0.10926,-0.20834,-0.408671,0.56068,-0.525921,1.14393,1.1862,-0.833553,-0.299287,1.1862,-0.833707,-0.299287,0.542349,-0.706698,0.0124584,-0.400906,0.0367853,0.586978,-0.196462,1
1.37145,-0.696565,-1.57797,-1.19232,2.48734,1.56043,-1.74951,1.37145,-0.696565,-1.57797,-1.19232,2.48734,1.56043,-1.74951,1.32097,-0.63203,-1.56279,-1.17331,2.45835,1.49875,-1.72174,0.450354,-0.733956,0.0121044,-0.658729,-1.21339,0.595571,-0.977314,0.450354,-0.733956,0.0121044,-0.658729,-1.21339,0.595571,-0.977314,0.235013,-0.381903,0.979294,0.88664,-0.104822,-0.0678739,0.445282,0.271017,-0.0332024,-0.429843,0.290004,-0.00892322,-0.428798,0.572751,-0.534561,1.13982,1.20703,-0.864035,-0.411236,1.20703,-0.83969,-0.411236,0.504824,-0.645355,-0.151772,-0.190128,0.289913,0.616876,-0.277683,1
1.37261,-0.694954,-1.58481,-1.20672,2.46962,1.56101,-1.74167,1.37261,-0.694954,-1.58481,-1.20672,2.46962,1.56101,-1.74167,1.32445,-0.639488,-1.55998,-1.18135,2.44462,1.49962,-1.73124,0.312496,-0.763834,0.37152,-0.84528,-1.32476,-0.0592155,-0.904724,0.312496,-0.763834,0.37152,-0.84528,-1.32476,-0.0592155,-0.904724,0.238824,-0.38151,0.97534,0.887446,-0.104102,-0.0642904,0.444375,0.337416,0.0275533,-0.398005,0.391622,0.0341714,-0.387329,0.585222,-0.543042,1.13458,1.2471,-0.848132,-0.523365,1.2471,-0.844747,-0.523365,0.48156,-0.554661,-0.248224,-0.253652,0.249927,0.613845,-0.104377,1
1.37496,-0.706419,-1.57179,-1.23337,2.43811,1.5608,-1.75242,1.37496,-0.706419,-1.57179,-1.23337,2.43811,1.5608,-1.75242,1.32698,-0.648262,-1.554,-1.19013,2.43682,1.49907,-1.73767,0.241548,-0.926847,0.646877,-0.858224,-0.564576,0.0269172,-0.542995,0.241548,-0.926847,0.646877,-0.858224,-0.564576,0.0269172,-0.542995,0.241786,-0.382211,0.971493,0.886925,-0.101161,-0.0635194,0.446202,0.229963,-0.0693616,-0.395719,0.239738,-0.116608,-0.387707,0.597264,-0.551235,1.12853,1.20428,-0.819319,-0.605881,1.20428,-0.846067,-0.605881,0.479832,-0.581573,-0.177845,-0.432387,0.0128741,0.617322,-0.147549,1
1.37966,-0.724917,-1.56423,-1.24987,2.39258,1.56277,-1.77875,1.37966,-0.724917,-1.56423,-1.24987,2.39258,1.56277,-1.77875,1.32987,-0.658889,-1.54855,-1.19706,2.43763,1.50411,-1.74126,0.331564,-1.08758,0.47231,-0.641759,0.280304,0.679798,-0.331971,0.331564,-1.08758,0.47231,-0.641759,0.280304,0.679798,-0.331971,0.242294,-0.385272,0.967215,0.885382,-0.0977844,-0.0686457,0.449249,0.0662124,-0.267606,-0.442354,0.004496,-0.355099,-0.445619,0.609976,-0.559285,1.12124,1.27116,-0.804979,-0.728202,1.27116,-0.83955,-0.728202,0.497838,-0.660287,-0.156783,-0.528169,-0.450456,0.586576,-0.374944,1
1.37946,-0.736686,-1.53754,-1.26174,2.39555,1.54523,-1.79291,1.37946,-0.736686,-1.53754,-1.26174,2.39555,1.54523,-1.79291,1.33553,-0.669247,-1.54714,-1.20205,2.44524,1.51573,-1.7442,0.645103,-1.00744,0.00614807,-0.448149,0.884362,1.30515,-0.268621,0.645103,-1.00744,0.00614807,-0.448149,0.884362,1.30515,-0.268621,0.241869,-0.389484,0.962365,0.883421,-0.0948394,-0.0778737,0.452227,0.0593779,-0.335396,-0.487205,-0.0463356,-0.438137,-0.501262,0.622569,-0.567512,1.11341,1.25931,-0.822687,-0.783646,1.25931,-0.832804,-0.783646,0.439312,-0.674397,0.0959511,-0.596889,-0.496918,0.295034,-0.487035,1
1.39097,-0.750162,-1.51631,-1.26823,2.41729,1.56199,-1.79069,1.39097,-0.750162,-1.51631,-1.26823,2.41729,1.56199,-1.79069,1.3444,-0.677459,-1.55058,-1.20588,2.45395,1.53079,-1.74604,0.965317,-0.746756,-0.443583,-0.391187,0.790787,1.52015,-0.1796,0.965317,-0.746756,-0.443583,-0.391187,0.790787,1.52015,-0.1796,0.242364,-0.393018,0.957267,0.881271,-0.0930445,-0.0869694,0.455127,0.203381,-0.221037,-0.496205,0.109039,-0.298744,-0.512596,0.634974,-0.576126,1.10475,1.24052,-0.861394,-0.865805,1.24052,-0.831292,-0.865805,0.465707,-0.727037,0.342762,-0.623502,-0.36656,0.312071,-0.446522,1
1.4081,-0.755761,-1.54434,-1.25707,2.41703,1.60216,-1.78707,1.4081,-0.755761,-1.54434,-1.25707,2.41703,1.60216,-1.78707,1.35475,-0.683285,-1.55673,-1.21041,2.45704,1.5453,-1.74858,1.0215,-0.542681,-0.646654,-0.488034,0.125036,1.414,-0.301588,1.0215,-0.542681,-0.646654,-0.488034,0.125036,1.414,-0.301588,0.244819,-0.39441,0.952212,0.879619,-0.0927979,-0.0921041,0.457357,0.333565,-0.0612817,-0.496139,0.282921,-0.089726,-0.50676,0.647057,-0.584755,1.09532,1.20824,-0.862914,-0.942528,1.20824,-0.832239,-0.942528,0.53353,-0.724768,0.123939,-0.466571,-0.400118,0.568563,-0.384946,1
1.4171,-0.75842,-1.5802,-1.24256,2.4334,1.62496,-1.78632,1.4171,-0.75842,-1.5802,-1.24256,2.4334,1.62496,-1.78632,1.36336,-0.688561,-1.5617,-1.21675,2.4519,1.55662,-1.75396,0.80368,-0.542082,-0.408509,-0.688658,-0.734089,1.01883,-0.625047,0.80368,-0.542082,-0.408509,-0.688658,-0.734089,1.01883,-0.625047,0.248403,-0.394049,0.947306,0.879073,-0.0935971,-0.0927704,0.458109,0.38371,0.0660761,-0.483246,0.381914,0.0791181,-0.484784,0.659422,-0.592902,1.08479,1.23654,-0.814682,-1.05315,1.23654,-0.833784,-1.05315,0.537415,-0.698596,-0.184936,-0.258115,-0.185008,0.683383,-0.323602,1
1.41881,-0.75971,-1.5776,-1.24892,2.46833,1.62702,-1.79472,1.41881,-0.75971,-1.5776,-1.24892,2.46833,1.62702,-1.79472,1.36943,-0.695189,-1.56251,-1.22507,2.43962,1.56333,-1.76265,0.535155,-0.713884,0.0251064,-0.873834,-1.34473,0.580479,-0.933789,0.535155,-0.713884,0.0251064,-0.873834,-1.34473,0.580479,-0.933789,0.252488,-0.392712,0.942573,0.879325,-0.0943965,-0.0903688,0.457942,0.372723,0.11161,-0.479795,0.402234,0.138976,-0.474656,0.671413,-0.601308,1.07334,1.19913,-0.84064,-1.14537,1.19913,-0.838198,-1.14537,0.493799,-0.645202,-0.150958,-0.238535,0.287133,0.636858,-0.320704,1
1.42039,-0.768071,-1.57362,-1.26517,2.45429,1.62844,-1.79431,1.42039,-0.768071,-1.57362,-1.26517,2.45429,1.62844,-1.79431,1.37288,-0.703593,-1.5596,-1.23446,2.42713,1.56837,-1.77248,0.294458,-0.878603,0.373396,-0.957326,-1.16432,0.516964,-0.969022,0.294458,-0.878603,0.373396,-0.957326,-1.16432,0.516964,-0.969022,0.255645,-0.391907,0.937832,0.879653,-0.0943925,-0.0886648,0.457645,0.264552,0.0566527,-0.477498,0.278503,0.0610912,-0.474389,0.683653,-0.609419,1.06074,1.22401,-0.811028,-1.25943,1.22401,-0.838461,-1.25943,0.47508,-0.644778,-0.140164,-0.307105,0.271626,0.600678,-0.218314,1
1.42469,-0.778238,-1.57134,-1.282,2.41388,1.63609,-1.80725,1.42469,-0.778238,-1.57134,-1.282,2.41388,1.63609,-1.80725,1.37541,-0.713655,-1.5552,-1.24355,2.41899,1.57523,-1.7806,0.254287,-1.04447,0.425095,-0.864031,-0.675646,0.769226,-0.750303,0.254287,-1.04447,0.425095,-0.864031,-0.675646,0.769226,-0.750303,0.257328,-0.3925,0.932835,0.879299,-0.0935935,-0.090153,0.458199,0.149463,-0.0779346,-0.504498,0.124686,-0.10678,-0.508316,0.69605,-0.617662,1.04689,1.23967,-0.824374,-1.38503,1.23967,-0.834248,-1.38503,0.492793,-0.645829,-0.161441,-0.384435,-0.0510515,0.608687,-0.266437,1
1.42712,-0.795309,-1.58697,-1.30092,2.37146,1.64635,-1.82349,1.42712,-0.795309,-1.58697,-1.30092,2.37146,1.64635,-1.82349,1.37919,-0.724142,-1.55296,-1.25005,2.41672,1.5859,-1.78646,0.43461,-1.0329,0.131248,-0.574894,-0.0638505,1.15987,-0.54678,0.43461,-1.0329,0.131248,-0.574894,-0.0638505,1.15987,-0.54678,0.257715,-0.394728,0.927657,0.878463,-0.0925841,-0.095285,0.458968,0.0862637,-0.201981,-0.507798,0.0204801,-0.255986,-0.520799,0.709127,-0.626233,1.03195,1.30768,-0.857025,-1.49393,1.30768,-0.830897,-1.49393,0.47929,-0.711677,-0.340033,-0.5087,-0.45261,0.604434,-0.370223,1
1.4267,-0.805016,-1.57014,-1.31655,2.36758,1.64486,-1.83806,1.4267,-0.805016,-1.57014,-1.31655,2.36758,1.64486,-1.83806,1.38551,-0.733067,-1.55476,-1.25508,2.42132,1.59928,-1.79102,0.701097,-0.831063,-0.275703,-0.488166,0.625907,1.37639,-0.424232,0.701097,-0.831063,-0.275703,-0.488166,0.625907,1.37639,-0.424232,0.258235,-0.397716,0.922276,0.877299,-0.0905869,-0.102696,0.459994,0.153819,-0.21681,-0.524611,0.0740848,-0.298638,-0.540961,0.722342,-0.634415,1.0167,1.32156,-0.818259,-1.52516,1.32156,-0.828556,-1.52516,0.411918,-0.719499,-0.153859,-0.614742,-0.537384,0.455858,-0.47043,1
1.43397,-0.814053,-1.53371,-1.32651,2.38368,1.64823,-1.84162,1.43397,-0.814053,-1.53371,-1.32651,2.38368,1.64823,-1.84162,1.39372,-0.739496,-1.55925,-1.25996,2.42962,1.61275,-1.79463,0.841046,-0.593733,-0.485877,-0.500821,0.824611,1.31984,-0.355851,0.841046,-0.593733,-0.485877,-0.500821,0.824611,1.31984,-0.355851,0.259736,-0.400142,0.917101,0.875845,-0.08785,-0.110048,0.461593,0.244984,-0.132231,-0.498436,0.177997,-0.215487,-0.513006,0.735433,-0.642815,0.999912,1.30904,-0.839949,-1.67902,1.30904,-0.831307,-1.67902,0.402534,-0.74557,0.255329,-0.66545,-0.459378,0.354764,-0.469818,1
1.44967,-0.819126,-1.56411,-1.32288,2.39592,1.68087,-1.83557,1.44967,-0.819126,-1.56411,-1.32288,2.39592,1.68087,-1.83557,1.40173,-0.745163,-1.56443,-1.26589,2.43359,1.6252,-1.79889,0.775625,-0.580527,-0.531548,-0.629301,0.20622,1.21671,-0.462209,0.775625,-0.580527,-0.531548,-0.629301,0.20622,1.21671,-0.462209,0.262127,-0.401419,0.911839,0.874798,-0.085942,-0.114727,0.462796,0.294459,-0.0566672,-0.532293,0.258764,-0.103269,-0.540579,0.747761,-0.651304,0.98252,1.23282,-0.848955,-1.73923,1.23282,-0.834045,-1.73923,0.47943,-0.739626,0.00320503,-0.569887,-0.376711,0.556695,-0.366776,1
1.45922,-0.822297,-1.593,-1.31554,2.40332,1.70162,-1.83745,1.45922,-0.822297,-1.593,-1.31554,2.40332,1.70162,-1.83745,1.40874,-0.751813,-1.56958,-1.27303,2.42898,1.63628,-1.805,0.67623,-0.679346,-0.477141,-0.747199,-0.68761,1.08022,-0.667314,0.67623,-0.679346,-0.477141,-0.747199,-0.68761,1.08022,-0.667314,0.265216,-0.401748,0.906097,0.874653,-0.0855376,-0.115774,0.462885,0.326967,0.0109072,-0.574761,0.323837,0.0113792,-0.575702,0.75988,-0.660011,0.964201,1.21187,-0.870645,-1.83191,1.21187,-0.841579,-1.83191,0.504837,-0.704834,-0.234202,-0.425107,-0.256594,0.65339,-0.324472,1
1.46333,-0.824735,-1.58783,-1.30806,2.43843,1.70912,-1.84627,1.46333,-0.824735,-1.58783,-1.30806,2.43843,1.70912,-1.84627,1.41398,-0.758591,-1.57204,-1.28128,2.41649,1.64551,-1.81336,0.457919,-0.68221,-0.166253,-0.861334,-1.39997,0.860196,-0.884344,0.457919,-0.68221,-0.166253,-0.861334,-1.39997,0.860196,-0.884344,0.268504,-0.400338,0.90082,0.875049,-0.0871221,-0.113876,0.462311,0.305701,0.133915,-0.519274,0.323787,0.174957,-0.516015,0.772422,-0.668573,0.944957,1.25425,-0.856179,-1.9244,1.25425,-0.847055,-1.9244,0.493453,-0.661443,-0.157905,-0.267851,0.219381,0.63618,-0.329049,1
1.46353,-0.832285,-1.58486,-1.32331,2.43012,1.71131,-1.85003,1.46353,-0.832285,-1.58486,-1.32331,2.43012,1.71131,-1.85003,1.4171,-0.766482,-1.57129,-1.29086,2.40223,1.65293,-1.82271,0.280664,-0.840027,0.155024,-0.981533,-1.3547,0.724178,-0.92739,0.280664,-0.840027,0.155024,-0.981533,-1.3547,0.724178,-0.92739,0.271311,-0.398768,0.895662,0.875455,-0.0884845,-0.111717,0.461809,0.245159,0.112216,-0.523452,0.258383,0.135314,-0.520875,0.784811,-0.677252,0.924791,1.23886,-0.867903,-2.01655,1.23886,-0.852026,-2.01655,0.46426,-0.658031,-0.135733,-0.324522,0.278917,0.583776,-0.27325,1
1.46836,-0.842677,-1.58586,-1.33706,2.382,1.71966,-1.86096,1.46836,-0.842677,-1.58586,-1.33706,2.382,1.71966,-1.86096,1.41977,-0.776537,-1.56916,-1.3007,2.39308,1.66102,-1.83057,0.27738,-1.0506,0.186602,-0.963618,-0.756561,0.853605,-0.730446,0.27738,-1.0506,0.186602,-0.963618,-0.756561,0.853605,-0.730446,0.273188,-0.398915,0.889919,0.875168,-0.0878292,-0.11264,0.462255,0.179057,-0.0411094,-0.591976,0.16486,-0.0682663,-0.594692,0.797095,-0.685807,0.903418,1.22842,-0.855571,-2.13732,1.22842,-0.858278,-2.13732,0.485919,-0.6614,-0.16706,-0.363567,-0.110787,0.586421,-0.303949,1
1.46934,-0.860631,-1.60903,-1.36133,2.34422,1.7332,-1.87249,1.46934,-0.860631,-1.60903,-1.36133,2.34422,1.7332,-1.87249,1.4238,-0.787374,-1.56957,-1.30924,2.39006,1.67139,-1.83651,0.464316,-1.07073,-0.118395,-0.797618,-0.141916,1.10063,-0.558539,0.464316,-1.07073,-0.118395,-0.797618,-0.141916,1.10063,-0.558539,0.274617,-0.400894,0.883438,0.874535,-0.0855431,-0.116364,0.462958,0.176592,-0.163156,-0.646116,0.139639,-0.225257,-0.654305,0.809591,-0.694292,0.880933,1.24955,-0.848502,-2.24852,1.24955,-0.859569,-2.24852,0.455422,-0.732576,-0.394636,-0.520897,-0.458451,0.618122,-0.359854,1
1.46681,-0.872696,-1.60323,-1.38013,2.34076,1.7381,-1.88499,1.46681,-0.872696,-1.60323,-1.38013,2.34076,1.7381,-1.88499,1.43054,-0.796562,-1.57262,-1.316,2.39374,1.68374,-1.84148,0.73748,-0.85959,-0.367469,-0.638607,0.528968,1.25416,-0.481167,0.73748,-0.85959,-0.367469,-0.638607,0.528968,1.25416,-0.481167,0.276298,-0.403278,0.877131,0.873486,-0.0821764,-0.12241,0.463988,0.237016,-0.146656,-0.607144,0.183135,-0.236781,-0.620662,0.82223,-0.702553,0.857711,1.26393,-0.826049,-2.32219,1.26393,-0.855512,-2.32219,0.362697,-0.761337,-0.306104,-0.641305,-0.529793,0.543578,-0.435074,1
1.47247,-0.880941,-1.57054,-1.38936,2.35402,1.74075,-1.89123,1.47247,-0.880941,-1.57054,-1.38936,2.35402,1.74075,-1.89123,1.43881,-0.804072,-1.57726,-1.32197,2.4016,1.69624,-1.84607,0.840798,-0.724321,-0.483887,-0.582843,0.803308,1.24228,-0.461081,0.840798,-0.724321,-0.483887,-0.582843,0.803308,1.24228,-0.461081,0.278436,-0.40558,0.871125,0.872261,-0.0778642,-0.129241,0.465182,0.275249,-0.119899,-0.580274,0.222197,-0.220297,-0.595192,0.834846,-0.710879,0.83367,1.2616,-0.832582,-2.40415,1.2616,-0.848589,-2.40415,0.336553,-0.768691,0.0672113,-0.673924,-0.475793,0.445059,-0.451624,1
1.48819,-0.888111,-1.59575,-1.39111,2.36903,1.76314,-1.89105,1.48819,-0.888111,-1.59575,-1.39111,2.36903,1.76314,-1.89105,1.44696,-0.811426,-1.58213,-1.32813,2.4055,1.70793,-1.8512,0.797882,-0.750651,-0.499395,-0.636138,0.19971,1.13543,-0.53729,0.797882,-0.750651,-0.499395,-0.636138,0.19971,1.13543,-0.53729,0.281022,-0.407094,0.865134,0.871344,-0.0744963,-0.134184,0.466052,0.304694,-0.0604673,-0.599992,0.274944,-0.125809,-0.609135,0.847881,-0.719078,0.808445,1.30348,-0.819969,-2.52246,1.30348,-0.841132,-2.52246,0.412282,-0.766855,-0.13617,-0.629747,-0.364665,0.552118,-0.398503,1
1.50164,-0.893175,-1.61256,-1.38113,2.37931,1.78122,-1.89118,1.50164,-0.893175,-1.61256,-1.38113,2.37931,1.78122,-1.89118,1.45391,-0.819281,-1.588,-1.33536,2.40074,1.71908,-1.85753,0.657351,-0.789444,-0.600904,-0.745102,-0.704671,1.11401,-0.668928,0.657351,-0.789444,-0.600904,-0.745102,-0.704671,1.11401,-0.668928,0.284049,-0.407573,0.85862,0.871293,-0.0732928,-0.135411,0.465984,0.307408,-0.00461694,-0.657989,0.306753,-0.0122263,-0.658186,0.86056,-0.727542,0.782657,1.26793,-0.846392,-2.57882,1.26793,-0.835715,-2.57882,0.477304,-0.738945,-0.245523,-0.457683,-0.214318,0.62132,-0.336443,1
1.50758,-0.894333,-1.60945,-1.37546,2.40451,1.7911,-1.89591,1.50758,-0.894333,-1.60945,-1.37546,2.40451,1.7911,-1.89591,1.45929,-0.826645,-1.59292,-1.34381,2.38814,1.72954,-1.86533,0.498688,-0.715895,-0.425834,-0.879424,-1.40955,1.021,-0.814276,0.498688,-0.715895,-0.425834,-0.879424,-1.40955,1.021,-0.814276,0.287211,-0.406264,0.852396,0.871724,-0.074657,-0.133523,0.465505,0.297181,0.14305,-0.608829,0.313585,0.183377,-0.603874,0.873134,-0.735935,0.756045,1.25741,-0.839257,-2.66119,1.25741,-0.8336,-2.66119,0.482956,-0.676875,-0.165266,-0.316543,0.163686,0.615605,-0.305789,1
1.51014,-0.90048,-1.60929,-1.38639,2.39564,1.79682,-1.90346,1.51014,-0.90048,-1.60929,-1.38639,2.39564,1.79682,-1.90346,1.46293,-0.833744,-1.59456,-1.3535,2.37364,1.73891,-1.87398,0.313275,-0.728515,-0.0993517,-1.00162,-1.37876,0.912861,-0.869741,0.313275,-0.728515,-0.0993517,-1.00162,-1.37876,0.912861,-0.869741,0.289901,-0.403914,0.846862,0.871923,-0.0767294,-0.131313,0.465424,0.234704,0.188819,-0.55463,0.245477,0.222023,-0.551639,0.88549,-0.744725,0.728191,1.23559,-0.878972,-2.78544,1.23559,-0.838301,-2.78544,0.472146,-0.667364,-0.147267,-0.328823,0.220021,0.579156,-0.294818,1
1.51168,-0.91219,-1.61875,-1.40057,2.35601,1.8048,-1.9115,1.51168,-0.91219,-1.61875,-1.40057,2.35601,1.8048,-1.9115,1.46547,-0.842786,-1.59517,-1.36416,2.36458,1.74802,-1.88194,0.258542,-0.965221,-0.0683597,-1.08304,-0.737537,0.927338,-0.761556,0.258542,-0.965221,-0.0683597,-1.08304,-0.737537,0.927338,-0.761556,0.29186,-0.403355,0.840585,0.871832,-0.0760446,-0.131567,0.465636,0.187326,0.0290124,-0.658126,0.184768,0.00292452,-0.658656,0.897908,-0.753325,0.699437,1.24181,-0.860035,-2.87537,1.24181,-0.845945,-2.87537,0.462091,-0.694049,-0.235774,-0.364062,-0.0856622,0.567793,-0.29561,1
1.51168,-0.928702,-1.6369,-1.4262,2.32166,1.8167,-1.92263,1.51168,-0.928702,-1.6369,-1.4262,2.32166,1.8167,-1.92263,1.46935,-0.853593,-1.59723,-1.37385,2.3621,1.7582,-1.88834,0.438334,-1.0904,-0.257032,-0.908559,-0.0807661,1.05598,-0.601551,0.438334,-1.0904,-0.257032,-0.908559,-0.0807661,1.05598,-0.601551,0.293623,-0.404897,0.833358,0.871383,-0.0726266,-0.134749,0.466112,0.193307,-0.118592,-0.724265,0.171731,-0.192983,-0.731039,0.910786,-0.761667,0.670278,1.28779,-0.834167,-2.91591,1.28779,-0.85014,-2.91591,0.423341,-0.751096,-0.396736,-0.523464,-0.404432,0.58502,-0.342916,1
1.50509,-0.941125,-1.63537,-1.4465,2.31522,1.82569,-1.93565,1.50509,-0.941125,-1.63537,-1.4465,2.31522,1.82569,-1.93565,1.4753,-0.86336,-1.60118,-1.3815,2.36591,1.7696,-1.89346,0.649166,-0.940342,-0.435937,-0.733597,0.521528,1.164,-0.489688,0.649166,-0.940342,-0.435937,-0.733597,0.521528,1.164,-0.489688,0.295479,-0.407209,0.826302,0.870638,-0.0678363,-0.140101,0.466648,0.231983,-0.131715,-0.688654,0.196538,-0.233627,-0.701453,0.922982,-0.770516,0.639086,1.21961,-0.884891,-3.11923,1.21961,-0.856965,-3.11923,0.297865,-0.777647,-0.341964,-0.64998,-0.506922,0.560889,-0.421955,1
1.51262,-0.949629,-1.62307,-1.45389,2.32647,1.83619,-1.94368,1.51262,-0.949629,-1.62307,-1.45389,2.32647,1.83619,-1.94368,1.48301,-0.871515,-1.60586,-1.38809,2.37258,1.78137,-1.89818,0.797642,-0.782386,-0.474407,-0.622117,0.649427,1.16364,-0.472861,0.797642,-0.782386,-0.474407,-0.622117,0.649427,1.16364,-0.472861,0.297786,-0.409041,0.819783,0.869581,-0.0627517,-0.146118,0.467483,0.278171,-0.0613033,-0.619031,0.240422,-0.162083,-0.634385,0.935449,-0.779138,0.607304,1.24672,-0.862211,-3.17817,1.24672,-0.860319,-3.17817,0.296086,-0.781145,-0.172119,-0.658069,-0.461141,0.548226,-0.455054,1
1.52812,-0.957229,-1.63606,-1.45597,2.33656,1.85082,-1.94542,1.52812,-0.957229,-1.63606,-1.45597,2.33656,1.85082,-1.94542,1.49064,-0.879443,-1.61132,-1.39434,2.37513,1.79259,-1.90329,0.738019,-0.809818,-0.587661,-0.639746,0.0894141,1.11476,-0.530854,0.738019,-0.809818,-0.587661,-0.639746,0.0894141,1.11476,-0.530854,0.300386,-0.410214,0.813296,0.868897,-0.0589483,-0.150267,0.467934,0.284323,-0.0389739,-0.657545,0.265833,-0.103884,-0.66633,0.947805,-0.787453,0.574508,1.23557,-0.831586,-3.2796,1.23557,-0.859188,-3.2796,0.374858,-0.777864,-0.247377,-0.616291,-0.385676,0.58234,-0.421365,1
1.5424,-0.964057,-1.64594,-1.44829,2.35402,1.86439,-1.94453,1.5424,-0.964057,-1.64594,-1.44829,2.35402,1.86439,-1.94453,1.49713,-0.887862,-1.6179,-1.40159,2.37023,1.80353,-1.90941,0.620241,-0.841549,-0.657487,-0.755792,-0.688109,1.07962,-0.642532,0.620241,-0.841549,-0.657487,-0.755792,-0.688109,1.07962,-0.642532,0.303206,-0.410524,0.806277,0.868896,-0.0571455,-0.151348,0.467813,0.282877,0.0250754,-0.704618,0.286959,0.00883845,-0.70398,0.96082,-0.79579,0.540722,1.3015,-0.833666,-3.37861,1.3015,-0.853303,-3.37861,0.452749,-0.761946,-0.280401,-0.467033,-0.162156,0.608541,-0.351144,1
1.55,-0.965691,-1.64148,-1.44307,2.36427,1.87437,-1.94817,1.55,-0.965691,-1.64148,-1.44307,2.36427,1.87437,-1.94817,1.50226,-0.895389,-1.62362,-1.41015,2.35853,1.81423,-1.91691,0.475044,-0.72123,-0.534352,-0.879286,-1.29687,1.07198,-0.785632,0.475044,-0.72123,-0.534352,-0.879286,-1.29687,1.07198,-0.785632,0.305989,-0.409,0.799696,0.869166,-0.0579678,-0.149882,0.467681,0.25404,0.165783,-0.644656,0.266592,0.195877,-0.639238,0.973793,-0.804069,0.506405,1.29731,-0.827914,-3.43166,1.29731,-0.847922,-3.43166,0.477354,-0.703015,-0.178644,-0.329248,0.0574688,0.601379,-0.312686,1
1.55273,-0.971153,-1.64664,-1.45124,2.35659,1.88275,-1.95522,1.55273,-0.971153,-1.64664,-1.45124,2.35659,1.88275,-1.95522,1.50585,-0.9025,-1.62748,-1.41994,2.34517,1.82473,-1.92551,0.319312,-0.725856,-0.357769,-1.01969,-1.28525,1.03634,-0.87665,0.319312,-0.725856,-0.357769,-1.01969,-1.28525,1.03634,-0.87665,0.308256,-0.406703,0.793534,0.869441,-0.0595448,-0.14812,0.467532,0.201578,0.193907,-0.62779,0.21197,0.219883,-0.623403,0.986399,-0.812721,0.471098,1.26063,-0.865126,-3.53072,1.26063,-0.84615,-3.53072,0.468738,-0.686529,-0.191596,-0.313041,0.114227,0.580227,-0.297105,1
1.55189,-0.985773,-1.66587,-1.46849,2.32525,1.89137,-1.96306,1.55189,-0.985773,-1.66587,-1.46849,2.32525,1.89137,-1.96306,1.50856,-0.911341,-1.63178,-1.4307,2.33638,1.8352,-1.93384,0.278591,-0.93307,-0.463108,-1.05652,-0.722469,1.05879,-0.804806,0.278591,-0.93307,-0.463108,-1.05652,-0.722469,1.05879,-0.804806,0.310103,-0.406089,0.786298,0.869801,-0.058446,-0.147958,0.467053,0.168449,0.0305522,-0.751862,0.174739,0.00638365,-0.750725,1.01207,-0.829569,0.397598,1.29475,-0.823063,-3.73744,1.29475,-0.842831,-3.73744,0.43334,-0.744323,-0.340869,-0.377954,-0.11125,0.561736,-0.292209,1
1.55129,-0.997687,-1.6782,-1.4932,2.29566,1.90303,-1.97479,1.55129,-0.997687,-1.6782,-1.4932,2.29566,1.90303,-1.97479,1.51249,-0.920968,-1.63682,-1.44021,2.33398,1.84592,-1.94065,0.435772,-0.96466,-0.517503,-0.910277,-0.0806088,1.08497,-0.644197,0.435772,-0.96466,-0.517503,-0.910277,-0.0806088,1.08497,-0.644197,0.311921,-0.40697,0.778681,0.869839,-0.0548467,-0.150174,0.466712,0.189726,-0.0439067,-0.756458,0.182656,-0.111992,-0.761997,1.02449,-0.837906,0.35959,1.24215,-0.833744,-3.80081,1.24215,-0.843514,-3.80081,0.387984,-0.767196,-0.413775,-0.529928,-0.383173,0.571113,-0.341325,1
1.54494,-1.00893,-1.67897,-1.51104,2.29161,1.91483,-1.98941,1.54494,-1.00893,-1.67897,-1.51104,2.29161,1.91483,-1.98941,1.51809,-0.930222,-1.64214,-1.44816,2.33681,1.85712,-1.9461,0.604734,-0.90661,-0.526275,-0.748182,0.380304,1.12058,-0.519001,0.604734,-0.90661,-0.526275,-0.748182,0.380304,1.12058,-0.519001,0.313859,-0.408442,0.771304,0.869416,-0.0498225,-0.154366,0.466695,0.219805,-0.0537481,-0.710641,0.19972,-0.147773,-0.72302,1.037,-0.846219,0.32031,1.25078,-0.831312,-3.92794,1.25078,-0.842176,-3.92794,0.268476,-0.787074,-0.368357,-0.628735,-0.452039,0.577179,-0.433167,1
1.55325,-1.01863,-1.6771,-1.51747,2.29963,1.92593,-1.99654,1.55325,-1.01863,-1.6771,-1.51747,2.29963,1.92593,-1.99654,1.52506,-0.939156,-1.64727,-1.45496,2.34093,1.86812,-1.95092,0.715382,-0.907688,-0.531213,-0.653281,0.369393,1.09923,-0.480281,0.715382,-0.907688,-0.531213,-0.653281,0.369393,1.09923,-0.480281,0.316127,-0.409729,0.764286,0.868653,-0.0445657,-0.159087,0.467063,0.253966,-0.0321658,-0.693357,0.233377,-0.126246,-0.707367,1.04961,-0.854658,0.279894,1.26103,-0.843894,-4.04161,1.26103,-0.840472,-4.04161,0.281913,-0.794753,-0.298255,-0.625048,-0.412992,0.578026,-0.456202,1
1.56701,-1.02784,-1.68781,-1.51907,2.30636,1.93872,-1.99874,1.56701,-1.02784,-1.68781,-1.51907,2.30636,1.93872,-1.99874,1.53214,-0.948629,-1.65353,-1.46138,2.34127,1.87891,-1.95596,0.700354,-0.952436,-0.648512,-0.641908,-0.095584,1.0688,-0.520954,0.700354,-0.952436,-0.648512,-0.641908,-0.095584,1.0688,-0.520954,0.318647,-0.410744,0.756906,0.868185,-0.0402902,-0.162343,0.4672,0.264262,-0.0158311,-0.735547,0.25734,-0.0814827,-0.743573,1.06254,-0.863022,0.238743,1.29262,-0.836343,-4.11507,1.29262,-0.836407,-4.11507,0.348713,-0.792067,-0.342741,-0.576962,-0.349137,0.598089,-0.427781,1
1.58118,-1.03489,-1.69483,-1.51581,2.3179,1.95127,-1.99922,1.58118,-1.03489,-1.69483,-1.51581,2.3179,1.95127,-1.99922,1.53844,-0.957423,-1.66019,-1.46848,2.33584,1.88951,-1.96205,0.598526,-0.851759,-0.66016,-0.74666,-0.692922,1.06764,-0.644569,0.598526,-0.851759,-0.66016,-0.74666,-0.692922,1.06764,-0.644569,0.321231,-0.41048,0.749698,0.868065,-0.0381772,-0.163295,0.467269,0.248069,0.0910661,-0.712147,0.252976,0.0700461,-0.712411,1.07572,-0.871234,0.196702,1.31816,-0.821286,-4.20416,1.31816,-0.833383,-4.20416,0.42735,-0.774661,-0.346409,-0.473313,-0.179478,0.61752,-0.371707,1
1.58655,-1.0417,-1.69918,-1.51688,2.32192,1.9602,-2.00267,1.58655,-1.0417,-1.69918,-1.51688,2.32192,1.9602,-2.00267,1.54328,-0.965342,-1.66641,-1.47698,2.32544,1.90043,-1.96967,0.446474,-0.775721,-0.609648,-0.877633,-1.12749,1.08596,-0.801007,0.446474,-0.775721,-0.609648,-0.877633,-1.12749,1.08596,-0.801007,0.323467,-0.408891,0.742791,0.868246,-0.0381571,-0.162547,0.467194,0.202487,0.171091,-0.688035,0.21273,0.182171,-0.683582,1.08903,-0.879465,0.153751,1.3311,-0.823092,-4.29505,1.3311,-0.832676,-4.29504,0.432699,-0.763539,-0.327716,-0.399008,-0.0351427,0.597644,-0.330015,1
1.58893,-1.04885,-1.70755,-1.5254,2.31314,1.96971,-2.00858,1.58893,-1.04885,-1.70755,-1.5254,2.31314,1.96971,-2.00858,1.54682,-0.973023,-1.67244,-1.48671,2.31424,1.91131,-1.97838,0.328037,-0.776884,-0.610007,-0.985656,-1.0683,1.0935,-0.88571,0.328037,-0.776884,-0.610007,-0.985656,-1.0683,1.0935,-0.88571,0.325324,-0.407064,0.735816,0.8687,-0.0382599,-0.16137,0.466751,0.159097,0.161054,-0.711568,0.171404,0.167224,-0.706902,1.10197,-0.887829,0.110085,1.29383,-0.836372,-4.36662,1.29383,-0.831563,-4.36662,0.421139,-0.758226,-0.351097,-0.386928,-0.0109995,0.584001,-0.301932,1
