Afshin1997/kuka_rl_ros2/src/catch_and_throw/output_files/tm/nn_ema7.00_jvws1_realball_D01H12M30S44/recorded_data.csv
pure_target_joint_0,pure_target_joint_1,pure_target_joint_2,pure_target_joint_3,pure_target_joint_4,pure_target_joint_5,pure_target_joint_6,target_joint_0,target_joint_1,target_joint_2,target_joint_3,target_joint_4,target_joint_5,target_joint_6,pos_joint_0,pos_joint_1,pos_joint_2,pos_joint_3,pos_joint_4,pos_joint_5,pos_joint_6,vel_joint_0,vel_joint_1,vel_joint_2,vel_joint_3,vel_joint_4,vel_joint_5,vel_joint_6,vel_smooth_joint_0,vel_smooth_joint_1,vel_smooth_joint_2,vel_smooth_joint_3,vel_smooth_joint_4,vel_smooth_joint_5,vel_smooth_joint_6,ee_pos_x,ee_pos_y,ee_pos_z,ee_or_w,ee_or_x,ee_or_y,ee_or_z,eep_vel_x,eep_vel_y,eep_vel_z,ee_vel_offset_x,ee_vel_offset_y,ee_vel_offset_z,ball_pos_x,ball_pos_y,ball_pos_z,ball_raw_vx,ball_raw_vy,ball_raw_vz,ball_ema_vx,ball_ema_vy,ball_ema_vz,action_0,action_1,action_2,action_3,action_4,action_5,action_6,command_published
1.72124,-0.991301,-1.86453,-1.14508,1.97178,1.07522,-0.940883,1.72124,-0.991301,-1.86453,-1.14508,1.97178,1.07522,-0.940883,1.78078,-1.07183,-1.8151,-1.1196,1.93738,1.11688,-0.916246,0,1.19776e-05,0,-1.19776e-05,3.83633e-05,-4.79323e-05,0,0,1.19776e-05,0,-1.19776e-05,3.83633e-05,-4.79323e-05,0,0.544148,-0.45482,0.71307,0.572571,0.178195,0.150676,0.785943,4.92121e-06,1.77045e-06,2.07713e-06,7.23945e-06,-6.97621e-07,9.9034e-07,2.84355,-0.5095,0.1489,-3.55561,0.0243604,5.25077,-3.55561,0.0933068,5.05077,-0.595377,0.80526,-0.494292,-0.254791,0.343997,-0.416565,-0.246378,1
1.72024,-0.991386,-1.8667,-1.14505,1.97268,1.07878,-0.953397,1.72024,-0.991386,-1.8667,-1.14505,1.97268,1.07878,-0.953397,1.78078,-1.07183,-1.8151,-1.1196,1.93738,1.11688,-0.916245,0,2.39771e-05,0,0,0,0,0,0,2.39771e-05,0,0,0,0,0,0.544148,-0.45482,0.71307,0.572571,0.178195,0.150676,0.785943,-1.55277e-06,7.28571e-06,1.32804e-05,-1.8645e-06,8.74841e-06,1.33849e-05,2.80873,-0.509012,0.200468,-3.48291,0.0488937,5.15674,-3.48291,0.0742163,4.95674,-0.605439,0.804412,-0.516043,-0.254446,0.353036,-0.380964,-0.371521,1
1.71924,-0.991415,-1.86206,-1.13346,1.97195,1.09112,-0.959111,1.71924,-0.991415,-1.86206,-1.13346,1.97195,1.09112,-0.959111,1.78078,-1.07183,-1.8151,-1.1196,1.93738,1.11688,-0.916245,-1.19776e-05,0,-2.39552e-05,0,-1.91642e-05,2.39552e-05,0,-1.19776e-05,0,-2.39552e-05,0,-1.91642e-05,2.39552e-05,0,0.544148,-0.45482,0.71307,0.572571,0.178195,0.150676,0.785943,-6.23107e-06,-7.57641e-06,-7.68217e-06,-5.95397e-06,-6.33809e-06,-7.86849e-06,2.77371,-0.508453,0.250475,-3.50127,0.0558138,5.0007,-3.50127,0.0537955,4.8007,-0.615349,0.804122,-0.46962,-0.138577,0.345743,-0.257569,-0.42866,1
1.7237,-0.992155,-1.86081,-1.13974,1.97784,1.10637,-0.960365,1.7237,-0.992155,-1.86081,-1.13974,1.97784,1.10637,-0.960365,1.78079,-1.07178,-1.81517,-1.11983,1.93746,1.11675,-0.916365,0.00411068,0.0068911,-0.0142496,-0.0466557,0.0163565,-0.0268813,-0.0238612,0.00411068,0.0068911,-0.0142496,-0.0466557,0.0163565,-0.0268813,-0.0238612,0.544219,-0.454747,0.713002,0.572531,0.178306,0.15074,0.785935,0.0117477,0.015298,-0.0134135,0.0150887,0.0150366,-0.0151021,2.73954,-0.508289,0.299248,-3.41733,0.0164628,4.8773,-3.41733,0.0355395,4.6773,-0.570974,0.796273,-0.456463,-0.199089,0.403755,-0.103803,-0.440001,1
1.72756,-0.991678,-1.85464,-1.1641,1.98824,1.0967,-0.935696,1.72756,-0.991678,-1.85464,-1.1641,1.98824,1.0967,-0.935696,1.78077,-1.07159,-1.81716,-1.1221,1.94062,1.1136,-0.91866,-0.0125472,0.0319132,-0.280832,-0.280317,0.458343,-0.433064,-0.303733,-0.0125472,0.0319132,-0.280832,-0.280317,0.458343,-0.433064,-0.303733,0.545174,-0.454957,0.711609,0.572565,0.181065,0.150916,0.785245,0.079943,-0.0168591,-0.162955,0.12025,-0.0486536,-0.182625,2.70546,-0.508054,0.347457,-3.40827,0.0234485,4.82095,-3.40827,0.0282935,4.62095,-0.532082,0.799151,-0.374816,-0.420055,0.476192,-0.169049,-0.17036,1
1.7238,-0.988339,-1.84616,-1.16806,1.99674,1.07484,-0.920267,1.7238,-0.988339,-1.84616,-1.16806,1.99674,1.07484,-0.920267,1.78002,-1.06998,-1.82204,-1.12529,1.94828,1.10788,-0.923597,-0.102031,0.211469,-0.553934,-0.317035,0.824342,-0.563377,-0.568087,-0.102031,0.211469,-0.553934,-0.317035,0.824342,-0.563377,-0.568087,0.546337,-0.456171,0.70958,0.573721,0.186159,0.150977,0.783195,0.0460154,-0.0924895,-0.171001,0.100827,-0.141449,-0.198521,2.67041,-0.507895,0.394713,-3.50502,0.0159025,4.72561,-3.50502,0.03272,4.52561,-0.562156,0.816432,-0.241212,-0.427758,0.484602,-0.330429,0.0333055,1
1.72482,-0.98434,-1.84873,-1.17679,2.01067,1.05823,-0.913187,1.72482,-0.98434,-1.84873,-1.17679,2.01067,1.05823,-0.913187,1.7781,-1.06657,-1.82986,-1.12837,1.95686,1.10351,-0.931283,-0.207382,0.371287,-0.850573,-0.330086,0.854734,-0.376332,-0.821272,-0.207382,0.371287,-0.850573,-0.330086,0.854734,-0.376332,-0.821272,0.546802,-0.458071,0.70757,0.577015,0.190928,0.151949,0.77943,-0.0216159,-0.148507,-0.182169,0.0356425,-0.190206,-0.21213,2.63545,-0.507521,0.440725,-3.49576,0.0374615,4.60114,-3.49576,0.0306112,4.40114,-0.532873,0.822311,-0.188741,-0.484142,0.538098,-0.452785,0.180957,1
1.72598,-0.979372,-1.85556,-1.18333,2.02228,1.05481,-0.931654,1.72598,-0.979372,-1.85556,-1.18333,2.02228,1.05481,-0.931654,1.77641,-1.06209,-1.83899,-1.13239,1.96525,1.10125,-0.939362,-0.159458,0.4752,-0.905208,-0.439092,0.838857,-0.208197,-0.745737,-0.159458,0.4752,-0.905208,-0.439092,0.838857,-0.208197,-0.745737,0.547205,-0.459242,0.705568,0.580399,0.194835,0.153633,0.775612,-0.0079992,-0.0595739,-0.162948,0.0442401,-0.0874661,-0.191191,2.60119,-0.506896,0.485479,-3.42586,0.0624716,4.47539,-3.42586,0.0307351,4.27538,-0.504233,0.827143,-0.165659,-0.509401,0.570309,-0.464374,0.0770817,1
1.71849,-0.973843,-1.88339,-1.17317,2.02911,1.05663,-0.960413,1.71849,-0.973843,-1.88339,-1.17317,2.02911,1.05663,-0.960413,1.77427,-1.05696,-1.84693,-1.13795,1.97376,1.09847,-0.94316,-0.247804,0.514231,-0.748877,-0.616598,0.854887,-0.328432,-0.24524,-0.247804,0.514231,-0.748877,-0.616598,0.854887,-0.328432,-0.24524,0.547579,-0.459708,0.703916,0.581592,0.199043,0.155006,0.773373,-0.0202788,-0.0104229,-0.138508,0.0351771,-0.0393925,-0.169255,2.56713,-0.506779,0.529293,-3.40643,0.0117064,4.38149,-3.40643,0.0297961,4.18149,-0.557773,0.831166,-0.36464,-0.352238,0.553434,-0.418415,-0.172526,1
1.72471,-0.971435,-1.89074,-1.16879,2.03578,1.06382,-0.973146,1.72471,-0.971435,-1.89074,-1.16879,2.03578,1.06382,-0.973146,1.77053,-1.05229,-1.85267,-1.14599,1.98257,1.09301,-0.942143,-0.417101,0.45418,-0.515562,-0.863863,0.888596,-0.616754,0.201294,-0.417101,0.45418,-0.515562,-0.863863,0.888596,-0.616754,0.201294,0.547909,-0.460115,0.701916,0.580136,0.204993,0.155644,0.772784,-0.0375381,8.26991e-05,-0.171068,0.0300483,-0.0417778,-0.20969,2.53321,-0.507117,0.572326,-3.39174,-0.0338316,4.30322,-3.39174,0.0252319,4.10322,-0.458192,0.808574,-0.38071,-0.228021,0.532129,-0.291899,-0.310022,1
1.71296,-0.968464,-1.89528,-1.13599,2.0435,1.10442,-0.969118,1.71296,-0.968464,-1.89528,-1.13599,2.0435,1.10442,-0.969118,1.76544,-1.04753,-1.85647,-1.15545,1.992,1.08478,-0.938541,-0.531788,0.492648,-0.34032,-0.963665,0.968783,-0.884452,0.372174,-0.531788,0.492648,-0.34032,-0.963665,0.968783,-0.884452,0.372174,0.54811,-0.460601,0.700031,0.577238,0.212289,0.155702,0.772973,-0.0592182,0.00224619,-0.132742,0.0156792,-0.049623,-0.177172,2.4989,-0.507406,0.614657,-3.43113,-0.0288785,4.23315,-3.43113,0.0151532,4.03315,-0.52485,0.790703,-0.388127,0.194574,0.514958,0.196403,-0.305777,1
1.70435,-0.965072,-1.89743,-1.15636,2.05624,1.1123,-0.970378,1.70435,-0.965072,-1.89743,-1.15636,2.05624,1.1123,-0.970378,1.75968,-1.04194,-1.85996,-1.16541,2.00223,1.075,-0.936665,-0.587142,0.574259,-0.380299,-0.988316,1.03739,-0.994177,0.104212,-0.587142,0.574259,-0.380299,-0.988316,1.03739,-0.994177,0.104212,0.548193,-0.461159,0.698389,0.575002,0.220078,0.155963,0.772408,-0.0776753,-0.0145677,-0.121013,0.00379653,-0.0703294,-0.171323,2.46455,-0.506849,0.655761,-3.43447,0.0557065,4.11039,-3.43447,0.0112399,3.91039,-0.553364,0.768725,-0.37467,0.0905317,0.540084,0.372934,-0.337121,1
1.68899,-0.956265,-1.88366,-1.16483,2.06743,1.09713,-0.973617,1.68899,-0.956265,-1.88366,-1.16483,2.06743,1.09713,-0.973617,1.75361,-1.03553,-1.86516,-1.17341,2.01272,1.06572,-0.938609,-0.604758,0.66626,-0.561999,-0.709714,1.045,-0.869603,-0.29284,-0.604758,0.66626,-0.561999,-0.709714,1.045,-0.869603,-0.29284,0.547716,-0.462733,0.697063,0.575451,0.227316,0.156753,0.769813,-0.144978,-0.130356,-0.0616023,-0.0722432,-0.186572,-0.108466,2.43013,-0.50667,0.695764,-3.44236,0.0179231,4.00029,-3.44236,0.00721386,3.80029,-0.646198,0.79262,-0.185068,0.0857508,0.547036,0.314031,-0.35008,1
1.6924,-0.947457,-1.86491,-1.2005,2.07975,1.08195,-0.977397,1.6924,-0.947457,-1.86491,-1.2005,2.07975,1.08195,-0.977397,1.74831,-1.02861,-1.87195,-1.17858,2.02264,1.06015,-0.944363,-0.502415,0.699539,-0.721793,-0.424136,0.975168,-0.429277,-0.656996,-0.502415,0.699539,-0.721793,-0.424136,0.975168,-0.429277,-0.656996,0.54657,-0.464796,0.696481,0.578636,0.232202,0.157852,0.765732,-0.1854,-0.179312,-0.00147048,-0.138293,-0.223452,-0.0329879,2.3954,-0.506682,0.734199,-3.47245,-0.0012219,3.84355,-3.47245,0.0040314,3.64355,-0.55918,0.811513,0.0704011,-0.219184,0.571036,0.218034,-0.330336,1
1.68767,-0.939554,-1.86129,-1.19341,2.0888,1.09133,-0.994042,1.68767,-0.939554,-1.86129,-1.19341,2.0888,1.09133,-0.994042,1.74373,-1.02144,-1.88048,-1.18007,2.03174,1.06034,-0.95179,-0.437426,0.722572,-0.893308,-0.0641621,0.890206,0.161699,-0.752664,-0.437426,0.722572,-0.893308,-0.0641621,0.890206,0.161699,-0.752664,0.544264,-0.467649,0.696968,0.58421,0.233849,0.158638,0.76082,-0.269803,-0.269275,0.0840503,-0.258191,-0.299986,0.0754083,2.36113,-0.506631,0.771711,-3.42741,0.00510812,3.75115,-3.42741,0.0073252,3.55115,-0.560621,0.818864,0.191873,-0.133437,0.570552,0.309938,-0.422516,1
1.6912,-0.93506,-1.8612,-1.1825,2.09899,1.11061,-1.00886,1.6912,-0.93506,-1.8612,-1.1825,2.09899,1.11061,-1.00886,1.74029,-1.0138,-1.88916,-1.18011,2.04045,1.06539,-0.958964,-0.317802,0.780611,-0.824747,-0.00846068,0.873831,0.592487,-0.701385,-0.317802,0.780611,-0.824747,-0.00846068,0.873831,0.592487,-0.701385,0.541426,-0.469888,0.698584,0.590149,0.232694,0.158945,0.756515,-0.272082,-0.175028,0.185437,-0.289794,-0.18679,0.196323,2.32702,-0.506611,0.808816,-3.41067,0.00196099,3.7105,-3.41067,0.0115546,3.5105,-0.490884,0.787389,0.279525,-0.0238647,0.585424,0.452206,-0.498916,1
1.68756,-0.928914,-1.86208,-1.16261,2.10944,1.12076,-1.02075,1.68756,-0.928914,-1.86208,-1.16261,2.10944,1.12076,-1.02075,1.73659,-1.00574,-1.89464,-1.1809,2.04964,1.0712,-0.965381,-0.410798,0.803608,-0.460663,-0.127318,0.935745,0.530074,-0.622135,-0.410798,0.803608,-0.460663,-0.127318,0.935745,0.530074,-0.622135,0.538239,-0.471123,0.701546,0.595205,0.230329,0.158281,0.75341,-0.297185,-0.100427,0.291356,-0.326833,-0.113006,0.309639,2.2927,-0.506656,0.844674,-3.43287,-0.00445843,3.58583,-3.43287,0.00987436,3.38583,-0.490284,0.76827,0.325609,0.182835,0.598018,0.495596,-0.553707,1
1.67799,-0.921364,-1.8581,-1.1537,2.12146,1.1262,-1.02972,1.67799,-0.921364,-1.8581,-1.1537,2.12146,1.1262,-1.02972,1.73099,-0.997948,-1.89622,-1.18393,2.05956,1.07475,-0.971307,-0.610132,0.777472,-0.0471591,-0.354922,1.01531,0.329047,-0.596997,-0.610132,0.777472,-0.0471591,-0.354922,1.01531,0.329047,-0.596997,0.534714,-0.471995,0.704968,0.599166,0.228649,0.156684,0.751112,-0.336432,-0.0519057,0.345017,-0.368802,-0.0742655,0.364315,2.25822,-0.506374,0.87963,-3.4477,0.0281334,3.49561,-3.4477,0.00543509,3.29561,-0.530052,0.765836,0.381237,0.302264,0.618986,0.514541,-0.584169,1
1.66688,-0.915701,-1.84575,-1.1557,2.13187,1.13107,-1.03955,1.66688,-0.915701,-1.84575,-1.1557,2.13187,1.13107,-1.03955,1.72364,-0.990433,-1.8938,-1.18837,2.07026,1.07823,-0.978146,-0.773014,0.737875,0.322096,-0.457713,1.08802,0.371376,-0.719311,-0.773014,0.737875,0.322096,-0.457713,1.08802,0.371376,-0.719311,0.530436,-0.47254,0.709307,0.602893,0.226364,0.153847,0.749407,-0.399605,-0.0262867,0.423342,-0.449736,-0.0536599,0.452922,2.225,-0.506383,0.913035,-3.32189,-0.000852346,3.34044,-3.32189,0.00517858,3.14043,-0.567675,0.747321,0.480518,0.32671,0.616116,0.528445,-0.614023,1
1.65295,-0.909091,-1.83651,-1.14558,2.14093,1.13615,-1.0463,1.65295,-0.909091,-1.83651,-1.14558,2.14093,1.13615,-1.0463,1.715,-0.983653,-1.88954,-1.19161,2.08128,1.08324,-0.986652,-0.887238,0.651479,0.437231,-0.263875,1.1001,0.548412,-0.89347,-0.887238,0.651479,0.437231,-0.263875,1.1001,0.548412,-0.89347,0.525027,-0.473873,0.71441,0.607815,0.222839,0.149832,0.747298,-0.497967,-0.132327,0.478391,-0.57042,-0.16602,0.52016,2.1913,-0.506314,0.946031,-3.36981,0.00690818,3.29964,-3.36981,0.00655864,3.09964,-0.620588,0.745613,0.530303,0.460385,0.59647,0.529116,-0.596452,1
1.64469,-0.904641,-1.83079,-1.13979,2.14822,1.1449,-1.05526,1.64469,-0.904641,-1.83079,-1.13979,2.14822,1.1449,-1.05526,1.7069,-0.977476,-1.88497,-1.19209,2.09213,1.08999,-0.996714,-0.761305,0.619528,0.4772,0.0373198,1.07918,0.714661,-1.03915,-0.761305,0.619528,0.4772,0.0373198,1.07918,0.714661,-1.03915,0.51906,-0.475792,0.720249,0.614068,0.217845,0.145132,0.744581,-0.504204,-0.152099,0.565972,-0.598456,-0.180561,0.619175,2.15672,-0.50603,0.978275,-3.45814,0.0283718,3.22435,-3.45814,0.00953334,3.02435,-0.622047,0.728349,0.541839,0.522982,0.560933,0.549127,-0.585461,1
1.64188,-0.901499,-1.82438,-1.13388,2.15799,1.15378,-1.06655,1.64188,-0.901499,-1.82438,-1.13388,2.15799,1.15378,-1.06655,1.70072,-0.971606,-1.88008,-1.18933,2.10288,1.09776,-1.00774,-0.580039,0.567982,0.480687,0.342889,1.07711,0.788677,-1.11689,-0.580039,0.567982,0.480687,0.342889,1.07711,0.788677,-1.11689,0.51316,-0.477651,0.727061,0.621031,0.211442,0.139885,0.74165,-0.479041,-0.16709,0.626436,-0.589064,-0.193144,0.686321,2.12269,-0.506065,1.00897,-3.40283,-0.00345707,3.0691,-3.40283,0.0105398,2.8691,-0.588311,0.701066,0.557028,0.554484,0.551114,0.560232,-0.588106,1
1.63714,-0.897276,-1.81839,-1.12755,2.1694,1.16049,-1.07824,1.63714,-0.897276,-1.81839,-1.12755,2.1694,1.16049,-1.07824,1.69561,-0.966427,-1.87534,-1.18451,2.11369,1.10549,-1.0191,-0.49061,0.51072,0.484259,0.522957,1.08221,0.773901,-1.13641,-0.49061,0.51072,0.484259,0.522957,1.08221,0.773901,-1.13641,0.507323,-0.479873,0.734011,0.628321,0.204798,0.134165,0.738425,-0.469467,-0.192893,0.643339,-0.586416,-0.220955,0.704044,2.08907,-0.505766,1.03838,-3.36244,0.0298619,2.94147,-3.36244,0.0130042,2.74147,-0.584731,0.691516,0.569498,0.569598,0.557132,0.55001,-0.591349,1
1.63241,-0.89252,-1.81181,-1.12063,2.17842,1.16787,-1.08917,1.63241,-0.89252,-1.81181,-1.12063,2.17842,1.16787,-1.08917,1.69099,-0.961188,-1.86951,-1.17868,2.1244,1.11305,-1.03017,-0.460901,0.533731,0.61918,0.590226,1.0639,0.752664,-1.09256,-0.460901,0.533731,0.61918,0.590226,1.0639,0.752664,-1.09256,0.501411,-0.481781,0.741609,0.635403,0.197624,0.128072,0.735395,-0.471791,-0.151425,0.713888,-0.597758,-0.17439,0.776508,2.05554,-0.505743,1.06722,-3.35283,0.00231862,2.88366,-3.35283,0.0120621,2.68366,-0.585821,0.686681,0.57703,0.580483,0.540212,0.548233,-0.589959,1
1.62487,-0.887128,-1.80494,-1.11264,2.18586,1.17574,-1.09895,1.62487,-0.887128,-1.80494,-1.11264,2.18586,1.17574,-1.09895,1.68583,-0.955354,-1.86217,-1.17257,2.13459,1.12092,-1.04068,-0.535253,0.598387,0.775662,0.636078,1.00827,0.806678,-1.03823,-0.535253,0.598387,0.775662,0.636078,1.00827,0.806678,-1.03823,0.494969,-0.483232,0.750097,0.642331,0.189561,0.12178,0.732562,-0.529305,-0.12336,0.80955,-0.668803,-0.137129,0.875964,2.02209,-0.50582,1.0955,-3.3448,-0.00767112,2.82853,-3.3448,0.0110569,2.62853,-0.60967,0.682262,0.572276,0.599233,0.512661,0.548178,-0.582772,1
1.61665,-0.880753,-1.79862,-1.10448,2.19283,1.18487,-1.10858,1.61665,-0.880753,-1.79862,-1.10448,2.19283,1.18487,-1.10858,1.68022,-0.948953,-1.85405,-1.16619,2.14413,1.12919,-1.05078,-0.569708,0.649405,0.812191,0.630937,0.928465,0.823588,-0.997016,-0.569708,0.649405,0.812191,0.630937,0.928465,0.823588,-0.997016,0.488071,-0.484306,0.75917,0.649232,0.180766,0.115539,0.729707,-0.552795,-0.0905984,0.839958,-0.694959,-0.0949507,0.904438,1.98789,-0.505662,1.12268,-3.42003,0.0157297,2.71804,-3.42003,0.00963381,2.51804,-0.635741,0.681997,0.554378,0.617062,0.486972,0.556806,-0.578075,1
1.60682,-0.873123,-1.79241,-1.09546,2.19906,1.19413,-1.1173,1.60682,-0.873123,-1.79241,-1.09546,2.19906,1.19413,-1.1173,1.6741,-0.9424,-1.84602,-1.15906,2.15297,1.1373,-1.06039,-0.627689,0.660515,0.80488,0.73996,0.873605,0.807134,-0.952518,-0.627689,0.660515,0.80488,0.73996,0.873605,0.807134,-0.952518,0.480731,-0.485574,0.768391,0.656333,0.171778,0.109434,0.72646,-0.60604,-0.129726,0.865415,-0.751781,-0.131292,0.927796,1.95374,-0.505518,1.14887,-3.41488,0.0144005,2.61906,-3.41488,0.0081669,2.41906,-0.672876,0.692768,0.53614,0.636021,0.460966,0.568289,-0.569057,1
1.59813,-0.866669,-1.78407,-1.0877,2.20609,1.2021,-1.1259,1.59813,-0.866669,-1.78407,-1.0877,2.20609,1.2021,-1.1259,1.66771,-0.935699,-1.83789,-1.15134,2.16152,1.14534,-1.06982,-0.639015,0.672715,0.815631,0.766949,0.853317,0.810573,-0.942235,-0.639015,0.672715,0.815631,0.766949,0.853317,0.810573,-0.942235,0.473038,-0.486872,0.777786,0.663534,0.162575,0.103295,0.722926,-0.625081,-0.119355,0.875192,-0.773615,-0.117103,0.935059,1.91999,-0.505508,1.17374,-3.37561,0.00103116,2.48656,-3.37561,0.00802236,2.28656,-0.69581,0.690308,0.538109,0.636342,0.445753,0.5676,-0.560767,1
1.58949,-0.860244,-1.77751,-1.07881,2.21141,1.21077,-1.13459,1.58949,-0.860244,-1.77751,-1.07881,2.21141,1.21077,-1.13459,1.66138,-0.929064,-1.83,-1.14326,2.17001,1.15328,-1.07937,-0.631716,0.661701,0.776118,0.820988,0.848197,0.785238,-0.959157,-0.631716,0.661701,0.776118,0.820988,0.848197,0.785238,-0.959157,0.465235,-0.488165,0.787049,0.670758,0.153405,0.0971388,0.719107,-0.637038,-0.131679,0.863143,-0.785408,-0.128913,0.919083,1.88593,-0.505552,1.19736,-3.40514,-0.00436902,2.36163,-3.40514,0.00505107,2.16163,-0.718916,0.688199,0.524965,0.644574,0.414002,0.574937,-0.552159,1
1.58166,-0.855528,-1.77151,-1.06916,2.21616,1.21929,-1.14305,1.58166,-0.855528,-1.77151,-1.06916,2.21616,1.21929,-1.14305,1.65514,-0.922714,-1.82259,-1.13439,2.17846,1.16132,-1.08918,-0.622686,0.628582,0.737708,0.89634,0.842788,0.808521,-0.990761,-0.622686,0.628582,0.737708,0.89634,0.842788,0.808521,-0.990761,0.457203,-0.489714,0.796137,0.678217,0.144209,0.0908308,0.714825,-0.657914,-0.154853,0.848251,-0.809852,-0.151542,0.901613,1.85213,-0.505537,1.22015,-3.38008,0.0014782,2.27902,-3.38008,0.00467194,2.07902,-0.734786,0.671854,0.510782,0.652332,0.376951,0.579683,-0.538684,1
1.57497,-0.852336,-1.76516,-1.06018,2.21962,1.22775,-1.1521,1.57497,-0.852336,-1.76516,-1.06018,2.21962,1.22775,-1.1521,1.64911,-0.916494,-1.81517,-1.1255,2.18679,1.16991,-1.09938,-0.593242,0.619103,0.743412,0.885602,0.823863,0.866907,-1.01964,-0.593242,0.619103,0.743412,0.885602,0.823863,0.866907,-1.01964,0.449096,-0.491,0.805084,0.68561,0.134755,0.0844314,0.710388,-0.65472,-0.122233,0.836276,-0.810432,-0.113746,0.887243,1.81832,-0.505539,1.24222,-3.38154,-0.000172853,2.20783,-3.38154,0.00378702,2.00783,-0.741429,0.641585,0.500054,0.653188,0.328296,0.578486,-0.527245,1
1.56805,-0.847935,-1.7575,-1.05134,2.22551,1.23548,-1.16086,1.56805,-0.847935,-1.7575,-1.05134,2.22551,1.23548,-1.16086,1.6432,-0.910343,-1.80753,-1.11643,2.19462,1.17876,-1.10943,-0.59758,0.619534,0.773097,0.921266,0.77539,0.900522,-1.00187,-0.59758,0.619534,0.773097,0.921266,0.77539,0.900522,-1.00187,0.440885,-0.491994,0.814006,0.692803,0.125019,0.0780433,0.705906,-0.675023,-0.10573,0.847777,-0.835569,-0.0910994,0.896514,1.78452,-0.505425,1.26322,-3.37974,0.0113428,2.09934,-3.37974,0.00229201,1.89934,-0.751451,0.624084,0.500379,0.65095,0.308914,0.567233,-0.514347,1
1.55968,-0.84236,-1.75108,-1.04223,2.23203,1.24447,-1.16933,1.55968,-0.84236,-1.75108,-1.04223,2.23203,1.24447,-1.16933,1.63671,-0.904263,-1.79998,-1.10746,2.20194,1.18795,-1.11933,-0.666751,0.605765,0.741795,0.893667,0.71572,0.915262,-0.981989,-0.666751,0.605765,0.741795,0.893667,0.71572,0.915262,-0.981989,0.432321,-0.492988,0.822727,0.700013,0.115149,0.071741,0.701125,-0.707623,-0.118285,0.814902,-0.865722,-0.0997996,0.859055,1.7508,-0.505272,1.28316,-3.37245,0.0153244,1.99388,-3.37245,0.0032774,1.79388,-0.770347,0.61903,0.489001,0.652319,0.300925,0.565248,-0.500005,1
1.55163,-0.834664,-1.74172,-1.03398,2.2428,1.25121,-1.17786,1.55163,-0.834664,-1.74172,-1.03398,2.2428,1.25121,-1.17786,1.62963,-0.897836,-1.79241,-1.09827,2.20848,1.19711,-1.12864,-0.716005,0.65871,0.770065,0.939422,0.632868,0.914016,-0.913644,-0.716005,0.65871,0.770065,0.939422,0.632868,0.914016,-0.913644,0.423369,-0.493823,0.83156,0.707198,0.105015,0.0657481,0.696075,-0.747842,-0.0970741,0.853367,-0.908063,-0.0683142,0.894595,1.71767,-0.505126,1.30204,-3.31247,0.0145614,1.88849,-3.31247,0.00648605,1.68849,-0.779994,0.631719,0.506914,0.642915,0.343232,0.540962,-0.492188,1
1.54396,-0.827446,-1.73567,-1.02496,2.24872,1.25981,-1.18757,1.54396,-0.827446,-1.73567,-1.02496,2.24872,1.25981,-1.18757,1.62251,-0.89106,-1.78466,-1.08927,2.21409,1.20626,-1.1374,-0.709402,0.678627,0.764193,0.891222,0.536958,0.916137,-0.865984,-0.709402,0.678627,0.764193,0.891222,0.536958,0.916137,-0.865984,0.414436,-0.494065,0.840433,0.71403,0.0946253,0.0602136,0.691073,-0.734802,-0.0476742,0.838694,-0.890317,-0.00928316,0.87532,1.68409,-0.505054,1.31994,-3.35851,0.00727773,1.7902,-3.35851,0.0092219,1.5902,-0.785505,0.636135,0.489929,0.64305,0.346367,0.535432,-0.501709,1
1.53662,-0.821823,-1.72914,-1.01626,2.25521,1.26785,-1.19621,1.53662,-0.821823,-1.72914,-1.01626,2.25521,1.26785,-1.19621,1.61507,-0.884497,-1.77755,-1.07994,2.21899,1.21514,-1.14587,-0.758296,0.650609,0.692768,0.955408,0.482541,0.877561,-0.84367,-0.758296,0.650609,0.692768,0.955408,0.482541,0.877561,-0.84367,0.405343,-0.494497,0.84895,0.720957,0.0844309,0.0550146,0.685613,-0.771335,-0.0916513,0.81086,-0.92238,-0.0516723,0.842829,1.61751,-0.505,1.35286,-3.3287,0.001055,1.5916,-3.3287,0.00951099,1.3916,-0.784524,0.626739,0.484126,0.636758,0.36228,0.527062,-0.50336,1
1.52932,-0.816168,-1.72262,-1.00755,2.26086,1.27462,-1.20506,1.52932,-0.816168,-1.72262,-1.00755,2.26086,1.27462,-1.20506,1.60749,-0.877914,-1.77048,-1.07042,2.22364,1.22386,-1.15424,-0.74406,0.662461,0.722285,0.944623,0.462312,0.873774,-0.835257,-0.74406,0.662461,0.722285,0.944623,0.462312,0.873774,-0.835257,0.396115,-0.494804,0.857382,0.727797,0.0742283,0.0498949,0.679935,-0.766915,-0.0519298,0.813058,-0.918083,-0.00710214,0.841554,1.61751,-0.505,1.35286,-3.3287,0.001055,1.5916,-3.3287,0.00951099,1.3916,-0.781728,0.617452,0.478601,0.62873,0.372255,0.507646,-0.508162,1
1.52188,-0.810727,-1.71558,-0.999189,2.26774,1.28033,-1.21305,1.52188,-0.810727,-1.71558,-0.999189,2.26774,1.28033,-1.21305,1.60017,-0.871473,-1.76313,-1.06096,2.22868,1.23248,-1.16257,-0.742274,0.635437,0.723016,0.958812,0.520794,0.852994,-0.833723,-0.742274,0.635437,0.723016,0.958812,0.520794,0.852994,-0.833723,0.386939,-0.494879,0.865679,0.734252,0.0641205,0.0444814,0.674377,-0.775867,-0.0572296,0.793926,-0.928115,-0.0157912,0.818757,1.58452,-0.504793,1.36767,-3.2989,0.0206649,1.48073,-3.2989,0.00912377,1.28073,-0.782937,0.607453,0.475507,0.617727,0.390597,0.478493,-0.504748,1
1.51309,-0.804801,-1.71246,-0.988176,2.27221,1.2912,-1.21992,1.51309,-0.804801,-1.71246,-0.988176,2.27221,1.2912,-1.21992,1.5923,-0.865433,-1.75616,-1.05135,2.2346,1.24088,-1.17098,-0.791864,0.597388,0.697238,0.952281,0.610836,0.832861,-0.84675,-0.791864,0.597388,0.697238,0.952281,0.610836,0.832861,-0.84675,0.377388,-0.495471,0.87358,0.740768,0.0544813,0.0385996,0.668435,-0.805738,-0.0912412,0.756916,-0.957937,-0.0564211,0.777906,1.5183,-0.505241,1.39547,-3.33291,-0.0313461,1.35996,-3.33291,0.000452357,1.15996,-0.792122,0.606315,0.437037,0.631729,0.376053,0.503255,-0.489378,1
1.50587,-0.801353,-1.70823,-0.978169,2.27487,1.29822,-1.22889,1.50587,-0.801353,-1.70823,-0.978169,2.27487,1.29822,-1.22889,1.58477,-0.859299,-1.74865,-1.04194,2.24117,1.24931,-1.17968,-0.743856,0.623932,0.771359,0.944743,0.674188,0.84808,-0.883984,-0.743856,0.623932,0.771359,0.944743,0.674188,0.84808,-0.883984,0.367905,-0.495622,0.881496,0.74688,0.0447969,0.0323363,0.66266,-0.793262,-0.0316401,0.778978,-0.951763,0.00496194,0.797035,1.48434,-0.505432,1.40792,-3.39653,-0.0191033,1.24471,-3.39653,-0.00543531,1.04471,-0.789033,0.579454,0.404218,0.637697,0.337009,0.489119,-0.492117,1
1.49726,-0.799609,-1.69825,-0.970904,2.28195,1.30448,-1.23571,1.49726,-0.799609,-1.69825,-0.970904,2.28195,1.30448,-1.23571,1.57682,-0.853134,-1.74112,-1.03237,2.2482,1.25794,-1.18897,-0.817737,0.607814,0.740488,0.954402,0.716218,0.868117,-0.942777,-0.817737,0.607814,0.740488,0.954402,0.716218,0.868117,-0.942777,0.358031,-0.495806,0.889347,0.753144,0.0350412,0.0257687,0.656416,-0.84099,-0.0609727,0.755414,-1.00089,-0.0253197,0.769706,1.4512,-0.505354,1.41914,-3.3144,0.00780225,1.12209,-3.3144,-0.00835657,0.922093,-0.795539,0.535254,0.428633,0.614662,0.33753,0.465476,-0.467363,1
1.48882,-0.797565,-1.6908,-0.962847,2.28902,1.31142,-1.24418,1.48882,-0.797565,-1.6908,-0.962847,2.28902,1.31142,-1.24418,1.56864,-0.847174,-1.73352,-1.02276,2.2556,1.26659,-1.19856,-0.807407,0.594907,0.773648,0.965044,0.742257,0.861047,-0.959447,-0.807407,0.594907,0.773648,0.965044,0.742257,0.861047,-0.959447,0.347942,-0.496036,0.896984,0.759348,0.0253911,0.0189043,0.649914,-0.845798,-0.0442482,0.749923,-1.00812,-0.00848827,0.760461,1.41825,-0.505234,1.42927,-3.29434,0.0120163,1.01312,-3.29434,-0.00830527,0.813124,-0.798199,0.496094,0.427162,0.599082,0.334185,0.448324,-0.456155,1
1.48113,-0.791861,-1.68565,-0.95234,2.29505,1.32122,-1.25475,1.48113,-0.791861,-1.68565,-0.95234,2.29505,1.32122,-1.25475,1.56058,-0.841102,-1.72607,-1.01298,2.26283,1.27516,-1.20779,-0.813342,0.609593,0.71822,0.973251,0.706914,0.848001,-0.902291,-0.813342,0.609593,0.71822,0.973251,0.706914,0.848001,-0.902291,0.337855,-0.496012,0.904534,0.765284,0.0157166,0.0121379,0.643386,-0.849821,-0.0332762,0.734325,-1.00732,0.00744823,0.740785,1.38496,-0.505264,1.43826,-3.32949,-0.00300407,0.899613,-3.32949,-0.00762897,0.699613,-0.794474,0.49241,0.40416,0.60641,0.322223,0.460595,-0.469601,1
1.47357,-0.786214,-1.68203,-0.940677,2.29842,1.3314,-1.26465,1.47357,-0.786214,-1.68203,-0.940677,2.29842,1.3314,-1.26465,1.55234,-0.834836,-1.71949,-1.00296,2.26926,1.28348,-1.21634,-0.822114,0.634197,0.65934,1.00886,0.627874,0.839048,-0.844909,-0.822114,0.634197,0.65934,1.00886,0.627874,0.839048,-0.844909,0.327757,-0.495886,0.911873,0.771177,0.0061255,0.00599984,0.636563,-0.860227,-0.0190039,0.730429,-1.01248,0.0304073,0.733115,1.35146,-0.505538,1.44665,-3.34979,-0.0274599,0.838935,-3.34979,-0.00600155,0.638935,-0.787684,0.486219,0.374643,0.62286,0.291614,0.479246,-0.483111,1
1.46594,-0.782884,-1.67674,-0.931052,2.303,1.33788,-1.27358,1.46594,-0.782884,-1.67674,-0.931052,2.303,1.33788,-1.27358,1.54428,-0.828514,-1.71267,-0.993022,2.27523,1.29169,-1.22468,-0.804461,0.620606,0.681979,0.974138,0.589159,0.815475,-0.831618,-0.804461,0.620606,0.681979,0.974138,0.589159,0.815475,-0.831618,0.31779,-0.495328,0.919144,0.77672,-0.00354366,3.40197e-05,0.629836,-0.840165,0.0121811,0.710535,-0.988527,0.0640429,0.709593,1.31784,-0.505399,1.45409,-3.36196,0.0139117,0.743818,-3.36196,-0.00213534,0.543818,-0.783405,0.456303,0.35936,0.619697,0.277682,0.461874,-0.488971,1
1.45656,-0.778919,-1.67278,-0.921356,2.30773,1.34432,-1.28031,1.45656,-0.778919,-1.67278,-0.921356,2.30773,1.34432,-1.28031,1.5359,-0.822604,-1.70626,-0.983014,2.28115,1.29973,-1.23303,-0.852123,0.585192,0.63355,1.01695,0.594605,0.802088,-0.83761,-0.852123,0.585192,0.63355,1.01695,0.594605,0.802088,-0.83761,0.30768,-0.495024,0.925997,0.782284,-0.0128977,-0.00593632,0.622761,-0.877493,-0.0239569,0.682469,-1.02396,0.0275363,0.678096,1.28439,-0.505083,1.46054,-3.34529,0.0316024,0.644493,-3.34529,0.00232394,0.444493,-0.793358,0.436849,0.334832,0.616574,0.26578,0.445894,-0.472824,1
1.44902,-0.776266,-1.66384,-0.913763,2.31124,1.35045,-1.29071,1.44902,-0.776266,-1.66384,-0.913763,2.31124,1.35045,-1.29071,1.52751,-0.816719,-1.69957,-0.973118,2.28704,1.30785,-1.24147,-0.824799,0.584893,0.678336,0.960296,0.577788,0.812706,-0.837203,-0.824799,0.584893,0.678336,0.960296,0.577788,0.812706,-0.837203,0.297554,-0.494442,0.932743,0.787606,-0.0223094,-0.0119826,0.615658,-0.850621,0.0248443,0.669102,-0.995947,0.0792037,0.661248,1.25116,-0.505309,1.46525,-3.32245,-0.0225782,0.471461,-3.32245,0.00107203,0.271461,-0.784928,0.404536,0.357313,0.593542,0.241997,0.426049,-0.492394,1
1.44147,-0.772522,-1.65917,-0.90552,2.31438,1.35944,-1.30033,1.44147,-0.772522,-1.65917,-0.90552,2.31438,1.35944,-1.30033,1.51932,-0.81112,-1.69315,-0.963557,2.2925,1.31577,-1.24982,-0.832289,0.55311,0.625352,0.973706,0.535852,0.802184,-0.841949,-0.832289,0.55311,0.625352,0.973706,0.535852,0.802184,-0.841949,0.287726,-0.493731,0.939083,0.79268,-0.031426,-0.0177664,0.608568,-0.855272,0.0116628,0.635305,-0.995412,0.0681587,0.624376,1.21831,-0.505651,1.46942,-3.28549,-0.0342071,0.416708,-3.28549,-0.00316926,0.216708,-0.778476,0.385977,0.339789,0.580373,0.218826,0.4367,-0.505067,1
1.43365,-0.76944,-1.6549,-0.896526,2.31476,1.36892,-1.30982,1.43365,-0.76944,-1.6549,-0.896526,2.31476,1.36892,-1.30982,1.51073,-0.805655,-1.68723,-0.953729,2.29759,1.32396,-1.25849,-0.855887,0.548436,0.58693,0.961842,0.492708,0.817668,-0.869992,-0.855887,0.548436,0.58693,0.961842,0.492708,0.817668,-0.869992,0.277631,-0.493097,0.945177,0.797984,-0.0406256,-0.0233995,0.600852,-0.862053,0.018364,0.612119,-0.997749,0.079794,0.59811,1.18577,-0.505541,1.47258,-3.25409,0.0109732,0.316322,-3.25409,-0.00345686,0.116322,-0.770784,0.362148,0.323285,0.572037,0.171676,0.449531,-0.51331,1
1.42656,-0.76295,-1.65113,-0.887572,2.31418,1.37628,-1.32025,1.42656,-0.76295,-1.65113,-0.887572,2.31418,1.37628,-1.32025,1.50253,-0.800031,-1.68146,-0.94412,2.30209,1.3319,-1.26693,-0.818819,0.566952,0.564495,0.967391,0.438077,0.778586,-0.832996,-0.818819,0.566952,0.564495,0.967391,0.438077,0.778586,-0.832996,0.267933,-0.492005,0.951144,0.802958,-0.0497475,-0.0286007,0.593267,-0.837079,0.0519051,0.608869,-0.966294,0.118093,0.592155,1.15293,-0.505281,1.47492,-3.2835,0.0259876,0.234139,-3.2835,-0.000290573,0.034139,-0.759614,0.370806,0.303306,0.565478,0.1209,0.443713,-0.533187,1
1.41725,-0.758247,-1.64608,-0.87804,2.31468,1.3817,-1.3279,1.41725,-0.758247,-1.64608,-0.87804,2.31468,1.3817,-1.3279,1.49396,-0.794501,-1.67622,-0.934258,2.3063,1.33962,-1.27524,-0.866085,0.549778,0.525773,0.978596,0.416793,0.778191,-0.838713,-0.866085,0.549778,0.525773,0.978596,0.416793,0.778191,-0.838713,0.258079,-0.491011,0.956901,0.808017,-0.058726,-0.0335637,0.585264,-0.862371,0.0383723,0.586247,-0.987754,0.107268,0.566818,1.12026,-0.505187,1.47655,-3.26709,0.00941157,0.162578,-3.26709,2.44805e-05,-0.0374224,-0.767116,0.36254,0.301355,0.562185,0.083741,0.42078,-0.526573,1
1.40978,-0.755601,-1.63565,-0.87692,2.31827,1.38438,-1.3381,1.40978,-0.755601,-1.63565,-0.87692,2.31827,1.38438,-1.3381,1.48566,-0.789228,-1.67046,-0.924694,2.31028,1.3475,-1.28412,-0.819418,0.513884,0.586954,0.945111,0.386477,0.801525,-0.90307,-0.819418,0.513884,0.586954,0.945111,0.386477,0.801525,-0.90307,0.248415,-0.489715,0.962457,0.812829,-0.0677243,-0.0386611,0.577258,-0.832882,0.0700028,0.565584,-0.959033,0.139797,0.542948,1.08787,-0.505078,1.47671,-3.2387,0.0109434,0.0161052,-3.2387,0.00224582,-0.183895,-0.75885,0.336277,0.348122,0.477739,0.0798556,0.368796,-0.539802,1
1.40162,-0.755823,-1.6321,-0.869516,2.31931,1.39844,-1.34735,1.40162,-0.755823,-1.6321,-0.869516,2.31931,1.39844,-1.34735,1.47705,-0.784482,-1.66497,-0.914959,2.3136,1.35563,-1.29364,-0.878669,0.463621,0.534006,0.977002,0.308108,0.819729,-0.966456,-0.878669,0.463621,0.534006,0.977002,0.308108,0.819729,-0.966456,0.238575,-0.488598,0.96763,0.817894,-0.0767053,-0.0436501,0.56856,-0.86968,0.0356297,0.529293,-0.99078,0.110355,0.504023,1.05546,-0.505545,1.47648,-3.24115,-0.0467241,-0.0229597,-3.24115,0.00282803,-0.22296,-0.754351,0.286586,0.328677,0.454434,0.057157,0.428044,-0.537059,1
1.39691,-0.755832,-1.63815,-0.866328,2.30552,1.41273,-1.35848,1.39691,-0.755832,-1.63815,-0.866328,2.30552,1.41273,-1.35848,1.46862,-0.779684,-1.65938,-0.90522,2.31583,1.36402,-1.30352,-0.822366,0.486632,0.576551,0.967103,0.196163,0.836244,-0.989083,-0.822366,0.486632,0.576551,0.967103,0.196163,0.836244,-0.989083,0.228913,-0.487013,0.972729,0.822876,-0.0859827,-0.0482524,0.559601,-0.832351,0.100426,0.537838,-0.949967,0.184383,0.509278,1.02306,-0.504907,1.47558,-3.24031,0.0638127,-0.0902414,-3.24031,0.00867162,-0.290241,-0.717101,0.238526,0.212243,0.388919,-0.103095,0.48709,-0.549592,1
1.38946,-0.749162,-1.64222,-0.863785,2.29346,1.42005,-1.36752,1.38946,-0.749162,-1.64222,-0.863785,2.29346,1.42005,-1.36752,1.46041,-0.775043,-1.65382,-0.895695,2.31721,1.37217,-1.31332,-0.833112,0.451939,0.537708,0.941136,0.125285,0.79915,-0.977219,-0.833112,0.451939,0.537708,0.941136,0.125285,0.79915,-0.977219,0.219596,-0.485188,0.977602,0.827644,-0.0951219,-0.0524524,0.550641,-0.819508,0.0923245,0.500854,-0.927323,0.177629,0.47099,0.99008,-0.504629,1.47329,-3.2979,0.0278354,-0.228751,-3.2979,0.0111752,-0.428751,-0.709546,0.258817,0.116055,0.319099,-0.237549,0.478848,-0.542077,1
1.37866,-0.739598,-1.62747,-0.854171,2.30594,1.41582,-1.37932,1.37866,-0.739598,-1.62747,-0.854171,2.30594,1.41582,-1.37932,1.45208,-0.770757,-1.64835,-0.88662,2.31841,1.37965,-1.3231,-0.825227,0.423009,0.563593,0.887328,0.119168,0.748757,-0.974954,-0.825227,0.423009,0.563593,0.887328,0.119168,0.748757,-0.974954,0.210526,-0.483477,0.982123,0.832258,-0.103676,-0.0564763,0.541672,-0.793717,0.100635,0.474502,-0.896091,0.182298,0.443417,0.957018,-0.504947,1.47004,-3.30624,-0.0318527,-0.325263,-3.30624,0.00818223,-0.525263,-0.734233,0.311587,0.208777,0.324498,-0.124687,0.361613,-0.562181,1
1.37156,-0.742262,-1.61022,-0.854367,2.31765,1.4236,-1.39031,1.37156,-0.742262,-1.61022,-0.854367,2.31765,1.4236,-1.39031,1.44386,-0.766795,-1.6427,-0.878336,2.3189,1.38722,-1.33286,-0.831626,0.381042,0.543077,0.798275,-0.000632772,0.771539,-0.975542,-0.831626,0.381042,0.543077,0.798275,-0.000632772,0.771539,-0.975542,0.201875,-0.481571,0.986271,0.836576,-0.112036,-0.060206,0.532883,-0.759304,0.107965,0.424776,-0.851474,0.193788,0.392873,0.924126,-0.505678,1.46561,-3.28919,-0.0730574,-0.443017,-3.28919,-0.00104776,-0.643017,-0.72298,0.245329,0.324801,0.239687,-0.0125306,0.363815,-0.574448,1
1.37047,-0.759807,-1.63568,-0.860749,2.30383,1.44922,-1.39902,1.37047,-0.759807,-1.63568,-0.860749,2.30383,1.44922,-1.39902,1.43529,-0.763214,-1.63884,-0.870807,2.31718,1.39562,-1.34273,-0.856888,0.360309,0.335167,0.732663,-0.235882,0.865097,-0.989383,-0.856888,0.360309,0.335167,0.732663,-0.235882,0.865097,-0.989383,0.193678,-0.479694,0.989662,0.84129,-0.120403,-0.0624961,0.523285,-0.728913,0.0973203,0.353888,-0.799931,0.199627,0.322273,0.891675,-0.505519,1.4605,-3.24504,0.015837,-0.510454,-3.24504,-0.00582103,-0.710454,-0.648163,0.0340705,0.0315526,0.100582,-0.133499,0.535983,-0.562903,1
1.37251,-0.757859,-1.66422,-0.852633,2.27292,1.46628,-1.40777,1.37251,-0.757859,-1.66422,-0.852633,2.27292,1.46628,-1.40777,1.42712,-0.758861,-1.63579,-0.863925,2.31322,1.40495,-1.35263,-0.812931,0.46288,0.314866,0.671964,-0.420474,0.936929,-0.993697,-0.812931,0.46288,0.314866,0.671964,-0.420474,0.936929,-0.993697,0.186272,-0.476775,0.993016,0.845915,-0.129472,-0.0633309,0.513472,-0.664596,0.202812,0.376605,-0.724604,0.323792,0.342133,0.858577,-0.505748,1.45427,-3.30989,-0.0228882,-0.623441,-3.30989,-0.0102973,-0.823441,-0.546089,0.0100208,-0.284342,0.112918,-0.403037,0.613289,-0.551384,1
1.35159,-0.728177,-1.65142,-0.840626,2.28016,1.45394,-1.41925,1.35159,-0.728177,-1.65142,-0.840626,2.28016,1.45394,-1.41925,1.41814,-0.754219,-1.63269,-0.857799,2.31022,1.41348,-1.36276,-0.926611,0.45074,0.312757,0.587945,-0.234138,0.824867,-1.02011,-0.926611,0.45074,0.312757,0.587945,-0.234138,0.824867,-1.02011,0.178871,-0.473865,0.996321,0.850445,-0.137929,-0.0642094,0.503583,-0.690564,0.166454,0.351158,-0.746011,0.272671,0.317806,0.825962,-0.505486,1.44691,-3.26149,0.0262201,-0.736141,-3.26149,-0.016245,-0.936141,-0.665493,0.260421,-0.187333,0.171725,-0.300676,0.404593,-0.564942,1
1.33603,-0.719187,-1.6066,-0.846034,2.30872,1.42046,-1.42737,1.33603,-0.719187,-1.6066,-0.846034,2.30872,1.42046,-1.42737,1.40905,-0.750393,-1.62847,-0.853011,2.30939,1.4212,-1.37316,-0.89133,0.355768,0.444952,0.426053,-0.0638888,0.771671,-1.04487,-0.89133,0.355768,0.444952,0.426053,-0.0638888,0.771671,-1.04487,0.171666,-0.471472,0.999166,0.854398,-0.1452,-0.0662845,0.494497,-0.634865,0.151541,0.296178,-0.695667,0.23578,0.263517,0.793329,-0.505295,1.43863,-3.26329,0.0190794,-0.828171,-3.26329,-0.0112434,-1.02817,-0.730206,0.312065,0.218649,0.0697706,-0.00670232,-0.00748041,-0.542013,1
1.3271,-0.748436,-1.61536,-0.85644,2.32301,1.46078,-1.44078,1.3271,-0.748436,-1.61536,-0.85644,2.32301,1.46078,-1.44078,1.40023,-0.747959,-1.62602,-0.849752,2.3079,1.42977,-1.38362,-0.890767,0.213111,0.137336,0.32685,-0.199375,0.893559,-1.04393,-0.890767,0.213111,0.137336,0.32685,-0.199375,0.893559,-1.04393,0.165247,-0.469874,1.00072,0.858415,-0.151651,-0.06779,0.485315,-0.59572,0.0456736,0.149577,-0.635771,0.133115,0.120397,0.760639,-0.505166,1.42901,-3.26895,0.0129461,-0.961268,-3.26895,0.000508555,-1.16127,-0.731383,-0.00476859,0.106626,-0.0668732,0.151065,0.310078,-0.571569,1
1.33666,-0.768442,-1.6699,-0.834522,2.26221,1.50497,-1.44841,1.33666,-0.768442,-1.6699,-0.834522,2.26221,1.50497,-1.44841,1.39174,-0.745376,-1.62728,-0.846706,2.30316,1.44049,-1.39365,-0.81667,0.287807,-0.200539,0.282558,-0.57383,1.12219,-0.981893,-0.81667,0.287807,-0.200539,0.282558,-0.57383,1.12219,-0.981893,0.159624,-0.468027,1.00152,0.862942,-0.158905,-0.066898,0.47498,-0.506656,0.0982974,0.10283,-0.518174,0.220008,0.0723021,0.728558,-0.505385,1.41875,-3.20813,-0.0219643,-1.02632,-3.20813,0.00727517,-1.22632,-0.550882,-0.230656,-0.426191,0.121845,-0.409499,0.644768,-0.547665,1
1.32758,-0.739625,-1.68487,-0.817683,2.24498,1.5122,-1.45434,1.32758,-0.739625,-1.68487,-0.817683,2.24498,1.5122,-1.45434,1.38386,-0.741812,-1.63135,-0.843524,2.2956,1.45093,-1.4029,-0.79909,0.374103,-0.4656,0.349728,-0.77493,0.980683,-0.91211,-0.79909,0.374103,-0.4656,0.349728,-0.77493,0.980683,-0.91211,0.155099,-0.465577,1.00231,0.867705,-0.166354,-0.0634859,0.464095,-0.468032,0.104401,0.111856,-0.447152,0.23822,0.0849256,0.696348,-0.505511,1.40748,-3.221,-0.0125468,-1.12655,-3.221,0.00382598,-1.32655,-0.562804,0.0218736,-0.53521,0.258413,-0.506164,0.612649,-0.514351,1
1.30637,-0.705916,-1.65761,-0.85182,2.26605,1.45225,-1.46835,1.30637,-0.705916,-1.65761,-0.85182,2.26605,1.45225,-1.46835,1.37569,-0.737822,-1.63532,-0.84031,2.29078,1.45713,-1.41198,-0.810822,0.40646,-0.329331,0.26445,-0.336778,0.499623,-0.918426,-0.810822,0.40646,-0.329331,0.26445,-0.336778,0.499623,-0.918426,0.15074,-0.463753,1.00356,0.87238,-0.171612,-0.0605013,0.453699,-0.438151,0.083109,0.152273,-0.417125,0.172071,0.13486,0.663842,-0.505845,1.3955,-3.25063,-0.0333965,-1.19892,-3.25063,-0.00153482,-1.39892,-0.693238,0.319052,-0.222912,-0.115103,-0.247278,-0.0487433,-0.563715,1
1.28993,-0.697067,-1.65795,-0.886665,2.31794,1.4074,-1.46618,1.28993,-0.697067,-1.65795,-0.886665,2.31794,1.4074,-1.46618,1.36774,-0.73421,-1.63554,-0.83956,2.29174,1.46157,-1.42179,-0.808545,0.322452,0.0697466,0.0383127,0.205319,0.481084,-1.00159,-0.808545,0.322452,0.0697466,0.0383127,0.205319,0.481084,-1.00159,0.146546,-0.462236,1.00488,0.875788,-0.175034,-0.060763,0.44572,-0.423677,0.0884463,0.138479,-0.442714,0.136415,0.120114,0.631722,-0.505882,1.38268,-3.212,-0.00367761,-1.28195,-3.212,-0.00939689,-1.48195,-0.77802,0.371428,-0.224086,-0.471056,0.261952,-0.541726,-0.443926,1
1.28391,-0.713679,-1.68019,-0.896827,2.26485,1.48595,-1.47444,1.28391,-0.713679,-1.68019,-0.896827,2.26485,1.48595,-1.47444,1.35893,-0.733026,-1.63391,-0.838794,2.29256,1.46916,-1.43211,-0.89477,0.0544311,0.175181,0.0966266,-0.0439092,0.871377,-1.0329,-0.89477,0.0544311,0.175181,0.0966266,-0.0439092,0.871377,-1.0329,0.141091,-0.461589,1.00523,0.878992,-0.179358,-0.0627727,0.437337,-0.53172,-0.00695787,0.032359,-0.565557,0.0572266,0.00459786,0.600292,-0.50559,1.36829,-3.14291,0.0291765,-1.43902,-3.14291,-0.00991076,-1.63902,-0.750208,0.193473,-0.462831,-0.58033,-0.27712,0.167898,-0.423315,1
1.28299,-0.75542,-1.68642,-0.822801,2.23698,1.53068,-1.49042,1.28299,-0.75542,-1.68642,-0.822801,2.23698,1.53068,-1.49042,1.35078,-0.733285,-1.63322,-0.836612,2.28679,1.48007,-1.44215,-0.777088,-0.0318788,0.00206135,0.253988,-0.748563,1.11069,-0.994284,-0.777088,-0.0318788,0.00206135,0.253988,-0.748563,1.11069,-0.994284,0.135782,-0.460656,1.00482,0.882461,-0.18587,-0.0627704,0.427522,-0.491922,0.000627226,-0.0164325,-0.498765,0.107958,-0.0503367,0.568783,-0.505496,1.35355,-3.15097,0.00941753,-1.47396,-3.15097,-0.00631916,-1.67396,-0.677814,-0.221351,-0.532033,0.13811,-0.498134,0.506119,-0.482755,1
1.27956,-0.724404,-1.69299,-0.885521,2.23639,1.51857,-1.5051,1.27956,-0.724404,-1.69299,-0.885521,2.23639,1.51857,-1.5051,1.34404,-0.733114,-1.63658,-0.83392,2.27788,1.48711,-1.45192,-0.643497,0.0483576,-0.450079,0.249314,-0.844113,0.509007,-0.966971,-0.643497,0.0483576,-0.450079,0.249314,-0.844113,0.509007,-0.966971,0.132323,-0.460117,1.00432,0.886742,-0.190588,-0.0594853,0.416924,-0.340888,-0.0619483,-0.0317772,-0.289445,0.0258484,-0.0445108,0.536169,-0.505433,1.33802,-3.26138,0.00623465,-1.55276,-3.26138,0.000505788,-1.75276,-0.644782,0.0871,-0.564072,-0.516004,-0.41493,0.31456,-0.531812,1
1.2616,-0.707433,-1.69572,-0.896138,2.23747,1.43614,-1.50928,1.2616,-0.707433,-1.69572,-0.896138,2.23747,1.43614,-1.50928,1.33822,-0.731131,-1.64316,-0.834023,2.27486,1.48553,-1.46067,-0.572285,0.247648,-0.711653,-0.120984,-0.0958953,-0.363131,-0.844094,-0.572285,0.247648,-0.711653,-0.120984,-0.0958953,-0.363131,-0.844094,0.131202,-0.460712,1.00422,0.891111,-0.189774,-0.0553632,0.408462,-0.137531,-0.0998038,-0.0210085,-0.0566266,-0.0876312,-0.00261166,0.503907,-0.505131,1.32133,-3.22618,0.0302315,-1.66914,-3.22618,0.00838765,-1.86914,-0.766179,0.236979,-0.525566,-0.621149,-0.373911,-0.493871,-0.486121,1
1.25267,-0.687811,-1.70801,-0.906498,2.24947,1.43021,-1.50243,1.25267,-0.687811,-1.70801,-0.906498,2.24947,1.43021,-1.50243,1.33172,-0.728061,-1.65123,-0.83873,2.27697,1.48056,-1.46822,-0.689757,0.31125,-0.827627,-0.584797,0.228722,-0.452919,-0.72631,-0.689757,0.31125,-0.827627,-0.584797,0.228722,-0.452919,-0.72631,0.131535,-0.461964,1.00373,0.895074,-0.185565,-0.051134,0.402236,-0.0410181,-0.111795,-0.10559,0.0519918,-0.127072,-0.0765967,0.471323,-0.505561,1.30291,-3.25847,-0.0429749,-1.84207,-3.25847,0.00896411,-2.04207,-0.790504,0.4025,-0.567841,-0.677682,-0.274961,-0.503499,-0.342096,1
1.24532,-0.684968,-1.72087,-0.910457,2.24242,1.43267,-1.51159,1.24532,-0.684968,-1.72087,-0.910457,2.24242,1.43267,-1.51159,1.32295,-0.725117,-1.66005,-0.84648,2.27594,1.48066,-1.47542,-0.942523,0.286957,-0.901799,-0.79902,-0.253439,0.190398,-0.739325,-0.942523,0.286957,-0.901799,-0.79902,-0.253439,0.190398,-0.739325,0.131842,-0.462617,1.00207,0.898932,-0.183215,-0.0452053,0.395361,-0.0986066,-0.0744896,-0.210018,0.00730964,-0.0417809,-0.194571,0.439346,-0.506163,1.28434,-3.19765,-0.0602543,-1.85633,-3.19765,-0.001508,-2.05633,-0.776301,0.401488,-0.608135,-0.639769,-0.335182,-0.479896,-0.3617,1
1.23635,-0.695094,-1.72749,-0.902429,2.23184,1.46059,-1.52758,1.23635,-0.695094,-1.72749,-0.902429,2.23184,1.46059,-1.52758,1.31245,-0.722497,-1.66879,-0.854077,2.26882,1.48725,-1.48389,-1.0622,0.260927,-0.863365,-0.723326,-0.842847,0.746192,-0.885237,-1.0622,0.260927,-0.863365,-0.723326,-0.842847,0.746192,-0.885237,0.131284,-0.462102,0.999736,0.903006,-0.184723,-0.0376255,0.38606,-0.180103,-0.0112208,-0.232653,-0.0687574,0.0750808,-0.235707,0.407531,-0.506224,1.26526,-3.18154,-0.00604987,-1.90793,-3.18154,-0.0120163,-2.10793,-0.761026,0.274025,-0.58699,-0.483524,-0.369792,-0.266637,-0.436963,1
1.22903,-0.700644,-1.73634,-0.917965,2.23822,1.47122,-1.53711,1.22903,-0.700644,-1.73634,-0.917965,2.23822,1.47122,-1.53711,1.30223,-0.720003,-1.6777,-0.860905,2.25848,1.4919,-1.49312,-1.00037,0.244388,-0.906665,-0.669336,-1.03656,0.288539,-0.915833,-1.00037,0.244388,-0.906665,-0.669336,-1.03656,0.288539,-0.915833,0.131243,-0.461623,0.99751,0.907403,-0.185886,-0.0285144,0.375836,-0.120443,-0.053493,-0.222284,0.0218996,0.0155159,-0.216415,0.375115,-0.506609,1.24476,-3.24157,-0.0385284,-2.05073,-3.24157,-0.0212625,-2.25073,-0.732077,0.193584,-0.586468,-0.570593,-0.202626,-0.206807,-0.439889,1
1.21951,-0.704154,-1.74415,-0.9356,2.20542,1.46773,-1.53193,1.21951,-0.704154,-1.74415,-0.9356,2.20542,1.46773,-1.53193,1.29339,-0.717471,-1.68699,-0.868799,2.25026,1.48818,-1.50095,-0.836604,0.266524,-0.925349,-0.849703,-0.749675,-0.590118,-0.739817,-0.836604,0.266524,-0.925349,-0.849703,-0.749675,-0.590118,-0.739817,0.132939,-0.46251,0.995543,0.911751,-0.182433,-0.0187551,0.367528,0.0606144,-0.119911,-0.221698,0.229296,-0.11646,-0.192441,0.34287,-0.506422,1.22304,-3.22447,0.0186682,-2.17133,-3.22447,-0.023523,-2.37133,-0.738821,0.133176,-0.571599,-0.668015,-0.448337,-0.204541,-0.309743,1
1.2112,-0.71874,-1.75024,-0.944303,2.19057,1.47107,-1.53201,1.2112,-0.71874,-1.75024,-0.944303,2.19057,1.47107,-1.53201,1.28528,-0.71413,-1.69659,-0.878582,2.24406,1.47847,-1.50768,-0.830515,0.350367,-0.980298,-0.993457,-0.587127,-1.02003,-0.663775,-0.830515,0.350367,-0.980298,-0.993457,-0.587127,-1.02003,-0.663775,0.13621,-0.464016,0.993772,0.915895,-0.175563,-0.00829928,0.360895,0.138118,-0.137107,-0.219453,0.325602,-0.165264,-0.181621,0.310717,-0.506213,1.20013,-3.21535,0.0209153,-2.29087,-3.21535,-0.0193421,-2.49087,-0.740821,-0.0461033,-0.536552,-0.657204,-0.534898,-0.0740296,-0.243304,1
1.20328,-0.711533,-1.7604,-0.956208,2.18735,1.45272,-1.54698,1.20328,-0.711533,-1.7604,-0.956208,2.18735,1.45272,-1.54698,1.27598,-0.709991,-1.70656,-0.888323,2.239,1.47079,-1.51475,-0.946526,0.433828,-0.988483,-0.965545,-0.478825,-0.653168,-0.726094,-0.946526,0.433828,-0.988483,-0.965545,-0.478825,-0.653168,-0.726094,0.138598,-0.465262,0.992003,0.91995,-0.169657,0.00172278,0.35342,0.0397211,-0.0948652,-0.204037,0.209509,-0.106165,-0.179246,0.279052,-0.505913,1.17647,-3.16646,0.0299752,-2.36695,-3.16646,-0.00484543,-2.56695,-0.726985,-0.0154197,-0.538373,-0.67885,-0.516421,-0.180668,-0.322307,1
1.19472,-0.702769,-1.76849,-0.966334,2.19038,1.45145,-1.56128,1.19472,-0.702769,-1.76849,-0.966334,2.19038,1.45145,-1.56128,1.26696,-0.705638,-1.71638,-0.897911,2.23499,1.46733,-1.52236,-0.885333,0.425487,-0.994092,-0.948072,-0.39501,-0.267746,-0.761233,-0.885333,0.425487,-0.994092,-0.948072,-0.39501,-0.267746,-0.761233,0.140351,-0.465952,0.990013,0.923502,-0.165678,0.0105021,0.345811,0.0170077,-0.0717791,-0.227486,0.164203,-0.0708869,-0.212953,0.247422,-0.50619,1.15175,-3.163,-0.0276804,-2.47198,-3.163,0.00334084,-2.67198,-0.722383,0.0286899,-0.521119,-0.684232,-0.446127,-0.158774,-0.389203,1
1.18474,-0.696789,-1.78544,-0.970547,2.17735,1.46789,-1.57213,1.18474,-0.696789,-1.78544,-0.970547,2.17735,1.46789,-1.57213,1.25852,-0.70215,-1.72669,-0.907433,2.22929,1.4662,-1.52896,-0.824403,0.32846,-1.02783,-0.972268,-0.644154,-0.0622476,-0.615525,-0.824403,0.32846,-1.02783,-0.972268,-0.644154,-0.0622476,-0.615525,0.142115,-0.46679,0.987312,0.926629,-0.162576,0.019593,0.338443,0.0384371,-0.0931599,-0.300607,0.190208,-0.0820703,-0.292468,0.21549,-0.506451,1.126,-3.19321,-0.0260413,-2.57474,-3.19321,0.00237759,-2.77474,-0.737786,0.0536101,-0.587539,-0.631138,-0.51942,0.0168461,-0.431703,1
1.17842,-0.689169,-1.7967,-0.973578,2.16681,1.47572,-1.57768,1.17842,-0.689169,-1.7967,-0.973578,2.16681,1.47572,-1.57768,1.25102,-0.699233,-1.73636,-0.917832,2.2202,1.46595,-1.53399,-0.732327,0.278914,-0.948769,-1.04735,-0.98579,-0.044041,-0.482678,-0.732327,0.278914,-0.948769,-1.04735,-0.98579,-0.044041,-0.482678,0.144845,-0.467274,0.984037,0.929043,-0.15999,0.0299248,0.332245,0.125901,-0.0663437,-0.341301,0.290663,-0.048508,-0.338452,0.184232,-0.507354,1.09976,-3.12579,-0.0903845,-2.62331,-3.12579,-0.00810751,-2.82331,-0.725958,0.100648,-0.60345,-0.557453,-0.533822,0.0977164,-0.436895,1
1.16976,-0.702509,-1.80624,-0.981092,2.1544,1.48056,-1.58441,1.16976,-0.702509,-1.80624,-0.981092,2.1544,1.48056,-1.58441,1.24321,-0.69683,-1.74553,-0.92861,2.20895,1.46475,-1.53894,-0.804854,0.232009,-0.90335,-1.08243,-1.15002,-0.14473,-0.501049,-0.804854,0.232009,-0.90335,-1.08243,-1.15002,-0.14473,-0.501049,0.147811,-0.467994,0.980415,0.931368,-0.157015,0.0411428,0.325895,0.110186,-0.0957612,-0.371434,0.28738,-0.0833705,-0.370802,0.153039,-0.507092,1.07263,-3.1193,0.026238,-2.71376,-3.1193,-0.017247,-2.91376,-0.734492,-0.0567825,-0.607111,-0.524819,-0.545484,0.158095,-0.454688,1
1.16322,-0.712682,-1.81156,-0.995418,2.14958,1.49048,-1.58832,1.16322,-0.712682,-1.81156,-0.995418,2.14958,1.49048,-1.58832,1.23474,-0.694521,-1.75398,-0.939233,2.19811,1.46357,-1.54468,-0.851328,0.227743,-0.831147,-1.04161,-1.04847,-0.0808917,-0.612799,-0.851328,0.227743,-0.831147,-1.04161,-1.04847,-0.0808917,-0.612799,0.150221,-0.468838,0.976802,0.933687,-0.154091,0.051844,0.319056,0.0519863,-0.0971732,-0.358643,0.216326,-0.0869976,-0.361827,0.122359,-0.506334,1.04456,-3.06802,0.075841,-2.80646,-3.06802,-0.0138685,-3.00646,-0.715253,-0.181612,-0.575778,-0.561854,-0.485245,0.269148,-0.436461,1
1.15671,-0.715106,-1.81504,-1.0071,2.14886,1.49484,-1.59736,1.15671,-0.715106,-1.81504,-1.0071,2.14886,1.49484,-1.59736,1.22657,-0.692686,-1.76218,-0.950038,2.18849,1.46407,-1.55208,-0.802493,0.16756,-0.821728,-1.09133,-0.926081,0.0873989,-0.775733,-0.802493,0.16756,-0.821728,-1.09133,-0.926081,0.0873989,-0.775733,0.152254,-0.469831,0.972843,0.935936,-0.151604,0.0613637,0.311888,0.0479146,-0.115386,-0.405771,0.196651,-0.108898,-0.411168,0.0914609,-0.505099,1.01695,-3.0898,0.123423,-2.7614,-3.0898,0.00540529,-2.9614,-0.698507,-0.224198,-0.528567,-0.570668,-0.396328,0.307672,-0.452816,1
1.15334,-0.727744,-1.79318,-1.00995,2.17709,1.45461,-1.60314,1.15334,-0.727744,-1.79318,-1.00995,2.17709,1.45461,-1.60314,1.2187,-0.691322,-1.77078,-0.960041,2.18033,1.46619,-1.56054,-0.783786,0.130901,-0.873666,-0.96949,-0.778209,0.286848,-0.878376,-0.783786,0.130901,-0.873666,-0.96949,-0.778209,0.286848,-0.878376,0.153554,-0.471146,0.968707,0.938201,-0.149634,0.0696697,0.304194,-0.0298371,-0.143285,-0.40829,0.100329,-0.133963,-0.416941,0.0658711,-0.499978,0.989302,-2.55898,0.512168,-2.76468,-2.55898,0.0798588,-2.96468,-0.6536,-0.364222,-0.224028,-0.499124,-0.0323691,-0.115736,-0.425994,1
1.15538,-0.71314,-1.77762,-1.00771,2.20853,1.41683,-1.55723,1.15538,-0.71314,-1.77762,-1.00771,2.20853,1.41683,-1.55723,1.21132,-0.690603,-1.77969,-0.969666,2.17273,1.47021,-1.56937,-0.722548,0.0545749,-0.896795,-0.953419,-0.813988,0.400635,-0.877525,-0.722548,0.0545749,-0.896795,-0.953419,-0.813988,0.400635,-0.877525,0.154415,-0.472678,0.964206,0.940301,-0.14827,0.0771798,0.296468,-0.0341714,-0.169224,-0.450484,0.0908005,-0.15921,-0.461502,0.0577014,-0.4847,0.983857,-0.816977,1.52777,-0.544423,-0.816977,0.292849,-0.744423,-0.559379,-0.225368,0.0207736,-0.380443,0.358064,-0.533781,0.121396,1
1.13265,-0.713537,-1.77581,-0.974309,2.1949,1.41364,-1.54162,1.13265,-0.713537,-1.77581,-0.974309,2.1949,1.41364,-1.54162,1.20404,-0.690048,-1.78921,-0.978737,2.16373,1.47657,-1.57809,-0.733082,0.0292528,-0.962383,-0.882306,-0.886716,0.727438,-0.87484,-0.733082,0.0292528,-0.962383,-0.882306,-0.886716,0.727438,-0.87484,0.154968,-0.473991,0.959424,0.942146,-0.148158,0.0849942,0.288419,-0.0955306,-0.166995,-0.472234,0.0216156,-0.139585,-0.49108,0.0553832,-0.46606,0.986355,-0.23182,1.86402,0.249785,-0.23182,0.625085,0.0497852,-0.713892,-0.234898,0.134037,0.0442787,0.311715,-0.629223,0.364675,1
1.1232,-0.702606,-1.75488,-1.00014,2.21267,1.41161,-1.55657,1.1232,-0.702606,-1.75488,-1.00014,2.21267,1.41161,-1.55657,1.19659,-0.690338,-1.79858,-0.987837,2.1559,1.48395,-1.58642,-0.743029,-0.0360238,-0.916497,-0.914076,-0.736409,0.715142,-0.80815,-0.743029,-0.0360238,-0.916497,-0.914076,-0.736409,0.715142,-0.80815,0.154866,-0.475774,0.95428,0.943833,-0.148003,0.0918353,0.280785,-0.124614,-0.201264,-0.498347,-0.0188494,-0.186169,-0.513826,0.0614979,-0.451932,0.991783,0.611472,1.41275,0.542778,0.611472,0.951522,0.342778,-0.733876,-0.122679,0.436982,-0.123061,0.567736,-0.723453,0.298496,1
1.11812,-0.719399,-1.75485,-1.0339,2.21167,1.41376,-1.56443,1.11812,-0.719399,-1.75485,-1.0339,2.21167,1.41376,-1.56443,1.18952,-0.691133,-1.80514,-0.996846,2.1518,1.48828,-1.59377,-0.698209,-0.0940501,-0.546935,-0.884571,-0.262362,0.277968,-0.695093,-0.698209,-0.0940501,-0.546935,-0.884571,-0.262362,0.277968,-0.695093,0.154474,-0.477915,0.949806,0.945362,-0.146265,0.0964017,0.27496,-0.124738,-0.208756,-0.41383,-0.0532604,-0.231027,-0.413765,0.0749883,-0.442885,0.997132,1.34904,0.904748,0.534922,1.34904,1.18071,0.334922,-0.714002,-0.282656,0.502918,-0.370567,0.59869,-0.745209,0.293459,1
1.11008,-0.705176,-1.75453,-1.05192,2.21531,1.40968,-1.56175,1.11008,-0.705176,-1.75453,-1.05192,2.21531,1.40968,-1.56175,1.18189,-0.693485,-1.80757,-1.00477,2.15438,1.48555,-1.59664,-0.78683,-0.292576,-0.13464,-0.723112,0.437941,-0.462101,-0.106969,-0.78683,-0.292576,-0.13464,-0.723112,0.437941,-0.462101,-0.106969,0.152781,-0.481693,0.946486,0.946895,-0.140604,0.0973584,0.272289,-0.256127,-0.343338,-0.324067,-0.226347,-0.431919,-0.297437,0.089755,-0.434614,1.00292,1.47667,0.827125,0.578922,1.47667,1.28004,0.378922,-0.718096,-0.116913,0.53041,-0.47142,0.609315,-0.758659,0.348912,1
1.10007,-0.69362,-1.75364,-1.06412,2.22283,1.39909,-1.56881,1.10007,-0.69362,-1.75364,-1.06412,2.22283,1.39909,-1.56881,1.17426,-0.697656,-1.80521,-1.00953,2.16252,1.47552,-1.59205,-0.733765,-0.45696,0.359327,-0.398466,0.910435,-1.16971,0.630308,-0.733765,-0.45696,0.359327,-0.398466,0.910435,-1.16971,0.630308,0.149541,-0.486915,0.944857,0.948023,-0.131637,0.0947411,0.273767,-0.330776,-0.40744,-0.167672,-0.342449,-0.542664,-0.123318,0.104379,-0.425344,1.00767,1.46239,0.926939,0.47487,1.46239,1.24017,0.27487,-0.741954,0.0403542,0.515724,-0.545861,0.603065,-0.764394,0.232452,1
1.09183,-0.694909,-1.75048,-1.06715,2.23259,1.3849,-1.56258,1.09183,-0.694909,-1.75048,-1.06715,2.23259,1.3849,-1.56258,1.16752,-0.703392,-1.79903,-1.01181,2.17407,1.46092,-1.58352,-0.668633,-0.605309,0.669208,-0.190245,1.21711,-1.5557,0.875535,-0.668633,-0.605309,0.669208,-0.190245,1.21711,-1.5557,0.875535,0.145507,-0.492925,0.944359,0.948732,-0.120908,0.0892766,0.278064,-0.379245,-0.460619,-0.0924772,-0.422113,-0.625004,-0.0398458,0.11844,-0.417589,1.01196,1.40608,0.775546,0.42913,1.40608,1.07173,0.22913,-0.756832,0.0848375,0.485443,-0.553332,0.58517,-0.760115,0.209425,1
1.08914,-0.720333,-1.73975,-1.07738,2.24619,1.3692,-1.55444,1.08914,-0.720333,-1.73975,-1.07738,2.24619,1.3692,-1.55444,1.16139,-0.709452,-1.79102,-1.01454,2.18681,1.44506,-1.57614,-0.584445,-0.589287,0.856601,-0.316041,1.267,-1.54969,0.685314,-0.584445,-0.589287,0.856601,-0.316041,1.267,-1.54969,0.685314,0.141787,-0.498843,0.943994,0.949226,-0.109735,0.082677,0.283005,-0.288394,-0.3922,-0.0856857,-0.342526,-0.556674,-0.0367424,0.133671,-0.408978,1.01561,1.52308,0.861108,0.365233,1.52308,0.919551,0.165233,-0.72255,-0.10881,0.512677,-0.628404,0.593746,-0.758605,0.216978,1
1.08794,-0.737469,-1.7292,-1.08912,2.25583,1.35545,-1.54869,1.08794,-0.737469,-1.7292,-1.08912,2.25583,1.35545,-1.54869,1.15569,-0.714422,-1.78153,-1.01935,2.19847,1.43086,-1.57067,-0.588548,-0.468739,0.948491,-0.550641,1.12992,-1.35556,0.495093,-0.588548,-0.468739,0.948491,-0.550641,1.12992,-1.35556,0.495093,0.139254,-0.503305,0.94362,0.949203,-0.0998226,0.0764488,0.288452,-0.184389,-0.271221,-0.0915849,-0.232506,-0.417523,-0.051942,0.148404,-0.400261,1.01865,1.4734,0.871715,0.303686,1.4734,0.856624,0.103686,-0.677467,-0.230473,0.523342,-0.697748,0.573573,-0.754122,0.219743,1
1.08258,-0.752659,-1.71736,-1.09684,2.26455,1.34392,-1.54155,1.08258,-0.752659,-1.71736,-1.09684,2.26455,1.34392,-1.54155,1.1483,-0.718236,-1.77289,-1.02657,2.20886,1.4188,-1.56736,-0.796,-0.343033,0.836112,-0.77245,1.01464,-1.1768,0.293225,-0.796,-0.343033,0.836112,-0.77245,1.01464,-1.1768,0.293225,0.136946,-0.507064,0.942699,0.949225,-0.0907025,0.0715052,0.292629,-0.203275,-0.225869,-0.13286,-0.231941,-0.360406,-0.100839,0.162901,-0.392187,1.02008,1.44962,0.80736,0.142658,1.44962,0.847023,-0.0573422,-0.657188,-0.344238,0.555335,-0.702694,0.55685,-0.748864,0.258098,1
1.08072,-0.758906,-1.70761,-1.1048,2.27493,1.33253,-1.53475,1.08072,-0.758906,-1.70761,-1.1048,2.27493,1.33253,-1.53475,1.13926,-0.720544,-1.76492,-1.03538,2.21898,1.40762,-1.5649,-0.930394,-0.196378,0.788857,-0.923791,1.01496,-1.11569,0.244352,-0.930394,-0.196378,0.788857,-0.923791,1.01496,-1.11569,0.244352,0.134679,-0.510173,0.941723,0.949268,-0.0819775,0.0675648,0.29598,-0.199693,-0.166771,-0.126397,-0.217037,-0.29509,-0.0992986,0.176888,-0.383311,1.02087,1.39868,0.887573,0.0789165,1.39868,0.848393,-0.121083,-0.585434,-0.383621,0.573081,-0.694161,0.559499,-0.7509,0.301499,1
1.08029,-0.76131,-1.70167,-1.11495,2.28526,1.32097,-1.52885,1.08029,-0.76131,-1.70167,-1.11495,2.28526,1.32097,-1.52885,1.12929,-0.722165,-1.75787,-1.04601,2.22928,1.3958,-1.56212,-1.01708,-0.161791,0.670738,-1.10961,1.04296,-1.20543,0.2941,-1.01708,-0.161791,0.670738,-1.10961,1.04296,-1.20543,0.2941,0.132783,-0.513332,0.940292,0.949193,-0.0724031,0.0644864,0.299385,-0.181686,-0.188617,-0.191093,-0.182387,-0.329785,-0.165706,0.192005,-0.373899,1.02077,1.5117,0.941202,-0.00920296,1.5117,0.856003,-0.209203,-0.490054,-0.391445,0.561972,-0.689434,0.559795,-0.748387,0.332734,1
1.07636,-0.757371,-1.69859,-1.12632,2.29549,1.3084,-1.51962,1.07636,-0.757371,-1.69859,-1.12632,2.29549,1.3084,-1.51962,1.11908,-0.723763,-1.75157,-1.0579,2.23985,1.38305,-1.55863,-1.00871,-0.151293,0.640669,-1.20893,1.05732,-1.30214,0.371496,-1.00871,-0.151293,0.640669,-1.20893,1.05732,-1.30214,0.371496,0.131281,-0.516823,0.938311,0.9489,-0.0617826,0.0618836,0.303221,-0.138459,-0.191457,-0.22399,-0.13045,-0.341798,-0.201009,0.207091,-0.365541,1.01955,1.50864,0.835788,-0.122368,1.50864,0.868745,-0.322368,-0.427233,-0.336082,0.529773,-0.684187,0.556405,-0.746583,0.390109,1
1.0739,-0.747706,-1.69472,-1.13887,2.30598,1.29541,-1.50795,1.0739,-0.747706,-1.69472,-1.13887,2.30598,1.29541,-1.50795,1.10958,-0.724781,-1.74451,-1.07102,2.25034,1.36964,-1.55415,-0.936183,-0.092149,0.720318,-1.34475,1.04294,-1.34489,0.474671,-0.936183,-0.092149,0.720318,-1.34475,1.04294,-1.34489,0.474671,0.130876,-0.519732,0.936326,0.947987,-0.050897,0.0596388,0.308503,-0.0290822,-0.12623,-0.223706,-0.0154657,-0.276462,-0.204557,0.221054,-0.357431,1.01708,1.39631,0.811034,-0.24668,1.39631,0.865594,-0.44668,-0.356798,-0.229242,0.497912,-0.678418,0.556375,-0.742284,0.461976,1
1.06342,-0.742088,-1.6859,-1.15129,2.31719,1.28156,-1.50178,1.06342,-0.742088,-1.6859,-1.15129,2.31719,1.28156,-1.50178,1.10016,-0.725372,-1.73687,-1.08401,2.26063,1.35607,-1.54871,-0.941971,-0.044151,0.788582,-1.28776,1.03017,-1.35394,0.564387,-0.941971,-0.044151,0.788582,-1.28776,1.03017,-1.35394,0.564387,0.130691,-0.522192,0.934606,0.946691,-0.0403012,0.0575028,0.314396,-0.0282971,-0.0848376,-0.176328,-0.015654,-0.228577,-0.161068,0.235588,-0.349202,1.01428,1.45336,0.82292,-0.280046,1.45336,0.858779,-0.480046,-0.367404,-0.167166,0.509614,-0.672825,0.565559,-0.745027,0.46932,1
1.07101,-0.746794,-1.67262,-1.16674,2.32635,1.2675,-1.4971,1.07101,-0.746794,-1.67262,-1.16674,2.32635,1.2675,-1.4971,1.09146,-0.725617,-1.72821,-1.09658,2.27078,1.34281,-1.54258,-0.842248,-0.0178689,0.885045,-1.23462,1.00802,-1.32473,0.63162,-0.842248,-0.0178689,0.885045,-1.23462,1.00802,-1.32473,0.63162,0.130902,-0.523985,0.933302,0.944933,-0.0304031,0.0551965,0.321141,0.0261184,-0.028672,-0.131964,0.0344809,-0.163284,-0.120072,0.250429,-0.340495,1.00951,1.48414,0.870699,-0.477588,1.48414,0.856299,-0.677588,-0.204511,-0.211777,0.555905,-0.701579,0.55573,-0.753085,0.45475,1
1.08469,-0.745949,-1.6615,-1.17909,2.33614,1.25391,-1.49071,1.08469,-0.745949,-1.6615,-1.17909,2.33614,1.25391,-1.49071,1.08355,-0.726173,-1.71972,-1.10836,2.28091,1.32979,-1.53562,-0.774979,-0.0747355,0.826716,-1.16863,1.01592,-1.29305,0.72045,-0.774979,-0.0747355,0.826716,-1.16863,1.01592,-1.29305,0.72045,0.131188,-0.525805,0.931994,0.942859,-0.0207397,0.0526512,0.328352,0.0220412,-0.0572757,-0.153644,0.0286492,-0.192643,-0.144175,0.265604,-0.331899,1.00381,1.51745,0.859609,-0.569987,1.51745,0.847807,-0.769987,0.0114482,-0.197758,0.582261,-0.707253,0.552307,-0.758797,0.449137,1
1.11253,-0.743301,-1.65297,-1.18895,2.34521,1.24043,-1.48088,1.11253,-0.743301,-1.65297,-1.18895,2.34521,1.24043,-1.48088,1.07665,-0.727195,-1.71158,-1.11943,2.29109,1.31693,-1.52765,-0.656932,-0.106782,0.820796,-1.08813,1.02354,-1.28343,0.822953,-0.656932,-0.106782,0.820796,-1.08813,1.02354,-1.28343,0.822953,0.13163,-0.52778,0.93056,0.940409,-0.0111407,0.0498446,0.336187,0.052131,-0.0579774,-0.148008,0.0555855,-0.191691,-0.140986,0.280153,-0.322943,0.997837,1.45493,0.895551,-0.597066,1.45493,0.846748,-0.797066,0.358863,-0.161064,0.586092,-0.695199,0.54126,-0.765001,0.467654,1
1.10218,-0.751373,-1.65288,-1.1967,2.35006,1.22863,-1.46943,1.10218,-0.751373,-1.65288,-1.1967,2.35006,1.22863,-1.46943,1.0707,-0.728786,-1.70351,-1.13032,2.30141,1.30417,-1.51911,-0.582735,-0.18286,0.796707,-1.09125,1.03378,-1.28117,0.856522,-0.582735,-0.18286,0.796707,-1.09125,1.03378,-1.28117,0.856522,0.132372,-0.529894,0.928877,0.937553,-0.00146245,0.0467253,0.344687,0.0736208,-0.0845922,-0.188447,0.0770031,-0.222973,-0.183883,0.294601,-0.315081,0.990693,1.44482,0.786185,-0.714409,1.44482,0.848781,-0.914409,0.314789,-0.225867,0.506287,-0.663806,0.486505,-0.755387,0.496847,1
1.12156,-0.755774,-1.64264,-1.20494,2.36709,1.21454,-1.45513,1.12156,-0.755774,-1.64264,-1.20494,2.36709,1.21454,-1.45513,1.06518,-0.731035,-1.69549,-1.141,2.31187,1.29128,-1.51077,-0.5362,-0.236419,0.814133,-1.07203,1.04706,-1.29005,0.824092,-0.5362,-0.236419,0.814133,-1.07203,1.04706,-1.29005,0.824092,0.133121,-0.532287,0.926926,0.934496,0.00840266,0.0432824,0.353232,0.0829638,-0.0957361,-0.202858,0.0849167,-0.236455,-0.200928,0.309993,-0.306643,0.983024,1.53914,0.843877,-0.766933,1.53914,0.850563,-0.966933,0.563707,-0.247389,0.528479,-0.639467,0.552235,-0.76733,0.5564,1
1.11505,-0.756598,-1.64182,-1.21883,2.37488,1.20271,-1.44656,1.11505,-0.756598,-1.64182,-1.21883,2.37488,1.20271,-1.44656,1.0608,-0.733818,-1.68651,-1.1523,2.3222,1.27816,-1.5028,-0.404554,-0.291114,0.926407,-1.14773,1.02792,-1.32054,0.789419,-0.404554,-0.291114,0.926407,-1.14773,1.02792,-1.32054,0.789419,0.134711,-0.534446,0.924757,0.930901,0.0183775,0.0396633,0.362646,0.182594,-0.0630644,-0.221482,0.18627,-0.205377,-0.222582,0.324698,-0.297975,0.974417,1.47051,0.866753,-0.86062,1.47051,0.850721,-1.06062,0.542514,-0.227802,0.446927,-0.665265,0.526729,-0.754526,0.562407,1
1.1128,-0.748144,-1.63307,-1.22958,2.38724,1.18883,-1.43821,1.1128,-0.748144,-1.63307,-1.22958,2.38724,1.18883,-1.43821,1.05734,-0.737209,-1.67701,-1.16379,2.3323,1.26501,-1.49488,-0.333262,-0.353335,0.943293,-1.15848,0.997026,-1.32453,0.799018,-0.333262,-0.353335,0.943293,-1.15848,0.997026,-1.32453,0.799018,0.13682,-0.536518,0.922371,0.926835,0.0283648,0.0358953,0.372672,0.216857,-0.0656947,-0.247023,0.223277,-0.20894,-0.251303,0.338949,-0.289684,0.964667,1.4251,0.829098,-0.975019,1.4251,0.844929,-1.17502,0.554629,-0.109347,0.43944,-0.657869,0.549469,-0.761773,0.566682,1
1.10684,-0.75382,-1.6264,-1.2413,2.3945,1.17602,-1.43206,1.10684,-0.75382,-1.6264,-1.2413,2.3945,1.17602,-1.43206,1.05476,-0.741134,-1.66789,-1.17521,2.34161,1.25201,-1.4866,-0.226293,-0.404051,0.903818,-1.11828,0.903743,-1.27725,0.834131,-0.226293,-0.404051,0.903818,-1.11828,0.903743,-1.27725,0.834131,0.139361,-0.538633,0.919647,0.922381,0.0383368,0.0323613,0.383011,0.252357,-0.0666555,-0.26662,0.263053,-0.20443,-0.273938,0.353118,-0.281236,0.954124,1.41697,0.844786,-1.0543,1.41697,0.841471,-1.2543,0.520766,-0.126856,0.414939,-0.660952,0.528956,-0.759891,0.545387,1
1.11306,-0.782591,-1.61347,-1.25454,2.40578,1.16354,-1.42246,1.11306,-0.782591,-1.61347,-1.25454,2.40578,1.16354,-1.42246,1.05326,-0.745568,-1.65952,-1.18581,2.35003,1.23962,-1.478,-0.129199,-0.45859,0.803428,-1.04164,0.834581,-1.22945,0.87339,-0.129199,-0.45859,0.803428,-1.04164,0.834581,-1.22945,0.87339,0.142107,-0.540813,0.916735,0.917673,0.0479184,0.0289637,0.393372,0.261199,-0.0919285,-0.292265,0.275249,-0.226214,-0.302355,0.368989,-0.27204,0.942547,1.58705,0.919673,-1.15773,1.58705,0.847714,-1.35773,0.597919,-0.370223,0.460448,-0.687297,0.557546,-0.760788,0.555414,1
1.11908,-0.786191,-1.6103,-1.26797,2.41477,1.15229,-1.4129,1.11908,-0.786191,-1.6103,-1.26797,2.41477,1.15229,-1.4129,1.05273,-0.750262,-1.65229,-1.19568,2.35868,1.22757,-1.46871,-0.0184073,-0.458674,0.711643,-0.96321,0.882421,-1.20415,0.951082,-0.0184073,-0.458674,0.711643,-0.96321,0.882421,-1.20415,0.951082,0.144941,-0.543248,0.913603,0.912655,0.0574752,0.0253981,0.403871,0.282838,-0.1013,-0.293985,0.296824,-0.23483,-0.306652,0.383462,-0.263911,0.92952,1.44735,0.812867,-1.30273,1.44735,0.855202,-1.50273,0.663516,-0.359286,0.419971,-0.72295,0.560893,-0.752769,0.558116,1
1.1223,-0.772561,-1.60409,-1.27964,2.42595,1.14031,-1.40499,1.1223,-0.772561,-1.60409,-1.27964,2.42595,1.14031,-1.40499,1.05361,-0.754312,-1.64549,-1.20543,2.36833,1.2152,-1.45868,0.119192,-0.396537,0.66004,-0.988161,0.996681,-1.24212,1.01471,0.119192,-0.396537,0.66004,-0.988161,0.996681,-1.24212,1.01471,0.148636,-0.545355,0.910603,0.906966,0.067157,0.0217672,0.415245,0.372302,-0.0699797,-0.292501,0.391933,-0.206527,-0.308698,0.397419,-0.255876,0.915723,1.39571,0.803491,-1.3797,1.39571,0.850261,-1.5797,0.686878,-0.18249,0.413904,-0.742114,0.576135,-0.748953,0.536804,1
1.12352,-0.770383,-1.59684,-1.28795,2.43745,1.12742,-1.39522,1.12352,-0.770383,-1.59684,-1.28795,2.43745,1.12742,-1.39522,1.05557,-0.75815,-1.63954,-1.2153,2.37881,1.20246,-1.44865,0.21933,-0.381545,0.57312,-0.977603,1.05603,-1.2822,0.988065,0.21933,-0.381545,0.57312,-0.977603,1.05603,-1.2822,0.988065,0.15298,-0.547495,0.907351,0.900824,0.0772977,0.0181395,0.426864,0.420481,-0.0725351,-0.310183,0.446829,-0.212792,-0.330398,0.412329,-0.247558,0.901227,1.49095,0.831768,-1.44955,1.49095,0.843544,-1.64955,0.679431,-0.122332,0.427066,-0.726469,0.586337,-0.75033,0.534283,1
1.12703,-0.788631,-1.5899,-1.29705,2.44926,1.11546,-1.38428,1.12703,-0.788631,-1.5899,-1.29705,2.44926,1.11546,-1.38428,1.0586,-0.762028,-1.63397,-1.22538,2.38916,1.18988,-1.43934,0.333178,-0.391971,0.559375,-1.0129,1.02132,-1.24629,0.91211,0.333178,-0.391971,0.559375,-1.0129,1.02132,-1.24629,0.91211,0.158027,-0.549424,0.903866,0.894352,0.087458,0.0147376,0.438485,0.493296,-0.043022,-0.330315,0.526363,-0.179161,-0.353627,0.427602,-0.23896,0.885181,1.5273,0.859834,-1.6046,1.5273,0.841758,-1.8046,0.684327,-0.266027,0.440732,-0.716734,0.601064,-0.744144,0.550576,1
1.13256,-0.800715,-1.58353,-1.30788,2.45938,1.10411,-1.37563,1.13256,-0.800715,-1.58353,-1.30788,2.45938,1.10411,-1.37563,1.06266,-0.766219,-1.62857,-1.23533,2.39913,1.17756,-1.43046,0.428043,-0.426928,0.52848,-0.985356,0.993364,-1.2203,0.88106,0.428043,-0.426928,0.52848,-0.985356,0.993364,-1.2203,0.88106,0.163584,-0.551186,0.900201,0.887538,0.0974783,0.0114389,0.450159,0.527932,-0.0385589,-0.346363,0.56462,-0.171793,-0.372513,0.44258,-0.2303,0.867908,1.49776,0.865962,-1.72729,1.49776,0.840427,-1.92729,0.699043,-0.344954,0.45037,-0.725544,0.602472,-0.734572,0.54838,1
1.13893,-0.803289,-1.57892,-1.31965,2.46859,1.09319,-1.36886,1.13893,-0.803289,-1.57892,-1.31965,2.46859,1.09319,-1.36886,1.06771,-0.770706,-1.62326,-1.24535,2.40889,1.16548,-1.42179,0.536174,-0.452358,0.539386,-1.00648,0.972253,-1.21316,0.860292,0.536174,-0.452358,0.539386,-1.00648,0.972253,-1.21316,0.860292,0.16971,-0.552743,0.896322,0.880277,0.107445,0.00822856,0.462061,0.592889,-0.0107079,-0.361566,0.635532,-0.141202,-0.390789,0.457256,-0.221555,0.850313,1.46759,0.874494,-1.75954,1.46759,0.841392,-1.95954,0.71219,-0.325821,0.44345,-0.742967,0.596976,-0.722834,0.529346,1
1.14528,-0.808589,-1.57388,-1.33075,2.47901,1.08204,-1.36272,1.14528,-0.808589,-1.57388,-1.33075,2.47901,1.08204,-1.36272,1.07374,-0.775246,-1.61745,-1.25553,2.41882,1.15343,-1.4131,0.616706,-0.456037,0.594116,-1.02245,1.00955,-1.19902,0.880053,0.616706,-0.456037,0.594116,-1.02245,1.00955,-1.19902,0.880053,0.176497,-0.553834,0.892473,0.872371,0.117284,0.0049797,0.474541,0.644619,0.0317557,-0.354029,0.689446,-0.0956256,-0.385747,0.471842,-0.214091,0.831919,1.45869,0.746451,-1.83936,1.45869,0.840568,-2.03936,0.715391,-0.333431,0.435682,-0.752196,0.601901,-0.713848,0.503796,1
1.15246,-0.811345,-1.56431,-1.34198,2.49102,1.07033,-1.3549,1.15246,-0.811345,-1.56431,-1.34198,2.49102,1.07033,-1.3549,1.08,-0.779876,-1.61116,-1.26635,2.42962,1.14107,-1.40375,0.629253,-0.466224,0.640674,-1.101,1.10624,-1.24803,0.951598,0.629253,-0.466224,0.640674,-1.101,1.10624,-1.24803,0.951598,0.183679,-0.554671,0.888456,0.863643,0.127444,0.00147892,0.487726,0.678736,0.05849,-0.371886,0.729374,-0.0734537,-0.40835,0.48737,-0.205314,0.813265,1.55279,0.877638,-1.86542,1.55279,0.842942,-2.06542,0.724572,-0.314693,0.468519,-0.756276,0.613964,-0.707432,0.488468,1
1.15847,-0.808002,-1.55916,-1.35386,2.50252,1.059,-1.34764,1.15847,-0.808002,-1.55916,-1.35386,2.50252,1.059,-1.34764,1.08648,-0.784736,-1.60445,-1.27755,2.44129,1.12846,-1.39388,0.655594,-0.495464,0.682702,-1.13117,1.18127,-1.27455,0.993913,0.655594,-0.495464,0.682702,-1.13117,1.18127,-1.27455,0.993913,0.1911,-0.555335,0.884288,0.854139,0.137845,-0.00238047,0.501437,0.699435,0.0772011,-0.38335,0.753531,-0.0570446,-0.42409,0.501539,-0.196864,0.792775,1.41685,0.845058,-2.04903,1.41685,0.84137,-2.24903,0.719883,-0.232659,0.452828,-0.763057,0.612301,-0.69461,0.462464,1
1.16442,-0.817828,-1.55226,-1.36573,2.51431,1.0476,-1.33969,1.16442,-0.817828,-1.55226,-1.36573,2.51431,1.0476,-1.33969,1.09349,-0.789873,-1.59755,-1.2894,2.45316,1.11554,-1.38403,0.717993,-0.515203,0.687624,-1.19996,1.18403,-1.28959,0.976391,0.717993,-0.515203,0.687624,-1.19996,1.18403,-1.28959,0.976391,0.199105,-0.555717,0.879798,0.843911,0.148585,-0.00614069,0.51546,0.754753,0.111944,-0.411879,0.819213,-0.0208225,-0.457227,0.515989,-0.188711,0.77149,1.44501,0.815317,-2.12852,1.44501,0.835219,-2.32852,0.70931,-0.279551,0.452859,-0.763338,0.611535,-0.679452,0.443421,1
1.17187,-0.827104,-1.54226,-1.37695,2.52655,1.03701,-1.33222,1.17187,-0.827104,-1.54226,-1.37695,2.52655,1.03701,-1.33222,1.10098,-0.794883,-1.59067,-1.30137,2.46473,1.10259,-1.37472,0.753886,-0.496938,0.686761,-1.2037,1.14712,-1.29752,0.9169,0.753886,-0.496938,0.686761,-1.2037,1.14712,-1.29752,0.9169,0.207573,-0.555636,0.87527,0.833329,0.159247,-0.00949056,0.529257,0.7838,0.151736,-0.407109,0.857218,0.0260984,-0.455388,0.531001,-0.180339,0.749441,1.50124,0.837138,-2.20481,1.50124,0.831426,-2.40481,0.70891,-0.322214,0.48409,-0.755777,0.618186,-0.65576,0.425027,1
1.17813,-0.837249,-1.5356,-1.38874,2.53738,1.02685,-1.32917,1.17813,-0.837249,-1.5356,-1.38874,2.53738,1.02685,-1.32917,1.10862,-0.799973,-1.58373,-1.31347,2.47607,1.08986,-1.366,0.770497,-0.514627,0.701286,-1.2,1.12568,-1.27604,0.856917,0.770497,-0.514627,0.701286,-1.2,1.12568,-1.27604,0.856917,0.216204,-0.555199,0.87067,0.822495,0.169749,-0.0126108,0.542704,0.788693,0.177396,-0.408213,0.866382,0.05779,-0.458888,0.546611,-0.171515,0.72624,1.56097,0.882471,-2.32018,1.56097,0.836532,-2.52018,0.695038,-0.372759,0.481363,-0.752709,0.613152,-0.630076,0.368292,1
1.18412,-0.842142,-1.53272,-1.40063,2.54745,1.01636,-1.32302,1.18412,-0.842142,-1.53272,-1.40063,2.54745,1.01636,-1.32302,1.11654,-0.805367,-1.57692,-1.32558,2.48719,1.07722,-1.35795,0.796647,-0.553565,0.660803,-1.21775,1.10376,-1.24326,0.782182,0.796647,-0.553565,0.660803,-1.21775,1.10376,-1.24326,0.782182,0.224983,-0.554563,0.865878,0.811433,0.180231,-0.0155568,0.555744,0.795306,0.185583,-0.439647,0.87877,0.0696833,-0.493701,0.560759,-0.163485,0.701969,1.41476,0.802994,-2.42703,1.41476,0.842653,-2.62703,0.675736,-0.36775,0.441954,-0.750514,0.60257,-0.608663,0.349313,1
1.18918,-0.85573,-1.52708,-1.41241,2.55758,1.00727,-1.31929,1.18918,-0.85573,-1.52708,-1.41241,2.55758,1.00727,-1.31929,1.12444,-0.810923,-1.57074,-1.33744,2.49787,1.06519,-1.35059,0.790283,-0.545344,0.617167,-1.18104,1.06319,-1.1963,0.729186,0.790283,-0.545344,0.617167,-1.18104,1.06319,-1.1963,0.729186,0.233588,-0.553858,0.860913,0.80049,0.190462,-0.0182849,0.567984,0.776399,0.197087,-0.436772,0.86265,0.0891653,-0.49211,0.574919,-0.155625,0.67688,1.41606,0.786014,-2.50893,1.41606,0.832229,-2.70893,0.647323,-0.448074,0.436622,-0.749688,0.59715,-0.579291,0.312938,1
1.19877,-0.866788,-1.51594,-1.42417,2.56928,0.999366,-1.31588,1.19877,-0.866788,-1.51594,-1.42417,2.56928,0.999366,-1.31588,1.13272,-0.816152,-1.5641,-1.34972,2.50869,1.05334,-1.34335,0.836723,-0.51911,0.678372,-1.2387,1.08858,-1.18329,0.718664,0.836723,-0.51911,0.678372,-1.2387,1.08858,-1.18329,0.718664,0.242639,-0.552408,0.856076,0.789004,0.200488,-0.0207446,0.580385,0.822945,0.270099,-0.424531,0.915864,0.169861,-0.481901,0.589939,-0.147482,0.650793,1.502,0.814234,-2.60866,1.502,0.825614,-2.80866,0.66053,-0.506361,0.481599,-0.744505,0.605868,-0.539749,0.274716,1
1.2027,-0.876104,-1.50968,-1.43654,2.5799,0.990175,-1.31478,1.2027,-0.876104,-1.50968,-1.43654,2.5799,0.990175,-1.31478,1.14072,-0.82161,-1.55749,-1.36205,2.52002,1.04143,-1.33652,0.781079,-0.558431,0.64297,-1.23767,1.14258,-1.19372,0.66725,0.781079,-0.558431,0.64297,-1.23767,1.14258,-1.19372,0.66725,0.251495,-0.550917,0.851078,0.777296,0.210635,-0.0233452,0.592368,0.779343,0.248761,-0.451827,0.874332,0.146704,-0.513901,0.604605,-0.139598,0.622979,1.46659,0.788428,-2.78144,1.46659,0.817652,-2.98144,0.619857,-0.54494,0.478185,-0.744969,0.598788,-0.512527,0.217427,1
1.20733,-0.885065,-1.50378,-1.44894,2.59078,0.981299,-1.31273,1.20733,-0.885065,-1.50378,-1.44894,2.59078,0.981299,-1.31273,1.14855,-0.827506,-1.55076,-1.37447,2.53156,1.02987,-1.3302,0.792992,-0.595451,0.698542,-1.23897,1.1554,-1.15105,0.618353,0.792992,-0.595451,0.698542,-1.23897,1.1554,-1.15105,0.618353,0.260149,-0.549322,0.845917,0.765392,0.220684,-0.0261136,0.603981,0.77463,0.278177,-0.446111,0.869328,0.181821,-0.509412,0.619565,-0.130946,0.59491,1.49603,0.865202,-2.80685,1.49603,0.814343,-3.00685,0.587815,-0.575593,0.469826,-0.744784,0.592199,-0.485671,0.174704,1
1.21106,-0.893834,-1.4979,-1.46134,2.60157,0.974123,-1.31108,1.21106,-0.893834,-1.4979,-1.46134,2.60157,0.974123,-1.31108,1.15646,-0.833383,-1.54382,-1.38707,2.54296,1.01871,-1.32453,0.780756,-0.583634,0.683609,-1.26606,1.13435,-1.09275,0.547273,0.780756,-0.583634,0.683609,-1.26606,1.13435,-1.09275,0.547273,0.26888,-0.547243,0.8408,0.753344,0.23045,-0.0286361,0.615261,0.768579,0.310076,-0.449927,0.866703,0.221793,-0.514217,0.634354,-0.122675,0.566053,1.4788,0.827082,-2.88577,1.4788,0.812938,-3.08577,0.546055,-0.604506,0.459126,-0.742705,0.586125,-0.445823,0.134542,1
1.21232,-0.901571,-1.49282,-1.47346,2.6122,0.964246,-1.30902,1.21232,-0.901571,-1.49282,-1.47346,2.6122,0.964246,-1.30902,1.16375,-0.839131,-1.53704,-1.39935,2.5542,1.00818,-1.31971,0.71997,-0.575413,0.686054,-1.23297,1.12098,-1.0399,0.460817,0.71997,-0.575413,0.686054,-1.23297,1.12098,-1.0399,0.460817,0.27709,-0.545052,0.835821,0.741687,0.239773,-0.0310584,0.625655,0.719819,0.316404,-0.43191,0.815588,0.234952,-0.495842,0.648991,-0.114985,0.536696,1.46379,0.769044,-2.9357,1.46379,0.814054,-3.1357,0.485673,-0.624402,0.442236,-0.741063,0.579974,-0.439352,0.10692,1
1.21994,-0.910395,-1.48518,-1.48595,2.62354,0.955245,-1.31048,1.21994,-0.910395,-1.48518,-1.48595,2.62354,0.955245,-1.31048,1.1714,-0.845281,-1.52968,-1.41203,2.56526,0.998317,-1.31585,0.778539,-0.635503,0.750195,-1.26782,1.10062,-0.971789,0.364509,0.778539,-0.635503,0.750195,-1.26782,1.10062,-0.971789,0.364509,0.285458,-0.542312,0.830827,0.729815,0.248746,-0.0333581,0.635911,0.740855,0.362913,-0.436743,0.837518,0.288954,-0.500659,0.664275,-0.106401,0.506687,1.5284,0.858346,-3.0009,1.5284,0.819957,-3.2009,0.48537,-0.651145,0.444992,-0.739176,0.582789,-0.430724,0.0536754,1
1.21726,-0.919945,-1.4812,-1.49834,2.63301,0.947355,-1.30821,1.21726,-0.919945,-1.4812,-1.49834,2.63301,0.947355,-1.30821,1.17886,-0.852076,-1.52266,-1.42467,2.57607,0.988919,-1.31294,0.725279,-0.683585,0.671876,-1.25743,1.07149,-0.92457,0.266248,0.725279,-0.683585,0.671876,-1.25743,1.07149,-0.92457,0.266248,0.293501,-0.5397,0.825529,0.718159,0.25765,-0.0356641,0.645439,0.68997,0.329868,-0.471438,0.786472,0.257565,-0.537634,0.678714,-0.0983155,0.474819,1.44384,0.808564,-3.18678,1.44384,0.82091,-3.38678,0.38394,-0.678693,0.41456,-0.736761,0.569422,-0.415635,0.0472908,1
1.22082,-0.928386,-1.47128,-1.51044,2.64336,0.937761,-1.31106,1.22082,-0.928386,-1.47128,-1.51044,2.64336,0.937761,-1.31106,1.18596,-0.85867,-1.51583,-1.43705,2.58629,0.980358,-1.31084,0.719097,-0.652298,0.711343,-1.24771,1.01137,-0.838793,0.19891,0.719097,-0.652298,0.711343,-1.24771,1.01137,-0.838793,0.19891,0.301164,-0.536843,0.820434,0.706997,0.265967,-0.0376598,0.654216,0.677734,0.378759,-0.434201,0.772428,0.318837,-0.496606,0.693467,-0.090127,0.442214,1.47533,0.818857,-3.26046,1.47533,0.821241,-3.46046,0.348572,-0.697153,0.44552,-0.733893,0.570723,-0.42597,-0.00220596,1
1.22631,-0.936165,-1.46176,-1.52304,2.6538,0.929664,-1.31416,1.22631,-0.936165,-1.46176,-1.52304,2.6538,0.929664,-1.31416,1.19342,-0.86548,-1.50846,-1.44968,2.59641,0.971989,-1.30926,0.744227,-0.700031,0.728361,-1.25887,1.0199,-0.842448,0.139853,0.744227,-0.700031,0.728361,-1.25887,1.0199,-0.842448,0.139853,0.309011,-0.533442,0.815418,0.695537,0.274076,-0.0394507,0.662989,0.679371,0.395648,-0.445493,0.776944,0.338841,-0.510142,0.708749,-0.0823124,0.408485,1.52822,0.781455,-3.37289,1.52822,0.813092,-3.57289,0.328837,-0.706844,0.467042,-0.733659,0.573927,-0.423251,-0.0489792,1
1.22166,-0.944226,-1.45423,-1.53485,2.66316,0.92057,-1.31178,1.22166,-0.944226,-1.45423,-1.53485,2.66316,0.92057,-1.31178,1.20028,-0.872787,-1.50186,-1.46208,2.60683,0.963613,-1.30843,0.66493,-0.731165,0.63497,-1.23546,1.04414,-0.829385,0.0703578,0.66493,-0.731165,0.63497,-1.23546,1.04414,-0.829385,0.0703578,0.316311,-0.530552,0.810011,0.684417,0.282447,-0.0414243,0.670881,0.61733,0.344124,-0.47864,0.713865,0.284924,-0.547084,0.723948,-0.0735514,0.373996,1.51986,0.876098,-3.44895,1.51986,0.81782,-3.64895,0.213761,-0.71439,0.476258,-0.727713,0.563267,-0.430436,-0.033447,1
1.21539,-0.953749,-1.4468,-1.54711,2.67271,0.911733,-1.31297,1.21539,-0.953749,-1.4468,-1.54711,2.67271,0.911733,-1.31297,1.20687,-0.880067,-1.49523,-1.47445,2.61707,0.955466,-1.30806,0.663971,-0.728253,0.688238,-1.24327,1.01961,-0.812764,0.0195698,0.663971,-0.728253,0.688238,-1.24327,1.01961,-0.812764,0.0195698,0.323395,-0.527454,0.804688,0.673436,0.290596,-0.0431972,0.678359,0.613045,0.38534,-0.455431,0.710806,0.334485,-0.522801,0.753141,-0.0574305,0.302135,1.48334,0.789987,-3.61939,1.48334,0.819493,-3.81939,0.0852151,-0.736824,0.484292,-0.726571,0.556431,-0.437329,-0.0490302,1
1.218,-0.962531,-1.43646,-1.5599,2.68312,0.902429,-1.31614,1.218,-0.962531,-1.43646,-1.5599,2.68312,0.902429,-1.31614,1.21342,-0.88769,-1.4882,-1.48717,2.62735,0.947101,-1.30833,0.644689,-0.778418,0.697226,-1.27708,1.0372,-0.847805,-0.0371742,0.644689,-0.778418,0.697226,-1.27708,1.0372,-0.847805,-0.0371742,0.330503,-0.524042,0.799292,0.66225,0.298808,-0.0447727,0.685664,0.600955,0.390935,-0.477713,0.703124,0.341685,-0.549062,0.767999,-0.0494317,0.264828,1.48579,0.799877,-3.73061,1.48579,0.817952,-3.93061,0.0457219,-0.748404,0.51744,-0.727332,0.557653,-0.44672,-0.0781385,1
1.21369,-0.970276,-1.42719,-1.57294,2.6944,0.89395,-1.32317,1.21369,-0.970276,-1.42719,-1.57294,2.6944,0.89395,-1.32317,1.21919,-0.895478,-1.48134,-1.49981,2.6379,0.938451,-1.30867,0.55282,-0.778537,0.687004,-1.268,1.06022,-0.872324,-0.0241836,0.55282,-0.778537,0.687004,-1.268,1.06022,-0.872324,-0.0241836,0.337137,-0.520834,0.793788,0.651132,0.307144,-0.046418,0.692484,0.548426,0.373619,-0.476344,0.650615,0.325791,-0.55007,0.767999,-0.0494317,0.264828,1.48579,0.799877,-3.73061,1.48579,0.817952,-3.93061,-0.0550658,-0.747977,0.54151,-0.731303,0.564992,-0.445009,-0.144975,1
1.20679,-0.979952,-1.42075,-1.58552,2.70484,0.885538,-1.32486,1.20679,-0.979952,-1.42075,-1.58552,2.70484,0.885538,-1.32486,1.22431,-0.903534,-1.47398,-1.51272,2.64852,0.929495,-1.30893,0.500222,-0.813435,0.759111,-1.29656,1.0593,-0.899467,-0.0304273,0.500222,-0.813435,0.759111,-1.29656,1.0593,-0.899467,-0.0304273,0.343468,-0.517474,0.788309,0.639766,0.315462,-0.048044,0.699196,0.521357,0.393501,-0.466697,0.625044,0.350648,-0.541466,0.797673,-0.0336106,0.186406,1.51653,0.804899,-3.93333,1.51653,0.806385,-4.13333,-0.17528,-0.764179,0.532293,-0.727938,0.563153,-0.439571,-0.159317,1
1.20554,-0.989119,-1.41226,-1.5987,2.71536,0.876787,-1.32924,1.20554,-0.989119,-1.41226,-1.5987,2.71536,0.876787,-1.32924,1.22895,-0.912094,-1.46603,-1.52594,2.65896,0.9204,-1.30956,0.447433,-0.859273,0.79897,-1.3284,1.039,-0.9196,-0.0796693,0.447433,-0.859273,0.79897,-1.3284,1.039,-0.9196,-0.0796693,0.349526,-0.513925,0.782831,0.628277,0.323666,-0.0495712,0.705728,0.492041,0.402547,-0.470894,0.597512,0.364395,-0.547017,0.81255,-0.0256675,0.146492,1.48771,0.794308,-3.99132,1.48771,0.795936,-4.19132,-0.234133,-0.770251,0.537697,-0.727625,0.563995,-0.436131,-0.196777,1
1.20683,-0.997959,-1.40322,-1.61159,2.72622,0.868386,-1.33289,1.20683,-0.997959,-1.40322,-1.61159,2.72622,0.868386,-1.33289,1.23252,-0.920585,-1.45809,-1.53912,2.66923,0.911062,-1.31097,0.325137,-0.853653,0.793961,-1.3267,1.02696,-0.93627,-0.16557,0.325137,-0.853653,0.793961,-1.3267,1.02696,-0.93627,-0.16557,0.355018,-0.510472,0.777437,0.617305,0.331785,-0.0508279,0.711527,0.427733,0.381916,-0.464081,0.531872,0.346802,-0.540962,0.827522,-0.0180106,0.105968,1.49715,0.765692,-4.05242,1.49715,0.790379,-4.25242,-0.256919,-0.773735,0.548626,-0.724652,0.569956,-0.426751,-0.219159,1
