Afshin1997/kuka_rl_ros2/src/catch_and_throw/output_files/tm/nn_ema7.00_jvws1_realball_D22H15M19S52/recorded_data.csv
pure_target_joint_0,pure_target_joint_1,pure_target_joint_2,pure_target_joint_3,pure_target_joint_4,pure_target_joint_5,pure_target_joint_6,target_joint_0,target_joint_1,target_joint_2,target_joint_3,target_joint_4,target_joint_5,target_joint_6,pos_joint_0,pos_joint_1,pos_joint_2,pos_joint_3,pos_joint_4,pos_joint_5,pos_joint_6,vel_joint_0,vel_joint_1,vel_joint_2,vel_joint_3,vel_joint_4,vel_joint_5,vel_joint_6,vel_smooth_joint_0,vel_smooth_joint_1,vel_smooth_joint_2,vel_smooth_joint_3,vel_smooth_joint_4,vel_smooth_joint_5,vel_smooth_joint_6,ee_pos_x,ee_pos_y,ee_pos_z,ee_or_w,ee_or_x,ee_or_y,ee_or_z,ee_vel_x,ee_vel_y,ee_vel_z,ball_pos_x,ball_pos_y,ball_pos_z,ball_raw_vx,ball_raw_vy,ball_raw_vz,ball_ema_vx,ball_ema_vy,ball_ema_vz,action_0,action_1,action_2,action_3,action_4,action_5,action_6,command_published
2.72043,-1.66458,1.78089,0.95608,1.49793,-1.35815,-2.81543,2.65121,-1.60957,1.77372,1.00259,1.42941,-1.41973,-2.85318,2.65011,-1.6087,1.77361,1.00332,1.42832,-1.42071,-2.85378,0,0,0,0,0,0,0,0,0,0,0,0,0,0,0.700013,9.197e-05,0.554337,-0.382527,6.83308e-05,0.000136432,0.923944,0,0,0,0.702566,-0.0054792,0.532713,9.56691e-05,-0.00170775,-0.000454428,0.000572205,-0.000286082,-0.000812752,0.703151,-0.558749,0.0728468,-0.47243,0.696102,0.625602,0.383517,1
2.71698,-1.66253,1.79449,0.971909,1.49674,-1.36,-2.81498,2.65775,-1.61478,1.77462,0.998404,1.43592,-1.41389,-2.84958,2.65011,-1.6087,1.77361,1.00332,1.42832,-1.42071,-2.85378,0,0,0,0,0,0,0,0,0,0,0,0,0,0,0.700013,9.197e-05,0.554337,-0.382527,6.83308e-05,0.000136432,0.923944,0,0,0,0.702537,-0.00546972,0.532769,-0.000261742,8.44738e-05,0.000501716,0.000274181,-0.000112949,-0.000260557,0.668682,-0.538269,0.208756,-0.314143,0.684134,0.607093,0.38805,1
2.71388,-1.66498,1.7641,0.975724,1.49503,-1.35523,-2.81838,2.67386,-1.62772,1.77713,0.988875,1.45209,-1.39933,-2.8406,2.65011,-1.6087,1.77361,1.00332,1.42832,-1.42071,-2.85378,0,0,0,0,0,0,0,0,0,0,0,0,0,0,0.700013,9.197e-05,0.554337,-0.382527,6.83308e-05,0.000136432,0.923944,0,0,0,0.702524,-0.00545112,0.532765,-0.0039082,0.00379553,-0.00108421,-0.000596046,0.000270935,0.000638621,0.637689,-0.562808,-0.0951253,-0.275991,0.667095,0.654721,0.354058,1
2.71266,-1.66424,1.76996,0.974366,1.49525,-1.3557,-2.81839,2.69471,-1.64492,1.77983,0.978157,1.47341,-1.37977,-2.82883,2.65011,-1.6087,1.77361,1.00332,1.42832,-1.42071,-2.85378,0,0,0,0,0,0,0,0,0,0,0,0,0,0,0.700013,9.197e-05,0.554337,-0.382527,6.83308e-05,0.000136432,0.923944,0,0,0,0.702563,-0.00548189,0.532732,0.00390057,-0.0030834,-0.00331519,-0.000189883,-4.33065e-05,0.000229904,0.625485,-0.555355,-0.0364921,-0.289569,0.669232,0.650079,0.353864,1
2.71266,-1.66344,1.7669,0.975191,1.49389,-1.3546,-2.81566,2.70928,-1.65787,1.77916,0.972811,1.48895,-1.3646,-2.82045,2.65011,-1.6087,1.77361,1.00332,1.42832,-1.42071,-2.85378,0,0,0,0,0,0,0,0,0,0,0,0,0,0,0.700013,9.197e-05,0.554337,-0.382527,6.83308e-05,0.000136432,0.923944,0,0,0,0.702563,-0.00548189,0.532732,0.00390057,-0.0030834,-0.00331519,-0.000189883,-4.33065e-05,0.000229904,0.625486,-0.547414,-0.0671368,-0.281326,0.655631,0.661093,0.38118,1
2.71263,-1.66345,1.76866,0.974568,1.49428,-1.35487,-2.81615,2.71381,-1.66315,1.77465,0.973033,1.49459,-1.35769,-2.81757,2.65011,-1.6087,1.77361,1.00332,1.42832,-1.42071,-2.85378,0,0,0,0,0,0,0,0,0,0,0,0,0,0,0.700013,9.197e-05,0.554337,-0.382527,6.83308e-05,0.000136432,0.923944,0,0,0,0.702531,-0.00545424,0.532755,-0.00265573,0.00225249,0.00191776,-0.000440223,0.000132354,0.000524521,0.625188,-0.547471,-0.0494884,-0.287559,0.659583,0.658323,0.376361,1
2.71278,-1.66347,1.76811,0.974909,1.49403,-1.35471,-2.81594,2.71347,-1.66398,1.77019,0.974389,1.49495,-1.35568,-2.81713,2.65011,-1.6087,1.77361,1.00332,1.42832,-1.42071,-2.85378,0,0,0,0,0,0,0,0,0,0,0,0,0,0,0.700013,9.197e-05,0.554337,-0.382527,6.83308e-05,0.000136432,0.923944,0,0,0,0.702527,-0.00545267,0.532768,-0.00356148,0.00285949,0.00486949,8.9407e-05,5.33781e-05,-0.000331232,0.626662,-0.547721,-0.0549811,-0.284142,0.657078,0.65994,0.378452,1
2.71273,-1.66351,1.76825,0.97482,1.49414,-1.35479,-2.81609,2.71285,-1.66376,1.76833,0.974818,1.49447,-1.35508,-2.81669,2.65011,-1.6087,1.77361,1.00332,1.42832,-1.42071,-2.85378,0,0,0,0,0,0,0,0,0,0,0,0,0,0,0.700013,9.197e-05,0.554337,-0.382527,6.83308e-05,0.000136432,0.923944,0,0,0,0.702527,-0.00545267,0.532768,-0.00356148,0.00285949,0.00486949,8.9407e-05,5.33781e-05,-0.000331232,0.626153,-0.548069,-0.053635,-0.285029,0.658162,0.659162,0.376928,1
2.71275,-1.6635,1.76823,0.974863,1.4941,-1.35476,-2.81604,2.71271,-1.66356,1.76812,0.974821,1.49422,-1.35485,-2.81622,2.65011,-1.6087,1.77361,1.00332,1.42832,-1.42071,-2.85378,0,0,0,0,0,0,0,0,0,0,0,0,0,0,0.700013,9.197e-05,0.554337,-0.382527,6.83308e-05,0.000136432,0.923944,0,0,0,0.70256,-0.00547789,0.532725,0.00241541,-0.00186181,-0.00317655,0.000283548,-0.000182992,-0.000444055,0.626373,-0.548006,-0.0537558,-0.284606,0.657762,0.659459,0.377383,1
2.71274,-1.6635,1.76823,0.974849,1.49411,-1.35477,-2.81605,2.71272,-1.66349,1.7682,0.974821,1.49413,-1.35478,-2.81605,2.65011,-1.6087,1.77361,1.00332,1.42832,-1.42071,-2.85378,0,0,0,0,0,0,0,0,0,0,0,0,0,0,0.700013,9.197e-05,0.554337,-0.382527,6.83308e-05,0.000136432,0.923944,0,0,0,0.702529,-0.00545334,0.532747,-0.00295308,0.00231244,0.00202673,1.19209e-05,1.03776e-05,-0.00019627,0.626246,-0.548,-0.0537787,-0.284749,0.657897,0.659351,0.377291,1
2.71274,-1.6635,1.76825,0.974848,1.49411,-1.35477,-2.81605,2.71274,-1.66349,1.76823,0.974836,1.49411,-1.35477,-2.81604,2.65011,-1.6087,1.77361,1.00332,1.42832,-1.42071,-2.85378,0,0,0,0,0,0,0,0,0,0,0,0,0,0,0.700013,9.197e-05,0.554337,-0.382527,6.83308e-05,0.000136432,0.923944,0,0,0,0.702555,-0.00546648,0.532728,0.0026363,-0.00131731,-0.00187111,-9.28129e-05,0.000167093,-0.000109843,0.626275,-0.547998,-0.0536253,-0.284757,0.657881,0.659358,0.377317,1
2.71274,-1.6635,1.76824,0.974851,1.49411,-1.35477,-2.81605,2.71274,-1.6635,1.76823,0.974848,1.49411,-1.35477,-2.81605,2.65011,-1.6087,1.77361,1.00332,1.42832,-1.42071,-2.85378,0,0,0,0,0,0,0,0,0,0,0,0,0,0,0.700013,9.197e-05,0.554337,-0.382527,6.83308e-05,0.000136432,0.923944,0,0,0,0.702526,-0.0054561,0.532761,-0.0028991,0.00105565,0.00337218,-5.70502e-05,5.02582e-05,-9.79219e-06,0.626271,-0.547995,-0.0537009,-0.284729,0.65788,0.659363,0.377314,1
2.71274,-1.6635,1.76824,0.974851,1.49411,-1.35477,-2.81605,2.71274,-1.6635,1.76824,0.97485,1.49411,-1.35477,-2.81605,2.65011,-1.6087,1.77361,1.00332,1.42832,-1.42071,-2.85378,0,0,0,0,0,0,0,0,0,0,0,0,0,0,0.700013,9.197e-05,0.554337,-0.382527,6.83308e-05,0.000136432,0.923944,0,0,0,0.702536,-0.00546836,0.53277,0.000827124,-0.00109706,0.000773761,-0.000254597,0.000105073,0.000415104,0.626261,-0.547997,-0.0537123,-0.284723,0.657874,0.659367,0.37731,1
2.71274,-1.6635,1.76824,0.974851,1.49411,-1.35477,-2.81605,2.71274,-1.6635,1.76824,0.97485,1.49411,-1.35477,-2.81605,2.65011,-1.6087,1.77361,1.00332,1.42832,-1.42071,-2.85378,0,0,0,0,0,0,0,0,0,0,0,0,0,0,0.700013,9.197e-05,0.554337,-0.382527,6.83308e-05,0.000136432,0.923944,0,0,0,0.702533,-0.00545785,0.532758,-0.000327072,0.00115313,-0.00125596,-0.000123467,2.76736e-06,0.000264815,0.626271,-0.547997,-0.0537086,-0.284721,0.657871,0.659373,0.377308,1
2.71274,-1.6635,1.76824,0.974851,1.49411,-1.35477,-2.81605,2.71274,-1.6635,1.76824,0.97485,1.49411,-1.35477,-2.81605,2.65011,-1.6087,1.77361,1.00332,1.42832,-1.42071,-2.85378,0,0,0,0,0,0,0,0,0,0,0,0,0,0,0.700013,9.197e-05,0.554337,-0.382527,6.83308e-05,0.000136432,0.923944,0,0,0,0.70257,-0.00547822,0.532719,0.00402466,-0.00222186,-0.00429774,6.47136e-05,-4.23818e-05,0.000166042,0.626282,-0.547997,-0.0536705,-0.284724,0.657874,0.659371,0.377298,1
2.71274,-1.6635,1.76824,0.974853,1.49411,-1.35477,-2.81605,2.71274,-1.6635,1.76824,0.974851,1.49411,-1.35477,-2.81605,2.65011,-1.6087,1.77361,1.00332,1.42832,-1.42071,-2.85378,0,0,0,0,0,0,0,0,0,0,0,0,0,0,0.700013,9.197e-05,0.554337,-0.382527,6.83308e-05,0.000136432,0.923944,0,0,0,0.702529,-0.00545771,0.532766,-0.00408129,0.00207126,0.00472538,0.000132833,-0.000136878,0.000129853,0.626285,-0.547996,-0.0536847,-0.284706,0.657873,0.659378,0.377291,1
2.71274,-1.6635,1.76824,0.974851,1.49411,-1.35477,-2.81605,2.71274,-1.6635,1.76824,0.974851,1.49411,-1.35477,-2.81605,2.65011,-1.6087,1.77361,1.00332,1.42832,-1.42071,-2.85378,0,0,0,0,0,0,0,0,0,0,0,0,0,0,0.700013,9.197e-05,0.554337,-0.382527,6.83308e-05,0.000136432,0.923944,0,0,0,0.70254,-0.00545848,0.532758,0.00104533,-7.12963e-05,-0.000746667,-1.44754e-05,3.90158e-05,0.000169447,0.626269,-0.547996,-0.0536768,-0.284726,0.65788,0.659364,0.377302,1
2.71274,-1.6635,1.76824,0.97485,1.49411,-1.35477,-2.81605,2.71274,-1.6635,1.76824,0.974851,1.49411,-1.35477,-2.81605,2.65011,-1.6087,1.77361,1.00332,1.42832,-1.42071,-2.85378,0,0,0,0,0,0,0,0,0,0,0,0,0,0,0.700013,9.197e-05,0.554337,-0.382527,6.83308e-05,0.000136432,0.923944,0,0,0,0.702531,-0.0054625,0.53276,-0.00102603,-0.000417211,0.000210151,6.64166e-05,2.52122e-06,-7.53573e-05,0.626276,-0.547996,-0.0536606,-0.284732,0.657885,0.659363,0.377298,1
2.71274,-1.6635,1.76824,0.97485,1.49411,-1.35477,-2.81605,2.71274,-1.6635,1.76824,0.974851,1.49411,-1.35477,-2.81605,2.65011,-1.6087,1.77361,1.00332,1.42832,-1.42071,-2.85378,0,0,0,0,0,0,0,0,0,0,0,0,0,0,0.700013,9.197e-05,0.554337,-0.382527,6.83308e-05,0.000136432,0.923944,0,0,0,0.702537,-0.00546632,0.532753,0.000561325,-0.000352806,-0.00062186,-0.00010814,5.90791e-05,-3.23568e-05,0.626269,-0.547999,-0.0536988,-0.284731,0.657882,0.659361,0.377305,1
2.71274,-1.6635,1.76824,0.97485,1.49411,-1.35477,-2.81605,2.71274,-1.6635,1.76824,0.974851,1.49411,-1.35477,-2.81605,2.65011,-1.6087,1.77361,1.00332,1.42832,-1.42071,-2.85378,0,0,0,0,0,0,0,0,0,0,0,0,0,0,0.700013,9.197e-05,0.554337,-0.382527,6.83308e-05,0.000136432,0.923944,0,0,0,0.702537,-0.00545406,0.532763,2.52041e-05,0.00129589,0.00110898,-0.000183923,0.000108419,0.00027631,0.626262,-0.547995,-0.0536899,-0.284735,0.657879,0.659362,0.377314,1
2.71274,-1.6635,1.76824,0.97485,1.49411,-1.35477,-2.81605,2.71274,-1.6635,1.76824,0.974851,1.49411,-1.35477,-2.81605,2.65011,-1.6087,1.77361,1.00332,1.42832,-1.42071,-2.85378,0,0,0,0,0,0,0,0,0,0,0,0,0,0,0.700013,9.197e-05,0.554337,-0.382527,6.83308e-05,0.000136432,0.923944,0,0,0,0.702526,-0.00545834,0.532762,-0.00108009,-0.000419219,-0.000122605,-0.000428302,0.000210978,0.000430856,0.626251,-0.547996,-0.0537322,-0.284735,0.657873,0.659363,0.377329,1
2.71274,-1.6635,1.76825,0.974851,1.49411,-1.35477,-2.81605,2.71274,-1.6635,1.76824,0.97485,1.49411,-1.35477,-2.81605,2.65011,-1.6087,1.77361,1.00332,1.42832,-1.42071,-2.85378,0,0,0,0,0,0,0,0,0,0,0,0,0,0,0.700013,9.197e-05,0.554337,-0.382527,6.83308e-05,0.000136432,0.923944,0,0,0,0.702575,-0.00548527,0.532716,0.00495827,-0.00269218,-0.00457686,0.000413827,-0.000264203,-0.000482372,0.626308,-0.548001,-0.0536363,-0.284725,0.657884,0.659374,0.377269,1
2.71274,-1.6635,1.76824,0.974852,1.49411,-1.35477,-2.81605,2.71274,-1.6635,1.76824,0.97485,1.49411,-1.35477,-2.81605,2.65011,-1.6087,1.77361,1.00332,1.42832,-1.42071,-2.85378,0,0,0,0,0,0,0,0,0,0,0,0,0,0,0.700013,9.197e-05,0.554337,-0.382527,6.83308e-05,0.000136432,0.923944,0,0,0,0.702543,-0.00546257,0.532749,-0.00320853,0.00226249,0.00326794,0.000312499,-0.000178022,-0.000368272,0.626294,-0.548,-0.0536783,-0.28471,0.657882,0.659369,0.377281,1
2.71274,-1.6635,1.76825,0.974851,1.49411,-1.35477,-2.81606,2.71274,-1.6635,1.76824,0.97485,1.49411,-1.35477,-2.81605,2.65011,-1.6087,1.77361,1.00332,1.42832,-1.42071,-2.85378,0,0,0,0,0,0,0,0,0,0,0,0,0,0,0.700013,9.197e-05,0.554337,-0.382527,6.83308e-05,0.000136432,0.923944,0,0,0,0.702578,-0.00548353,0.532709,0.00370657,-0.00226226,-0.0043372,0.000688859,-0.000309957,-0.00073782,0.626314,-0.548003,-0.0535967,-0.284723,0.657897,0.659365,0.377251,1
2.71274,-1.6635,1.76824,0.974852,1.49411,-1.35477,-2.81605,2.71274,-1.6635,1.76824,0.974851,1.49411,-1.35477,-2.81605,2.65011,-1.6087,1.77361,1.00332,1.42832,-1.42071,-2.85378,0,0,0,0,0,0,0,0,0,0,0,0,0,0,0.700013,9.197e-05,0.554337,-0.382527,6.83308e-05,0.000136432,0.923944,0,0,0,0.702534,-0.00545552,0.532756,-0.00416085,0.00265658,0.00442656,0.000320162,-0.00010983,-0.000405737,0.626287,-0.548,-0.0536541,-0.284718,0.657892,0.65936,0.377281,1
2.71274,-1.6635,1.76824,0.974851,1.49411,-1.35477,-2.81605,2.71274,-1.6635,1.76824,0.974851,1.49411,-1.35477,-2.81605,2.65011,-1.6087,1.77361,1.00332,1.42832,-1.42071,-2.85378,0,0,0,0,0,0,0,0,0,0,0,0,0,0,0.700013,9.197e-05,0.554337,-0.382527,6.83308e-05,0.000136432,0.923944,0,0,0,0.702542,-0.00546199,0.532759,0.000833429,-0.000685596,0.000353576,0.000114952,-5.85469e-05,-0.000120061,0.626279,-0.548,-0.0536672,-0.284724,0.657889,0.659363,0.377285,1
2.71274,-1.6635,1.76824,0.974848,1.49411,-1.35477,-2.81605,2.71274,-1.6635,1.76825,0.974851,1.49411,-1.35477,-2.81605,2.65011,-1.6087,1.77361,1.00332,1.42832,-1.42071,-2.85378,0,0,0,0,0,0,0,0,0,0,0,0,0,0,0.700013,9.197e-05,0.554337,-0.382527,6.83308e-05,0.000136432,0.923944,0,0,0,0.702538,-0.0054527,0.532753,-0.000373857,0.000869426,-0.000524516,-0.000150715,0.000251896,0.000232884,0.626252,-0.547993,-0.0536514,-0.284753,0.65789,0.659346,0.377322,1
2.71274,-1.6635,1.76824,0.97485,1.49411,-1.35477,-2.81605,2.71274,-1.6635,1.76825,0.974851,1.49411,-1.35477,-2.81605,2.65011,-1.6087,1.77361,1.00332,1.42832,-1.42071,-2.85378,0,0,0,0,0,0,0,0,0,0,0,0,0,0,0.700013,9.197e-05,0.554337,-0.382527,6.83308e-05,0.000136432,0.923944,0,0,0,0.702567,-0.00548969,0.532716,0.00307106,-0.0039298,-0.00398288,-0.000263963,9.99908e-05,0.000204359,0.626269,-0.548001,-0.0537104,-0.284733,0.657877,0.659364,0.377311,1
2.71274,-1.6635,1.76824,0.974853,1.49411,-1.35477,-2.81605,2.71274,-1.6635,1.76824,0.97485,1.49411,-1.35477,-2.81605,2.65011,-1.6087,1.77361,1.00332,1.42832,-1.42071,-2.85378,0,0,0,0,0,0,0,0,0,0,0,0,0,0,0.700013,9.197e-05,0.554337,-0.382527,6.83308e-05,0.000136432,0.923944,0,0,0,0.702569,-0.00548891,0.532709,0.000274349,7.35738e-05,-0.000660677,0.000214577,-0.000316204,-0.000391262,0.626307,-0.548008,-0.053714,-0.284705,0.657875,0.659383,0.377265,1
2.71274,-1.6635,1.76824,0.97485,1.49411,-1.35477,-2.81605,2.71274,-1.6635,1.76824,0.97485,1.49411,-1.35477,-2.81605,2.65011,-1.6087,1.77361,1.00332,1.42832,-1.42071,-2.85378,0,0,0,0,0,0,0,0,0,0,0,0,0,0,0.700013,9.197e-05,0.554337,-0.382527,6.83308e-05,0.000136432,0.923944,0,0,0,0.702538,-0.00544758,0.532754,-0.00306829,0.00409172,0.00447853,-7.40801e-05,4.76904e-05,-5.10897e-06,0.626267,-0.547999,-0.0537089,-0.28473,0.657878,0.659362,0.377307,1
2.71274,-1.6635,1.76825,0.974848,1.49411,-1.35477,-2.81605,2.71274,-1.6635,1.76824,0.97485,1.49411,-1.35477,-2.81605,2.65011,-1.6087,1.77361,1.00332,1.42832,-1.42071,-2.85378,0,0,0,0,0,0,0,0,0,0,0,0,0,0,0.700013,9.197e-05,0.554337,-0.382527,6.83308e-05,0.000136432,0.923944,0,0,0,0.702544,-0.00544885,0.532753,0.000494627,-0.000118577,-0.00011671,0.00019925,4.50694e-05,-0.000223092,0.626277,-0.547993,-0.0536086,-0.284752,0.657894,0.659354,0.377302,1
2.71274,-1.6635,1.76825,0.974847,1.49411,-1.35477,-2.81605,2.71274,-1.6635,1.76824,0.974851,1.49411,-1.35477,-2.81605,2.65011,-1.6087,1.77361,1.00332,1.42832,-1.42071,-2.85378,0,0,0,0,0,0,0,0,0,0,0,0,0,0,0.700013,9.197e-05,0.554337,-0.382527,6.83308e-05,0.000136432,0.923944,0,0,0,0.702539,-0.00544806,0.532749,-0.000548569,9.43966e-05,-0.000413208,-8.34465e-05,0.000327167,2.93766e-05,0.626254,-0.547991,-0.0536164,-0.284766,0.657899,0.659334,0.377328,1
2.71274,-1.6635,1.76825,0.974846,1.49411,-1.35477,-2.81605,2.71274,-1.6635,1.76824,0.97485,1.49411,-1.35477,-2.81605,2.65011,-1.6087,1.77361,1.00332,1.42832,-1.42071,-2.85378,0,0,0,0,0,0,0,0,0,0,0,0,0,0,0.700013,9.197e-05,0.554337,-0.382527,6.83308e-05,0.000136432,0.923944,0,0,0,0.70254,-0.00545651,0.532751,4.74863e-05,-0.000841397,0.000118716,-0.000265666,0.00039967,0.000365717,0.626246,-0.547991,-0.0536184,-0.28477,0.657899,0.659334,0.377333,1
2.71274,-1.6635,1.76825,0.974846,1.49411,-1.35477,-2.81605,2.71274,-1.6635,1.76825,0.974849,1.49411,-1.35477,-2.81605,2.65011,-1.6087,1.77361,1.00332,1.42832,-1.42071,-2.85378,0,0,0,0,0,0,0,0,0,0,0,0,0,0,0.700013,9.197e-05,0.554337,-0.382527,6.83308e-05,0.000136432,0.923944,0,0,0,0.702536,-0.00545695,0.532758,-0.000383748,-4.19724e-05,0.000693038,-0.000541551,0.000580593,0.000731008,0.626228,-0.547988,-0.0536465,-0.284778,0.657894,0.65933,0.377354,1
2.71274,-1.6635,1.76824,0.97485,1.49411,-1.35477,-2.81605,2.71274,-1.6635,1.76825,0.974847,1.49411,-1.35477,-2.81605,2.65011,-1.6087,1.77361,1.00332,1.42832,-1.42071,-2.85378,0,0,0,0,0,0,0,0,0,0,0,0,0,0,0.700013,9.197e-05,0.554337,-0.382527,6.83308e-05,0.000136432,0.923944,0,0,0,0.702537,-0.0054633,0.532759,0.000153039,-0.000652998,0.000165282,-0.000379767,0.000180098,0.000560284,0.626259,-0.547994,-0.053698,-0.284735,0.657878,0.659362,0.377323,1
2.71274,-1.6635,1.76824,0.974853,1.49411,-1.35477,-2.81606,2.71274,-1.6635,1.76825,0.974847,1.49411,-1.35477,-2.81605,2.65011,-1.6087,1.77361,1.00332,1.42832,-1.42071,-2.85378,0,0,0,0,0,0,0,0,0,0,0,0,0,0,0.700013,9.197e-05,0.554337,-0.382527,6.83308e-05,0.000136432,0.923944,0,0,0,0.702578,-0.00547314,0.532709,0.0041292,-0.000992846,-0.00513441,0.000363588,-0.000408811,-0.000411272,0.626317,-0.548006,-0.0536919,-0.284701,0.657876,0.659385,0.377258,1
2.71274,-1.6635,1.76823,0.974855,1.49411,-1.35477,-2.81605,2.71274,-1.6635,1.76824,0.974848,1.49411,-1.35477,-2.81605,2.65011,-1.6087,1.77361,1.00332,1.42832,-1.42071,-2.85378,0,0,0,0,0,0,0,0,0,0,0,0,0,0,0.700013,9.197e-05,0.554337,-0.382527,6.83308e-05,0.000136432,0.923944,0,0,0,0.702528,-0.00546067,0.532757,-0.00495846,0.00123307,0.00483465,9.87734e-05,-0.000330021,-0.000211596,0.626296,-0.548008,-0.0537778,-0.284681,0.657863,0.659391,0.377272,1
2.71274,-1.6635,1.76824,0.974854,1.49411,-1.35477,-2.81606,2.71274,-1.6635,1.76824,0.97485,1.49411,-1.35477,-2.81605,2.65011,-1.6087,1.77361,1.00332,1.42832,-1.42071,-2.85378,0,0,0,0,0,0,0,0,0,0,0,0,0,0,0.700013,9.197e-05,0.554337,-0.382527,6.83308e-05,0.000136432,0.923944,0,0,0,0.702567,-0.00548371,0.532713,0.00403134,-0.00236126,-0.00455664,0.000368697,-0.00046952,-0.000516857,0.626315,-0.548011,-0.0537298,-0.284691,0.657868,0.659396,0.377252,1
2.71274,-1.6635,1.76824,0.974853,1.49411,-1.35477,-2.81605,2.71274,-1.6635,1.76824,0.974852,1.49411,-1.35477,-2.81605,2.65011,-1.6087,1.77361,1.00332,1.42832,-1.42071,-2.85378,0,0,0,0,0,0,0,0,0,0,0,0,0,0,0.700013,9.197e-05,0.554337,-0.382527,6.83308e-05,0.000136432,0.923944,0,0,0,0.702539,-0.00546299,0.532754,-0.00261746,0.00194829,0.00386173,0.000190735,-0.000251238,-0.00029036,0.626291,-0.548003,-0.0537322,-0.2847,0.657867,0.659385,0.377281,1
2.71274,-1.6635,1.76824,0.974852,1.49411,-1.35477,-2.81605,2.71274,-1.6635,1.76824,0.974854,1.49411,-1.35477,-2.81605,2.65011,-1.6087,1.77361,1.00332,1.42832,-1.42071,-2.85378,0,0,0,0,0,0,0,0,0,0,0,0,0,0,0.700013,9.197e-05,0.554337,-0.382527,6.83308e-05,0.000136432,0.923944,0,0,0,0.702542,-0.00546222,0.532758,0.000265195,7.30432e-05,0.000372401,4.76837e-05,-9.20546e-05,-2.17131e-05,0.626279,-0.547999,-0.0537025,-0.284717,0.657873,0.659376,0.377295,1
2.71274,-1.6635,1.76824,0.974851,1.49411,-1.35477,-2.81605,2.71274,-1.6635,1.76824,0.974854,1.49411,-1.35477,-2.81605,2.65011,-1.6087,1.77361,1.00332,1.42832,-1.42071,-2.85378,0,0,0,0,0,0,0,0,0,0,0,0,0,0,0.700013,9.197e-05,0.554337,-0.382527,6.83308e-05,0.000136432,0.923944,0,0,0,0.70253,-0.00546221,0.532761,-0.0012194,8.09757e-07,0.000347529,-0.000288657,8.1351e-05,0.00036146,0.626261,-0.547998,-0.0537377,-0.28472,0.657867,0.659373,0.377318,1
2.71274,-1.6635,1.76823,0.974851,1.49411,-1.35477,-2.81605,2.71274,-1.6635,1.76824,0.974853,1.49411,-1.35477,-2.81605,2.65011,-1.6087,1.77361,1.00332,1.42832,-1.42071,-2.85378,0,0,0,0,0,0,0,0,0,0,0,0,0,0,0.700013,9.197e-05,0.554337,-0.382527,6.83308e-05,0.000136432,0.923944,0,0,0,0.702535,-0.00546356,0.532745,0.000537042,-0.000141335,-0.00172353,-0.000527927,0.000168317,0.000578165,0.626252,-0.547999,-0.0537617,-0.284729,0.657864,0.659372,0.377329,1
2.71274,-1.6635,1.76825,0.974847,1.49411,-1.35477,-2.81605,2.71274,-1.6635,1.76824,0.974852,1.49411,-1.35477,-2.81605,2.65011,-1.6087,1.77361,1.00332,1.42832,-1.42071,-2.85378,0,0,0,0,0,0,0,0,0,0,0,0,0,0,0.700013,9.197e-05,0.554337,-0.382527,6.83308e-05,0.000136432,0.923944,0,0,0,0.702541,-0.00545508,0.532748,0.000537293,0.000840536,0.000318834,-0.000120061,0.000206634,0.000154546,0.626259,-0.547991,-0.0536432,-0.28476,0.657884,0.659353,0.377325,1
2.71274,-1.6635,1.76824,0.974849,1.49411,-1.35477,-2.81605,2.71274,-1.6635,1.76824,0.974851,1.49411,-1.35477,-2.81605,2.65011,-1.6087,1.77361,1.00332,1.42832,-1.42071,-2.85378,0,0,0,0,0,0,0,0,0,0,0,0,0,0,0.700013,9.197e-05,0.554337,-0.382527,6.83308e-05,0.000136432,0.923944,0,0,0,0.70253,-0.00546138,0.532756,-0.0010019,-0.000592081,0.00070525,-0.000412975,0.000291005,0.000368697,0.62625,-0.547993,-0.0537081,-0.284744,0.657877,0.659355,0.377338,1
2.71274,-1.6635,1.76824,0.974849,1.49411,-1.35477,-2.81605,2.71274,-1.6635,1.76824,0.97485,1.49411,-1.35477,-2.81605,2.65011,-1.6087,1.77361,1.00332,1.42832,-1.42071,-2.85378,0,0,0,0,0,0,0,0,0,0,0,0,0,0,0.700013,9.197e-05,0.554337,-0.382527,6.83308e-05,0.000136432,0.923944,0,0,0,0.702527,-0.00545563,0.532757,-0.000382317,0.000658442,0.000143369,-0.000183071,0.000110335,-3.32083e-05,0.626266,-0.547998,-0.0536866,-0.284746,0.657886,0.659357,0.377309,1
2.71274,-1.6635,1.76824,0.974851,1.49411,-1.35477,-2.81605,2.71274,-1.6635,1.76824,0.974849,1.49411,-1.35477,-2.81605,2.65011,-1.6087,1.77361,1.00332,1.42832,-1.42071,-2.85378,0,0,0,0,0,0,0,0,0,0,0,0,0,0,0.700013,9.197e-05,0.554337,-0.382527,6.83308e-05,0.000136432,0.923944,0,0,0,0.702551,-0.00547891,0.532715,0.0024877,-0.00235199,-0.00419235,5.61987e-05,-0.000123992,-0.000449164,0.626292,-0.548006,-0.053713,-0.284725,0.65788,0.659369,0.377287,1
2.71274,-1.6635,1.76824,0.974851,1.49411,-1.35477,-2.81605,2.71274,-1.6635,1.76824,0.974849,1.49411,-1.35477,-2.81605,2.65011,-1.6087,1.77361,1.00332,1.42832,-1.42071,-2.85378,0,0,0,0,0,0,0,0,0,0,0,0,0,0,0.700013,9.197e-05,0.554337,-0.382527,6.83308e-05,0.000136432,0.923944,0,0,0,0.702531,-0.00545962,0.532757,-0.00191053,0.00179698,0.00392103,7.23771e-05,-8.38323e-05,-0.000220963,0.626281,-0.548001,-0.0537029,-0.284722,0.65788,0.659368,0.377291,1
2.71274,-1.6635,1.76824,0.974852,1.49411,-1.35477,-2.81605,2.71274,-1.6635,1.76824,0.97485,1.49411,-1.35477,-2.81605,2.65011,-1.6087,1.77361,1.00332,1.42832,-1.42071,-2.85378,0,0,0,0,0,0,0,0,0,0,0,0,0,0,0.700013,9.197e-05,0.554337,-0.382527,6.83308e-05,0.000136432,0.923944,0,0,0,0.702533,-0.00546285,0.53275,0.000207435,-0.000330457,-0.000780933,-2.04359e-05,-8.74246e-05,-2.42676e-05,0.62628,-0.548001,-0.0537225,-0.284714,0.657873,0.659376,0.377296,1
2.71274,-1.6635,1.76824,0.974851,1.49411,-1.35477,-2.81605,2.71274,-1.6635,1.76824,0.97485,1.49411,-1.35477,-2.81605,2.65011,-1.6087,1.77361,1.00332,1.42832,-1.42071,-2.85378,0,0,0,0,0,0,0,0,0,0,0,0,0,0,0.700013,9.197e-05,0.554337,-0.382527,6.83308e-05,0.000136432,0.923944,0,0,0,0.702541,-0.00545945,0.532757,0.00074656,0.000317697,0.00062399,3.66143e-05,-7.16054e-05,5.15154e-05,0.626278,-0.547998,-0.0536946,-0.28472,0.657875,0.659373,0.377297,1
2.71274,-1.6635,1.76825,0.974848,1.49411,-1.35477,-2.81605,2.71274,-1.6635,1.76824,0.974851,1.49411,-1.35477,-2.81605,2.65011,-1.6087,1.77361,1.00332,1.42832,-1.42071,-2.85378,0,0,0,0,0,0,0,0,0,0,0,0,0,0,0.700013,9.197e-05,0.554337,-0.382527,6.83308e-05,0.000136432,0.923944,0,0,0,0.702529,-0.00544847,0.532756,-0.00126614,0.00115488,-0.000100288,2.12874e-05,0.000168423,0.000119635,0.626262,-0.547991,-0.053632,-0.28475,0.657888,0.659351,0.377317,1
2.71274,-1.6635,1.76825,0.97485,1.49411,-1.35477,-2.81605,2.71274,-1.6635,1.76824,0.974851,1.49411,-1.35477,-2.81605,2.65011,-1.6087,1.77361,1.00332,1.42832,-1.42071,-2.85378,0,0,0,0,0,0,0,0,0,0,0,0,0,0,0.700013,9.197e-05,0.554337,-0.382527,6.83308e-05,0.000136432,0.923944,0,0,0,0.702535,-0.00546378,0.532757,0.0005846,-0.00153211,0.000184925,-4.00203e-05,0.000130764,0.000288657,0.626267,-0.547991,-0.0536442,-0.284736,0.657885,0.659358,0.377314,1
2.71274,-1.6635,1.76824,0.974852,1.49411,-1.35477,-2.81605,2.71274,-1.6635,1.76824,0.974851,1.49411,-1.35477,-2.81605,2.65011,-1.6087,1.77361,1.00332,1.42832,-1.42071,-2.85378,0,0,0,0,0,0,0,0,0,0,0,0,0,0,0.700013,9.197e-05,0.554337,-0.382527,6.83308e-05,0.000136432,0.923944,0,0,0,0.702566,-0.00549165,0.532718,0.00302567,-0.00269975,-0.00378787,0.000168596,-0.000114812,5.15154e-05,0.626291,-0.548,-0.0536643,-0.284714,0.65788,0.659371,0.377282,1
2.71274,-1.6635,1.76824,0.974852,1.49411,-1.35477,-2.81605,2.71274,-1.6635,1.76824,0.97485,1.49411,-1.35477,-2.81605,2.65011,-1.6087,1.77361,1.00332,1.42832,-1.42071,-2.85378,0,0,0,0,0,0,0,0,0,0,0,0,0,0,0.700013,9.197e-05,0.554337,-0.382527,6.83308e-05,0.000136432,0.923944,0,0,0,0.702526,-0.00545278,0.532761,-0.00432796,0.00416869,0.00453892,0.000156675,-0.000147828,-0.00018818,0.626286,-0.548001,-0.0536906,-0.284713,0.657882,0.65937,0.377282,1
2.71274,-1.6635,1.76824,0.974853,1.49411,-1.35477,-2.81606,2.71274,-1.6635,1.76824,0.97485,1.49411,-1.35477,-2.81605,2.65011,-1.6087,1.77361,1.00332,1.42832,-1.42071,-2.85378,0,0,0,0,0,0,0,0,0,0,0,0,0,0,0.700013,9.197e-05,0.554337,-0.382527,6.83308e-05,0.000136432,0.923944,0,0,0,0.702562,-0.00548476,0.532716,0.00372895,-0.00328503,-0.00456781,0.000333786,-0.000341257,-0.00046449,0.626308,-0.548007,-0.0536974,-0.284701,0.657878,0.659382,0.377261,1
2.71274,-1.6635,1.76824,0.974851,1.49411,-1.35477,-2.81605,2.71274,-1.6635,1.76824,0.974851,1.49411,-1.35477,-2.81605,2.65011,-1.6087,1.77361,1.00332,1.42832,-1.42071,-2.85378,0,0,0,0,0,0,0,0,0,0,0,0,0,0,0.700013,9.197e-05,0.554337,-0.382527,6.83308e-05,0.000136432,0.923944,0,0,0,0.702541,-0.00545262,0.53275,-0.0018896,0.00292717,0.00304073,0.000206062,-0.000146763,-0.00034443,0.626286,-0.548002,-0.0536883,-0.284719,0.657882,0.659368,0.377283,1
2.71274,-1.6635,1.76825,0.97485,1.49411,-1.35477,-2.81605,2.71274,-1.6635,1.76824,0.974852,1.49411,-1.35477,-2.81605,2.65011,-1.6087,1.77361,1.00332,1.42832,-1.42071,-2.85378,0,0,0,0,0,0,0,0,0,0,0,0,0,0,0.700013,9.197e-05,0.554337,-0.382527,6.83308e-05,0.000136432,0.923944,0,0,0,0.702557,-0.0054696,0.532712,0.001663,-0.00174724,-0.0038783,0.000334638,-0.00012209,-0.000531759,0.626294,-0.548002,-0.0536366,-0.284736,0.657892,0.65936,0.37728,1
2.71274,-1.6635,1.76825,0.974848,1.49411,-1.35477,-2.81605,2.71274,-1.6635,1.76824,0.974852,1.49411,-1.35477,-2.81605,2.65011,-1.6087,1.77361,1.00332,1.42832,-1.42071,-2.85378,0,0,0,0,0,0,0,0,0,0,0,0,0,0,0.700013,9.197e-05,0.554337,-0.382527,6.83308e-05,0.000136432,0.923944,0,0,0,0.702558,-0.00546942,0.532723,0.000113723,1.74887e-05,0.00109534,0.000246934,9.7576e-05,-0.00045555,0.626277,-0.547997,-0.053606,-0.284756,0.657902,0.659341,0.377297,1
2.71274,-1.6635,1.76825,0.974847,1.49411,-1.35477,-2.81605,2.71274,-1.6635,1.76824,0.974851,1.49411,-1.35477,-2.81605,2.65011,-1.6087,1.77361,1.00332,1.42832,-1.42071,-2.85378,0,0,0,0,0,0,0,0,0,0,0,0,0,0,0.700013,9.197e-05,0.554337,-0.382527,6.83308e-05,0.000136432,0.923944,0,0,0,0.702542,-0.00545526,0.532762,-0.00151501,0.00133835,0.00375092,-3.40598e-05,0.000325145,0.000186903,0.626253,-0.547989,-0.0535949,-0.284763,0.657902,0.659334,0.377323,1
2.71274,-1.6635,1.76825,0.974849,1.49411,-1.35477,-2.81605,2.71274,-1.6635,1.76825,0.97485,1.49411,-1.35477,-2.81605,2.65011,-1.6087,1.77361,1.00332,1.42832,-1.42071,-2.85378,0,0,0,0,0,0,0,0,0,0,0,0,0,0,0.700013,9.197e-05,0.554337,-0.382527,6.83308e-05,0.000136432,0.923944,0,0,0,0.702567,-0.00546872,0.532712,0.00277194,-0.00150823,-0.00571086,0.000367846,-2.00301e-05,-0.000290786,0.626292,-0.547996,-0.0535743,-0.284747,0.657905,0.659347,0.377284,1
2.71274,-1.6635,1.76825,0.974849,1.49411,-1.35477,-2.81605,2.71274,-1.6635,1.76825,0.974849,1.49411,-1.35477,-2.81605,2.65011,-1.6087,1.77361,1.00332,1.42832,-1.42071,-2.85378,0,0,0,0,0,0,0,0,0,0,0,0,0,0,0.700013,9.197e-05,0.554337,-0.382527,6.83308e-05,0.000136432,0.923944,0,0,0,0.702571,-0.00547037,0.532709,0.000310744,-0.000141204,-0.000193578,0.000226498,9.04248e-05,-0.000165616,0.626279,-0.547998,-0.053602,-0.284746,0.657903,0.65934,0.377292,1
2.71274,-1.6635,1.76825,0.974851,1.49411,-1.35477,-2.81605,2.71274,-1.6635,1.76825,0.974848,1.49411,-1.35477,-2.81605,2.65011,-1.6087,1.77361,1.00332,1.42832,-1.42071,-2.85378,0,0,0,0,0,0,0,0,0,0,0,0,0,0,0.700013,9.197e-05,0.554337,-0.382527,6.83308e-05,0.000136432,0.923944,0,0,0,0.702545,-0.00545598,0.532753,-0.00290228,0.00163725,0.00498406,0.00017115,-3.8916e-05,-2.12874e-05,0.626282,-0.547997,-0.0536365,-0.284726,0.657894,0.659357,0.377287,1
2.71274,-1.6635,1.76824,0.974851,1.49411,-1.35477,-2.81605,2.71274,-1.6635,1.76825,0.974849,1.49411,-1.35477,-2.81605,2.65011,-1.6087,1.77361,1.00332,1.42832,-1.42071,-2.85378,0,0,0,0,0,0,0,0,0,0,0,0,0,0,0.700013,9.197e-05,0.554337,-0.382527,6.83308e-05,0.000136432,0.923944,0,0,0,0.702538,-0.00545949,0.532758,-0.000768584,-0.000371003,0.000548088,-0.000198398,0.000150362,0.000523244,0.626258,-0.547995,-0.0536882,-0.284726,0.65788,0.659359,0.377313,1
2.71274,-1.6635,1.76824,0.97485,1.49411,-1.35477,-2.81605,2.71274,-1.6635,1.76825,0.974849,1.49411,-1.35477,-2.81605,2.65011,-1.6087,1.77361,1.00332,1.42832,-1.42071,-2.85378,0,0,0,0,0,0,0,0,0,0,0,0,0,0,0.700013,9.197e-05,0.554337,-0.382527,6.83308e-05,0.000136432,0.923944,0,0,0,0.702538,-0.00545531,0.532758,-2.70853e-05,0.000379787,-2.16683e-05,-0.000332083,0.000166481,0.000494719,0.626255,-0.547996,-0.0537032,-0.284735,0.657877,0.659362,0.377321,1
2.71274,-1.6635,1.76823,0.974852,1.49411,-1.35477,-2.81605,2.71274,-1.6635,1.76825,0.97485,1.49411,-1.35477,-2.81605,2.65011,-1.6087,1.77361,1.00332,1.42832,-1.42071,-2.85378,0,0,0,0,0,0,0,0,0,0,0,0,0,0,0.700013,9.197e-05,0.554337,-0.382527,6.83308e-05,0.000136432,0.923944,0,0,0,0.702539,-0.00546445,0.532767,0.000130669,-0.00100161,0.000993085,-0.000365291,3.61752e-05,0.000556026,0.626264,-0.547997,-0.0537498,-0.284713,0.657862,0.659379,0.377317,1
2.71274,-1.6635,1.76823,0.974851,1.49411,-1.35477,-2.81605,2.71274,-1.6635,1.76824,0.974851,1.49411,-1.35477,-2.81605,2.65011,-1.6087,1.77361,1.00332,1.42832,-1.42071,-2.85378,0,0,0,0,0,0,0,0,0,0,0,0,0,0,0.700013,9.197e-05,0.554337,-0.382527,6.83308e-05,0.000136432,0.923944,0,0,0,0.702537,-0.00545703,0.532752,-0.000196853,0.000742484,-0.00153306,-0.000579017,0.00016994,0.000861713,0.626249,-0.547997,-0.0537731,-0.284721,0.657857,0.659377,0.377333,1
2.71274,-1.6635,1.76824,0.97485,1.49411,-1.35477,-2.81605,2.71274,-1.6635,1.76824,0.974851,1.49411,-1.35477,-2.81605,2.65011,-1.6087,1.77361,1.00332,1.42832,-1.42071,-2.85378,0,0,0,0,0,0,0,0,0,0,0,0,0,0,0.700013,9.197e-05,0.554337,-0.382527,6.83308e-05,0.000136432,0.923944,0,0,0,0.702544,-0.0054548,0.532756,0.00068907,0.000213243,0.00040433,-0.000340598,0.000141648,0.000522818,0.626258,-0.547993,-0.0537101,-0.284737,0.657866,0.659371,0.377329,1
2.71274,-1.6635,1.76824,0.974848,1.49411,-1.35477,-2.81605,2.71274,-1.6635,1.76824,0.974851,1.49411,-1.35477,-2.81605,2.65011,-1.6087,1.77361,1.00332,1.42832,-1.42071,-2.85378,0,0,0,0,0,0,0,0,0,0,0,0,0,0,0.700013,9.197e-05,0.554337,-0.382527,6.83308e-05,0.000136432,0.923944,0,0,0,0.702535,-0.00544472,0.53275,-0.000905582,0.00104183,-0.000659165,-6.38621e-05,0.000148034,-7.5783e-05,0.626266,-0.547993,-0.0536515,-0.284756,0.657886,0.659353,0.37732,1
2.71274,-1.6635,1.76825,0.97485,1.49411,-1.35477,-2.81605,2.71274,-1.6635,1.76824,0.974851,1.49411,-1.35477,-2.81605,2.65011,-1.6087,1.77361,1.00332,1.42832,-1.42071,-2.85378,0,0,0,0,0,0,0,0,0,0,0,0,0,0,0.700013,9.197e-05,0.554337,-0.382527,6.83308e-05,0.000136432,0.923944,0,0,0,0.702574,-0.00548314,0.532713,0.00368169,-0.00365696,-0.00348882,0.000388282,-0.000143271,-0.000584551,0.626302,-0.548,-0.0536198,-0.284735,0.657893,0.65936,0.377277,1
2.71274,-1.6635,1.76824,0.974853,1.49411,-1.35477,-2.81605,2.71274,-1.6635,1.76824,0.97485,1.49411,-1.35477,-2.81605,2.65011,-1.6087,1.77361,1.00332,1.42832,-1.42071,-2.85378,0,0,0,0,0,0,0,0,0,0,0,0,0,0,0.700013,9.197e-05,0.554337,-0.382527,6.83308e-05,0.000136432,0.923944,0,0,0,0.702536,-0.00546454,0.532764,-0.00419619,0.0020359,0.00556012,0.000224795,-0.000188486,-0.000332935,0.626293,-0.548002,-0.0536973,-0.284704,0.657883,0.659371,0.377275,1
2.71274,-1.6635,1.76824,0.974852,1.49411,-1.35477,-2.81606,2.71274,-1.6635,1.76824,0.97485,1.49411,-1.35477,-2.81605,2.65011,-1.6087,1.77361,1.00332,1.42832,-1.42071,-2.85378,0,0,0,0,0,0,0,0,0,0,0,0,0,0,0.700013,9.197e-05,0.554337,-0.382527,6.83308e-05,0.000136432,0.923944,0,0,0,0.702559,-0.00547644,0.532715,0.00197633,-0.00102156,-0.00419329,0.000310796,-0.000283375,-0.000625849,0.626303,-0.54801,-0.0536954,-0.284713,0.657886,0.659373,0.37726,1
2.71274,-1.6635,1.76824,0.974852,1.49411,-1.35477,-2.81606,2.71274,-1.6635,1.76824,0.97485,1.49411,-1.35477,-2.81605,2.65011,-1.6087,1.77361,1.00332,1.42832,-1.42071,-2.85378,0,0,0,0,0,0,0,0,0,0,0,0,0,0,0.700013,9.197e-05,0.554337,-0.382527,6.83308e-05,0.000136432,0.923944,0,0,0,0.702569,-0.00546908,0.532712,0.00114945,0.000810976,-0.000374391,0.000449589,-0.000354501,-0.000673958,0.626311,-0.548007,-0.0536784,-0.28471,0.657882,0.659377,0.377261,1
2.71274,-1.6635,1.76824,0.974853,1.49411,-1.35477,-2.81606,2.71274,-1.6635,1.76824,0.974852,1.49411,-1.35477,-2.81605,2.65011,-1.6087,1.77361,1.00332,1.42832,-1.42071,-2.85378,0,0,0,0,0,0,0,0,0,0,0,0,0,0,0.700013,9.197e-05,0.554337,-0.382527,6.83308e-05,0.000136432,0.923944,0,0,0,0.702567,-0.00547246,0.532721,-0.00024101,-0.0003507,0.000964039,0.000430005,-0.000339341,-0.000642027,0.626308,-0.548007,-0.0536866,-0.284706,0.657882,0.659377,0.37726,1
2.71274,-1.6635,1.76824,0.974852,1.49411,-1.35477,-2.81605,2.71274,-1.6635,1.76824,0.974852,1.49411,-1.35477,-2.81605,2.65011,-1.6087,1.77361,1.00332,1.42832,-1.42071,-2.85378,0,0,0,0,0,0,0,0,0,0,0,0,0,0,0.700013,9.197e-05,0.554337,-0.382527,6.83308e-05,0.000136432,0.923944,0,0,0,0.702544,-0.00546196,0.532752,-0.00234961,0.00107185,0.00322615,0.00015923,-0.000124717,-0.000100051,0.626283,-0.548001,-0.0536911,-0.284712,0.657879,0.659372,0.377285,1
2.71274,-1.6635,1.76825,0.974849,1.49411,-1.35477,-2.81605,2.71274,-1.6635,1.76824,0.974852,1.49411,-1.35477,-2.81605,2.65011,-1.6087,1.77361,1.00332,1.42832,-1.42071,-2.85378,0,0,0,0,0,0,0,0,0,0,0,0,0,0,0.700013,9.197e-05,0.554337,-0.382527,6.83308e-05,0.000136432,0.923944,0,0,0,0.702567,-0.00547371,0.532718,0.00215525,-0.00111471,-0.00325268,5.96046e-06,0.000133658,-4.25747e-06,0.626268,-0.547998,-0.0536482,-0.284748,0.657888,0.659353,0.377307,1
2.71274,-1.6635,1.76824,0.974852,1.49411,-1.35477,-2.81605,2.71274,-1.6635,1.76824,0.974852,1.49411,-1.35477,-2.81605,2.65011,-1.6087,1.77361,1.00332,1.42832,-1.42071,-2.85378,0,0,0,0,0,0,0,0,0,0,0,0,0,0,0.700013,9.197e-05,0.554337,-0.382527,6.83308e-05,0.000136432,0.923944,0,0,0,0.702531,-0.00547605,0.532752,-0.00352906,-0.000232138,0.00339922,-8.6001e-05,-7.8444e-05,4.81095e-05,0.62628,-0.548001,-0.0537238,-0.28471,0.657873,0.659376,0.377296,1
2.71274,-1.6635,1.76824,0.974849,1.49411,-1.35477,-2.81605,2.71274,-1.6635,1.76824,0.974851,1.49411,-1.35477,-2.81605,2.65011,-1.6087,1.77361,1.00332,1.42832,-1.42071,-2.85378,0,0,0,0,0,0,0,0,0,0,0,0,0,0,0.700013,9.197e-05,0.554337,-0.382527,6.83308e-05,0.000136432,0.923944,0,0,0,0.702536,-0.00544272,0.532757,0.000515487,0.00347352,0.000472012,-0.000520263,0.000306964,0.000733563,0.626239,-0.547995,-0.0537256,-0.284743,0.657873,0.659357,0.377337,1
2.71274,-1.6635,1.76823,0.974849,1.49411,-1.35477,-2.81605,2.71274,-1.6635,1.76824,0.974851,1.49411,-1.35477,-2.81605,2.65011,-1.6087,1.77361,1.00332,1.42832,-1.42071,-2.85378,0,0,0,0,0,0,0,0,0,0,0,0,0,0,0.700013,9.197e-05,0.554337,-0.382527,6.83308e-05,0.000136432,0.923944,0,0,0,0.702528,-0.00545585,0.532757,-0.000753655,-0.00133851,0,-0.000703335,0.000303891,0.000745484,0.626241,-0.547995,-0.0537569,-0.284742,0.657865,0.659367,0.377347,1
2.71274,-1.6635,1.76825,0.974847,1.49411,-1.35477,-2.81605,2.71274,-1.6635,1.76824,0.97485,1.49411,-1.35477,-2.81605,2.65011,-1.6087,1.77361,1.00332,1.42832,-1.42071,-2.85378,0,0,0,0,0,0,0,0,0,0,0,0,0,0,0.700013,9.197e-05,0.554337,-0.382527,6.83308e-05,0.000136432,0.923944,0,0,0,0.702579,-0.00547211,0.532703,0.00507837,-0.00164019,-0.0054029,-9.111e-05,0.000158132,-1.49012e-05,0.626271,-0.547996,-0.0536433,-0.284765,0.657886,0.659352,0.377317,1
2.71274,-1.6635,1.76824,0.974849,1.49411,-1.35477,-2.81605,2.71274,-1.6635,1.76824,0.97485,1.49411,-1.35477,-2.81605,2.65011,-1.6087,1.77361,1.00332,1.42832,-1.42071,-2.85378,0,0,0,0,0,0,0,0,0,0,0,0,0,0,0.700013,9.197e-05,0.554337,-0.382527,6.83308e-05,0.000136432,0.923944,0,0,0,0.702531,-0.00546048,0.532747,-0.00444038,0.00107472,0.00404923,-6.21591e-05,9.94386e-05,-0.000144754,0.626272,-0.547996,-0.0536791,-0.28474,0.657884,0.659356,0.377313,1
2.71274,-1.6635,1.76824,0.97485,1.49411,-1.35477,-2.81605,2.71274,-1.6635,1.76824,0.974849,1.49411,-1.35477,-2.81605,2.65011,-1.6087,1.77361,1.00332,1.42832,-1.42071,-2.85378,0,0,0,0,0,0,0,0,0,0,0,0,0,0,0.700013,9.197e-05,0.554337,-0.382527,6.83308e-05,0.000136432,0.923944,0,0,0,0.702542,-0.00546394,0.532756,0.00113343,-0.000335537,0.000867418,-0.000107288,0.000110881,0.00017924,0.626267,-0.547996,-0.0536763,-0.284735,0.657884,0.659358,0.377308,1
2.71274,-1.6635,1.76825,0.974849,1.49411,-1.35477,-2.81605,2.71274,-1.6635,1.76824,0.974849,1.49411,-1.35477,-2.81605,2.65011,-1.6087,1.77361,1.00332,1.42832,-1.42071,-2.85378,0,0,0,0,0,0,0,0,0,0,0,0,0,0,0.700013,9.197e-05,0.554337,-0.382527,6.83308e-05,0.000136432,0.923944,0,0,0,0.702531,-0.00545273,0.532755,-0.00116582,0.00110202,-0.000152318,5.36442e-05,8.17236e-05,-1.74556e-05,0.626271,-0.547994,-0.0536453,-0.284742,0.657889,0.659355,0.377306,1
2.71274,-1.6635,1.76823,0.974855,1.49411,-1.35477,-2.81605,2.71274,-1.6635,1.76824,0.974849,1.49411,-1.35477,-2.81605,2.65011,-1.6087,1.77361,1.00332,1.42832,-1.42071,-2.85378,0,0,0,0,0,0,0,0,0,0,0,0,0,0,0.700013,9.197e-05,0.554337,-0.382527,6.83308e-05,0.000136432,0.923944,0,0,0,0.702528,-0.00546509,0.532757,-0.000237676,-0.00136922,0.000303697,-0.000193289,-0.0001883,0.000174982,0.626285,-0.548004,-0.0537824,-0.284689,0.657862,0.659389,0.377291,1
2.71274,-1.6635,1.76824,0.974851,1.49411,-1.35477,-2.81605,2.71274,-1.6635,1.76824,0.97485,1.49411,-1.35477,-2.81605,2.65011,-1.6087,1.77361,1.00332,1.42832,-1.42071,-2.85378,0,0,0,0,0,0,0,0,0,0,0,0,0,0,0.700013,9.197e-05,0.554337,-0.382527,6.83308e-05,0.000136432,0.923944,0,0,0,0.702533,-0.00545413,0.532759,0.000376214,0.00101739,0.000110651,-0.000316756,9.62056e-05,0.000428728,0.626256,-0.547999,-0.0537399,-0.284728,0.657869,0.65937,0.377314,1
2.71274,-1.6635,1.76823,0.974852,1.49411,-1.35477,-2.81605,2.71274,-1.6635,1.76824,0.974851,1.49411,-1.35477,-2.81605,2.65011,-1.6087,1.77361,1.00332,1.42832,-1.42071,-2.85378,0,0,0,0,0,0,0,0,0,0,0,0,0,0,0.700013,9.197e-05,0.554337,-0.382527,6.83308e-05,0.000136432,0.923944,0,0,0,0.702563,-0.00548393,0.532713,0.00341486,-0.00328928,-0.00507953,-0.000202656,-8.53291e-05,0.000182646,0.626281,-0.548003,-0.0537522,-0.284714,0.657859,0.659386,0.377306,1
2.71274,-1.6635,1.76824,0.974852,1.49411,-1.35477,-2.81605,2.71274,-1.6635,1.76824,0.974852,1.49411,-1.35477,-2.81605,2.65011,-1.6087,1.77361,1.00332,1.42832,-1.42071,-2.85378,0,0,0,0,0,0,0,0,0,0,0,0,0,0,0.700013,9.197e-05,0.554337,-0.382527,6.83308e-05,0.000136432,0.923944,0,0,0,0.702537,-0.00546537,0.532759,-0.00270155,0.0018656,0.00465434,0.000217983,-0.000200048,-0.000173705,0.626291,-0.547998,-0.0536881,-0.284713,0.657872,0.65938,0.377284,1
2.71274,-1.6635,1.76824,0.974852,1.49411,-1.35477,-2.81605,2.71274,-1.6635,1.76824,0.974852,1.49411,-1.35477,-2.81605,2.65011,-1.6087,1.77361,1.00332,1.42832,-1.42071,-2.85378,0,0,0,0,0,0,0,0,0,0,0,0,0,0,0.700013,9.197e-05,0.554337,-0.382527,6.83308e-05,0.000136432,0.923944,0,0,0,0.702562,-0.00547297,0.532715,0.00252252,-0.000748461,-0.00434695,0.000378915,-0.000254238,-0.000574759,0.626304,-0.548004,-0.053673,-0.284715,0.657881,0.659374,0.377272,1
2.71274,-1.6635,1.76824,0.974854,1.49411,-1.35477,-2.81606,2.71274,-1.6635,1.76824,0.974852,1.49411,-1.35477,-2.81605,2.65011,-1.6087,1.77361,1.00332,1.42832,-1.42071,-2.85378,0,0,0,0,0,0,0,0,0,0,0,0,0,0,0.700013,9.197e-05,0.554337,-0.382527,6.83308e-05,0.000136432,0.923944,0,0,0,0.702552,-0.00548013,0.53273,-0.000914067,-0.000634324,0.00139488,0.000483649,-0.000389905,-0.000561561,0.626313,-0.548006,-0.0536813,-0.284696,0.657879,0.659383,0.377255,1
2.71274,-1.6635,1.76824,0.974852,1.49411,-1.35477,-2.81605,2.71274,-1.6635,1.76824,0.974852,1.49411,-1.35477,-2.81605,2.65011,-1.6087,1.77361,1.00332,1.42832,-1.42071,-2.85378,0,0,0,0,0,0,0,0,0,0,0,0,0,0,0.700013,9.197e-05,0.554337,-0.382527,6.83308e-05,0.000136432,0.923944,0,0,0,0.702541,-0.00546568,0.532756,-0.00113624,0.00154726,0.00272569,0.000271627,-0.000152803,-0.000209893,0.626287,-0.548001,-0.0536778,-0.28471,0.657881,0.659371,0.377279,1
2.71274,-1.6635,1.76824,0.974851,1.49411,-1.35477,-2.81605,2.71274,-1.6635,1.76824,0.974852,1.49411,-1.35477,-2.81605,2.65011,-1.6087,1.77361,1.00332,1.42832,-1.42071,-2.85378,0,0,0,0,0,0,0,0,0,0,0,0,0,0,0.700013,9.197e-05,0.554337,-0.382527,6.83308e-05,0.000136432,0.923944,0,0,0,0.702569,-0.00547523,0.532715,0.00317683,-0.00108996,-0.00468702,0.000289508,-0.00014838,-0.000260557,0.626293,-0.548002,-0.05365,-0.284723,0.657885,0.659368,0.377279,1
2.71274,-1.6635,1.76825,0.974848,1.49411,-1.35477,-2.81605,2.71274,-1.6635,1.76824,0.974853,1.49411,-1.35477,-2.81605,2.65011,-1.6087,1.77361,1.00332,1.42832,-1.42071,-2.85378,0,0,0,0,0,0,0,0,0,0,0,0,0,0,0.700013,9.197e-05,0.554337,-0.382527,6.83308e-05,0.000136432,0.923944,0,0,0,0.702562,-0.00546733,0.532716,-0.000667281,0.000724882,0.000142207,0.000140497,0.000133439,-0.000126447,0.626271,-0.547996,-0.0536143,-0.284753,0.657896,0.659345,0.377304,1
2.71274,-1.6635,1.76825,0.97485,1.49411,-1.35477,-2.81605,2.71274,-1.6635,1.76824,0.974852,1.49411,-1.35477,-2.81605,2.65011,-1.6087,1.77361,1.00332,1.42832,-1.42071,-2.85378,0,0,0,0,0,0,0,0,0,0,0,0,0,0,0.700013,9.197e-05,0.554337,-0.382527,6.83308e-05,0.000136432,0.923944,0,0,0,0.70256,-0.00547985,0.532722,-0.000150598,-0.00126535,0.000530104,0.000312499,-9.7403e-05,-0.000442352,0.626295,-0.548,-0.0536247,-0.284733,0.657896,0.659358,0.377279,1
2.71274,-1.6635,1.76824,0.974852,1.49411,-1.35477,-2.81605,2.71274,-1.6635,1.76824,0.974851,1.49411,-1.35477,-2.81605,2.65011,-1.6087,1.77361,1.00332,1.42832,-1.42071,-2.85378,0,0,0,0,0,0,0,0,0,0,0,0,0,0,0.700013,9.197e-05,0.554337,-0.382527,6.83308e-05,0.000136432,0.923944,0,0,0,0.702557,-0.00547686,0.53273,-0.000310835,0.000293698,0.000797613,8.17435e-05,-4.56481e-05,-4.30005e-05,0.626282,-0.548002,-0.0536837,-0.284718,0.657884,0.659363,0.377287,1
2.71274,-1.6635,1.76824,0.974849,1.49411,-1.35477,-2.81605,2.71274,-1.6635,1.76825,0.97485,1.49411,-1.35477,-2.81605,2.65011,-1.6087,1.77361,1.00332,1.42832,-1.42071,-2.85378,0,0,0,0,0,0,0,0,0,0,0,0,0,0,0.700013,9.197e-05,0.554337,-0.382527,6.83308e-05,0.000136432,0.923944,0,0,0,0.702538,-0.00546007,0.532751,-0.00210095,0.00179907,0.00231807,-6.98226e-05,0.000118458,6.08819e-05,0.626264,-0.547998,-0.0536702,-0.284741,0.657888,0.659354,0.377305,1
2.71274,-1.6635,1.76824,0.97485,1.49411,-1.35477,-2.81605,2.71274,-1.6635,1.76825,0.97485,1.49411,-1.35477,-2.81605,2.65011,-1.6087,1.77361,1.00332,1.42832,-1.42071,-2.85378,0,0,0,0,0,0,0,0,0,0,0,0,0,0,0.700013,9.197e-05,0.554337,-0.382527,6.83308e-05,0.000136432,0.923944,0,0,0,0.702524,-0.00545584,0.532754,-0.00113154,0.000365461,0.000221165,-0.000422341,0.000179652,0.000286954,0.626254,-0.547999,-0.0537375,-0.284736,0.657876,0.659362,0.377325,1
2.71274,-1.6635,1.76824,0.97485,1.49411,-1.35477,-2.81605,2.71274,-1.6635,1.76824,0.97485,1.49411,-1.35477,-2.81605,2.65011,-1.6087,1.77361,1.00332,1.42832,-1.42071,-2.85378,0,0,0,0,0,0,0,0,0,0,0,0,0,0,0.700013,9.197e-05,0.554337,-0.382527,6.83308e-05,0.000136432,0.923944,0,0,0,0.702573,-0.00548129,0.532716,0.00576521,-0.00299847,-0.00442397,-0.000303132,8.77971e-05,0.000391262,0.626267,-0.548,-0.0537192,-0.284733,0.65787,0.659369,0.377314,1
2.71274,-1.6635,1.76824,0.974849,1.49411,-1.35477,-2.81605,2.71274,-1.6635,1.76824,0.97485,1.49411,-1.35477,-2.81605,2.65011,-1.6087,1.77361,1.00332,1.42832,-1.42071,-2.85378,0,0,0,0,0,0,0,0,0,0,0,0,0,0,0.700013,9.197e-05,0.554337,-0.382527,6.83308e-05,0.000136432,0.923944,0,0,0,0.702538,-0.00545229,0.532753,-0.003369,0.00276875,0.00348282,-0.000277587,0.000225952,0.000439797,0.626254,-0.547992,-0.0536883,-0.284745,0.657875,0.659358,0.377331,1
2.71274,-1.6635,1.76825,0.974846,1.49411,-1.35477,-2.81605,2.71274,-1.6635,1.76824,0.97485,1.49411,-1.35477,-2.81605,2.65011,-1.6087,1.77361,1.00332,1.42832,-1.42071,-2.85378,0,0,0,0,0,0,0,0,0,0,0,0,0,0,0.700013,9.197e-05,0.554337,-0.382527,6.83308e-05,0.000136432,0.923944,0,0,0,0.702526,-0.0054467,0.532764,-0.00121272,0.000551769,0.00107732,-0.000378064,0.000454911,0.000490887,0.626237,-0.547987,-0.0536416,-0.284772,0.657889,0.659339,0.377349,1
2.71274,-1.6635,1.76824,0.974848,1.49411,-1.35477,-2.81605,2.71274,-1.6635,1.76824,0.974849,1.49411,-1.35477,-2.81605,2.65011,-1.6087,1.77361,1.00332,1.42832,-1.42071,-2.85378,0,0,0,0,0,0,0,0,0,0,0,0,0,0,0.700013,9.197e-05,0.554337,-0.382527,6.83308e-05,0.000136432,0.923944,0,0,0,0.702527,-0.00545598,0.53277,0.000167186,-0.00100115,0.000707324,-0.000355925,0.000331897,0.000518986,0.626248,-0.547988,-0.0536579,-0.284754,0.657885,0.659349,0.377338,1
2.71274,-1.6635,1.76824,0.974849,1.49411,-1.35477,-2.81605,2.71274,-1.6635,1.76824,0.974849,1.49411,-1.35477,-2.81605,2.65011,-1.6087,1.77361,1.00332,1.42832,-1.42071,-2.85378,0,0,0,0,0,0,0,0,0,0,0,0,0,0,0.700013,9.197e-05,0.554337,-0.382527,6.83308e-05,0.000136432,0.923944,0,0,0,0.702534,-0.00545276,0.532771,0.000566602,0.000297526,3.30059e-05,-0.000192438,0.000200833,0.000493867,0.626258,-0.54799,-0.0536563,-0.284741,0.657883,0.659355,0.377322,1
2.71274,-1.6635,1.76824,0.97485,1.49411,-1.35477,-2.81605,2.71274,-1.6635,1.76824,0.974848,1.49411,-1.35477,-2.81605,2.65011,-1.6087,1.77361,1.00332,1.42832,-1.42071,-2.85378,0,0,0,0,0,0,0,0,0,0,0,0,0,0,0.700013,9.197e-05,0.554337,-0.382527,6.83308e-05,0.000136432,0.923944,0,0,0,0.702529,-0.00545799,0.532763,-0.000453517,-0.000537977,-0.000802848,-0.000274181,0.000167512,0.00054666,0.626258,-0.547993,-0.0536953,-0.284729,0.657876,0.659362,0.377321,1
2.71274,-1.6635,1.76824,0.974851,1.49411,-1.35477,-2.81605,2.71274,-1.6635,1.76824,0.974848,1.49411,-1.35477,-2.81605,2.65011,-1.6087,1.77361,1.00332,1.42832,-1.42071,-2.85378,0,0,0,0,0,0,0,0,0,0,0,0,0,0,0.700013,9.197e-05,0.554337,-0.382527,6.83308e-05,0.000136432,0.923944,0,0,0,0.702565,-0.00547924,0.532715,0.00363774,-0.0021293,-0.00482643,-0.000123467,-4.03994e-05,7.79118e-05,0.62628,-0.548003,-0.0537138,-0.284724,0.657875,0.659371,0.377297,1
2.71274,-1.6635,1.76824,0.974853,1.49411,-1.35477,-2.81605,2.71274,-1.6635,1.76824,0.974849,1.49411,-1.35477,-2.81605,2.65011,-1.6087,1.77361,1.00332,1.42832,-1.42071,-2.85378,0,0,0,0,0,0,0,0,0,0,0,0,0,0,0.700013,9.197e-05,0.554337,-0.382527,6.83308e-05,0.000136432,0.923944,0,0,0,0.702541,-0.00545903,0.532759,-0.00237202,0.00193794,0.00422391,0.000315905,-0.00031178,-0.000313776,0.626302,-0.548,-0.0536868,-0.284704,0.657875,0.659382,0.377271,1
2.71274,-1.6635,1.76824,0.974851,1.49411,-1.35477,-2.81605,2.71274,-1.6635,1.76824,0.97485,1.49411,-1.35477,-2.81605,2.65011,-1.6087,1.77361,1.00332,1.42832,-1.42071,-2.85378,0,0,0,0,0,0,0,0,0,0,0,0,0,0,0.700013,9.197e-05,0.554337,-0.382527,6.83308e-05,0.000136432,0.923944,0,0,0,0.702524,-0.00544488,0.532762,-0.00169436,0.00147891,0.000355068,0.000194141,-9.6791e-05,-0.000299726,0.626282,-0.547999,-0.0536806,-0.284722,0.657884,0.659366,0.377289,1
2.71274,-1.6635,1.76824,0.97485,1.49411,-1.35477,-2.81605,2.71274,-1.6635,1.76824,0.974851,1.49411,-1.35477,-2.81605,2.65011,-1.6087,1.77361,1.00332,1.42832,-1.42071,-2.85378,0,0,0,0,0,0,0,0,0,0,0,0,0,0,0.700013,9.197e-05,0.554337,-0.382527,6.83308e-05,0.000136432,0.923944,0,0,0,0.702535,-0.00545536,0.532777,0.00102485,-0.0010423,0.0014573,5.79017e-05,5.91989e-05,-6.38621e-06,0.626269,-0.547994,-0.0536506,-0.284735,0.657887,0.659359,0.377304,1
2.71274,-1.6635,1.76824,0.974852,1.49411,-1.35477,-2.81605,2.71274,-1.6635,1.76824,0.974852,1.49411,-1.35477,-2.81605,2.65011,-1.6087,1.77361,1.00332,1.42832,-1.42071,-2.85378,0,0,0,0,0,0,0,0,0,0,0,0,0,0,0.700013,9.197e-05,0.554337,-0.382527,6.83308e-05,0.000136432,0.923944,0,0,0,0.702565,-0.00548662,0.532715,0.00319606,-0.00326683,-0.00640459,0.000235013,-0.000221329,-0.000321439,0.6263,-0.548004,-0.0536841,-0.284711,0.65788,0.659375,0.377274,1
2.71274,-1.6635,1.76824,0.974851,1.49411,-1.35477,-2.81605,2.71274,-1.6635,1.76824,0.974851,1.49411,-1.35477,-2.81605,2.65011,-1.6087,1.77361,1.00332,1.42832,-1.42071,-2.85378,0,0,0,0,0,0,0,0,0,0,0,0,0,0,0.700013,9.197e-05,0.554337,-0.382527,6.83308e-05,0.000136432,0.923944,0,0,0,0.702534,-0.00545642,0.532755,-0.00307014,0.00299127,0.00393805,3.40598e-05,-2.28241e-05,-1.02179e-05,0.626274,-0.548,-0.0536916,-0.284722,0.657881,0.659364,0.377295,1
2.71274,-1.6635,1.76824,0.974849,1.49411,-1.35477,-2.81605,2.71274,-1.6635,1.76824,0.974851,1.49411,-1.35477,-2.81605,2.65011,-1.6087,1.77361,1.00332,1.42832,-1.42071,-2.85378,0,0,0,0,0,0,0,0,0,0,0,0,0,0,0.700013,9.197e-05,0.554337,-0.382527,6.83308e-05,0.000136432,0.923944,0,0,0,0.70254,-0.00545098,0.532759,0.000537348,0.000510892,0.000358232,-0.000172002,0.000172301,0.000284825,0.626258,-0.547994,-0.053672,-0.284742,0.657883,0.659357,0.37732,1
2.71274,-1.6635,1.76824,0.974851,1.49411,-1.35477,-2.81605,2.71274,-1.6635,1.76824,0.974851,1.49411,-1.35477,-2.81605,2.65011,-1.6087,1.77361,1.00332,1.42832,-1.42071,-2.85378,0,0,0,0,0,0,0,0,0,0,0,0,0,0,0.700013,9.197e-05,0.554337,-0.382527,6.83308e-05,0.000136432,0.923944,0,0,0,0.702531,-0.00546166,0.53275,-0.000980124,-0.00113347,-0.000929537,5.10897e-06,-7.56167e-05,-0.00018818,0.626282,-0.548,-0.0536961,-0.284725,0.657881,0.659369,0.377294,1
2.71274,-1.6635,1.76824,0.974853,1.49411,-1.35477,-2.81605,2.71274,-1.6635,1.76824,0.974851,1.49411,-1.35477,-2.81605,2.65011,-1.6087,1.77361,1.00332,1.42832,-1.42071,-2.85378,0,0,0,0,0,0,0,0,0,0,0,0,0,0,0.700013,9.197e-05,0.554337,-0.382527,6.83308e-05,0.000136432,0.923944,0,0,0,0.702537,-0.00546902,0.532766,0.000580083,-0.000701378,0.00147296,1.44754e-05,-0.000176333,5.10897e-06,0.626286,-0.548001,-0.053734,-0.2847,0.657869,0.659382,0.377286,1
2.71274,-1.6635,1.76824,0.97485,1.49411,-1.35477,-2.81605,2.71274,-1.6635,1.76824,0.974851,1.49411,-1.35477,-2.81605,2.65011,-1.6087,1.77361,1.00332,1.42832,-1.42071,-2.85378,0,0,0,0,0,0,0,0,0,0,0,0,0,0,0.700013,9.197e-05,0.554337,-0.382527,6.83308e-05,0.000136432,0.923944,0,0,0,0.702529,-0.00545224,0.532768,-0.000827391,0.00171225,0.000261602,-0.000280142,0.000140483,0.000251191,0.626254,-0.547998,-0.0537273,-0.284733,0.657874,0.659364,0.377319,1
2.71274,-1.6635,1.76824,0.97485,1.49411,-1.35477,-2.81605,2.71274,-1.6635,1.76824,0.974851,1.49411,-1.35477,-2.81605,2.65011,-1.6087,1.77361,1.00332,1.42832,-1.42071,-2.85378,0,0,0,0,0,0,0,0,0,0,0,0,0,0,0.700013,9.197e-05,0.554337,-0.382527,6.83308e-05,0.000136432,0.923944,0,0,0,0.702533,-0.00546411,0.532757,0.000408527,-0.00125195,-0.00118159,-0.000400203,0.000206594,0.000564115,0.626252,-0.547993,-0.0537145,-0.284737,0.657869,0.659367,0.377332,1
2.71274,-1.6635,1.76824,0.974852,1.49411,-1.35477,-2.81605,2.71274,-1.6635,1.76824,0.974851,1.49411,-1.35477,-2.81605,2.65011,-1.6087,1.77361,1.00332,1.42832,-1.42071,-2.85378,0,0,0,0,0,0,0,0,0,0,0,0,0,0,0.700013,9.197e-05,0.554337,-0.382527,6.83308e-05,0.000136432,0.923944,0,0,0,0.702559,-0.00547726,0.532723,0.00271373,-0.00133637,-0.00349514,0.000208616,-0.000283455,-0.0002993,0.626304,-0.548002,-0.0536986,-0.28471,0.657873,0.659384,0.377276,1
2.71274,-1.6635,1.76824,0.974852,1.49411,-1.35477,-2.81605,2.71274,-1.6635,1.76824,0.974851,1.49411,-1.35477,-2.81605,2.65011,-1.6087,1.77361,1.00332,1.42832,-1.42071,-2.85378,0,0,0,0,0,0,0,0,0,0,0,0,0,0,0.700013,9.197e-05,0.554337,-0.382527,6.83308e-05,0.000136432,0.923944,0,0,0,0.702535,-0.00545669,0.532758,-0.00236822,0.00203294,0.00345808,0.000139645,-0.000155132,-0.000243528,0.626286,-0.548001,-0.0537108,-0.284711,0.657876,0.659373,0.377286,1
2.71274,-1.6635,1.76824,0.97485,1.49411,-1.35477,-2.81605,2.71274,-1.6635,1.76824,0.974851,1.49411,-1.35477,-2.81605,2.65011,-1.6087,1.77361,1.00332,1.42832,-1.42071,-2.85378,0,0,0,0,0,0,0,0,0,0,0,0,0,0,0.700013,9.197e-05,0.554337,-0.382527,6.83308e-05,0.000136432,0.923944,0,0,0,0.702529,-0.00546048,0.532757,-0.000653204,-0.000367382,-6.93668e-05,7.5783e-05,1.13156e-05,-0.000148586,0.626274,-0.547998,-0.0536701,-0.284733,0.657884,0.659362,0.377298,1
2.71274,-1.6635,1.76824,0.97485,1.49411,-1.35477,-2.81605,2.71274,-1.6635,1.76824,0.974851,1.49411,-1.35477,-2.81605,2.65011,-1.6087,1.77361,1.00332,1.42832,-1.42071,-2.85378,0,0,0,0,0,0,0,0,0,0,0,0,0,0,0.700013,9.197e-05,0.554337,-0.382527,6.83308e-05,0.000136432,0.923944,0,0,0,0.70252,-0.00545686,0.532762,-0.000919451,0.000370244,0.000499304,-0.000174556,9.7882e-05,-0.000119635,0.626264,-0.547999,-0.0537098,-0.284737,0.657883,0.65936,0.377311,1
2.71274,-1.6635,1.76824,0.974852,1.49411,-1.35477,-2.81605,2.71274,-1.6635,1.76824,0.974851,1.49411,-1.35477,-2.81605,2.65011,-1.6087,1.77361,1.00332,1.42832,-1.42071,-2.85378,0,0,0,0,0,0,0,0,0,0,0,0,0,0,0.700013,9.197e-05,0.554337,-0.382527,6.83308e-05,0.000136432,0.923944,0,0,0,0.702561,-0.00548222,0.532728,0.00392602,-0.00241436,-0.00318847,0.0001422,-0.000209494,-0.000272053,0.626296,-0.548003,-0.0536984,-0.284715,0.657877,0.659378,0.377278,1
2.71274,-1.6635,1.76824,0.974851,1.49411,-1.35477,-2.81605,2.71274,-1.6635,1.76824,0.974851,1.49411,-1.35477,-2.81605,2.65011,-1.6087,1.77361,1.00332,1.42832,-1.42071,-2.85378,0,0,0,0,0,0,0,0,0,0,0,0,0,0,0.700013,9.197e-05,0.554337,-0.382527,6.83308e-05,0.000136432,0.923944,0,0,0,0.702531,-0.00545834,0.532758,-0.00285686,0.00225341,0.00282312,-6.64166e-05,2.58375e-05,6.76938e-05,0.626269,-0.547998,-0.0537131,-0.284723,0.657875,0.659366,0.377305,1
2.71274,-1.6635,1.76825,0.974849,1.49411,-1.35477,-2.81605,2.71274,-1.6635,1.76824,0.974851,1.49411,-1.35477,-2.81605,2.65011,-1.6087,1.77361,1.00332,1.42832,-1.42071,-2.85378,0,0,0,0,0,0,0,0,0,0,0,0,0,0,0.700013,9.197e-05,0.554337,-0.382527,6.83308e-05,0.000136432,0.923944,0,0,0,0.702562,-0.00546609,0.532719,0.00350844,-0.000860768,-0.00435576,0.000111546,3.03145e-05,-0.000136665,0.626279,-0.547998,-0.0536386,-0.284746,0.657888,0.659358,0.3773,1
2.71274,-1.6635,1.76825,0.974851,1.49411,-1.35477,-2.81605,2.71274,-1.6635,1.76824,0.974851,1.49411,-1.35477,-2.81605,2.65011,-1.6087,1.77361,1.00332,1.42832,-1.42071,-2.85378,0,0,0,0,0,0,0,0,0,0,0,0,0,0,0.700013,9.197e-05,0.554337,-0.382527,6.83308e-05,0.000136432,0.923944,0,0,0,0.702565,-0.00547727,0.532724,0.000301217,-0.00106576,0.000471717,0.000598601,-0.000265779,-0.00064373,0.626311,-0.547998,-0.0536051,-0.284722,0.657893,0.659366,0.377265,1
2.71274,-1.6635,1.76825,0.974851,1.49411,-1.35477,-2.81605,2.71274,-1.6635,1.76824,0.974851,1.49411,-1.35477,-2.81605,2.65011,-1.6087,1.77361,1.00332,1.42832,-1.42071,-2.85378,0,0,0,0,0,0,0,0,0,0,0,0,0,0,0.700013,9.197e-05,0.554337,-0.382527,6.83308e-05,0.000136432,0.923944,0,0,0,0.702534,-0.00545934,0.532759,-0.00319585,0.00184449,0.00357003,0.000391688,-7.59693e-05,-0.000284399,0.626286,-0.547997,-0.0536229,-0.284722,0.657896,0.659355,0.377279,1
2.71274,-1.6635,1.76824,0.974851,1.49411,-1.35477,-2.81605,2.71274,-1.6635,1.76824,0.974851,1.49411,-1.35477,-2.81605,2.65011,-1.6087,1.77361,1.00332,1.42832,-1.42071,-2.85378,0,0,0,0,0,0,0,0,0,0,0,0,0,0,0.700013,9.197e-05,0.554337,-0.382527,6.83308e-05,0.000136432,0.923944,0,0,0,0.702521,-0.00546318,0.532755,-0.00114153,-0.000318197,-0.000306384,-5.70502e-05,2.80528e-05,2.00101e-05,0.62627,-0.548001,-0.0536954,-0.284723,0.657886,0.659361,0.377295,1
2.71274,-1.6635,1.76824,0.974848,1.49411,-1.35477,-2.81605,2.71274,-1.6635,1.76825,0.974851,1.49411,-1.35477,-2.81605,2.65011,-1.6087,1.77361,1.00332,1.42832,-1.42071,-2.85378,0,0,0,0,0,0,0,0,0,0,0,0,0,0,0.700013,9.197e-05,0.554337,-0.382527,6.83308e-05,0.000136432,0.923944,0,0,0,0.702532,-0.00544904,0.532761,0.00128645,0.0016676,0.000702979,-0.000487907,0.000344995,0.000467896,0.626238,-0.547996,-0.0537033,-0.284755,0.657884,0.659348,0.377335,1
2.71274,-1.6635,1.76824,0.974847,1.49411,-1.35477,-2.81605,2.71274,-1.6635,1.76825,0.974851,1.49411,-1.35477,-2.81605,2.65011,-1.6087,1.77361,1.00332,1.42832,-1.42071,-2.85378,0,0,0,0,0,0,0,0,0,0,0,0,0,0,0.700013,9.197e-05,0.554337,-0.382527,6.83308e-05,0.000136432,0.923944,0,0,0,0.702517,-0.00544296,0.532763,-0.00138197,0.000589975,0.000156122,-0.000525372,0.000336833,0.000456401,0.626242,-0.547993,-0.0537024,-0.28476,0.657881,0.659352,0.377344,1
2.71274,-1.6635,1.76824,0.974847,1.49411,-1.35477,-2.81605,2.71274,-1.6635,1.76824,0.97485,1.49411,-1.35477,-2.81605,2.65011,-1.6087,1.77361,1.00332,1.42832,-1.42071,-2.85378,0,0,0,0,0,0,0,0,0,0,0,0,0,0,0.700013,9.197e-05,0.554337,-0.382527,6.83308e-05,0.000136432,0.923944,0,0,0,0.702554,-0.00546632,0.532713,0.0036572,-0.00230403,-0.00486842,-0.00043852,0.00027939,0.000221814,0.626254,-0.547998,-0.0537054,-0.28476,0.657881,0.659351,0.377333,1
2.71274,-1.6635,1.76825,0.974846,1.49411,-1.35477,-2.81605,2.71274,-1.6635,1.76824,0.974849,1.49411,-1.35477,-2.81605,2.65011,-1.6087,1.77361,1.00332,1.42832,-1.42071,-2.85378,0,0,0,0,0,0,0,0,0,0,0,0,0,0,0.700013,9.197e-05,0.554337,-0.382527,6.83308e-05,0.000136432,0.923944,0,0,0,0.702541,-0.00545185,0.53275,-0.00146547,0.00158159,0.00401864,-0.000130279,0.00029479,-1.95844e-05,0.626257,-0.547991,-0.0536269,-0.284773,0.657895,0.659339,0.377328,1
2.71274,-1.6635,1.76825,0.974849,1.49411,-1.35477,-2.81605,2.71274,-1.6635,1.76824,0.974848,1.49411,-1.35477,-2.81605,2.65011,-1.6087,1.77361,1.00332,1.42832,-1.42071,-2.85378,0,0,0,0,0,0,0,0,0,0,0,0,0,0,0.700013,9.197e-05,0.554337,-0.382527,6.83308e-05,0.000136432,0.923944,0,0,0,0.70253,-0.00545589,0.532757,-0.000999081,-0.000383519,0.000615253,0.000183923,5.62519e-05,-0.000229904,0.62628,-0.547992,-0.053617,-0.284745,0.657896,0.659351,0.377302,1
2.71274,-1.6635,1.76825,0.974852,1.49411,-1.35477,-2.81605,2.71274,-1.6635,1.76824,0.974847,1.49411,-1.35477,-2.81605,2.65011,-1.6087,1.77361,1.00332,1.42832,-1.42071,-2.85378,0,0,0,0,0,0,0,0,0,0,0,0,0,0,0.700013,9.197e-05,0.554337,-0.382527,6.83308e-05,0.000136432,0.923944,0,0,0,0.702531,-0.0054596,0.532765,8.99789e-05,-0.000349107,0.000837928,0.000190735,-4.22222e-05,3.5337e-05,0.626282,-0.547995,-0.0536475,-0.284719,0.657888,0.659361,0.37729,1
2.71274,-1.6635,1.76824,0.974854,1.49411,-1.35477,-2.81606,2.71274,-1.6635,1.76824,0.974848,1.49411,-1.35477,-2.81605,2.65011,-1.6087,1.77361,1.00332,1.42832,-1.42071,-2.85378,0,0,0,0,0,0,0,0,0,0,0,0,0,0,0.700013,9.197e-05,0.554337,-0.382527,6.83308e-05,0.000136432,0.923944,0,0,0,0.702553,-0.00547366,0.532722,0.00248758,-0.00161748,-0.00494775,0.000245231,-0.000345361,-0.000238844,0.626306,-0.548008,-0.053717,-0.284692,0.657875,0.659385,0.377261,1
2.71274,-1.6635,1.76824,0.974852,1.49411,-1.35477,-2.81605,2.71274,-1.6635,1.76825,0.974849,1.49411,-1.35477,-2.81605,2.65011,-1.6087,1.77361,1.00332,1.42832,-1.42071,-2.85378,0,0,0,0,0,0,0,0,0,0,0,0,0,0,0.700013,9.197e-05,0.554337,-0.382527,6.83308e-05,0.000136432,0.923944,0,0,0,0.702536,-0.00544362,0.532763,-0.00142124,0.00248759,0.00336064,0.000154972,-8.71718e-05,0.000122615,0.626277,-0.547997,-0.0536699,-0.284718,0.657879,0.659369,0.377291,1
2.71274,-1.6635,1.76824,0.97485,1.49411,-1.35477,-2.81605,2.71274,-1.6635,1.76824,0.974851,1.49411,-1.35477,-2.81605,2.65011,-1.6087,1.77361,1.00332,1.42832,-1.42071,-2.85378,0,0,0,0,0,0,0,0,0,0,0,0,0,0,0.700013,9.197e-05,0.554337,-0.382527,6.83308e-05,0.000136432,0.923944,0,0,0,0.702537,-0.00545012,0.532756,0.00011801,-0.000714972,-0.00075395,-0.000143051,0.000168889,0.000429579,0.626258,-0.547992,-0.0536657,-0.284737,0.657879,0.65936,0.377322,1
2.71274,-1.6635,1.76825,0.974849,1.49411,-1.35477,-2.81605,2.71274,-1.6635,1.76824,0.974852,1.49411,-1.35477,-2.81605,2.65011,-1.6087,1.77361,1.00332,1.42832,-1.42071,-2.85378,0,0,0,0,0,0,0,0,0,0,0,0,0,0,0.700013,9.197e-05,0.554337,-0.382527,6.83308e-05,0.000136432,0.923944,0,0,0,0.702532,-0.00544818,0.53276,-0.000597597,0.000237251,0.000495569,-3.23568e-05,0.000137623,9.70704e-05,0.626265,-0.547992,-0.0536338,-0.284749,0.657891,0.659352,0.377312,1
2.71274,-1.6635,1.76825,0.974849,1.49411,-1.35477,-2.81605,2.71274,-1.6635,1.76824,0.974851,1.49411,-1.35477,-2.81605,2.65011,-1.6087,1.77361,1.00332,1.42832,-1.42071,-2.85378,0,0,0,0,0,0,0,0,0,0,0,0,0,0,0.700013,9.197e-05,0.554337,-0.382527,6.83308e-05,0.000136432,0.923944,0,0,0,0.702531,-0.00545524,0.532758,-6.10436e-05,-0.000657129,-0.000183131,-4.25747e-05,0.000172707,0.000100476,0.626264,-0.547992,-0.0536383,-0.284747,0.657892,0.659349,0.377314,1
2.71274,-1.6635,1.76825,0.974849,1.49411,-1.35477,-2.81605,2.71274,-1.6635,1.76824,0.97485,1.49411,-1.35477,-2.81605,2.65011,-1.6087,1.77361,1.00332,1.42832,-1.42071,-2.85378,0,0,0,0,0,0,0,0,0,0,0,0,0,0,0.700013,9.197e-05,0.554337,-0.382527,6.83308e-05,0.000136432,0.923944,0,0,0,0.702536,-0.00544962,0.532766,0.000407587,0.000526234,0.000764923,-0.000120912,0.00022224,0.000255874,0.626257,-0.547991,-0.0536392,-0.28475,0.657892,0.659347,0.377319,1
2.71274,-1.6635,1.76824,0.974852,1.49411,-1.35477,-2.81605,2.71274,-1.6635,1.76825,0.974849,1.49411,-1.35477,-2.81605,2.65011,-1.6087,1.77361,1.00332,1.42832,-1.42071,-2.85378,0,0,0,0,0,0,0,0,0,0,0,0,0,0,0.700013,9.197e-05,0.554337,-0.382527,6.83308e-05,0.000136432,0.923944,0,0,0,0.702528,-0.00546505,0.532751,-0.000802711,-0.00171768,-0.00168503,-0.000284399,3.11461e-05,0.000341024,0.626269,-0.548,-0.0537365,-0.284716,0.657873,0.659371,0.377308,1
2.71274,-1.6635,1.76823,0.974854,1.49411,-1.35477,-2.81605,2.71274,-1.6635,1.76824,0.974849,1.49411,-1.35477,-2.81605,2.65011,-1.6087,1.77361,1.00332,1.42832,-1.42071,-2.85378,0,0,0,0,0,0,0,0,0,0,0,0,0,0,0.700013,9.197e-05,0.554337,-0.382527,6.83308e-05,0.000136432,0.923944,0,0,0,0.702537,-0.00546047,0.532763,0.000767488,0.000437309,0.00109722,-3.83173e-05,-0.000292316,-1.53269e-05,0.626292,-0.548005,-0.0537673,-0.284692,0.657864,0.659392,0.377278,1
2.71274,-1.6635,1.76824,0.974853,1.49411,-1.35477,-2.81605,2.71274,-1.6635,1.76824,0.97485,1.49411,-1.35477,-2.81605,2.65011,-1.6087,1.77361,1.00332,1.42832,-1.42071,-2.85378,0,0,0,0,0,0,0,0,0,0,0,0,0,0,0.700013,9.197e-05,0.554337,-0.382527,6.83308e-05,0.000136432,0.923944,0,0,0,0.702543,-0.00546007,0.532749,0.000593001,3.88056e-05,-0.00134453,8.2595e-05,-0.000229485,-8.17435e-05,0.626289,-0.548002,-0.0537387,-0.284703,0.657864,0.659387,0.377286,1
2.71274,-1.6635,1.76824,0.974852,1.49411,-1.35477,-2.81605,2.71274,-1.6635,1.76824,0.974851,1.49411,-1.35477,-2.81605,2.65011,-1.6087,1.77361,1.00332,1.42832,-1.42071,-2.85378,0,0,0,0,0,0,0,0,0,0,0,0,0,0,0.700013,9.197e-05,0.554337,-0.382527,6.83308e-05,0.000136432,0.923944,0,0,0,0.702529,-0.00545364,0.532758,-0.00149654,0.000711081,0.000949345,5.19412e-05,-0.000131842,-0.00010516,0.626282,-0.547999,-0.0537163,-0.284715,0.65787,0.659379,0.377295,1
2.71274,-1.6635,1.76824,0.974851,1.49411,-1.35477,-2.81605,2.71274,-1.6635,1.76824,0.974853,1.49411,-1.35477,-2.81605,2.65011,-1.6087,1.77361,1.00332,1.42832,-1.42071,-2.85378,0,0,0,0,0,0,0,0,0,0,0,0,0,0,0.700013,9.197e-05,0.554337,-0.382527,6.83308e-05,0.000136432,0.923944,0,0,0,0.702533,-0.0054604,0.532761,0.000365134,-0.000600039,0.000280465,2.21389e-05,-6.63235e-05,-4.17233e-05,0.626278,-0.547998,-0.0537004,-0.28472,0.657874,0.659374,0.377298,1
2.71274,-1.6635,1.76824,0.97485,1.49411,-1.35477,-2.81605,2.71274,-1.6635,1.76824,0.974853,1.49411,-1.35477,-2.81605,2.65011,-1.6087,1.77361,1.00332,1.42832,-1.42071,-2.85378,0,0,0,0,0,0,0,0,0,0,0,0,0,0,0.700013,9.197e-05,0.554337,-0.382527,6.83308e-05,0.000136432,0.923944,0,0,0,0.702529,-0.00545008,0.532772,-0.000374643,0.000998253,0.00107206,-6.21591e-05,5.26463e-05,0.000110269,0.626267,-0.547995,-0.0536848,-0.28473,0.657879,0.659365,0.377309,1
2.71274,-1.6635,1.76824,0.974849,1.49411,-1.35477,-2.81605,2.71274,-1.6635,1.76824,0.974852,1.49411,-1.35477,-2.81605,2.65011,-1.6087,1.77361,1.00332,1.42832,-1.42071,-2.85378,0,0,0,0,0,0,0,0,0,0,0,0,0,0,0.700013,9.197e-05,0.554337,-0.382527,6.83308e-05,0.000136432,0.923944,0,0,0,0.702526,-0.00545602,0.532764,-0.000382073,-0.0006345,-0.000821457,-0.000116655,0.0001698,0.000247359,0.62626,-0.547992,-0.0536614,-0.284742,0.657883,0.659356,0.377319,1
2.71274,-1.6635,1.76824,0.974849,1.49411,-1.35477,-2.81605,2.71274,-1.6635,1.76824,0.974851,1.49411,-1.35477,-2.81605,2.65011,-1.6087,1.77361,1.00332,1.42832,-1.42071,-2.85378,0,0,0,0,0,0,0,0,0,0,0,0,0,0,0.700013,9.197e-05,0.554337,-0.382527,6.83308e-05,0.000136432,0.923944,0,0,0,0.702537,-0.00545502,0.532743,0.00122622,0.000109251,-0.00236764,-0.000115803,0.000100057,-5.61987e-05,0.626269,-0.547998,-0.0536774,-0.284744,0.657887,0.659356,0.37731,1
2.71274,-1.6635,1.76824,0.974852,1.49411,-1.35477,-2.81605,2.71274,-1.6635,1.76824,0.97485,1.49411,-1.35477,-2.81605,2.65011,-1.6087,1.77361,1.00332,1.42832,-1.42071,-2.85378,0,0,0,0,0,0,0,0,0,0,0,0,0,0,0.700013,9.197e-05,0.554337,-0.382527,6.83308e-05,0.000136432,0.923944,0,0,0,0.702565,-0.00547998,0.532728,0.00244231,-0.00220397,-0.00126326,0.000263963,-0.000207439,-0.000318885,0.6263,-0.548001,-0.0536663,-0.284717,0.657883,0.659372,0.377275,1
2.71274,-1.6635,1.76824,0.974852,1.49411,-1.35477,-2.81606,2.71274,-1.6635,1.76824,0.97485,1.49411,-1.35477,-2.81605,2.65011,-1.6087,1.77361,1.00332,1.42832,-1.42071,-2.85378,0,0,0,0,0,0,0,0,0,0,0,0,0,0,0.700013,9.197e-05,0.554337,-0.382527,6.83308e-05,0.000136432,0.923944,0,0,0,0.702558,-0.00547159,0.532719,-0.000707792,0.000930321,-0.00103192,0.00056369,-0.000349798,-0.000751444,0.626313,-0.548005,-0.0536556,-0.28471,0.657888,0.659372,0.377255,1
2.71274,-1.6635,1.76824,0.974855,1.49411,-1.35477,-2.81606,2.71274,-1.6635,1.76824,0.97485,1.49411,-1.35477,-2.81605,2.65011,-1.6087,1.77361,1.00332,1.42832,-1.42071,-2.85378,0,0,0,0,0,0,0,0,0,0,0,0,0,0,0.700013,9.197e-05,0.554337,-0.382527,6.83308e-05,0.000136432,0.923944,0,0,0,0.702528,-0.0054712,0.53276,-0.00292176,3.70815e-05,0.00391084,0.000286102,-0.000355,-0.000514729,0.626302,-0.548008,-0.0537357,-0.284687,0.657875,0.659385,0.37726,1
2.71275,-1.6635,1.76824,0.974855,1.49411,-1.35477,-2.81606,2.71274,-1.6635,1.76824,0.974851,1.49411,-1.35477,-2.81605,2.65011,-1.6087,1.77361,1.00332,1.42832,-1.42071,-2.85378,0,0,0,0,0,0,0,0,0,0,0,0,0,0,0.700013,9.197e-05,0.554337,-0.382527,6.83308e-05,0.000136432,0.923944,0,0,0,0.702564,-0.00548697,0.532718,0.00355363,-0.00153097,-0.00403979,0.00046151,-0.000562971,-0.000688434,0.626322,-0.548013,-0.0537389,-0.284679,0.65787,0.659398,0.377239,1
2.71274,-1.6635,1.76824,0.974851,1.49411,-1.35477,-2.81605,2.71274,-1.6635,1.76824,0.974853,1.49411,-1.35477,-2.81605,2.65011,-1.6087,1.77361,1.00332,1.42832,-1.42071,-2.85378,0,0,0,0,0,0,0,0,0,0,0,0,0,0,0.700013,9.197e-05,0.554337,-0.382527,6.83308e-05,0.000136432,0.923944,0,0,0,0.702535,-0.0054458,0.532758,-0.00300595,0.0043078,0.0041784,0.00016519,-8.74379e-05,-0.000123041,0.626276,-0.547999,-0.0536893,-0.28472,0.657877,0.65937,0.377294,1
2.71274,-1.6635,1.76824,0.97485,1.49411,-1.35477,-2.81605,2.71274,-1.6635,1.76824,0.974854,1.49411,-1.35477,-2.81606,2.65011,-1.6087,1.77361,1.00332,1.42832,-1.42071,-2.85378,0,0,0,0,0,0,0,0,0,0,0,0,0,0,0.700013,9.197e-05,0.554337,-0.382527,6.83308e-05,0.000136432,0.923944,0,0,0,0.70254,-0.00545758,0.532754,0.000440853,-0.00116142,-0.000429097,-0.000154121,0.000161784,0.000334212,0.626259,-0.547993,-0.0536714,-0.284739,0.657879,0.659361,0.377322,1
2.71274,-1.6635,1.76825,0.974846,1.49411,-1.35477,-2.81605,2.71274,-1.6635,1.76824,0.974853,1.49411,-1.35477,-2.81605,2.65011,-1.6087,1.77361,1.00332,1.42832,-1.42071,-2.85378,0,0,0,0,0,0,0,0,0,0,0,0,0,0,0.700013,9.197e-05,0.554337,-0.382527,6.83308e-05,0.000136432,0.923944,0,0,0,0.702557,-0.00546742,0.532716,0.00176268,-0.000993949,-0.00382615,-0.000181368,0.000325338,0.000112397,0.626254,-0.547994,-0.0536291,-0.284771,0.657895,0.659339,0.377327,1
2.71274,-1.6635,1.76824,0.97485,1.49411,-1.35477,-2.81605,2.71274,-1.6635,1.76824,0.974852,1.49411,-1.35477,-2.81605,2.65011,-1.6087,1.77361,1.00332,1.42832,-1.42071,-2.85378,0,0,0,0,0,0,0,0,0,0,0,0,0,0,0.700013,9.197e-05,0.554337,-0.382527,6.83308e-05,0.000136432,0.923944,0,0,0,0.70252,-0.00546605,0.532764,-0.0037117,0.000138278,0.00486485,-0.000277587,0.00019136,0.0002993,0.626259,-0.547994,-0.0536899,-0.284737,0.657882,0.659357,0.377322,1
2.71274,-1.6635,1.76825,0.974845,1.49411,-1.35477,-2.81605,2.71274,-1.6635,1.76824,0.97485,1.49411,-1.35477,-2.81605,2.65011,-1.6087,1.77361,1.00332,1.42832,-1.42071,-2.85378,0,0,0,0,0,0,0,0,0,0,0,0,0,0,0.700013,9.197e-05,0.554337,-0.382527,6.83308e-05,0.000136432,0.923944,0,0,0,0.702528,-0.00543726,0.53276,0.000802318,0.00289245,-0.000443071,-0.000223092,0.000435906,0.000176259,0.62624,-0.54799,-0.0536117,-0.284784,0.657903,0.659327,0.377336,1
2.71274,-1.6635,1.76824,0.974849,1.49411,-1.35477,-2.81605,2.71274,-1.6635,1.76824,0.974848,1.49411,-1.35477,-2.81605,2.65011,-1.6087,1.77361,1.00332,1.42832,-1.42071,-2.85378,0,0,0,0,0,0,0,0,0,0,0,0,0,0,0.700013,9.197e-05,0.554337,-0.382527,6.83308e-05,0.000136432,0.923944,0,0,0,0.702527,-0.00545675,0.532767,-0.000170623,-0.00199315,0.00073124,-0.00051856,0.000354501,0.000571353,0.626244,-0.547991,-0.0536975,-0.284749,0.657881,0.659351,0.377344,1
2.71274,-1.6635,1.76824,0.974852,1.49411,-1.35477,-2.81605,2.71274,-1.6635,1.76824,0.974848,1.49411,-1.35477,-2.81605,2.65011,-1.6087,1.77361,1.00332,1.42832,-1.42071,-2.85378,0,0,0,0,0,0,0,0,0,0,0,0,0,0,0.700013,9.197e-05,0.554337,-0.382527,6.83308e-05,0.000136432,0.923944,0,0,0,0.702558,-0.00547327,0.532721,0.00324783,-0.00170726,-0.00478855,4.76837e-05,-0.00018067,-0.000152418,0.626295,-0.548004,-0.0537031,-0.284719,0.657879,0.659374,0.37728,1
2.71274,-1.6635,1.76824,0.974852,1.49411,-1.35477,-2.81605,2.71274,-1.6635,1.76824,0.974848,1.49411,-1.35477,-2.81605,2.65011,-1.6087,1.77361,1.00332,1.42832,-1.42071,-2.85378,0,0,0,0,0,0,0,0,0,0,0,0,0,0,0.700013,9.197e-05,0.554337,-0.382527,6.83308e-05,0.000136432,0.923944,0,0,0,0.702559,-0.00547835,0.5327,8.38427e-05,-0.000446888,-0.00182882,0.000235013,-0.000231068,-0.00053559,0.6263,-0.548008,-0.0537098,-0.284715,0.657879,0.659372,0.377273,1
2.71274,-1.6635,1.76824,0.974851,1.49411,-1.35477,-2.81605,2.71274,-1.6635,1.76824,0.974849,1.49411,-1.35477,-2.81605,2.65011,-1.6087,1.77361,1.00332,1.42832,-1.42071,-2.85378,0,0,0,0,0,0,0,0,0,0,0,0,0,0,0.700013,9.197e-05,0.554337,-0.382527,6.83308e-05,0.000136432,0.923944,0,0,0,0.70253,-0.005453,0.532756,-0.00335046,0.00291367,0.00644741,9.02585e-05,-6.1913e-05,-0.00017115,0.626279,-0.548,-0.0536911,-0.284725,0.657881,0.659367,0.377294,1
2.71274,-1.6635,1.76825,0.97485,1.49411,-1.35477,-2.81605,2.71274,-1.6635,1.76824,0.97485,1.49411,-1.35477,-2.81605,2.65011,-1.6087,1.77361,1.00332,1.42832,-1.42071,-2.85378,0,0,0,0,0,0,0,0,0,0,0,0,0,0,0.700013,9.197e-05,0.554337,-0.382527,6.83308e-05,0.000136432,0.923944,0,0,0,0.702531,-0.00545012,0.532765,9.03444e-05,0.000290937,0.000903444,0.00023927,-1.89058e-05,-0.000260132,0.626279,-0.547994,-0.0536309,-0.284738,0.657891,0.659359,0.377295,1
2.71274,-1.6635,1.76824,0.974852,1.49411,-1.35477,-2.81605,2.71274,-1.6635,1.76824,0.974851,1.49411,-1.35477,-2.81605,2.65011,-1.6087,1.77361,1.00332,1.42832,-1.42071,-2.85378,0,0,0,0,0,0,0,0,0,0,0,0,0,0,0.700013,9.197e-05,0.554337,-0.382527,6.83308e-05,0.000136432,0.923944,0,0,0,0.702557,-0.00546435,0.532726,0.0024413,-0.00132752,-0.00361468,0.000235013,-0.000170545,-0.000249914,0.626295,-0.548001,-0.0536689,-0.284716,0.657884,0.65937,0.377282,1
2.71274,-1.6635,1.76824,0.97485,1.49411,-1.35477,-2.81605,2.71274,-1.6635,1.76824,0.974851,1.49411,-1.35477,-2.81605,2.65011,-1.6087,1.77361,1.00332,1.42832,-1.42071,-2.85378,0,0,0,0,0,0,0,0,0,0,0,0,0,0,0.700013,9.197e-05,0.554337,-0.382527,6.83308e-05,0.000136432,0.923944,0,0,0,0.702554,-0.00547358,0.532721,-0.000325227,-0.000932205,-0.000499886,0.00018222,-1.57726e-05,-0.00021926,0.626281,-0.548001,-0.0536503,-0.284734,0.657891,0.659356,0.377287,1
2.71274,-1.6635,1.76824,0.97485,1.49411,-1.35477,-2.81605,2.71274,-1.6635,1.76824,0.974851,1.49411,-1.35477,-2.81605,2.65011,-1.6087,1.77361,1.00332,1.42832,-1.42071,-2.85378,0,0,0,0,0,0,0,0,0,0,0,0,0,0,0.700013,9.197e-05,0.554337,-0.382527,6.83308e-05,0.000136432,0.923944,0,0,0,0.702519,-0.00545133,0.532755,-0.00348761,0.00223285,0.00339788,-0.000360182,0.000228567,0.000414678,0.626251,-0.547997,-0.0537122,-0.284737,0.657879,0.659356,0.377326,1
2.71274,-1.6635,1.76824,0.974847,1.49411,-1.35477,-2.81605,2.71274,-1.6635,1.76824,0.974851,1.49411,-1.35477,-2.81605,2.65011,-1.6087,1.77361,1.00332,1.42832,-1.42071,-2.85378,0,0,0,0,0,0,0,0,0,0,0,0,0,0,0.700013,9.197e-05,0.554337,-0.382527,6.83308e-05,0.000136432,0.923944,0,0,0,0.702524,-0.00543951,0.532753,0.000500485,0.00115423,-0.000226964,-0.0003704,0.000344337,0.00040446,0.626243,-0.547992,-0.053661,-0.284767,0.657889,0.659344,0.377336,1
2.71274,-1.6635,1.76824,0.97485,1.49411,-1.35477,-2.81605,2.71274,-1.6635,1.76824,0.97485,1.49411,-1.35477,-2.81605,2.65011,-1.6087,1.77361,1.00332,1.42832,-1.42071,-2.85378,0,0,0,0,0,0,0,0,0,0,0,0,0,0,0.700013,9.197e-05,0.554337,-0.382527,6.83308e-05,0.000136432,0.923944,0,0,0,0.702534,-0.00545963,0.53277,0.000968078,-0.0020814,0.00172651,-0.000144754,5.13425e-05,0.000161358,0.626271,-0.547993,-0.0536897,-0.284729,0.657878,0.659367,0.377313,1
2.71274,-1.6635,1.76824,0.97485,1.49411,-1.35477,-2.81605,2.71274,-1.6635,1.76824,0.974849,1.49411,-1.35477,-2.81605,2.65011,-1.6087,1.77361,1.00332,1.42832,-1.42071,-2.85378,0,0,0,0,0,0,0,0,0,0,0,0,0,0,0.700013,9.197e-05,0.554337,-0.382527,6.83308e-05,0.000136432,0.923944,0,0,0,0.702525,-0.00544795,0.532764,-0.000808416,0.00110755,-0.00053706,-0.000337192,0.000178694,0.000409569,0.626254,-0.547996,-0.0537194,-0.284734,0.657876,0.65936,0.377322,1
2.71274,-1.6635,1.76824,0.974848,1.49411,-1.35477,-2.81605,2.71274,-1.6635,1.76824,0.974849,1.49411,-1.35477,-2.81605,2.65011,-1.6087,1.77361,1.00332,1.42832,-1.42071,-2.85378,0,0,0,0,0,0,0,0,0,0,0,0,0,0,0.700013,9.197e-05,0.554337,-0.382527,6.83308e-05,0.000136432,0.923944,0,0,0,0.702531,-0.00544504,0.532756,0.000620302,0.000303076,-0.000837408,-0.000432559,0.000360342,0.00067183,0.626241,-0.54799,-0.0536745,-0.284758,0.657879,0.659351,0.377344,1
2.71274,-1.6635,1.76825,0.974847,1.49411,-1.35477,-2.81605,2.71274,-1.6635,1.76824,0.974849,1.49411,-1.35477,-2.81605,2.65011,-1.6087,1.77361,1.00332,1.42832,-1.42071,-2.85378,0,0,0,0,0,0,0,0,0,0,0,0,0,0,0.700013,9.197e-05,0.554337,-0.382527,6.83308e-05,0.000136432,0.923944,0,0,0,0.702529,-0.00544459,0.532755,-0.000155205,4.34269e-05,-0.00010347,-0.000173705,0.000325384,0.000403183,0.626252,-0.547986,-0.0536134,-0.284767,0.65789,0.659344,0.377337,1
2.71274,-1.6635,1.76825,0.974847,1.49411,-1.35477,-2.81605,2.71274,-1.6635,1.76824,0.974849,1.49411,-1.35477,-2.81605,2.65011,-1.6087,1.77361,1.00332,1.42832,-1.42071,-2.85378,0,0,0,0,0,0,0,0,0,0,0,0,0,0,0.700013,9.197e-05,0.554337,-0.382527,6.83308e-05,0.000136432,0.923944,0,0,0,0.702536,-0.00543812,0.532753,0.000600355,0.000614691,-0.00019823,0.000206913,0.000157374,-6.21591e-05,0.626273,-0.547987,-0.0535644,-0.284761,0.657904,0.659339,0.37731,1
2.71274,-1.6635,1.76825,0.974851,1.49411,-1.35477,-2.81605,2.71274,-1.6635,1.76824,0.974848,1.49411,-1.35477,-2.81605,2.65011,-1.6087,1.77361,1.00332,1.42832,-1.42071,-2.85378,0,0,0,0,0,0,0,0,0,0,0,0,0,0,0.700013,9.197e-05,0.554337,-0.382527,6.83308e-05,0.000136432,0.923944,0,0,0,0.702534,-0.00545565,0.532752,-0.000205767,-0.00195204,-3.31882e-05,0.000133685,-7.28427e-06,-0.000158378,0.626282,-0.547997,-0.0536455,-0.284728,0.657895,0.659354,0.377291,1
2.71274,-1.6635,1.76824,0.974851,1.49411,-1.35477,-2.81605,2.71274,-1.6635,1.76825,0.974848,1.49411,-1.35477,-2.81605,2.65011,-1.6087,1.77361,1.00332,1.42832,-1.42071,-2.85378,0,0,0,0,0,0,0,0,0,0,0,0,0,0,0.700013,9.197e-05,0.554337,-0.382527,6.83308e-05,0.000136432,0.923944,0,0,0,0.70254,-0.00546293,0.532759,0.000602738,-0.00066969,0.000652053,0.000154121,-6.56915e-05,-0.000201379,0.626282,-0.548,-0.0536618,-0.284725,0.657892,0.659359,0.377281,1
2.71274,-1.6635,1.76824,0.974854,1.49411,-1.35477,-2.81605,2.71274,-1.6635,1.76825,0.974848,1.49411,-1.35477,-2.81605,2.65011,-1.6087,1.77361,1.00332,1.42832,-1.42071,-2.85378,0,0,0,0,0,0,0,0,0,0,0,0,0,0,0.700013,9.197e-05,0.554337,-0.382527,6.83308e-05,0.000136432,0.923944,0,0,0,0.702529,-0.00545612,0.532763,-0.00133795,0.000780062,0.000389098,0.000124318,-0.00025487,6.81196e-06,0.626292,-0.548001,-0.0537209,-0.284694,0.657872,0.659384,0.377278,1
2.71274,-1.6635,1.76823,0.974855,1.49411,-1.35477,-2.81605,2.71274,-1.6635,1.76825,0.97485,1.49411,-1.35477,-2.81605,2.65011,-1.6087,1.77361,1.00332,1.42832,-1.42071,-2.85378,0,0,0,0,0,0,0,0,0,0,0,0,0,0,0.700013,9.197e-05,0.554337,-0.382527,6.83308e-05,0.000136432,0.923944,0,0,0,0.702525,-0.00545679,0.532765,-0.000318021,-6.51853e-05,0.000242853,-4.76837e-05,-0.000296952,0.000184349,0.626288,-0.548005,-0.0537833,-0.284681,0.657858,0.659397,0.37728,1
2.71274,-1.6635,1.76824,0.974854,1.49411,-1.35477,-2.81605,2.71274,-1.6635,1.76824,0.974852,1.49411,-1.35477,-2.81605,2.65011,-1.6087,1.77361,1.00332,1.42832,-1.42071,-2.85378,0,0,0,0,0,0,0,0,0,0,0,0,0,0,0.700013,9.197e-05,0.554337,-0.382527,6.83308e-05,0.000136432,0.923944,0,0,0,0.70256,-0.00546843,0.532713,0.00357211,-0.00121282,-0.00543583,0.00023331,-0.000390524,-0.000317182,0.626305,-0.548008,-0.0537357,-0.284698,0.657865,0.659394,0.377266,1
2.71274,-1.6635,1.76824,0.974852,1.49411,-1.35477,-2.81605,2.71274,-1.6635,1.76824,0.974853,1.49411,-1.35477,-2.81605,2.65011,-1.6087,1.77361,1.00332,1.42832,-1.42071,-2.85378,0,0,0,0,0,0,0,0,0,0,0,0,0,0,0.700013,9.197e-05,0.554337,-0.382527,6.83308e-05,0.000136432,0.923944,0,0,0,0.702532,-0.00544684,0.532756,-0.00270879,0.00209242,0.00417004,8.85555e-05,-0.000162769,-0.000220111,0.626284,-0.548001,-0.0537214,-0.284713,0.65787,0.659379,0.377293,1
2.71274,-1.6635,1.76825,0.974849,1.49411,-1.35477,-2.81605,2.71274,-1.6635,1.76824,0.974854,1.49411,-1.35477,-2.81605,2.65011,-1.6087,1.77361,1.00332,1.42832,-1.42071,-2.85378,0,0,0,0,0,0,0,0,0,0,0,0,0,0,0.700013,9.197e-05,0.554337,-0.382527,6.83308e-05,0.000136432,0.923944,0,0,0,0.702566,-0.00547088,0.53271,0.0035489,-0.00249808,-0.00483096,0.000392539,-9.21544e-05,-0.000656928,0.626294,-0.548,-0.0536145,-0.284748,0.657895,0.659357,0.377282,1
2.71274,-1.6635,1.76824,0.974851,1.49411,-1.35477,-2.81605,2.71274,-1.6635,1.76824,0.974853,1.49411,-1.35477,-2.81605,2.65011,-1.6087,1.77361,1.00332,1.42832,-1.42071,-2.85378,0,0,0,0,0,0,0,0,0,0,0,0,0,0,0.700013,9.197e-05,0.554337,-0.382527,6.83308e-05,0.000136432,0.923944,0,0,0,0.702532,-0.00546278,0.532759,-0.0030684,0.000739302,0.00453731,0.000200101,-6.81795e-05,-0.000412124,0.626285,-0.547999,-0.0536665,-0.284724,0.657889,0.659361,0.37729,1
2.71274,-1.6635,1.76824,0.974851,1.49411,-1.35477,-2.81605,2.71274,-1.6635,1.76824,0.974852,1.49411,-1.35477,-2.81605,2.65011,-1.6087,1.77361,1.00332,1.42832,-1.42071,-2.85378,0,0,0,0,0,0,0,0,0,0,0,0,0,0,0.700013,9.197e-05,0.554337,-0.382527,6.83308e-05,0.000136432,0.923944,0,0,0,0.702521,-0.00545256,0.532772,-0.00116343,0.00105518,0.00132348,-1.10694e-05,-1.33246e-05,4.59807e-05,0.626272,-0.547999,-0.0536925,-0.284721,0.657884,0.659365,0.377294,1
2.71274,-1.6635,1.76824,0.97485,1.49411,-1.35477,-2.81605,2.71274,-1.6635,1.76824,0.974851,1.49411,-1.35477,-2.81605,2.65011,-1.6087,1.77361,1.00332,1.42832,-1.42071,-2.85378,0,0,0,0,0,0,0,0,0,0,0,0,0,0,0.700013,9.197e-05,0.554337,-0.382527,6.83308e-05,0.000136432,0.923944,0,0,0,0.702556,-0.0054656,0.532721,0.00347194,-0.00129859,-0.00505657,5.27927e-05,-3.79447e-05,-3.61885e-05,0.62628,-0.548,-0.0536763,-0.28473,0.657882,0.659365,0.377295,1
2.71274,-1.6635,1.76824,0.974851,1.49411,-1.35477,-2.81605,2.71274,-1.6635,1.76824,0.974851,1.49411,-1.35477,-2.81605,2.65011,-1.6087,1.77361,1.00332,1.42832,-1.42071,-2.85378,0,0,0,0,0,0,0,0,0,0,0,0,0,0,0.700013,9.197e-05,0.554337,-0.382527,6.83308e-05,0.000136432,0.923944,0,0,0,0.702529,-0.00545269,0.532759,-0.00292984,0.00139519,0.00405669,-0.000320162,0.000100051,0.000467045,0.626259,-0.547997,-0.0537342,-0.284722,0.65787,0.659369,0.37732,1
2.71274,-1.6635,1.76824,0.974849,1.49411,-1.35477,-2.81605,2.71274,-1.6635,1.76824,0.974851,1.49411,-1.35477,-2.81605,2.65011,-1.6087,1.77361,1.00332,1.42832,-1.42071,-2.85378,0,0,0,0,0,0,0,0,0,0,0,0,0,0,0.700013,9.197e-05,0.554337,-0.382527,6.83308e-05,0.000136432,0.923944,0,0,0,0.702528,-0.0054455,0.532753,-3.53151e-05,0.000608319,-0.000514592,-0.000217131,0.00013415,0.000180943,0.62626,-0.547996,-0.053689,-0.284746,0.657881,0.65936,0.377317,1
2.71274,-1.6635,1.76824,0.97485,1.49411,-1.35477,-2.81605,2.71274,-1.6635,1.76824,0.974851,1.49411,-1.35477,-2.81605,2.65011,-1.6087,1.77361,1.00332,1.42832,-1.42071,-2.85378,0,0,0,0,0,0,0,0,0,0,0,0,0,0,0.700013,9.197e-05,0.554337,-0.382527,6.83308e-05,0.000136432,0.923944,0,0,0,0.702561,-0.00548033,0.53272,0.00384721,-0.00413225,-0.00386843,-5.36442e-05,2.16865e-05,1.91586e-05,0.626278,-0.547998,-0.0536865,-0.284732,0.657877,0.659366,0.377306,1
2.71274,-1.6635,1.76825,0.97485,1.49411,-1.35477,-2.81605,2.71274,-1.6635,1.76824,0.97485,1.49411,-1.35477,-2.81605,2.65011,-1.6087,1.77361,1.00332,1.42832,-1.42071,-2.85378,0,0,0,0,0,0,0,0,0,0,0,0,0,0,0.700013,9.197e-05,0.554337,-0.382527,6.83308e-05,0.000136432,0.923944,0,0,0,0.702531,-0.00545312,0.532758,-0.00294107,0.00272333,0.00380013,0.000177111,-2.30569e-05,-0.000269924,0.62628,-0.547996,-0.0536481,-0.284737,0.65789,0.659358,0.377294,1
2.71274,-1.6635,1.76824,0.974854,1.49411,-1.35477,-2.81605,2.71274,-1.6635,1.76824,0.97485,1.49411,-1.35477,-2.81605,2.65011,-1.6087,1.77361,1.00332,1.42832,-1.42071,-2.85378,0,0,0,0,0,0,0,0,0,0,0,0,0,0,0.700013,9.197e-05,0.554337,-0.382527,6.83308e-05,0.000136432,0.923944,0,0,0,0.702557,-0.00548113,0.532736,0.00238259,-0.00256821,-0.00200006,0.000327826,-0.000315645,-0.000258429,0.626307,-0.548002,-0.0536892,-0.284695,0.657875,0.659384,0.377267,1
2.71274,-1.6635,1.76824,0.974851,1.49411,-1.35477,-2.81605,2.71274,-1.6635,1.76824,0.97485,1.49411,-1.35477,-2.81605,2.65011,-1.6087,1.77361,1.00332,1.42832,-1.42071,-2.85378,0,0,0,0,0,0,0,0,0,0,0,0,0,0,0.700013,9.197e-05,0.554337,-0.382527,6.83308e-05,0.000136432,0.923944,0,0,0,0.702533,-0.005439,0.532757,-0.00268465,0.00458389,0.0022826,-3.32083e-05,5.46753e-05,0.000243102,0.626265,-0.547997,-0.0536848,-0.284727,0.657881,0.659361,0.377305,1
2.71274,-1.6635,1.76825,0.97485,1.49411,-1.35477,-2.81605,2.71274,-1.6635,1.76824,0.974851,1.49411,-1.35477,-2.81605,2.65011,-1.6087,1.77361,1.00332,1.42832,-1.42071,-2.85378,0,0,0,0,0,0,0,0,0,0,0,0,0,0,0.700013,9.197e-05,0.554337,-0.382527,6.83308e-05,0.000136432,0.923944,0,0,0,0.70253,-0.00545185,0.53276,-0.000259722,-0.00124486,0.000259722,3.23568e-05,5.25266e-05,0.000101754,0.626271,-0.547993,-0.0536451,-0.284738,0.657885,0.659361,0.377306,1
2.71274,-1.6635,1.76824,0.974849,1.49411,-1.35477,-2.81605,2.71274,-1.6635,1.76824,0.974851,1.49411,-1.35477,-2.81605,2.65011,-1.6087,1.77361,1.00332,1.42832,-1.42071,-2.85378,0,0,0,0,0,0,0,0,0,0,0,0,0,0,0.700013,9.197e-05,0.554337,-0.382527,6.83308e-05,0.000136432,0.923944,0,0,0,0.702526,-0.00544496,0.532762,-0.000404441,0.000668095,0.000155999,-0.000240122,0.000259606,0.000376361,0.626251,-0.547992,-0.0536657,-0.284748,0.657886,0.65935,0.377329,1
2.71274,-1.6635,1.76825,0.974846,1.49411,-1.35477,-2.81605,2.71274,-1.6635,1.76824,0.974851,1.49411,-1.35477,-2.81605,2.65011,-1.6087,1.77361,1.00332,1.42832,-1.42071,-2.85378,0,0,0,0,0,0,0,0,0,0,0,0,0,0,0.700013,9.197e-05,0.554337,-0.382527,6.83308e-05,0.000136432,0.923944,0,0,0,0.702531,-0.00545056,0.532766,0.000533785,-0.000583585,0.000453097,-0.000456401,0.00048172,0.000599027,0.626233,-0.547988,-0.0536468,-0.284772,0.657891,0.659337,0.377347,1
2.71274,-1.6635,1.76824,0.974849,1.49411,-1.35477,-2.81605,2.71274,-1.6635,1.76824,0.97485,1.49411,-1.35477,-2.81605,2.65011,-1.6087,1.77361,1.00332,1.42832,-1.42071,-2.85378,0,0,0,0,0,0,0,0,0,0,0,0,0,0,0.700013,9.197e-05,0.554337,-0.382527,6.83308e-05,0.000136432,0.923944,0,0,0,0.702531,-0.00545769,0.532765,0,-0.000716875,-9.59143e-05,-0.000219686,0.000148014,0.000300578,0.626264,-0.547992,-0.053672,-0.28474,0.657883,0.659359,0.377319,1
2.71274,-1.6635,1.76824,0.97485,1.49411,-1.35477,-2.81605,2.71274,-1.6635,1.76824,0.974849,1.49411,-1.35477,-2.81605,2.65011,-1.6087,1.77361,1.00332,1.42832,-1.42071,-2.85378,0,0,0,0,0,0,0,0,0,0,0,0,0,0,0.700013,9.197e-05,0.554337,-0.382527,6.83308e-05,0.000136432,0.923944,0,0,0,0.70253,-0.00545525,0.532759,-6.34671e-05,0.000216391,-0.000571204,-0.000298875,0.0001483,0.000314202,0.626259,-0.547997,-0.0537149,-0.284733,0.657878,0.65936,0.377317,1
2.71275,-1.6635,1.76824,0.974854,1.49411,-1.35477,-2.81606,2.71274,-1.6635,1.76824,0.974848,1.49411,-1.35477,-2.81605,2.65011,-1.6087,1.77361,1.00332,1.42832,-1.42071,-2.85378,0,0,0,0,0,0,0,0,0,0,0,0,0,0,0.700013,9.197e-05,0.554337,-0.382527,6.83308e-05,0.000136432,0.923944,0,0,0,0.702559,-0.00547728,0.532716,0.00319275,-0.00242777,-0.00473657,0.000303132,-0.000479957,-0.000445332,0.62632,-0.548009,-0.0537275,-0.28469,0.657869,0.659396,0.377255,1
2.71274,-1.6635,1.76824,0.974851,1.49411,-1.35477,-2.81605,2.71274,-1.6635,1.76824,0.974849,1.49411,-1.35477,-2.81605,2.65011,-1.6087,1.77361,1.00332,1.42832,-1.42071,-2.85378,0,0,0,0,0,0,0,0,0,0,0,0,0,0,0.700013,9.197e-05,0.554337,-0.382527,6.83308e-05,0.000136432,0.923944,0,0,0,0.702536,-0.00544238,0.53275,-0.00244563,0.00372,0.00367797,0.000303984,-0.000146065,-0.00046151,0.626287,-0.548001,-0.0536746,-0.284725,0.657885,0.659364,0.377282,1
2.71274,-1.6635,1.76824,0.974852,1.49411,-1.35477,-2.81605,2.71274,-1.6635,1.76824,0.974851,1.49411,-1.35477,-2.81605,2.65011,-1.6087,1.77361,1.00332,1.42832,-1.42071,-2.85378,0,0,0,0,0,0,0,0,0,0,0,0,0,0,0.700013,9.197e-05,0.554337,-0.382527,6.83308e-05,0.000136432,0.923944,0,0,0,0.702532,-0.00545914,0.532769,-0.000370496,-0.00153238,0.00167268,0.000206913,-0.000163394,-0.00021628,0.626289,-0.547998,-0.0536793,-0.284712,0.657879,0.659375,0.377286,1
2.71274,-1.6635,1.76824,0.974852,1.49411,-1.35477,-2.81605,2.71274,-1.6635,1.76824,0.974852,1.49411,-1.35477,-2.81605,2.65011,-1.6087,1.77361,1.00332,1.42832,-1.42071,-2.85378,0,0,0,0,0,0,0,0,0,0,0,0,0,0,0.700013,9.197e-05,0.554337,-0.382527,6.83308e-05,0.000136432,0.923944,0,0,0,0.702561,-0.00547498,0.532726,0.00242442,-0.00131488,-0.00350304,0.000356776,-0.000225926,-0.000431282,0.626299,-0.548003,-0.0536637,-0.284716,0.657885,0.659371,0.37727,1
2.71274,-1.6635,1.76824,0.974853,1.49411,-1.35477,-2.81605,2.71274,-1.6635,1.76824,0.974852,1.49411,-1.35477,-2.81605,2.65011,-1.6087,1.77361,1.00332,1.42832,-1.42071,-2.85378,0,0,0,0,0,0,0,0,0,0,0,0,0,0,0.700013,9.197e-05,0.554337,-0.382527,6.83308e-05,0.000136432,0.923944,0,0,0,0.702553,-0.00547768,0.532724,-0.000990271,-0.000332554,-0.000227395,0.000365291,-0.00029028,-0.00047854,0.626304,-0.548005,-0.0536836,-0.284705,0.657881,0.659376,0.377265,1
2.71274,-1.6635,1.76824,0.974855,1.49411,-1.35477,-2.81606,2.71274,-1.6635,1.76824,0.974852,1.49411,-1.35477,-2.81605,2.65011,-1.6087,1.77361,1.00332,1.42832,-1.42071,-2.85378,0,0,0,0,0,0,0,0,0,0,0,0,0,0,0.700013,9.197e-05,0.554337,-0.382527,6.83308e-05,0.000136432,0.923944,0,0,0,0.702553,-0.00548143,0.532727,-4.39532e-05,-0.000395236,0.000226045,0.00029036,-0.00039979,-0.000366569,0.626308,-0.548009,-0.0537352,-0.284685,0.65787,0.659391,0.377258,1
2.71274,-1.6635,1.76823,0.974855,1.49411,-1.35477,-2.81605,2.71274,-1.6635,1.76824,0.974852,1.49411,-1.35477,-2.81605,2.65011,-1.6087,1.77361,1.00332,1.42832,-1.42071,-2.85378,0,0,0,0,0,0,0,0,0,0,0,0,0,0,0.700013,9.197e-05,0.554337,-0.382527,6.83308e-05,0.000136432,0.923944,0,0,0,0.702553,-0.00547636,0.532727,-1.63432e-05,0.000464121,-1.08955e-05,0.000126021,-0.000335276,-0.000209468,0.626298,-0.54801,-0.0537624,-0.284689,0.657864,0.659392,0.377268,1
2.71274,-1.6635,1.76823,0.974855,1.49411,-1.35477,-2.81605,2.71274,-1.6635,1.76824,0.974853,1.49411,-1.35477,-2.81605,2.65011,-1.6087,1.77361,1.00332,1.42832,-1.42071,-2.85378,0,0,0,0,0,0,0,0,0,0,0,0,0,0,0.700013,9.197e-05,0.554337,-0.382527,6.83308e-05,0.000136432,0.923944,0,0,0,0.702523,-0.00545979,0.532761,-0.00318418,0.00179171,0.00372562,-2.21389e-05,-0.000332569,-0.000183497,0.626292,-0.548008,-0.053797,-0.284686,0.657857,0.659399,0.377278,1
2.71274,-1.6635,1.76824,0.974848,1.49411,-1.35477,-2.81605,2.71274,-1.6635,1.76824,0.974854,1.49411,-1.35477,-2.81605,2.65011,-1.6087,1.77361,1.00332,1.42832,-1.42071,-2.85378,0,0,0,0,0,0,0,0,0,0,0,0,0,0,0.700013,9.197e-05,0.554337,-0.382527,6.83308e-05,0.000136432,0.923944,0,0,0,0.702554,-0.00546158,0.532712,0.00320719,-0.000190121,-0.0051935,-4.59807e-05,8.71186e-05,-0.000349964,0.626268,-0.548002,-0.0536888,-0.284756,0.657883,0.659357,0.377308,1
2.71274,-1.6635,1.76824,0.974846,1.49411,-1.35477,-2.81605,2.71274,-1.6635,1.76824,0.974854,1.49411,-1.35477,-2.81605,2.65011,-1.6087,1.77361,1.00332,1.42832,-1.42071,-2.85378,0,0,0,0,0,0,0,0,0,0,0,0,0,0,0.700013,9.197e-05,0.554337,-0.382527,6.83308e-05,0.000136432,0.923944,0,0,0,0.702525,-0.00544989,0.532757,-0.00271251,0.00111023,0.00423582,-0.000494719,0.000461118,0.000358054,0.626236,-0.54799,-0.0536824,-0.284773,0.657883,0.659343,0.377356,1
2.71274,-1.6635,1.76824,0.974846,1.49411,-1.35477,-2.81605,2.71274,-1.6635,1.76824,0.974852,1.49411,-1.35477,-2.81605,2.65011,-1.6087,1.77361,1.00332,1.42832,-1.42071,-2.85378,0,0,0,0,0,0,0,0,0,0,0,0,0,0,0.700013,9.197e-05,0.554337,-0.382527,6.83308e-05,0.000136432,0.923944,0,0,0,0.702524,-0.00545728,0.532766,-6.26597e-05,-0.000776785,0.000958694,-0.000505788,0.000496628,0.000604561,0.626234,-0.547987,-0.0536569,-0.284773,0.657888,0.65934,0.377352,1
2.71274,-1.6635,1.76824,0.974847,1.49411,-1.35477,-2.81605,2.71274,-1.6635,1.76824,0.97485,1.49411,-1.35477,-2.81605,2.65011,-1.6087,1.77361,1.00332,1.42832,-1.42071,-2.85378,0,0,0,0,0,0,0,0,0,0,0,0,0,0,0.700013,9.197e-05,0.554337,-0.382527,6.83308e-05,0.000136432,0.923944,0,0,0,0.702521,-0.00545605,0.532759,-0.00033048,0.000124681,-0.000715038,-0.000538145,0.000443596,0.000607116,0.626238,-0.54799,-0.0536832,-0.284762,0.657884,0.659344,0.377349,1
2.71274,-1.6635,1.76823,0.974852,1.49411,-1.35477,-2.81605,2.71274,-1.6635,1.76824,0.974848,1.49411,-1.35477,-2.81605,2.65011,-1.6087,1.77361,1.00332,1.42832,-1.42071,-2.85378,0,0,0,0,0,0,0,0,0,0,0,0,0,0,0.700013,9.197e-05,0.554337,-0.382527,6.83308e-05,0.000136432,0.923944,0,0,0,0.702521,-0.00547061,0.532765,5.92141e-06,-0.00144681,0.000592141,-0.000458956,0.000103643,0.0005837,0.626261,-0.547997,-0.0537556,-0.284718,0.657865,0.659375,0.377321,1
2.71274,-1.6635,1.76824,0.974848,1.49411,-1.35477,-2.81605,2.71274,-1.6635,1.76824,0.974847,1.49411,-1.35477,-2.81605,2.65011,-1.6087,1.77361,1.00332,1.42832,-1.42071,-2.85378,0,0,0,0,0,0,0,0,0,0,0,0,0,0,0.700013,9.197e-05,0.554337,-0.382527,6.83308e-05,0.000136432,0.923944,0,0,0,0.702531,-0.00543356,0.532746,0.000893061,0.00326566,-0.0016653,-0.000157527,0.00019456,0.000219686,0.626258,-0.547993,-0.05366,-0.284758,0.657885,0.659351,0.377323,1
2.71274,-1.6635,1.76824,0.974851,1.49411,-1.35477,-2.81605,2.71274,-1.6635,1.76824,0.974848,1.49411,-1.35477,-2.81605,2.65011,-1.6087,1.77361,1.00332,1.42832,-1.42071,-2.85378,0,0,0,0,0,0,0,0,0,0,0,0,0,0,0.700013,9.197e-05,0.554337,-0.382527,6.83308e-05,0.000136432,0.923944,0,0,0,0.702529,-0.00545762,0.532764,-0.000245379,-0.00275221,0.00208572,-0.000228201,0.000111466,0.000473431,0.626264,-0.547992,-0.0536976,-0.284725,0.65787,0.659369,0.377324,1
2.71274,-1.6635,1.76825,0.974851,1.49411,-1.35477,-2.81605,2.71274,-1.6635,1.76824,0.974849,1.49411,-1.35477,-2.81605,2.65011,-1.6087,1.77361,1.00332,1.42832,-1.42071,-2.85378,0,0,0,0,0,0,0,0,0,0,0,0,0,0,0.700013,9.197e-05,0.554337,-0.382527,6.83308e-05,0.000136432,0.923944,0,0,0,0.702532,-0.00546037,0.532767,0.000273002,-0.000246823,0.00025159,0.000146457,-3.43791e-05,4.85352e-05,0.626279,-0.547994,-0.053649,-0.284727,0.657884,0.659365,0.377294,1
2.71274,-1.6635,1.76825,0.974849,1.49411,-1.35477,-2.81605,2.71274,-1.6635,1.76824,0.97485,1.49411,-1.35477,-2.81605,2.65011,-1.6087,1.77361,1.00332,1.42832,-1.42071,-2.85378,0,0,0,0,0,0,0,0,0,0,0,0,0,0,0.700013,9.197e-05,0.554337,-0.382527,6.83308e-05,0.000136432,0.923944,0,0,0,0.702534,-0.00545197,0.532759,0.000135096,0.00090637,-0.000862042,0.00020521,7.23438e-05,-1.91586e-05,0.626274,-0.547991,-0.0536113,-0.28474,0.657892,0.659352,0.377303,1
2.71274,-1.6635,1.76825,0.974851,1.49411,-1.35477,-2.81605,2.71274,-1.6635,1.76824,0.97485,1.49411,-1.35477,-2.81605,2.65011,-1.6087,1.77361,1.00332,1.42832,-1.42071,-2.85378,0,0,0,0,0,0,0,0,0,0,0,0,0,0,0.700013,9.197e-05,0.554337,-0.382527,6.83308e-05,0.000136432,0.923944,0,0,0,0.702519,-0.00545486,0.53277,-0.00135202,-0.000270788,0.00106709,6.81196e-05,4.99987e-05,0.000157101,0.626272,-0.547993,-0.0536438,-0.284728,0.657888,0.659358,0.377302,1
2.71274,-1.6635,1.76825,0.97485,1.49411,-1.35477,-2.81605,2.71274,-1.6635,1.76824,0.97485,1.49411,-1.35477,-2.81605,2.65011,-1.6087,1.77361,1.00332,1.42832,-1.42071,-2.85378,0,0,0,0,0,0,0,0,0,0,0,0,0,0,0.700013,9.197e-05,0.554337,-0.382527,6.83308e-05,0.000136432,0.923944,0,0,0,0.702559,-0.0054705,0.532718,0.00457633,-0.00179742,-0.0060013,0.000329529,-0.000130857,-0.000344004,0.626295,-0.548001,-0.0536274,-0.28473,0.657894,0.65936,0.377275,1
2.71274,-1.6635,1.76824,0.974853,1.49411,-1.35477,-2.81605,2.71274,-1.6635,1.76825,0.97485,1.49411,-1.35477,-2.81605,2.65011,-1.6087,1.77361,1.00332,1.42832,-1.42071,-2.85378,0,0,0,0,0,0,0,0,0,0,0,0,0,0,0.700013,9.197e-05,0.554337,-0.382527,6.83308e-05,0.000136432,0.923944,0,0,0,0.702534,-0.00544801,0.532749,-0.00247156,0.0021889,0.00297631,0.000187329,-0.000227209,-0.000286102,0.626294,-0.548003,-0.0537003,-0.284707,0.657882,0.659373,0.377276,1
2.71274,-1.6635,1.76824,0.974849,1.49411,-1.35477,-2.81605,2.71274,-1.6635,1.76825,0.974851,1.49411,-1.35477,-2.81605,2.65011,-1.6087,1.77361,1.00332,1.42832,-1.42071,-2.85378,0,0,0,0,0,0,0,0,0,0,0,0,0,0,0.700013,9.197e-05,0.554337,-0.382527,6.83308e-05,0.000136432,0.923944,0,0,0,0.702531,-0.0054556,0.532762,-0.000283583,-0.000801909,0.00146833,0.000115803,4.38054e-05,-0.000292914,0.62627,-0.547999,-0.0536538,-0.284742,0.657894,0.659352,0.377293,1
2.71274,-1.6635,1.76824,0.974851,1.49411,-1.35477,-2.81605,2.71274,-1.6635,1.76824,0.974851,1.49411,-1.35477,-2.81605,2.65011,-1.6087,1.77361,1.00332,1.42832,-1.42071,-2.85378,0,0,0,0,0,0,0,0,0,0,0,0,0,0,0.700013,9.197e-05,0.554337,-0.382527,6.83308e-05,0.000136432,0.923944,0,0,0,0.702558,-0.00547822,0.532723,0.00240371,-0.00203605,-0.00356264,0.000303984,-0.000192624,-0.000522392,0.626299,-0.548002,-0.0536609,-0.284723,0.657887,0.659368,0.377276,1
2.71274,-1.6635,1.76823,0.974855,1.49411,-1.35477,-2.81605,2.71274,-1.6635,1.76824,0.974851,1.49411,-1.35477,-2.81605,2.65011,-1.6087,1.77361,1.00332,1.42832,-1.42071,-2.85378,0,0,0,0,0,0,0,0,0,0,0,0,0,0,0.700013,9.197e-05,0.554337,-0.382527,6.83308e-05,0.000136432,0.923944,0,0,0,0.702529,-0.00547106,0.53277,-0.00281372,0.00069798,0.00461008,0.000121764,-0.000318073,-5.79017e-05,0.626296,-0.548004,-0.053755,-0.284679,0.657866,0.659391,0.377271,1
2.71274,-1.6635,1.76824,0.974854,1.49411,-1.35477,-2.81605,2.71274,-1.6635,1.76824,0.974851,1.49411,-1.35477,-2.81605,2.65011,-1.6087,1.77361,1.00332,1.42832,-1.42071,-2.85378,0,0,0,0,0,0,0,0,0,0,0,0,0,0,0.700013,9.197e-05,0.554337,-0.382527,6.83308e-05,0.000136432,0.923944,0,0,0,0.702558,-0.00547537,0.532725,0.00299195,-0.000434806,-0.0045692,0.000289508,-0.000331538,-0.000204785,0.626301,-0.548006,-0.0537123,-0.284697,0.65787,0.659387,0.377264,1
2.71274,-1.6635,1.76824,0.974853,1.49411,-1.35477,-2.81605,2.71274,-1.6635,1.76824,0.974852,1.49411,-1.35477,-2.81605,2.65011,-1.6087,1.77361,1.00332,1.42832,-1.42071,-2.85378,0,0,0,0,0,0,0,0,0,0,0,0,0,0,0.700013,9.197e-05,0.554337,-0.382527,6.83308e-05,0.000136432,0.923944,0,0,0,0.702565,-0.0054687,0.532721,0.000633886,0.000662026,-0.00035545,0.000231607,-0.000231341,-0.000106437,0.626295,-0.548002,-0.0536959,-0.284706,0.65787,0.659382,0.377282,1
2.71274,-1.6635,1.76825,0.974852,1.49411,-1.35477,-2.81606,2.71274,-1.6635,1.76824,0.974853,1.49411,-1.35477,-2.81605,2.65011,-1.6087,1.77361,1.00332,1.42832,-1.42071,-2.85378,0,0,0,0,0,0,0,0,0,0,0,0,0,0,0.700013,9.197e-05,0.554337,-0.382527,6.83308e-05,0.000136432,0.923944,0,0,0,0.702565,-0.00547008,0.532716,4.68338e-05,-0.000154823,-0.000582078,0.000582423,-0.000319896,-0.000633512,0.626311,-0.548002,-0.0536265,-0.284718,0.657888,0.659372,0.37726,1
2.71274,-1.6635,1.76825,0.97485,1.49411,-1.35477,-2.81605,2.71274,-1.6635,1.76824,0.974853,1.49411,-1.35477,-2.81605,2.65011,-1.6087,1.77361,1.00332,1.42832,-1.42071,-2.85378,0,0,0,0,0,0,0,0,0,0,0,0,0,0,0.700013,9.197e-05,0.554337,-0.382527,6.83308e-05,0.000136432,0.923944,0,0,0,0.702535,-0.00545666,0.532765,-0.00300255,0.00134412,0.0049366,0.000228201,5.51077e-05,-0.000191161,0.626273,-0.547994,-0.0536273,-0.284734,0.657893,0.659352,0.377297,1
2.71274,-1.6635,1.76825,0.974849,1.49411,-1.35477,-2.81605,2.71274,-1.6635,1.76824,0.974853,1.49411,-1.35477,-2.81605,2.65011,-1.6087,1.77361,1.00332,1.42832,-1.42071,-2.85378,0,0,0,0,0,0,0,0,0,0,0,0,0,0,0.700013,9.197e-05,0.554337,-0.382527,6.83308e-05,0.000136432,0.923944,0,0,0,0.702557,-0.00547675,0.532723,0.00219447,-0.00199387,-0.00418192,6.64166e-05,0.000137363,-6.04561e-05,0.626271,-0.547998,-0.0536222,-0.284749,0.657897,0.659347,0.377301,1
2.71274,-1.6635,1.76825,0.974848,1.49411,-1.35477,-2.81605,2.71274,-1.6635,1.76824,0.974851,1.49411,-1.35477,-2.81605,2.65011,-1.6087,1.77361,1.00332,1.42832,-1.42071,-2.85378,0,0,0,0,0,0,0,0,0,0,0,0,0,0,0.700013,9.197e-05,0.554337,-0.382527,6.83308e-05,0.000136432,0.923944,0,0,0,0.702529,-0.00545155,0.532762,-0.00292453,0.00260886,0.00397342,-0.000109843,0.000242117,5.57729e-05,0.626256,-0.547994,-0.0536378,-0.284755,0.657897,0.659341,0.377317,1
2.71274,-1.6635,1.76824,0.974849,1.49411,-1.35477,-2.81605,2.71274,-1.6635,1.76825,0.97485,1.49411,-1.35477,-2.81605,2.65011,-1.6087,1.77361,1.00332,1.42832,-1.42071,-2.85378,0,0,0,0,0,0,0,0,0,0,0,0,0,0,0.700013,9.197e-05,0.554337,-0.382527,6.83308e-05,0.000136432,0.923944,0,0,0,0.702559,-0.00547031,0.532713,0.0026927,-0.00166496,-0.00434324,-0.000272478,0.000152863,0.000183497,0.626266,-0.548001,-0.0536958,-0.284743,0.657885,0.659355,0.377313,1
2.71274,-1.6635,1.76824,0.974849,1.49411,-1.35477,-2.81605,2.71274,-1.6635,1.76825,0.974849,1.49411,-1.35477,-2.81605,2.65011,-1.6087,1.77361,1.00332,1.42832,-1.42071,-2.85378,0,0,0,0,0,0,0,0,0,0,0,0,0,0,0.700013,9.197e-05,0.554337,-0.382527,6.83308e-05,0.000136432,0.923944,0,0,0,0.702526,-0.00544746,0.532759,-0.00366153,0.00250175,0.00503868,-0.000479392,0.000244213,0.000362737,0.626248,-0.547998,-0.0537312,-0.284745,0.657879,0.659355,0.377329,1
2.71274,-1.6635,1.76825,0.974847,1.49411,-1.35477,-2.81605,2.71274,-1.6635,1.76824,0.974849,1.49411,-1.35477,-2.81605,2.65011,-1.6087,1.77361,1.00332,1.42832,-1.42071,-2.85378,0,0,0,0,0,0,0,0,0,0,0,0,0,0,0.700013,9.197e-05,0.554337,-0.382527,6.83308e-05,0.000136432,0.923944,0,0,0,0.702564,-0.00546409,0.532718,0.00354958,-0.00155468,-0.00383377,-7.15256e-05,0.000152897,-6.81196e-05,0.626269,-0.547997,-0.0536455,-0.284762,0.657889,0.659351,0.377314,1
2.71274,-1.6635,1.76825,0.974847,1.49411,-1.35477,-2.81605,2.71274,-1.6635,1.76824,0.974849,1.49411,-1.35477,-2.81605,2.65011,-1.6087,1.77361,1.00332,1.42832,-1.42071,-2.85378,0,0,0,0,0,0,0,0,0,0,0,0,0,0,0.700013,9.197e-05,0.554337,-0.382527,6.83308e-05,0.000136432,0.923944,0,0,0,0.702536,-0.00544763,0.532749,-0.00279513,0.00166008,0.00319186,4.68322e-05,0.000201784,-0.000221389,0.626266,-0.547992,-0.0536178,-0.284763,0.657898,0.65934,0.377318,1
2.71274,-1.6635,1.76824,0.974849,1.49411,-1.35477,-2.81605,2.71274,-1.6635,1.76824,0.974848,1.49411,-1.35477,-2.81605,2.65011,-1.6087,1.77361,1.00332,1.42832,-1.42071,-2.85378,0,0,0,0,0,0,0,0,0,0,0,0,0,0,0.700013,9.197e-05,0.554337,-0.382527,6.83308e-05,0.000136432,0.923944,0,0,0,0.702534,-0.00545835,0.532759,-0.00026683,-0.00109025,0.000946035,-0.000187329,0.000247399,0.000309518,0.626257,-0.547993,-0.0536553,-0.284746,0.65789,0.659348,0.377322,1
