Afshin1997/kuka_rl_ros2/src/catch_and_throw/output_files/tm/nn_ema2.00_jvws1_realball_D24H17M51S29/recorded_data.csv
pure_target_joint_0,pure_target_joint_1,pure_target_joint_2,pure_target_joint_3,pure_target_joint_4,pure_target_joint_5,pure_target_joint_6,target_joint_0,target_joint_1,target_joint_2,target_joint_3,target_joint_4,target_joint_5,target_joint_6,pos_joint_0,pos_joint_1,pos_joint_2,pos_joint_3,pos_joint_4,pos_joint_5,pos_joint_6,vel_joint_0,vel_joint_1,vel_joint_2,vel_joint_3,vel_joint_4,vel_joint_5,vel_joint_6,vel_smooth_joint_0,vel_smooth_joint_1,vel_smooth_joint_2,vel_smooth_joint_3,vel_smooth_joint_4,vel_smooth_joint_5,vel_smooth_joint_6,ee_pos_x,ee_pos_y,ee_pos_z,ee_or_w,ee_or_x,ee_or_y,ee_or_z,ee_vel_x,ee_vel_y,ee_vel_z,ball_pos_x,ball_pos_y,ball_pos_z,ball_raw_vx,ball_raw_vy,ball_raw_vz,ball_ema_vx,ball_ema_vy,ball_ema_vz,action_0,action_1,action_2,action_3,action_4,action_5,action_6,command_published
1.71286,-1.02337,-1.78897,-1.14929,2.00337,1.1865,-0.941882,1.71286,-1.02337,-1.78897,-1.14929,2.00337,1.1865,-0.941882,1.78095,-1.07148,-1.81811,-1.11971,1.93722,1.11683,-0.916216,2.39541e-05,-2.39759e-05,1.1977e-05,0,1.91633e-05,-3.5953e-05,-2.39759e-05,2.39541e-05,-2.39759e-05,1.1977e-05,0,1.91633e-05,-3.5953e-05,-2.39759e-05,0.533849,-0.455896,0.691159,0.572917,0.179044,0.15173,0.785294,1.63178e-05,2.42517e-05,-7.68368e-06,2.97666,-0.502819,0.229828,-3.34795,0.0289023,5.53412,-3.34795,0.0289023,5.53412,-0.680851,0.481112,0.291431,-0.295791,0.661502,0.696745,-0.256665,1
1.71255,-1.02195,-1.80162,-1.14013,2.00034,1.18748,-0.944908,1.71255,-1.02195,-1.80162,-1.14013,2.00034,1.18748,-0.944908,1.78095,-1.07148,-1.81811,-1.11971,1.93722,1.11683,-0.916216,2.39541e-05,1.1977e-05,2.39541e-05,5.99071e-05,0,2.39541e-05,0,2.39541e-05,1.1977e-05,2.39541e-05,5.99071e-05,0,2.39541e-05,0,0.533849,-0.455896,0.691159,0.572917,0.179044,0.15173,0.785294,-4.33022e-07,1.72433e-05,1.94572e-05,2.94221,-0.502673,0.283412,-3.44574,0.0145853,5.3584,-3.44574,0.0145853,5.3584,-0.684011,0.495267,0.16492,-0.204234,0.63122,0.706469,-0.28692,1
1.71437,-1.02237,-1.79697,-1.14056,2.00179,1.18758,-0.939879,1.71437,-1.02237,-1.79697,-1.14056,2.00179,1.18758,-0.939879,1.78095,-1.07143,-1.81819,-1.11983,1.93722,1.11683,-0.916216,0.00128229,0.00679491,-0.020121,-0.0284858,0,-0.000575247,-2.39759e-05,0.00128229,0.00679491,-0.020121,-0.0284858,0,-0.000575247,-2.39759e-05,0.533839,-0.455897,0.691182,0.572926,0.179027,0.151724,0.785293,-0.00180375,-0.000361503,0.00445035,2.90864,-0.50247,0.335302,-3.35703,0.0202715,5.18898,-3.35703,0.0202715,5.18898,-0.665751,0.490606,0.212198,-0.207254,0.645752,0.707511,-0.236627,1
1.71491,-1.01709,-1.79124,-1.13017,2.0048,1.18904,-0.93298,1.71491,-1.01709,-1.79124,-1.13017,2.0048,1.18904,-0.93298,1.7812,-1.07089,-1.81811,-1.12106,1.93814,1.11798,-0.917124,0.0341303,0.0790821,0.0458506,-0.180203,0.165187,0.202936,-0.157805,0.0341303,0.0790821,0.0458506,-0.180203,0.165187,0.202936,-0.157805,0.533946,-0.455673,0.691078,0.572808,0.179065,0.151883,0.78534,0.0137288,0.0334278,-0.00944266,2.87584,-0.502112,0.38651,-3.2794,0.0358403,5.12086,-3.2794,0.0358403,5.12086,-0.66289,0.537997,0.26872,-0.0910601,0.666585,0.710614,-0.158561,1
1.71738,-1.0079,-1.7847,-1.10519,2.01151,1.19343,-0.93977,1.71738,-1.0079,-1.7847,-1.10519,2.01151,1.19343,-0.93977,1.78068,-1.06959,-1.81635,-1.12435,1.94472,1.12441,-0.920686,-0.10637,0.13277,0.204722,-0.366553,0.845607,0.795938,-0.399269,-0.10637,0.13277,0.204722,-0.366553,0.845607,0.795938,-0.399269,0.532818,-0.453984,0.692468,0.572608,0.175942,0.148506,0.786835,-0.122443,0.0989188,0.117273,2.84311,-0.501819,0.437529,-3.27351,0.0293136,5.10191,-3.27351,0.0293136,5.10191,-0.633005,0.616895,0.316457,0.191644,0.667895,0.690268,-0.190845,1
1.71251,-1.00616,-1.7831,-1.11319,2.02776,1.2008,-0.925154,1.71251,-1.00616,-1.7831,-1.11319,2.02776,1.2008,-0.925154,1.77839,-1.06879,-1.81397,-1.1288,1.9579,1.13633,-0.925849,-0.245264,0.0656601,0.250728,-0.462485,1.44793,1.29783,-0.541027,-0.245264,0.0656601,0.250728,-0.462485,1.44793,1.29783,-0.541027,0.531516,-0.453942,0.69317,0.572795,0.174093,0.145336,0.787702,-0.202938,0.0329455,0.110193,2.80971,-0.501503,0.487619,-3.33948,0.0316143,5.00898,-3.33948,0.0316143,5.00898,-0.658825,0.626256,0.308698,0.156037,0.698608,0.644726,0.00694813,1
1.70826,-1.00332,-1.78479,-1.10624,2.03592,1.20594,-0.929114,1.70826,-1.00332,-1.78479,-1.10624,2.03592,1.20594,-0.929114,1.77725,-1.0684,-1.81249,-1.13118,1.96586,1.14345,-0.928455,-0.228353,0.0771683,0.295454,-0.476864,1.59126,1.42325,-0.521291,-0.228353,0.0771683,0.295454,-0.476864,1.59126,1.42325,-0.521291,0.528296,-0.454174,0.694754,0.573024,0.169677,0.136917,0.790004,-0.255059,0.0183709,0.133833,2.77662,-0.501276,0.53681,-3.30882,0.0226796,4.91906,-3.30882,0.0226796,4.91906,-0.689873,0.650835,0.277017,0.249463,0.700651,0.624975,-0.00659394,1
1.70313,-0.997186,-1.78351,-1.1085,2.05932,1.22551,-0.947687,1.70313,-0.997186,-1.78351,-1.1085,2.05932,1.22551,-0.947687,1.77344,-1.06595,-1.80765,-1.13591,1.98866,1.16456,-0.933824,-0.261514,0.209575,0.3254,-0.215004,1.40989,1.33511,-0.308491,-0.261514,0.209575,0.3254,-0.215004,1.40989,1.33511,-0.308491,0.522632,-0.45492,0.698664,0.573412,0.161824,0.1237,0.793543,-0.299674,-0.0181757,0.219123,2.74362,-0.500914,0.58496,-3.30055,0.0361979,4.81496,-3.30055,0.0361979,4.81496,-0.703156,0.687628,0.241375,0.274035,0.706602,0.609476,-0.138625,1
1.70202,-0.992879,-1.78546,-1.10916,2.07131,1.23766,-0.95846,1.70202,-0.992879,-1.78546,-1.10916,2.07131,1.23766,-0.95846,1.7711,-1.06333,-1.8041,-1.13625,2.00081,1.17614,-0.935836,-0.223129,0.268476,0.357625,0.0224939,1.15713,1.09478,-0.138427,-0.223129,0.268476,0.357625,0.0224939,1.15713,1.09478,-0.138427,0.518829,-0.455624,0.70231,0.57421,0.15638,0.116291,0.795176,-0.300607,-0.0534873,0.343654,2.71021,-0.500754,0.631843,-3.34072,0.0159979,4.68833,-3.34072,0.0159979,4.68833,-0.690863,0.704497,0.186415,0.270897,0.704982,0.615177,-0.226243,1
1.69901,-0.988308,-1.78464,-1.12486,2.08311,1.24399,-0.962132,1.69901,-0.988308,-1.78464,-1.12486,2.08311,1.24399,-0.962132,1.76887,-1.06037,-1.80092,-1.13461,2.01169,1.18579,-0.935791,-0.228282,0.311822,0.300162,0.213039,1.08047,0.926767,0.0323567,-0.228282,0.311822,0.300162,0.213039,1.08047,0.926767,0.0323567,0.516965,-0.456141,0.704247,0.574541,0.153823,0.112846,0.795932,-0.30144,-0.0801023,0.357005,2.67659,-0.500462,0.677241,-3.36232,0.0292063,4.53978,-3.36232,0.0292063,4.53978,-0.69863,0.720582,0.162803,0.0975317,0.714171,0.581972,-0.263408,1
1.6981,-0.981919,-1.78405,-1.14585,2.09206,1.25202,-0.964394,1.6981,-0.981919,-1.78405,-1.14585,2.09206,1.25202,-0.964394,1.76639,-1.05637,-1.79821,-1.13186,2.02223,1.19408,-0.93578,-0.257499,0.436108,0.265421,0.276865,1.04966,0.804483,-0.0330398,-0.257499,0.436108,0.265421,0.276865,1.04966,0.804483,-0.0330398,0.513097,-0.457605,0.708463,0.575609,0.148909,0.10631,0.796994,-0.332003,-0.118584,0.441495,2.64344,-0.500616,0.721241,-3.31535,-0.015378,4.40003,-3.31535,-0.015378,4.40003,-0.682936,0.74456,0.141659,-0.139864,0.698286,0.579433,-0.286145,1
1.69569,-0.975122,-1.78067,-1.15098,2.10247,1.25975,-0.964422,1.69569,-0.975122,-1.78067,-1.15098,2.10247,1.25975,-0.964422,1.76312,-1.0511,-1.79572,-1.1293,2.03328,1.20246,-0.937567,-0.355947,0.553694,0.237822,0.249518,1.13046,0.859633,-0.233831,-0.355947,0.553694,0.237822,0.249518,1.13046,0.859633,-0.233831,0.508993,-0.458969,0.713287,0.5775,0.143844,0.100432,0.797318,-0.356384,-0.114914,0.471385,2.61044,-0.500232,0.764813,-3.29978,0.0384212,4.35717,-3.29978,0.0384212,4.35717,-0.674307,0.759769,0.150545,-0.216778,0.691871,0.572844,-0.268557,1
1.69211,-0.968032,-1.78127,-1.14338,2.11437,1.26963,-0.966359,1.69211,-0.968032,-1.78127,-1.14338,2.11437,1.26963,-0.966359,1.75881,-1.04495,-1.7937,-1.12771,2.04545,1.21182,-0.941599,-0.451328,0.630572,0.193792,0.115597,1.2494,0.95856,-0.454983,-0.451328,0.630572,0.193792,0.115597,1.2494,0.95856,-0.454983,0.501747,-0.461117,0.721031,0.582376,0.135481,0.091718,0.796286,-0.41794,-0.129496,0.495461,2.57742,-0.499927,0.807744,-3.30162,0.0304252,4.29316,-3.30162,0.0304252,4.29316,-0.666972,0.769128,0.124371,-0.156707,0.689242,0.578074,-0.247598,1
1.68935,-0.964381,-1.79378,-1.12587,2.1196,1.27606,-0.970289,1.68935,-0.964381,-1.79378,-1.12587,2.1196,1.27606,-0.970289,1.75622,-1.04157,-1.79291,-1.1275,2.05196,1.2167,-0.94424,-0.517251,0.674265,0.159027,0.0416083,1.30215,0.97511,-0.528085,-0.517251,0.674265,0.159027,0.0416083,1.30215,0.97511,-0.528085,0.499126,-0.4618,0.723554,0.584339,0.132702,0.0888496,0.79564,-0.453922,-0.11672,0.479981,2.54413,-0.499918,0.849218,-3.32913,0.000908971,4.14738,-3.32913,0.000908971,4.14738,-0.668651,0.771931,-0.00876517,0.0163153,0.676353,0.59363,-0.260495,1
1.68176,-0.957083,-1.80846,-1.11098,2.13158,1.28651,-0.975343,1.68176,-0.957083,-1.80846,-1.11098,2.13158,1.28651,-0.975343,1.74988,-1.03423,-1.79151,-1.12843,2.06545,1.2267,-0.950036,-0.664534,0.750938,0.141411,-0.142453,1.35971,1.00738,-0.587441,-0.664534,0.750938,0.141411,-0.142453,1.35971,1.00738,-0.587441,0.493514,-0.463105,0.728505,0.588473,0.127255,0.0832795,0.794085,-0.499858,-0.102376,0.468901,2.51138,-0.499992,0.889722,-3.27475,-0.00739396,4.05036,-3.27475,-0.00739396,4.05036,-0.681127,0.771506,-0.169507,0.174511,0.661238,0.598106,-0.253076,1
1.6729,-0.94923,-1.82115,-1.10256,2.14256,1.29531,-0.982708,1.6729,-0.94923,-1.82115,-1.10256,2.14256,1.29531,-0.982708,1.74267,-1.02655,-1.78962,-1.13177,2.07888,1.23672,-0.955556,-0.741243,0.767944,0.195734,-0.386135,1.33378,0.995459,-0.5347,-0.741243,0.767944,0.195734,-0.386135,1.33378,0.995459,-0.5347,0.487919,-0.463717,0.733157,0.591879,0.122087,0.0780248,0.792897,-0.492706,-0.0332808,0.431636,2.47852,-0.499722,0.929475,-3.28617,0.0270337,3.97539,-3.28617,0.0270337,3.97539,-0.697728,0.773222,-0.315308,0.292041,0.636766,0.585974,-0.271515,1
1.66298,-0.941598,-1.82568,-1.10981,2.15373,1.30189,-0.988187,1.66298,-0.941598,-1.82568,-1.10981,2.15373,1.30189,-0.988187,1.734,-1.01917,-1.78879,-1.13586,2.09187,1.24668,-0.960369,-0.917144,0.731644,0.02386,-0.377494,1.28825,1.00633,-0.467626,-0.917144,0.731644,0.02386,-0.377494,1.28825,1.00633,-0.467626,0.481956,-0.464981,0.73702,0.595496,0.117578,0.0731692,0.791332,-0.563098,-0.153473,0.351745,2.44575,-0.499534,0.967992,-3.27673,0.0188053,3.85162,-3.27673,0.0188053,3.85162,-0.710195,0.775764,-0.368915,0.260545,0.618673,0.55212,-0.278181,1
1.65391,-0.933438,-1.82903,-1.10799,2.16305,1.31079,-0.996296,1.65391,-0.933438,-1.82903,-1.10799,2.16305,1.31079,-0.996296,1.72472,-1.01154,-1.78942,-1.13793,2.10428,1.25695,-0.964739,-0.898748,0.768818,-0.0850142,-0.174426,1.21928,1.03813,-0.428774,-0.898748,0.768818,-0.0850142,-0.174426,1.21928,1.03813,-0.428774,0.47538,-0.467217,0.74097,0.600221,0.112794,0.0686502,0.78886,-0.589949,-0.20221,0.380722,2.41292,-0.499522,1.00457,-3.28319,0.00120103,3.65821,-3.28319,0.00120103,3.65821,-0.708053,0.781068,-0.396068,0.299393,0.587742,0.538359,-0.315576,1
1.64551,-0.925937,-1.83447,-1.09867,2.17453,1.3219,-0.998975,1.64551,-0.925937,-1.83447,-1.09867,2.17453,1.3219,-0.998975,1.71694,-1.00391,-1.79206,-1.13806,2.11578,1.26752,-0.968978,-0.753251,0.759842,-0.339625,0.0612859,1.13378,1.05984,-0.427372,-0.753251,0.759842,-0.339625,0.0612859,1.13378,1.05984,-0.427372,0.469261,-0.469515,0.744694,0.605405,0.107836,0.0648443,0.785908,-0.55419,-0.246181,0.347533,2.38097,-0.499705,1.04052,-3.1956,-0.0183523,3.59489,-3.1956,-0.0183523,3.59489,-0.714312,0.779677,-0.424136,0.39392,0.587446,0.543763,-0.299969,1
1.63699,-0.917845,-1.84385,-1.09072,2.18406,1.33063,-1.00383,1.63699,-0.917845,-1.84385,-1.09072,2.18406,1.33063,-1.00383,1.70987,-0.995864,-1.79768,-1.13514,2.1268,1.27801,-0.973528,-0.674361,0.830416,-0.61238,0.345785,1.09363,1.04752,-0.465792,-0.674361,0.830416,-0.61238,0.345785,1.09363,1.04752,-0.465792,0.463039,-0.472739,0.748376,0.612097,0.102831,0.0618191,0.781628,-0.564193,-0.316291,0.366168,2.34861,-0.499884,1.07595,-3.23553,-0.0178933,3.54313,-3.23553,-0.0178933,3.54313,-0.728826,0.780192,-0.461667,0.444178,0.572529,0.526136,-0.303059,1
1.63132,-0.909075,-1.85425,-1.08302,2.18972,1.34122,-1.01151,1.63132,-0.909075,-1.85425,-1.08302,2.18972,1.34122,-1.01151,1.70442,-0.987141,-1.80438,-1.13175,2.13751,1.28832,-0.978525,-0.521757,0.879598,-0.694194,0.337168,1.06786,1.02248,-0.512062,-0.521757,0.879598,-0.694194,0.337168,1.06786,1.02248,-0.512062,0.457523,-0.475161,0.752183,0.618714,0.0977073,0.0595436,0.777239,-0.490283,-0.233527,0.364772,2.31611,-0.499727,1.11064,-3.24988,0.0157595,3.46875,-3.24988,0.0157595,3.46875,-0.730967,0.780652,-0.498659,0.487274,0.522085,0.528947,-0.329818,1
1.62334,-0.899931,-1.86394,-1.07744,2.19906,1.34711,-1.01646,1.62334,-0.899931,-1.86394,-1.07744,2.19906,1.34711,-1.01646,1.69835,-0.977959,-1.81221,-1.12789,2.14807,1.2983,-0.984065,-0.645947,0.938955,-0.799605,0.4209,1.05543,0.994189,-0.564348,-0.645947,0.938955,-0.799605,0.4209,1.05543,0.994189,-0.564348,0.451675,-0.477947,0.755991,0.62614,0.0927106,0.0577783,0.77202,-0.56676,-0.3043,0.385796,2.28376,-0.499339,1.14436,-3.23546,0.0387102,3.37217,-3.23546,0.0387102,3.37217,-0.750115,0.78028,-0.517383,0.504451,0.509893,0.488153,-0.323996,1
1.61592,-0.890379,-1.87285,-1.07121,2.20642,1.35554,-1.02499,1.61592,-0.890379,-1.87285,-1.07121,2.20642,1.35554,-1.02499,1.69152,-0.968316,-1.81985,-1.12316,2.15856,1.30822,-0.989734,-0.682702,0.952628,-0.748554,0.482006,1.04715,0.992115,-0.56484,-0.682702,0.952628,-0.748554,0.482006,1.04715,0.992115,-0.56484,0.445166,-0.48098,0.76035,0.634141,0.0872219,0.0560169,0.766238,-0.605413,-0.309773,0.42742,2.25119,-0.498929,1.17719,-3.25656,0.0410289,3.28294,-3.25656,0.0410289,3.28294,-0.755929,0.779363,-0.529993,0.519501,0.478605,0.473177,-0.352537,1
1.60915,-0.881949,-1.88131,-1.06491,2.21368,1.36747,-1.03138,1.60915,-0.881949,-1.88131,-1.06491,2.21368,1.36747,-1.03138,1.68466,-0.959413,-1.82754,-1.11783,2.16883,1.31781,-0.995354,-0.692013,0.874277,-0.78876,0.562634,1.01756,0.947871,-0.56448,-0.692013,0.874277,-0.78876,0.562634,1.01756,0.947871,-0.56448,0.438538,-0.484358,0.764473,0.642235,0.0818948,0.054089,0.760199,-0.622864,-0.360691,0.396522,2.21883,-0.499079,1.20878,-3.23598,-0.0149816,3.15866,-3.23598,-0.0149816,3.15866,-0.755058,0.774636,-0.537696,0.529156,0.448462,0.496579,-0.360238,1
1.60221,-0.87386,-1.89017,-1.05759,2.22138,1.37742,-1.03779,1.60221,-0.87386,-1.89017,-1.05759,2.22138,1.37742,-1.03779,1.67783,-0.95096,-1.83575,-1.11114,2.1786,1.32716,-1.00113,-0.674553,0.830476,-0.832441,0.692025,0.962934,0.925113,-0.581425,-0.674553,0.830476,-0.832441,0.692025,0.962934,0.925113,-0.581425,0.431642,-0.488191,0.768575,0.650843,0.0764659,0.052247,0.753543,-0.642319,-0.396104,0.397178,2.18622,-0.499394,1.23926,-3.26087,-0.0314772,3.04774,-3.26087,-0.0314772,3.04774,-0.75624,0.771002,-0.544143,0.535517,0.427742,0.502565,-0.366568,1
1.59554,-0.866388,-1.89949,-1.04938,2.22771,1.38618,-1.04488,1.59554,-0.866388,-1.89949,-1.04938,2.22771,1.38618,-1.04488,1.67126,-0.943174,-1.84469,-1.10375,2.18777,1.33591,-1.00704,-0.651519,0.763054,-0.910025,0.748925,0.902228,0.859525,-0.59607,-0.651519,0.763054,-0.910025,0.748925,0.902228,0.859525,-0.59607,0.424817,-0.49233,0.772307,0.659671,0.071385,0.0506902,0.746437,-0.637927,-0.42643,0.356704,2.15353,-0.499685,1.26846,-3.2691,-0.0291675,2.92073,-3.2691,-0.0291675,2.92073,-0.757178,0.767858,-0.547984,0.543743,0.399419,0.502698,-0.378409,1
1.58884,-0.85872,-1.90889,-1.04192,2.23573,1.39222,-1.05168,1.58884,-0.85872,-1.90889,-1.04192,2.23573,1.39222,-1.05168,1.66492,-0.935531,-1.85392,-1.09582,2.19638,1.34421,-1.01328,-0.629092,0.767477,-0.921394,0.794214,0.847756,0.825746,-0.635371,-0.629092,0.767477,-0.921394,0.794214,0.847756,0.825746,-0.635371,0.418,-0.496422,0.776057,0.668682,0.0663017,0.0494535,0.738933,-0.639949,-0.410799,0.372436,2.12111,-0.49941,1.2966,-3.2423,0.0275344,2.81392,-3.2423,0.0275344,2.81392,-0.760793,0.768113,-0.549726,0.538966,0.393537,0.480111,-0.383942,1
1.57898,-0.847877,-1.92433,-1.02968,2.24318,1.40517,-1.06264,1.57898,-0.847877,-1.92433,-1.02968,2.24318,1.40517,-1.06264,1.65541,-0.924353,-1.86845,-1.08427,2.20835,1.35678,-1.02326,-0.65394,0.729871,-0.99788,0.761736,0.775333,0.844173,-0.674493,-0.65394,0.729871,-0.99788,0.761736,0.775333,0.844173,-0.674493,0.407782,-0.502277,0.78133,0.682281,0.0586619,0.0482488,0.727134,-0.639414,-0.399813,0.346801,2.08887,-0.499343,1.32397,-3.22411,0.00669062,2.73689,-3.22411,0.00669062,2.73689,-0.764334,0.764759,-0.558806,0.545851,0.348293,0.483898,-0.393801,1
1.57539,-0.844341,-1.92913,-1.02571,2.24483,1.40947,-1.06691,1.57539,-0.844341,-1.92913,-1.02571,2.24483,1.40947,-1.06691,1.65202,-0.920675,-1.87337,-1.08037,2.21213,1.36109,-1.02666,-0.679223,0.735514,-0.985727,0.779317,0.757709,0.862262,-0.681272,-0.679223,0.735514,-0.985727,0.779317,0.757709,0.862262,-0.681272,0.404207,-0.504249,0.783078,0.686907,0.0560078,0.0479373,0.722997,-0.677369,-0.411352,0.344824,2.05641,-0.499432,1.35024,-3.24593,-0.00890791,2.6268,-3.24593,-0.00890791,2.6268,-0.766269,0.763337,-0.557582,0.546605,0.326916,0.483725,-0.402448,1
1.5688,-0.836922,-1.93849,-1.01786,2.24888,1.41956,-1.07517,1.5688,-0.836922,-1.93849,-1.01786,2.24888,1.41956,-1.07517,1.64516,-0.913075,-1.88275,-1.07285,2.21942,1.36978,-1.03358,-0.687001,0.761556,-0.92789,0.734555,0.720145,0.871131,-0.694695,-0.687001,0.761556,-0.92789,0.734555,0.720145,0.871131,-0.694695,0.39701,-0.507763,0.786806,0.695969,0.0504009,0.0474545,0.714727,-0.679204,-0.360537,0.368126,2.02412,-0.499641,1.37513,-3.22859,-0.0208586,2.48853,-3.22859,-0.0208586,2.48853,-0.763519,0.761529,-0.55735,0.549862,0.294661,0.497751,-0.415882,1
1.56107,-0.82959,-1.94791,-1.01063,2.25514,1.42694,-1.08255,1.56107,-0.82959,-1.94791,-1.01063,2.25514,1.42694,-1.08255,1.63784,-0.90556,-1.89224,-1.0657,2.2263,1.37831,-1.04046,-0.754701,0.745485,-0.954627,0.71677,0.677691,0.838941,-0.679714,-0.754701,0.745485,-0.954627,0.71677,0.677691,0.838941,-0.679714,0.389665,-0.511212,0.790392,0.704978,0.0448986,0.0472548,0.706228,-0.710776,-0.376371,0.351579,1.99192,-0.49985,1.39971,-3.22043,-0.0209451,2.45886,-3.22043,-0.0209451,2.45886,-0.767676,0.759697,-0.556657,0.550747,0.288409,0.486222,-0.420944,1
1.55302,-0.821628,-1.95683,-1.00558,2.2651,1.43354,-1.08948,1.55302,-0.821628,-1.95683,-1.00558,2.2651,1.43354,-1.08948,1.62969,-0.897825,-1.90174,-1.05777,2.23282,1.38663,-1.04728,-0.824535,0.788617,-0.94124,0.805024,0.643329,0.83199,-0.691411,-0.824535,0.788617,-0.94124,0.805024,0.643329,0.83199,-0.691411,0.381663,-0.514833,0.794348,0.714353,0.0390708,0.0472382,0.697096,-0.774813,-0.380725,0.407541,1.96001,-0.500037,1.42279,-3.19068,-0.0187188,2.30806,-3.19068,-0.0187188,2.30806,-0.766729,0.761968,-0.550914,0.521944,0.322781,0.469117,-0.421982,1
1.54518,-0.814156,-1.9667,-0.996491,2.26698,1.44338,-1.09744,1.54518,-0.814156,-1.9667,-0.996491,2.26698,1.44338,-1.09744,1.62185,-0.89007,-1.91108,-1.05,2.23888,1.39507,-1.0545,-0.773193,0.76532,-0.944141,0.773529,0.591077,0.853622,-0.732937,-0.773193,0.76532,-0.944141,0.773529,0.591077,0.853622,-0.732937,0.373801,-0.517978,0.798359,0.723546,0.0329993,0.0474612,0.687852,-0.746415,-0.339596,0.390333,1.92776,-0.500161,1.44482,-3.2251,-0.0123262,2.20289,-3.2251,-0.0123262,2.20289,-0.76666,0.759142,-0.556192,0.53508,0.281054,0.483108,-0.429393,1
1.53677,-0.806536,-1.97657,-0.990585,2.2788,1.44939,-1.103,1.53677,-0.806536,-1.97657,-0.990585,2.2788,1.44939,-1.103,1.6138,-0.882604,-1.92121,-1.04166,2.24439,1.4037,-1.0621,-0.814468,0.748194,-1.02989,0.86557,0.541873,0.868339,-0.768064,-0.814468,0.748194,-1.02989,0.86557,0.541873,0.868339,-0.768064,0.365658,-0.521312,0.802202,0.733092,0.0268205,0.0480256,0.677901,-0.797653,-0.373499,0.389364,1.89602,-0.50014,1.46571,-3.17413,0.00208616,2.08848,-3.17413,0.00208616,2.08848,-0.770306,0.760684,-0.553658,0.510734,0.344166,0.456908,-0.408943,1
1.52941,-0.798648,-1.98661,-0.982098,2.28206,1.45823,-1.11214,1.52941,-0.798648,-1.98661,-0.982098,2.28206,1.45823,-1.11214,1.60611,-0.874896,-1.93117,-1.0332,2.24962,1.41227,-1.06988,-0.745437,0.770089,-0.982707,0.826381,0.523043,0.85452,-0.779617,-0.745437,0.770089,-0.982707,0.826381,0.523043,0.85452,-0.779617,0.357624,-0.524142,0.806296,0.742405,0.0203511,0.0487892,0.667863,-0.7556,-0.3012,0.407365,1.8645,-0.500009,1.48602,-3.15164,0.0131071,2.03148,-3.15164,0.0131071,2.03148,-0.767065,0.762478,-0.554431,0.511015,0.324349,0.459592,-0.422678,1
1.52168,-0.791696,-1.99678,-0.972455,2.2847,1.46824,-1.1206,1.52168,-0.791696,-1.99678,-0.972455,2.2847,1.46824,-1.1206,1.59864,-0.867516,-1.9412,-1.02511,2.25512,1.42069,-1.07771,-0.76484,0.728767,-1.01983,0.814504,0.557903,0.837251,-0.784159,-0.76484,0.728767,-1.01983,0.814504,0.557903,0.837251,-0.784159,0.349753,-0.526839,0.810137,0.751388,0.0141434,0.0494428,0.657853,-0.7701,-0.317059,0.377705,1.8326,-0.500042,1.50557,-3.18999,-0.00334978,1.95423,-3.18999,-0.00334978,1.95423,-0.769609,0.758203,-0.555845,0.526552,0.295754,0.475521,-0.428855,1
1.50958,-0.780592,-2.0117,-0.960708,2.29391,1.47918,-1.13247,1.50958,-0.780592,-2.0117,-0.960708,2.29391,1.47918,-1.13247,1.58666,-0.856405,-1.95636,-1.01274,2.26385,1.43305,-1.08934,-0.779137,0.752532,-0.973289,0.78973,0.599715,0.820973,-0.765007,-0.779137,0.752532,-0.973289,0.78973,0.599715,0.820973,-0.765007,0.341415,-0.529707,0.814035,0.760502,0.00793386,0.0500625,0.647355,-0.805898,-0.313162,0.39626,1.80087,-0.500018,1.52416,-3.17318,0.00247955,1.85988,-3.17318,0.00247955,1.85988,-0.770877,0.758128,-0.553368,0.52034,0.300639,0.461311,-0.431312,1
1.50578,-0.77725,-2.01666,-0.954624,2.29246,1.48562,-1.13766,1.50578,-0.77725,-2.01666,-0.954624,2.29246,1.48562,-1.13766,1.58281,-0.852672,-1.96115,-1.00892,2.26696,1.43714,-1.09314,-0.770233,0.7466,-0.958067,0.764253,0.621412,0.816829,-0.761425,-0.770233,0.7466,-0.958067,0.764253,0.621412,0.816829,-0.761425,0.333346,-0.531995,0.818033,0.768978,0.00168732,0.050483,0.637276,-0.773326,-0.258358,0.3986,1.76871,-0.500127,1.54165,-3.21565,-0.0109971,1.74831,-3.21565,-0.0109971,1.74831,-0.770322,0.754219,-0.555037,0.542965,0.255088,0.484837,-0.445135,1
1.49705,-0.770106,-2.0271,-0.947831,2.30175,1.49242,-1.14419,1.49705,-0.770106,-2.0271,-0.947831,2.30175,1.49242,-1.14419,1.57446,-0.845397,-1.9713,-1.00098,2.27332,1.44528,-1.1008,-0.858986,0.722788,-1.03142,0.810642,0.635936,0.818815,-0.768579,-0.858986,0.722788,-1.03142,0.810642,0.635936,0.818815,-0.768579,0.324842,-0.534544,0.821884,0.777599,-0.00443465,0.0508731,0.626683,-0.842598,-0.301445,0.386351,1.73689,-0.500287,1.55796,-3.18207,-0.0159681,1.6317,-3.18207,-0.0159681,1.6317,-0.774047,0.752915,-0.558008,0.531529,0.284318,0.471331,-0.433897,1
1.48923,-0.762258,-2.03644,-0.941039,2.30885,1.49984,-1.15223,1.48923,-0.762258,-2.03644,-0.941039,2.30885,1.49984,-1.15223,1.56616,-0.837872,-1.98109,-0.99312,2.27916,1.45337,-1.10846,-0.80163,0.763641,-0.948218,0.766817,0.558184,0.806544,-0.759878,-0.80163,0.763641,-0.948218,0.766817,0.558184,0.806544,-0.759878,0.316408,-0.536582,0.825961,0.785934,-0.0108356,0.0515403,0.616063,-0.794679,-0.214159,0.418726,1.70584,-0.500441,1.57342,-3.10568,-0.0154018,1.54605,-3.10568,-0.0154018,1.54605,-0.769334,0.756143,-0.553428,0.520815,0.296923,0.464669,-0.437708,1
1.48158,-0.755981,-2.04618,-0.929143,2.30289,1.51403,-1.16174,1.48158,-0.755981,-2.04618,-0.929143,2.30289,1.51403,-1.16174,1.55804,-0.830448,-1.9908,-0.985376,2.28434,1.46142,-1.11613,-0.8392,0.730038,-1.00306,0.795626,0.511092,0.807131,-0.777663,-0.8392,0.730038,-1.00306,0.795626,0.511092,0.807131,-0.777663,0.308144,-0.538282,0.829991,0.793996,-0.0173201,0.0525263,0.605402,-0.825216,-0.231642,0.399602,1.67327,-0.501365,1.58786,-3.25682,-0.0923812,1.44348,-3.25682,-0.0923812,1.44348,-0.764644,0.744665,-0.553797,0.562333,0.185468,0.526035,-0.456067,1
1.47194,-0.747821,-2.05642,-0.925815,2.31988,1.51377,-1.1667,1.47194,-0.747821,-2.05642,-0.925815,2.31988,1.51377,-1.1667,1.54952,-0.823209,-2.00091,-0.977012,2.28921,1.46971,-1.12421,-0.834802,0.732543,-0.993002,0.831554,0.478936,0.832909,-0.814729,-0.834802,0.732543,-0.993002,0.831554,0.478936,0.832909,-0.814729,0.299456,-0.540062,0.834036,0.802298,-0.0240727,0.0536663,0.594019,-0.835917,-0.205153,0.417328,1.64156,-0.501097,1.6009,-3.17099,0.0268221,1.30423,-3.17099,0.0268221,1.30423,-0.775746,0.75388,-0.555188,0.511969,0.306646,0.440541,-0.424884,1
1.465,-0.740609,-2.06609,-0.91444,2.31846,1.5264,-1.17677,1.465,-0.740609,-2.06609,-0.91444,2.31846,1.5264,-1.17677,1.54168,-0.815808,-2.01071,-0.968845,2.29406,1.47817,-1.1324,-0.78441,0.733885,-0.992954,0.819295,0.493662,0.850825,-0.81969,-0.78441,0.733885,-0.992954,0.819295,0.493662,0.850825,-0.81969,0.291164,-0.541223,0.838205,0.81011,-0.0310821,0.0548149,0.582881,-0.810835,-0.167223,0.418278,1.60925,-0.501323,1.61332,-3.23062,-0.0226438,1.2423,-3.23062,-0.0226438,1.2423,-0.766797,0.751992,-0.553803,0.544052,0.243998,0.482374,-0.443673,1
1.45651,-0.733794,-2.07659,-0.907099,2.32456,1.53588,-1.18446,1.45651,-0.733794,-2.07659,-0.907099,2.32456,1.53588,-1.18446,1.53341,-0.808608,-2.02116,-0.960195,2.29928,1.48662,-1.1406,-0.832405,0.719109,-1.04652,0.872587,0.515022,0.850022,-0.821464,-0.832405,0.719109,-1.04652,0.872587,0.515022,0.850022,-0.821464,0.282418,-0.542608,0.842301,0.818042,-0.0380623,0.055908,0.571169,-0.859447,-0.184417,0.418559,1.57748,-0.501878,1.62437,-3.17709,-0.0555098,1.10402,-3.17709,-0.0555098,1.10402,-0.768989,0.748143,-0.554251,0.530953,0.252773,0.492517,-0.438581,1
1.44813,-0.725786,-2.08635,-0.902133,2.33635,1.53707,-1.19114,1.44813,-0.725786,-2.08635,-0.902133,2.33635,1.53707,-1.19114,1.52553,-0.801389,-2.03123,-0.951816,2.30368,1.49527,-1.14883,-0.776464,0.721709,-0.997484,0.832178,0.426916,0.865876,-0.822255,-0.776464,0.721709,-0.997484,0.832178,0.426916,0.865876,-0.822255,0.274039,-0.543416,0.846418,0.825519,-0.0453078,0.0573367,0.559623,-0.810508,-0.123011,0.420538,1.54595,-0.501439,1.63452,-3.15324,0.0439048,1.01542,-3.15324,0.0439048,1.01542,-0.774007,0.756029,-0.551221,0.496832,0.326696,0.417988,-0.423118,1
1.44039,-0.718667,-2.0966,-0.893216,2.33692,1.54881,-1.20056,1.44039,-0.718667,-2.0966,-0.893216,2.33692,1.54881,-1.20056,1.51738,-0.794181,-2.04145,-0.943261,2.30847,1.50377,-1.15691,-0.833699,0.720439,-1.03623,0.872863,0.501945,0.838996,-0.803608,-0.833699,0.720439,-1.03623,0.872863,0.501945,0.838996,-0.803608,0.265426,-0.54418,0.850582,0.832857,-0.0525387,0.0586577,0.547858,-0.86158,-0.137367,0.428611,1.51425,-0.501453,1.64375,-3.16988,-0.00133514,0.922668,-3.16988,-0.00133514,0.922668,-0.769903,0.755141,-0.551435,0.500457,0.28451,0.450465,-0.436533,1
1.43196,-0.711957,-2.10698,-0.883469,2.33791,1.55977,-1.20943,1.43196,-0.711957,-2.10698,-0.883469,2.33791,1.55977,-1.20943,1.50905,-0.78698,-2.05165,-0.934869,2.31349,1.51209,-1.16494,-0.817317,0.715334,-1.00388,0.822962,0.49905,0.838397,-0.803069,-0.817317,0.715334,-1.00388,0.822962,0.49905,0.838397,-0.803069,0.25676,-0.544791,0.85473,0.839968,-0.0596843,0.0599405,0.536003,-0.837764,-0.102365,0.420947,1.48264,-0.501834,1.65221,-3.16125,-0.0381827,0.84672,-3.16125,-0.0381827,0.84672,-0.770974,0.750224,-0.553345,0.513998,0.244192,0.476776,-0.444822,1
1.42438,-0.704846,-2.11703,-0.874952,2.34281,1.56979,-1.21704,1.42438,-0.704846,-2.11703,-0.874952,2.34281,1.56979,-1.21704,1.501,-0.779776,-2.06157,-0.926663,2.31843,1.52051,-1.17297,-0.815172,0.72443,-1.00101,0.82857,0.502329,0.840039,-0.801858,-0.815172,0.72443,-1.00101,0.82857,0.502329,0.840039,-0.801858,0.24831,-0.545013,0.858897,0.846687,-0.0669642,0.0612143,0.524299,-0.838563,-0.0759068,0.430904,1.45134,-0.502523,1.65923,-3.12998,-0.0688374,0.701427,-3.12998,-0.0688374,0.701427,-0.76625,0.749306,-0.554606,0.517109,0.243756,0.492753,-0.440767,1
1.41526,-0.697527,-2.12751,-0.867749,2.34831,1.57555,-1.22505,1.41526,-0.697527,-2.12751,-0.867749,2.34831,1.57555,-1.22505,1.49242,-0.772558,-2.07187,-0.918283,2.32411,1.52856,-1.18093,-0.862221,0.721602,-1.0258,0.824963,0.582075,0.794728,-0.795567,-0.862221,0.721602,-1.0258,0.824963,0.582075,0.794728,-0.795567,0.239469,-0.545338,0.863087,0.853404,-0.0740454,0.0623263,0.512186,-0.869553,-0.0812272,0.428499,1.41999,-0.502738,1.66543,-3.1351,-0.0215292,0.619948,-3.1351,-0.0215292,0.619948,-0.771547,0.750305,-0.556364,0.505339,0.242009,0.469892,-0.441194,1
1.40735,-0.690114,-2.13759,-0.859544,2.35089,1.58348,-1.23281,1.40735,-0.690114,-2.13759,-0.859544,2.35089,1.58348,-1.23281,1.48425,-0.765381,-2.0817,-0.910498,2.32975,1.53653,-1.18893,-0.810043,0.718366,-0.979328,0.772629,0.548021,0.799773,-0.802242,-0.810043,0.718366,-0.979328,0.772629,0.548021,0.799773,-0.802242,0.231073,-0.545245,0.867192,0.859623,-0.0810568,0.0633784,0.50046,-0.819696,-0.0341406,0.421968,1.38869,-0.503088,1.67078,-3.12977,-0.0350058,0.53525,-3.12977,-0.0350058,0.53525,-0.768928,0.752667,-0.558862,0.509536,0.211388,0.469467,-0.438852,1
1.39777,-0.68321,-2.14893,-0.853257,2.35789,1.58895,-1.23989,1.39777,-0.68321,-2.14893,-0.853257,2.35789,1.58895,-1.23989,1.47554,-0.758185,-2.09203,-0.902216,2.33473,1.54476,-1.19709,-0.889868,0.721757,-1.04417,0.847757,0.484899,0.836899,-0.82108,-0.889868,0.721757,-1.04417,0.847757,0.484899,0.836899,-0.82108,0.222303,-0.545043,0.871346,0.865919,-0.0883823,0.0649068,0.488017,-0.885076,-0.0353853,0.434538,1.3572,-0.503275,1.67531,-3.14866,-0.0186563,0.453186,-3.14866,-0.0186563,0.453186,-0.777712,0.749748,-0.568928,0.489593,0.231631,0.441851,-0.427992,1
1.38952,-0.675368,-2.15888,-0.848941,2.36666,1.59305,-1.24704,1.38952,-0.675368,-2.15888,-0.848941,2.36666,1.59305,-1.24704,1.46712,-0.750891,-2.10203,-0.894213,2.33911,1.5533,-1.20532,-0.815271,0.728287,-0.983522,0.783812,0.426937,0.858679,-0.822654,-0.815271,0.728287,-0.983522,0.783812,0.426937,0.858679,-0.822654,0.213874,-0.544321,0.875519,0.871791,-0.0959909,0.0666732,0.475733,-0.814798,0.0260596,0.430418,1.32607,-0.503067,1.67878,-3.1137,0.0207543,0.347137,-3.1137,0.0207543,0.347137,-0.775954,0.755229,-0.568513,0.452719,0.275491,0.397552,-0.417175,1
1.38065,-0.66862,-2.16996,-0.84273,2.36969,1.60024,-1.25466,1.38065,-0.66862,-2.16996,-0.84273,2.36969,1.60024,-1.25466,1.45873,-0.743914,-2.11231,-0.886103,2.34328,1.56187,-1.21354,-0.861831,0.690632,-1.05192,0.841937,0.416793,0.849151,-0.821683,-0.861831,0.690632,-1.05192,0.841937,0.416793,0.849151,-0.821683,0.205472,-0.543565,0.879505,0.877468,-0.103546,0.0685787,0.463277,-0.859862,0.00496192,0.417374,1.29493,-0.502849,1.68122,-3.11369,0.0218451,0.243342,-3.11369,0.0218451,0.243342,-0.780818,0.752941,-0.576543,0.433724,0.26413,0.383716,-0.411206,1
1.37287,-0.66101,-2.1797,-0.832183,2.36904,1.61312,-1.26354,1.37287,-0.66101,-2.1797,-0.832183,2.36904,1.61312,-1.26354,1.45017,-0.736689,-2.12261,-0.877787,2.34733,1.57032,-1.2217,-0.835441,0.730648,-1.00944,0.811029,0.399343,0.83803,-0.811748,-0.835441,0.730648,-1.00944,0.811029,0.399343,0.83803,-0.811748,0.196999,-0.542496,0.883682,0.882935,-0.111273,0.0706569,0.450612,-0.825333,0.0606328,0.438371,1.2635,-0.503295,1.6829,-3.14313,-0.0445962,0.16886,-3.14313,-0.0445962,0.16886,-0.772934,0.756793,-0.570943,0.456043,0.217108,0.427954,-0.41841,1
1.36457,-0.6543,-2.18994,-0.823983,2.372,1.62312,-1.27131,1.36457,-0.6543,-2.18994,-0.823983,2.372,1.62312,-1.27131,1.44199,-0.729581,-2.13274,-0.87008,2.35152,1.57848,-1.22966,-0.829832,0.696588,-1.02862,0.775183,0.438039,0.806103,-0.791266,-0.829832,0.696588,-1.02862,0.775183,0.438039,0.806103,-0.791266,0.188979,-0.541224,0.887666,0.88795,-0.118676,0.0726792,0.438381,-0.814323,0.0562941,0.409521,1.23236,-0.503896,1.68356,-3.1139,-0.0601232,0.0654221,-3.1139,-0.0601232,0.0654221,-0.774221,0.752812,-0.572076,0.460973,0.204768,0.446471,-0.416441,1
1.35573,-0.647056,-2.20062,-0.818074,2.37688,1.62926,-1.27818,1.35573,-0.647056,-2.20062,-0.818074,2.37688,1.62926,-1.27818,1.43323,-0.722498,-2.14338,-0.862168,2.3565,1.58598,-1.23741,-0.877675,0.723673,-1.05958,0.782146,0.516159,0.730529,-0.76991,-0.877675,0.723673,-1.05958,0.782146,0.516159,0.730529,-0.76991,0.180557,-0.540114,0.891662,0.892955,-0.125699,0.074574,0.425759,-0.843231,0.0644218,0.426281,1.20116,-0.504412,1.68301,-3.11993,-0.0516295,-0.0551581,-3.11993,-0.0516295,-0.0551581,-0.774967,0.754422,-0.572365,0.440944,0.203723,0.43283,-0.407639,1
1.3476,-0.639429,-2.21075,-0.811145,2.38172,1.63582,-1.28593,1.3476,-0.639429,-2.21075,-0.811145,2.38172,1.63582,-1.28593,1.42489,-0.715063,-2.15355,-0.855034,2.36162,1.59312,-1.24499,-0.826824,0.740895,-1.01164,0.695378,0.501682,0.713666,-0.755708,-0.826824,0.740895,-1.01164,0.695378,0.501682,0.713666,-0.755708,0.172702,-0.538522,0.895714,0.897454,-0.132561,0.0764492,0.413714,-0.779401,0.108881,0.418883,1.17008,-0.504945,1.68146,-3.10833,-0.0533104,-0.155032,-3.10833,-0.0533104,-0.155032,-0.772907,0.756335,-0.571954,0.438883,0.201022,0.427003,-0.409344,1
1.33805,-0.632536,-2.22238,-0.806904,2.3848,1.64023,-1.29229,1.33805,-0.632536,-2.22238,-0.806904,2.3848,1.64023,-1.29229,1.41604,-0.707854,-2.1642,-0.847855,2.36607,1.60053,-1.25262,-0.904999,0.714589,-1.08121,0.730648,0.427205,0.750974,-0.767081,-0.904999,0.714589,-1.08121,0.730648,0.427205,0.750974,-0.767081,0.164656,-0.536928,0.899558,0.901886,-0.139449,0.0787897,0.401183,-0.830196,0.0996625,0.40312,1.13835,-0.505061,1.679,-3.17211,-0.0115693,-0.246167,-3.17211,-0.0115693,-0.246167,-0.779929,0.753188,-0.58182,0.409504,0.187367,0.397078,-0.396641,1
1.32917,-0.625398,-2.23331,-0.803311,2.39141,1.64645,-1.29918,1.32917,-0.625398,-2.23331,-0.803311,2.39141,1.64645,-1.29918,1.40722,-0.700506,-2.17459,-0.840463,2.36986,1.60843,-1.26035,-0.860776,0.742106,-1.01728,0.730421,0.365959,0.804713,-0.772918,-0.860776,0.742106,-1.01728,0.730421,0.365959,0.804713,-0.772918,0.156714,-0.534863,0.903531,0.906002,-0.146858,0.0813979,0.388547,-0.788991,0.161534,0.425144,1.10702,-0.505128,1.67542,-3.13336,-0.00665188,-0.357234,-3.13336,-0.00665188,-0.357234,-0.780552,0.751082,-0.587181,0.37152,0.215525,0.380228,-0.388268,1
1.31599,-0.615515,-2.25004,-0.792219,2.39345,1.66194,-1.30994,1.31599,-0.615515,-2.25004,-0.792219,2.39345,1.66194,-1.30994,1.39409,-0.689861,-2.19046,-0.829804,2.37516,1.62065,-1.27183,-0.89483,0.692876,-1.07534,0.720547,0.360592,0.813531,-0.762047,-0.89483,0.692876,-1.07534,0.720547,0.360592,0.813531,-0.762047,0.145097,-0.531583,0.909094,0.911653,-0.157869,0.0855831,0.369651,-0.797576,0.151329,0.392683,1.07556,-0.50567,1.67048,-3.14641,-0.0542283,-0.494492,-3.14641,-0.0542283,-0.494492,-0.781094,0.743469,-0.595764,0.375852,0.182928,0.412985,-0.381079,1
1.31155,-0.611619,-2.2548,-0.799426,2.40145,1.6617,-1.31168,1.31155,-0.611619,-2.2548,-0.799426,2.40145,1.6617,-1.31168,1.38981,-0.686289,-2.19565,-0.826184,2.37697,1.62459,-1.27561,-0.857876,0.714421,-1.03696,0.724069,0.361108,0.788378,-0.756151,-0.857876,0.714421,-1.03696,0.724069,0.361108,0.788378,-0.756151,0.141304,-0.530364,0.911,0.913388,-0.161553,0.0869483,0.363406,-0.776251,0.181657,0.407565,1.04494,-0.505586,1.66469,-3.06171,0.00841022,-0.578487,-3.06171,0.00841022,-0.578487,-0.782561,0.746709,-0.591508,0.267572,0.244822,0.371136,-0.360673,1
1.30411,-0.603821,-2.26536,-0.791536,2.40019,1.67118,-1.31942,1.30411,-0.603821,-2.26536,-0.791536,2.40019,1.67118,-1.31942,1.38142,-0.678969,-2.20598,-0.819336,2.38055,1.63212,-1.28298,-0.850014,0.726382,-1.05369,0.67643,0.362297,0.739217,-0.730888,-0.850014,0.726382,-1.05369,0.67643,0.362297,0.739217,-0.730888,0.134048,-0.527736,0.914802,0.916595,-0.168707,0.0897954,0.351182,-0.750712,0.196606,0.399319,1.01397,-0.50574,1.65824,-3.09724,-0.015384,-0.645077,-3.09724,-0.015384,-0.645077,-0.773116,0.751484,-0.593736,0.277993,0.196412,0.390661,-0.364311,1
1.2918,-0.593212,-2.28124,-0.783059,2.40079,1.6847,-1.32948,1.2918,-0.593212,-2.28124,-0.783059,2.40079,1.6847,-1.32948,1.36839,-0.668134,-2.22173,-0.809982,2.38643,1.64257,-1.29342,-0.846019,0.736342,-1.01623,0.598107,0.387686,0.667362,-0.676782,-0.846019,0.736342,-1.01623,0.598107,0.387686,0.667362,-0.676782,0.126719,-0.525267,0.918363,0.919665,-0.175326,0.0926682,0.338955,-0.74491,0.198933,0.384955,0.982973,-0.506463,1.65047,-3.09942,-0.0723124,-0.777054,-3.09942,-0.0723124,-0.777054,-0.765895,0.749222,-0.595141,0.26923,0.143585,0.421372,-0.360609,1
1.28708,-0.590062,-2.2867,-0.784748,2.40527,1.68744,-1.33206,1.28708,-0.590062,-2.2867,-0.784748,2.40527,1.68744,-1.33206,1.36406,-0.664479,-2.22694,-0.807028,2.38846,1.64594,-1.29682,-0.865445,0.731057,-1.04274,0.590665,0.405077,0.674505,-0.678459,-0.865445,0.731057,-1.04274,0.590665,0.405077,0.674505,-0.678459,0.119785,-0.522529,0.921963,0.922384,-0.181767,0.0955358,0.327173,-0.723774,0.218987,0.382428,0.952291,-0.507026,1.64187,-3.06816,-0.0563622,-0.860226,-3.06816,-0.0563622,-0.860226,-0.769846,0.744162,-0.597566,0.222806,0.168062,0.415018,-0.352429,1
1.27817,-0.582697,-2.2973,-0.783855,2.41063,1.69451,-1.33816,1.27817,-0.582697,-2.2973,-0.783855,2.41063,1.69451,-1.33816,1.35502,-0.657197,-2.23769,-0.801714,2.39291,1.65293,-1.30355,-0.905687,0.735,-1.07309,0.51253,0.45192,0.709809,-0.673306,-0.905687,0.735,-1.07309,0.51253,0.45192,0.709809,-0.673306,0.112721,-0.519848,0.925289,0.924981,-0.187981,0.0984045,0.315261,-0.728895,0.223575,0.357081,0.921692,-0.507378,1.63246,-3.05994,-0.0351787,-0.941038,-3.05994,-0.0351787,-0.941038,-0.768552,0.745006,-0.596108,0.178592,0.177234,0.415857,-0.346031,1
1.27003,-0.575401,-2.30758,-0.784343,2.41497,1.70215,-1.34366,1.27003,-0.575401,-2.30758,-0.784343,2.41497,1.70215,-1.34366,1.34623,-0.649723,-2.24816,-0.797248,2.39698,1.66008,-1.31017,-0.873666,0.741207,-1.04355,0.429409,0.387264,0.715777,-0.653533,-0.873666,0.741207,-1.04355,0.429409,0.387264,0.715777,-0.653533,0.106177,-0.516885,0.928471,0.927208,-0.194123,0.101484,0.303813,-0.673338,0.245531,0.337488,0.890972,-0.507566,1.62227,-3.07204,-0.0187755,-1.01933,-3.07204,-0.0187755,-1.01933,-0.76201,0.743221,-0.594175,0.129052,0.179978,0.420644,-0.334953,1
1.26084,-0.568445,-2.31833,-0.8007,2.42124,1.70852,-1.34683,1.26084,-0.568445,-2.31833,-0.8007,2.42124,1.70852,-1.34683,1.33705,-0.642323,-2.25892,-0.79293,2.40024,1.6674,-1.31666,-0.930038,0.744898,-1.08293,0.431674,0.316089,0.748589,-0.653389,-0.930038,0.744898,-1.08293,0.431674,0.316089,0.748589,-0.653389,0.0996386,-0.513865,0.931486,0.929258,-0.20021,0.105121,0.292138,-0.694148,0.256894,0.331305,0.860397,-0.507301,1.61067,-3.05752,0.0264525,-1.15949,-3.05752,0.0264525,-1.15949,-0.762122,0.738781,-0.594125,-0.0776981,0.210049,0.41117,-0.301747,1
1.25372,-0.561652,-2.32872,-0.812485,2.42846,1.71754,-1.35128,1.25372,-0.561652,-2.32872,-0.812485,2.42846,1.71754,-1.35128,1.32807,-0.634747,-2.26949,-0.789065,2.40321,1.6753,-1.32323,-0.882091,0.759746,-1.04612,0.372054,0.296473,0.80217,-0.657008,-0.882091,0.759746,-1.04612,0.372054,0.296473,0.80217,-0.657008,0.0934545,-0.510519,0.93442,0.930964,-0.206544,0.108892,0.280693,-0.641144,0.288523,0.32206,0.829771,-0.506993,1.59846,-3.06252,0.0307858,-1.22126,-3.06252,0.0307858,-1.22126,-0.743509,0.730947,-0.592318,-0.234208,0.252467,0.422385,-0.280513,1
1.24826,-0.555022,-2.33818,-0.825486,2.43575,1.7324,-1.3571,1.24826,-0.555022,-2.33818,-0.825486,2.43575,1.7324,-1.3571,1.31915,-0.627374,-2.28032,-0.785826,2.40634,1.68333,-1.32973,-0.905543,0.732795,-1.10221,0.306669,0.320115,0.801199,-0.648164,-0.905543,0.732795,-1.10221,0.306669,0.320115,0.801199,-0.648164,0.087455,-0.507283,0.93703,0.932486,-0.212568,0.112686,0.269418,-0.643894,0.267732,0.282651,0.799126,-0.507163,1.58538,-3.06457,-0.0169218,-1.30833,-3.06457,-0.0169218,-1.30833,-0.708849,0.723518,-0.578594,-0.396605,0.294098,0.490723,-0.273645,1
1.24493,-0.548375,-2.34667,-0.824483,2.44684,1.74578,-1.365,1.24493,-0.548375,-2.34667,-0.824483,2.44684,1.74578,-1.365,1.31026,-0.619772,-2.29112,-0.783905,2.40987,1.69136,-1.33602,-0.866979,0.768159,-1.05996,0.130062,0.363967,0.802002,-0.618851,-0.866979,0.768159,-1.05996,0.130062,0.363967,0.802002,-0.618851,0.0818439,-0.504014,0.93938,0.933774,-0.218162,0.116433,0.258677,-0.572076,0.284123,0.253539,0.768105,-0.50808,1.57118,-3.10205,-0.0916839,-1.41984,-3.10205,-0.0916839,-1.41984,-0.653273,0.71397,-0.5555,-0.405785,0.369696,0.544185,-0.289788,1
1.23974,-0.540583,-2.35612,-0.830783,2.46267,1.7532,-1.36984,1.23974,-0.540583,-2.35612,-0.830783,2.46267,1.7532,-1.36984,1.3016,-0.611936,-2.30175,-0.784405,2.41404,1.69933,-1.34175,-0.885902,0.782744,-1.08116,-0.10027,0.437903,0.790713,-0.557673,-0.885902,0.782744,-1.08116,-0.10027,0.437903,0.790713,-0.557673,0.0769294,-0.500892,0.941195,0.934814,-0.222863,0.120032,0.249092,-0.534171,0.262755,0.19187,0.737689,-0.50878,1.55608,-3.04162,-0.0700533,-1.51006,-3.04162,-0.0700533,-1.51006,-0.618656,0.713528,-0.5437,-0.463782,0.486316,0.538732,-0.280831,1
1.23216,-0.533309,-2.36861,-0.837634,2.47643,1.75992,-1.37125,1.23216,-0.533309,-2.36861,-0.837634,2.47643,1.75992,-1.37125,1.29219,-0.60388,-2.31263,-0.787213,2.41903,1.70734,-1.34696,-0.941399,0.82754,-1.06924,-0.345701,0.518915,0.811301,-0.511715,-0.941399,0.82754,-1.06924,-0.345701,0.518915,0.811301,-0.511715,0.072091,-0.498074,0.942452,0.935818,-0.226616,0.123604,0.240026,-0.50858,0.258663,0.142538,0.707133,-0.509433,1.53978,-3.05563,-0.065285,-1.62972,-3.05563,-0.065285,-1.62972,-0.600274,0.705706,-0.559853,-0.504216,0.574002,0.525802,-0.242954,1
1.22192,-0.525712,-2.37969,-0.847204,2.48832,1.76433,-1.37018,1.22192,-0.525712,-2.37969,-0.847204,2.48832,1.76433,-1.37018,1.28287,-0.595176,-2.32286,-0.792438,2.42498,1.71613,-1.352,-0.949033,0.869819,-1.03318,-0.579448,0.62305,0.908048,-0.505699,-0.949033,0.869819,-1.03318,-0.579448,0.62305,0.908048,-0.505699,0.0678248,-0.495051,0.943367,0.936557,-0.230143,0.126745,0.232015,-0.465986,0.266196,0.0937476,0.676355,-0.509423,1.52284,-3.07777,0.00101924,-1.69419,-3.07777,0.00101924,-1.69419,-0.609495,0.694637,-0.56835,-0.547664,0.633405,0.481963,-0.18179,1
1.20961,-0.52286,-2.39451,-0.853534,2.49758,1.77143,-1.3744,1.20961,-0.52286,-2.39451,-0.853534,2.49758,1.77143,-1.3744,1.27276,-0.586673,-2.33343,-0.799066,2.43232,1.7259,-1.35724,-1.01118,0.85841,-1.04224,-0.686405,0.770578,0.992307,-0.529295,-1.01118,0.85841,-1.04224,-0.686405,0.770578,0.992307,-0.529295,0.0631449,-0.492357,0.943721,0.937374,-0.233366,0.129361,0.223911,-0.499622,0.249948,0.0535708,0.6455,-0.5097,1.50463,-3.08547,-0.0277638,-1.82033,-3.08547,-0.0277638,-1.82033,-0.631473,0.638132,-0.610794,-0.544682,0.652604,0.455281,-0.171611,1
1.20408,-0.520643,-2.40671,-0.855704,2.50938,1.78002,-1.38231,1.20408,-0.520643,-2.40671,-0.855704,2.50938,1.78002,-1.38231,1.26331,-0.577872,-2.34324,-0.806664,2.44129,1.7362,-1.36248,-0.933514,0.866476,-0.980191,-0.786255,0.94236,1.04369,-0.517299,-0.933514,0.866476,-0.980191,-0.786255,0.94236,1.04369,-0.517299,0.0588237,-0.489442,0.944033,0.938009,-0.236743,0.13093,0.216678,-0.452788,0.258094,0.0349951,0.614769,-0.510412,1.48485,-3.07317,-0.0711441,-1.97788,-3.07317,-0.0711441,-1.97788,-0.592288,0.572286,-0.634717,-0.490396,0.680959,0.438217,-0.19833,1
1.18839,-0.523852,-2.41919,-0.856307,2.52444,1.78642,-1.38756,1.18839,-0.523852,-2.41919,-0.856307,2.52444,1.78642,-1.38756,1.25389,-0.569748,-2.35349,-0.815023,2.45214,1.74663,-1.3671,-0.933346,0.804686,-1.02547,-0.840962,1.12948,1.03828,-0.438121,-0.933346,0.804686,-1.02547,-0.840962,1.12948,1.03828,-0.438121,0.0541806,-0.487116,0.943829,0.938773,-0.239464,0.131612,0.209858,-0.483288,0.210258,-0.0110777,0.584775,-0.510485,1.46435,-2.99932,-0.00734329,-2.05011,-2.99932,-0.00734329,-2.05011,-0.654964,0.458959,-0.657016,-0.412841,0.722998,0.397914,-0.204556,1
1.1805,-0.524024,-2.43034,-0.84754,2.53707,1.79682,-1.39432,1.1805,-0.524024,-2.43034,-0.84754,2.53707,1.79682,-1.39432,1.24533,-0.561282,-2.36343,-0.823427,2.46433,1.75645,-1.37065,-0.837275,0.855851,-0.998011,-0.848109,1.2461,0.962177,-0.332007,-0.837275,0.855851,-0.998011,-0.848109,1.2461,0.962177,-0.332007,0.0498523,-0.4846,0.943887,0.939396,-0.242059,0.131628,0.204003,-0.433982,0.23806,0.0200914,0.55453,-0.510595,1.44309,-3.02453,-0.0110209,-2.12673,-3.02453,-0.0110209,-2.12673,-0.648304,0.372587,-0.669081,-0.24113,0.727403,0.403693,-0.236733,1
1.17632,-0.51988,-2.44375,-0.828413,2.54737,1.81739,-1.40567,1.17632,-0.51988,-2.44375,-0.828413,2.54737,1.81739,-1.40567,1.23692,-0.553191,-2.37408,-0.832175,2.47719,1.7655,-1.37368,-0.839815,0.800015,-1.08419,-0.879209,1.28863,0.88761,-0.303364,-0.839815,0.800015,-1.08419,-0.879209,1.28863,0.88761,-0.303364,0.0454072,-0.482549,0.943678,0.940195,-0.243835,0.131483,0.198218,-0.459052,0.187499,-0.0203717,0.524022,-0.511472,1.42075,-3.05086,-0.0876963,-2.23366,-3.05086,-0.0876963,-2.23366,-0.606001,0.333119,-0.696666,0.0376201,0.701811,0.518894,-0.319962,1
1.17939,-0.518919,-2.45648,-0.841626,2.5582,1.82864,-1.41178,1.17939,-0.518919,-2.45648,-0.841626,2.5582,1.82864,-1.41178,1.22905,-0.545153,-2.38503,-0.840172,2.49006,1.77387,-1.37699,-0.772175,0.805396,-1.10246,-0.763965,1.28162,0.821958,-0.343249,-0.772175,0.805396,-1.10246,-0.763965,1.28162,0.821958,-0.343249,0.0410209,-0.480458,0.943671,0.941034,-0.245588,0.13127,0.19212,-0.448807,0.206501,0.0178888,0.494054,-0.512064,1.39724,-2.99676,-0.0591934,-2.35118,-2.99676,-0.0591934,-2.35118,-0.496575,0.262339,-0.714451,-0.0145409,0.681347,0.547706,-0.347912,1
1.16671,-0.520385,-2.46946,-0.848214,2.56699,1.83692,-1.41229,1.16671,-0.520385,-2.46946,-0.848214,2.56699,1.83692,-1.41229,1.22148,-0.537742,-2.39657,-0.846921,2.50295,1.78175,-1.38082,-0.75542,0.715919,-1.17363,-0.635276,1.28888,0.787167,-0.397395,-0.75542,0.715919,-1.17363,-0.635276,1.28888,0.787167,-0.397395,0.0363417,-0.478577,0.943719,0.941992,-0.247331,0.130933,0.185295,-0.494872,0.173225,0.010392,0.464174,-0.512269,1.37325,-2.98796,-0.0204206,-2.39922,-2.98796,-0.0204206,-2.39922,-0.547761,0.173576,-0.728898,-0.0129271,0.64044,0.551677,-0.314677,1
1.16728,-0.528007,-2.48224,-0.873307,2.57588,1.84395,-1.42044,1.16728,-0.528007,-2.48224,-0.873307,2.57588,1.84395,-1.42044,1.21431,-0.531349,-2.40857,-0.851315,2.51575,1.78964,-1.38534,-0.693125,0.612673,-1.19429,-0.368596,1.27989,0.804449,-0.476061,-0.693125,0.612673,-1.19429,-0.368596,1.27989,0.804449,-0.476061,0.0311538,-0.47679,0.943945,0.942957,-0.249678,0.130349,0.177487,-0.534346,0.170782,0.0413524,0.43418,-0.512198,1.3484,-2.99946,0.00702739,-2.48499,-2.99946,0.00702739,-2.48499,-0.470225,0.0334235,-0.736617,-0.21992,0.601294,0.543054,-0.350905,1
1.16554,-0.567433,-2.4951,-0.896078,2.58281,1.8583,-1.43596,1.16554,-0.567433,-2.4951,-0.896078,2.58281,1.8583,-1.43596,1.20829,-0.525936,-2.4204,-0.852714,2.5282,1.79862,-1.391,-0.576827,0.512326,-1.19416,-0.0976858,1.23253,0.926631,-0.595187,-0.576827,0.512326,-1.19416,-0.0976858,1.23253,0.926631,-0.595187,0.0258344,-0.474655,0.944517,0.943606,-0.253635,0.129316,0.168979,-0.53846,0.18759,0.0698458,0.404137,-0.512193,1.32238,-3.00432,0.000494719,-2.60134,-3.00432,0.000494719,-2.60134,-0.427462,-0.414979,-0.746981,-0.433638,0.546185,0.596873,-0.44957,1
1.15648,-0.579586,-2.50836,-0.911606,2.5964,1.86797,-1.45241,1.15648,-0.579586,-2.50836,-0.911606,2.5964,1.86797,-1.45241,1.20312,-0.521736,-2.4326,-0.853325,2.54023,1.80887,-1.39747,-0.493666,0.407713,-1.21418,-0.04952,1.18877,1.05448,-0.653684,-0.493666,0.407713,-1.21418,-0.04952,1.18877,1.05448,-0.653684,0.0205113,-0.472792,0.944626,0.94409,-0.258121,0.128104,0.160176,-0.526671,0.162132,0.0260888,0.374177,-0.512165,1.2956,-2.99598,0.00286698,-2.67869,-2.99598,0.00286698,-2.67869,-0.466382,-0.578494,-0.757539,-0.582804,0.561752,0.590924,-0.549445,1
1.14887,-0.580345,-2.51882,-0.917411,2.60643,1.87978,-1.46046,1.14887,-0.580345,-2.51882,-0.917411,2.60643,1.87978,-1.46046,1.19857,-0.517704,-2.44453,-0.854074,2.5517,1.81985,-1.4038,-0.456454,0.388922,-1.1952,-0.104877,1.12881,1.10667,-0.627546,-0.456454,0.388922,-1.1952,-0.104877,1.12881,1.10667,-0.627546,0.0155806,-0.470809,0.944566,0.944292,-0.262934,0.126992,0.151827,-0.493887,0.158822,-0.0020811,0.343749,-0.512523,1.26774,-3.04275,-0.035882,-2.78603,-3.04275,-0.035882,-2.78603,-0.496985,-0.626415,-0.742842,-0.633373,0.547327,0.599311,-0.566583,1
1.14276,-0.578844,-2.53114,-0.921914,2.61778,1.89001,-1.46735,1.14276,-0.578844,-2.53114,-0.921914,2.61778,1.89001,-1.46735,1.19366,-0.51415,-2.45658,-0.856234,2.56263,1.83082,-1.41027,-0.502487,0.350943,-1.2087,-0.255738,1.07289,1.09817,-0.662205,-0.502487,0.350943,-1.2087,-0.255738,1.07289,1.09817,-0.662205,0.010673,-0.469329,0.943868,0.944593,-0.266926,0.126112,0.143494,-0.498174,0.11734,-0.0670483,0.313565,-0.513278,1.23896,-3.01845,-0.0754297,-2.8779,-3.01845,-0.0754297,-2.8779,-0.508981,-0.646935,-0.745611,-0.656806,0.551541,0.591935,-0.570856,1
1.13236,-0.578462,-2.54448,-0.927972,2.62581,1.89985,-1.4728,1.13236,-0.578462,-2.54448,-0.927972,2.62581,1.89985,-1.4728,1.1882,-0.51101,-2.46886,-0.860634,2.57287,1.8418,-1.41786,-0.561762,0.299325,-1.23486,-0.506885,1.01134,1.09766,-0.799092,-0.561762,0.299325,-1.23486,-0.506885,1.01134,1.09766,-0.799092,0.00580633,-0.468502,0.942311,0.945151,-0.269795,0.125467,0.13475,-0.502398,0.0505907,-0.170537,0.283961,-0.514236,1.209,-2.96036,-0.0958562,-2.99597,-2.96036,-0.0958562,-2.99597,-0.558449,-0.674523,-0.75614,-0.673384,0.52938,0.580574,-0.549338,1
1.11881,-0.576001,-2.55724,-0.93719,2.62356,1.91152,-1.47845,1.11881,-0.576001,-2.55724,-0.93719,2.62356,1.91152,-1.47845,1.18221,-0.508243,-2.48125,-0.86758,2.58279,1.85283,-1.42726,-0.61664,0.268477,-1.24631,-0.768208,0.990037,1.10985,-0.985272,-0.61664,0.268477,-1.24631,-0.768208,0.990037,1.10985,-0.985272,0.000961835,-0.46835,0.93985,0.946048,-0.271507,0.124734,0.125376,-0.505441,-0.00373593,-0.266362,0.254339,-0.51433,1.17846,-2.96218,-0.00939369,-3.05401,-2.96218,-0.00939369,-3.05401,-0.634041,-0.677583,-0.759889,-0.696095,0.407744,0.586905,-0.511896,1
1.10911,-0.57579,-2.56872,-0.946694,2.60446,1.92538,-1.48602,1.10911,-0.57579,-2.56872,-0.946694,2.60446,1.92538,-1.48602,1.17568,-0.506028,-2.4935,-0.877099,2.59283,1.8641,-1.43798,-0.658334,0.210221,-1.20875,-1.00597,1.00896,1.13191,-1.09092,-0.658334,0.210221,-1.20875,-1.00597,1.00896,1.13191,-1.09092,-0.00399272,-0.468918,0.936416,0.94727,-0.272066,0.123622,0.115661,-0.511222,-0.0609331,-0.363758,0.224311,-0.515168,1.14695,-3.00288,-0.0837445,-3.15102,-3.00288,-0.0837445,-3.15102,-0.665703,-0.697614,-0.752244,-0.695952,0.116266,0.612803,-0.480388,1
1.09896,-0.575405,-2.58107,-0.957854,2.57999,1.93651,-1.49327,1.09896,-0.575405,-2.58107,-0.957854,2.57999,1.93651,-1.49327,1.16861,-0.504182,-2.50579,-0.887874,2.603,1.87559,-1.44889,-0.723986,0.166841,-1.23384,-1.08919,1.01942,1.15441,-1.08334,-0.723986,0.166841,-1.23384,-1.08919,1.01942,1.15441,-1.08334,-0.00925427,-0.469824,0.932442,0.948605,-0.27201,0.122377,0.105746,-0.558616,-0.0861727,-0.413303,0.193954,-0.515314,1.11476,-3.0356,-0.0146747,-3.21883,-3.0356,-0.0146747,-3.21883,-0.696495,-0.712226,-0.752762,-0.699799,-0.230055,0.609148,-0.443776,1
1.09167,-0.578332,-2.59318,-0.969722,2.58028,1.94458,-1.50149,1.09167,-0.578332,-2.59318,-0.969722,2.58028,1.94458,-1.50149,1.16133,-0.503273,-2.51798,-0.899002,2.61296,1.88708,-1.45912,-0.72902,0.0655762,-1.2242,-1.10335,0.972138,1.15063,-0.997963,-0.72902,0.0655762,-1.2242,-1.10335,0.972138,1.15063,-0.997963,-0.0148406,-0.471187,0.927952,0.949989,-0.27137,0.121064,0.0960316,-0.58432,-0.126914,-0.465649,0.164457,-0.516003,1.08045,-2.94976,-0.0688314,-3.43122,-2.94976,-0.0688314,-3.43122,-0.696584,-0.750582,-0.751962,-0.707202,-0.326778,0.574975,-0.423715,1
1.08114,-0.581585,-2.60574,-0.98037,2.59585,1.95602,-1.50911,1.08114,-0.581585,-2.60574,-0.98037,2.59585,1.95602,-1.50911,1.15425,-0.503511,-2.52997,-0.909717,2.62075,1.89864,-1.4683,-0.69181,-0.0563965,-1.18096,-1.06204,0.67137,1.15765,-0.895405,-0.69181,-0.0563965,-1.18096,-1.06204,0.67137,1.15765,-0.895405,-0.0203769,-0.472922,0.923,0.951215,-0.270395,0.120587,0.0868046,-0.564056,-0.163746,-0.515499,0.134954,-0.51616,1.0454,-2.95026,-0.0157714,-3.50505,-2.95026,-0.0157714,-3.50505,-0.731066,-0.780738,-0.757654,-0.70653,-0.249015,0.573801,-0.408109,1
1.07296,-0.58562,-2.6185,-0.991219,2.62394,1.96695,-1.51488,1.07296,-0.58562,-2.6185,-0.991219,2.62394,1.96695,-1.51488,1.14754,-0.505124,-2.54184,-0.919969,2.62261,1.91032,-1.47666,-0.677369,-0.199209,-1.20078,-0.992163,0.0178321,1.17694,-0.817186,-0.677369,-0.199209,-1.20078,-0.992163,0.0178321,1.17694,-0.817186,-0.025257,-0.475132,0.917344,0.952099,-0.268954,0.122737,0.0781492,-0.534318,-0.208679,-0.58248,0.105564,-0.516309,1.00929,-2.93902,-0.0148833,-3.61009,-2.93902,-0.0148833,-3.61009,-0.745848,-0.804955,-0.76652,-0.712499,0.013375,0.566294,-0.382185,1
1.06349,-0.590922,-2.6308,-0.999286,2.64866,1.97841,-1.51741,1.06349,-0.590922,-2.6308,-0.999286,2.64866,1.97841,-1.51741,1.14071,-0.508179,-2.55366,-0.929523,2.618,1.92216,-1.48439,-0.677489,-0.336318,-1.16489,-0.952209,-0.607481,1.18011,-0.763378,-0.677489,-0.336318,-1.16489,-0.952209,-0.607481,1.18011,-0.763378,-0.0296852,-0.477803,0.910979,0.952608,-0.267067,0.127823,0.0698226,-0.499563,-0.25275,-0.651595,0.0761074,-0.51719,0.972673,-2.94567,-0.0880241,-3.66216,-2.94567,-0.0880241,-3.66216,-0.772185,-0.827431,-0.771386,-0.697634,0.306627,0.562524,-0.330126,1
1.05448,-0.595905,-2.64263,-1.00504,2.65398,1.98725,-1.52471,1.05448,-0.595905,-2.64263,-1.00504,2.65398,1.98725,-1.52471,1.13389,-0.512259,-2.56528,-0.938745,2.60957,1.93402,-1.49185,-0.687471,-0.429768,-1.16434,-0.903542,-0.861483,1.206,-0.737169,-0.687471,-0.429768,-1.16434,-0.903542,-0.861483,1.206,-0.737169,-0.0338599,-0.480805,0.90408,0.952876,-0.264772,0.134516,0.0618711,-0.511367,-0.273236,-0.693358,0.0479854,-0.517434,0.936839,-2.8122,-0.0244737,-3.58337,-2.8122,-0.0244737,-3.58337,-0.794129,-0.836466,-0.773452,-0.662943,0.444148,0.53232,-0.328611,1
1.04612,-0.582142,-2.62914,-0.924258,2.66827,1.90722,-1.50274,1.04612,-0.582142,-2.62914,-0.924258,2.66827,1.90722,-1.50274,1.12679,-0.51718,-2.57748,-0.948666,2.60249,1.94475,-1.49895,-0.699971,-0.510337,-1.21354,-0.990426,-0.56361,1.18718,-0.713009,-0.699971,-0.510337,-1.21354,-0.990426,-0.56361,1.18718,-0.713009,-0.0387068,-0.484437,0.896653,0.953497,-0.261118,0.14055,0.0539068,-0.581104,-0.31234,-0.757996,0.031846,-0.505727,0.933214,-1.61394,1.17075,-0.362539,-1.61394,1.17075,-0.362539,-0.806666,-0.649613,-0.516634,0.244083,0.657778,-0.375278,-0.0379608,1
1.03822,-0.591086,-2.65637,-0.911828,2.66153,1.90979,-1.4845,1.03822,-0.591086,-2.65637,-0.911828,2.66153,1.90979,-1.4845,1.12015,-0.523059,-2.58925,-0.958706,2.60143,1.95544,-1.5058,-0.644892,-0.607299,-1.17451,-1.00481,0.0646942,1.0726,-0.677177,-0.644892,-0.607299,-1.17451,-1.00481,0.0646942,1.0726,-0.677177,-0.04451,-0.488359,0.889,0.954562,-0.257234,0.143197,0.0462337,-0.643225,-0.350219,-0.783667,0.0155043,-0.492195,0.931716,-1.63417,1.35314,-0.149804,-1.63417,1.35314,-0.149804,-0.819288,-0.680272,-0.671239,0.468779,0.60099,-0.456475,0.213071,1
1.02862,-0.59944,-2.67404,-0.920961,2.64601,1.92417,-1.48954,1.02862,-0.59944,-2.67404,-0.920961,2.64601,1.92417,-1.48954,1.11412,-0.530254,-2.60085,-0.969697,2.60706,1.96562,-1.51209,-0.595099,-0.75681,-1.15966,-1.10427,0.744175,1.03219,-0.617054,-0.595099,-0.75681,-1.15966,-1.10427,0.744175,1.03219,-0.617054,-0.0513293,-0.492942,0.880746,0.956341,-0.252378,0.142131,0.0389433,-0.721819,-0.412977,-0.869369,-0.00119894,-0.47885,0.928468,-1.67032,1.33455,-0.32475,-1.67032,1.33455,-0.32475,-0.855047,-0.691864,-0.731944,0.487365,0.389428,-0.414525,0.225559,1
1.02241,-0.606423,-2.68583,-0.932114,2.65781,1.93271,-1.49138,1.02241,-0.606423,-2.68583,-0.932114,2.65781,1.93271,-1.49138,1.10798,-0.538098,-2.61242,-0.979868,2.61813,1.97466,-1.51704,-0.617665,-0.761137,-1.13317,-0.944299,1.22484,0.809372,-0.413986,-0.617665,-0.761137,-1.13317,-0.944299,1.22484,0.809372,-0.413986,-0.0593173,-0.497574,0.872694,0.958516,-0.247158,0.138434,0.0315589,-0.800695,-0.386399,-0.795942,-0.0177269,-0.465326,0.924445,-1.6528,1.35244,-0.402349,-1.6528,1.35244,-0.402349,-0.855621,-0.683256,-0.734159,0.47754,0.396836,-0.419593,0.256558,1
1.01599,-0.617053,-2.69436,-0.965521,2.66046,1.93278,-1.48667,1.01599,-0.617053,-2.69436,-0.965521,2.66046,1.93278,-1.48667,1.10118,-0.545787,-2.62285,-0.986741,2.63235,1.97658,-1.51764,-0.704632,-0.794488,-1.01457,-0.604315,1.4764,-0.0419318,0.0574511,-0.704632,-0.794488,-1.01457,-0.604315,1.4764,-0.0419318,0.0574511,-0.0681164,-0.502256,0.866449,0.961214,-0.240041,0.133527,0.0248822,-0.883766,-0.412436,-0.640944,-0.033571,-0.452783,0.918947,-1.58441,1.25428,-0.549793,-1.58441,1.25428,-0.549793,-0.851974,-0.712654,-0.715107,0.2122,0.281044,-0.438017,0.309709,1
1.01078,-0.615473,-2.69559,-1.00908,2.67169,1.91782,-1.50216,1.01078,-0.615473,-2.69559,-1.00908,2.67169,1.91782,-1.50216,1.0939,-0.554977,-2.63274,-0.988454,2.64527,1.96971,-1.51427,-0.721098,-0.95566,-0.982372,-0.0582899,1.18237,-0.874888,0.419187,-0.721098,-0.95566,-0.982372,-0.0582899,1.18237,-0.874888,0.419187,-0.077626,-0.507837,0.861667,0.964342,-0.230151,0.129341,0.0185932,-0.936278,-0.481032,-0.509953,-0.0494727,-0.439847,0.912992,-1.59017,1.29358,-0.595468,-1.59017,1.29358,-0.595468,-0.831247,-0.604964,-0.628545,-0.20627,0.264138,-0.51883,0.121096,1
1.0008,-0.63426,-2.71138,-1.01076,2.69282,1.90426,-1.49835,1.0008,-0.63426,-2.71138,-1.01076,2.69282,1.90426,-1.49835,1.0836,-0.57129,-2.64841,-0.981099,2.65543,1.95529,-1.50644,-0.678016,-1.13373,-1.09581,0.731548,0.513929,-0.91283,0.522644,-0.678016,-1.13373,-1.09581,0.731548,0.513929,-0.91283,0.522644,-0.0870245,-0.513557,0.857739,0.966942,-0.220289,0.127828,0.0125285,-0.951714,-0.464622,-0.409101,-0.0661086,-0.42643,0.906279,-1.66359,1.34172,-0.671291,-1.66359,1.34172,-0.671291,-0.827952,-0.629695,-0.629724,-0.296627,0.373912,-0.510249,0.0809799,1
0.994793,-0.647526,-2.72302,-1.00627,2.70165,1.89644,-1.48782,0.994793,-0.647526,-2.72302,-1.00627,2.70165,1.89644,-1.48782,1.07743,-0.582942,-2.65961,-0.972296,2.65912,1.94739,-1.50135,-0.598562,-1.15532,-1.12526,0.910624,0.329204,-0.733789,0.495488,-0.598562,-1.15532,-1.12526,0.910624,0.329204,-0.733789,0.495488,-0.0965444,-0.518755,0.854314,0.968793,-0.212188,0.127989,0.00592649,-0.964943,-0.433902,-0.374032,-0.0829142,-0.413378,0.897862,-1.68056,1.30518,-0.841701,-1.68056,1.30518,-0.841701,-0.82638,-0.645841,-0.634149,-0.339753,0.425311,-0.509552,0.135338,1
0.992299,-0.65369,-2.72857,-1.00543,2.70891,1.89251,-1.47962,0.992299,-0.65369,-2.72857,-1.00543,2.70891,1.89251,-1.47962,1.07443,-0.588455,-2.66525,-0.967597,2.66065,1.94374,-1.49953,-0.599406,-1.10272,-1.12807,0.939814,0.306957,-0.730912,0.36542,-0.599406,-1.10272,-1.12807,0.939814,0.306957,-0.730912,0.36542,-0.105655,-0.523305,0.851173,0.970135,-0.205477,0.128907,-0.00091391,-0.929268,-0.36796,-0.323072,-0.0988564,-0.400188,0.887929,-1.59422,1.31901,-0.993347,-1.59422,1.31901,-0.993347,-0.821353,-0.652343,-0.633259,-0.378335,0.4826,-0.512259,0.199069,1
0.985773,-0.663131,-2.73848,-0.99651,2.71106,1.88501,-1.46721,0.985773,-0.663131,-2.73848,-0.99651,2.71106,1.88501,-1.46721,1.06802,-0.598409,-2.67634,-0.961164,2.66387,1.93635,-1.49806,-0.661582,-0.951128,-1.09922,0.526444,0.337772,-0.747834,0.0873552,-0.661582,-0.951128,-1.09922,0.526444,0.337772,-0.747834,0.0873552,-0.114471,-0.527542,0.847771,0.971516,-0.198207,0.129592,-0.00875298,-0.897241,-0.339156,-0.382602,-0.115009,-0.388018,0.877816,-1.61526,1.21697,-1.01127,-1.61526,1.21697,-1.01127,-0.822515,-0.647219,-0.621388,-0.353462,0.471856,-0.513488,0.308517,1
0.977886,-0.673636,-2.74903,-1.00162,2.71822,1.88086,-1.46451,0.977886,-0.673636,-2.74903,-1.00162,2.71822,1.88086,-1.46451,1.06043,-0.606473,-2.68669,-0.960426,2.66863,1.92873,-1.49782,-0.791482,-0.763893,-1.01157,-0.0902434,0.535679,-0.782326,0.0174974,-0.791482,-0.763893,-1.01157,-0.0902434,0.535679,-0.782326,0.0174974,-0.123241,-0.531601,0.8436,0.973237,-0.189279,0.12925,-0.016651,-0.889918,-0.311925,-0.48094,-0.130738,-0.375474,0.866304,-1.57287,1.25441,-1.15126,-1.57287,1.25441,-1.15126,-0.825468,-0.671634,-0.623356,-0.411979,0.495868,-0.478675,0.333093,1
0.968835,-0.679377,-2.75763,-1.01239,2.72623,1.87481,-1.46649,0.968835,-0.679377,-2.75763,-1.01239,2.72623,1.87481,-1.46649,1.05153,-0.612941,-2.69651,-0.965734,2.67606,1.92024,-1.49674,-0.929771,-0.611666,-0.991599,-0.668077,0.815772,-0.877746,0.154936,-0.929771,-0.611666,-0.991599,-0.668077,0.815772,-0.877746,0.154936,-0.132366,-0.53571,0.838439,0.975455,-0.178007,0.127403,-0.0238516,-0.927862,-0.294919,-0.587935,-0.146173,-0.362274,0.855186,-1.54357,1.32002,-1.11178,-1.54357,1.32002,-1.11178,-0.826924,-0.664361,-0.611187,-0.466544,0.501739,-0.454215,0.302481,1
0.958647,-0.6855,-2.76933,-1.02515,2.73487,1.86789,-1.46703,0.958647,-0.6855,-2.76933,-1.02515,2.73487,1.86789,-1.46703,1.04142,-0.61817,-2.70659,-0.97469,2.686,1.91097,-1.49355,-1.02534,-0.494266,-1.00195,-0.940114,1.03955,-0.92892,0.376326,-1.02534,-0.494266,-1.00195,-0.940114,1.03955,-0.92892,0.376326,-0.142199,-0.539592,0.832759,0.977905,-0.165167,0.124492,-0.0303918,-0.974893,-0.248482,-0.617929,-0.162584,-0.348751,0.842244,-1.64102,1.3523,-1.29418,-1.64102,1.3523,-1.29418,-0.827682,-0.673299,-0.627459,-0.504639,0.48864,-0.430816,0.265178,1
0.948587,-0.690671,-2.7798,-1.03629,2.74361,1.85973,-1.46099,0.948587,-0.690671,-2.7798,-1.03629,2.74361,1.85973,-1.46099,1.0313,-0.623176,-2.71667,-0.984282,2.69654,1.90188,-1.4882,-1.00459,-0.525318,-1.01974,-0.95561,1.0429,-0.894908,0.580015,-1.00459,-0.525318,-1.01974,-0.95561,1.0429,-0.894908,0.580015,-0.152187,-0.543203,0.826881,0.980234,-0.152154,0.121252,-0.0358897,-0.984233,-0.237134,-0.652438,-0.178277,-0.335903,0.82895,-1.56938,1.28476,-1.32937,-1.56938,1.28476,-1.32937,-0.827096,-0.674946,-0.631296,-0.520032,0.470662,-0.421498,0.272175,1
0.938595,-0.699805,-2.79278,-1.04345,2.75419,1.85367,-1.4547,0.938595,-0.699805,-2.79278,-1.04345,2.75419,1.85367,-1.4547,1.0216,-0.629642,-2.72716,-0.992891,2.70625,1.8934,-1.48173,-0.947053,-0.683957,-1.04285,-0.825722,0.947142,-0.818159,0.653564,-0.947053,-0.683957,-1.04285,-0.825722,0.947142,-0.818159,0.653564,-0.162435,-0.547011,0.820319,0.982354,-0.139129,0.118129,-0.0408602,-0.999273,-0.257985,-0.713135,-0.194304,-0.32243,0.814126,-1.60263,1.34732,-1.48239,-1.60263,1.34732,-1.48239,-0.830095,-0.701633,-0.656199,-0.505592,0.479337,-0.397321,0.270243,1
0.930117,-0.708216,-2.80354,-1.05041,2.75719,1.84583,-1.44312,0.930117,-0.708216,-2.80354,-1.05041,2.75719,1.84583,-1.44312,1.01302,-0.636726,-2.73746,-1.00082,2.71512,1.8856,-1.47586,-0.839288,-0.706248,-1.03346,-0.78688,0.871399,-0.760957,0.55734,-0.839288,-0.706248,-1.03346,-0.78688,0.871399,-0.760957,0.55734,-0.172205,-0.550808,0.813478,0.984216,-0.126585,0.114973,-0.0455679,-0.94218,-0.251287,-0.724253,-0.209958,-0.310252,0.797409,-1.56538,1.21782,-1.67178,-1.56538,1.21782,-1.67178,-0.829011,-0.714894,-0.660779,-0.495887,0.420771,-0.397676,0.327363,1
0.921008,-0.716059,-2.81625,-1.05163,2.76331,1.83905,-1.43563,0.921008,-0.716059,-2.81625,-1.05163,2.76331,1.83905,-1.43563,1.0044,-0.643393,-2.74792,-1.00873,2.7236,1.87834,-1.47112,-0.87493,-0.654559,-1.04703,-0.802975,0.840872,-0.711869,0.453051,-0.87493,-0.654559,-1.04703,-0.802975,0.840872,-0.711869,0.453051,-0.181946,-0.55411,0.806716,0.985781,-0.114543,0.11192,-0.0508936,-0.955152,-0.198252,-0.711785,-0.225887,-0.297448,0.781318,-1.59297,1.28034,-1.60909,-1.59297,1.28034,-1.60909,-0.833958,-0.726658,-0.683319,-0.429029,0.397113,-0.392954,0.354881,1
0.911872,-0.723835,-2.82866,-1.05711,2.77152,1.83343,-1.43171,0.911872,-0.723835,-2.82866,-1.05711,2.77152,1.83343,-1.43171,0.995408,-0.649739,-2.75842,-1.01664,2.73195,1.87126,-1.46684,-0.903214,-0.635779,-1.05138,-0.775554,0.83744,-0.709807,0.424408,-0.903214,-0.635779,-1.05138,-0.775554,0.83744,-0.709807,0.424408,-0.191902,-0.556945,0.800016,0.987109,-0.102747,0.108842,-0.0566829,-0.975502,-0.158052,-0.698978,-0.242375,-0.283746,0.76391,-1.64877,1.37025,-1.74081,-1.64877,1.37025,-1.74081,-0.835359,-0.740966,-0.702301,-0.404753,0.395735,-0.378321,0.351391,1
0.903183,-0.731343,-2.8399,-1.06231,2.77194,1.82609,-1.42491,0.903183,-0.731343,-2.8399,-1.06231,2.77194,1.82609,-1.42491,0.986643,-0.656645,-2.76905,-1.0243,2.74042,1.864,-1.4624,-0.865235,-0.716914,-1.06757,-0.763762,0.846337,-0.732782,0.458468,-0.865235,-0.716914,-1.06757,-0.763762,0.846337,-0.732782,0.458468,-0.202021,-0.559777,0.792979,0.988307,-0.0907686,0.105429,-0.0624064,-0.984214,-0.169251,-0.750609,-0.258743,-0.270961,0.744517,-1.6368,1.27846,-1.9393,-1.6368,1.27846,-1.9393,-0.834601,-0.746972,-0.708514,-0.380096,0.31518,-0.379091,0.374928,1
0.89485,-0.739989,-2.85134,-1.06918,2.7761,1.81914,-1.41865,0.89485,-0.739989,-2.84842,-1.06918,2.7761,1.81914,-1.41865,0.978205,-0.66457,-2.78011,-1.0321,2.7486,1.85652,-1.45702,-0.833424,-0.815436,-1.11387,-0.781366,0.80256,-0.755288,0.567272,-0.833424,-0.815436,-1.11387,-0.781366,0.80256,-0.755288,0.567272,-0.212351,-0.562853,0.785159,0.989422,-0.0780885,0.101836,-0.0676473,-0.999169,-0.186374,-0.828362,-0.274436,-0.258483,0.724347,-1.56934,1.24783,-2.01691,-1.56934,1.24783,-2.01691,-0.833546,-0.75419,-0.712261,-0.370828,0.274977,-0.373819,0.383713,1
0.887169,-0.7487,-2.86295,-1.07417,2.77764,1.812,-1.41275,0.887169,-0.7487,-2.84842,-1.07417,2.77764,1.812,-1.41275,0.970513,-0.672942,-2.79105,-1.03976,2.75599,1.84903,-1.45066,-0.754773,-0.844641,-1.09736,-0.765091,0.716564,-0.746876,0.6543,-0.754773,-0.844641,-1.09736,-0.765091,0.716564,-0.746876,0.6543,-0.222301,-0.565996,0.776994,0.990405,-0.0652591,0.0982992,-0.071954,-0.951493,-0.187803,-0.849505,-0.290538,-0.246122,0.703384,-1.61021,1.2361,-2.09631,-1.61021,1.2361,-2.09631,-0.833445,-0.757581,-0.718988,-0.344091,0.21655,-0.370253,0.379112,1
0.879361,-0.758107,-2.87526,-1.08066,2.77675,1.80725,-1.4035,0.879361,-0.758107,-2.84842,-1.08066,2.77675,1.80725,-1.4035,0.96273,-0.681453,-2.80253,-1.04712,2.76278,1.84181,-1.44397,-0.782204,-0.851352,-1.15108,-0.720427,0.663892,-0.716532,0.671736,-0.782204,-0.851352,-1.15108,-0.720427,0.663892,-0.716532,0.671736,-0.232428,-0.568824,0.768672,0.991153,-0.0525079,0.0950378,-0.076332,-0.980473,-0.147873,-0.851685,-0.305668,-0.233696,0.68129,-1.513,1.24265,-2.20947,-1.513,1.24265,-2.20947,-0.83368,-0.766539,-0.727293,-0.335468,0.1397,-0.34551,0.40471,1
0.871521,-0.766555,-2.88793,-1.07864,2.77765,1.80209,-1.39691,0.871521,-0.766555,-2.84842,-1.07864,2.77765,1.80209,-1.39691,0.955239,-0.689929,-2.8139,-1.05421,2.76853,1.8348,-1.4372,-0.744155,-0.848811,-1.14661,-0.693631,0.543228,-0.699479,0.679802,-0.744155,-0.848811,-1.14661,-0.693631,0.543228,-0.699479,0.679802,-0.24225,-0.571417,0.760327,0.991692,-0.0399584,0.0921,-0.0804248,-0.946436,-0.130099,-0.850417,-0.321934,-0.220424,0.660532,-1.62655,1.32712,-2.07582,-1.62655,1.32712,-2.07582,-0.83718,-0.766252,-0.740344,-0.244279,0.0912274,-0.32711,0.402911,1
0.864194,-0.776835,-2.90033,-1.09345,2.75787,1.8021,-1.38548,0.864194,-0.776835,-2.84842,-1.09345,2.75787,1.8021,-1.38548,0.947547,-0.698419,-2.82543,-1.06075,2.77319,1.82781,-1.43037,-0.772641,-0.847793,-1.14199,-0.635221,0.440952,-0.694985,0.682486,-0.772641,-0.847793,-1.14199,-0.635221,0.440952,-0.694985,0.682486,-0.252128,-0.573677,0.752034,0.991993,-0.0275403,0.0896049,-0.0846265,-0.954467,-0.0952871,-0.83706,-0.337035,-0.208166,0.635808,-1.51014,1.22588,-2.47236,-1.51014,1.22588,-2.47236,-0.83353,-0.784159,-0.748957,-0.327015,-0.153277,-0.257072,0.44893,1
0.856187,-0.785743,-2.91146,-1.10305,2.75008,1.80345,-1.37872,0.856187,-0.785743,-2.84842,-1.10305,2.75008,1.80345,-1.37872,0.939631,-0.707046,-2.836,-1.06708,2.77668,1.82087,-1.42359,-0.803332,-0.873474,-1.02517,-0.627923,0.319176,-0.691498,0.678723,-0.803332,-0.873474,-1.02517,-0.627923,0.319176,-0.691498,0.678723,-0.261813,-0.575729,0.743682,0.992134,-0.0152622,0.0871933,-0.088517,-0.935835,-0.080631,-0.850626,-0.352159,-0.195955,0.611681,-1.51238,1.2211,-2.4127,-1.51238,1.2211,-2.4127,-0.834441,-0.786977,-0.754642,-0.35972,-0.26599,-0.174122,0.448678,1
0.847771,-0.795377,-2.9208,-1.11329,2.77146,1.8077,-1.37554,0.847771,-0.795377,-2.84842,-1.11329,2.77146,1.8077,-1.37554,0.931321,-0.716033,-2.84468,-1.07272,2.77887,1.81392,-1.41662,-0.838457,-0.899659,-0.807814,-0.532435,0.187544,-0.687759,0.703829,-0.838457,-0.899659,-0.807814,-0.532435,0.187544,-0.687759,0.703829,-0.27124,-0.577623,0.735385,0.992167,-0.00337097,0.0846778,-0.0917739,-0.896993,-0.0684156,-0.823698,-0.367377,-0.181706,0.585811,-1.5218,1.4249,-2.58695,-1.5218,1.4249,-2.58695,-0.835506,-0.793436,-0.761221,-0.405675,-0.0740512,-0.0621972,0.410851,1
0.838606,-0.804636,-2.9276,-1.11679,2.75911,1.80259,-1.36768,0.838606,-0.804636,-2.84842,-1.11679,2.75911,1.80259,-1.36768,0.922208,-0.725491,-2.85125,-1.07774,2.77935,1.80738,-1.4094,-0.9376,-0.975014,-0.609612,-0.518126,-0.0208617,-0.633436,0.732088,-0.9376,-0.975014,-0.609612,-0.518126,-0.0208617,-0.633436,0.732088,-0.280518,-0.57928,0.727062,0.992103,0.00804306,0.0822054,-0.0943941,-0.894024,-0.0548705,-0.861794,-0.383813,-0.169359,0.558283,-1.64361,1.23471,-2.75287,-1.64361,1.23471,-2.75287,-0.836017,-0.791451,-0.763469,-0.390508,-0.20241,-0.0478934,0.417201,1
0.82877,-0.815039,-2.93227,-1.11369,2.74911,1.80238,-1.36529,0.82877,-0.815039,-2.84842,-1.11369,2.74911,1.80238,-1.36529,0.912664,-0.735521,-2.85544,-1.08306,2.77649,1.80186,-1.40171,-0.953203,-0.992283,-0.359471,-0.530254,-0.374609,-0.523243,0.781485,-0.953203,-0.992283,-0.359471,-0.530254,-0.374609,-0.523243,0.781485,-0.289051,-0.580955,0.718272,0.991979,0.0193023,0.0803672,-0.0956341,-0.79603,-0.0564194,-0.871708,-0.399206,-0.157506,0.532868,-1.53928,1.18521,-2.54143,-1.53928,1.18521,-2.54143,-0.838935,-0.795178,-0.768297,-0.306233,-0.273825,0.00517067,0.364217,1
0.818718,-0.824941,-2.9355,-1.10775,2.77308,1.80398,-1.36396,0.818718,-0.824941,-2.84842,-1.10775,2.77308,1.80398,-1.36396,0.902736,-0.745232,-2.85785,-1.08859,2.77131,1.79808,-1.39371,-1.01025,-0.975254,-0.202409,-0.589694,-0.521867,-0.312158,0.801654,-1.01025,-0.975254,-0.202409,-0.589694,-0.521867,-0.312158,0.801654,-0.296846,-0.582195,0.709615,0.991796,0.0296301,0.0791915,-0.0958713,-0.753522,-0.0133142,-0.879253,-0.415324,-0.142281,0.504977,-1.61183,1.52255,-2.78916,-1.61183,1.52255,-2.78916,-0.840176,-0.797091,-0.776514,-0.191596,0.0176388,0.0590194,0.297518,1
0.808641,-0.835525,-2.93683,-1.11295,2.73422,1.80704,-1.34462,0.808641,-0.835525,-2.84842,-1.11295,2.73422,1.80704,-1.34462,0.892646,-0.754777,-2.85868,-1.09532,2.76784,1.79615,-1.38601,-1.00229,-0.932795,-0.0449878,-0.686117,-0.296071,-0.168111,0.758392,-1.00229,-0.932795,-0.0449878,-0.686117,-0.296071,-0.168111,0.758392,-0.304415,-0.582948,0.700731,0.991687,0.0389253,0.0767046,-0.0957029,-0.709444,0.0220228,-0.87476,-0.431297,-0.130457,0.47435,-1.5973,1.18242,-3.06268,-1.5973,1.18242,-3.06268,-0.840047,-0.807484,-0.781563,-0.176363,-0.336223,0.108882,0.413902,1
0.798305,-0.844794,-2.93715,-1.12144,2.72067,1.81534,-1.33968,0.798305,-0.844794,-2.84842,-1.12144,2.72067,1.81534,-1.33968,0.882357,-0.763927,-2.85866,-1.10222,2.76459,1.79515,-1.37876,-1.0438,-0.921794,0.0139134,-0.703542,-0.348263,-0.0732579,0.712482,-1.0438,-0.921794,0.0139134,-0.703542,-0.348263,-0.0732579,0.712482,-0.311748,-0.583244,0.692074,0.991548,0.0474096,0.0739351,-0.0954923,-0.699774,0.0585428,-0.872939,-0.44702,-0.118832,0.443372,-1.5723,1.16245,-3.09782,-1.5723,1.16245,-3.09782,-0.840515,-0.808669,-0.784887,-0.192237,-0.439209,0.201962,0.390776,1
0.788062,-0.853951,-2.93656,-1.13125,2.71851,1.81724,-1.33229,0.788062,-0.853951,-2.84842,-1.13125,2.71851,1.81724,-1.33229,0.871995,-0.773294,-2.85811,-1.1088,2.76091,1.79498,-1.37226,-1.02951,-0.930302,0.0656481,-0.610894,-0.338657,-0.00121038,0.6244,-1.02951,-0.930302,0.0656481,-0.610894,-0.338657,-0.00121038,0.6244,-0.318901,-0.583294,0.683405,0.991346,0.0553032,0.0712025,-0.0954187,-0.677959,0.0771696,-0.840335,-0.463179,-0.106349,0.41147,-1.61588,1.24831,-3.19018,-1.61588,1.24831,-3.19018,-0.839326,-0.806572,-0.784517,-0.224495,-0.424015,0.222577,0.399762,1
0.777762,-0.863889,-2.93593,-1.14257,2.71512,1.82071,-1.32322,0.777762,-0.863889,-2.84842,-1.14257,2.71512,1.82071,-1.32322,0.861762,-0.782892,-2.85753,-1.11351,2.75972,1.79533,-1.36661,-1.01643,-0.995482,0.0599705,-0.46422,-0.0658094,0.0497597,0.56229,-1.01643,-0.995482,0.0599705,-0.46422,-0.0658094,0.0497597,0.56229,-0.326413,-0.582889,0.675353,0.991142,0.0617413,0.06758,-0.0962163,-0.716813,0.0992359,-0.82353,-0.478822,-0.0940816,0.378596,-1.56428,1.22675,-3.28737,-1.56428,1.22675,-3.28737,-0.839996,-0.809964,-0.783962,-0.290615,-0.445963,0.253759,0.433959,1
0.768081,-0.873263,-2.93464,-1.13678,2.71896,1.81536,-1.31984,0.768081,-0.873263,-2.84842,-1.13678,2.71896,1.81536,-1.31984,0.852331,-0.793372,-2.85662,-1.11772,2.75719,1.79639,-1.36029,-0.921082,-1.04101,0.0916816,-0.394782,-0.358213,0.131422,0.659053,-0.921082,-1.04101,0.0916816,-0.394782,-0.358213,0.131422,0.659053,-0.3333,-0.582765,0.666884,0.99097,0.0680497,0.0643187,-0.0959725,-0.62484,0.0680639,-0.831275,-0.494814,-0.0788793,0.348482,-1.59924,1.52022,-3.01141,-1.59924,1.52022,-3.01141,-0.8425,-0.798907,-0.780213,-0.190601,-0.382304,0.18972,0.404515,1
