Afshin1997/kuka_rl_ros2/src/catch_and_throw/output_files/tm/nn_ema7.00_jvws3_realball_D22H08M30S34/recorded_data.csv
pure_target_joint_0,pure_target_joint_1,pure_target_joint_2,pure_target_joint_3,pure_target_joint_4,pure_target_joint_5,pure_target_joint_6,target_joint_0,target_joint_1,target_joint_2,target_joint_3,target_joint_4,target_joint_5,target_joint_6,pos_joint_0,pos_joint_1,pos_joint_2,pos_joint_3,pos_joint_4,pos_joint_5,pos_joint_6,vel_joint_0,vel_joint_1,vel_joint_2,vel_joint_3,vel_joint_4,vel_joint_5,vel_joint_6,vel_smooth_joint_0,vel_smooth_joint_1,vel_smooth_joint_2,vel_smooth_joint_3,vel_smooth_joint_4,vel_smooth_joint_5,vel_smooth_joint_6,ee_pos_x,ee_pos_y,ee_pos_z,ee_or_w,ee_or_x,ee_or_y,ee_or_z,ee_vel_x,ee_vel_y,ee_vel_z,ball_pos_x,ball_pos_y,ball_pos_z,ball_raw_vx,ball_raw_vy,ball_raw_vz,ball_ema_vx,ball_ema_vy,ball_ema_vz,action_0,action_1,action_2,action_3,action_4,action_5,action_6,command_published
1.70024,-1.01097,-1.87936,-1.14798,1.99622,1.06605,-0.858552,1.77524,-1.06131,-1.81925,-1.11898,1.94098,1.11387,-0.912702,1.78024,-1.06466,-1.81524,-1.11705,1.9373,1.11706,-0.916312,0,0,0,0,0,0,0,0,0,0,0,0,0,0,0.531035,-0.454447,0.694251,0.574553,0.175142,0.152586,0.784813,0,0,0,2.87783,-0.124953,0.754183,-101.077,48.771,40.1885,-11.0335,5.33505,3.99781,-0.799949,0.536904,-0.641153,-0.309345,0.589214,-0.510047,0.57761,1
1.69848,-1.00273,-1.88258,-1.14623,1.97413,1.07665,-0.864527,1.75513,-1.04737,-1.83548,-1.12661,1.95433,1.10178,-0.898636,1.78024,-1.06466,-1.81524,-1.11705,1.9373,1.11706,-0.916312,6.51598e-08,5.62902e-07,9.15704e-07,-6.76856e-07,-1.38369e-06,1.31307e-06,2.08932e-08,2.17199e-08,1.87634e-07,3.05235e-07,-2.25619e-07,-4.6123e-07,4.3769e-07,6.96439e-09,0.531035,-0.454447,0.694251,0.574553,0.175142,0.152586,0.784813,-3.73724e-08,8.26351e-07,5.11573e-07,2.8777,-0.124362,0.753341,-0.0125052,0.0575146,-0.081858,-18.2547,8.81572,6.89763,-0.81762,0.619281,-0.673346,-0.29183,0.36826,-0.404092,0.517853,1
1.72157,-1.01429,-1.83691,-1.06347,1.96934,1.16979,-0.852169,1.72613,-1.0259,-1.85747,-1.1326,1.9706,1.09112,-0.877697,1.77524,-1.06131,-1.81925,-1.11898,1.94098,1.11387,-0.912702,0,0,0,0,0,0,0,0,0,0,0,0,0,0,0.529471,-0.456721,0.694022,0.574933,0.178273,0.153076,0.783734,0,0,0,2.98757,-0.505926,0.273548,-3.42337,0.212778,5.23449,-3.72281,0.162607,5.16754,-0.536673,0.470189,-0.176578,0.555098,0.28359,0.559185,0.605331,1
1.71732,-1.00287,-1.83222,-1.0791,1.99175,1.16119,-0.849518,1.71098,-1.01156,-1.863,-1.11996,1.97725,1.10509,-0.862242,1.77288,-1.05967,-1.82116,-1.11988,1.94255,1.11245,-0.911049,-0.472567,0.327532,-0.381406,-0.179168,0.31371,-0.284093,0.33057,-0.157522,0.109177,-0.127135,-0.0597227,0.10457,-0.0946976,0.11019,0.528715,-0.457759,0.693941,0.575164,0.179668,0.153386,0.783185,-0.17273,-0.19575,-0.00600014,2.95111,-0.503942,0.326091,-3.80901,0.207319,5.48946,-3.67023,0.19006,5.16829,-0.55558,0.568005,-0.11062,0.407843,0.492006,0.48737,0.615312,1
1.72361,-0.989883,-1.7893,-1.14233,1.99754,1.15044,-0.84401,1.71353,-1.00681,-1.84683,-1.09828,1.97958,1.13666,-0.854485,1.76554,-1.05443,-1.82691,-1.12207,1.94707,1.10884,-0.905843,-1.04946,0.759658,-0.813894,-0.280305,0.626726,-0.471683,0.749512,-0.507341,0.362397,-0.398433,-0.153158,0.313479,-0.251925,0.360027,0.526117,-0.461014,0.694027,0.576118,0.183374,0.154267,0.78145,-0.42526,-0.445076,0.050629,2.91528,-0.501936,0.377691,-3.29932,0.184713,4.7509,-3.64249,0.197138,5.11689,-0.41931,0.645425,0.376071,-0.202557,0.504741,0.416086,0.618337,1
1.7222,-0.979201,-1.78452,-1.16123,2.01023,1.1513,-0.835992,1.71908,-1.00099,-1.82283,-1.10033,1.98765,1.15475,-0.848897,1.75504,-1.04643,-1.83432,-1.12292,1.95306,1.10656,-0.897801,-1.17342,0.928545,-0.763713,0.0786634,0.64435,-0.0390642,0.946902,-0.898482,0.671912,-0.653005,-0.126937,0.528262,-0.264947,0.675661,0.521438,-0.465912,0.695504,0.57819,0.186461,0.154808,0.779078,-0.606936,-0.547966,0.27447,2.87911,-0.500407,0.427988,-3.63205,0.153544,5.05101,-3.62731,0.193115,5.03841,-0.328455,0.672291,0.497983,-0.383132,0.571773,0.44738,0.618089,1
1.69448,-0.966336,-1.78493,-1.09703,2.01817,1.13586,-0.831198,1.71974,-0.990513,-1.80154,-1.12349,1.9988,1.15364,-0.843092,1.7456,-1.03816,-1.83876,-1.11971,1.95868,1.10994,-0.889024,-0.853957,0.834752,-0.21482,0.570787,0.556555,0.711401,0.919748,-1.02561,0.840985,-0.597476,0.123048,0.60921,0.0668846,0.872054,0.515431,-0.470519,0.699697,0.580884,0.184984,0.153476,0.777689,-0.634914,-0.420002,0.579298,2.84328,-0.498672,0.476997,-3.56114,0.172395,4.8708,-3.60686,0.187746,4.94491,-0.511127,0.718235,0.538296,0.22681,0.594896,0.259183,0.578258,1
1.67872,-0.957573,-1.79165,-1.07387,2.02146,1.1602,-0.822016,1.7126,-0.978783,-1.78925,-1.12986,2.00859,1.1484,-0.83677,1.73916,-1.03054,-1.83773,-1.11521,1.96425,1.11798,-0.880727,-0.534555,0.786938,0.396757,0.396401,0.62304,0.979148,0.847627,-0.853978,0.850078,-0.193925,0.348617,0.607982,0.550495,0.904759,0.509571,-0.47269,0.706207,0.582301,0.179182,0.150165,0.778633,-0.50536,-0.0754543,0.734808,2.80698,-0.496997,0.524823,-3.09816,0.142958,4.08147,-3.60025,0.183576,4.83659,-0.604374,0.729682,0.460755,0.413393,0.572057,0.422205,0.587115,1
1.68952,-0.951564,-1.78604,-1.07,2.02495,1.17997,-0.817876,1.69898,-0.96791,-1.78685,-1.10843,2.01614,1.14947,-0.830069,1.73479,-1.02277,-1.83193,-1.11464,1.97074,1.12598,-0.873004,-0.400915,0.859074,0.809307,-0.235497,0.74711,0.736513,0.796547,-0.596476,0.826922,0.330415,0.243897,0.642235,0.80902,0.854641,0.505066,-0.471415,0.713463,0.580819,0.172431,0.146224,0.782007,-0.328897,0.293263,0.739855,2.77069,-0.494834,0.572015,-3.93652,0.23462,5.11977,-3.6104,0.180104,4.72204,-0.452715,0.712093,0.458872,0.44637,0.542124,0.53983,0.551279,1
1.68833,-0.943597,-1.78354,-1.07472,2.03128,1.18884,-0.811239,1.68868,-0.95874,-1.78762,-1.08421,2.02142,1.16029,-0.823477,1.73062,-1.01426,-1.82376,-1.11735,1.9781,1.13148,-0.865645,-0.479932,0.944697,0.91915,-0.333242,0.812094,0.450441,0.768912,-0.471801,0.86357,0.708405,-0.057446,0.727415,0.722034,0.804362,0.501389,-0.46835,0.720895,0.577678,0.166529,0.142474,0.786293,-0.330809,0.326539,0.778765,2.7343,-0.493113,0.617828,-3.7225,0.176123,4.68679,-3.61335,0.178929,4.60963,-0.422954,0.706623,0.402204,0.426237,0.531855,0.57352,0.544059,1
1.67994,-0.931202,-1.77337,-1.07969,2.04277,1.18952,-0.80311,1.68623,-0.950725,-1.78596,-1.07445,2.02635,1.17508,-0.817162,1.72504,-1.00513,-1.81585,-1.1176,1.98573,1.13535,-0.85847,-0.693821,0.991244,0.77209,0.244022,0.809918,0.37603,0.756297,-0.524889,0.931672,0.833516,-0.108239,0.789707,0.520995,0.773919,0.49674,-0.466701,0.729041,0.576044,0.160873,0.138649,0.789348,-0.526425,0.027085,0.890765,2.69942,-0.490954,0.663489,-3.65533,0.226232,4.78441,-3.60637,0.183472,4.50747,-0.450989,0.739323,0.424802,0.379037,0.570446,0.541678,0.553607,1
1.66312,-0.920335,-1.76876,-1.07344,2.0494,1.19082,-0.794335,1.68435,-0.941909,-1.78121,-1.07465,2.03309,1.18512,-0.810483,1.71806,-0.995823,-1.80952,-1.11272,1.99308,1.13975,-0.851413,-0.782473,0.987483,0.583322,0.759323,0.754824,0.547049,0.743932,-0.652075,0.974474,0.758187,0.223367,0.792279,0.45784,0.75638,0.490413,-0.467514,0.738041,0.577133,0.154368,0.134523,0.790564,-0.676824,-0.192813,0.958371,2.6641,-0.489066,0.707695,-3.76197,0.20106,4.70865,-3.59081,0.190512,4.4111,-0.54938,0.754881,0.407631,0.392869,0.563241,0.510733,0.570782,1
1.65144,-0.91138,-1.77016,-1.05757,2.05507,1.19958,-0.789237,1.67665,-0.931617,-1.77535,-1.0749,2.04121,1.18971,-0.803004,1.71128,-0.986678,-1.80448,-1.10527,1.99993,1.14603,-0.844492,-0.666853,0.957399,0.493282,0.820784,0.703668,0.773663,0.727777,-0.714382,0.978708,0.616231,0.608043,0.756137,0.565581,0.742669,0.483434,-0.469051,0.747227,0.579324,0.146736,0.130389,0.791107,-0.657938,-0.151994,0.931736,2.62867,-0.487258,0.751028,-3.47331,0.177268,4.24837,-3.57444,0.192804,4.31896,-0.598363,0.752986,0.34319,0.477014,0.551415,0.535534,0.552551,1
1.64499,-0.903055,-1.76814,-1.04634,2.0589,1.20825,-0.783427,1.66485,-0.921187,-1.77115,-1.06942,2.04862,1.19365,-0.795629,1.70552,-0.97769,-1.79983,-1.09848,2.00656,1.15364,-0.837662,-0.563562,0.952836,0.495863,0.634408,0.706433,0.838539,0.723774,-0.670963,0.965906,0.524156,0.738172,0.721641,0.71975,0.731828,0.476878,-0.469717,0.756025,0.580882,0.13861,0.126546,0.792054,-0.584627,-0.0261516,0.878899,2.59286,-0.485271,0.793577,-3.44283,0.191033,4.09096,-3.55919,0.194204,4.22912,-0.605239,0.746341,0.316884,0.52136,0.523353,0.546186,0.542346,1
1.63985,-0.893715,-1.76487,-1.04061,2.06221,1.21613,-0.775199,1.65381,-0.911672,-1.76917,-1.05905,2.05429,1.19997,-0.789049,1.69993,-0.968566,-1.79502,-1.09324,2.01339,1.16114,-0.830771,-0.619931,0.983943,0.523791,0.488304,0.741029,0.760741,0.739437,-0.616782,0.964726,0.504312,0.647832,0.717043,0.790981,0.73033,0.470689,-0.469581,0.764458,0.581646,0.130721,0.122997,0.793392,-0.580921,0.0188377,0.857887,2.55606,-0.483779,0.834424,-3.63875,0.147489,4.03796,-3.56259,0.187659,4.1295,-0.600787,0.74851,0.301445,0.526256,0.488274,0.549919,0.555716,1
1.63184,-0.883756,-1.76079,-1.03689,2.06926,1.22086,-0.766471,1.64563,-0.902675,-1.76741,-1.04882,2.05882,1.20775,-0.782445,1.69339,-0.959167,-1.79017,-1.08854,2.02041,1.16792,-0.823762,-0.760152,1.01143,0.506715,0.509026,0.751259,0.685189,0.749204,-0.647882,0.982738,0.508789,0.543912,0.732907,0.76149,0.737472,0.464221,-0.469519,0.772799,0.582439,0.123223,0.11963,0.794525,-0.646828,-0.0329581,0.863201,2.51917,-0.481649,0.873765,-3.49733,0.201964,3.72975,-3.58347,0.187628,4.01987,-0.615502,0.754115,0.29384,0.516499,0.488506,0.529386,0.572914,1
1.62187,-0.873736,-1.75672,-1.03292,2.07818,1.22379,-0.758538,1.63873,-0.893416,-1.76449,-1.04169,2.0637,1.21479,-0.77491,1.68578,-0.949648,-1.78573,-1.08309,2.02732,1.17436,-0.816766,-0.85153,1.01131,0.440962,0.640129,0.718217,0.682011,0.738126,-0.743871,1.00223,0.490489,0.545819,0.736835,0.709314,0.742256,0.45713,-0.470058,0.781179,0.583931,0.115805,0.116414,0.795023,-0.715949,-0.105915,0.869595,2.48479,-0.479155,0.913286,-3.74658,0.27177,4.30735,-3.59417,0.191817,3.91046,-0.639104,0.759123,0.290131,0.501734,0.508649,0.494368,0.582284,1
1.61169,-0.864042,-1.75558,-1.02596,2.08537,1.22823,-0.751647,1.63091,-0.883714,-1.76093,-1.03673,2.07009,1.22008,-0.766803,1.67775,-0.94019,-1.78186,-1.07657,2.03382,1.18094,-0.809859,-0.855314,0.99905,0.38496,0.73905,0.665959,0.714188,0.730056,-0.822332,1.00726,0.444212,0.629402,0.711812,0.693796,0.739129,0.449605,-0.471006,0.789556,0.586052,0.108187,0.113413,0.79497,-0.740947,-0.126764,0.865898,2.44858,-0.477524,0.951291,-3.60669,0.16248,3.78547,-3.60008,0.194478,3.80534,-0.660619,0.761488,0.262812,0.506119,0.515495,0.472963,0.582119,1
1.60261,-0.854647,-1.7548,-1.01755,2.09123,1.23409,-0.745173,1.62174,-0.873873,-1.75784,-1.03169,2.07757,1.22433,-0.759004,1.66983,-0.930804,-1.77832,-1.06959,2.03992,1.18769,-0.80291,-0.828167,0.995671,0.368373,0.743064,0.633211,0.721538,0.745636,-0.845004,1.00201,0.398098,0.707414,0.672462,0.705912,0.737939,0.442019,-0.471869,0.797845,0.588266,0.100394,0.110682,0.794742,-0.730975,-0.0971733,0.854092,2.41393,-0.475118,0.988456,-3.55103,0.24661,3.80846,-3.58596,0.201927,3.70205,-0.672209,0.761573,0.235211,0.520476,0.513066,0.463966,0.577368,1
1.59398,-0.845131,-1.75345,-1.00972,2.09689,1.23999,-0.738471,1.61212,-0.864167,-1.75586,-1.02526,2.08475,1.22886,-0.751854,1.66203,-0.921394,-1.77484,-1.06284,2.04593,1.19431,-0.795764,-0.828771,1.00341,0.370611,0.695224,0.643325,0.686374,0.771229,-0.837418,0.999379,0.374648,0.725779,0.647498,0.707367,0.748974,0.434542,-0.472414,0.805993,0.590203,0.0926671,0.108178,0.794588,-0.720344,-0.0634944,0.839759,2.37851,-0.473131,1.02501,-3.442,0.193026,3.55211,-3.56398,0.206673,3.60675,-0.680573,0.76263,0.21399,0.531204,0.509573,0.45677,0.572926,1
1.5852,-0.835252,-1.75054,-1.00367,2.10381,1.24379,-0.731011,1.60284,-0.854597,-1.75451,-1.01779,2.09115,1.23406,-0.745066,1.65407,-0.911903,-1.7714,-1.05647,2.05215,1.20051,-0.788441,-0.861095,1.01275,0.361122,0.659961,0.676731,0.63443,0.78391,-0.839344,1.00395,0.366702,0.699416,0.651089,0.680781,0.766925,0.427109,-0.472755,0.813991,0.591905,0.0852017,0.105807,0.794477,-0.725574,-0.0524761,0.826063,2.34297,-0.470595,1.0596,-3.6752,0.262225,3.57726,-3.5409,0.216517,3.51143,-0.688763,0.766512,0.208639,0.527978,0.516582,0.432781,0.574298,1
1.57643,-0.825271,-1.74716,-0.998653,2.11084,1.24707,-0.722985,1.59395,-0.844981,-1.7528,-1.01049,2.09736,1.23917,-0.738137,1.64579,-0.90235,-1.76817,-1.05023,2.05862,1.20631,-0.78109,-0.896727,1.01684,0.327762,0.665016,0.695861,0.600476,0.778551,-0.862198,1.011,0.353165,0.6734,0.671972,0.640427,0.777897,0.419597,-0.473084,0.82185,0.593617,0.0779952,0.103542,0.794238,-0.741329,-0.0586412,0.813654,2.30672,-0.469475,1.0933,-3.34661,0.103448,3.11169,-3.53948,0.207267,3.4106,-0.693645,0.77079,0.210119,0.515809,0.522251,0.407617,0.581048,1
1.56747,-0.815344,-1.74451,-0.99334,2.11777,1.25003,-0.71491,1.58518,-0.835194,-1.75031,-1.00415,2.10392,1.24344,-0.730748,1.63725,-0.89278,-1.76529,-1.04383,2.06515,1.21191,-0.773825,-0.916454,1.0168,0.287042,0.693629,0.692336,0.589903,0.765862,-0.891425,1.01546,0.325309,0.672869,0.688309,0.60827,0.776108,0.411958,-0.473462,0.82959,0.595504,0.0709138,0.10143,0.793762,-0.756018,-0.0636567,0.803716,2.27238,-0.467597,1.12712,-3.75781,0.205489,3.70024,-3.5425,0.197482,3.30951,-0.697785,0.774356,0.207814,0.50492,0.526189,0.381215,0.589152,1
1.55824,-0.805478,-1.74245,-0.987751,2.12484,1.25212,-0.707105,1.57634,-0.825289,-1.74744,-0.99859,2.11082,1.24686,-0.722948,1.62859,-0.883204,-1.7627,-1.03721,2.07163,1.21741,-0.76665,-0.922574,1.01789,0.263796,0.711713,0.685075,0.579483,0.759293,-0.911918,1.01718,0.292867,0.690119,0.69109,0.589954,0.767902,0.404235,-0.473809,0.837239,0.59753,0.0638627,0.0994995,0.793082,-0.762261,-0.0550455,0.796832,2.23651,-0.464528,1.15839,-3.50971,0.300239,3.0595,-3.53961,0.206015,3.20324,-0.703496,0.777255,0.202574,0.494615,0.532131,0.347054,0.595447,1
1.54901,-0.795637,-1.74126,-0.98194,2.1316,1.2539,-0.699505,1.56736,-0.815372,-1.74483,-0.993204,2.1178,1.24967,-0.715021,1.6199,-0.873599,-1.76022,-1.03056,2.07809,1.22273,-0.759474,-0.924632,1.02273,0.263919,0.703197,0.687908,0.551699,0.764983,-0.92122,1.01914,0.271586,0.702846,0.68844,0.573695,0.76338,0.39651,-0.473996,0.844818,0.599524,0.0568643,0.0977295,0.79233,-0.759345,-0.0330261,0.791346,2.20148,-0.461861,1.18934,-3.53145,0.268879,3.12002,-3.54263,0.214192,3.09616,-0.708923,0.779621,0.189587,0.486161,0.53508,0.31178,0.599689,1
1.53967,-0.785711,-1.73985,-0.976736,2.13873,1.25311,-0.691792,1.55822,-0.805486,-1.7428,-0.987688,2.12476,1.25179,-0.707192,1.61118,-0.86394,-1.75769,-1.02406,2.08462,1.22771,-0.752204,-0.927787,1.02925,0.272983,0.6783,0.697758,0.510036,0.779047,-0.924998,1.02329,0.266899,0.697737,0.690247,0.547072,0.767775,0.388852,-0.473947,0.852326,0.601342,0.05,0.0960925,0.791615,-0.751414,-0.00643736,0.784686,2.16695,-0.459606,1.21911,-3.53212,0.230655,3.04512,-3.52813,0.224966,2.98877,-0.715123,0.782291,0.178368,0.473259,0.541177,0.254027,0.604117,1
1.53043,-0.775766,-1.74057,-0.971123,2.14491,1.25384,-0.684021,1.54898,-0.795605,-1.74137,-0.982128,2.13166,1.25301,-0.699472,1.60242,-0.854225,-1.75512,-1.01779,2.09123,1.23228,-0.744801,-0.933666,1.03462,0.27394,0.654823,0.707416,0.463044,0.793012,-0.928695,1.02887,0.270281,0.678773,0.697694,0.508259,0.779014,0.381289,-0.473668,0.859747,0.602959,0.0433398,0.0945852,0.790959,-0.743378,0.0155796,0.775426,2.12836,-0.460081,1.24697,-3.86343,-0.0475705,2.78982,-3.55101,0.203629,2.87838,-0.719896,0.784588,0.145462,0.466715,0.536756,0.215638,0.607796,1
1.52071,-0.765692,-1.73921,-0.967121,2.15292,1.24661,-0.675993,1.53967,-0.78569,-1.74051,-0.976721,2.13851,1.25302,-0.691747,1.59359,-0.844469,-1.7526,-1.01171,2.09793,1.23637,-0.737294,-0.94192,1.03809,0.261078,0.639599,0.714472,0.410538,0.801588,-0.934458,1.03399,0.269334,0.657574,0.706549,0.461206,0.791215,0.37382,-0.473221,0.867056,0.604439,0.0369381,0.0932234,0.790316,-0.736669,0.0301245,0.763684,2.09572,-0.456552,1.27523,-3.32356,0.359339,2.87729,-3.53795,0.209723,2.77222,-0.728832,0.787768,0.133952,0.44586,0.549958,0.10238,0.61301,1
1.51115,-0.755629,-1.73681,-0.963944,2.16084,1.24149,-0.667779,1.53027,-0.775717,-1.73986,-0.971753,2.14553,1.25108,-0.683909,1.58468,-0.834685,-1.75027,-1.00574,2.10467,1.23993,-0.729728,-0.950765,1.04066,0.236992,0.628783,0.718696,0.348495,0.805692,-0.942117,1.03779,0.257337,0.641068,0.713528,0.407359,0.800097,0.366448,-0.472666,0.874232,0.605858,0.0308572,0.0920296,0.789629,-0.729287,0.0396556,0.749866,2.06074,-0.454804,1.30193,-3.63177,0.181552,2.77166,-3.5344,0.200402,2.66338,-0.735245,0.79056,0.134544,0.41797,0.561635,0.0156644,0.619489,1
1.50147,-0.745438,-1.7348,-0.96079,2.16849,1.23105,-0.659452,1.52073,-0.76568,-1.73871,-0.967533,2.15298,1.24657,-0.6759,1.57569,-0.824876,-1.7482,-0.999883,2.11145,1.24282,-0.722128,-0.959136,1.04346,0.204757,0.61676,0.720719,0.271655,0.809005,-0.950607,1.04074,0.234276,0.62838,0.717962,0.343562,0.805428,0.359199,-0.47204,0.881255,0.607263,0.0251817,0.0910289,0.788867,-0.718918,0.0465975,0.734035,2.02577,-0.45233,1.32767,-3.48609,0.246664,2.56652,-3.51751,0.192016,2.56832,-0.742201,0.794373,0.133932,0.390927,0.57044,-0.117737,0.626761,1
1.492,-0.735237,-1.73115,-0.958375,2.17616,1.22148,-0.651308,1.51113,-0.755581,-1.73679,-0.96405,2.16073,1.23968,-0.667736,1.56662,-0.815036,-1.74642,-0.994176,2.11826,1.24485,-0.714487,-0.967986,1.04702,0.174691,0.597084,0.726245,0.16596,0.814243,-0.959296,1.04371,0.20548,0.614209,0.721886,0.262037,0.809647,0.35212,-0.471366,0.888116,0.608655,0.0200386,0.0902273,0.788033,-0.703562,0.0529463,0.717535,1.99067,-0.449929,1.35268,-3.43652,0.234974,2.44819,-3.50854,0.198665,2.47173,-0.746198,0.797994,0.152717,0.358009,0.578992,-0.233687,0.631789,1
1.48258,-0.724856,-1.72971,-0.956715,2.18271,1.21263,-0.643394,1.50154,-0.745415,-1.73435,-0.961116,2.16841,1.23109,-0.659528,1.55746,-0.805159,-1.74483,-0.98872,2.12517,1.2457,-0.706782,-0.977899,1.05129,0.162949,0.564195,0.740717,0.0232413,0.822353,-0.96834,1.04726,0.180799,0.59268,0.729227,0.153619,0.8152,0.345273,-0.470642,0.894822,0.609983,0.0155854,0.0895862,0.78718,-0.681983,0.0620683,0.702988,1.95567,-0.44808,1.3764,-3.51984,0.185961,2.38603,-3.49698,0.211089,2.37759,-0.748785,0.803033,0.151203,0.320048,0.575444,-0.330666,0.633874,1
1.47339,-0.714625,-1.72337,-0.956525,2.19087,1.2024,-0.63594,1.49204,-0.735178,-1.73157,-0.958796,2.17584,1.22172,-0.651434,1.5482,-0.79524,-1.74325,-0.983624,2.13223,1.24508,-0.698992,-0.987277,1.05607,0.172145,0.52123,0.758997,-0.143817,0.832299,-0.977721,1.05146,0.169928,0.560836,0.741986,0.0151283,0.822965,0.338715,-0.469845,0.901399,0.611173,0.0119426,0.0890455,0.786381,-0.655209,0.0755112,0.691486,1.9201,-0.446505,1.39873,-3.35309,0.148474,2.10504,-3.48195,0.223383,2.2799,-0.748089,0.806154,0.198805,0.270989,0.586404,-0.426815,0.630518,1
1.46491,-0.704443,-1.71833,-0.953147,2.19946,1.19564,-0.628162,1.48271,-0.724904,-1.72809,-0.957114,2.18327,1.21238,-0.643561,1.53888,-0.785273,-1.74154,-0.97895,2.13944,1.24288,-0.691113,-0.994138,1.06138,0.191428,0.474901,0.771509,-0.313929,0.841096,-0.986438,1.05625,0.175507,0.520109,0.757074,-0.144835,0.831916,0.332486,-0.468943,0.907873,0.612176,0.00914717,0.0885747,0.785691,-0.625224,0.092327,0.681735,1.88396,-0.445533,1.42091,-3.71374,0.0998438,2.2791,-3.52379,0.19251,2.1764,-0.739686,0.808297,0.232061,0.258028,0.600264,-0.472406,0.629516,1
1.4567,-0.694379,-1.71191,-0.949294,2.20878,1.18866,-0.620285,1.47369,-0.71466,-1.72347,-0.955392,2.19118,1.2036,-0.635841,1.5295,-0.775253,-1.73962,-0.974732,2.14672,1.23917,-0.683176,-0.99747,1.06717,0.214355,0.424363,0.775498,-0.464686,0.845242,-0.992962,1.06154,0.192643,0.473498,0.768668,-0.307477,0.839546,0.326607,-0.467898,0.91425,0.612977,0.00714937,0.0881807,0.785132,-0.593009,0.113282,0.671691,1.84894,-0.444791,1.44243,-3.44541,0.0730089,2.11741,-3.5343,0.168047,2.08597,-0.728063,0.808744,0.277059,0.254377,0.620641,-0.505112,0.628907,1
1.44855,-0.684377,-1.70659,-0.944186,2.21744,1.18191,-0.612469,1.46506,-0.704494,-1.71797,-0.952691,2.19972,1.19579,-0.628108,1.52012,-0.765182,-1.73743,-0.971009,2.15404,1.23421,-0.675229,-0.996126,1.07256,0.248658,0.370019,0.77856,-0.581468,0.843308,-0.995911,1.06704,0.218147,0.423094,0.775189,-0.453361,0.843215,0.321082,-0.466654,0.920536,0.61355,0.00581313,0.087856,0.784732,-0.560253,0.140456,0.662829,1.81528,-0.441837,1.46195,-3.39389,0.29787,1.96718,-3.5238,0.158215,1.98878,-0.715718,0.808043,0.308425,0.268238,0.634024,-0.523006,0.627602,1
1.44006,-0.674477,-1.70139,-0.940089,2.22669,1.17408,-0.604688,1.45672,-0.694416,-1.71225,-0.948857,2.20862,1.18866,-0.620304,1.51078,-0.755068,-1.73482,-0.967733,2.16143,1.22835,-0.667317,-0.987877,1.07604,0.30237,0.328649,0.792185,-0.659041,0.838181,-0.993824,1.07192,0.255127,0.374344,0.782081,-0.568398,0.842244,0.315867,-0.465152,0.926773,0.613854,0.00491291,0.0875256,0.784537,-0.532613,0.172336,0.660867,1.78065,-0.439437,1.48061,-3.33485,0.231114,1.79742,-3.50716,0.163128,1.8878,-0.707249,0.805918,0.334315,0.276445,0.652612,-0.542737,0.626292,1
1.4322,-0.664495,-1.69567,-0.937749,2.23547,1.1669,-0.597015,1.44846,-0.684414,-1.70667,-0.944596,2.21759,1.18156,-0.612493,1.50157,-0.744936,-1.73166,-0.964686,2.16902,1.22196,-0.659446,-0.972141,1.07692,0.364794,0.319412,0.817699,-0.696884,0.834495,-0.985381,1.07517,0.305274,0.33936,0.796148,-0.645798,0.838661,0.31086,-0.463369,0.93304,0.613873,0.004166,0.0870727,0.784577,-0.515857,0.203343,0.668098,1.74589,-0.437067,1.49877,-3.36163,0.229201,1.75658,-3.48908,0.181686,1.79252,-0.693631,0.804402,0.359983,0.269371,0.664536,-0.550635,0.624308,1
1.42437,-0.654438,-1.69071,-0.935212,2.24415,1.15977,-0.589334,1.44028,-0.674448,-1.70125,-0.940799,2.22654,1.17426,-0.60473,1.49251,-0.734806,-1.72796,-0.961582,2.17685,1.21533,-0.651597,-0.953199,1.07559,0.418526,0.338883,0.845896,-0.710184,0.833352,-0.971072,1.07618,0.361897,0.328981,0.818593,-0.688703,0.835343,0.305945,-0.46133,0.939398,0.613641,0.00334414,0.0864228,0.784834,-0.508702,0.228911,0.679622,1.71001,-0.435173,1.51437,-3.76445,0.198748,1.63654,-3.48107,0.201012,1.68147,-0.681416,0.803676,0.372556,0.263706,0.672959,-0.555586,0.622626,1
1.41602,-0.644316,-1.68655,-0.931812,2.25273,1.15254,-0.581735,1.43222,-0.664458,-1.69597,-0.937731,2.2354,1.16695,-0.597024,1.48362,-0.724696,-1.72383,-0.958267,2.18493,1.2086,-0.643757,-0.936282,1.07273,0.456938,0.364047,0.869686,-0.720073,0.832586,-0.953874,1.07508,0.413419,0.340781,0.844427,-0.709047,0.833477,0.301064,-0.459081,0.945853,0.613218,0.00237576,0.0855797,0.785261,-0.503912,0.249114,0.688047,1.67532,-0.432799,1.53128,-3.47188,0.237603,1.69195,-3.47563,0.222184,1.57786,-0.676072,0.803806,0.372766,0.264549,0.677961,-0.560593,0.620227,1
1.40738,-0.634219,-1.68309,-0.926981,2.26115,1.14569,-0.574138,1.42416,-0.654411,-1.6911,-0.934786,2.2441,1.15976,-0.589365,1.47488,-0.714615,-1.7194,-0.954797,2.19321,1.20176,-0.635929,-0.921588,1.06966,0.48331,0.372774,0.887721,-0.732386,0.830844,-0.937023,1.07266,0.452925,0.358568,0.867768,-0.720881,0.83226,0.29624,-0.456651,0.952349,0.612626,0.00131845,0.0845984,0.785831,-0.493837,0.26831,0.68872,1.64156,-0.429827,1.5458,-3.39085,0.298539,1.45853,-3.47388,0.240125,1.47326,-0.67506,0.803955,0.363111,0.27816,0.679387,-0.560724,0.61791,1
1.39854,-0.624184,-1.68011,-0.921588,2.26954,1.13888,-0.566461,1.41586,-0.644325,-1.68689,-0.931186,2.25266,1.15268,-0.581736,1.46628,-0.704556,-1.71476,-0.95134,2.20162,1.19482,-0.628123,-0.907122,1.06783,0.500458,0.362412,0.899396,-0.742085,0.828167,-0.921664,1.07007,0.480235,0.366411,0.885601,-0.731515,0.830532,0.291539,-0.454035,0.958817,0.611854,0.000254723,0.0835515,0.786545,-0.476941,0.289025,0.682249,1.60777,-0.427687,1.55997,-3.39808,0.21521,1.42503,-3.46879,0.235501,1.38195,-0.677371,0.803723,0.346501,0.297518,0.679119,-0.559424,0.61662,1
1.38979,-0.614233,-1.67734,-0.916969,2.2781,1.13227,-0.558771,1.40729,-0.634249,-1.68333,-0.926729,2.26114,1.14574,-0.574107,1.4578,-0.694506,-1.71003,-0.947984,2.21012,1.18781,-0.620344,-0.895909,1.06775,0.504226,0.351444,0.904886,-0.746969,0.824986,-0.908206,1.06841,0.495998,0.36221,0.897334,-0.74048,0.827999,0.286995,-0.45124,0.965211,0.61092,-0.000772941,0.0825055,0.787381,-0.460665,0.306872,0.673138,1.57261,-0.426361,1.57295,-3.5379,0.133427,1.30611,-3.46002,0.226203,1.28869,-0.680121,0.802725,0.326974,0.310147,0.679812,-0.555358,0.615724,1
1.38098,-0.604265,-1.67449,-0.912912,2.28665,1.12555,-0.551051,1.39856,-0.624218,-1.68021,-0.921878,2.2696,1.13895,-0.566449,1.44938,-0.684452,-1.70535,-0.944641,2.21864,1.18077,-0.612595,-0.892642,1.06858,0.491573,0.358318,0.906018,-0.74815,0.821782,-0.898558,1.06805,0.498752,0.357391,0.903433,-0.745735,0.824978,0.282563,-0.448316,0.971526,0.609913,-0.00176893,0.0815014,0.788265,-0.45338,0.316664,0.665694,1.53815,-0.423725,1.58517,-3.30774,0.253009,1.17336,-3.44847,0.224157,1.1966,-0.684013,0.801863,0.308626,0.317294,0.68009,-0.552198,0.615435,1
1.37208,-0.594239,-1.67187,-0.908994,2.29508,1.1187,-0.543283,1.38977,-0.614228,-1.67734,-0.917237,2.2781,1.13223,-0.558756,1.44096,-0.674392,-1.70085,-0.941141,2.22716,1.17374,-0.604872,-0.896653,1.06901,0.466624,0.383804,0.904815,-0.745733,0.819286,-0.895068,1.06845,0.487474,0.364522,0.90524,-0.746951,0.822018,0.278156,-0.445334,0.977781,0.608948,-0.00276446,0.0805524,0.789105,-0.455562,0.319051,0.660697,1.50395,-0.421182,1.59619,-3.37216,0.250745,1.08637,-3.4339,0.227101,1.1086,-0.688839,0.801532,0.289787,0.321472,0.679213,-0.550448,0.615898,1
1.36311,-0.584195,-1.6702,-0.904772,2.30347,1.11207,-0.535504,1.38094,-0.604241,-1.67463,-0.91298,2.2866,1.12551,-0.55103,1.43249,-0.664334,-1.69661,-0.937383,2.23567,1.16675,-0.597167,-0.903562,1.06828,0.436578,0.412908,0.903509,-0.740357,0.818033,-0.897619,1.06863,0.464925,0.38501,0.904781,-0.744747,0.8197,0.273717,-0.442339,0.983987,0.608091,-0.00378239,0.0796583,0.789851,-0.46061,0.318625,0.655363,1.46892,-0.418728,1.60506,-3.553,0.24882,0.899445,-3.44306,0.226653,0.9905,-0.69379,0.801385,0.264087,0.326117,0.677995,-0.546764,0.616635,1
1.35391,-0.574173,-1.66952,-0.899971,2.31174,1.10555,-0.52772,1.37203,-0.59423,-1.6723,-0.908852,2.29505,1.11878,-0.543275,1.42395,-0.654286,-1.69264,-0.933408,2.24417,1.15981,-0.589469,-0.910265,1.06676,0.40762,0.430652,0.903382,-0.734417,0.817886,-0.903494,1.06802,0.436941,0.409121,0.903902,-0.740169,0.818402,0.269251,-0.439339,0.990127,0.607338,-0.00481112,0.0788194,0.79051,-0.461954,0.319528,0.647031,1.43431,-0.41681,1.61376,-3.40572,0.188787,0.855916,-3.45763,0.221952,0.883241,-0.700366,0.801138,0.231186,0.334376,0.675682,-0.542656,0.617488,1
1.34462,-0.564206,-1.66959,-0.89518,2.32002,1.09912,-0.51995,1.36301,-0.584205,-1.67068,-0.904536,2.30342,1.11213,-0.535502,1.41535,-0.644252,-1.68894,-0.929331,2.25268,1.15292,-0.581767,-0.916433,1.0655,0.381073,0.435426,0.903401,-0.729992,0.81853,-0.910087,1.06685,0.408424,0.426329,0.903431,-0.734922,0.81815,0.264802,-0.436316,0.996173,0.606646,-0.00581468,0.0780433,0.79111,-0.458411,0.32267,0.635904,1.39966,-0.41524,1.62165,-3.72214,0.168622,0.847664,-3.46484,0.219415,0.773354,-0.707269,0.800457,0.19349,0.341507,0.673383,-0.537978,0.618171,1
1.33547,-0.554284,-1.66995,-0.891474,2.32831,1.09301,-0.51225,1.35387,-0.574198,-1.66988,-0.900006,2.31174,1.10561,-0.527729,1.40669,-0.634225,-1.6855,-0.925229,2.26117,1.14607,-0.574057,-0.922992,1.06509,0.351475,0.436118,0.902144,-0.726616,0.819724,-0.916564,1.06578,0.380056,0.434065,0.902976,-0.730342,0.818713,0.260404,-0.433262,1.00211,0.605999,-0.00676056,0.0773438,0.791667,-0.45319,0.325688,0.62356,1.36475,-0.414112,1.62792,-3.33935,0.107917,0.599828,-3.46489,0.207445,0.66221,-0.712195,0.799414,0.155528,0.337548,0.671333,-0.530614,0.618071,1
1.32613,-0.544358,-1.67088,-0.887723,2.33651,1.08676,-0.504503,1.34466,-0.564226,-1.66978,-0.895585,2.32002,1.09924,-0.519974,1.39797,-0.6242,-1.68239,-0.9211,2.26965,1.13925,-0.566335,-0.930793,1.06508,0.311894,0.441083,0.899378,-0.722197,0.821083,-0.923406,1.06523,0.348147,0.437542,0.901641,-0.726268,0.819779,0.256056,-0.430193,1.00792,0.605422,-0.00763311,0.0767357,0.79216,-0.449775,0.325583,0.610867,1.33054,-0.41092,1.63346,-3.46286,0.323118,0.560781,-3.46596,0.200149,0.553196,-0.718389,0.798421,0.115061,0.333761,0.668563,-0.524902,0.618316,1
1.31662,-0.534422,-1.67347,-0.883579,2.34456,1.08058,-0.496776,1.3354,-0.554285,-1.67029,-0.891501,2.32826,1.09298,-0.512238,1.38916,-0.614178,-1.67971,-0.916903,2.2781,1.13249,-0.558601,-0.93969,1.06463,0.261589,0.449956,0.895752,-0.71565,0.822094,-0.931159,1.06493,0.308319,0.442386,0.899092,-0.721488,0.820967,0.251742,-0.427142,1.01361,0.604964,-0.00842605,0.0762296,0.792551,-0.44837,0.321853,0.597436,1.29598,-0.409067,1.63911,-3.13857,0.168299,0.5131,-3.46504,0.195215,0.463246,-0.725371,0.797554,0.0623928,0.333246,0.664593,-0.519056,0.618253,1
1.30704,-0.524475,-1.67716,-0.879344,2.35268,1.07409,-0.489323,1.32605,-0.544354,-1.67161,-0.887567,2.33645,1.08676,-0.504525,1.38027,-0.604162,-1.67752,-0.912646,2.28651,1.12579,-0.550861,-0.948376,1.06347,0.206087,0.454331,0.892194,-0.707141,0.822492,-0.93962,1.06439,0.259857,0.448457,0.895775,-0.714996,0.82189,0.247461,-0.42413,1.01916,0.604653,-0.00912693,0.0758321,0.792818,-0.445608,0.316784,0.58194,1.26176,-0.406925,1.64345,-3.73539,0.233821,0.473881,-3.45446,0.197212,0.38458,-0.732313,0.796875,0.0036428,0.333018,0.661649,-0.51706,0.615384,1
1.29722,-0.514482,-1.68227,-0.874295,2.36079,1.0672,-0.482141,1.31657,-0.534415,-1.67407,-0.88347,2.34457,1.08044,-0.496897,1.37131,-0.59416,-1.67587,-0.908392,2.29489,1.11918,-0.54312,-0.956183,1.06185,0.148662,0.449812,0.888672,-0.697727,0.822357,-0.948083,1.06332,0.205446,0.451366,0.892206,-0.70684,0.822314,0.243238,-0.421165,1.02455,0.604487,-0.00971115,0.0755493,0.792965,-0.439562,0.311701,0.563935,1.22805,-0.40465,1.64647,-3.35242,0.226235,0.300334,-3.44049,0.207706,0.296179,-0.740817,0.796782,-0.0639982,0.340973,0.658925,-0.51986,0.609794,1
1.28751,-0.504573,-1.68642,-0.867738,2.36901,1.06134,-0.474865,1.30695,-0.524462,-1.6777,-0.878939,2.35268,1.07398,-0.489436,1.36226,-0.584173,-1.67479,-0.904194,2.30324,1.11266,-0.535383,-0.964353,1.06036,0.0847354,0.442746,0.88445,-0.689653,0.821716,-0.956304,1.06189,0.146495,0.448963,0.888439,-0.698174,0.822188,0.239093,-0.418257,1.02977,0.604471,-0.0101487,0.0753888,0.792987,-0.432752,0.304644,0.544629,1.19352,-0.402959,1.64757,-3.55978,0.174359,0.113843,-3.4307,0.213448,0.195972,-0.747583,0.795996,-0.116293,0.364559,0.65772,-0.513129,0.605177,1
1.27802,-0.494616,-1.68964,-0.862872,2.37694,1.05614,-0.466925,1.29726,-0.514508,-1.68194,-0.873784,2.36081,1.0676,-0.482081,1.35314,-0.574197,-1.67437,-0.900035,2.31154,1.10618,-0.527661,-0.973856,1.05937,0.00801928,0.441108,0.879717,-0.685519,0.819208,-0.964797,1.06053,0.0804722,0.444555,0.88428,-0.690966,0.821094,0.235021,-0.415439,1.0348,0.604655,-0.0104099,0.0753563,0.792846,-0.428384,0.293159,0.525416,1.15972,-0.400947,1.64799,-3.2891,0.195778,0.0401817,-3.41804,0.213701,0.0921273,-0.751177,0.795806,-0.152701,0.371623,0.65404,-0.500466,0.607355,1
1.26874,-0.484578,-1.69266,-0.8597,2.38473,1.05186,-0.458795,1.28761,-0.504556,-1.686,-0.868384,2.3689,1.06171,-0.474598,1.34392,-0.564228,-1.67473,-0.895838,2.3198,1.09973,-0.519979,-0.984392,1.05892,-0.0789488,0.450005,0.875728,-0.685667,0.813339,-0.9742,1.05955,0.00460197,0.44462,0.879965,-0.686946,0.818088,0.23099,-0.412752,1.03966,0.605112,-0.0104804,0.0754468,0.792488,-0.428487,0.277809,0.50835,1.12511,-0.398904,1.64856,-3.61294,0.21318,0.0596502,-3.41803,0.2009,-0.0100811,-0.751834,0.796499,-0.179286,0.361383,0.64936,-0.47874,0.611839,1
1.25952,-0.474532,-1.69554,-0.857932,2.39264,1.04766,-0.450836,1.27812,-0.494582,-1.6895,-0.863701,2.37688,1.05653,-0.466823,1.3346,-0.554262,-1.67589,-0.891494,2.32803,1.09329,-0.512359,-0.994429,1.05862,-0.161124,0.471597,0.872957,-0.683972,0.806266,-0.984226,1.05897,-0.0773511,0.454237,0.876134,-0.685053,0.812938,0.226949,-0.410206,1.04438,0.605887,-0.0103989,0.075638,0.791878,-0.433869,0.263575,0.496505,1.0906,-0.397186,1.64807,-3.445,0.171521,-0.0488258,-3.4206,0.197803,-0.112087,-0.750864,0.797297,-0.196555,0.335627,0.646173,-0.456266,0.615228,1
1.25035,-0.464527,-1.69903,-0.856979,2.40079,1.04365,-0.442991,1.26878,-0.484573,-1.69264,-0.860383,2.38478,1.05196,-0.458854,1.32521,-0.544299,-1.6777,-0.886942,2.33623,1.08691,-0.504782,-1.0012,1.05833,-0.220894,0.494196,0.869942,-0.671142,0.803768,-0.993341,1.05862,-0.153656,0.471933,0.872876,-0.68026,0.807791,0.222867,-0.407752,1.04902,0.606939,-0.0102641,0.0759051,0.791049,-0.439464,0.257587,0.489253,1.0563,-0.394765,1.64561,-3.13797,0.221519,-0.22466,-3.42748,0.198075,-0.211879,-0.748572,0.797718,-0.213287,0.299632,0.645599,-0.432658,0.617906,1
1.2411,-0.454572,-1.70332,-0.85515,2.40939,1.03889,-0.435399,1.25954,-0.47455,-1.69581,-0.85827,2.39277,1.04769,-0.450905,1.31578,-0.534336,-1.67995,-0.882287,2.34439,1.08073,-0.497192,-1.00292,1.0586,-0.254316,0.494934,0.865045,-0.644377,0.808692,-0.999515,1.05852,-0.212111,0.486909,0.869315,-0.666497,0.806242,0.218782,-0.405293,1.05358,0.608129,-0.0101604,0.0762476,0.790103,-0.435638,0.262704,0.480587,1.02247,-0.392382,1.64301,-3.58625,0.252642,-0.276074,-3.42968,0.203405,-0.300785,-0.746737,0.797636,-0.233726,0.271371,0.649985,-0.418421,0.61793,1
1.23177,-0.444536,-1.70804,-0.85306,2.41783,1.03379,-0.428037,1.25032,-0.464544,-1.6994,-0.856685,2.40097,1.04336,-0.443107,1.30635,-0.524366,-1.68243,-0.877786,2.35251,1.07484,-0.489538,-1.00051,1.05967,-0.271759,0.463416,0.859494,-0.609298,0.817072,-1.00154,1.05887,-0.24899,0.484182,0.864827,-0.641606,0.809844,0.214803,-0.40274,1.05802,0.6093,-0.0100912,0.0766908,0.789158,-0.41825,0.274905,0.46568,0.988961,-0.390197,1.63979,-3.33978,0.217688,-0.320556,-3.41782,0.21269,-0.379441,-0.745797,0.7983,-0.256119,0.24726,0.653264,-0.410518,0.615007,1
1.22245,-0.43457,-1.713,-0.849341,2.42623,1.02941,-0.420482,1.24107,-0.454549,-1.70355,-0.854895,2.40936,1.03876,-0.435489,1.29695,-0.514386,-1.68506,-0.873688,2.36059,1.06928,-0.481817,-0.996348,1.0608,-0.286301,0.410558,0.856997,-0.574878,0.823141,-0.999924,1.05969,-0.270792,0.456303,0.860512,-0.609518,0.816302,0.211039,-0.400063,1.06229,0.610355,-0.00999539,0.0772529,0.788289,-0.392073,0.287355,0.445216,0.955252,-0.387948,1.6353,-3.30009,0.220194,-0.439921,-3.40653,0.21862,-0.466624,-0.744997,0.798166,-0.279348,0.243475,0.656473,-0.398682,0.613343,1
1.21317,-0.424573,-1.71794,-0.846539,2.43445,1.02509,-0.412887,1.23177,-0.444555,-1.70816,-0.85249,2.4178,1.03404,-0.427977,1.28759,-0.504399,-1.68786,-0.870091,2.36867,1.06399,-0.474063,-0.992568,1.06131,-0.307211,0.357001,0.860068,-0.549488,0.824314,-0.996475,1.06059,-0.288424,0.410325,0.858853,-0.577888,0.821509,0.207534,-0.397291,1.06637,0.61129,-0.0098033,0.0779213,0.7875,-0.365627,0.294951,0.423472,0.92127,-0.385728,1.62915,-3.50935,0.229255,-0.635533,-3.39125,0.223469,-0.57,-0.744217,0.798263,-0.300748,0.235523,0.657876,-0.389054,0.611755,1
1.20404,-0.41468,-1.72328,-0.844146,2.44277,1.02234,-0.405288,1.22248,-0.434569,-1.71303,-0.849609,2.42617,1.02957,-0.420455,1.27826,-0.494409,-1.6909,-0.866916,2.3768,1.05889,-0.46632,-0.990429,1.06141,-0.336799,0.320088,0.867031,-0.536021,0.821009,-0.993115,1.06117,-0.310104,0.362549,0.861365,-0.553462,0.822821,0.204259,-0.394478,1.07025,0.612169,-0.00947877,0.0786607,0.786747,-0.345786,0.296903,0.405215,0.886662,-0.384445,1.62169,-3.56346,0.132155,-0.767878,-3.38966,0.216897,-0.677823,-0.742204,0.797286,-0.323766,0.227692,0.65968,-0.36546,0.610323,1
1.19486,-0.404799,-1.72933,-0.842869,2.45095,1.02001,-0.397861,1.21323,-0.424611,-1.71813,-0.84682,2.43447,1.02571,-0.412894,1.26894,-0.484417,-1.69424,-0.863974,2.38499,1.05388,-0.458618,-0.989819,1.06154,-0.3706,0.305829,0.87361,-0.528354,0.815984,-0.990939,1.06142,-0.338203,0.327639,0.866903,-0.537954,0.820435,0.201135,-0.391663,1.074,0.613073,-0.00904237,0.0794386,0.78597,-0.334826,0.296238,0.392981,0.852539,-0.381388,1.61397,-3.3691,0.301795,-0.761944,-3.39496,0.215973,-0.779354,-0.740835,0.796182,-0.350936,0.211051,0.659627,-0.338695,0.607566,1
1.18578,-0.395144,-1.73728,-0.843533,2.45954,1.01921,-0.390762,1.20404,-0.414705,-1.72369,-0.844712,2.44275,1.02269,-0.405373,1.25963,-0.474427,-1.69789,-0.861095,2.39323,1.04897,-0.450956,-0.989348,1.06142,-0.403183,0.305896,0.877139,-0.516454,0.812257,-0.989865,1.06146,-0.370194,0.310604,0.872593,-0.526943,0.816417,0.198091,-0.388853,1.07765,0.614051,-0.00855866,0.080243,0.78513,-0.329604,0.296249,0.385101,0.818687,-0.379151,1.60462,-3.31469,0.219045,-0.915259,-3.4028,0.217191,-0.894336,-0.738508,0.792826,-0.393937,0.175619,0.663058,-0.29756,0.601936,1
1.1768,-0.385718,-1.74651,-0.841564,2.46783,1.02317,-0.384297,1.1949,-0.404899,-1.73017,-0.843502,2.45108,1.02091,-0.398035,1.25032,-0.46444,-1.70184,-0.858227,2.40149,1.04422,-0.443321,-0.987881,1.06067,-0.433844,0.303778,0.878178,-0.493075,0.810278,-0.989016,1.06121,-0.402542,0.305168,0.876309,-0.512628,0.81284,0.1951,-0.386032,1.08122,0.615107,-0.00808911,0.0810833,0.784222,-0.324156,0.297718,0.376776,0.784839,-0.377167,1.59489,-3.16648,0.185639,-0.910539,-3.40795,0.217951,-1.00441,-0.735241,0.787215,-0.446663,0.166626,0.663416,-0.210532,0.590238,1
1.16791,-0.376469,-1.75637,-0.836171,2.47514,1.03584,-0.378361,1.18583,-0.395255,-1.73792,-0.842453,2.45939,1.02163,-0.391053,1.24104,-0.454466,-1.7061,-0.855456,2.40976,1.03977,-0.435707,-0.985335,1.05884,-0.468509,0.286121,0.878533,-0.45489,0.807799,-0.987522,1.06031,-0.435179,0.298598,0.87795,-0.488139,0.810111,0.192183,-0.383196,1.08469,0.616218,-0.00765414,0.0819838,0.78326,-0.314343,0.29839,0.363211,0.751067,-0.374529,1.58362,-3.74608,0.292612,-1.25067,-3.40497,0.22384,-1.10938,-0.731266,0.779964,-0.502755,0.192851,0.653763,-0.0393548,0.573456,1
1.1596,-0.367608,-1.76521,-0.831509,2.48136,1.05714,-0.372224,1.17688,-0.385823,-1.74676,-0.840161,2.46738,1.02727,-0.384523,1.23178,-0.444518,-1.71075,-0.852937,2.41804,1.03578,-0.428135,-0.982128,1.05509,-0.517146,0.25125,0.879891,-0.396171,0.801574,-0.985115,1.0582,-0.473166,0.280383,0.878867,-0.448045,0.80655,0.189378,-0.380367,1.08799,0.617384,-0.0072479,0.0829749,0.78224,-0.301272,0.294862,0.342376,0.716948,-0.373496,1.5721,-3.27941,0.0992645,-1.10728,-3.39948,0.216965,-1.20134,-0.72177,0.769102,-0.544658,0.214282,0.633202,0.213516,0.559103,1
1.15159,-0.359316,-1.77304,-0.834327,2.48653,1.06914,-0.36696,1.16815,-0.376661,-1.75596,-0.836698,2.4746,1.03904,-0.378373,1.22256,-0.434621,-1.71596,-0.850727,2.42632,1.03258,-0.420656,-0.978078,1.04834,-0.58492,0.220332,0.880692,-0.291446,0.788329,-0.981847,1.05409,-0.523525,0.252568,0.879705,-0.380836,0.799234,0.18666,-0.377572,1.09108,0.618655,-0.00696249,0.0840983,0.781118,-0.295443,0.288483,0.319388,0.682813,-0.371624,1.55881,-3.40482,0.186752,-1.32505,-3.39409,0.210249,-1.29782,-0.709678,0.75306,-0.570838,0.164003,0.602102,0.365615,0.536963,1
1.14539,-0.352873,-1.7819,-0.850548,2.49282,1.08048,-0.361564,1.15986,-0.367961,-1.76483,-0.835197,2.48097,1.05415,-0.372531,1.21338,-0.424805,-1.72185,-0.848627,2.43458,1.03082,-0.413341,-0.97212,1.03811,-0.663364,0.225457,0.873498,-0.0945038,0.767436,-0.977442,1.04718,-0.588477,0.232347,0.878027,-0.260707,0.78578,0.183871,-0.374762,1.09399,0.620123,-0.00716607,0.0854384,0.779805,-0.310784,0.288988,0.30427,0.649167,-0.370566,1.54424,-3.44198,0.108255,-1.49094,-3.39197,0.182833,-1.4058,-0.67992,0.719328,-0.600521,-0.0192092,0.582497,0.496622,0.517766,1
1.13924,-0.348253,-1.79169,-0.879825,2.49751,1.08913,-0.362301,1.15229,-0.360159,-1.77342,-0.840636,2.48679,1.06814,-0.367348,1.20428,-0.415106,-1.72844,-0.846348,2.44268,1.03142,-0.406244,-0.962092,1.02379,-0.732878,0.256965,0.850129,0.202895,0.742194,-0.970763,1.03675,-0.660387,0.234251,0.868106,-0.0610184,0.765986,0.180814,-0.371799,1.09679,0.621838,-0.00840968,0.08714,0.778237,-0.341056,0.303784,0.296201,0.615717,-0.368652,1.52975,-3.28728,0.188072,-1.42374,-3.38752,0.170018,-1.50262,-0.650408,0.668533,-0.632453,-0.334776,0.548351,0.577148,0.439421,1
1.13488,-0.342526,-1.8017,-0.892381,2.49896,1.09606,-0.366177,1.14563,-0.353603,-1.78233,-0.855237,2.49209,1.07932,-0.364052,1.19532,-0.40558,-1.73557,-0.844037,2.45049,1.03488,-0.399392,-0.944101,1.0018,-0.779202,0.235407,0.811634,0.513155,0.715332,-0.959438,1.02123,-0.725148,0.239276,0.845087,0.207182,0.741654,0.177531,-0.368587,1.09942,0.623707,-0.0108863,0.0893333,0.77646,-0.348746,0.320341,0.272868,0.582752,-0.366616,1.51494,-3.44867,0.212936,-1.54953,-3.37407,0.165484,-1.59089,-0.604318,0.630535,-0.661228,-0.483438,0.484719,0.611788,0.33215,1
1.12602,-0.335222,-1.81169,-0.891914,2.504,1.10104,-0.375995,1.13963,-0.347853,-1.79183,-0.873557,2.49642,1.0882,-0.364233,1.18658,-0.396342,-1.74306,-0.842721,2.45791,1.04079,-0.392841,-0.913228,0.96357,-0.80871,0.0555043,0.768845,0.728532,0.678889,-0.939807,0.996386,-0.773597,0.182625,0.810203,0.481527,0.712138,0.174492,-0.365292,1.10158,0.625489,-0.0139601,0.0920112,0.774663,-0.290772,0.308468,0.201189,0.549471,-0.364337,1.49843,-3.28109,0.224745,-1.62696,-3.35813,0.168954,-1.67471,-0.605593,0.6112,-0.68633,-0.491928,0.46085,0.602535,0.168464,1
1.1141,-0.332571,-1.821,-0.898445,2.51617,1.10208,-0.378345,1.13312,-0.342156,-1.80166,-0.88689,2.50055,1.09497,-0.368135,1.17822,-0.387568,-1.75082,-0.843975,2.46492,1.04815,-0.386815,-0.867681,0.904502,-0.839103,-0.299896,0.723464,0.830148,0.606191,-0.908337,0.956622,-0.809005,-0.00299478,0.767981,0.690611,0.666804,0.172397,-0.362338,1.10278,0.626974,-0.0164533,0.0950242,0.773048,-0.16506,0.25157,0.0731776,0.515987,-0.362225,1.48092,-3.37253,0.212686,-1.76457,-3.3428,0.186914,-1.76282,-0.641116,0.549964,-0.701778,-0.544701,0.512478,0.539289,0.0846999,1
1.10438,-0.331023,-1.82898,-0.905265,2.52457,1.10251,-0.370477,1.12473,-0.336937,-1.81135,-0.893742,2.50666,1.0994,-0.372927,1.1703,-0.379379,-1.75891,-0.848619,2.47144,1.05609,-0.381801,-0.816748,0.83955,-0.876779,-0.664103,0.665237,0.855029,0.467846,-0.865885,0.902541,-0.841531,-0.302832,0.719182,0.80457,0.584309,0.171608,-0.360085,1.10275,0.628264,-0.0175603,0.0982004,0.771578,-0.035703,0.174319,-0.0599514,0.482906,-0.358918,1.46242,-3.21627,0.32156,-1.79849,-3.32974,0.211121,-1.84692,-0.659223,0.483558,-0.700762,-0.566457,0.531277,0.464234,0.113238,1
1.09696,-0.325963,-1.83728,-0.916228,2.52647,1.10571,-0.367472,1.11488,-0.333056,-1.82048,-0.89925,2.5148,1.10178,-0.374351,1.16275,-0.371736,-1.76734,-0.855702,2.47745,1.06399,-0.378374,-0.78923,0.787687,-0.913874,-0.830501,0.615082,0.825163,0.272647,-0.824553,0.843913,-0.876585,-0.598167,0.667927,0.83678,0.448895,0.171741,-0.35856,1.10178,0.629846,-0.0174258,0.10138,0.769878,0.0171504,0.111636,-0.131211,0.449846,-0.357401,1.44164,-3.39881,0.155928,-2.13574,-3.32268,0.226261,-1.95167,-0.657901,0.457733,-0.699407,-0.60526,0.490161,0.417265,0.109012,1
1.09215,-0.323137,-1.84624,-0.928033,2.52861,1.11476,-0.371374,1.10555,-0.329915,-1.82906,-0.906889,2.52191,1.10388,-0.372094,1.15521,-0.36458,-1.77607,-0.863406,2.48328,1.07136,-0.376672,-0.811661,0.736096,-0.939356,-0.807833,0.622661,0.746674,0.099714,-0.805879,0.787778,-0.910003,-0.767479,0.634327,0.808955,0.280069,0.171969,-0.357653,1.10043,0.632173,-0.01668,0.104296,0.767595,-0.0169713,0.0550575,-0.142939,0.416614,-0.354952,1.42082,-3.34716,0.246643,-2.09776,-3.32031,0.231959,-2.06932,-0.630635,0.414427,-0.701632,-0.646273,0.453253,0.434022,0.0529762,1
1.08579,-0.323337,-1.85513,-0.93629,2.53547,1.12265,-0.368175,1.09799,-0.32677,-1.83754,-0.916581,2.52645,1.10801,-0.369923,1.14731,-0.358009,-1.78495,-0.870763,2.48941,1.07784,-0.376011,-0.863632,0.664481,-0.946107,-0.758564,0.676053,0.637363,0.0442111,-0.821507,0.729421,-0.933112,-0.798966,0.637932,0.7364,0.138857,0.17174,-0.357417,1.09902,0.635173,-0.0156094,0.106613,0.764817,-0.0778666,-0.0162848,-0.147616,0.383448,-0.352602,1.39935,-3.25104,0.230398,-2.10443,-3.3206,0.234419,-2.18316,-0.615228,0.346721,-0.701825,-0.655267,0.46064,0.448097,0.0783608,1
1.07719,-0.321459,-1.86415,-0.943067,2.54039,1.13063,-0.364807,1.09159,-0.324282,-1.84626,-0.926663,2.53027,1.1147,-0.369132,1.13904,-0.352121,-1.79382,-0.877962,2.49586,1.08338,-0.375378,-0.891974,0.591321,-0.938484,-0.770302,0.693728,0.545723,0.0874634,-0.855756,0.663966,-0.941315,-0.7789,0.664147,0.643253,0.0771295,0.171089,-0.3579,1.0975,0.638382,-0.0140886,0.10827,0.761936,-0.107546,-0.0829664,-0.169892,0.350741,-0.350209,1.37747,-3.31341,0.242393,-2.2164,-3.31272,0.234268,-2.27728,-0.618502,0.306612,-0.703315,-0.651048,0.4453,0.472419,0.105716,1
1.07064,-0.32422,-1.87351,-0.952383,2.53952,1.14098,-0.367287,1.08498,-0.323037,-1.85519,-0.935672,2.53468,1.12276,-0.368033,1.13074,-0.346839,-1.80261,-0.8855,2.50216,1.0884,-0.374397,-0.872295,0.534412,-0.930298,-0.827666,0.64687,0.522051,0.119145,-0.875967,0.596738,-0.938296,-0.785511,0.672217,0.568379,0.0836063,0.17036,-0.358942,1.09571,0.641479,-0.0120657,0.109562,0.759181,-0.0996438,-0.125368,-0.203971,0.31712,-0.348472,1.35443,-3.2043,0.165567,-2.19601,-3.31189,0.226701,-2.36307,-0.601072,0.226194,-0.708985,-0.668836,0.373618,0.52578,0.0710964,1
1.06326,-0.334379,-1.88327,-0.962638,2.53387,1.14962,-0.377782,1.07777,-0.323531,-1.86431,-0.943985,2.5378,1.13142,-0.36749,1.12275,-0.342108,-1.81136,-0.893559,2.50798,1.09353,-0.373314,-0.829618,0.474688,-0.929413,-0.881508,0.59367,0.563835,0.111358,-0.864629,0.533474,-0.932732,-0.826492,0.644756,0.543869,0.105989,0.169718,-0.360368,1.09359,0.644434,-0.00975005,0.110736,0.756537,-0.0913357,-0.1598,-0.239614,0.283653,-0.346426,1.32983,-3.44362,0.21053,-2.53046,-3.31816,0.214561,-2.44831,-0.594893,0.077281,-0.719083,-0.690783,0.258942,0.560898,-0.0446747,1
1.05377,-0.344024,-1.89349,-0.973526,2.52919,1.15422,-0.389848,1.07032,-0.327252,-1.87371,-0.952933,2.53743,1.14023,-0.370756,1.11508,-0.338018,-1.82013,-0.90194,2.51343,1.09916,-0.37226,-0.801469,0.398937,-0.933719,-0.89824,0.565813,0.628561,0.112555,-0.83446,0.469346,-0.931143,-0.869138,0.602118,0.571482,0.114353,0.169006,-0.362167,1.09118,0.647299,-0.00741824,0.111772,0.75396,-0.11092,-0.20157,-0.268169,0.250702,-0.344359,1.3041,-3.4519,0.216528,-2.69546,-3.3203,0.215389,-2.53392,-0.613131,-0.0600628,-0.733561,-0.715854,0.15758,0.55067,-0.175876,1
1.04174,-0.359624,-1.90256,-0.983482,2.53751,1.14921,-0.398697,1.06226,-0.335021,-1.88339,-0.962876,2.53475,1.1474,-0.378671,1.10757,-0.334762,-1.82896,-0.910379,2.51849,1.1054,-0.371261,-0.793733,0.299075,-0.94137,-0.894915,0.514058,0.692947,0.100419,-0.808273,0.3909,-0.934834,-0.891554,0.557847,0.628448,0.108111,0.167989,-0.36444,1.08849,0.650203,-0.00519656,0.112601,0.751352,-0.150976,-0.257461,-0.297494,0.217499,-0.342652,1.27821,-3.12683,0.160719,-2.43815,-3.32116,0.204175,-2.62829,-0.658345,-0.248618,-0.736003,-0.731032,0.190137,0.43813,-0.274355,1
1.033,-0.369082,-1.9114,-0.993257,2.53185,1.14606,-0.405827,1.05289,-0.345841,-1.89307,-0.973205,2.53325,1.15048,-0.388632,1.10011,-0.332715,-1.83788,-0.918864,2.52272,1.11219,-0.370811,-0.793072,0.145478,-0.954018,-0.907239,0.391586,0.746844,0.00145685,-0.796091,0.281163,-0.943036,-0.900131,0.490486,0.689451,0.071477,0.166541,-0.367427,1.08543,0.653467,-0.00297468,0.113232,0.748432,-0.200205,-0.347173,-0.348048,0.184632,-0.3401,1.25051,-3.32426,0.258103,-2.80175,-3.3191,0.202609,-2.73333,-0.671067,-0.36367,-0.735203,-0.743929,0.0912852,0.338731,-0.350165,1
1.0251,-0.378469,-1.9209,-1.00311,2.50323,1.15531,-0.410633,1.04287,-0.357689,-1.90244,-0.983361,2.53164,1.15008,-0.397706,1.09257,-0.33242,-1.84694,-0.927568,2.52566,1.11923,-0.371729,-0.807243,-0.0692702,-0.970601,-0.940205,0.242003,0.749986,-0.184859,-0.798016,0.125094,-0.95533,-0.91412,0.382549,0.729926,-0.0276612,0.164562,-0.371535,1.08178,0.657504,-0.000442002,0.113544,0.744846,-0.265016,-0.482632,-0.422826,0.151259,-0.33824,1.22206,-3.33842,0.186114,-2.84613,-3.31991,0.201515,-2.84167,-0.674718,-0.46049,-0.739549,-0.75543,-0.224259,0.360794,-0.389046,1
1.01506,-0.385257,-1.93076,-1.01106,2.49763,1.15944,-0.411954,1.03339,-0.368509,-1.91166,-0.993156,2.5238,1.15051,-0.40463,1.08476,-0.334267,-1.85614,-0.936592,2.52749,1.12582,-0.374435,-0.848807,-0.308228,-0.98333,-0.974962,0.153308,0.656543,-0.37806,-0.816374,-0.07734,-0.969316,-0.940802,0.262299,0.717791,-0.187154,0.161887,-0.377158,1.0774,0.662522,0.00279003,0.113151,0.740442,-0.349924,-0.646324,-0.504171,0.117969,-0.3362,1.19256,-3.14037,0.192446,-2.78278,-3.31539,0.205166,-2.94546,-0.696991,-0.509903,-0.74611,-0.744636,-0.298592,0.336161,-0.37519,1
1.00431,-0.400913,-1.94048,-1.01911,2.51171,1.15411,-0.418108,1.02431,-0.378044,-1.92107,-1.00241,2.51166,1.15357,-0.409483,1.07654,-0.338219,-1.86541,-0.945884,2.52858,1.13123,-0.378642,-0.896592,-0.518462,-0.986036,-0.99797,0.0816335,0.501965,-0.50767,-0.850881,-0.298653,-0.979989,-0.971046,0.158982,0.636165,-0.356863,0.158443,-0.384361,1.07233,0.668406,0.00700175,0.111797,0.735313,-0.431163,-0.791859,-0.575518,0.0848947,-0.335138,1.16261,-3.32569,0.10678,-3.01219,-3.31421,0.19498,-3.039,-0.722248,-0.62694,-0.750678,-0.732211,-0.168691,0.22876,-0.394661,1
0.996654,-0.410964,-1.94979,-1.02947,2.51689,1.15816,-0.424459,1.01485,-0.38807,-1.9307,-1.01112,2.50589,1.15616,-0.413561,1.06797,-0.343797,-1.87469,-0.955325,2.52833,1.13545,-0.383672,-0.921042,-0.658058,-0.984437,-1.00741,-0.120629,0.40091,-0.558098,-0.888814,-0.494916,-0.984601,-0.993447,0.0381044,0.519806,-0.481276,0.15445,-0.392701,1.06667,0.674897,0.0121834,0.109955,0.729572,-0.475878,-0.871324,-0.629801,0.0519675,-0.333474,1.13142,-3.42388,0.173042,-3.24243,-3.31455,0.184231,-3.1329,-0.7132,-0.671672,-0.751038,-0.741436,-0.114486,0.227118,-0.407867,1
0.989628,-0.418131,-1.95822,-1.03961,2.50325,1.16531,-0.430964,1.00547,-0.399185,-1.94026,-1.01997,2.50843,1.15723,-0.418493,1.05926,-0.350384,-1.88397,-0.96478,2.52591,1.13914,-0.388878,-0.930735,-0.736604,-0.987894,-1.00201,-0.37939,0.384342,-0.548712,-0.916123,-0.637708,-0.986122,-1.00246,-0.139462,0.429072,-0.53816,0.150196,-0.401548,1.06057,0.681736,0.0180497,0.108406,0.723297,-0.499521,-0.896375,-0.666966,0.0190163,-0.332141,1.09943,-3.43445,0.138933,-3.33478,-3.31123,0.171035,-3.22855,-0.696281,-0.677473,-0.742473,-0.748279,-0.226555,0.261655,-0.420853,1
0.983232,-0.426193,-1.96697,-1.04913,2.49631,1.17956,-0.437236,0.997123,-0.409588,-1.94945,-1.02949,2.50969,1.16035,-0.424514,1.05041,-0.35768,-1.89331,-0.974127,2.52208,1.14264,-0.393915,-0.946967,-0.80928,-0.99584,-0.985148,-0.430953,0.360069,-0.523169,-0.932915,-0.734648,-0.98939,-0.998188,-0.310324,0.381774,-0.543326,0.145618,-0.41068,1.05416,0.688662,0.0242851,0.107028,0.716729,-0.548679,-0.927143,-0.695611,-0.0130854,-0.329932,1.06587,-3.15188,0.216879,-3.29518,-3.29872,0.16225,-3.32266,-0.671829,-0.685127,-0.736664,-0.749994,-0.257679,0.369231,-0.433202,1
0.974227,-0.436883,-1.97665,-1.05835,2.49915,1.18322,-0.445545,0.98974,-0.418451,-1.95834,-1.03934,2.5052,1.1675,-0.431013,1.04145,-0.365709,-1.9027,-0.983349,2.51879,1.14575,-0.39884,-0.958136,-0.891496,-1.0002,-0.975104,-0.276127,0.305591,-0.523364,-0.945279,-0.81246,-0.994646,-0.98742,-0.362157,0.350001,-0.531748,0.140442,-0.420239,1.04748,0.695455,0.0306969,0.104949,0.710201,-0.616427,-0.973055,-0.725397,-0.045193,-0.327025,1.03166,-3.14661,0.284898,-3.35225,-3.27623,0.175636,-3.42061,-0.672189,-0.711745,-0.739494,-0.750059,-0.196441,0.374684,-0.467048,1
0.966256,-0.446505,-1.98595,-1.0679,2.50587,1.18473,-0.452663,0.982357,-0.427168,-1.96732,-1.049,2.50064,1.1759,-0.437911,1.03251,-0.374336,-1.91209,-0.992568,2.51665,1.14866,-0.403895,-0.942273,-0.938783,-0.994994,-0.983259,-0.185262,0.311376,-0.549095,-0.949125,-0.879853,-0.997012,-0.98117,-0.297447,0.325679,-0.531876,0.134731,-0.430107,1.04053,0.702031,0.037118,0.102003,0.703825,-0.650841,-0.983156,-0.752993,-0.0772257,-0.325883,0.997362,-3.33492,0.118906,-3.57093,-3.2529,0.181141,-3.51088,-0.662508,-0.721693,-0.738606,-0.753326,-0.107813,0.360716,-0.487678,1
0.958061,-0.456546,-1.99478,-1.07726,2.50963,1.18328,-0.459859,0.974437,-0.436673,-1.97654,-1.05844,2.50103,1.18157,-0.445231,1.02381,-0.383175,-1.9214,-1.00189,2.51458,1.15209,-0.40922,-0.90735,-0.939404,-0.983814,-0.997309,-0.249968,0.410582,-0.580371,-0.93592,-0.923228,-0.993004,-0.985224,-0.237119,0.342517,-0.550944,0.128861,-0.439825,1.03336,0.708414,0.0433275,0.0989669,0.697479,-0.645727,-0.945297,-0.771634,-0.109108,-0.322581,0.959661,-3.26763,0.338342,-3.86395,-3.23072,0.207025,-3.62401,-0.657518,-0.733705,-0.733802,-0.753692,-0.0494962,0.311963,-0.506394,1
0.949782,-0.465828,-2.00342,-1.08656,2.51263,1.17915,-0.466664,0.966231,-0.446548,-1.98574,-1.06785,2.50496,1.18332,-0.452593,1.01541,-0.392002,-1.93063,-1.01131,2.51197,1.15648,-0.414851,-0.880154,-0.936468,-0.977072,-1.00363,-0.301796,0.517042,-0.61409,-0.909926,-0.938218,-0.985293,-0.994732,-0.245675,0.413,-0.581185,0.123005,-0.449138,1.02603,0.714651,0.0491769,0.0963094,0.691071,-0.645516,-0.906138,-0.786008,-0.142159,-0.320021,0.922345,-2.97215,0.230287,-3.35571,-3.22417,0.226882,-3.73313,-0.656265,-0.738255,-0.727899,-0.752465,0.0065618,0.226648,-0.518136,1
0.941964,-0.475506,-2.01167,-1.0954,2.51933,1.17256,-0.471988,0.958044,-0.456312,-1.99465,-1.0772,2.50939,1.18194,-0.459625,1.00717,-0.400898,-1.93983,-1.02076,2.50951,1.16144,-0.420812,-0.871592,-0.952706,-0.977667,-1.00361,-0.225805,0.535918,-0.650279,-0.886366,-0.942859,-0.979518,-1.00151,-0.25919,0.487848,-0.614913,0.116992,-0.458213,1.01855,0.720768,0.0547495,0.0936277,0.684638,-0.671492,-0.895559,-0.802061,-0.173956,-0.31748,0.884478,-3.29123,0.262997,-3.91958,-3.21778,0.243745,-3.83534,-0.652026,-0.746078,-0.71846,-0.746458,0.0981857,0.111183,-0.511758,1
0.934722,-0.485133,-2.0202,-1.10443,2.52615,1.16757,-0.477864,0.949985,-0.465926,-2.00328,-1.0864,2.51398,1.17816,-0.466119,0.998963,-0.409972,-1.94903,-1.0302,2.5081,1.1661,-0.427078,-0.871655,-0.974041,-0.977644,-1.00259,-0.0836352,0.458534,-0.679475,-0.874467,-0.954405,-0.977461,-1.00327,-0.203745,0.503831,-0.647948,0.110644,-0.467309,1.01092,0.726762,0.0603162,0.090319,0.678249,-0.705685,-0.901207,-0.818526,-0.206512,-0.315648,0.845401,-3.34474,0.188171,-4.01468,-3.22406,0.242152,-3.93137,-0.642404,-0.751612,-0.711762,-0.742302,0.180499,0.0147094,-0.507861,1
0.928279,-0.494253,-2.02868,-1.11398,2.53453,1.16815,-0.483287,0.942259,-0.47548,-2.01175,-1.09548,2.5197,1.17336,-0.472074,0.990761,-0.41921,-1.9582,-1.03963,2.50792,1.16975,-0.433548,-0.871251,-0.988055,-0.970913,-1.00057,0.0391222,0.324617,-0.694421,-0.871499,-0.971601,-0.975408,-1.00226,-0.090106,0.43969,-0.674725,0.103966,-0.476523,1.00315,0.732609,0.0661553,0.0861628,0.671925,-0.731572,-0.90603,-0.832806,-0.238449,-0.314465,0.806173,-3.13941,0.116275,-3.85612,-3.22567,0.225888,-4.01989,-0.624815,-0.750438,-0.70484,-0.743537,0.266126,-0.0159444,-0.497382,1
0.921691,-0.503142,-2.0374,-1.12371,2.54343,1.17062,-0.488359,0.935049,-0.484925,-2.02022,-1.10465,2.52677,1.16988,-0.477707,0.982577,-0.428546,-1.96727,-1.04902,2.50879,1.172,-0.44008,-0.867918,-0.995426,-0.958824,-0.995417,0.138222,0.164056,-0.693433,-0.870275,-0.985841,-0.969127,-0.999525,0.0312363,0.315735,-0.68911,0.0970452,-0.485838,0.995251,0.738273,0.0724411,0.0811965,0.665667,-0.749808,-0.907025,-0.844524,-0.270703,-0.311588,0.765499,-3.45796,0.308516,-4.36062,-3.22666,0.226748,-4.10538,-0.608853,-0.745961,-0.701308,-0.746949,0.346393,-0.0138254,-0.482796,1
0.916587,-0.511511,-2.04616,-1.13337,2.54989,1.17308,-0.494067,0.928367,-0.494102,-2.02877,-1.11408,2.53467,1.16921,-0.483167,0.97446,-0.437937,-1.97623,-1.05835,2.51061,1.1728,-0.446539,-0.857521,-0.999771,-0.945773,-0.988607,0.242206,0.0148441,-0.680004,-0.865563,-0.994417,-0.958503,-0.994864,0.13985,0.167839,-0.689286,0.089933,-0.495214,0.987243,0.743692,0.0791873,0.0754572,0.659514,-0.764588,-0.903865,-0.855049,-0.303116,-0.309564,0.723784,-3.32832,0.207784,-4.2835,-3.22716,0.210472,-4.17724,-0.578727,-0.735736,-0.699271,-0.750167,0.392784,0.00282314,-0.47528,1
0.911512,-0.519808,-2.05494,-1.14284,2.55498,1.17471,-0.499635,0.92224,-0.502928,-2.03743,-1.12368,2.54246,1.17068,-0.488567,0.96649,-0.447351,-1.98508,-1.06764,2.51345,1.17251,-0.452849,-0.837284,-1.0006,-0.935563,-0.9855,0.354825,-0.0701498,-0.661958,-0.854241,-0.9986,-0.94672,-0.989841,0.245084,0.03625,-0.678465,0.0826537,-0.504572,0.979126,0.748797,0.0862083,0.0689979,0.653537,-0.775936,-0.891684,-0.865807,-0.334716,-0.308105,0.681401,-3.10851,0.143504,-4.16923,-3.21493,0.198705,-4.26471,-0.549781,-0.724566,-0.698581,-0.751936,0.415257,0.0219593,-0.467857,1
0.905607,-0.528457,-2.06395,-1.15206,2.55967,1.17826,-0.50484,0.916639,-0.511473,-2.04619,-1.13328,2.5492,1.17289,-0.494032,0.95875,-0.456741,-1.99386,-1.07694,2.51732,1.17185,-0.458989,-0.809055,-0.994896,-0.929652,-0.989014,0.461869,-0.0704049,-0.643823,-0.83462,-0.998423,-0.936996,-0.987707,0.352967,-0.0419035,-0.661928,0.0752403,-0.513778,0.970899,0.753546,0.0931928,0.0619708,0.647798,-0.782078,-0.867129,-0.876433,-0.367207,-0.305633,0.63804,-3.144,0.239266,-4.19588,-3.21724,0.198314,-4.35608,-0.531428,-0.717158,-0.70087,-0.751218,0.423441,0.0640751,-0.458503,1
0.898797,-0.537448,-2.07296,-1.16137,2.56392,1.18119,-0.511149,0.911146,-0.519957,-2.05503,-1.14274,2.55471,1.17534,-0.499559,0.951309,-0.466042,-2.0026,-1.08628,2.52208,1.17144,-0.464972,-0.774079,-0.982234,-0.927566,-0.996017,0.542777,-0.0201693,-0.628312,-0.806806,-0.992578,-0.930927,-0.990177,0.453157,-0.0535747,-0.644698,0.0677577,-0.522702,0.962569,0.757939,0.0998936,0.054596,0.642315,-0.780155,-0.83326,-0.885667,-0.398518,-0.305241,0.595072,-3.17343,0.0396836,-4.35489,-3.20553,0.187031,-4.43339,-0.525126,-0.714054,-0.703586,-0.750948,0.418455,0.0975122,-0.461769,1
0.892256,-0.54662,-2.08171,-1.17073,2.56865,1.18206,-0.518283,0.905232,-0.528618,-2.06395,-1.15208,2.55951,1.17802,-0.505283,0.944221,-0.475206,-2.01133,-1.09568,2.52738,1.17153,-0.470833,-0.734492,-0.96578,-0.928075,-1.00117,0.580996,0.0361101,-0.617753,-0.772542,-0.98097,-0.928431,-0.995401,0.528547,-0.0181547,-0.629963,0.060296,-0.531267,0.954151,0.762016,0.106249,0.0470967,0.637044,-0.769785,-0.796051,-0.893208,-0.42805,-0.305311,0.549023,-2.88894,-0.00683642,-4.50461,-3.17331,0.157455,-4.52874,-0.519654,-0.714144,-0.703737,-0.750539,0.412697,0.105279,-0.474496,1
0.885831,-0.55578,-2.09039,-1.18015,2.57323,1.1822,-0.525112,0.898848,-0.537536,-2.07286,-1.1614,2.56406,1.18033,-0.511508,0.937474,-0.484225,-2.02008,-1.10511,2.53285,1.17212,-0.476614,-0.701106,-0.951509,-0.930573,-1.00203,0.582169,0.0857283,-0.611002,-0.736559,-0.966508,-0.928738,-0.99974,0.568648,0.0338897,-0.619022,0.0529087,-0.539463,0.945651,0.765843,0.112316,0.0396461,0.6319,-0.759325,-0.760349,-0.900365,-0.461097,-0.302034,0.503234,-3.3521,0.332383,-4.6446,-3.16019,0.142966,-4.6166,-0.516431,-0.715552,-0.703041,-0.750439,0.403811,0.100809,-0.484982,1
0.879301,-0.564917,-2.09894,-1.18953,2.57834,1.18209,-0.530792,0.89231,-0.546625,-2.08166,-1.17076,2.56866,1.18164,-0.518148,0.930956,-0.493147,-2.02886,-1.11453,2.53825,1.17315,-0.482362,-0.68499,-0.944585,-0.93434,-0.999932,0.566079,0.129736,-0.610354,-0.706863,-0.953958,-0.930996,-1.00104,0.576415,0.0838581,-0.613037,0.045558,-0.547319,0.937063,0.769509,0.118162,0.0323235,0.626777,-0.758421,-0.729205,-0.909287,-0.49217,-0.300414,0.456182,-3.12925,0.163197,-4.7385,-3.1456,0.142554,-4.70771,-0.516544,-0.717701,-0.700773,-0.749984,0.400909,0.0894788,-0.484302,1
