Afshin1997/kuka_rl_ros2/src/catch_and_throw/output_files/tm/idealpd/tm_received_joint_target_np.csv
joint_0,joint_1,joint_2,joint_3,joint_4,joint_5,joint_6
0.824596,0.00104546,1.38147,1.17435,1.65577,-0.842271,1.57483
0.849726,0.0303347,1.34192,1.28912,1.56882,-0.916494,1.56085
0.849726,0.0303364,1.34192,1.28912,1.56882,-0.916495,1.56085
0.850015,0.0286116,1.34209,1.28921,1.56606,-0.915939,1.55982
0.850015,0.0286178,1.34209,1.28921,1.56606,-0.915948,1.55982
0.850015,0.0286071,1.34209,1.28921,1.56606,-0.915936,1.55982
0.850015,0.0286154,1.34209,1.28921,1.56606,-0.915945,1.55982
0.850014,0.0286158,1.34209,1.28921,1.56606,-0.915946,1.55982
0.850015,0.0286161,1.34209,1.28921,1.56606,-0.915944,1.55982
0.850014,0.028613,1.34209,1.28921,1.56606,-0.915943,1.55982
0.850015,0.0286113,1.34209,1.28921,1.56606,-0.915943,1.55982
0.850015,0.0286133,1.34209,1.28921,1.56606,-0.915942,1.55982
0.850015,0.0286183,1.34209,1.28921,1.56606,-0.915946,1.55982
0.850015,0.0286102,1.34209,1.28921,1.56606,-0.915942,1.55982
0.850015,0.0286122,1.34209,1.28921,1.56606,-0.915943,1.55982
0.850015,0.0286192,1.34209,1.28921,1.56606,-0.915947,1.55982
0.850015,0.0286105,1.34209,1.28921,1.56606,-0.915941,1.55982
0.850015,0.0286136,1.34209,1.28921,1.56606,-0.915943,1.55982
0.850015,0.0286074,1.34209,1.28921,1.56606,-0.915938,1.55982
0.850015,0.028613,1.34209,1.28921,1.56606,-0.915944,1.55982
0.850015,0.0286162,1.34209,1.28921,1.56606,-0.915945,1.55982
0.850015,0.0286147,1.34209,1.28921,1.56606,-0.915945,1.55982
0.850015,0.0286145,1.34209,1.28921,1.56606,-0.915944,1.55982
0.850015,0.028613,1.34209,1.28921,1.56606,-0.915942,1.55982
0.850015,0.0286056,1.34209,1.28921,1.56606,-0.915939,1.55982
0.850015,0.0286187,1.34209,1.28921,1.56606,-0.915947,1.55982
0.850015,0.0286145,1.34209,1.28921,1.56606,-0.915944,1.55982
0.850015,0.0286102,1.34209,1.28921,1.56606,-0.915938,1.55982
0.850015,0.0286175,1.34209,1.28921,1.56606,-0.915948,1.55982
0.850015,0.0286099,1.34209,1.28921,1.56606,-0.91594,1.55982
0.850015,0.028616,1.34209,1.28921,1.56606,-0.915946,1.55982
0.850015,0.0286106,1.34209,1.28921,1.56606,-0.915941,1.55982
0.850015,0.0286108,1.34209,1.28921,1.56606,-0.915941,1.55982
0.850015,0.0286169,1.34209,1.28921,1.56606,-0.915944,1.55982
0.850015,0.0286123,1.34209,1.28921,1.56606,-0.915944,1.55982
0.850014,0.0286198,1.34208,1.28921,1.56606,-0.915948,1.55982
0.850015,0.0286091,1.34209,1.28921,1.56606,-0.91594,1.55982
0.850015,0.0286164,1.34209,1.28921,1.56606,-0.915946,1.55982
0.850015,0.0286101,1.34209,1.28921,1.56605,-0.915941,1.55982
0.850015,0.0286058,1.34209,1.28921,1.56606,-0.915936,1.55982
0.850015,0.0286237,1.34209,1.28921,1.56606,-0.915953,1.55982
0.850015,0.0286093,1.34209,1.28921,1.56606,-0.91594,1.55982
0.850015,0.0286144,1.34209,1.28921,1.56606,-0.915945,1.55982
0.850016,0.0286108,1.34209,1.28921,1.56607,-0.91594,1.55982
0.850014,0.0286159,1.34208,1.28921,1.56605,-0.915947,1.55982
0.850016,0.0286113,1.34209,1.28921,1.56606,-0.91594,1.55982
0.850015,0.0286128,1.34209,1.28921,1.56606,-0.915942,1.55982
0.850015,0.0286155,1.34209,1.28921,1.56606,-0.915945,1.55982
0.850015,0.0286108,1.34209,1.28921,1.56606,-0.915939,1.55982
0.850015,0.0286156,1.34209,1.28921,1.56606,-0.915944,1.55982
0.850015,0.0286144,1.34209,1.28921,1.56606,-0.915946,1.55982
0.850015,0.0286127,1.34209,1.28921,1.56606,-0.915942,1.55982
0.850015,0.0286145,1.34209,1.28921,1.56606,-0.915945,1.55982
0.836525,0.0563308,1.36814,1.26384,1.53283,-0.955917,1.54278
0.850283,0.0289216,1.3434,1.28911,1.56447,-0.914929,1.55939
0.850285,0.0289166,1.3434,1.28911,1.56447,-0.914925,1.55939
0.848942,0.0523686,1.35014,1.28551,1.56114,-0.930255,1.564
0.842271,-0.0386039,1.30448,1.29577,1.55309,-0.896903,1.55387
0.850303,0.0287247,1.34342,1.28912,1.5643,-0.914769,1.55931
0.850302,0.0287381,1.34342,1.28912,1.56429,-0.914779,1.55931
0.850304,0.0287252,1.34343,1.28913,1.5643,-0.914768,1.55931
0.850303,0.028735,1.34342,1.28912,1.5643,-0.914777,1.55931
0.850303,0.0287199,1.34342,1.28913,1.56429,-0.914767,1.5593
0.850303,0.0287336,1.34343,1.28912,1.5643,-0.914773,1.55931
0.850302,0.02873,1.34342,1.28912,1.56429,-0.914774,1.55931
0.850304,0.0287331,1.34343,1.28912,1.5643,-0.914774,1.55931
0.850302,0.0287349,1.34342,1.28912,1.56429,-0.914776,1.55931
0.850303,0.0287249,1.34342,1.28913,1.56429,-0.914771,1.55931
0.850304,0.0287304,1.34343,1.28912,1.5643,-0.914771,1.55931
0.850302,0.0287288,1.34342,1.28913,1.56429,-0.914773,1.55931
0.850303,0.0287333,1.34342,1.28912,1.5643,-0.914775,1.55931
0.850302,0.0287328,1.34342,1.28912,1.56429,-0.914776,1.55931
0.850303,0.0287277,1.34342,1.28912,1.5643,-0.91477,1.55931
0.850303,0.028734,1.34342,1.28912,1.5643,-0.914777,1.55931
0.850303,0.028728,1.34342,1.28912,1.5643,-0.91477,1.55931
0.850303,0.028734,1.34343,1.28912,1.5643,-0.914775,1.55931
0.850302,0.0287256,1.34342,1.28912,1.56429,-0.91477,1.55931
0.850303,0.0287329,1.34342,1.28913,1.56429,-0.914775,1.55931
0.850303,0.0287283,1.34342,1.28912,1.56429,-0.914771,1.55931
0.850303,0.0287281,1.34342,1.28913,1.56429,-0.914772,1.55931
0.850303,0.0287292,1.34342,1.28913,1.5643,-0.914772,1.55931
0.850303,0.0287339,1.34342,1.28912,1.5643,-0.914775,1.55931
0.84626,0.0581324,1.3779,1.2498,1.54012,-0.941049,1.54552
0.85049,0.0304487,1.34519,1.28893,1.56311,-0.913839,1.55929
0.850505,0.0306307,1.34535,1.28891,1.56297,-0.913765,1.55928
0.850506,0.0306337,1.34536,1.28891,1.56297,-0.913766,1.55928
0.850505,0.0306286,1.34536,1.28891,1.56297,-0.913762,1.55928
0.850505,0.0306326,1.34535,1.28891,1.56297,-0.913768,1.55928
0.850506,0.0306326,1.34536,1.28891,1.56298,-0.913765,1.55928
0.850504,0.0306307,1.34535,1.28891,1.56297,-0.913765,1.55928
0.850505,0.0306357,1.34536,1.28891,1.56297,-0.913767,1.55928
0.850505,0.0306264,1.34535,1.28891,1.56297,-0.913762,1.55928
0.850505,0.0306368,1.34536,1.28891,1.56298,-0.913769,1.55928
0.850506,0.0306285,1.34536,1.28891,1.56297,-0.913762,1.55928
0.850505,0.0306367,1.34536,1.28891,1.56297,-0.913769,1.55928
0.850505,0.0306257,1.34535,1.28891,1.56297,-0.913761,1.55928
0.850505,0.0306371,1.34536,1.28891,1.56297,-0.913769,1.55928
0.850505,0.0306329,1.34535,1.28891,1.56297,-0.913766,1.55928
0.850505,0.0306331,1.34536,1.28891,1.56297,-0.913766,1.55928
0.850505,0.0306319,1.34536,1.28891,1.56297,-0.913766,1.55928
0.850505,0.030632,1.34536,1.28891,1.56297,-0.913764,1.55928
0.850504,0.0306397,1.34535,1.28891,1.56297,-0.91377,1.55928
0.850505,0.0306274,1.34536,1.28891,1.56297,-0.913762,1.55928
0.850506,0.0306281,1.34536,1.28891,1.56297,-0.913762,1.55928
0.850505,0.0306315,1.34536,1.28891,1.56297,-0.913765,1.55928
0.850505,0.0306366,1.34536,1.28891,1.56297,-0.913769,1.55928
0.850505,0.030631,1.34535,1.28891,1.56297,-0.913765,1.55928
0.850505,0.0306304,1.34536,1.28891,1.56297,-0.913763,1.55928
0.850505,0.0306372,1.34536,1.28891,1.56297,-0.913769,1.55928
0.850505,0.0306262,1.34536,1.28891,1.56297,-0.913761,1.55928
0.850506,0.0306358,1.34535,1.28891,1.56297,-0.91377,1.55928
0.850505,0.0306339,1.34536,1.28891,1.56298,-0.913765,1.55928
0.850505,0.0306294,1.34535,1.28891,1.56297,-0.913767,1.55928
0.850505,0.0306327,1.34536,1.28891,1.56298,-0.913764,1.55928
0.850504,0.0306332,1.34535,1.28891,1.56297,-0.913768,1.55928
0.850505,0.0306339,1.34536,1.28891,1.56297,-0.913766,1.55928
0.850506,0.0306321,1.34536,1.28891,1.56297,-0.913766,1.55928
0.850505,0.0306294,1.34536,1.28891,1.56297,-0.913763,1.55928
0.850505,0.0306375,1.34536,1.28891,1.56297,-0.913768,1.55928
0.850505,0.0306315,1.34536,1.28891,1.56297,-0.913765,1.55928
0.850505,0.0306315,1.34536,1.28891,1.56297,-0.913765,1.55928
0.850505,0.0306359,1.34535,1.28891,1.56297,-0.91377,1.55928
0.850505,0.0306276,1.34536,1.28891,1.56297,-0.913761,1.55928
0.850505,0.0306317,1.34536,1.28891,1.56297,-0.913765,1.55928
0.850505,0.0306325,1.34535,1.28891,1.56297,-0.913767,1.55928
0.850505,0.0306277,1.34536,1.28891,1.56297,-0.913761,1.55928
0.850505,0.0306342,1.34536,1.28891,1.56297,-0.913767,1.55928
0.850505,0.030635,1.34535,1.28891,1.56297,-0.913769,1.55928
0.850505,0.0306297,1.34536,1.28891,1.56297,-0.913762,1.55928
0.850505,0.0306351,1.34535,1.28891,1.56297,-0.913768,1.55928
0.850505,0.0306361,1.34535,1.28891,1.56297,-0.91377,1.55928
0.850505,0.0306309,1.34536,1.28891,1.56297,-0.913763,1.55928
0.850506,0.0306291,1.34536,1.28891,1.56297,-0.913763,1.55928
0.850505,0.0306333,1.34536,1.28891,1.56298,-0.913765,1.55928
0.850504,0.0306334,1.34535,1.28891,1.56297,-0.913766,1.55928
0.850505,0.0306321,1.34536,1.28891,1.56297,-0.913764,1.55928
0.850505,0.0306364,1.34535,1.28891,1.56297,-0.91377,1.55928
0.850504,0.0306318,1.34535,1.28891,1.56297,-0.913767,1.55928
0.850505,0.0306329,1.34536,1.28891,1.56298,-0.913763,1.55928
0.850504,0.030634,1.34535,1.28891,1.56297,-0.913768,1.55928
0.850505,0.0306272,1.34536,1.28891,1.56297,-0.913762,1.55928
0.850506,0.0306326,1.34535,1.28891,1.56297,-0.913767,1.55928
0.850505,0.0306363,1.34536,1.28891,1.56298,-0.913766,1.55928
0.850505,0.0306298,1.34536,1.28891,1.56297,-0.913764,1.55928
0.850505,0.030632,1.34535,1.28891,1.56297,-0.913766,1.55928
0.850505,0.0306364,1.34535,1.28891,1.56297,-0.913768,1.55928
0.850505,0.030629,1.34536,1.28891,1.56297,-0.913763,1.55928
0.850505,0.0306314,1.34536,1.28891,1.56297,-0.913765,1.55928
0.850505,0.0306291,1.34536,1.28891,1.56297,-0.913762,1.55928
0.850505,0.0306359,1.34535,1.28891,1.56297,-0.913769,1.55928
0.850505,0.0306306,1.34536,1.28891,1.56297,-0.913763,1.55928
0.850504,0.0306378,1.34535,1.28891,1.56297,-0.91377,1.55928
0.850505,0.0306311,1.34535,1.28891,1.56297,-0.913765,1.55928
0.850505,0.0306321,1.34536,1.28891,1.56297,-0.913766,1.55928
0.850505,0.0306274,1.34536,1.28891,1.56297,-0.913761,1.55928
0.850505,0.0306324,1.34536,1.28891,1.56297,-0.913766,1.55928
0.850505,0.0306344,1.34536,1.28891,1.56297,-0.913768,1.55928
0.850505,0.030631,1.34536,1.28891,1.56297,-0.913764,1.55928
0.829602,-0.0431068,1.28148,1.29462,1.52136,-0.912966,1.54023
0.846589,-0.0438969,1.35762,1.29555,1.54872,-0.886892,1.54776
0.851943,0.04938,1.37806,1.29382,1.53679,-0.867418,1.54079
0.85046,0.0268834,1.34607,1.28933,1.56185,-0.911226,1.55798
0.848413,-0.0505252,1.37118,1.18294,1.54735,-0.97878,1.54285
0.847236,-0.0465111,1.3628,1.29436,1.55058,-0.885282,1.54678
0.847148,-0.0490956,1.36585,1.29287,1.54897,-0.895754,1.5462
0.847644,-0.0468987,1.3648,1.29388,1.55207,-0.881957,1.54688
0.847188,-0.0493534,1.36582,1.2931,1.5507,-0.894318,1.54596
0.851203,-0.040778,1.37689,1.29371,1.55967,-0.861215,1.54825
0.846737,-0.0509788,1.36501,1.29237,1.55329,-0.899843,1.54567
0.841512,-0.0643927,1.32045,1.24142,1.53612,-0.966154,1.5352
0.849432,-0.0464833,1.37221,1.29311,1.55975,-0.865848,1.54723
0.854571,0.0488442,1.38595,1.28206,1.61262,-0.844872,1.54466
0.849503,-0.0475914,1.37464,1.29167,1.56059,-0.878385,1.54779
0.850146,-0.0464494,1.37597,1.29213,1.56544,-0.869858,1.54911
0.849388,-0.0490879,1.37856,1.28956,1.57128,-0.912731,1.54747
0.846034,-0.0590147,1.33929,1.27794,1.54381,-0.954069,1.54224
0.85502,0.0455986,1.38636,1.28305,1.62321,-0.844104,1.54382
0.850109,-0.0474932,1.37564,1.29264,1.57528,-0.873045,1.54925
0.851618,-0.0486368,1.38511,1.28634,1.62162,-0.875191,1.5544
0.846543,-0.0593176,1.34485,1.27106,1.54327,-0.962369,1.54166
0.851103,-0.0489399,1.38278,1.28937,1.61544,-0.882019,1.55218
0.855863,0.0411797,1.38781,1.27796,1.63698,-0.842002,1.53656
0.85031,-0.0513813,1.38526,1.28351,1.61877,-0.924531,1.55121
0.846251,-0.059448,1.34052,1.27116,1.54327,-0.960197,1.54166
0.844085,0.0645336,1.38551,1.25126,1.62701,-0.842156,1.56166
0.750537,0.0483357,1.36951,1.16814,1.54779,-0.974091,1.57668
0.850281,0.0154618,1.33988,1.29017,1.56725,-0.909971,1.55816
0.827317,0.0393779,1.37368,1.16876,1.57099,-0.976662,1.5461
0.850064,0.0107383,1.33822,1.29052,1.56756,-0.908965,1.55785
0.850064,0.0107404,1.33823,1.29052,1.56757,-0.908965,1.55785
0.719613,0.058107,1.29595,1.16978,1.59801,-0.889485,1.58349
0.84998,0.0131982,1.33881,1.29035,1.56905,-0.910198,1.55845
0.84998,0.0132038,1.33881,1.29034,1.56905,-0.910197,1.55845
0.84998,0.0131981,1.33881,1.29035,1.56904,-0.910196,1.55845
0.849981,0.0132012,1.33881,1.29034,1.56906,-0.910195,1.55845
0.843547,-0.0641522,1.34459,1.24568,1.55197,-0.964727,1.53918
0.849202,0.00156985,1.39399,1.16486,1.65454,-0.843299,1.52388
0.810656,0.0418825,1.37533,1.16846,1.56053,-0.975729,1.55309
0.849207,0.00454368,1.33558,1.29107,1.57209,-0.909387,1.55866
0.715624,0.0585279,1.30137,1.1706,1.55733,-0.944099,1.60028
0.825074,0.0304892,1.38678,1.17059,1.55392,-0.974289,1.54798
0.85254,0.0505483,1.38661,1.27846,1.55978,-0.846129,1.53691
0.855052,-0.0462592,1.39091,1.17894,1.62835,-0.948921,1.55079
0.841143,-0.065642,1.32333,1.24492,1.53972,-0.96265,1.53572
0.721445,0.0474277,1.28366,1.16826,1.59099,-0.872743,1.56879
0.839258,-0.0539644,1.30952,1.29801,1.58689,-0.899433,1.55136
0.772947,0.0441524,1.38052,1.16883,1.55397,-0.973444,1.5649
0.848537,-0.000708987,1.33445,1.29147,1.57729,-0.910133,1.55937
0.750916,0.0479957,1.36521,1.16814,1.54725,-0.975275,1.58287
0.778822,0.062295,1.38639,1.22957,1.63799,-0.844214,1.60985
0.843813,-0.0665132,1.32378,1.20883,1.53804,-0.96373,1.53175
0.849503,-0.021401,1.3619,1.29188,1.61207,-0.88206,1.55737
0.848323,-0.00262804,1.33514,1.2917,1.57998,-0.910536,1.55972
0.756148,0.0479062,1.34808,1.16776,1.54676,-0.975908,1.5812
0.804068,0.0658954,1.38652,1.24177,1.63699,-0.844861,1.60994
0.84812,-0.00500985,1.33563,1.29195,1.58271,-0.911122,1.55995
0.84812,-0.00498669,1.33563,1.29194,1.58271,-0.911131,1.55995
0.84812,-0.00500502,1.33563,1.29195,1.58271,-0.911123,1.55995
0.735492,0.0512295,1.32545,1.16841,1.54666,-0.972982,1.59155
0.844665,-0.0675172,1.35607,1.22695,1.5613,-0.963189,1.53742
0.836271,-0.0304014,1.38971,1.17093,1.57383,-0.962969,1.54669
0.842109,-0.0447198,1.38677,1.1727,1.57749,-0.974003,1.55077
0.849848,-0.0521861,1.3856,1.17807,1.58071,-0.971408,1.55268
0.849848,-0.0521861,1.3856,1.17807,1.58071,-0.971408,1.55268
0.833166,0.0683858,1.38704,1.23443,1.60729,-0.862458,1.59703
0.833166,0.0683858,1.38704,1.23443,1.60729,-0.862458,1.59703
0.839448,-0.0409115,1.36807,1.17104,1.54671,-0.976346,1.53929
0.839448,-0.0409115,1.36807,1.17104,1.54671,-0.976346,1.53929
0.840723,-0.0448506,1.38728,1.17279,1.57036,-0.973557,1.55365
0.840723,-0.0448506,1.38728,1.17279,1.57036,-0.973557,1.55365
0.848334,-0.0160455,1.3377,1.2924,1.58737,-0.908045,1.55885
0.848334,-0.0160455,1.3377,1.2924,1.58737,-0.908045,1.55885
0.848779,-0.0376186,1.33732,1.29189,1.57067,-0.892165,1.55076
0.848779,-0.0376186,1.33732,1.29189,1.57067,-0.892165,1.55076
0.736925,0.0477898,1.33155,1.16621,1.54433,-0.974351,1.59351
0.736925,0.0477898,1.33155,1.16621,1.54433,-0.974351,1.59351
0.758808,0.0557832,1.39109,1.19487,1.63941,-0.856349,1.61129
0.758808,0.0557832,1.39109,1.19487,1.63941,-0.856349,1.61129
0.843002,-0.0682896,1.3186,1.1711,1.52779,-0.970099,1.5266
0.843002,-0.0682896,1.3186,1.1711,1.52779,-0.970099,1.5266
0.846144,-0.0557787,1.37919,1.27771,1.5434,-0.87628,1.53167
0.846144,-0.0557787,1.37919,1.27771,1.5434,-0.87628,1.53167
0.728293,0.0113212,1.34008,1.15571,1.54223,-0.976126,1.60276
0.728293,0.0113212,1.34008,1.15571,1.54223,-0.976126,1.60276
0.845904,-0.0599905,1.38519,1.2748,1.5369,-0.882746,1.52951
0.845904,-0.0599905,1.38519,1.2748,1.5369,-0.882746,1.52951
0.770173,0.0355746,1.38105,1.15209,1.53403,-0.993506,1.57672
0.770173,0.0355746,1.38105,1.15209,1.53403,-0.993506,1.57672
0.840401,-0.0192972,1.34702,1.27714,1.55169,-0.917366,1.54775
0.840401,-0.0192972,1.34702,1.27714,1.55169,-0.917366,1.54775
0.847833,-0.075696,1.35441,1.15697,1.51424,-0.986531,1.52547
0.847833,-0.075696,1.35441,1.15697,1.51424,-0.986531,1.52547
0.752168,0.0391532,1.41815,1.17474,1.6217,-0.888035,1.58663
0.752168,0.0391532,1.41815,1.17474,1.6217,-0.888035,1.58663
0.731189,-0.0567349,1.4176,1.1464,1.63593,-0.869457,1.55904
0.731189,-0.0567349,1.4176,1.1464,1.63593,-0.869457,1.55904
0.849256,-0.073575,1.39859,1.15874,1.52052,-0.986495,1.53929
0.849256,-0.073575,1.39859,1.15874,1.52052,-0.986495,1.53929
0.85637,-0.0803592,1.36458,1.1583,1.50754,-0.984354,1.52899
0.85637,-0.0803592,1.36458,1.1583,1.50754,-0.984354,1.52899
0.846607,-0.081178,1.34938,1.16001,1.50487,-0.983503,1.53415
0.846607,-0.081178,1.34938,1.16001,1.50487,-0.983503,1.53415
0.787934,0.0447213,1.4208,1.21992,1.60183,-0.897194,1.61069
0.787934,0.0447213,1.4208,1.21992,1.60183,-0.897194,1.61069
0.84374,-0.0841795,1.41949,1.15776,1.50931,-0.981273,1.55134
0.84374,-0.0841795,1.41949,1.15776,1.50931,-0.981273,1.55134
0.850751,-0.0793347,1.40964,1.15611,1.50723,-0.989229,1.55508
0.850751,-0.0793347,1.40964,1.15611,1.50723,-0.989229,1.55508
0.856787,-0.0903074,1.39931,1.17083,1.49288,-0.982569,1.53226
0.856787,-0.0903074,1.39931,1.17083,1.49288,-0.982569,1.53226
0.857003,-0.0903819,1.36568,1.16766,1.48674,-0.989035,1.52346
0.857003,-0.0903819,1.36568,1.16766,1.48674,-0.989035,1.52346
0.858548,-0.0932813,1.38947,1.17284,1.48537,-0.987825,1.52114
0.858548,-0.0932813,1.38947,1.17284,1.48537,-0.987825,1.52114
0.85861,-0.0963489,1.39079,1.14747,1.48175,-0.991399,1.51514
0.85861,-0.0963489,1.39079,1.14747,1.48175,-0.991399,1.51514
0.867574,-0.0973539,1.39135,1.1408,1.48441,-0.99284,1.51208
0.867574,-0.0973539,1.39135,1.1408,1.48441,-0.99284,1.51208
0.778666,0.0336582,1.44702,1.20491,1.59039,-0.915632,1.60554
0.778666,0.0336582,1.44702,1.20491,1.59039,-0.915632,1.60554
0.777355,0.0300503,1.45029,1.20089,1.5887,-0.923325,1.60646
0.777355,0.0300503,1.45029,1.20089,1.5887,-0.923325,1.60646
0.752992,-0.0303276,1.36659,1.12075,1.4951,-0.998267,1.59212
0.752992,-0.0303276,1.36659,1.12075,1.4951,-0.998267,1.59212
0.756515,-0.0345755,1.36042,1.1176,1.48621,-1.0041,1.59126
0.756515,-0.0345755,1.36042,1.1176,1.48621,-1.0041,1.59126
0.876782,-0.112973,1.36628,1.12745,1.46625,-1.0105,1.50901
0.876782,-0.112973,1.36628,1.12745,1.46625,-1.0105,1.50901
0.859425,-0.0667807,1.45428,1.13439,1.54759,-0.933032,1.56819
0.859425,-0.0667807,1.45428,1.13439,1.54759,-0.933032,1.56819
0.862325,-0.0626767,1.4559,1.13653,1.54521,-0.929568,1.54968
0.862325,-0.0626767,1.4559,1.13653,1.54521,-0.929568,1.54968
0.861504,-0.0337442,1.45875,1.14036,1.54501,-0.92599,1.53931
0.861504,-0.0337442,1.45875,1.14036,1.54501,-0.92599,1.53931
0.886383,-0.118935,1.40936,1.20813,1.47392,-1.00677,1.51896
0.886383,-0.118935,1.40936,1.20813,1.47392,-1.00677,1.51896
0.79839,-0.0221365,1.44559,1.10813,1.46976,-1.03537,1.54435
0.79839,-0.0221365,1.44559,1.10813,1.46976,-1.03537,1.54435
0.871157,-0.0122512,1.44223,1.10605,1.48834,-1.03749,1.51717
0.871157,-0.0122512,1.44223,1.10605,1.48834,-1.03749,1.51717
0.857147,-0.00251668,1.45993,1.12483,1.55927,-0.994418,1.57642
0.857147,-0.00251668,1.45993,1.12483,1.55927,-0.994418,1.57642
0.856198,-0.128755,1.3793,1.10716,1.51119,-0.949763,1.52783
0.856198,-0.128755,1.3793,1.10716,1.51119,-0.949763,1.52783
0.854482,-0.0153458,1.43163,1.10479,1.56645,-0.912808,1.51731
0.854482,-0.0153458,1.43163,1.10479,1.56645,-0.912808,1.51731
0.894989,-0.137346,1.46083,1.11543,1.45319,-1.02512,1.52188
0.894989,-0.137346,1.46083,1.11543,1.45319,-1.02512,1.52188
0.791152,-0.00787442,1.47274,1.10445,1.54716,-0.988399,1.59722
0.791152,-0.00787442,1.47274,1.10445,1.54716,-0.988399,1.59722
0.834747,-0.0449134,1.48836,1.09751,1.53763,-0.935621,1.58904
0.834747,-0.0449134,1.48836,1.09751,1.53763,-0.935621,1.58904
0.893536,-0.145988,1.39445,1.0941,1.42388,-1.03103,1.515
0.893536,-0.145988,1.39445,1.0941,1.42388,-1.03103,1.515
0.892209,-0.149416,1.39637,1.09136,1.42247,-1.03435,1.51402
0.892209,-0.149416,1.39637,1.09136,1.42247,-1.03435,1.51402
0.844642,-0.146335,1.49906,1.07975,1.44424,-1.03768,1.56974
0.844642,-0.146335,1.49906,1.07975,1.44424,-1.03768,1.56974
0.852742,-0.155548,1.49666,1.08826,1.45702,-1.03281,1.54481
0.852742,-0.155548,1.49666,1.08826,1.45702,-1.03281,1.54481
0.856236,-0.037345,1.50141,1.09466,1.51227,-1.00094,1.58516
0.856236,-0.037345,1.50141,1.09466,1.51227,-1.00094,1.58516
0.90815,-0.15458,1.41802,1.06914,1.41639,-1.05519,1.50983
0.90815,-0.15458,1.41802,1.06914,1.41639,-1.05519,1.50983
0.859465,-0.160121,1.50304,1.07856,1.49106,-0.942547,1.51287
0.859465,-0.160121,1.50304,1.07856,1.49106,-0.942547,1.51287
0.88811,-0.132492,1.48054,1.05345,1.49262,-1.05542,1.52582
0.88811,-0.132492,1.48054,1.05345,1.49262,-1.05542,1.52582
0.878587,-0.162844,1.40919,1.06189,1.41984,-1.01547,1.51794
0.878587,-0.162844,1.40919,1.06189,1.41984,-1.01547,1.51794
0.848945,-0.158632,1.50647,1.05428,1.53172,-0.97807,1.53802
0.848945,-0.158632,1.50647,1.05428,1.53172,-0.97807,1.53802
0.833219,-0.159546,1.50461,1.05204,1.50362,-0.944487,1.55164
0.833219,-0.159546,1.50461,1.05204,1.50362,-0.944487,1.55164
0.812081,-0.0375584,1.50749,1.04926,1.52876,-0.973476,1.59147
0.812081,-0.0375584,1.50749,1.04926,1.52876,-0.973476,1.59147
0.821269,-0.0581487,1.43828,1.02849,1.41489,-1.07215,1.58704
0.821269,-0.0581487,1.43828,1.02849,1.41489,-1.07215,1.58704
0.883133,-0.165439,1.40878,1.03748,1.41097,-1.0534,1.52897
0.883133,-0.165439,1.40878,1.03748,1.41097,-1.0534,1.52897
0.836308,-0.164128,1.52409,1.05844,1.46733,-0.982214,1.52079
0.836308,-0.164128,1.52409,1.05844,1.46733,-0.982214,1.52079
0.886027,-0.167674,1.43089,1.03619,1.39585,-1.05873,1.50364
0.886027,-0.167674,1.43089,1.03619,1.39585,-1.05873,1.50364
0.864933,-0.167652,1.51757,1.02896,1.42612,-1.04399,1.51446
0.864933,-0.167652,1.51757,1.02896,1.42612,-1.04399,1.51446
0.852243,-0.167656,1.52504,1.01865,1.47729,-1.04506,1.52674
0.852243,-0.167656,1.52504,1.01865,1.47729,-1.04506,1.52674
0.867257,-0.162019,1.49268,1.12332,1.40664,-1.05108,1.5145
0.867257,-0.162019,1.49268,1.12332,1.40664,-1.05108,1.5145
0.852237,-0.171204,1.51303,1.08301,1.41839,-1.01128,1.51002
0.852237,-0.171204,1.51303,1.08301,1.41839,-1.01128,1.51002
0.915463,-0.165803,1.46545,1.11222,1.40065,-0.974388,1.50624
0.915463,-0.165803,1.46545,1.11222,1.40065,-0.974388,1.50624
0.854571,-0.1604,1.49742,0.992132,1.44261,-1.05591,1.55187
0.854571,-0.1604,1.49742,0.992132,1.44261,-1.05591,1.55187
0.84054,-0.172197,1.53837,1.00321,1.48378,-0.954045,1.54858
0.84054,-0.172197,1.53837,1.00321,1.48378,-0.954045,1.54858
0.880618,-0.182145,1.50384,1.02212,1.42436,-1.04982,1.51316
0.880618,-0.182145,1.50384,1.02212,1.42436,-1.04982,1.51316
0.813493,-0.067683,1.43851,0.983381,1.43971,-0.992543,1.56571
0.813493,-0.067683,1.43851,0.983381,1.43971,-0.992543,1.56571
0.891884,-0.183357,1.42975,0.994294,1.38854,-1.06201,1.50715
0.891884,-0.183357,1.42975,0.994294,1.38854,-1.06201,1.50715
0.829199,-0.0814212,1.54358,0.997984,1.48409,-1.00649,1.57344
0.829199,-0.0814212,1.54358,0.997984,1.48409,-1.00649,1.57344
0.920202,-0.174616,1.45298,0.989976,1.37784,-1.08875,1.50239
0.920202,-0.174616,1.45298,0.989976,1.37784,-1.08875,1.50239
0.936101,-0.0821881,1.53648,1.0838,1.38915,-1.0509,1.50765
0.936101,-0.0821881,1.53648,1.0838,1.38915,-1.0509,1.50765
0.931875,-0.136607,1.53774,1.06578,1.44094,-1.05579,1.51151
0.931875,-0.136607,1.53774,1.06578,1.44094,-1.05579,1.51151
0.922665,-0.09183,1.51858,1.08648,1.3774,-1.06083,1.4985
0.922665,-0.09183,1.51858,1.08648,1.3774,-1.06083,1.4985
0.915249,-0.171735,1.55142,1.05794,1.38485,-1.08427,1.50383
0.915249,-0.171735,1.55142,1.05794,1.38485,-1.08427,1.50383
0.917129,-0.18837,1.56185,1.03406,1.42958,-1.04617,1.50932
0.917129,-0.18837,1.56185,1.03406,1.42958,-1.04617,1.50932
0.818117,-0.0954827,1.51456,0.98182,1.37007,-1.09801,1.573
0.818117,-0.0954827,1.51456,0.98182,1.37007,-1.09801,1.573
0.870028,-0.196371,1.56885,1.01803,1.38096,-1.07075,1.53082
0.870028,-0.196371,1.56885,1.01803,1.38096,-1.07075,1.53082
0.829241,-0.0701089,1.57044,1.04498,1.4623,-1.01839,1.57495
0.829241,-0.0701089,1.57044,1.04498,1.4623,-1.01839,1.57495
0.892485,-0.204059,1.56732,1.01061,1.36936,-1.10141,1.51375
0.892485,-0.204059,1.56732,1.01061,1.36936,-1.10141,1.51375
0.890387,-0.209934,1.49328,1.00073,1.36625,-1.08463,1.49451
0.890387,-0.209934,1.49328,1.00073,1.36625,-1.08463,1.49451
0.862272,-0.182176,1.56179,0.990312,1.44992,-1.0299,1.55046
0.862272,-0.182176,1.56179,0.990312,1.44992,-1.0299,1.55046
0.820829,-0.205166,1.56382,1.02606,1.373,-1.03186,1.53873
0.820829,-0.205166,1.56382,1.02606,1.373,-1.03186,1.53873
0.884293,-0.213215,1.5607,0.988544,1.36491,-1.06471,1.51833
0.884293,-0.213215,1.5607,0.988544,1.36491,-1.06471,1.51833
0.911659,-0.21338,1.51193,0.979642,1.33808,-1.12297,1.49423
0.911659,-0.21338,1.51193,0.979642,1.33808,-1.12297,1.49423
0.910279,-0.21543,1.51875,0.978066,1.3362,-1.12797,1.50002
0.910279,-0.21543,1.51875,0.978066,1.3362,-1.12797,1.50002
0.844456,-0.222729,1.58211,1.04324,1.43883,-1.02663,1.49617
0.844456,-0.222729,1.58211,1.04324,1.43883,-1.02663,1.49617
0.914504,-0.219715,1.57588,1.04539,1.43245,-1.04385,1.49134
0.914504,-0.219715,1.57588,1.04539,1.43245,-1.04385,1.49134
0.915825,-0.211238,1.58362,1.03991,1.41413,-1.06703,1.49391
0.915825,-0.211238,1.58362,1.03991,1.41413,-1.06703,1.49391
0.917307,-0.183514,1.59688,1.05222,1.36942,-1.11539,1.49531
0.917307,-0.183514,1.59688,1.05222,1.36942,-1.11539,1.49531
0.869973,-0.186362,1.59832,0.955715,1.31592,-1.14873,1.53656
0.869973,-0.186362,1.59832,0.955715,1.31592,-1.14873,1.53656
0.86744,-0.199033,1.59879,0.952329,1.3127,-1.14657,1.53247
0.86744,-0.199033,1.59879,0.952329,1.3127,-1.14657,1.53247
0.913707,-0.215248,1.61064,1.0401,1.39122,-1.12551,1.50374
0.913707,-0.215248,1.61064,1.0401,1.39122,-1.12551,1.50374
0.865206,-0.234967,1.61061,0.953937,1.30998,-1.13009,1.52373
0.865206,-0.234967,1.61061,0.953937,1.30998,-1.13009,1.52373
0.841231,-0.249052,1.61038,0.9603,1.36409,-1.11321,1.49056
0.841231,-0.249052,1.61038,0.9603,1.36409,-1.11321,1.49056
0.818642,-0.189173,1.60538,0.950009,1.41143,-1.03337,1.52146
0.818642,-0.189173,1.60538,0.950009,1.41143,-1.03337,1.52146
0.841204,-0.244938,1.5788,0.955233,1.3783,-1.04882,1.53767
0.841204,-0.244938,1.5788,0.955233,1.3783,-1.04882,1.53767
0.856642,-0.247927,1.60607,1.05187,1.38915,-1.04681,1.51385
0.856642,-0.247927,1.60607,1.05187,1.38915,-1.04681,1.51385
0.860364,-0.256027,1.60233,1.04736,1.36261,-1.05285,1.4977
0.860364,-0.256027,1.60233,1.04736,1.36261,-1.05285,1.4977
0.874379,-0.253413,1.60808,1.0385,1.39236,-1.04412,1.49124
0.874379,-0.253413,1.60808,1.0385,1.39236,-1.04412,1.49124
0.879396,-0.259147,1.61425,1.03571,1.38025,-1.05119,1.49865
0.879396,-0.259147,1.61425,1.03571,1.38025,-1.05119,1.49865
0.858724,-0.264172,1.57561,1.00932,1.3893,-1.08235,1.50678
0.858724,-0.264172,1.57561,1.00932,1.3893,-1.08235,1.50678
0.874036,-0.267146,1.5759,1.01013,1.39406,-1.15727,1.48388
0.874036,-0.267146,1.5759,1.01013,1.39406,-1.15727,1.48388
0.869751,-0.266233,1.54194,0.95014,1.39118,-1.07443,1.46273
0.869751,-0.266233,1.54194,0.95014,1.39118,-1.07443,1.46273
0.892951,-0.274828,1.57608,0.946922,1.37078,-1.05468,1.48202
0.892951,-0.274828,1.57608,0.946922,1.37078,-1.05468,1.48202
0.931904,-0.271625,1.63371,1.03386,1.27608,-1.13645,1.47168
0.931904,-0.271625,1.63371,1.03386,1.27608,-1.13645,1.47168
0.877688,-0.286864,1.65107,1.00761,1.28921,-1.11959,1.50331
0.877688,-0.286864,1.65107,1.00761,1.28921,-1.11959,1.50331
0.870833,-0.293185,1.65844,0.989055,1.28722,-1.12237,1.49671
0.870833,-0.293185,1.65844,0.989055,1.28722,-1.12237,1.49671
0.873806,-0.300159,1.65605,0.959914,1.29367,-1.08723,1.48534
0.873806,-0.300159,1.65605,0.959914,1.29367,-1.08723,1.48534
0.85188,-0.298823,1.65759,0.993466,1.28067,-1.05155,1.47986
0.85188,-0.298823,1.65759,0.993466,1.28067,-1.05155,1.47986
0.86193,-0.301908,1.6321,0.944046,1.35537,-1.05694,1.48417
0.86193,-0.301908,1.6321,0.944046,1.35537,-1.05694,1.48417
0.863093,-0.309422,1.56157,0.945099,1.31618,-1.0729,1.50561
0.863093,-0.309422,1.56157,0.945099,1.31618,-1.0729,1.50561
0.923029,-0.293625,1.66156,0.947127,1.37038,-1.04759,1.49182
0.923029,-0.293625,1.66156,0.947127,1.37038,-1.04759,1.49182
0.838495,-0.275893,1.63276,0.929514,1.30814,-1.06719,1.52363
0.838495,-0.275893,1.63276,0.929514,1.30814,-1.06719,1.52363
0.911739,-0.306592,1.65329,0.9993,1.38802,-1.10201,1.44871
0.911739,-0.306592,1.65329,0.9993,1.38802,-1.10201,1.44871
0.943152,-0.278598,1.65535,0.942761,1.29546,-1.14579,1.49498
0.943152,-0.278598,1.65535,0.942761,1.29546,-1.14579,1.49498
0.961172,-0.318027,1.56737,0.934249,1.25612,-1.16627,1.4485
0.961172,-0.318027,1.56737,0.934249,1.25612,-1.16627,1.4485
0.941278,-0.30132,1.65046,0.946825,1.28103,-1.16941,1.46538
0.941278,-0.30132,1.65046,0.946825,1.28103,-1.16941,1.46538
0.861498,-0.258859,1.65312,0.950079,1.36027,-1.14927,1.46675
0.861498,-0.258859,1.65312,0.950079,1.36027,-1.14927,1.46675
0.939009,-0.300808,1.65394,0.981305,1.28141,-1.14919,1.46156
0.939009,-0.300808,1.65394,0.981305,1.28141,-1.14919,1.46156
0.935309,-0.250884,1.63941,1.02092,1.31417,-1.12386,1.45314
0.935309,-0.250884,1.63941,1.02092,1.31417,-1.12386,1.45314
0.944262,-0.32827,1.59064,1.00826,1.24031,-1.12113,1.4535
0.944262,-0.32827,1.59064,1.00826,1.24031,-1.12113,1.4535
0.848769,-0.23523,1.67302,0.916911,1.34432,-1.14988,1.5158
0.848769,-0.23523,1.67302,0.916911,1.34432,-1.14988,1.5158
0.84376,-0.242999,1.67772,0.917736,1.34219,-1.14942,1.51967
0.84376,-0.242999,1.67772,0.917736,1.34219,-1.14942,1.51967
0.836549,-0.337824,1.60768,0.922905,1.35059,-1.07073,1.51838
0.836549,-0.337824,1.60768,0.922905,1.35059,-1.07073,1.51838
0.831297,-0.298989,1.5952,0.910858,1.29878,-1.08631,1.51675
0.831297,-0.298989,1.5952,0.910858,1.29878,-1.08631,1.51675
0.895136,-0.35599,1.64421,0.944677,1.2489,-1.14977,1.43748
0.895136,-0.35599,1.64421,0.944677,1.2489,-1.14977,1.43748
0.86854,-0.351769,1.68184,0.989275,1.346,-1.07557,1.45873
0.86854,-0.351769,1.68184,0.989275,1.346,-1.07557,1.45873
0.872554,-0.357138,1.68124,0.972416,1.34026,-1.10813,1.45904
0.872554,-0.357138,1.68124,0.972416,1.34026,-1.10813,1.45904
0.894279,-0.358885,1.68101,0.966342,1.33465,-1.10639,1.43943
0.894279,-0.358885,1.68101,0.966342,1.33465,-1.10639,1.43943
0.938745,-0.363871,1.61747,0.955659,1.33367,-1.06857,1.48519
0.938745,-0.363871,1.61747,0.955659,1.33367,-1.06857,1.48519
0.886782,-0.344992,1.69458,1.01469,1.32231,-1.10684,1.43159
0.886782,-0.344992,1.69458,1.01469,1.32231,-1.10684,1.43159
0.908787,-0.341156,1.69159,1.02271,1.32372,-1.09297,1.43456
0.908787,-0.341156,1.69159,1.02271,1.32372,-1.09297,1.43456
0.897693,-0.327941,1.69205,1.0294,1.31946,-1.09039,1.44157
0.897693,-0.327941,1.69205,1.0294,1.31946,-1.09039,1.44157
0.896903,-0.370597,1.64623,0.998707,1.23924,-1.07063,1.46093
0.896903,-0.370597,1.64623,0.998707,1.23924,-1.07063,1.46093
0.820413,-0.339976,1.67993,1.03602,1.23559,-1.1102,1.46557
0.820413,-0.339976,1.67993,1.03602,1.23559,-1.1102,1.46557
0.885533,-0.348159,1.69769,1.01047,1.24662,-1.12698,1.45261
0.885533,-0.348159,1.69769,1.01047,1.24662,-1.12698,1.45261
0.873868,-0.379142,1.64331,0.951581,1.2169,-1.16672,1.43498
0.873868,-0.379142,1.64331,0.951581,1.2169,-1.16672,1.43498
0.835123,-0.381004,1.70343,0.999531,1.23411,-1.13208,1.43294
0.835123,-0.381004,1.70343,0.999531,1.23411,-1.13208,1.43294
0.828656,-0.378985,1.69955,1.03012,1.22728,-1.15237,1.43475
0.828656,-0.378985,1.69955,1.03012,1.22728,-1.15237,1.43475
0.893005,-0.365752,1.67746,1.01924,1.22256,-1.17248,1.43765
0.893005,-0.365752,1.67746,1.01924,1.22256,-1.17248,1.43765
0.887061,-0.376247,1.69688,1.0232,1.22402,-1.17104,1.43563
0.887061,-0.376247,1.69688,1.0232,1.22402,-1.17104,1.43563
0.809262,-0.365864,1.71396,0.92638,1.32038,-1.06652,1.48361
0.809262,-0.365864,1.71396,0.92638,1.32038,-1.06652,1.48361
0.921905,-0.314622,1.69106,1.02905,1.22677,-1.14771,1.43832
0.921905,-0.314622,1.69106,1.02905,1.22677,-1.14771,1.43832
0.888817,-0.358075,1.71247,0.992165,1.25248,-1.16902,1.45012
0.888817,-0.358075,1.71247,0.992165,1.25248,-1.16902,1.45012
0.844677,-0.392154,1.71963,1.01259,1.25983,-1.15683,1.4469
0.844677,-0.392154,1.71963,1.01259,1.25983,-1.15683,1.4469
0.838769,-0.398454,1.72063,1.00595,1.28735,-1.1363,1.44805
0.838769,-0.398454,1.72063,1.00595,1.28735,-1.1363,1.44805
0.896295,-0.383211,1.64816,0.954459,1.20624,-1.17493,1.44473
0.896295,-0.383211,1.64816,0.954459,1.20624,-1.17493,1.44473
0.800901,-0.406704,1.71264,0.961072,1.30891,-1.10759,1.44653
0.800901,-0.406704,1.71264,0.961072,1.30891,-1.10759,1.44653
0.874835,-0.406397,1.75004,1.03843,1.21625,-1.16086,1.41872
0.874835,-0.406397,1.75004,1.03843,1.21625,-1.16086,1.41872
0.872872,-0.315836,1.71903,0.936788,1.1981,-1.20263,1.44421
0.872872,-0.315836,1.71903,0.936788,1.1981,-1.20263,1.44421
0.875802,-0.417953,1.73753,1.03402,1.29185,-1.15239,1.41055
0.875802,-0.417953,1.73753,1.03402,1.29185,-1.15239,1.41055
0.851938,-0.421025,1.7437,1.03779,1.29154,-1.16789,1.40821
0.851938,-0.421025,1.7437,1.03779,1.29154,-1.16789,1.40821
0.792053,-0.392329,1.74605,0.94575,1.26755,-1.10785,1.44615
0.792053,-0.392329,1.74605,0.94575,1.26755,-1.10785,1.44615
0.835951,-0.430927,1.75493,1.03491,1.28709,-1.14256,1.40955
0.835951,-0.430927,1.75493,1.03491,1.28709,-1.14256,1.40955
0.895488,-0.441216,1.6609,0.964597,1.17089,-1.18633,1.40696
0.895488,-0.441216,1.6609,0.964597,1.17089,-1.18633,1.40696
0.803922,-0.428353,1.70369,0.991623,1.18854,-1.16635,1.47138
0.803922,-0.428353,1.70369,0.991623,1.18854,-1.16635,1.47138
0.826636,-0.438414,1.76461,1.0178,1.26747,-1.18062,1.42881
0.826636,-0.438414,1.76461,1.0178,1.26747,-1.18062,1.42881
0.878075,-0.445649,1.66576,0.961422,1.19064,-1.13703,1.44439
0.878075,-0.445649,1.66576,0.961422,1.19064,-1.13703,1.44439
0.885614,-0.431522,1.75262,0.980834,1.20249,-1.15052,1.4198
0.885614,-0.431522,1.75262,0.980834,1.20249,-1.15052,1.4198
0.824236,-0.404618,1.74072,0.957541,1.21309,-1.17128,1.42409
0.824236,-0.404618,1.74072,0.957541,1.21309,-1.17128,1.42409
0.867529,-0.45494,1.69175,0.970469,1.15496,-1.17867,1.40455
0.867529,-0.45494,1.69175,0.970469,1.15496,-1.17867,1.40455
0.837838,-0.423588,1.75582,1.00996,1.25449,-1.21634,1.40027
0.837838,-0.423588,1.75582,1.00996,1.25449,-1.21634,1.40027
0.824946,-0.443511,1.7568,1.00133,1.27263,-1.1883,1.40154
0.824946,-0.443511,1.7568,1.00133,1.27263,-1.1883,1.40154
0.892799,-0.468754,1.69372,0.977959,1.15314,-1.16658,1.40109
0.892799,-0.468754,1.69372,0.977959,1.15314,-1.16658,1.40109
0.794132,-0.458522,1.78401,0.961678,1.26908,-1.1344,1.40867
0.794132,-0.458522,1.78401,0.961678,1.26908,-1.1344,1.40867
0.863405,-0.47061,1.74609,1.00686,1.192,-1.21423,1.41182
0.863405,-0.47061,1.74609,1.00686,1.192,-1.21423,1.41182
0.780711,-0.463019,1.7568,0.955236,1.1987,-1.19892,1.46343
0.780711,-0.463019,1.7568,0.955236,1.1987,-1.19892,1.46343
0.811647,-0.47044,1.79555,0.99887,1.23928,-1.22304,1.41572
0.811647,-0.47044,1.79555,0.99887,1.23928,-1.22304,1.41572
0.808685,-0.475767,1.79538,1.00431,1.23292,-1.22565,1.41266
0.808685,-0.475767,1.79538,1.00431,1.23292,-1.22565,1.41266
0.8549,-0.48836,1.6904,0.963629,1.14601,-1.18956,1.39402
0.8549,-0.48836,1.6904,0.963629,1.14601,-1.18956,1.39402
0.803307,-0.480821,1.79229,1.00898,1.2299,-1.22673,1.40006
0.803307,-0.480821,1.79229,1.00898,1.2299,-1.22673,1.40006
0.799796,-0.484422,1.79123,1.01657,1.23362,-1.21964,1.38665
0.799796,-0.484422,1.79123,1.01657,1.23362,-1.21964,1.38665
0.801475,-0.4874,1.7842,1.02464,1.24606,-1.15721,1.37999
0.801475,-0.4874,1.7842,1.02464,1.24606,-1.15721,1.37999
0.878937,-0.488042,1.7809,0.959595,1.18139,-1.13099,1.39826
0.878937,-0.488042,1.7809,0.959595,1.18139,-1.13099,1.39826
0.806601,-0.496353,1.78122,1.01914,1.24799,-1.14357,1.39066
0.806601,-0.496353,1.78122,1.01914,1.24799,-1.14357,1.39066
0.80036,-0.501069,1.78389,1.01169,1.24179,-1.15297,1.4047
0.80036,-0.501069,1.78389,1.01169,1.24179,-1.15297,1.4047
0.791737,-0.505491,1.78992,1.01425,1.22664,-1.17631,1.41729
0.791737,-0.505491,1.78992,1.01425,1.22664,-1.17631,1.41729
0.789002,-0.507267,1.79777,1.02841,1.2036,-1.23064,1.41635
0.789002,-0.507267,1.79777,1.02841,1.2036,-1.23064,1.41635
0.79407,-0.50885,1.80698,1.01994,1.17556,-1.24447,1.41373
0.79407,-0.50885,1.80698,1.01994,1.17556,-1.24447,1.41373
0.858742,-0.519068,1.74398,0.982635,1.13991,-1.15566,1.40286
0.858742,-0.519068,1.74398,0.982635,1.13991,-1.15566,1.40286
0.83547,-0.434841,1.79441,1.03942,1.13132,-1.25643,1.3699
0.83547,-0.434841,1.79441,1.03942,1.13132,-1.25643,1.3699
0.847212,-0.463353,1.79002,1.0249,1.124,-1.23747,1.36506
0.847212,-0.463353,1.79002,1.0249,1.124,-1.23747,1.36506
0.850603,-0.484144,1.78679,1.02821,1.12644,-1.23408,1.36094
0.850603,-0.484144,1.78679,1.02821,1.12644,-1.23408,1.36094
0.854882,-0.492116,1.78638,1.04284,1.1315,-1.22829,1.35938
0.854882,-0.492116,1.78638,1.04284,1.1315,-1.22829,1.35938
0.842242,-0.494185,1.79722,1.03813,1.14056,-1.23701,1.36174
0.842242,-0.494185,1.79722,1.03813,1.14056,-1.23701,1.36174
0.786556,-0.513522,1.83297,0.979905,1.23023,-1.23046,1.37173
0.786556,-0.513522,1.83297,0.979905,1.23023,-1.23046,1.37173
0.767393,-0.54573,1.83799,1.01329,1.22766,-1.21799,1.41801
0.767393,-0.54573,1.83799,1.01329,1.22766,-1.21799,1.41801
0.757415,-0.554246,1.84443,1.04273,1.19117,-1.21879,1.41333
0.757415,-0.554246,1.84443,1.04273,1.19117,-1.21879,1.41333
0.75546,-0.558312,1.83996,1.02955,1.19615,-1.21579,1.41289
0.75546,-0.558312,1.83996,1.02955,1.19615,-1.21579,1.41289
0.755613,-0.56065,1.83534,1.02307,1.19105,-1.21953,1.4067
0.755613,-0.56065,1.83534,1.02307,1.19105,-1.21953,1.4067
0.755969,-0.56195,1.83949,1.02605,1.17414,-1.24721,1.40065
0.755969,-0.56195,1.83949,1.02605,1.17414,-1.24721,1.40065
0.756255,-0.56348,1.84638,1.03236,1.15336,-1.26047,1.39412
0.756255,-0.56348,1.84638,1.03236,1.15336,-1.26047,1.39412
0.755437,-0.53865,1.84255,0.96882,1.20346,-1.25794,1.34659
0.755437,-0.53865,1.84255,0.96882,1.20346,-1.25794,1.34659
0.755437,-0.53865,1.84255,0.96882,1.20346,-1.25794,1.34659
0.755437,-0.53865,1.84255,0.96882,1.20346,-1.25794,1.34659
0.755437,-0.53865,1.84255,0.96882,1.20346,-1.25794,1.34659
0.755437,-0.53865,1.84255,0.96882,1.20346,-1.25794,1.34659
0.755437,-0.53865,1.84255,0.96882,1.20346,-1.25794,1.34659
0.755437,-0.53865,1.84255,0.96882,1.20346,-1.25794,1.34659
0.755437,-0.53865,1.84255,0.96882,1.20346,-1.25794,1.34659
0.755437,-0.53865,1.84255,0.96882,1.20346,-1.25794,1.34659
0.755437,-0.53865,1.84255,0.96882,1.20346,-1.25794,1.34659
0.755437,-0.53865,1.84255,0.96882,1.20346,-1.25794,1.34659
0.755437,-0.53865,1.84255,0.96882,1.20346,-1.25794,1.34659
0.755437,-0.53865,1.84255,0.96882,1.20346,-1.25794,1.34659
0.755437,-0.53865,1.84255,0.96882,1.20346,-1.25794,1.34659
0.755437,-0.53865,1.84255,0.96882,1.20346,-1.25794,1.34659
0.755437,-0.53865,1.84255,0.96882,1.20346,-1.25794,1.34659
0.755437,-0.53865,1.84255,0.96882,1.20346,-1.25794,1.34659
0.755437,-0.53865,1.84255,0.96882,1.20346,-1.25794,1.34659
0.755437,-0.53865,1.84255,0.96882,1.20346,-1.25794,1.34659
0.755437,-0.53865,1.84255,0.96882,1.20346,-1.25794,1.34659
0.755437,-0.53865,1.84255,0.96882,1.20346,-1.25794,1.34659
0.755437,-0.53865,1.84255,0.96882,1.20346,-1.25794,1.34659
0.755437,-0.53865,1.84255,0.96882,1.20346,-1.25794,1.34659
0.755437,-0.53865,1.84255,0.96882,1.20346,-1.25794,1.34659
0.755437,-0.53865,1.84255,0.96882,1.20346,-1.25794,1.34659
0.755437,-0.53865,1.84255,0.96882,1.20346,-1.25794,1.34659
0.755437,-0.53865,1.84255,0.96882,1.20346,-1.25794,1.34659
0.755437,-0.53865,1.84255,0.96882,1.20346,-1.25794,1.34659
0.755437,-0.53865,1.84255,0.96882,1.20346,-1.25794,1.34659
0.755437,-0.53865,1.84255,0.96882,1.20346,-1.25794,1.34659
0.755437,-0.53865,1.84255,0.96882,1.20346,-1.25794,1.34659
0.755437,-0.53865,1.84255,0.96882,1.20346,-1.25794,1.34659
0.755437,-0.53865,1.84255,0.96882,1.20346,-1.25794,1.34659
0.755437,-0.53865,1.84255,0.96882,1.20346,-1.25794,1.34659
0.755437,-0.53865,1.84255,0.96882,1.20346,-1.25794,1.34659
0.755437,-0.53865,1.84255,0.96882,1.20346,-1.25794,1.34659
0.755437,-0.53865,1.84255,0.96882,1.20346,-1.25794,1.34659
0.755437,-0.53865,1.84255,0.96882,1.20346,-1.25794,1.34659
0.755437,-0.53865,1.84255,0.96882,1.20346,-1.25794,1.34659
0.754854,-0.562125,1.84468,1.05026,1.16955,-1.25456,1.37843
0.754854,-0.562125,1.84468,1.05026,1.16955,-1.25456,1.37843
0.770805,-0.550412,1.84198,0.98348,1.20639,-1.22329,1.34086
0.770805,-0.550412,1.84198,0.98348,1.20639,-1.22329,1.34086
0.770805,-0.550412,1.84198,0.98348,1.20639,-1.22329,1.34086
0.770805,-0.550412,1.84198,0.98348,1.20639,-1.22329,1.34086
0.770805,-0.550412,1.84198,0.98348,1.20639,-1.22329,1.34086
0.770805,-0.550412,1.84198,0.98348,1.20639,-1.22329,1.34086
0.770805,-0.550412,1.84198,0.98348,1.20639,-1.22329,1.34086
0.770805,-0.550412,1.84198,0.98348,1.20639,-1.22329,1.34086
0.770805,-0.550412,1.84198,0.98348,1.20639,-1.22329,1.34086
0.770805,-0.550412,1.84198,0.98348,1.20639,-1.22329,1.34086
0.770805,-0.550412,1.84198,0.98348,1.20639,-1.22329,1.34086
0.770805,-0.550412,1.84198,0.98348,1.20639,-1.22329,1.34086
0.770805,-0.550412,1.84198,0.98348,1.20639,-1.22329,1.34086
0.770805,-0.550412,1.84198,0.98348,1.20639,-1.22329,1.34086
0.770805,-0.550412,1.84198,0.98348,1.20639,-1.22329,1.34086
0.770805,-0.550412,1.84198,0.98348,1.20639,-1.22329,1.34086
0.770805,-0.550412,1.84198,0.98348,1.20639,-1.22329,1.34086
0.770805,-0.550412,1.84198,0.98348,1.20639,-1.22329,1.34086
0.770805,-0.550412,1.84198,0.98348,1.20639,-1.22329,1.34086
0.770805,-0.550412,1.84198,0.98348,1.20639,-1.22329,1.34086
0.770805,-0.550412,1.84198,0.98348,1.20639,-1.22329,1.34086
0.770805,-0.550412,1.84198,0.98348,1.20639,-1.22329,1.34086
0.770805,-0.550412,1.84198,0.98348,1.20639,-1.22329,1.34086
0.770805,-0.550412,1.84198,0.98348,1.20639,-1.22329,1.34086
0.770805,-0.550412,1.84198,0.98348,1.20639,-1.22329,1.34086
0.770805,-0.550412,1.84198,0.98348,1.20639,-1.22329,1.34086
0.770805,-0.550412,1.84198,0.98348,1.20639,-1.22329,1.34086
0.770805,-0.550412,1.84198,0.98348,1.20639,-1.22329,1.34086
0.770805,-0.550412,1.84198,0.98348,1.20639,-1.22329,1.34086
0.770805,-0.550412,1.84198,0.98348,1.20639,-1.22329,1.34086
0.770805,-0.550412,1.84198,0.98348,1.20639,-1.22329,1.34086
0.770805,-0.550412,1.84198,0.98348,1.20639,-1.22329,1.34086
0.770805,-0.550412,1.84198,0.98348,1.20639,-1.22329,1.34086
0.770805,-0.550412,1.84198,0.98348,1.20639,-1.22329,1.34086
0.770805,-0.550412,1.84198,0.98348,1.20639,-1.22329,1.34086
0.770805,-0.550412,1.84198,0.98348,1.20639,-1.22329,1.34086
0.770805,-0.550412,1.84198,0.98348,1.20639,-1.22329,1.34086
0.770805,-0.550412,1.84198,0.98348,1.20639,-1.22329,1.34086
0.770805,-0.550412,1.84198,0.98348,1.20639,-1.22329,1.34086
0.770805,-0.550412,1.84198,0.98348,1.20639,-1.22329,1.34086
0.770805,-0.550412,1.84198,0.98348,1.20639,-1.22329,1.34086
0.770805,-0.550412,1.84198,0.98348,1.20639,-1.22329,1.34086
0.770805,-0.550412,1.84198,0.98348,1.20639,-1.22329,1.34086
0.770805,-0.550412,1.84198,0.98348,1.20639,-1.22329,1.34086
0.770805,-0.550412,1.84198,0.98348,1.20639,-1.22329,1.34086
0.770805,-0.550412,1.84198,0.98348,1.20639,-1.22329,1.34086
0.770805,-0.550412,1.84198,0.98348,1.20639,-1.22329,1.34086
0.770805,-0.550412,1.84198,0.98348,1.20639,-1.22329,1.34086
0.770805,-0.550412,1.84198,0.98348,1.20639,-1.22329,1.34086
0.770805,-0.550412,1.84198,0.98348,1.20639,-1.22329,1.34086
0.770805,-0.550412,1.84198,0.98348,1.20639,-1.22329,1.34086
0.770805,-0.550412,1.84198,0.98348,1.20639,-1.22329,1.34086
0.770805,-0.550412,1.84198,0.98348,1.20639,-1.22329,1.34086
0.770805,-0.550412,1.84198,0.98348,1.20639,-1.22329,1.34086
0.770805,-0.550412,1.84198,0.98348,1.20639,-1.22329,1.34086
0.770805,-0.550412,1.84198,0.98348,1.20639,-1.22329,1.34086
0.770805,-0.550412,1.84198,0.98348,1.20639,-1.22329,1.34086
0.770805,-0.550412,1.84198,0.98348,1.20639,-1.22329,1.34086
0.770805,-0.550412,1.84198,0.98348,1.20639,-1.22329,1.34086
0.770805,-0.550412,1.84198,0.98348,1.20639,-1.22329,1.34086
0.770805,-0.550412,1.84198,0.98348,1.20639,-1.22329,1.34086
0.770805,-0.550412,1.84198,0.98348,1.20639,-1.22329,1.34086
0.770805,-0.550412,1.84198,0.98348,1.20639,-1.22329,1.34086
0.770805,-0.550412,1.84198,0.98348,1.20639,-1.22329,1.34086
0.770805,-0.550412,1.84198,0.98348,1.20639,-1.22329,1.34086
0.770805,-0.550412,1.84198,0.98348,1.20639,-1.22329,1.34086
0.770805,-0.550412,1.84198,0.98348,1.20639,-1.22329,1.34086
0.770805,-0.550412,1.84198,0.98348,1.20639,-1.22329,1.34086
0.770805,-0.550412,1.84198,0.98348,1.20639,-1.22329,1.34086
0.770805,-0.550412,1.84198,0.98348,1.20639,-1.22329,1.34086
0.770805,-0.550412,1.84198,0.98348,1.20639,-1.22329,1.34086
0.770805,-0.550412,1.84198,0.98348,1.20639,-1.22329,1.34086
0.770805,-0.550412,1.84198,0.98348,1.20639,-1.22329,1.34086
0.770805,-0.550412,1.84198,0.98348,1.20639,-1.22329,1.34086
0.770805,-0.550412,1.84198,0.98348,1.20639,-1.22329,1.34086
0.770805,-0.550412,1.84198,0.98348,1.20639,-1.22329,1.34086
0.770805,-0.550412,1.84198,0.98348,1.20639,-1.22329,1.34086
0.770805,-0.550412,1.84198,0.98348,1.20639,-1.22329,1.34086
0.770805,-0.550412,1.84198,0.98348,1.20639,-1.22329,1.34086
0.770805,-0.550412,1.84198,0.98348,1.20639,-1.22329,1.34086
0.770805,-0.550412,1.84198,0.98348,1.20639,-1.22329,1.34086
0.770805,-0.550412,1.84198,0.98348,1.20639,-1.22329,1.34086
0.770805,-0.550412,1.84198,0.98348,1.20639,-1.22329,1.34086
0.770805,-0.550412,1.84198,0.98348,1.20639,-1.22329,1.34086
0.770805,-0.550412,1.84198,0.98348,1.20639,-1.22329,1.34086
0.770805,-0.550412,1.84198,0.98348,1.20639,-1.22329,1.34086
0.770805,-0.550412,1.84198,0.98348,1.20639,-1.22329,1.34086
0.770805,-0.550412,1.84198,0.98348,1.20639,-1.22329,1.34086
0.770805,-0.550412,1.84198,0.98348,1.20639,-1.22329,1.34086
0.770805,-0.550412,1.84198,0.98348,1.20639,-1.22329,1.34086
0.770805,-0.550412,1.84198,0.98348,1.20639,-1.22329,1.34086
0.770805,-0.550412,1.84198,0.98348,1.20639,-1.22329,1.34086
0.770805,-0.550412,1.84198,0.98348,1.20639,-1.22329,1.34086
0.770805,-0.550412,1.84198,0.98348,1.20639,-1.22329,1.34086
0.770805,-0.550412,1.84198,0.98348,1.20639,-1.22329,1.34086
0.770805,-0.550412,1.84198,0.98348,1.20639,-1.22329,1.34086
0.770805,-0.550412,1.84198,0.98348,1.20639,-1.22329,1.34086
0.770805,-0.550412,1.84198,0.98348,1.20639,-1.22329,1.34086
0.770805,-0.550412,1.84198,0.98348,1.20639,-1.22329,1.34086
0.770805,-0.550412,1.84198,0.98348,1.20639,-1.22329,1.34086
0.770805,-0.550412,1.84198,0.98348,1.20639,-1.22329,1.34086
0.770805,-0.550412,1.84198,0.98348,1.20639,-1.22329,1.34086
0.770805,-0.550412,1.84198,0.98348,1.20639,-1.22329,1.34086
0.770805,-0.550412,1.84198,0.98348,1.20639,-1.22329,1.34086
0.770805,-0.550412,1.84198,0.98348,1.20639,-1.22329,1.34086
0.770805,-0.550412,1.84198,0.98348,1.20639,-1.22329,1.34086
0.770805,-0.550412,1.84198,0.98348,1.20639,-1.22329,1.34086
0.770805,-0.550412,1.84198,0.98348,1.20639,-1.22329,1.34086
0.770805,-0.550412,1.84198,0.98348,1.20639,-1.22329,1.34086
0.770805,-0.550412,1.84198,0.98348,1.20639,-1.22329,1.34086
0.770805,-0.550412,1.84198,0.98348,1.20639,-1.22329,1.34086
0.770805,-0.550412,1.84198,0.98348,1.20639,-1.22329,1.34086
0.770805,-0.550412,1.84198,0.98348,1.20639,-1.22329,1.34086
0.770805,-0.550412,1.84198,0.98348,1.20639,-1.22329,1.34086
0.770805,-0.550412,1.84198,0.98348,1.20639,-1.22329,1.34086
0.770805,-0.550412,1.84198,0.98348,1.20639,-1.22329,1.34086
0.770805,-0.550412,1.84198,0.98348,1.20639,-1.22329,1.34086
0.770805,-0.550412,1.84198,0.98348,1.20639,-1.22329,1.34086
0.770805,-0.550412,1.84198,0.98348,1.20639,-1.22329,1.34086
0.770805,-0.550412,1.84198,0.98348,1.20639,-1.22329,1.34086
0.770805,-0.550412,1.84198,0.98348,1.20639,-1.22329,1.34086
0.770805,-0.550412,1.84198,0.98348,1.20639,-1.22329,1.34086
0.770805,-0.550412,1.84198,0.98348,1.20639,-1.22329,1.34086
0.770805,-0.550412,1.84198,0.98348,1.20639,-1.22329,1.34086
0.770805,-0.550412,1.84198,0.98348,1.20639,-1.22329,1.34086
0.770805,-0.550412,1.84198,0.98348,1.20639,-1.22329,1.34086
0.770805,-0.550412,1.84198,0.98348,1.20639,-1.22329,1.34086
0.770805,-0.550412,1.84198,0.98348,1.20639,-1.22329,1.34086
0.770805,-0.550412,1.84198,0.98348,1.20639,-1.22329,1.34086
0.770805,-0.550412,1.84198,0.98348,1.20639,-1.22329,1.34086
0.770805,-0.550412,1.84198,0.98348,1.20639,-1.22329,1.34086
0.770805,-0.550412,1.84198,0.98348,1.20639,-1.22329,1.34086
0.770805,-0.550412,1.84198,0.98348,1.20639,-1.22329,1.34086
0.770805,-0.550412,1.84198,0.98348,1.20639,-1.22329,1.34086
0.770805,-0.550412,1.84198,0.98348,1.20639,-1.22329,1.34086
0.770805,-0.550412,1.84198,0.98348,1.20639,-1.22329,1.34086
0.770805,-0.550412,1.84198,0.98348,1.20639,-1.22329,1.34086
0.770805,-0.550412,1.84198,0.98348,1.20639,-1.22329,1.34086
0.770805,-0.550412,1.84198,0.98348,1.20639,-1.22329,1.34086
0.770805,-0.550412,1.84198,0.98348,1.20639,-1.22329,1.34086
0.770805,-0.550412,1.84198,0.98348,1.20639,-1.22329,1.34086
0.770805,-0.550412,1.84198,0.98348,1.20639,-1.22329,1.34086
0.770805,-0.550412,1.84198,0.98348,1.20639,-1.22329,1.34086
0.770805,-0.550412,1.84198,0.98348,1.20639,-1.22329,1.34086
0.770805,-0.550412,1.84198,0.98348,1.20639,-1.22329,1.34086
0.770805,-0.550412,1.84198,0.98348,1.20639,-1.22329,1.34086
0.770805,-0.550412,1.84198,0.98348,1.20639,-1.22329,1.34086
0.770805,-0.550412,1.84198,0.98348,1.20639,-1.22329,1.34086
0.770805,-0.550412,1.84198,0.98348,1.20639,-1.22329,1.34086
0.770805,-0.550412,1.84198,0.98348,1.20639,-1.22329,1.34086
0.770805,-0.550412,1.84198,0.98348,1.20639,-1.22329,1.34086
0.770805,-0.550412,1.84198,0.98348,1.20639,-1.22329,1.34086
0.770805,-0.550412,1.84198,0.98348,1.20639,-1.22329,1.34086
0.770805,-0.550412,1.84198,0.98348,1.20639,-1.22329,1.34086
0.770805,-0.550412,1.84198,0.98348,1.20639,-1.22329,1.34086
0.770805,-0.550412,1.84198,0.98348,1.20639,-1.22329,1.34086
0.770805,-0.550412,1.84198,0.98348,1.20639,-1.22329,1.34086
0.770805,-0.550412,1.84198,0.98348,1.20639,-1.22329,1.34086
0.770805,-0.550412,1.84198,0.98348,1.20639,-1.22329,1.34086
0.770805,-0.550412,1.84198,0.98348,1.20639,-1.22329,1.34086
0.770805,-0.550412,1.84198,0.98348,1.20639,-1.22329,1.34086
0.770805,-0.550412,1.84198,0.98348,1.20639,-1.22329,1.34086
0.770805,-0.550412,1.84198,0.98348,1.20639,-1.22329,1.34086
0.770805,-0.550412,1.84198,0.98348,1.20639,-1.22329,1.34086
0.770805,-0.550412,1.84198,0.98348,1.20639,-1.22329,1.34086
0.770805,-0.550412,1.84198,0.98348,1.20639,-1.22329,1.34086
0.770805,-0.550412,1.84198,0.98348,1.20639,-1.22329,1.34086
0.770805,-0.550412,1.84198,0.98348,1.20639,-1.22329,1.34086
0.770805,-0.550412,1.84198,0.98348,1.20639,-1.22329,1.34086
0.770805,-0.550412,1.84198,0.98348,1.20639,-1.22329,1.34086
0.770805,-0.550412,1.84198,0.98348,1.20639,-1.22329,1.34086
0.770805,-0.550412,1.84198,0.98348,1.20639,-1.22329,1.34086
0.770805,-0.550412,1.84198,0.98348,1.20639,-1.22329,1.34086
0.770805,-0.550412,1.84198,0.98348,1.20639,-1.22329,1.34086
0.770805,-0.550412,1.84198,0.98348,1.20639,-1.22329,1.34086
0.770805,-0.550412,1.84198,0.98348,1.20639,-1.22329,1.34086
0.770805,-0.550412,1.84198,0.98348,1.20639,-1.22329,1.34086
0.770805,-0.550412,1.84198,0.98348,1.20639,-1.22329,1.34086
0.770805,-0.550412,1.84198,0.98348,1.20639,-1.22329,1.34086
0.770805,-0.550412,1.84198,0.98348,1.20639,-1.22329,1.34086
0.770805,-0.550412,1.84198,0.98348,1.20639,-1.22329,1.34086
0.770805,-0.550412,1.84198,0.98348,1.20639,-1.22329,1.34086
0.770805,-0.550412,1.84198,0.98348,1.20639,-1.22329,1.34086
0.770805,-0.550412,1.84198,0.98348,1.20639,-1.22329,1.34086
0.770805,-0.550412,1.84198,0.98348,1.20639,-1.22329,1.34086
0.770805,-0.550412,1.84198,0.98348,1.20639,-1.22329,1.34086
0.770805,-0.550412,1.84198,0.98348,1.20639,-1.22329,1.34086
0.770805,-0.550412,1.84198,0.98348,1.20639,-1.22329,1.34086
0.770805,-0.550412,1.84198,0.98348,1.20639,-1.22329,1.34086
0.770805,-0.550412,1.84198,0.98348,1.20639,-1.22329,1.34086
0.770805,-0.550412,1.84198,0.98348,1.20639,-1.22329,1.34086
0.770805,-0.550412,1.84198,0.98348,1.20639,-1.22329,1.34086
0.770805,-0.550412,1.84198,0.98348,1.20639,-1.22329,1.34086
0.770805,-0.550412,1.84198,0.98348,1.20639,-1.22329,1.34086
0.770805,-0.550412,1.84198,0.98348,1.20639,-1.22329,1.34086
0.770805,-0.550412,1.84198,0.98348,1.20639,-1.22329,1.34086
0.770805,-0.550412,1.84198,0.98348,1.20639,-1.22329,1.34086
0.770805,-0.550412,1.84198,0.98348,1.20639,-1.22329,1.34086
0.770805,-0.550412,1.84198,0.98348,1.20639,-1.22329,1.34086
0.770805,-0.550412,1.84198,0.98348,1.20639,-1.22329,1.34086
0.770805,-0.550412,1.84198,0.98348,1.20639,-1.22329,1.34086
0.770805,-0.550412,1.84198,0.98348,1.20639,-1.22329,1.34086
0.770805,-0.550412,1.84198,0.98348,1.20639,-1.22329,1.34086
0.770805,-0.550412,1.84198,0.98348,1.20639,-1.22329,1.34086
0.770805,-0.550412,1.84198,0.98348,1.20639,-1.22329,1.34086
0.770805,-0.550412,1.84198,0.98348,1.20639,-1.22329,1.34086
0.770805,-0.550412,1.84198,0.98348,1.20639,-1.22329,1.34086
0.770805,-0.550412,1.84198,0.98348,1.20639,-1.22329,1.34086
0.770805,-0.550412,1.84198,0.98348,1.20639,-1.22329,1.34086
0.770805,-0.550412,1.84198,0.98348,1.20639,-1.22329,1.34086
0.770805,-0.550412,1.84198,0.98348,1.20639,-1.22329,1.34086
0.770805,-0.550412,1.84198,0.98348,1.20639,-1.22329,1.34086
0.770805,-0.550412,1.84198,0.98348,1.20639,-1.22329,1.34086
0.770805,-0.550412,1.84198,0.98348,1.20639,-1.22329,1.34086
0.770805,-0.550412,1.84198,0.98348,1.20639,-1.22329,1.34086
0.770805,-0.550412,1.84198,0.98348,1.20639,-1.22329,1.34086
0.770805,-0.550412,1.84198,0.98348,1.20639,-1.22329,1.34086
0.770805,-0.550412,1.84198,0.98348,1.20639,-1.22329,1.34086
0.770805,-0.550412,1.84198,0.98348,1.20639,-1.22329,1.34086
0.770805,-0.550412,1.84198,0.98348,1.20639,-1.22329,1.34086
0.770805,-0.550412,1.84198,0.98348,1.20639,-1.22329,1.34086
0.770805,-0.550412,1.84198,0.98348,1.20639,-1.22329,1.34086
0.770805,-0.550412,1.84198,0.98348,1.20639,-1.22329,1.34086
0.770805,-0.550412,1.84198,0.98348,1.20639,-1.22329,1.34086
0.770805,-0.550412,1.84198,0.98348,1.20639,-1.22329,1.34086
0.770805,-0.550412,1.84198,0.98348,1.20639,-1.22329,1.34086
0.770805,-0.550412,1.84198,0.98348,1.20639,-1.22329,1.34086
0.770805,-0.550412,1.84198,0.98348,1.20639,-1.22329,1.34086
0.770805,-0.550412,1.84198,0.98348,1.20639,-1.22329,1.34086
0.770805,-0.550412,1.84198,0.98348,1.20639,-1.22329,1.34086
0.770805,-0.550412,1.84198,0.98348,1.20639,-1.22329,1.34086
0.770805,-0.550412,1.84198,0.98348,1.20639,-1.22329,1.34086
0.770805,-0.550412,1.84198,0.98348,1.20639,-1.22329,1.34086
0.770805,-0.550412,1.84198,0.98348,1.20639,-1.22329,1.34086
0.770805,-0.550412,1.84198,0.98348,1.20639,-1.22329,1.34086
0.770805,-0.550412,1.84198,0.98348,1.20639,-1.22329,1.34086
0.770805,-0.550412,1.84198,0.98348,1.20639,-1.22329,1.34086
0.770805,-0.550412,1.84198,0.98348,1.20639,-1.22329,1.34086
0.770805,-0.550412,1.84198,0.98348,1.20639,-1.22329,1.34086
0.770805,-0.550412,1.84198,0.98348,1.20639,-1.22329,1.34086
0.770805,-0.550412,1.84198,0.98348,1.20639,-1.22329,1.34086
0.770805,-0.550412,1.84198,0.98348,1.20639,-1.22329,1.34086
0.770805,-0.550412,1.84198,0.98348,1.20639,-1.22329,1.34086
0.770805,-0.550412,1.84198,0.98348,1.20639,-1.22329,1.34086
0.770805,-0.550412,1.84198,0.98348,1.20639,-1.22329,1.34086
0.770805,-0.550412,1.84198,0.98348,1.20639,-1.22329,1.34086
0.770805,-0.550412,1.84198,0.98348,1.20639,-1.22329,1.34086
0.770805,-0.550412,1.84198,0.98348,1.20639,-1.22329,1.34086
0.770805,-0.550412,1.84198,0.98348,1.20639,-1.22329,1.34086
0.770805,-0.550412,1.84198,0.98348,1.20639,-1.22329,1.34086
0.770805,-0.550412,1.84198,0.98348,1.20639,-1.22329,1.34086
0.770805,-0.550412,1.84198,0.98348,1.20639,-1.22329,1.34086
0.770805,-0.550412,1.84198,0.98348,1.20639,-1.22329,1.34086
0.770805,-0.550412,1.84198,0.98348,1.20639,-1.22329,1.34086
0.770805,-0.550412,1.84198,0.98348,1.20639,-1.22329,1.34086
0.770805,-0.550412,1.84198,0.98348,1.20639,-1.22329,1.34086
0.770805,-0.550412,1.84198,0.98348,1.20639,-1.22329,1.34086
0.770805,-0.550412,1.84198,0.98348,1.20639,-1.22329,1.34086
0.770805,-0.550412,1.84198,0.98348,1.20639,-1.22329,1.34086
0.770805,-0.550412,1.84198,0.98348,1.20639,-1.22329,1.34086
0.770805,-0.550412,1.84198,0.98348,1.20639,-1.22329,1.34086
0.770805,-0.550412,1.84198,0.98348,1.20639,-1.22329,1.34086
0.770805,-0.550412,1.84198,0.98348,1.20639,-1.22329,1.34086
0.770805,-0.550412,1.84198,0.98348,1.20639,-1.22329,1.34086
0.770805,-0.550412,1.84198,0.98348,1.20639,-1.22329,1.34086
0.770805,-0.550412,1.84198,0.98348,1.20639,-1.22329,1.34086
0.770805,-0.550412,1.84198,0.98348,1.20639,-1.22329,1.34086
0.770805,-0.550412,1.84198,0.98348,1.20639,-1.22329,1.34086
0.770805,-0.550412,1.84198,0.98348,1.20639,-1.22329,1.34086
0.770805,-0.550412,1.84198,0.98348,1.20639,-1.22329,1.34086
0.770805,-0.550412,1.84198,0.98348,1.20639,-1.22329,1.34086
0.770805,-0.550412,1.84198,0.98348,1.20639,-1.22329,1.34086
0.770805,-0.550412,1.84198,0.98348,1.20639,-1.22329,1.34086
0.770805,-0.550412,1.84198,0.98348,1.20639,-1.22329,1.34086
0.770805,-0.550412,1.84198,0.98348,1.20639,-1.22329,1.34086
0.770805,-0.550412,1.84198,0.98348,1.20639,-1.22329,1.34086
0.770805,-0.550412,1.84198,0.98348,1.20639,-1.22329,1.34086
0.770805,-0.550412,1.84198,0.98348,1.20639,-1.22329,1.34086
0.770805,-0.550412,1.84198,0.98348,1.20639,-1.22329,1.34086
0.770805,-0.550412,1.84198,0.98348,1.20639,-1.22329,1.34086
0.770805,-0.550412,1.84198,0.98348,1.20639,-1.22329,1.34086
0.770805,-0.550412,1.84198,0.98348,1.20639,-1.22329,1.34086
0.770805,-0.550412,1.84198,0.98348,1.20639,-1.22329,1.34086
0.770805,-0.550412,1.84198,0.98348,1.20639,-1.22329,1.34086
0.770805,-0.550412,1.84198,0.98348,1.20639,-1.22329,1.34086
0.770805,-0.550412,1.84198,0.98348,1.20639,-1.22329,1.34086
0.770805,-0.550412,1.84198,0.98348,1.20639,-1.22329,1.34086
0.770805,-0.550412,1.84198,0.98348,1.20639,-1.22329,1.34086
0.770805,-0.550412,1.84198,0.98348,1.20639,-1.22329,1.34086
0.770805,-0.550412,1.84198,0.98348,1.20639,-1.22329,1.34086
0.770805,-0.550412,1.84198,0.98348,1.20639,-1.22329,1.34086
0.770805,-0.550412,1.84198,0.98348,1.20639,-1.22329,1.34086
0.770805,-0.550412,1.84198,0.98348,1.20639,-1.22329,1.34086
0.770805,-0.550412,1.84198,0.98348,1.20639,-1.22329,1.34086
0.770805,-0.550412,1.84198,0.98348,1.20639,-1.22329,1.34086
0.770805,-0.550412,1.84198,0.98348,1.20639,-1.22329,1.34086
0.770805,-0.550412,1.84198,0.98348,1.20639,-1.22329,1.34086
0.770805,-0.550412,1.84198,0.98348,1.20639,-1.22329,1.34086
0.770805,-0.550412,1.84198,0.98348,1.20639,-1.22329,1.34086
0.770805,-0.550412,1.84198,0.98348,1.20639,-1.22329,1.34086
0.770805,-0.550412,1.84198,0.98348,1.20639,-1.22329,1.34086
0.770805,-0.550412,1.84198,0.98348,1.20639,-1.22329,1.34086
0.770805,-0.550412,1.84198,0.98348,1.20639,-1.22329,1.34086
0.770805,-0.550412,1.84198,0.98348,1.20639,-1.22329,1.34086
0.770805,-0.550412,1.84198,0.98348,1.20639,-1.22329,1.34086
0.770805,-0.550412,1.84198,0.98348,1.20639,-1.22329,1.34086
0.770805,-0.550412,1.84198,0.98348,1.20639,-1.22329,1.34086
0.770805,-0.550412,1.84198,0.98348,1.20639,-1.22329,1.34086
0.770805,-0.550412,1.84198,0.98348,1.20639,-1.22329,1.34086
0.770805,-0.550412,1.84198,0.98348,1.20639,-1.22329,1.34086
0.770805,-0.550412,1.84198,0.98348,1.20639,-1.22329,1.34086
0.770805,-0.550412,1.84198,0.98348,1.20639,-1.22329,1.34086
0.770805,-0.550412,1.84198,0.98348,1.20639,-1.22329,1.34086
0.770805,-0.550412,1.84198,0.98348,1.20639,-1.22329,1.34086
0.770805,-0.550412,1.84198,0.98348,1.20639,-1.22329,1.34086
0.770805,-0.550412,1.84198,0.98348,1.20639,-1.22329,1.34086
0.770805,-0.550412,1.84198,0.98348,1.20639,-1.22329,1.34086
0.770805,-0.550412,1.84198,0.98348,1.20639,-1.22329,1.34086
0.770805,-0.550412,1.84198,0.98348,1.20639,-1.22329,1.34086
0.770805,-0.550412,1.84198,0.98348,1.20639,-1.22329,1.34086
0.770805,-0.550412,1.84198,0.98348,1.20639,-1.22329,1.34086
0.770805,-0.550412,1.84198,0.98348,1.20639,-1.22329,1.34086
0.770805,-0.550412,1.84198,0.98348,1.20639,-1.22329,1.34086
0.770805,-0.550412,1.84198,0.98348,1.20639,-1.22329,1.34086
0.770805,-0.550412,1.84198,0.98348,1.20639,-1.22329,1.34086
0.770805,-0.550412,1.84198,0.98348,1.20639,-1.22329,1.34086
0.770805,-0.550412,1.84198,0.98348,1.20639,-1.22329,1.34086
0.770805,-0.550412,1.84198,0.98348,1.20639,-1.22329,1.34086
0.770805,-0.550412,1.84198,0.98348,1.20639,-1.22329,1.34086
0.770805,-0.550412,1.84198,0.98348,1.20639,-1.22329,1.34086
0.770805,-0.550412,1.84198,0.98348,1.20639,-1.22329,1.34086
0.770805,-0.550412,1.84198,0.98348,1.20639,-1.22329,1.34086
0.770805,-0.550412,1.84198,0.98348,1.20639,-1.22329,1.34086
0.770805,-0.550412,1.84198,0.98348,1.20639,-1.22329,1.34086
0.770805,-0.550412,1.84198,0.98348,1.20639,-1.22329,1.34086
0.770805,-0.550412,1.84198,0.98348,1.20639,-1.22329,1.34086
0.770805,-0.550412,1.84198,0.98348,1.20639,-1.22329,1.34086
0.770805,-0.550412,1.84198,0.98348,1.20639,-1.22329,1.34086
0.770805,-0.550412,1.84198,0.98348,1.20639,-1.22329,1.34086
0.770805,-0.550412,1.84198,0.98348,1.20639,-1.22329,1.34086
0.770805,-0.550412,1.84198,0.98348,1.20639,-1.22329,1.34086
0.770805,-0.550412,1.84198,0.98348,1.20639,-1.22329,1.34086
0.770805,-0.550412,1.84198,0.98348,1.20639,-1.22329,1.34086
0.770805,-0.550412,1.84198,0.98348,1.20639,-1.22329,1.34086
0.770805,-0.550412,1.84198,0.98348,1.20639,-1.22329,1.34086
0.770805,-0.550412,1.84198,0.98348,1.20639,-1.22329,1.34086
0.770805,-0.550412,1.84198,0.98348,1.20639,-1.22329,1.34086
0.770805,-0.550412,1.84198,0.98348,1.20639,-1.22329,1.34086
0.770805,-0.550412,1.84198,0.98348,1.20639,-1.22329,1.34086
0.770805,-0.550412,1.84198,0.98348,1.20639,-1.22329,1.34086
0.770805,-0.550412,1.84198,0.98348,1.20639,-1.22329,1.34086
0.770805,-0.550412,1.84198,0.98348,1.20639,-1.22329,1.34086
0.770805,-0.550412,1.84198,0.98348,1.20639,-1.22329,1.34086
0.770805,-0.550412,1.84198,0.98348,1.20639,-1.22329,1.34086
0.770805,-0.550412,1.84198,0.98348,1.20639,-1.22329,1.34086
0.770805,-0.550412,1.84198,0.98348,1.20639,-1.22329,1.34086
0.770805,-0.550412,1.84198,0.98348,1.20639,-1.22329,1.34086
0.770805,-0.550412,1.84198,0.98348,1.20639,-1.22329,1.34086
0.770805,-0.550412,1.84198,0.98348,1.20639,-1.22329,1.34086
0.770805,-0.550412,1.84198,0.98348,1.20639,-1.22329,1.34086
0.770805,-0.550412,1.84198,0.98348,1.20639,-1.22329,1.34086
0.770805,-0.550412,1.84198,0.98348,1.20639,-1.22329,1.34086
0.770805,-0.550412,1.84198,0.98348,1.20639,-1.22329,1.34086
0.770805,-0.550412,1.84198,0.98348,1.20639,-1.22329,1.34086
0.770805,-0.550412,1.84198,0.98348,1.20639,-1.22329,1.34086
0.770805,-0.550412,1.84198,0.98348,1.20639,-1.22329,1.34086
0.770805,-0.550412,1.84198,0.98348,1.20639,-1.22329,1.34086
0.770805,-0.550412,1.84198,0.98348,1.20639,-1.22329,1.34086
0.770805,-0.550412,1.84198,0.98348,1.20639,-1.22329,1.34086
0.770805,-0.550412,1.84198,0.98348,1.20639,-1.22329,1.34086
0.770805,-0.550412,1.84198,0.98348,1.20639,-1.22329,1.34086
0.770805,-0.550412,1.84198,0.98348,1.20639,-1.22329,1.34086
0.770805,-0.550412,1.84198,0.98348,1.20639,-1.22329,1.34086
0.770805,-0.550412,1.84198,0.98348,1.20639,-1.22329,1.34086
0.770805,-0.550412,1.84198,0.98348,1.20639,-1.22329,1.34086
0.770805,-0.550412,1.84198,0.98348,1.20639,-1.22329,1.34086
0.770805,-0.550412,1.84198,0.98348,1.20639,-1.22329,1.34086
0.770805,-0.550412,1.84198,0.98348,1.20639,-1.22329,1.34086
0.770805,-0.550412,1.84198,0.98348,1.20639,-1.22329,1.34086
0.770805,-0.550412,1.84198,0.98348,1.20639,-1.22329,1.34086
0.770805,-0.550412,1.84198,0.98348,1.20639,-1.22329,1.34086
0.770805,-0.550412,1.84198,0.98348,1.20639,-1.22329,1.34086
0.770805,-0.550412,1.84198,0.98348,1.20639,-1.22329,1.34086
0.770805,-0.550412,1.84198,0.98348,1.20639,-1.22329,1.34086
0.770805,-0.550412,1.84198,0.98348,1.20639,-1.22329,1.34086
0.770805,-0.550412,1.84198,0.98348,1.20639,-1.22329,1.34086
0.770805,-0.550412,1.84198,0.98348,1.20639,-1.22329,1.34086
0.770805,-0.550412,1.84198,0.98348,1.20639,-1.22329,1.34086
0.770805,-0.550412,1.84198,0.98348,1.20639,-1.22329,1.34086
0.770805,-0.550412,1.84198,0.98348,1.20639,-1.22329,1.34086
0.770805,-0.550412,1.84198,0.98348,1.20639,-1.22329,1.34086
0.770805,-0.550412,1.84198,0.98348,1.20639,-1.22329,1.34086
0.770805,-0.550412,1.84198,0.98348,1.20639,-1.22329,1.34086
0.770805,-0.550412,1.84198,0.98348,1.20639,-1.22329,1.34086
0.770805,-0.550412,1.84198,0.98348,1.20639,-1.22329,1.34086
0.770805,-0.550412,1.84198,0.98348,1.20639,-1.22329,1.34086
0.770805,-0.550412,1.84198,0.98348,1.20639,-1.22329,1.34086
0.770805,-0.550412,1.84198,0.98348,1.20639,-1.22329,1.34086
0.770805,-0.550412,1.84198,0.98348,1.20639,-1.22329,1.34086
0.770805,-0.550412,1.84198,0.98348,1.20639,-1.22329,1.34086
0.770805,-0.550412,1.84198,0.98348,1.20639,-1.22329,1.34086
0.770805,-0.550412,1.84198,0.98348,1.20639,-1.22329,1.34086
0.770805,-0.550412,1.84198,0.98348,1.20639,-1.22329,1.34086
0.770805,-0.550412,1.84198,0.98348,1.20639,-1.22329,1.34086
0.770805,-0.550412,1.84198,0.98348,1.20639,-1.22329,1.34086
0.770805,-0.550412,1.84198,0.98348,1.20639,-1.22329,1.34086
0.770805,-0.550412,1.84198,0.98348,1.20639,-1.22329,1.34086
0.770805,-0.550412,1.84198,0.98348,1.20639,-1.22329,1.34086
0.770805,-0.550412,1.84198,0.98348,1.20639,-1.22329,1.34086
0.770805,-0.550412,1.84198,0.98348,1.20639,-1.22329,1.34086
0.770805,-0.550412,1.84198,0.98348,1.20639,-1.22329,1.34086
0.770805,-0.550412,1.84198,0.98348,1.20639,-1.22329,1.34086
0.770805,-0.550412,1.84198,0.98348,1.20639,-1.22329,1.34086
0.770805,-0.550412,1.84198,0.98348,1.20639,-1.22329,1.34086
0.770805,-0.550412,1.84198,0.98348,1.20639,-1.22329,1.34086
0.770805,-0.550412,1.84198,0.98348,1.20639,-1.22329,1.34086
0.770805,-0.550412,1.84198,0.98348,1.20639,-1.22329,1.34086
0.770805,-0.550412,1.84198,0.98348,1.20639,-1.22329,1.34086
0.770805,-0.550412,1.84198,0.98348,1.20639,-1.22329,1.34086
0.770805,-0.550412,1.84198,0.98348,1.20639,-1.22329,1.34086
0.770805,-0.550412,1.84198,0.98348,1.20639,-1.22329,1.34086
0.770805,-0.550412,1.84198,0.98348,1.20639,-1.22329,1.34086
0.770805,-0.550412,1.84198,0.98348,1.20639,-1.22329,1.34086
0.770805,-0.550412,1.84198,0.98348,1.20639,-1.22329,1.34086
0.770805,-0.550412,1.84198,0.98348,1.20639,-1.22329,1.34086
0.770805,-0.550412,1.84198,0.98348,1.20639,-1.22329,1.34086
0.770805,-0.550412,1.84198,0.98348,1.20639,-1.22329,1.34086
0.770805,-0.550412,1.84198,0.98348,1.20639,-1.22329,1.34086
0.770805,-0.550412,1.84198,0.98348,1.20639,-1.22329,1.34086
0.770805,-0.550412,1.84198,0.98348,1.20639,-1.22329,1.34086
0.770805,-0.550412,1.84198,0.98348,1.20639,-1.22329,1.34086
0.770805,-0.550412,1.84198,0.98348,1.20639,-1.22329,1.34086
0.770805,-0.550412,1.84198,0.98348,1.20639,-1.22329,1.34086
0.770805,-0.550412,1.84198,0.98348,1.20639,-1.22329,1.34086
0.770805,-0.550412,1.84198,0.98348,1.20639,-1.22329,1.34086
0.770805,-0.550412,1.84198,0.98348,1.20639,-1.22329,1.34086
0.770805,-0.550412,1.84198,0.98348,1.20639,-1.22329,1.34086
0.770805,-0.550412,1.84198,0.98348,1.20639,-1.22329,1.34086
0.770805,-0.550412,1.84198,0.98348,1.20639,-1.22329,1.34086
0.770805,-0.550412,1.84198,0.98348,1.20639,-1.22329,1.34086
0.770805,-0.550412,1.84198,0.98348,1.20639,-1.22329,1.34086
0.770805,-0.550412,1.84198,0.98348,1.20639,-1.22329,1.34086
0.770805,-0.550412,1.84198,0.98348,1.20639,-1.22329,1.34086
0.770805,-0.550412,1.84198,0.98348,1.20639,-1.22329,1.34086
0.770805,-0.550412,1.84198,0.98348,1.20639,-1.22329,1.34086
0.770805,-0.550412,1.84198,0.98348,1.20639,-1.22329,1.34086
0.770805,-0.550412,1.84198,0.98348,1.20639,-1.22329,1.34086
0.770805,-0.550412,1.84198,0.98348,1.20639,-1.22329,1.34086
0.770805,-0.550412,1.84198,0.98348,1.20639,-1.22329,1.34086
0.770805,-0.550412,1.84198,0.98348,1.20639,-1.22329,1.34086
0.770805,-0.550412,1.84198,0.98348,1.20639,-1.22329,1.34086
0.770805,-0.550412,1.84198,0.98348,1.20639,-1.22329,1.34086
0.770805,-0.550412,1.84198,0.98348,1.20639,-1.22329,1.34086
0.770805,-0.550412,1.84198,0.98348,1.20639,-1.22329,1.34086
0.770805,-0.550412,1.84198,0.98348,1.20639,-1.22329,1.34086
0.770805,-0.550412,1.84198,0.98348,1.20639,-1.22329,1.34086
0.770805,-0.550412,1.84198,0.98348,1.20639,-1.22329,1.34086
0.770805,-0.550412,1.84198,0.98348,1.20639,-1.22329,1.34086
0.770805,-0.550412,1.84198,0.98348,1.20639,-1.22329,1.34086
0.770805,-0.550412,1.84198,0.98348,1.20639,-1.22329,1.34086
0.770805,-0.550412,1.84198,0.98348,1.20639,-1.22329,1.34086
0.770805,-0.550412,1.84198,0.98348,1.20639,-1.22329,1.34086
0.770805,-0.550412,1.84198,0.98348,1.20639,-1.22329,1.34086
0.770805,-0.550412,1.84198,0.98348,1.20639,-1.22329,1.34086
0.770805,-0.550412,1.84198,0.98348,1.20639,-1.22329,1.34086
0.770805,-0.550412,1.84198,0.98348,1.20639,-1.22329,1.34086
0.770805,-0.550412,1.84198,0.98348,1.20639,-1.22329,1.34086
0.770805,-0.550412,1.84198,0.98348,1.20639,-1.22329,1.34086
0.770805,-0.550412,1.84198,0.98348,1.20639,-1.22329,1.34086
0.770805,-0.550412,1.84198,0.98348,1.20639,-1.22329,1.34086
0.770805,-0.550412,1.84198,0.98348,1.20639,-1.22329,1.34086
0.770805,-0.550412,1.84198,0.98348,1.20639,-1.22329,1.34086
0.770805,-0.550412,1.84198,0.98348,1.20639,-1.22329,1.34086
0.770805,-0.550412,1.84198,0.98348,1.20639,-1.22329,1.34086
0.770805,-0.550412,1.84198,0.98348,1.20639,-1.22329,1.34086
0.770805,-0.550412,1.84198,0.98348,1.20639,-1.22329,1.34086
0.770805,-0.550412,1.84198,0.98348,1.20639,-1.22329,1.34086
0.770805,-0.550412,1.84198,0.98348,1.20639,-1.22329,1.34086
0.770805,-0.550412,1.84198,0.98348,1.20639,-1.22329,1.34086
0.770805,-0.550412,1.84198,0.98348,1.20639,-1.22329,1.34086
0.770805,-0.550412,1.84198,0.98348,1.20639,-1.22329,1.34086
0.770805,-0.550412,1.84198,0.98348,1.20639,-1.22329,1.34086
0.770805,-0.550412,1.84198,0.98348,1.20639,-1.22329,1.34086
0.770805,-0.550412,1.84198,0.98348,1.20639,-1.22329,1.34086
0.770805,-0.550412,1.84198,0.98348,1.20639,-1.22329,1.34086
0.770805,-0.550412,1.84198,0.98348,1.20639,-1.22329,1.34086
0.770805,-0.550412,1.84198,0.98348,1.20639,-1.22329,1.34086
0.770805,-0.550412,1.84198,0.98348,1.20639,-1.22329,1.34086
0.770805,-0.550412,1.84198,0.98348,1.20639,-1.22329,1.34086
0.770805,-0.550412,1.84198,0.98348,1.20639,-1.22329,1.34086
0.770805,-0.550412,1.84198,0.98348,1.20639,-1.22329,1.34086
0.770805,-0.550412,1.84198,0.98348,1.20639,-1.22329,1.34086
0.770805,-0.550412,1.84198,0.98348,1.20639,-1.22329,1.34086
0.770805,-0.550412,1.84198,0.98348,1.20639,-1.22329,1.34086
0.770805,-0.550412,1.84198,0.98348,1.20639,-1.22329,1.34086
0.770805,-0.550412,1.84198,0.98348,1.20639,-1.22329,1.34086
0.770805,-0.550412,1.84198,0.98348,1.20639,-1.22329,1.34086
0.770805,-0.550412,1.84198,0.98348,1.20639,-1.22329,1.34086
0.770805,-0.550412,1.84198,0.98348,1.20639,-1.22329,1.34086
0.770805,-0.550412,1.84198,0.98348,1.20639,-1.22329,1.34086
0.770805,-0.550412,1.84198,0.98348,1.20639,-1.22329,1.34086
0.770805,-0.550412,1.84198,0.98348,1.20639,-1.22329,1.34086
0.770805,-0.550412,1.84198,0.98348,1.20639,-1.22329,1.34086
0.770805,-0.550412,1.84198,0.98348,1.20639,-1.22329,1.34086
0.770805,-0.550412,1.84198,0.98348,1.20639,-1.22329,1.34086
0.770805,-0.550412,1.84198,0.98348,1.20639,-1.22329,1.34086
0.770805,-0.550412,1.84198,0.98348,1.20639,-1.22329,1.34086
0.770805,-0.550412,1.84198,0.98348,1.20639,-1.22329,1.34086
0.770805,-0.550412,1.84198,0.98348,1.20639,-1.22329,1.34086
0.770805,-0.550412,1.84198,0.98348,1.20639,-1.22329,1.34086
0.770805,-0.550412,1.84198,0.98348,1.20639,-1.22329,1.34086
0.770805,-0.550412,1.84198,0.98348,1.20639,-1.22329,1.34086
0.770805,-0.550412,1.84198,0.98348,1.20639,-1.22329,1.34086
0.770805,-0.550412,1.84198,0.98348,1.20639,-1.22329,1.34086
0.770805,-0.550412,1.84198,0.98348,1.20639,-1.22329,1.34086
0.770805,-0.550412,1.84198,0.98348,1.20639,-1.22329,1.34086
0.770805,-0.550412,1.84198,0.98348,1.20639,-1.22329,1.34086
0.770805,-0.550412,1.84198,0.98348,1.20639,-1.22329,1.34086
0.770805,-0.550412,1.84198,0.98348,1.20639,-1.22329,1.34086
0.770805,-0.550412,1.84198,0.98348,1.20639,-1.22329,1.34086
0.770805,-0.550412,1.84198,0.98348,1.20639,-1.22329,1.34086
0.770805,-0.550412,1.84198,0.98348,1.20639,-1.22329,1.34086
0.770805,-0.550412,1.84198,0.98348,1.20639,-1.22329,1.34086
0.770805,-0.550412,1.84198,0.98348,1.20639,-1.22329,1.34086
0.770805,-0.550412,1.84198,0.98348,1.20639,-1.22329,1.34086
0.770805,-0.550412,1.84198,0.98348,1.20639,-1.22329,1.34086
0.770805,-0.550412,1.84198,0.98348,1.20639,-1.22329,1.34086
0.770805,-0.550412,1.84198,0.98348,1.20639,-1.22329,1.34086
0.770805,-0.550412,1.84198,0.98348,1.20639,-1.22329,1.34086
0.770805,-0.550412,1.84198,0.98348,1.20639,-1.22329,1.34086
0.770805,-0.550412,1.84198,0.98348,1.20639,-1.22329,1.34086
0.770805,-0.550412,1.84198,0.98348,1.20639,-1.22329,1.34086
0.770805,-0.550412,1.84198,0.98348,1.20639,-1.22329,1.34086
0.770805,-0.550412,1.84198,0.98348,1.20639,-1.22329,1.34086
0.770805,-0.550412,1.84198,0.98348,1.20639,-1.22329,1.34086
0.770805,-0.550412,1.84198,0.98348,1.20639,-1.22329,1.34086
0.770805,-0.550412,1.84198,0.98348,1.20639,-1.22329,1.34086
0.770805,-0.550412,1.84198,0.98348,1.20639,-1.22329,1.34086
0.770805,-0.550412,1.84198,0.98348,1.20639,-1.22329,1.34086
0.770805,-0.550412,1.84198,0.98348,1.20639,-1.22329,1.34086
0.770805,-0.550412,1.84198,0.98348,1.20639,-1.22329,1.34086
0.770805,-0.550412,1.84198,0.98348,1.20639,-1.22329,1.34086
0.770805,-0.550412,1.84198,0.98348,1.20639,-1.22329,1.34086
0.770805,-0.550412,1.84198,0.98348,1.20639,-1.22329,1.34086
0.770805,-0.550412,1.84198,0.98348,1.20639,-1.22329,1.34086
0.770805,-0.550412,1.84198,0.98348,1.20639,-1.22329,1.34086
0.770805,-0.550412,1.84198,0.98348,1.20639,-1.22329,1.34086
0.770805,-0.550412,1.84198,0.98348,1.20639,-1.22329,1.34086
0.770805,-0.550412,1.84198,0.98348,1.20639,-1.22329,1.34086
0.770805,-0.550412,1.84198,0.98348,1.20639,-1.22329,1.34086
0.770805,-0.550412,1.84198,0.98348,1.20639,-1.22329,1.34086
0.770805,-0.550412,1.84198,0.98348,1.20639,-1.22329,1.34086
0.770805,-0.550412,1.84198,0.98348,1.20639,-1.22329,1.34086
0.770805,-0.550412,1.84198,0.98348,1.20639,-1.22329,1.34086
0.770805,-0.550412,1.84198,0.98348,1.20639,-1.22329,1.34086
0.770805,-0.550412,1.84198,0.98348,1.20639,-1.22329,1.34086
0.770805,-0.550412,1.84198,0.98348,1.20639,-1.22329,1.34086
0.770805,-0.550412,1.84198,0.98348,1.20639,-1.22329,1.34086
0.770805,-0.550412,1.84198,0.98348,1.20639,-1.22329,1.34086
0.770805,-0.550412,1.84198,0.98348,1.20639,-1.22329,1.34086
0.770805,-0.550412,1.84198,0.98348,1.20639,-1.22329,1.34086
0.770805,-0.550412,1.84198,0.98348,1.20639,-1.22329,1.34086
0.770805,-0.550412,1.84198,0.98348,1.20639,-1.22329,1.34086
0.770805,-0.550412,1.84198,0.98348,1.20639,-1.22329,1.34086
0.770805,-0.550412,1.84198,0.98348,1.20639,-1.22329,1.34086
0.770805,-0.550412,1.84198,0.98348,1.20639,-1.22329,1.34086
0.770805,-0.550412,1.84198,0.98348,1.20639,-1.22329,1.34086
0.770805,-0.550412,1.84198,0.98348,1.20639,-1.22329,1.34086
0.770805,-0.550412,1.84198,0.98348,1.20639,-1.22329,1.34086
0.770805,-0.550412,1.84198,0.98348,1.20639,-1.22329,1.34086
0.770805,-0.550412,1.84198,0.98348,1.20639,-1.22329,1.34086
0.770805,-0.550412,1.84198,0.98348,1.20639,-1.22329,1.34086
0.770805,-0.550412,1.84198,0.98348,1.20639,-1.22329,1.34086
0.770805,-0.550412,1.84198,0.98348,1.20639,-1.22329,1.34086
0.770805,-0.550412,1.84198,0.98348,1.20639,-1.22329,1.34086
0.770805,-0.550412,1.84198,0.98348,1.20639,-1.22329,1.34086
0.770805,-0.550412,1.84198,0.98348,1.20639,-1.22329,1.34086
0.770805,-0.550412,1.84198,0.98348,1.20639,-1.22329,1.34086
0.770805,-0.550412,1.84198,0.98348,1.20639,-1.22329,1.34086
0.770805,-0.550412,1.84198,0.98348,1.20639,-1.22329,1.34086
0.770805,-0.550412,1.84198,0.98348,1.20639,-1.22329,1.34086
0.770805,-0.550412,1.84198,0.98348,1.20639,-1.22329,1.34086
0.770805,-0.550412,1.84198,0.98348,1.20639,-1.22329,1.34086
0.770805,-0.550412,1.84198,0.98348,1.20639,-1.22329,1.34086
0.770805,-0.550412,1.84198,0.98348,1.20639,-1.22329,1.34086
0.770805,-0.550412,1.84198,0.98348,1.20639,-1.22329,1.34086
0.770805,-0.550412,1.84198,0.98348,1.20639,-1.22329,1.34086
0.770805,-0.550412,1.84198,0.98348,1.20639,-1.22329,1.34086
0.770805,-0.550412,1.84198,0.98348,1.20639,-1.22329,1.34086
0.770805,-0.550412,1.84198,0.98348,1.20639,-1.22329,1.34086
0.770805,-0.550412,1.84198,0.98348,1.20639,-1.22329,1.34086
0.770805,-0.550412,1.84198,0.98348,1.20639,-1.22329,1.34086
0.770805,-0.550412,1.84198,0.98348,1.20639,-1.22329,1.34086
0.770805,-0.550412,1.84198,0.98348,1.20639,-1.22329,1.34086
0.770805,-0.550412,1.84198,0.98348,1.20639,-1.22329,1.34086
0.770805,-0.550412,1.84198,0.98348,1.20639,-1.22329,1.34086
0.770805,-0.550412,1.84198,0.98348,1.20639,-1.22329,1.34086
0.770805,-0.550412,1.84198,0.98348,1.20639,-1.22329,1.34086
0.770805,-0.550412,1.84198,0.98348,1.20639,-1.22329,1.34086
0.770805,-0.550412,1.84198,0.98348,1.20639,-1.22329,1.34086
0.770805,-0.550412,1.84198,0.98348,1.20639,-1.22329,1.34086
0.770805,-0.550412,1.84198,0.98348,1.20639,-1.22329,1.34086
0.770805,-0.550412,1.84198,0.98348,1.20639,-1.22329,1.34086
0.770805,-0.550412,1.84198,0.98348,1.20639,-1.22329,1.34086
0.770805,-0.550412,1.84198,0.98348,1.20639,-1.22329,1.34086
0.770805,-0.550412,1.84198,0.98348,1.20639,-1.22329,1.34086
0.770805,-0.550412,1.84198,0.98348,1.20639,-1.22329,1.34086
0.770805,-0.550412,1.84198,0.98348,1.20639,-1.22329,1.34086
0.770805,-0.550412,1.84198,0.98348,1.20639,-1.22329,1.34086
0.770805,-0.550412,1.84198,0.98348,1.20639,-1.22329,1.34086
0.770805,-0.550412,1.84198,0.98348,1.20639,-1.22329,1.34086
0.770805,-0.550412,1.84198,0.98348,1.20639,-1.22329,1.34086
0.770805,-0.550412,1.84198,0.98348,1.20639,-1.22329,1.34086
0.770805,-0.550412,1.84198,0.98348,1.20639,-1.22329,1.34086
0.770805,-0.550412,1.84198,0.98348,1.20639,-1.22329,1.34086
0.770805,-0.550412,1.84198,0.98348,1.20639,-1.22329,1.34086
0.770805,-0.550412,1.84198,0.98348,1.20639,-1.22329,1.34086
0.770805,-0.550412,1.84198,0.98348,1.20639,-1.22329,1.34086
0.770805,-0.550412,1.84198,0.98348,1.20639,-1.22329,1.34086
0.770805,-0.550412,1.84198,0.98348,1.20639,-1.22329,1.34086
0.770805,-0.550412,1.84198,0.98348,1.20639,-1.22329,1.34086
0.770805,-0.550412,1.84198,0.98348,1.20639,-1.22329,1.34086
0.770805,-0.550412,1.84198,0.98348,1.20639,-1.22329,1.34086
0.770805,-0.550412,1.84198,0.98348,1.20639,-1.22329,1.34086
0.770805,-0.550412,1.84198,0.98348,1.20639,-1.22329,1.34086
0.770805,-0.550412,1.84198,0.98348,1.20639,-1.22329,1.34086
0.770805,-0.550412,1.84198,0.98348,1.20639,-1.22329,1.34086
0.770805,-0.550412,1.84198,0.98348,1.20639,-1.22329,1.34086
0.770805,-0.550412,1.84198,0.98348,1.20639,-1.22329,1.34086
0.770805,-0.550412,1.84198,0.98348,1.20639,-1.22329,1.34086
0.770805,-0.550412,1.84198,0.98348,1.20639,-1.22329,1.34086
0.770805,-0.550412,1.84198,0.98348,1.20639,-1.22329,1.34086
0.770805,-0.550412,1.84198,0.98348,1.20639,-1.22329,1.34086
0.770805,-0.550412,1.84198,0.98348,1.20639,-1.22329,1.34086
0.770805,-0.550412,1.84198,0.98348,1.20639,-1.22329,1.34086
0.770805,-0.550412,1.84198,0.98348,1.20639,-1.22329,1.34086
0.770805,-0.550412,1.84198,0.98348,1.20639,-1.22329,1.34086
0.770805,-0.550412,1.84198,0.98348,1.20639,-1.22329,1.34086
0.770805,-0.550412,1.84198,0.98348,1.20639,-1.22329,1.34086
0.770805,-0.550412,1.84198,0.98348,1.20639,-1.22329,1.34086
0.770805,-0.550412,1.84198,0.98348,1.20639,-1.22329,1.34086
0.770805,-0.550412,1.84198,0.98348,1.20639,-1.22329,1.34086
0.770805,-0.550412,1.84198,0.98348,1.20639,-1.22329,1.34086
0.770805,-0.550412,1.84198,0.98348,1.20639,-1.22329,1.34086
0.770805,-0.550412,1.84198,0.98348,1.20639,-1.22329,1.34086
0.770805,-0.550412,1.84198,0.98348,1.20639,-1.22329,1.34086
0.770805,-0.550412,1.84198,0.98348,1.20639,-1.22329,1.34086
0.770805,-0.550412,1.84198,0.98348,1.20639,-1.22329,1.34086
0.770805,-0.550412,1.84198,0.98348,1.20639,-1.22329,1.34086
0.770805,-0.550412,1.84198,0.98348,1.20639,-1.22329,1.34086
0.770805,-0.550412,1.84198,0.98348,1.20639,-1.22329,1.34086
0.770805,-0.550412,1.84198,0.98348,1.20639,-1.22329,1.34086
0.770805,-0.550412,1.84198,0.98348,1.20639,-1.22329,1.34086
0.770805,-0.550412,1.84198,0.98348,1.20639,-1.22329,1.34086
0.770805,-0.550412,1.84198,0.98348,1.20639,-1.22329,1.34086
0.770805,-0.550412,1.84198,0.98348,1.20639,-1.22329,1.34086
0.770805,-0.550412,1.84198,0.98348,1.20639,-1.22329,1.34086
0.770805,-0.550412,1.84198,0.98348,1.20639,-1.22329,1.34086
0.770805,-0.550412,1.84198,0.98348,1.20639,-1.22329,1.34086
0.770805,-0.550412,1.84198,0.98348,1.20639,-1.22329,1.34086
0.770805,-0.550412,1.84198,0.98348,1.20639,-1.22329,1.34086
0.770805,-0.550412,1.84198,0.98348,1.20639,-1.22329,1.34086
0.770805,-0.550412,1.84198,0.98348,1.20639,-1.22329,1.34086
0.770805,-0.550412,1.84198,0.98348,1.20639,-1.22329,1.34086
0.770805,-0.550412,1.84198,0.98348,1.20639,-1.22329,1.34086
0.770805,-0.550412,1.84198,0.98348,1.20639,-1.22329,1.34086
0.770805,-0.550412,1.84198,0.98348,1.20639,-1.22329,1.34086
0.770805,-0.550412,1.84198,0.98348,1.20639,-1.22329,1.34086
0.770805,-0.550412,1.84198,0.98348,1.20639,-1.22329,1.34086
0.770805,-0.550412,1.84198,0.98348,1.20639,-1.22329,1.34086
0.770805,-0.550412,1.84198,0.98348,1.20639,-1.22329,1.34086
0.770805,-0.550412,1.84198,0.98348,1.20639,-1.22329,1.34086
0.770805,-0.550412,1.84198,0.98348,1.20639,-1.22329,1.34086
0.770805,-0.550412,1.84198,0.98348,1.20639,-1.22329,1.34086
0.770805,-0.550412,1.84198,0.98348,1.20639,-1.22329,1.34086
0.770805,-0.550412,1.84198,0.98348,1.20639,-1.22329,1.34086
0.770805,-0.550412,1.84198,0.98348,1.20639,-1.22329,1.34086
0.770805,-0.550412,1.84198,0.98348,1.20639,-1.22329,1.34086
0.770805,-0.550412,1.84198,0.98348,1.20639,-1.22329,1.34086
0.770805,-0.550412,1.84198,0.98348,1.20639,-1.22329,1.34086
0.770805,-0.550412,1.84198,0.98348,1.20639,-1.22329,1.34086
0.770805,-0.550412,1.84198,0.98348,1.20639,-1.22329,1.34086
0.770805,-0.550412,1.84198,0.98348,1.20639,-1.22329,1.34086
0.770805,-0.550412,1.84198,0.98348,1.20639,-1.22329,1.34086
0.770805,-0.550412,1.84198,0.98348,1.20639,-1.22329,1.34086
0.770805,-0.550412,1.84198,0.98348,1.20639,-1.22329,1.34086
0.770805,-0.550412,1.84198,0.98348,1.20639,-1.22329,1.34086
0.770805,-0.550412,1.84198,0.98348,1.20639,-1.22329,1.34086
0.770805,-0.550412,1.84198,0.98348,1.20639,-1.22329,1.34086
0.770805,-0.550412,1.84198,0.98348,1.20639,-1.22329,1.34086
0.770805,-0.550412,1.84198,0.98348,1.20639,-1.22329,1.34086
0.770805,-0.550412,1.84198,0.98348,1.20639,-1.22329,1.34086
0.770805,-0.550412,1.84198,0.98348,1.20639,-1.22329,1.34086
0.770805,-0.550412,1.84198,0.98348,1.20639,-1.22329,1.34086
0.770805,-0.550412,1.84198,0.98348,1.20639,-1.22329,1.34086
0.770805,-0.550412,1.84198,0.98348,1.20639,-1.22329,1.34086
0.770805,-0.550412,1.84198,0.98348,1.20639,-1.22329,1.34086
0.770805,-0.550412,1.84198,0.98348,1.20639,-1.22329,1.34086
0.770805,-0.550412,1.84198,0.98348,1.20639,-1.22329,1.34086
0.770805,-0.550412,1.84198,0.98348,1.20639,-1.22329,1.34086
0.770805,-0.550412,1.84198,0.98348,1.20639,-1.22329,1.34086
0.770805,-0.550412,1.84198,0.98348,1.20639,-1.22329,1.34086
0.770805,-0.550412,1.84198,0.98348,1.20639,-1.22329,1.34086
0.770805,-0.550412,1.84198,0.98348,1.20639,-1.22329,1.34086
0.770805,-0.550412,1.84198,0.98348,1.20639,-1.22329,1.34086
0.770805,-0.550412,1.84198,0.98348,1.20639,-1.22329,1.34086
0.770805,-0.550412,1.84198,0.98348,1.20639,-1.22329,1.34086
0.770805,-0.550412,1.84198,0.98348,1.20639,-1.22329,1.34086
0.770805,-0.550412,1.84198,0.98348,1.20639,-1.22329,1.34086
0.770805,-0.550412,1.84198,0.98348,1.20639,-1.22329,1.34086
0.770805,-0.550412,1.84198,0.98348,1.20639,-1.22329,1.34086
0.770805,-0.550412,1.84198,0.98348,1.20639,-1.22329,1.34086
0.770805,-0.550412,1.84198,0.98348,1.20639,-1.22329,1.34086
0.770805,-0.550412,1.84198,0.98348,1.20639,-1.22329,1.34086
0.770805,-0.550412,1.84198,0.98348,1.20639,-1.22329,1.34086
0.770805,-0.550412,1.84198,0.98348,1.20639,-1.22329,1.34086
0.770805,-0.550412,1.84198,0.98348,1.20639,-1.22329,1.34086
0.770805,-0.550412,1.84198,0.98348,1.20639,-1.22329,1.34086
0.770805,-0.550412,1.84198,0.98348,1.20639,-1.22329,1.34086
0.770805,-0.550412,1.84198,0.98348,1.20639,-1.22329,1.34086
0.770805,-0.550412,1.84198,0.98348,1.20639,-1.22329,1.34086
0.770805,-0.550412,1.84198,0.98348,1.20639,-1.22329,1.34086
0.770805,-0.550412,1.84198,0.98348,1.20639,-1.22329,1.34086
0.770805,-0.550412,1.84198,0.98348,1.20639,-1.22329,1.34086
0.770805,-0.550412,1.84198,0.98348,1.20639,-1.22329,1.34086
0.770805,-0.550412,1.84198,0.98348,1.20639,-1.22329,1.34086
0.770805,-0.550412,1.84198,0.98348,1.20639,-1.22329,1.34086
0.770805,-0.550412,1.84198,0.98348,1.20639,-1.22329,1.34086
0.770805,-0.550412,1.84198,0.98348,1.20639,-1.22329,1.34086
0.770805,-0.550412,1.84198,0.98348,1.20639,-1.22329,1.34086
0.770805,-0.550412,1.84198,0.98348,1.20639,-1.22329,1.34086
0.770805,-0.550412,1.84198,0.98348,1.20639,-1.22329,1.34086
0.770805,-0.550412,1.84198,0.98348,1.20639,-1.22329,1.34086
0.770805,-0.550412,1.84198,0.98348,1.20639,-1.22329,1.34086
0.770805,-0.550412,1.84198,0.98348,1.20639,-1.22329,1.34086
0.770805,-0.550412,1.84198,0.98348,1.20639,-1.22329,1.34086
0.770805,-0.550412,1.84198,0.98348,1.20639,-1.22329,1.34086
0.770805,-0.550412,1.84198,0.98348,1.20639,-1.22329,1.34086
0.770805,-0.550412,1.84198,0.98348,1.20639,-1.22329,1.34086
0.770805,-0.550412,1.84198,0.98348,1.20639,-1.22329,1.34086
0.770805,-0.550412,1.84198,0.98348,1.20639,-1.22329,1.34086
0.770805,-0.550412,1.84198,0.98348,1.20639,-1.22329,1.34086
0.770805,-0.550412,1.84198,0.98348,1.20639,-1.22329,1.34086
0.770805,-0.550412,1.84198,0.98348,1.20639,-1.22329,1.34086
0.770805,-0.550412,1.84198,0.98348,1.20639,-1.22329,1.34086
0.770805,-0.550412,1.84198,0.98348,1.20639,-1.22329,1.34086
0.770805,-0.550412,1.84198,0.98348,1.20639,-1.22329,1.34086
0.770805,-0.550412,1.84198,0.98348,1.20639,-1.22329,1.34086
0.770805,-0.550412,1.84198,0.98348,1.20639,-1.22329,1.34086
0.770805,-0.550412,1.84198,0.98348,1.20639,-1.22329,1.34086
0.770805,-0.550412,1.84198,0.98348,1.20639,-1.22329,1.34086
0.770805,-0.550412,1.84198,0.98348,1.20639,-1.22329,1.34086
0.770805,-0.550412,1.84198,0.98348,1.20639,-1.22329,1.34086
0.770805,-0.550412,1.84198,0.98348,1.20639,-1.22329,1.34086
0.770805,-0.550412,1.84198,0.98348,1.20639,-1.22329,1.34086
0.770805,-0.550412,1.84198,0.98348,1.20639,-1.22329,1.34086
0.770805,-0.550412,1.84198,0.98348,1.20639,-1.22329,1.34086
0.770805,-0.550412,1.84198,0.98348,1.20639,-1.22329,1.34086
0.770805,-0.550412,1.84198,0.98348,1.20639,-1.22329,1.34086
0.770805,-0.550412,1.84198,0.98348,1.20639,-1.22329,1.34086
0.770805,-0.550412,1.84198,0.98348,1.20639,-1.22329,1.34086
0.770805,-0.550412,1.84198,0.98348,1.20639,-1.22329,1.34086
0.770805,-0.550412,1.84198,0.98348,1.20639,-1.22329,1.34086
0.770805,-0.550412,1.84198,0.98348,1.20639,-1.22329,1.34086
0.770805,-0.550412,1.84198,0.98348,1.20639,-1.22329,1.34086
0.770805,-0.550412,1.84198,0.98348,1.20639,-1.22329,1.34086
0.770805,-0.550412,1.84198,0.98348,1.20639,-1.22329,1.34086
0.770805,-0.550412,1.84198,0.98348,1.20639,-1.22329,1.34086
0.770805,-0.550412,1.84198,0.98348,1.20639,-1.22329,1.34086
0.770805,-0.550412,1.84198,0.98348,1.20639,-1.22329,1.34086
0.770805,-0.550412,1.84198,0.98348,1.20639,-1.22329,1.34086
0.770805,-0.550412,1.84198,0.98348,1.20639,-1.22329,1.34086
0.770805,-0.550412,1.84198,0.98348,1.20639,-1.22329,1.34086
0.770805,-0.550412,1.84198,0.98348,1.20639,-1.22329,1.34086
0.770805,-0.550412,1.84198,0.98348,1.20639,-1.22329,1.34086
0.770805,-0.550412,1.84198,0.98348,1.20639,-1.22329,1.34086
0.770805,-0.550412,1.84198,0.98348,1.20639,-1.22329,1.34086
0.770805,-0.550412,1.84198,0.98348,1.20639,-1.22329,1.34086
0.770805,-0.550412,1.84198,0.98348,1.20639,-1.22329,1.34086
0.770805,-0.550412,1.84198,0.98348,1.20639,-1.22329,1.34086
0.770805,-0.550412,1.84198,0.98348,1.20639,-1.22329,1.34086
0.770805,-0.550412,1.84198,0.98348,1.20639,-1.22329,1.34086
0.770805,-0.550412,1.84198,0.98348,1.20639,-1.22329,1.34086
0.770805,-0.550412,1.84198,0.98348,1.20639,-1.22329,1.34086
0.770805,-0.550412,1.84198,0.98348,1.20639,-1.22329,1.34086
0.770805,-0.550412,1.84198,0.98348,1.20639,-1.22329,1.34086
0.770805,-0.550412,1.84198,0.98348,1.20639,-1.22329,1.34086
0.770805,-0.550412,1.84198,0.98348,1.20639,-1.22329,1.34086
0.770805,-0.550412,1.84198,0.98348,1.20639,-1.22329,1.34086
0.770805,-0.550412,1.84198,0.98348,1.20639,-1.22329,1.34086
0.770805,-0.550412,1.84198,0.98348,1.20639,-1.22329,1.34086
0.770805,-0.550412,1.84198,0.98348,1.20639,-1.22329,1.34086
0.770805,-0.550412,1.84198,0.98348,1.20639,-1.22329,1.34086
0.770805,-0.550412,1.84198,0.98348,1.20639,-1.22329,1.34086
0.770805,-0.550412,1.84198,0.98348,1.20639,-1.22329,1.34086
0.770805,-0.550412,1.84198,0.98348,1.20639,-1.22329,1.34086
0.770805,-0.550412,1.84198,0.98348,1.20639,-1.22329,1.34086
0.770805,-0.550412,1.84198,0.98348,1.20639,-1.22329,1.34086
0.770805,-0.550412,1.84198,0.98348,1.20639,-1.22329,1.34086
0.770805,-0.550412,1.84198,0.98348,1.20639,-1.22329,1.34086
0.770805,-0.550412,1.84198,0.98348,1.20639,-1.22329,1.34086
0.770805,-0.550412,1.84198,0.98348,1.20639,-1.22329,1.34086
0.770805,-0.550412,1.84198,0.98348,1.20639,-1.22329,1.34086
0.770805,-0.550412,1.84198,0.98348,1.20639,-1.22329,1.34086
0.770805,-0.550412,1.84198,0.98348,1.20639,-1.22329,1.34086
0.770805,-0.550412,1.84198,0.98348,1.20639,-1.22329,1.34086
0.770805,-0.550412,1.84198,0.98348,1.20639,-1.22329,1.34086
0.770805,-0.550412,1.84198,0.98348,1.20639,-1.22329,1.34086
0.770805,-0.550412,1.84198,0.98348,1.20639,-1.22329,1.34086
0.770805,-0.550412,1.84198,0.98348,1.20639,-1.22329,1.34086
0.770805,-0.550412,1.84198,0.98348,1.20639,-1.22329,1.34086
0.770805,-0.550412,1.84198,0.98348,1.20639,-1.22329,1.34086
0.770805,-0.550412,1.84198,0.98348,1.20639,-1.22329,1.34086
0.770805,-0.550412,1.84198,0.98348,1.20639,-1.22329,1.34086
0.770805,-0.550412,1.84198,0.98348,1.20639,-1.22329,1.34086
0.770805,-0.550412,1.84198,0.98348,1.20639,-1.22329,1.34086
0.770805,-0.550412,1.84198,0.98348,1.20639,-1.22329,1.34086
0.770805,-0.550412,1.84198,0.98348,1.20639,-1.22329,1.34086
0.770805,-0.550412,1.84198,0.98348,1.20639,-1.22329,1.34086
0.770805,-0.550412,1.84198,0.98348,1.20639,-1.22329,1.34086
0.770805,-0.550412,1.84198,0.98348,1.20639,-1.22329,1.34086
0.770805,-0.550412,1.84198,0.98348,1.20639,-1.22329,1.34086
0.770805,-0.550412,1.84198,0.98348,1.20639,-1.22329,1.34086
0.770805,-0.550412,1.84198,0.98348,1.20639,-1.22329,1.34086
0.770805,-0.550412,1.84198,0.98348,1.20639,-1.22329,1.34086
0.770805,-0.550412,1.84198,0.98348,1.20639,-1.22329,1.34086
0.770805,-0.550412,1.84198,0.98348,1.20639,-1.22329,1.34086
0.770805,-0.550412,1.84198,0.98348,1.20639,-1.22329,1.34086
0.770805,-0.550412,1.84198,0.98348,1.20639,-1.22329,1.34086
0.770805,-0.550412,1.84198,0.98348,1.20639,-1.22329,1.34086
0.770805,-0.550412,1.84198,0.98348,1.20639,-1.22329,1.34086
0.770805,-0.550412,1.84198,0.98348,1.20639,-1.22329,1.34086
0.770805,-0.550412,1.84198,0.98348,1.20639,-1.22329,1.34086
0.770805,-0.550412,1.84198,0.98348,1.20639,-1.22329,1.34086
0.770805,-0.550412,1.84198,0.98348,1.20639,-1.22329,1.34086
0.770805,-0.550412,1.84198,0.98348,1.20639,-1.22329,1.34086
0.770805,-0.550412,1.84198,0.98348,1.20639,-1.22329,1.34086
0.770805,-0.550412,1.84198,0.98348,1.20639,-1.22329,1.34086
0.770805,-0.550412,1.84198,0.98348,1.20639,-1.22329,1.34086
0.770805,-0.550412,1.84198,0.98348,1.20639,-1.22329,1.34086
0.770805,-0.550412,1.84198,0.98348,1.20639,-1.22329,1.34086
0.770805,-0.550412,1.84198,0.98348,1.20639,-1.22329,1.34086
0.770805,-0.550412,1.84198,0.98348,1.20639,-1.22329,1.34086
0.770805,-0.550412,1.84198,0.98348,1.20639,-1.22329,1.34086
0.770805,-0.550412,1.84198,0.98348,1.20639,-1.22329,1.34086
0.770805,-0.550412,1.84198,0.98348,1.20639,-1.22329,1.34086
0.770805,-0.550412,1.84198,0.98348,1.20639,-1.22329,1.34086
0.770805,-0.550412,1.84198,0.98348,1.20639,-1.22329,1.34086
0.770805,-0.550412,1.84198,0.98348,1.20639,-1.22329,1.34086
0.770805,-0.550412,1.84198,0.98348,1.20639,-1.22329,1.34086
0.770805,-0.550412,1.84198,0.98348,1.20639,-1.22329,1.34086
0.770805,-0.550412,1.84198,0.98348,1.20639,-1.22329,1.34086
0.770805,-0.550412,1.84198,0.98348,1.20639,-1.22329,1.34086
0.770805,-0.550412,1.84198,0.98348,1.20639,-1.22329,1.34086
0.770805,-0.550412,1.84198,0.98348,1.20639,-1.22329,1.34086
0.770805,-0.550412,1.84198,0.98348,1.20639,-1.22329,1.34086
0.770805,-0.550412,1.84198,0.98348,1.20639,-1.22329,1.34086
0.770805,-0.550412,1.84198,0.98348,1.20639,-1.22329,1.34086
0.770805,-0.550412,1.84198,0.98348,1.20639,-1.22329,1.34086
0.770805,-0.550412,1.84198,0.98348,1.20639,-1.22329,1.34086
0.770805,-0.550412,1.84198,0.98348,1.20639,-1.22329,1.34086
0.770805,-0.550412,1.84198,0.98348,1.20639,-1.22329,1.34086
0.770805,-0.550412,1.84198,0.98348,1.20639,-1.22329,1.34086
0.770805,-0.550412,1.84198,0.98348,1.20639,-1.22329,1.34086
0.770805,-0.550412,1.84198,0.98348,1.20639,-1.22329,1.34086
0.770805,-0.550412,1.84198,0.98348,1.20639,-1.22329,1.34086
0.770805,-0.550412,1.84198,0.98348,1.20639,-1.22329,1.34086
0.770805,-0.550412,1.84198,0.98348,1.20639,-1.22329,1.34086
0.770805,-0.550412,1.84198,0.98348,1.20639,-1.22329,1.34086
0.770805,-0.550412,1.84198,0.98348,1.20639,-1.22329,1.34086
0.770805,-0.550412,1.84198,0.98348,1.20639,-1.22329,1.34086
0.770805,-0.550412,1.84198,0.98348,1.20639,-1.22329,1.34086
0.770805,-0.550412,1.84198,0.98348,1.20639,-1.22329,1.34086
0.770805,-0.550412,1.84198,0.98348,1.20639,-1.22329,1.34086
0.770805,-0.550412,1.84198,0.98348,1.20639,-1.22329,1.34086
0.770805,-0.550412,1.84198,0.98348,1.20639,-1.22329,1.34086
0.770805,-0.550412,1.84198,0.98348,1.20639,-1.22329,1.34086
0.770805,-0.550412,1.84198,0.98348,1.20639,-1.22329,1.34086
0.770805,-0.550412,1.84198,0.98348,1.20639,-1.22329,1.34086
0.770805,-0.550412,1.84198,0.98348,1.20639,-1.22329,1.34086
0.770805,-0.550412,1.84198,0.98348,1.20639,-1.22329,1.34086
0.770805,-0.550412,1.84198,0.98348,1.20639,-1.22329,1.34086
0.770805,-0.550412,1.84198,0.98348,1.20639,-1.22329,1.34086
0.770805,-0.550412,1.84198,0.98348,1.20639,-1.22329,1.34086
0.770805,-0.550412,1.84198,0.98348,1.20639,-1.22329,1.34086
0.770805,-0.550412,1.84198,0.98348,1.20639,-1.22329,1.34086
0.770805,-0.550412,1.84198,0.98348,1.20639,-1.22329,1.34086
0.770805,-0.550412,1.84198,0.98348,1.20639,-1.22329,1.34086
0.770805,-0.550412,1.84198,0.98348,1.20639,-1.22329,1.34086
0.770805,-0.550412,1.84198,0.98348,1.20639,-1.22329,1.34086
0.770805,-0.550412,1.84198,0.98348,1.20639,-1.22329,1.34086
0.770805,-0.550412,1.84198,0.98348,1.20639,-1.22329,1.34086
0.770805,-0.550412,1.84198,0.98348,1.20639,-1.22329,1.34086
0.770805,-0.550412,1.84198,0.98348,1.20639,-1.22329,1.34086
0.770805,-0.550412,1.84198,0.98348,1.20639,-1.22329,1.34086
0.770805,-0.550412,1.84198,0.98348,1.20639,-1.22329,1.34086
0.770805,-0.550412,1.84198,0.98348,1.20639,-1.22329,1.34086
0.770805,-0.550412,1.84198,0.98348,1.20639,-1.22329,1.34086
0.770805,-0.550412,1.84198,0.98348,1.20639,-1.22329,1.34086
0.770805,-0.550412,1.84198,0.98348,1.20639,-1.22329,1.34086
0.770805,-0.550412,1.84198,0.98348,1.20639,-1.22329,1.34086
0.770805,-0.550412,1.84198,0.98348,1.20639,-1.22329,1.34086
0.770805,-0.550412,1.84198,0.98348,1.20639,-1.22329,1.34086
0.770805,-0.550412,1.84198,0.98348,1.20639,-1.22329,1.34086
0.770805,-0.550412,1.84198,0.98348,1.20639,-1.22329,1.34086
0.770805,-0.550412,1.84198,0.98348,1.20639,-1.22329,1.34086
0.770805,-0.550412,1.84198,0.98348,1.20639,-1.22329,1.34086
0.770805,-0.550412,1.84198,0.98348,1.20639,-1.22329,1.34086
0.770805,-0.550412,1.84198,0.98348,1.20639,-1.22329,1.34086
0.770805,-0.550412,1.84198,0.98348,1.20639,-1.22329,1.34086
0.770805,-0.550412,1.84198,0.98348,1.20639,-1.22329,1.34086
0.770805,-0.550412,1.84198,0.98348,1.20639,-1.22329,1.34086
0.770805,-0.550412,1.84198,0.98348,1.20639,-1.22329,1.34086
0.770805,-0.550412,1.84198,0.98348,1.20639,-1.22329,1.34086
0.770805,-0.550412,1.84198,0.98348,1.20639,-1.22329,1.34086
0.770805,-0.550412,1.84198,0.98348,1.20639,-1.22329,1.34086
0.770805,-0.550412,1.84198,0.98348,1.20639,-1.22329,1.34086
0.770805,-0.550412,1.84198,0.98348,1.20639,-1.22329,1.34086
0.770805,-0.550412,1.84198,0.98348,1.20639,-1.22329,1.34086
0.770805,-0.550412,1.84198,0.98348,1.20639,-1.22329,1.34086
0.770805,-0.550412,1.84198,0.98348,1.20639,-1.22329,1.34086
0.770805,-0.550412,1.84198,0.98348,1.20639,-1.22329,1.34086
0.770805,-0.550412,1.84198,0.98348,1.20639,-1.22329,1.34086
0.770805,-0.550412,1.84198,0.98348,1.20639,-1.22329,1.34086
0.770805,-0.550412,1.84198,0.98348,1.20639,-1.22329,1.34086
0.770805,-0.550412,1.84198,0.98348,1.20639,-1.22329,1.34086
0.770805,-0.550412,1.84198,0.98348,1.20639,-1.22329,1.34086
0.770805,-0.550412,1.84198,0.98348,1.20639,-1.22329,1.34086
0.770805,-0.550412,1.84198,0.98348,1.20639,-1.22329,1.34086
0.770805,-0.550412,1.84198,0.98348,1.20639,-1.22329,1.34086
0.770805,-0.550412,1.84198,0.98348,1.20639,-1.22329,1.34086
0.770805,-0.550412,1.84198,0.98348,1.20639,-1.22329,1.34086
0.770805,-0.550412,1.84198,0.98348,1.20639,-1.22329,1.34086
0.770805,-0.550412,1.84198,0.98348,1.20639,-1.22329,1.34086
0.770805,-0.550412,1.84198,0.98348,1.20639,-1.22329,1.34086
0.770805,-0.550412,1.84198,0.98348,1.20639,-1.22329,1.34086
0.770805,-0.550412,1.84198,0.98348,1.20639,-1.22329,1.34086
0.770805,-0.550412,1.84198,0.98348,1.20639,-1.22329,1.34086
0.770805,-0.550412,1.84198,0.98348,1.20639,-1.22329,1.34086
0.770805,-0.550412,1.84198,0.98348,1.20639,-1.22329,1.34086
0.770805,-0.550412,1.84198,0.98348,1.20639,-1.22329,1.34086
0.770805,-0.550412,1.84198,0.98348,1.20639,-1.22329,1.34086
0.770805,-0.550412,1.84198,0.98348,1.20639,-1.22329,1.34086
0.770805,-0.550412,1.84198,0.98348,1.20639,-1.22329,1.34086
0.770805,-0.550412,1.84198,0.98348,1.20639,-1.22329,1.34086
0.770805,-0.550412,1.84198,0.98348,1.20639,-1.22329,1.34086
0.770805,-0.550412,1.84198,0.98348,1.20639,-1.22329,1.34086
0.770805,-0.550412,1.84198,0.98348,1.20639,-1.22329,1.34086
0.770805,-0.550412,1.84198,0.98348,1.20639,-1.22329,1.34086
0.770805,-0.550412,1.84198,0.98348,1.20639,-1.22329,1.34086
0.770805,-0.550412,1.84198,0.98348,1.20639,-1.22329,1.34086
0.770805,-0.550412,1.84198,0.98348,1.20639,-1.22329,1.34086
0.770805,-0.550412,1.84198,0.98348,1.20639,-1.22329,1.34086
0.770805,-0.550412,1.84198,0.98348,1.20639,-1.22329,1.34086
0.770805,-0.550412,1.84198,0.98348,1.20639,-1.22329,1.34086
0.770805,-0.550412,1.84198,0.98348,1.20639,-1.22329,1.34086
0.770805,-0.550412,1.84198,0.98348,1.20639,-1.22329,1.34086
0.770805,-0.550412,1.84198,0.98348,1.20639,-1.22329,1.34086
0.770805,-0.550412,1.84198,0.98348,1.20639,-1.22329,1.34086
0.770805,-0.550412,1.84198,0.98348,1.20639,-1.22329,1.34086
0.770805,-0.550412,1.84198,0.98348,1.20639,-1.22329,1.34086
0.770805,-0.550412,1.84198,0.98348,1.20639,-1.22329,1.34086
0.770805,-0.550412,1.84198,0.98348,1.20639,-1.22329,1.34086
0.770805,-0.550412,1.84198,0.98348,1.20639,-1.22329,1.34086
0.770805,-0.550412,1.84198,0.98348,1.20639,-1.22329,1.34086
0.770805,-0.550412,1.84198,0.98348,1.20639,-1.22329,1.34086
0.770805,-0.550412,1.84198,0.98348,1.20639,-1.22329,1.34086
0.770805,-0.550412,1.84198,0.98348,1.20639,-1.22329,1.34086
0.770805,-0.550412,1.84198,0.98348,1.20639,-1.22329,1.34086
0.770805,-0.550412,1.84198,0.98348,1.20639,-1.22329,1.34086
0.770805,-0.550412,1.84198,0.98348,1.20639,-1.22329,1.34086
0.770805,-0.550412,1.84198,0.98348,1.20639,-1.22329,1.34086
0.770805,-0.550412,1.84198,0.98348,1.20639,-1.22329,1.34086
0.770805,-0.550412,1.84198,0.98348,1.20639,-1.22329,1.34086
0.770805,-0.550412,1.84198,0.98348,1.20639,-1.22329,1.34086
0.770805,-0.550412,1.84198,0.98348,1.20639,-1.22329,1.34086
0.770805,-0.550412,1.84198,0.98348,1.20639,-1.22329,1.34086
0.770805,-0.550412,1.84198,0.98348,1.20639,-1.22329,1.34086
0.770805,-0.550412,1.84198,0.98348,1.20639,-1.22329,1.34086
0.770805,-0.550412,1.84198,0.98348,1.20639,-1.22329,1.34086
0.770805,-0.550412,1.84198,0.98348,1.20639,-1.22329,1.34086
0.770805,-0.550412,1.84198,0.98348,1.20639,-1.22329,1.34086
0.770805,-0.550412,1.84198,0.98348,1.20639,-1.22329,1.34086
0.770805,-0.550412,1.84198,0.98348,1.20639,-1.22329,1.34086
0.770805,-0.550412,1.84198,0.98348,1.20639,-1.22329,1.34086
0.770805,-0.550412,1.84198,0.98348,1.20639,-1.22329,1.34086
0.770805,-0.550412,1.84198,0.98348,1.20639,-1.22329,1.34086
0.770805,-0.550412,1.84198,0.98348,1.20639,-1.22329,1.34086
0.770805,-0.550412,1.84198,0.98348,1.20639,-1.22329,1.34086
0.770805,-0.550412,1.84198,0.98348,1.20639,-1.22329,1.34086
0.770805,-0.550412,1.84198,0.98348,1.20639,-1.22329,1.34086
0.770805,-0.550412,1.84198,0.98348,1.20639,-1.22329,1.34086
0.770805,-0.550412,1.84198,0.98348,1.20639,-1.22329,1.34086
0.770805,-0.550412,1.84198,0.98348,1.20639,-1.22329,1.34086
0.770805,-0.550412,1.84198,0.98348,1.20639,-1.22329,1.34086
0.770805,-0.550412,1.84198,0.98348,1.20639,-1.22329,1.34086
0.770805,-0.550412,1.84198,0.98348,1.20639,-1.22329,1.34086
0.770805,-0.550412,1.84198,0.98348,1.20639,-1.22329,1.34086
0.770805,-0.550412,1.84198,0.98348,1.20639,-1.22329,1.34086
0.770805,-0.550412,1.84198,0.98348,1.20639,-1.22329,1.34086
0.770805,-0.550412,1.84198,0.98348,1.20639,-1.22329,1.34086
0.770805,-0.550412,1.84198,0.98348,1.20639,-1.22329,1.34086
0.770805,-0.550412,1.84198,0.98348,1.20639,-1.22329,1.34086
0.770805,-0.550412,1.84198,0.98348,1.20639,-1.22329,1.34086
0.770805,-0.550412,1.84198,0.98348,1.20639,-1.22329,1.34086
0.770805,-0.550412,1.84198,0.98348,1.20639,-1.22329,1.34086
0.770805,-0.550412,1.84198,0.98348,1.20639,-1.22329,1.34086
0.770805,-0.550412,1.84198,0.98348,1.20639,-1.22329,1.34086
0.770805,-0.550412,1.84198,0.98348,1.20639,-1.22329,1.34086
