Afshin1997/kuka_rl_ros2/src/catch_and_throw/output_files/tm/idealpd/tm_received_joint_target_np.csv
joint_0,joint_1,joint_2,joint_3,joint_4,joint_5,joint_6
8.703855276107788086e-01,-1.122543364763259888e-01,1.385511159896850586e+00,1.351405143737792969e+00,1.590435743331909180e+00,-1.009970664978027344e+00,1.636894583702087402e+00
8.704075217247009277e-01,-1.122663170099258423e-01,1.385540127754211426e+00,1.352111935615539551e+00,1.590523481369018555e+00,-1.010023474693298340e+00,1.649001002311706543e+00
8.704057335853576660e-01,-1.122651174664497375e-01,1.385537743568420410e+00,1.352081537246704102e+00,1.590518712997436523e+00,-1.010022044181823730e+00,1.650045633316040039e+00
8.704044818878173828e-01,-1.122646778821945190e-01,1.385536670684814453e+00,1.352062821388244629e+00,1.590517640113830566e+00,-1.010021448135375977e+00,1.650150895118713379e+00
8.704031705856323242e-01,-1.122642531991004944e-01,1.385535597801208496e+00,1.352045297622680664e+00,1.590516805648803711e+00,-1.010020971298217773e+00,1.650192141532897949e+00
8.703979849815368652e-01,-1.122646033763885498e-01,1.385521650314331055e+00,1.352015018463134766e+00,1.590512990951538086e+00,-1.010006785392761230e+00,1.650207161903381348e+00
8.703681230545043945e-01,-1.122647523880004883e-01,1.385431408882141113e+00,1.351885199546813965e+00,1.590482354164123535e+00,-1.009933590888977051e+00,1.650067090988159180e+00
8.703333735466003418e-01,-1.122409254312515259e-01,1.385331034660339355e+00,1.351646304130554199e+00,1.590444207191467285e+00,-1.009889602661132812e+00,1.649848580360412598e+00
8.703342676162719727e-01,-1.121658235788345337e-01,1.385377645492553711e+00,1.351446986198425293e+00,1.590469479560852051e+00,-1.010033726692199707e+00,1.649804353713989258e+00
8.703666925430297852e-01,-1.120231896638870239e-01,1.385694146156311035e+00,1.351394653320312500e+00,1.590634465217590332e+00,-1.010532617568969727e+00,1.650192379951477051e+00
8.703796863555908203e-01,-1.118600517511367798e-01,1.386372447013854980e+00,1.351584434509277344e+00,1.591118693351745605e+00,-1.011706352233886719e+00,1.651307463645935059e+00
8.703223466873168945e-01,-1.117365956306457520e-01,1.387469768524169922e+00,1.352087020874023438e+00,1.592024445533752441e+00,-1.013711690902709961e+00,1.653379797935485840e+00
8.701744675636291504e-01,-1.117053702473640442e-01,1.389012336730957031e+00,1.353006482124328613e+00,1.593348383903503418e+00,-1.016518831253051758e+00,1.656432271003723145e+00
8.699354529380798340e-01,-1.118277162313461304e-01,1.390968084335327148e+00,1.354460120201110840e+00,1.595045328140258789e+00,-1.019945740699768066e+00,1.660307407379150391e+00
8.696557283401489258e-01,-1.121457070112228394e-01,1.393328785896301270e+00,1.356374621391296387e+00,1.596979141235351562e+00,-1.023739099502563477e+00,1.664681792259216309e+00
8.693857192993164062e-01,-1.126541793346405029e-01,1.396014451980590820e+00,1.358664989471435547e+00,1.599006891250610352e+00,-1.027646422386169434e+00,1.669197678565979004e+00
8.691417574882507324e-01,-1.133612692356109619e-01,1.398879289627075195e+00,1.361264824867248535e+00,1.601068377494812012e+00,-1.031558990478515625e+00,1.673697590827941895e+00
8.689463734626770020e-01,-1.142467632889747620e-01,1.401827812194824219e+00,1.364044547080993652e+00,1.603169798851013184e+00,-1.035502552986145020e+00,1.678176403045654297e+00
8.688586354255676270e-01,-1.152480617165565491e-01,1.404838919639587402e+00,1.366849780082702637e+00,1.605298161506652832e+00,-1.039553046226501465e+00,1.682677149772644043e+00
8.689211606979370117e-01,-1.163027659058570862e-01,1.407963871955871582e+00,1.369564771652221680e+00,1.607462525367736816e+00,-1.043678402900695801e+00,1.687228441238403320e+00
8.691241741180419922e-01,-1.173842251300811768e-01,1.411166787147521973e+00,1.372206807136535645e+00,1.609656333923339844e+00,-1.047942042350769043e+00,1.691856861114501953e+00
8.694442510604858398e-01,-1.184959709644317627e-01,1.414389610290527344e+00,1.374807119369506836e+00,1.611869215965270996e+00,-1.052349209785461426e+00,1.696573019027709961e+00
8.699004650115966797e-01,-1.196783035993576050e-01,1.417623400688171387e+00,1.377305269241333008e+00,1.614139318466186523e+00,-1.056800603866577148e+00,1.701354384422302246e+00
8.705137968063354492e-01,-1.209570765495300293e-01,1.420907020568847656e+00,1.379399538040161133e+00,1.616442322731018066e+00,-1.061343193054199219e+00,1.706190824508666992e+00
8.713213801383972168e-01,-1.223551481962203979e-01,1.424299359321594238e+00,1.380191922187805176e+00,1.618785142898559570e+00,-1.065945744514465332e+00,1.711117029190063477e+00
8.723217844963073730e-01,-1.238987594842910767e-01,1.427781343460083008e+00,1.377335906028747559e+00,1.621162414550781250e+00,-1.070645451545715332e+00,1.716125369071960449e+00
8.734533786773681641e-01,-1.256110221147537231e-01,1.431253552436828613e+00,1.344033479690551758e+00,1.623574852943420410e+00,-1.075406908988952637e+00,1.721191167831420898e+00
8.746685981750488281e-01,-1.274871528148651123e-01,1.434671878814697266e+00,1.313338994979858398e+00,1.625985860824584961e+00,-1.080214619636535645e+00,1.726331710815429688e+00
8.759670853614807129e-01,-1.295348107814788818e-01,1.438070893287658691e+00,1.314339518547058105e+00,1.628438711166381836e+00,-1.085053801536560059e+00,1.731511950492858887e+00
8.773602247238159180e-01,-1.317217648029327393e-01,1.441525101661682129e+00,1.317177891731262207e+00,1.630935907363891602e+00,-1.089957714080810547e+00,1.736738681793212891e+00
8.788717389106750488e-01,-1.339921355247497559e-01,1.445077061653137207e+00,1.319700479507446289e+00,1.633482694625854492e+00,-1.094969511032104492e+00,1.742014527320861816e+00
8.805068731307983398e-01,-1.362545490264892578e-01,1.448728799819946289e+00,1.321826457977294922e+00,1.636021018028259277e+00,-1.100060701370239258e+00,1.747336983680725098e+00
8.822444677352905273e-01,-1.384471952915191650e-01,1.452435135841369629e+00,1.323602676391601562e+00,1.638548254966735840e+00,-1.105180382728576660e+00,1.752715349197387695e+00
8.840745687484741211e-01,-1.406072676181793213e-01,1.456172227859497070e+00,1.324887752532958984e+00,1.641064643859863281e+00,-1.110389590263366699e+00,1.758145451545715332e+00
8.860012888908386230e-01,-1.427909731864929199e-01,1.459953427314758301e+00,1.325533509254455566e+00,1.643550992012023926e+00,-1.115658640861511230e+00,1.763614892959594727e+00
8.880603909492492676e-01,-1.450413614511489868e-01,1.463808298110961914e+00,1.325513601303100586e+00,1.646041870117187500e+00,-1.120967388153076172e+00,1.769142270088195801e+00
8.902841806411743164e-01,-1.473978757858276367e-01,1.467748284339904785e+00,1.324929594993591309e+00,1.648486733436584473e+00,-1.126309394836425781e+00,1.774752616882324219e+00
8.926599025726318359e-01,-1.498903930187225342e-01,1.471731066703796387e+00,1.323864817619323730e+00,1.650923252105712891e+00,-1.131688356399536133e+00,1.780410528182983398e+00
8.951146602630615234e-01,-1.525092124938964844e-01,1.475664377212524414e+00,1.322445869445800781e+00,1.653352499008178711e+00,-1.137073040008544922e+00,1.786110043525695801e+00
8.975873589515686035e-01,-1.551859676837921143e-01,1.479471921920776367e+00,1.320853233337402344e+00,1.655755400657653809e+00,-1.142353534698486328e+00,1.791868686676025391e+00
9.001204371452331543e-01,-1.578695625066757202e-01,1.483258724212646484e+00,1.319030284881591797e+00,1.658163785934448242e+00,-1.147634506225585938e+00,1.797702431678771973e+00
9.028195738792419434e-01,-1.605158597230911255e-01,1.487249851226806641e+00,1.316977620124816895e+00,1.660574197769165039e+00,-1.152955293655395508e+00,1.803624033927917480e+00
9.056971073150634766e-01,-1.630935519933700562e-01,1.491467595100402832e+00,1.314977765083312988e+00,1.662992477416992188e+00,-1.158300757408142090e+00,1.809602975845336914e+00
9.086422920227050781e-01,-1.656231582164764404e-01,1.495763659477233887e+00,1.313217639923095703e+00,1.665444254875183105e+00,-1.163620352745056152e+00,1.815627574920654297e+00
9.115155339241027832e-01,-1.681482493877410889e-01,1.499957442283630371e+00,1.311707258224487305e+00,1.667919516563415527e+00,-1.168968796730041504e+00,1.821661829948425293e+00
9.142814278602600098e-01,-1.707327365875244141e-01,1.504072189331054688e+00,1.310258030891418457e+00,1.670438170433044434e+00,-1.174389958381652832e+00,1.827732443809509277e+00
9.169904589653015137e-01,-1.733666509389877319e-01,1.508248686790466309e+00,1.308680415153503418e+00,1.672995924949645996e+00,-1.179871082305908203e+00,1.833865642547607422e+00
9.196820855140686035e-01,-1.759867668151855469e-01,1.512570500373840332e+00,1.306851148605346680e+00,1.675542593002319336e+00,-1.185467600822448730e+00,1.840041637420654297e+00
9.223392605781555176e-01,-1.786077171564102173e-01,1.517025232315063477e+00,1.304782509803771973e+00,1.678131341934204102e+00,-1.191221117973327637e+00,1.846255540847778320e+00
9.249231219291687012e-01,-1.812560409307479858e-01,1.521537542343139648e+00,1.302545666694641113e+00,1.680711984634399414e+00,-1.197102427482604980e+00,1.852516174316406250e+00
9.274503588676452637e-01,-1.838950216770172119e-01,1.526125073432922363e+00,1.300040960311889648e+00,1.683311820030212402e+00,-1.203051209449768066e+00,1.858815908432006836e+00
9.299501776695251465e-01,-1.865300387144088745e-01,1.530775189399719238e+00,1.297236204147338867e+00,1.685940027236938477e+00,-1.209156513214111328e+00,1.865149259567260742e+00
9.324030280113220215e-01,-1.891765743494033813e-01,1.535430669784545898e+00,1.294238686561584473e+00,1.688567996025085449e+00,-1.215323805809020996e+00,1.871524333953857422e+00
9.347771406173706055e-01,-1.918702721595764160e-01,1.540017604827880859e+00,1.291165113449096680e+00,1.691242694854736328e+00,-1.221502423286437988e+00,1.877941727638244629e+00
9.371178746223449707e-01,-1.946000456809997559e-01,1.544591426849365234e+00,1.287902355194091797e+00,1.693919301033020020e+00,-1.227745413780212402e+00,1.884396672248840332e+00
9.395341277122497559e-01,-1.973231136798858643e-01,1.549285292625427246e+00,1.284376382827758789e+00,1.696630358695983887e+00,-1.234059333801269531e+00,1.890928268432617188e+00
9.420587420463562012e-01,-2.000624835491180420e-01,1.554123282432556152e+00,1.280828952789306641e+00,1.699343562126159668e+00,-1.240424275398254395e+00,1.897519230842590332e+00
9.446170926094055176e-01,-2.028226852416992188e-01,1.558943748474121094e+00,1.277513384819030762e+00,1.702055931091308594e+00,-1.246790289878845215e+00,1.904131054878234863e+00
9.471603631973266602e-01,-2.056110948324203491e-01,1.563669443130493164e+00,1.274339556694030762e+00,1.704799294471740723e+00,-1.253234624862670898e+00,1.910771250724792480e+00
9.497407674789428711e-01,-2.084569633007049561e-01,1.568410038948059082e+00,1.271108984947204590e+00,1.707532286643981934e+00,-1.259698629379272461e+00,1.917448639869689941e+00
9.523949027061462402e-01,-2.113562822341918945e-01,1.573233246803283691e+00,1.267712473869323730e+00,1.710313796997070312e+00,-1.266174197196960449e+00,1.924149394035339355e+00
9.550470709800720215e-01,-2.142782360315322876e-01,1.578049659729003906e+00,1.264239668846130371e+00,1.713093757629394531e+00,-1.272775053977966309e+00,1.930890083312988281e+00
9.576644301414489746e-01,-2.171845734119415283e-01,1.582811117172241211e+00,1.260739684104919434e+00,1.715902328491210938e+00,-1.279316663742065430e+00,1.937666177749633789e+00
9.603307247161865234e-01,-2.200608998537063599e-01,1.587657094001770020e+00,1.257085323333740234e+00,1.718723177909851074e+00,-1.285936236381530762e+00,1.944501996040344238e+00
9.631002545356750488e-01,-2.228426933288574219e-01,1.592643976211547852e+00,1.253300070762634277e+00,1.721549630165100098e+00,-1.292632222175598145e+00,1.951386332511901855e+00
9.659268856048583984e-01,-2.255743741989135742e-01,1.597672700881958008e+00,1.249539256095886230e+00,1.724385619163513184e+00,-1.299314260482788086e+00,1.958289623260498047e+00
9.687584638595581055e-01,-2.283364534378051758e-01,1.602648258209228516e+00,1.245785236358642578e+00,1.727257132530212402e+00,-1.306014180183410645e+00,1.965206146240234375e+00
9.716095924377441406e-01,-2.311497330665588379e-01,1.607595562934875488e+00,1.241962552070617676e+00,1.730137228965759277e+00,-1.312771081924438477e+00,1.972170591354370117e+00
9.745022654533386230e-01,-2.339547574520111084e-01,1.612557530403137207e+00,1.238107800483703613e+00,1.733044266700744629e+00,-1.319503664970397949e+00,1.979175090789794922e+00
9.774140119552612305e-01,-2.367095053195953369e-01,1.617481350898742676e+00,1.234292387962341309e+00,1.735941171646118164e+00,-1.326233267784118652e+00,1.986197948455810547e+00
9.803480505943298340e-01,-2.394387423992156982e-01,1.622398018836975098e+00,1.230520367622375488e+00,1.738850831985473633e+00,-1.333020687103271484e+00,1.993267774581909180e+00
9.833751320838928223e-01,-2.421183586120605469e-01,1.627428770065307617e+00,1.226608037948608398e+00,1.741801261901855469e+00,-1.339778542518615723e+00,2.000367879867553711e+00
9.865056276321411133e-01,-2.447419315576553345e-01,1.632585525512695312e+00,1.222574114799499512e+00,1.744735956192016602e+00,-1.346593379974365234e+00,2.007503271102905273e+00
9.896532297134399414e-01,-2.473641186952590942e-01,1.637707948684692383e+00,1.218715667724609375e+00,1.747688651084899902e+00,-1.353437662124633789e+00,2.014674425125122070e+00
9.927549958229064941e-01,-2.500880658626556396e-01,1.642691135406494141e+00,1.215008616447448730e+00,1.750654578208923340e+00,-1.360244870185852051e+00,2.021847724914550781e+00
9.958140254020690918e-01,-2.528759241104125977e-01,1.647597908973693848e+00,1.211251735687255859e+00,1.753638148307800293e+00,-1.367101192474365234e+00,2.029059886932373047e+00
9.988843798637390137e-01,-2.556564211845397949e-01,1.652578473091125488e+00,1.207283973693847656e+00,1.756620645523071289e+00,-1.374014496803283691e+00,2.036309480667114258e+00
1.001998901367187500e+00,-2.584293782711029053e-01,1.657700061798095703e+00,1.203160405158996582e+00,1.759632706642150879e+00,-1.380922555923461914e+00,2.043596029281616211e+00
1.005126953125000000e+00,-2.611308991909027100e-01,1.662923574447631836e+00,1.199034690856933594e+00,1.762641310691833496e+00,-1.387939929962158203e+00,2.050928115844726562e+00
1.008260488510131836e+00,-2.637639045715332031e-01,1.668187141418457031e+00,1.194892048835754395e+00,1.765664577484130859e+00,-1.394997954368591309e+00,2.058278560638427734e+00
1.011363744735717773e+00,-2.663951814174652100e-01,1.673396348953247070e+00,1.190735459327697754e+00,1.768695354461669922e+00,-1.402031779289245605e+00,2.065642356872558594e+00
1.014335989952087402e+00,-2.690781950950622559e-01,1.678380846977233887e+00,1.186565041542053223e+00,1.771765112876892090e+00,-1.409151792526245117e+00,2.073026895523071289e+00
1.017223477363586426e+00,-2.718577086925506592e-01,1.683214068412780762e+00,1.182252764701843262e+00,1.774870038032531738e+00,-1.416280627250671387e+00,2.080432653427124023e+00
1.020150542259216309e+00,-2.746288776397705078e-01,1.688268661499023438e+00,1.177694201469421387e+00,1.777968764305114746e+00,-1.423473715782165527e+00,2.087907075881958008e+00
1.023137807846069336e+00,-2.773123681545257568e-01,1.693377971649169922e+00,1.173066616058349609e+00,1.781075119972229004e+00,-1.430777430534362793e+00,2.095414161682128906e+00
1.026119232177734375e+00,-2.799487709999084473e-01,1.697913765907287598e+00,1.168501615524291992e+00,1.784193754196166992e+00,-1.438038706779479980e+00,2.102923393249511719e+00
1.029062986373901367e+00,-2.825665473937988281e-01,1.700000047683715820e+00,1.163860440254211426e+00,1.787351131439208984e+00,-1.445339202880859375e+00,2.110458135604858398e+00
1.031957983970642090e+00,-2.851588129997253418e-01,1.657434225082397461e+00,1.159128189086914062e+00,1.790511608123779297e+00,-1.452694654464721680e+00,2.118030548095703125e+00
1.034652829170227051e+00,-2.877201139926910400e-01,1.649475097656250000e+00,1.153939962387084961e+00,1.793628096580505371e+00,-1.459548115730285645e+00,2.125800132751464844e+00
1.037417054176330566e+00,-2.903502583503723145e-01,1.654529452323913574e+00,1.149146437644958496e+00,1.796814084053039551e+00,-1.466716408729553223e+00,2.133470535278320312e+00
1.040309309959411621e+00,-2.929903268814086914e-01,1.659852504730224609e+00,1.144332289695739746e+00,1.800029039382934570e+00,-1.474035859107971191e+00,2.141111373901367188e+00
1.043236136436462402e+00,-2.955975830554962158e-01,1.665049433708190918e+00,1.139527559280395508e+00,1.803253054618835449e+00,-1.481393694877624512e+00,2.148775100708007812e+00
1.046104192733764648e+00,-2.982333898544311523e-01,1.669760823249816895e+00,1.134913802146911621e+00,1.806491374969482422e+00,-1.488801479339599609e+00,2.156435251235961914e+00
1.048965215682983398e+00,-3.008848428726196289e-01,1.673855662345886230e+00,1.130340456962585449e+00,1.809753298759460449e+00,-1.496135711669921875e+00,2.164099931716918945e+00
1.051825642585754395e+00,-3.035488426685333252e-01,1.677281141281127930e+00,1.125709891319274902e+00,1.813032507896423340e+00,-1.503516793251037598e+00,2.171795368194580078e+00
1.054500102996826172e+00,-3.061771392822265625e-01,1.679903149604797363e+00,1.121240496635437012e+00,1.816323518753051758e+00,-1.510921478271484375e+00,2.179505586624145508e+00
1.056600570678710938e+00,-3.086063265800476074e-01,1.681623578071594238e+00,1.116877794265747070e+00,1.819586038589477539e+00,-1.518341064453125000e+00,2.187228441238403320e+00
1.056205749511718750e+00,-3.107883930206298828e-01,1.682534813880920410e+00,1.112440228462219238e+00,1.822858929634094238e+00,-1.525874972343444824e+00,2.194967508316040039e+00
1.009906411170959473e+00,-3.127499222755432129e-01,1.682765245437622070e+00,1.107862830162048340e+00,1.826140999794006348e+00,-1.533347964286804199e+00,2.202705621719360352e+00
1.004567265510559082e+00,-3.142677843570709229e-01,1.682208538055419922e+00,1.101959109306335449e+00,1.829426646232604980e+00,-1.539977431297302246e+00,2.210073232650756836e+00
1.008327603340148926e+00,-3.156413733959197998e-01,1.681131362915039062e+00,1.097088694572448730e+00,1.832703232765197754e+00,-1.546821236610412598e+00,2.217751979827880859e+00
1.012163400650024414e+00,-3.169058859348297119e-01,1.679801344871520996e+00,1.092330694198608398e+00,1.835996866226196289e+00,-1.553659915924072266e+00,2.225606679916381836e+00
1.015946745872497559e+00,-3.180215060710906982e-01,1.678486108779907227e+00,1.087242007255554199e+00,1.839293599128723145e+00,-1.560187101364135742e+00,2.233516454696655273e+00
1.019612908363342285e+00,-3.190817832946777344e-01,1.677338600158691406e+00,1.082095384597778320e+00,1.842605710029602051e+00,-1.565743803977966309e+00,2.241484642028808594e+00
1.023073673248291016e+00,-3.201271593570709229e-01,1.676417112350463867e+00,1.077265501022338867e+00,1.845926523208618164e+00,-1.568050265312194824e+00,2.249490737915039062e+00
1.026211023330688477e+00,-3.211678266525268555e-01,1.675661802291870117e+00,1.074012637138366699e+00,1.849268794059753418e+00,-1.522427082061767578e+00,2.257503271102905273e+00
1.029082417488098145e+00,-3.223622739315032959e-01,1.675157427787780762e+00,1.136174082756042480e+00,1.852616190910339355e+00,-1.480101823806762695e+00,2.265925884246826172e+00
1.031679511070251465e+00,-3.234948515892028809e-01,1.674879789352416992e+00,1.143508076667785645e+00,1.856123089790344238e+00,-1.485304355621337891e+00,2.274206161499023438e+00
1.034206867218017578e+00,-3.248021900653839111e-01,1.674659848213195801e+00,1.138361215591430664e+00,1.859570622444152832e+00,-1.492598772048950195e+00,2.282202959060668945e+00
1.036635279655456543e+00,-3.260121345520019531e-01,1.674279689788818359e+00,1.133030652999877930e+00,1.863025665283203125e+00,-1.499609231948852539e+00,2.290211439132690430e+00
1.038969516754150391e+00,-3.272419273853302002e-01,1.673611521720886230e+00,1.127936363220214844e+00,1.866524934768676758e+00,-1.505928993225097656e+00,2.298238515853881836e+00
1.041238546371459961e+00,-3.295852839946746826e-01,1.672627568244934082e+00,1.123186111450195312e+00,1.870011091232299805e+00,-1.511007070541381836e+00,2.306278944015502930e+00
1.043469905853271484e+00,-3.318242728710174561e-01,1.671417117118835449e+00,1.118847131729125977e+00,1.873529076576232910e+00,-1.514640927314758301e+00,2.314344406127929688e+00
1.045639634132385254e+00,-3.335573077201843262e-01,1.670144796371459961e+00,1.115028142929077148e+00,1.877061128616333008e+00,-1.516771912574768066e+00,2.322448015213012695e+00
1.047693490982055664e+00,-3.349241912364959717e-01,1.668887495994567871e+00,1.111864447593688965e+00,1.880613684654235840e+00,-1.517443180084228516e+00,2.330585718154907227e+00
1.049573898315429688e+00,-3.360326290130615234e-01,1.667578935623168945e+00,1.109558463096618652e+00,1.884196996688842773e+00,-1.516990780830383301e+00,2.338743448257446289e+00
1.051223158836364746e+00,-3.370254635810852051e-01,1.666190028190612793e+00,1.108237862586975098e+00,1.887803554534912109e+00,-1.515852451324462891e+00,2.346931695938110352e+00
1.052610397338867188e+00,-3.380298316478729248e-01,1.664784550666809082e+00,1.107793688774108887e+00,1.891460895538330078e+00,-1.514517784118652344e+00,2.355133056640625000e+00
1.053656816482543945e+00,-3.391027152538299561e-01,1.663339138031005859e+00,1.108078598976135254e+00,1.895180344581604004e+00,-1.513316988945007324e+00,2.363348245620727539e+00
1.054259300231933594e+00,-3.401703834533691406e-01,1.661787867546081543e+00,1.108909726142883301e+00,1.898954272270202637e+00,-1.512358307838439941e+00,2.371552944183349609e+00
1.054443120956420898e+00,-3.412065207958221436e-01,1.660238385200500488e+00,1.110160112380981445e+00,1.902745604515075684e+00,-1.511729598045349121e+00,2.379771709442138672e+00
1.054279923439025879e+00,-3.422748446464538574e-01,1.658780455589294434e+00,1.111645579338073730e+00,1.906587123870849609e+00,-1.511216521263122559e+00,2.388013839721679688e+00
1.053766965866088867e+00,-3.433937728404998779e-01,1.657364487648010254e+00,1.113187909126281738e+00,1.910445928573608398e+00,-1.510552287101745605e+00,2.396237134933471680e+00
1.052902817726135254e+00,-3.443554937839508057e-01,1.655922770500183105e+00,1.114732503890991211e+00,1.914321899414062500e+00,-1.509676098823547363e+00,2.404468774795532227e+00
1.051756620407104492e+00,-3.450134694576263428e-01,1.654443740844726562e+00,1.116090297698974609e+00,1.918236970901489258e+00,-1.508619546890258789e+00,2.412707090377807617e+00
1.050428032875061035e+00,-3.460152745246887207e-01,1.652959465980529785e+00,1.117159605026245117e+00,1.922164082527160645e+00,-1.507483363151550293e+00,2.420960426330566406e+00
1.049048781394958496e+00,-3.477790951728820801e-01,1.651477336883544922e+00,1.118070244789123535e+00,1.926073551177978516e+00,-1.506305694580078125e+00,2.429233789443969727e+00
1.047702550888061523e+00,-3.495224714279174805e-01,1.649975299835205078e+00,1.118933796882629395e+00,1.930002450942993164e+00,-1.505045771598815918e+00,2.437517404556274414e+00
1.046417832374572754e+00,-3.509976565837860107e-01,1.648378968238830566e+00,1.119795918464660645e+00,1.933942914009094238e+00,-1.503667116165161133e+00,2.445812463760375977e+00
1.045212149620056152e+00,-3.523122072219848633e-01,1.646593213081359863e+00,1.120787024497985840e+00,1.937907218933105469e+00,-1.502089023590087891e+00,2.454097986221313477e+00
1.044119954109191895e+00,-3.535082936286926270e-01,1.644616007804870605e+00,1.122094392776489258e+00,1.941911935806274414e+00,-1.500353813171386719e+00,2.462413787841796875e+00
1.043144583702087402e+00,-3.548335433006286621e-01,1.642480254173278809e+00,1.123683571815490723e+00,1.945948839187622070e+00,-1.498427152633666992e+00,2.470731735229492188e+00
1.042255520820617676e+00,-3.562172353267669678e-01,1.640223026275634766e+00,1.125552415847778320e+00,1.950016975402832031e+00,-1.496330738067626953e+00,2.479052305221557617e+00
1.041433691978454590e+00,-3.575520813465118408e-01,1.637903690338134766e+00,1.127652168273925781e+00,1.954124689102172852e+00,-1.494108915328979492e+00,2.487393379211425781e+00
1.040600657463073730e+00,-3.588324487209320068e-01,1.635488152503967285e+00,1.129961967468261719e+00,1.958248734474182129e+00,-1.491739869117736816e+00,2.495718955993652344e+00
1.039687871932983398e+00,-3.600002229213714600e-01,1.632937669754028320e+00,1.132479548454284668e+00,1.962403178215026855e+00,-1.489251613616943359e+00,2.504033088684082031e+00
1.038721680641174316e+00,-3.614350557327270508e-01,1.630302190780639648e+00,1.135069847106933594e+00,1.966592192649841309e+00,-1.486630320549011230e+00,2.512339830398559570e+00
1.037711501121520996e+00,-3.635408878326416016e-01,1.627661228179931641e+00,1.137745857238769531e+00,1.970783114433288574e+00,-1.483926415443420410e+00,2.520656108856201172e+00
1.036667346954345703e+00,-3.656312525272369385e-01,1.625061988830566406e+00,1.140521764755249023e+00,1.974996447563171387e+00,-1.481113672256469727e+00,2.528975963592529297e+00
1.035562992095947266e+00,-3.674492537975311279e-01,1.622479438781738281e+00,1.143313646316528320e+00,1.979229450225830078e+00,-1.478183746337890625e+00,2.537276744842529297e+00
1.034351825714111328e+00,-3.690140843391418457e-01,1.619866490364074707e+00,1.146116256713867188e+00,1.983496308326721191e+00,-1.475133299827575684e+00,2.545554876327514648e+00
1.033037424087524414e+00,-3.704274296760559082e-01,1.617220282554626465e+00,1.148928523063659668e+00,1.987784743309020996e+00,-1.471994519233703613e+00,2.553819656372070312e+00
1.031632423400878906e+00,-3.718256354331970215e-01,1.614506244659423828e+00,1.151833653450012207e+00,1.992101669311523438e+00,-1.468731164932250977e+00,2.562073945999145508e+00
1.030156254768371582e+00,-3.731543719768524170e-01,1.611697196960449219e+00,1.154894232749938965e+00,1.996435999870300293e+00,-1.465357422828674316e+00,2.570294618606567383e+00
1.028659582138061523e+00,-3.744546175003051758e-01,1.608846306800842285e+00,1.158087372779846191e+00,2.000770092010498047e+00,-1.461877465248107910e+00,2.578526258468627930e+00
1.027181386947631836e+00,-3.757118582725524902e-01,1.605997800827026367e+00,1.161440968513488770e+00,2.005129098892211914e+00,-1.458305716514587402e+00,2.586762428283691406e+00
1.025715351104736328e+00,-3.768907785415649414e-01,1.603123784065246582e+00,1.164921879768371582e+00,2.009493112564086914e+00,-1.454624176025390625e+00,2.594951868057250977e+00
1.024209856986999512e+00,-3.779906928539276123e-01,1.600189566612243652e+00,1.168509721755981445e+00,2.013887643814086914e+00,-1.450791001319885254e+00,2.603089094161987305e+00
1.022660136222839355e+00,-3.790925145149230957e-01,1.597203612327575684e+00,1.172176837921142578e+00,2.018306493759155273e+00,-1.446840286254882812e+00,2.611186504364013672e+00
1.021057367324829102e+00,-3.802251517772674561e-01,1.594132304191589355e+00,1.175936579704284668e+00,2.022731304168701172e+00,-1.442798256874084473e+00,2.619213342666625977e+00
1.019402146339416504e+00,-3.813940286636352539e-01,1.590977191925048828e+00,1.179828166961669922e+00,2.027188301086425781e+00,-1.438610196113586426e+00,2.627151012420654297e+00
1.017727494239807129e+00,-3.826379179954528809e-01,1.587802052497863770e+00,1.183811068534851074e+00,2.031652212142944336e+00,-1.434433102607727051e+00,2.635057926177978516e+00
1.016039490699768066e+00,-3.840833902359008789e-01,1.584635972976684570e+00,1.187783479690551758e+00,2.036160707473754883e+00,-1.430109262466430664e+00,2.642826080322265625e+00
1.014303088188171387e+00,-3.854882121086120605e-01,1.581467390060424805e+00,1.191738963127136230e+00,2.040666580200195312e+00,-1.425698280334472656e+00,2.650392055511474609e+00
1.012520194053649902e+00,-3.868351578712463379e-01,1.578280568122863770e+00,1.195752739906311035e+00,2.045206308364868164e+00,-1.421206355094909668e+00,2.657703638076782227e+00
1.010691404342651367e+00,-3.881279528141021729e-01,1.575060486793518066e+00,1.199856758117675781e+00,2.049749374389648438e+00,-1.416636705398559570e+00,2.664602994918823242e+00
1.008831381797790527e+00,-3.894013762474060059e-01,1.571803689002990723e+00,1.204059362411499023e+00,2.054299831390380859e+00,-1.411987662315368652e+00,2.670832633972167969e+00
1.006963729858398438e+00,-3.906651735305786133e-01,1.568555593490600586e+00,1.208233714103698730e+00,2.058895349502563477e+00,-1.407209396362304688e+00,2.675670385360717773e+00
1.005062341690063477e+00,-3.918980062007904053e-01,1.565292477607727051e+00,1.212443947792053223e+00,2.063496828079223633e+00,-1.402370810508728027e+00,2.675701856613159180e+00
1.003109216690063477e+00,-3.930699527263641357e-01,1.561960577964782715e+00,1.216753721237182617e+00,2.068136930465698242e+00,-1.397437095642089844e+00,2.622589826583862305e+00
1.001127719879150391e+00,-3.931617438793182373e-01,1.558601021766662598e+00,1.221072196960449219e+00,2.072842597961425781e+00,-1.392232775688171387e+00,2.597195863723754883e+00
9.991257190704345703e-01,-3.890535831451416016e-01,1.555206060409545898e+00,1.225436925888061523e+00,2.077534914016723633e+00,-1.386965036392211914e+00,2.603637456893920898e+00
9.970737099647521973e-01,-3.398967683315277100e-01,1.551726341247558594e+00,1.229843258857727051e+00,2.082237243652343750e+00,-1.381744742393493652e+00,2.611187934875488281e+00
9.949740767478942871e-01,-3.329991698265075684e-01,1.548186182975769043e+00,1.233897447586059570e+00,2.087174177169799805e+00,-1.376384496688842773e+00,2.618228197097778320e+00
9.928821325302124023e-01,-3.342398107051849365e-01,1.544640779495239258e+00,1.238294243812561035e+00,2.091932296752929688e+00,-1.371057033538818359e+00,2.624137639999389648e+00
9.908303022384643555e-01,-3.355987668037414551e-01,1.541115641593933105e+00,1.242738366127014160e+00,2.096643924713134766e+00,-1.365696549415588379e+00,2.628590583801269531e+00
9.888241291046142578e-01,-3.369249701499938965e-01,1.537603855133056641e+00,1.247179746627807617e+00,2.101393222808837891e+00,-1.360252141952514648e+00,2.631443738937377930e+00
9.868022203445434570e-01,-3.382105231285095215e-01,1.534027814865112305e+00,1.251779556274414062e+00,2.106159448623657227e+00,-1.354747414588928223e+00,2.632689237594604492e+00
9.847374558448791504e-01,-3.394748866558074951e-01,1.530322074890136719e+00,1.256541967391967773e+00,2.110945701599121094e+00,-1.349089384078979492e+00,2.632525682449340820e+00
9.826875925064086914e-01,-3.407187461853027344e-01,1.526552081108093262e+00,1.261237740516662598e+00,2.115747690200805664e+00,-1.343364596366882324e+00,2.631409883499145508e+00
9.807071685791015625e-01,-3.419204354286193848e-01,1.522803783416748047e+00,1.265779972076416016e+00,2.120584726333618164e+00,-1.337640643119812012e+00,2.629819869995117188e+00
9.787555336952209473e-01,-3.430446088314056396e-01,1.519044041633605957e+00,1.270371794700622559e+00,2.125434875488281250e+00,-1.331801533699035645e+00,2.628241062164306641e+00
9.767588376998901367e-01,-3.440513610839843750e-01,1.515152812004089355e+00,1.275276541709899902e+00,2.130313634872436523e+00,-1.325779795646667480e+00,2.626976966857910156e+00
9.747039079666137695e-01,-3.449656665325164795e-01,1.511129736900329590e+00,1.280337214469909668e+00,2.135191202163696289e+00,-1.319704890251159668e+00,2.626113891601562500e+00
9.726503491401672363e-01,-3.458436727523803711e-01,1.507113337516784668e+00,1.285234928131103516e+00,2.140129089355468750e+00,-1.313622713088989258e+00,2.625558376312255859e+00
9.706234335899353027e-01,-3.466641306877136230e-01,1.503151416778564453e+00,1.289790630340576172e+00,2.145063638687133789e+00,-1.307563781738281250e+00,2.625042438507080078e+00
9.686006307601928711e-01,-3.473634123802185059e-01,1.499177455902099609e+00,1.294206976890563965e+00,2.150012731552124023e+00,-1.301540017127990723e+00,2.624264240264892578e+00
9.665441513061523438e-01,-3.479200601577758789e-01,1.495109319686889648e+00,1.298930406570434570e+00,2.154972076416015625e+00,-1.295486450195312500e+00,2.623120069503784180e+00
9.644196629524230957e-01,-3.483505547046661377e-01,1.490926384925842285e+00,1.304125428199768066e+00,2.159977197647094727e+00,-1.289186239242553711e+00,2.621664047241210938e+00
9.622561335563659668e-01,-3.486916422843933105e-01,1.486702561378479004e+00,1.308964490890502930e+00,2.165010690689086914e+00,-1.283004522323608398e+00,2.620046138763427734e+00
9.600890874862670898e-01,-3.489497303962707520e-01,1.482453107833862305e+00,1.313114166259765625e+00,2.170063257217407227e+00,-1.277005791664123535e+00,2.618347406387329102e+00
9.579169750213623047e-01,-3.490945398807525635e-01,1.478146910667419434e+00,1.316771507263183594e+00,2.175100326538085938e+00,-1.271073818206787109e+00,2.616534709930419922e+00
9.557019472122192383e-01,-3.490623533725738525e-01,1.473737597465515137e+00,1.321336746215820312e+00,2.180197954177856445e+00,-1.264977097511291504e+00,2.614587783813476562e+00
9.534115791320800781e-01,-3.488940298557281494e-01,1.469235539436340332e+00,1.326491951942443848e+00,2.185294866561889648e+00,-1.258962988853454590e+00,2.612502336502075195e+00
9.510922431945800781e-01,-3.487525284290313721e-01,1.464692354202270508e+00,1.330388188362121582e+00,2.190411329269409180e+00,-1.253273487091064453e+00,2.610289573669433594e+00
9.487993717193603516e-01,-3.486895561218261719e-01,1.460172414779663086e+00,1.329343080520629883e+00,2.195540189743041992e+00,-1.249018907546997070e+00,2.607949495315551758e+00
9.465139508247375488e-01,-3.485785126686096191e-01,1.455673456192016602e+00,1.291653275489807129e+00,2.200633764266967773e+00,-1.246729850769042969e+00,2.605492353439331055e+00
9.441955089569091797e-01,-3.480495214462280273e-01,1.451072931289672852e+00,1.272063970565795898e+00,2.205226182937622070e+00,-1.249531388282775879e+00,2.602918386459350586e+00
9.417999386787414551e-01,-3.474677801132202148e-01,1.446298241615295410e+00,1.275689840316772461e+00,2.209933996200561523e+00,-1.304859399795532227e+00,2.600187063217163086e+00
9.393528699874877930e-01,-3.459667265415191650e-01,1.441430211067199707e+00,1.280068516731262207e+00,2.215618848800659180e+00,-1.328750252723693848e+00,2.597100019454956055e+00
9.368863105773925781e-01,-3.448815047740936279e-01,1.436572551727294922e+00,1.284567594528198242e+00,2.221193790435791016e+00,-1.323549270629882812e+00,2.594040393829345703e+00
9.343377351760864258e-01,-3.438412249088287354e-01,1.431602120399475098e+00,1.289016842842102051e+00,2.226549386978149414e+00,-1.317226171493530273e+00,2.590940237045288086e+00
9.317367076873779297e-01,-3.427942991256713867e-01,1.426536202430725098e+00,1.293109655380249023e+00,2.231859922409057617e+00,-1.311601877212524414e+00,2.587733030319213867e+00
9.291999936103820801e-01,-3.419454395771026611e-01,1.421534180641174316e+00,1.296508669853210449e+00,2.237173318862915039e+00,-1.307149052619934082e+00,2.584416151046752930e+00
9.267565608024597168e-01,-3.412144780158996582e-01,1.416590452194213867e+00,1.299176216125488281e+00,2.242531538009643555e+00,-1.304116725921630859e+00,2.580980777740478516e+00
9.243345260620117188e-01,-3.401411175727844238e-01,1.411505460739135742e+00,1.301302313804626465e+00,2.247964620590209961e+00,-1.302353143692016602e+00,2.577417850494384766e+00
9.219462275505065918e-01,-3.390089273452758789e-01,1.406257510185241699e+00,1.302773237228393555e+00,2.253451347351074219e+00,-1.301849722862243652e+00,2.573736906051635742e+00
9.197100996971130371e-01,-3.385536670684814453e-01,1.400959372520446777e+00,1.303380846977233887e+00,2.258930921554565430e+00,-1.302336454391479492e+00,2.569941282272338867e+00
9.176852107048034668e-01,-3.410017192363739014e-01,1.395615220069885254e+00,1.303296446800231934e+00,2.264394521713256836e+00,-1.303328752517700195e+00,2.566058635711669922e+00
9.158552885055541992e-01,-3.882146477699279785e-01,1.390157461166381836e+00,1.302912712097167969e+00,2.269730329513549805e+00,-1.304396986961364746e+00,2.562062978744506836e+00
9.142399430274963379e-01,-3.990226387977600098e-01,1.384647488594055176e+00,1.302742600440979004e+00,2.272839784622192383e+00,-1.305310726165771484e+00,2.557975530624389648e+00
9.128273725509643555e-01,-3.980315625667572021e-01,1.379134654998779297e+00,1.301712751388549805e+00,2.276091337203979492e+00,-1.305875301361083984e+00,2.553779125213623047e+00
9.115439057350158691e-01,-3.968341052532196045e-01,1.373560309410095215e+00,1.300517797470092773e+00,2.280074596405029297e+00,-1.306083440780639648e+00,2.549469947814941406e+00
9.103136658668518066e-01,-3.956057131290435791e-01,1.367918610572814941e+00,1.299535751342773438e+00,2.283543348312377930e+00,-1.306256532669067383e+00,2.545074939727783203e+00
9.091223478317260742e-01,-3.943518698215484619e-01,1.362308144569396973e+00,1.298659920692443848e+00,2.283846616744995117e+00,-1.306639552116394043e+00,2.540582895278930664e+00
9.079166650772094727e-01,-3.930111229419708252e-01,1.356726884841918945e+00,1.297883272171020508e+00,2.239422082901000977e+00,-1.307277560234069824e+00,2.535980939865112305e+00
9.066017270088195801e-01,-3.916058540344238281e-01,1.351079583168029785e+00,1.296535015106201172e+00,2.215352296829223633e+00,-1.308151721954345703e+00,2.531240940093994141e+00
9.050943255424499512e-01,-3.901144862174987793e-01,1.345460295677185059e+00,1.295877575874328613e+00,2.219939231872558594e+00,-1.308993816375732422e+00,2.526431560516357422e+00
9.034020900726318359e-01,-3.885632157325744629e-01,1.339953899383544922e+00,1.295394659042358398e+00,2.225181579589843750e+00,-1.309929490089416504e+00,2.521536350250244141e+00
9.015266299247741699e-01,-3.869626522064208984e-01,1.334476590156555176e+00,1.294664502143859863e+00,2.230217218399047852e+00,-1.311011672019958496e+00,2.516546726226806641e+00
8.994854092597961426e-01,-3.853967189788818359e-01,1.328998923301696777e+00,1.293821096420288086e+00,2.234869480133056641e+00,-1.312268733978271484e+00,2.511454820632934570e+00
8.973640799522399902e-01,-3.839431405067443848e-01,1.323592662811279297e+00,1.292790412902832031e+00,2.238959074020385742e+00,-1.313717246055603027e+00,2.506278991699218750e+00
8.952079415321350098e-01,-3.825527727603912354e-01,1.318235993385314941e+00,1.291504383087158203e+00,2.242415428161621094e+00,-1.315299510955810547e+00,2.501022577285766602e+00
8.929808735847473145e-01,-3.812329173088073730e-01,1.312793850898742676e+00,1.290070414543151855e+00,2.245237112045288086e+00,-1.316954016685485840e+00,2.495665311813354492e+00
8.907284140586853027e-01,-3.800597786903381348e-01,1.307290315628051758e+00,1.288497447967529297e+00,2.247469663619995117e+00,-1.318719983100891113e+00,2.490209102630615234e+00
8.885716199874877930e-01,-3.790277838706970215e-01,1.301881432533264160e+00,1.286745429039001465e+00,2.249191761016845703e+00,-1.320603609085083008e+00,2.484671831130981445e+00
8.865385055541992188e-01,-3.781551718711853027e-01,1.296544075012207031e+00,1.284876346588134766e+00,2.250555276870727539e+00,-1.322565913200378418e+00,2.479053497314453125e+00
8.845626711845397949e-01,-3.775277435779571533e-01,1.291165590286254883e+00,1.283042430877685547e+00,2.251791000366210938e+00,-1.324543595314025879e+00,2.473341464996337891e+00
8.826087117195129395e-01,-3.771829009056091309e-01,1.285715103149414062e+00,1.281267285346984863e+00,2.253039121627807617e+00,-1.326600432395935059e+00,2.467550277709960938e+00
8.807014822959899902e-01,-3.771007955074310303e-01,1.280242204666137695e+00,1.279416322708129883e+00,2.254353046417236328e+00,-1.328681826591491699e+00,2.461676836013793945e+00
8.788132071495056152e-01,-3.772308826446533203e-01,1.274747729301452637e+00,1.277528166770935059e+00,2.255743503570556641e+00,-1.330871105194091797e+00,2.455715656280517578e+00
8.769086003303527832e-01,-3.775621354579925537e-01,1.269257545471191406e+00,1.275584816932678223e+00,2.257172822952270508e+00,-1.333127260208129883e+00,2.449660301208496094e+00
8.750116825103759766e-01,-3.780883848667144775e-01,1.263851642608642578e+00,1.273439645767211914e+00,2.258589982986450195e+00,-1.335495591163635254e+00,2.443527698516845703e+00
8.731343150138854980e-01,-3.787324428558349609e-01,1.258544564247131348e+00,1.271062731742858887e+00,2.259941101074218750e+00,-1.338000416755676270e+00,2.437320947647094727e+00
8.712463974952697754e-01,-3.794640302658081055e-01,1.253252863883972168e+00,1.268623709678649902e+00,2.261207818984985352e+00,-1.340566158294677734e+00,2.431023597717285156e+00
8.693503141403198242e-01,-3.802907466888427734e-01,1.247978925704956055e+00,1.266095042228698730e+00,2.262406349182128906e+00,-1.343263626098632812e+00,2.424656152725219727e+00
8.674927949905395508e-01,-3.811597824096679688e-01,1.242772698402404785e+00,1.263363957405090332e+00,2.263529777526855469e+00,-1.346027731895446777e+00,2.418219566345214844e+00
8.656954169273376465e-01,-3.820283412933349609e-01,1.237607121467590332e+00,1.260557889938354492e+00,2.264579296112060547e+00,-1.348896861076354980e+00,2.411688327789306641e+00
8.639402389526367188e-01,-3.829401731491088867e-01,1.232439279556274414e+00,1.257861018180847168e+00,2.265590429306030273e+00,-1.351773619651794434e+00,2.405081987380981445e+00
8.622094988822937012e-01,-3.839282095432281494e-01,1.227261185646057129e+00,1.255205154418945312e+00,2.266539096832275391e+00,-1.354735732078552246e+00,2.398406267166137695e+00
8.605233430862426758e-01,-3.849871456623077393e-01,1.222077488899230957e+00,1.252494454383850098e+00,2.267418861389160156e+00,-1.357769131660461426e+00,2.391645908355712891e+00
8.588679432868957520e-01,-3.860999941825866699e-01,1.216853141784667969e+00,1.249816060066223145e+00,2.268242597579956055e+00,-1.360828876495361328e+00,2.384823799133300781e+00
8.572203516960144043e-01,-3.873038887977600098e-01,1.211614251136779785e+00,1.247225046157836914e+00,2.269011020660400391e+00,-1.363993763923645020e+00,2.377930879592895508e+00
8.556069135665893555e-01,-3.885943889617919922e-01,1.206430792808532715e+00,1.244481801986694336e+00,2.269708156585693359e+00,-1.367211580276489258e+00,2.370959758758544922e+00
8.540481925010681152e-01,-3.899159729480743408e-01,1.201326012611389160e+00,1.241487383842468262e+00,2.270328283309936523e+00,-1.370546340942382812e+00,2.363924503326416016e+00
8.525006771087646484e-01,-3.912427723407745361e-01,1.196227788925170898e+00,1.238716006278991699e+00,2.270901203155517578e+00,-1.373890280723571777e+00,2.356809854507446289e+00
8.509092330932617188e-01,-3.926104605197906494e-01,1.191119432449340820e+00,1.236325979232788086e+00,2.271428823471069336e+00,-1.377321600914001465e+00,2.349620342254638672e+00
8.493006229400634766e-01,-3.939909338951110840e-01,1.186047554016113281e+00,1.233752846717834473e+00,2.271934747695922852e+00,-1.380835533142089844e+00,2.342371225357055664e+00
8.476882576942443848e-01,-3.953214287757873535e-01,1.181021094322204590e+00,1.230779409408569336e+00,2.272382736206054688e+00,-1.384451389312744141e+00,2.335048913955688477e+00
8.460631370544433594e-01,-3.966425061225891113e-01,1.176015615463256836e+00,1.228163957595825195e+00,2.272759199142456055e+00,-1.388125181198120117e+00,2.327654838562011719e+00
8.444100022315979004e-01,-3.980463743209838867e-01,1.171001553535461426e+00,1.227012634277343750e+00,2.273066759109497070e+00,-1.391835212707519531e+00,2.320199728012084961e+00
8.427298665046691895e-01,-3.995459675788879395e-01,1.165974378585815430e+00,1.229139804840087891e+00,2.273337841033935547e+00,-1.395621299743652344e+00,2.312677860260009766e+00
8.410151004791259766e-01,-4.011443853378295898e-01,1.160924196243286133e+00,1.268110513687133789e+00,2.273601531982421875e+00,-1.399433493614196777e+00,2.305103778839111328e+00
8.391875624656677246e-01,-4.028632640838623047e-01,1.155798912048339844e+00,1.292423486709594727e+00,2.274514198303222656e+00,-1.403253674507141113e+00,2.297462463378906250e+00
8.373232483863830566e-01,-4.046967625617980957e-01,1.150629401206970215e+00,1.290365695953369141e+00,2.275770902633666992e+00,-1.407066822052001953e+00,2.289758682250976562e+00
8.354836106300354004e-01,-4.066364467144012451e-01,1.145490884780883789e+00,1.287110328674316406e+00,2.276319742202758789e+00,-1.411136984825134277e+00,2.281991720199584961e+00
8.336851000785827637e-01,-4.086396098136901855e-01,1.140389561653137207e+00,1.284144401550292969e+00,2.276595830917358398e+00,-1.415283083915710449e+00,2.274166345596313477e+00
8.318936824798583984e-01,-4.106616973876953125e-01,1.135266661643981934e+00,1.281568169593811035e+00,2.276888847351074219e+00,-1.419468402862548828e+00,2.266284704208374023e+00
8.300827741622924805e-01,-4.126852750778198242e-01,1.130135297775268555e+00,1.279459595680236816e+00,2.277193069458007812e+00,-1.423737764358520508e+00,2.258348226547241211e+00
8.282704353332519531e-01,-4.146443605422973633e-01,1.125057339668273926e+00,1.277901649475097656e+00,2.277558803558349609e+00,-1.428080081939697266e+00,2.250343799591064453e+00
8.264188170433044434e-01,-4.164686203002929688e-01,1.120001792907714844e+00,1.277040839195251465e+00,2.278080701828002930e+00,-1.432482242584228516e+00,2.242285013198852539e+00
8.244451284408569336e-01,-4.181944727897644043e-01,1.114887118339538574e+00,1.276990175247192383e+00,2.278630495071411133e+00,-1.436886429786682129e+00,2.234164953231811523e+00
8.223133087158203125e-01,-4.198856353759765625e-01,1.109733462333679199e+00,1.277673482894897461e+00,2.279113769531250000e+00,-1.441370248794555664e+00,2.225995540618896484e+00
8.200511932373046875e-01,-4.215264320373535156e-01,1.104647397994995117e+00,1.278950214385986328e+00,2.279769897460937500e+00,-1.445981144905090332e+00,2.217774629592895508e+00
8.176118731498718262e-01,-4.230876863002777100e-01,1.099566578865051270e+00,1.280755519866943359e+00,2.281022548675537109e+00,-1.450651168823242188e+00,2.209491252899169922e+00
8.148965239524841309e-01,-4.245895147323608398e-01,1.094392538070678711e+00,1.282939314842224121e+00,2.283714056015014648e+00,-1.455304384231567383e+00,2.201157331466674805e+00
8.119748830795288086e-01,-4.261126816272735596e-01,1.089179277420043945e+00,1.285858750343322754e+00,2.275752782821655273e+00,-1.457555174827575684e+00,2.192594766616821289e+00
8.105746507644653320e-01,-4.275625646114349365e-01,1.084496498107910156e+00,1.286372303962707520e+00,2.271991491317749023e+00,-1.465058326721191406e+00,2.184208869934082031e+00
8.079981207847595215e-01,-4.289707243442535400e-01,1.079473853111267090e+00,1.288321852684020996e+00,2.271839618682861328e+00,-1.470270395278930664e+00,2.175727367401123047e+00
8.054307699203491211e-01,-4.304179847240447998e-01,1.074382066726684570e+00,1.290491223335266113e+00,2.271793842315673828e+00,-1.475345849990844727e+00,2.167189359664916992e+00
8.035663366317749023e-01,-4.319663643836975098e-01,1.069522142410278320e+00,1.285895824432373047e+00,2.272229671478271484e+00,-1.481473803520202637e+00,2.158755064010620117e+00
8.040629625320434570e-01,-4.336406588554382324e-01,1.064395070075988770e+00,1.285341262817382812e+00,2.272066831588745117e+00,-1.486761808395385742e+00,2.150114297866821289e+00
8.440163731575012207e-01,-4.354498386383056641e-01,1.059260964393615723e+00,1.286164283752441406e+00,2.271716594696044922e+00,-1.492072224617004395e+00,2.141437530517578125e+00
8.583130240440368652e-01,-4.374537169933319092e-01,1.054887533187866211e+00,1.289914250373840332e+00,2.271011114120483398e+00,-1.497667074203491211e+00,2.132844924926757812e+00
8.561881780624389648e-01,-4.394950568675994873e-01,1.050808548927307129e+00,1.291944265365600586e+00,2.270358324050903320e+00,-1.503130435943603516e+00,2.124125957489013672e+00
8.540207147598266602e-01,-4.414876401424407959e-01,1.046361684799194336e+00,1.291668295860290527e+00,2.269738912582397461e+00,-1.508525609970092773e+00,2.115294933319091797e+00
8.519727587699890137e-01,-4.434766769409179688e-01,1.042290091514587402e+00,1.290527462959289551e+00,2.269122838973999023e+00,-1.513913512229919434e+00,2.106431245803833008e+00
8.499758243560791016e-01,-4.454813897609710693e-01,1.039868235588073730e+00,1.289578557014465332e+00,2.268483638763427734e+00,-1.519364118576049805e+00,2.097519397735595703e+00
8.480467200279235840e-01,-4.474790692329406738e-01,1.060466051101684570e+00,1.286030650138854980e+00,2.267828702926635742e+00,-1.524955511093139648e+00,2.088560819625854492e+00
8.462695479393005371e-01,-4.494448900222778320e-01,1.089824795722961426e+00,1.299972414970397949e+00,2.267234086990356445e+00,-1.530775070190429688e+00,2.079464912414550781e+00
8.445307612419128418e-01,-4.514249265193939209e-01,1.085746049880981445e+00,1.311715245246887207e+00,2.266909599304199219e+00,-1.536559343338012695e+00,2.070338487625122070e+00
8.428003787994384766e-01,-4.533843696117401123e-01,1.080788493156433105e+00,1.315072417259216309e+00,2.266460895538330078e+00,-1.542310953140258789e+00,2.061273574829101562e+00
8.411681652069091797e-01,-4.552522301673889160e-01,1.076144337654113770e+00,1.316588044166564941e+00,2.266019582748413086e+00,-1.548116922378540039e+00,2.052168846130371094e+00
8.396401405334472656e-01,-4.570527672767639160e-01,1.071977734565734863e+00,1.317423701286315918e+00,2.265549898147583008e+00,-1.553957223892211914e+00,2.043028831481933594e+00
8.381834626197814941e-01,-4.589366316795349121e-01,1.067412376403808594e+00,1.322210550308227539e+00,2.263214111328125000e+00,-1.559504985809326172e+00,2.033651351928710938e+00
8.367681503295898438e-01,-4.610009789466857910e-01,1.064239740371704102e+00,1.323820471763610840e+00,2.262276887893676758e+00,-1.565368652343750000e+00,2.024438142776489258e+00
8.354405164718627930e-01,-4.632679820060729980e-01,1.061882734298706055e+00,1.325554847717285156e+00,2.261374950408935547e+00,-1.571239233016967773e+00,2.015170097351074219e+00
8.342095017433166504e-01,-4.657244086265563965e-01,1.060406088829040527e+00,1.327498555183410645e+00,2.260469198226928711e+00,-1.577076435089111328e+00,2.005862474441528320e+00
8.329909443855285645e-01,-4.683559238910675049e-01,1.059766054153442383e+00,1.329725146293640137e+00,2.259570360183715820e+00,-1.582960605621337891e+00,1.996512651443481445e+00
8.316577076911926270e-01,-4.711205065250396729e-01,1.060127615928649902e+00,1.333354473114013672e+00,2.259049415588378906e+00,-1.589015722274780273e+00,1.987058639526367188e+00
8.301625251770019531e-01,-4.740899801254272461e-01,1.060658693313598633e+00,1.336224675178527832e+00,2.258165836334228516e+00,-1.594845056533813477e+00,1.977610230445861816e+00
8.284825682640075684e-01,-4.771937131881713867e-01,1.061744332313537598e+00,1.338325142860412598e+00,2.257522583007812500e+00,-1.600480914115905762e+00,1.968264341354370117e+00
8.267309069633483887e-01,-4.804298579692840576e-01,1.062982320785522461e+00,1.341576695442199707e+00,2.256621599197387695e+00,-1.606509566307067871e+00,1.958733677864074707e+00
8.248980045318603516e-01,-4.837229847908020020e-01,1.064304471015930176e+00,1.344883441925048828e+00,2.255768060684204102e+00,-1.612625360488891602e+00,1.949164271354675293e+00
8.230348229408264160e-01,-4.870269298553466797e-01,1.065513253211975098e+00,1.348218321800231934e+00,2.254940748214721680e+00,-1.618858695030212402e+00,1.939553856849670410e+00
8.212276101112365723e-01,-4.902983307838439941e-01,1.066432595252990723e+00,1.351500988006591797e+00,2.254150629043579102e+00,-1.625260949134826660e+00,1.929896473884582520e+00
8.196290731430053711e-01,-4.934203922748565674e-01,1.067099452018737793e+00,1.354620933532714844e+00,2.253460884094238281e+00,-1.631730556488037109e+00,1.920198678970336914e+00
8.183724880218505859e-01,-4.963844120502471924e-01,1.067599892616271973e+00,1.357672691345214844e+00,2.252819538116455078e+00,-1.638320565223693848e+00,1.910480856895446777e+00
8.175119161605834961e-01,-4.992267489433288574e-01,1.067814946174621582e+00,1.361840844154357910e+00,2.251737117767333984e+00,-1.645299911499023438e+00,1.900568842887878418e+00
8.169391751289367676e-01,-5.019389390945434570e-01,1.068066954612731934e+00,1.365091204643249512e+00,2.251036643981933594e+00,-1.651897907257080078e+00,1.890781044960021973e+00
8.166337609291076660e-01,-5.046281814575195312e-01,1.068613886833190918e+00,1.367177724838256836e+00,2.250958681106567383e+00,-1.658191204071044922e+00,1.881123304367065430e+00
8.165786862373352051e-01,-5.074724555015563965e-01,1.069169402122497559e+00,1.370777606964111328e+00,2.250241756439208984e+00,-1.664820075035095215e+00,1.871289253234863281e+00
8.166427016258239746e-01,-5.104916691780090332e-01,1.069849729537963867e+00,1.374475598335266113e+00,2.249196290969848633e+00,-1.671362042427062988e+00,1.861430287361145020e+00
8.167948126792907715e-01,-5.136929750442504883e-01,1.070641398429870605e+00,1.378243446350097656e+00,2.248150110244750977e+00,-1.677937626838684082e+00,1.851533770561218262e+00
8.170167207717895508e-01,-5.170496106147766113e-01,1.071551084518432617e+00,1.381947755813598633e+00,2.247205257415771484e+00,-1.684614539146423340e+00,1.841601371765136719e+00
8.172715306282043457e-01,-5.204941034317016602e-01,1.072516202926635742e+00,1.385661959648132324e+00,2.246312618255615234e+00,-1.691279292106628418e+00,1.831639409065246582e+00
8.175433278083801270e-01,-5.239323377609252930e-01,1.073513388633728027e+00,1.389405488967895508e+00,2.245500802993774414e+00,-1.698032855987548828e+00,1.821645975112915039e+00
8.178914189338684082e-01,-5.273366570472717285e-01,1.074455261230468750e+00,1.394406914710998535e+00,2.244040250778198242e+00,-1.705236315727233887e+00,1.811454415321350098e+00
8.182433247566223145e-01,-5.306438207626342773e-01,1.075598716735839844e+00,1.398233652114868164e+00,2.243270874023437500e+00,-1.712088942527770996e+00,1.801406264305114746e+00
8.186576366424560547e-01,-5.338265895843505859e-01,1.076840043067932129e+00,1.401984214782714844e+00,2.242661952972412109e+00,-1.718972802162170410e+00,1.791335821151733398e+00
8.191215991973876953e-01,-5.369177460670471191e-01,1.078188538551330566e+00,1.405715227127075195e+00,2.242096424102783203e+00,-1.725933551788330078e+00,1.781248092651367188e+00
8.196123242378234863e-01,-5.400002598762512207e-01,1.079628229141235352e+00,1.409651160240173340e+00,2.241315364837646484e+00,-1.732828140258789062e+00,1.771124124526977539e+00
8.201317787170410156e-01,-5.430797934532165527e-01,1.081055998802185059e+00,1.413724899291992188e+00,2.240507125854492188e+00,-1.739791631698608398e+00,1.760971546173095703e+00
8.206920623779296875e-01,-5.461966991424560547e-01,1.082551956176757812e+00,1.417974233627319336e+00,2.239602565765380859e+00,-1.746779322624206543e+00,1.750805735588073730e+00
8.213016390800476074e-01,-5.494061112403869629e-01,1.084149122238159180e+00,1.422284722328186035e+00,2.238620042800903320e+00,-1.753719449043273926e+00,1.740613102912902832e+00
8.219121098518371582e-01,-5.526162981986999512e-01,1.085844039916992188e+00,1.426544904708862305e+00,2.237846374511718750e+00,-1.760734319686889648e+00,1.730389833450317383e+00
8.224603533744812012e-01,-5.557936429977416992e-01,1.087644338607788086e+00,1.430896282196044922e+00,2.237103462219238281e+00,-1.767726778984069824e+00,1.720140933990478516e+00
8.229350447654724121e-01,-5.590549111366271973e-01,1.089496612548828125e+00,1.435342431068420410e+00,2.236063957214355469e+00,-1.774699807167053223e+00,1.709878206253051758e+00
8.233498334884643555e-01,-5.623444914817810059e-01,1.091429233551025391e+00,1.439927935600280762e+00,2.235034227371215820e+00,-1.781805396080017090e+00,1.699593424797058105e+00
8.237636685371398926e-01,-5.656317472457885742e-01,1.093281507492065430e+00,1.445097208023071289e+00,2.256630659103393555e+00,-1.788972973823547363e+00,1.689169406890869141e+00
8.241296410560607910e-01,-5.689181089401245117e-01,1.095461130142211914e+00,1.449854135513305664e+00,2.319375276565551758e+00,-1.795850515365600586e+00,1.678832530975341797e+00
8.244153261184692383e-01,-5.721232891082763672e-01,1.097885131835937500e+00,1.454833984375000000e+00,2.321561098098754883e+00,-1.801727890968322754e+00,1.668533563613891602e+00
8.247879743576049805e-01,-5.752728581428527832e-01,1.100054860115051270e+00,1.459525465965270996e+00,2.320462226867675781e+00,-1.808502793312072754e+00,1.658180475234985352e+00
8.251852989196777344e-01,-5.784216523170471191e-01,1.102253317832946777e+00,1.464175224304199219e+00,2.319365501403808594e+00,-1.815438747406005859e+00,1.647801995277404785e+00
8.256309628486633301e-01,-5.816130042076110840e-01,1.104467153549194336e+00,1.468824505805969238e+00,2.318466663360595703e+00,-1.822311043739318848e+00,1.637409329414367676e+00
8.261436223983764648e-01,-5.849007368087768555e-01,1.106729269027709961e+00,1.473636150360107422e+00,2.317920446395874023e+00,-1.828985810279846191e+00,1.627005100250244141e+00
8.267416357994079590e-01,-5.882955193519592285e-01,1.109065771102905273e+00,1.478652358055114746e+00,2.317801237106323242e+00,-1.835634350776672363e+00,1.616588711738586426e+00
8.273823857307434082e-01,-5.916885137557983398e-01,1.111354112625122070e+00,1.483678460121154785e+00,2.318103313446044922e+00,-1.842054963111877441e+00,1.606157064437866211e+00
8.280975818634033203e-01,-5.950111150741577148e-01,1.113701105117797852e+00,1.488543748855590820e+00,2.318823575973510742e+00,-1.848125934600830078e+00,1.595687270164489746e+00
8.287991285324096680e-01,-5.983372926712036133e-01,1.116133809089660645e+00,1.493466854095458984e+00,2.319942474365234375e+00,-1.853503108024597168e+00,1.585219740867614746e+00
8.294704556465148926e-01,-6.017152667045593262e-01,1.118576526641845703e+00,1.498566865921020508e+00,2.321443319320678711e+00,-1.857320666313171387e+00,1.574735164642333984e+00
8.301472663879394531e-01,-6.051269173622131348e-01,1.120977282524108887e+00,1.503651738166809082e+00,2.323333740234375000e+00,-1.857278347015380859e+00,1.564247250556945801e+00
8.308476209640502930e-01,-6.085433959960937500e-01,1.123451352119445801e+00,1.508686304092407227e+00,2.325504064559936523e+00,-1.819991230964660645e+00,1.553768396377563477e+00
8.315851092338562012e-01,-6.119434237480163574e-01,1.126337170600891113e+00,1.513794302940368652e+00,2.327713489532470703e+00,-1.774351596832275391e+00,1.543507814407348633e+00
8.323407173156738281e-01,-6.153213381767272949e-01,1.129274487495422363e+00,1.518957376480102539e+00,2.329892396926879883e+00,-1.777733922004699707e+00,1.533434867858886719e+00
8.330628871917724609e-01,-6.187194585800170898e-01,1.131905794143676758e+00,1.524069547653198242e+00,2.332230806350708008e+00,-1.784298300743103027e+00,1.522928237915039062e+00
8.337833881378173828e-01,-6.221441626548767090e-01,1.134458780288696289e+00,1.529114842414855957e+00,2.334586143493652344e+00,-1.790376663208007812e+00,1.512344717979431152e+00
8.345301151275634766e-01,-6.256361007690429688e-01,1.137019753456115723e+00,1.534286260604858398e+00,2.336976289749145508e+00,-1.795551657676696777e+00,1.501746773719787598e+00
8.353488445281982422e-01,-6.291663050651550293e-01,1.139624714851379395e+00,1.539680242538452148e+00,2.339377164840698242e+00,-1.799462676048278809e+00,1.491130709648132324e+00
8.362368941307067871e-01,-6.326433420181274414e-01,1.142122983932495117e+00,1.544999599456787109e+00,2.341857194900512695e+00,-1.801865577697753906e+00,1.480486869812011719e+00
8.371486067771911621e-01,-6.360750198364257812e-01,1.144595742225646973e+00,1.550188779830932617e+00,2.344374656677246094e+00,-1.802863001823425293e+00,1.469847440719604492e+00
8.380720615386962891e-01,-6.395362019538879395e-01,1.147273063659667969e+00,1.555493712425231934e+00,2.346906185150146484e+00,-1.802599668502807617e+00,1.459221363067626953e+00
8.390405774116516113e-01,-6.430438160896301270e-01,1.150118112564086914e+00,1.560950398445129395e+00,2.349481582641601562e+00,-1.801566243171691895e+00,1.448608875274658203e+00
8.400815725326538086e-01,-6.465899348258972168e-01,1.152928948402404785e+00,1.566362023353576660e+00,2.352111101150512695e+00,-1.800112009048461914e+00,1.437998890876770020e+00
8.411518335342407227e-01,-6.501007676124572754e-01,1.155991315841674805e+00,1.571776747703552246e+00,2.354795932769775391e+00,-1.798714876174926758e+00,1.427388906478881836e+00
8.422269225120544434e-01,-6.535704135894775391e-01,1.159180521965026855e+00,1.577255368232727051e+00,2.357492446899414062e+00,-1.797475695610046387e+00,1.416763901710510254e+00
8.432901501655578613e-01,-6.570373177528381348e-01,1.162208437919616699e+00,1.582737207412719727e+00,2.360252380371093750e+00,-1.796491026878356934e+00,1.406122446060180664e+00
8.443858623504638672e-01,-6.604816317558288574e-01,1.165107965469360352e+00,1.588168621063232422e+00,2.363080263137817383e+00,-1.795590996742248535e+00,1.395470261573791504e+00
8.455820679664611816e-01,-6.639482378959655762e-01,1.168079257011413574e+00,1.593675613403320312e+00,2.365921258926391602e+00,-1.794594407081604004e+00,1.384802937507629395e+00
8.469076156616210938e-01,-6.674855351448059082e-01,1.171183705329895020e+00,1.599418640136718750e+00,2.368779897689819336e+00,-1.793335437774658203e+00,1.374144554138183594e+00
8.482969999313354492e-01,-6.709988117218017578e-01,1.174152612686157227e+00,1.605153799057006836e+00,2.371704339981079102e+00,-1.791758060455322266e+00,1.363455533981323242e+00
8.496485352516174316e-01,-6.744316816329956055e-01,1.176854372024536133e+00,1.610749244689941406e+00,2.374726057052612305e+00,-1.789950251579284668e+00,1.352754473686218262e+00
8.509436249732971191e-01,-6.779112219810485840e-01,1.179718852043151855e+00,1.616404533386230469e+00,2.377696990966796875e+00,-1.788003921508789062e+00,1.342078447341918945e+00
8.522253036499023438e-01,-6.814634203910827637e-01,1.182938814163208008e+00,1.622129082679748535e+00,2.380551099777221680e+00,-1.786023974418640137e+00,1.331446290016174316e+00
8.535462617874145508e-01,-6.850521564483642578e-01,1.186190009117126465e+00,1.627774000167846680e+00,2.383343935012817383e+00,-1.783970952033996582e+00,1.320822596549987793e+00
8.549235463142395020e-01,-6.886488795280456543e-01,1.189662933349609375e+00,1.633490204811096191e+00,2.386228561401367188e+00,-1.781851053237915039e+00,1.310154318809509277e+00
8.563205599784851074e-01,-6.922237277030944824e-01,1.193106055259704590e+00,1.639313578605651855e+00,2.389086484909057617e+00,-1.779649496078491211e+00,1.299462080001831055e+00
8.576793670654296875e-01,-6.957734823226928711e-01,1.196371555328369141e+00,1.645001888275146484e+00,2.391901254653930664e+00,-1.777201414108276367e+00,1.288741230964660645e+00
8.589742183685302734e-01,-6.992977857589721680e-01,1.199456334114074707e+00,1.650666236877441406e+00,2.395232439041137695e+00,-1.774667739868164062e+00,1.277956366539001465e+00
8.602828383445739746e-01,-7.028620839118957520e-01,1.202556371688842773e+00,1.656473398208618164e+00,2.398669719696044922e+00,-1.772049427032470703e+00,1.267167448997497559e+00
8.616750836372375488e-01,-7.064946293830871582e-01,1.205662846565246582e+00,1.662366032600402832e+00,2.401980161666870117e+00,-1.769394397735595703e+00,1.256416797637939453e+00
8.631338477134704590e-01,-7.100770473480224609e-01,1.208841681480407715e+00,1.668228268623352051e+00,2.405325651168823242e+00,-1.766674280166625977e+00,1.245663046836853027e+00
8.646290898323059082e-01,-7.136194705963134766e-01,1.212124705314636230e+00,1.674043774604797363e+00,2.408422946929931641e+00,-1.763841271400451660e+00,1.234941959381103516e+00
8.661535978317260742e-01,-7.172215580940246582e-01,1.215738058090209961e+00,1.679881095886230469e+00,2.410101890563964844e+00,-1.760920643806457520e+00,1.224309802055358887e+00
8.676841855049133301e-01,-7.208362221717834473e-01,1.219229102134704590e+00,1.685649156570434570e+00,2.406313896179199219e+00,-1.757983803749084473e+00,1.213690161705017090e+00
8.692388534545898438e-01,-7.244871854782104492e-01,1.222599744796752930e+00,1.691413998603820801e+00,2.335317373275756836e+00,-1.755444884300231934e+00,1.203011751174926758e+00
8.708800673484802246e-01,-7.281963825225830078e-01,1.225328683853149414e+00,1.696526408195495605e+00,2.329629421234130859e+00,-1.767354488372802734e+00,1.192324519157409668e+00
8.725649714469909668e-01,-7.318454980850219727e-01,1.228454828262329102e+00,1.702128291130065918e+00,2.333089351654052734e+00,-1.846081018447875977e+00,1.181385755538940430e+00
8.742501139640808105e-01,-7.354149818420410156e-01,1.230608344078063965e+00,1.707244634628295898e+00,2.336785554885864258e+00,-1.859580993652343750e+00,1.169850826263427734e+00
8.759214282035827637e-01,-7.389974594116210938e-01,1.233853578567504883e+00,1.713029623031616211e+00,2.340108871459960938e+00,-1.856475949287414551e+00,1.158931612968444824e+00
8.775808811187744141e-01,-7.426252365112304688e-01,1.237644076347351074e+00,1.719006299972534180e+00,2.342979669570922852e+00,-1.852970242500305176e+00,1.148117780685424805e+00
8.792216777801513672e-01,-7.462539076805114746e-01,1.241421461105346680e+00,1.724818825721740723e+00,2.345334529876708984e+00,-1.849937558174133301e+00,1.137310981750488281e+00
8.808586001396179199e-01,-7.498530149459838867e-01,1.244874119758605957e+00,1.730914235115051270e+00,2.347209930419921875e+00,-1.847790360450744629e+00,1.126505017280578613e+00
8.825588226318359375e-01,-7.534614205360412598e-01,1.248284935951232910e+00,1.736558675765991211e+00,2.348536968231201172e+00,-1.846717476844787598e+00,1.115718603134155273e+00
8.843356370925903320e-01,-7.570488452911376953e-01,1.252117395401000977e+00,1.740755438804626465e+00,2.349288702011108398e+00,-1.846730351448059082e+00,1.104948520660400391e+00
8.861575722694396973e-01,-7.606212496757507324e-01,1.255875110626220703e+00,1.742789626121520996e+00,2.349586963653564453e+00,-1.847656607627868652e+00,1.094157099723815918e+00
8.880345225334167480e-01,-7.643031477928161621e-01,1.259457826614379883e+00,1.729240536689758301e+00,2.349532842636108398e+00,-1.849444866180419922e+00,1.083355307579040527e+00
8.899549841880798340e-01,-7.680047750473022461e-01,1.262945294380187988e+00,1.681612849235534668e+00,2.349305152893066406e+00,-1.852061867713928223e+00,1.072516918182373047e+00
8.919104933738708496e-01,-7.716425061225891113e-01,1.266559004783630371e+00,1.682344317436218262e+00,2.349032640457153320e+00,-1.855339169502258301e+00,1.061668872833251953e+00
8.938677906990051270e-01,-7.753151655197143555e-01,1.269966959953308105e+00,1.687949776649475098e+00,2.348969936370849609e+00,-1.858958005905151367e+00,1.050806641578674316e+00
8.958577513694763184e-01,-7.790117859840393066e-01,1.273370862007141113e+00,1.693567752838134766e+00,2.348996877670288086e+00,-1.862596750259399414e+00,1.039892673492431641e+00
8.978245258331298828e-01,-7.826999425888061523e-01,1.276759266853332520e+00,1.698921084403991699e+00,2.349036931991577148e+00,-1.866152524948120117e+00,1.028920769691467285e+00
8.997652530670166016e-01,-7.864630222320556641e-01,1.280102372169494629e+00,1.704095840454101562e+00,2.349006891250610352e+00,-1.869703412055969238e+00,1.017916202545166016e+00
9.017335176467895508e-01,-7.903053760528564453e-01,1.283389925956726074e+00,1.708836317062377930e+00,2.348911523818969727e+00,-1.873383164405822754e+00,1.006913661956787109e+00
9.037627577781677246e-01,-7.941675782203674316e-01,1.286557912826538086e+00,1.713088750839233398e+00,2.348790407180786133e+00,-1.877114057540893555e+00,9.958773851394653320e-01
9.058999419212341309e-01,-7.980901598930358887e-01,1.289506673812866211e+00,1.716877102851867676e+00,2.348654508590698242e+00,-1.881003618240356445e+00,9.848368167877197266e-01
9.081997871398925781e-01,-8.021090030670166016e-01,1.291761875152587891e+00,1.720533490180969238e+00,2.348485469818115234e+00,-1.884915113449096680e+00,9.737982153892517090e-01
9.106876254081726074e-01,-8.061952590942382812e-01,1.287907004356384277e+00,1.728353500366210938e+00,2.348311662673950195e+00,-1.888906598091125488e+00,9.627388119697570801e-01
9.133189916610717773e-01,-8.102735280990600586e-01,1.236094355583190918e+00,1.791694521903991699e+00,2.348106622695922852e+00,-1.892889261245727539e+00,9.516987204551696777e-01
9.159082174301147461e-01,-8.143641948699951172e-01,1.236405014991760254e+00,1.804138302803039551e+00,2.347936153411865234e+00,-1.895887494087219238e+00,9.410392642021179199e-01
9.186266660690307617e-01,-8.185154795646667480e-01,1.239595890045166016e+00,1.804151892662048340e+00,2.347740173339843750e+00,-1.899660587310791016e+00,9.300022721290588379e-01
9.214574694633483887e-01,-8.226398229598999023e-01,1.242744803428649902e+00,1.803276538848876953e+00,2.347457170486450195e+00,-1.903638601303100586e+00,9.189425110816955566e-01
9.244150519371032715e-01,-8.267140388488769531e-01,1.245679974555969238e+00,1.801816105842590332e+00,2.347043037414550781e+00,-1.907782077789306641e+00,9.079196453094482422e-01
9.274570345878601074e-01,-8.306728601455688477e-01,1.248237848281860352e+00,1.800234436988830566e+00,2.346578598022460938e+00,-1.912073969841003418e+00,8.968930244445800781e-01
9.305535554885864258e-01,-8.345171809196472168e-01,1.250274896621704102e+00,1.798749566078186035e+00,2.346085786819458008e+00,-1.916409015655517578e+00,8.858523368835449219e-01
9.336714744567871094e-01,-8.381932377815246582e-01,1.251656055450439453e+00,1.797514796257019043e+00,2.345548629760742188e+00,-1.920827746391296387e+00,8.747895956039428711e-01
9.367928504943847656e-01,-8.416517376899719238e-01,1.252307295799255371e+00,1.796652555465698242e+00,2.344943284988403320e+00,-1.925332069396972656e+00,8.637241721153259277e-01
9.399430155754089355e-01,-8.448466658592224121e-01,1.252255082130432129e+00,1.796151280403137207e+00,2.344262838363647461e+00,-1.930010676383972168e+00,8.526468873023986816e-01
9.431761503219604492e-01,-8.477208614349365234e-01,1.251711487770080566e+00,1.795963048934936523e+00,2.343499183654785156e+00,-1.934888005256652832e+00,8.415902256965637207e-01
9.464719295501708984e-01,-8.502490520477294922e-01,1.250765323638916016e+00,1.796103715896606445e+00,2.342659950256347656e+00,-1.939820528030395508e+00,8.305501937866210938e-01
9.497434496879577637e-01,-8.524665236473083496e-01,1.249429702758789062e+00,1.796680927276611328e+00,2.341739177703857422e+00,-1.944667100906372070e+00,8.194998502731323242e-01
9.529054164886474609e-01,-8.544234037399291992e-01,1.247832894325256348e+00,1.797477602958679199e+00,2.340751171112060547e+00,-1.949525833129882812e+00,8.084589838981628418e-01
9.558947086334228516e-01,-8.562465906143188477e-01,1.246036171913146973e+00,1.799340367317199707e+00,2.339733839035034180e+00,-1.954399228096008301e+00,7.973992228507995605e-01
9.586920142173767090e-01,-8.581120967864990234e-01,1.244173765182495117e+00,1.801907420158386230e+00,2.338678121566772461e+00,-1.959266543388366699e+00,7.863478660583496094e-01
9.613485336303710938e-01,-8.600999116897583008e-01,1.242410182952880859e+00,1.804262399673461914e+00,2.337574958801269531e+00,-1.964197278022766113e+00,7.752941250801086426e-01
9.639177918434143066e-01,-8.622400164604187012e-01,1.240668892860412598e+00,1.808313012123107910e+00,2.336452484130859375e+00,-1.969140410423278809e+00,7.642055749893188477e-01
9.664279222488403320e-01,-8.645991086959838867e-01,1.238953828811645508e+00,1.813465118408203125e+00,2.335314273834228516e+00,-1.974119305610656738e+00,7.530870437622070312e-01
9.689173698425292969e-01,-8.672500252723693848e-01,1.237213850021362305e+00,1.818981409072875977e+00,2.334144830703735352e+00,-1.979130744934082031e+00,7.419524192810058594e-01
9.714508652687072754e-01,-8.702309131622314453e-01,1.235232710838317871e+00,1.824685215950012207e+00,2.332978248596191406e+00,-1.984068274497985840e+00,7.307667732238769531e-01
9.740750193595886230e-01,-8.734875917434692383e-01,1.233079910278320312e+00,1.829249382019042969e+00,2.331748962402343750e+00,-1.989158391952514648e+00,7.196096181869506836e-01
9.768220782279968262e-01,-8.768950700759887695e-01,1.230917811393737793e+00,1.832016348838806152e+00,2.330439090728759766e+00,-1.994321942329406738e+00,7.085208892822265625e-01
9.796728491783142090e-01,-8.803378343582153320e-01,1.228708982467651367e+00,1.833172917366027832e+00,2.329104423522949219e+00,-1.999629497528076172e+00,6.974414587020874023e-01
9.825932979583740234e-01,-8.836398720741271973e-01,1.226702451705932617e+00,1.824007987976074219e+00,2.327727556228637695e+00,-2.004939556121826172e+00,6.863939166069030762e-01
9.855369925498962402e-01,-8.866750001907348633e-01,1.225306630134582520e+00,1.769635558128356934e+00,2.326294183731079102e+00,-2.010310888290405273e+00,6.753767728805541992e-01
9.884778857231140137e-01,-8.895206451416015625e-01,1.278311610221862793e+00,1.767040729522705078e+00,2.324723482131958008e+00,-2.015375852584838867e+00,6.643785238265991211e-01
9.913449287414550781e-01,-8.922763466835021973e-01,1.284468173980712891e+00,1.771100878715515137e+00,2.323289632797241211e+00,-2.021718025207519531e+00,6.524996161460876465e-01
9.941062927246093750e-01,-8.949687480926513672e-01,1.281700491905212402e+00,1.775066018104553223e+00,2.321768045425415039e+00,-2.027190923690795898e+00,6.412072777748107910e-01
9.968134164810180664e-01,-8.977198004722595215e-01,1.278770208358764648e+00,1.778824567794799805e+00,2.320209741592407227e+00,-2.032554626464843750e+00,6.300194263458251953e-01
9.995456337928771973e-01,-9.006720781326293945e-01,1.276040792465209961e+00,1.782258749008178711e+00,2.318603992462158203e+00,-2.038080930709838867e+00,6.188828349113464355e-01
1.002370238304138184e+00,-9.037529230117797852e-01,1.273670554161071777e+00,1.785297989845275879e+00,2.316973686218261719e+00,-2.043663978576660156e+00,6.077198386192321777e-01
1.005231380462646484e+00,-9.068749547004699707e-01,1.271613001823425293e+00,1.787843704223632812e+00,2.315330028533935547e+00,-2.049270153045654297e+00,5.964686274528503418e-01
1.008023381233215332e+00,-9.100942611694335938e-01,1.269865751266479492e+00,1.789827823638916016e+00,2.313708543777465820e+00,-2.054770708084106445e+00,5.851786136627197266e-01
1.010754346847534180e+00,-9.135240316390991211e-01,1.268558740615844727e+00,1.791157722473144531e+00,2.312121629714965820e+00,-2.060273647308349609e+00,5.739130377769470215e-01
1.013528108596801758e+00,-9.171335101127624512e-01,1.267829298973083496e+00,1.791706085205078125e+00,2.310541391372680664e+00,-2.065903425216674805e+00,5.626591444015502930e-01
1.016381144523620605e+00,-9.209086894989013672e-01,1.267720341682434082e+00,1.791607499122619629e+00,2.308988332748413086e+00,-2.071523189544677734e+00,5.513986349105834961e-01
1.019289255142211914e+00,-9.248646497726440430e-01,1.268000602722167969e+00,1.791008472442626953e+00,2.307449340820312500e+00,-2.076722145080566406e+00,5.401111841201782227e-01
1.022239565849304199e+00,-9.288896322250366211e-01,1.267230153083801270e+00,1.790535926818847656e+00,2.305933952331542969e+00,-2.081423759460449219e+00,5.287587642669677734e-01
1.025233387947082520e+00,-9.329863190650939941e-01,1.255559444427490234e+00,1.790022134780883789e+00,2.304404735565185547e+00,-2.085639238357543945e+00,5.174323916435241699e-01
1.028249263763427734e+00,-9.371758103370666504e-01,1.210607409477233887e+00,1.790340065956115723e+00,2.302817106246948242e+00,-2.088863134384155273e+00,5.062370300292968750e-01
1.031268239021301270e+00,-9.413616657257080078e-01,1.209916353225708008e+00,1.794181823730468750e+00,2.301188707351684570e+00,-2.085438013076782227e+00,4.955788850784301758e-01
1.034288883209228516e+00,-9.454248547554016113e-01,1.212032318115234375e+00,1.844347238540649414e+00,2.299567461013793945e+00,-2.081629753112792969e+00,4.843782484531402588e-01
1.037159442901611328e+00,-9.492316246032714844e-01,1.213801383972167969e+00,1.862354755401611328e+00,2.297957897186279297e+00,-2.055798053741455078e+00,4.732006490230560303e-01
1.039989233016967773e+00,-9.528679251670837402e-01,1.215440750122070312e+00,1.861881017684936523e+00,2.296189546585083008e+00,-1.993807315826416016e+00,4.624796509742736816e-01
1.042881369590759277e+00,-9.562945365905761719e-01,1.216894149780273438e+00,1.860873937606811523e+00,2.294277906417846680e+00,-1.989221096038818359e+00,4.536761045455932617e-01
1.045906782150268555e+00,-9.595190882682800293e-01,1.217796802520751953e+00,1.859605073928833008e+00,2.292383670806884766e+00,-1.991407990455627441e+00,4.437429606914520264e-01
1.049113631248474121e+00,-9.625784158706665039e-01,1.218191504478454590e+00,1.858715891838073730e+00,2.290416717529296875e+00,-1.993700742721557617e+00,4.333940446376800537e-01
1.052379250526428223e+00,-9.654145240783691406e-01,1.218068003654479980e+00,1.858270883560180664e+00,2.288380622863769531e+00,-1.995473504066467285e+00,4.229379892349243164e-01
1.055544972419738770e+00,-9.679860472679138184e-01,1.217457056045532227e+00,1.858557820320129395e+00,2.286287307739257812e+00,-1.996327042579650879e+00,4.122108221054077148e-01
1.058535099029541016e+00,-9.703496694564819336e-01,1.216948390007019043e+00,1.859476923942565918e+00,2.284118175506591797e+00,-1.996189594268798828e+00,4.013666808605194092e-01
1.061431646347045898e+00,-9.725819826126098633e-01,1.221793889999389648e+00,1.859777212142944336e+00,2.281889677047729492e+00,-1.995353579521179199e+00,3.912658989429473877e-01
1.064352273941040039e+00,-9.748019576072692871e-01,1.273810267448425293e+00,1.855583548545837402e+00,2.279591321945190430e+00,-1.994146823883056641e+00,3.817485570907592773e-01
1.067258358001708984e+00,-9.771177172660827637e-01,1.275161147117614746e+00,1.793469190597534180e+00,2.277249574661254883e+00,-1.997265458106994629e+00,3.670327067375183105e-01
1.069976687431335449e+00,-9.795247912406921387e-01,1.272933125495910645e+00,1.786961197853088379e+00,2.274823665618896484e+00,-1.995339870452880859e+00,3.545624613761901855e-01
1.072405099868774414e+00,-9.820094108581542969e-01,1.270412564277648926e+00,1.790067911148071289e+00,2.272458553314208984e+00,-1.991828918457031250e+00,3.431661128997802734e-01
1.074651360511779785e+00,-9.846239686012268066e-01,1.268051266670227051e+00,1.793271303176879883e+00,2.270102500915527344e+00,-1.989013433456420898e+00,3.323219120502471924e-01
1.076871871948242188e+00,-9.874107241630554199e-01,1.266110539436340332e+00,1.796137452125549316e+00,2.267760992050170898e+00,-1.987778186798095703e+00,3.217395246028900146e-01
1.079197645187377930e+00,-9.904277324676513672e-01,1.264750003814697266e+00,1.798329830169677734e+00,2.265393972396850586e+00,-1.989145874977111816e+00,3.117835223674774170e-01
1.081667900085449219e+00,-9.936857819557189941e-01,1.263993859291076660e+00,1.800307869911193848e+00,2.263040065765380859e+00,-1.997049927711486816e+00,3.018741011619567871e-01
1.084261417388916016e+00,-9.972203373908996582e-01,1.263848781585693359e+00,1.801941990852355957e+00,2.260735750198364258e+00,-2.060540199279785156e+00,2.903710007667541504e-01
1.086896896362304688e+00,-1.001021623611450195e+00,1.264139652252197266e+00,1.802795171737670898e+00,2.258574485778808594e+00,-2.086007118225097656e+00,2.754513919353485107e-01
1.089539289474487305e+00,-1.004991292953491211e+00,1.264919519424438477e+00,1.803066372871398926e+00,2.256381511688232422e+00,-2.084595441818237305e+00,2.632791399955749512e-01
1.092184901237487793e+00,-1.009086966514587402e+00,1.266131997108459473e+00,1.802643775939941406e+00,2.254118680953979492e+00,-2.082199811935424805e+00,2.520700991153717041e-01
1.094823122024536133e+00,-1.013404130935668945e+00,1.267612218856811523e+00,1.801526904106140137e+00,2.251834630966186523e+00,-2.080307245254516602e+00,2.410007715225219727e-01
1.097508072853088379e+00,-1.017854928970336914e+00,1.269273042678833008e+00,1.799767732620239258e+00,2.249553442001342773e+00,-2.079403162002563477e+00,2.299839258193969727e-01
1.100327253341674805e+00,-1.022271990776062012e+00,1.271027445793151855e+00,1.797441840171813965e+00,2.247232675552368164e+00,-2.079542636871337891e+00,2.189448475837707520e-01
1.103278160095214844e+00,-1.026489257812500000e+00,1.272836923599243164e+00,1.794749379158020020e+00,2.244882106781005859e+00,-2.080536603927612305e+00,2.078297138214111328e-01
1.106278300285339355e+00,-1.030469417572021484e+00,1.274703860282897949e+00,1.791862726211547852e+00,2.242488145828247070e+00,-2.082009792327880859e+00,1.966549158096313477e-01
1.109284758567810059e+00,-1.034238457679748535e+00,1.276635169982910156e+00,1.788939118385314941e+00,2.240057706832885742e+00,-2.083710432052612305e+00,1.854635477066040039e-01
1.112283229827880859e+00,-1.037760019302368164e+00,1.278633832931518555e+00,1.786132454872131348e+00,2.237594366073608398e+00,-2.085374832153320312e+00,1.742872595787048340e-01
1.115226984024047852e+00,-1.041032910346984863e+00,1.280702948570251465e+00,1.783498406410217285e+00,2.235104084014892578e+00,-2.086858272552490234e+00,1.631113588809967041e-01
1.118057131767272949e+00,-1.044157266616821289e+00,1.282934427261352539e+00,1.780992627143859863e+00,2.232575178146362305e+00,-2.088177204132080078e+00,1.519372463226318359e-01
1.120755553245544434e+00,-1.047264099121093750e+00,1.285303115844726562e+00,1.778573632240295410e+00,2.230046272277832031e+00,-2.089317321777343750e+00,1.407536864280700684e-01
1.123382329940795898e+00,-1.050435662269592285e+00,1.287832856178283691e+00,1.776225328445434570e+00,2.227480888366699219e+00,-2.090430974960327148e+00,1.295946538448333740e-01
1.126033782958984375e+00,-1.053714752197265625e+00,1.290363430976867676e+00,1.773802161216735840e+00,2.224909782409667969e+00,-2.091444492340087891e+00,1.183435469865798950e-01
1.128769993782043457e+00,-1.057193398475646973e+00,1.292958736419677734e+00,1.771268248558044434e+00,2.222311496734619141e+00,-2.092405796051025391e+00,1.071079224348068237e-01
1.131619691848754883e+00,-1.060809135437011719e+00,1.295550584793090820e+00,1.768618345260620117e+00,2.219687700271606445e+00,-2.093304634094238281e+00,9.585738182067871094e-02
1.134549975395202637e+00,-1.064357638359069824e+00,1.298000335693359375e+00,1.765761137008666992e+00,2.217076539993286133e+00,-2.094046354293823242e+00,8.446639776229858398e-02
1.137525081634521484e+00,-1.067810416221618652e+00,1.300417900085449219e+00,1.762661814689636230e+00,2.214429616928100586e+00,-2.094706535339355469e+00,7.307184487581253052e-02
1.140582799911499023e+00,-1.071294784545898438e+00,1.302982568740844727e+00,1.759352207183837891e+00,2.211780786514282227e+00,-2.095271825790405273e+00,6.180271878838539124e-02
1.143789052963256836e+00,-1.074786901473999023e+00,1.305734038352966309e+00,1.755866646766662598e+00,2.209089279174804688e+00,-2.095838069915771484e+00,5.059525370597839355e-02
1.147121787071228027e+00,-1.078291773796081543e+00,1.308672666549682617e+00,1.752319812774658203e+00,2.206374883651733398e+00,-2.096313238143920898e+00,3.943189233541488647e-02
1.150439977645874023e+00,-1.081812620162963867e+00,1.311692953109741211e+00,1.748807311058044434e+00,2.203627109527587891e+00,-2.096609592437744141e+00,2.824866399168968201e-02
1.153569340705871582e+00,-1.085292100906372070e+00,1.314465045928955078e+00,1.745240688323974609e+00,2.200850486755371094e+00,-2.096709012985229492e+00,1.690682396292686462e-02
1.156458735466003418e+00,-1.088781714439392090e+00,1.317028045654296875e+00,1.741514801979064941e+00,2.198081016540527344e+00,-2.096637964248657227e+00,5.516067147254943848e-03
1.159214854240417480e+00,-1.092364430427551270e+00,1.319620490074157715e+00,1.737560629844665527e+00,2.195273876190185547e+00,-2.096618652343750000e+00,-5.780644714832305908e-03
1.161920070648193359e+00,-1.096007943153381348e+00,1.320777893066406250e+00,1.732797622680664062e+00,2.192567586898803711e+00,-2.095423460006713867e+00,-1.584456861019134521e-02
1.164748668670654297e+00,-1.099696397781372070e+00,1.323432207107543945e+00,1.728705525398254395e+00,2.189699411392211914e+00,-2.095468044281005859e+00,-2.646083198487758636e-02
1.167588949203491211e+00,-1.103362321853637695e+00,1.325823545455932617e+00,1.724615335464477539e+00,2.186810970306396484e+00,-2.095527410507202148e+00,-3.739459067583084106e-02
1.170331478118896484e+00,-1.106975436210632324e+00,1.325640082359313965e+00,1.720401167869567871e+00,2.183914422988891602e+00,-2.095298051834106445e+00,-4.863901436328887939e-02
1.172944307327270508e+00,-1.110616087913513184e+00,1.290753126144409180e+00,1.715978980064392090e+00,2.181003093719482422e+00,-2.094791173934936523e+00,-6.000471487641334534e-02
1.175533771514892578e+00,-1.114276885986328125e+00,1.274298191070556641e+00,1.711510896682739258e+00,2.178050279617309570e+00,-2.091399908065795898e+00,-6.826823949813842773e-02
1.178258419036865234e+00,-1.117955088615417480e+00,1.276629686355590820e+00,1.707057476043701172e+00,2.175094842910766602e+00,-2.088147878646850586e+00,-7.211777567863464355e-02
1.181193351745605469e+00,-1.121604919433593750e+00,1.279606580734252930e+00,1.702637195587158203e+00,2.172108650207519531e+00,-2.088436365127563477e+00,-6.234803795814514160e-02
1.184232115745544434e+00,-1.125153064727783203e+00,1.282282114028930664e+00,1.698130726814270020e+00,2.169070005416870117e+00,-2.086810350418090820e+00,-2.201911062002182007e-03
1.187233209609985352e+00,-1.128663778305053711e+00,1.284353494644165039e+00,1.693417787551879883e+00,2.165914773941040039e+00,-2.005021572113037109e+00,-1.629553735256195068e-03
1.190215468406677246e+00,-1.132210016250610352e+00,1.286318182945251465e+00,1.689010381698608398e+00,2.162710905075073242e+00,-1.979593157768249512e+00,-1.159992814064025879e-02
1.193213939666748047e+00,-1.135735273361206055e+00,1.287513017654418945e+00,1.684431314468383789e+00,2.159553527832031250e+00,-1.978711605072021484e+00,-2.204196527600288391e-02
1.196326732635498047e+00,-1.139131069183349609e+00,1.287930130958557129e+00,1.679623484611511230e+00,2.156368494033813477e+00,-1.978783965110778809e+00,-3.182375058531761169e-02
1.199609160423278809e+00,-1.142270445823669434e+00,1.287816882133483887e+00,1.674644112586975098e+00,2.153102636337280273e+00,-1.978837847709655762e+00,-4.033907502889633179e-02
1.203054666519165039e+00,-1.145126581192016602e+00,1.287306189537048340e+00,1.669679880142211914e+00,2.149757862091064453e+00,-1.978526353836059570e+00,-4.721894115209579468e-02
1.206608176231384277e+00,-1.147723793983459473e+00,1.286352276802062988e+00,1.664814710617065430e+00,2.146337032318115234e+00,-1.977386832237243652e+00,-5.228589102625846863e-02
1.210156321525573730e+00,-1.150068163871765137e+00,1.284899353981018066e+00,1.659972071647644043e+00,2.142855644226074219e+00,-1.975162506103515625e+00,-5.550726130604743958e-02
1.213571190834045410e+00,-1.152237415313720703e+00,1.283002495765686035e+00,1.655142545700073242e+00,2.139331340789794922e+00,-1.971885561943054199e+00,-5.702737346291542053e-02
1.216830372810363770e+00,-1.154381632804870605e+00,1.281045317649841309e+00,1.650350809097290039e+00,2.135771751403808594e+00,-1.967906832695007324e+00,-5.717220902442932129e-02
1.220023155212402344e+00,-1.156541228294372559e+00,1.279058575630187988e+00,1.645677328109741211e+00,2.132193088531494141e+00,-1.963659048080444336e+00,-5.656614899635314941e-02
1.223240971565246582e+00,-1.158736944198608398e+00,1.277077198028564453e+00,1.641152501106262207e+00,2.128609657287597656e+00,-1.959394693374633789e+00,-5.577711015939712524e-02
1.226461768150329590e+00,-1.161074995994567871e+00,1.275309920310974121e+00,1.636308073997497559e+00,2.124995708465576172e+00,-1.954947829246520996e+00,-5.522751063108444214e-02
1.229626178741455078e+00,-1.163632988929748535e+00,1.273683905601501465e+00,1.631238460540771484e+00,2.121385812759399414e+00,-1.950324296951293945e+00,-5.518996343016624451e-02
1.232738494873046875e+00,-1.166421413421630859e+00,1.271919131278991699e+00,1.626274585723876953e+00,2.117775201797485352e+00,-1.945625543594360352e+00,-5.576373264193534851e-02
1.235877156257629395e+00,-1.169402241706848145e+00,1.269883632659912109e+00,1.621397495269775391e+00,2.114174127578735352e+00,-1.940927743911743164e+00,-5.689162760972976685e-02
1.239150166511535645e+00,-1.172505855560302734e+00,1.267771720886230469e+00,1.616208672523498535e+00,2.110559225082397461e+00,-1.936365246772766113e+00,-5.831117555499076843e-02
1.242636442184448242e+00,-1.175647974014282227e+00,1.265825152397155762e+00,1.610588669776916504e+00,2.106891155242919922e+00,-1.932149767875671387e+00,-5.959145724773406982e-02
1.246295332908630371e+00,-1.178655982017517090e+00,1.263804793357849121e+00,1.605259895324707031e+00,2.103180885314941406e+00,-1.928028821945190430e+00,-6.052425131201744080e-02
1.249926090240478516e+00,-1.181399106979370117e+00,1.261522173881530762e+00,1.600568652153015137e+00,2.099424839019775391e+00,-1.923465728759765625e+00,-6.109115108847618103e-02
1.253328084945678711e+00,-1.183946847915649414e+00,1.259045958518981934e+00,1.597024083137512207e+00,2.095630884170532227e+00,-1.918062925338745117e+00,-6.139679998159408569e-02
1.256531119346618652e+00,-1.186463117599487305e+00,1.256483316421508789e+00,1.594408392906188965e+00,2.091808795928955078e+00,-1.912541270256042480e+00,-6.162682920694351196e-02
1.259721517562866211e+00,-1.188995718955993652e+00,1.253923058509826660e+00,1.588798284530639648e+00,2.087956190109252930e+00,-1.907434821128845215e+00,-6.180544197559356689e-02
1.263006687164306641e+00,-1.191567301750183105e+00,1.251565337181091309e+00,1.581308007240295410e+00,2.084066390991210938e+00,-1.902709126472473145e+00,-6.190153211355209351e-02
1.266342878341674805e+00,-1.194254159927368164e+00,1.249495029449462891e+00,1.574727892875671387e+00,2.080152988433837891e+00,-1.898061513900756836e+00,-6.183770671486854553e-02
1.269647598266601562e+00,-1.197006225585937500e+00,1.247067689895629883e+00,1.569214701652526855e+00,2.076228380203247070e+00,-1.893134117126464844e+00,-6.168176233768463135e-02
1.272848725318908691e+00,-1.199735283851623535e+00,1.244044542312622070e+00,1.565660715103149414e+00,2.072303533554077148e+00,-1.887572050094604492e+00,-6.148827075958251953e-02
1.275923490524291992e+00,-1.202446103096008301e+00,1.240733385086059570e+00,1.566491127014160156e+00,2.068366050720214844e+00,-1.881773352622985840e+00,-6.121323630213737488e-02
1.278968691825866699e+00,-1.205213427543640137e+00,1.237511277198791504e+00,1.578335881233215332e+00,2.064421892166137695e+00,-1.876692652702331543e+00,-6.078949943184852600e-02
1.282092213630676270e+00,-1.208037137985229492e+00,1.234061479568481445e+00,1.614867210388183594e+00,2.060456514358520508e+00,-1.872671961784362793e+00,-6.022357195615768433e-02
1.285238742828369141e+00,-1.210803866386413574e+00,1.230384707450866699e+00,1.619976520538330078e+00,2.056504964828491211e+00,-1.868585348129272461e+00,-5.954540520906448364e-02
1.288390994071960449e+00,-1.213620543479919434e+00,1.227340936660766602e+00,1.615113496780395508e+00,2.052475452423095703e+00,-1.864274501800537109e+00,-5.876747146248817444e-02
1.291481018066406250e+00,-1.216457843780517578e+00,1.224305748939514160e+00,1.609882116317749023e+00,2.048437356948852539e+00,-1.860427021980285645e+00,-5.786870792508125305e-02
1.294541954994201660e+00,-1.219222664833068848e+00,1.221152544021606445e+00,1.604490637779235840e+00,2.044375896453857422e+00,-1.859256625175476074e+00,-5.686958506703376770e-02
1.297605156898498535e+00,-1.221863150596618652e+00,1.217981457710266113e+00,1.598784446716308594e+00,2.040319681167602539e+00,-1.882717251777648926e+00,-5.574817210435867310e-02
1.300699353218078613e+00,-1.224460244178771973e+00,1.214809775352478027e+00,1.588009238243103027e+00,2.036301851272583008e+00,-1.942456841468811035e+00,-5.470420047640800476e-02
1.303858518600463867e+00,-1.227025985717773438e+00,1.211516261100769043e+00,1.513941287994384766e+00,2.032383441925048828e+00,-1.942371368408203125e+00,-5.395626276731491089e-02
1.307119846343994141e+00,-1.229533672332763672e+00,1.214663743972778320e+00,1.506715416908264160e+00,2.028201818466186523e+00,-1.936982035636901855e+00,-5.261459201574325562e-02
1.310098886489868164e+00,-1.231947779655456543e+00,1.267571091651916504e+00,1.504820108413696289e+00,2.024092197418212891e+00,-1.931723833084106445e+00,-5.094251409173011780e-02
1.312747716903686523e+00,-1.234366774559020996e+00,1.268660545349121094e+00,1.503654718399047852e+00,2.020095586776733398e+00,-1.927706122398376465e+00,-4.974043741822242737e-02
1.315113425254821777e+00,-1.236708521842956543e+00,1.265218019485473633e+00,1.503281235694885254e+00,2.016026973724365234e+00,-1.924253582954406738e+00,-4.778812453150749207e-02
1.317347645759582520e+00,-1.238947868347167969e+00,1.261750221252441406e+00,1.503541469573974609e+00,2.011952400207519531e+00,-1.922126770019531250e+00,-4.567692056298255920e-02
1.319617629051208496e+00,-1.241117835044860840e+00,1.258689403533935547e+00,1.504253387451171875e+00,2.007886648178100586e+00,-1.921388745307922363e+00,-4.348289221525192261e-02
1.321948051452636719e+00,-1.243246316909790039e+00,1.256170272827148438e+00,1.505342245101928711e+00,2.003819704055786133e+00,-1.921786665916442871e+00,-4.123574495315551758e-02
1.324245214462280273e+00,-1.245472431182861328e+00,1.254006147384643555e+00,1.506645798683166504e+00,1.999701023101806641e+00,-1.922984957695007324e+00,-3.896150365471839905e-02
1.326399922370910645e+00,-1.247931361198425293e+00,1.252167582511901855e+00,1.507931232452392578e+00,1.995538830757141113e+00,-1.924546241760253906e+00,-3.659800067543983459e-02
1.328395009040832520e+00,-1.250733256340026855e+00,1.250871777534484863e+00,1.509062528610229492e+00,1.991439104080200195e+00,-1.926207304000854492e+00,-3.416955471038818359e-02
1.330327391624450684e+00,-1.253854513168334961e+00,1.250327944755554199e+00,1.509797692298889160e+00,1.987395405769348145e+00,-1.927700400352478027e+00,-3.166603669524192810e-02
1.332287073135375977e+00,-1.257212638854980469e+00,1.250493288040161133e+00,1.510079026222229004e+00,1.983385443687438965e+00,-1.928978562355041504e+00,-2.906307950615882874e-02
1.334327936172485352e+00,-1.260774850845336914e+00,1.251234650611877441e+00,1.509837508201599121e+00,1.979385852813720703e+00,-1.930041193962097168e+00,-2.637877687811851501e-02
1.336469411849975586e+00,-1.264557123184204102e+00,1.252476811408996582e+00,1.508947849273681641e+00,1.975378632545471191e+00,-1.931199431419372559e+00,-2.361228317022323608e-02
1.338747859001159668e+00,-1.268586993217468262e+00,1.254045367240905762e+00,1.507430076599121094e+00,1.971370935440063477e+00,-1.932531356811523438e+00,-2.075475454330444336e-02
1.341199874877929688e+00,-1.272778511047363281e+00,1.255776047706604004e+00,1.505332231521606445e+00,1.967346429824829102e+00,-1.934164047241210938e+00,-1.779691129922866821e-02
1.343810915946960449e+00,-1.277014851570129395e+00,1.257597088813781738e+00,1.502628803253173828e+00,1.963318228721618652e+00,-1.935951352119445801e+00,-1.477472484111785889e-02
1.346476316452026367e+00,-1.281140089035034180e+00,1.259367823600769043e+00,1.499327301979064941e+00,1.959267139434814453e+00,-1.937810778617858887e+00,-1.172570139169692993e-02
1.349107503890991211e+00,-1.285109758377075195e+00,1.260955929756164551e+00,1.495559453964233398e+00,1.955196142196655273e+00,-1.939719557762145996e+00,-8.593708276748657227e-03
1.351735591888427734e+00,-1.288969993591308594e+00,1.262439489364624023e+00,1.491428494453430176e+00,1.951093673706054688e+00,-1.941799163818359375e+00,-5.317676812410354614e-03
1.354500770568847656e+00,-1.292658805847167969e+00,1.263868212699890137e+00,1.486932635307312012e+00,1.946968555450439453e+00,-1.944028854370117188e+00,-1.924775540828704834e-03
1.357455730438232422e+00,-1.296105742454528809e+00,1.265364050865173340e+00,1.482198953628540039e+00,1.942819476127624512e+00,-1.946416735649108887e+00,1.584317535161972046e-03
1.360500812530517578e+00,-1.299290299415588379e+00,1.266947507858276367e+00,1.477399706840515137e+00,1.938646554946899414e+00,-1.948823451995849609e+00,5.167819559574127197e-03
1.363503217697143555e+00,-1.302302360534667969e+00,1.268761754035949707e+00,1.472652435302734375e+00,1.934443473815917969e+00,-1.951293826103210449e+00,8.872963488101959229e-03
1.366387724876403809e+00,-1.305330514907836914e+00,1.270632743835449219e+00,1.468067526817321777e+00,1.930221199989318848e+00,-1.953789710998535156e+00,1.262465491890907288e-02
1.369151711463928223e+00,-1.308508753776550293e+00,1.272558689117431641e+00,1.463372945785522461e+00,1.925974488258361816e+00,-1.956349849700927734e+00,1.646377518773078918e-02
1.371882081031799316e+00,-1.311926960945129395e+00,1.274659514427185059e+00,1.458320856094360352e+00,1.921742677688598633e+00,-1.958965420722961426e+00,2.042892575263977051e-02
1.374693155288696289e+00,-1.315571188926696777e+00,1.277127385139465332e+00,1.452941775321960449e+00,1.917508125305175781e+00,-1.961781859397888184e+00,2.454930916428565979e-02
1.377657294273376465e+00,-1.319229602813720703e+00,1.279594898223876953e+00,1.447669029235839844e+00,1.913280487060546875e+00,-1.964701175689697266e+00,2.868675440549850464e-02
1.380754113197326660e+00,-1.322763919830322266e+00,1.281961202621459961e+00,1.442552566528320312e+00,1.909053206443786621e+00,-1.967695236206054688e+00,3.283273428678512573e-02
1.383903145790100098e+00,-1.326252937316894531e+00,1.284381508827209473e+00,1.437485456466674805e+00,1.904790401458740234e+00,-1.970716953277587891e+00,3.706289082765579224e-02
1.387049198150634766e+00,-1.329689502716064453e+00,1.286919236183166504e+00,1.432454228401184082e+00,1.900520920753479004e+00,-1.973795294761657715e+00,4.140230268239974976e-02
1.390180945396423340e+00,-1.333091378211975098e+00,1.289370417594909668e+00,1.427470803260803223e+00,1.896226406097412109e+00,-1.976937294006347656e+00,4.580090567469596863e-02
1.393281459808349609e+00,-1.336479306221008301e+00,1.291724681854248047e+00,1.422469854354858398e+00,1.891930460929870605e+00,-1.980077862739562988e+00,5.027221515774726868e-02
1.396361589431762695e+00,-1.339819192886352539e+00,1.294013977050781250e+00,1.417377233505249023e+00,1.887612104415893555e+00,-1.983322739601135254e+00,5.482428893446922302e-02
1.399469971656799316e+00,-1.343151330947875977e+00,1.296544313430786133e+00,1.412127733230590820e+00,1.883268356323242188e+00,-1.986648917198181152e+00,5.947389081120491028e-02
1.402624130249023438e+00,-1.346538186073303223e+00,1.299344539642333984e+00,1.406764984130859375e+00,1.878895998001098633e+00,-1.990076541900634766e+00,6.422094255685806274e-02
1.405764222145080566e+00,-1.349957346916198730e+00,1.301300644874572754e+00,1.401526093482971191e+00,1.874506354331970215e+00,-1.993494153022766113e+00,6.899742782115936279e-02
1.408799767494201660e+00,-1.353417873382568359e+00,1.300841569900512695e+00,1.396525382995605469e+00,1.870125174522399902e+00,-1.996908783912658691e+00,7.382757961750030518e-02
1.411712169647216797e+00,-1.356892943382263184e+00,1.263240814208984375e+00,1.391908645629882812e+00,1.865735769271850586e+00,-2.000275850296020508e+00,7.874912023544311523e-02
1.414591073989868164e+00,-1.360320925712585449e+00,1.247521638870239258e+00,1.387650609016418457e+00,1.861287117004394531e+00,-2.002143621444702148e+00,8.409107476472854614e-02
1.417406558990478516e+00,-1.363734483718872070e+00,1.250017285346984863e+00,1.383115768432617188e+00,1.856858253479003906e+00,-2.003782033920288086e+00,8.929238468408584595e-02
1.420191526412963867e+00,-1.367195606231689453e+00,1.253011107444763184e+00,1.379717230796813965e+00,1.852435946464538574e+00,-2.007002830505371094e+00,9.442535042762756348e-02
1.422963500022888184e+00,-1.370532512664794922e+00,1.255643725395202637e+00,1.382490873336791992e+00,1.848000049591064453e+00,-2.010532379150390625e+00,9.956884384155273438e-02
1.425722837448120117e+00,-1.373401641845703125e+00,1.257737517356872559e+00,1.429624557495117188e+00,1.843551993370056152e+00,-2.013743638992309570e+00,1.047824919223785400e-01
1.428087472915649414e+00,-1.316682815551757812e+00,1.259181261062622070e+00,1.438745975494384766e+00,1.839158654212951660e+00,-2.015061140060424805e+00,1.101339310407638550e-01
1.430700421333312988e+00,-1.314154148101806641e+00,1.260298848152160645e+00,1.431563496589660645e+00,1.834965586662292480e+00,-2.013602972030639648e+00,1.154320016503334045e-01
1.433727264404296875e+00,-1.317218422889709473e+00,1.260859370231628418e+00,1.424601912498474121e+00,1.830420970916748047e+00,-2.015852212905883789e+00,1.209085062146186829e-01
1.436985611915588379e+00,-1.320261359214782715e+00,1.260752797126770020e+00,1.413023591041564941e+00,1.825817465782165527e+00,-2.023656606674194336e+00,1.264724433422088623e-01
1.440402746200561523e+00,-1.323233127593994141e+00,1.260077834129333496e+00,1.344797611236572266e+00,1.821183085441589355e+00,-2.031545877456665039e+00,1.320721358060836792e-01
1.444120645523071289e+00,-1.329754471778869629e+00,1.259284377098083496e+00,1.330278992652893066e+00,1.816378474235534668e+00,-2.037774801254272461e+00,1.376236528158187866e-01
1.447250962257385254e+00,-1.392777323722839355e+00,1.257785081863403320e+00,1.326191186904907227e+00,1.811711430549621582e+00,-2.041424751281738281e+00,1.433311104774475098e-01
1.450083732604980469e+00,-1.396276235580444336e+00,1.256394982337951660e+00,1.324050545692443848e+00,1.806836843490600586e+00,-2.044496536254882812e+00,1.492407172918319702e-01
