Afshin1997/kuka_rl_ros2/src/catch_and_throw/output_files/tm/idealpd/tm_received_joint_target_np.csv
joint_0,joint_1,joint_2,joint_3,joint_4,joint_5,joint_6
1.8612,-1.14253,-1.80918,-1.18364,1.9789,1.17027,-0.961923
1.86121,-1.14109,-1.80714,-1.18276,1.97726,1.17063,-0.961703
1.86189,-1.13399,-1.80626,-1.18552,1.98058,1.17057,-0.961889
1.86332,-1.13086,-1.82563,-1.19409,1.99425,1.16971,-0.958025
1.86279,-1.12307,-1.81945,-1.20601,2.00599,1.17693,-0.954898
1.86139,-1.12086,-1.81615,-1.21871,2.0135,1.18904,-0.966429
1.85993,-1.12202,-1.80845,-1.23013,2.01889,1.20032,-0.980835
1.8605,-1.13175,-1.80988,-1.23884,2.02376,1.2116,-0.992157
1.86336,-1.1368,-1.81008,-1.24699,2.03016,1.22169,-0.997723
1.8672,-1.1368,-1.80539,-1.25737,2.03754,1.23137,-0.999963
1.87083,-1.1341,-1.79921,-1.26979,2.04605,1.24121,-1.00174
1.87514,-1.13948,-1.80021,-1.28195,2.05669,1.25201,-1.00819
1.88032,-1.1442,-1.79782,-1.29216,2.06181,1.26453,-1.01572
1.88589,-1.14547,-1.79091,-1.30236,2.06393,1.27755,-1.02376
1.89204,-1.14772,-1.7836,-1.31134,2.0643,1.29057,-1.03157
1.8994,-1.15556,-1.78094,-1.32019,2.06533,1.30292,-1.03933
1.90704,-1.1616,-1.78097,-1.32995,2.06741,1.31443,-1.04656
1.91491,-1.16564,-1.7786,-1.34021,2.0639,1.32607,-1.0529
1.923,-1.16927,-1.77616,-1.35137,2.06374,1.3377,-1.05991
1.93008,-1.16947,-1.77362,-1.36131,2.06405,1.34976,-1.06599
1.93793,-1.17069,-1.77553,-1.36807,2.05701,1.36298,-1.07372
1.94563,-1.16977,-1.77652,-1.37628,2.05406,1.37546,-1.08016
1.95341,-1.17371,-1.78241,-1.38316,2.05118,1.38818,-1.08783
1.96139,-1.17853,-1.78642,-1.39234,2.0493,1.4007,-1.09414
1.9688,-1.18255,-1.79441,-1.39642,2.04595,1.41333,-1.10095
1.9774,-1.18718,-1.80019,-1.39987,2.04148,1.42564,-1.10657
1.98561,-1.18983,-1.80635,-1.40059,2.03686,1.43787,-1.11178
1.99466,-1.19484,-1.81134,-1.39908,2.03214,1.45031,-1.11835
2.00282,-1.19747,-1.81706,-1.39301,2.02627,1.46279,-1.12239
2.01133,-1.20456,-1.82484,-1.38706,2.02076,1.4751,-1.12952
2.01796,-1.21208,-1.83276,-1.38457,2.01504,1.4859,-1.13342
2.02535,-1.22167,-1.83862,-1.37984,2.00686,1.49617,-1.13762
2.03297,-1.22962,-1.84564,-1.3762,1.99937,1.50669,-1.14133
2.04021,-1.23642,-1.85056,-1.37145,1.99119,1.51628,-1.14573
2.04841,-1.24136,-1.85629,-1.3664,1.98344,1.52626,-1.15014
2.05606,-1.24592,-1.86195,-1.35975,1.97348,1.5362,-1.15453
2.06194,-1.25043,-1.86668,-1.35397,1.9652,1.54518,-1.15849
2.07044,-1.25688,-1.87255,-1.34739,1.95642,1.55569,-1.16244
2.07582,-1.26434,-1.87757,-1.33991,1.94809,1.56438,-1.16626
2.08287,-1.27093,-1.88592,-1.33217,1.93814,1.57365,-1.17012
2.08698,-1.27818,-1.88992,-1.32413,1.92915,1.58189,-1.1738
2.09337,-1.28372,-1.89683,-1.31587,1.91887,1.58998,-1.17768
2.09566,-1.28998,-1.89863,-1.309,1.91113,1.59782,-1.18068
2.10153,-1.29593,-1.90786,-1.29869,1.89902,1.60564,-1.18455
2.10247,-1.30219,-1.91097,-1.29065,1.89094,1.61342,-1.18761
2.10636,-1.30764,-1.92197,-1.27873,1.87735,1.61981,-1.19235
2.11263,-1.31532,-1.9218,-1.27165,1.86912,1.62918,-1.19391
2.10651,-1.32164,-1.92975,-1.26017,1.85716,1.63445,-1.19806
2.11654,-1.3287,-1.93531,-1.25024,1.84609,1.64169,-1.20014
2.11518,-1.33668,-1.93719,-1.24052,1.83657,1.64697,-1.20098
2.11974,-1.34373,-1.94332,-1.22954,1.82532,1.65239,-1.20382
2.12243,-1.3511,-1.94554,-1.21948,1.8156,1.65775,-1.20495
2.12786,-1.35906,-1.95085,-1.20817,1.80406,1.66255,-1.20742
2.12846,-1.36718,-1.9483,-1.19857,1.79524,1.66622,-1.20833
2.13045,-1.37482,-1.95099,-1.18789,1.78444,1.66971,-1.20982
2.13105,-1.38278,-1.95144,-1.1776,1.77378,1.67185,-1.2106
2.13281,-1.3904,-1.9522,-1.16676,1.76327,1.67342,-1.21328
2.13048,-1.39938,-1.94322,-1.15673,1.75566,1.67658,-1.2125
2.12965,-1.40816,-1.94022,-1.14487,1.74633,1.67877,-1.21502
2.13049,-1.41574,-1.93853,-1.13258,1.73562,1.68127,-1.218
2.13267,-1.4239,-1.93513,-1.12184,1.72614,1.68527,-1.22059
2.13527,-1.43394,-1.92728,-1.11442,1.72184,1.69082,-1.22245
2.13295,-1.44384,-1.9212,-1.10395,1.71237,1.69555,-1.22081
2.13724,-1.45065,-1.92183,-1.09001,1.69789,1.69615,-1.22156
2.13665,-1.45886,-1.91709,-1.08103,1.68919,1.6957,-1.22292
2.13377,-1.46871,-1.90951,-1.0754,1.68189,1.69103,-1.22383
2.13064,-1.4778,-1.90129,-1.07093,1.67657,1.68868,-1.22602
2.12761,-1.48795,-1.89579,-1.05859,1.66399,1.6895,-1.22647
2.13308,-1.49535,-1.89009,-1.04258,1.65478,1.70185,-1.23003
2.13113,-1.50269,-1.88308,-1.02754,1.64541,1.71052,-1.22833
2.1301,-1.50836,-1.87748,-1.01939,1.64162,1.71321,-1.22745
2.1213,-1.5184,-1.87223,-1.0136,1.63687,1.70427,-1.22689
2.11323,-1.52953,-1.86744,-1.00994,1.6277,1.68647,-1.22893
2.10888,-1.54074,-1.86382,-1.01368,1.61939,1.67726,-1.23432
2.10358,-1.54984,-1.85738,-0.991594,1.60315,1.67643,-1.23546
2.10262,-1.55399,-1.84846,-0.967926,1.60096,1.68639,-1.22796
2.10168,-1.55959,-1.83541,-0.953454,1.59075,1.71725,-1.2203
2.11114,-1.57036,-1.83442,-0.949056,1.61331,1.7293,-1.21983
2.10916,-1.58505,-1.83232,-0.952297,1.6257,1.71165,-1.2154
2.09308,-1.59662,-1.8293,-0.962037,1.60882,1.67926,-1.22662
2.08399,-1.6053,-1.82645,-1.01047,1.60452,1.65356,-1.23414
2.07879,-1.61406,-1.81901,-0.999612,1.58518,1.64941,-1.23811
2.07226,-1.62031,-1.84937,-0.967376,1.58361,1.65757,-1.21386
2.06881,-1.62853,-1.84896,-0.956315,1.58975,1.67013,-1.21278
2.07918,-1.63821,-1.80019,-0.974482,1.57136,1.72539,-1.21038
2.07486,-1.65046,-1.80341,-1.0085,1.58459,1.72088,-1.2265
2.04792,-1.66191,-1.84345,-1.02903,1.60454,1.68901,-1.25447
2.03484,-1.66928,-1.85952,-1.03867,1.62397,1.64862,-1.26047
2.02989,-1.68016,-1.86255,-1.04208,1.6374,1.64468,-1.25508
2.02657,-1.68787,-1.86674,-1.04239,1.63744,1.63832,-1.24386
2.01749,-1.68704,-1.85594,-1.03791,1.63133,1.64618,-1.23627
2.01458,-1.68582,-1.83122,-1.04217,1.60333,1.71028,-1.22337
2.01695,-1.69814,-1.8405,-1.04791,1.56792,1.71393,-1.25072
1.99858,-1.71206,-1.85202,-1.06696,1.58295,1.70081,-1.28091
1.98566,-1.72644,-1.86543,-1.08299,1.63808,1.68578,-1.28383
1.97797,-1.73881,-1.89615,-1.09774,1.6646,1.6685,-1.27662
1.9707,-1.74702,-1.90743,-1.10989,1.66855,1.66152,-1.26634
1.96548,-1.75448,-1.9115,-1.12161,1.6667,1.66968,-1.28108
1.96051,-1.76245,-1.91715,-1.1354,1.66157,1.69175,-1.2775
1.95004,-1.77374,-1.91949,-1.1482,1.65864,1.69444,-1.29483
1.93595,-1.78133,-1.92251,-1.16183,1.6567,1.69731,-1.3083
1.92585,-1.79064,-1.93044,-1.17742,1.66508,1.69502,-1.3103
1.91661,-1.79864,-1.94339,-1.19335,1.67733,1.69547,-1.31458
1.90853,-1.80692,-1.95869,-1.20967,1.68512,1.69426,-1.31706
1.90157,-1.81423,-1.97339,-1.22536,1.691,1.69695,-1.32198
1.89186,-1.82241,-1.98628,-1.23982,1.69345,1.70632,-1.3328
1.88312,-1.83271,-1.9978,-1.25449,1.69871,1.70851,-1.3431
1.87306,-1.84158,-2.00848,-1.26915,1.70634,1.71343,-1.35173
1.86503,-1.85186,-2.023,-1.28463,1.71672,1.71622,-1.35842
1.85495,-1.86017,-2.03629,-1.29954,1.71926,1.71934,-1.36473
1.84544,-1.86936,-2.04994,-1.31492,1.72087,1.72149,-1.37183
1.85394,-1.85254,-1.95572,-1.32107,1.71229,1.72787,-1.32289
1.84855,-1.85872,-1.96423,-1.33419,1.70696,1.73089,-1.32801
1.81879,-1.77252,-1.9674,-1.24928,1.68084,1.73698,-1.34313
1.80757,-1.78827,-1.97795,-1.25825,1.68377,1.73612,-1.34868
1.80076,-1.80046,-1.98743,-1.25846,1.68436,1.74018,-1.35562
1.79707,-1.81121,-1.99422,-1.26553,1.68779,1.74077,-1.35368
1.79245,-1.82114,-2.00079,-1.26961,1.69247,1.74019,-1.35412
1.79575,-1.82779,-2.00398,-1.2616,1.68566,1.74695,-1.35241
1.79501,-1.82956,-2.00407,-1.26651,1.69439,1.73917,-1.34837
1.7943,-1.82618,-2.0047,-1.26185,1.68882,1.7415,-1.34877
1.80088,-1.82662,-2.00498,-1.25971,1.68124,1.75002,-1.35155
1.79558,-1.82612,-2.0049,-1.26061,1.68714,1.74326,-1.3494
1.7955,-1.82537,-2.00507,-1.2597,1.68594,1.74375,-1.34968
1.79679,-1.82484,-2.00509,-1.25872,1.68329,1.74581,-1.35009
1.79984,-1.82461,-2.00518,-1.2587,1.68232,1.74836,-1.3506
1.80194,-1.82704,-2.00481,-1.25962,1.68044,1.75009,-1.35166
1.79172,-1.82287,-2.00595,-1.25631,1.68094,1.74255,-1.34992
1.7901,-1.82788,-2.00694,-1.25782,1.68428,1.74294,-1.35368
1.79146,-1.83591,-2.01133,-1.25807,1.68346,1.74603,-1.35721
1.79012,-1.83266,-2.0108,-1.25736,1.68391,1.74498,-1.3563
1.78851,-1.83304,-2.01095,-1.25674,1.68334,1.74394,-1.35595
1.78857,-1.8343,-2.0108,-1.2569,1.68314,1.74362,-1.3566
1.79203,-1.83659,-2.01201,-1.25751,1.679,1.75036,-1.3563
1.79021,-1.83621,-2.01127,-1.25717,1.68007,1.74783,-1.35709
1.79107,-1.83591,-2.01166,-1.25715,1.67909,1.74956,-1.35645
1.78916,-1.83476,-2.01101,-1.25664,1.67973,1.74752,-1.3569
1.79013,-1.83495,-2.01162,-1.25661,1.67792,1.75028,-1.35614
1.79047,-1.83637,-2.01178,-1.25683,1.6777,1.75046,-1.35637
1.79096,-1.83798,-2.012,-1.2571,1.67744,1.75078,-1.35658
1.79039,-1.83807,-2.01194,-1.2569,1.6768,1.75101,-1.35651
1.79164,-1.84062,-2.0126,-1.25742,1.67655,1.75174,-1.35676
1.78784,-1.83733,-2.01052,-1.25648,1.67855,1.747,-1.35709
1.78888,-1.83752,-2.01128,-1.25657,1.67729,1.7493,-1.35687
1.78941,-1.83945,-2.01149,-1.25683,1.67667,1.75001,-1.3569
1.78898,-1.83945,-2.01099,-1.25677,1.67675,1.74945,-1.35669
1.79219,-1.84244,-2.0132,-1.25768,1.67463,1.75361,-1.35696
1.79224,-1.84556,-2.01331,-1.25804,1.67472,1.75308,-1.35763
1.79014,-1.84524,-2.01152,-1.25762,1.67633,1.74986,-1.35754
1.79323,-1.84297,-2.01383,-1.25794,1.67226,1.75591,-1.3567
1.79301,-1.84717,-2.01385,-1.25851,1.67443,1.75371,-1.35803
1.79226,-1.84849,-2.01312,-1.25837,1.67429,1.75286,-1.35814
1.79184,-1.85109,-2.01266,-1.25857,1.67499,1.75163,-1.35867
1.79241,-1.85478,-2.01301,-1.25908,1.67483,1.75206,-1.35931
1.79295,-1.85556,-2.01351,-1.25937,1.67481,1.75244,-1.35968
1.79222,-1.85595,-2.01301,-1.25939,1.67534,1.75133,-1.36
1.79105,-1.85492,-2.01218,-1.25911,1.67576,1.7502,-1.35997
1.79082,-1.8575,-2.01208,-1.25979,1.67602,1.74975,-1.36112
1.79545,-1.86067,-2.01514,-1.26063,1.67178,1.75681,-1.36015
1.79714,-1.87129,-2.01657,-1.26235,1.66891,1.75916,-1.361
1.78697,-1.86389,-2.00968,-1.26831,1.69071,1.73933,-1.36516
1.79257,-1.86572,-2.01355,-1.26165,1.67456,1.75232,-1.36288
1.79318,-1.87008,-2.01405,-1.2626,1.67455,1.75269,-1.36406
1.79287,-1.87485,-2.01395,-1.26397,1.67492,1.75207,-1.36577
1.79223,-1.87831,-2.01369,-1.26556,1.6759,1.75133,-1.36642
1.7927,-1.87689,-2.01402,-1.26488,1.67452,1.75244,-1.36605
1.7933,-1.88365,-2.01465,-1.26695,1.67567,1.75183,-1.36765
1.7938,-1.88341,-2.01486,-1.26644,1.67534,1.75207,-1.36734
1.79138,-1.88676,-2.01387,-1.26984,1.67742,1.75024,-1.36832
1.79117,-1.88873,-2.0139,-1.27106,1.67758,1.75001,-1.36855
1.7909,-1.89464,-2.01415,-1.27527,1.67854,1.74933,-1.3697
1.79327,-1.89926,-2.01622,-1.27534,1.67644,1.75157,-1.37108
1.79324,-1.90349,-2.01688,-1.27905,1.67706,1.75161,-1.37248
1.79024,-1.90267,-2.01493,-1.28353,1.68002,1.74851,-1.37114
1.79111,-1.9053,-2.01605,-1.28557,1.68033,1.74923,-1.3729
1.79372,-1.90907,-2.0177,-1.28502,1.67923,1.7504,-1.37435
1.79057,-1.93348,-2.05266,-1.35951,1.68238,1.74547,-1.37818
1.79113,-1.91239,-2.01782,-1.29776,1.68155,1.74906,-1.37497
1.79141,-1.89102,-2.01264,-1.27538,1.68805,1.74269,-1.36725
1.79141,-1.89102,-2.01264,-1.27538,1.68805,1.74269,-1.36725
1.79141,-1.89102,-2.01264,-1.27538,1.68805,1.74269,-1.36725
1.79141,-1.89102,-2.01264,-1.27538,1.68805,1.74269,-1.36725
1.79141,-1.89102,-2.01264,-1.27538,1.68805,1.74269,-1.36725
1.79141,-1.89102,-2.01264,-1.27538,1.68805,1.74269,-1.36725
1.79141,-1.89102,-2.01264,-1.27538,1.68805,1.74269,-1.36725
1.79141,-1.89102,-2.01264,-1.27538,1.68805,1.74269,-1.36725
1.79141,-1.89102,-2.01264,-1.27538,1.68805,1.74269,-1.36725
1.79141,-1.89102,-2.01264,-1.27538,1.68805,1.74269,-1.36725
1.79141,-1.89102,-2.01264,-1.27538,1.68805,1.74269,-1.36725
1.79141,-1.89102,-2.01264,-1.27538,1.68805,1.74269,-1.36725
1.79141,-1.89102,-2.01264,-1.27538,1.68805,1.74269,-1.36725
1.79141,-1.89102,-2.01264,-1.27538,1.68805,1.74269,-1.36725
1.79141,-1.89102,-2.01264,-1.27538,1.68805,1.74269,-1.36725
1.79141,-1.89102,-2.01264,-1.27538,1.68805,1.74269,-1.36725
1.79141,-1.89102,-2.01264,-1.27538,1.68805,1.74269,-1.36725
1.79141,-1.89102,-2.01264,-1.27538,1.68805,1.74269,-1.36725
1.79141,-1.89102,-2.01264,-1.27538,1.68805,1.74269,-1.36725
1.79141,-1.89102,-2.01264,-1.27538,1.68805,1.74269,-1.36725
1.79141,-1.89102,-2.01264,-1.27538,1.68805,1.74269,-1.36725
1.79141,-1.89102,-2.01264,-1.27538,1.68805,1.74269,-1.36725
1.79141,-1.89102,-2.01264,-1.27538,1.68805,1.74269,-1.36725
1.79141,-1.89102,-2.01264,-1.27538,1.68805,1.74269,-1.36725
1.79141,-1.89102,-2.01264,-1.27538,1.68805,1.74269,-1.36725
1.79141,-1.89102,-2.01264,-1.27538,1.68805,1.74269,-1.36725
1.79141,-1.89102,-2.01264,-1.27538,1.68805,1.74269,-1.36725
1.79141,-1.89102,-2.01264,-1.27538,1.68805,1.74269,-1.36725
1.79141,-1.89102,-2.01264,-1.27538,1.68805,1.74269,-1.36725
1.79141,-1.89102,-2.01264,-1.27538,1.68805,1.74269,-1.36725
1.79141,-1.89102,-2.01264,-1.27538,1.68805,1.74269,-1.36725
1.79141,-1.89102,-2.01264,-1.27538,1.68805,1.74269,-1.36725
1.78614,-1.88338,-2.01064,-1.27354,1.69439,1.73698,-1.37216
1.786,-1.88266,-2.01044,-1.27347,1.69566,1.73624,-1.37207
1.78631,-1.88491,-2.01101,-1.27362,1.69235,1.73824,-1.37218
1.78672,-1.88947,-2.01177,-1.27535,1.69068,1.73949,-1.37291
1.78719,-1.89151,-2.01192,-1.27703,1.6922,1.73913,-1.37313
1.78762,-1.89111,-2.01196,-1.27687,1.69264,1.73908,-1.37275
1.78807,-1.89395,-2.01232,-1.27885,1.69324,1.73906,-1.37324
1.78839,-1.8956,-2.01198,-1.2825,1.69827,1.73748,-1.37386
1.78779,-1.8957,-2.01327,-1.27703,1.68738,1.74157,-1.37359
1.78779,-1.8957,-2.01327,-1.27703,1.68738,1.74157,-1.37359
1.78779,-1.8957,-2.01327,-1.27703,1.68738,1.74157,-1.37359
1.78779,-1.8957,-2.01327,-1.27703,1.68738,1.74157,-1.37359
1.78779,-1.8957,-2.01327,-1.27703,1.68738,1.74157,-1.37359
1.78779,-1.8957,-2.01327,-1.27703,1.68738,1.74157,-1.37359
1.78779,-1.8957,-2.01327,-1.27703,1.68738,1.74157,-1.37359
1.78779,-1.8957,-2.01327,-1.27703,1.68738,1.74157,-1.37359
1.78779,-1.8957,-2.01327,-1.27703,1.68738,1.74157,-1.37359
1.78779,-1.8957,-2.01327,-1.27703,1.68738,1.74157,-1.37359
1.78779,-1.8957,-2.01327,-1.27703,1.68738,1.74157,-1.37359
1.78779,-1.8957,-2.01327,-1.27703,1.68738,1.74157,-1.37359
1.78779,-1.8957,-2.01327,-1.27703,1.68738,1.74157,-1.37359
1.78779,-1.8957,-2.01327,-1.27703,1.68738,1.74157,-1.37359
1.78779,-1.8957,-2.01327,-1.27703,1.68738,1.74157,-1.37359
1.78779,-1.8957,-2.01327,-1.27703,1.68738,1.74157,-1.37359
1.78779,-1.8957,-2.01327,-1.27703,1.68738,1.74157,-1.37359
1.78779,-1.8957,-2.01327,-1.27703,1.68738,1.74157,-1.37359
1.78779,-1.8957,-2.01327,-1.27703,1.68738,1.74157,-1.37359
1.78779,-1.8957,-2.01327,-1.27703,1.68738,1.74157,-1.37359
1.78779,-1.8957,-2.01327,-1.27703,1.68738,1.74157,-1.37359
1.78779,-1.8957,-2.01327,-1.27703,1.68738,1.74157,-1.37359
1.78779,-1.8957,-2.01327,-1.27703,1.68738,1.74157,-1.37359
1.78779,-1.8957,-2.01327,-1.27703,1.68738,1.74157,-1.37359
1.78779,-1.8957,-2.01327,-1.27703,1.68738,1.74157,-1.37359
1.78779,-1.8957,-2.01327,-1.27703,1.68738,1.74157,-1.37359
1.78779,-1.8957,-2.01327,-1.27703,1.68738,1.74157,-1.37359
1.78779,-1.8957,-2.01327,-1.27703,1.68738,1.74157,-1.37359
1.78779,-1.8957,-2.01327,-1.27703,1.68738,1.74157,-1.37359
1.78779,-1.8957,-2.01327,-1.27703,1.68738,1.74157,-1.37359
1.78779,-1.8957,-2.01327,-1.27703,1.68738,1.74157,-1.37359
1.78779,-1.8957,-2.01327,-1.27703,1.68738,1.74157,-1.37359
1.78779,-1.8957,-2.01327,-1.27703,1.68738,1.74157,-1.37359
1.78779,-1.8957,-2.01327,-1.27703,1.68738,1.74157,-1.37359
1.78779,-1.8957,-2.01327,-1.27703,1.68738,1.74157,-1.37359
1.78779,-1.8957,-2.01327,-1.27703,1.68738,1.74157,-1.37359
1.78779,-1.8957,-2.01327,-1.27703,1.68738,1.74157,-1.37359
1.78779,-1.8957,-2.01327,-1.27703,1.68738,1.74157,-1.37359
1.78779,-1.8957,-2.01327,-1.27703,1.68738,1.74157,-1.37359
1.78779,-1.8957,-2.01327,-1.27703,1.68738,1.74157,-1.37359
1.78779,-1.8957,-2.01327,-1.27703,1.68738,1.74157,-1.37359
1.78779,-1.8957,-2.01327,-1.27703,1.68738,1.74157,-1.37359
1.78779,-1.8957,-2.01327,-1.27703,1.68738,1.74157,-1.37359
1.78779,-1.8957,-2.01327,-1.27703,1.68738,1.74157,-1.37359
1.78779,-1.8957,-2.01327,-1.27703,1.68738,1.74157,-1.37359
1.78779,-1.8957,-2.01327,-1.27703,1.68738,1.74157,-1.37359
1.78779,-1.8957,-2.01327,-1.27703,1.68738,1.74157,-1.37359
1.78779,-1.8957,-2.01327,-1.27703,1.68738,1.74157,-1.37359
1.78779,-1.8957,-2.01327,-1.27703,1.68738,1.74157,-1.37359
1.78779,-1.8957,-2.01327,-1.27703,1.68738,1.74157,-1.37359
1.78779,-1.8957,-2.01327,-1.27703,1.68738,1.74157,-1.37359
1.78779,-1.8957,-2.01327,-1.27703,1.68738,1.74157,-1.37359
1.78779,-1.8957,-2.01327,-1.27703,1.68738,1.74157,-1.37359
1.78779,-1.8957,-2.01327,-1.27703,1.68738,1.74157,-1.37359
1.78779,-1.8957,-2.01327,-1.27703,1.68738,1.74157,-1.37359
1.78779,-1.8957,-2.01327,-1.27703,1.68738,1.74157,-1.37359
1.78779,-1.8957,-2.01327,-1.27703,1.68738,1.74157,-1.37359
1.78779,-1.8957,-2.01327,-1.27703,1.68738,1.74157,-1.37359
1.78779,-1.8957,-2.01327,-1.27703,1.68738,1.74157,-1.37359
1.78779,-1.8957,-2.01327,-1.27703,1.68738,1.74157,-1.37359
1.78779,-1.8957,-2.01327,-1.27703,1.68738,1.74157,-1.37359
1.78779,-1.8957,-2.01327,-1.27703,1.68738,1.74157,-1.37359
1.78779,-1.8957,-2.01327,-1.27703,1.68738,1.74157,-1.37359
1.78779,-1.8957,-2.01327,-1.27703,1.68738,1.74157,-1.37359
1.78779,-1.8957,-2.01327,-1.27703,1.68738,1.74157,-1.37359
1.78779,-1.8957,-2.01327,-1.27703,1.68738,1.74157,-1.37359
1.78779,-1.8957,-2.01327,-1.27703,1.68738,1.74157,-1.37359
1.78779,-1.8957,-2.01327,-1.27703,1.68738,1.74157,-1.37359
1.78779,-1.8957,-2.01327,-1.27703,1.68738,1.74157,-1.37359
1.78779,-1.8957,-2.01327,-1.27703,1.68738,1.74157,-1.37359
1.78779,-1.8957,-2.01327,-1.27703,1.68738,1.74157,-1.37359
1.78779,-1.8957,-2.01327,-1.27703,1.68738,1.74157,-1.37359
1.78779,-1.8957,-2.01327,-1.27703,1.68738,1.74157,-1.37359
1.78779,-1.8957,-2.01327,-1.27703,1.68738,1.74157,-1.37359
1.78779,-1.8957,-2.01327,-1.27703,1.68738,1.74157,-1.37359
1.78779,-1.8957,-2.01327,-1.27703,1.68738,1.74157,-1.37359
1.78779,-1.8957,-2.01327,-1.27703,1.68738,1.74157,-1.37359
1.78779,-1.8957,-2.01327,-1.27703,1.68738,1.74157,-1.37359
1.78779,-1.8957,-2.01327,-1.27703,1.68738,1.74157,-1.37359
1.78779,-1.8957,-2.01327,-1.27703,1.68738,1.74157,-1.37359
1.78779,-1.8957,-2.01327,-1.27703,1.68738,1.74157,-1.37359
1.78779,-1.8957,-2.01327,-1.27703,1.68738,1.74157,-1.37359
1.78779,-1.8957,-2.01327,-1.27703,1.68738,1.74157,-1.37359
1.78779,-1.8957,-2.01327,-1.27703,1.68738,1.74157,-1.37359
1.78779,-1.8957,-2.01327,-1.27703,1.68738,1.74157,-1.37359
1.78779,-1.8957,-2.01327,-1.27703,1.68738,1.74157,-1.37359
1.78779,-1.8957,-2.01327,-1.27703,1.68738,1.74157,-1.37359
1.78779,-1.8957,-2.01327,-1.27703,1.68738,1.74157,-1.37359
1.78779,-1.8957,-2.01327,-1.27703,1.68738,1.74157,-1.37359
1.78779,-1.8957,-2.01327,-1.27703,1.68738,1.74157,-1.37359
1.78779,-1.8957,-2.01327,-1.27703,1.68738,1.74157,-1.37359
1.78779,-1.8957,-2.01327,-1.27703,1.68738,1.74157,-1.37359
1.78779,-1.8957,-2.01327,-1.27703,1.68738,1.74157,-1.37359
1.78779,-1.8957,-2.01327,-1.27703,1.68738,1.74157,-1.37359
1.78779,-1.8957,-2.01327,-1.27703,1.68738,1.74157,-1.37359
1.78779,-1.8957,-2.01327,-1.27703,1.68738,1.74157,-1.37359
1.78779,-1.8957,-2.01327,-1.27703,1.68738,1.74157,-1.37359
1.78779,-1.8957,-2.01327,-1.27703,1.68738,1.74157,-1.37359
1.78779,-1.8957,-2.01327,-1.27703,1.68738,1.74157,-1.37359
1.78779,-1.8957,-2.01327,-1.27703,1.68738,1.74157,-1.37359
1.78779,-1.8957,-2.01327,-1.27703,1.68738,1.74157,-1.37359
1.78779,-1.8957,-2.01327,-1.27703,1.68738,1.74157,-1.37359
1.78779,-1.8957,-2.01327,-1.27703,1.68738,1.74157,-1.37359
1.78779,-1.8957,-2.01327,-1.27703,1.68738,1.74157,-1.37359
1.78779,-1.8957,-2.01327,-1.27703,1.68738,1.74157,-1.37359
1.78779,-1.8957,-2.01327,-1.27703,1.68738,1.74157,-1.37359
1.78779,-1.8957,-2.01327,-1.27703,1.68738,1.74157,-1.37359
1.78779,-1.8957,-2.01327,-1.27703,1.68738,1.74157,-1.37359
1.78779,-1.8957,-2.01327,-1.27703,1.68738,1.74157,-1.37359
1.78779,-1.8957,-2.01327,-1.27703,1.68738,1.74157,-1.37359
1.78779,-1.8957,-2.01327,-1.27703,1.68738,1.74157,-1.37359
1.78779,-1.8957,-2.01327,-1.27703,1.68738,1.74157,-1.37359
1.78779,-1.8957,-2.01327,-1.27703,1.68738,1.74157,-1.37359
1.78779,-1.8957,-2.01327,-1.27703,1.68738,1.74157,-1.37359
1.78779,-1.8957,-2.01327,-1.27703,1.68738,1.74157,-1.37359
1.78779,-1.8957,-2.01327,-1.27703,1.68738,1.74157,-1.37359
1.78779,-1.8957,-2.01327,-1.27703,1.68738,1.74157,-1.37359
1.78779,-1.8957,-2.01327,-1.27703,1.68738,1.74157,-1.37359
1.78779,-1.8957,-2.01327,-1.27703,1.68738,1.74157,-1.37359
1.78779,-1.8957,-2.01327,-1.27703,1.68738,1.74157,-1.37359
1.78779,-1.8957,-2.01327,-1.27703,1.68738,1.74157,-1.37359
1.78779,-1.8957,-2.01327,-1.27703,1.68738,1.74157,-1.37359
1.78779,-1.8957,-2.01327,-1.27703,1.68738,1.74157,-1.37359
1.78779,-1.8957,-2.01327,-1.27703,1.68738,1.74157,-1.37359
1.78779,-1.8957,-2.01327,-1.27703,1.68738,1.74157,-1.37359
1.78779,-1.8957,-2.01327,-1.27703,1.68738,1.74157,-1.37359
1.78779,-1.8957,-2.01327,-1.27703,1.68738,1.74157,-1.37359
1.78779,-1.8957,-2.01327,-1.27703,1.68738,1.74157,-1.37359
1.78779,-1.8957,-2.01327,-1.27703,1.68738,1.74157,-1.37359
1.78779,-1.8957,-2.01327,-1.27703,1.68738,1.74157,-1.37359
1.78779,-1.8957,-2.01327,-1.27703,1.68738,1.74157,-1.37359
1.78779,-1.8957,-2.01327,-1.27703,1.68738,1.74157,-1.37359
1.78779,-1.8957,-2.01327,-1.27703,1.68738,1.74157,-1.37359
1.78779,-1.8957,-2.01327,-1.27703,1.68738,1.74157,-1.37359
1.78779,-1.8957,-2.01327,-1.27703,1.68738,1.74157,-1.37359
1.78779,-1.8957,-2.01327,-1.27703,1.68738,1.74157,-1.37359
1.78779,-1.8957,-2.01327,-1.27703,1.68738,1.74157,-1.37359
1.78779,-1.8957,-2.01327,-1.27703,1.68738,1.74157,-1.37359
1.78779,-1.8957,-2.01327,-1.27703,1.68738,1.74157,-1.37359
1.78779,-1.8957,-2.01327,-1.27703,1.68738,1.74157,-1.37359
1.78779,-1.8957,-2.01327,-1.27703,1.68738,1.74157,-1.37359
1.78779,-1.8957,-2.01327,-1.27703,1.68738,1.74157,-1.37359
1.78779,-1.8957,-2.01327,-1.27703,1.68738,1.74157,-1.37359
1.78779,-1.8957,-2.01327,-1.27703,1.68738,1.74157,-1.37359
1.78779,-1.8957,-2.01327,-1.27703,1.68738,1.74157,-1.37359
1.78779,-1.8957,-2.01327,-1.27703,1.68738,1.74157,-1.37359
1.78779,-1.8957,-2.01327,-1.27703,1.68738,1.74157,-1.37359
1.78779,-1.8957,-2.01327,-1.27703,1.68738,1.74157,-1.37359
1.78779,-1.8957,-2.01327,-1.27703,1.68738,1.74157,-1.37359
1.78779,-1.8957,-2.01327,-1.27703,1.68738,1.74157,-1.37359
1.78779,-1.8957,-2.01327,-1.27703,1.68738,1.74157,-1.37359
1.78779,-1.8957,-2.01327,-1.27703,1.68738,1.74157,-1.37359
1.78779,-1.8957,-2.01327,-1.27703,1.68738,1.74157,-1.37359
1.78779,-1.8957,-2.01327,-1.27703,1.68738,1.74157,-1.37359
1.78779,-1.8957,-2.01327,-1.27703,1.68738,1.74157,-1.37359
1.78779,-1.8957,-2.01327,-1.27703,1.68738,1.74157,-1.37359
1.78779,-1.8957,-2.01327,-1.27703,1.68738,1.74157,-1.37359
1.78779,-1.8957,-2.01327,-1.27703,1.68738,1.74157,-1.37359
1.78779,-1.8957,-2.01327,-1.27703,1.68738,1.74157,-1.37359
1.78779,-1.8957,-2.01327,-1.27703,1.68738,1.74157,-1.37359
1.78779,-1.8957,-2.01327,-1.27703,1.68738,1.74157,-1.37359
1.78779,-1.8957,-2.01327,-1.27703,1.68738,1.74157,-1.37359
1.78779,-1.8957,-2.01327,-1.27703,1.68738,1.74157,-1.37359
1.78779,-1.8957,-2.01327,-1.27703,1.68738,1.74157,-1.37359
1.78779,-1.8957,-2.01327,-1.27703,1.68738,1.74157,-1.37359
1.78779,-1.8957,-2.01327,-1.27703,1.68738,1.74157,-1.37359
1.78779,-1.8957,-2.01327,-1.27703,1.68738,1.74157,-1.37359
1.78779,-1.8957,-2.01327,-1.27703,1.68738,1.74157,-1.37359
1.78779,-1.8957,-2.01327,-1.27703,1.68738,1.74157,-1.37359
1.78779,-1.8957,-2.01327,-1.27703,1.68738,1.74157,-1.37359
1.78779,-1.8957,-2.01327,-1.27703,1.68738,1.74157,-1.37359
1.78779,-1.8957,-2.01327,-1.27703,1.68738,1.74157,-1.37359
1.78779,-1.8957,-2.01327,-1.27703,1.68738,1.74157,-1.37359
1.78779,-1.8957,-2.01327,-1.27703,1.68738,1.74157,-1.37359
1.78779,-1.8957,-2.01327,-1.27703,1.68738,1.74157,-1.37359
1.78779,-1.8957,-2.01327,-1.27703,1.68738,1.74157,-1.37359
1.78779,-1.8957,-2.01327,-1.27703,1.68738,1.74157,-1.37359
1.78779,-1.8957,-2.01327,-1.27703,1.68738,1.74157,-1.37359
1.78779,-1.8957,-2.01327,-1.27703,1.68738,1.74157,-1.37359
1.78779,-1.8957,-2.01327,-1.27703,1.68738,1.74157,-1.37359
1.78779,-1.8957,-2.01327,-1.27703,1.68738,1.74157,-1.37359
1.78779,-1.8957,-2.01327,-1.27703,1.68738,1.74157,-1.37359
1.78779,-1.8957,-2.01327,-1.27703,1.68738,1.74157,-1.37359
1.78779,-1.8957,-2.01327,-1.27703,1.68738,1.74157,-1.37359
1.78779,-1.8957,-2.01327,-1.27703,1.68738,1.74157,-1.37359
1.78779,-1.8957,-2.01327,-1.27703,1.68738,1.74157,-1.37359
1.78779,-1.8957,-2.01327,-1.27703,1.68738,1.74157,-1.37359
1.78779,-1.8957,-2.01327,-1.27703,1.68738,1.74157,-1.37359
1.78779,-1.8957,-2.01327,-1.27703,1.68738,1.74157,-1.37359
1.78779,-1.8957,-2.01327,-1.27703,1.68738,1.74157,-1.37359
1.78779,-1.8957,-2.01327,-1.27703,1.68738,1.74157,-1.37359
1.78779,-1.8957,-2.01327,-1.27703,1.68738,1.74157,-1.37359
1.78779,-1.8957,-2.01327,-1.27703,1.68738,1.74157,-1.37359
1.78779,-1.8957,-2.01327,-1.27703,1.68738,1.74157,-1.37359
1.78779,-1.8957,-2.01327,-1.27703,1.68738,1.74157,-1.37359
1.78779,-1.8957,-2.01327,-1.27703,1.68738,1.74157,-1.37359
1.78779,-1.8957,-2.01327,-1.27703,1.68738,1.74157,-1.37359
1.78779,-1.8957,-2.01327,-1.27703,1.68738,1.74157,-1.37359
1.78779,-1.8957,-2.01327,-1.27703,1.68738,1.74157,-1.37359
1.78779,-1.8957,-2.01327,-1.27703,1.68738,1.74157,-1.37359
1.78779,-1.8957,-2.01327,-1.27703,1.68738,1.74157,-1.37359
1.78779,-1.8957,-2.01327,-1.27703,1.68738,1.74157,-1.37359
1.78779,-1.8957,-2.01327,-1.27703,1.68738,1.74157,-1.37359
1.78779,-1.8957,-2.01327,-1.27703,1.68738,1.74157,-1.37359
1.78779,-1.8957,-2.01327,-1.27703,1.68738,1.74157,-1.37359
1.78779,-1.8957,-2.01327,-1.27703,1.68738,1.74157,-1.37359
1.78779,-1.8957,-2.01327,-1.27703,1.68738,1.74157,-1.37359
1.78779,-1.8957,-2.01327,-1.27703,1.68738,1.74157,-1.37359
1.78779,-1.8957,-2.01327,-1.27703,1.68738,1.74157,-1.37359
1.78779,-1.8957,-2.01327,-1.27703,1.68738,1.74157,-1.37359
1.78779,-1.8957,-2.01327,-1.27703,1.68738,1.74157,-1.37359
1.78779,-1.8957,-2.01327,-1.27703,1.68738,1.74157,-1.37359
1.78779,-1.8957,-2.01327,-1.27703,1.68738,1.74157,-1.37359
1.78779,-1.8957,-2.01327,-1.27703,1.68738,1.74157,-1.37359
1.78779,-1.8957,-2.01327,-1.27703,1.68738,1.74157,-1.37359
1.78779,-1.8957,-2.01327,-1.27703,1.68738,1.74157,-1.37359
1.78779,-1.8957,-2.01327,-1.27703,1.68738,1.74157,-1.37359
1.78779,-1.8957,-2.01327,-1.27703,1.68738,1.74157,-1.37359
1.78779,-1.8957,-2.01327,-1.27703,1.68738,1.74157,-1.37359
1.78779,-1.8957,-2.01327,-1.27703,1.68738,1.74157,-1.37359
1.78779,-1.8957,-2.01327,-1.27703,1.68738,1.74157,-1.37359
1.78779,-1.8957,-2.01327,-1.27703,1.68738,1.74157,-1.37359
1.78779,-1.8957,-2.01327,-1.27703,1.68738,1.74157,-1.37359
1.78779,-1.8957,-2.01327,-1.27703,1.68738,1.74157,-1.37359
1.78779,-1.8957,-2.01327,-1.27703,1.68738,1.74157,-1.37359
1.78779,-1.8957,-2.01327,-1.27703,1.68738,1.74157,-1.37359
1.78779,-1.8957,-2.01327,-1.27703,1.68738,1.74157,-1.37359
1.78779,-1.8957,-2.01327,-1.27703,1.68738,1.74157,-1.37359
1.78779,-1.8957,-2.01327,-1.27703,1.68738,1.74157,-1.37359
1.78779,-1.8957,-2.01327,-1.27703,1.68738,1.74157,-1.37359
1.78779,-1.8957,-2.01327,-1.27703,1.68738,1.74157,-1.37359
1.78779,-1.8957,-2.01327,-1.27703,1.68738,1.74157,-1.37359
1.78779,-1.8957,-2.01327,-1.27703,1.68738,1.74157,-1.37359
1.78779,-1.8957,-2.01327,-1.27703,1.68738,1.74157,-1.37359
1.78779,-1.8957,-2.01327,-1.27703,1.68738,1.74157,-1.37359
1.78779,-1.8957,-2.01327,-1.27703,1.68738,1.74157,-1.37359
1.78779,-1.8957,-2.01327,-1.27703,1.68738,1.74157,-1.37359
1.78779,-1.8957,-2.01327,-1.27703,1.68738,1.74157,-1.37359
1.78779,-1.8957,-2.01327,-1.27703,1.68738,1.74157,-1.37359
1.78779,-1.8957,-2.01327,-1.27703,1.68738,1.74157,-1.37359
1.78779,-1.8957,-2.01327,-1.27703,1.68738,1.74157,-1.37359
1.78779,-1.8957,-2.01327,-1.27703,1.68738,1.74157,-1.37359
1.78779,-1.8957,-2.01327,-1.27703,1.68738,1.74157,-1.37359
1.78779,-1.8957,-2.01327,-1.27703,1.68738,1.74157,-1.37359
1.78779,-1.8957,-2.01327,-1.27703,1.68738,1.74157,-1.37359
1.78779,-1.8957,-2.01327,-1.27703,1.68738,1.74157,-1.37359
1.78779,-1.8957,-2.01327,-1.27703,1.68738,1.74157,-1.37359
1.78779,-1.8957,-2.01327,-1.27703,1.68738,1.74157,-1.37359
1.78779,-1.8957,-2.01327,-1.27703,1.68738,1.74157,-1.37359
1.78779,-1.8957,-2.01327,-1.27703,1.68738,1.74157,-1.37359
1.78779,-1.8957,-2.01327,-1.27703,1.68738,1.74157,-1.37359
1.78779,-1.8957,-2.01327,-1.27703,1.68738,1.74157,-1.37359
1.78779,-1.8957,-2.01327,-1.27703,1.68738,1.74157,-1.37359
1.78779,-1.8957,-2.01327,-1.27703,1.68738,1.74157,-1.37359
1.78779,-1.8957,-2.01327,-1.27703,1.68738,1.74157,-1.37359
1.78779,-1.8957,-2.01327,-1.27703,1.68738,1.74157,-1.37359
1.78779,-1.8957,-2.01327,-1.27703,1.68738,1.74157,-1.37359
1.78779,-1.8957,-2.01327,-1.27703,1.68738,1.74157,-1.37359
1.78779,-1.8957,-2.01327,-1.27703,1.68738,1.74157,-1.37359
1.78779,-1.8957,-2.01327,-1.27703,1.68738,1.74157,-1.37359
1.78779,-1.8957,-2.01327,-1.27703,1.68738,1.74157,-1.37359
1.78779,-1.8957,-2.01327,-1.27703,1.68738,1.74157,-1.37359
1.78779,-1.8957,-2.01327,-1.27703,1.68738,1.74157,-1.37359
1.78779,-1.8957,-2.01327,-1.27703,1.68738,1.74157,-1.37359
1.78779,-1.8957,-2.01327,-1.27703,1.68738,1.74157,-1.37359
1.78779,-1.8957,-2.01327,-1.27703,1.68738,1.74157,-1.37359
1.78779,-1.8957,-2.01327,-1.27703,1.68738,1.74157,-1.37359
1.78779,-1.8957,-2.01327,-1.27703,1.68738,1.74157,-1.37359
1.78779,-1.8957,-2.01327,-1.27703,1.68738,1.74157,-1.37359
1.78779,-1.8957,-2.01327,-1.27703,1.68738,1.74157,-1.37359
1.78779,-1.8957,-2.01327,-1.27703,1.68738,1.74157,-1.37359
1.78779,-1.8957,-2.01327,-1.27703,1.68738,1.74157,-1.37359
1.78779,-1.8957,-2.01327,-1.27703,1.68738,1.74157,-1.37359
1.78779,-1.8957,-2.01327,-1.27703,1.68738,1.74157,-1.37359
1.78779,-1.8957,-2.01327,-1.27703,1.68738,1.74157,-1.37359
1.78779,-1.8957,-2.01327,-1.27703,1.68738,1.74157,-1.37359
1.78779,-1.8957,-2.01327,-1.27703,1.68738,1.74157,-1.37359
1.78779,-1.8957,-2.01327,-1.27703,1.68738,1.74157,-1.37359
1.78779,-1.8957,-2.01327,-1.27703,1.68738,1.74157,-1.37359
1.78779,-1.8957,-2.01327,-1.27703,1.68738,1.74157,-1.37359
1.78779,-1.8957,-2.01327,-1.27703,1.68738,1.74157,-1.37359
1.78779,-1.8957,-2.01327,-1.27703,1.68738,1.74157,-1.37359
1.78779,-1.8957,-2.01327,-1.27703,1.68738,1.74157,-1.37359
1.78779,-1.8957,-2.01327,-1.27703,1.68738,1.74157,-1.37359
1.78779,-1.8957,-2.01327,-1.27703,1.68738,1.74157,-1.37359
1.78779,-1.8957,-2.01327,-1.27703,1.68738,1.74157,-1.37359
1.78779,-1.8957,-2.01327,-1.27703,1.68738,1.74157,-1.37359
1.78779,-1.8957,-2.01327,-1.27703,1.68738,1.74157,-1.37359
1.78779,-1.8957,-2.01327,-1.27703,1.68738,1.74157,-1.37359
1.78779,-1.8957,-2.01327,-1.27703,1.68738,1.74157,-1.37359
1.78779,-1.8957,-2.01327,-1.27703,1.68738,1.74157,-1.37359
1.78779,-1.8957,-2.01327,-1.27703,1.68738,1.74157,-1.37359
1.78779,-1.8957,-2.01327,-1.27703,1.68738,1.74157,-1.37359
1.78779,-1.8957,-2.01327,-1.27703,1.68738,1.74157,-1.37359
1.78779,-1.8957,-2.01327,-1.27703,1.68738,1.74157,-1.37359
1.78779,-1.8957,-2.01327,-1.27703,1.68738,1.74157,-1.37359
1.78779,-1.8957,-2.01327,-1.27703,1.68738,1.74157,-1.37359
1.78779,-1.8957,-2.01327,-1.27703,1.68738,1.74157,-1.37359
1.78779,-1.8957,-2.01327,-1.27703,1.68738,1.74157,-1.37359
1.78779,-1.8957,-2.01327,-1.27703,1.68738,1.74157,-1.37359
1.78779,-1.8957,-2.01327,-1.27703,1.68738,1.74157,-1.37359
1.78779,-1.8957,-2.01327,-1.27703,1.68738,1.74157,-1.37359
1.78779,-1.8957,-2.01327,-1.27703,1.68738,1.74157,-1.37359
1.78779,-1.8957,-2.01327,-1.27703,1.68738,1.74157,-1.37359
1.78779,-1.8957,-2.01327,-1.27703,1.68738,1.74157,-1.37359
1.78779,-1.8957,-2.01327,-1.27703,1.68738,1.74157,-1.37359
1.78779,-1.8957,-2.01327,-1.27703,1.68738,1.74157,-1.37359
1.78779,-1.8957,-2.01327,-1.27703,1.68738,1.74157,-1.37359
1.78779,-1.8957,-2.01327,-1.27703,1.68738,1.74157,-1.37359
1.78779,-1.8957,-2.01327,-1.27703,1.68738,1.74157,-1.37359
1.78779,-1.8957,-2.01327,-1.27703,1.68738,1.74157,-1.37359
1.78779,-1.8957,-2.01327,-1.27703,1.68738,1.74157,-1.37359
1.78779,-1.8957,-2.01327,-1.27703,1.68738,1.74157,-1.37359
1.78779,-1.8957,-2.01327,-1.27703,1.68738,1.74157,-1.37359
1.78779,-1.8957,-2.01327,-1.27703,1.68738,1.74157,-1.37359
1.78779,-1.8957,-2.01327,-1.27703,1.68738,1.74157,-1.37359
1.78779,-1.8957,-2.01327,-1.27703,1.68738,1.74157,-1.37359
1.78779,-1.8957,-2.01327,-1.27703,1.68738,1.74157,-1.37359
1.78779,-1.8957,-2.01327,-1.27703,1.68738,1.74157,-1.37359
1.78779,-1.8957,-2.01327,-1.27703,1.68738,1.74157,-1.37359
1.78779,-1.8957,-2.01327,-1.27703,1.68738,1.74157,-1.37359
1.78779,-1.8957,-2.01327,-1.27703,1.68738,1.74157,-1.37359
1.78779,-1.8957,-2.01327,-1.27703,1.68738,1.74157,-1.37359
1.78779,-1.8957,-2.01327,-1.27703,1.68738,1.74157,-1.37359
1.78779,-1.8957,-2.01327,-1.27703,1.68738,1.74157,-1.37359
1.78779,-1.8957,-2.01327,-1.27703,1.68738,1.74157,-1.37359
1.78779,-1.8957,-2.01327,-1.27703,1.68738,1.74157,-1.37359
1.78779,-1.8957,-2.01327,-1.27703,1.68738,1.74157,-1.37359
1.78779,-1.8957,-2.01327,-1.27703,1.68738,1.74157,-1.37359
1.78779,-1.8957,-2.01327,-1.27703,1.68738,1.74157,-1.37359
1.78779,-1.8957,-2.01327,-1.27703,1.68738,1.74157,-1.37359
1.78779,-1.8957,-2.01327,-1.27703,1.68738,1.74157,-1.37359
1.78779,-1.8957,-2.01327,-1.27703,1.68738,1.74157,-1.37359
1.78779,-1.8957,-2.01327,-1.27703,1.68738,1.74157,-1.37359
1.78779,-1.8957,-2.01327,-1.27703,1.68738,1.74157,-1.37359
1.78779,-1.8957,-2.01327,-1.27703,1.68738,1.74157,-1.37359
1.78779,-1.8957,-2.01327,-1.27703,1.68738,1.74157,-1.37359
1.78779,-1.8957,-2.01327,-1.27703,1.68738,1.74157,-1.37359
1.78779,-1.8957,-2.01327,-1.27703,1.68738,1.74157,-1.37359
1.78779,-1.8957,-2.01327,-1.27703,1.68738,1.74157,-1.37359
1.78779,-1.8957,-2.01327,-1.27703,1.68738,1.74157,-1.37359
1.78779,-1.8957,-2.01327,-1.27703,1.68738,1.74157,-1.37359
1.78779,-1.8957,-2.01327,-1.27703,1.68738,1.74157,-1.37359
1.78779,-1.8957,-2.01327,-1.27703,1.68738,1.74157,-1.37359
1.78779,-1.8957,-2.01327,-1.27703,1.68738,1.74157,-1.37359
1.78779,-1.8957,-2.01327,-1.27703,1.68738,1.74157,-1.37359
1.78779,-1.8957,-2.01327,-1.27703,1.68738,1.74157,-1.37359
1.78779,-1.8957,-2.01327,-1.27703,1.68738,1.74157,-1.37359
1.78779,-1.8957,-2.01327,-1.27703,1.68738,1.74157,-1.37359
1.78779,-1.8957,-2.01327,-1.27703,1.68738,1.74157,-1.37359
1.78779,-1.8957,-2.01327,-1.27703,1.68738,1.74157,-1.37359
1.78779,-1.8957,-2.01327,-1.27703,1.68738,1.74157,-1.37359
1.78779,-1.8957,-2.01327,-1.27703,1.68738,1.74157,-1.37359
1.78779,-1.8957,-2.01327,-1.27703,1.68738,1.74157,-1.37359
1.78779,-1.8957,-2.01327,-1.27703,1.68738,1.74157,-1.37359
1.78779,-1.8957,-2.01327,-1.27703,1.68738,1.74157,-1.37359
1.78779,-1.8957,-2.01327,-1.27703,1.68738,1.74157,-1.37359
1.78779,-1.8957,-2.01327,-1.27703,1.68738,1.74157,-1.37359
1.78779,-1.8957,-2.01327,-1.27703,1.68738,1.74157,-1.37359
1.78779,-1.8957,-2.01327,-1.27703,1.68738,1.74157,-1.37359
1.78779,-1.8957,-2.01327,-1.27703,1.68738,1.74157,-1.37359
1.78779,-1.8957,-2.01327,-1.27703,1.68738,1.74157,-1.37359
1.78779,-1.8957,-2.01327,-1.27703,1.68738,1.74157,-1.37359
1.78779,-1.8957,-2.01327,-1.27703,1.68738,1.74157,-1.37359
1.78779,-1.8957,-2.01327,-1.27703,1.68738,1.74157,-1.37359
1.78779,-1.8957,-2.01327,-1.27703,1.68738,1.74157,-1.37359
1.78779,-1.8957,-2.01327,-1.27703,1.68738,1.74157,-1.37359
1.78779,-1.8957,-2.01327,-1.27703,1.68738,1.74157,-1.37359
1.78779,-1.8957,-2.01327,-1.27703,1.68738,1.74157,-1.37359
1.78779,-1.8957,-2.01327,-1.27703,1.68738,1.74157,-1.37359
1.78779,-1.8957,-2.01327,-1.27703,1.68738,1.74157,-1.37359
1.78779,-1.8957,-2.01327,-1.27703,1.68738,1.74157,-1.37359
1.78779,-1.8957,-2.01327,-1.27703,1.68738,1.74157,-1.37359
1.78779,-1.8957,-2.01327,-1.27703,1.68738,1.74157,-1.37359
1.78779,-1.8957,-2.01327,-1.27703,1.68738,1.74157,-1.37359
1.78779,-1.8957,-2.01327,-1.27703,1.68738,1.74157,-1.37359
1.78779,-1.8957,-2.01327,-1.27703,1.68738,1.74157,-1.37359
1.78779,-1.8957,-2.01327,-1.27703,1.68738,1.74157,-1.37359
1.78779,-1.8957,-2.01327,-1.27703,1.68738,1.74157,-1.37359
1.78779,-1.8957,-2.01327,-1.27703,1.68738,1.74157,-1.37359
1.78779,-1.8957,-2.01327,-1.27703,1.68738,1.74157,-1.37359
1.78779,-1.8957,-2.01327,-1.27703,1.68738,1.74157,-1.37359
1.78779,-1.8957,-2.01327,-1.27703,1.68738,1.74157,-1.37359
1.78779,-1.8957,-2.01327,-1.27703,1.68738,1.74157,-1.37359
1.78779,-1.8957,-2.01327,-1.27703,1.68738,1.74157,-1.37359
1.78779,-1.8957,-2.01327,-1.27703,1.68738,1.74157,-1.37359
1.78779,-1.8957,-2.01327,-1.27703,1.68738,1.74157,-1.37359
1.78779,-1.8957,-2.01327,-1.27703,1.68738,1.74157,-1.37359
1.78779,-1.8957,-2.01327,-1.27703,1.68738,1.74157,-1.37359
1.78779,-1.8957,-2.01327,-1.27703,1.68738,1.74157,-1.37359
1.78779,-1.8957,-2.01327,-1.27703,1.68738,1.74157,-1.37359
1.78779,-1.8957,-2.01327,-1.27703,1.68738,1.74157,-1.37359
1.78779,-1.8957,-2.01327,-1.27703,1.68738,1.74157,-1.37359
1.78779,-1.8957,-2.01327,-1.27703,1.68738,1.74157,-1.37359
1.78779,-1.8957,-2.01327,-1.27703,1.68738,1.74157,-1.37359
1.78779,-1.8957,-2.01327,-1.27703,1.68738,1.74157,-1.37359
1.78779,-1.8957,-2.01327,-1.27703,1.68738,1.74157,-1.37359
1.78779,-1.8957,-2.01327,-1.27703,1.68738,1.74157,-1.37359
1.78779,-1.8957,-2.01327,-1.27703,1.68738,1.74157,-1.37359
1.78779,-1.8957,-2.01327,-1.27703,1.68738,1.74157,-1.37359
1.78779,-1.8957,-2.01327,-1.27703,1.68738,1.74157,-1.37359
1.78779,-1.8957,-2.01327,-1.27703,1.68738,1.74157,-1.37359
1.78779,-1.8957,-2.01327,-1.27703,1.68738,1.74157,-1.37359
1.78779,-1.8957,-2.01327,-1.27703,1.68738,1.74157,-1.37359
1.78779,-1.8957,-2.01327,-1.27703,1.68738,1.74157,-1.37359
1.78779,-1.8957,-2.01327,-1.27703,1.68738,1.74157,-1.37359
1.78779,-1.8957,-2.01327,-1.27703,1.68738,1.74157,-1.37359
1.78779,-1.8957,-2.01327,-1.27703,1.68738,1.74157,-1.37359
1.78779,-1.8957,-2.01327,-1.27703,1.68738,1.74157,-1.37359
1.78779,-1.8957,-2.01327,-1.27703,1.68738,1.74157,-1.37359
1.78779,-1.8957,-2.01327,-1.27703,1.68738,1.74157,-1.37359
1.78779,-1.8957,-2.01327,-1.27703,1.68738,1.74157,-1.37359
1.78779,-1.8957,-2.01327,-1.27703,1.68738,1.74157,-1.37359
1.78779,-1.8957,-2.01327,-1.27703,1.68738,1.74157,-1.37359
1.78779,-1.8957,-2.01327,-1.27703,1.68738,1.74157,-1.37359
1.78779,-1.8957,-2.01327,-1.27703,1.68738,1.74157,-1.37359
1.78779,-1.8957,-2.01327,-1.27703,1.68738,1.74157,-1.37359
1.78779,-1.8957,-2.01327,-1.27703,1.68738,1.74157,-1.37359
1.78779,-1.8957,-2.01327,-1.27703,1.68738,1.74157,-1.37359
1.78779,-1.8957,-2.01327,-1.27703,1.68738,1.74157,-1.37359
1.78779,-1.8957,-2.01327,-1.27703,1.68738,1.74157,-1.37359
1.78779,-1.8957,-2.01327,-1.27703,1.68738,1.74157,-1.37359
1.78779,-1.8957,-2.01327,-1.27703,1.68738,1.74157,-1.37359
1.78779,-1.8957,-2.01327,-1.27703,1.68738,1.74157,-1.37359
1.78779,-1.8957,-2.01327,-1.27703,1.68738,1.74157,-1.37359
1.78779,-1.8957,-2.01327,-1.27703,1.68738,1.74157,-1.37359
1.78779,-1.8957,-2.01327,-1.27703,1.68738,1.74157,-1.37359
1.78779,-1.8957,-2.01327,-1.27703,1.68738,1.74157,-1.37359
1.78779,-1.8957,-2.01327,-1.27703,1.68738,1.74157,-1.37359
1.78779,-1.8957,-2.01327,-1.27703,1.68738,1.74157,-1.37359
1.78779,-1.8957,-2.01327,-1.27703,1.68738,1.74157,-1.37359
1.78779,-1.8957,-2.01327,-1.27703,1.68738,1.74157,-1.37359
1.78779,-1.8957,-2.01327,-1.27703,1.68738,1.74157,-1.37359
1.78779,-1.8957,-2.01327,-1.27703,1.68738,1.74157,-1.37359
1.78779,-1.8957,-2.01327,-1.27703,1.68738,1.74157,-1.37359
1.78779,-1.8957,-2.01327,-1.27703,1.68738,1.74157,-1.37359
1.78779,-1.8957,-2.01327,-1.27703,1.68738,1.74157,-1.37359
1.78779,-1.8957,-2.01327,-1.27703,1.68738,1.74157,-1.37359
1.78779,-1.8957,-2.01327,-1.27703,1.68738,1.74157,-1.37359
1.78779,-1.8957,-2.01327,-1.27703,1.68738,1.74157,-1.37359
1.78779,-1.8957,-2.01327,-1.27703,1.68738,1.74157,-1.37359
1.78779,-1.8957,-2.01327,-1.27703,1.68738,1.74157,-1.37359
1.78779,-1.8957,-2.01327,-1.27703,1.68738,1.74157,-1.37359
1.78779,-1.8957,-2.01327,-1.27703,1.68738,1.74157,-1.37359
1.78779,-1.8957,-2.01327,-1.27703,1.68738,1.74157,-1.37359
1.78779,-1.8957,-2.01327,-1.27703,1.68738,1.74157,-1.37359
1.78779,-1.8957,-2.01327,-1.27703,1.68738,1.74157,-1.37359
1.78779,-1.8957,-2.01327,-1.27703,1.68738,1.74157,-1.37359
1.78779,-1.8957,-2.01327,-1.27703,1.68738,1.74157,-1.37359
1.78779,-1.8957,-2.01327,-1.27703,1.68738,1.74157,-1.37359
1.78779,-1.8957,-2.01327,-1.27703,1.68738,1.74157,-1.37359
1.78779,-1.8957,-2.01327,-1.27703,1.68738,1.74157,-1.37359
1.78779,-1.8957,-2.01327,-1.27703,1.68738,1.74157,-1.37359
1.78779,-1.8957,-2.01327,-1.27703,1.68738,1.74157,-1.37359
1.78779,-1.8957,-2.01327,-1.27703,1.68738,1.74157,-1.37359
1.78779,-1.8957,-2.01327,-1.27703,1.68738,1.74157,-1.37359
1.78779,-1.8957,-2.01327,-1.27703,1.68738,1.74157,-1.37359
1.78779,-1.8957,-2.01327,-1.27703,1.68738,1.74157,-1.37359
1.78779,-1.8957,-2.01327,-1.27703,1.68738,1.74157,-1.37359
1.78779,-1.8957,-2.01327,-1.27703,1.68738,1.74157,-1.37359
1.78779,-1.8957,-2.01327,-1.27703,1.68738,1.74157,-1.37359
1.78779,-1.8957,-2.01327,-1.27703,1.68738,1.74157,-1.37359
1.78779,-1.8957,-2.01327,-1.27703,1.68738,1.74157,-1.37359
1.78779,-1.8957,-2.01327,-1.27703,1.68738,1.74157,-1.37359
1.78779,-1.8957,-2.01327,-1.27703,1.68738,1.74157,-1.37359
1.78779,-1.8957,-2.01327,-1.27703,1.68738,1.74157,-1.37359
1.78779,-1.8957,-2.01327,-1.27703,1.68738,1.74157,-1.37359
1.78779,-1.8957,-2.01327,-1.27703,1.68738,1.74157,-1.37359
1.78779,-1.8957,-2.01327,-1.27703,1.68738,1.74157,-1.37359
1.78779,-1.8957,-2.01327,-1.27703,1.68738,1.74157,-1.37359
1.78779,-1.8957,-2.01327,-1.27703,1.68738,1.74157,-1.37359
1.78779,-1.8957,-2.01327,-1.27703,1.68738,1.74157,-1.37359
1.78779,-1.8957,-2.01327,-1.27703,1.68738,1.74157,-1.37359
1.78779,-1.8957,-2.01327,-1.27703,1.68738,1.74157,-1.37359
1.78779,-1.8957,-2.01327,-1.27703,1.68738,1.74157,-1.37359
1.78779,-1.8957,-2.01327,-1.27703,1.68738,1.74157,-1.37359
1.78779,-1.8957,-2.01327,-1.27703,1.68738,1.74157,-1.37359
1.78779,-1.8957,-2.01327,-1.27703,1.68738,1.74157,-1.37359
1.78779,-1.8957,-2.01327,-1.27703,1.68738,1.74157,-1.37359
1.78779,-1.8957,-2.01327,-1.27703,1.68738,1.74157,-1.37359
1.78779,-1.8957,-2.01327,-1.27703,1.68738,1.74157,-1.37359
1.78779,-1.8957,-2.01327,-1.27703,1.68738,1.74157,-1.37359
1.78779,-1.8957,-2.01327,-1.27703,1.68738,1.74157,-1.37359
1.78779,-1.8957,-2.01327,-1.27703,1.68738,1.74157,-1.37359
1.78779,-1.8957,-2.01327,-1.27703,1.68738,1.74157,-1.37359
1.78779,-1.8957,-2.01327,-1.27703,1.68738,1.74157,-1.37359
1.78779,-1.8957,-2.01327,-1.27703,1.68738,1.74157,-1.37359
1.78779,-1.8957,-2.01327,-1.27703,1.68738,1.74157,-1.37359
1.78779,-1.8957,-2.01327,-1.27703,1.68738,1.74157,-1.37359
1.78779,-1.8957,-2.01327,-1.27703,1.68738,1.74157,-1.37359
1.78779,-1.8957,-2.01327,-1.27703,1.68738,1.74157,-1.37359
1.78779,-1.8957,-2.01327,-1.27703,1.68738,1.74157,-1.37359
1.78779,-1.8957,-2.01327,-1.27703,1.68738,1.74157,-1.37359
1.78779,-1.8957,-2.01327,-1.27703,1.68738,1.74157,-1.37359
1.78779,-1.8957,-2.01327,-1.27703,1.68738,1.74157,-1.37359
1.78779,-1.8957,-2.01327,-1.27703,1.68738,1.74157,-1.37359
1.78779,-1.8957,-2.01327,-1.27703,1.68738,1.74157,-1.37359
1.78779,-1.8957,-2.01327,-1.27703,1.68738,1.74157,-1.37359
1.78779,-1.8957,-2.01327,-1.27703,1.68738,1.74157,-1.37359
1.78779,-1.8957,-2.01327,-1.27703,1.68738,1.74157,-1.37359
1.78779,-1.8957,-2.01327,-1.27703,1.68738,1.74157,-1.37359
1.78779,-1.8957,-2.01327,-1.27703,1.68738,1.74157,-1.37359
1.78779,-1.8957,-2.01327,-1.27703,1.68738,1.74157,-1.37359
1.78779,-1.8957,-2.01327,-1.27703,1.68738,1.74157,-1.37359
1.78779,-1.8957,-2.01327,-1.27703,1.68738,1.74157,-1.37359
1.78779,-1.8957,-2.01327,-1.27703,1.68738,1.74157,-1.37359
1.78779,-1.8957,-2.01327,-1.27703,1.68738,1.74157,-1.37359
1.78779,-1.8957,-2.01327,-1.27703,1.68738,1.74157,-1.37359
1.78779,-1.8957,-2.01327,-1.27703,1.68738,1.74157,-1.37359
1.78779,-1.8957,-2.01327,-1.27703,1.68738,1.74157,-1.37359
1.78779,-1.8957,-2.01327,-1.27703,1.68738,1.74157,-1.37359
1.78779,-1.8957,-2.01327,-1.27703,1.68738,1.74157,-1.37359
1.78779,-1.8957,-2.01327,-1.27703,1.68738,1.74157,-1.37359
1.78779,-1.8957,-2.01327,-1.27703,1.68738,1.74157,-1.37359
1.78779,-1.8957,-2.01327,-1.27703,1.68738,1.74157,-1.37359
1.78779,-1.8957,-2.01327,-1.27703,1.68738,1.74157,-1.37359
1.78779,-1.8957,-2.01327,-1.27703,1.68738,1.74157,-1.37359
1.78779,-1.8957,-2.01327,-1.27703,1.68738,1.74157,-1.37359
1.78779,-1.8957,-2.01327,-1.27703,1.68738,1.74157,-1.37359
1.78779,-1.8957,-2.01327,-1.27703,1.68738,1.74157,-1.37359
1.78779,-1.8957,-2.01327,-1.27703,1.68738,1.74157,-1.37359
1.78779,-1.8957,-2.01327,-1.27703,1.68738,1.74157,-1.37359
1.78779,-1.8957,-2.01327,-1.27703,1.68738,1.74157,-1.37359
1.78779,-1.8957,-2.01327,-1.27703,1.68738,1.74157,-1.37359
1.78779,-1.8957,-2.01327,-1.27703,1.68738,1.74157,-1.37359
1.78779,-1.8957,-2.01327,-1.27703,1.68738,1.74157,-1.37359
1.78779,-1.8957,-2.01327,-1.27703,1.68738,1.74157,-1.37359
1.78779,-1.8957,-2.01327,-1.27703,1.68738,1.74157,-1.37359
1.78779,-1.8957,-2.01327,-1.27703,1.68738,1.74157,-1.37359
1.78779,-1.8957,-2.01327,-1.27703,1.68738,1.74157,-1.37359
1.78779,-1.8957,-2.01327,-1.27703,1.68738,1.74157,-1.37359
1.78779,-1.8957,-2.01327,-1.27703,1.68738,1.74157,-1.37359
1.78779,-1.8957,-2.01327,-1.27703,1.68738,1.74157,-1.37359
1.78779,-1.8957,-2.01327,-1.27703,1.68738,1.74157,-1.37359
1.78779,-1.8957,-2.01327,-1.27703,1.68738,1.74157,-1.37359
1.78779,-1.8957,-2.01327,-1.27703,1.68738,1.74157,-1.37359
1.78779,-1.8957,-2.01327,-1.27703,1.68738,1.74157,-1.37359
1.78779,-1.8957,-2.01327,-1.27703,1.68738,1.74157,-1.37359
1.78779,-1.8957,-2.01327,-1.27703,1.68738,1.74157,-1.37359
1.78779,-1.8957,-2.01327,-1.27703,1.68738,1.74157,-1.37359
1.78779,-1.8957,-2.01327,-1.27703,1.68738,1.74157,-1.37359
1.78779,-1.8957,-2.01327,-1.27703,1.68738,1.74157,-1.37359
1.78779,-1.8957,-2.01327,-1.27703,1.68738,1.74157,-1.37359
1.78779,-1.8957,-2.01327,-1.27703,1.68738,1.74157,-1.37359
1.78779,-1.8957,-2.01327,-1.27703,1.68738,1.74157,-1.37359
1.78779,-1.8957,-2.01327,-1.27703,1.68738,1.74157,-1.37359
1.78779,-1.8957,-2.01327,-1.27703,1.68738,1.74157,-1.37359
1.78779,-1.8957,-2.01327,-1.27703,1.68738,1.74157,-1.37359
1.78779,-1.8957,-2.01327,-1.27703,1.68738,1.74157,-1.37359
1.78779,-1.8957,-2.01327,-1.27703,1.68738,1.74157,-1.37359
1.78779,-1.8957,-2.01327,-1.27703,1.68738,1.74157,-1.37359
1.78779,-1.8957,-2.01327,-1.27703,1.68738,1.74157,-1.37359
1.78779,-1.8957,-2.01327,-1.27703,1.68738,1.74157,-1.37359
1.78779,-1.8957,-2.01327,-1.27703,1.68738,1.74157,-1.37359
1.78779,-1.8957,-2.01327,-1.27703,1.68738,1.74157,-1.37359
1.78779,-1.8957,-2.01327,-1.27703,1.68738,1.74157,-1.37359
1.78779,-1.8957,-2.01327,-1.27703,1.68738,1.74157,-1.37359
1.78779,-1.8957,-2.01327,-1.27703,1.68738,1.74157,-1.37359
1.78779,-1.8957,-2.01327,-1.27703,1.68738,1.74157,-1.37359
1.78779,-1.8957,-2.01327,-1.27703,1.68738,1.74157,-1.37359
1.78779,-1.8957,-2.01327,-1.27703,1.68738,1.74157,-1.37359
1.78779,-1.8957,-2.01327,-1.27703,1.68738,1.74157,-1.37359
1.78779,-1.8957,-2.01327,-1.27703,1.68738,1.74157,-1.37359
1.78779,-1.8957,-2.01327,-1.27703,1.68738,1.74157,-1.37359
1.78779,-1.8957,-2.01327,-1.27703,1.68738,1.74157,-1.37359
1.78779,-1.8957,-2.01327,-1.27703,1.68738,1.74157,-1.37359
1.78779,-1.8957,-2.01327,-1.27703,1.68738,1.74157,-1.37359
1.78779,-1.8957,-2.01327,-1.27703,1.68738,1.74157,-1.37359
1.78779,-1.8957,-2.01327,-1.27703,1.68738,1.74157,-1.37359
1.78779,-1.8957,-2.01327,-1.27703,1.68738,1.74157,-1.37359
1.78779,-1.8957,-2.01327,-1.27703,1.68738,1.74157,-1.37359
1.78779,-1.8957,-2.01327,-1.27703,1.68738,1.74157,-1.37359
1.78779,-1.8957,-2.01327,-1.27703,1.68738,1.74157,-1.37359
1.78779,-1.8957,-2.01327,-1.27703,1.68738,1.74157,-1.37359
1.78779,-1.8957,-2.01327,-1.27703,1.68738,1.74157,-1.37359
1.78779,-1.8957,-2.01327,-1.27703,1.68738,1.74157,-1.37359
1.78779,-1.8957,-2.01327,-1.27703,1.68738,1.74157,-1.37359
1.78779,-1.8957,-2.01327,-1.27703,1.68738,1.74157,-1.37359
1.78779,-1.8957,-2.01327,-1.27703,1.68738,1.74157,-1.37359
1.78779,-1.8957,-2.01327,-1.27703,1.68738,1.74157,-1.37359
1.78779,-1.8957,-2.01327,-1.27703,1.68738,1.74157,-1.37359
1.78779,-1.8957,-2.01327,-1.27703,1.68738,1.74157,-1.37359
1.78779,-1.8957,-2.01327,-1.27703,1.68738,1.74157,-1.37359
1.78779,-1.8957,-2.01327,-1.27703,1.68738,1.74157,-1.37359
1.78779,-1.8957,-2.01327,-1.27703,1.68738,1.74157,-1.37359
1.78779,-1.8957,-2.01327,-1.27703,1.68738,1.74157,-1.37359
1.78779,-1.8957,-2.01327,-1.27703,1.68738,1.74157,-1.37359
1.78779,-1.8957,-2.01327,-1.27703,1.68738,1.74157,-1.37359
1.78779,-1.8957,-2.01327,-1.27703,1.68738,1.74157,-1.37359
1.78779,-1.8957,-2.01327,-1.27703,1.68738,1.74157,-1.37359
1.78779,-1.8957,-2.01327,-1.27703,1.68738,1.74157,-1.37359
1.78779,-1.8957,-2.01327,-1.27703,1.68738,1.74157,-1.37359
1.78779,-1.8957,-2.01327,-1.27703,1.68738,1.74157,-1.37359
1.78779,-1.8957,-2.01327,-1.27703,1.68738,1.74157,-1.37359
1.78779,-1.8957,-2.01327,-1.27703,1.68738,1.74157,-1.37359
1.78779,-1.8957,-2.01327,-1.27703,1.68738,1.74157,-1.37359
1.78779,-1.8957,-2.01327,-1.27703,1.68738,1.74157,-1.37359
1.78779,-1.8957,-2.01327,-1.27703,1.68738,1.74157,-1.37359
1.78779,-1.8957,-2.01327,-1.27703,1.68738,1.74157,-1.37359
1.78779,-1.8957,-2.01327,-1.27703,1.68738,1.74157,-1.37359
1.78779,-1.8957,-2.01327,-1.27703,1.68738,1.74157,-1.37359
1.78779,-1.8957,-2.01327,-1.27703,1.68738,1.74157,-1.37359
1.78779,-1.8957,-2.01327,-1.27703,1.68738,1.74157,-1.37359
1.78779,-1.8957,-2.01327,-1.27703,1.68738,1.74157,-1.37359
1.78779,-1.8957,-2.01327,-1.27703,1.68738,1.74157,-1.37359
1.78779,-1.8957,-2.01327,-1.27703,1.68738,1.74157,-1.37359
1.78779,-1.8957,-2.01327,-1.27703,1.68738,1.74157,-1.37359
1.78779,-1.8957,-2.01327,-1.27703,1.68738,1.74157,-1.37359
1.78779,-1.8957,-2.01327,-1.27703,1.68738,1.74157,-1.37359
1.78779,-1.8957,-2.01327,-1.27703,1.68738,1.74157,-1.37359
1.78779,-1.8957,-2.01327,-1.27703,1.68738,1.74157,-1.37359
1.78779,-1.8957,-2.01327,-1.27703,1.68738,1.74157,-1.37359
1.78779,-1.8957,-2.01327,-1.27703,1.68738,1.74157,-1.37359
1.78779,-1.8957,-2.01327,-1.27703,1.68738,1.74157,-1.37359
1.78779,-1.8957,-2.01327,-1.27703,1.68738,1.74157,-1.37359
1.78779,-1.8957,-2.01327,-1.27703,1.68738,1.74157,-1.37359
1.78779,-1.8957,-2.01327,-1.27703,1.68738,1.74157,-1.37359
1.78779,-1.8957,-2.01327,-1.27703,1.68738,1.74157,-1.37359
1.78779,-1.8957,-2.01327,-1.27703,1.68738,1.74157,-1.37359
1.78779,-1.8957,-2.01327,-1.27703,1.68738,1.74157,-1.37359
1.78779,-1.8957,-2.01327,-1.27703,1.68738,1.74157,-1.37359
1.78779,-1.8957,-2.01327,-1.27703,1.68738,1.74157,-1.37359
1.78779,-1.8957,-2.01327,-1.27703,1.68738,1.74157,-1.37359
1.78779,-1.8957,-2.01327,-1.27703,1.68738,1.74157,-1.37359
1.78779,-1.8957,-2.01327,-1.27703,1.68738,1.74157,-1.37359
1.78779,-1.8957,-2.01327,-1.27703,1.68738,1.74157,-1.37359
1.78779,-1.8957,-2.01327,-1.27703,1.68738,1.74157,-1.37359
1.78779,-1.8957,-2.01327,-1.27703,1.68738,1.74157,-1.37359
1.78779,-1.8957,-2.01327,-1.27703,1.68738,1.74157,-1.37359
1.78779,-1.8957,-2.01327,-1.27703,1.68738,1.74157,-1.37359
1.78779,-1.8957,-2.01327,-1.27703,1.68738,1.74157,-1.37359
1.78779,-1.8957,-2.01327,-1.27703,1.68738,1.74157,-1.37359
1.78779,-1.8957,-2.01327,-1.27703,1.68738,1.74157,-1.37359
1.78779,-1.8957,-2.01327,-1.27703,1.68738,1.74157,-1.37359
1.78779,-1.8957,-2.01327,-1.27703,1.68738,1.74157,-1.37359
1.78779,-1.8957,-2.01327,-1.27703,1.68738,1.74157,-1.37359
1.78779,-1.8957,-2.01327,-1.27703,1.68738,1.74157,-1.37359
1.78779,-1.8957,-2.01327,-1.27703,1.68738,1.74157,-1.37359
1.78779,-1.8957,-2.01327,-1.27703,1.68738,1.74157,-1.37359
1.78779,-1.8957,-2.01327,-1.27703,1.68738,1.74157,-1.37359
1.78779,-1.8957,-2.01327,-1.27703,1.68738,1.74157,-1.37359
1.78779,-1.8957,-2.01327,-1.27703,1.68738,1.74157,-1.37359
1.78779,-1.8957,-2.01327,-1.27703,1.68738,1.74157,-1.37359
1.78779,-1.8957,-2.01327,-1.27703,1.68738,1.74157,-1.37359
1.78779,-1.8957,-2.01327,-1.27703,1.68738,1.74157,-1.37359
1.78779,-1.8957,-2.01327,-1.27703,1.68738,1.74157,-1.37359
1.78779,-1.8957,-2.01327,-1.27703,1.68738,1.74157,-1.37359
1.78779,-1.8957,-2.01327,-1.27703,1.68738,1.74157,-1.37359
1.78779,-1.8957,-2.01327,-1.27703,1.68738,1.74157,-1.37359
1.78779,-1.8957,-2.01327,-1.27703,1.68738,1.74157,-1.37359
1.78779,-1.8957,-2.01327,-1.27703,1.68738,1.74157,-1.37359
1.78779,-1.8957,-2.01327,-1.27703,1.68738,1.74157,-1.37359
1.78779,-1.8957,-2.01327,-1.27703,1.68738,1.74157,-1.37359
1.78779,-1.8957,-2.01327,-1.27703,1.68738,1.74157,-1.37359
1.78779,-1.8957,-2.01327,-1.27703,1.68738,1.74157,-1.37359
1.78779,-1.8957,-2.01327,-1.27703,1.68738,1.74157,-1.37359
1.78779,-1.8957,-2.01327,-1.27703,1.68738,1.74157,-1.37359
1.78779,-1.8957,-2.01327,-1.27703,1.68738,1.74157,-1.37359
1.78779,-1.8957,-2.01327,-1.27703,1.68738,1.74157,-1.37359
1.78779,-1.8957,-2.01327,-1.27703,1.68738,1.74157,-1.37359
1.78779,-1.8957,-2.01327,-1.27703,1.68738,1.74157,-1.37359
1.78779,-1.8957,-2.01327,-1.27703,1.68738,1.74157,-1.37359
1.78779,-1.8957,-2.01327,-1.27703,1.68738,1.74157,-1.37359
1.78779,-1.8957,-2.01327,-1.27703,1.68738,1.74157,-1.37359
1.78779,-1.8957,-2.01327,-1.27703,1.68738,1.74157,-1.37359
1.78779,-1.8957,-2.01327,-1.27703,1.68738,1.74157,-1.37359
1.78779,-1.8957,-2.01327,-1.27703,1.68738,1.74157,-1.37359
1.78779,-1.8957,-2.01327,-1.27703,1.68738,1.74157,-1.37359
1.78779,-1.8957,-2.01327,-1.27703,1.68738,1.74157,-1.37359
1.78779,-1.8957,-2.01327,-1.27703,1.68738,1.74157,-1.37359
1.78779,-1.8957,-2.01327,-1.27703,1.68738,1.74157,-1.37359
1.78779,-1.8957,-2.01327,-1.27703,1.68738,1.74157,-1.37359
1.78779,-1.8957,-2.01327,-1.27703,1.68738,1.74157,-1.37359
1.78779,-1.8957,-2.01327,-1.27703,1.68738,1.74157,-1.37359
1.78779,-1.8957,-2.01327,-1.27703,1.68738,1.74157,-1.37359
1.78779,-1.8957,-2.01327,-1.27703,1.68738,1.74157,-1.37359
1.78779,-1.8957,-2.01327,-1.27703,1.68738,1.74157,-1.37359
1.78779,-1.8957,-2.01327,-1.27703,1.68738,1.74157,-1.37359
1.78779,-1.8957,-2.01327,-1.27703,1.68738,1.74157,-1.37359
1.78779,-1.8957,-2.01327,-1.27703,1.68738,1.74157,-1.37359
1.78779,-1.8957,-2.01327,-1.27703,1.68738,1.74157,-1.37359
1.78779,-1.8957,-2.01327,-1.27703,1.68738,1.74157,-1.37359
1.78779,-1.8957,-2.01327,-1.27703,1.68738,1.74157,-1.37359
1.78779,-1.8957,-2.01327,-1.27703,1.68738,1.74157,-1.37359
1.78779,-1.8957,-2.01327,-1.27703,1.68738,1.74157,-1.37359
1.78779,-1.8957,-2.01327,-1.27703,1.68738,1.74157,-1.37359
1.78779,-1.8957,-2.01327,-1.27703,1.68738,1.74157,-1.37359
1.78779,-1.8957,-2.01327,-1.27703,1.68738,1.74157,-1.37359
1.78779,-1.8957,-2.01327,-1.27703,1.68738,1.74157,-1.37359
1.78779,-1.8957,-2.01327,-1.27703,1.68738,1.74157,-1.37359
1.78779,-1.8957,-2.01327,-1.27703,1.68738,1.74157,-1.37359
1.78779,-1.8957,-2.01327,-1.27703,1.68738,1.74157,-1.37359
1.78779,-1.8957,-2.01327,-1.27703,1.68738,1.74157,-1.37359
1.78779,-1.8957,-2.01327,-1.27703,1.68738,1.74157,-1.37359
1.78779,-1.8957,-2.01327,-1.27703,1.68738,1.74157,-1.37359
1.78779,-1.8957,-2.01327,-1.27703,1.68738,1.74157,-1.37359
1.78779,-1.8957,-2.01327,-1.27703,1.68738,1.74157,-1.37359
1.89706,-1.84917,-2.03068,-1.27377,1.67638,1.77163,-1.37889
1.89605,-1.84935,-2.0307,-1.27246,1.67534,1.77148,-1.37831
1.90809,-1.85923,-2.03182,-1.28103,1.68197,1.7723,-1.38596
1.90809,-1.85923,-2.03182,-1.28103,1.68197,1.7723,-1.38596
1.90809,-1.85923,-2.03182,-1.28103,1.68197,1.7723,-1.38596
1.90711,-1.85848,-2.03155,-1.28026,1.6817,1.77222,-1.38511
1.90679,-1.8582,-2.03146,-1.28004,1.68163,1.77219,-1.38484
1.89284,-1.84885,-2.03,-1.27012,1.67381,1.77108,-1.37711
1.90614,-1.85767,-2.03128,-1.27957,1.68147,1.77215,-1.38427
1.90614,-1.85767,-2.03128,-1.27957,1.68147,1.77215,-1.38427
1.90614,-1.85767,-2.03128,-1.27957,1.68147,1.77215,-1.38427
1.90614,-1.85767,-2.03128,-1.27957,1.68147,1.77215,-1.38427
1.90614,-1.85767,-2.03128,-1.27957,1.68147,1.77215,-1.38427
1.90614,-1.85767,-2.03128,-1.27957,1.68147,1.77215,-1.38427
1.90614,-1.85767,-2.03128,-1.27957,1.68147,1.77215,-1.38427
1.90614,-1.85767,-2.03128,-1.27957,1.68147,1.77215,-1.38427
1.90614,-1.85767,-2.03128,-1.27957,1.68147,1.77215,-1.38427
1.90614,-1.85767,-2.03128,-1.27957,1.68147,1.77215,-1.38427
1.90614,-1.85767,-2.03128,-1.27957,1.68147,1.77215,-1.38427
1.90614,-1.85767,-2.03128,-1.27957,1.68147,1.77215,-1.38427
1.90614,-1.85767,-2.03128,-1.27957,1.68147,1.77215,-1.38427
1.90614,-1.85767,-2.03128,-1.27957,1.68147,1.77215,-1.38427
1.90614,-1.85767,-2.03128,-1.27957,1.68147,1.77215,-1.38427
1.90614,-1.85767,-2.03128,-1.27957,1.68147,1.77215,-1.38427
1.90614,-1.85767,-2.03128,-1.27957,1.68147,1.77215,-1.38427
1.90614,-1.85767,-2.03128,-1.27957,1.68147,1.77215,-1.38427
1.90614,-1.85767,-2.03128,-1.27957,1.68147,1.77215,-1.38427
1.90614,-1.85767,-2.03128,-1.27957,1.68147,1.77215,-1.38427
1.90614,-1.85767,-2.03128,-1.27957,1.68147,1.77215,-1.38427
1.90614,-1.85767,-2.03128,-1.27957,1.68147,1.77215,-1.38427
1.90614,-1.85767,-2.03128,-1.27957,1.68147,1.77215,-1.38427
1.90614,-1.85767,-2.03128,-1.27957,1.68147,1.77215,-1.38427
1.90614,-1.85767,-2.03128,-1.27957,1.68147,1.77215,-1.38427
1.90614,-1.85767,-2.03128,-1.27957,1.68147,1.77215,-1.38427
1.90614,-1.85767,-2.03128,-1.27957,1.68147,1.77215,-1.38427
1.90614,-1.85767,-2.03128,-1.27957,1.68147,1.77215,-1.38427
1.90614,-1.85767,-2.03128,-1.27957,1.68147,1.77215,-1.38427
1.90614,-1.85767,-2.03128,-1.27957,1.68147,1.77215,-1.38427
1.90614,-1.85767,-2.03128,-1.27957,1.68147,1.77215,-1.38427
1.90614,-1.85767,-2.03128,-1.27957,1.68147,1.77215,-1.38427
1.90614,-1.85767,-2.03128,-1.27957,1.68147,1.77215,-1.38427
1.90614,-1.85767,-2.03128,-1.27957,1.68147,1.77215,-1.38427
1.90614,-1.85767,-2.03128,-1.27957,1.68147,1.77215,-1.38427
1.90614,-1.85767,-2.03128,-1.27957,1.68147,1.77215,-1.38427
1.90614,-1.85767,-2.03128,-1.27957,1.68147,1.77215,-1.38427
1.90614,-1.85767,-2.03128,-1.27957,1.68147,1.77215,-1.38427
1.90614,-1.85767,-2.03128,-1.27957,1.68147,1.77215,-1.38427
1.90614,-1.85767,-2.03128,-1.27957,1.68147,1.77215,-1.38427
1.90614,-1.85767,-2.03128,-1.27957,1.68147,1.77215,-1.38427
1.90614,-1.85767,-2.03128,-1.27957,1.68147,1.77215,-1.38427
1.90614,-1.85767,-2.03128,-1.27957,1.68147,1.77215,-1.38427
1.90614,-1.85767,-2.03128,-1.27957,1.68147,1.77215,-1.38427
1.90614,-1.85767,-2.03128,-1.27957,1.68147,1.77215,-1.38427
1.90614,-1.85767,-2.03128,-1.27957,1.68147,1.77215,-1.38427
1.90614,-1.85767,-2.03128,-1.27957,1.68147,1.77215,-1.38427
1.90614,-1.85767,-2.03128,-1.27957,1.68147,1.77215,-1.38427
1.90614,-1.85767,-2.03128,-1.27957,1.68147,1.77215,-1.38427
1.90614,-1.85767,-2.03128,-1.27957,1.68147,1.77215,-1.38427
1.90614,-1.85767,-2.03128,-1.27957,1.68147,1.77215,-1.38427
1.90614,-1.85767,-2.03128,-1.27957,1.68147,1.77215,-1.38427
1.90614,-1.85767,-2.03128,-1.27957,1.68147,1.77215,-1.38427
1.90614,-1.85767,-2.03128,-1.27957,1.68147,1.77215,-1.38427
1.90614,-1.85767,-2.03128,-1.27957,1.68147,1.77215,-1.38427
1.90614,-1.85767,-2.03128,-1.27957,1.68147,1.77215,-1.38427
1.90614,-1.85767,-2.03128,-1.27957,1.68147,1.77215,-1.38427
1.90614,-1.85767,-2.03128,-1.27957,1.68147,1.77215,-1.38427
1.90614,-1.85767,-2.03128,-1.27957,1.68147,1.77215,-1.38427
1.90614,-1.85767,-2.03128,-1.27957,1.68147,1.77215,-1.38427
1.90614,-1.85767,-2.03128,-1.27957,1.68147,1.77215,-1.38427
1.90614,-1.85767,-2.03128,-1.27957,1.68147,1.77215,-1.38427
1.90614,-1.85767,-2.03128,-1.27957,1.68147,1.77215,-1.38427
1.90614,-1.85767,-2.03128,-1.27957,1.68147,1.77215,-1.38427
1.90614,-1.85767,-2.03128,-1.27957,1.68147,1.77215,-1.38427
1.90614,-1.85767,-2.03128,-1.27957,1.68147,1.77215,-1.38427
1.90614,-1.85767,-2.03128,-1.27957,1.68147,1.77215,-1.38427
1.90614,-1.85767,-2.03128,-1.27957,1.68147,1.77215,-1.38427
1.90614,-1.85767,-2.03128,-1.27957,1.68147,1.77215,-1.38427
1.90614,-1.85767,-2.03128,-1.27957,1.68147,1.77215,-1.38427
1.90614,-1.85767,-2.03128,-1.27957,1.68147,1.77215,-1.38427
1.90614,-1.85767,-2.03128,-1.27957,1.68147,1.77215,-1.38427
1.90614,-1.85767,-2.03128,-1.27957,1.68147,1.77215,-1.38427
1.90614,-1.85767,-2.03128,-1.27957,1.68147,1.77215,-1.38427
1.90614,-1.85767,-2.03128,-1.27957,1.68147,1.77215,-1.38427
1.90614,-1.85767,-2.03128,-1.27957,1.68147,1.77215,-1.38427
1.90614,-1.85767,-2.03128,-1.27957,1.68147,1.77215,-1.38427
1.90614,-1.85767,-2.03128,-1.27957,1.68147,1.77215,-1.38427
1.90614,-1.85767,-2.03128,-1.27957,1.68147,1.77215,-1.38427
1.90614,-1.85767,-2.03128,-1.27957,1.68147,1.77215,-1.38427
1.90614,-1.85767,-2.03128,-1.27957,1.68147,1.77215,-1.38427
1.90614,-1.85767,-2.03128,-1.27957,1.68147,1.77215,-1.38427
1.90614,-1.85767,-2.03128,-1.27957,1.68147,1.77215,-1.38427
1.90614,-1.85767,-2.03128,-1.27957,1.68147,1.77215,-1.38427
1.90614,-1.85767,-2.03128,-1.27957,1.68147,1.77215,-1.38427
1.90614,-1.85767,-2.03128,-1.27957,1.68147,1.77215,-1.38427
1.90614,-1.85767,-2.03128,-1.27957,1.68147,1.77215,-1.38427
1.90614,-1.85767,-2.03128,-1.27957,1.68147,1.77215,-1.38427
1.90614,-1.85767,-2.03128,-1.27957,1.68147,1.77215,-1.38427
1.90614,-1.85767,-2.03128,-1.27957,1.68147,1.77215,-1.38427
1.90614,-1.85767,-2.03128,-1.27957,1.68147,1.77215,-1.38427
1.90614,-1.85767,-2.03128,-1.27957,1.68147,1.77215,-1.38427
1.90614,-1.85767,-2.03128,-1.27957,1.68147,1.77215,-1.38427
1.90614,-1.85767,-2.03128,-1.27957,1.68147,1.77215,-1.38427
1.90614,-1.85767,-2.03128,-1.27957,1.68147,1.77215,-1.38427
1.90614,-1.85767,-2.03128,-1.27957,1.68147,1.77215,-1.38427
1.90614,-1.85767,-2.03128,-1.27957,1.68147,1.77215,-1.38427
1.90614,-1.85767,-2.03128,-1.27957,1.68147,1.77215,-1.38427
1.90614,-1.85767,-2.03128,-1.27957,1.68147,1.77215,-1.38427
1.90614,-1.85767,-2.03128,-1.27957,1.68147,1.77215,-1.38427
1.90614,-1.85767,-2.03128,-1.27957,1.68147,1.77215,-1.38427
1.90614,-1.85767,-2.03128,-1.27957,1.68147,1.77215,-1.38427
1.90614,-1.85767,-2.03128,-1.27957,1.68147,1.77215,-1.38427
1.90614,-1.85767,-2.03128,-1.27957,1.68147,1.77215,-1.38427
1.90614,-1.85767,-2.03128,-1.27957,1.68147,1.77215,-1.38427
1.90614,-1.85767,-2.03128,-1.27957,1.68147,1.77215,-1.38427
1.90614,-1.85767,-2.03128,-1.27957,1.68147,1.77215,-1.38427
1.90614,-1.85767,-2.03128,-1.27957,1.68147,1.77215,-1.38427
1.90614,-1.85767,-2.03128,-1.27957,1.68147,1.77215,-1.38427
1.90614,-1.85767,-2.03128,-1.27957,1.68147,1.77215,-1.38427
1.90614,-1.85767,-2.03128,-1.27957,1.68147,1.77215,-1.38427
1.90614,-1.85767,-2.03128,-1.27957,1.68147,1.77215,-1.38427
1.90614,-1.85767,-2.03128,-1.27957,1.68147,1.77215,-1.38427
1.90614,-1.85767,-2.03128,-1.27957,1.68147,1.77215,-1.38427
1.90614,-1.85767,-2.03128,-1.27957,1.68147,1.77215,-1.38427
1.90614,-1.85767,-2.03128,-1.27957,1.68147,1.77215,-1.38427
1.90614,-1.85767,-2.03128,-1.27957,1.68147,1.77215,-1.38427
1.90614,-1.85767,-2.03128,-1.27957,1.68147,1.77215,-1.38427
1.90614,-1.85767,-2.03128,-1.27957,1.68147,1.77215,-1.38427
1.90614,-1.85767,-2.03128,-1.27957,1.68147,1.77215,-1.38427
1.90614,-1.85767,-2.03128,-1.27957,1.68147,1.77215,-1.38427
1.90614,-1.85767,-2.03128,-1.27957,1.68147,1.77215,-1.38427
1.90614,-1.85767,-2.03128,-1.27957,1.68147,1.77215,-1.38427
1.90614,-1.85767,-2.03128,-1.27957,1.68147,1.77215,-1.38427
1.90614,-1.85767,-2.03128,-1.27957,1.68147,1.77215,-1.38427
1.90614,-1.85767,-2.03128,-1.27957,1.68147,1.77215,-1.38427
1.90614,-1.85767,-2.03128,-1.27957,1.68147,1.77215,-1.38427
1.90614,-1.85767,-2.03128,-1.27957,1.68147,1.77215,-1.38427
1.90614,-1.85767,-2.03128,-1.27957,1.68147,1.77215,-1.38427
1.90614,-1.85767,-2.03128,-1.27957,1.68147,1.77215,-1.38427
1.90614,-1.85767,-2.03128,-1.27957,1.68147,1.77215,-1.38427
1.90614,-1.85767,-2.03128,-1.27957,1.68147,1.77215,-1.38427
1.90614,-1.85767,-2.03128,-1.27957,1.68147,1.77215,-1.38427
1.90614,-1.85767,-2.03128,-1.27957,1.68147,1.77215,-1.38427
1.90614,-1.85767,-2.03128,-1.27957,1.68147,1.77215,-1.38427
1.90614,-1.85767,-2.03128,-1.27957,1.68147,1.77215,-1.38427
1.90614,-1.85767,-2.03128,-1.27957,1.68147,1.77215,-1.38427
1.90614,-1.85767,-2.03128,-1.27957,1.68147,1.77215,-1.38427
1.90614,-1.85767,-2.03128,-1.27957,1.68147,1.77215,-1.38427
1.90614,-1.85767,-2.03128,-1.27957,1.68147,1.77215,-1.38427
1.90614,-1.85767,-2.03128,-1.27957,1.68147,1.77215,-1.38427
1.90614,-1.85767,-2.03128,-1.27957,1.68147,1.77215,-1.38427
1.90614,-1.85767,-2.03128,-1.27957,1.68147,1.77215,-1.38427
1.90614,-1.85767,-2.03128,-1.27957,1.68147,1.77215,-1.38427
1.90614,-1.85767,-2.03128,-1.27957,1.68147,1.77215,-1.38427
1.90614,-1.85767,-2.03128,-1.27957,1.68147,1.77215,-1.38427
1.90614,-1.85767,-2.03128,-1.27957,1.68147,1.77215,-1.38427
1.90614,-1.85767,-2.03128,-1.27957,1.68147,1.77215,-1.38427
1.90614,-1.85767,-2.03128,-1.27957,1.68147,1.77215,-1.38427
1.90614,-1.85767,-2.03128,-1.27957,1.68147,1.77215,-1.38427
1.90614,-1.85767,-2.03128,-1.27957,1.68147,1.77215,-1.38427
1.90614,-1.85767,-2.03128,-1.27957,1.68147,1.77215,-1.38427
1.90614,-1.85767,-2.03128,-1.27957,1.68147,1.77215,-1.38427
1.90614,-1.85767,-2.03128,-1.27957,1.68147,1.77215,-1.38427
1.90614,-1.85767,-2.03128,-1.27957,1.68147,1.77215,-1.38427
1.90614,-1.85767,-2.03128,-1.27957,1.68147,1.77215,-1.38427
1.90614,-1.85767,-2.03128,-1.27957,1.68147,1.77215,-1.38427
1.90614,-1.85767,-2.03128,-1.27957,1.68147,1.77215,-1.38427
1.90614,-1.85767,-2.03128,-1.27957,1.68147,1.77215,-1.38427
1.90614,-1.85767,-2.03128,-1.27957,1.68147,1.77215,-1.38427
1.90614,-1.85767,-2.03128,-1.27957,1.68147,1.77215,-1.38427
1.90614,-1.85767,-2.03128,-1.27957,1.68147,1.77215,-1.38427
1.90614,-1.85767,-2.03128,-1.27957,1.68147,1.77215,-1.38427
1.90614,-1.85767,-2.03128,-1.27957,1.68147,1.77215,-1.38427
1.90614,-1.85767,-2.03128,-1.27957,1.68147,1.77215,-1.38427
1.90614,-1.85767,-2.03128,-1.27957,1.68147,1.77215,-1.38427
1.90614,-1.85767,-2.03128,-1.27957,1.68147,1.77215,-1.38427
1.90614,-1.85767,-2.03128,-1.27957,1.68147,1.77215,-1.38427
1.90614,-1.85767,-2.03128,-1.27957,1.68147,1.77215,-1.38427
1.90614,-1.85767,-2.03128,-1.27957,1.68147,1.77215,-1.38427
1.90614,-1.85767,-2.03128,-1.27957,1.68147,1.77215,-1.38427
1.90614,-1.85767,-2.03128,-1.27957,1.68147,1.77215,-1.38427
1.90614,-1.85767,-2.03128,-1.27957,1.68147,1.77215,-1.38427
1.90614,-1.85767,-2.03128,-1.27957,1.68147,1.77215,-1.38427
1.90614,-1.85767,-2.03128,-1.27957,1.68147,1.77215,-1.38427
1.90614,-1.85767,-2.03128,-1.27957,1.68147,1.77215,-1.38427
1.90614,-1.85767,-2.03128,-1.27957,1.68147,1.77215,-1.38427
1.90614,-1.85767,-2.03128,-1.27957,1.68147,1.77215,-1.38427
1.90614,-1.85767,-2.03128,-1.27957,1.68147,1.77215,-1.38427
1.90614,-1.85767,-2.03128,-1.27957,1.68147,1.77215,-1.38427
1.90614,-1.85767,-2.03128,-1.27957,1.68147,1.77215,-1.38427
1.90614,-1.85767,-2.03128,-1.27957,1.68147,1.77215,-1.38427
1.90614,-1.85767,-2.03128,-1.27957,1.68147,1.77215,-1.38427
1.90614,-1.85767,-2.03128,-1.27957,1.68147,1.77215,-1.38427
1.90614,-1.85767,-2.03128,-1.27957,1.68147,1.77215,-1.38427
1.90614,-1.85767,-2.03128,-1.27957,1.68147,1.77215,-1.38427
1.90614,-1.85767,-2.03128,-1.27957,1.68147,1.77215,-1.38427
1.90614,-1.85767,-2.03128,-1.27957,1.68147,1.77215,-1.38427
1.90614,-1.85767,-2.03128,-1.27957,1.68147,1.77215,-1.38427
1.90614,-1.85767,-2.03128,-1.27957,1.68147,1.77215,-1.38427
1.90614,-1.85767,-2.03128,-1.27957,1.68147,1.77215,-1.38427
1.90614,-1.85767,-2.03128,-1.27957,1.68147,1.77215,-1.38427
1.90614,-1.85767,-2.03128,-1.27957,1.68147,1.77215,-1.38427
1.90614,-1.85767,-2.03128,-1.27957,1.68147,1.77215,-1.38427
1.90614,-1.85767,-2.03128,-1.27957,1.68147,1.77215,-1.38427
1.90614,-1.85767,-2.03128,-1.27957,1.68147,1.77215,-1.38427
1.90614,-1.85767,-2.03128,-1.27957,1.68147,1.77215,-1.38427
1.90614,-1.85767,-2.03128,-1.27957,1.68147,1.77215,-1.38427
1.90614,-1.85767,-2.03128,-1.27957,1.68147,1.77215,-1.38427
1.90614,-1.85767,-2.03128,-1.27957,1.68147,1.77215,-1.38427
1.90614,-1.85767,-2.03128,-1.27957,1.68147,1.77215,-1.38427
1.90614,-1.85767,-2.03128,-1.27957,1.68147,1.77215,-1.38427
1.90614,-1.85767,-2.03128,-1.27957,1.68147,1.77215,-1.38427
1.90614,-1.85767,-2.03128,-1.27957,1.68147,1.77215,-1.38427
1.90614,-1.85767,-2.03128,-1.27957,1.68147,1.77215,-1.38427
1.90614,-1.85767,-2.03128,-1.27957,1.68147,1.77215,-1.38427
1.90614,-1.85767,-2.03128,-1.27957,1.68147,1.77215,-1.38427
1.90614,-1.85767,-2.03128,-1.27957,1.68147,1.77215,-1.38427
1.90614,-1.85767,-2.03128,-1.27957,1.68147,1.77215,-1.38427
1.90614,-1.85767,-2.03128,-1.27957,1.68147,1.77215,-1.38427
1.90614,-1.85767,-2.03128,-1.27957,1.68147,1.77215,-1.38427
1.90614,-1.85767,-2.03128,-1.27957,1.68147,1.77215,-1.38427
1.90614,-1.85767,-2.03128,-1.27957,1.68147,1.77215,-1.38427
1.90614,-1.85767,-2.03128,-1.27957,1.68147,1.77215,-1.38427
1.90614,-1.85767,-2.03128,-1.27957,1.68147,1.77215,-1.38427
1.90614,-1.85767,-2.03128,-1.27957,1.68147,1.77215,-1.38427
1.90614,-1.85767,-2.03128,-1.27957,1.68147,1.77215,-1.38427
1.90614,-1.85767,-2.03128,-1.27957,1.68147,1.77215,-1.38427
1.90614,-1.85767,-2.03128,-1.27957,1.68147,1.77215,-1.38427
1.90614,-1.85767,-2.03128,-1.27957,1.68147,1.77215,-1.38427
1.90614,-1.85767,-2.03128,-1.27957,1.68147,1.77215,-1.38427
1.90614,-1.85767,-2.03128,-1.27957,1.68147,1.77215,-1.38427
1.90614,-1.85767,-2.03128,-1.27957,1.68147,1.77215,-1.38427
1.90614,-1.85767,-2.03128,-1.27957,1.68147,1.77215,-1.38427
1.90614,-1.85767,-2.03128,-1.27957,1.68147,1.77215,-1.38427
1.90614,-1.85767,-2.03128,-1.27957,1.68147,1.77215,-1.38427
1.90614,-1.85767,-2.03128,-1.27957,1.68147,1.77215,-1.38427
1.90614,-1.85767,-2.03128,-1.27957,1.68147,1.77215,-1.38427
1.90614,-1.85767,-2.03128,-1.27957,1.68147,1.77215,-1.38427
1.90614,-1.85767,-2.03128,-1.27957,1.68147,1.77215,-1.38427
1.90614,-1.85767,-2.03128,-1.27957,1.68147,1.77215,-1.38427
1.90614,-1.85767,-2.03128,-1.27957,1.68147,1.77215,-1.38427
1.90614,-1.85767,-2.03128,-1.27957,1.68147,1.77215,-1.38427
1.90614,-1.85767,-2.03128,-1.27957,1.68147,1.77215,-1.38427
1.90614,-1.85767,-2.03128,-1.27957,1.68147,1.77215,-1.38427
1.90614,-1.85767,-2.03128,-1.27957,1.68147,1.77215,-1.38427
1.90614,-1.85767,-2.03128,-1.27957,1.68147,1.77215,-1.38427
1.90614,-1.85767,-2.03128,-1.27957,1.68147,1.77215,-1.38427
1.90614,-1.85767,-2.03128,-1.27957,1.68147,1.77215,-1.38427
1.90614,-1.85767,-2.03128,-1.27957,1.68147,1.77215,-1.38427
1.90614,-1.85767,-2.03128,-1.27957,1.68147,1.77215,-1.38427
1.90614,-1.85767,-2.03128,-1.27957,1.68147,1.77215,-1.38427
1.90614,-1.85767,-2.03128,-1.27957,1.68147,1.77215,-1.38427
1.90614,-1.85767,-2.03128,-1.27957,1.68147,1.77215,-1.38427
1.90614,-1.85767,-2.03128,-1.27957,1.68147,1.77215,-1.38427
1.90614,-1.85767,-2.03128,-1.27957,1.68147,1.77215,-1.38427
1.90614,-1.85767,-2.03128,-1.27957,1.68147,1.77215,-1.38427
1.90614,-1.85767,-2.03128,-1.27957,1.68147,1.77215,-1.38427
1.90614,-1.85767,-2.03128,-1.27957,1.68147,1.77215,-1.38427
1.90614,-1.85767,-2.03128,-1.27957,1.68147,1.77215,-1.38427
1.90614,-1.85767,-2.03128,-1.27957,1.68147,1.77215,-1.38427
1.90614,-1.85767,-2.03128,-1.27957,1.68147,1.77215,-1.38427
1.90614,-1.85767,-2.03128,-1.27957,1.68147,1.77215,-1.38427
1.90614,-1.85767,-2.03128,-1.27957,1.68147,1.77215,-1.38427
1.90614,-1.85767,-2.03128,-1.27957,1.68147,1.77215,-1.38427
1.90614,-1.85767,-2.03128,-1.27957,1.68147,1.77215,-1.38427
1.90614,-1.85767,-2.03128,-1.27957,1.68147,1.77215,-1.38427
1.90614,-1.85767,-2.03128,-1.27957,1.68147,1.77215,-1.38427
1.90614,-1.85767,-2.03128,-1.27957,1.68147,1.77215,-1.38427
1.90614,-1.85767,-2.03128,-1.27957,1.68147,1.77215,-1.38427
1.90614,-1.85767,-2.03128,-1.27957,1.68147,1.77215,-1.38427
1.90614,-1.85767,-2.03128,-1.27957,1.68147,1.77215,-1.38427
1.90614,-1.85767,-2.03128,-1.27957,1.68147,1.77215,-1.38427
1.90614,-1.85767,-2.03128,-1.27957,1.68147,1.77215,-1.38427
1.90614,-1.85767,-2.03128,-1.27957,1.68147,1.77215,-1.38427
1.90614,-1.85767,-2.03128,-1.27957,1.68147,1.77215,-1.38427
1.90614,-1.85767,-2.03128,-1.27957,1.68147,1.77215,-1.38427
1.90614,-1.85767,-2.03128,-1.27957,1.68147,1.77215,-1.38427
1.90614,-1.85767,-2.03128,-1.27957,1.68147,1.77215,-1.38427
1.90614,-1.85767,-2.03128,-1.27957,1.68147,1.77215,-1.38427
1.90614,-1.85767,-2.03128,-1.27957,1.68147,1.77215,-1.38427
1.90614,-1.85767,-2.03128,-1.27957,1.68147,1.77215,-1.38427
1.90614,-1.85767,-2.03128,-1.27957,1.68147,1.77215,-1.38427
1.90614,-1.85767,-2.03128,-1.27957,1.68147,1.77215,-1.38427
1.90614,-1.85767,-2.03128,-1.27957,1.68147,1.77215,-1.38427
1.90614,-1.85767,-2.03128,-1.27957,1.68147,1.77215,-1.38427
1.90614,-1.85767,-2.03128,-1.27957,1.68147,1.77215,-1.38427
1.90614,-1.85767,-2.03128,-1.27957,1.68147,1.77215,-1.38427
1.90614,-1.85767,-2.03128,-1.27957,1.68147,1.77215,-1.38427
1.90614,-1.85767,-2.03128,-1.27957,1.68147,1.77215,-1.38427
1.90614,-1.85767,-2.03128,-1.27957,1.68147,1.77215,-1.38427
1.90614,-1.85767,-2.03128,-1.27957,1.68147,1.77215,-1.38427
1.90614,-1.85767,-2.03128,-1.27957,1.68147,1.77215,-1.38427
1.90614,-1.85767,-2.03128,-1.27957,1.68147,1.77215,-1.38427
1.90614,-1.85767,-2.03128,-1.27957,1.68147,1.77215,-1.38427
1.90614,-1.85767,-2.03128,-1.27957,1.68147,1.77215,-1.38427
1.90614,-1.85767,-2.03128,-1.27957,1.68147,1.77215,-1.38427
1.90614,-1.85767,-2.03128,-1.27957,1.68147,1.77215,-1.38427
1.90614,-1.85767,-2.03128,-1.27957,1.68147,1.77215,-1.38427
1.90614,-1.85767,-2.03128,-1.27957,1.68147,1.77215,-1.38427
1.90614,-1.85767,-2.03128,-1.27957,1.68147,1.77215,-1.38427
1.90614,-1.85767,-2.03128,-1.27957,1.68147,1.77215,-1.38427
1.90614,-1.85767,-2.03128,-1.27957,1.68147,1.77215,-1.38427
1.90614,-1.85767,-2.03128,-1.27957,1.68147,1.77215,-1.38427
1.90614,-1.85767,-2.03128,-1.27957,1.68147,1.77215,-1.38427
1.90614,-1.85767,-2.03128,-1.27957,1.68147,1.77215,-1.38427
1.90614,-1.85767,-2.03128,-1.27957,1.68147,1.77215,-1.38427
1.90614,-1.85767,-2.03128,-1.27957,1.68147,1.77215,-1.38427
1.90614,-1.85767,-2.03128,-1.27957,1.68147,1.77215,-1.38427
1.90614,-1.85767,-2.03128,-1.27957,1.68147,1.77215,-1.38427
1.90614,-1.85767,-2.03128,-1.27957,1.68147,1.77215,-1.38427
1.90614,-1.85767,-2.03128,-1.27957,1.68147,1.77215,-1.38427
1.90614,-1.85767,-2.03128,-1.27957,1.68147,1.77215,-1.38427
1.90614,-1.85767,-2.03128,-1.27957,1.68147,1.77215,-1.38427
1.90614,-1.85767,-2.03128,-1.27957,1.68147,1.77215,-1.38427
1.90614,-1.85767,-2.03128,-1.27957,1.68147,1.77215,-1.38427
1.90614,-1.85767,-2.03128,-1.27957,1.68147,1.77215,-1.38427
1.90614,-1.85767,-2.03128,-1.27957,1.68147,1.77215,-1.38427
1.90614,-1.85767,-2.03128,-1.27957,1.68147,1.77215,-1.38427
1.90614,-1.85767,-2.03128,-1.27957,1.68147,1.77215,-1.38427
1.90614,-1.85767,-2.03128,-1.27957,1.68147,1.77215,-1.38427
1.90614,-1.85767,-2.03128,-1.27957,1.68147,1.77215,-1.38427
1.90614,-1.85767,-2.03128,-1.27957,1.68147,1.77215,-1.38427
1.90614,-1.85767,-2.03128,-1.27957,1.68147,1.77215,-1.38427
1.90614,-1.85767,-2.03128,-1.27957,1.68147,1.77215,-1.38427
1.90614,-1.85767,-2.03128,-1.27957,1.68147,1.77215,-1.38427
1.90614,-1.85767,-2.03128,-1.27957,1.68147,1.77215,-1.38427
1.90614,-1.85767,-2.03128,-1.27957,1.68147,1.77215,-1.38427
1.90614,-1.85767,-2.03128,-1.27957,1.68147,1.77215,-1.38427
1.90614,-1.85767,-2.03128,-1.27957,1.68147,1.77215,-1.38427
1.90614,-1.85767,-2.03128,-1.27957,1.68147,1.77215,-1.38427
1.90614,-1.85767,-2.03128,-1.27957,1.68147,1.77215,-1.38427
1.90614,-1.85767,-2.03128,-1.27957,1.68147,1.77215,-1.38427
1.90614,-1.85767,-2.03128,-1.27957,1.68147,1.77215,-1.38427
1.90614,-1.85767,-2.03128,-1.27957,1.68147,1.77215,-1.38427
1.90614,-1.85767,-2.03128,-1.27957,1.68147,1.77215,-1.38427
1.90614,-1.85767,-2.03128,-1.27957,1.68147,1.77215,-1.38427
1.90614,-1.85767,-2.03128,-1.27957,1.68147,1.77215,-1.38427
1.90614,-1.85767,-2.03128,-1.27957,1.68147,1.77215,-1.38427
1.90614,-1.85767,-2.03128,-1.27957,1.68147,1.77215,-1.38427
1.90614,-1.85767,-2.03128,-1.27957,1.68147,1.77215,-1.38427
1.90614,-1.85767,-2.03128,-1.27957,1.68147,1.77215,-1.38427
1.90614,-1.85767,-2.03128,-1.27957,1.68147,1.77215,-1.38427
1.90614,-1.85767,-2.03128,-1.27957,1.68147,1.77215,-1.38427
1.90614,-1.85767,-2.03128,-1.27957,1.68147,1.77215,-1.38427
1.90614,-1.85767,-2.03128,-1.27957,1.68147,1.77215,-1.38427
1.90614,-1.85767,-2.03128,-1.27957,1.68147,1.77215,-1.38427
1.90614,-1.85767,-2.03128,-1.27957,1.68147,1.77215,-1.38427
1.90614,-1.85767,-2.03128,-1.27957,1.68147,1.77215,-1.38427
1.90614,-1.85767,-2.03128,-1.27957,1.68147,1.77215,-1.38427
1.90614,-1.85767,-2.03128,-1.27957,1.68147,1.77215,-1.38427
1.90614,-1.85767,-2.03128,-1.27957,1.68147,1.77215,-1.38427
1.90614,-1.85767,-2.03128,-1.27957,1.68147,1.77215,-1.38427
1.90614,-1.85767,-2.03128,-1.27957,1.68147,1.77215,-1.38427
1.90614,-1.85767,-2.03128,-1.27957,1.68147,1.77215,-1.38427
1.90614,-1.85767,-2.03128,-1.27957,1.68147,1.77215,-1.38427
1.90614,-1.85767,-2.03128,-1.27957,1.68147,1.77215,-1.38427
1.90614,-1.85767,-2.03128,-1.27957,1.68147,1.77215,-1.38427
1.90614,-1.85767,-2.03128,-1.27957,1.68147,1.77215,-1.38427
1.90614,-1.85767,-2.03128,-1.27957,1.68147,1.77215,-1.38427
1.90614,-1.85767,-2.03128,-1.27957,1.68147,1.77215,-1.38427
1.90614,-1.85767,-2.03128,-1.27957,1.68147,1.77215,-1.38427
1.90614,-1.85767,-2.03128,-1.27957,1.68147,1.77215,-1.38427
1.90614,-1.85767,-2.03128,-1.27957,1.68147,1.77215,-1.38427
1.90614,-1.85767,-2.03128,-1.27957,1.68147,1.77215,-1.38427
1.90614,-1.85767,-2.03128,-1.27957,1.68147,1.77215,-1.38427
1.90614,-1.85767,-2.03128,-1.27957,1.68147,1.77215,-1.38427
1.90614,-1.85767,-2.03128,-1.27957,1.68147,1.77215,-1.38427
1.90614,-1.85767,-2.03128,-1.27957,1.68147,1.77215,-1.38427
1.90614,-1.85767,-2.03128,-1.27957,1.68147,1.77215,-1.38427
1.90614,-1.85767,-2.03128,-1.27957,1.68147,1.77215,-1.38427
1.90614,-1.85767,-2.03128,-1.27957,1.68147,1.77215,-1.38427
1.90614,-1.85767,-2.03128,-1.27957,1.68147,1.77215,-1.38427
1.90614,-1.85767,-2.03128,-1.27957,1.68147,1.77215,-1.38427
1.90614,-1.85767,-2.03128,-1.27957,1.68147,1.77215,-1.38427
1.90614,-1.85767,-2.03128,-1.27957,1.68147,1.77215,-1.38427
1.90614,-1.85767,-2.03128,-1.27957,1.68147,1.77215,-1.38427
1.90614,-1.85767,-2.03128,-1.27957,1.68147,1.77215,-1.38427
1.90614,-1.85767,-2.03128,-1.27957,1.68147,1.77215,-1.38427
1.90614,-1.85767,-2.03128,-1.27957,1.68147,1.77215,-1.38427
1.90614,-1.85767,-2.03128,-1.27957,1.68147,1.77215,-1.38427
1.90614,-1.85767,-2.03128,-1.27957,1.68147,1.77215,-1.38427
1.90614,-1.85767,-2.03128,-1.27957,1.68147,1.77215,-1.38427
1.90614,-1.85767,-2.03128,-1.27957,1.68147,1.77215,-1.38427
1.90614,-1.85767,-2.03128,-1.27957,1.68147,1.77215,-1.38427
1.90614,-1.85767,-2.03128,-1.27957,1.68147,1.77215,-1.38427
1.90614,-1.85767,-2.03128,-1.27957,1.68147,1.77215,-1.38427
1.90614,-1.85767,-2.03128,-1.27957,1.68147,1.77215,-1.38427
1.90614,-1.85767,-2.03128,-1.27957,1.68147,1.77215,-1.38427
1.90614,-1.85767,-2.03128,-1.27957,1.68147,1.77215,-1.38427
1.90614,-1.85767,-2.03128,-1.27957,1.68147,1.77215,-1.38427
1.90614,-1.85767,-2.03128,-1.27957,1.68147,1.77215,-1.38427
1.90614,-1.85767,-2.03128,-1.27957,1.68147,1.77215,-1.38427
1.90614,-1.85767,-2.03128,-1.27957,1.68147,1.77215,-1.38427
1.90614,-1.85767,-2.03128,-1.27957,1.68147,1.77215,-1.38427
1.90614,-1.85767,-2.03128,-1.27957,1.68147,1.77215,-1.38427
1.90614,-1.85767,-2.03128,-1.27957,1.68147,1.77215,-1.38427
1.90614,-1.85767,-2.03128,-1.27957,1.68147,1.77215,-1.38427
1.90614,-1.85767,-2.03128,-1.27957,1.68147,1.77215,-1.38427
1.90614,-1.85767,-2.03128,-1.27957,1.68147,1.77215,-1.38427
1.90614,-1.85767,-2.03128,-1.27957,1.68147,1.77215,-1.38427
1.90614,-1.85767,-2.03128,-1.27957,1.68147,1.77215,-1.38427
1.90614,-1.85767,-2.03128,-1.27957,1.68147,1.77215,-1.38427
1.90614,-1.85767,-2.03128,-1.27957,1.68147,1.77215,-1.38427
1.90614,-1.85767,-2.03128,-1.27957,1.68147,1.77215,-1.38427
1.90614,-1.85767,-2.03128,-1.27957,1.68147,1.77215,-1.38427
1.78995,-1.81766,-2.13981,-1.25862,1.67894,1.69129,-1.3904
1.79535,-1.91344,-2.01451,-1.28892,1.69592,1.73932,-1.37267
1.79963,-1.90972,-2.01376,-1.28386,1.69294,1.74338,-1.37438
1.78836,-1.90837,-2.01345,-1.29342,1.7182,1.73225,-1.37633
1.78836,-1.90837,-2.01345,-1.29342,1.7182,1.73225,-1.37633
1.78836,-1.90837,-2.01345,-1.29342,1.7182,1.73225,-1.37633
1.78836,-1.90837,-2.01345,-1.29342,1.7182,1.73225,-1.37633
1.78836,-1.90837,-2.01345,-1.29342,1.7182,1.73225,-1.37633
1.78836,-1.90837,-2.01345,-1.29342,1.7182,1.73225,-1.37633
1.78836,-1.90837,-2.01345,-1.29342,1.7182,1.73225,-1.37633
1.78836,-1.90837,-2.01345,-1.29342,1.7182,1.73225,-1.37633
1.81232,-1.89072,-2.01547,-1.26826,1.68034,1.75692,-1.37417
1.78981,-1.88019,-2.01097,-1.27118,1.6983,1.73747,-1.36698
1.78981,-1.88019,-2.01097,-1.27118,1.6983,1.73747,-1.36698
1.78981,-1.88019,-2.01097,-1.27118,1.6983,1.73747,-1.36698
1.78981,-1.88019,-2.01097,-1.27118,1.6983,1.73747,-1.36698
1.81616,-1.86311,-2.01199,-1.26575,1.67986,1.75963,-1.36841
1.79159,-1.85976,-2.01121,-1.26345,1.68742,1.74145,-1.36393
1.90596,-1.83097,-2.01532,-1.26999,1.6867,1.76545,-1.38666
1.79181,-1.85517,-2.01119,-1.26218,1.68614,1.74215,-1.36326
1.90396,-1.87447,-2.0363,-1.26099,1.67355,1.76662,-1.38938
1.80338,-1.85321,-2.01443,-1.25961,1.67666,1.7595,-1.3649
1.80139,-1.84973,-2.01385,-1.25941,1.67715,1.75764,-1.36262
1.8011,-1.84808,-2.01381,-1.25916,1.67699,1.75772,-1.36216
1.80118,-1.84696,-2.01382,-1.25898,1.6769,1.75795,-1.36206
1.80473,-1.84776,-2.01494,-1.25836,1.67511,1.76178,-1.36456
1.80337,-1.84552,-2.01356,-1.25945,1.67729,1.75898,-1.3626
1.80512,-1.84449,-2.0134,-1.25967,1.67719,1.75978,-1.36269
1.80671,-1.8452,-2.0137,-1.25967,1.67673,1.76079,-1.36305
1.81209,-1.84909,-2.01432,-1.26016,1.67599,1.7628,-1.36398
1.83449,-1.86025,-2.01519,-1.26232,1.67486,1.76599,-1.3661
1.81577,-1.84988,-2.01402,-1.26058,1.67614,1.76369,-1.36357
1.81594,-1.852,-2.01502,-1.26045,1.67561,1.76397,-1.36395
1.8138,-1.85067,-2.01525,-1.25991,1.67543,1.76369,-1.36354
1.80568,-1.84473,-2.01453,-1.25858,1.67586,1.76072,-1.36058
1.81347,-1.85009,-2.01513,-1.25988,1.67538,1.76352,-1.36299
1.81321,-1.85095,-2.01541,-1.25983,1.67528,1.76352,-1.36299
1.80519,-1.84694,-2.01482,-1.25866,1.67578,1.75992,-1.35943
1.81414,-1.85161,-2.01567,-1.25982,1.67497,1.7639,-1.36298
1.81473,-1.85207,-2.01582,-1.25984,1.67483,1.76412,-1.36306
1.81518,-1.85351,-2.01618,-1.2599,1.67474,1.7643,-1.36331
1.8109,-1.84868,-2.01554,-1.2589,1.67448,1.76317,-1.36117
1.81845,-1.85693,-2.01672,-1.26036,1.67447,1.76501,-1.36393
1.81885,-1.85807,-2.01679,-1.2605,1.67441,1.765,-1.36385
1.8186,-1.85904,-2.01694,-1.26051,1.67434,1.76493,-1.36372
1.8187,-1.86045,-2.01716,-1.26058,1.67426,1.76492,-1.36369
1.81899,-1.86049,-2.01697,-1.26073,1.67425,1.76479,-1.36344
1.80578,-1.85585,-2.01558,-1.25969,1.67511,1.75971,-1.3583
1.81804,-1.85416,-2.01233,-1.26207,1.67674,1.76193,-1.35977
1.8201,-1.86559,-2.0171,-1.26148,1.6744,1.76447,-1.36323
1.81829,-1.86279,-2.01658,-1.26124,1.67448,1.76394,-1.36219
1.81605,-1.85887,-2.0158,-1.26096,1.6747,1.7632,-1.36109
1.81634,-1.8583,-2.016,-1.26066,1.67446,1.76357,-1.36121
1.81452,-1.85065,-2.01515,-1.25962,1.67425,1.76354,-1.36053
1.81246,-1.84916,-2.01478,-1.25957,1.67473,1.76253,-1.35953
1.81105,-1.84359,-2.01467,-1.25828,1.67425,1.76317,-1.35954
1.8043,-1.83111,-2.01187,-1.25827,1.68656,1.75698,-1.35724
1.80883,-1.83708,-2.01265,-1.25761,1.67607,1.76177,-1.35714
1.8097,-1.84294,-2.01308,-1.25872,1.67621,1.7612,-1.35747
1.80788,-1.83734,-2.01187,-1.25803,1.67765,1.76027,-1.35563
1.80543,-1.83458,-2.01142,-1.25782,1.67961,1.75909,-1.35459
1.80332,-1.83356,-2.01136,-1.2575,1.68119,1.75801,-1.35422
1.80193,-1.83285,-2.01136,-1.25723,1.68216,1.75731,-1.35405
1.80825,-1.8485,-2.01633,-1.25784,1.67334,1.76304,-1.35813
1.79769,-1.83088,-2.01226,-1.25634,1.68639,1.7539,-1.35591
1.79672,-1.8314,-2.01227,-1.2563,1.687,1.75283,-1.35636
1.82582,-1.88073,-2.02174,-1.26044,1.67265,1.76699,-1.36642
1.79216,-1.83282,-2.01232,-1.25611,1.69052,1.7478,-1.35966
1.79098,-1.83365,-2.01232,-1.256,1.69129,1.74644,-1.36069
1.78959,-1.83471,-2.0124,-1.25601,1.69234,1.74447,-1.36181
1.78987,-1.83479,-2.01226,-1.25593,1.69129,1.74557,-1.36125
1.78786,-1.83621,-2.01255,-1.25614,1.69387,1.74153,-1.36344
1.7877,-1.83663,-2.01236,-1.25603,1.69248,1.74246,-1.36295
1.78738,-1.83701,-2.01243,-1.25609,1.69318,1.74152,-1.36358
1.78742,-1.83756,-2.01227,-1.2562,1.69314,1.74162,-1.36373
1.78733,-1.83788,-2.01223,-1.25626,1.69347,1.74122,-1.36401
1.78639,-1.83875,-2.01242,-1.25654,1.69542,1.73831,-1.3658
1.78573,-1.83964,-2.0126,-1.25696,1.69854,1.73473,-1.36797
1.78626,-1.83954,-2.0123,-1.25686,1.69709,1.7368,-1.36694
1.78555,-1.84029,-2.01242,-1.25736,1.70028,1.73334,-1.36933
1.80127,-1.83819,-2.01182,-1.25861,1.68113,1.75442,-1.35578
1.80082,-1.83829,-2.01166,-1.2588,1.68169,1.75372,-1.35598
1.78749,-1.84433,-2.00978,-1.26095,1.70016,1.73975,-1.36586
1.79671,-1.83463,-2.01015,-1.25858,1.68825,1.75094,-1.35923
1.79775,-1.83564,-2.01002,-1.25908,1.68791,1.75156,-1.35901
1.79792,-1.83614,-2.00993,-1.25945,1.68852,1.75146,-1.35957
1.89203,-1.84591,-2.01114,-1.36268,1.77245,1.74644,-1.39463
1.79751,-1.83604,-2.00964,-1.26065,1.69097,1.75108,-1.36064
1.82062,-1.89174,-2.03685,-1.2587,1.6652,1.77118,-1.38436
1.80099,-1.83991,-2.01158,-1.25953,1.68276,1.75274,-1.35644
1.83188,-1.83456,-2.01591,-1.34359,1.76969,1.7322,-1.38211
1.80119,-1.84044,-2.01144,-1.25986,1.68352,1.75245,-1.35669
1.80119,-1.84044,-2.01144,-1.25986,1.68352,1.75245,-1.35669
1.80119,-1.84044,-2.01144,-1.25986,1.68352,1.75245,-1.35669
1.80119,-1.84044,-2.01144,-1.25986,1.68352,1.75245,-1.35669
1.80119,-1.84044,-2.01144,-1.25986,1.68352,1.75245,-1.35669
1.80119,-1.84044,-2.01144,-1.25986,1.68352,1.75245,-1.35669
1.80119,-1.84044,-2.01144,-1.25986,1.68352,1.75245,-1.35669
1.80535,-1.8405,-2.00923,-1.27906,1.70902,1.7543,-1.36092
1.81917,-1.87324,-2.01722,-1.26129,1.67498,1.76418,-1.36574
1.81416,-1.85351,-2.0155,-1.3217,1.7577,1.7458,-1.36147
1.81444,-1.84561,-2.00857,-1.27771,1.69925,1.75843,-1.36115
1.81785,-1.8612,-2.00901,-1.27508,1.69238,1.75927,-1.36042
1.84303,-1.85506,-2.00947,-1.26917,1.68145,1.76307,-1.36382
1.8143,-1.84494,-2.01162,-1.29985,1.73813,1.75504,-1.36386
1.83249,-1.85117,-2.00868,-1.27674,1.68996,1.76209,-1.36203
1.82293,-1.84922,-2.01481,-1.31094,1.75387,1.75143,-1.3638
1.84112,-1.85091,-2.00974,-1.27748,1.69024,1.76267,-1.36304
1.84764,-1.8514,-2.00978,-1.27565,1.68739,1.76331,-1.36307
1.87076,-1.89187,-2.02014,-1.26729,1.67474,1.76718,-1.36938
1.86626,-1.85926,-2.01128,-1.26844,1.67765,1.7656,-1.36442
1.86472,-1.86183,-2.01337,-1.26583,1.67619,1.76637,-1.36382
1.8722,-1.86276,-2.01462,-1.26611,1.67534,1.76697,-1.36588
1.86874,-1.8681,-2.0229,-1.26166,1.67138,1.76903,-1.37041
1.87302,-1.86089,-2.01407,-1.26644,1.67532,1.76679,-1.36567
1.87454,-1.86436,-2.01872,-1.26447,1.67352,1.76798,-1.36761
1.87471,-1.85845,-2.0141,-1.26659,1.67523,1.76675,-1.36605
1.86444,-1.86616,-2.02217,-1.262,1.67143,1.76877,-1.36708
1.86766,-1.86066,-2.01714,-1.26375,1.67293,1.76763,-1.36478
1.86563,-1.86161,-2.01892,-1.26295,1.67216,1.76795,-1.36529
1.86408,-1.86236,-2.01953,-1.26265,1.67188,1.76799,-1.3652
1.86029,-1.85885,-2.0185,-1.26229,1.67193,1.76763,-1.36408
1.8591,-1.85828,-2.01864,-1.26205,1.67182,1.76757,-1.36386
1.85633,-1.85825,-2.01878,-1.26168,1.67173,1.76748,-1.36335
1.86501,-1.86351,-2.02008,-1.26261,1.67179,1.76785,-1.3647
1.85963,-1.85581,-2.01867,-1.2618,1.6717,1.76739,-1.36371
1.86971,-1.86989,-2.02194,-1.26312,1.6717,1.76817,-1.36562
1.85227,-1.86083,-2.02368,-1.25998,1.67025,1.76873,-1.36641
1.86925,-1.85357,-2.0166,-1.26318,1.67297,1.76681,-1.36376
1.86554,-1.86491,-2.02181,-1.26213,1.67135,1.76791,-1.36479
1.86704,-1.86936,-2.02388,-1.26194,1.67097,1.76847,-1.36615
1.86854,-1.86823,-2.02293,-1.26231,1.67125,1.76815,-1.36547
1.86838,-1.87038,-2.02316,-1.26231,1.67125,1.76815,-1.36518
1.86793,-1.87154,-2.02326,-1.26225,1.67127,1.76813,-1.3649
1.86716,-1.87295,-2.02326,-1.26224,1.67133,1.76807,-1.36448
1.86742,-1.87516,-2.02366,-1.26234,1.67132,1.76813,-1.36455
1.86746,-1.8766,-2.02403,-1.26236,1.6713,1.7682,-1.36467
1.86722,-1.87699,-2.02335,-1.26264,1.67152,1.76809,-1.36439
1.86926,-1.88088,-2.02524,-1.26268,1.67124,1.76846,-1.3654
1.86683,-1.88175,-2.02458,-1.26275,1.67145,1.7683,-1.36474
1.87267,-1.88659,-2.0281,-1.2631,1.67105,1.76899,-1.3674
1.86955,-1.88558,-2.02571,-1.26329,1.67145,1.7685,-1.36558
1.87157,-1.88755,-2.02691,-1.2636,1.67145,1.76865,-1.36645
1.87061,-1.89033,-2.02727,-1.26385,1.6715,1.76874,-1.36626
1.87459,-1.89183,-2.02913,-1.26415,1.67142,1.76901,-1.36812
1.87607,-1.89413,-2.03039,-1.26444,1.67141,1.76921,-1.36904
1.8774,-1.89875,-2.03368,-1.26427,1.67111,1.76971,-1.37083
1.87873,-1.90009,-2.03437,-1.26453,1.67115,1.76974,-1.37172
1.88241,-1.90537,-2.03893,-1.26478,1.6709,1.77018,-1.3763
1.87859,-1.90152,-2.03559,-1.26415,1.67089,1.76984,-1.37266
1.87798,-1.90252,-2.03678,-1.26374,1.67065,1.76996,-1.37354
1.87666,-1.90257,-2.03719,-1.26325,1.67042,1.76998,-1.37362
1.87319,-1.89981,-2.03518,-1.26257,1.67027,1.76977,-1.37135
1.86908,-1.89512,-2.03197,-1.26178,1.67027,1.76946,-1.36846
1.86664,-1.8961,-2.03347,-1.26105,1.66995,1.76975,-1.3695
1.86407,-1.8912,-2.03046,-1.26069,1.67015,1.76937,-1.3672
1.86174,-1.88718,-2.02842,-1.26049,1.67026,1.76906,-1.36605
1.85835,-1.88245,-2.02589,-1.26036,1.67053,1.76858,-1.36458
1.85788,-1.8799,-2.0248,-1.26039,1.67072,1.76825,-1.36412
1.8562,-1.87731,-2.02282,-1.26033,1.67106,1.76779,-1.36297
1.85773,-1.87449,-2.02089,-1.26044,1.67164,1.76743,-1.36216
1.8596,-1.87028,-2.01903,-1.2605,1.67249,1.76706,-1.36124
1.86389,-1.86394,-2.01718,-1.2612,1.6739,1.7667,-1.36159
1.85842,-1.86135,-2.01653,-1.26096,1.67464,1.76647,-1.36073
1.86114,-1.86093,-2.0164,-1.26138,1.67495,1.76645,-1.36123
1.86221,-1.85936,-2.01616,-1.26164,1.67539,1.76637,-1.36147
1.8646,-1.86113,-2.0165,-1.26175,1.67502,1.76653,-1.36191
1.86527,-1.85868,-2.0159,-1.2623,1.67605,1.7663,-1.36214
1.86701,-1.85792,-2.01594,-1.26277,1.67649,1.76631,-1.36294
1.86665,-1.85563,-2.0156,-1.26327,1.67762,1.76625,-1.36355
1.86721,-1.85548,-2.0157,-1.26342,1.67777,1.76631,-1.36388
1.89516,-1.8589,-2.01969,-1.2784,1.69938,1.76615,-1.37698
1.86827,-1.85365,-2.0156,-1.26424,1.67906,1.76637,-1.36502
1.87006,-1.8541,-2.0158,-1.26464,1.67935,1.76647,-1.36573
1.87037,-1.85281,-2.01559,-1.26513,1.68042,1.76643,-1.36626
1.87216,-1.85166,-2.01565,-1.26657,1.68353,1.7664,-1.36657
1.87216,-1.85176,-2.0158,-1.26681,1.68402,1.76641,-1.36661
1.87309,-1.85199,-2.01597,-1.26697,1.68405,1.76649,-1.3669
1.87493,-1.85337,-2.01651,-1.26787,1.68507,1.76656,-1.36783
1.87589,-1.85382,-2.01679,-1.26844,1.68577,1.76662,-1.36831
1.87772,-1.85372,-2.01717,-1.26922,1.68708,1.76656,-1.36865
1.87964,-1.85348,-2.01772,-1.27021,1.68848,1.76651,-1.36908
1.87919,-1.85306,-2.01793,-1.27076,1.68966,1.76637,-1.36909
1.87733,-1.85282,-2.01782,-1.27034,1.68905,1.76639,-1.36876
1.87797,-1.85298,-2.01818,-1.27154,1.69092,1.76625,-1.3695
1.87738,-1.85292,-2.01838,-1.27214,1.69194,1.7661,-1.36987
1.87717,-1.85296,-2.01856,-1.27268,1.6927,1.766,-1.37025
1.87679,-1.85289,-2.01866,-1.27326,1.69359,1.76592,-1.37071
1.87681,-1.85261,-2.019,-1.27395,1.69432,1.76577,-1.37127
1.87584,-1.85231,-2.01904,-1.27405,1.69435,1.76571,-1.37143
1.87794,-1.85245,-2.01948,-1.27382,1.69349,1.76562,-1.37111
1.87569,-1.85214,-2.01945,-1.2752,1.6956,1.76553,-1.37239
1.87461,-1.85176,-2.01951,-1.27518,1.69544,1.76544,-1.37248
1.8738,-1.8515,-2.01963,-1.27561,1.69584,1.76534,-1.37287
1.87371,-1.85122,-2.01994,-1.27648,1.69696,1.76509,-1.37352
1.8765,-1.85177,-2.02046,-1.27815,1.69882,1.76489,-1.37475
1.87612,-1.85166,-2.02052,-1.27776,1.69791,1.76491,-1.37451
1.90803,-1.84593,-2.01856,-1.35645,1.76978,1.74402,-1.38012
1.8603,-1.86632,-2.01649,-1.26434,1.67728,1.76796,-1.36328
1.8603,-1.86632,-2.01649,-1.26434,1.67728,1.76796,-1.36328
1.87246,-1.85337,-2.01863,-1.27088,1.6856,1.76677,-1.37051
1.86731,-1.85019,-2.01948,-1.27303,1.69016,1.76534,-1.37139
1.86506,-1.84888,-2.01994,-1.27454,1.6931,1.76473,-1.37251
1.86547,-1.84853,-2.02051,-1.27569,1.69501,1.76429,-1.37338
1.88877,-1.86084,-2.01946,-1.27261,1.68247,1.7693,-1.37356
1.86398,-1.84763,-2.02073,-1.27548,1.69514,1.76395,-1.37327
1.86258,-1.84701,-2.02075,-1.27516,1.69476,1.76383,-1.37296
1.86044,-1.84663,-2.02085,-1.27619,1.69639,1.76338,-1.37357
1.86034,-1.84614,-2.02084,-1.2751,1.69461,1.76358,-1.3729
1.86596,-1.8506,-2.0189,-1.27111,1.68563,1.76618,-1.37038
1.834,-1.83921,-2.02086,-1.26884,1.69451,1.76041,-1.36858
1.86291,-1.84757,-2.02056,-1.2745,1.69119,1.76451,-1.37251
1.87373,-1.85101,-2.02113,-1.27522,1.6898,1.76534,-1.37326
1.8639,-1.8557,-2.01698,-1.26839,1.67962,1.76824,-1.36912
1.8639,-1.8557,-2.01698,-1.26839,1.67962,1.76824,-1.36912
1.8639,-1.8557,-2.01698,-1.26839,1.67962,1.76824,-1.36912
1.87739,-1.85404,-2.02066,-1.27546,1.68704,1.76685,-1.37393
1.87916,-1.85466,-2.02089,-1.27595,1.68682,1.76714,-1.37444
1.87592,-1.85313,-2.02131,-1.27828,1.69025,1.76621,-1.37551
1.87708,-1.85371,-2.02149,-1.2793,1.69065,1.76628,-1.37625
1.87723,-1.85395,-2.02143,-1.28003,1.69115,1.76628,-1.37679
1.87848,-1.85489,-2.02138,-1.28064,1.69095,1.76655,-1.3773
1.8799,-1.85568,-2.02144,-1.28069,1.69008,1.76695,-1.37756
1.88093,-1.85646,-2.02156,-1.28202,1.69117,1.76681,-1.37847
1.88163,-1.85687,-2.02159,-1.2819,1.6903,1.76716,-1.37853
1.88223,-1.85753,-2.02153,-1.2825,1.69051,1.76728,-1.37904
1.88247,-1.8578,-2.0215,-1.2823,1.68975,1.76752,-1.37894
1.88838,-1.8637,-2.02559,-1.29943,1.71957,1.75999,-1.38464
1.89143,-1.87939,-2.02301,-1.27484,1.67833,1.77042,-1.37697
1.88175,-1.85821,-2.02125,-1.28271,1.69027,1.76745,-1.37907
1.88425,-1.85984,-2.02132,-1.2816,1.68713,1.76862,-1.37896
1.88749,-1.86216,-2.02144,-1.28115,1.68512,1.76962,-1.37912
1.89453,-1.88679,-2.02471,-1.27561,1.67804,1.77071,-1.37728
1.886,-1.86229,-2.02082,-1.28261,1.68664,1.76946,-1.38015
1.88949,-1.86704,-2.02171,-1.28254,1.68511,1.77021,-1.3804
1.89271,-1.87001,-2.02114,-1.29016,1.69267,1.76907,-1.38428
1.88823,-1.87746,-2.02219,-1.28234,1.68432,1.77058,-1.37954
1.89026,-1.87389,-2.02096,-1.28826,1.69061,1.76962,-1.38301
1.89012,-1.87853,-2.02217,-1.2851,1.68668,1.77033,-1.3819
1.89131,-1.88163,-2.02215,-1.28728,1.68873,1.77015,-1.38302
1.89148,-1.889,-2.02306,-1.28441,1.6842,1.77095,-1.38017
1.88938,-1.87537,-2.02101,-1.27809,1.68162,1.77075,-1.37738
1.8868,-1.86374,-2.02057,-1.2794,1.68392,1.76988,-1.37809
1.88515,-1.86322,-2.02019,-1.27978,1.68416,1.76991,-1.37808
1.88619,-1.86444,-2.02025,-1.27931,1.68333,1.77022,-1.37797
1.88709,-1.86437,-2.02051,-1.28056,1.68416,1.77013,-1.37889
1.88786,-1.86577,-2.02068,-1.28062,1.68389,1.77031,-1.37906
1.89031,-1.87346,-2.0215,-1.27982,1.68265,1.77085,-1.37882
1.8936,-1.88447,-2.02249,-1.27946,1.68124,1.77135,-1.37847
1.88863,-1.86766,-2.02106,-1.28244,1.68478,1.77037,-1.38013
1.89257,-1.88403,-2.02239,-1.28057,1.68205,1.77128,-1.3787
1.8902,-1.87413,-2.02172,-1.2819,1.68384,1.77079,-1.38
1.89851,-1.89018,-2.02482,-1.27705,1.67904,1.77118,-1.37821
1.89006,-1.86992,-2.02293,-1.32544,1.74192,1.75171,-1.38773
1.89299,-1.87063,-2.02226,-1.29212,1.69402,1.7686,-1.38312
1.89428,-1.87205,-2.02237,-1.29362,1.69503,1.76856,-1.38395
1.89211,-1.87535,-2.02141,-1.28866,1.68853,1.77026,-1.38264
1.89037,-1.87479,-2.02163,-1.28496,1.68569,1.77056,-1.38149
1.89503,-1.88012,-2.02215,-1.29153,1.68982,1.77037,-1.38403
1.89452,-1.87682,-2.02145,-1.2926,1.69085,1.77003,-1.38406
1.89603,-1.87629,-2.02169,-1.29503,1.69291,1.76963,-1.38513
1.89672,-1.87624,-2.02205,-1.29521,1.69277,1.76968,-1.3853
1.89677,-1.87486,-2.02251,-1.29284,1.69037,1.77011,-1.38458
1.89723,-1.87384,-2.0231,-1.29123,1.68905,1.77021,-1.38448
1.89792,-1.87271,-2.0237,-1.28897,1.68735,1.77043,-1.38444
1.89998,-1.87291,-2.02321,-1.28395,1.68407,1.77134,-1.38427
1.89974,-1.87114,-2.02398,-1.28526,1.68544,1.77089,-1.38488
1.90092,-1.87174,-2.02346,-1.28255,1.68371,1.77149,-1.38406
1.90154,-1.87161,-2.02342,-1.28154,1.68317,1.77169,-1.38397
1.90187,-1.87203,-2.02317,-1.2802,1.68216,1.77199,-1.38356
1.90251,-1.87209,-2.02337,-1.27913,1.68164,1.77216,-1.38333
1.90276,-1.87315,-2.02391,-1.27852,1.68124,1.77219,-1.38329
1.90434,-1.87915,-2.02599,-1.27721,1.68027,1.772,-1.38334
1.90469,-1.88174,-2.02689,-1.27747,1.6802,1.77218,-1.38363
1.90551,-1.88337,-2.02767,-1.27718,1.67989,1.77215,-1.38389
1.90698,-1.88549,-2.02834,-1.27752,1.68016,1.77244,-1.38468
1.90948,-1.89296,-2.031,-1.27583,1.67879,1.77197,-1.38425
1.90531,-1.88494,-2.02922,-1.27883,1.6805,1.77289,-1.38527
1.90823,-1.892,-2.03122,-1.27638,1.67887,1.77218,-1.38428
1.90668,-1.88992,-2.03118,-1.278,1.6795,1.77271,-1.38493
1.90752,-1.89216,-2.03203,-1.27794,1.67934,1.77271,-1.38503
1.90732,-1.89279,-2.03273,-1.27863,1.67956,1.77309,-1.3855
1.90767,-1.89359,-2.03308,-1.27875,1.67961,1.77315,-1.38571
1.90811,-1.89483,-2.03365,-1.27908,1.67974,1.77331,-1.38607
1.90857,-1.89649,-2.03444,-1.27958,1.6799,1.77347,-1.38644
1.9086,-1.89693,-2.03469,-1.27963,1.67987,1.77347,-1.38642
1.90913,-1.89949,-2.0359,-1.27979,1.67972,1.77341,-1.38638
1.90955,-1.90097,-2.0366,-1.27992,1.6797,1.7734,-1.38645
1.91024,-1.90271,-2.03736,-1.28034,1.67986,1.77347,-1.38676
1.90975,-1.90043,-2.03619,-1.27996,1.68006,1.77355,-1.3868
1.91065,-1.90158,-2.03668,-1.27871,1.67952,1.77318,-1.38654
1.91205,-1.88841,-2.03106,-1.28166,1.68396,1.77464,-1.38925
1.91018,-1.88294,-2.02975,-1.27993,1.68326,1.77424,-1.38711
1.9084,-1.89751,-2.03507,-1.27323,1.67604,1.77095,-1.38164
1.91454,-1.89433,-2.0307,-1.27826,1.68208,1.77409,-1.38901
1.90878,-1.8894,-2.03205,-1.27658,1.68019,1.77331,-1.38612
1.907,-1.8877,-2.0318,-1.27523,1.67929,1.77268,-1.38479
1.90709,-1.88657,-2.03295,-1.27755,1.68078,1.77353,-1.38611
1.90714,-1.88234,-2.03198,-1.27928,1.68233,1.77389,-1.38584
1.90682,-1.88289,-2.03223,-1.27952,1.68243,1.7739,-1.38565
1.90727,-1.88253,-2.03215,-1.27967,1.68261,1.77398,-1.3858
1.90827,-1.88149,-2.03167,-1.28016,1.68326,1.77419,-1.38602
1.90865,-1.88338,-2.03266,-1.27993,1.68282,1.77427,-1.38674
1.90928,-1.88359,-2.03263,-1.28032,1.68318,1.77442,-1.38702
1.90919,-1.88344,-2.03264,-1.28035,1.68322,1.77442,-1.38691
1.91017,-1.88271,-2.03252,-1.28163,1.68408,1.77453,-1.38787
1.91085,-1.88226,-2.03262,-1.28239,1.68447,1.77459,-1.38848
1.91105,-1.88233,-2.0328,-1.28288,1.68467,1.77455,-1.38866
1.91243,-1.88205,-2.03291,-1.2845,1.68561,1.77458,-1.38996
1.91225,-1.88105,-2.03268,-1.28387,1.6852,1.77464,-1.38966
1.91349,-1.88259,-2.03336,-1.28533,1.68598,1.77475,-1.39076
1.91407,-1.88267,-2.03347,-1.28581,1.68634,1.7748,-1.39121
1.91446,-1.88274,-2.03359,-1.2861,1.68654,1.77484,-1.39151
1.91487,-1.88273,-2.0337,-1.28639,1.68678,1.77488,-1.39183
1.91536,-1.88292,-2.03392,-1.28674,1.68701,1.77496,-1.39224
1.9158,-1.8831,-2.03408,-1.28706,1.68719,1.77504,-1.39258
1.91678,-1.88344,-2.03428,-1.2884,1.68881,1.77489,-1.39361
1.91679,-1.88485,-2.03499,-1.28798,1.68796,1.77518,-1.39351
1.91753,-1.88323,-2.03445,-1.2894,1.68988,1.77484,-1.39447
1.91787,-1.88308,-2.03453,-1.28996,1.69048,1.77481,-1.39493
1.91758,-1.88354,-2.0349,-1.28859,1.68813,1.77532,-1.39411
1.91966,-1.88224,-2.03431,-1.29369,1.69773,1.77339,-1.3981
1.91848,-1.88275,-2.03504,-1.29053,1.69015,1.77511,-1.39563
1.91901,-1.88138,-2.03467,-1.29193,1.69209,1.77482,-1.39652
1.91944,-1.8813,-2.03474,-1.2931,1.69385,1.7745,-1.39728
1.91981,-1.8818,-2.03472,-1.29386,1.69506,1.77417,-1.39795
1.9204,-1.88233,-2.03504,-1.29494,1.69792,1.77328,-1.39901
1.92058,-1.88232,-2.03542,-1.29476,1.699,1.77285,-1.39927
1.92053,-1.88257,-2.0348,-1.29539,1.6971,1.77343,-1.39922
1.92082,-1.88294,-2.03518,-1.29499,1.69875,1.77274,-1.39961
1.92074,-1.88329,-2.03468,-1.29511,1.69756,1.77309,-1.3995
1.92111,-1.88372,-2.03489,-1.29557,1.69836,1.77267,-1.40002
1.92162,-1.88487,-2.03516,-1.29626,1.69952,1.77205,-1.40079
1.92166,-1.88676,-2.03548,-1.29666,1.69894,1.77232,-1.40074
1.92233,-1.88959,-2.03597,-1.29875,1.69961,1.77181,-1.40167
1.92119,-1.89034,-2.03608,-1.29672,1.69745,1.7732,-1.40005
1.92263,-1.88775,-2.03527,-1.30074,1.70028,1.77082,-1.40223
1.92273,-1.89192,-2.03616,-1.30063,1.69949,1.77158,-1.40222
1.92298,-1.89336,-2.03629,-1.30163,1.69947,1.77147,-1.40253
1.92327,-1.89455,-2.03636,-1.30279,1.69955,1.77128,-1.40291
1.92357,-1.89602,-2.03649,-1.30404,1.69967,1.77107,-1.40329
1.92374,-1.89765,-2.03681,-1.30493,1.69979,1.77102,-1.40353
1.92396,-1.89919,-2.03725,-1.30616,1.70003,1.77086,-1.40382
1.92411,-1.90048,-2.03785,-1.30707,1.70031,1.77076,-1.40408
1.92425,-1.90206,-2.03865,-1.30809,1.70068,1.77072,-1.40432
1.92451,-1.89982,-2.03859,-1.31591,1.70315,1.76959,-1.40504
1.92453,-1.904,-2.04032,-1.31214,1.70221,1.77031,-1.4048
1.92419,-1.90607,-2.04023,-1.30867,1.70156,1.77105,-1.40423
1.92365,-1.90161,-2.0372,-1.30851,1.70235,1.77091,-1.40359
1.92017,-1.90172,-2.04028,-1.29781,1.69237,1.77546,-1.39823
1.92127,-1.89702,-2.03726,-1.30194,1.69656,1.77401,-1.40103
1.92101,-1.89914,-2.03835,-1.29991,1.69307,1.7748,-1.40023
1.92053,-1.89863,-2.03873,-1.29793,1.69081,1.77527,-1.39935
1.92026,-1.89767,-2.03914,-1.29679,1.69025,1.77557,-1.39861
1.92066,-1.8937,-2.03763,-1.29872,1.69303,1.77488,-1.3996
1.91947,-1.89512,-2.03891,-1.29402,1.68825,1.77604,-1.3972
1.92026,-1.89569,-2.03914,-1.29612,1.69069,1.77556,-1.39814
1.91844,-1.89255,-2.03855,-1.29089,1.68614,1.77631,-1.39534
1.91819,-1.8915,-2.03829,-1.29032,1.68582,1.77625,-1.39493
1.91805,-1.89069,-2.03819,-1.28982,1.68554,1.77623,-1.39462
1.91802,-1.89035,-2.0383,-1.28939,1.68531,1.77624,-1.39441
1.91807,-1.89039,-2.03855,-1.28916,1.68522,1.77626,-1.39433
1.91815,-1.8908,-2.03885,-1.28881,1.68491,1.77632,-1.3942
1.91838,-1.89135,-2.03922,-1.28888,1.68493,1.77638,-1.39434
1.9185,-1.89191,-2.03952,-1.28863,1.68466,1.77645,-1.3943
