Afshin1997/kuka_rl_ros2/src/catch_and_throw/output_files/tm/idealpd/tm_received_joint_pos_np.csv
joint_0,joint_1,joint_2,joint_3,joint_4,joint_5,joint_6
8.363680243492126465e-01,-7.811971008777618408e-02,1.350864171981811523e+00,1.307957053184509277e+00,1.542098283767700195e+00,-9.478785395622253418e-01,1.592077851295471191e+00
8.363679647445678711e-01,-7.811965048313140869e-02,1.350864171981811523e+00,1.307956933975219727e+00,1.542098402976989746e+00,-9.478783011436462402e-01,1.592077612876892090e+00
8.363680243492126465e-01,-7.811965048313140869e-02,1.350864171981811523e+00,1.307957053184509277e+00,1.542098402976989746e+00,-9.478783011436462402e-01,1.592077612876892090e+00
8.363680243492126465e-01,-7.811965048313140869e-02,1.350864171981811523e+00,1.307957053184509277e+00,1.542098402976989746e+00,-9.478783011436462402e-01,1.592077612876892090e+00
8.363679647445678711e-01,-7.811959087848663330e-02,1.350864052772521973e+00,1.307957053184509277e+00,1.542098402976989746e+00,-9.478783607482910156e-01,1.592077851295471191e+00
8.363640308380126953e-01,-7.812030613422393799e-02,1.350851416587829590e+00,1.307941079139709473e+00,1.542095065116882324e+00,-9.478648304939270020e-01,1.592066407203674316e+00
8.363352417945861816e-01,-7.812085002660751343e-02,1.350763440132141113e+00,1.307808041572570801e+00,1.542064070701599121e+00,-9.477933645248413086e-01,1.591954231262207031e+00
8.363016247749328613e-01,-7.809723913669586182e-02,1.350664377212524414e+00,1.307582855224609375e+00,1.542025923728942871e+00,-9.477499127388000488e-01,1.591735124588012695e+00
8.363040685653686523e-01,-7.802210003137588501e-02,1.350709795951843262e+00,1.307440876960754395e+00,1.542052984237670898e+00,-9.478921890258789062e-01,1.591578006744384766e+00
8.363382816314697266e-01,-7.787930220365524292e-02,1.351023554801940918e+00,1.307479381561279297e+00,1.542220711708068848e+00,-9.483881592750549316e-01,1.591768264770507812e+00
8.363536596298217773e-01,-7.771638035774230957e-02,1.351697921752929688e+00,1.307780027389526367e+00,1.542708635330200195e+00,-9.495599269866943359e-01,1.592624783515930176e+00
8.362991213798522949e-01,-7.759360224008560181e-02,1.352791070938110352e+00,1.308406591415405273e+00,1.543619036674499512e+00,-9.515651464462280273e-01,1.594420433044433594e+00
8.361545205116271973e-01,-7.756358385086059570e-02,1.354329586029052734e+00,1.309477925300598145e+00,1.544949173927307129e+00,-9.543735980987548828e-01,1.597206711769104004e+00
8.359192013740539551e-01,-7.768768072128295898e-02,1.356281995773315430e+00,1.311110496520996094e+00,1.546653747558593750e+00,-9.578036069869995117e-01,1.600851178169250488e+00
8.356429338455200195e-01,-7.800747454166412354e-02,1.358640074729919434e+00,1.313249945640563965e+00,1.548595905303955078e+00,-9.616004228591918945e-01,1.605043888092041016e+00
8.353758454322814941e-01,-7.851752638816833496e-02,1.361324310302734375e+00,1.315794706344604492e+00,1.550631642341613770e+00,-9.655109047889709473e-01,1.609435915946960449e+00
8.351342678070068359e-01,-7.922615110874176025e-02,1.364189147949218750e+00,1.318602919578552246e+00,1.552699804306030273e+00,-9.694269895553588867e-01,1.613863229751586914e+00
8.349410295486450195e-01,-8.011298626661300659e-02,1.367138266563415527e+00,1.321567416191101074e+00,1.554806590080261230e+00,-9.733734130859375000e-01,1.618297219276428223e+00
8.348550796508789062e-01,-8.111516386270523071e-02,1.370149612426757812e+00,1.324657082557678223e+00,1.556939721107482910e+00,-9.774250388145446777e-01,1.622759222984313965e+00
8.349189162254333496e-01,-8.217007666826248169e-02,1.373274207115173340e+00,1.327848076820373535e+00,1.559108853340148926e+00,-9.815503358840942383e-01,1.627268671989440918e+00
8.351231217384338379e-01,-8.325165510177612305e-02,1.376476883888244629e+00,1.331074595451354980e+00,1.561306595802307129e+00,-9.858137369155883789e-01,1.631864428520202637e+00
8.354446291923522949e-01,-8.436384797096252441e-02,1.379699826240539551e+00,1.334390163421630859e+00,1.563523769378662109e+00,-9.902214407920837402e-01,1.636551380157470703e+00
8.359018564224243164e-01,-8.554639667272567749e-02,1.382934451103210449e+00,1.337686061859130859e+00,1.565797328948974609e+00,-9.946737289428710938e-01,1.641314268112182617e+00
8.365159630775451660e-01,-8.682522922754287720e-02,1.386219024658203125e+00,1.340829610824584961e+00,1.568102836608886719e+00,-9.992163181304931641e-01,1.646136879920959473e+00
8.373242616653442383e-01,-8.822330832481384277e-02,1.389611601829528809e+00,1.343910813331604004e+00,1.570449471473693848e+00,-1.003818631172180176e+00,1.651034116744995117e+00
8.383252024650573730e-01,-8.976723998785018921e-02,1.393093347549438477e+00,1.347025156021118164e+00,1.572832345962524414e+00,-1.008518218994140625e+00,1.656005382537841797e+00
8.394563794136047363e-01,-9.148020297288894653e-02,1.396565556526184082e+00,1.350237369537353516e+00,1.575252771377563477e+00,-1.013280749320983887e+00,1.661037206649780273e+00
8.406598567962646484e-01,-9.335573017597198486e-02,1.399978399276733398e+00,1.353574514389038086e+00,1.577689528465270996e+00,-1.018087387084960938e+00,1.666116356849670410e+00
8.419482111930847168e-01,-9.540276229381561279e-02,1.403373122215270996e+00,1.356852889060974121e+00,1.580165743827819824e+00,-1.022928237915039062e+00,1.671266555786132812e+00
8.433417677879333496e-01,-9.758999943733215332e-02,1.406828761100769043e+00,1.359863519668579102e+00,1.582666754722595215e+00,-1.027833580970764160e+00,1.676487922668457031e+00
8.448540568351745605e-01,-9.986022859811782837e-02,1.410382509231567383e+00,1.362488508224487305e+00,1.585214734077453613e+00,-1.032846093177795410e+00,1.681763529777526855e+00
8.464899659156799316e-01,-1.021221950650215149e-01,1.414036035537719727e+00,1.364735126495361328e+00,1.587754130363464355e+00,-1.037937521934509277e+00,1.687087655067443848e+00
8.482284545898437500e-01,-1.043142899870872498e-01,1.417744517326354980e+00,1.366602897644042969e+00,1.590281963348388672e+00,-1.043057918548583984e+00,1.692474842071533203e+00
8.500595092773437500e-01,-1.064739078283309937e-01,1.421484827995300293e+00,1.367902994155883789e+00,1.592796087265014648e+00,-1.048268198966979980e+00,1.697928667068481445e+00
8.519871830940246582e-01,-1.086572483181953430e-01,1.425270080566406250e+00,1.368515968322753906e+00,1.595278620719909668e+00,-1.053538799285888672e+00,1.703430414199829102e+00
8.540472984313964844e-01,-1.109072938561439514e-01,1.429129242897033691e+00,1.368477225303649902e+00,1.597766160964965820e+00,-1.058849573135375977e+00,1.708983778953552246e+00
8.562724590301513672e-01,-1.132636889815330505e-01,1.433073282241821289e+00,1.367909908294677734e+00,1.600209116935729980e+00,-1.064193367958068848e+00,1.714608550071716309e+00
8.586497902870178223e-01,-1.157563477754592896e-01,1.437060952186584473e+00,1.366827130317687988e+00,1.602643609046936035e+00,-1.069575309753417969e+00,1.720285892486572266e+00
8.611068725585937500e-01,-1.183758601546287537e-01,1.441000103950500488e+00,1.365332841873168945e+00,1.605071783065795898e+00,-1.074965000152587891e+00,1.726012468338012695e+00
8.635824322700500488e-01,-1.210536137223243713e-01,1.444813728332519531e+00,1.363662242889404297e+00,1.607475876808166504e+00,-1.080251574516296387e+00,1.731795668601989746e+00
8.661182522773742676e-01,-1.237377822399139404e-01,1.448604941368103027e+00,1.361860394477844238e+00,1.609886527061462402e+00,-1.085537433624267578e+00,1.737633824348449707e+00
8.688195347785949707e-01,-1.263837814331054688e-01,1.452597260475158691e+00,1.360013842582702637e+00,1.612301468849182129e+00,-1.090860128402709961e+00,1.743517875671386719e+00
8.716990947723388672e-01,-1.289610415697097778e-01,1.456815123558044434e+00,1.358232021331787109e+00,1.614725947380065918e+00,-1.096207380294799805e+00,1.749446988105773926e+00
8.746472001075744629e-01,-1.314909756183624268e-01,1.461113333702087402e+00,1.356580376625061035e+00,1.617184042930603027e+00,-1.101531744003295898e+00,1.755439400672912598e+00
8.775246143341064453e-01,-1.340175569057464600e-01,1.465312004089355469e+00,1.355066418647766113e+00,1.619664907455444336e+00,-1.106888175010681152e+00,1.761468172073364258e+00
8.802949786186218262e-01,-1.366038620471954346e-01,1.469432950019836426e+00,1.353566884994506836e+00,1.622187733650207520e+00,-1.112318873405456543e+00,1.767540574073791504e+00
8.830078840255737305e-01,-1.392390131950378418e-01,1.473614811897277832e+00,1.351976394653320312e+00,1.624748945236206055e+00,-1.117808699607849121e+00,1.773665070533752441e+00
8.857028484344482422e-01,-1.418597847223281860e-01,1.477941393852233887e+00,1.350167274475097656e+00,1.627297878265380859e+00,-1.123412609100341797e+00,1.779830694198608398e+00
8.883635401725769043e-01,-1.444815099239349365e-01,1.482401847839355469e+00,1.348095059394836426e+00,1.629888176918029785e+00,-1.129174828529357910e+00,1.786038041114807129e+00
8.909517526626586914e-01,-1.471311748027801514e-01,1.486921429634094238e+00,1.345818400382995605e+00,1.632470846176147461e+00,-1.135066151618957520e+00,1.792298913002014160e+00
8.934831023216247559e-01,-1.497711092233657837e-01,1.491516828536987305e+00,1.343275070190429688e+00,1.635071754455566406e+00,-1.141025424003601074e+00,1.798602819442749023e+00
8.959870934486389160e-01,-1.524071097373962402e-01,1.496175408363342285e+00,1.340431213378906250e+00,1.637700438499450684e+00,-1.147140979766845703e+00,1.804942488670349121e+00
8.984447121620178223e-01,-1.550549566745758057e-01,1.500840663909912109e+00,1.337371587753295898e+00,1.640329718589782715e+00,-1.153319716453552246e+00,1.811326742172241211e+00
9.008243083953857422e-01,-1.577505022287368774e-01,1.505439043045043945e+00,1.334189414978027344e+00,1.643006324768066406e+00,-1.159511685371398926e+00,1.817757606506347656e+00
9.031703472137451172e-01,-1.604818999767303467e-01,1.510023832321166992e+00,1.330850839614868164e+00,1.645684957504272461e+00,-1.165766835212707520e+00,1.824220657348632812e+00
9.055910706520080566e-01,-1.632054895162582397e-01,1.514725327491760254e+00,1.327381610870361328e+00,1.648399114608764648e+00,-1.172089815139770508e+00,1.830736398696899414e+00
9.081205129623413086e-01,-1.659454405307769775e-01,1.519568800926208496e+00,1.323948025703430176e+00,1.651118278503417969e+00,-1.178462386131286621e+00,1.837294578552246094e+00
9.106851220130920410e-01,-1.687070876359939575e-01,1.524397492408752441e+00,1.320673823356628418e+00,1.653837323188781738e+00,-1.184838175773620605e+00,1.843888163566589355e+00
9.132354259490966797e-01,-1.714974939823150635e-01,1.529134988784790039e+00,1.317468523979187012e+00,1.656585454940795898e+00,-1.191294908523559570e+00,1.850527167320251465e+00
9.158222675323486328e-01,-1.743449419736862183e-01,1.533887267112731934e+00,1.314234852790832520e+00,1.659322619438171387e+00,-1.197770714759826660e+00,1.857197403907775879e+00
9.184821248054504395e-01,-1.772453039884567261e-01,1.538722991943359375e+00,1.310847878456115723e+00,1.662106990814208984e+00,-1.204258561134338379e+00,1.863890051841735840e+00
9.211415648460388184e-01,-1.801691055297851562e-01,1.543554544448852539e+00,1.307335138320922852e+00,1.664889693260192871e+00,-1.210873603820800781e+00,1.870632290840148926e+00
9.237666130065917969e-01,-1.830771267414093018e-01,1.548333883285522461e+00,1.303778409957885742e+00,1.667701721191406250e+00,-1.217431187629699707e+00,1.877414703369140625e+00
9.264400601387023926e-01,-1.859544813632965088e-01,1.553192853927612305e+00,1.300170660018920898e+00,1.670527100563049316e+00,-1.224063396453857422e+00,1.884235978126525879e+00
9.292159676551818848e-01,-1.887363791465759277e-01,1.558189988136291504e+00,1.296497583389282227e+00,1.673358559608459473e+00,-1.230769872665405273e+00,1.891097307205200195e+00
9.320501685142517090e-01,-1.914688497781753540e-01,1.563234686851501465e+00,1.292779088020324707e+00,1.676199078559875488e+00,-1.237465500831604004e+00,1.897989988327026367e+00
9.348911046981811523e-01,-1.942329406738281250e-01,1.568234324455261230e+00,1.288977861404418945e+00,1.679073572158813477e+00,-1.244183421134948730e+00,1.904911279678344727e+00
9.377524256706237793e-01,-1.970484554767608643e-01,1.573207020759582520e+00,1.285115122795104980e+00,1.681957125663757324e+00,-1.250958204269409180e+00,1.911876082420349121e+00
9.406551122665405273e-01,-1.998549252748489380e-01,1.578191995620727539e+00,1.281279921531677246e+00,1.684869408607482910e+00,-1.257707476615905762e+00,1.918870687484741211e+00
9.435778856277465820e-01,-2.026112377643585205e-01,1.583141803741455078e+00,1.277477025985717773e+00,1.687771439552307129e+00,-1.264454007148742676e+00,1.925890207290649414e+00
9.465239048004150391e-01,-2.053422629833221436e-01,1.588085174560546875e+00,1.273725152015686035e+00,1.690686702728271484e+00,-1.271259307861328125e+00,1.932950139045715332e+00
9.495605826377868652e-01,-2.080222964286804199e-01,1.593142747879028320e+00,1.269875168800354004e+00,1.693641543388366699e+00,-1.278034448623657227e+00,1.940035104751586914e+00
9.527014493942260742e-01,-2.106464207172393799e-01,1.598326802253723145e+00,1.265913248062133789e+00,1.696580767631530762e+00,-1.284866094589233398e+00,1.947153091430664062e+00
9.558640122413635254e-01,-2.132707238197326660e-01,1.603485703468322754e+00,1.262070894241333008e+00,1.699540019035339355e+00,-1.291730880737304688e+00,1.954311966896057129e+00
9.589835405349731445e-01,-2.159983962774276733e-01,1.608529686927795410e+00,1.258275270462036133e+00,1.702509999275207520e+00,-1.298565626144409180e+00,1.961493253707885742e+00
9.620607495307922363e-01,-2.187898755073547363e-01,1.613506436347961426e+00,1.254428267478942871e+00,1.705496668815612793e+00,-1.305451393127441406e+00,1.968712925910949707e+00
9.651473164558410645e-01,-2.215725034475326538e-01,1.618553996086120605e+00,1.250445842742919922e+00,1.708482503890991211e+00,-1.312392354011535645e+00,1.975957751274108887e+00
9.682773947715759277e-01,-2.243468463420867920e-01,1.623744964599609375e+00,1.246349334716796875e+00,1.711499094963073730e+00,-1.319328427314758301e+00,1.983228683471679688e+00
9.714247584342956543e-01,-2.270500063896179199e-01,1.629034519195556641e+00,1.242282748222351074e+00,1.714514493942260742e+00,-1.326372385025024414e+00,1.990539908409118652e+00
9.745784401893615723e-01,-2.296846807003021240e-01,1.634394049644470215e+00,1.238162517547607422e+00,1.717543005943298340e+00,-1.333461642265319824e+00,1.997879385948181152e+00
9.777050018310546875e-01,-2.323188185691833496e-01,1.639756321907043457e+00,1.233957409858703613e+00,1.720577239990234375e+00,-1.340533375740051270e+00,2.005244255065917969e+00
9.807076454162597656e-01,-2.350072413682937622e-01,1.645012021064758301e+00,1.229607224464416504e+00,1.723647713661193848e+00,-1.347704291343688965e+00,2.012646913528442383e+00
9.836265444755554199e-01,-2.377920746803283691e-01,1.650242209434509277e+00,1.225109696388244629e+00,1.726753950119018555e+00,-1.354887962341308594e+00,2.020062446594238281e+00
9.865834712982177734e-01,-2.405655235052108765e-01,1.655631661415100098e+00,1.220615148544311523e+00,1.729859828948974609e+00,-1.362121939659118652e+00,2.027512073516845703e+00
9.896012544631958008e-01,-2.432503402233123779e-01,1.661166429519653320e+00,1.216090321540832520e+00,1.732973337173461914e+00,-1.369465351104736328e+00,2.034996032714843750e+00
9.926188588142395020e-01,-2.458893954753875732e-01,1.666726469993591309e+00,1.211514592170715332e+00,1.736097097396850586e+00,-1.376778721809387207e+00,2.042500019073486328e+00
9.956068396568298340e-01,-2.485115975141525269e-01,1.672260284423828125e+00,1.206785082817077637e+00,1.739257454872131348e+00,-1.384146571159362793e+00,2.050038337707519531e+00
9.985619187355041504e-01,-2.511097788810729980e-01,1.677754998207092285e+00,1.202021002769470215e+00,1.742425560951232910e+00,-1.391585588455200195e+00,2.057599067687988281e+00
1.001481652259826660e+00,-2.536991536617279053e-01,1.683162450790405273e+00,1.197306990623474121e+00,1.745611548423767090e+00,-1.398948431015014648e+00,2.065185070037841797e+00
1.004403591156005859e+00,-2.563442587852478027e-01,1.688522696495056152e+00,1.192578434944152832e+00,1.748824954032897949e+00,-1.406434893608093262e+00,2.072805881500244141e+00
1.007399559020996094e+00,-2.589886188507080078e-01,1.693916797637939453e+00,1.187758922576904297e+00,1.752045512199401855e+00,-1.413895368576049805e+00,2.080442428588867188e+00
1.010466575622558594e+00,-2.616016566753387451e-01,1.699176549911499023e+00,1.182925462722778320e+00,1.755273699760437012e+00,-1.421390295028686523e+00,2.088113307952880859e+00
1.013551354408264160e+00,-2.642506062984466553e-01,1.703959107398986816e+00,1.178132653236389160e+00,1.758511424064636230e+00,-1.428967118263244629e+00,2.095807552337646484e+00
1.016687870025634766e+00,-2.669160068035125732e-01,1.708121180534362793e+00,1.173272490501403809e+00,1.761767148971557617e+00,-1.436500430107116699e+00,2.103525161743164062e+00
1.019929409027099609e+00,-2.695965170860290527e-01,1.711603522300720215e+00,1.168216705322265625e+00,1.765035271644592285e+00,-1.444111704826354980e+00,2.111284732818603516e+00
1.023273825645446777e+00,-2.722430527210235596e-01,1.714270830154418945e+00,1.163193225860595703e+00,1.768317341804504395e+00,-1.451740145683288574e+00,2.119067668914794922e+00
1.026739835739135742e+00,-2.746857404708862305e-01,1.716027140617370605e+00,1.158298611640930176e+00,1.771572113037109375e+00,-1.459345459938049316e+00,2.126877546310424805e+00
1.030387639999389648e+00,-2.768791615962982178e-01,1.716968536376953125e+00,1.153360128402709961e+00,1.774834752082824707e+00,-1.467077136039733887e+00,2.134711027145385742e+00
1.034230470657348633e+00,-2.788546979427337646e-01,1.717230439186096191e+00,1.148252010345458984e+00,1.778104543685913086e+00,-1.474820971488952637e+00,2.142561674118041992e+00
1.038135886192321777e+00,-2.805384099483489990e-01,1.716774821281433105e+00,1.143074870109558105e+00,1.781370282173156738e+00,-1.482605099678039551e+00,2.150446414947509766e+00
1.042016267776489258e+00,-2.819781601428985596e-01,1.715718269348144531e+00,1.137954592704772949e+00,1.784638285636901855e+00,-1.490420341491699219e+00,2.158346414566040039e+00
1.045870304107666016e+00,-2.832566201686859131e-01,1.714394450187683105e+00,1.132843136787414551e+00,1.787928104400634766e+00,-1.498198747634887695e+00,2.166268348693847656e+00
1.049666762351989746e+00,-2.843839824199676514e-01,1.713083386421203613e+00,1.127555847167968750e+00,1.791222691535949707e+00,-1.506082177162170410e+00,2.174201488494873047e+00
1.053346753120422363e+00,-2.854670584201812744e-01,1.711938977241516113e+00,1.122264862060546875e+00,1.794536709785461426e+00,-1.513951539993286133e+00,2.182141780853271484e+00
1.056821703910827637e+00,-2.865557670593261719e-01,1.711020469665527344e+00,1.116992115974426270e+00,1.797860622406005859e+00,-1.521813392639160156e+00,2.190096139907836914e+00
1.059973239898681641e+00,-2.876820266246795654e-01,1.710270285606384277e+00,1.111582040786743164e+00,1.801203966140747070e+00,-1.529691815376281738e+00,2.198049306869506836e+00
1.062845587730407715e+00,-2.889445126056671143e-01,1.709765076637268066e+00,1.105982899665832520e+00,1.804579615592956543e+00,-1.537395238876342773e+00,2.206009387969970703e+00
1.065540313720703125e+00,-2.904325425624847412e-01,1.709511041641235352e+00,1.100433945655822754e+00,1.808014035224914551e+00,-1.545227885246276855e+00,2.213986635208129883e+00
1.068088412284851074e+00,-2.920267879962921143e-01,1.709299445152282715e+00,1.094949603080749512e+00,1.811443448066711426e+00,-1.552793741226196289e+00,2.221974372863769531e+00
1.070525765419006348e+00,-2.937939465045928955e-01,1.708925962448120117e+00,1.089458584785461426e+00,1.814896225929260254e+00,-1.559996843338012695e+00,2.229986906051635742e+00
1.072867751121520996e+00,-2.956817448139190674e-01,1.708263516426086426e+00,1.084259629249572754e+00,1.818395256996154785e+00,-1.566455483436584473e+00,2.238025665283203125e+00
1.075138926506042480e+00,-2.974415719509124756e-01,1.707283377647399902e+00,1.079501032829284668e+00,1.821881890296936035e+00,-1.571603894233703613e+00,2.246101617813110352e+00
1.077368974685668945e+00,-2.989872395992279053e-01,1.706075191497802734e+00,1.075200080871582031e+00,1.825403928756713867e+00,-1.575271248817443848e+00,2.254210233688354492e+00
1.079536199569702148e+00,-3.003343939781188965e-01,1.704803586006164551e+00,1.071465492248535156e+00,1.828943967819213867e+00,-1.577413082122802734e+00,2.262347221374511719e+00
1.081587314605712891e+00,-3.014821112155914307e-01,1.703545808792114258e+00,1.068426728248596191e+00,1.832507848739624023e+00,-1.578081727027893066e+00,2.270512342453002930e+00
1.083467960357666016e+00,-3.024942874908447266e-01,1.702236175537109375e+00,1.066242814064025879e+00,1.836105585098266602e+00,-1.577622532844543457e+00,2.278698205947875977e+00
1.085121035575866699e+00,-3.034662306308746338e-01,1.700845599174499512e+00,1.065026521682739258e+00,1.839729905128479004e+00,-1.576479911804199219e+00,2.286912202835083008e+00
1.086514830589294434e+00,-3.045161068439483643e-01,1.699438810348510742e+00,1.064635038375854492e+00,1.843406081199645996e+00,-1.575156688690185547e+00,2.295132160186767578e+00
1.087569713592529297e+00,-3.057260215282440186e-01,1.697993159294128418e+00,1.064864635467529297e+00,1.847142934799194336e+00,-1.573998689651489258e+00,2.303370714187622070e+00
1.088179707527160645e+00,-3.069967627525329590e-01,1.696442008018493652e+00,1.065605044364929199e+00,1.850933194160461426e+00,-1.573096752166748047e+00,2.311620235443115234e+00
1.088370084762573242e+00,-3.083366751670837402e-01,1.694891929626464844e+00,1.066796302795410156e+00,1.854741096496582031e+00,-1.572515726089477539e+00,2.319877386093139648e+00
1.088210821151733398e+00,-3.097421228885650635e-01,1.693433880805969238e+00,1.068234920501708984e+00,1.858595967292785645e+00,-1.572046279907226562e+00,2.328152894973754883e+00
1.087699532508850098e+00,-3.111361861228942871e-01,1.692018985748291016e+00,1.069712042808532715e+00,1.862463831901550293e+00,-1.571427702903747559e+00,2.336428880691528320e+00
1.086836934089660645e+00,-3.125316798686981201e-01,1.690579056739807129e+00,1.071167111396789551e+00,1.866346716880798340e+00,-1.570599913597106934e+00,2.344725370407104492e+00
1.085691928863525391e+00,-3.139579892158508301e-01,1.689102649688720703e+00,1.072424530982971191e+00,1.870264410972595215e+00,-1.569588661193847656e+00,2.353033304214477539e+00
1.084363341331481934e+00,-3.153276741504669189e-01,1.687619924545288086e+00,1.073446750640869141e+00,1.874192595481872559e+00,-1.568473935127258301e+00,2.361358642578125000e+00
1.082983732223510742e+00,-3.165926039218902588e-01,1.686138033866882324e+00,1.074371457099914551e+00,1.878106474876403809e+00,-1.567288517951965332e+00,2.369701623916625977e+00
1.081637382507324219e+00,-3.177857995033264160e-01,1.684635996818542480e+00,1.075260162353515625e+00,1.882042527198791504e+00,-1.566010832786560059e+00,2.378054618835449219e+00
1.080353021621704102e+00,-3.189340233802795410e-01,1.683040142059326172e+00,1.076138377189636230e+00,1.885989308357238770e+00,-1.564613342285156250e+00,2.386428594589233398e+00
1.079148411750793457e+00,-3.200722336769104004e-01,1.681254982948303223e+00,1.077141880989074707e+00,1.889960646629333496e+00,-1.563014984130859375e+00,2.394804477691650391e+00
1.078058838844299316e+00,-3.213061690330505371e-01,1.679278016090393066e+00,1.078472733497619629e+00,1.893976211547851562e+00,-1.561254739761352539e+00,2.403197050094604492e+00
1.077085614204406738e+00,-3.226233720779418945e-01,1.677142262458801270e+00,1.080094695091247559e+00,1.898023724555969238e+00,-1.559299707412719727e+00,2.411593675613403320e+00
1.076198458671569824e+00,-3.240222334861755371e-01,1.674884796142578125e+00,1.081998109817504883e+00,1.902103662490844727e+00,-1.557175755500793457e+00,2.419994354248046875e+00
1.075378775596618652e+00,-3.255665600299835205e-01,1.672565460205078125e+00,1.084113359451293945e+00,1.906223177909851074e+00,-1.554934024810791016e+00,2.428406953811645508e+00
1.074547648429870605e+00,-3.272277116775512695e-01,1.670150041580200195e+00,1.086417317390441895e+00,1.910358428955078125e+00,-1.552555203437805176e+00,2.436824083328247070e+00
1.073636651039123535e+00,-3.289461731910705566e-01,1.667599558830261230e+00,1.088921189308166504e+00,1.914524435997009277e+00,-1.550062775611877441e+00,2.445254325866699219e+00
1.072671055793762207e+00,-3.306740522384643555e-01,1.664963960647583008e+00,1.091509699821472168e+00,1.918722987174987793e+00,-1.547430276870727539e+00,2.453686475753784180e+00
1.071660637855529785e+00,-3.323269188404083252e-01,1.662321686744689941e+00,1.094236016273498535e+00,1.922927498817443848e+00,-1.544695258140563965e+00,2.462130069732666016e+00
1.070615887641906738e+00,-3.339111208915710449e-01,1.659720897674560547e+00,1.097067832946777344e+00,1.927157163619995117e+00,-1.541847705841064453e+00,2.470577716827392578e+00
1.069510698318481445e+00,-3.354155123233795166e-01,1.657137393951416016e+00,1.099887013435363770e+00,1.931403994560241699e+00,-1.538890838623046875e+00,2.479031562805175781e+00
1.068298816680908203e+00,-3.368367850780487061e-01,1.654523849487304688e+00,1.102691650390625000e+00,1.935683488845825195e+00,-1.535824060440063477e+00,2.487492084503173828e+00
1.066984057426452637e+00,-3.382028043270111084e-01,1.651877164840698242e+00,1.105502128601074219e+00,1.939984440803527832e+00,-1.532668948173522949e+00,2.495951652526855469e+00
1.065578699111938477e+00,-3.394953012466430664e-01,1.649162173271179199e+00,1.108425259590148926e+00,1.944316029548645020e+00,-1.529382109642028809e+00,2.504422426223754883e+00
1.064102292060852051e+00,-3.407076299190521240e-01,1.646351814270019531e+00,1.111517786979675293e+00,1.948666930198669434e+00,-1.525975942611694336e+00,2.512888193130493164e+00
1.062605023384094238e+00,-3.418599665164947510e-01,1.643499255180358887e+00,1.114767551422119141e+00,1.953018546104431152e+00,-1.522450566291809082e+00,2.521363019943237305e+00
1.061126351356506348e+00,-3.429810404777526855e-01,1.640648841857910156e+00,1.118203043937683105e+00,1.957397580146789551e+00,-1.518823146820068359e+00,2.529833793640136719e+00
1.059659957885742188e+00,-3.440908789634704590e-01,1.637773394584655762e+00,1.121737718582153320e+00,1.961779117584228516e+00,-1.515091180801391602e+00,2.538296699523925781e+00
1.058154463768005371e+00,-3.452353179454803467e-01,1.634838700294494629e+00,1.125318169593811035e+00,1.966188788414001465e+00,-1.511230230331420898e+00,2.546758174896240234e+00
1.056605100631713867e+00,-3.464553654193878174e-01,1.631852269172668457e+00,1.128968000411987305e+00,1.970623254776000977e+00,-1.507254600524902344e+00,2.555208683013916016e+00
1.055002689361572266e+00,-3.477286398410797119e-01,1.628780245780944824e+00,1.132712483406066895e+00,1.975064754486083984e+00,-1.503184318542480469e+00,2.563661813735961914e+00
1.053347587585449219e+00,-3.490600883960723877e-01,1.625624179840087891e+00,1.136593580245971680e+00,1.979540467262268066e+00,-1.498967289924621582e+00,2.572092533111572266e+00
1.051673054695129395e+00,-3.504450917243957520e-01,1.622447371482849121e+00,1.140600562095642090e+00,1.984026193618774414e+00,-1.494741201400756836e+00,2.580523967742919922e+00
1.049983739852905273e+00,-3.518185019493103027e-01,1.619280099868774414e+00,1.144596219062805176e+00,1.988553285598754883e+00,-1.490367412567138672e+00,2.588934183120727539e+00
1.048246026039123535e+00,-3.531517982482910156e-01,1.616110086441040039e+00,1.148568749427795410e+00,1.993078947067260742e+00,-1.485904574394226074e+00,2.597337961196899414e+00
1.046461939811706543e+00,-3.544543087482452393e-01,1.612921476364135742e+00,1.152609467506408691e+00,1.997642636299133301e+00,-1.481357693672180176e+00,2.605716705322265625e+00
1.044632196426391602e+00,-3.557367324829101562e-01,1.609699368476867676e+00,1.156742215156555176e+00,2.002210855484008789e+00,-1.476728200912475586e+00,2.614064931869506836e+00
1.042771220207214355e+00,-3.570115566253662109e-01,1.606440424919128418e+00,1.160976767539978027e+00,2.006786584854125977e+00,-1.472014307975769043e+00,2.622395038604736328e+00
1.040902495384216309e+00,-3.583194017410278320e-01,1.603191256523132324e+00,1.165149688720703125e+00,2.011401414871215820e+00,-1.467182755470275879e+00,2.630683422088623047e+00
1.039000391960144043e+00,-3.596555292606353760e-01,1.599926114082336426e+00,1.169370174407958984e+00,2.016024351119995117e+00,-1.462287187576293945e+00,2.638934373855590820e+00
1.037046670913696289e+00,-3.609987795352935791e-01,1.596591591835021973e+00,1.173680067062377930e+00,2.020678043365478516e+00,-1.457313418388366699e+00,2.647112607955932617e+00
1.035067319869995117e+00,-3.623360395431518555e-01,1.593220591545104980e+00,1.178102493286132812e+00,2.025324583053588867e+00,-1.452265858650207520e+00,2.655207633972167969e+00
1.033066511154174805e+00,-3.636632859706878662e-01,1.589817285537719727e+00,1.182596564292907715e+00,2.030007839202880859e+00,-1.447101593017578125e+00,2.663163185119628906e+00
1.031014323234558105e+00,-3.649988770484924316e-01,1.586337804794311523e+00,1.187004089355468750e+00,2.034708023071289062e+00,-1.441862702369689941e+00,2.670831203460693359e+00
1.028917908668518066e+00,-3.663547635078430176e-01,1.582803249359130859e+00,1.191472887992858887e+00,2.039433479309082031e+00,-1.436559319496154785e+00,2.677886962890625000e+00
1.026825785636901855e+00,-3.677382767200469971e-01,1.579257130622863770e+00,1.196012735366821289e+00,2.044186830520629883e+00,-1.431157112121582031e+00,2.683878183364868164e+00
1.024773716926574707e+00,-3.691062629222869873e-01,1.575730681419372559e+00,1.200653910636901855e+00,2.048932790756225586e+00,-1.425648450851440430e+00,2.688428640365600586e+00
1.022766947746276855e+00,-3.704361617565155029e-01,1.572218418121337891e+00,1.205276727676391602e+00,2.053716897964477539e+00,-1.420045375823974609e+00,2.691378116607666016e+00
1.020745038986206055e+00,-3.717575967311859131e-01,1.568642020225524902e+00,1.209961056709289551e+00,2.058522701263427734e+00,-1.414393424987792969e+00,2.692715883255004883e+00
1.018679738044738770e+00,-3.730573058128356934e-01,1.564935922622680664e+00,1.214745163917541504e+00,2.063350200653076172e+00,-1.408603191375732422e+00,2.692633628845214844e+00
1.016628742218017578e+00,-3.743007183074951172e-01,1.561164736747741699e+00,1.219617843627929688e+00,2.068194627761840820e+00,-1.402704119682312012e+00,2.691575288772583008e+00
1.014646530151367188e+00,-3.754704892635345459e-01,1.557414650917053223e+00,1.224496722221374512e+00,2.073073148727416992e+00,-1.396766185760498047e+00,2.690021991729736328e+00
1.012692451477050781e+00,-3.765587210655212402e-01,1.553652644157409668e+00,1.229415178298950195e+00,2.077965021133422852e+00,-1.390734314918518066e+00,2.688469648361206055e+00
1.010692954063415527e+00,-3.775473535060882568e-01,1.549758911132812500e+00,1.234433770179748535e+00,2.082886219024658203e+00,-1.384579300880432129e+00,2.687235116958618164e+00
1.008635282516479492e+00,-3.784511089324951172e-01,1.545732855796813965e+00,1.239559412002563477e+00,2.087807178497314453e+00,-1.378365039825439453e+00,2.686400413513183594e+00
1.006578683853149414e+00,-3.792966306209564209e-01,1.541714310646057129e+00,1.244616746902465820e+00,2.092787265777587891e+00,-1.372106552124023438e+00,2.685866355895996094e+00
1.004548430442810059e+00,-3.800517618656158447e-01,1.537749767303466797e+00,1.249627232551574707e+00,2.097769021987915039e+00,-1.365765571594238281e+00,2.685373306274414062e+00
1.002522110939025879e+00,-3.806820809841156006e-01,1.533771514892578125e+00,1.254783868789672852e+00,2.102782964706420898e+00,-1.359362125396728516e+00,2.684626340866088867e+00
1.000462174415588379e+00,-3.812128007411956787e-01,1.529699325561523438e+00,1.260081291198730469e+00,2.107811927795410156e+00,-1.352928519248962402e+00,2.683520078659057617e+00
9.983333945274353027e-01,-3.816184699535369873e-01,1.525514960289001465e+00,1.265286087989807129e+00,2.112870693206787109e+00,-1.346352458000183105e+00,2.682105541229248047e+00
9.961659908294677734e-01,-3.818976283073425293e-01,1.521288752555847168e+00,1.270421028137207031e+00,2.117961168289184570e+00,-1.339762330055236816e+00,2.680521011352539062e+00
9.939944744110107422e-01,-3.820461928844451904e-01,1.517034530639648438e+00,1.275676369667053223e+00,2.123092412948608398e+00,-1.333128809928894043e+00,2.678847312927246094e+00
9.918170571327209473e-01,-3.820603191852569580e-01,1.512723326683044434e+00,1.281027197837829590e+00,2.128213882446289062e+00,-1.326394915580749512e+00,2.677061080932617188e+00
9.895963668823242188e-01,-3.819621801376342773e-01,1.508311271667480469e+00,1.286288261413574219e+00,2.133390426635742188e+00,-1.319611787796020508e+00,2.675147294998168945e+00
9.873016476631164551e-01,-3.818108737468719482e-01,1.503805994987487793e+00,1.291557788848876953e+00,2.138577222824096680e+00,-1.312836766242980957e+00,2.673092126846313477e+00
9.849771857261657715e-01,-3.815656900405883789e-01,1.499258756637573242e+00,1.296894073486328125e+00,2.143793821334838867e+00,-1.305925726890563965e+00,2.670902967453002930e+00
9.826774597167968750e-01,-3.811525702476501465e-01,1.494733333587646484e+00,1.302182435989379883e+00,2.149029493331909180e+00,-1.299067854881286621e+00,2.668588399887084961e+00
9.803806543350219727e-01,-3.806008994579315186e-01,1.490226745605468750e+00,1.307387471199035645e+00,2.154287338256835938e+00,-1.292181491851806641e+00,2.666157007217407227e+00
9.780057072639465332e-01,-3.799611628055572510e-01,1.485585331916809082e+00,1.312617182731628418e+00,2.159566640853881836e+00,-1.285241007804870605e+00,2.663589000701904297e+00
9.755596518516540527e-01,-3.792079091072082520e-01,1.480778694152832031e+00,1.317889809608459473e+00,2.164883613586425781e+00,-1.278330326080322266e+00,2.660906791687011719e+00
9.731032252311706543e-01,-3.783640265464782715e-01,1.475924968719482422e+00,1.322950839996337891e+00,2.170215606689453125e+00,-1.271407961845397949e+00,2.658083200454711914e+00
9.706254601478576660e-01,-3.774470686912536621e-01,1.471074581146240234e+00,1.327645778656005859e+00,2.175576925277709961e+00,-1.264574050903320312e+00,2.655135631561279297e+00
9.680675268173217773e-01,-3.764683008193969727e-01,1.466104626655578613e+00,1.331982493400573730e+00,2.180955171585083008e+00,-1.258105516433715820e+00,2.652063846588134766e+00
9.654597640037536621e-01,-3.754387497901916504e-01,1.461037874221801758e+00,1.335968255996704102e+00,2.186331987380981445e+00,-1.252337932586669922e+00,2.648881196975708008e+00
9.629189968109130859e-01,-3.743527829647064209e-01,1.456036329269409180e+00,1.339356064796447754e+00,2.191695451736450195e+00,-1.247669696807861328e+00,2.645586967468261719e+00
9.604735970497131348e-01,-3.731961846351623535e-01,1.451094746589660645e+00,1.342002630233764648e+00,2.197057008743286133e+00,-1.244443416595458984e+00,2.642177820205688477e+00
9.580494165420532227e-01,-3.719845414161682129e-01,1.446014761924743652e+00,1.343933820724487305e+00,2.202415227890014648e+00,-1.242591023445129395e+00,2.638646125793457031e+00
9.556603431701660156e-01,-3.707321286201477051e-01,1.440773129463195801e+00,1.345156192779541016e+00,2.207785129547119141e+00,-1.242034912109375000e+00,2.634994506835937500e+00
9.534248709678649902e-01,-3.694623410701751709e-01,1.435482501983642578e+00,1.345657229423522949e+00,2.213147401809692383e+00,-1.242452263832092285e+00,2.631219863891601562e+00
9.513997435569763184e-01,-3.681555092334747314e-01,1.430145978927612305e+00,1.345565557479858398e+00,2.218532562255859375e+00,-1.243381619453430176e+00,2.627351999282836914e+00
9.495688080787658691e-01,-3.668796718120574951e-01,1.424695253372192383e+00,1.345085382461547852e+00,2.223898410797119141e+00,-1.244408726692199707e+00,2.623368024826049805e+00
9.479423165321350098e-01,-3.656566739082336426e-01,1.419185876846313477e+00,1.344320416450500488e+00,2.229309558868408203e+00,-1.245195746421813965e+00,2.619282245635986328e+00
9.465257525444030762e-01,-3.644355535507202148e-01,1.413679122924804688e+00,1.343349456787109375e+00,2.234730243682861328e+00,-1.245685219764709473e+00,2.615089893341064453e+00
9.452400207519531250e-01,-3.631838560104370117e-01,1.408110618591308594e+00,1.342337489128112793e+00,2.240175485610961914e+00,-1.245855808258056641e+00,2.610786199569702148e+00
9.440106749534606934e-01,-3.619289994239807129e-01,1.402470946311950684e+00,1.341467618942260742e+00,2.245639324188232422e+00,-1.246001482009887695e+00,2.606395244598388672e+00
9.428216814994812012e-01,-3.606387078762054443e-01,1.396860003471374512e+00,1.340854287147521973e+00,2.251137018203735352e+00,-1.246336221694946289e+00,2.601904392242431641e+00
9.416137933731079102e-01,-3.592550754547119141e-01,1.391281247138977051e+00,1.340372443199157715e+00,2.256577730178833008e+00,-1.246917963027954102e+00,2.597309827804565430e+00
9.402605295181274414e-01,-3.577675223350524902e-01,1.385664939880371094e+00,1.339995622634887695e+00,2.261997699737548828e+00,-1.247642040252685547e+00,2.592608928680419922e+00
9.387261271476745605e-01,-3.562424778938293457e-01,1.380060553550720215e+00,1.339631676673889160e+00,2.267338514328002930e+00,-1.248481869697570801e+00,2.587809085845947266e+00
9.370320439338684082e-01,-3.546805083751678467e-01,1.374556779861450195e+00,1.339129209518432617e+00,2.272596597671508789e+00,-1.249451041221618652e+00,2.582914829254150391e+00
9.351553916931152344e-01,-3.530719280242919922e-01,1.369083046913146973e+00,1.338344812393188477e+00,2.277622938156127930e+00,-1.250572085380554199e+00,2.577930212020874023e+00
9.331156611442565918e-01,-3.515044450759887695e-01,1.363607525825500488e+00,1.337434768676757812e+00,2.282266139984130859e+00,-1.251852273941040039e+00,2.572843790054321289e+00
9.309991002082824707e-01,-3.500468134880065918e-01,1.358203053474426270e+00,1.336361050605773926e+00,2.286342859268188477e+00,-1.253286719322204590e+00,2.567672491073608398e+00
9.288471341133117676e-01,-3.486467599868774414e-01,1.352848529815673828e+00,1.335049271583557129e+00,2.289773464202880859e+00,-1.254839062690734863e+00,2.562421321868896484e+00
9.266220927238464355e-01,-3.473251760005950928e-01,1.347408652305603027e+00,1.333534598350524902e+00,2.292560577392578125e+00,-1.256481766700744629e+00,2.557072877883911133e+00
9.243732690811157227e-01,-3.461530804634094238e-01,1.341906905174255371e+00,1.331875205039978027e+00,2.294760465621948242e+00,-1.258228421211242676e+00,2.551624059677124023e+00
9.222241044044494629e-01,-3.451112806797027588e-01,1.336499094963073730e+00,1.330133080482482910e+00,2.296455383300781250e+00,-1.260057568550109863e+00,2.546087503433227539e+00
9.201978445053100586e-01,-3.442318737506866455e-01,1.331163525581359863e+00,1.328256249427795410e+00,2.297791242599487305e+00,-1.261978864669799805e+00,2.540470123291015625e+00
9.182260036468505859e-01,-3.436117470264434814e-01,1.325787663459777832e+00,1.326310157775878906e+00,2.299007654190063477e+00,-1.263960242271423340e+00,2.534760713577270508e+00
9.162751436233520508e-01,-3.432804048061370850e-01,1.320339560508728027e+00,1.324365377426147461e+00,2.300244569778442383e+00,-1.266040086746215820e+00,2.528971672058105469e+00
9.143705964088439941e-01,-3.432082533836364746e-01,1.314869523048400879e+00,1.322349786758422852e+00,2.301548242568969727e+00,-1.268144726753234863e+00,2.523098707199096680e+00
9.124848246574401855e-01,-3.433465361595153809e-01,1.309377431869506836e+00,1.320286154747009277e+00,2.302928686141967773e+00,-1.270360827445983887e+00,2.517137527465820312e+00
9.105817079544067383e-01,-3.436864316463470459e-01,1.303889751434326172e+00,1.318120002746582031e+00,2.304346323013305664e+00,-1.272654652595520020e+00,2.511082172393798828e+00
9.086882472038269043e-01,-3.442160487174987793e-01,1.298486590385437012e+00,1.315789341926574707e+00,2.305752038955688477e+00,-1.275050640106201172e+00,2.504947662353515625e+00
9.068155884742736816e-01,-3.448546528816223145e-01,1.293181777000427246e+00,1.313302755355834961e+00,2.307085752487182617e+00,-1.277569770812988281e+00,2.498738765716552734e+00
9.049295783042907715e-01,-3.455836474895477295e-01,1.287892460823059082e+00,1.310659170150756836e+00,2.308326721191406250e+00,-1.280163407325744629e+00,2.492441177368164062e+00
9.030366539955139160e-01,-3.464080989360809326e-01,1.282620549201965332e+00,1.307909011840820312e+00,2.309501409530639648e+00,-1.282887220382690430e+00,2.486072778701782227e+00
9.011849761009216309e-01,-3.472659289836883545e-01,1.277416110038757324e+00,1.305125236511230469e+00,2.310601472854614258e+00,-1.285653829574584961e+00,2.479633331298828125e+00
8.993936777114868164e-01,-3.481208682060241699e-01,1.272252082824707031e+00,1.302329301834106445e+00,2.311621427536010742e+00,-1.288515925407409668e+00,2.473099470138549805e+00
8.976420760154724121e-01,-3.490259945392608643e-01,1.267086148262023926e+00,1.299491167068481445e+00,2.312602758407592773e+00,-1.291406035423278809e+00,2.466491460800170898e+00
8.959152102470397949e-01,-3.500104844570159912e-01,1.261909842491149902e+00,1.296609878540039062e+00,2.313519477844238281e+00,-1.294386386871337891e+00,2.459814310073852539e+00
8.942337036132812500e-01,-3.510644435882568359e-01,1.256727933883666992e+00,1.293695569038391113e+00,2.314363718032836914e+00,-1.297431349754333496e+00,2.453052043914794922e+00
8.925812840461730957e-01,-3.521727323532104492e-01,1.251505494117736816e+00,1.290718078613281250e+00,2.315144777297973633e+00,-1.300512313842773438e+00,2.446228981018066406e+00
8.909373879432678223e-01,-3.533751964569091797e-01,1.246268391609191895e+00,1.287701010704040527e+00,2.315874814987182617e+00,-1.303706407546997070e+00,2.439334392547607422e+00
8.893297910690307617e-01,-3.546609580516815186e-01,1.241086721420288086e+00,1.284647464752197266e+00,2.316533327102661133e+00,-1.306941509246826172e+00,2.432359695434570312e+00
8.877786993980407715e-01,-3.559728860855102539e-01,1.235983490943908691e+00,1.281595349311828613e+00,2.317108869552612305e+00,-1.310276389122009277e+00,2.425320386886596680e+00
8.862345814704895020e-01,-3.572922945022583008e-01,1.230886936187744141e+00,1.278502583503723145e+00,2.317625045776367188e+00,-1.313645839691162109e+00,2.418203353881835938e+00
8.846455216407775879e-01,-3.586570024490356445e-01,1.225780248641967773e+00,1.275351643562316895e+00,2.318093299865722656e+00,-1.317127227783203125e+00,2.411011695861816406e+00
8.830409646034240723e-01,-3.600304424762725830e-01,1.220710515975952148e+00,1.272077083587646484e+00,2.318524837493896484e+00,-1.320686578750610352e+00,2.403759717941284180e+00
8.814335465431213379e-01,-3.613499701023101807e-01,1.215686082839965820e+00,1.268688678741455078e+00,2.318875551223754883e+00,-1.324333667755126953e+00,2.396434783935546875e+00
8.798124194145202637e-01,-3.626640439033508301e-01,1.210682272911071777e+00,1.265243887901306152e+00,2.319155931472778320e+00,-1.328047633171081543e+00,2.389037609100341797e+00
8.781634569168090820e-01,-3.640673160552978516e-01,1.205669879913330078e+00,1.261809349060058594e+00,2.319378137588500977e+00,-1.331813454627990723e+00,2.381579399108886719e+00
8.764899373054504395e-01,-3.655671477317810059e-01,1.200644850730895996e+00,1.258358478546142578e+00,2.319540262222290039e+00,-1.335662126541137695e+00,2.374054193496704102e+00
8.747865557670593262e-01,-3.671674728393554688e-01,1.195597767829895020e+00,1.254854321479797363e+00,2.319639205932617188e+00,-1.339553356170654297e+00,2.366477251052856445e+00
8.730204105377197266e-01,-3.689057826995849609e-01,1.190484762191772461e+00,1.251242995262145996e+00,2.319697141647338867e+00,-1.343568325042724609e+00,2.358834743499755859e+00
8.711861371994018555e-01,-3.707521855831146240e-01,1.185321688652038574e+00,1.247610688209533691e+00,2.319710731506347656e+00,-1.347597837448120117e+00,2.351126670837402344e+00
8.693525195121765137e-01,-3.726924955844879150e-01,1.180183768272399902e+00,1.244185924530029297e+00,2.319684982299804688e+00,-1.351730108261108398e+00,2.343352794647216797e+00
8.675599098205566406e-01,-3.746935129165649414e-01,1.175082564353942871e+00,1.241159319877624512e+00,2.319635152816772461e+00,-1.355872869491577148e+00,2.335520505905151367e+00
8.657725453376770020e-01,-3.767125904560089111e-01,1.169959664344787598e+00,1.238520026206970215e+00,2.319570064544677734e+00,-1.360065102577209473e+00,2.327633380889892578e+00
8.639657497406005859e-01,-3.787330389022827148e-01,1.164827823638916016e+00,1.236357808113098145e+00,2.319532632827758789e+00,-1.364342093467712402e+00,2.319690704345703125e+00
8.621586561203002930e-01,-3.806838095188140869e-01,1.159749031066894531e+00,1.234811544418334961e+00,2.319510221481323242e+00,-1.368644952774047852e+00,2.311679840087890625e+00
8.603113293647766113e-01,-3.824978768825531006e-01,1.154691934585571289e+00,1.233974814414978027e+00,2.319479227066040039e+00,-1.372997879981994629e+00,2.303615808486938477e+00
8.583390712738037109e-01,-3.842195868492126465e-01,1.149575114250183105e+00,1.233870863914489746e+00,2.319443225860595703e+00,-1.377405047416687012e+00,2.295491456985473633e+00
8.562076687812805176e-01,-3.859098255634307861e-01,1.144418954849243164e+00,1.234474658966064453e+00,2.319398403167724609e+00,-1.381923794746398926e+00,2.287316560745239258e+00
8.539464473724365234e-01,-3.875453770160675049e-01,1.139330506324768066e+00,1.235723376274108887e+00,2.319350957870483398e+00,-1.386559605598449707e+00,2.279088735580444336e+00
8.515058159828186035e-01,-3.891012370586395264e-01,1.134247303009033203e+00,1.237474322319030762e+00,2.319283723831176758e+00,-1.391296625137329102e+00,2.270799875259399414e+00
8.487859964370727539e-01,-3.906015455722808838e-01,1.129071354866027832e+00,1.239532709121704102e+00,2.319216489791870117e+00,-1.396117329597473145e+00,2.262461185455322266e+00
8.458411693572998047e-01,-3.921039402484893799e-01,1.123876810073852539e+00,1.241736531257629395e+00,2.319154739379882812e+00,-1.401068687438964844e+00,2.254065275192260742e+00
8.428120613098144531e-01,-3.935652375221252441e-01,1.118802785873413086e+00,1.243980526924133301e+00,2.319071292877197266e+00,-1.406158208847045898e+00,2.245625972747802734e+00
8.397305607795715332e-01,-3.949642777442932129e-01,1.113766551017761230e+00,1.246150016784667969e+00,2.318986654281616211e+00,-1.411304831504821777e+00,2.237133026123046875e+00
8.365899920463562012e-01,-3.964102864265441895e-01,1.108662128448486328e+00,1.248159170150756836e+00,2.318926572799682617e+00,-1.416488528251647949e+00,2.228587865829467773e+00
8.334571719169616699e-01,-3.979752063751220703e-01,1.103485822677612305e+00,1.250119209289550781e+00,2.318873405456542969e+00,-1.421713590621948242e+00,2.219988584518432617e+00
8.304433226585388184e-01,-3.996441662311553955e-01,1.098291277885437012e+00,1.252020597457885742e+00,2.318718910217285156e+00,-1.426933646202087402e+00,2.211338043212890625e+00
8.276087045669555664e-01,-4.014465510845184326e-01,1.093073606491088867e+00,1.253932476043701172e+00,2.318372249603271484e+00,-1.432143926620483398e+00,2.202644348144531250e+00
8.249967098236083984e-01,-4.034059047698974609e-01,1.087851524353027344e+00,1.256041407585144043e+00,2.317852497100830078e+00,-1.437383770942687988e+00,2.193892955780029297e+00
8.226219415664672852e-01,-4.054312407970428467e-01,1.082665205001831055e+00,1.258365035057067871e+00,2.317197561264038086e+00,-1.442689299583435059e+00,2.185098171234130859e+00
8.204389214515686035e-01,-4.074182212352752686e-01,1.077515363693237305e+00,1.260766386985778809e+00,2.316513299942016602e+00,-1.448020458221435547e+00,2.176258087158203125e+00
8.183656334877014160e-01,-4.094033539295196533e-01,1.072360634803771973e+00,1.263146638870239258e+00,2.315855264663696289e+00,-1.453384995460510254e+00,2.167385578155517578e+00
8.163384199142456055e-01,-4.114050865173339844e-01,1.067164778709411621e+00,1.265514731407165527e+00,2.315183162689208984e+00,-1.458823680877685547e+00,2.158467531204223633e+00
8.143807649612426758e-01,-4.133979976177215576e-01,1.061991691589355469e+00,1.267844319343566895e+00,2.314467906951904297e+00,-1.464378714561462402e+00,2.149508476257324219e+00
8.125252127647399902e-01,-4.153489768505096436e-01,1.056891322135925293e+00,1.270182490348815918e+00,2.313680648803710938e+00,-1.469992876052856445e+00,2.140508174896240234e+00
8.107463717460632324e-01,-4.173175692558288574e-01,1.051840305328369141e+00,1.272495508193969727e+00,2.312869787216186523e+00,-1.475628137588500977e+00,2.131470441818237305e+00
8.090216517448425293e-01,-4.192757904529571533e-01,1.046885967254638672e+00,1.274604201316833496e+00,2.312044143676757812e+00,-1.481379866600036621e+00,2.122395277023315430e+00
8.073896765708923340e-01,-4.211395680904388428e-01,1.042245268821716309e+00,1.276311874389648438e+00,2.311218261718750000e+00,-1.487180709838867188e+00,2.113276004791259766e+00
8.058650493621826172e-01,-4.229359924793243408e-01,1.038074374198913574e+00,1.277719259262084961e+00,2.310357093811035156e+00,-1.493010997772216797e+00,2.104116201400756836e+00
8.044171929359436035e-01,-4.248171150684356689e-01,1.034385681152343750e+00,1.279181838035583496e+00,2.309479713439941406e+00,-1.498854160308837891e+00,2.094903707504272461e+00
8.030138015747070312e-01,-4.268816113471984863e-01,1.031216621398925781e+00,1.280820131301879883e+00,2.308614969253540039e+00,-1.504741072654724121e+00,2.085662126541137695e+00
8.016986846923828125e-01,-4.291478991508483887e-01,1.028766989707946777e+00,1.282688379287719727e+00,2.307770729064941406e+00,-1.510613799095153809e+00,2.076362848281860352e+00
8.004860281944274902e-01,-4.316030442714691162e-01,1.027198910713195801e+00,1.284860610961914062e+00,2.306927680969238281e+00,-1.516444683074951172e+00,2.067018270492553711e+00
7.992839813232421875e-01,-4.342335164546966553e-01,1.026474833488464355e+00,1.287308216094970703e+00,2.306085348129272461e+00,-1.522345900535583496e+00,2.057629823684692383e+00
7.979575991630554199e-01,-4.370262026786804199e-01,1.026437044143676758e+00,1.289962410926818848e+00,2.305231571197509766e+00,-1.528229236602783203e+00,2.048198461532592773e+00
7.964659929275512695e-01,-4.399963319301605225e-01,1.026937365531921387e+00,1.292790174484252930e+00,2.304379224777221680e+00,-1.534119367599487305e+00,2.038723707199096680e+00
7.948292493820190430e-01,-4.431103765964508057e-01,1.027880668640136719e+00,1.295861959457397461e+00,2.303517103195190430e+00,-1.540111422538757324e+00,2.029203176498413086e+00
7.930732369422912598e-01,-4.463465809822082520e-01,1.029097437858581543e+00,1.299070358276367188e+00,2.302656412124633789e+00,-1.546218872070312500e+00,2.019645929336547852e+00
7.912350296974182129e-01,-4.496394395828247070e-01,1.030422329902648926e+00,1.302301406860351562e+00,2.301803588867187500e+00,-1.552410483360290527e+00,2.010058879852294922e+00
7.893632054328918457e-01,-4.529431760311126709e-01,1.031635522842407227e+00,1.305557370185852051e+00,2.300950765609741211e+00,-1.558709025382995605e+00,2.000439167022705078e+00
7.875465750694274902e-01,-4.562140405178070068e-01,1.032566070556640625e+00,1.308779478073120117e+00,2.300088644027709961e+00,-1.565151572227478027e+00,1.990780591964721680e+00
7.859436273574829102e-01,-4.593324363231658936e-01,1.033255100250244141e+00,1.311948657035827637e+00,2.299217462539672852e+00,-1.571599125862121582e+00,1.981086492538452148e+00
7.846896648406982422e-01,-4.622918367385864258e-01,1.033768296241760254e+00,1.315170526504516602e+00,2.298309326171875000e+00,-1.578112363815307617e+00,1.971370697021484375e+00
7.837916612625122070e-01,-4.651221632957458496e-01,1.034109473228454590e+00,1.318433046340942383e+00,2.297379493713378906e+00,-1.584693670272827148e+00,1.961616396903991699e+00
7.832249402999877930e-01,-4.678311347961425781e-01,1.034391522407531738e+00,1.321762323379516602e+00,2.296416997909545898e+00,-1.591241955757141113e+00,1.951829433441162109e+00
7.829682826995849609e-01,-4.705290198326110840e-01,1.034792184829711914e+00,1.325178980827331543e+00,2.295454025268554688e+00,-1.597785472869873047e+00,1.942009091377258301e+00
7.829270958900451660e-01,-4.733758568763732910e-01,1.035352945327758789e+00,1.328760862350463867e+00,2.294497251510620117e+00,-1.604397058486938477e+00,1.932163834571838379e+00
7.829960584640502930e-01,-4.763969779014587402e-01,1.036025881767272949e+00,1.332500696182250977e+00,2.293548107147216797e+00,-1.610964179039001465e+00,1.922285318374633789e+00
7.831525206565856934e-01,-4.796004593372344971e-01,1.036824107170104980e+00,1.336260437965393066e+00,2.292605638504028320e+00,-1.617574930191040039e+00,1.912369489669799805e+00
7.833802700042724609e-01,-4.829591810703277588e-01,1.037759304046630859e+00,1.339905858039855957e+00,2.291679620742797852e+00,-1.624295711517333984e+00,1.902418613433837891e+00
7.836361527442932129e-01,-4.864054024219512939e-01,1.038745403289794922e+00,1.343525886535644531e+00,2.290777206420898438e+00,-1.631015181541442871e+00,1.892442941665649414e+00
7.839075922966003418e-01,-4.898439943790435791e-01,1.039739847183227539e+00,1.347248911857604980e+00,2.289849758148193359e+00,-1.637812852859497070e+00,1.882435083389282227e+00
7.842081189155578613e-01,-4.932401478290557861e-01,1.040784716606140137e+00,1.351034879684448242e+00,2.288914442062377930e+00,-1.644686102867126465e+00,1.872400164604187012e+00
7.845627665519714355e-01,-4.965444803237915039e-01,1.041953325271606445e+00,1.354892134666442871e+00,2.287938594818115234e+00,-1.651557445526123047e+00,1.862341642379760742e+00
7.849788665771484375e-01,-4.997239112854003906e-01,1.043233156204223633e+00,1.358669281005859375e+00,2.286954164505004883e+00,-1.658468484878540039e+00,1.852261185646057129e+00
7.854447960853576660e-01,-5.028123855590820312e-01,1.044612646102905273e+00,1.362419128417968750e+00,2.285966634750366211e+00,-1.665464162826538086e+00,1.842161297798156738e+00
7.859335541725158691e-01,-5.058935284614562988e-01,1.046052217483520508e+00,1.366361975669860840e+00,2.284953355789184570e+00,-1.672402024269104004e+00,1.832023859024047852e+00
7.864506244659423828e-01,-5.089720487594604492e-01,1.047482252120971680e+00,1.370437622070312500e+00,2.283903360366821289e+00,-1.679409265518188477e+00,1.821858644485473633e+00
7.870100736618041992e-01,-5.120880603790283203e-01,1.048973441123962402e+00,1.374704122543334961e+00,2.282829284667968750e+00,-1.686440587043762207e+00,1.811675906181335449e+00
7.876212000846862793e-01,-5.152969956398010254e-01,1.050603389739990234e+00,1.379011869430541992e+00,2.281758069992065430e+00,-1.693436384201049805e+00,1.801465868949890137e+00
7.882322072982788086e-01,-5.185059309005737305e-01,1.052342414855957031e+00,1.383263707160949707e+00,2.280672788619995117e+00,-1.700519561767578125e+00,1.791226267814636230e+00
7.887763977050781250e-01,-5.216817855834960938e-01,1.054160118103027344e+00,1.387598991394042969e+00,2.279585838317871094e+00,-1.707601666450500488e+00,1.780959725379943848e+00
7.892468571662902832e-01,-5.249431729316711426e-01,1.056036233901977539e+00,1.391996383666992188e+00,2.278485059738159180e+00,-1.714687228202819824e+00,1.770678281784057617e+00
7.896571755409240723e-01,-5.282320380210876465e-01,1.057954072952270508e+00,1.396581530570983887e+00,2.277350425720214844e+00,-1.721891283988952637e+00,1.760370135307312012e+00
7.900570034980773926e-01,-5.315331220626831055e-01,1.059942603111267090e+00,1.401131391525268555e+00,2.276209831237792969e+00,-1.729028344154357910e+00,1.750051498413085938e+00
7.904481291770935059e-01,-5.348187088966369629e-01,1.062021613121032715e+00,1.405705332756042480e+00,2.275064229965209961e+00,-1.736213922500610352e+00,1.739708900451660156e+00
7.908182144165039062e-01,-5.380241274833679199e-01,1.064144372940063477e+00,1.410378456115722656e+00,2.273907423019409180e+00,-1.743463397026062012e+00,1.729351997375488281e+00
7.911919951438903809e-01,-5.411717295646667480e-01,1.066323041915893555e+00,1.415053606033325195e+00,2.272749900817871094e+00,-1.750654697418212891e+00,1.718978047370910645e+00
7.915872931480407715e-01,-5.443192720413208008e-01,1.068556189537048340e+00,1.419698715209960938e+00,2.271641969680786133e+00,-1.757906079292297363e+00,1.708583235740661621e+00
7.920290827751159668e-01,-5.475099682807922363e-01,1.070811510086059570e+00,1.424340963363647461e+00,2.270738601684570312e+00,-1.765183687210083008e+00,1.698173284530639648e+00
7.925348877906799316e-01,-5.507975220680236816e-01,1.073096036911010742e+00,1.429148197174072266e+00,2.270200014114379883e+00,-1.772383809089660645e+00,1.687744498252868652e+00
7.931288480758666992e-01,-5.541920661926269531e-01,1.075442314147949219e+00,1.434165716171264648e+00,2.270092487335205078e+00,-1.779646754264831543e+00,1.677294969558715820e+00
7.938022017478942871e-01,-5.575882792472839355e-01,1.077882766723632812e+00,1.439194560050964355e+00,2.270405530929565430e+00,-1.786857128143310547e+00,1.666821599006652832e+00
7.945241928100585938e-01,-5.609105229377746582e-01,1.080387592315673828e+00,1.444049119949340820e+00,2.271120071411132812e+00,-1.794027209281921387e+00,1.656332850456237793e+00
7.952192425727844238e-01,-5.642375946044921875e-01,1.082887530326843262e+00,1.448959231376647949e+00,2.272246360778808594e+00,-1.801286816596984863e+00,1.645836949348449707e+00
7.958796024322509766e-01,-5.676171183586120605e-01,1.085365653038024902e+00,1.454046607017517090e+00,2.273767232894897461e+00,-1.808444380760192871e+00,1.635318756103515625e+00
7.965533137321472168e-01,-5.710300207138061523e-01,1.087862968444824219e+00,1.459118127822875977e+00,2.275673627853393555e+00,-1.815646290779113770e+00,1.624792098999023438e+00
7.972522974014282227e-01,-5.744469761848449707e-01,1.090438127517700195e+00,1.464139938354492188e+00,2.277864694595336914e+00,-1.822842359542846680e+00,1.614255070686340332e+00
7.979661822319030762e-01,-5.778454542160034180e-01,1.093097805976867676e+00,1.469220519065856934e+00,2.280191421508789062e+00,-1.829954028129577637e+00,1.603700399398803711e+00
7.986924648284912109e-01,-5.812215805053710938e-01,1.095795392990112305e+00,1.474359631538391113e+00,2.282539367675781250e+00,-1.837017297744750977e+00,1.593136310577392578e+00
7.994096279144287109e-01,-5.846207141876220703e-01,1.098499417304992676e+00,1.479460597038269043e+00,2.284905433654785156e+00,-1.843847990036010742e+00,1.582557678222656250e+00
8.001233339309692383e-01,-5.880467891693115234e-01,1.101191997528076172e+00,1.484491109848022461e+00,2.287277698516845703e+00,-1.850080490112304688e+00,1.571970105171203613e+00
8.008569478988647461e-01,-5.915402770042419434e-01,1.103855252265930176e+00,1.489650726318359375e+00,2.289709091186523438e+00,-1.855376243591308594e+00,1.561370134353637695e+00
8.016595244407653809e-01,-5.950706601142883301e-01,1.106539249420166016e+00,1.495038270950317383e+00,2.292156457901000977e+00,-1.859347462654113770e+00,1.550764918327331543e+00
8.025331497192382812e-01,-5.985467433929443359e-01,1.109299182891845703e+00,1.500344753265380859e+00,2.294659614562988281e+00,-1.861801266670227051e+00,1.540164113044738770e+00
8.034306168556213379e-01,-6.019778847694396973e-01,1.112125039100646973e+00,1.505519866943359375e+00,2.297204971313476562e+00,-1.862848043441772461e+00,1.529566764831542969e+00
8.043372631072998047e-01,-6.054394841194152832e-01,1.114959359169006348e+00,1.510817289352416992e+00,2.299801349639892578e+00,-1.862609505653381348e+00,1.518962979316711426e+00
8.052935600280761719e-01,-6.089472770690917969e-01,1.117801189422607422e+00,1.516273617744445801e+00,2.302444934844970703e+00,-1.861551284790039062e+00,1.508358716964721680e+00
8.063287734985351562e-01,-6.124930977821350098e-01,1.120708107948303223e+00,1.521685600280761719e+00,2.305123090744018555e+00,-1.860047221183776855e+00,1.497756361961364746e+00
8.073918819427490234e-01,-6.160023808479309082e-01,1.123654842376708984e+00,1.527105212211608887e+00,2.307852268218994141e+00,-1.858585715293884277e+00,1.487141370773315430e+00
8.084552288055419922e-01,-6.194698214530944824e-01,1.126567721366882324e+00,1.532591342926025391e+00,2.310612201690673828e+00,-1.857279896736145020e+00,1.476507425308227539e+00
8.095098137855529785e-01,-6.229359507560729980e-01,1.129435300827026367e+00,1.538076519966125488e+00,2.313433647155761719e+00,-1.856246948242187500e+00,1.465857625007629395e+00
8.106014728546142578e-01,-6.263796687126159668e-01,1.132324814796447754e+00,1.543509006500244141e+00,2.316293239593505859e+00,-1.855283737182617188e+00,1.455208063125610352e+00
8.117954134941101074e-01,-6.298460364341735840e-01,1.135272145271301270e+00,1.549021124839782715e+00,2.319174051284790039e+00,-1.854187369346618652e+00,1.444539070129394531e+00
8.131180405616760254e-01,-6.333835124969482422e-01,1.138285994529724121e+00,1.554773449897766113e+00,2.322098731994628906e+00,-1.852801561355590820e+00,1.433870196342468262e+00
8.145068287849426270e-01,-6.368973255157470703e-01,1.141357541084289551e+00,1.560506939888000488e+00,2.325037956237792969e+00,-1.851123690605163574e+00,1.423199772834777832e+00
8.158624172210693359e-01,-6.403330564498901367e-01,1.144432544708251953e+00,1.566087245941162109e+00,2.328027486801147461e+00,-1.849286317825317383e+00,1.412535309791564941e+00
8.171588182449340820e-01,-6.438166499137878418e-01,1.147467732429504395e+00,1.571737527847290039e+00,2.331064701080322266e+00,-1.847327589988708496e+00,1.401856899261474609e+00
8.184373378753662109e-01,-6.473690271377563477e-01,1.150483250617980957e+00,1.577481150627136230e+00,2.334147930145263672e+00,-1.845288991928100586e+00,1.391169786453247070e+00
8.197562694549560547e-01,-6.509550809860229492e-01,1.153574824333190918e+00,1.583156228065490723e+00,2.337263345718383789e+00,-1.843126773834228516e+00,1.380477190017700195e+00
8.211212158203125000e-01,-6.545479297637939453e-01,1.156751513481140137e+00,1.588895082473754883e+00,2.340423345565795898e+00,-1.840840935707092285e+00,1.369775891304016113e+00
8.225051164627075195e-01,-6.581190824508666992e-01,1.159941196441650391e+00,1.594741821289062500e+00,2.343607425689697266e+00,-1.838461041450500488e+00,1.359056353569030762e+00
8.238514661788940430e-01,-6.616662740707397461e-01,1.163105845451354980e+00,1.600441813468933105e+00,2.346844196319580078e+00,-1.835920453071594238e+00,1.348329663276672363e+00
8.251399397850036621e-01,-6.651926636695861816e-01,1.166244864463806152e+00,1.606083154678344727e+00,2.350110769271850586e+00,-1.833292245864868164e+00,1.337607622146606445e+00
8.264450430870056152e-01,-6.687602996826171875e-01,1.169363498687744141e+00,1.611873030662536621e+00,2.353413343429565430e+00,-1.830511212348937988e+00,1.326868653297424316e+00
8.278402686119079590e-01,-6.723954677581787109e-01,1.172519326210021973e+00,1.617766022682189941e+00,2.356737613677978516e+00,-1.827616453170776367e+00,1.316127538681030273e+00
8.293024897575378418e-01,-6.759780645370483398e-01,1.175796270370483398e+00,1.623632550239562988e+00,2.360076427459716797e+00,-1.824603319168090820e+00,1.305381536483764648e+00
8.308030366897583008e-01,-6.795210242271423340e-01,1.179146647453308105e+00,1.629466056823730469e+00,2.363438606262207031e+00,-1.821486115455627441e+00,1.294631481170654297e+00
8.323220014572143555e-01,-6.831195354461669922e-01,1.182472586631774902e+00,1.635371327400207520e+00,2.366846084594726562e+00,-1.818246245384216309e+00,1.283873558044433594e+00
8.338462710380554199e-01,-6.867298483848571777e-01,1.185760021209716797e+00,1.641233563423156738e+00,2.370293140411376953e+00,-1.814894914627075195e+00,1.273109436035156250e+00
8.353914022445678711e-01,-6.903779506683349609e-01,1.189028501510620117e+00,1.647111654281616211e+00,2.373794078826904297e+00,-1.811463832855224609e+00,1.262338757514953613e+00
8.369989395141601562e-01,-6.940829753875732422e-01,1.192302227020263672e+00,1.653167366981506348e+00,2.377322912216186523e+00,-1.807911872863769531e+00,1.251568675041198730e+00
8.386809229850769043e-01,-6.977308988571166992e-01,1.195661902427673340e+00,1.659185767173767090e+00,2.380860567092895508e+00,-1.804298281669616699e+00,1.240782856941223145e+00
8.403797149658203125e-01,-7.012997865676879883e-01,1.199118852615356445e+00,1.665078282356262207e+00,2.384339332580566406e+00,-1.800567865371704102e+00,1.229993224143981934e+00
8.420491218566894531e-01,-7.048830389976501465e-01,1.202556133270263672e+00,1.671058177947998047e+00,2.387592077255249023e+00,-1.796816706657409668e+00,1.219206571578979492e+00
8.437022566795349121e-01,-7.085105776786804199e-01,1.205904126167297363e+00,1.677076458930969238e+00,2.390459060668945312e+00,-1.793151617050170898e+00,1.208414077758789062e+00
8.453372716903686523e-01,-7.121372222900390625e-01,1.209206581115722656e+00,1.683034777641296387e+00,2.392801761627197266e+00,-1.789956927299499512e+00,1.197616815567016602e+00
8.469806909561157227e-01,-7.157399654388427734e-01,1.212527275085449219e+00,1.689083456993103027e+00,2.394602298736572266e+00,-1.787637829780578613e+00,1.186808705329895020e+00
8.486922383308410645e-01,-7.193510532379150391e-01,1.215879321098327637e+00,1.695125818252563477e+00,2.395887374877929688e+00,-1.786423802375793457e+00,1.175981640815734863e+00
8.504704236984252930e-01,-7.229348421096801758e-01,1.219276547431945801e+00,1.701050162315368652e+00,2.396668672561645508e+00,-1.786323547363281250e+00,1.165128231048583984e+00
8.522906303405761719e-01,-7.265041470527648926e-01,1.222685933113098145e+00,1.707010030746459961e+00,2.396989345550537109e+00,-1.787167787551879883e+00,1.154249668121337891e+00
8.541640639305114746e-01,-7.301847338676452637e-01,1.226020574569702148e+00,1.713070750236511230e+00,2.396976232528686523e+00,-1.788907051086425781e+00,1.143357872962951660e+00
8.560700416564941406e-01,-7.338827848434448242e-01,1.229286432266235352e+00,1.719102382659912109e+00,2.396828413009643555e+00,-1.791507959365844727e+00,1.132440686225891113e+00
8.579864501953125000e-01,-7.375118136405944824e-01,1.232586622238159180e+00,1.725057482719421387e+00,2.396690607070922852e+00,-1.794819355010986328e+00,1.121516108512878418e+00
8.599413037300109863e-01,-7.411835789680480957e-01,1.235973000526428223e+00,1.730943441390991211e+00,2.396651744842529297e+00,-1.798457860946655273e+00,1.110580444335937500e+00
8.619329929351806641e-01,-7.448806166648864746e-01,1.239419579505920410e+00,1.736576318740844727e+00,2.396689653396606445e+00,-1.802118778228759766e+00,1.099645137786865234e+00
8.639020323753356934e-01,-7.485699653625488281e-01,1.242898344993591309e+00,1.741787672042846680e+00,2.396732568740844727e+00,-1.805711388587951660e+00,1.088703632354736328e+00
8.658438324928283691e-01,-7.523352503776550293e-01,1.246341228485107422e+00,1.746665239334106445e+00,2.396694183349609375e+00,-1.809299945831298828e+00,1.077753543853759766e+00
8.678138852119445801e-01,-7.561791539192199707e-01,1.249758720397949219e+00,1.751099824905395508e+00,2.396596431732177734e+00,-1.813007235527038574e+00,1.066804051399230957e+00
8.698486089706420898e-01,-7.600432038307189941e-01,1.253243446350097656e+00,1.754771590232849121e+00,2.396465778350830078e+00,-1.816764473915100098e+00,1.055856347084045410e+00
8.719937801361083984e-01,-7.639683485031127930e-01,1.256814837455749512e+00,1.757603168487548828e+00,2.396318912506103516e+00,-1.820681214332580566e+00,1.044904112815856934e+00
8.743011951446533203e-01,-7.679902911186218262e-01,1.260383486747741699e+00,1.759690284729003906e+00,2.396141052246093750e+00,-1.824617028236389160e+00,1.033951640129089355e+00
8.767991065979003906e-01,-7.720825076103210449e-01,1.263884067535400391e+00,1.761060714721679688e+00,2.395930528640747070e+00,-1.828636407852172852e+00,1.022991418838500977e+00
8.794479370117187500e-01,-7.761682271957397461e-01,1.267305850982666016e+00,1.761681318283081055e+00,2.395690679550170898e+00,-1.832724690437316895e+00,1.012008666992187500e+00
8.821685910224914551e-01,-7.802966833114624023e-01,1.270645856857299805e+00,1.761537671089172363e+00,2.395436763763427734e+00,-1.836856722831726074e+00,1.001015186309814453e+00
8.849332928657531738e-01,-7.844648361206054688e-01,1.273925662040710449e+00,1.760872840881347656e+00,2.395173788070678711e+00,-1.841096997261047363e+00,9.900060892105102539e-01
8.877918720245361328e-01,-7.885985970497131348e-01,1.277113556861877441e+00,1.759827256202697754e+00,2.394871234893798828e+00,-1.845318078994750977e+00,9.789821505546569824e-01
8.907595872879028320e-01,-7.926732897758483887e-01,1.280056357383728027e+00,1.758471965789794922e+00,2.394525527954101562e+00,-1.849632978439331055e+00,9.679375886917114258e-01
8.937963843345642090e-01,-7.966302633285522461e-01,1.282607078552246094e+00,1.757055044174194336e+00,2.394124984741210938e+00,-1.854017972946166992e+00,9.568805694580078125e-01
8.968815803527832031e-01,-8.004748225212097168e-01,1.284633040428161621e+00,1.755699634552001953e+00,2.393681287765502930e+00,-1.858432531356811523e+00,9.458231925964355469e-01
8.999816775321960449e-01,-8.041512966156005859e-01,1.285995244979858398e+00,1.754579424858093262e+00,2.393176555633544922e+00,-1.862880349159240723e+00,9.347524642944335938e-01
9.030807614326477051e-01,-8.076090812683105469e-01,1.286617875099182129e+00,1.753846883773803711e+00,2.392589330673217773e+00,-1.867339730262756348e+00,9.236814975738525391e-01
9.062101840972900391e-01,-8.108010888099670410e-01,1.286529779434204102e+00,1.753540992736816406e+00,2.391913890838623047e+00,-1.871897339820861816e+00,9.125926494598388672e-01
9.094249010086059570e-01,-8.136670589447021484e-01,1.285938143730163574e+00,1.753765344619750977e+00,2.391137361526489258e+00,-1.876510739326477051e+00,9.014986753463745117e-01
9.127009510993957520e-01,-8.161854147911071777e-01,1.284924149513244629e+00,1.754611492156982422e+00,2.390279769897460938e+00,-1.881194949150085449e+00,8.903983831405639648e-01
9.159511327743530273e-01,-8.183949589729309082e-01,1.283503174781799316e+00,1.756061077117919922e+00,2.389343261718750000e+00,-1.885913133621215820e+00,8.792869448661804199e-01
9.190876483917236328e-01,-8.203434944152832031e-01,1.281769990921020508e+00,1.758166193962097168e+00,2.388341426849365234e+00,-1.890714049339294434e+00,8.681652545928955078e-01
9.220576882362365723e-01,-8.221628665924072266e-01,1.279827594757080078e+00,1.760887384414672852e+00,2.387302637100219727e+00,-1.895618796348571777e+00,8.570296764373779297e-01
9.248396158218383789e-01,-8.240262866020202637e-01,1.277793645858764648e+00,1.764210700988769531e+00,2.386236190795898438e+00,-1.900571584701538086e+00,8.458864688873291016e-01
9.274838566780090332e-01,-8.260110616683959961e-01,1.275820970535278320e+00,1.768016219139099121e+00,2.385128736495971680e+00,-1.905569791793823242e+00,8.347236514091491699e-01
9.300472140312194824e-01,-8.281515836715698242e-01,1.273957729339599609e+00,1.772047162055969238e+00,2.383993864059448242e+00,-1.910596728324890137e+00,8.235653042793273926e-01
9.325540661811828613e-01,-8.305131793022155762e-01,1.272167563438415527e+00,1.776187539100646973e+00,2.382846355438232422e+00,-1.915693998336791992e+00,8.123968243598937988e-01
9.350417852401733398e-01,-8.331692814826965332e-01,1.270373582839965820e+00,1.780426144599914551e+00,2.381667852401733398e+00,-1.920823574066162109e+00,8.012288212776184082e-01
9.375763535499572754e-01,-8.361600637435913086e-01,1.268440961837768555e+00,1.784631133079528809e+00,2.380491256713867188e+00,-1.925906777381896973e+00,7.900618314743041992e-01
9.401999115943908691e-01,-8.394252657890319824e-01,1.266223788261413574e+00,1.788838267326354980e+00,2.379268884658813477e+00,-1.931091547012329102e+00,7.788907289505004883e-01
9.429416060447692871e-01,-8.428313136100769043e-01,1.263787150382995605e+00,1.793003082275390625e+00,2.378005743026733398e+00,-1.936240434646606445e+00,7.677206993103027344e-01
9.457890987396240234e-01,-8.462706804275512695e-01,1.261280059814453125e+00,1.797069311141967773e+00,2.376700639724731445e+00,-1.941504240036010742e+00,7.565447092056274414e-01
9.487040042877197266e-01,-8.495656847953796387e-01,1.258742213249206543e+00,1.801203727722167969e+00,2.375335931777954102e+00,-1.946724176406860352e+00,7.453725337982177734e-01
9.516374468803405762e-01,-8.525913953781127930e-01,1.256122231483459473e+00,1.805468797683715820e+00,2.373929500579833984e+00,-1.952059864997863770e+00,7.341911792755126953e-01
9.545406699180603027e-01,-8.554189205169677734e-01,1.253410100936889648e+00,1.809779286384582520e+00,2.372472286224365234e+00,-1.957412838935852051e+00,7.230041027069091797e-01
9.573860168457031250e-01,-8.581632971763610840e-01,1.250606894493103027e+00,1.813953995704650879e+00,2.370986700057983398e+00,-1.962789297103881836e+00,7.118154168128967285e-01
9.601453542709350586e-01,-8.608550429344177246e-01,1.247715115547180176e+00,1.817944288253784180e+00,2.369450569152832031e+00,-1.968221783638000488e+00,7.006181478500366211e-01
9.628529548645019531e-01,-8.636079430580139160e-01,1.244792103767395020e+00,1.821673989295959473e+00,2.367900133132934570e+00,-1.973718166351318359e+00,6.894171237945556641e-01
9.655870199203491211e-01,-8.665614128112792969e-01,1.242063641548156738e+00,1.825177311897277832e+00,2.366305828094482422e+00,-1.979305386543273926e+00,6.782130599021911621e-01
9.684161543846130371e-01,-8.696424365043640137e-01,1.239734053611755371e+00,1.828268885612487793e+00,2.364676713943481445e+00,-1.984871983528137207e+00,6.670089960098266602e-01
9.712842702865600586e-01,-8.727666139602661133e-01,1.237790226936340332e+00,1.830669999122619629e+00,2.363026618957519531e+00,-1.990543127059936523e+00,6.557963490486145020e-01
9.740838408470153809e-01,-8.759903311729431152e-01,1.236214399337768555e+00,1.832337617874145508e+00,2.361407041549682617e+00,-1.996272087097167969e+00,6.445597410202026367e-01
9.768237471580505371e-01,-8.794251680374145508e-01,1.235141158103942871e+00,1.833298206329345703e+00,2.359828948974609375e+00,-2.002049207687377930e+00,6.333142518997192383e-01
9.796071648597717285e-01,-8.830367922782897949e-01,1.234709382057189941e+00,1.833621740341186523e+00,2.358250617980957031e+00,-2.007817506790161133e+00,6.220526695251464844e-01
9.824680685997009277e-01,-8.868126869201660156e-01,1.234942197799682617e+00,1.833356976509094238e+00,2.356699228286743164e+00,-2.013546228408813477e+00,6.107779145240783691e-01
9.853848814964294434e-01,-8.907705545425415039e-01,1.235827803611755371e+00,1.832508563995361328e+00,2.355167388916015625e+00,-2.018918514251708984e+00,5.994895100593566895e-01
9.883478879928588867e-01,-8.947994112968444824e-01,1.237328767776489258e+00,1.831087231636047363e+00,2.353628396987915039e+00,-2.023823022842407227e+00,5.881966352462768555e-01
9.913513660430908203e-01,-8.988994359970092773e-01,1.239259243011474609e+00,1.829270482063293457e+00,2.352084398269653320e+00,-2.028324365615844727e+00,5.768954157829284668e-01
9.943743944168090820e-01,-9.030942916870117188e-01,1.241426706314086914e+00,1.827281713485717773e+00,2.350505828857421875e+00,-2.032453298568725586e+00,5.655869245529174805e-01
9.974128603935241699e-01,-9.072944521903991699e-01,1.243718028068542480e+00,1.825196266174316406e+00,2.348920345306396484e+00,-2.036227703094482422e+00,5.542749166488647461e-01
1.000438570976257324e+00,-9.113621711730957031e-01,1.245935440063476562e+00,1.823108553886413574e+00,2.347283601760864258e+00,-2.039588689804077148e+00,5.429483056068420410e-01
1.003361225128173828e+00,-9.151830077171325684e-01,1.247872352600097656e+00,1.821225523948669434e+00,2.345601558685302734e+00,-2.042647123336791992e+00,5.316218137741088867e-01
1.006190180778503418e+00,-9.188212752342224121e-01,1.249479413032531738e+00,1.819489002227783203e+00,2.343872785568237305e+00,-2.045415401458740234e+00,5.202803611755371094e-01
1.009044051170349121e+00,-9.222388267517089844e-01,1.250708818435668945e+00,1.817980051040649414e+00,2.342084646224975586e+00,-2.047961235046386719e+00,5.089408755302429199e-01
1.012050271034240723e+00,-9.254537224769592285e-01,1.251411318778991699e+00,1.817027688026428223e+00,2.340205907821655273e+00,-2.050170898437500000e+00,4.976018071174621582e-01
1.015239715576171875e+00,-9.285047054290771484e-01,1.251475572586059570e+00,1.816758036613464355e+00,2.338241100311279297e+00,-2.052103757858276367e+00,4.862720370292663574e-01
1.018492341041564941e+00,-9.313347935676574707e-01,1.250957727432250977e+00,1.817054629325866699e+00,2.336205244064331055e+00,-2.053593635559082031e+00,4.749581515789031982e-01
1.021644830703735352e+00,-9.339026808738708496e-01,1.249847173690795898e+00,1.817839980125427246e+00,2.334110736846923828e+00,-2.054342746734619141e+00,4.636658132076263428e-01
1.024618148803710938e+00,-9.362637996673583984e-01,1.248054265975952148e+00,1.819153666496276855e+00,2.331945419311523438e+00,-2.054169654846191406e+00,4.524461925029754639e-01
1.027499914169311523e+00,-9.384902119636535645e-01,1.245817661285400391e+00,1.821091771125793457e+00,2.329721450805664062e+00,-2.053080320358276367e+00,4.413006901741027832e-01
1.030407190322875977e+00,-9.407014250755310059e-01,1.243480920791625977e+00,1.823611378669738770e+00,2.327427864074707031e+00,-2.051072835922241211e+00,4.302474558353424072e-01
1.033293962478637695e+00,-9.430029392242431641e-01,1.241147994995117188e+00,1.826555252075195312e+00,2.325086832046508789e+00,-2.048431396484375000e+00,4.192708730697631836e-01
1.035980343818664551e+00,-9.453985691070556641e-01,1.238669872283935547e+00,1.829748272895812988e+00,2.322727918624877930e+00,-2.045514583587646484e+00,4.083637297153472900e-01
1.038401603698730469e+00,-9.478829503059387207e-01,1.236112236976623535e+00,1.832943320274353027e+00,2.320362329483032227e+00,-2.042692899703979492e+00,3.975177705287933350e-01
1.040646672248840332e+00,-9.504984617233276367e-01,1.233745217323303223e+00,1.835975766181945801e+00,2.317999601364135742e+00,-2.040164232254028320e+00,3.867208659648895264e-01
1.042867898941040039e+00,-9.532849192619323730e-01,1.231806874275207520e+00,1.838786125183105469e+00,2.315648317337036133e+00,-2.037858963012695312e+00,3.759649693965911865e-01
1.045193076133728027e+00,-9.562994241714477539e-01,1.230420708656311035e+00,1.841365456581115723e+00,2.313298702239990234e+00,-2.035665988922119141e+00,3.651809096336364746e-01
1.047668695449829102e+00,-9.595568180084228516e-01,1.229675769805908203e+00,1.843639373779296875e+00,2.310955762863159180e+00,-2.033367156982421875e+00,3.543490171432495117e-01
1.050269365310668945e+00,-9.630930423736572266e-01,1.229573249816894531e+00,1.845352649688720703e+00,2.308642387390136719e+00,-2.030850410461425781e+00,3.434428274631500244e-01
1.052922129631042480e+00,-9.668994545936584473e-01,1.230021953582763672e+00,1.846370577812194824e+00,2.306349754333496094e+00,-2.028187751770019531e+00,3.324724733829498291e-01
1.055578112602233887e+00,-9.708737134933471680e-01,1.230954647064208984e+00,1.846633076667785645e+00,2.304082393646240234e+00,-2.025484800338745117e+00,3.214655816555023193e-01
1.058233976364135742e+00,-9.749742150306701660e-01,1.232302904129028320e+00,1.846104979515075684e+00,2.301824092864990234e+00,-2.023061752319335938e+00,3.104545772075653076e-01
1.060882687568664551e+00,-9.792981743812561035e-01,1.233926773071289062e+00,1.844871044158935547e+00,2.299558162689208984e+00,-2.021227598190307617e+00,2.994527518749237061e-01
1.063580393791198730e+00,-9.837554097175598145e-01,1.235756754875183105e+00,1.843048334121704102e+00,2.297289848327636719e+00,-2.020344972610473633e+00,2.884371578693389893e-01
1.066413760185241699e+00,-9.881767630577087402e-01,1.237726211547851562e+00,1.840727448463439941e+00,2.294970273971557617e+00,-2.020423650741577148e+00,2.773846983909606934e-01
1.069375157356262207e+00,-9.923954010009765625e-01,1.239723563194274902e+00,1.838064193725585938e+00,2.292610883712768555e+00,-2.021345138549804688e+00,2.662587463855743408e-01
1.072381615638732910e+00,-9.963755011558532715e-01,1.241730451583862305e+00,1.835201144218444824e+00,2.290208101272583008e+00,-2.022793531417846680e+00,2.550574541091918945e-01
1.075390219688415527e+00,-1.000143408775329590e+00,1.243685126304626465e+00,1.832323312759399414e+00,2.287772417068481445e+00,-2.024483203887939453e+00,2.437998205423355103e-01
1.078387260437011719e+00,-1.003661155700683594e+00,1.245605468750000000e+00,1.829608321189880371e+00,2.285302162170410156e+00,-2.026106595993041992e+00,2.325036674737930298e-01
1.081329703330993652e+00,-1.006929874420166016e+00,1.247621297836303711e+00,1.827054142951965332e+00,2.282803773880004883e+00,-2.027571916580200195e+00,2.211761176586151123e-01
1.084159612655639648e+00,-1.010051608085632324e+00,1.249839901924133301e+00,1.824590206146240234e+00,2.280272722244262695e+00,-2.028933763504028320e+00,2.098268866539001465e-01
1.086856842041015625e+00,-1.013157844543457031e+00,1.252184391021728516e+00,1.822179555892944336e+00,2.277752637863159180e+00,-2.030170440673828125e+00,1.984815895557403564e-01
1.089480876922607422e+00,-1.016328811645507812e+00,1.254615902900695801e+00,1.819862008094787598e+00,2.275197982788085938e+00,-2.031331539154052734e+00,1.871324777603149414e-01
1.092131972312927246e+00,-1.019608616828918457e+00,1.257133841514587402e+00,1.817450404167175293e+00,2.272637605667114258e+00,-2.032360553741455078e+00,1.757849156856536865e-01
1.094869256019592285e+00,-1.023088812828063965e+00,1.259717702865600586e+00,1.814940333366394043e+00,2.270053148269653320e+00,-2.033298015594482422e+00,1.644445955753326416e-01
1.097720742225646973e+00,-1.026705980300903320e+00,1.262325406074523926e+00,1.812313079833984375e+00,2.267438173294067383e+00,-2.034144163131713867e+00,1.531244814395904541e-01
1.100654125213623047e+00,-1.030255794525146484e+00,1.264908313751220703e+00,1.809434533119201660e+00,2.264824628829956055e+00,-2.034867048263549805e+00,1.418085545301437378e-01
1.103632688522338867e+00,-1.033709645271301270e+00,1.267502784729003906e+00,1.806301116943359375e+00,2.262171983718872070e+00,-2.035523653030395508e+00,1.304940730333328247e-01
1.106694221496582031e+00,-1.037194848060607910e+00,1.270218849182128906e+00,1.802992582321166992e+00,2.259524822235107422e+00,-2.036062240600585938e+00,1.191969588398933411e-01
1.109905004501342773e+00,-1.040686249732971191e+00,1.273115754127502441e+00,1.799546837806701660e+00,2.256830215454101562e+00,-2.036531448364257812e+00,1.079036816954612732e-01
1.113240957260131836e+00,-1.044190287590026855e+00,1.276144623756408691e+00,1.796043992042541504e+00,2.254114866256713867e+00,-2.036921024322509766e+00,9.661730378866195679e-02
1.116559624671936035e+00,-1.047711610794067383e+00,1.279197692871093750e+00,1.792535305023193359e+00,2.251371622085571289e+00,-2.037219524383544922e+00,8.532834053039550781e-02
1.119689345359802246e+00,-1.051194429397583008e+00,1.282183527946472168e+00,1.788873195648193359e+00,2.248599767684936523e+00,-2.037463665008544922e+00,7.404255867004394531e-02
1.122579455375671387e+00,-1.054689168930053711e+00,1.285109519958496094e+00,1.784993767738342285e+00,2.245840072631835938e+00,-2.037630558013916016e+00,6.274946033954620361e-02
1.125337958335876465e+00,-1.058276414871215820e+00,1.288089871406555176e+00,1.780925512313842773e+00,2.243042945861816406e+00,-2.037777423858642578e+00,5.145522952079772949e-02
1.128104925155639648e+00,-1.061930894851684570e+00,1.291244387626647949e+00,1.776805162429809570e+00,2.240232706069946289e+00,-2.037879467010498047e+00,4.017064347863197327e-02
1.130936026573181152e+00,-1.065618276596069336e+00,1.294522285461425781e+00,1.772745251655578613e+00,2.237376451492309570e+00,-2.037941455841064453e+00,2.888995222747325897e-02
1.133779644966125488e+00,-1.069284915924072266e+00,1.297804474830627441e+00,1.768664002418518066e+00,2.234494686126708984e+00,-2.037990093231201172e+00,1.760770194232463837e-02
1.136524796485900879e+00,-1.072901844978332520e+00,1.301009893417358398e+00,1.764408111572265625e+00,2.231605768203735352e+00,-2.038000583648681641e+00,6.333782803267240524e-03
1.139139890670776367e+00,-1.076550960540771484e+00,1.304069876670837402e+00,1.759886980056762695e+00,2.228705883026123047e+00,-2.038000106811523438e+00,-4.934924189001321793e-03
1.141719818115234375e+00,-1.080222129821777344e+00,1.306997776031494141e+00,1.755266427993774414e+00,2.225802659988403320e+00,-2.037985801696777344e+00,-1.618451625108718872e-02
1.144441246986389160e+00,-1.083900094032287598e+00,1.309956192970275879e+00,1.750832319259643555e+00,2.222872972488403320e+00,-2.037974119186401367e+00,-2.739647775888442993e-02
1.147377729415893555e+00,-1.087546110153198242e+00,1.312974810600280762e+00,1.746469855308532715e+00,2.219897508621215820e+00,-2.037957906723022461e+00,-3.857206553220748901e-02
1.150419354438781738e+00,-1.091098546981811523e+00,1.315824747085571289e+00,1.741964817047119141e+00,2.216885089874267578e+00,-2.037948131561279297e+00,-4.971907287836074829e-02
1.153427720069885254e+00,-1.094639301300048828e+00,1.318185806274414062e+00,1.737237930297851562e+00,2.213841199874877930e+00,-2.037950992584228516e+00,-6.082785129547119141e-02
1.156382441520690918e+00,-1.098195195198059082e+00,1.319909334182739258e+00,1.732450842857360840e+00,2.210767745971679688e+00,-2.037955284118652344e+00,-7.180222868919372559e-02
1.159368515014648438e+00,-1.101730346679687500e+00,1.320951581001281738e+00,1.727586150169372559e+00,2.207636594772338867e+00,-2.037954330444335938e+00,-8.237680792808532715e-02
1.162475466728210449e+00,-1.105132102966308594e+00,1.321322083473205566e+00,1.722619056701660156e+00,2.204444646835327148e+00,-2.037925481796264648e+00,-9.211878478527069092e-02
1.165750384330749512e+00,-1.108264803886413574e+00,1.321131944656372070e+00,1.717595219612121582e+00,2.201168060302734375e+00,-2.037761926651000977e+00,-1.006007343530654907e-01
1.169185161590576172e+00,-1.111108064651489258e+00,1.320483088493347168e+00,1.712639808654785156e+00,2.197810649871826172e+00,-2.037158489227294922e+00,-1.074605062603950500e-01
1.172725677490234375e+00,-1.113694429397583008e+00,1.319339394569396973e+00,1.707744598388671875e+00,2.194378614425659180e+00,-2.035740375518798828e+00,-1.124978363513946533e-01
1.176262855529785156e+00,-1.116031289100646973e+00,1.317728042602539062e+00,1.702816843986511230e+00,2.190889120101928711e+00,-2.033363819122314453e+00,-1.156854033470153809e-01
1.179672598838806152e+00,-1.118199825286865234e+00,1.315831065177917480e+00,1.697783827781677246e+00,2.187358617782592773e+00,-2.030083656311035156e+00,-1.171826496720314026e-01
1.182928323745727539e+00,-1.120345234870910645e+00,1.313811540603637695e+00,1.692796468734741211e+00,2.183795213699340820e+00,-2.026109457015991211e+00,-1.173346117138862610e-01
1.186121344566345215e+00,-1.122507691383361816e+00,1.311829328536987305e+00,1.687893271446228027e+00,2.180206298828125000e+00,-2.021714210510253906e+00,-1.167332381010055542e-01
1.189344763755798340e+00,-1.124710679054260254e+00,1.310031890869140625e+00,1.682919144630432129e+00,2.176604032516479492e+00,-2.017174482345581055e+00,-1.159223318099975586e-01
1.192571997642517090e+00,-1.127056717872619629e+00,1.308392047882080078e+00,1.677804350852966309e+00,2.172986268997192383e+00,-2.012611865997314453e+00,-1.153615266084671021e-01
1.195739865303039551e+00,-1.129624128341674805e+00,1.306749224662780762e+00,1.672689080238342285e+00,2.169385671615600586e+00,-2.008034944534301758e+00,-1.153305470943450928e-01
1.198854446411132812e+00,-1.132427573204040527e+00,1.304941058158874512e+00,1.667539000511169434e+00,2.165783882141113281e+00,-2.003403425216674805e+00,-1.158923059701919556e-01
1.201997160911560059e+00,-1.135427951812744141e+00,1.302929043769836426e+00,1.662264943122863770e+00,2.162184715270996094e+00,-1.998660087585449219e+00,-1.169858723878860474e-01
1.205274224281311035e+00,-1.138541579246520996e+00,1.300829410552978516e+00,1.656922459602355957e+00,2.158564567565917969e+00,-1.993791222572326660e+00,-1.183804124593734741e-01
1.208762049674987793e+00,-1.141675829887390137e+00,1.298792839050292969e+00,1.651670336723327637e+00,2.154885292053222656e+00,-1.988865256309509277e+00,-1.196645796298980713e-01
1.212421178817749023e+00,-1.144674181938171387e+00,1.296742677688598633e+00,1.646413683891296387e+00,2.151156425476074219e+00,-1.983828902244567871e+00,-1.205704733729362488e-01
1.216051578521728516e+00,-1.147414803504943848e+00,1.294545412063598633e+00,1.641025900840759277e+00,2.147377490997314453e+00,-1.978718161582946777e+00,-1.210712343454360962e-01
1.219451904296875000e+00,-1.149968624114990234e+00,1.292161703109741211e+00,1.635505199432373047e+00,2.143566370010375977e+00,-1.973502278327941895e+00,-1.213084608316421509e-01
1.222653985023498535e+00,-1.152493238449096680e+00,1.289603114128112793e+00,1.629945278167724609e+00,2.139737844467163086e+00,-1.968266129493713379e+00,-1.215076968073844910e-01
1.225844740867614746e+00,-1.155021071434020996e+00,1.286978721618652344e+00,1.624407172203063965e+00,2.135885238647460938e+00,-1.962959408760070801e+00,-1.216974034905433655e-01
1.229127049446105957e+00,-1.157582402229309082e+00,1.284415125846862793e+00,1.618852972984313965e+00,2.131995677947998047e+00,-1.957614064216613770e+00,-1.218045428395271301e-01
1.232456564903259277e+00,-1.160265207290649414e+00,1.281864643096923828e+00,1.613378882408142090e+00,2.128083705902099609e+00,-1.952221035957336426e+00,-1.217469051480293274e-01
1.235760927200317383e+00,-1.163024663925170898e+00,1.279146313667297363e+00,1.607931256294250488e+00,2.124160289764404297e+00,-1.946782469749450684e+00,-1.215810999274253845e-01
1.238963484764099121e+00,-1.165769219398498535e+00,1.276190757751464844e+00,1.602311134338378906e+00,2.120229005813598633e+00,-1.941235184669494629e+00,-1.213334426283836365e-01
1.242042899131774902e+00,-1.168497681617736816e+00,1.273146033287048340e+00,1.596499443054199219e+00,2.116280555725097656e+00,-1.935567855834960938e+00,-1.210165843367576599e-01
1.245097517967224121e+00,-1.171277999877929688e+00,1.270120620727539062e+00,1.590739727020263672e+00,2.112324237823486328e+00,-1.929892778396606445e+00,-1.206130161881446838e-01
1.248245239257812500e+00,-1.174120306968688965e+00,1.267085790634155273e+00,1.585118651390075684e+00,2.108336210250854492e+00,-1.924150586128234863e+00,-1.200924217700958252e-01
1.251460194587707520e+00,-1.176936149597167969e+00,1.264062881469726562e+00,1.579597473144531250e+00,2.104322671890258789e+00,-1.918382883071899414e+00,-1.194605529308319092e-01
1.254630684852600098e+00,-1.179760217666625977e+00,1.261076092720031738e+00,1.574231624603271484e+00,2.100270509719848633e+00,-1.912544608116149902e+00,-1.187033280730247498e-01
1.257724642753601074e+00,-1.182606101036071777e+00,1.258018970489501953e+00,1.569009304046630859e+00,2.096225500106811523e+00,-1.906715631484985352e+00,-1.178097873926162720e-01
1.260783076286315918e+00,-1.185358524322509766e+00,1.254807710647583008e+00,1.563994288444519043e+00,2.092152595520019531e+00,-1.900795221328735352e+00,-1.168042495846748352e-01
1.263843059539794922e+00,-1.187972784042358398e+00,1.251553654670715332e+00,1.559356689453125000e+00,2.088071346282958984e+00,-1.894821047782897949e+00,-1.156737729907035828e-01
1.266935706138610840e+00,-1.190544724464416504e+00,1.248302340507507324e+00,1.555379986763000488e+00,2.083971738815307617e+00,-1.888927340507507324e+00,-1.144315525889396667e-01
1.270094633102416992e+00,-1.193084716796875000e+00,1.244987726211547852e+00,1.552181124687194824e+00,2.079852581024169922e+00,-1.883029699325561523e+00,-1.130732595920562744e-01
1.273245811462402344e+00,-1.195515036582946777e+00,1.241604685783386230e+00,1.549835085868835449e+00,2.075722217559814453e+00,-1.877247810363769531e+00,-1.116081848740577698e-01
1.276211261749267578e+00,-1.197914958000183105e+00,1.238207459449768066e+00,1.548217415809631348e+00,2.071588516235351562e+00,-1.871818184852600098e+00,-1.100277677178382874e-01
1.278857111930847168e+00,-1.200325369834899902e+00,1.234720706939697266e+00,1.547250866889953613e+00,2.067475080490112305e+00,-1.867219448089599609e+00,-1.083523109555244446e-01
1.281214833259582520e+00,-1.202659964561462402e+00,1.231097340583801270e+00,1.547025680541992188e+00,2.063378572463989258e+00,-1.863741517066955566e+00,-1.066024973988533020e-01
1.283444762229919434e+00,-1.204890370368957520e+00,1.227543711662292480e+00,1.547425985336303711e+00,2.059269905090332031e+00,-1.861583828926086426e+00,-1.047752052545547485e-01
1.285717606544494629e+00,-1.207050681114196777e+00,1.224439978599548340e+00,1.548262000083923340e+00,2.055145978927612305e+00,-1.860775351524353027e+00,-1.028442457318305969e-01
1.288052320480346680e+00,-1.209170937538146973e+00,1.221892714500427246e+00,1.549446105957031250e+00,2.051016092300415039e+00,-1.861120223999023438e+00,-1.008168160915374756e-01
1.290351986885070801e+00,-1.211394786834716797e+00,1.219706654548645020e+00,1.550801396369934082e+00,2.046884536743164062e+00,-1.862327694892883301e+00,-9.868979454040527344e-02
1.292507290840148926e+00,-1.213853597640991211e+00,1.217848896980285645e+00,1.552132129669189453e+00,2.042784690856933594e+00,-1.863968253135681152e+00,-9.644334763288497925e-02
1.294507145881652832e+00,-1.216660261154174805e+00,1.216560006141662598e+00,1.553244113922119141e+00,2.038723230361938477e+00,-1.865712404251098633e+00,-9.407712519168853760e-02
1.296448826789855957e+00,-1.219787001609802246e+00,1.216046690940856934e+00,1.553931593894958496e+00,2.034694194793701172e+00,-1.867260813713073730e+00,-9.159399569034576416e-02
1.298419713973999023e+00,-1.223150491714477539e+00,1.216251969337463379e+00,1.554162979125976562e+00,2.030685663223266602e+00,-1.868563413619995117e+00,-8.899018168449401855e-02
1.300473809242248535e+00,-1.226720213890075684e+00,1.217045664787292480e+00,1.553860068321228027e+00,2.026689767837524414e+00,-1.869639754295349121e+00,-8.627713471651077271e-02
1.302633166313171387e+00,-1.230515241622924805e+00,1.218361377716064453e+00,1.552877664566040039e+00,2.022692680358886719e+00,-1.870819449424743652e+00,-8.345664292573928833e-02
1.304929614067077637e+00,-1.234561562538146973e+00,1.220004677772521973e+00,1.551268935203552246e+00,2.018709182739257812e+00,-1.872172117233276367e+00,-8.054225891828536987e-02
1.307399153709411621e+00,-1.238770246505737305e+00,1.221812486648559570e+00,1.549086451530456543e+00,2.014702796936035156e+00,-1.873807191848754883e+00,-7.752037793397903442e-02
1.310030102729797363e+00,-1.243025064468383789e+00,1.223752260208129883e+00,1.546260952949523926e+00,2.010682821273803711e+00,-1.875604748725891113e+00,-7.439968734979629517e-02
1.312715888023376465e+00,-1.247172713279724121e+00,1.225714206695556641e+00,1.542735576629638672e+00,2.006627559661865234e+00,-1.877511858940124512e+00,-7.119894027709960938e-02
1.315362215042114258e+00,-1.251167893409729004e+00,1.227520704269409180e+00,1.538665056228637695e+00,2.002554893493652344e+00,-1.879497408866882324e+00,-6.791064888238906860e-02
1.318000078201293945e+00,-1.255047559738159180e+00,1.229161262512207031e+00,1.534300684928894043e+00,1.998452782630920410e+00,-1.881624221801757812e+00,-6.453924626111984253e-02
1.320776224136352539e+00,-1.258739113807678223e+00,1.230743169784545898e+00,1.529726743698120117e+00,1.994310140609741211e+00,-1.883825421333312988e+00,-6.107694283127784729e-02
1.323743462562561035e+00,-1.262175559997558594e+00,1.232403516769409180e+00,1.525022029876708984e+00,1.990124702453613281e+00,-1.886152386665344238e+00,-5.752595886588096619e-02
1.326802492141723633e+00,-1.265350580215454102e+00,1.234275937080383301e+00,1.520164012908935547e+00,1.985909581184387207e+00,-1.888544082641601562e+00,-5.389749258756637573e-02
1.329812407493591309e+00,-1.268358588218688965e+00,1.236327886581420898e+00,1.515287399291992188e+00,1.981681108474731445e+00,-1.891052126884460449e+00,-5.018622055649757385e-02
1.332697510719299316e+00,-1.271401524543762207e+00,1.238336086273193359e+00,1.510384440422058105e+00,1.977471947669982910e+00,-1.893636822700500488e+00,-4.641508311033248901e-02
1.335459351539611816e+00,-1.274603724479675293e+00,1.240247607231140137e+00,1.505368113517761230e+00,1.973275065422058105e+00,-1.896325707435607910e+00,-4.257162287831306458e-02
1.338190913200378418e+00,-1.278042793273925781e+00,1.242255449295043945e+00,1.500222444534301758e+00,1.969101548194885254e+00,-1.899052500724792480e+00,-3.865020349621772766e-02
1.341002821922302246e+00,-1.281688094139099121e+00,1.244456410408020020e+00,1.495164036750793457e+00,1.964911818504333496e+00,-1.901887774467468262e+00,-3.464435786008834839e-02
1.343970537185668945e+00,-1.285334110260009766e+00,1.246800899505615234e+00,1.490195989608764648e+00,1.960697293281555176e+00,-1.904757857322692871e+00,-3.057397529482841492e-02
1.347078323364257812e+00,-1.288861870765686035e+00,1.249271869659423828e+00,1.485169172286987305e+00,1.956463813781738281e+00,-1.907719969749450684e+00,-2.643414400517940521e-02
1.350239157676696777e+00,-1.292357087135314941e+00,1.251863360404968262e+00,1.480052947998046875e+00,1.952205777168273926e+00,-1.910765409469604492e+00,-2.220844663679599762e-02
1.353391647338867188e+00,-1.295796990394592285e+00,1.254491090774536133e+00,1.474987983703613281e+00,1.947943806648254395e+00,-1.913880705833435059e+00,-1.789418607950210571e-02
1.356531858444213867e+00,-1.299211382865905762e+00,1.257100224494934082e+00,1.469893455505371094e+00,1.943661212921142578e+00,-1.917075157165527344e+00,-1.350016985088586807e-02
1.359645605087280273e+00,-1.302615284919738770e+00,1.259803891181945801e+00,1.464703679084777832e+00,1.939376473426818848e+00,-1.920295834541320801e+00,-9.029034525156021118e-03
1.362743854522705078e+00,-1.305966377258300781e+00,1.262698769569396973e+00,1.459409117698669434e+00,1.935060024261474609e+00,-1.923619866371154785e+00,-4.483059048652648926e-03
1.365865826606750488e+00,-1.309305787086486816e+00,1.265690445899963379e+00,1.454133272171020508e+00,1.930728673934936523e+00,-1.926997900009155273e+00,1.287704944843426347e-04
1.369031190872192383e+00,-1.312708258628845215e+00,1.268633008003234863e+00,1.448868036270141602e+00,1.926390051841735840e+00,-1.930488467216491699e+00,4.826227203011512756e-03
1.372192502021789551e+00,-1.316158771514892578e+00,1.271568417549133301e+00,1.443504452705383301e+00,1.922027230262756348e+00,-1.934006094932556152e+00,9.586720727384090424e-03
1.375254392623901367e+00,-1.319678425788879395e+00,1.274560928344726562e+00,1.437981367111206055e+00,1.917670011520385742e+00,-1.937628269195556641e+00,1.440869364887475967e-02
1.378189682960510254e+00,-1.323229432106018066e+00,1.277570962905883789e+00,1.432369112968444824e+00,1.913297176361083984e+00,-1.941263437271118164e+00,1.930754445493221283e-02
1.381059169769287109e+00,-1.326731681823730469e+00,1.280586838722229004e+00,1.426650166511535645e+00,1.908919692039489746e+00,-1.944961190223693848e+00,2.428878843784332275e-02
1.383893966674804688e+00,-1.330239057540893555e+00,1.283670902252197266e+00,1.420880913734436035e+00,1.904519677162170410e+00,-1.948719859123229980e+00,2.932941354811191559e-02
1.386689305305480957e+00,-1.333796381950378418e+00,1.286693811416625977e+00,1.415236949920654297e+00,1.900105476379394531e+00,-1.952582836151123047e+00,3.443553298711776733e-02
1.389478325843811035e+00,-1.337411522865295410e+00,1.289371252059936523e+00,1.409581184387207031e+00,1.895675539970397949e+00,-1.956497550010681152e+00,3.960534557700157166e-02
1.392283201217651367e+00,-1.341019392013549805e+00,1.291557312011718750e+00,1.403784275054931641e+00,1.891227602958679199e+00,-1.960370779037475586e+00,4.486084729433059692e-02
1.395081162452697754e+00,-1.344453692436218262e+00,1.293302059173583984e+00,1.397985339164733887e+00,1.886741757392883301e+00,-1.964257359504699707e+00,5.018016695976257324e-02
1.397936344146728516e+00,-1.347695708274841309e+00,1.294530272483825684e+00,1.392179489135742188e+00,1.882222533226013184e+00,-1.968054652214050293e+00,5.557109043002128601e-02
1.400939822196960449e+00,-1.350828766822814941e+00,1.295072197914123535e+00,1.386495113372802734e+00,1.877677321434020996e+00,-1.971893072128295898e+00,6.104230880737304688e-02
1.404089212417602539e+00,-1.353791594505310059e+00,1.294912815093994141e+00,1.381309628486633301e+00,1.873086452484130859e+00,-1.975707769393920898e+00,6.657955795526504517e-02
1.407342910766601562e+00,-1.356545329093933105e+00,1.294149398803710938e+00,1.376687526702880859e+00,1.868460536003112793e+00,-1.979494929313659668e+00,7.217445224523544312e-02
1.410583138465881348e+00,-1.358983278274536133e+00,1.292785525321960449e+00,1.372530698776245117e+00,1.863807678222656250e+00,-1.983076095581054688e+00,7.783161103725433350e-02
1.413638830184936523e+00,-1.360976576805114746e+00,1.290938973426818848e+00,1.369014620780944824e+00,1.859145283699035645e+00,-1.986333370208740234e+00,8.354065567255020142e-02
1.416440963745117188e+00,-1.362577676773071289e+00,1.288842201232910156e+00,1.366198062896728516e+00,1.854479193687438965e+00,-1.989404559135437012e+00,8.930578827857971191e-02
