Afshin1997/kuka_rl_ros2/src/catch_and_throw/output_files/tm/nn_ema7.00_jvws1_realball_D01H10M11S57/recorded_data.csv
pure_target_joint_0,pure_target_joint_1,pure_target_joint_2,pure_target_joint_3,pure_target_joint_4,pure_target_joint_5,pure_target_joint_6,target_joint_0,target_joint_1,target_joint_2,target_joint_3,target_joint_4,target_joint_5,target_joint_6,pos_joint_0,pos_joint_1,pos_joint_2,pos_joint_3,pos_joint_4,pos_joint_5,pos_joint_6,vel_joint_0,vel_joint_1,vel_joint_2,vel_joint_3,vel_joint_4,vel_joint_5,vel_joint_6,vel_smooth_joint_0,vel_smooth_joint_1,vel_smooth_joint_2,vel_smooth_joint_3,vel_smooth_joint_4,vel_smooth_joint_5,vel_smooth_joint_6,ee_pos_x,ee_pos_y,ee_pos_z,ee_or_w,ee_or_x,ee_or_y,ee_or_z,eep_vel_x,eep_vel_y,eep_vel_z,ee_vel_offset_x,ee_vel_offset_y,ee_vel_offset_z,ball_pos_x,ball_pos_y,ball_pos_z,ball_raw_vx,ball_raw_vy,ball_raw_vz,ball_ema_vx,ball_ema_vy,ball_ema_vz,action_0,action_1,action_2,action_3,action_4,action_5,action_6,command_published
1.71451,-0.989351,-1.87049,-1.10177,1.99246,1.0645,-0.941536,1.71451,-0.989351,-1.87049,-1.10177,1.99246,1.0645,-0.941536,1.78082,-1.07176,-1.81836,-1.11984,1.93717,1.11684,-0.916285,0,3.5953e-05,0,0,0,0,3.5953e-05,0,3.5953e-05,0,0,0,0,3.5953e-05,0.544559,-0.455279,0.711779,0.572951,0.179244,0.151742,0.785222,-2.31996e-06,1.08832e-05,1.99333e-05,-2.78678e-06,1.30731e-05,2.00912e-05,2.97371,-0.485583,0.316622,-3.52283,0.025332,5.35386,-3.52283,0.0580384,5.35386,-0.66312,0.824123,-0.521296,0.180779,0.552833,-0.523371,-0.252515,1
1.71153,-0.990629,-1.87072,-1.12,1.99353,1.06934,-0.953734,1.71153,-0.990629,-1.87072,-1.12,1.99353,1.06934,-0.953734,1.78082,-1.07176,-1.81836,-1.11984,1.93717,1.11684,-0.916285,-1.1977e-05,1.1977e-05,4.79518e-05,3.5953e-05,0,0,0,-1.1977e-05,1.1977e-05,4.79518e-05,3.5953e-05,0,0,0,0.544558,-0.45528,0.711779,0.572951,0.179244,0.151742,0.785222,-1.41324e-05,-6.30984e-06,3.22991e-05,-1.79377e-05,-6.43284e-06,3.42514e-05,2.93952,-0.48542,0.369515,-3.41876,0.0162989,5.28932,-3.41876,0.0590186,5.28932,-0.692905,0.811339,-0.523518,-0.001579,0.563543,-0.474997,-0.374491,1
1.71254,-0.991193,-1.86839,-1.10382,1.99018,1.08639,-0.96241,1.71254,-0.991193,-1.86839,-1.10382,1.99018,1.08639,-0.96241,1.78078,-1.07171,-1.81841,-1.1198,1.93727,1.11671,-0.916409,-0.00751393,0.00781353,-0.0165379,0.00480557,0.0184457,-0.0260531,-0.0248308,-0.00751393,0.00781353,-0.0165379,0.00480557,0.0184457,-0.0260531,-0.0248308,0.544546,-0.455336,0.711796,0.573039,0.1793,0.151749,0.785143,-0.001776,-0.00941649,-0.00140383,9.34123e-05,-0.0110494,-0.0023007,2.90545,-0.485412,0.421053,-3.40734,0.000789762,5.15377,-3.40734,0.0489703,5.15377,-0.682403,0.805146,-0.499766,0.159719,0.529185,-0.303199,-0.460003,1
1.71266,-0.992023,-1.87195,-1.13327,1.99617,1.08976,-0.95253,1.71266,-0.992023,-1.87195,-1.13327,1.99617,1.08976,-0.95253,1.78023,-1.07157,-1.82059,-1.11876,1.94031,1.11356,-0.918728,-0.0679522,0.0198224,-0.301099,0.131614,0.444655,-0.442253,-0.305414,-0.0679522,0.0198224,-0.301099,0.131614,0.444655,-0.442253,-0.305414,0.544673,-0.457106,0.711139,0.574587,0.18158,0.15142,0.78355,-0.00766449,-0.199143,-0.0791565,0.0223653,-0.24064,-0.093323,2.87096,-0.485043,0.471838,-3.44853,0.0369251,5.07852,-3.44853,0.0377218,5.07852,-0.675695,0.795428,-0.513604,-0.145025,0.558612,-0.237912,-0.338014,1
1.71636,-0.989232,-1.85336,-1.14677,2.00849,1.06834,-0.952005,1.71636,-0.989232,-1.85336,-1.14677,2.00849,1.06834,-0.952005,1.7802,-1.07045,-1.8258,-1.11742,1.94934,1.10613,-0.923074,0.0240769,0.152395,-0.599358,0.107261,1.0426,-0.820892,-0.485829,0.0240769,0.152395,-0.599358,0.107261,1.0426,-0.820892,-0.485829,0.545579,-0.46022,0.70977,0.576816,0.187149,0.150262,0.78082,0.0610362,-0.239795,-0.126355,0.11642,-0.315451,-0.153896,2.83662,-0.484567,0.521315,-3.43406,0.0476032,4.9477,-3.43406,0.0281222,4.9477,-0.638449,0.812218,-0.275612,-0.293506,0.591418,-0.37788,-0.289312,1
1.7257,-0.984651,-1.8231,-1.16108,2.02521,1.04883,-0.946993,1.7257,-0.984651,-1.8231,-1.16108,2.02521,1.04883,-0.946993,1.78027,-1.06738,-1.83438,-1.11716,1.96249,1.09746,-0.929758,-0.019343,0.363479,-0.931593,0.0221953,1.37632,-0.8335,-0.726634,-0.019343,0.363479,-0.931593,0.0221953,1.37632,-0.8335,-0.726634,0.54685,-0.463595,0.707937,0.579824,0.194291,0.149366,0.77701,0.0404272,-0.26891,-0.142253,0.106781,-0.353218,-0.177432,2.80187,-0.484122,0.569838,-3.47559,0.0445336,4.85231,-3.47559,0.0269784,4.85231,-0.545635,0.827252,0.112831,-0.43915,0.627264,-0.48634,-0.17235,1
1.72691,-0.979816,-1.82567,-1.16818,2.04116,1.04751,-0.963331,1.72691,-0.979816,-1.82567,-1.16818,2.04116,1.04751,-0.963331,1.77939,-1.06262,-1.84474,-1.11824,1.97596,1.09119,-0.937623,-0.0982851,0.499395,-1.05349,-0.179217,1.31285,-0.570068,-0.779066,-0.0982851,0.499395,-1.05349,-0.179217,1.31285,-0.570068,-0.779066,0.547507,-0.466646,0.706225,0.583607,0.20052,0.149262,0.772603,0.00105268,-0.206019,-0.145359,0.063169,-0.272171,-0.17998,2.76717,-0.483735,0.617262,-3.46918,0.0386506,4.7424,-3.46918,0.0320941,4.7424,-0.524865,0.828052,0.190631,-0.499411,0.652004,-0.436882,-0.257085,1
1.73229,-0.974794,-1.84635,-1.16537,2.05263,1.06234,-0.980221,1.73229,-0.974794,-1.84635,-1.16537,2.05263,1.06234,-0.980221,1.77748,-1.0571,-1.85375,-1.12191,1.98803,1.08551,-0.944325,-0.240853,0.570691,-0.818279,-0.414017,1.17324,-0.589423,-0.625316,-0.240853,0.570691,-0.818279,-0.414017,1.17324,-0.589423,-0.625316,0.547924,-0.468535,0.70477,0.58637,0.206186,0.149816,0.768903,-0.0373002,-0.119197,-0.0859074,0.022077,-0.173413,-0.120247,2.73296,-0.483418,0.663404,-3.42159,0.0317246,4.61421,-3.42159,0.036723,4.61421,-0.451956,0.823033,0.0740656,-0.43458,0.645962,-0.231695,-0.358959,1
1.7213,-0.969786,-1.88882,-1.14507,2.05886,1.07873,-0.985889,1.7213,-0.969786,-1.88882,-1.14507,2.05886,1.07873,-0.985889,1.77335,-1.05153,-1.85894,-1.12793,1.99934,1.0778,-0.948677,-0.463717,0.538992,-0.407522,-0.678156,1.12493,-0.834506,-0.377524,-0.463717,0.538992,-0.407522,-0.678156,1.12493,-0.834506,-0.377524,0.54777,-0.470027,0.703921,0.587614,0.212262,0.149917,0.766276,-0.0838043,-0.0762347,-0.0446754,-0.0223185,-0.136332,-0.0816934,2.69885,-0.483078,0.70871,-3.41046,0.0340402,4.53064,-3.41046,0.0395943,4.53064,-0.520442,0.817459,-0.298767,-0.171347,0.5952,0.00926659,-0.372124,1
1.71003,-0.967003,-1.89064,-1.14437,2.06597,1.10124,-0.982478,1.71003,-0.967003,-1.89064,-1.14437,2.06597,1.10124,-0.982478,1.76751,-1.04694,-1.85937,-1.13628,2.0104,1.06775,-0.951641,-0.622248,0.431886,0.0734651,-0.885452,1.10518,-1.04873,-0.293417,-0.622248,0.431886,0.0734651,-0.885452,1.10518,-1.04873,-0.293417,0.547348,-0.471074,0.703416,0.587182,0.218952,0.148983,0.764906,-0.10759,-0.0253475,-0.00604959,-0.0500776,-0.0939382,-0.0424914,2.66459,-0.482767,0.753309,-3.42607,0.0310302,4.45983,-3.42607,0.0375364,4.45983,-0.574726,0.799409,-0.312699,-0.0809,0.555755,0.334964,-0.308375,1
1.69527,-0.962698,-1.8742,-1.14236,2.07776,1.08681,-0.985975,1.69527,-0.962698,-1.8742,-1.14236,2.07776,1.08681,-0.985975,1.76047,-1.0431,-1.85687,-1.14596,2.02152,1.05772,-0.955441,-0.724668,0.372958,0.276926,-0.983366,1.11882,-0.947832,-0.418967,-0.724668,0.372958,0.276926,-0.983366,1.11882,-0.947832,-0.418967,0.546458,-0.471912,0.703185,0.586449,0.2253,0.14725,0.76396,-0.150779,-0.0127603,0.00971469,-0.10529,-0.0826741,-0.0209953,2.62997,-0.482336,0.796893,-3.46255,0.0431031,4.35846,-3.46255,0.0359251,4.35846,-0.651982,0.804057,-0.173269,0.035989,0.562361,0.290891,-0.305349,1
1.68682,-0.956478,-1.83687,-1.1557,2.09201,1.07047,-0.997313,1.68682,-0.956478,-1.83687,-1.1557,2.09201,1.07047,-0.997313,1.75289,-1.03906,-1.85548,-1.15389,2.03315,1.05186,-0.961338,-0.762875,0.425379,0.070505,-0.695438,1.17809,-0.443631,-0.644588,-0.762875,0.425379,0.070505,-0.695438,1.17809,-0.443631,-0.644588,0.544368,-0.473625,0.70349,0.587689,0.229653,0.144961,0.762146,-0.265945,-0.14247,0.0688119,-0.249947,-0.209263,0.0552088,2.59586,-0.481987,0.839585,-3.41072,0.0349104,4.26922,-3.41072,0.0351873,4.26922,-0.660659,0.82579,0.186174,-0.0181508,0.588655,0.186071,-0.359748,1
1.68144,-0.952185,-1.82839,-1.15857,2.10493,1.08899,-1.01297,1.68144,-0.952185,-1.82839,-1.15857,2.10493,1.08899,-1.01297,1.7466,-1.03387,-1.85744,-1.15899,2.04457,1.05149,-0.968624,-0.564339,0.553925,-0.287401,-0.444901,1.12685,0.102923,-0.732722,-0.564339,0.553925,-0.287401,-0.444901,1.12685,0.102923,-0.732722,0.54164,-0.475596,0.704438,0.590954,0.231366,0.142993,0.759471,-0.266935,-0.137157,0.109154,-0.272444,-0.181833,0.109569,2.52697,-0.480941,0.92181,-3.46107,0.0471741,4.05641,-3.46107,0.0412102,4.05641,-0.65163,0.81688,0.290506,0.00419416,0.603626,0.374924,-0.443422,1
1.6809,-0.947879,-1.83679,-1.14582,2.1158,1.10211,-1.02551,1.6809,-0.947879,-1.83679,-1.14582,2.1158,1.10211,-1.02551,1.74205,-1.02686,-1.86305,-1.16142,2.05538,1.05518,-0.975456,-0.432354,0.747834,-0.646433,-0.179636,1.07264,0.423341,-0.664134,-0.432354,0.747834,-0.646433,-0.179636,1.07264,0.423341,-0.664134,0.538719,-0.477394,0.706125,0.595442,0.231003,0.141877,0.756278,-0.28482,-0.161575,0.177456,-0.300925,-0.1881,0.185362,2.52697,-0.480941,0.92181,-3.46107,0.0471741,4.05641,-3.46107,0.0412102,4.05641,-0.61156,0.78983,0.262586,0.156013,0.604214,0.469286,-0.500562,1
1.67916,-0.940179,-1.84083,-1.14039,2.12803,1.10755,-1.03742,1.67916,-0.940179,-1.84083,-1.14039,2.12803,1.10755,-1.03742,1.73798,-1.01829,-1.87001,-1.16332,2.06612,1.0588,-0.981966,-0.410314,0.895903,-0.667394,-0.191632,1.07926,0.313048,-0.655158,-0.410314,0.895903,-0.667394,-0.191632,1.07926,0.313048,-0.655158,0.535892,-0.478863,0.708312,0.600243,0.230402,0.141536,0.752723,-0.271512,-0.111083,0.241594,-0.281973,-0.131273,0.246424,2.49268,-0.480526,0.961172,-3.42839,0.0415921,3.93611,-3.42839,0.0436832,3.93611,-0.588153,0.781094,0.291804,0.229355,0.619116,0.48746,-0.554551,1
1.66997,-0.930974,-1.83263,-1.12989,2.13986,1.11114,-1.04844,1.66997,-0.930974,-1.83263,-1.12989,2.13986,1.11114,-1.04844,1.73259,-1.00896,-1.87398,-1.16584,2.07695,1.06146,-0.988614,-0.59299,0.919972,-0.28221,-0.273102,1.08368,0.279058,-0.676147,-0.59299,0.919972,-0.28221,-0.273102,1.08368,0.279058,-0.676147,0.532465,-0.479921,0.711789,0.604941,0.229268,0.140761,0.749446,-0.346877,-0.0817233,0.364242,-0.372224,-0.102694,0.377845,2.42502,-0.479891,1.03686,-3.38542,0.0410348,3.72806,-3.38542,0.0414193,3.72806,-0.626193,0.779844,0.413554,0.359453,0.629079,0.496778,-0.598247,1
1.66021,-0.923406,-1.82511,-1.12372,2.1506,1.11544,-1.05696,1.66021,-0.923406,-1.82511,-1.12372,2.1506,1.11544,-1.05696,1.72516,-1.00056,-1.87305,-1.16858,2.0876,1.06511,-0.996204,-0.789742,0.810582,0.209863,-0.246318,1.06088,0.400803,-0.791923,-0.789742,0.810582,0.209863,-0.246318,1.06088,0.400803,-0.791923,0.527747,-0.481036,0.716601,0.609847,0.2266,0.138353,0.746724,-0.453646,-0.0981592,0.487088,-0.509642,-0.12287,0.518141,2.39134,-0.479762,1.07337,-3.36764,0.0128299,3.65124,-3.36764,0.0370017,3.65124,-0.649467,0.771509,0.479335,0.448596,0.629989,0.503325,-0.607538,1
1.65157,-0.917448,-1.8145,-1.1171,2.16012,1.12228,-1.06475,1.65157,-0.917448,-1.8145,-1.1171,2.16012,1.12228,-1.06475,1.71677,-0.993374,-1.86831,-1.16979,2.09811,1.07028,-1.00519,-0.8334,0.683972,0.536078,-0.0675056,1.04675,0.557577,-0.935731,-0.8334,0.683972,0.536078,-0.0675056,1.04675,0.557577,-0.935731,0.521882,-0.482538,0.722719,0.615498,0.222127,0.134253,0.744176,-0.51686,-0.127901,0.58567,-0.602962,-0.155091,0.6327,2.35784,-0.47957,1.10893,-3.35026,0.0192195,3.55568,-3.35026,0.0304376,3.55568,-0.651982,0.759259,0.538045,0.526859,0.620063,0.520053,-0.595577,1
1.64471,-0.913325,-1.80862,-1.11057,2.16914,1.13093,-1.07374,1.64471,-0.913325,-1.80862,-1.11057,2.16914,1.13093,-1.07374,1.70918,-0.987258,-1.86272,-1.1686,2.10882,1.07688,-1.01543,-0.72576,0.597016,0.55125,0.194823,1.08137,0.690419,-1.05545,-0.72576,0.597016,0.55125,0.194823,1.08137,0.690419,-1.05545,0.515655,-0.484474,0.729354,0.621913,0.216495,0.129094,0.74141,-0.525083,-0.174877,0.620236,-0.629685,-0.204757,0.67528,2.32386,-0.479232,1.14343,-3.39785,0.0337958,3.45029,-3.39785,0.0270623,3.45029,-0.644796,0.739331,0.54099,0.580262,0.603276,0.540504,-0.58311,1
1.63818,-0.908649,-1.80318,-1.10335,2.17832,1.14044,-1.08281,1.63818,-0.908649,-1.80318,-1.10335,2.17832,1.14044,-1.08281,1.70285,-0.980916,-1.85665,-1.16465,2.12013,1.08458,-1.02683,-0.612751,0.653617,0.631183,0.455318,1.15079,0.790761,-1.16743,-0.612751,0.653617,0.631183,0.455318,1.15079,0.790761,-1.16743,0.509129,-0.486416,0.737158,0.629159,0.209469,0.123174,0.738315,-0.539061,-0.160907,0.751671,-0.665968,-0.18625,0.816136,2.28995,-0.479055,1.17693,-3.39148,0.0177085,3.34969,-3.39148,0.024534,3.34969,-0.646631,0.722665,0.534625,0.613081,0.581862,0.558652,-0.559852,1
1.62874,-0.901836,-1.79778,-1.09473,2.18945,1.14913,-1.09307,1.62874,-0.901836,-1.79778,-1.09473,2.18945,1.14913,-1.09307,1.69655,-0.974291,-1.85013,-1.1583,2.1322,1.09243,-1.03895,-0.641429,0.647325,0.649722,0.691246,1.22054,0.783894,-1.21927,-0.641429,0.647325,0.649722,0.691246,1.22054,0.783894,-1.21927,0.501895,-0.488904,0.745935,0.637293,0.201677,0.116458,0.734589,-0.606497,-0.242983,0.814157,-0.746693,-0.27464,0.881041,2.25615,-0.478895,1.20931,-3.37942,0.0160187,3.23794,-3.37942,0.0229266,3.23794,-0.678056,0.724547,0.523506,0.635757,0.572453,0.566971,-0.541271,1
1.62099,-0.89626,-1.79104,-1.08637,2.20197,1.15606,-1.10392,1.62099,-0.89626,-1.79104,-1.08637,2.20197,1.15606,-1.10392,1.6905,-0.968614,-1.84303,-1.15063,2.14459,1.10023,-1.05094,-0.583247,0.544575,0.735539,0.776177,1.23239,0.780982,-1.18848,-0.583247,0.544575,0.735539,0.776177,1.23239,0.780982,-1.18848,0.494371,-0.491857,0.754704,0.645382,0.193827,0.108858,0.730796,-0.600901,-0.247516,0.804388,-0.749592,-0.282586,0.870771,2.22237,-0.478746,1.24065,-3.37808,0.0148475,3.13454,-3.37808,0.0202946,3.13454,-0.695073,0.723539,0.519893,0.642545,0.573858,0.558361,-0.529795,1
1.61482,-0.890898,-1.78399,-1.07859,2.21384,1.16313,-1.11533,1.61482,-0.890898,-1.78399,-1.07859,2.21384,1.16313,-1.11533,1.68507,-0.963478,-1.83552,-1.14271,2.15633,1.10792,-1.06204,-0.544191,0.515897,0.746696,0.800132,1.15034,0.76611,-1.08501,-0.544191,0.515897,0.746696,0.800132,1.15034,0.76611,-1.08501,0.487043,-0.494476,0.763271,0.65278,0.185965,0.101158,0.727367,-0.590073,-0.225754,0.790802,-0.738932,-0.25546,0.853512,2.18862,-0.478646,1.27085,-3.37551,0.0100315,3.01933,-3.37551,0.0190476,3.01933,-0.702464,0.725794,0.51534,0.64124,0.575159,0.552068,-0.532853,1
1.60824,-0.885237,-1.77742,-1.06941,2.22299,1.17212,-1.12518,1.60824,-0.885237,-1.77742,-1.06941,2.22299,1.17212,-1.12518,1.67909,-0.957412,-1.82786,-1.13433,2.16726,1.11612,-1.0725,-0.615927,0.642627,0.779892,0.837798,1.07944,0.835006,-1.03658,-0.615927,0.642627,0.779892,0.837798,1.07944,0.835006,-1.03658,0.479131,-0.496773,0.772464,0.660313,0.177304,0.0937442,0.723714,-0.652393,-0.192996,0.875335,-0.809953,-0.208612,0.938848,2.15514,-0.47856,1.30001,-3.34795,0.00860393,2.91665,-3.34795,0.0161106,2.91665,-0.708504,0.721753,0.50438,0.649162,0.557345,0.559996,-0.526744,1
1.59992,-0.879441,-1.77229,-1.05997,2.23127,1.18225,-1.13411,1.59992,-0.879441,-1.77229,-1.05997,2.23127,1.18225,-1.13411,1.67253,-0.950643,-1.81984,-1.12595,2.17761,1.12503,-1.08245,-0.671197,0.680772,0.80773,0.843742,1.02028,0.906682,-0.977411,-0.671197,0.680772,0.80773,0.843742,1.02028,0.906682,-0.977411,0.470685,-0.498648,0.782091,0.667803,0.167907,0.0864657,0.719979,-0.697302,-0.1742,0.900837,-0.861532,-0.180804,0.963309,2.12179,-0.478545,1.32832,-3.33471,0.00146329,2.83124,-3.33471,0.0117822,2.83124,-0.726192,0.712029,0.475549,0.659756,0.536576,0.572124,-0.516587,1
1.59059,-0.872497,-1.767,-1.05002,2.24048,1.19202,-1.14206,1.59059,-0.872497,-1.767,-1.05002,2.24048,1.19202,-1.14206,1.66533,-0.943751,-1.81197,-1.11698,2.18764,1.13411,-1.09193,-0.734688,0.69616,0.775218,0.906861,1.00345,0.905543,-0.942825,-0.734688,0.69616,0.775218,0.906861,1.00345,0.905543,-0.942825,0.461649,-0.500732,0.791789,0.675452,0.158273,0.0791291,0.715859,-0.751282,-0.20365,0.906796,-0.918287,-0.207781,0.965769,2.08842,-0.478473,1.35577,-3.33719,0.00721216,2.74451,-3.33719,0.00939497,2.74451,-0.747421,0.712538,0.449678,0.669601,0.528384,0.579047,-0.50125,1
1.58241,-0.865033,-1.76004,-1.04014,2.25017,1.20107,-1.15079,1.58241,-0.865033,-1.76004,-1.04014,2.25017,1.20107,-1.15079,1.65796,-0.936403,-1.80431,-1.10763,2.1979,1.14324,-1.10175,-0.735395,0.745893,0.764804,0.94388,1.04318,0.915334,-1.00058,-0.735395,0.745893,0.764804,0.94388,1.04318,0.915334,-1.00058,0.452281,-0.502676,0.801647,0.683278,0.148434,0.0717704,0.7113,-0.774252,-0.182621,0.931297,-0.945749,-0.182821,0.987359,2.055,-0.478406,1.38231,-3.34222,0.0066787,2.65449,-3.34222,0.00754286,2.65449,-0.755497,0.713699,0.442645,0.674892,0.522666,0.57831,-0.49035,1
1.57348,-0.858548,-1.75489,-1.02928,2.25923,1.21083,-1.15908,1.57348,-0.858548,-1.75489,-1.02928,2.25923,1.21083,-1.15908,1.65053,-0.929166,-1.79675,-1.09767,2.20875,1.15275,-1.11221,-0.743317,0.713381,0.754917,1.02084,1.09399,0.960238,-1.05817,-0.743317,0.713381,0.754917,1.02084,1.09399,0.960238,-1.05817,0.442507,-0.50474,0.811473,0.691326,0.138395,0.0639473,0.706276,-0.812426,-0.206509,0.923779,-0.992295,-0.207931,0.977184,2.02166,-0.47832,1.4081,-3.33333,0.00865757,2.57856,-3.33333,0.00659046,2.57856,-0.770511,0.706182,0.418601,0.683894,0.504734,0.5808,-0.468704,1
1.56624,-0.852748,-1.74763,-1.01927,2.2697,1.22006,-1.16938,1.56624,-0.852748,-1.74763,-1.01927,2.2697,1.22006,-1.16938,1.64342,-0.922431,-1.78927,-1.08751,2.21975,1.16247,-1.12286,-0.697655,0.66562,0.739133,1.01601,1.09795,0.977937,-1.0629,-0.697655,0.66562,0.739133,1.01601,1.09795,0.977937,-1.0629,0.432705,-0.506753,0.820925,0.699153,0.128422,0.0558238,0.701125,-0.798861,-0.189881,0.882713,-0.979744,-0.190327,0.931265,1.98825,-0.478139,1.4327,-3.3411,0.0180811,2.46016,-3.3411,0.00764302,2.46016,-0.771886,0.696831,0.416441,0.682411,0.499511,0.575926,-0.465256,1
1.5579,-0.845852,-1.74241,-1.00794,2.28026,1.22968,-1.17853,1.5579,-0.845852,-1.74241,-1.00794,2.28026,1.22968,-1.17853,1.63629,-0.915501,-1.78211,-1.0767,2.23051,1.17249,-1.13321,-0.726717,0.704666,0.709064,1.10841,1.07535,1.00505,-1.02674,-0.726717,0.704666,0.709064,1.10841,1.07535,1.00505,-1.02674,0.422562,-0.508656,0.830434,0.706983,0.118117,0.0476891,0.695664,-0.848766,-0.19403,0.909195,-1.03514,-0.187308,0.954539,1.95491,-0.477772,1.45643,-3.33461,0.0367522,2.37256,-3.33461,0.0118975,2.37256,-0.783944,0.69649,0.396957,0.687535,0.497491,0.571945,-0.453248,1
1.55011,-0.839268,-1.73616,-0.99736,2.29095,1.23907,-1.18871,1.55011,-0.839268,-1.73616,-0.99736,2.29095,1.23907,-1.18871,1.6289,-0.908499,-1.7751,-1.0659,2.24091,1.18261,-1.1431,-0.732698,0.695953,0.702413,1.07406,1.0291,1.01606,-0.975552,-0.732698,0.695953,0.702413,1.07406,1.0291,1.01606,-0.975552,0.412201,-0.510364,0.839774,0.714596,0.107732,0.0396798,0.690052,-0.851128,-0.166736,0.882922,-1.03598,-0.154307,0.923183,1.92171,-0.477628,1.4792,-3.31973,0.014317,2.27778,-3.31973,0.0157919,2.27778,-0.787863,0.692316,0.389448,0.685414,0.500405,0.564636,-0.456109,1
1.54206,-0.832682,-1.73118,-0.986305,2.30034,1.24848,-1.19815,1.54206,-0.832682,-1.73118,-0.986305,2.30034,1.24848,-1.19815,1.62156,-0.901566,-1.76802,-1.05492,2.25096,1.19291,-1.15258,-0.746348,0.69871,0.703216,1.10808,1.00003,1.02689,-0.941061,-0.746348,0.69871,0.703216,1.10808,1.00003,1.02689,-0.941061,0.401702,-0.511804,0.849001,0.721903,0.09716,0.0316532,0.684407,-0.875917,-0.155453,0.882539,-1.06319,-0.137577,0.918487,1.88836,-0.477486,1.50109,-3.33446,0.0142634,2.18865,-3.33446,0.0180964,2.18865,-0.795025,0.688841,0.36839,0.686178,0.493749,0.555682,-0.455622,1
1.53346,-0.825881,-1.72617,-0.975237,2.30961,1.258,-1.20677,1.53346,-0.825881,-1.72617,-0.975237,2.30961,1.258,-1.20677,1.61355,-0.894404,-1.76144,-1.04383,2.26085,1.20315,-1.1619,-0.813473,0.719814,0.650172,1.11509,0.990535,1.02693,-0.926571,-0.813473,0.719814,0.650172,1.11509,0.990535,1.02693,-0.926571,0.390786,-0.513273,0.858067,0.729315,0.0866058,0.0238181,0.678256,-0.918719,-0.162581,0.869179,-1.10455,-0.140086,0.900081,1.85494,-0.477356,1.52195,-3.34189,0.0129759,2.08538,-3.34189,0.0190371,2.08538,-0.800839,0.685235,0.352714,0.685953,0.487594,0.548533,-0.448674,1
1.52543,-0.818386,-1.71943,-0.96506,2.31949,1.26677,-1.2172,1.52543,-0.818386,-1.71943,-0.96506,2.31949,1.26677,-1.2172,1.6055,-0.887192,-1.7548,-1.03287,2.2704,1.21321,-1.17074,-0.800051,0.719083,0.666423,1.07777,0.941408,0.993097,-0.870244,-0.800051,0.719083,0.666423,1.07777,0.941408,0.993097,-0.870244,0.379858,-0.514391,0.866976,0.736335,0.0760699,0.0161409,0.672134,-0.903501,-0.119889,0.851705,-1.08506,-0.0920752,0.87741,1.82163,-0.47753,1.54172,-3.33115,-0.0173658,1.97719,-3.33115,0.015081,1.97719,-0.800612,0.688058,0.353753,0.67814,0.490909,0.535594,-0.4646,1
1.51677,-0.811557,-1.71378,-0.954253,2.32793,1.27623,-1.22557,1.51677,-0.811557,-1.71378,-0.954253,2.32793,1.27623,-1.22557,1.59723,-0.879907,-1.74849,-1.0218,2.27983,1.22303,-1.17955,-0.845556,0.739253,0.614614,1.13055,0.950056,0.982815,-0.889875,-0.845556,0.739253,0.614614,1.13055,0.950056,0.982815,-0.889875,0.368778,-0.515395,0.875697,0.743292,0.0656312,0.00861189,0.665684,-0.946649,-0.130163,0.850256,-1.12833,-0.0984704,0.871371,1.78843,-0.47771,1.56041,-3.32,-0.0180602,1.86931,-3.32,0.00729529,1.86931,-0.804564,0.683498,0.347185,0.675448,0.480981,0.531958,-0.460241,1
1.50817,-0.805475,-1.7063,-0.944035,2.33782,1.28381,-1.2345,1.50817,-0.805475,-1.7063,-0.944035,2.33782,1.28381,-1.2345,1.58861,-0.872434,-1.74235,-1.01041,2.28959,1.23308,-1.18871,-0.854317,0.74195,0.621913,1.11293,0.982769,1.00659,-0.92294,-0.854317,0.74195,0.621913,1.11293,0.982769,1.00659,-0.92294,0.357287,-0.516298,0.884395,0.750349,0.0550068,0.000917304,0.658749,-0.95763,-0.104456,0.837737,-1.14137,-0.0700608,0.854203,1.75634,-0.477544,1.57809,-3.20886,0.016591,1.76823,-3.20886,0.00169288,1.76823,-0.804381,0.669595,0.360537,0.663765,0.482242,0.50733,-0.457829,1
1.49926,-0.799285,-1.70682,-0.931369,2.34473,1.29596,-1.24276,1.49926,-0.799285,-1.70682,-0.931369,2.34473,1.29596,-1.24276,1.58033,-0.865257,-1.73614,-0.999055,2.29954,1.24316,-1.19817,-0.834362,0.708669,0.611618,1.15786,0.999164,1.00876,-0.950624,-0.834362,0.708669,0.611618,1.15786,0.999164,1.00876,-0.950624,0.34589,-0.516972,0.892785,0.757095,0.044483,-0.00698611,0.651752,-0.967742,-0.104208,0.817216,-1.15358,-0.0689692,0.828767,1.72296,-0.477754,1.59503,-3.33823,-0.0209689,1.69358,-3.33823,-0.00302994,1.69358,-0.81072,0.659725,0.293184,0.676856,0.451899,0.528053,-0.445898,1
1.49032,-0.792871,-1.70407,-0.919599,2.35419,1.3049,-1.25187,1.49032,-0.792871,-1.70407,-0.919599,2.35419,1.3049,-1.25187,1.57159,-0.858239,-1.73044,-0.987337,2.3096,1.25311,-1.20776,-0.873827,0.705984,0.56821,1.16474,1.00231,0.986674,-0.958786,-0.873827,0.705984,0.56821,1.16474,1.00231,0.986674,-0.958786,0.334123,-0.517844,0.900877,0.763974,0.0341109,-0.0149279,0.644172,-0.992537,-0.107669,0.794497,-1.17527,-0.0699045,0.801073,1.68984,-0.477998,1.61084,-3.31239,-0.0243813,1.58136,-3.31239,-0.00838233,1.58136,-0.812659,0.653684,0.263774,0.677382,0.445983,0.517904,-0.44113,1
1.48228,-0.785093,-1.69764,-0.909444,2.36538,1.31072,-1.26326,1.48228,-0.785093,-1.69764,-0.909444,2.36538,1.31072,-1.26326,1.56336,-0.851038,-1.72442,-0.975958,2.31918,1.26269,-1.21694,-0.814912,0.720102,0.607028,1.12506,0.936979,0.950109,-0.903957,-0.814912,0.720102,0.607028,1.12506,0.936979,0.950109,-0.903957,0.322765,-0.517991,0.9089,0.770199,0.0237694,-0.0225812,0.63696,-0.948616,-0.037542,0.789952,-1.12617,0.00666994,0.792047,1.65689,-0.477579,1.62535,-3.29438,0.0418395,1.45104,-3.29438,-0.00589479,1.45104,-0.810862,0.65945,0.267776,0.665144,0.462006,0.480294,-0.463232,1
1.47284,-0.778511,-1.6964,-0.89774,2.37358,1.32143,-1.2707,1.47284,-0.778511,-1.6964,-0.89774,2.37358,1.32143,-1.2707,1.55463,-0.84418,-1.71903,-0.964624,2.32832,1.27206,-1.22585,-0.897053,0.683321,0.510253,1.14983,0.911188,0.937969,-0.893878,-0.897053,0.683321,0.510253,1.14983,0.911188,0.937969,-0.893878,0.311254,-0.518315,0.916421,0.776427,0.0137356,-0.0299476,0.629345,-0.996851,-0.0832199,0.742625,-1.16894,-0.0367169,0.740337,1.62351,-0.478028,1.6394,-3.33812,-0.0448674,1.40512,-3.33812,-0.00602614,1.40512,-0.817948,0.656689,0.226292,0.668841,0.452618,0.493667,-0.448517,1
1.46464,-0.773355,-1.69255,-0.886468,2.38118,1.32999,-1.28055,1.46464,-0.773355,-1.69255,-0.886468,2.38118,1.32999,-1.28055,1.54573,-0.836962,-1.71384,-0.95297,2.33734,1.28173,-1.23484,-0.873223,0.73041,0.530853,1.14556,0.897914,0.980371,-0.900977,-0.873223,0.73041,0.530853,1.14556,0.897914,0.980371,-0.900977,0.299485,-0.518266,0.924003,0.782624,0.00334946,-0.0372212,0.621372,-0.99109,-0.0184425,0.759052,-1.16499,0.0370653,0.752485,1.59023,-0.478205,1.6522,-3.32829,-0.0176817,1.27988,-3.32829,-0.00813231,1.27988,-0.810955,0.636067,0.212864,0.665013,0.438308,0.482673,-0.457078,1
1.45572,-0.767674,-1.68954,-0.875254,2.38909,1.33863,-1.28866,1.45572,-0.767674,-1.68954,-0.875254,2.38909,1.33863,-1.28866,1.537,-0.829778,-1.70895,-0.941471,2.34645,1.29158,-1.24401,-0.890791,0.713596,0.462892,1.17895,0.915037,0.973732,-0.921961,-0.890791,0.713596,0.462892,1.17895,0.915037,0.973732,-0.921961,0.287824,-0.517939,0.931298,0.788598,-0.00699635,-0.0444629,0.613259,-1.01224,-0.0312934,0.731062,-1.18367,0.0259611,0.720015,1.55713,-0.478263,1.66386,-3.30976,-0.00585318,1.16597,-3.30976,-0.0110339,1.16597,-0.812786,0.621044,0.194031,0.662171,0.42644,0.470527,-0.446546,1
1.44686,-0.760626,-1.68597,-0.864725,2.39972,1.34512,-1.29845,1.44686,-0.760626,-1.68597,-0.864725,2.39972,1.34512,-1.29845,1.52798,-0.822739,-1.7048,-0.929899,2.35553,1.30078,-1.25309,-0.886669,0.705303,0.411709,1.1379,0.899697,0.905735,-0.898473,-0.886669,0.705303,0.411709,1.1379,0.899697,0.905735,-0.898473,0.276134,-0.517743,0.938223,0.794571,-0.0168642,-0.051451,0.604752,-0.989417,-0.0170672,0.695609,-1.15067,0.0407505,0.681099,1.52421,-0.478113,1.67459,-3.29221,0.0150234,1.07315,-3.29221,-0.00797989,1.07315,-0.811233,0.621125,0.188276,0.651737,0.441908,0.44337,-0.453528,1
1.43818,-0.754051,-1.6839,-0.853301,2.40764,1.35251,-1.30747,1.43818,-0.754051,-1.6839,-0.853301,2.40764,1.35251,-1.30747,1.51931,-0.815395,-1.70061,-0.918325,2.36441,1.30985,-1.26209,-0.880868,0.735994,0.40628,1.17208,0.88942,0.909354,-0.902308,-0.880868,0.735994,0.40628,1.17208,0.88942,0.909354,-0.902308,0.264663,-0.516969,0.945168,0.800176,-0.0268312,-0.0582442,0.596327,-0.998475,0.0189538,0.707167,-1.15952,0.0834269,0.688559,1.49128,-0.477964,1.68435,-3.29351,0.0149667,0.976002,-3.29351,-0.00428611,0.976002,-0.811255,0.613444,0.167145,0.650243,0.432277,0.42657,-0.453758,1
1.42928,-0.747993,-1.6831,-0.842424,2.41639,1.36025,-1.3164,1.42928,-0.747993,-1.6831,-0.842424,2.41639,1.36025,-1.3164,1.51018,-0.808475,-1.69721,-0.906969,2.37306,1.31876,-1.27096,-0.905136,0.684104,0.335227,1.12558,0.856594,0.885278,-0.878687,-0.905136,0.684104,0.335227,1.12558,0.856594,0.885278,-0.878687,0.253139,-0.516415,0.951551,0.805802,-0.0363986,-0.0647714,0.587506,-0.990858,0.00258127,0.646069,-1.14238,0.0672402,0.624664,1.45838,-0.477779,1.69326,-3.2891,0.0184208,0.890505,-3.2891,-0.00135334,0.890505,-0.809006,0.604822,0.141154,0.64545,0.433207,0.414889,-0.454409,1
1.42084,-0.741098,-1.68186,-0.831123,2.42401,1.36554,-1.3257,1.42084,-0.741098,-1.68186,-0.831123,2.42401,1.36554,-1.3257,1.50141,-0.801294,-1.6936,-0.895538,2.3815,1.32762,-1.27979,-0.882007,0.72467,0.356511,1.13864,0.846009,0.878519,-0.888442,-0.882007,0.72467,0.356511,1.13864,0.846009,0.878519,-0.888442,0.2418,-0.515285,0.957991,0.811056,-0.046145,-0.0711931,0.578783,-0.981974,0.05678,0.663905,-1.13261,0.127524,0.638633,1.4255,-0.477676,1.70122,-3.28889,0.0103503,0.795865,-3.28889,0.00788516,0.795865,-0.80564,0.601961,0.117484,0.644149,0.425074,0.379148,-0.459118,1
1.41141,-0.734713,-1.68362,-0.819525,2.4325,1.37189,-1.33341,1.41141,-0.734713,-1.68362,-0.819525,2.4325,1.37189,-1.33341,1.49226,-0.794298,-1.69054,-0.883961,2.3903,1.33631,-1.28892,-0.917899,0.693715,0.301384,1.16863,0.888768,0.870263,-0.917503,-0.917899,0.693715,0.301384,1.16863,0.888768,0.870263,-0.917503,0.230244,-0.514294,0.964123,0.816376,-0.0556369,-0.0776848,0.569562,-1.01282,0.0342806,0.633741,-1.16189,0.104692,0.604689,1.3926,-0.477627,1.70817,-3.28939,0.0048995,0.694895,-3.28939,0.0115833,0.694895,-0.808504,0.595843,0.0691314,0.644358,0.421903,0.355736,-0.444955,1
1.40316,-0.726761,-1.68342,-0.809245,2.44272,1.3755,-1.34388,1.40316,-0.726761,-1.68342,-0.809245,2.44272,1.3755,-1.34388,1.48348,-0.787478,-1.68753,-0.872695,2.39897,1.34459,-1.29788,-0.866955,0.668021,0.28849,1.10107,0.855424,0.808737,-0.884607,-0.866955,0.668021,0.28849,1.10107,0.855424,0.808737,-0.884607,0.219092,-0.513069,0.969975,0.821288,-0.0647877,-0.0840279,0.56056,-0.954997,0.0599817,0.596024,-1.0941,0.128664,0.565189,1.35971,-0.477482,1.71408,-3.28928,0.014475,0.591612,-3.28928,0.0128733,0.591612,-0.803182,0.607169,0.0410869,0.634495,0.437507,0.309127,-0.459976,1
1.39395,-0.717901,-1.68561,-0.798481,2.45196,1.37844,-1.35319,1.39395,-0.717901,-1.68561,-0.798481,2.45196,1.37844,-1.35319,1.47449,-0.780791,-1.68546,-0.861297,2.40727,1.35218,-1.30645,-0.910541,0.678651,0.19299,1.16339,0.824668,0.741914,-0.849842,-0.910541,0.678651,0.19299,1.16339,0.824668,0.741914,-0.849842,0.208012,-0.511939,0.975526,0.826212,-0.0735197,-0.0898714,0.551264,-0.986937,0.0495877,0.589914,-1.11758,0.123398,0.557393,1.32675,-0.47734,1.71885,-3.29587,0.0142217,0.476336,-3.29587,0.0122694,0.476336,-0.805361,0.628906,-0.0015776,0.628166,0.446875,0.262611,-0.467361,1
1.38635,-0.710895,-1.68255,-0.790058,2.46087,1.37812,-1.36382,1.38635,-0.710895,-1.68255,-0.790058,2.46087,1.37812,-1.36382,1.46568,-0.773833,-1.68358,-0.850474,2.41521,1.35935,-1.31483,-0.865864,0.693679,0.178153,1.05364,0.78586,0.709761,-0.832393,-0.865864,0.693679,0.178153,1.05364,0.78586,0.709761,-0.832393,0.197418,-0.510326,0.980973,0.830808,-0.0820226,-0.0952132,0.542186,-0.915991,0.101354,0.564606,-1.03584,0.176188,0.531466,1.29412,-0.477482,1.72268,-3.26267,-0.0142217,0.383508,-3.26267,0.00898944,0.383508,-0.793291,0.629381,0.0103594,0.604161,0.456591,0.18769,-0.489951,1
1.37756,-0.704088,-1.68709,-0.780297,2.46748,1.38358,-1.37237,1.37756,-0.704088,-1.68709,-0.780297,2.46748,1.38358,-1.37237,1.45672,-0.767099,-1.68259,-0.839448,2.42303,1.36603,-1.32309,-0.914256,0.667854,0.0730661,1.12571,0.786761,0.659812,-0.827,-0.914256,0.667854,0.0730661,1.12571,0.786761,0.659812,-0.827,0.186837,-0.508868,0.986121,0.835467,-0.0901581,-0.100256,0.532743,-0.9595,0.0658908,0.542499,-1.07322,0.142802,0.507895,1.26165,-0.477746,1.72583,-3.24745,-0.026387,0.314891,-3.24745,0.0027664,0.314891,-0.791613,0.630107,-0.0450039,0.591508,0.444523,0.175504,-0.492765,1
1.37008,-0.698129,-1.69527,-0.773047,2.4737,1.38582,-1.38186,1.37008,-0.698129,-1.69527,-0.773047,2.4737,1.38582,-1.38186,1.44766,-0.760299,-1.68231,-0.828685,2.43103,1.37204,-1.33148,-0.88722,0.691642,0.0209,1.06725,0.807162,0.587261,-0.847098,-0.88722,0.691642,0.0209,1.06725,0.807162,0.587261,-0.847098,0.176481,-0.507357,0.991068,0.840095,-0.0978024,-0.104985,0.523118,-0.914394,0.0954365,0.528272,-1.01828,0.17052,0.493806,1.22901,-0.478069,1.728,-3.26411,-0.032258,0.216699,-3.26411,-0.00505841,0.216699,-0.775866,0.621703,-0.129634,0.556387,0.426761,0.137751,-0.503772,1
1.36177,-0.690555,-1.69757,-0.766337,2.48139,1.38217,-1.39046,1.36177,-0.690555,-1.69757,-0.766337,2.48139,1.38217,-1.39046,1.43883,-0.753261,-1.68223,-0.817905,2.43938,1.37723,-1.34016,-0.896879,0.694638,-0.00340345,1.07581,0.844015,0.496879,-0.877788,-0.896879,0.694638,-0.00340345,1.07581,0.844015,0.496879,-0.877788,0.166376,-0.505604,0.996052,0.84456,-0.10507,-0.109633,0.513478,-0.914405,0.100819,0.523949,-1.01285,0.173059,0.488787,1.19649,-0.478332,1.72911,-3.25148,-0.0263184,0.111532,-3.25148,-0.0131916,0.111532,-0.770609,0.627062,-0.153402,0.515675,0.420148,0.049436,-0.503031,1
1.35275,-0.683196,-1.70163,-0.761414,2.49034,1.37971,-1.39942,1.35275,-0.683196,-1.70163,-0.761414,2.49034,1.37971,-1.39942,1.42973,-0.74671,-1.68273,-0.807412,2.44809,1.38131,-1.34921,-0.900625,0.653672,-0.0622116,1.05061,0.876212,0.38559,-0.914659,-0.900625,0.653672,-0.0622116,1.05061,0.876212,0.38559,-0.914659,0.156395,-0.504254,1.00063,0.84911,-0.111424,-0.11419,0.503544,-0.899702,0.0764692,0.487608,-0.989011,0.141418,0.453721,1.1639,-0.47866,1.72928,-3.25885,-0.0328213,0.0166893,-3.25885,-0.0217989,0.0166893,-0.769776,0.635139,-0.189012,0.459979,0.422509,-0.0160376,-0.502107,1
1.34515,-0.676313,-1.70622,-0.759814,2.49564,1.37953,-1.40803,1.34515,-0.676313,-1.70622,-0.759814,2.49564,1.37953,-1.40803,1.42101,-0.739934,-1.68373,-0.797046,2.45673,1.38472,-1.35849,-0.875074,0.678156,-0.135485,1.01626,0.855503,0.328328,-0.932396,-0.875074,0.678156,-0.135485,1.01626,0.855503,0.328328,-0.932396,0.146848,-0.502625,1.0052,0.853545,-0.117431,-0.118402,0.493611,-0.861544,0.102198,0.478632,-0.940756,0.168388,0.446097,1.1317,-0.478718,1.72838,-3.22031,-0.00581443,-0.0898242,-3.22031,-0.0252717,-0.0898242,-0.758547,0.636207,-0.22494,0.372322,0.389127,-0.0518532,-0.495345,1
1.33722,-0.669245,-1.71353,-0.765148,2.49561,1.38508,-1.41571,1.33722,-0.669245,-1.71353,-0.765148,2.49561,1.38508,-1.41571,1.41212,-0.733156,-1.68615,-0.787007,2.46509,1.38751,-1.36786,-0.882289,0.689637,-0.258746,1.00785,0.825072,0.250572,-0.937513,-0.882289,0.689637,-0.258746,1.00785,0.825072,0.250572,-0.937513,0.137607,-0.501067,1.00949,0.858196,-0.122897,-0.121893,0.483258,-0.847263,0.102575,0.463145,-0.913697,0.170537,0.433233,1.09969,-0.478434,1.72683,-3.20107,0.0284404,-0.155127,-3.20107,-0.0192514,-0.155127,-0.74903,0.639104,-0.273757,0.218595,0.305247,-0.0243649,-0.478527,1
1.33005,-0.661722,-1.71734,-0.795205,2.4943,1.38901,-1.42485,1.33005,-0.661722,-1.71734,-0.795205,2.4943,1.38901,-1.42485,1.40356,-0.726172,-1.6891,-0.777583,2.473,1.38906,-1.37719,-0.860824,0.69376,-0.324936,0.907684,0.779492,0.114452,-0.929951,-0.860824,0.69376,-0.324936,0.907684,0.779492,0.114452,-0.929951,0.129092,-0.499284,1.01375,0.862732,-0.127667,-0.124666,0.473131,-0.77927,0.114269,0.438962,-0.828864,0.177144,0.414299,1.06706,-0.478581,1.72409,-3.26258,-0.0147402,-0.27405,-3.26258,-0.0129357,-0.27405,-0.735061,0.6445,-0.282439,-0.176223,0.21292,-0.000457279,-0.476519,1
1.32096,-0.654479,-1.71237,-0.809368,2.49403,1.38232,-1.43488,1.32096,-0.654479,-1.71237,-0.809368,2.49403,1.38232,-1.43488,1.39464,-0.719241,-1.69302,-0.768677,2.48076,1.3893,-1.38644,-0.894776,0.698074,-0.397575,0.880767,0.772589,0.00415863,-0.920831,-0.894776,0.698074,-0.397575,0.880767,0.772589,0.00415863,-0.920831,0.120901,-0.497679,1.01781,0.867413,-0.131588,-0.126765,0.462827,-0.772721,0.109835,0.428071,-0.81111,0.170205,0.406837,1.03484,-0.478533,1.72057,-3.22293,0.00481606,-0.352144,-3.22293,-0.00594854,-0.352144,-0.736777,0.647623,-0.193499,-0.406909,0.132732,-0.0697892,-0.4844,1
1.31165,-0.645939,-1.71435,-0.806991,2.50894,1.3798,-1.44865,1.31165,-0.645939,-1.71435,-0.806991,2.50894,1.3798,-1.44865,1.38587,-0.712231,-1.69714,-0.761235,2.48816,1.38926,-1.39553,-0.873288,0.696576,-0.427272,0.67649,0.717211,-0.00196546,-0.903166,-0.873288,0.696576,-0.427272,0.67649,0.717211,-0.00196546,-0.903166,0.113544,-0.495823,1.02164,0.871835,-0.135001,-0.128274,0.453018,-0.675559,0.135924,0.383287,-0.700677,0.192906,0.366652,1.00262,-0.478576,1.71597,-3.22139,-0.00434816,-0.4601,-3.22139,-0.00122498,-0.4601,-0.742199,0.662918,-0.172033,-0.45756,0.20784,-0.0945641,-0.531163,1
1.3034,-0.638346,-1.72483,-0.803602,2.52373,1.37822,-1.45924,1.3034,-0.638346,-1.72483,-0.803602,2.52373,1.37822,-1.45924,1.37699,-0.705453,-1.7022,-0.756609,2.49439,1.38948,-1.40439,-0.893434,0.67854,-0.523196,0.374468,0.579284,0.0343956,-0.881402,-0.893434,0.67854,-0.523196,0.374468,0.579284,0.0343956,-0.881402,0.107507,-0.493935,1.02475,0.876202,-0.137631,-0.128478,0.443645,-0.558643,0.142664,0.302049,-0.561261,0.199099,0.293345,0.970748,-0.478528,1.71026,-3.1873,0.004825,-0.570643,-3.1873,0.00206956,-0.570643,-0.735893,0.671065,-0.226276,-0.469932,0.293432,-0.112605,-0.548441,1
1.29477,-0.629882,-1.73011,-0.802011,2.53274,1.38773,-1.46899,1.29477,-0.629882,-1.73011,-0.802011,2.53274,1.38773,-1.46899,1.36789,-0.69804,-1.70704,-0.755813,2.49875,1.38992,-1.41314,-0.925708,0.760825,-0.461883,-0.02941,0.381223,0.036385,-0.876248,-0.925708,0.760825,-0.461883,-0.02941,0.381223,0.036385,-0.876248,0.103331,-0.491247,1.02753,0.880306,-0.139701,-0.126939,0.435237,-0.388718,0.23435,0.271764,-0.366405,0.292216,0.271615,0.938575,-0.478678,1.70364,-3.21731,-0.0149459,-0.661552,-3.21731,-0.000224475,-0.661552,-0.731126,0.681588,-0.230666,-0.461985,0.339873,-0.0218921,-0.558486,1
1.28367,-0.624256,-1.73298,-0.803663,2.53622,1.38642,-1.47669,1.28367,-0.624256,-1.73298,-0.803663,2.53622,1.38642,-1.47669,1.3574,-0.690683,-1.711,-0.758884,2.50165,1.38998,-1.42206,-1.09743,0.717717,-0.377117,-0.398593,0.27852,-0.00396686,-0.902003,-1.09743,0.717717,-0.377117,-0.398593,0.27852,-0.00396686,-0.902003,0.100366,-0.48845,1.02974,0.884387,-0.140725,-0.124082,0.427387,-0.32124,0.216919,0.19071,-0.279455,0.265045,0.198586,0.90671,-0.478625,1.69612,-3.18655,0.00526607,-0.752246,-3.18655,-0.0027218,-0.752246,-0.73732,0.664277,-0.219783,-0.447792,0.345625,-0.0356419,-0.546306,1
1.27118,-0.617154,-1.72763,-0.810949,2.54267,1.3739,-1.48524,1.27118,-0.617154,-1.72763,-0.810949,2.54267,1.3739,-1.48524,1.34553,-0.683567,-1.71401,-0.764584,2.50509,1.3898,-1.43155,-1.21153,0.716878,-0.28468,-0.615429,0.375068,-0.024796,-0.965557,-1.21153,0.716878,-0.28468,-0.615429,0.375068,-0.024796,-0.965557,0.0977709,-0.48594,1.03146,0.888408,-0.140793,-0.121181,0.419789,-0.296388,0.212677,0.154525,-0.252216,0.248596,0.164624,0.874904,-0.478516,1.68785,-3.18055,0.0108868,-0.827193,-3.18055,-0.000322397,-0.827193,-0.743509,0.664126,-0.136188,-0.463645,0.375752,-0.159011,-0.536888,1
1.25734,-0.610087,-1.73118,-0.815063,2.55111,1.36771,-1.49621,1.25734,-0.610087,-1.73118,-0.815063,2.55111,1.36771,-1.49621,1.33292,-0.676476,-1.71725,-0.771,2.51039,1.38981,-1.44165,-1.26972,0.700723,-0.345046,-0.646709,0.584557,0.0204935,-1.02296,-1.26972,0.700723,-0.345046,-0.646709,0.584557,0.0204935,-1.02296,0.0949161,-0.483802,1.03289,0.89245,-0.140404,-0.118917,0.41192,-0.332448,0.171273,0.121931,-0.295382,0.198429,0.130523,0.842933,-0.478334,1.67845,-3.19716,0.0182062,-0.93956,-3.19716,0.00221623,-0.93956,-0.755873,0.663896,-0.139302,-0.440633,0.407217,-0.220947,-0.545609,1
1.24642,-0.604293,-1.7469,-0.820991,2.5546,1.36934,-1.50666,1.24642,-0.604293,-1.7469,-0.820991,2.5546,1.36934,-1.50666,1.32093,-0.669379,-1.72117,-0.777485,2.51749,1.39037,-1.45208,-1.16607,0.71405,-0.407857,-0.648171,0.743443,0.0599226,-1.0445,-1.16607,0.71405,-0.407857,-0.648171,0.743443,0.0599226,-1.0445,0.0921493,-0.481896,1.03409,0.896292,-0.139833,-0.117399,0.404136,-0.29211,0.169412,0.109859,-0.262025,0.189268,0.116972,0.810707,-0.4785,1.66847,-3.22257,-0.016585,-0.998175,-3.22257,0.00278354,-0.998175,-0.745084,0.650859,-0.25736,-0.435056,0.371125,-0.210336,-0.545869,1
1.23718,-0.596559,-1.75537,-0.833575,2.55564,1.36806,-1.51605,1.23718,-0.596559,-1.75537,-0.833575,2.55564,1.36806,-1.51605,1.31027,-0.661904,-1.72527,-0.783665,2.52541,1.39048,-1.4624,-1.02656,0.758524,-0.392271,-0.618755,0.797824,-0.0177962,-1.02468,-1.02656,0.758524,-0.392271,-0.618755,0.797824,-0.0177962,-1.02468,0.0899535,-0.479821,1.03546,0.899779,-0.139059,-0.116157,0.396947,-0.222499,0.202491,0.136249,-0.194217,0.215853,0.143658,0.778648,-0.478424,1.65722,-3.20588,0.00762939,-1.12524,-3.20588,0.00342908,-1.12524,-0.730883,0.653454,-0.301059,-0.499104,0.3023,-0.224234,-0.536471,1
1.22672,-0.58722,-1.76056,-0.84177,2.55769,1.36611,-1.5268,1.22672,-0.58722,-1.76056,-0.84177,2.55769,1.36611,-1.5268,1.30083,-0.654275,-1.72876,-0.790153,2.53329,1.38937,-1.47238,-0.931944,0.753071,-0.35125,-0.65726,0.784479,-0.148206,-0.992235,-0.931944,0.753071,-0.35125,-0.65726,0.784479,-0.148206,-0.992235,0.0886716,-0.477626,1.03695,0.902857,-0.137679,-0.114842,0.390776,-0.146962,0.2046,0.132466,-0.113752,0.207191,0.143205,0.746298,-0.478837,1.64515,-3.23498,-0.041309,-1.20692,-3.23498,-0.000207871,-1.20692,-0.741083,0.670558,-0.31798,-0.516172,0.243983,-0.232545,-0.544154,1
1.21779,-0.579178,-1.76393,-0.852344,2.56709,1.36065,-1.5371,1.21779,-0.579178,-1.76393,-0.852344,2.56709,1.36065,-1.5371,1.292,-0.647041,-1.73198,-0.796391,2.54106,1.38703,-1.48216,-0.860903,0.724262,-0.313189,-0.614189,0.769178,-0.258074,-0.977243,-0.860903,0.724262,-0.313189,-0.614189,0.769178,-0.258074,-0.977243,0.0876954,-0.475765,1.03839,0.905816,-0.135661,-0.113566,0.384962,-0.11959,0.191779,0.135029,-0.085559,0.186854,0.147122,0.714269,-0.479043,1.6319,-3.20296,-0.0205904,-1.32477,-3.20296,-0.00708422,-1.32477,-0.742149,0.678624,-0.319522,-0.559529,0.260249,-0.263754,-0.549429,1
1.20909,-0.571459,-1.77121,-0.858926,2.57575,1.35922,-1.54724,1.20909,-0.571459,-1.77121,-0.858926,2.57575,1.35922,-1.54724,1.28382,-0.639745,-1.73581,-0.802376,2.54823,1.38406,-1.49193,-0.810307,0.726275,-0.420169,-0.605046,0.69227,-0.308071,-0.979544,-0.810307,0.726275,-0.420169,-0.605046,0.69227,-0.308071,-0.979544,0.0871394,-0.473948,1.03984,0.908855,-0.133398,-0.111816,0.379058,-0.0871592,0.177418,0.121454,-0.042849,0.172871,0.136575,0.682085,-0.479431,1.61777,-3.21837,-0.0388384,-1.4133,-3.21837,-0.0160661,-1.4133,-0.747253,0.682862,-0.354031,-0.565503,0.275148,-0.248466,-0.553029,1
1.20092,-0.56553,-1.78129,-0.86582,2.57692,1.3628,-1.55696,1.20092,-0.56553,-1.78129,-0.86582,2.57692,1.3628,-1.55696,1.27592,-0.632589,-1.741,-0.808823,2.55417,1.38093,-1.50173,-0.780443,0.713249,-0.540272,-0.66487,0.555691,-0.318186,-0.979173,-0.780443,0.713249,-0.540272,-0.66487,0.555691,-0.318186,-0.979173,0.0871231,-0.472384,1.04096,0.912191,-0.13079,-0.109065,0.372702,-0.0416912,0.155196,0.0830134,0.0175126,0.152482,0.102099,0.650002,-0.479587,1.60291,-3.20835,-0.0156045,-1.48612,-3.20835,-0.0222861,-1.48612,-0.749971,0.670591,-0.402983,-0.569971,0.227497,-0.181251,-0.552338,1
1.194,-0.561046,-1.78942,-0.875323,2.57147,1.36322,-1.56563,1.194,-0.561046,-1.78942,-0.875323,2.57147,1.36322,-1.56563,1.26832,-0.625357,-1.74691,-0.816076,2.55876,1.3776,-1.51159,-0.762922,0.728073,-0.61262,-0.754186,0.434739,-0.345989,-0.989419,-0.762922,0.728073,-0.61262,-0.754186,0.434739,-0.345989,-0.989419,0.087829,-0.470834,1.04183,0.91568,-0.127898,-0.105309,0.366171,0.0135702,0.152674,0.056064,0.087305,0.150462,0.0787857,0.618373,-0.480411,1.58636,-3.16291,-0.0824094,-1.65528,-3.16291,-0.03091,-1.65528,-0.743187,0.643112,-0.425103,-0.59247,0.127133,-0.143783,-0.540396,1
1.1855,-0.554784,-1.79497,-0.883432,2.57052,1.35669,-1.57592,1.1855,-0.554784,-1.79497,-0.883432,2.57052,1.35669,-1.57592,1.26025,-0.617984,-1.75344,-0.823989,2.56312,1.37411,-1.5216,-0.824448,0.739014,-0.659705,-0.813686,0.443483,-0.347918,-1.00441,-0.824448,0.739014,-0.659705,-0.813686,0.443483,-0.347918,-1.00441,0.0886675,-0.469446,1.04249,0.919347,-0.124709,-0.101053,0.359218,0.00478406,0.135499,0.0339569,0.0837265,0.131312,0.0575706,0.586767,-0.480971,1.56939,-3.16054,-0.0559986,-1.69631,-3.16054,-0.040485,-1.69631,-0.747511,0.631998,-0.415289,-0.594432,0.0740795,-0.174176,-0.543266,1
1.17731,-0.547598,-1.80146,-0.8935,2.57913,1.34556,-1.58624,1.17731,-0.547598,-1.80146,-0.8935,2.57913,1.34556,-1.58624,1.25189,-0.610442,-1.75996,-0.833023,2.56791,1.37095,-1.53171,-0.832717,0.758165,-0.644701,-0.938727,0.485379,-0.299803,-1.01243,-0.832717,0.758165,-0.644701,-0.938727,0.485379,-0.299803,-1.01243,0.0897523,-0.468123,1.04288,0.922921,-0.121277,-0.096743,0.35235,0.042123,0.140528,0.00533931,0.12187,0.132031,0.0288498,0.554881,-0.481351,1.55144,-3.18859,-0.0380337,-1.79569,-3.18859,-0.0442193,-1.79569,-0.745747,0.628433,-0.415034,-0.604772,0.112286,-0.253956,-0.545243,1
1.16882,-0.539865,-1.80811,-0.901145,2.58456,1.34888,-1.59678,1.16882,-0.539865,-1.80811,-0.901145,2.58456,1.34888,-1.59678,1.2434,-0.602516,-1.76672,-0.842458,2.57242,1.36862,-1.54183,-0.862245,0.804003,-0.69296,-0.939985,0.424021,-0.209024,-1.01006,-0.862245,0.804003,-0.69296,-0.939985,0.424021,-0.209024,-1.01006,0.0909563,-0.466554,1.04319,0.926449,-0.118229,-0.0921709,0.34528,0.0326277,0.161841,0.00736397,0.115397,0.16285,0.0290763,0.522785,-0.48133,1.53255,-3.2096,0.00211596,-1.88814,-3.2096,-0.0431716,-1.88814,-0.745839,0.626511,-0.41393,-0.586875,0.121382,-0.197449,-0.549482,1
1.1619,-0.539241,-1.81783,-0.909758,2.58155,1.35778,-1.60753,1.1619,-0.539241,-1.81783,-0.909758,2.58155,1.35778,-1.60753,1.23465,-0.594437,-1.77392,-0.851998,2.57522,1.36693,-1.55179,-0.87212,0.808306,-0.722189,-0.970616,0.228424,-0.1643,-0.991492,-0.87212,0.808306,-0.722189,-0.970616,0.228424,-0.1643,-0.991492,0.0922689,-0.464786,1.04339,0.930103,-0.11569,-0.0867334,0.33764,0.0514145,0.168605,-0.00969317,0.145526,0.178103,0.0122742,0.491161,-0.481316,1.51254,-3.16245,0.00147521,-2.0018,-3.16245,-0.0360017,-2.0018,-0.727499,0.551968,-0.439122,-0.577599,0.0632701,-0.0914869,-0.557437,1
1.15444,-0.539344,-1.82689,-0.921289,2.5675,1.3643,-1.6171,1.15444,-0.539344,-1.82689,-0.921289,2.5675,1.3643,-1.6171,1.22607,-0.586539,-1.78119,-0.861506,2.57656,1.36483,-1.56158,-0.862796,0.78544,-0.733909,-0.936905,0.11936,-0.232692,-0.978418,-0.862796,0.78544,-0.733909,-0.936905,0.11936,-0.232692,-0.978418,0.0938519,-0.463107,1.04347,0.933782,-0.113091,-0.080635,0.329788,0.0514288,0.149363,-0.0167539,0.152885,0.157814,0.00561993,0.45952,-0.481458,1.49166,-3.16406,-0.0142276,-2.08803,-3.16406,-0.0277869,-2.08803,-0.716367,0.471944,-0.456978,-0.59783,-0.0905963,-0.00538134,-0.555175,1
1.1449,-0.540824,-1.83686,-0.934039,2.55564,1.35651,-1.62642,1.1449,-0.540824,-1.83686,-0.934039,2.55564,1.35651,-1.62642,1.21725,-0.578758,-1.78869,-0.870873,2.57798,1.36177,-1.5714,-0.883984,0.77324,-0.747343,-0.949345,0.15165,-0.319948,-0.984589,-0.883984,0.77324,-0.747343,-0.949345,0.15165,-0.319948,-0.984589,0.0953024,-0.461815,1.04347,0.937512,-0.109991,-0.0744374,0.321609,0.0427663,0.117984,-0.0320405,0.147252,0.11738,-0.00916229,0.427772,-0.481405,1.46986,-3.17486,0.00531971,-2.17996,-3.17486,-0.0139927,-2.17996,-0.723493,0.37933,-0.48169,-0.631667,-0.22347,-0.0525983,-0.550292,1
1.13592,-0.535701,-1.84639,-0.945862,2.5598,1.35241,-1.63624,1.13592,-0.535701,-1.84639,-0.945862,2.5598,1.35241,-1.63624,1.20873,-0.571131,-1.79601,-0.880409,2.57987,1.35904,-1.58134,-0.840986,0.752029,-0.730673,-0.953982,0.192759,-0.241069,-0.997424,-0.840986,0.752029,-0.730673,-0.953982,0.192759,-0.241069,-0.997424,0.0967956,-0.460671,1.04327,0.941043,-0.106846,-0.0685937,0.313556,0.0480391,0.110712,-0.0496372,0.145562,0.108541,-0.0295209,0.395371,-0.482286,1.44681,-3.24002,-0.0881404,-2.30467,-3.24002,-0.0149235,-2.30467,-0.728077,0.354299,-0.503749,-0.654527,-0.200618,-0.0663089,-0.549034,1
1.12954,-0.534412,-1.85309,-0.955596,2.56473,1.36052,-1.64798,1.12954,-0.534412,-1.85309,-0.955596,2.56473,1.36052,-1.64798,1.20043,-0.56386,-1.80363,-0.890137,2.58085,1.35785,-1.59144,-0.823936,0.724956,-0.766015,-0.985751,0.0439305,-0.0722427,-1.01322,-0.823936,0.724956,-0.766015,-0.985751,0.0439305,-0.0722427,-1.01322,0.0982824,-0.459573,1.0427,0.944505,-0.104287,-0.0626317,0.305143,0.056159,0.107799,-0.0853233,0.156848,0.115752,-0.0677448,0.363915,-0.48154,1.42322,-3.14561,0.0745744,-2.35896,-3.14561,-0.00916794,-2.35896,-0.708827,0.294481,-0.494611,-0.654584,-0.161241,0.026705,-0.565387,1
1.12687,-0.542155,-1.86093,-0.962017,2.5614,1.39083,-1.66022,1.12687,-0.542155,-1.86093,-0.962017,2.5614,1.39083,-1.66022,1.19262,-0.556658,-1.81128,-0.900119,2.57922,1.35792,-1.60159,-0.770006,0.716567,-0.771851,-1.00052,-0.234954,0.00395488,-1.01421,-0.770006,0.716567,-0.771851,-1.00052,-0.234954,0.00395488,-1.01421,0.100292,-0.458102,1.04191,0.947888,-0.102566,-0.0557089,0.296454,0.101581,0.12754,-0.101707,0.214633,0.147262,-0.0856375,0.332142,-0.481327,1.39842,-3.17734,0.0213176,-2.47993,-3.17734,-0.004529,-2.47993,-0.657536,0.145038,-0.496411,-0.618987,-0.178202,0.329153,-0.586269,1
1.12328,-0.553505,-1.87067,-0.970115,2.55163,1.40273,-1.6703,1.12328,-0.553505,-1.87067,-0.970115,2.55163,1.40273,-1.6703,1.18482,-0.550085,-1.81942,-0.910341,2.5749,1.35781,-1.61166,-0.78809,0.6414,-0.830803,-1.03236,-0.484251,-0.0146211,-1.00445,-0.78809,0.6414,-0.830803,-1.03236,-0.484251,-0.0146211,-1.00445,0.102596,-0.456989,1.04068,0.951377,-0.100776,-0.0475942,0.287159,0.101526,0.0750878,-0.1552,0.231439,0.0953139,-0.138835,0.300554,-0.481452,1.37269,-3.15883,-0.0124991,-2.57272,-3.15883,-0.00101392,-2.57272,-0.615411,-0.0341929,-0.51249,-0.597734,-0.232663,0.449145,-0.586338,1
1.12107,-0.542751,-1.87624,-0.9845,2.54501,1.40375,-1.68011,1.12107,-0.542751,-1.87624,-0.9845,2.54501,1.40375,-1.68011,1.1769,-0.543519,-1.82771,-0.920611,2.56994,1.35791,-1.62166,-0.790439,0.666627,-0.819969,-1.02191,-0.475623,0.0330293,-0.998502,-0.790439,0.666627,-0.819969,-1.02191,-0.475623,0.0330293,-0.998502,0.104878,-0.455931,1.03931,0.954761,-0.0991454,-0.0391934,0.277608,0.0940275,0.0888361,-0.150284,0.221663,0.110814,-0.137088,0.268862,-0.481852,1.34606,-3.16911,-0.03995,-2.66341,-3.16911,-0.00113345,-2.66341,-0.558313,0.00768339,-0.485328,-0.638899,-0.249236,0.458374,-0.584456,1
1.11149,-0.545529,-1.87786,-0.993827,2.54814,1.40635,-1.69038,1.11149,-0.545529,-1.87786,-0.993827,2.54814,1.40635,-1.69038,1.1689,-0.537129,-1.83597,-0.931319,2.56617,1.35908,-1.63177,-0.806642,0.616867,-0.83501,-1.08618,-0.354397,0.161731,-1.01744,-0.806642,0.616867,-0.83501,-1.08618,-0.354397,0.161731,-1.01744,0.106874,-0.455106,1.03761,0.957902,-0.0975974,-0.0314876,0.268154,0.0661114,0.0475357,-0.201032,0.184122,0.0636061,-0.190243,0.237554,-0.482265,1.31837,-3.13087,-0.0413001,-2.76886,-3.13087,-0.00579602,-2.76886,-0.574027,-0.0839928,-0.418971,-0.625072,-0.180243,0.47275,-0.586125,1
1.10642,-0.550332,-1.88303,-1.00097,2.55225,1.4167,-1.70054,1.10642,-0.550332,-1.88303,-1.00097,2.55225,1.4167,-1.70054,1.16075,-0.531655,-1.84447,-0.941879,2.56295,1.3632,-1.6422,-0.812179,0.530015,-0.847917,-1.04814,-0.323448,0.506825,-1.05206,-0.812179,0.530015,-0.847917,-1.04814,-0.323448,0.506825,-1.05206,0.108005,-0.454612,1.03536,0.960864,-0.0970072,-0.0248069,0.25829,-0.00620345,0.0231666,-0.240315,0.093601,0.0513522,-0.235349,0.206557,-0.482445,1.28959,-3.09968,-0.0179917,-2.87822,-3.09968,-0.00874496,-2.87822,-0.54323,-0.186766,-0.38553,-0.590892,-0.107026,0.534978,-0.583376,1
1.10036,-0.549858,-1.90135,-1.00548,2.52191,1.43387,-1.70598,1.10036,-0.549858,-1.90135,-1.00548,2.52191,1.43387,-1.70598,1.1531,-0.526912,-1.85266,-0.952644,2.55911,1.37091,-1.65292,-0.745725,0.456215,-0.810549,-1.08884,-0.411501,0.844322,-1.0751,-0.745725,0.456215,-0.810549,-1.08884,-0.411501,0.844322,-1.0751,0.108905,-0.453913,1.03263,0.963482,-0.097877,-0.0187524,0.248539,0.0020275,0.0298701,-0.289029,0.091397,0.0721665,-0.289035,0.175362,-0.482891,1.26004,-3.11952,-0.0446051,-2.95526,-3.11952,-0.0253506,-2.95526,-0.527399,-0.22946,-0.486958,-0.528324,-0.372085,0.629582,-0.530575,1
1.09281,-0.538779,-1.91058,-1.01233,2.51003,1.44559,-1.71432,1.09281,-0.538779,-1.91058,-1.01233,2.51003,1.44559,-1.71432,1.14596,-0.52294,-1.86063,-0.963045,2.55457,1.38063,-1.6637,-0.709364,0.374049,-0.789792,-1.03535,-0.460474,1.00156,-1.07587,-0.709364,0.374049,-0.789792,-1.03535,-0.460474,1.00156,-1.07587,0.109533,-0.453221,1.02959,0.965838,-0.0996625,-0.0131284,0.238855,-0.028731,0.0115701,-0.310381,0.052323,0.0601936,-0.313587,0.144006,-0.48358,1.22947,-3.13557,-0.0689805,-3.05642,-3.13557,-0.0365345,-3.05642,-0.531516,-0.158381,-0.499502,-0.49282,-0.445396,0.64962,-0.506206,1
1.08543,-0.539737,-1.91726,-1.03039,2.50676,1.45583,-1.7263,1.08543,-0.539737,-1.91726,-1.03039,2.50676,1.45583,-1.7263,1.13919,-0.51995,-1.86788,-0.973618,2.55066,1.39066,-1.67441,-0.664542,0.271821,-0.702041,-1.06121,-0.355221,0.999461,-1.06686,-0.664542,0.271821,-0.702041,-1.06121,-0.355221,0.999461,-1.06686,0.109973,-0.453018,1.02619,0.967934,-0.101148,-0.00831101,0.229791,-0.0329102,-0.0325146,-0.347293,0.0362034,0.00383738,-0.350003,0.112804,-0.483884,1.19809,-3.1202,-0.0303507,-3.13799,-3.1202,-0.0406388,-3.13799,-0.537552,-0.197865,-0.493774,-0.567744,-0.438974,0.65175,-0.518936,1
1.08133,-0.538847,-1.92569,-1.04265,2.50218,1.46674,-1.73669,1.08133,-0.538847,-1.92569,-1.04265,2.50218,1.46674,-1.73669,1.13279,-0.518219,-1.87425,-0.983661,2.54762,1.40078,-1.68492,-0.638739,0.133244,-0.629547,-0.998395,-0.322412,1.02139,-1.04104,-0.638739,0.133244,-0.629547,-0.998395,-0.322412,1.02139,-1.04104,0.109893,-0.453388,1.02257,0.969801,-0.102375,-0.00464692,0.221323,-0.0779554,-0.0867172,-0.373343,-0.0211402,-0.0565498,-0.376245,0.0816622,-0.484734,1.16562,-3.11418,-0.0849634,-3.24682,-3.11418,-0.0465006,-3.24682,-0.514537,-0.206284,-0.514411,-0.58985,-0.4544,0.659584,-0.517742,1
1.07221,-0.53589,-1.93564,-1.0493,2.49216,1.47864,-1.74455,1.07221,-0.53589,-1.93564,-1.0493,2.49216,1.47864,-1.74455,1.12658,-0.517996,-1.88077,-0.993294,2.54255,1.41156,-1.69482,-0.611235,-0.00328377,-0.658825,-0.94172,-0.577961,1.09392,-0.970806,-0.611235,-0.00328377,-0.658825,-0.94172,-0.577961,1.09392,-0.970806,0.109515,-0.454355,1.01841,0.971568,-0.103775,-0.000683817,0.212806,-0.105688,-0.136988,-0.418686,-0.0414736,-0.100806,-0.423146,0.0506769,-0.485171,1.13236,-3.09853,-0.0437915,-3.3265,-3.09853,-0.0510421,-3.3265,-0.5437,-0.178941,-0.548689,-0.56007,-0.50398,0.670841,-0.497266,1
1.06063,-0.529133,-1.94597,-1.05182,2.48047,1.48962,-1.75364,1.06063,-0.529133,-1.94597,-1.05182,2.48047,1.48962,-1.75364,1.12081,-0.518348,-1.88764,-1.0021,2.5344,1.42355,-1.7042,-0.565657,-0.0405077,-0.699189,-0.883307,-0.887315,1.25905,-0.94148,-0.565657,-0.0405077,-0.699189,-0.883307,-0.887315,1.25905,-0.94148,0.109195,-0.455109,1.01411,0.973161,-0.106278,0.00421271,0.204072,-0.100277,-0.119124,-0.431341,-0.0253142,-0.0638206,-0.440445,0.0199139,-0.485388,1.09821,-3.0763,-0.0216842,-3.41512,-3.0763,-0.0519505,-3.41512,-0.601826,-0.107853,-0.583236,-0.497228,-0.539348,0.660775,-0.494467,1
1.05263,-0.530651,-1.95142,-1.04158,2.47058,1.50243,-1.76163,1.05263,-0.530651,-1.95142,-1.04158,2.47058,1.50243,-1.76163,1.11555,-0.51898,-1.8948,-1.01128,2.52521,1.43655,-1.71349,-0.522165,-0.0796693,-0.732411,-0.906059,-0.966194,1.26263,-0.923603,-0.522165,-0.0796693,-0.732411,-0.906059,-0.966194,1.26263,-0.923603,0.10914,-0.455822,1.00945,0.974551,-0.10914,0.00944708,0.195576,-0.0853791,-0.138189,-0.463056,-0.0048198,-0.0851755,-0.472807,-0.00974427,-0.485492,1.06926,-2.96582,-0.010398,-2.8952,-2.96582,-0.0453871,-2.8952,-0.629226,-0.116705,-0.566263,-0.303096,-0.546351,0.658783,-0.48142,1
1.04296,-0.533945,-1.94795,-0.960909,2.46305,1.51993,-1.75888,1.04296,-0.533945,-1.94795,-0.960909,2.46305,1.51993,-1.75888,1.11029,-0.519441,-1.90273,-1.02058,2.51504,1.44978,-1.72279,-0.518414,-0.0579304,-0.796322,-0.932975,-1.0074,1.32963,-0.933046,-0.518414,-0.0579304,-0.796322,-0.932975,-1.0074,1.32963,-0.933046,0.109189,-0.456505,1.00462,0.975852,-0.112175,0.0153561,0.186801,-0.0850313,-0.131706,-0.479649,0.000547089,-0.0756086,-0.491535,-0.0375802,-0.484932,1.062,-2.7836,0.0560433,-0.725245,-2.7836,-0.0283066,-0.725245,-0.673281,-0.145038,-0.452166,0.596668,-0.519845,0.701458,-0.360872,1
1.03448,-0.544789,-1.96272,-0.966503,2.45657,1.53009,-1.7639,1.03448,-0.544789,-1.96272,-0.966503,2.45657,1.53009,-1.7639,1.10484,-0.520251,-1.91122,-1.03044,2.50554,1.46195,-1.732,-0.568722,-0.0827132,-0.89018,-0.987418,-0.95235,1.24045,-0.922333,-0.568722,-0.0827132,-0.89018,-0.987418,-0.95235,1.24045,-0.922333,0.109102,-0.457855,0.999412,0.977139,-0.114165,0.0212798,0.178078,-0.121262,-0.18656,-0.521891,-0.0294583,-0.144581,-0.531931,-0.0653482,-0.484578,1.05545,-2.7768,0.0354052,-0.655818,-2.7768,-0.00999676,-0.655818,-0.703661,-0.245389,-0.514988,0.639342,-0.489701,0.681382,-0.318933,1
1.02647,-0.537519,-1.97282,-0.971414,2.43844,1.53989,-1.76276,1.02647,-0.537519,-1.97282,-0.971414,2.43844,1.53989,-1.76276,1.09891,-0.521082,-1.92025,-1.03946,2.49567,1.47424,-1.74116,-0.591072,-0.0665229,-0.889521,-0.874709,-0.982281,1.21557,-0.907317,-0.591072,-0.0665229,-0.889521,-0.874709,-0.982281,1.21557,-0.907317,0.108451,-0.45925,0.994298,0.978365,-0.116473,0.0273426,0.168787,-0.161317,-0.17131,-0.484627,-0.0690273,-0.125535,-0.49715,-0.0934665,-0.485301,1.0476,-2.81183,-0.0722826,-0.784647,-2.81183,-0.00020521,-0.784647,-0.724378,-0.164373,-0.525715,0.680462,-0.572347,0.656557,-0.215994,1
1.01737,-0.540103,-1.98555,-0.977032,2.42723,1.55218,-1.76926,1.01737,-0.540103,-1.98555,-0.977032,2.42723,1.55218,-1.76926,1.09274,-0.521799,-1.92925,-1.04625,2.48572,1.48615,-1.74977,-0.636935,-0.082114,-0.915154,-0.588005,-1.01135,1.20875,-0.840231,-0.636935,-0.082114,-0.915154,-0.588005,-1.01135,1.20875,-0.840231,0.107032,-0.460394,0.989871,0.979439,-0.119477,0.0331485,0.159142,-0.271876,-0.167158,-0.408055,-0.184001,-0.111103,-0.424639,-0.122079,-0.483845,1.03935,-2.86122,0.145519,-0.825155,-2.86122,0.0180997,-0.825155,-0.753635,-0.18304,-0.562991,0.692134,-0.584909,0.660384,-0.194941,1
1.00948,-0.545072,-2.00018,-0.978591,2.41359,1.56367,-1.7755,1.00948,-0.545072,-2.00018,-0.978591,2.41359,1.56367,-1.7755,1.08614,-0.523155,-1.93841,-1.04842,2.47537,1.49816,-1.75687,-0.652574,-0.16551,-0.903937,-0.0791899,-1.03785,1.20023,-0.667386,-0.652574,-0.16551,-0.903937,-0.0791899,-1.03785,1.20023,-0.667386,0.103857,-0.461392,0.986539,0.980324,-0.123984,0.0382363,0.148768,-0.436579,-0.169405,-0.279947,-0.36278,-0.0965115,-0.302051,-0.150187,-0.484719,1.02801,-2.81083,-0.0873983,-1.13358,-2.81083,0.0176127,-1.13358,-0.766563,-0.219169,-0.617692,0.698295,-0.617751,0.655037,-0.18626,1
1.00376,-0.558845,-2.01251,-0.975213,2.40036,1.57451,-1.78281,1.00376,-0.558845,-2.01251,-0.975213,2.40036,1.57451,-1.78281,1.08045,-0.525613,-1.94719,-1.04623,2.46527,1.50998,-1.76227,-0.539685,-0.269663,-0.879957,0.339433,-1.02379,1.17179,-0.498017,-0.539685,-0.269663,-0.879957,0.339433,-1.02379,1.17179,-0.498017,0.0994982,-0.462358,0.984175,0.98092,-0.12955,0.0421161,0.138706,-0.518233,-0.174533,-0.185155,-0.459984,-0.0916397,-0.210865,-0.176649,-0.484478,1.01623,-2.64616,0.0241041,-1.17812,-2.64616,0.0149962,-1.17812,-0.766834,-0.33233,-0.653211,0.710142,-0.64915,0.645375,-0.205391,1
1.00104,-0.564926,-2.02244,-0.969191,2.38685,1.58612,-1.79256,1.00104,-0.564926,-2.02244,-0.969191,2.38685,1.58612,-1.79256,1.07601,-0.528538,-1.95612,-1.0394,2.45465,1.52144,-1.76605,-0.407514,-0.297082,-0.893667,0.784326,-1.0743,1.13434,-0.3495,-0.407514,-0.297082,-0.893667,0.784326,-1.0743,1.13434,-0.3495,0.0943752,-0.462913,0.982979,0.981188,-0.13651,0.0454751,0.128715,-0.571749,-0.140539,-0.0613638,-0.52042,-0.0409326,-0.0933125,-0.204741,-0.484579,1.00528,-2.8092,-0.0100493,-1.09539,-2.8092,0.00656779,-1.09539,-0.74977,-0.363884,-0.663262,0.70213,-0.677985,0.646795,-0.265035,1
0.999725,-0.570653,-2.03156,-0.960308,2.37421,1.59656,-1.80117,0.999725,-0.570653,-2.03156,-0.960308,2.37421,1.59656,-1.80117,1.07283,-0.531349,-1.96514,-1.03021,2.44309,1.53249,-1.76909,-0.300845,-0.272827,-0.913273,0.950028,-1.18146,1.10727,-0.297921,-0.300845,-0.272827,-0.913273,0.950028,-1.18146,1.10727,-0.297921,0.0894399,-0.462962,0.98245,0.981132,-0.144297,0.0490649,0.118956,-0.542825,-0.100868,-0.00939278,-0.484731,0.00748275,-0.0466675,-0.232681,-0.484647,0.993189,-2.79401,-0.00679195,-1.20878,-2.79401,0.00215567,-1.20878,-0.731055,-0.393036,-0.664211,0.699044,-0.688794,0.640619,-0.320707,1
0.997491,-0.576007,-2.04097,-0.949999,2.36204,1.60678,-1.80819,0.997491,-0.576007,-2.04097,-0.949999,2.36204,1.60678,-1.80819,1.06962,-0.53388,-1.97463,-1.02008,2.43109,1.54353,-1.77227,-0.335898,-0.247972,-0.955684,1.01557,-1.20246,1.1053,-0.328372,-0.335898,-0.247972,-0.955684,1.01557,-1.20246,1.1053,-0.328372,0.084421,-0.462762,0.982149,0.980878,-0.152481,0.0530391,0.108697,-0.569862,-0.0868357,0.00877195,-0.504251,0.0233157,-0.0322374,-0.259813,-0.485457,0.979479,-2.71326,-0.0809848,-1.37094,-2.71326,-0.0068936,-1.37094,-0.721311,-0.421276,-0.663363,0.700851,-0.690443,0.632536,-0.35927,1
0.991735,-0.576467,-2.04984,-0.940225,2.35043,1.61909,-1.81054,0.991735,-0.576467,-2.04984,-0.940225,2.35043,1.61909,-1.81054,1.06522,-0.535957,-1.98444,-1.01035,2.41877,1.55477,-1.77612,-0.483612,-0.195243,-0.993901,0.97215,-1.24871,1.13294,-0.406903,-0.483612,-0.195243,-0.993901,0.97215,-1.24871,1.13294,-0.406903,0.0791933,-0.462421,0.981753,0.980476,-0.160719,0.0576,0.0975582,-0.613235,-0.0700999,0.0031432,-0.533317,0.0398705,-0.0418977,-0.28931,-0.483815,0.965555,-2.9497,0.164133,-1.39241,-2.9497,-0.00554451,-1.39241,-0.734847,-0.405097,-0.654008,0.701273,-0.683387,0.643103,-0.344137,1
0.985831,-0.5834,-2.0599,-0.930085,2.33872,1.62897,-1.8166,0.985831,-0.5834,-2.0599,-0.930085,2.33872,1.62897,-1.8166,1.05919,-0.538081,-1.99475,-1.00045,2.40619,1.56643,-1.78109,-0.634586,-0.226449,-1.0403,1.00171,-1.26027,1.16141,-0.524885,-0.634586,-0.226449,-1.0403,1.00171,-1.26027,1.16141,-0.524885,0.0732016,-0.462176,0.981212,0.979948,-0.169066,0.0625223,0.0849074,-0.705757,-0.0895331,-0.012968,-0.616952,0.0169745,-0.0608331,-0.315991,-0.484509,0.948469,-2.66801,-0.0694156,-1.70863,-2.66801,0.00385089,-1.70863,-0.733606,-0.453192,-0.651538,0.703624,-0.674664,0.625467,-0.355124,1
0.979428,-0.586711,-2.06937,-0.921026,2.32618,1.64117,-1.81898,0.979428,-0.586711,-2.06937,-0.921026,2.32618,1.64117,-1.81898,1.0525,-0.540875,-2.00527,-0.99075,2.39322,1.57822,-1.78714,-0.67085,-0.298053,-1.05872,0.948146,-1.30136,1.17733,-0.629397,-0.67085,-0.298053,-1.05872,0.948146,-1.30136,1.17733,-0.629397,0.0668804,-0.462305,0.980235,0.979264,-0.177092,0.0676447,0.0714434,-0.724788,-0.122241,-0.0670636,-0.628434,-0.0245009,-0.115734,-0.342948,-0.485187,0.930943,-2.69576,-0.0677139,-1.75261,-2.69576,-0.00412273,-1.75261,-0.730745,-0.458356,-0.64099,0.69724,-0.670373,0.62948,-0.318432,1
0.971487,-0.591304,-2.07987,-0.912048,2.31322,1.65275,-1.82157,0.971487,-0.591304,-2.07987,-0.912048,2.31322,1.65275,-1.82157,1.04549,-0.544453,-2.01618,-0.981591,2.38007,1.58988,-1.79393,-0.71272,-0.371856,-1.09199,0.921622,-1.30975,1.15788,-0.688091,-0.71272,-0.371856,-1.09199,0.921622,-1.30975,1.15788,-0.688091,0.0603889,-0.462996,0.978679,0.978442,-0.184431,0.072979,0.0575392,-0.75966,-0.161177,-0.11408,-0.656911,-0.074705,-0.162302,-0.370755,-0.484602,0.913893,-2.78065,0.0584871,-1.70493,-2.78065,-0.000717917,-1.70493,-0.740023,-0.46851,-0.636905,0.695431,-0.66853,0.628745,-0.276418,1
0.963483,-0.595851,-2.09029,-0.902383,2.30053,1.66458,-1.82856,0.963483,-0.595851,-2.09029,-0.902383,2.30053,1.66458,-1.82856,1.03819,-0.548099,-2.02643,-0.972616,2.36705,1.6018,-1.80068,-0.737671,-0.3624,-1.00654,0.896083,-1.30031,1.20544,-0.669935,-0.737671,-0.3624,-1.00654,0.896083,-1.30031,1.20544,-0.669935,0.0539,-0.46351,0.977058,0.977323,-0.191806,0.0782238,0.0439499,-0.748885,-0.128049,-0.112168,-0.646606,-0.0414161,-0.163569,-0.398059,-0.484665,0.896635,-2.73043,-0.00635982,-1.7258,-2.73043,0.00101041,-1.7258,-0.747035,-0.477515,-0.638669,0.702324,-0.665246,0.627809,-0.278796,1
0.955016,-0.603656,-2.10113,-0.893112,2.28655,1.67512,-1.83898,0.955016,-0.603656,-2.10113,-0.893112,2.28655,1.67512,-1.83898,1.03017,-0.551832,-2.03646,-0.962943,2.35437,1.61375,-1.80708,-0.823157,-0.380257,-1.00398,1.01032,-1.26085,1.19652,-0.628816,-0.823157,-0.380257,-1.00398,1.01032,-1.26085,1.19652,-0.628816,0.0469089,-0.463896,0.975576,0.975922,-0.199277,0.0833837,0.0301847,-0.824338,-0.117316,-0.0880401,-0.720126,-0.0326276,-0.142165,-0.425177,-0.484626,0.87668,-2.71181,0.00396371,-1.99558,-2.71181,0.0025019,-1.99558,-0.751555,-0.518245,-0.646747,0.698317,-0.678158,0.613699,-0.319008,1
0.945793,-0.608163,-2.11154,-0.882229,2.27318,1.68686,-1.8467,0.945793,-0.608163,-2.11154,-0.882229,2.27318,1.68686,-1.8467,1.02175,-0.555788,-2.04629,-0.952343,2.34209,1.62579,-1.8128,-0.842068,-0.404981,-0.980945,1.06553,-1.22564,1.20025,-0.553949,-0.842068,-0.404981,-0.980945,1.06553,-1.22564,1.20025,-0.553949,0.039442,-0.464145,0.974241,0.974225,-0.206894,0.0883678,0.0164924,-0.850938,-0.106332,-0.0825665,-0.746809,-0.0246157,-0.138641,-0.453867,-0.484158,0.857322,-2.86897,0.0467777,-1.93581,-2.86897,-0.00263931,-1.93581,-0.759564,-0.523759,-0.652484,0.70114,-0.689054,0.610682,-0.33898,1
0.938689,-0.619866,-2.12116,-0.872076,2.26057,1.69404,-1.85509,0.938689,-0.619866,-2.12116,-0.872076,2.26057,1.69404,-1.85509,1.01365,-0.560391,-2.05608,-0.941166,2.32995,1.63759,-1.81777,-0.797115,-0.478638,-0.981185,1.14302,-1.2061,1.17978,-0.484319,-0.797115,-0.478638,-0.981185,1.14302,-1.2061,1.17978,-0.484319,0.0318437,-0.464581,0.972777,0.972318,-0.21421,0.093284,0.00325619,-0.866905,-0.120576,-0.0937525,-0.763833,-0.0445736,-0.150172,-0.480652,-0.484903,0.834542,-2.67851,-0.0745386,-2.27795,-2.67851,0.0030425,-2.27795,-0.749626,-0.594751,-0.650821,0.690898,-0.693738,0.564592,-0.373231,1
0.931445,-0.631434,-2.13132,-0.863859,2.24853,1.70256,-1.85868,0.931445,-0.631434,-2.13132,-0.863859,2.24853,1.70256,-1.85868,1.00595,-0.566023,-2.06633,-0.930023,2.31774,1.64912,-1.82258,-0.762995,-0.590094,-1.04362,1.09873,-1.22089,1.13422,-0.488921,-0.762995,-0.590094,-1.04362,1.09873,-1.22089,1.13422,-0.488921,0.024149,-0.465599,0.970781,0.970301,-0.220808,0.0983077,-0.00978187,-0.876412,-0.180816,-0.166866,-0.768352,-0.120786,-0.219733,-0.50647,-0.48478,0.810941,-2.5818,0.0123233,-2.36012,-2.5818,0.00401384,-2.36012,-0.745014,-0.654106,-0.649903,0.661646,-0.692161,0.534356,-0.361006,1
0.923616,-0.638227,-2.14215,-0.853817,2.23612,1.71636,-1.85981,0.923616,-0.638227,-2.14215,-0.853817,2.23612,1.71636,-1.85981,0.998721,-0.572414,-2.07675,-0.918867,2.30545,1.66051,-1.82796,-0.704774,-0.648147,-1.03322,1.12319,-1.23813,1.13922,-0.5571,-0.704774,-0.648147,-1.03322,1.12319,-1.23813,1.13922,-0.5571,0.016498,-0.466967,0.968394,0.968138,-0.226959,0.103326,-0.0228349,-0.86397,-0.188709,-0.189963,-0.755546,-0.133232,-0.243564,-0.53401,-0.483244,0.788288,-2.754,0.153625,-2.26527,-2.754,0.012738,-2.26527,-0.751048,-0.65813,-0.653984,0.650503,-0.69326,0.558512,-0.318493,1
0.919075,-0.647466,-2.14748,-0.84441,2.22665,1.7181,-1.86432,0.919075,-0.647466,-2.14748,-0.84441,2.22665,1.7181,-1.86432,0.991913,-0.578823,-2.08719,-0.908204,2.29275,1.67161,-1.83402,-0.683693,-0.642119,-1.05751,1.0694,-1.28248,1.10913,-0.62691,-0.683693,-0.642119,-1.05751,1.0694,-1.28248,1.10913,-0.62691,0.00930975,-0.46838,0.965775,0.965774,-0.23278,0.108695,-0.0357786,-0.83355,-0.187108,-0.213935,-0.717128,-0.139817,-0.268402,-0.555977,-0.481394,0.765092,-2.19675,0.184932,-2.31959,-2.19675,0.0426932,-2.31959,-0.72838,-0.68643,-0.602911,0.637939,-0.660964,0.464982,-0.302975,1
0.911317,-0.650127,-2.14463,-0.834314,2.21701,1.70228,-1.86056,0.911317,-0.650127,-2.14463,-0.834314,2.21701,1.70228,-1.86056,0.984766,-0.585245,-2.09796,-0.897218,2.27993,1.68249,-1.8408,-0.717369,-0.643018,-1.0721,1.08217,-1.28451,1.08128,-0.691483,-0.717369,-0.643018,-1.0721,1.08217,-1.28451,1.08128,-0.691483,0.00194477,-0.469762,0.963117,0.96313,-0.238484,0.114338,-0.0493197,-0.851467,-0.178074,-0.218048,-0.729612,-0.137645,-0.273647,-0.572529,-0.475665,0.745265,-1.65514,0.57295,-1.98269,-1.65514,0.121673,-1.98269,-0.734491,-0.648826,-0.466731,0.629046,-0.629285,0.197858,-0.197617,1
0.896063,-0.657029,-2.18066,-0.858022,2.19539,1.75662,-1.84068,0.896063,-0.657029,-2.18066,-0.858022,2.19539,1.75662,-1.84068,0.977889,-0.591877,-2.10839,-0.886889,2.26692,1.69278,-1.84762,-0.683969,-0.672128,-1.04156,1.02985,-1.29981,1.02208,-0.671996,-0.683969,-0.672128,-1.04156,1.02985,-1.29981,1.02208,-0.671996,-0.00505743,-0.471327,0.960199,0.960383,-0.243582,0.120186,-0.0623455,-0.82092,-0.18918,-0.24548,-0.698018,-0.158902,-0.299228,-0.615579,-0.484226,0.714511,-4.30505,-0.856102,-3.07548,-4.30505,0.0773496,-3.07548,-0.818264,-0.651525,-0.722701,0.288667,-0.715228,0.638433,0.0694285,1
0.918892,-0.664673,-2.08205,-0.823698,2.21855,1.64579,-1.81804,0.918892,-0.664673,-2.08205,-0.823698,2.21855,1.64579,-1.81804,0.970778,-0.598861,-2.1189,-0.876371,2.25404,1.70281,-1.85369,-0.719694,-0.699824,-1.04554,1.03181,-1.27985,0.989658,-0.586307,-0.719694,-0.699824,-1.04554,1.03181,-1.27985,0.989658,-0.586307,-0.0123051,-0.473023,0.957133,0.957493,-0.248287,0.12619,-0.0750737,-0.847523,-0.192766,-0.261518,-0.722714,-0.171267,-0.314341,-0.615579,-0.484226,0.714511,0,0,0,0,0.0382814,0,-0.518852,-0.658119,0.368489,0.526727,-0.354976,-0.570144,0.356543,1
0.899641,-0.672072,-2.08423,-0.81226,2.20164,1.67037,-1.81173,0.899641,-0.672072,-2.08423,-0.81226,2.20164,1.67037,-1.81173,0.963307,-0.605773,-2.12896,-0.86608,2.24158,1.71165,-1.85882,-0.758057,-0.690069,-0.985236,1.04289,-1.23373,0.812323,-0.477032,-0.758057,-0.690069,-0.985236,1.04289,-1.23373,0.812323,-0.477032,-0.0195872,-0.474765,0.954144,0.954594,-0.252243,0.132325,-0.0872614,-0.855942,-0.183623,-0.240013,-0.731677,-0.175492,-0.288467,-0.615579,-0.484226,0.714511,0,0,0,0,-0.0111919,0,-0.636658,-0.662992,0.447365,0.538202,-0.399338,-0.412763,0.470954,1
0.896604,-0.691563,-2.10282,-0.807681,2.2459,1.66019,-1.84143,0.896604,-0.691563,-2.10282,-0.807681,2.2459,1.66019,-1.84143,0.955703,-0.613048,-2.13805,-0.856271,2.22972,1.71749,-1.86144,-0.756199,-0.75415,-0.898161,0.919708,-1.18248,0.541267,-0.161604,-0.756199,-0.75415,-0.898161,0.919708,-1.18248,0.541267,-0.161604,-0.0268358,-0.47704,0.951242,0.952116,-0.254311,0.138547,-0.0980108,-0.834895,-0.236123,-0.280324,-0.716605,-0.253563,-0.315328,-0.615579,-0.484226,0.714511,0,0,0,0,-0.0613237,0,-0.590992,-0.785143,0.352291,0.485899,0.161752,-0.572985,0.200148,1
0.892204,-0.700924,-2.10795,-0.78926,2.18907,1.67892,-1.85799,0.892204,-0.700924,-2.10795,-0.78926,2.18907,1.67892,-1.85799,0.948284,-0.620653,-2.14706,-0.849066,2.21819,1.72359,-1.8601,-0.73802,-0.741195,-0.876854,0.669807,-1.12415,0.639919,0.232405,-0.73802,-0.741195,-0.876854,0.669807,-1.12415,0.639919,0.232405,-0.0336113,-0.479829,0.947453,0.950071,-0.255046,0.145342,-0.105791,-0.774359,-0.242839,-0.35222,-0.662047,-0.265231,-0.384739,-0.615579,-0.484226,0.714511,0,0,0,0,-0.0914878,0,-0.560799,-0.802707,0.391147,0.598058,-0.291163,-0.44665,0.0211513,1
0.867314,-0.711885,-2.12801,-0.878894,2.23446,1.68992,-1.88138,0.867314,-0.711885,-2.12801,-0.878894,2.23446,1.68992,-1.88138,0.940687,-0.627302,-2.153,-0.844188,2.20937,1.72733,-1.85442,-0.776236,-0.643011,-0.469339,0.425993,-0.795466,0.210115,0.678819,-0.776236,-0.643011,-0.469339,0.425993,-0.795466,0.210115,0.678819,-0.0397641,-0.482349,0.944218,0.948926,-0.254218,0.151047,-0.10999,-0.679736,-0.214624,-0.284503,-0.602123,-0.254927,-0.294784,-0.615579,-0.484226,0.714511,0,0,0,0,-0.0917252,0,-0.733731,-0.845826,0.249864,-0.347061,0.25094,-0.374174,-0.269577,1
0.850545,-0.702425,-2.12877,-0.824542,2.1688,1.66386,-1.86246,0.850545,-0.702425,-2.12877,-0.824542,2.1688,1.66386,-1.86246,0.931606,-0.634157,-2.1533,-0.839144,2.20357,1.72255,-1.84598,-0.957673,-0.715837,0.126598,0.550435,-0.480087,-0.714843,0.84089,-0.957673,-0.715837,0.126598,0.550435,-0.480087,-0.714843,0.84089,-0.0465165,-0.485276,0.942673,0.949203,-0.249861,0.154475,-0.112782,-0.755308,-0.227531,-0.132178,-0.718699,-0.305476,-0.106246,-0.615579,-0.484226,0.714511,0,0,0,0,0,0,-0.810615,-0.682678,0.24525,0.146021,-0.347712,-0.586939,-0.164829,1
0.838439,-0.713111,-2.13382,-0.835529,2.23428,1.66345,-1.81183,0.838439,-0.713111,-2.13382,-0.835529,2.23428,1.66345,-1.81183,0.921526,-0.643186,-2.14705,-0.832258,2.20366,1.71084,-1.84084,-1.00672,-0.969729,0.783607,0.739158,0.163039,-1.25407,0.383462,-1.00672,-0.969729,0.783607,0.739158,0.163039,-1.25407,0.383462,-0.0552258,-0.488773,0.942642,0.950821,-0.24309,0.152248,-0.116905,-0.877899,-0.262268,-0.0430707,-0.921889,-0.351326,0.0206487,-0.615579,-0.484226,0.714511,0,0,0,0,0,0,-0.830873,-0.699247,0.132357,-0.0327119,0.306191,-0.473935,0.290108,1
0.842706,-0.731799,-2.10359,-0.888006,2.23547,1.63415,-1.80904,0.842706,-0.731799,-2.10359,-0.888006,2.23547,1.63415,-1.80904,0.912262,-0.654846,-2.13661,-0.823854,2.20636,1.69979,-1.84104,-0.892109,-1.22517,1.08495,0.851364,0.227484,-1.02945,-0.146312,-0.892109,-1.22517,1.08495,0.851364,0.227484,-1.02945,-0.146312,-0.0650239,-0.492283,0.942588,0.952648,-0.237255,0.145636,-0.122323,-0.905656,-0.285888,-0.100205,-0.985732,-0.352702,-0.0354839,-0.615579,-0.484226,0.714511,0,0,0,0,0,0,-0.695557,-0.769529,0.330191,-0.641514,0.291128,-0.656361,0.319957,1
0.828824,-0.741253,-2.12448,-0.873373,2.21274,1.63461,-1.80085,0.828824,-0.741253,-2.12448,-0.873373,2.21274,1.63461,-1.80085,0.904277,-0.667145,-2.12684,-0.816508,2.20641,1.69174,-1.84586,-0.77221,-1.20851,0.914507,0.675523,-0.0431231,-0.751909,-0.571479,-0.77221,-1.20851,0.914507,0.675523,-0.0431231,-0.751909,-0.571479,-0.0740045,-0.495877,0.941366,0.953818,-0.232658,0.139503,-0.129,-0.80896,-0.299275,-0.201513,-0.869524,-0.359193,-0.149698,-0.615579,-0.484226,0.714511,0,0,0,0,0,0,-0.754522,-0.741079,0.0235907,-0.568645,0.063263,-0.57133,0.450096,1
0.817915,-0.746982,-2.12308,-0.854449,2.20209,1.6318,-1.79715,0.817915,-0.746982,-2.12308,-0.854449,2.20209,1.6318,-1.79715,0.896918,-0.677544,-2.12086,-0.812613,2.20438,1.68454,-1.85063,-0.733226,-0.953743,0.474912,0.28674,-0.258892,-0.728049,-0.377614,-0.733226,-0.953743,0.474912,0.28674,-0.258892,-0.728049,-0.377614,-0.0813366,-0.499724,0.939202,0.954669,-0.227422,0.136311,-0.135301,-0.66446,-0.304485,-0.273881,-0.682795,-0.383479,-0.230493,-0.615579,-0.484226,0.714511,0,0,0,0,0,0,-0.790027,-0.694376,-0.0221978,-0.418364,-0.0229144,-0.527415,0.534841,1
0.808203,-0.752164,-2.10649,-0.83198,2.18493,1.62683,-1.80084,0.808203,-0.752164,-2.10649,-0.83198,2.18493,1.62683,-1.80084,0.888684,-0.684853,-2.11944,-0.812524,2.20345,1.67747,-1.84976,-0.861682,-0.674229,0.0430823,-0.11676,0.0383678,-0.71241,0.245779,-0.861682,-0.674229,0.0430823,-0.11676,0.0383678,-0.71241,0.245779,-0.0878349,-0.503457,0.936691,0.95571,-0.220768,0.135946,-0.139279,-0.652104,-0.280824,-0.314472,-0.656978,-0.380207,-0.268559,-0.615579,-0.484226,0.714511,0,0,0,0,0,0,-0.804808,-0.673105,0.129499,-0.194551,-0.185237,-0.506389,0.489211,1
0.802881,-0.748284,-2.08619,-0.78274,2.20904,1.60919,-1.80263,0.802881,-0.748284,-2.08619,-0.78274,2.20904,1.60919,-1.80263,0.879531,-0.690677,-2.11939,-0.817849,2.20854,1.66911,-1.8431,-0.919397,-0.559015,0.0400504,-0.649542,0.637048,-0.874517,0.787298,-0.919397,-0.559015,0.0400504,-0.649542,0.637048,-0.874517,0.787298,-0.0943455,-0.507782,0.933601,0.95804,-0.211173,0.134677,-0.13938,-0.600386,-0.31633,-0.384073,-0.641924,-0.439535,-0.317305,-0.615579,-0.484226,0.714511,0,0,0,0,0,0,-0.766501,-0.576072,0.331984,0.351081,0.00498178,-0.599195,0.404743,1
0.789605,-0.764072,-2.09496,-0.806443,2.21213,1.61873,-1.82869,0.789605,-0.764072,-2.09496,-0.806443,2.21213,1.61873,-1.82869,0.869896,-0.696342,-2.11837,-0.826918,2.21436,1.65925,-1.83296,-0.987274,-0.59263,0.113152,-0.954546,0.500737,-1.00523,1.06462,-0.987274,-0.59263,0.113152,-0.954546,0.500737,-1.00523,1.06462,-0.100312,-0.512743,0.929804,0.961109,-0.199541,0.13341,-0.136584,-0.556471,-0.368432,-0.4815,-0.595128,-0.51342,-0.411031,-0.615579,-0.484226,0.714511,0,0,0,0,0,0,-0.802905,-0.677296,0.234067,0.204748,-0.0223063,-0.405198,0.0426533,1
0.775776,-0.774882,-2.09822,-0.811855,2.21297,1.63958,-1.80293,0.775776,-0.774882,-2.09822,-0.811855,2.21297,1.63958,-1.80293,0.859405,-0.702937,-2.11785,-0.836031,2.21552,1.64978,-1.82196,-1.0519,-0.678076,0.0219666,-0.860987,-0.0160872,-0.914939,1.08862,-1.0519,-0.678076,0.0219666,-0.860987,-0.0160872,-0.914939,1.08862,-0.106321,-0.518028,0.925087,0.963726,-0.187722,0.134286,-0.134018,-0.598721,-0.373806,-0.541763,-0.603083,-0.522027,-0.4862,-0.615579,-0.484226,0.714511,0,0,0,0,0,0,-0.836284,-0.719448,0.196383,0.241768,-0.0254684,-0.102043,0.190315,1
0.76524,-0.778651,-2.11682,-0.807016,2.19441,1.65581,-1.786,0.76524,-0.778651,-2.11682,-0.807016,2.19441,1.65581,-1.786,0.849601,-0.709776,-2.11751,-0.841565,2.212,1.64118,-1.8125,-0.961101,-0.687831,0.0419798,-0.436072,-0.42916,-0.856253,0.882858,-0.961101,-0.687831,0.0419798,-0.436072,-0.42916,-0.856253,0.882858,-0.112082,-0.522631,0.920791,0.965386,-0.177787,0.136708,-0.133166,-0.600137,-0.307663,-0.443562,-0.581703,-0.435745,-0.406244,-0.615579,-0.484226,0.714511,0,0,0,0,0,0,-0.843603,-0.68875,0.00692191,0.345488,-0.1759,0.14633,0.265031,1
0.758585,-0.788939,-2.10904,-0.804781,2.20083,1.65199,-1.76559,0.758585,-0.788939,-2.10904,-0.804781,2.20083,1.65199,-1.76559,0.840605,-0.717422,-2.11561,-0.842204,2.20838,1.63245,-1.80666,-0.864827,-0.795652,0.256673,0.0428207,-0.315452,-0.871371,0.452416,-0.864827,-0.795652,0.256673,0.0428207,-0.315452,-0.871371,0.452416,-0.118686,-0.526403,0.917673,0.966467,-0.169806,0.137549,-0.134858,-0.675815,-0.254131,-0.320874,-0.68212,-0.357528,-0.285421,-0.615579,-0.484226,0.714511,0,0,0,0,0,0,-0.820208,-0.715168,0.0657276,0.374226,-0.075501,0.195477,0.410728,1
0.762427,-0.804394,-2.09772,-0.828518,2.1705,1.58663,-1.7565,0.762427,-0.804394,-2.09772,-0.828518,2.1705,1.58663,-1.7565,0.833348,-0.726763,-2.11138,-0.839048,2.20648,1.62541,-1.80568,-0.68579,-0.984169,0.461812,0.398354,-0.156527,-0.617095,0.0246522,-0.68579,-0.984169,0.461812,0.398354,-0.156527,-0.617095,0.0246522,-0.125993,-0.529561,0.915156,0.967243,-0.164193,0.135322,-0.138455,-0.713984,-0.231278,-0.285115,-0.752367,-0.298423,-0.251464,-0.615579,-0.484226,0.714511,0,0,0,0,0,0,-0.709208,-0.776308,0.136635,0.105295,-0.359798,-0.387747,0.491719,1
0.760014,-0.816756,-2.06757,-0.875833,2.22175,1.56722,-1.77341,0.760014,-0.816756,-2.06757,-0.875833,2.22175,1.56722,-1.77341,0.827384,-0.737708,-2.10711,-0.83365,2.20539,1.62267,-1.80468,-0.569864,-1.10845,0.385866,0.57594,-0.121571,-0.149591,0.15019,-0.569864,-1.10845,0.385866,0.57594,-0.121571,-0.149591,0.15019,-0.133939,-0.532212,0.912244,0.967812,-0.160869,0.13174,-0.141796,-0.753447,-0.21134,-0.331754,-0.79832,-0.246417,-0.306466,-0.615579,-0.484226,0.714511,0,0,0,0,0,0,-0.673698,-0.790476,0.395331,-0.421831,0.163581,-0.554461,0.312703,1
0.755922,-0.823596,-2.03919,-0.774392,2.22063,1.57161,-1.82141,0.755922,-0.823596,-2.03919,-0.774392,2.22063,1.57161,-1.82141,0.822026,-0.747822,-2.10509,-0.82697,2.20334,1.62441,-1.8011,-0.535169,-0.97427,0.14234,0.68464,-0.220093,0.262785,0.435841,-0.535169,-0.97427,0.14234,0.68464,-0.220093,0.262785,0.435841,-0.141624,-0.533795,0.909317,0.967899,-0.159894,0.129468,-0.144373,-0.740395,-0.121221,-0.298597,-0.761595,-0.128821,-0.289464,-0.615579,-0.484226,0.714511,0,0,0,0,0,0,-0.661034,-0.757742,0.658917,0.525782,0.172808,-0.527981,-0.203075,1
0.749811,-0.834931,-2.041,-0.763327,2.22904,1.6154,-1.82047,0.749811,-0.834931,-2.041,-0.763327,2.22904,1.6154,-1.82047,0.816493,-0.756544,-2.10464,-0.820997,2.20088,1.62737,-1.79414,-0.551612,-0.844166,0.0421975,0.535876,-0.277907,0.241296,0.780648,-0.551612,-0.844166,0.0421975,0.535876,-0.277907,0.241296,0.780648,-0.148799,-0.534864,0.906452,0.967946,-0.159247,0.128607,-0.145535,-0.679385,-0.100974,-0.2971,-0.686582,-0.115058,-0.290617,-0.615579,-0.484226,0.714511,0,0,0,0,0,0,-0.666814,-0.78387,0.636394,0.576697,0.281673,-0.119751,-0.26328,1
0.737768,-0.843717,-2.04548,-0.771854,2.19294,1.62591,-1.80588,0.737768,-0.843717,-2.04548,-0.771854,2.19294,1.62591,-1.80588,0.810711,-0.764912,-2.10325,-0.818266,2.19645,1.62576,-1.78486,-0.597009,-0.847737,0.184526,0.163349,-0.477003,-0.317206,0.942786,-0.597009,-0.847737,0.184526,0.163349,-0.477003,-0.317206,0.942786,-0.154804,-0.537068,0.903164,0.968611,-0.155525,0.129051,-0.144744,-0.577555,-0.200806,-0.369604,-0.580761,-0.263125,-0.350664,-0.615579,-0.484226,0.714511,0,0,0,0,0,0,-0.729433,-0.788052,0.577715,0.464112,-0.0351457,0.00154356,-0.210177,1
0.72621,-0.839517,-2.05602,-0.809521,2.19668,1.58544,-1.75327,0.72621,-0.839517,-2.05602,-0.809521,2.19668,1.58544,-1.75327,0.803848,-0.773436,-2.09906,-0.820164,2.19437,1.61767,-1.77841,-0.7248,-0.834111,0.512386,-0.292326,-0.0620511,-0.959685,0.495596,-0.7248,-0.834111,0.512386,-0.292326,-0.0620511,-0.959685,0.495596,-0.160611,-0.540727,0.89949,0.970145,-0.14774,0.127642,-0.14387,-0.543128,-0.272563,-0.399874,-0.591142,-0.379052,-0.35598,-0.615579,-0.484226,0.714511,0,0,0,0,0,0,-0.77638,-0.660811,0.43041,0.106426,0.0231596,-0.322329,0.251317,1
0.721683,-0.850427,-2.05065,-0.842374,2.21106,1.55064,-1.73321,0.721683,-0.850427,-2.05065,-0.842374,2.21106,1.55064,-1.73321,0.794742,-0.781442,-2.09085,-0.824279,2.19828,1.60616,-1.77906,-0.986182,-0.807697,0.914587,-0.423293,0.525727,-1.12628,-0.245827,-0.986182,-0.807697,0.914587,-0.423293,0.525727,-1.12628,-0.245827,-0.167682,-0.544043,0.89664,0.971925,-0.138898,0.121894,-0.14564,-0.662624,-0.193838,-0.328486,-0.765074,-0.296862,-0.272053,-0.615579,-0.484226,0.714511,0,0,0,0,0,0,-0.730591,-0.689852,0.40204,-0.180943,0.127838,-0.555238,0.458422,1
0.718522,-0.85711,-2.02697,-0.868811,2.21064,1.54193,-1.73773,0.718522,-0.85711,-2.02697,-0.868811,2.21064,1.54193,-1.73773,0.783168,-0.790274,-2.07988,-0.82701,2.2052,1.59895,-1.78529,-1.18432,-0.914587,1.14843,-0.193646,0.679359,-0.547896,-0.700256,-1.18432,-0.914587,1.14843,-0.193646,0.679359,-0.547896,-0.700256,-0.177015,-0.545569,0.894134,0.97305,-0.133125,0.11305,-0.150566,-0.848577,-0.0462242,-0.293557,-0.971946,-0.0965837,-0.247316,-0.615579,-0.484226,0.714511,0,0,0,0,0,0,-0.646467,-0.668358,0.529123,-0.418007,0.0543455,-0.570207,0.475521,1
0.708574,-0.864182,-2.00176,-0.846974,2.20012,1.55379,-1.75189,0.708574,-0.864182,-2.00176,-0.846974,2.20012,1.55379,-1.75189,0.772339,-0.800105,-2.06823,-0.825215,2.2082,1.59751,-1.7907,-1.04092,-1.01184,1.12746,0.309404,0.144926,-0.0654475,-0.430113,-1.04092,-1.01184,1.12746,0.309404,0.144926,-0.0654475,-0.430113,-0.186588,-0.545465,0.89196,0.973298,-0.131631,0.10515,-0.155908,-0.863877,0.0339092,-0.24153,-0.953805,0.0303741,-0.217265,-0.615579,-0.484226,0.714511,0,0,0,0,0,0,-0.637657,-0.640775,0.664629,-0.217591,-0.0807547,-0.437156,0.388075,1
0.694197,-0.875531,-1.99273,-0.795158,2.24494,1.55622,-1.79256,0.694197,-0.875531,-1.99273,-0.795158,2.24494,1.55622,-1.79256,0.763628,-0.811419,-2.05974,-0.818867,2.20728,1.59601,-1.78994,-0.794394,-1.14535,0.766937,0.71568,-0.121475,-0.217579,0.258686,-0.794394,-1.14535,0.766937,0.71568,-0.121475,-0.217579,0.258686,-0.196341,-0.545863,0.889425,0.973407,-0.130198,0.0997489,-0.159929,-0.899777,-0.0452555,-0.276534,-0.965585,-0.0626857,-0.25605,-0.615579,-0.484226,0.714511,0,0,0,0,0,0,-0.69431,-0.641123,0.67012,0.237099,0.376608,-0.397951,-0.0262917,1
0.701285,-0.886056,-1.98328,-0.792485,2.24095,1.55703,-1.78572,0.701285,-0.886056,-1.98328,-0.792485,2.24095,1.55703,-1.78572,0.757933,-0.821589,-2.05356,-0.81086,2.20666,1.59015,-1.78191,-0.517336,-0.973958,0.589734,0.806726,-0.0327129,-0.708705,0.966552,-0.517336,-0.973958,0.589734,0.806726,-0.0327129,-0.708705,0.966552,-0.204819,-0.547136,0.887641,0.974181,-0.126857,0.0955517,-0.160462,-0.753902,-0.100899,-0.181039,-0.81722,-0.142363,-0.156456,-0.615579,-0.484226,0.714511,0,0,0,0,0,0,-0.566483,-0.644671,0.702756,0.183753,0.342906,-0.331118,-0.0380258,1
0.673279,-0.889065,-1.98658,-0.781157,2.25006,1.57706,-1.77842,0.673279,-0.889065,-1.98658,-0.781157,2.25006,1.57706,-1.77842,0.752578,-0.830618,-2.04752,-0.804335,2.20652,1.58002,-1.76997,-0.558212,-0.880593,0.624556,0.560681,-0.0285122,-1.09364,1.21086,-0.558212,-0.880593,0.624556,0.560681,-0.0285122,-1.09364,1.21086,-0.21254,-0.549079,0.886187,0.975556,-0.121196,0.0918266,-0.158649,-0.688207,-0.137089,-0.184565,-0.753124,-0.208751,-0.154175,-0.615579,-0.484226,0.714511,0,0,0,0,0,0,-0.79299,-0.584468,0.609406,0.231782,0.435383,-0.029562,-0.0844713,1
0.676979,-0.894416,-1.97958,-0.828166,2.21906,1.52994,-1.73818,0.676979,-0.894416,-1.97958,-0.828166,2.21906,1.52994,-1.73818,0.746423,-0.838548,-2.03941,-0.802562,2.20637,1.56915,-1.76102,-0.635892,-0.76744,0.886237,0.0370664,0.0317335,-1.04778,0.736857,-0.635892,-0.76744,0.886237,0.0370664,0.0317335,-1.04778,0.736857,-0.218956,-0.551176,0.884439,0.977071,-0.114707,0.0878072,-0.156414,-0.534149,-0.12893,-0.217155,-0.610956,-0.201366,-0.185658,-0.615579,-0.484226,0.714511,0,0,0,0,0,0,-0.694442,-0.558674,0.598354,-0.25604,0.126868,-0.392122,0.228434,1
0.671469,-0.905134,-1.97354,-0.864181,2.21942,1.51037,-1.71694,0.671469,-0.905134,-1.97354,-0.864181,2.21942,1.51037,-1.71694,0.738564,-0.846293,-2.02898,-0.806066,2.21045,1.56033,-1.75934,-0.851244,-0.788148,1.07828,-0.471389,0.54666,-0.82313,-0.0117203,-0.851244,-0.788148,1.07828,-0.471389,0.54666,-0.82313,-0.0117203,-0.22549,-0.55299,0.881878,0.978508,-0.108406,0.0808686,-0.155661,-0.567357,-0.105107,-0.324329,-0.6868,-0.172198,-0.287503,-0.615579,-0.484226,0.714511,0,0,0,0,0,0,-0.670948,-0.588407,0.554442,-0.581141,0.0897443,-0.49961,0.424053,1
0.670177,-0.914338,-1.9539,-0.855544,2.23149,1.49536,-1.71201,0.670177,-0.914338,-1.9539,-0.855544,2.23149,1.49536,-1.71201,0.728648,-0.854303,-2.01707,-0.812561,2.2192,1.55476,-1.76251,-1.02392,-0.792535,1.22537,-0.669052,0.955188,-0.443178,-0.371227,-1.02392,-0.792535,1.22537,-0.669052,0.955188,-0.443178,-0.371227,-0.233198,-0.553988,0.878669,0.979734,-0.103116,0.0709906,-0.156361,-0.639623,-0.0186567,-0.35281,-0.789922,-0.058943,-0.318743,-0.615579,-0.484226,0.714511,0,0,0,0,0,0,-0.584711,-0.600355,0.631711,-0.429834,0.122914,-0.594066,0.505065,1
0.654744,-0.926594,-1.93925,-0.781592,2.2169,1.52966,-1.72226,0.654744,-0.926594,-1.93925,-0.781592,2.2169,1.52966,-1.72226,0.718125,-0.862851,-2.00505,-0.818597,2.22907,1.55307,-1.76531,-1.04888,-0.886357,1.17754,-0.558129,0.944009,-0.120103,-0.20302,-1.04888,-0.886357,1.17754,-0.558129,0.944009,-0.120103,-0.20302,-0.241701,-0.554041,0.875148,0.980687,-0.0997228,0.0602899,-0.157077,-0.716368,0.0225924,-0.394069,-0.866297,0.00307503,-0.367472,-0.615579,-0.484226,0.714511,0,0,0,0,0,0,-0.633813,-0.63743,0.658045,0.370049,-0.121686,-0.234019,0.430461,1
0.646416,-0.933677,-1.92759,-0.8025,2.27424,1.57327,-1.76772,0.646416,-0.933677,-1.92759,-0.8025,2.27424,1.57327,-1.76772,0.708362,-0.872137,-1.99457,-0.82133,2.23395,1.55003,-1.76378,-0.944263,-0.931249,1.00218,-0.174019,0.319291,-0.39438,0.280556,-0.944263,-0.931249,1.00218,-0.174019,0.319291,-0.39438,0.280556,-0.250172,-0.554341,0.871654,0.981476,-0.0961335,0.0522921,-0.157251,-0.726836,-0.00486797,-0.357593,-0.83139,-0.0405242,-0.337066,-0.615579,-0.484226,0.714511,0,0,0,0,0,0,-0.61945,-0.615398,0.669818,0.188295,0.402867,0.232408,-0.0393912,1
0.644082,-0.942844,-1.91435,-0.866293,2.22657,1.56463,-1.74106,0.644082,-0.942844,-1.91435,-0.866293,2.22657,1.56463,-1.74106,0.700614,-0.881246,-1.98535,-0.821105,2.23395,1.54299,-1.75673,-0.713069,-0.907964,0.909989,0.0549344,-0.05016,-0.807383,0.839608,-0.713069,-0.907964,0.909989,0.0549344,-0.05016,-0.807383,0.839608,-0.25753,-0.555438,0.868758,0.982464,-0.0913381,0.0471861,-0.155546,-0.624525,-0.0778132,-0.300912,-0.704501,-0.13565,-0.281278,-0.615579,-0.484226,0.714511,0,0,0,0,0,0,-0.565323,-0.615984,0.710014,-0.451881,-0.0738411,0.216403,0.156761,1
0.631781,-0.938359,-1.91798,-0.851961,2.19687,1.5839,-1.69993,0.631781,-0.938359,-1.91798,-0.851961,2.19687,1.5839,-1.69993,0.694312,-0.889805,-1.97657,-0.821157,2.23284,1.53297,-1.74584,-0.624244,-0.829301,0.874373,-0.0249746,-0.146453,-1.02234,1.13634,-0.624244,-0.829301,0.874373,-0.0249746,-0.146453,-1.02234,1.13634,-0.263712,-0.557356,0.866058,0.983865,-0.0851098,0.0430321,-0.151376,-0.522597,-0.116619,-0.282307,-0.594076,-0.190264,-0.262682,-0.615579,-0.484226,0.714511,0,0,0,0,0,0,-0.625316,-0.48554,0.585923,-0.308046,-0.359652,0.509269,0.459126,1
0.637734,-0.934804,-1.90972,-0.788731,2.19429,1.58616,-1.69339,0.637734,-0.934804,-1.90972,-0.788731,2.19429,1.58616,-1.69339,0.687566,-0.897034,-1.96713,-0.822367,2.23056,1.52588,-1.73654,-0.70033,-0.691654,0.97837,-0.148206,-0.209959,-0.557469,0.793326,-0.70033,-0.691654,0.97837,-0.148206,-0.209959,-0.557469,0.793326,-0.268954,-0.558252,0.863809,0.984959,-0.0807633,0.0395871,-0.147533,-0.456014,-0.00319017,-0.223629,-0.516042,-0.0398886,-0.211918,-0.615579,-0.484226,0.714511,0,0,0,0,0,0,-0.498314,-0.377699,0.574038,0.336367,-0.362664,0.602816,0.431517,1
0.634183,-0.949037,-1.90611,-0.781293,2.20874,1.54358,-1.68564,0.634183,-0.949037,-1.90611,-0.781293,2.20874,1.54358,-1.68564,0.679625,-0.903697,-1.95655,-0.82414,2.23217,1.52572,-1.73404,-0.822459,-0.674864,1.07262,-0.163257,0.304181,0.153059,0.0876746,-0.822459,-0.674864,1.07262,-0.163257,0.304181,0.153059,0.0876746,-0.274975,-0.557077,0.861812,0.985336,-0.080362,0.0337557,-0.14668,-0.556905,0.146297,-0.206584,-0.648108,0.167721,-0.201469,-0.615579,-0.484226,0.714511,0,0,0,0,0,0,-0.454416,-0.453397,0.504399,0.428476,-0.234313,0.178599,0.48397,1
0.652768,-0.968129,-1.88392,-0.78861,2.21983,1.53653,-1.69106,0.652768,-0.968129,-1.88392,-0.78861,2.21983,1.53653,-1.69106,0.671603,-0.911697,-1.94579,-0.825357,2.23647,1.53079,-1.73385,-0.763929,-0.845048,1.0746,-0.126035,0.383525,0.60507,0.0599318,-0.763929,-0.845048,1.0746,-0.126035,0.383525,0.60507,0.0599318,-0.282128,-0.555017,0.859091,0.985365,-0.0823847,0.0259079,-0.146959,-0.597767,0.153159,-0.304136,-0.700281,0.201945,-0.303967,-0.615579,-0.484226,0.714511,0,0,0,0,0,0,-0.188352,-0.564318,0.618751,0.36747,-0.166395,0.0574019,0.427951,1
0.651102,-1.00042,-1.89024,-0.785716,2.26247,1.50044,-1.73949,0.651102,-1.00042,-1.89024,-0.785716,2.26247,1.50044,-1.73949,0.665777,-0.920813,-1.9351,-0.827526,2.23539,1.53943,-1.73023,-0.533178,-0.923555,1.04893,-0.2688,-0.297202,0.938331,0.478939,-0.533178,-0.923555,1.04893,-0.2688,-0.297202,0.938331,0.478939,-0.28713,-0.553517,0.855309,0.985592,-0.0855703,0.0204303,-0.144459,-0.367744,0.0746271,-0.400306,-0.426662,0.131027,-0.405741,-0.615579,-0.484226,0.714511,0,0,0,0,0,0,-0.146746,-0.796059,0.448564,0.418096,0.270892,-0.389932,-0.0926204,1
0.620965,-1.01275,-1.89542,-0.78215,2.23514,1.51665,-1.7502,0.620965,-1.01275,-1.89542,-0.78215,2.23514,1.51665,-1.7502,0.660155,-0.929724,-1.92545,-0.83101,2.22757,1.54932,-1.72229,-0.592475,-0.86493,0.946576,-0.354246,-0.898547,0.949285,0.883816,-0.592475,-0.86493,0.946576,-0.354246,-0.898547,0.949285,0.883816,-0.290313,-0.552303,0.851029,0.985989,-0.0888286,0.0189191,-0.13992,-0.29284,0.0816947,-0.409561,-0.302511,0.127969,-0.416942,-0.615579,-0.484226,0.714511,0,0,0,0,0,0,-0.391906,-0.830303,0.300286,0.488603,0.07578,-0.326668,-0.279081,1
0.615407,-1.01003,-1.87142,-0.77904,2.1834,1.59334,-1.72638,0.615407,-1.01003,-1.87142,-0.77904,2.1834,1.59334,-1.72638,0.652779,-0.937243,-1.9163,-0.833034,2.21893,1.55544,-1.71198,-0.785094,-0.727808,0.910512,-0.117712,-0.788965,0.483276,1.0506,-0.785094,-0.727808,0.910512,-0.117712,-0.788965,0.483276,1.0506,-0.294293,-0.550581,0.847914,0.98636,-0.0910576,0.0185941,-0.135852,-0.447557,0.162014,-0.268882,-0.45656,0.191291,-0.27352,-0.615579,-0.484226,0.714511,0,0,0,0,0,0,-0.373715,-0.72791,0.448747,0.539935,-0.35534,0.379045,-0.144007,1
0.598637,-0.999505,-1.84999,-0.835137,2.18737,1.61095,-1.6601,0.598637,-0.999505,-1.84999,-0.835137,2.18737,1.61095,-1.6601,0.644755,-0.944479,-1.90774,-0.831114,2.21463,1.55601,-1.70349,-0.771623,-0.734328,0.834794,0.306624,-0.291885,-0.0865402,0.715883,-0.771623,-0.734328,0.834794,0.306624,-0.291885,-0.0865402,0.715883,-0.300678,-0.54873,0.845964,0.986519,-0.0917227,0.0161962,-0.134554,-0.647856,0.164107,-0.175094,-0.691824,0.173622,-0.17427,-0.615579,-0.484226,0.714511,0,0,0,0,0,0,-0.461182,-0.550263,0.577523,-0.0402306,-0.272547,0.54936,0.433953,1
0.616692,-0.989558,-1.86213,-0.859674,2.21228,1.49396,-1.64717,0.616692,-0.989558,-1.86213,-0.859674,2.21228,1.49396,-1.64717,0.639948,-0.952408,-1.90037,-0.825222,2.21647,1.551,-1.7022,-0.377093,-0.808919,0.688115,0.678887,0.332556,-0.631069,-0.0758261,-0.377093,-0.808919,0.688115,0.678887,0.332556,-0.631069,-0.0758261,-0.308179,-0.548235,0.844462,0.986408,-0.0903642,0.0101969,-0.136859,-0.669715,0.0210657,-0.154782,-0.763642,0.00716918,-0.148018,-0.615579,-0.484226,0.714511,0,0,0,0,0,0,-0.232557,-0.371503,0.382404,-0.344522,-0.041954,-0.57044,0.550279,1
0.588939,-1.00992,-1.88282,-0.775065,2.16837,1.50424,-1.64478,0.588939,-1.00992,-1.88282,-0.775065,2.16837,1.50424,-1.64478,0.638163,-0.960796,-1.89478,-0.816572,2.22101,1.54372,-1.70757,-0.135185,-0.8393,0.539879,0.904807,0.411827,-0.6751,-0.643006,-0.135185,-0.8393,0.539879,0.904807,0.411827,-0.6751,-0.643006,-0.315766,-0.548795,0.842939,0.985882,-0.0880777,0.00267346,-0.142379,-0.642705,-0.0387501,-0.160369,-0.740581,-0.0524981,-0.154937,-0.615579,-0.484226,0.714511,0,0,0,0,0,0,-0.492235,-0.491233,0.119547,0.415073,-0.526422,-0.394776,0.627905,1
0.602502,-1.02065,-1.85513,-0.795198,2.19945,1.59399,-1.66693,0.602502,-1.02065,-1.85513,-0.795198,2.19945,1.59399,-1.66693,0.636744,-0.968625,-1.88885,-0.807117,2.22078,1.54206,-1.71251,-0.161851,-0.759819,0.616915,0.931233,-0.192634,0.039513,-0.383517,-0.161851,-0.759819,0.616915,0.931233,-0.192634,0.039513,-0.383517,-0.322091,-0.548099,0.841697,0.984974,-0.0890653,-0.00241328,-0.147943,-0.544165,0.0832317,-0.114169,-0.591049,0.119725,-0.119673,-0.615579,-0.484226,0.714511,0,0,0,0,0,0,-0.342416,-0.520207,0.337202,0.119187,-0.213238,0.519382,0.455812,1
0.668644,-1.05027,-1.83482,-0.758372,2.17183,1.58333,-1.66038,0.668644,-1.05027,-1.83482,-0.758372,2.17183,1.58333,-1.66038,0.634185,-0.975861,-1.88145,-0.800196,2.21499,1.54808,-1.71083,-0.287461,-0.728132,0.779306,0.564819,-0.658861,0.748661,0.370585,-0.287461,-0.728132,0.779306,0.564819,-0.658861,0.748661,0.370585,-0.32668,-0.545849,0.840234,0.984262,-0.0937153,-0.00451344,-0.149752,-0.407342,0.166123,-0.162363,-0.418975,0.238957,-0.175914,-0.615579,-0.484226,0.714511,0,0,0,0,0,0,0.344594,-0.744047,0.466261,0.418241,-0.431582,0.352485,0.504549,1
0.569136,-1.04926,-1.85757,-0.740673,2.15659,1.58245,-1.7088,0.569136,-1.04926,-1.85757,-0.740673,2.15659,1.58245,-1.7088,0.630094,-0.983596,-1.87393,-0.799152,2.20992,1.55466,-1.70111,-0.459247,-0.782769,0.715812,-0.0311837,-0.420187,0.523112,1.15755,-0.459247,-0.782769,0.715812,-0.0311837,-0.420187,0.523112,1.15755,-0.3307,-0.544336,0.837208,0.984509,-0.0967825,-0.0064562,-0.146063,-0.384111,0.0792425,-0.333526,-0.416054,0.109977,-0.339047,-0.615579,-0.484226,0.714511,0,0,0,0,0,0,-0.60958,-0.65668,0.163671,0.584784,-0.53334,0.277829,-0.0768808,1
0.577087,-1.02046,-1.82225,-0.738524,2.14749,1.62384,-1.71331,0.577087,-1.02046,-1.82225,-0.738524,2.14749,1.62384,-1.71331,0.624031,-0.991126,-1.86898,-0.802168,2.20601,1.55334,-1.68657,-0.645666,-0.72015,0.428147,-0.362748,-0.446227,-0.337952,1.49007,-0.645666,-0.72015,0.428147,-0.362748,-0.446227,-0.337952,1.49007,-0.335126,-0.54478,0.833234,0.985639,-0.0941243,-0.00767886,-0.139991,-0.407708,-0.0306639,-0.406951,-0.432093,-0.0826044,-0.396746,-0.615579,-0.484226,0.714511,0,0,0,0,0,0,-0.469446,-0.293298,0.467235,0.636446,-0.585175,0.704994,-0.267315,1
0.559898,-1.0032,-1.88329,-0.743309,2.14406,1.61406,-1.70067,0.559898,-1.0032,-1.88329,-0.743309,2.14406,1.61406,-1.70067,0.61683,-0.997095,-1.86621,-0.805726,2.19953,1.54792,-1.67397,-0.740751,-0.569552,0.228113,-0.343536,-0.701737,-0.511404,1.17259,-0.740751,-0.569552,0.228113,-0.343536,-0.701737,-0.511404,1.17259,-0.339142,-0.54564,0.829772,0.986691,-0.0891526,-0.00652198,-0.135833,-0.405414,-0.000120777,-0.351705,-0.396955,-0.0692839,-0.339312,-0.615579,-0.484226,0.714511,0,0,0,0,0,0,-0.569313,-0.0610324,-0.170795,0.624166,-0.554636,0.661419,-0.266971,1
0.572445,-1.05269,-1.86645,-0.765069,2.13259,1.57251,-1.6218,0.572445,-1.05269,-1.86645,-0.765069,2.13259,1.57251,-1.6218,0.609646,-1.00282,-1.86363,-0.807043,2.19114,1.54778,-1.66586,-0.691183,-0.585911,0.297863,-0.0249758,-0.88766,0.189763,0.646529,-0.691183,-0.585911,0.297863,-0.0249758,-0.88766,0.189763,0.646529,-0.343186,-0.544996,0.826687,0.986984,-0.0874307,-0.00452395,-0.134896,-0.43466,0.127957,-0.294641,-0.407888,0.119536,-0.293553,-0.615579,-0.484226,0.714511,0,0,0,0,0,0,-0.372011,-0.498788,-0.0281892,0.419739,-0.585567,0.247371,0.440588,1
0.637412,-1.07515,-1.85867,-0.836826,2.18391,1.52001,-1.6146,0.637412,-1.07515,-1.85867,-0.836826,2.18391,1.52001,-1.6146,0.604764,-1.01005,-1.85921,-0.803594,2.18061,1.55508,-1.66563,-0.408984,-0.777028,0.494925,0.478494,-1.10539,0.897377,-0.184526,-0.408984,-0.777028,0.494925,0.478494,-1.10539,0.897377,-0.184526,-0.347222,-0.542886,0.823795,0.986215,-0.0907602,-0.00304057,-0.138322,-0.434059,0.177975,-0.279131,-0.402139,0.23641,-0.290438,-0.615579,-0.484226,0.714511,0,0,0,0,0,0,0.326482,-0.650969,0.00544001,-0.332321,0.0329314,-0.350738,0.510322,1
0.565237,-1.06159,-1.84155,-0.739461,2.13511,1.6223,-1.63953,0.565237,-1.06159,-1.84155,-0.739461,2.13511,1.6223,-1.63953,0.602078,-1.01872,-1.85331,-0.795186,2.1685,1.568,-1.67209,-0.242471,-0.892248,0.594852,0.947628,-1.23172,1.39358,-0.757614,-0.242471,-0.892248,0.594852,0.947628,-1.23172,1.39358,-0.757614,-0.351519,-0.539626,0.821093,0.984438,-0.0981675,-0.00217391,-0.145737,-0.487444,0.244908,-0.250048,-0.448573,0.352432,-0.272272,-0.615579,-0.484226,0.714511,0,0,0,0,0,0,-0.368416,-0.428638,0.117563,0.557256,-0.333924,0.543039,0.325594,1
0.62715,-1.07667,-1.88132,-0.733854,2.13595,1.63305,-1.68098,0.62715,-1.07667,-1.88132,-0.733854,2.13595,1.63305,-1.68098,0.600383,-1.02752,-1.84887,-0.783154,2.15661,1.58222,-1.67872,-0.136617,-0.84983,0.373456,1.2692,-1.16285,1.36705,-0.549644,-0.136617,-0.84983,0.373456,1.2692,-1.16285,1.36705,-0.549644,-0.356449,-0.53594,0.818547,0.982206,-0.106659,-0.0011144,-0.154576,-0.539923,0.251677,-0.219008,-0.491631,0.358976,-0.243572,-0.615579,-0.484226,0.714511,0,0,0,0,0,0,0.267672,-0.491487,-0.324492,0.493001,-0.206559,0.508347,-0.0225974,1
0.598575,-1.09579,-1.84645,-0.717113,2.08666,1.54386,-1.62576,0.598575,-1.09579,-1.84645,-0.717113,2.08666,1.54386,-1.62576,0.599838,-1.03447,-1.84814,-0.771424,2.14657,1.5903,-1.67806,-0.0395111,-0.649422,-0.0346576,1.10841,-0.905584,0.589323,0.295464,-0.0395111,-0.649422,-0.0346576,1.10841,-0.905584,0.589323,0.295464,-0.360671,-0.533879,0.816422,0.980826,-0.111454,0.00110885,-0.159869,-0.453299,0.106909,-0.20285,-0.407175,0.145795,-0.213342,-0.615579,-0.484226,0.714511,0,0,0,0,0,0,-0.0126225,-0.613183,0.0168976,0.543116,-0.599072,-0.46439,0.522945,1
0.538068,-1.03554,-1.837,-0.70018,2.07898,1.61286,-1.7161,0.538068,-1.03554,-1.837,-0.70018,2.07898,1.61286,-1.7161,0.598699,-1.04012,-1.85077,-0.763993,2.14362,1.58968,-1.66885,-0.151106,-0.537145,-0.313344,0.58852,-0.079305,-0.245467,1.09376,-0.151106,-0.537145,-0.313344,0.58852,-0.079305,-0.245467,1.09376,-0.365254,-0.534013,0.813907,0.980945,-0.110302,0.00177736,-0.159932,-0.463813,-0.0238628,-0.275032,-0.471861,-0.0571104,-0.267357,-0.615579,-0.484226,0.714511,0,0,0,0,0,0,-0.606308,0.0458707,0.137629,0.638127,-0.646388,0.231829,-0.472441,1
0.562352,-1.07707,-1.832,-0.698199,2.09436,1.61899,-1.64792,0.562352,-1.07707,-1.832,-0.698199,2.09436,1.61899,-1.64792,0.595837,-1.0448,-1.85285,-0.762365,2.14553,1.58669,-1.65775,-0.343664,-0.449123,-0.152232,0.0495297,0.194428,-0.230032,1.0127,-0.343664,-0.449123,-0.152232,0.0495297,0.194428,-0.230032,1.0127,-0.369666,-0.534639,0.811082,0.981753,-0.107066,0.000436452,-0.157154,-0.396109,-0.00199009,-0.293748,-0.426705,-0.0381403,-0.284895,-0.615579,-0.484226,0.714511,0,0,0,0,0,0,-0.334848,-0.322725,0.20855,0.641661,-0.511748,0.323037,0.098309,1
0.604352,-1.11178,-1.83491,-0.774765,2.10693,1.55128,-1.59537,0.604352,-1.11178,-1.83491,-0.774765,2.10693,1.55128,-1.59537,0.590559,-1.04996,-1.8533,-0.763437,2.1445,1.58927,-1.65279,-0.579879,-0.549955,-0.0265924,-0.129163,-0.236822,0.426269,0.334664,-0.579879,-0.549955,-0.0265924,-0.129163,-0.236822,0.426269,0.334664,-0.373885,-0.533896,0.807558,0.981843,-0.106129,-0.000120739,-0.157229,-0.42204,0.113643,-0.38126,-0.422047,0.109886,-0.380458,-0.615579,-0.484226,0.714511,0,0,0,0,0,0,0.137928,-0.618234,0.183897,-0.113283,-0.375727,-0.379938,0.574183,1
0.543882,-1.12614,-1.83327,-0.726659,2.09003,1.53883,-1.60033,0.543882,-1.12614,-1.83327,-0.726659,2.09003,1.53883,-1.60033,0.584656,-1.05633,-1.85426,-0.763744,2.13707,1.59465,-1.6503,-0.565595,-0.654432,-0.119863,0.0348254,-0.912391,0.483768,0.282546,-0.565595,-0.654432,-0.119863,0.0348254,-0.912391,0.483768,0.282546,-0.377789,-0.532877,0.803227,0.981484,-0.105954,0.00221593,-0.159556,-0.419147,0.0974244,-0.435725,-0.373133,0.083173,-0.4345,-0.615579,-0.484226,0.714511,0,0,0,0,0,0,-0.407731,-0.698138,0.209944,0.370856,-0.47045,-0.558139,0.499692,1
